unveil-humanoid-operators/unveil-humanoid-operators.github.io/feature-analysis-animation/data/feature_matrix_fixed/age_jogging_waist_rom_low.csv
Frame,root_translateX,root_translateY,root_translateZ,root_rotateX,root_rotateY,root_rotateZ,left_hip_pitch_joint_dof,left_hip_roll_joint_dof,left_hip_yaw_joint_dof,left_knee_joint_dof,left_ankle_pitch_joint_dof,left_ankle_roll_joint_dof,right_hip_pitch_joint_dof,right_hip_roll_joint_dof,right_hip_yaw_joint_dof,right_knee_joint_dof,right_ankle_pitch_joint_dof,right_ankle_roll_joint_dof,waist_yaw_joint_dof,waist_roll_joint_dof,waist_pitch_joint_dof,left_shoulder_pitch_joint_dof,left_shoulder_roll_joint_dof,left_shoulder_yaw_joint_dof,left_elbow_joint_dof,left_wrist_roll_joint_dof,left_wrist_pitch_joint_dof,left_wrist_yaw_joint_dof,right_shoulder_pitch_joint_dof,right_shoulder_roll_joint_dof,right_shoulder_yaw_joint_dof,right_elbow_joint_dof,right_wrist_roll_joint_dof,right_wrist_pitch_joint_dof,right_wrist_yaw_joint_dof
0,1.9609283208847046,-0.21731187403202057,76.75401306152344,-0.21741613625309023,3.844523768290781,174.25458379279033,-10.102286,13.5782,9.395664,27.007402,-18.775816,-6.950773,-9.519429,-4.083498,1.2558888,16.526062,-13.3686075,9.408707,-1.5779642,1.0535413,1.9122684,-3.400262,19.126503,-42.728447,57.06033,-6.9515467,11.223476,-0.088700674,-10.091582,-19.422607,46.159184,62.10352,10.297963,7.044639,8.274245
1,1.9621481895446777,-0.21640588343143463,76.74373626708984,-0.1435650333152836,3.8559893568623766,174.24044284206883,-10.092123,13.495469,9.437345,26.992569,-18.79066,-6.917708,-9.638477,-4.1694345,1.2865499,16.781643,-13.674617,9.476274,-1.5664632,0.9716753,1.905485,-3.3907998,19.137754,-42.719517,57.05385,-6.95605,11.238052,-0.068651356,-10.087881,-19.434307,46.163296,62.072647,10.28068,7.0505004,8.277406
2,1.959777593612671,-0.2140430212020874,76.73213195800781,-0.06978169854953235,3.86864733142425,174.2261963191238,-10.081307,13.412714,9.479786,26.971592,-18.800274,-6.8860645,-9.756335,-4.255622,1.3163279,17.029057,-13.971204,9.545221,-1.5542375,0.8912388,1.8955289,-3.3840861,19.140339,-42.71451,57.05334,-6.959241,11.253983,-0.044457875,-10.08783,-19.437109,46.164513,62.054855,10.259537,7.05645,8.27926
3,1.9557185173034668,-0.21295598149299622,76.71807861328125,0.003875094400737324,3.878765113895869,174.21230165948825,-10.072905,13.330571,9.519877,26.965094,-18.821316,-6.8517866,-9.878814,-4.3417053,1.3474844,17.296196,-14.287953,9.611645,-1.5512503,0.80999005,1.8916931,-3.364625,19.154589,-42.689785,57.038006,-6.959187,11.267997,-0.027908582,-10.08225,-19.451807,46.17529,62.013325,10.241293,7.063355,8.282469
4,1.9524354934692383,-0.21422725915908813,76.70027160644531,0.06592978863266016,3.880393290489145,174.2011045189303,-10.074695,13.263839,9.546382,27.005497,-18.877583,-6.813339,-9.993463,-4.414805,1.3745165,17.58075,-14.639526,9.669194,-1.5383775,0.7396121,1.8878708,-3.355435,19.157232,-42.68117,57.04763,-6.9765697,11.2743225,-0.020791944,-10.073075,-19.455114,46.18038,61.982994,10.223619,7.0660853,8.285139
5,1.946587085723877,-0.21448256075382233,76.67897033691406,0.12695000729249586,3.8734347853866233,174.19235906185628,-10.084591,13.200321,9.563606,27.090813,-18.967073,-6.7697697,-10.115783,-4.4867563,1.4018936,17.915857,-15.048224,9.721594,-1.5460854,0.6715175,1.892268,-3.3215246,19.169271,-42.633724,57.04363,-6.989395,11.271998,-0.03808482,-10.057269,-19.474379,46.22343,61.91432,10.220477,7.0716586,8.286792
6,1.9356588125228882,-0.21066716313362122,76.65869903564453,0.18350408753610564,3.859479478006456,174.18548041562659,-10.1001425,13.143263,9.572325,27.20918,-19.08216,-6.7231765,-10.238079,-4.554013,1.4276346,18.278067,-15.493281,9.769369,-1.5478313,0.607339,1.8992426,-3.2920728,19.177015,-42.591373,57.053455,-7.0122466,11.262045,-0.06904106,-10.034198,-19.492527,46.265003,61.839935,10.215612,7.07594,8.288493
7,1.9205994606018066,-0.2079286128282547,76.63282012939453,0.22587380573522547,3.839777011058024,174.18062212188306,-10.13097,13.104999,9.5671425,27.377235,-19.228506,-6.6715503,-10.34969,-4.604829,1.4496741,18.64151,-15.955944,9.806211,-1.5503482,0.55722034,1.9085306,-3.2603853,19.18094,-42.550003,57.068115,-7.045224,11.250074,-0.09909038,-10.004031,-19.508358,46.301685,61.762657,10.21342,7.076399,8.290344
8,1.9020367860794067,-0.21063515543937683,76.59990692138672,0.24242041162407846,3.815499881282727,174.17798591492843,-10.185518,13.09914,9.54177,27.609632,-19.411188,-6.613093,-10.437929,-4.6252766,1.4653245,18.977472,-16.41606,9.825433,-1.5662316,0.53601116,1.9215754,-3.2172425,19.183523,-42.50009,57.07481,-7.091312,11.240547,-0.114186406,-9.967585,-19.529451,46.333282,61.681244,10.215134,7.0706153,8.293357
9,1.8796781301498413,-0.2094378024339676,76.5671157836914,0.22839689867483895,3.7846081322994425,174.1777783355997,-10.26805,13.132245,9.492546,27.918312,-19.63129,-6.548236,-10.497266,-4.6078153,1.4767778,19.27955,-16.872131,9.819525,-1.5853176,0.5443774,1.938812,-3.1701636,19.183895,-42.462143,57.079933,-7.157684,11.233233,-0.10421638,-9.92163,-19.546803,46.34352,61.600883,10.219145,7.0522046,8.296791
10,1.855301856994629,-0.20703691244125366,76.53396606445312,0.18998354639501758,3.7471754291003196,174.17998121034506,-10.372253,13.1958885,9.42333,28.289995,-19.884686,-6.4776454,-10.534577,-4.560251,1.4845526,19.562023,-17.333458,9.793813,-1.6140217,0.5793667,1.9630673,-3.1148582,19.182833,-42.420563,57.079086,-7.2368336,11.226395,-0.079941355,-9.865171,-19.572517,46.34532,61.505474,10.226363,7.026654,8.301137
11,1.8249118328094482,-0.20696300268173218,76.49687194824219,0.13385363448951315,3.7076582526220307,174.18416432239468,-10.495122,13.281155,9.338749,28.711681,-20.173666,-6.400164,-10.556922,-4.4939,1.4836646,19.828161,-17.79608,9.761098,-1.6446385,0.63353926,1.9874178,-3.0538778,19.179289,-42.37438,57.075314,-7.3245306,11.222249,-0.053165954,-9.793547,-19.60496,46.33144,61.402927,10.228824,7.002206,8.30696
12,1.7925468683242798,-0.2105683535337448,76.45553588867188,0.06611391374387748,3.670512112804519,174.18999716623335,-10.633437,13.37906,9.243408,29.168758,-20.49981,-6.3145514,-10.571655,-4.419755,1.4688486,20.082073,-18.256592,9.734155,-1.6754351,0.7054364,2.0098987,-2.9879367,19.169277,-42.31188,57.06779,-7.413363,11.223046,-0.036926106,-9.70476,-19.659235,46.309002,61.286793,10.230735,6.9883375,8.31668
13,1.751379132270813,-0.21296127140522003,76.4117202758789,-0.010815807349102846,3.634237058407364,174.20114676688863,-10.784792,13.484791,9.134184,29.65963,-20.868925,-6.220316,-10.570738,-4.3432617,1.4334304,20.313679,-18.717165,9.721315,-1.7113988,0.78454286,2.023132,-2.909977,19.159538,-42.237915,57.057663,-7.4970355,11.23225,-0.038267225,-9.6184845,-19.690449,46.27547,61.204536,10.224617,6.9839673,8.330751
14,1.7097303867340088,-0.21559534966945648,76.36312866210938,-0.10076305627923633,3.5973991300746873,174.21657874586785,-10.951032,13.60355,9.00987,30.189983,-21.277533,-6.118115,-10.554209,-4.2573924,1.3818856,20.525822,-19.179434,9.714151,-1.758216,0.8818582,2.0360887,-2.8217924,19.143253,-42.142574,57.043674,-7.575149,11.247303,-0.05062723,-9.524425,-19.731497,46.237717,61.118713,10.217241,6.987672,8.349604
15,1.6702539920806885,-0.230977863073349,76.3118667602539,-0.20616159288905347,3.5644495498380255,174.22873559014081,-11.136718,13.741019,8.877527,30.761879,-21.716034,-6.0089865,-10.538723,-4.155449,1.3259997,20.736227,-19.635698,9.700387,-1.8039038,1.0010041,2.0452137,-2.7303576,19.115093,-42.02629,57.03137,-7.663449,11.262835,-0.060424745,-9.41512,-19.791002,46.197132,61.025345,10.209804,6.997614,8.367261
16,1.620542287826538,-0.24186964333057404,76.25701904296875,-0.32872317547375257,3.5396276219861664,174.23019923604133,-11.346586,13.902737,8.744469,31.377323,-22.174856,-5.893713,-10.543079,-4.031386,1.2780749,20.966637,-20.081057,9.667632,-1.8387946,1.1391563,2.0454447,-2.6349342,19.082918,-41.889256,57.015514,-7.780057,11.275175,-0.05508599,-9.303512,-19.8468,46.159912,60.95656,10.205029,7.0094013,8.376299
17,1.562911868095398,-0.24919836223125458,76.19969940185547,-0.4728715308525019,3.528543281799332,174.22066730248213,-11.589584,14.091823,8.606088,32.042545,-22.660812,-5.758475,-10.575575,-3.8775814,1.2407292,21.220333,-20.513985,9.60066,-1.865993,1.3035389,2.0304122,-2.5343423,19.04223,-41.720066,56.999012,-7.9388657,11.286703,-0.04650922,-9.188656,-19.907269,46.139183,60.907295,10.206467,7.0208464,8.373917
18,1.5078102350234985,-0.26570138335227966,76.14029693603516,-0.6363785159199525,3.5273382204808645,174.2035104234292,-11.859336,14.304153,8.4604225,32.751415,-23.174212,-5.6076508,-10.624875,-3.6992226,1.2078882,21.48625,-20.937098,9.509926,-1.888505,1.4904939,2.0032492,-2.427036,18.99581,-41.52413,56.979755,-8.128813,11.298897,-0.036278326,-9.069239,-19.966774,46.12538,60.876667,10.208577,7.0334973,8.363831
19,1.4496303796768188,-0.28775686025619507,76.07813262939453,-0.8112388953600705,3.526186641952386,174.1766884335251,-12.139815,14.534373,8.317886,33.49465,-23.699205,-5.4694486,-10.679112,-3.5094507,1.1787822,21.762926,-21.350786,9.421791,-1.9060559,1.6907929,1.9781127,-2.314394,18.94571,-41.308582,56.954727,-8.321003,11.304192,0.0026160923,-8.949922,-20.022871,46.107998,60.867275,10.211887,7.0523767,8.349778
20,1.3848835229873657,-0.30545878410339355,76.0143814086914,-0.9895914183845395,3.515444523360423,174.13827372390452,-12.415023,14.778128,8.189369,34.263332,-24.220453,-5.372193,-10.728176,-3.3215027,1.152207,22.052155,-21.75665,9.362706,-1.9191229,1.8973699,1.9688363,-2.1978397,18.888355,-41.07587,56.923103,-8.482012,11.29449,0.09753982,-8.831825,-20.079708,46.07675,60.875546,10.215568,7.0827274,8.336134
21,1.3116817474365234,-0.33369192481040955,75.94074249267578,-1.1741859160337034,3.493526945772269,174.08687134752304,-12.681908,15.041512,8.076727,35.057392,-24.73644,-5.3276343,-10.758944,-3.131729,1.1268594,22.332764,-22.148117,9.335795,-1.9250097,2.110893,1.9757001,-2.0749722,18.825287,-40.823982,56.88409,-8.591172,11.273085,0.2609348,-8.710935,-20.13256,46.01612,60.904007,10.2179,7.1277666,8.315689
22,1.238950252532959,-0.36815327405929565,75.8609390258789,-1.367342892175717,3.465044437405639,174.02374568701603,-12.949153,15.324895,7.974854,35.882477,-25.255709,-5.3194942,-10.779852,-2.9358664,1.1036313,22.610065,-22.527832,9.3284645,-1.924589,2.3342197,1.9921098,-1.9470422,18.756205,-40.552574,56.84017,-8.670418,11.241998,0.4765697,-8.58957,-20.18139,45.936893,60.955666,10.219814,7.1836734,8.289146
23,1.1619446277618408,-0.39764028787612915,75.77691650390625,-1.561114433230307,3.430178599508522,173.9515311978185,-13.215887,15.615092,7.884961,36.731773,-25.774904,-5.33382,-10.8134165,-2.7463214,1.0837483,22.926588,-22.90594,9.342989,-1.9194242,2.5605774,2.0218756,-1.8209531,18.682991,-40.273994,56.78964,-8.752657,11.192788,0.7284202,-8.475085,-20.227839,45.859642,61.026466,10.223828,7.2460527,8.271396
24,1.0846537351608276,-0.43692564964294434,75.68382263183594,-1.7467320897380878,3.38900349793546,173.87271549594277,-13.481705,15.898528,7.808219,37.60064,-26.291674,-5.356582,-10.877123,-2.5757542,1.0681843,23.31337,-23.291746,9.381933,-1.9098527,2.782269,2.069728,-1.703515,18.61181,-40.004322,56.727818,-8.875155,11.116665,1.0002605,-8.374374,-20.272486,45.80386,61.110996,10.23241,7.310341,8.277791
25,1.0047807693481445,-0.4823606014251709,75.58393859863281,-1.929217247851787,3.3368256745029905,173.79144419680281,-13.74635,16.17867,7.7365685,38.49244,-26.80577,-5.3939543,-10.960972,-2.4208357,1.046522,23.76362,-23.688461,9.450624,-1.9021653,3.0060816,2.1402373,-1.5963652,18.54022,-39.74349,56.653362,-9.053093,11.0089245,1.3030524,-8.279305,-20.321175,45.765068,61.199722,10.226719,7.3716955,8.31077
26,0.923493504524231,-0.5368993878364563,75.47325134277344,-2.110156808512892,3.275218911310933,173.7053052554697,-14.010167,16.460125,7.672585,39.40914,-27.31898,-5.450045,-11.061337,-2.2772074,1.0212296,24.266996,-24.091982,9.546248,-1.8918116,3.2297943,2.2304494,-1.4927719,18.477379,-39.48932,56.558716,-9.268652,10.875128,1.6396672,-8.187837,-20.368824,45.729996,61.29805,10.2088,7.4331665,8.36267
27,0.8453952074050903,-0.6035412549972534,75.35587310791016,-2.2775350048843874,3.213331151486468,173.60699835040967,-14.272904,16.73195,7.6333823,40.340576,-27.830223,-5.5082707,-11.202204,-2.1550767,1.011715,24.844072,-24.497904,9.659076,-1.8745122,3.4449668,2.334519,-1.3929994,18.413027,-39.231266,56.45537,-9.491762,10.7198105,1.9819458,-8.11647,-20.424376,45.72929,61.4073,10.226387,7.5051155,8.4344225
28,0.7649842500686646,-0.6748224496841431,75.23495483398438,-2.418686653508504,3.1606223440812964,173.48895414075707,-14.533892,16.982105,7.6365104,41.27612,-28.337744,-5.5520544,-11.410515,-2.0646224,1.0378335,25.521204,-24.90411,9.779564,-1.8388083,3.6361125,2.4453592,-1.296953,18.35297,-38.973747,56.344852,-9.702259,10.549034,2.3019817,-8.083621,-20.482935,45.78336,61.5411,10.322619,7.5962114,8.526408
29,0.6835048198699951,-0.7523356676101685,75.10852813720703,-2.5352227210333695,3.117736666164546,173.3510643723167,-14.7835,17.210436,7.69509,42.197624,-28.834885,-5.604066,-11.6867895,-2.0016518,1.1012791,26.300644,-25.311684,9.908342,-1.7882833,3.8063972,2.5614758,-1.2032326,18.29736,-38.730164,56.22332,-9.884446,10.354491,2.6064787,-8.088768,-20.543552,45.89682,61.713623,10.566073,7.708155,8.643851
30,0.5991125702857971,-0.8384867310523987,74.97101593017578,-2.6315612602593226,3.0801354318656493,173.19660055198588,-15.0242195,17.421236,7.798374,43.115025,-29.324074,-5.6645284,-12.017778,-1.962646,1.192278,27.168262,-25.720613,10.050113,-1.7259071,3.9601486,2.6863422,-1.1129656,18.24628,-38.497093,56.08979,-10.054604,10.136742,2.9054232,-8.126594,-20.605568,46.062195,61.917664,10.918603,7.8367257,8.784048
31,0.514602780342102,-0.9340916872024536,74.83040618896484,-2.699100452677395,3.050152957710806,173.02345360726375,-15.275554,17.607557,7.9270387,44.063446,-29.819532,-5.6829762,-12.408204,-1.9596338,1.3137149,28.12315,-26.125952,10.2016735,-1.6476165,4.08672,2.8206377,-1.0218059,18.198368,-38.235893,55.950096,-10.230718,9.914773,3.1756365,-8.20071,-20.668974,46.27526,62.1269,11.246685,7.982872,8.936215
32,0.4311901926994324,-1.0577096939086914,74.67543029785156,-2.7290650288427463,3.0298305772899914,172.82945531251505,-15.556599,17.763021,8.060862,45.07725,-30.334368,-5.6086173,-12.86106,-2.003829,1.4685644,29.161505,-26.521172,10.360255,-1.549903,4.1761847,2.9653382,-0.9270092,18.151644,-37.908634,55.81068,-10.432336,9.707905,3.3938272,-8.317013,-20.733526,46.537563,62.314167,11.422617,8.14668,9.089896
33,0.3424193859100342,-1.1789807081222534,74.51461029052734,-2.7136173036731894,3.0194789790812924,172.6079671340925,-15.862545,17.87404,8.211592,46.16007,-30.886793,-5.4009247,-13.388887,-2.102549,1.6624537,30.306883,-26.902483,10.528506,-1.4294945,4.221686,3.1197548,-0.82286584,18.103233,-37.49595,55.659016,-10.683385,9.53192,3.5618079,-8.478559,-20.80021,46.873672,62.483784,11.367439,8.34635,9.274022
34,0.24951763451099396,-1.3037517070770264,74.34898376464844,-2.6581546320383285,3.018341720309081,172.36210628017744,-16.185461,17.945799,8.383817,47.293358,-31.462603,-5.0954504,-13.981204,-2.2464554,1.8927121,31.545176,-27.270807,10.709345,-1.2907898,4.2302456,3.2842069,-0.71302944,18.052334,-37.018364,55.49731,-10.966681,9.373324,3.6892338,-8.680703,-20.867853,47.277527,62.64361,11.164157,8.575193,9.485004
35,0.16413944959640503,-1.4516764879226685,74.16667938232422,-2.5745964726503847,3.027111229842508,172.10457015256932,-16.541021,18.001398,8.545353,48.47784,-32.02873,-4.7554884,-14.611905,-2.4223692,2.1501434,32.825584,-27.63117,10.900464,-1.1407187,4.2111006,3.459968,-0.6081007,18.001188,-36.49916,55.355534,-11.240191,9.2066965,3.764333,-8.923915,-20.934027,47.70628,62.78233,10.931006,8.794526,9.663219
36,0.07717011868953705,-1.609846591949463,73.9807357788086,-2.475036547221584,3.046433605347167,171.84814966300377,-16.943913,18.065592,8.66403,49.714867,-32.552666,-4.443764,-15.254942,-2.617466,2.4254339,34.09717,-27.988543,11.098362,-0.98474973,4.173589,3.6486032,-0.5181065,17.954256,-35.963,55.261086,-11.462235,9.006747,3.7754521,-9.20627,-20.994968,48.11279,62.885178,10.784513,8.967232,9.74796
37,-0.007626126054674387,-1.770846962928772,73.7841567993164,-2.352858232242128,3.076153148639207,171.58942777866136,-17.396553,18.141249,8.7521105,51.02335,-33.03173,-4.167098,-15.921257,-2.836625,2.725969,35.378006,-28.344429,11.304128,-0.81760335,4.108663,3.8516092,-0.44339457,17.915466,-35.406864,55.21783,-11.621821,8.75607,3.7066674,-9.532656,-21.048464,48.503857,62.96818,10.7525,9.080871,9.7351265
38,-0.10126152634620667,-1.9433362483978271,73.58351135253906,-2.204714016778486,3.1163761489705712,171.3238819561462,-17.891754,18.219233,8.818478,52.39863,-33.484043,-3.8932362,-16.617601,-3.08225,3.054225,36.683395,-28.695969,11.520391,-0.6373236,4.0138984,4.068485,-0.3774709,17.886024,-34.822205,55.20775,-11.7433605,8.4727,3.568439,-9.902591,-21.093245,48.896824,63.032986,10.773948,9.15639,9.65251
39,-0.19267167150974274,-2.124213933944702,73.3780288696289,-2.0490070201330175,3.167676429039756,171.06296689974332,-18.428818,18.305689,8.8264,53.803413,-33.906418,-3.6268084,-17.313337,-3.3393934,3.3930156,37.961136,-29.042665,11.744424,-0.44993222,3.9079087,4.2965775,-0.32064202,17.866703,-34.23074,55.22756,-11.83714,8.184463,3.3892918,-10.304952,-21.126753,49.254147,63.047054,10.830656,9.206395,9.486263
40,-0.28506597876548767,-2.3076910972595215,73.16584014892578,-1.9044820685119301,3.2302573244301405,170.81807444301563,-19.009027,18.40574,8.739277,55.20264,-34.294205,-3.374163,-17.980267,-3.5939083,3.724773,39.163563,-29.3862,11.9722395,-0.2736989,3.8128166,4.534457,-0.26473448,17.855745,-33.637512,55.269135,-11.908335,7.919043,3.1965594,-10.736277,-21.150099,49.55458,62.977592,10.909646,9.243596,9.222752
41,-0.37751778960227966,-2.5062997341156006,72.95159912109375,-1.7740854245295479,3.301032071782697,170.58968076335586,-19.643824,18.51324,8.537464,56.61746,-34.644054,-3.1422844,-18.618258,-3.8467815,4.046269,40.293697,-29.743778,12.207987,-0.08644788,3.73119,4.78755,-0.23513387,17.85409,-33.08639,55.350044,-11.955933,7.654848,2.995091,-11.18762,-21.162954,49.757915,62.819317,11.024282,9.267731,8.828939
42,-0.47390320897102356,-2.7206382751464844,72.73471069335938,-1.6493374113211996,3.3807244736248006,170.3727127719864,-20.330528,18.62629,8.243203,58.057972,-34.958344,-2.9264612,-19.240623,-4.1042604,4.3661427,41.373276,-30.109808,12.451255,0.09385938,3.656653,5.0573387,-0.2104726,17.861324,-32.534363,55.45691,-11.970403,7.386396,2.7694125,-11.676268,-21.168451,49.912556,62.588566,11.185387,9.272572,8.322026
43,-0.5798776149749756,-2.9404587745666504,72.52313232421875,-1.5309660033453296,3.475362326581142,170.16973648402774,-21.044802,18.754868,7.8857193,59.46296,-35.244244,-2.717222,-19.842491,-4.3616085,4.68572,42.387367,-30.453503,12.69006,0.26442286,3.5825639,5.325144,-0.17067836,17.878407,-31.959621,55.576942,-11.974002,7.166357,2.5242481,-12.18836,-21.163797,50.024277,62.283516,11.337902,9.261024,7.7631993
44,-0.6935229301452637,-3.16347074508667,72.32074737548828,-1.4201171223044189,3.5908860968478242,169.98355107180316,-21.763329,18.909288,7.493131,60.772137,-35.509514,-2.5049746,-20.419342,-4.6146536,5.0066442,43.320114,-30.74331,12.912067,0.4606804,3.4998665,5.5644965,-0.13285401,17.89434,-31.39234,55.73268,-12.000324,7.045886,2.2697902,-12.686169,-21.151445,50.057907,61.898293,11.422159,9.236043,7.2142215
45,-0.8202874064445496,-3.3929495811462402,72.13228607177734,-1.3237834951573184,3.729539810229009,169.8162901829543,-22.49368,19.113209,7.072168,61.996155,-35.75864,-2.2795932,-20.979176,-4.854252,5.3286147,44.179882,-30.974077,13.108315,0.62149984,3.4203794,5.7858224,-0.045468155,17.91622,-30.753237,55.891087,-12.011903,7.037073,2.0021348,-13.214538,-21.120516,50.064148,61.43356,11.435787,9.205523,6.6681094
46,-0.9508419632911682,-3.637864828109741,71.9510726928711,-1.2395482419757153,3.887561992621791,169.6657369006671,-23.245462,19.353247,6.6069984,63.158237,-35.986248,-2.0493584,-21.523233,-5.0860014,5.6525254,44.972637,-31.161589,13.285558,0.793266,3.3406086,5.988162,0.042850956,17.936764,-30.11535,56.091156,-12.022936,7.1115584,1.7242354,-13.748004,-21.074686,49.991074,60.890587,11.394921,9.165513,6.0998416
47,-1.0981882810592651,-3.8883588314056396,71.78755950927734,-1.1540315568501038,4.06228134483635,169.5291309299448,-23.996677,19.582674,6.0916605,64.21477,-36.183834,-1.8312407,-22.036697,-5.3286,5.981275,45.679436,-31.304989,13.455509,0.9680825,3.2455158,6.16554,0.15569383,17.956085,-29.44787,56.29856,-12.060047,7.2662435,1.4285178,-14.287687,-21.015944,49.895367,60.302773,11.321401,9.10501,5.5424776
48,-1.2760236263275146,-4.1475324630737305,71.64310455322266,-1.0535293212640073,4.250490593183849,169.40310645167335,-24.723883,19.757092,5.52388,65.12334,-36.343624,-1.6439587,-22.506424,-5.60016,6.319486,46.283234,-31.404522,13.628767,1.1460483,3.1180387,6.3100467,0.30957678,17.975733,-28.732231,56.482716,-12.154476,7.4984636,1.108423,-14.830778,-20.946634,49.825806,59.703323,11.236415,9.012722,5.0294642
49,-1.466596007347107,-4.409030914306641,71.518798828125,-0.9272328759782075,4.453076284997499,169.2820742411917,-25.424929,19.872116,4.9090896,65.88415,-36.462204,-1.4919634,-22.955261,-5.9032454,6.686142,46.81937,-31.464884,13.782255,1.331331,2.9419696,6.4253206,0.5169193,17.99598,-27.95091,56.623917,-12.2680645,7.8399887,0.7776354,-15.388748,-20.866108,49.80354,59.090908,11.13515,8.882086,4.562348
50,-1.6624754667282104,-4.690309524536133,71.41732025146484,-0.7844963757302666,4.6709910667292736,169.16941073344228,-26.110159,19.949034,4.24923,66.51732,-36.544216,-1.3667392,-23.383749,-6.2288303,7.0751605,47.28507,-31.48432,13.916884,1.5179145,2.7296116,6.514128,0.7700059,18.016712,-27.112595,56.73868,-12.396785,8.281937,0.4344691,-15.9632,-20.773392,49.805573,58.45363,11.0111065,8.720919,4.1255608
51,-1.8632498979568481,-5.000071048736572,71.33348083496094,-0.6432433568873027,4.901750050300344,169.07624392317427,-26.774574,19.977545,3.5342126,67.00825,-36.593037,-1.2643273,-23.74301,-6.5808573,7.4488244,47.601555,-31.451769,14.0823345,1.6955305,2.5080535,6.569382,1.050765,18.039759,-26.243906,56.851887,-12.626044,8.762053,0.050543692,-16.530094,-20.670622,49.809032,57.799995,10.881814,8.538278,3.7266839
52,-2.083101749420166,-5.312055587768555,71.27503967285156,-0.5207983472808151,5.1428016800436,169.0134394851375,-27.411974,19.947641,2.7549756,67.34107,-36.61126,-1.1813301,-23.983,-6.9636207,7.768779,47.688824,-31.355385,14.327689,1.8539944,2.3040419,6.5840683,1.3430525,18.067604,-25.370737,56.98618,-13.040862,9.219591,-0.4017322,-17.063972,-20.563122,49.79002,57.135826,10.763326,8.343844,3.373262
53,-2.324594020843506,-5.645901679992676,71.25272369384766,-0.42220526547746745,5.393789854058742,168.98499973785798,-28.026052,19.870878,1.9005004,67.516655,-36.61001,-1.1047896,-24.096834,-7.3773875,8.029591,47.54192,-31.20825,14.67281,1.991589,2.123597,6.5601034,1.6445707,18.10171,-24.45121,57.13447,-13.792306,9.711492,-1.0013931,-17.566177,-20.457026,49.74605,56.448597,10.654455,8.133736,3.0694976
54,-2.597064256668091,-5.982738494873047,71.26716613769531,-0.3824107054011286,5.654920349467485,168.97503477061738,-28.628534,19.79799,0.94627845,67.55434,-36.590446,-1.0553014,-24.090385,-7.7553005,8.230369,47.167423,-30.99162,15.000033,2.1230097,1.9955728,6.5010324,1.9652444,18.141264,-23.487238,57.28386,-14.790528,10.254765,-1.7051914,-18.041822,-20.35498,49.685455,55.728317,10.546771,7.9053836,2.8107684
55,-2.8851711750030518,-6.332390785217285,71.31665802001953,-0.39910170798318534,5.925466687653782,168.97865783114042,-29.205662,19.707718,-0.08888236,67.45002,-36.53287,-1.0621338,-23.959543,-8.054995,8.3784895,46.562454,-30.681368,15.000033,2.2508245,1.9144979,6.400765,2.3018804,18.185009,-22.577713,57.454906,-15.767209,10.72237,-2.3612902,-18.477955,-20.259438,49.60751,54.995228,10.453605,7.6688504,2.592228
56,-3.173056125640869,-6.686747074127197,71.39988708496094,-0.42682820804347926,6.20537868499053,169.0000224904792,-29.729668,19.528463,-1.1487563,67.19131,-36.415558,-1.1350176,-23.721632,-8.382463,8.481026,45.736557,-30.265284,15.000033,2.3747146,1.8409169,6.253023,2.647314,18.23102,-21.827002,57.671616,-16.458212,10.976615,-2.8244126,-18.851173,-20.17237,49.49624,54.263935,10.376287,7.434604,2.4091053
57,-3.461737632751465,-7.055422782897949,71.51216888427734,-0.4675220530691649,6.510327150667516,169.03343532463168,-30.210995,19.268274,-2.229333,66.758354,-36.240673,-1.2799169,-23.389894,-8.732457,8.544363,44.67415,-29.740364,15.000033,2.5068438,1.777758,6.039244,2.9943595,18.28108,-21.271706,57.96713,-16.826056,10.898327,-3.0726848,-19.164324,-20.098269,49.36179,53.511803,10.31194,7.207719,2.2674024
58,-3.784576416015625,-7.462521553039551,71.65373992919922,-0.5238861265550876,6.835391902972935,169.08226267605602,-30.64634,18.940144,-3.3425722,66.15922,-36.017937,-1.4823323,-22.95713,-9.101954,8.568324,43.381836,-29.118364,15.000033,2.6449761,1.7273833,5.7682447,3.3429067,18.335196,-20.8604,58.324013,-17.005627,10.581912,-3.1821623,-19.420332,-20.04096,49.20126,52.733616,10.258882,6.982245,2.1676884
59,-4.145040512084961,-7.894850730895996,71.82543182373047,-0.5884441139675121,7.149385754055521,169.15695921460414,-31.00133,18.524622,-4.488668,65.43621,-35.741978,-1.7349045,-22.39129,-9.505841,8.540443,41.881134,-28.393044,15.000033,2.7826376,1.6911112,5.4690638,3.6746342,18.370798,-20.5792,58.718216,-16.992146,10.201643,-3.1516283,-19.591997,-20.01186,48.98329,51.96748,10.231796,6.7523913,2.0966096
60,-4.52175760269165,-8.340776443481445,72.02481842041016,-0.6533810392659274,7.421636622440648,169.2678312560589,-31.2402,18.00318,-5.667055,64.62999,-35.406467,-2.030757,-21.662798,-9.957524,8.445818,40.195507,-27.558317,15.000033,2.8857393,1.6526865,5.182711,4.021161,18.40529,-20.368145,59.064037,-16.772326,9.9399805,-2.990094,-19.682629,-19.988186,48.69361,51.271996,10.241096,6.509964,2.0421388
61,-4.915624141693115,-8.809776306152344,72.24716186523438,-0.7250668267754693,7.647588419853255,169.42957813181502,-31.35291,17.344284,-6.9373856,63.707836,-34.98967,-2.3846009,-20.730944,-10.4544,8.263808,38.265743,-26.59709,15.000033,2.948481,1.6241232,4.907321,4.3678703,18.427141,-20.284567,59.377823,-16.218628,9.821787,-2.6290417,-19.68061,-19.969461,48.31298,50.647087,10.328551,6.228808,2.009997
62,-5.327830791473389,-9.299325942993164,72.489501953125,-0.8038622156996764,7.842627666710737,169.6326888370698,-31.350054,16.574312,-8.283392,62.664436,-34.50713,-2.7916257,-19.616783,-10.984539,8.002209,36.092842,-25.51145,15.000033,3.0089617,1.6003269,4.624134,4.6860995,18.444618,-20.360687,59.704094,-15.384948,9.7644,-2.0857038,-19.581957,-19.952162,47.82087,50.07591,10.463093,5.9203954,2.008007
63,-5.75511360168457,-9.798995018005371,72.74439239501953,-0.8753713461385195,8.005509936891045,169.85120042600693,-31.235088,15.762276,-9.591882,61.58391,-34.007004,-3.2187583,-18.387968,-11.548973,7.689279,33.79778,-24.330803,15.000033,3.0405114,1.5797172,4.3419027,5.0179696,18.443228,-20.440496,60.00574,-14.5170145,9.778819,-1.4948425,-19.426748,-19.942104,47.314316,49.585205,10.594246,5.6351275,2.0107613
64,-6.194472312927246,-10.309698104858398,73.00482940673828,-0.924843679929256,8.135008403087479,170.05912245599072,-31.019648,14.971381,-10.748426,60.549393,-33.533577,-3.6342607,-17.11128,-12.14957,7.346109,31.49374,-23.07283,15.000033,3.1194494,1.5347391,4.0595446,5.3142614,18.433506,-20.49821,60.309776,-13.894712,9.868313,-0.9828556,-19.192085,-19.937504,46.741295,49.198456,10.621056,5.42192,2.0071576
65,-6.649237632751465,-10.84006118774414,73.26183319091797,-0.9483907416367404,8.22542153487361,170.259276901109,-30.686583,14.214571,-11.734203,59.526367,-33.146,-4.062632,-15.717123,-12.80153,6.925326,29.059864,-21.717176,15.000033,3.2015238,1.4625229,3.7806418,5.6227365,18.41637,-20.473818,60.589928,-13.555384,10.063082,-0.5575868,-18.889633,-19.933372,46.145718,48.920414,10.541675,5.3039017,1.9928421
66,-7.118152618408203,-11.390491485595703,73.5052490234375,-0.9534296861110252,8.279369092825078,170.46193178975378,-30.244762,13.459345,-12.608355,58.488964,-32.803177,-4.509766,-14.194807,-13.486558,6.4217405,26.476332,-20.254276,15.000033,3.2921739,1.3688525,3.5019174,5.9282775,18.392164,-20.427889,60.858246,-13.370606,10.347715,-0.15845382,-18.516558,-19.925377,45.502724,48.74374,10.391466,5.251155,1.9775507
67,-7.595247745513916,-11.952040672302246,73.7351303100586,-0.9444817410274874,8.308002600528498,170.6525882980191,-29.750479,12.697859,-13.372424,57.533775,-32.395836,-4.920866,-12.713954,-14.167524,5.931324,24.032578,-18.737383,15.000033,3.3765092,1.2669384,3.2355337,6.256116,18.364054,-20.303167,61.056984,-13.321957,10.656094,0.17176636,-18.120687,-19.915554,44.877785,48.66605,10.194681,5.2339244,1.9478207
68,-8.078655242919922,-12.534425735473633,73.95135498046875,-0.9274424896739806,8.322564989868388,170.81705850404342,-29.259972,11.920749,-14.028324,56.75824,-31.81495,-5.243907,-11.455593,-14.820628,5.558502,22.037186,-17.230352,15.000033,3.4733818,1.168675,2.9876044,6.593754,18.331848,-20.088373,61.162292,-13.400452,10.921011,0.3953851,-17.725782,-19.911852,44.291187,48.68385,9.958964,5.2228107,1.8944852
69,-8.560907363891602,-13.133849143981934,74.15601348876953,-0.901032276660884,8.318868456706833,170.94743239310182,-28.790014,11.106375,-14.588557,56.22673,-31.00709,-5.4253483,-10.43409,-15.460021,5.330364,20.523502,-15.709934,15.000033,3.5953286,1.0686158,2.7576132,6.9506373,18.296646,-19.749624,61.143147,-13.687467,11.165934,0.50065696,-17.32396,-19.916306,43.740692,48.801815,9.642132,5.230251,1.8157837
70,-9.041168212890625,-13.763557434082031,74.33897399902344,-0.8662992858673833,8.292531218187605,171.05298725471684,-28.31636,10.26304,-15.049266,55.875183,-30.03543,-5.5131416,-9.57806,-16.102806,5.197008,19.364529,-14.169422,15.000033,3.749497,0.96668464,2.5514958,7.2912436,18.23962,-19.305443,61.052006,-14.139256,11.410041,0.5121563,-16.88372,-19.943672,43.166573,48.993507,9.226146,5.268877,1.7294315
71,-9.51661205291748,-14.421239852905273,74.49851989746094,-0.8347934558617472,8.256434429146585,171.14531559861166,-27.833662,9.427687,-15.389813,55.60519,-28.964495,-5.6075134,-8.957401,-16.73808,5.155091,18.660984,-12.707732,15.000033,3.885222,0.89448607,2.359899,7.641973,18.169502,-18.818348,60.904133,-14.616515,11.586576,0.44075274,-16.444891,-19.998985,42.666897,49.25534,8.851315,5.301241,1.6152915
72,-9.974808692932129,-15.098583221435547,74.6311264038086,-0.8170797448803997,8.222805848425157,171.2357598729917,-27.336315,8.635608,-15.5922575,55.322025,-27.862778,-5.8053527,-8.6304655,-17.358696,5.2038083,18.495794,-11.419209,15.000033,3.9879708,0.87062687,2.1855986,7.981604,18.090631,-18.35989,60.747803,-14.955848,11.627391,0.29520518,-16.024986,-20.08488,42.250847,49.569973,8.609861,5.292215,1.4726815
73,-10.428293228149414,-15.803297996520996,74.7342300415039,-0.8052530020317726,8.198762014003794,171.33189866664708,-26.81834,7.8643093,-15.648041,54.984756,-26.510246,-6.2382746,-8.586093,-17.963995,5.416425,18.826763,-10.300238,15.000033,4.060612,0.8925099,2.0198915,8.317071,17.998863,-17.917257,60.582203,-15.118514,11.467447,0.030705897,-15.62489,-20.213745,41.94297,49.93894,8.545214,5.224374,1.2836114
74,-10.88746452331543,-16.546878814697266,74.8024673461914,-0.7930738351659028,8.175972656937452,171.42582187001113,-26.284946,7.0933166,-15.572395,54.646816,-24.95097,-6.818595,-8.785811,-18.563261,5.771134,19.602077,-9.298387,15.000033,4.1162667,0.94820106,1.867151,8.648139,17.891773,-17.46661,60.39123,-15.187908,11.158699,-0.34276816,-15.223193,-20.390749,41.71536,50.354336,8.5948925,5.1198206,1.0569916
75,-11.325210571289062,-17.30013084411621,74.83207702636719,-0.7888005596966875,8.14397141833106,171.5052189375271,-25.747889,6.364335,-15.371664,54.35563,-23.642561,-7.3072476,-9.245675,-19.163803,6.1250153,20.877342,-8.422523,15.000033,4.151589,1.0413848,1.7464423,8.943463,17.774206,-17.06785,60.204884,-15.191467,10.806468,-0.73297006,-14.815395,-20.612326,41.52196,50.794643,8.709407,5.0018687,0.8289584
76,-11.757396697998047,-18.069944381713867,74.81159210205078,-0.7967223400263111,8.092481805802148,171.55833354786714,-25.217558,5.725109,-15.036415,54.152023,-23.04246,-7.461725,-9.988798,-19.786057,6.344163,22.710297,-7.68059,15.000033,4.1646914,1.1693964,1.676165,9.173471,17.655592,-16.78155,60.04973,-15.154049,10.51699,-1.0480769,-14.395224,-20.869318,41.310394,51.24151,8.833511,4.893989,0.6353971
77,-12.171443939208984,-18.846879959106445,74.75379180908203,-0.858904842021397,8.019116120352953,171.5658841154678,-24.69023,5.270841,-14.5207815,54.04373,-23.422829,-7.1674304,-10.959229,-20.39544,6.3697157,24.990541,-7.026592,15.000033,4.1654077,1.3712825,1.662399,9.334066,17.542362,-16.633226,59.934803,-15.073401,10.297884,-1.2874085,-13.975823,-21.156685,41.087524,51.706146,8.96456,4.7961383,0.49381608
78,-12.576254844665527,-19.638973236083984,74.65849304199219,-0.9492785607508987,7.929863019161387,171.53983885326068,-24.159338,4.934469,-13.836845,54.0065,-24.488995,-6.5689306,-12.159148,-21.025501,6.2919664,27.696865,-6.4568515,15.000033,4.1529727,1.6211851,1.6949484,9.442071,17.436605,-16.589348,59.841167,-14.940546,10.099759,-1.4924749,-13.555223,-21.473896,40.869358,52.196648,9.126227,4.697448,0.38273096
79,-12.986299514770508,-20.45674705505371,74.5174560546875,-0.9580086610691331,7.823509596634239,171.52045614908013,-23.624477,4.5091558,-13.058574,54.025333,-25.840303,-5.8085895,-13.695316,-21.819105,6.250806,31.012667,-6.0375,15.000033,4.103843,1.8072697,1.7734548,9.4979515,17.34365,-16.621365,59.752274,-14.769788,9.943681,-1.6365435,-13.103327,-21.814425,40.61624,52.687378,9.302882,4.6056967,0.2790484
80,-13.403499603271484,-21.29574203491211,74.3313980102539,-0.7676720205359854,7.6924969879047636,171.55694552728178,-23.081995,3.7839053,-12.25951,54.07678,-27.069523,-5.0222564,-15.635723,-22.899837,6.440748,35.061,-5.8225627,15.000033,3.9880478,1.8091514,1.904047,9.501992,17.272665,-16.703886,59.65144,-14.5772295,9.851321,-1.6936165,-12.590888,-22.167618,40.28831,53.154457,9.481369,4.5287647,0.15983394
81,-13.821722984313965,-22.170814514160156,74.0989761352539,-0.2808220753876203,7.508400660925293,171.68526187818304,-22.489927,2.62016,-11.410872,54.12046,-28.087978,-4.1782913,-18.133974,-24.402235,7.065063,40.164616,-5.7688174,15.000033,3.7642195,1.5451629,2.112788,9.47222,17.222408,-16.842308,59.53114,-14.347688,9.829098,-1.6372777,-12.017697,-22.527437,39.870613,53.61386,9.648702,4.4615736,0.018718716
82,-14.236648559570312,-23.07585906982422,73.8189926147461,0.4465333309962835,7.259359530213646,171.90921151991625,-21.839123,1.1048282,-10.526038,54.149582,-29.085348,-3.2193117,-21.031948,-26.144602,8.228473,46.01687,-5.838084,15.000033,3.422459,1.0688237,2.4067788,9.405941,17.194134,-17.044893,59.398346,-14.079106,9.866612,-1.4894178,-11.398891,-22.890617,39.386616,54.077324,9.815105,4.4020495,-0.13200484
83,-14.632783889770508,-23.940109252929688,73.50096893310547,0.9409396611572985,7.013180129973304,172.10015202690005,-21.283665,-0.1805681,-9.856944,54.35495,-30.193296,-2.3472292,-23.974577,-27.504261,9.219957,51.827473,-6.052081,13.29362,3.1002836,0.7846801,2.7001972,9.277443,17.199879,-17.29157,59.251396,-13.809855,9.9614,-1.2964833,-10.730238,-23.251728,38.85332,54.522438,9.99634,4.3602014,-0.28731227
84,-15.007092475891113,-24.73806381225586,73.15396118164062,1.0329380090309825,6.835075704091678,172.18667041908463,-20.922022,-0.9971393,-9.462419,54.828827,-31.461899,-1.6655107,-26.684893,-28.349312,9.618054,57.003616,-6.5608644,10.054874,2.885613,0.8214711,2.936797,9.062112,17.26054,-17.561123,59.083996,-13.577792,10.111429,-1.1075163,-10.0065,-23.600243,38.284294,54.921234,10.20964,4.346829,-0.44227433
85,-15.359918594360352,-25.50084686279297,72.75686645507812,1.2391540315279608,6.671503291250752,172.32214076639826,-20.631533,-1.974747,-9.170742,55.363026,-32.75815,-1.0661975,-29.11579,-29.077412,10.318377,61.63841,-7.6071887,7.863074,2.6364148,0.69348097,3.193072,8.754056,17.399958,-17.83879,58.878933,-13.359906,10.350421,-0.9612054,-9.231868,-23.922323,37.664913,55.272892,10.493441,4.3606815,-0.60237145
86,-15.712154388427734,-26.21690559387207,72.32661437988281,1.5236695739402888,6.515849551074252,172.49180811108604,-20.40412,-3.0714824,-8.963386,55.972237,-34.089172,-0.5186079,-31.45341,-29.686575,11.257425,66.095474,-9.094509,6.2446074,2.3579674,0.43970188,3.4684088,8.379135,17.62136,-18.138536,58.625477,-13.151443,10.670814,-0.8285884,-8.412948,-24.209967,36.99327,55.598663,10.82762,4.395408,-0.76819545
87,-16.055801391601562,-26.919872283935547,71.87752532958984,1.8476767104190581,6.390984034872347,172.6947657407502,-20.24279,-4.2106156,-8.769017,56.61938,-35.384445,0.044270154,-33.7384,-30.140728,12.280027,70.34556,-10.747679,4.945938,2.0539317,0.09892766,3.737789,7.95169,17.922863,-18.478142,58.33712,-13.011077,11.008173,-0.65905654,-7.546406,-24.45552,36.299145,55.89368,11.141675,4.4606843,-0.92747974
88,-16.38643455505371,-27.618032455444336,71.42224884033203,2.175195173571723,6.318760429921743,172.93204800967385,-20.148855,-5.3205795,-8.515295,57.26214,-36.569366,0.69105834,-35.997543,-30.423378,13.215302,74.33065,-12.284524,3.6991777,1.7237104,-0.2909232,3.977081,7.484268,18.298908,-18.874401,58.02965,-12.997934,11.29671,-0.40031564,-6.6350064,-24.651817,35.62007,56.15847,11.370478,4.5662184,-1.0680027
89,-16.72003936767578,-28.27202606201172,70.97887420654297,2.552017550718595,6.3175437159256775,173.2173255519121,-20.161297,-6.4413753,-8.13714,57.913,-37.632565,1.4782887,-38.29774,-30.565094,14.101447,78.115105,-13.650129,2.450545,1.3542935,-0.7839976,4.172713,6.9492307,18.760618,-19.362331,57.703026,-13.188287,11.534668,-0.017164467,-5.684963,-24.7903,34.953587,56.39356,11.490038,4.7215343,-1.1838598
90,-17.071176528930664,-28.885034561157227,70.56480407714844,2.978863529668764,6.370358192236429,173.54582185294666,-20.27115,-7.590836,-7.6833043,58.58541,-38.611954,2.3559425,-40.584507,-30.55412,14.961559,81.71708,-14.976104,1.3548926,0.9483147,-1.3818033,4.334343,6.3493876,19.308374,-19.928995,57.346012,-13.533877,11.750102,0.4556105,-4.700447,-24.865139,34.28732,56.60984,11.536149,4.9184966,-1.2821687
91,-17.407121658325195,-29.46394920349121,70.1784896850586,3.3529330693443637,6.446580482197147,173.89218980133907,-20.405815,-8.666874,-7.253261,59.238987,-39.500374,3.2383273,-42.69526,-30.340696,15.594479,84.98804,-16.258095,0.44365814,0.51977843,-1.962942,4.4757867,5.7435784,19.908714,-20.50914,56.965164,-13.901167,11.92119,0.9680168,-3.6904457,-24.877872,33.653904,56.832043,11.53373,5.1412363,-1.3709557
92,-17.745397567749023,-30.02442169189453,69.8440933227539,3.5713794252209903,6.516784180394047,174.2310332592466,-20.487675,-9.567931,-6.9470363,59.833984,-40.290356,4.037423,-44.47338,-29.89848,15.805559,87.76534,-17.492542,-0.25736624,0.07788565,-2.3974555,4.6122956,5.1873994,20.510677,-21.026539,56.582527,-14.149385,12.026559,1.4736423,-2.6668568,-24.835178,33.092598,57.086647,11.505963,5.3745804,-1.4595693
93,-18.099889755249023,-30.566566467285156,69.5634536743164,3.5898557928370094,6.588576874124542,174.57217318944532,-20.538568,-10.255577,-6.803589,60.421646,-40.992958,4.72926,-45.899635,-29.22515,15.508407,90.032104,-18.705008,-0.7474642,-0.4000645,-2.6220953,4.745081,4.6728387,21.08783,-21.463345,56.243034,-14.239476,12.014524,1.9802128,-1.6302404,-24.742296,32.60067,57.374836,11.446068,5.6206117,-1.5842458
94,-18.4818172454834,-31.106069564819336,69.33547973632812,3.469818474903498,6.673651146697272,174.92450244483513,-20.579672,-10.786906,-6.7613077,61.001934,-41.60474,5.3605056,-47.057507,-28.366417,14.809053,91.86048,-19.881227,-1.0423275,-0.9173025,-2.7030108,4.8657703,4.1609526,21.638416,-21.854683,55.95648,-14.237897,11.909019,2.512074,-0.5873333,-24.604053,32.176975,57.69815,11.349956,5.886016,-1.7302343
95,-18.907533645629883,-31.622610092163086,69.1597900390625,3.2661686687172202,6.748194910079155,175.26128721788797,-20.531818,-11.20493,-6.771257,61.46444,-42.107296,5.9506598,-47.957924,-27.360699,13.812105,93.22095,-20.952219,-1.1444701,-1.4352851,-2.70142,4.9795146,3.6663787,22.146917,-22.194479,55.6913,-14.158,11.803645,3.0483646,0.45239398,-24.426855,31.85483,58.07064,11.235339,6.1634374,-1.8308144
96,-19.351598739624023,-32.13321304321289,69.0414810180664,3.03475325036327,6.787727612772031,175.5556390658384,-20.317999,-11.553758,-6.784727,61.6999,-42.47992,6.5202065,-48.61731,-26.238768,12.627221,94.083206,-21.84909,-1.0559447,-1.9188331,-2.6770656,5.088576,3.1979723,22.591429,-22.476273,55.426235,-14.016717,11.790301,3.5695784,1.4702657,-24.218103,31.67931,58.513763,11.12762,6.44507,-1.8200938
97,-19.82251739501953,-32.6397705078125,68.98897552490234,2.7636817935801417,6.761209885515756,175.80271694807192,-19.889881,-11.807972,-6.8006372,61.694637,-42.72851,7.0624766,-49.001186,-24.952988,11.246169,94.40069,-22.54311,-0.7258526,-2.3546615,-2.6146595,5.217114,2.7382207,22.954046,-22.69062,55.1921,-13.763086,11.904693,4.092015,2.4865456,-23.981335,31.661865,59.042152,11.035382,6.715906,-1.7333679
98,-20.304567337036133,-33.12197494506836,69.00119018554688,2.4320090492996345,6.689021089522386,176.01831533222352,-19.29546,-11.956842,-6.8403254,61.50207,-42.857224,7.5743155,-49.149853,-23.502003,9.646065,94.18663,-23.06726,-0.17730002,-2.765854,-2.4873023,5.3549123,2.276449,23.232729,-22.842869,55.014046,-13.404237,12.093032,4.6215014,3.5022082,-23.720856,31.783794,59.644943,10.94664,6.984738,-1.5894874
99,-20.795108795166016,-33.60404968261719,69.06627655029297,2.0820371840765604,6.623057915503527,176.20519049635217,-18.6043,-12.062314,-6.8906302,61.112793,-42.84939,8.078697,-49.18287,-21.989779,7.9167233,93.5027,-23.446898,0.48517546,-3.1697757,-2.3372102,5.4526496,1.8383358,23.432957,-22.944563,54.854774,-13.040302,12.312754,5.1219645,4.4799776,-23.44691,32.033806,60.297577,10.845471,7.278882,-1.2970732
100,-21.30650520324707,-34.08100891113281,69.18829345703125,1.7555391703686498,6.6155300410947175,176.36525802065947,-17.887236,-12.184168,-6.9405627,60.51943,-42.6915,8.596656,-49.20092,-20.519314,6.134025,92.41758,-23.707308,1.157819,-3.5816453,-2.205896,5.4608192,1.4529418,23.56496,-23.00716,54.66932,-12.771739,12.520045,5.5579796,5.3819027,-23.174498,32.402252,60.973484,10.719449,7.625375,-0.76372695
101,-21.832958221435547,-34.54939270019531,69.36541748046875,1.4598000807761746,6.680418437928135,176.4991039631582,-17.146343,-12.330569,-6.995862,59.69374,-42.403442,9.114447,-49.223495,-19.094635,4.279504,90.89308,-23.8574,1.8269507,-3.999584,-2.1049747,5.368203,1.1240807,23.63116,-23.00158,54.442753,-12.607564,12.740716,5.9327154,6.210634,-22.913563,32.917236,61.661198,10.597023,8.037491,0.09215867
102,-22.38838768005371,-35.02792739868164,69.5937728881836,1.1749803472606322,6.7896278003694475,176.6055060470889,-16.349648,-12.469349,-7.060107,58.650898,-41.9893,9.627165,-49.197807,-17.668583,2.3386872,88.901115,-23.883976,2.5438788,-4.4172153,-2.0101647,5.2028513,0.84177226,23.631392,-22.929369,54.191856,-12.500148,12.984849,6.2599783,6.9901533,-22.668556,33.572205,62.364407,10.472815,8.498318,1.2050701
103,-22.960208892822266,-35.50798797607422,69.87297821044922,0.9024184447359447,6.932723169619355,176.68223784437967,-15.515948,-12.5978,-7.1164885,57.445377,-41.40862,10.163383,-49.094822,-16.25866,0.3792711,86.523186,-23.781507,3.307904,-4.8364167,-1.9071462,4.9760838,0.61343217,23.574165,-22.853552,53.914696,-12.466864,13.184111,6.520311,7.7265096,-22.443787,34.29013,63.062313,10.275211,8.989294,2.4493456
104,-23.556917190551758,-36.005706787109375,70.19602966308594,0.6427965289189645,7.099116041941065,176.7270372158056,-14.663326,-12.713678,-7.1456003,56.1308,-40.624443,10.750222,-48.881294,-14.882041,-1.5358503,83.84138,-23.544308,4.117511,-5.2533126,-1.7829624,4.7012286,0.44367686,23.473335,-22.844833,53.6062,-12.528542,13.270938,6.6942067,8.429145,-22.243544,34.988564,63.734165,9.935718,9.485932,3.7012472
105,-24.181995391845703,-36.503150939941406,70.56412506103516,0.39945906474908216,7.30407584330411,176.73560739028497,-13.782361,-12.818821,-7.140018,54.660458,-39.63974,11.435209,-48.55616,-13.542151,-3.4246016,80.80882,-23.145449,4.968747,-5.660021,-1.6391305,4.3679986,0.3390024,23.334879,-22.915249,53.252758,-12.789861,13.225643,6.7745748,9.113335,-22.067616,35.65841,64.366936,9.385753,9.99807,5.00542
106,-24.84893798828125,-36.99836349487305,70.96406555175781,0.17157450109575853,7.546747484786023,176.7095842362591,-12.864652,-12.915893,-7.098562,53.024715,-38.482018,12.183673,-48.11799,-12.214592,-5.306195,77.39102,-22.59279,5.8675823,-6.0536575,-1.4828429,3.9768407,0.29574648,23.15916,-23.035769,52.853092,-13.210407,13.085974,6.771421,9.7783,-21.916502,36.33037,64.96567,8.674699,10.522711,6.407566
107,-25.53667449951172,-37.49137496948242,71.3990478515625,-0.04605985966805262,7.792174067668713,176.65654495718812,-11.93672,-13.006673,-7.011097,51.341343,-37.136227,12.902745,-47.536053,-10.870201,-7.120899,73.686615,-21.933115,6.820839,-6.438874,-1.310249,3.5588658,0.3105233,22.952538,-23.211653,52.412853,-13.5929575,12.870299,6.689678,10.421518,-21.793474,36.97409,65.51164,7.907738,11.027156,7.78392
108,-26.252111434936523,-37.9939079284668,71.8587875366211,-0.2578686637866742,8.005420094776769,176.58433433317515,-11.022249,-13.090189,-6.8743787,49.719166,-35.580357,13.505095,-46.78767,-9.488673,-8.803286,69.7942,-21.213936,7.82765,-6.81627,-1.1194003,3.146999,0.38025197,22.724134,-23.451185,51.934486,-13.740603,12.596691,6.5354047,11.0430565,-21.70417,37.554752,65.9819,7.194787,11.487681,9.007338
109,-26.994535446166992,-38.502647399902344,72.34065246582031,-0.46374533773779236,8.180681014328382,176.48203214374846,-10.092129,-13.163085,-6.6944737,48.11146,-33.77575,13.984775,-45.83786,-8.014213,-10.302895,65.59673,-20.427639,8.965116,-7.188532,-0.9094708,2.7404618,0.53488714,22.479229,-23.777584,51.360615,-13.583927,12.309174,6.3195047,11.644558,-21.652985,38.09008,66.35986,6.533656,11.938158,10.029347
110,-27.759031295776367,-39.01343536376953,72.83647918701172,-0.6540857615960372,8.33308336210963,176.35276945662625,-9.14204,-13.240815,-6.4691734,46.484325,-31.742435,14.390325,-44.700436,-6.4833536,-11.642493,61.06483,-19.552723,10.188186,-7.5548844,-0.69014174,2.3285823,0.77360183,22.21928,-24.178204,50.69777,-13.2367935,11.984095,6.037155,12.229848,-21.64071,38.58563,66.651,5.8792453,12.38312,10.922076
111,-28.531524658203125,-39.53348922729492,73.34205627441406,-0.8238542330191759,8.460020837699668,176.22509391639642,-8.238252,-13.339778,-6.193377,44.968224,-29.542892,14.721082,-43.42579,-5.009395,-12.879377,56.432293,-18.611633,11.322712,-7.911073,-0.47180083,1.930141,1.0448451,21.948093,-24.610529,50.045864,-12.780069,11.536735,5.6723905,12.802084,-21.666996,38.986885,66.86212,5.279109,12.761493,11.736485
112,-29.31838035583496,-40.06093215942383,73.847900390625,-0.9741609556322351,8.559639727648406,176.1248758306735,-7.451421,-13.461048,-5.866641,43.693127,-27.234684,14.972607,-42.066723,-3.687523,-14.092513,51.946434,-17.623175,12.209433,-8.249672,-0.25940552,1.5639683,1.2929825,21.670422,-25.035225,49.50715,-12.297629,10.882526,5.209811,13.363942,-21.731455,39.23938,67.00033,4.783522,13.011432,12.521002
113,-30.116016387939453,-40.58658981323242,74.34481811523438,-1.137042838717067,8.635694981733144,176.05224072098804,-6.821458,-13.535801,-5.4578624,42.7166,-24.780281,15.000033,-40.553123,-2.4678226,-15.376126,47.487774,-16.617811,12.814562,-8.579093,-0.025075858,1.2272108,1.5159788,21.390926,-25.46342,49.112587,-11.7761545,9.895727,4.5721436,13.940166,-21.835688,39.30543,67.02405,4.3830547,13.123686,13.248661
114,-30.922758102416992,-41.11973190307617,74.82721710205078,-1.2712389392130463,8.680609910969954,175.99774252257774,-6.284073,-13.639862,-4.9910483,41.92244,-22.13726,15.000033,-38.87649,-1.3316628,-16.647745,42.993214,-15.574688,13.236064,-8.899441,0.19265133,0.9168351,1.7393422,21.111244,-25.912657,48.803894,-11.196614,8.651161,3.800773,14.524985,-21.980566,39.218555,66.93356,4.0633936,13.1346,13.903194
115,-31.73719596862793,-41.66025161743164,75.28807830810547,-1.3450891138764918,8.694351598784326,175.96935420582446,-5.80256,-13.828671,-4.544771,41.241882,-19.390781,15.000033,-37.17679,-0.34904715,-17.820345,38.77684,-14.416244,13.5090065,-9.19341,0.3625578,0.6444419,1.948945,20.830143,-26.34849,48.549816,-10.625644,7.3691063,3.0520825,15.070137,-22.162891,39.03063,66.81051,3.86163,13.045769,14.548686
116,-32.56513595581055,-42.21125411987305,75.70641326904297,-1.3412623895714446,8.682900895194033,175.97126832347413,-5.35055,-14.129536,-4.1866193,40.618145,-16.639248,15.000033,-35.613083,0.40962434,-18.828375,35.19769,-13.089251,13.673586,-9.44333,0.46738538,0.41561052,2.1310499,20.544077,-26.73286,48.32105,-10.114966,6.2743354,2.4739482,15.52339,-22.37825,38.797974,66.73879,3.8150148,12.865015,15.249
117,-33.388702392578125,-42.758155822753906,76.09857940673828,-1.3709606221111863,8.671922709981201,176.0028996836054,-5.0418377,-14.4042635,-4.025071,40.226368,-13.928313,14.324067,-34.154068,0.99992,-19.914246,32.273453,-11.412884,13.688165,-9.649581,0.61448205,0.21505938,2.282216,20.248251,-27.064276,48.102764,-9.610574,5.434574,2.0949082,15.890596,-22.62199,38.51845,66.754425,4.0101476,12.521312,16.049194
118,-34.200050354003906,-43.31705093383789,76.45491027832031,-1.4061358935672437,8.655584879730206,176.05437288661136,-4.8371224,-14.718122,-4.0070257,39.995697,-11.205433,13.294808,-32.782574,1.4253391,-21.049553,29.946192,-9.52228,13.5593405,-9.815401,0.7785973,0.03846573,2.4067428,19.94087,-27.357988,47.91815,-9.09705,4.7302136,1.8353926,16.183907,-22.893028,38.17468,66.82109,4.4085283,12.041449,16.907476
119,-35.01003646850586,-43.87881851196289,76.76563262939453,-1.4553127143788638,8.624443877678921,176.10623419340075,-4.631581,-15.020309,-4.1612372,39.802925,-8.619325,11.531638,-31.534672,1.7999102,-21.95352,28.090107,-7.668563,13.32871,-9.924015,0.96379066,-0.08551464,2.5078528,19.623518,-27.59626,47.791,-8.676421,4.107647,1.6737859,16.362597,-23.188084,37.803097,66.91238,4.854237,11.574279,17.756954
120,-35.81325149536133,-44.4446907043457,77.02336883544922,-1.525733880274605,8.5681906045074,176.1416823315532,-4.3225145,-15.271887,-4.533549,39.550343,-6.3486843,8.62654,-30.431257,2.2271965,-22.335398,26.5466,-6.08404,13.042219,-9.965195,1.1709238,-0.12800033,2.5936384,19.301176,-27.756758,47.740284,-8.451731,3.5136356,1.5869553,16.379097,-23.501312,37.449,67.00978,5.190334,11.261253,18.527643
121,-36.60960006713867,-45.01895523071289,77.22296905517578,-1.6414880509882666,8.486223699226763,176.15041043013417,-3.8261569,-15.539314,-5.365022,39.087296,-4.4195247,3.927797,-29.493595,2.7328029,-22.05983,25.332115,-4.7939134,12.70104,-9.9339,1.4197022,-0.07587609,2.6729426,18.973753,-27.812649,47.76261,-8.493282,2.919921,1.5915645,16.20091,-23.827473,37.12371,67.14599,5.415134,11.144474,19.260891
122,-37.3997688293457,-45.6027717590332,77.36260223388672,-1.7942922772483814,8.387794996669447,176.138727860821,-3.235157,-15.854038,-6.5385,38.597404,-2.9595318,-2.1661208,-28.716213,3.232117,-21.301636,24.540783,-3.6990886,12.280518,-9.836219,1.7049936,0.04719732,2.742897,18.64068,-27.779089,47.847668,-8.727921,2.3605428,1.6863587,15.849477,-24.164585,36.812588,67.333374,5.5959044,11.143827,19.972902
123,-38.17389678955078,-46.18587112426758,77.43758392333984,-1.9351139325688689,8.27602905776922,176.12039676950383,-2.7476106,-16.100239,-7.5019183,38.511158,-2.1699524,-8.423615,-28.067358,3.6589549,-20.227257,24.106533,-2.8320854,11.798983,-9.682073,1.9816935,0.21403992,2.7950292,18.310276,-27.69757,48.002205,-9.046956,1.876207,1.8221469,15.363871,-24.512344,36.51957,67.51281,5.6765194,11.216056,20.552767
124,-38.92258071899414,-46.772789001464844,77.44441223144531,-2.0173376664971223,8.151732178831312,176.1078992842277,-2.5638494,-16.148598,-7.72458,39.20352,-2.0067482,-13.623264,-27.517818,3.9577494,-19.003815,23.963522,-2.225947,11.274516,-9.479703,2.2055485,0.40229023,2.8256211,17.996487,-27.608212,48.225224,-9.342651,1.5085398,1.9517647,14.783186,-24.871574,36.24847,67.6231,5.6024776,11.31742,20.890503
125,-39.68053436279297,-47.40174102783203,77.35836791992188,-1.828908274501177,7.984322868223011,176.10464103753455,-2.5914025,-16.007444,-6.2737203,40.439476,-2.0955498,-15.000033,-27.250439,3.836806,-17.41149,24.548971,-1.9590619,10.881759,-9.227343,2.1833098,0.61743754,2.8358228,17.70574,-27.517738,48.511395,-9.618321,1.2772661,2.0815558,14.107705,-25.24495,35.971676,67.63638,5.2765756,11.466058,20.962557
126,-40.430206298828125,-48.067710876464844,77.20684051513672,-1.4277114222620753,7.806284280426668,176.14203069001104,-2.813851,-15.68328,-3.8722923,42.13931,-2.3432734,-15.000033,-27.248272,3.398832,-15.45844,25.738892,-1.9902284,10.561707,-8.955069,1.9655143,0.84790796,2.8325453,17.438923,-27.407898,48.851776,-9.9240675,1.1577008,2.2307,13.323096,-25.634172,35.695126,67.58365,4.7541394,11.675679,20.827633
127,-41.18192672729492,-48.725894927978516,76.98855590820312,-1.0594268978271202,7.655668063187331,176.2255798125788,-3.346606,-15.034342,-1.3149099,44.558113,-2.9002526,-15.000033,-27.311834,2.9673967,-13.52269,27.066263,-2.376914,10.043663,-8.673445,1.7887871,1.0775299,2.825051,17.20328,-27.279917,49.23032,-10.225258,1.1273661,2.372736,12.442205,-26.037367,35.475468,67.492195,4.2127924,11.896055,20.498701
128,-41.91914367675781,-49.346126556396484,76.7293701171875,-0.7857713887153807,7.529462284699617,176.33305664010948,-4.1469603,-14.081745,1.0137705,47.629074,-3.7964013,-15.000033,-27.418835,2.5993998,-11.8302145,28.565004,-3.4148605,9.108366,-8.36639,1.7107986,1.2997408,2.8243444,17.00602,-27.135183,49.624294,-10.488184,1.1657922,2.4813724,11.471859,-26.454323,35.368637,67.39263,3.8316698,12.074845,19.987106
129,-42.630775451660156,-49.91762161254883,76.41951751708984,-0.6719944882900705,7.402666097046196,176.43469153418883,-5.178092,-12.68711,3.0940626,51.458195,-5.163224,-15.000033,-27.51067,2.4187832,-10.303338,30.204563,-5.355146,7.4039683,-8.001573,1.7865845,1.5330361,2.8378892,16.854101,-26.982666,50.03505,-10.700386,1.2791219,2.5260372,10.411741,-26.886095,35.406803,67.29722,3.642798,12.174451,19.271828
130,-43.353179931640625,-50.473331451416016,76.03411865234375,-0.7086842784909902,7.254403195128213,176.5130152550781,-6.315433,-10.84144,4.9423904,55.89664,-6.9673896,-15.000033,-27.580349,2.4508078,-8.813196,31.966772,-7.963305,5.129032,-7.5661073,2.0009968,1.8065658,2.866902,16.7497,-26.814737,50.458755,-10.882075,1.4762863,2.528627,9.253476,-27.331654,35.561512,67.185425,3.5599265,12.230074,18.35406
131,-44.0891227722168,-51.04183578491211,75.56220245361328,-0.8317601631928733,7.0925020210713905,176.5712912602523,-7.448197,-8.850284,6.2955604,60.507973,-8.997246,-15.000033,-27.68526,2.5620668,-7.5230236,33.899708,-10.817869,2.8986511,-7.078415,2.2946048,2.1227193,2.910273,16.690477,-26.609226,50.869377,-11.0493,1.7405555,2.5414336,7.999793,-27.786392,35.782845,67.033195,3.5733514,12.2958555,17.277016
132,-44.804954528808594,-51.59893798828125,75.0369644165039,-0.9482235815961536,6.942618599692895,176.63517103947814,-8.556634,-7.0677533,6.99382,64.9094,-11.01146,-15.000033,-27.895824,2.5281014,-6.6498084,36.04332,-13.520719,1.344664,-6.576071,2.583904,2.4653356,2.9641593,16.671938,-26.344976,51.245914,-11.217298,2.0543027,2.61704,6.6511927,-28.244314,36.02252,66.82256,3.678094,12.425055,16.08279
133,-45.507301330566406,-52.14065933227539,74.47273254394531,-1.0352276547485604,6.786306267091274,176.7437463245862,-9.675947,-5.6598396,6.9487395,69.148994,-13.040212,-15.000033,-28.230526,2.173841,-6.479166,38.54781,-16.153812,0.6938495,-6.0711184,2.855667,2.8331573,3.0091016,16.695635,-26.029575,51.6097,-11.349084,2.4467483,2.7424424,5.2254243,-28.70185,36.27852,66.5369,3.8991725,12.6740885,14.723818
134,-46.18407440185547,-52.68324661254883,73.86559295654297,-1.1407434816529003,6.628751834755245,176.87794834233998,-10.856655,-4.497287,6.3034854,73.38958,-15.16581,-15.000033,-28.66916,1.5853233,-6.8483014,41.375385,-18.896896,0.5899981,-5.544958,3.1512415,3.2242966,3.0511603,16.762447,-25.672218,51.964653,-11.451383,2.915927,2.8993955,3.7140937,-29.157534,36.569275,66.19349,4.239029,12.990189,13.193491
135,-46.81526565551758,-53.22441482543945,73.23655700683594,-1.25529593631107,6.540868742382476,176.9887014643099,-12.146796,-3.4939294,5.31214,77.463394,-17.213625,-15.000033,-29.234957,0.888593,-7.3361974,44.284702,-21.508253,0.7956137,-5.001724,3.4466784,3.6096106,3.1226454,16.864407,-25.252028,52.272366,-11.603944,3.3951535,3.133539,2.0852792,-29.609688,36.86874,65.81579,4.644467,13.273242,11.59416
136,-47.40775680541992,-53.76805114746094,72.61018371582031,-1.3637380321201558,6.588817864368152,177.02583658776913,-13.591386,-2.5369077,4.219299,81.206375,-19.018318,-15.000033,-29.948694,0.25421697,-7.516509,47.01174,-23.735342,1.0794562,-4.4420524,3.7138162,3.963299,3.252387,16.988516,-24.749746,52.50052,-11.885015,3.8163126,3.4915352,0.30669144,-30.054825,37.15613,65.432594,5.060709,13.421472,10.031889
137,-47.9565315246582,-54.348228454589844,71.99152374267578,-1.450474042852354,6.834305026270193,176.97256268945517,-15.305068,-1.6765137,3.0006156,84.64945,-20.524975,-15.000033,-30.946936,-0.26207593,-7.2756476,49.609264,-25.470497,1.4584181,-3.8520792,3.9355385,4.267734,3.415662,17.128344,-24.11328,52.670536,-12.3618355,4.128358,3.998034,-1.6861887,-30.500774,37.476894,65.072174,5.531482,13.405846,8.467233
138,-48.487125396728516,-54.933101654052734,71.4314193725586,-1.4924270722341246,7.230881388413847,176.86666418328215,-17.242826,-0.998664,1.5948803,87.86348,-21.814442,-15.000033,-32.19431,-0.7781149,-6.8372216,52.214466,-26.879276,2.0400586,-3.246446,4.0956993,4.534427,3.607436,17.28478,-23.362656,52.79918,-12.974228,4.3724647,4.625051,-3.8534324,-30.944344,37.82759,64.69865,6.067026,13.276963,6.870405
139,-49.02762985229492,-55.49749755859375,70.95281219482422,-1.4528946597432508,7.676255570151391,176.73926829354247,-19.215475,-0.36488768,0.26831156,90.73807,-22.923574,-14.685227,-33.442394,-1.3579483,-6.26592,54.657352,-28.11049,2.7448637,-2.662674,4.1563377,4.7826586,3.8771818,17.45443,-22.59642,52.858795,-13.611719,4.6187487,5.3414526,-6.0508547,-31.357697,38.07317,64.24487,6.518389,13.06955,5.360856
140,-49.548988342285156,-56.085853576660156,70.52831268310547,-1.4131980539702984,8.063096540019647,176.59050496513,-21.045094,0.4425147,-0.8987681,93.20831,-23.937462,-14.105765,-34.39467,-1.9355605,-5.7046127,56.670784,-29.257673,3.4579418,-2.0978117,4.189761,5.038178,4.2558923,17.631725,-21.931408,52.835842,-14.169286,4.9401994,6.119336,-8.162256,-31.706156,38.10531,63.691994,6.768553,12.824163,4.053473
141,-50.11007308959961,-56.70929718017578,70.16045379638672,-1.374283008877888,8.402756329224093,176.3868746681862,-22.76119,1.4824892,-1.917846,95.27933,-24.845686,-13.436738,-35.04678,-2.502484,-5.156387,58.21962,-30.344473,4.157754,-1.5491828,4.187605,5.295002,4.759791,17.816746,-21.40806,52.72335,-14.692674,5.403666,7.044882,-10.228437,-31.970617,37.85982,63.11608,6.708019,12.532667,2.981238
142,-50.69581985473633,-57.34714889526367,69.82758331298828,-1.340227357885758,8.736165105282929,176.1281805975404,-24.457449,2.6729925,-2.8931136,97.00201,-25.62947,-12.73859,-35.50665,-3.0390081,-4.5917487,59.401386,-31.31132,4.8929176,-0.99584603,4.1513367,5.5422025,5.3490677,18.014973,-20.979149,52.550022,-15.223101,5.951002,8.10782,-12.337216,-32.15365,37.449898,62.575916,6.4676332,12.18641,2.0788438
143,-51.308719635009766,-57.959564208984375,69.55522918701172,-1.314710067947213,9.006049438639176,175.88792291819945,-26.059933,3.9397254,-3.8610473,98.339195,-26.326258,-11.979831,-35.688435,-3.5715392,-4.058201,60.218388,-32.159634,5.665429,-0.46111998,4.0965967,5.7802353,5.9975076,18.21851,-20.601118,52.345932,-15.63997,6.4774156,9.129705,-14.322072,-32.244823,36.843067,61.942093,6.0824246,11.832009,1.3113868
144,-51.949031829833984,-58.57288360595703,69.36128997802734,-1.2994702403322524,9.155168744594382,175.7393292685283,-27.488525,5.2076993,-4.8657746,99.25466,-26.977291,-11.149227,-35.51423,-4.1329126,-3.5993156,60.674767,-32.8841,6.476887,0.042813282,4.0389123,6.0073576,6.6660886,18.412237,-20.245428,52.153793,-15.818181,6.8843083,9.929903,-16.030321,-32.23439,36.026375,61.104202,5.615872,11.512232,0.641655
145,-52.62040328979492,-59.19676971435547,69.26751708984375,-1.309680089024376,9.118295239817035,175.693074185628,-28.676302,6.5333405,-5.90998,99.728935,-27.628342,-10.228547,-34.894127,-4.7194695,-3.220562,60.742004,-33.492977,7.343298,0.5108557,4.0082603,6.260319,7.3616424,18.579214,-19.951443,51.971245,-15.619228,7.190856,10.494212,-17.420963,-32.09655,34.861145,60.02899,4.944291,11.281893,0.078194976
146,-53.29751205444336,-59.84199523925781,69.25703430175781,-1.338850522581279,8.941900258975682,175.71229989596853,-29.69304,7.934099,-6.965342,99.787415,-28.252817,-9.236959,-33.89847,-5.3290243,-2.9023502,60.42988,-33.977783,8.256692,0.95330197,3.9949262,6.5201883,8.086779,18.716244,-19.728323,51.80073,-15.14039,7.4413137,10.906046,-18.593067,-31.824736,33.395847,58.809498,4.0674834,11.102573,-0.36986765
147,-53.998756408691406,-60.51339340209961,69.32328033447266,-1.356462918051979,8.735636318942982,175.79854197608284,-30.652822,9.2728815,-8.015314,99.46141,-28.783716,-8.21442,-32.69437,-5.995081,-2.6466286,59.79837,-34.30758,9.18724,1.3686991,3.955182,6.707411,8.814409,18.827456,-19.484566,51.674458,-14.6015625,7.5743346,11.128863,-19.609074,-31.45246,31.920652,57.508278,3.2509835,10.874074,-0.73963034
148,-54.723297119140625,-61.19584274291992,69.46561431884766,-1.3295178261760419,8.609516614132724,175.9543413315067,-31.658659,10.408475,-9.038333,98.78131,-29.151796,-7.196554,-31.445404,-6.7491827,-2.4529002,58.904827,-34.450363,10.104387,1.7401406,3.84299,6.7475405,9.535686,18.914858,-19.109652,51.607338,-14.219776,7.5261297,11.125533,-20.489965,-31.036802,30.69781,56.136524,2.7311046,10.4982395,-1.0665116
149,-55.466068267822266,-61.888206481933594,69.6737060546875,-1.2344002792107875,8.58453015466938,176.2023110484239,-32.73118,11.280598,-10.031035,97.72894,-29.329634,-6.1886787,-30.18136,-7.616661,-2.310454,57.76835,-34.4185,11.00742,2.0508535,3.6307786,6.6255655,10.260683,18.97081,-18.534874,51.602768,-14.009069,7.200204,10.7805,-21.198957,-30.61625,29.768585,54.598637,2.7206497,9.91215,-1.3111657
150,-56.22583770751953,-62.60611343383789,69.94100189208984,-1.0912806093304177,8.60425979306801,176.53449098460177,-33.796356,11.966487,-10.980637,96.29926,-29.369522,-5.1794367,-28.821426,-8.573701,-2.2238307,56.35793,-34.21807,11.915287,2.3061786,3.3555336,6.3896933,10.996784,18.981808,-17.823288,51.639713,-13.868106,6.6541634,10.147679,-21.689894,-30.193344,28.98004,52.846336,3.0299425,9.181146,-1.4606205
151,-56.98905563354492,-63.33687210083008,70.25477600097656,-0.9309985197483411,8.662983382349207,176.90866573131046,-34.806183,12.531661,-11.833716,94.53575,-29.316189,-4.159281,-27.356812,-9.573558,-2.2140803,54.649418,-33.809822,12.8238735,2.5309992,3.0604556,6.0635996,11.719895,18.948143,-17.071339,51.701298,-13.839029,6.05628,9.445541,-22.025736,-29.785925,28.377428,51.005817,3.3776999,8.400274,-1.5934439
152,-57.75736999511719,-64.09043884277344,70.6171646118164,-0.7851605251639131,8.755615917444716,177.2826328069289,-35.717293,13.045525,-12.540429,92.48161,-29.213072,-3.1161594,-25.775457,-10.566933,-2.301205,52.616817,-33.15546,13.726817,2.7461793,2.791056,5.6724405,12.4115,18.875431,-16.368862,51.762943,-13.956087,5.5771275,8.888989,-22.272581,-29.415075,28.010672,49.200253,3.4828892,7.665607,-1.7954812
153,-58.547420501708984,-64.87757873535156,71.03079986572266,-0.666266740051606,8.927800848110001,177.66522869706884,-36.587124,13.527525,-13.091607,90.12292,-29.071566,-1.9962043,-24.053782,-11.541044,-2.5317817,50.12225,-32.266014,14.642099,2.9508576,2.563801,5.171723,13.060422,18.767057,-15.729336,51.82963,-14.301032,5.241254,8.4886675,-22.403385,-29.104206,27.941414,47.37543,3.299347,6.9625716,-2.1112995
154,-59.369140625,-65.68547058105469,71.49309539794922,-0.6586848374740384,9.179159898991717,178.034685453313,-37.42593,14.053147,-13.586705,87.461395,-28.89471,-0.8753145,-22.185339,-12.285418,-2.8932455,47.152767,-31.110895,15.000033,3.1788874,2.449344,4.5531363,13.66835,18.62062,-15.116938,51.91091,-14.829154,4.9671693,8.143212,-22.381367,-28.86087,28.126312,45.467487,2.9813905,6.257389,-2.4879491
155,-60.21379852294922,-66.51407623291016,71.98686981201172,-0.7129376108590794,9.41585294510149,178.37365758479217,-38.07743,14.582949,-13.983867,84.533325,-28.680208,0.1484593,-20.204012,-12.8706875,-3.2777317,43.97954,-29.669306,15.000033,3.4358752,2.40775,3.9226854,14.238926,18.436945,-14.54466,51.987343,-15.37742,4.7645416,7.9000993,-22.216629,-28.66814,28.412241,43.55639,2.5000377,5.618672,-2.8722715
156,-61.07624053955078,-67.35871124267578,72.50763702392578,-0.7319539586519078,9.536630081394248,178.68232498473571,-38.37244,15.032562,-14.204361,81.365814,-28.412971,0.9963858,-18.161528,-13.467658,-3.593573,40.922794,-27.944208,15.000033,3.712182,2.3503907,3.3953688,14.776689,18.222815,-14.026551,52.03924,-15.785538,4.6408057,7.8085775,-21.923286,-28.494738,28.640915,41.730827,1.8203678,5.1133156,-3.2133694
157,-61.96162033081055,-68.22093200683594,73.04832458496094,-0.7168067964840933,9.504474077767666,178.95544216517885,-38.22725,15.462595,-14.169947,77.86937,-28.101301,1.6730958,-15.948794,-14.075089,-3.868673,37.854774,-25.861437,15.000033,4.019892,2.2667806,3.001646,15.293494,17.983994,-13.554449,52.036892,-16.003174,4.647434,7.9479866,-21.49445,-28.321358,28.792206,39.97495,0.7340394,4.80849,-3.5288155
158,-62.85974884033203,-69.10232543945312,73.59828186035156,-0.6784698789374678,9.372438583111164,179.20814364703207,-37.72833,15.860102,-13.908187,74.05887,-27.74237,2.2158744,-13.594537,-14.684055,-4.141507,34.707825,-23.46028,15.000033,4.344563,2.1631773,2.684165,15.788257,17.72703,-13.121383,51.994705,-16.120903,4.7623215,8.271981,-20.931784,-28.145061,28.936703,38.268406,-0.684547,4.6537495,-3.838003
159,-63.76823806762695,-70.00454711914062,74.13898468017578,-0.6139532939027886,9.18326317721883,179.44244451671742,-36.990704,16.1209,-13.580358,70.118744,-27.307116,2.5776882,-11.353949,-15.31703,-4.3556094,31.860779,-20.89043,15.000033,4.663113,2.0425627,2.4150734,16.25285,17.464447,-12.7388115,51.951664,-16.188913,4.8836155,8.640923,-20.315434,-27.964106,29.092705,36.7388,-2.0062482,4.532378,-4.092696
160,-64.68769836425781,-70.9232406616211,74.65485382080078,-0.5216296268847673,8.978843642288114,179.65937550487354,-36.137196,16.154766,-13.364927,66.22686,-26.761118,2.7256308,-9.486333,-16.011114,-4.4499016,29.709312,-18.311235,15.000033,4.956604,1.9086804,2.1676383,16.678747,17.212635,-12.4223995,51.945927,-16.25831,4.909997,8.91417,-19.716116,-27.777277,29.270815,35.50744,-2.807511,4.3222437,-4.2465477
161,-65.60708618164062,-71.86149597167969,75.14081573486328,-0.3840778406209109,8.744074806682741,179.8657142948852,-35.11291,15.927954,-13.312344,62.276104,-26.082016,2.6027982,-8.015197,-16.8058,-4.4036846,28.358564,-15.684846,15.000033,5.2291074,1.7364467,1.947445,17.081944,16.985966,-12.175695,51.972427,-16.366648,4.802043,9.085157,-19.1279,-27.582367,29.492722,34.620518,-2.8939908,3.9473672,-4.2974305
162,-66.5208969116211,-72.81405639648438,75.59200286865234,-0.20843816804666138,8.46373200171327,-179.94186866143846,-33.890453,15.512745,-13.358119,58.21191,-25.285578,2.2687278,-6.832428,-17.689167,-4.245619,27.625818,-12.968478,15.000033,5.4896684,1.5280201,1.7682047,17.467445,16.785982,-11.988884,52.006325,-16.481728,4.619994,9.215794,-18.522814,-27.376562,29.74558,34.01238,-2.5168462,3.4826903,-4.262073
163,-67.42576599121094,-73.7862548828125,76.00392150878906,-0.027956286978453947,8.178910735698699,-179.77903455712024,-32.634167,14.981577,-13.508698,54.287514,-24.393188,1.8688781,-5.9807086,-18.624613,-3.98467,27.446634,-10.298588,15.000033,5.730601,1.3292568,1.6151432,17.806967,16.606073,-11.861109,52.06061,-16.549019,4.4114175,9.2683,-17.92765,-27.15703,29.981503,33.62773,-1.9291595,3.032142,-4.1241083
164,-68.30400848388672,-74.77997589111328,76.38140869140625,0.1247317709005128,7.93251092065541,-179.66199185221922,-31.512247,14.397921,-13.759371,50.7725,-23.423716,1.5370553,-5.494661,-19.568914,-3.6266654,27.741613,-7.803795,15.000033,5.945813,1.1862111,1.4703337,18.070704,16.43602,-11.79379,52.151756,-16.51338,4.223563,9.205987,-17.373465,-26.922264,30.155659,33.414925,-1.3826224,2.7001657,-3.8714035
165,-69.16814422607422,-75.79444122314453,76.72985076904297,0.22074626683753024,7.7507909093593055,-179.61250247711632,-30.57435,13.768297,-14.188375,47.669495,-22.313942,1.3015481,-5.3597803,-20.460844,-3.1598463,28.36355,-5.304113,15.000033,6.156894,1.1315804,1.3154669,18.239649,16.269773,-11.816724,52.294632,-16.3449,4.052395,8.986578,-16.875036,-26.665201,30.260336,33.39177,-0.8446834,2.5188515,-3.4708395
166,-70.00741577148438,-76.82089233398438,77.04499816894531,0.28465469066883636,7.6094076576333745,-179.61941758634526,-29.736351,13.070775,-14.776031,44.85962,-21.076412,1.0950557,-5.5414896,-21.32659,-2.5817363,29.341883,-2.7676363,15.000033,6.36246,1.134363,1.1591083,18.331493,16.109337,-11.920713,52.48402,-16.078186,3.876369,8.642375,-16.42025,-26.38356,30.323404,33.58402,-0.2185794,2.4350872,-2.9388385
167,-70.82917785644531,-77.86286163330078,77.31002044677734,0.3678126654832846,7.4739833368206945,-179.64896963205314,-28.957449,12.307165,-15.356889,42.4193,-19.835226,0.8972913,-6.0252476,-22.241323,-1.8933896,30.817112,-0.5237638,15.000033,6.5241437,1.142282,1.0272169,18.3714,15.956955,-12.049721,52.703506,-15.753298,3.7164981,8.247777,-16.00704,-26.08696,30.358793,33.949387,0.35699674,2.4228895,-2.3416517
168,-71.64857482910156,-78.93464660644531,77.5219955444336,0.5296769591844128,7.308381357751819,-179.66461898340984,-28.19458,11.461216,-15.761329,40.41846,-18.705538,0.6864019,-6.8006396,-23.279306,-1.0619631,32.92427,1.1046504,15.000033,6.6020164,1.0976626,0.9510276,18.38251,15.814803,-12.148232,52.93629,-15.409893,3.5949478,7.876181,-15.618609,-25.792059,30.37188,34.429882,0.7384084,2.452603,-1.7450448
169,-72.46560668945312,-80.03533935546875,77.66779327392578,0.8218275682190809,7.101004312330271,-179.6531988649779,-27.457495,10.440495,-15.967457,38.907597,-17.652996,0.6297261,-7.970482,-24.485382,0.07470227,35.83474,2.046391,15.000033,6.57978,0.9633558,0.9455876,18.366,15.673182,-12.211845,53.19305,-15.06024,3.5070043,7.526937,-15.24387,-25.510004,30.347221,35.014492,0.8533828,2.540377,-1.1013408
170,-73.26776123046875,-81.17606353759766,77.74989318847656,1.2077577783115765,6.869442496589404,-179.62925472586846,-26.761124,9.26418,-16.05853,37.814075,-16.61745,0.67670774,-9.477488,-25.737537,1.5529797,39.33482,2.536333,15.000033,6.4759936,0.77465945,0.99642634,18.307404,15.530147,-12.267245,53.478966,-14.680616,3.4434445,7.167582,-14.88461,-25.24392,30.28605,35.715855,0.79166967,2.6914864,-0.39681152
171,-74.06075286865234,-82.3124008178711,77.7537612915039,1.4366219810030696,6.6404657059666174,-179.64832937129196,-26.131092,8.287371,-16.123043,37.093433,-15.724303,0.42541274,-11.094548,-26.76296,2.8472114,42.991215,2.7012672,14.142113,6.355119,0.744161,1.0547429,18.207512,15.402229,-12.311006,53.764454,-14.258164,3.4212153,6.8222003,-14.535152,-24.999653,30.211937,36.506172,0.65577805,2.8571014,0.25167015
172,-74.8400650024414,-83.3966064453125,77.6741943359375,1.3121795534207106,6.435159202937568,-179.75583518799624,-25.570261,7.8015776,-16.209833,36.707184,-15.105318,-0.506156,-12.630003,-27.491173,3.405341,46.49646,2.5480795,11.857267,6.273476,1.0321417,1.0865338,18.071362,15.315307,-12.339438,54.01377,-13.782028,3.4588382,6.5122843,-14.187505,-24.785276,30.145117,37.35533,0.5504167,2.9907427,0.7270548
173,-75.60315704345703,-84.46549224853516,77.4999771118164,1.230456907042412,6.201963723562625,-179.84359152231696,-24.865643,7.408941,-16.022549,36.38068,-14.447353,-2.4849937,-14.043333,-28.305515,3.9015634,50.009632,1.8049433,10.092973,6.133478,1.2718323,1.1862402,17.903927,15.292694,-12.337855,54.22368,-13.186241,3.57831,6.215336,-13.828598,-24.60156,30.06925,38.253033,0.45690137,3.0886254,1.0063121
174,-76.35688018798828,-85.53047943115234,77.24366760253906,1.1651578908082934,5.949829438990637,-179.9210626793993,-24.10113,7.070867,-15.62564,36.265614,-13.820172,-5.2053375,-15.486013,-29.20326,4.4031134,53.718002,0.4581633,8.52759,5.943626,1.4886552,1.34188,17.707655,15.336202,-12.318603,54.397293,-12.502547,3.7661064,5.9224024,-13.450758,-24.44771,29.966618,39.19999,0.33730152,3.1722245,1.1497627
175,-77.09454345703125,-86.59159851074219,76.90885925292969,1.1364120229431003,5.686786740734536,-179.97273640265948,-23.402225,6.658744,-15.139729,36.560543,-13.674184,-7.794887,-16.999052,-30.128868,5.020613,57.538727,-1.2290936,7.1116204,5.6908603,1.6588961,1.5433064,17.481478,15.447915,-12.308142,54.506256,-11.863014,3.9890566,5.67355,-13.061185,-24.324923,29.855446,40.1745,0.27163887,3.2399638,1.1654336
176,-77.82295227050781,-87.65351867675781,76.48989868164062,1.16216912450189,5.418057899254708,-179.9858271281729,-22.87389,6.0725636,-14.669179,37.407326,-14.435592,-9.39575,-18.599775,-30.992449,5.8261313,61.372128,-2.9617805,5.80494,5.36461,1.7614142,1.7829045,17.224518,15.629079,-12.331491,54.522068,-11.40007,4.2158566,5.5102897,-12.67094,-24.235727,29.757019,41.158398,0.3434508,3.290226,1.0611527
177,-78.53642272949219,-88.70452880859375,75.99655151367188,1.245770290429962,5.133661542220144,-179.96223802571708,-22.52804,5.2788086,-14.238764,38.917053,-16.47503,-9.636816,-20.286713,-31.800503,6.7754865,65.28496,-4.711682,4.596022,4.958509,1.7964493,2.066733,16.951738,15.88029,-12.401092,54.425945,-11.145335,4.438114,5.439811,-12.301992,-24.187723,29.701195,42.176216,0.6213387,3.2884371,0.8073115
178,-79.24702453613281,-89.76559448242188,75.4393310546875,1.3733431638768623,4.833998569506189,-179.91040973635327,-22.312737,4.3046265,-13.806757,40.96882,-19.457184,-9.018516,-22.049576,-32.560154,7.8487644,69.31935,-6.6153126,3.522634,4.48413,1.7758739,2.395224,16.657,16.199682,-12.504987,54.2367,-11.030356,4.6746097,5.441441,-11.936741,-24.182545,29.666248,43.22074,1.0476363,3.2447207,0.4108854
179,-79.921630859375,-90.79813385009766,74.82333374023438,1.5361363872277942,4.537403064132089,-179.82967778603688,-22.216232,3.1688085,-13.383109,43.317604,-22.728144,-8.007848,-23.86192,-33.149612,9.107228,73.320404,-8.596709,2.6367612,3.9594157,1.6961873,2.7524514,16.309217,16.585033,-12.630728,53.982883,-11.037477,4.935404,5.517073,-11.530657,-24.212246,29.597462,44.233566,1.5109038,3.2244313,-0.065773085
180,-80.60557556152344,-91.8229751586914,74.15544128417969,1.7288534597082525,4.262062390074918,-179.7186040630714,-22.225374,1.9453188,-12.944777,45.721806,-25.6616,-7.0928273,-25.68425,-33.441887,10.587253,77.12921,-10.56992,1.9973416,3.4027317,1.5509253,3.1227908,15.87567,17.035568,-12.766309,53.693386,-11.149635,5.2302203,5.6689844,-11.041868,-24.26146,29.440107,45.159554,1.9016865,3.295193,-0.56155485
181,-81.263671875,-92.82252502441406,73.4423828125,1.9759756203374634,3.9580527585570273,-179.58797424491465,-22.3338,0.6475333,-12.4555025,48.28511,-28.24144,-6.347687,-27.452156,-33.368187,12.38826,80.78907,-12.583123,1.7020097,2.8028119,1.3175881,3.5412467,15.367775,17.553148,-12.891656,53.327995,-11.384691,5.5583773,5.9027214,-10.508976,-24.32916,29.199549,46.01139,2.168136,3.4908834,-1.0641344
182,-81.89328002929688,-93.80010223388672,72.69637298583984,2.2721071834484876,3.633169429092438,-179.43664323348978,-22.538862,-0.7295266,-11.951653,51.080338,-30.764263,-5.536238,-29.148575,-32.977444,14.378575,84.37277,-14.651638,1.7195271,2.1574674,1.0029215,3.99864,14.797261,18.139467,-13.01719,52.88636,-11.745646,5.914234,6.21729,-9.942705,-24.41607,28.899734,46.81733,2.3777776,3.7703547,-1.606024
183,-82.5378646850586,-94.76788330078125,71.94727325439453,2.571468285325025,3.3916870168738695,-179.24207943354838,-22.836046,-2.1044393,-11.482501,53.828644,-33.096348,-4.692396,-30.813581,-32.34323,16.250212,87.75279,-16.639284,1.8993868,1.4938284,0.6431669,4.4126325,14.131029,18.793419,-13.1790905,52.4581,-12.194068,6.29955,6.6051598,-9.26243,-24.501698,28.514174,47.554127,2.5948625,4.0896244,-2.1936567
184,-83.17982482910156,-95.70497131347656,71.23759460449219,2.829229409662994,3.3382058079393317,-178.9801455479725,-23.222458,-3.4123785,-11.080436,56.23953,-35.09454,-3.8535225,-32.526165,-31.560724,17.739702,90.78704,-18.397036,2.0776222,0.83561146,0.27550724,4.7003703,13.334189,19.5119,-13.420234,52.13534,-12.693238,6.7161074,7.0593133,-8.393902,-24.552155,28.017588,48.21185,2.8793137,4.402572,-2.8339078
185,-83.84342193603516,-96.61941528320312,70.630126953125,3.067281233079659,3.5779324128141,-178.59994029572553,-23.838854,-4.702164,-10.738162,58.293762,-36.66245,-3.0147989,-34.420444,-30.631495,18.887024,93.47571,-19.842798,2.2881305,0.1434974,-0.12972374,4.7829475,12.355711,20.321554,-13.808434,51.950558,-13.337596,7.156668,7.6503253,-7.3258033,-24.533318,27.35366,48.819984,3.2318256,4.648963,-3.5883589
186,-84.49539184570312,-97.46009063720703,70.12580108642578,3.3043203515678723,4.027486766332272,-178.12527652821782,-24.636496,-5.983113,-10.424562,60.12607,-37.896523,-2.1596272,-36.42341,-29.540508,19.789238,95.87455,-21.060114,2.5819786,-0.5882108,-0.5872608,4.716341,11.226591,21.222868,-14.321446,51.841892,-14.125299,7.618595,8.359275,-6.112937,-24.436775,26.550968,49.41136,3.6190464,4.8633657,-4.4335766
187,-85.11642456054688,-98.20630645751953,69.70333862304688,3.4885773203424737,4.509608779919667,-177.64510389796533,-25.336922,-7.1495776,-10.1332,61.67818,-38.92823,-1.3138034,-38.33787,-28.362766,20.307241,97.91256,-22.133375,2.8052812,-1.2979932,-1.0263002,4.6255,10.043932,22.150154,-14.843488,51.76475,-14.861443,8.116079,9.047773,-4.7974925,-24.271046,25.737677,49.986664,4.052848,5.1437573,-5.251814
188,-85.73558044433594,-98.92742919921875,69.34597778320312,3.5633391447501395,4.8488147431876385,-177.25087506694155,-25.663563,-8.103027,-9.869496,62.89059,-39.880795,-0.5061274,-39.978928,-27.182753,20.320618,99.51255,-23.141106,2.802277,-1.9310089,-1.3629904,4.638297,8.904953,23.009537,-15.2308445,51.70273,-15.332775,8.666522,9.581986,-3.4414082,-24.05534,25.073164,50.55506,4.551802,5.591155,-5.9315386
189,-86.38544464111328,-99.64813232421875,69.06150817871094,3.4852976374117994,4.997382589967218,-176.96072819713478,-25.540272,-8.800693,-9.654529,63.75439,-40.78077,0.24551412,-41.331642,-26.016596,19.768084,100.67556,-24.116795,2.4561756,-2.4916978,-1.5301418,4.813224,7.793418,23.743351,-15.407407,51.74623,-15.409003,9.28163,9.89998,-2.0467408,-23.803385,24.588673,51.101906,5.165585,6.2837954,-6.5802536
190,-87.09688568115234,-100.37305450439453,68.87893676757812,3.290371857379813,5.049446184952208,-176.7280082446787,-25.113821,-9.31162,-9.47931,64.296776,-41.55189,0.9631137,-42.496937,-24.844597,18.74341,101.41937,-25.0029,1.8741595,-3.0250626,-1.5610064,5.0725255,6.6600757,24.350183,-15.431555,51.925816,-15.199441,9.946823,10.087001,-0.6176332,-23.523062,24.248503,51.6552,5.880822,7.1506333,-7.224656
191,-87.85382843017578,-101.09933471679688,68.79804992675781,3.038465032126389,5.042580555727801,-176.54797153374994,-24.444794,-9.70702,-9.312662,64.51409,-42.169765,1.6781379,-43.467648,-23.687735,17.364342,101.692444,-25.742838,1.2358441,-3.5278137,-1.526435,5.3402905,5.5511565,24.832775,-15.359143,52.144276,-14.848875,10.642291,10.229342,0.78403294,-23.230331,24.107536,52.283474,6.6149936,8.076314,-7.631433
192,-88.64191436767578,-101.8074722290039,68.8086929321289,2.7909352539279793,5.013950505271824,-176.41613674988787,-23.594353,-10.051013,-9.127291,64.40377,-42.612617,2.418655,-44.241413,-22.562098,15.749051,101.4454,-26.276995,0.7187136,-3.9998512,-1.496738,5.5391808,4.520417,25.193604,-15.240848,52.29411,-14.502195,11.348956,10.416013,2.0960476,-22.943102,24.223501,53.050953,7.2794976,8.953278,-7.560587
193,-89.44185638427734,-102.49515533447266,68.8997573852539,2.555805645057349,4.9260162165052,-176.34220331830457,-22.481339,-10.321871,-8.914176,63.9011,-42.90134,3.185292,-44.78186,-21.49309,13.849033,100.62153,-26.58674,0.34644294,-4.406737,-1.4924173,5.689186,3.5434256,25.420082,-15.034606,52.380432,-14.088937,12.167102,10.677722,3.3358753,-22.670933,24.648678,53.969288,7.9311094,9.835458,-6.8931165
194,-90.24237823486328,-103.16336059570312,69.05533599853516,2.3017166461331957,4.774216826559777,-176.32455631721538,-21.106455,-10.494715,-8.690004,63.034878,-43.04285,3.9738495,-45.096992,-20.45199,11.6348715,99.252144,-26.707195,0.044977635,-4.762223,-1.4704603,5.8159595,2.596362,25.510014,-14.730048,52.463467,-13.563191,13.071496,10.960662,4.528461,-22.421429,25.33819,55.00574,8.576536,10.767258,-5.7732263
195,-91.02149200439453,-103.82389068603516,69.27371978759766,2.0316725841818895,4.646510724134551,-176.34270025076367,-19.6516,-10.623457,-8.467281,61.939075,-42.992573,4.7972765,-45.262535,-19.381763,9.265806,97.415115,-26.652782,-0.1536414,-5.1263547,-1.4046303,5.853824,1.7325934,25.490553,-14.438322,52.50598,-13.119035,13.855497,11.236807,5.643257,-22.208109,26.186523,56.13595,9.050602,11.625136,-4.3422737
196,-91.82415008544922,-104.48828125,69.55492401123047,1.7483791646990403,4.630729799642679,-176.37622998359856,-18.292225,-10.75546,-8.258683,60.739258,-42.70631,5.656325,-45.359005,-18.22948,6.900109,95.18342,-26.434027,-0.22490448,-5.5496526,-1.2708284,5.7439055,1.0099357,25.404793,-14.278444,52.4527,-12.961127,14.313207,11.483923,6.6708045,-22.040718,27.074146,57.307327,9.196884,12.274732,-2.7333064
197,-92.66278076171875,-105.16091918945312,69.89317321777344,1.4430484871572182,4.775558969703364,-176.43198159172965,-17.054361,-10.878876,-8.056758,59.396744,-42.220184,6.561753,-45.44664,-16.971756,4.510135,92.531105,-26.006824,-0.18945676,-6.0284657,-1.0584763,5.448091,0.4726243,25.276041,-14.273038,52.257133,-13.288426,14.342623,11.7416,7.6116757,-21.922426,28.043917,58.542294,8.926513,12.618032,-0.77386177
198,-93.522216796875,-105.83888244628906,70.27894592285156,1.1185499144548454,5.025558380502566,-176.51802948831298,-15.844173,-10.971691,-7.8489404,57.86717,-41.556763,7.494964,-45.4737,-15.633296,2.0492918,89.418915,-25.384478,-0.04944436,-6.5304813,-0.7890302,5.013357,0.09444046,25.103157,-14.364693,51.929214,-13.952243,14.070404,12.003409,8.495473,-21.851225,29.117712,59.826954,8.348648,12.723143,1.5480715
199,-94.405029296875,-106.52214050292969,70.7009048461914,0.7977923537391397,5.31441950777238,-176.61671564812994,-14.660078,-11.064285,-7.633324,56.266705,-40.651714,8.40961,-45.365982,-14.232877,-0.33978966,85.90162,-24.65707,0.24263416,-7.0567536,-0.48818588,4.5106645,-0.17117302,24.89396,-14.554317,51.49502,-14.637776,13.63455,12.179487,9.365737,-21.823454,30.134298,61.0413,7.602384,12.705191,3.8575797
200,-95.302978515625,-107.21583557128906,71.16521453857422,0.5045238520658192,5.575201953800262,-176.70878582798764,-13.504801,-11.184875,-7.4118357,54.714493,-39.43348,9.268705,-45.049843,-12.790768,-2.5146725,82.032394,-23.914192,0.72539866,-7.597931,-0.18432815,4.0124855,-0.38073552,24.660515,-14.857933,50.982853,-15.036584,13.177249,12.185635,10.274292,-21.83288,30.919117,62.054012,6.8145795,12.698048,5.7836714
201,-96.24212646484375,-107.93131256103516,71.66607666015625,0.24970822269598897,5.812349660833714,-176.7906665523934,-12.375546,-11.345093,-7.1847234,53.187115,-37.849606,10.112041,-44.511906,-11.254282,-4.403713,77.73783,-23.243351,1.392795,-8.158352,0.115519226,3.5115647,-0.52207035,24.407207,-15.315132,50.372158,-15.145712,12.710592,12.004533,11.247264,-21.873535,31.4177,62.81013,5.837952,12.732432,7.2863064
202,-97.2043685913086,-108.63899993896484,72.19776916503906,0.023311317872152994,6.053245307356387,-176.8703755365754,-11.272972,-11.531438,-6.93737,51.645264,-35.953804,10.948389,-43.788494,-9.640843,-6.06702,72.99487,-22.575674,2.2044463,-8.729531,0.42082417,2.9808347,-0.57621765,24.13382,-15.917487,49.65339,-15.11144,12.168966,11.681788,12.262955,-21.94183,31.712997,63.373962,4.6636605,12.735919,8.543496
203,-98.20492553710938,-109.34522247314453,72.75725555419922,-0.1824901851380143,6.266147584525149,-176.94572626768183,-10.204746,-11.728992,-6.6604867,50.173775,-33.823048,11.704428,-42.871166,-8.056608,-7.5726275,67.92628,-21.747301,3.1589186,-9.288348,0.72385836,2.46301,-0.58816403,23.848783,-16.606188,48.872135,-14.853342,11.57572,11.233243,13.291778,-22.036283,31.839624,63.799843,3.6145005,12.71543,9.514632
204,-99.20506286621094,-110.05291748046875,73.32257080078125,-0.3742998498470772,6.419307806908608,-177.01435562414028,-9.182433,-11.919652,-6.354642,48.856876,-31.52376,12.304569,-41.743843,-6.581356,-9.001459,62.64537,-20.58739,4.276596,-9.813979,1.0136222,2.001546,-0.59979826,23.56427,-17.320091,48.06874,-14.290382,10.952507,10.675084,14.305608,-22.155842,31.831099,64.13865,3.0136712,12.689905,10.159701
205,-100.21585083007812,-110.74091339111328,73.89713287353516,-0.5633046111744223,6.498325584381144,-177.08147016916448,-8.188049,-12.089564,-6.042501,47.676697,-29.003445,12.744802,-40.29982,-5.2058396,-10.430868,56.962017,-19.011917,5.638209,-10.3115635,1.2943094,1.6156682,-0.60219604,23.29126,-18.062624,47.199696,-13.285677,10.356378,9.960962,15.298179,-22.296545,31.675465,64.3734,3.0271165,12.701151,10.375039
206,-101.23268127441406,-111.43888092041016,74.46282196044922,-0.7351260071826157,6.517134614396327,-177.14100120964372,-7.21811,-12.257859,-5.728479,46.58899,-26.230387,13.059124,-38.531647,-3.843322,-11.791788,50.801548,-17.069221,7.23011,-10.79784,1.555629,1.2841285,-0.5657315,23.032724,-18.854086,46.245983,-11.927402,9.745379,9.106486,16.281422,-22.453823,31.365765,64.48542,3.4557793,12.739348,10.213096
207,-102.27400970458984,-112.13658142089844,75.01165771484375,-0.8462930931555425,6.4855267086813315,-177.1716755820451,-6.3019214,-12.471739,-5.393439,45.62887,-23.290098,13.223037,-36.587906,-2.4798338,-12.93797,44.47888,-14.80274,8.936264,-11.27291,1.7528355,0.98771095,-0.5041152,22.786963,-19.657412,45.286995,-10.472094,8.996637,8.2220745,17.250557,-22.626188,30.947271,64.52381,4.079816,12.745544,9.869045
208,-103.33612823486328,-112.83533477783203,75.52239227294922,-0.853560806653325,6.414736428288959,-177.15338154467756,-5.4682884,-12.782374,-5.021584,44.830475,-20.267548,13.209775,-34.642,-1.1547337,-13.7238,38.370693,-12.294031,10.621598,-11.739644,1.8425796,0.70628774,-0.4329164,22.550072,-20.430826,44.405518,-9.175571,7.999413,7.4176335,18.194176,-22.816517,30.470554,64.542915,4.681173,12.663286,9.538634
209,-104.40811920166016,-113.53863525390625,75.99417114257812,-0.729180417552564,6.293385215147874,-177.07519576377996,-4.6976104,-13.245345,-4.583642,44.15779,-17.081888,13.116562,-32.663193,0.098177835,-14.065272,32.40918,-9.336822,12.364223,-12.212606,1.7961589,0.4320366,-0.34328687,22.320335,-21.173985,43.62912,-7.99851,6.618765,6.693023,19.128754,-23.026873,29.93904,64.546524,5.313828,12.442159,9.191733
210,-105.47052764892578,-114.24903869628906,76.40933990478516,-0.45599798893068944,6.106724500299444,-176.93477661488345,-3.94439,-13.88318,-4.1182094,43.537727,-13.682985,12.89784,-30.55832,1.2127163,-14.00585,26.448872,-5.9784966,14.194203,-12.703839,1.594237,0.17756097,-0.23331434,22.10095,-21.901875,42.915905,-6.8462358,4.9502687,6.0118794,20.056854,-23.256956,29.329176,64.50341,6.0544205,12.120669,8.754563
211,-106.53448486328125,-114.94416046142578,76.76628112792969,-0.12240078938844787,5.878423789812579,-176.79269456019705,-3.2615995,-14.567968,-3.7034385,43.075714,-10.298484,12.2748575,-28.378027,2.2739503,-13.775011,20.621128,-2.618038,15.000033,-13.153496,1.3117852,-0.04056137,-0.1241536,21.8957,-22.590353,42.23771,-5.881673,3.242376,5.410529,20.950092,-23.501474,28.65977,64.40742,6.724453,11.785129,8.35674
212,-107.60385131835938,-115.63909149169922,77.05912017822266,0.3099814049062588,5.627952520952249,-176.62467713525785,-2.6326983,-15.356286,-3.4713454,42.72613,-7.058157,11.017717,-26.327213,3.0901806,-13.464293,15.455951,0.15579021,15.000033,-13.582372,0.92241806,-0.22442786,-0.035398427,21.704275,-23.213978,41.562733,-5.2604575,1.7485662,4.908873,21.764711,-23.755384,27.952223,64.270515,7.14788,11.52572,8.124217
213,-108.6681137084961,-116.35564422607422,77.29705810546875,0.8441857909141759,5.383217627239333,-176.41803973492657,-2.1067398,-16.38917,-3.6533165,42.473156,-3.8577807,8.937216,-24.553898,3.5560527,-13.023003,11.254996,2.0458286,15.000033,-14.005278,0.44674832,-0.40648636,0.043594245,21.519585,-23.762667,40.863018,-5.0745916,0.4805581,4.508794,22.490343,-24.015797,27.18147,64.09901,7.2403927,11.36695,8.097604
214,-109.71923065185547,-117.06720733642578,77.48226165771484,1.395350790997155,5.157055589780744,-176.20474470398094,-1.7122787,-17.595724,-4.17929,42.380627,-0.7893043,6.1004696,-22.947947,3.81795,-12.471477,7.6859226,3.4216526,15.000033,-14.392297,-0.029797459,-0.58904994,0.11292427,21.334595,-24.25288,40.16485,-5.2159066,-0.6702594,4.1808414,23.133823,-24.283289,26.347198,63.906956,7.1100025,11.260267,8.206373
215,-110.74930572509766,-117.7973861694336,77.61679077148438,1.873528067271624,4.96180511912411,-176.01129370457787,-1.4281605,-18.705194,-4.6943126,42.530205,1.7677116,2.7554243,-22.405157,3.7886877,-11.981639,6.6359086,3.489112,15.000033,-14.712474,-0.42224815,-0.7424963,0.14097814,21.142118,-24.69489,39.515438,-5.5340943,-1.6319826,3.8956828,23.670464,-24.559097,25.513203,63.715855,6.872858,11.194701,8.408571
216,-111.74475860595703,-118.53311157226562,77.69892883300781,2.22057202730487,4.802320366555003,-175.8512255066687,-1.2444093,-19.430786,-4.7757688,43.00664,3.5449653,-0.735022,-22.227947,3.7127416,-11.612054,6.5641274,3.266851,15.000033,-14.947547,-0.680062,-0.83722156,0.09802309,20.937262,-25.0966,38.96258,-5.8775277,-2.3339503,3.630413,24.073158,-24.846745,24.745762,63.55479,6.6434126,11.156542,8.661666
217,-112.71434020996094,-119.26583862304688,77.72541046142578,2.400843477627475,4.698670783818665,-175.73134271751306,-1.18657,-19.64401,-4.283226,43.83528,4.625583,-4.5623407,-21.991817,3.6907659,-11.511008,6.560783,3.305129,15.000033,-15.089477,-0.765242,-0.86258703,-0.040536832,20.712809,-25.45137,38.51169,-6.281942,-2.7025383,3.3866608,24.315466,-25.151485,24.04372,63.430748,6.403679,11.159871,9.00334
218,-113.67219543457031,-120.01061248779297,77.69004821777344,2.4452810890626986,4.644604513651149,-175.6437026195148,-1.3088871,-19.457914,-3.3567781,45.078957,5.148484,-8.714998,-21.699492,3.7015183,-11.581729,6.6313896,3.488499,15.000033,-15.148706,-0.7035527,-0.834207,-0.25830898,20.465054,-25.756056,38.14909,-6.7954106,-2.7938504,3.1761396,24.41409,-25.477036,23.381926,63.33781,6.1083508,11.203481,9.439808
219,-114.62373352050781,-120.76119232177734,77.58956909179688,2.406801637634358,4.60131556736311,-175.572748187492,-1.6163306,-18.894356,-1.9692687,46.820663,5.055799,-12.464838,-21.351149,3.7569747,-11.512611,6.7506123,3.760724,15.000033,-15.141791,-0.55456555,-0.7611344,-0.520514,20.199566,-26.0231,37.8892,-7.2895985,-2.7328758,2.9942975,24.409054,-25.82378,22.796667,63.27243,5.833983,11.260128,9.879684
220,-115.55567932128906,-121.53080749511719,77.41740417480469,2.3342630122600143,4.530842170939555,-175.5047626084986,-2.0691478,-17.93962,-0.09313726,49.0779,4.291523,-15.000033,-21.790194,3.7092605,-11.047067,8.701214,3.1194334,15.000033,-15.086221,-0.37537137,-0.651806,-0.78732276,19.928421,-26.263346,37.73889,-7.6383343,-2.6444714,2.8338847,24.334785,-26.189812,22.328764,63.234604,5.660016,11.303982,10.23072
221,-116.47740936279297,-122.27861785888672,77.16404724121094,2.290454214746522,4.405711915037827,-175.42404778560484,-2.5279098,-16.249392,2.9226074,51.84342,2.675565,-15.000033,-22.219248,3.7211778,-9.904719,10.780679,2.6088371,15.000033,-14.992924,-0.23425299,-0.48422217,-1.0597185,19.66325,-26.487026,37.693615,-7.8215017,-2.5307071,2.6946123,24.19129,-26.57743,21.998877,63.225685,5.6068983,11.322321,10.5009985
222,-117.4065933227539,-123.00752258300781,76.84284973144531,2.2236551072665995,4.244037967431721,-175.3358002377921,-2.9128144,-14.058591,6.1560693,55.068195,0.2933859,-15.000033,-22.598013,3.8357277,-8.319863,12.92811,2.2360263,15.000033,-14.861259,-0.09129292,-0.2534399,-1.3456016,19.407795,-26.682398,37.736607,-7.9038534,-2.3352263,2.5789545,23.96012,-26.98863,21.78792,63.242172,5.633672,11.333121,10.728292
223,-118.34764099121094,-123.74142456054688,76.46063995361328,2.054057645612142,4.06858322292772,-175.26739711137154,-3.2684221,-11.665625,8.9814,58.56788,-2.4356797,-15.000033,-23.097286,4.049252,-6.64862,15.482339,1.5326922,15.000033,-14.67619,0.14891374,0.010560859,-1.6147015,19.16176,-26.827785,37.854244,-7.8889184,-2.0950902,2.4815974,23.64819,-27.415798,21.67382,63.281322,5.724047,11.35376,10.865009
224,-119.28433227539062,-124.47431182861328,76.03673553466797,1.7750135646654923,3.926335976083756,-175.22940855643265,-3.7657306,-9.461109,10.920556,62.127056,-5.0145826,-15.000033,-23.962559,4.2933893,-5.2445,18.853504,0.024655191,14.624667,-14.436202,0.5148909,0.23508093,-1.8417051,18.922552,-26.903666,38.037865,-7.778966,-1.8470181,2.3973527,23.265974,-27.84757,21.629192,63.33605,5.859808,11.404081,10.861712
225,-120.22024536132812,-125.12843322753906,75.59329223632812,1.1138389688245938,3.8102220374513416,-175.31929176683505,-4.565788,-7.360594,11.700794,65.96187,-7.4938345,-15.000033,-25.115614,5.014106,-4.4836054,22.865631,-2.3444216,10.865094,-14.044311,1.2407249,0.45607,-2.0209463,18.693464,-26.928581,38.31938,-7.5277276,-1.611717,2.3202963,22.825897,-28.279173,21.686924,63.423344,6.035419,11.477065,10.717555
226,-121.13679504394531,-125.78874969482422,75.08952331542969,0.3724137451713566,3.701215094971179,-175.4203234997961,-5.5335255,-5.486598,11.8333845,69.88352,-9.939999,-14.512022,-26.61974,5.8648458,-3.840467,27.681242,-5.4369745,5.665247,-13.606116,2.048485,0.6376583,-2.1660905,18.477177,-26.907043,38.690792,-7.1498675,-1.3656117,2.253836,22.317776,-28.70952,21.849236,63.53999,6.2621593,11.565362,10.4520445
227,-122.08770751953125,-126.48663330078125,74.48445892333984,-0.29946905713690286,3.585615124828408,-175.47921962998637,-6.585227,-3.7798343,11.678736,73.73715,-12.327973,-13.719106,-28.133429,6.7120337,-3.315966,32.577824,-8.661039,0.5636103,-13.185438,2.7889276,0.8058909,-2.2838585,18.279436,-26.801786,39.092503,-6.736549,-1.0779985,2.2034705,21.742977,-29.127155,22.03739,63.63393,6.542384,11.687207,10.044362
228,-123.04679107666016,-127.16943359375,73.81793212890625,-0.7831292654748265,3.4794996937850318,-175.44798245812507,-7.676263,-2.0774624,11.566451,77.41748,-14.662506,-12.855664,-29.398788,7.308764,-2.9851446,37.00309,-11.633164,-2.9034274,-12.837675,3.350585,0.9735528,-2.383132,18.104607,-26.57984,39.464184,-6.3805647,-0.7181901,2.1760733,21.094347,-29.516207,22.174107,63.66372,6.882394,11.859322,9.472711
229,-123.97879028320312,-127.84798431396484,73.0996322631836,-1.0808585519226765,3.3876775601859874,-175.29365331590003,-8.801021,-0.2536172,11.541253,81.034134,-17.08657,-11.939762,-30.449053,7.4345803,-3.0603282,41.13549,-14.5857115,-4.1524453,-12.57121,3.7441883,1.1066964,-2.4645612,17.957361,-26.240887,39.80093,-6.072416,-0.26080132,2.115209,20.41827,-29.871012,22.2242,63.60245,7.3129773,12.1186695,8.708029
230,-124.87479400634766,-128.51966857910156,72.35625457763672,-1.3013585802734962,3.321899045084998,-175.06844262006123,-10.035679,1.6405708,11.389933,84.65331,-19.593983,-10.944167,-31.46,7.1357217,-3.4671774,45.32018,-17.744465,-4.110509,-12.334035,4.0710216,1.210853,-2.5226345,17.83708,-25.80733,40.12677,-5.7764583,0.27243927,2.0372074,19.695848,-30.192354,22.228403,63.4887,7.8244047,12.437252,7.7658734
231,-125.72377014160156,-129.15548706054688,71.62831115722656,-1.4898360960779382,3.3109120329875843,-174.85462897347765,-11.463083,3.5705428,11.089437,88.116356,-21.97441,-9.852161,-32.418182,6.566616,-3.9060352,49.30867,-20.781384,-3.5091434,-12.088731,4.3609304,1.3561786,-2.5593314,17.737131,-25.277319,40.433006,-5.546022,0.8418491,2.0596151,18.827513,-30.472826,22.216509,63.374424,8.3537035,12.7408085,6.6906214
232,-126.54098510742188,-129.75860595703125,70.96337127685547,-1.677255117742425,3.3778188631621644,-174.72882871839084,-13.164984,5.478779,10.629575,91.256004,-24.001772,-8.640773,-33.267532,6.029104,-4.0808287,52.745193,-23.355385,-3.0332804,-11.80078,4.629381,1.6129063,-2.5825307,17.649935,-24.649876,40.719574,-5.434866,1.4077859,2.3010693,17.70981,-30.699226,22.220388,63.321594,8.838163,12.953801,5.528481
233,-127.32823944091797,-130.35511779785156,70.40271759033203,-1.8625388138169066,3.5795256259774075,-174.74037581368196,-15.303305,7.3711014,9.998622,94.10354,-25.581228,-7.190537,-34.051674,5.7024403,-3.94835,55.495262,-25.306252,-2.743415,-11.42957,4.8687778,2.0213141,-2.6349764,17.572598,-23.85132,40.981495,-5.44514,1.9425889,2.820216,16.240284,-30.864738,22.280918,63.41208,9.345228,12.992,4.250952
234,-128.019775390625,-131.0121612548828,69.93165588378906,-2.0342044726747326,3.8863322677018424,-174.83878606842725,-17.823053,9.251186,9.190973,96.72297,-26.83769,-5.5392666,-34.77771,5.461409,-3.7138097,57.75739,-26.827318,-2.2927744,-11.006836,5.0773926,2.536156,-2.694969,17.512388,-22.89493,41.229965,-5.5524015,2.4704912,3.5464118,14.509134,-30.962414,22.35195,63.583588,9.86986,12.9138,2.8486378
235,-128.65499877929688,-131.6832733154297,69.52410888671875,-2.1962422690093466,4.187389266029304,-174.94786221156554,-20.46963,11.050796,8.238961,98.98746,-27.859335,-3.8951576,-35.29571,5.227968,-3.441673,59.605133,-28.125223,-1.7252351,-10.595342,5.2627935,3.100306,-2.692228,17.476482,-21.932676,41.492172,-5.7741675,3.0293195,4.4062424,12.686453,-30.976429,22.352741,63.70516,10.262188,12.863363,1.3944707
236,-129.31918334960938,-132.35546875,69.17730712890625,-2.349142036575652,4.371511684504936,-174.99083366955884,-22.977732,12.711919,7.188539,100.77317,-28.731346,-2.480413,-35.45805,4.907492,-3.184394,61.110355,-29.406275,-1.0922629,-10.250059,5.4228005,3.6520205,-2.578477,17.464409,-21.138271,41.80701,-6.133009,3.6568685,5.329719,10.934704,-30.892315,22.20564,63.660843,10.3669615,12.996542,-0.044812992
237,-130.05282592773438,-133.0657958984375,68.90117645263672,-2.4999068766594235,4.402544345651756,-174.94423564102988,-25.324558,14.242651,6.0203657,102.07251,-29.467152,-1.3479694,-35.190174,4.4698086,-2.9723532,62.25181,-30.73108,-0.38110083,-10.008188,5.5655484,4.210615,-2.3288584,17.463163,-20.566994,42.203068,-6.7421103,4.366691,6.441319,9.233313,-30.683428,21.788414,63.47547,9.983452,13.471415,-1.5396234
238,-130.79356384277344,-133.78594970703125,68.67208862304688,-2.6434238433152184,4.340341319884857,-174.85039722355933,-27.644964,15.663423,4.7476645,102.94616,-30.013905,-0.37953082,-34.57391,3.9751968,-2.7903662,63.002857,-31.998016,0.4201656,-9.808079,5.6773224,4.788173,-2.0145237,17.468904,-20.158598,42.688633,-7.5640984,5.1250987,7.744752,7.4965644,-30.347431,21.171476,63.23315,9.248781,14.185756,-3.0960042
239,-131.5222930908203,-134.48123168945312,68.51117706298828,-2.7616132082163203,4.217628253369998,-174.731458911441,-29.88865,16.951912,3.4808924,103.37558,-30.36089,0.4521893,-33.701206,3.4481864,-2.6098034,63.427536,-33.162342,1.2539614,-9.580672,5.726742,5.3151035,-1.703594,17.494308,-19.88669,43.245686,-8.389071,5.9098425,8.981611,5.788068,-29.924294,20.583544,62.894367,8.5026865,14.895023,-4.5531917
240,-132.2735595703125,-135.167236328125,68.44175720214844,-2.836932510172085,4.067428361490481,-174.60978246230164,-31.993526,18.096693,2.3372064,103.345,-30.50185,1.1748012,-32.66838,2.9026542,-2.3870842,63.586544,-34.166645,2.0727644,-9.272955,5.690938,5.7318883,-1.4404348,17.559235,-19.70768,43.826485,-9.005122,6.714885,9.881749,4.2087636,-29.475222,20.242544,62.36715,8.07423,15.339832,-5.7559915
