unveil-humanoid-operators/unveil-humanoid-operators.github.io/feature-analysis-animation/data/feature_matrix_fixed/age_jumping_turning_waist_rom_low.csv
Frame,root_translateX,root_translateY,root_translateZ,root_rotateX,root_rotateY,root_rotateZ,left_hip_pitch_joint_dof,left_hip_roll_joint_dof,left_hip_yaw_joint_dof,left_knee_joint_dof,left_ankle_pitch_joint_dof,left_ankle_roll_joint_dof,right_hip_pitch_joint_dof,right_hip_roll_joint_dof,right_hip_yaw_joint_dof,right_knee_joint_dof,right_ankle_pitch_joint_dof,right_ankle_roll_joint_dof,waist_yaw_joint_dof,waist_roll_joint_dof,waist_pitch_joint_dof,left_shoulder_pitch_joint_dof,left_shoulder_roll_joint_dof,left_shoulder_yaw_joint_dof,left_elbow_joint_dof,left_wrist_roll_joint_dof,left_wrist_pitch_joint_dof,left_wrist_yaw_joint_dof,right_shoulder_pitch_joint_dof,right_shoulder_roll_joint_dof,right_shoulder_yaw_joint_dof,right_elbow_joint_dof,right_wrist_roll_joint_dof,right_wrist_pitch_joint_dof,right_wrist_yaw_joint_dof
0,0.522359311580658,2.3281755447387695,78.29114532470703,-0.12342111451105141,0.08402014477662278,-94.75561531905602,0.60857147,2.3451228,12.419079,13.342722,-17.149584,-1.8158573,-2.8298647,-5.1409454,-10.148898,18.919092,-13.881224,4.1833386,-0.8415331,0.8195541,8.2667055,-7.2816157,16.560602,-40.30983,60.810345,-1.1171356,2.0277262,5.017891,-10.916256,-13.72365,48.040787,65.50958,-9.170295,-1.8612913,-1.7453258
1,0.5485709309577942,2.355086326599121,78.30791473388672,-0.1091938511092657,0.14277825253811166,-94.77939243886057,0.57618517,2.300574,12.442015,13.217941,-17.051481,-1.792432,-3.0096905,-5.231455,-10.429512,19.150406,-13.90154,4.108497,-0.8120467,0.78247863,8.256343,-7.306657,16.574951,-40.32023,60.761467,-1.0565957,2.0332878,5.009704,-10.973124,-13.714838,48.10956,65.54764,-9.089211,-1.8734759,-1.775691
2,0.5712862014770508,2.3773605823516846,78.31883239746094,-0.09442138258218094,0.20212205281376605,-94.80484746384289,0.54185647,2.255001,12.466069,13.095243,-16.951693,-1.7687485,-3.196776,-5.323568,-10.695219,19.392044,-13.924568,4.032278,-0.8323304,0.7551641,8.244612,-7.3690095,16.58283,-40.349514,60.75302,-1.0744265,2.035135,5.000642,-10.974211,-13.709868,48.11714,65.542336,-9.134724,-1.8811337,-1.8081247
3,0.5934960246086121,2.4042232036590576,78.31961822509766,-0.08213790220499279,0.2605024999699616,-94.82643162791204,0.5057624,2.2130394,12.487316,12.979877,-16.858345,-1.7456093,-3.3666935,-5.414982,-10.990587,19.610329,-13.942856,3.9579437,-0.8051875,0.7180921,8.226738,-7.389765,16.596199,-40.366074,60.70875,-1.0173855,2.0403867,4.9936824,-10.979741,-13.700547,48.12128,65.54573,-9.128088,-1.8898699,-1.8366847
4,0.6138792037963867,2.426729440689087,78.32714080810547,-0.07696419014102088,0.3164054414482183,-94.83799727627616,0.46511132,2.1813014,12.501202,12.881734,-16.780481,-1.7237945,-3.5023427,-5.50417,-11.360775,19.788868,-13.952555,3.8887522,-0.8023563,0.68629974,8.218453,-7.481689,16.618647,-40.45695,60.718212,-1.0590454,2.0412664,4.9861813,-11.018934,-13.686473,48.165424,65.55661,-9.083528,-1.8947456,-1.8536652
5,0.6329582333564758,2.4489798545837402,78.33483123779297,-0.0822575673173969,0.37037075493418425,-94.8357708682835,0.41994575,2.162757,12.506364,12.80031,-16.721893,-1.7025145,-3.595227,-5.5907555,-11.83591,19.918365,-13.948486,3.8299758,-0.80170685,0.6570063,8.20394,-7.5414386,16.646952,-40.529015,60.70975,-1.0591611,2.0426214,4.9785953,-11.02773,-13.66709,48.161343,65.53728,-9.068967,-1.890933,-1.8524221
6,0.6489377617835999,2.467350721359253,78.34461975097656,-0.09579314179285527,0.4223531004774404,-94.82402278334693,0.36875206,2.1558428,12.505356,12.7385025,-16.681265,-1.6819035,-3.6563234,-5.6739163,-12.385959,20.01285,-13.935156,3.7781944,-0.8107943,0.6428056,8.187472,-7.568736,16.651669,-40.544376,60.69428,-0.99024385,2.0427632,4.9697137,-11.036533,-13.663797,48.164906,65.50085,-9.036783,-1.8809417,-1.8344889
7,0.6624479293823242,2.4869768619537354,78.35083770751953,-0.10964553384922858,0.4723301653082845,-94.80734198148531,0.31538668,2.151068,12.498686,12.68655,-16.646032,-1.663221,-3.6939993,-5.7565336,-12.966555,20.077192,-13.9207,3.7245805,-0.8120835,0.6117168,8.170906,-7.6484375,16.688484,-40.658047,60.708664,-1.0159113,2.0420778,4.9634643,-11.009615,-13.6371765,48.10981,65.44323,-9.062698,-1.8703113,-1.8188417
8,0.6755290627479553,2.509019374847412,78.34947967529297,-0.12044241871704407,0.5172324133039485,-94.79276189860401,0.25714737,2.148107,12.488014,12.657899,-16.617338,-1.6490006,-3.711379,-5.834594,-13.532214,20.10985,-13.909953,3.6595318,-0.8077906,0.5780882,8.157146,-7.7030816,16.72788,-40.74044,60.702892,-1.0026549,2.0427928,4.953957,-10.984988,-13.608203,48.06273,65.38894,-9.094212,-1.8667147,-1.8079147
9,0.6892205476760864,2.525597333908081,78.35540771484375,-0.12843773169705694,0.5573274258120311,-94.77705839991485,0.18955712,2.148261,12.466965,12.658725,-16.59503,-1.6411278,-3.7039359,-5.9108543,-14.112413,20.108248,-13.902863,3.5718145,-0.7990102,0.5373757,8.150464,-7.773938,16.779907,-40.84827,60.701977,-1.0069121,2.0440257,4.9412985,-10.994419,-13.571155,48.075375,65.35921,-9.078228,-1.8742704,-1.8097456
10,0.6928703188896179,2.5437982082366943,78.35874938964844,-0.13588856220317633,0.5933808639706267,-94.75855419202244,0.11461484,2.1526062,12.436941,12.683694,-16.580301,-1.6380357,-3.6706934,-5.9841375,-14.717666,20.072886,-13.896992,3.4697075,-0.7918534,0.495754,8.14432,-7.8298774,16.830172,-40.936596,60.694157,-0.98219675,2.0456295,4.926178,-11.0024,-13.535302,48.10443,65.324776,-9.061411,-1.8870043,-1.816919
11,0.6990325450897217,2.5593197345733643,78.36231994628906,-0.13974013800218765,0.6252840201298605,-94.74494984664948,0.040782593,2.1555147,12.410816,12.720733,-16.570799,-1.6362274,-3.623171,-6.0496306,-15.274969,20.007736,-13.893947,3.3738227,-0.7977098,0.45997858,8.141928,-7.9289346,16.865416,-41.053524,60.73207,-1.0162665,2.0430784,4.9135838,-10.983134,-13.510859,48.110817,65.26134,-9.095894,-1.8984318,-1.8227963
12,0.6990886926651001,2.5749974250793457,78.36019134521484,-0.13543740804188598,0.6530319499144334,-94.74385829650453,-0.01854282,2.1493318,12.401374,12.74599,-16.558023,-1.6322483,-3.572979,-6.1032734,-15.710874,19.91545,-13.893828,3.3043268,-0.7649874,0.40767387,8.140556,-7.9762354,16.91779,-41.130505,60.718987,-0.9969047,2.04353,4.905838,-10.978537,-13.473429,48.117172,65.21935,-9.095984,-1.910099,-1.8230145
13,0.7044361233711243,2.587704658508301,78.36154174804688,-0.1199364965614537,0.6777524711716961,-94.75799344152217,-0.06486468,2.1297708,12.413083,12.760655,-16.54054,-1.623943,-3.5240812,-6.1447377,-15.999237,19.791256,-13.902733,3.2565517,-0.7306174,0.35396495,8.140902,-8.011222,16.950977,-41.162228,60.709156,-0.95776576,2.0423746,4.905702,-10.966118,-13.449099,48.12081,65.16382,-9.103825,-1.9166774,-1.8106971
14,0.7092623114585876,2.598690986633301,78.35867309570312,-0.0951016499633769,0.6991383875007127,-94.78304877629787,-0.10150892,2.1003737,12.4387455,12.770106,-16.52,-1.6135917,-3.470997,-6.1768823,-16.180935,19.635563,-13.918164,3.222829,-0.6816245,0.28517163,8.145017,-8.012069,17.005112,-41.162968,60.66075,-0.8938104,2.0438862,4.90928,-10.975567,-13.408007,48.140957,65.13063,-9.084184,-1.9240516,-1.7926402
15,0.7155546545982361,2.6099135875701904,78.35904693603516,-0.06901037983606949,0.7146826564854127,-94.81624231166379,-0.12774852,2.070826,12.473798,12.7797165,-16.50479,-1.604047,-3.411213,-6.1993876,-16.284147,19.460667,-13.928447,3.2189887,-0.6238077,0.22723253,8.156787,-8.054828,17.030224,-41.18549,60.66034,-0.8761372,2.0391357,4.9169664,-11.002214,-13.389505,48.19637,65.098595,-9.024556,-1.929961,-1.7739701
16,0.7270451188087463,2.6209418773651123,78.35356903076172,-0.04781512815851925,0.7218920706785598,-94.8552271041506,-0.1370352,2.0474422,12.514184,12.782607,-16.497053,-1.5978929,-3.3410423,-6.2121735,-16.336689,19.275604,-13.919962,3.2609148,-0.5635002,0.17621298,8.171641,-8.063487,17.056042,-41.170273,60.640507,-0.8517022,2.0298314,4.922372,-11.017548,-13.369181,48.243263,65.06423,-8.985106,-1.9343786,-1.7642858
17,0.732093334197998,2.6301052570343018,78.3471450805664,-0.030199604640978726,0.7192959737994771,-94.90115008601565,-0.12694798,2.0288982,12.561817,12.7787485,-16.499962,-1.5946302,-3.2610257,-6.2180214,-16.320065,19.08157,-13.888415,3.3741875,-0.52788067,0.13797419,8.198032,-8.114764,17.086168,-41.18922,60.655014,-0.9499074,2.0082505,4.9232974,-11.011475,-13.344955,48.26512,65.01696,-9.015062,-1.9356012,-1.7690086
18,0.7426350116729736,2.6355702877044678,78.34359741210938,-0.013470306780146213,0.7084001480843393,-94.95482182327727,-0.09912309,2.0115442,12.618124,12.766972,-16.509321,-1.5931962,-3.1698895,-6.216148,-16.228231,18.868761,-13.840987,3.542832,-0.43400708,0.09630387,8.22394,-8.018331,17.109625,-41.049843,60.556282,-0.8509763,1.986779,4.9215474,-11.039299,-13.322063,48.3304,65.00592,-8.946248,-1.9399012,-1.7813225
19,0.7499568462371826,2.6358251571655273,78.33914184570312,-0.0026274727234309207,0.6915435207134303,-95.01275671649111,-0.061984617,2.00268,12.677426,12.7562685,-16.525085,-1.5956718,-3.0702965,-6.202501,-16.106777,18.647825,-13.784119,3.7209105,-0.41891164,0.07677724,8.273402,-8.1703205,17.134363,-41.156612,60.659042,-1.1380876,1.9527584,4.9228716,-11.079909,-13.302068,48.422337,64.98339,-8.9369335,-1.939507,-1.7962803
20,0.7570001482963562,2.634371519088745,78.33563995361328,-0.0009477235569708693,0.670795902001743,-95.07146021938733,-0.021083165,2.0076952,12.734408,12.749807,-16.544245,-1.6042861,-2.9652863,-6.17384,-16.000847,18.430555,-13.725661,3.8626454,-0.3503433,0.056875244,8.301642,-8.116865,17.152496,-41.077724,60.62475,-1.1378605,1.9376059,4.928331,-11.066807,-13.280911,48.434345,64.944176,-8.967398,-1.9406888,-1.8010645
21,0.7606350183486938,2.6311967372894287,78.33377075195312,-0.011209134852594959,0.6448849519096965,-95.13397325681119,0.026990883,2.0298324,12.791113,12.745063,-16.566723,-1.6218921,-2.8555357,-6.126382,-15.911666,18.219814,-13.665012,3.9601908,-0.2967208,0.05257745,8.339571,-8.090546,17.169611,-41.02653,60.6236,-1.1810907,1.9314563,4.9385695,-11.124502,-13.258888,48.540733,64.95099,-8.915512,-1.9444792,-1.7940623
22,0.7622453570365906,2.624009132385254,78.3321304321289,-0.03067081081140807,0.6132910858203198,-95.20082872276866,0.08398933,2.0657504,12.84922,12.7403755,-16.593464,-1.6466997,-2.7394435,-6.062689,-15.818846,18.009418,-13.598285,4.036703,-0.24620229,0.061166476,8.376984,-8.054296,17.179974,-40.97075,60.633076,-1.2257982,1.9316647,4.952706,-11.161624,-13.241094,48.622437,64.94334,-8.906248,-1.94701,-1.7790458
23,0.7621555328369141,2.6166903972625732,78.33163452148438,-0.056921531415546234,0.5791530455054797,-95.26517938591824,0.13906355,2.11177,12.903105,12.748041,-16.626726,-1.6734978,-2.6162357,-5.9879103,-15.734511,17.794739,-13.528008,4.0932207,-0.19489086,0.075829916,8.411199,-8.0175295,17.184011,-40.928364,60.660027,-1.2666391,1.9366637,4.9711833,-11.166622,-13.229946,48.66006,64.911064,-8.939799,-1.9484639,-1.7619493
24,0.7608357071876526,2.6107282638549805,78.3323974609375,-0.087285803156871,0.5456718913379929,-95.31886154373478,0.18314648,2.163684,12.945754,12.77482,-16.665083,-1.6970797,-2.4853327,-5.907615,-15.672312,17.572477,-13.454975,4.130712,-0.17871864,0.09392754,8.442985,-7.958529,17.187912,-40.86563,60.687702,-1.2803108,1.9445093,4.9920697,-11.209095,-13.209973,48.74638,64.91043,-8.926634,-1.9521738,-1.7510756
25,0.75599604845047,2.6033763885498047,78.33316040039062,-0.12499057413060567,0.5124586291636564,-95.36000477725369,0.21274915,2.2259805,12.974829,12.829038,-16.712673,-1.7157091,-2.3398664,-5.816192,-15.640205,17.331707,-13.376331,4.142412,-0.1764981,0.11332068,8.468158,-7.8957057,17.18853,-40.81754,60.736614,-1.2709998,1.9581301,5.0249667,-11.232548,-13.1864195,48.804447,64.90241,-8.935531,-1.9570829,-1.7453158
26,0.750739336013794,2.5974161624908447,78.33535766601562,-0.17029946824922554,0.4781769119651226,-95.39228101050811,0.23308232,2.2989054,12.993652,12.904748,-16.768452,-1.7322477,-2.181638,-5.7129173,-15.630027,17.075981,-13.291422,4.130582,-0.17487928,0.13594396,8.491635,-7.8352594,17.185722,-40.79146,60.80463,-1.246978,1.977584,5.0674195,-11.254614,-13.166494,48.853638,64.894005,-8.935623,-1.9637796,-1.7411208
27,0.7470209002494812,2.583735466003418,78.33995819091797,-0.21625676301207591,0.44476271306141435,-95.41923718887521,0.24772367,2.373955,13.006764,12.989492,-16.825869,-1.748863,-2.0256937,-5.6091247,-15.62815,16.828608,-13.20867,4.1089406,-0.19510782,0.15935779,8.5067215,-7.7589836,17.179564,-40.757042,60.87733,-1.2157559,1.996731,5.1028733,-11.240598,-13.143805,48.851948,64.86213,-8.995095,-1.9678869,-1.7416313
28,0.7347662448883057,2.571762800216675,78.34076690673828,-0.2549666288170935,0.41402253329719096,-95.4446633587277,0.25988492,2.4416795,13.019517,13.071859,-16.87921,-1.7675537,-1.8894345,-5.518223,-15.619866,16.617695,-13.138658,4.091218,-0.19216663,0.17201276,8.527275,-7.7000356,17.17687,-40.752857,60.95126,-1.1976789,2.0104444,5.115007,-11.252235,-13.137148,48.861847,64.82652,-8.98355,-1.9710345,-1.7474191
29,0.7242205739021301,2.5641345977783203,78.34015655517578,-0.2886761080733727,0.3854635617023304,-95.46822062552646,0.26362473,2.5059361,13.030485,13.165439,-16.934181,-1.7898822,-1.771809,-5.4381533,-15.604294,16.441662,-13.078705,4.0766754,-0.20820509,0.18028937,8.535836,-7.625973,17.164656,-40.737144,61.032032,-1.1903398,2.0127683,5.0956244,-11.294323,-13.111387,48.90696,64.822136,-8.921161,-1.9679317,-1.7693353
30,0.7136511206626892,2.5510315895080566,78.3431625366211,-0.318438938466601,0.3584695079763804,-95.48851492434568,0.25869712,2.567749,13.03854,13.271885,-16.990196,-1.814103,-1.6668957,-5.366212,-15.587333,16.291515,-13.026374,4.059692,-0.24367973,0.1847917,8.534349,-7.5440316,17.141415,-40.710823,61.128918,-1.1858826,2.006547,5.0527906,-11.315886,-13.065118,48.899582,64.81764,-8.910069,-1.9614809,-1.8014749
31,0.7018596529960632,2.5417463779449463,78.34391021728516,-0.3426710964654598,0.3347761773480057,-95.50670499501456,0.2583412,2.6222951,13.045622,13.360639,-17.037779,-1.8387372,-1.5773255,-5.303833,-15.569238,16.168352,-12.984994,4.0446954,-0.27891234,0.1818363,8.529358,-7.458183,17.124454,-40.69438,61.2159,-1.1828536,2.0029032,5.003355,-11.294512,-13.033302,48.832508,64.76573,-8.94706,-1.953466,-1.832482
32,0.6851252317428589,2.528909683227539,78.34394836425781,-0.3589439342939582,0.3161944482872686,-95.52402395075211,0.26552427,2.6651268,13.053503,13.421473,-17.07264,-1.8619671,-1.5063518,-5.254505,-15.549926,16.074596,-12.958644,4.0364094,-0.3009733,0.16772209,8.521841,-7.3858204,17.106853,-40.700687,61.30136,-1.1746451,2.009448,4.966131,-11.30548,-13.002824,48.801746,64.73283,-8.918528,-1.9545817,-1.8556526
33,0.6703069806098938,2.5164215564727783,78.34402465820312,-0.3664260217810416,0.30408253725977,-95.53886914012088,0.28319597,2.6945221,13.060323,13.44541,-17.090494,-1.8836405,-1.4535077,-5.218942,-15.530272,16.006824,-12.947001,4.0369,-0.3264516,0.1419909,8.501577,-7.318764,17.07966,-40.718296,61.393406,-1.1498628,2.0338523,4.9489017,-11.311107,-12.9569,48.755104,64.70603,-8.900038,-1.9656337,-1.8699448
34,0.6506159901618958,2.5047221183776855,78.34127807617188,-0.3663414727775262,0.29721523095587604,-95.551428135958,0.30728775,2.7130957,13.065836,13.443144,-17.095297,-1.9044048,-1.4168075,-5.1951885,-15.510133,15.96372,-12.94784,4.043297,-0.35453257,0.106896915,8.47971,-7.247307,17.060574,-40.742527,61.467415,-1.114106,2.0709794,4.9395113,-11.328127,-12.925642,48.730618,64.66822,-8.841305,-1.9826013,-1.8778865
35,0.6290730834007263,2.4930875301361084,78.33980560302734,-0.35974522243473134,0.29359916361824306,-95.56463232467736,0.335898,2.7228546,13.074345,13.423938,-17.092402,-1.9244306,-1.3984079,-5.1830897,-15.487687,15.952312,-12.962176,4.053197,-0.39506254,0.067173585,8.453051,-7.165307,17.04677,-40.755295,61.526157,-1.0811745,2.1056793,4.928492,-11.2985,-12.902468,48.65267,64.589096,-8.854631,-1.9996475,-1.8805164
36,0.610194742679596,2.4781179428100586,78.33837890625,-0.34748893009366477,0.29111724216529283,-95.58196524229857,0.37166432,2.7246277,13.090731,13.387396,-17.08225,-1.9438201,-1.3965336,-5.181051,-15.461451,15.972354,-12.987461,4.0640335,-0.40886727,0.020381978,8.427776,-7.1119947,17.027481,-40.79352,61.601048,-1.0747508,2.1220777,4.909228,-11.310334,-12.87218,48.61051,64.553116,-8.807694,-2.021248,-1.8810097
37,0.5902734994888306,2.465012788772583,78.33682250976562,-0.3299386238949616,0.2867974483027968,-95.60500386836821,0.4231933,2.717948,13.118566,13.324463,-17.06246,-1.962939,-1.4032714,-5.187677,-15.43651,16.015594,-13.021779,4.0745597,-0.43999243,-0.026538834,8.404673,-7.0443916,17.017534,-40.807907,61.65673,-1.0955853,2.1106756,4.8691597,-11.292498,-12.856744,48.55002,64.48407,-8.810162,-2.0420785,-1.8737667
38,0.5708882808685303,2.453068971633911,78.33511352539062,-0.3065469589415111,0.2824746550372663,-95.63196550478715,0.48964322,2.7019463,13.1550045,13.231718,-17.032091,-1.981711,-1.4226187,-5.2040243,-15.411746,16.086422,-13.067481,4.0862775,-0.45058873,-0.08126282,8.382603,-6.9987717,17.005062,-40.84605,61.72399,-1.1419172,2.0807693,4.8175673,-11.290126,-12.83834,48.492203,64.43167,-8.7895355,-2.0685358,-1.8599212
39,0.5543493628501892,2.4426987171173096,78.3333740234375,-0.27717042865403574,0.28375809742066466,-95.65964421118956,0.54722667,2.6793914,13.1925535,13.142053,-16.999788,-1.9991369,-1.4687786,-5.232345,-15.377094,16.198023,-13.126412,4.101116,-0.47540754,-0.13671756,8.358499,-6.94108,16.998547,-40.858727,61.76789,-1.1896937,2.049658,4.7700744,-11.284317,-12.829628,48.450516,64.372116,-8.776634,-2.0904422,-1.8492984
40,0.5355618000030518,2.4334876537323,78.3301010131836,-0.2420752764122714,0.2959453133408971,-95.68680042201903,0.579001,2.6522715,13.225829,13.074958,-16.972412,-2.0146606,-1.559429,-5.2746415,-15.320646,16.370708,-13.2037115,4.120655,-0.47441772,-0.19728208,8.333409,-6.908454,16.992188,-40.876793,61.810642,-1.2278295,2.0321655,4.7423306,-11.310274,-12.82305,48.436275,64.348045,-8.723788,-2.1093588,-1.8494465
41,0.5179855227470398,2.4250171184539795,78.32839965820312,-0.20010644263853883,0.32299916794031636,-95.71274973456755,0.5758349,2.619999,13.253284,13.038608,-16.95137,-2.0267332,-1.7028608,-5.333388,-15.23964,16.612429,-13.303094,4.1457343,-0.48457816,-0.2573213,8.293488,-6.8638806,16.98636,-40.865135,61.82913,-1.2601168,2.0346377,4.743965,-11.308935,-12.818579,48.410255,64.31728,-8.723831,-2.1144116,-1.8723488
42,0.4944884181022644,2.4231605529785156,78.32048034667969,-0.15170604023713982,0.3609993630987472,-95.73886075067645,0.5515672,2.581177,13.278239,13.015899,-16.930964,-2.0376904,-1.8881335,-5.406266,-15.13968,16.91088,-13.42059,4.175479,-0.49719238,-0.31822428,8.246221,-6.8207364,16.975224,-40.822456,61.838985,-1.2779185,2.0472155,4.7619247,-11.282639,-12.811802,48.342556,64.28321,-8.795022,-2.1114652,-1.9066594
43,0.47543108463287354,2.42095685005188,78.3118896484375,-0.09895998870477256,0.40418724389099314,-95.76315707213466,0.5139624,2.538404,13.299757,13.004313,-16.91354,-2.0474963,-2.1023698,-5.488745,-15.024745,17.253035,-13.5492525,4.209611,-0.5020903,-0.3822022,8.200604,-6.7923493,16.96386,-40.78013,61.846798,-1.2855817,2.0648758,4.789765,-11.277713,-12.806829,48.301044,64.2713,-8.836588,-2.107433,-1.9404359
44,0.46018171310424805,2.4205987453460693,78.30364227294922,-0.04391904485592004,0.44689263768197574,-95.78368307758718,0.46952254,2.494198,13.316806,13.004477,-16.901896,-2.0568879,-2.3340566,-5.5763836,-14.898684,17.628752,-13.683579,4.247448,-0.52084225,-0.4469415,8.170048,-6.8267746,16.956848,-40.788742,61.888355,-1.34513,2.080688,4.818433,-11.31701,-12.804486,48.31227,64.28895,-8.829036,-2.106669,-1.9589852
45,0.438181072473526,2.425915002822876,78.29179382324219,0.01406032515058311,0.49222063147640466,-95.79875127901916,0.41635996,2.447236,13.326986,13.011794,-16.89822,-2.0654206,-2.5923963,-5.6719184,-14.75874,18.050144,-13.829002,4.2889824,-0.5194021,-0.51813823,8.119992,-6.743871,16.936949,-40.660706,61.85167,-1.1930511,2.1039565,4.8545666,-11.307643,-12.798856,48.273216,64.301346,-8.862682,-2.1095343,-1.9554793
46,0.41570594906806946,2.4307961463928223,78.28009796142578,0.07547958669149679,0.5416054420329067,-95.80979826751167,0.35036123,2.3975384,13.331577,13.032123,-16.901758,-2.072945,-2.885087,-5.7772746,-14.603425,18.529793,-13.987798,4.334163,-0.524859,-0.593186,8.076442,-6.7008862,16.923483,-40.560574,61.830544,-1.0632637,2.130484,4.8983517,-11.322279,-12.795545,48.26287,64.33381,-8.872865,-2.1148705,-1.9374505
47,0.39629942178726196,2.4353363513946533,78.266845703125,0.13847113083451,0.5869664408683655,-95.81958177004303,0.28891996,2.3456488,13.33525,13.049432,-16.902727,-2.0805569,-3.178384,-5.883675,-14.440187,19.015305,-14.144055,4.382832,-0.5803407,-0.66018313,8.054386,-6.771426,16.914652,-40.55744,61.884754,-1.0886207,2.1490998,4.937005,-11.354359,-12.79226,48.278084,64.36899,-8.90725,-2.1161723,-1.9175779
48,0.37342360615730286,2.4399707317352295,78.2571792602539,0.2014860909436084,0.6209990171578134,-95.83096902253602,0.2500201,2.2916079,13.342841,13.04523,-16.890049,-2.0895705,-3.4545329,-5.986298,-14.274794,19.487928,-14.288178,4.434565,-0.58593935,-0.7314829,8.031816,-6.7836165,16.90776,-40.532417,61.88579,-1.0244242,2.1632535,4.9633775,-11.375867,-12.790253,48.282593,64.413185,-8.903703,-2.1144032,-1.9094969
49,0.3536571264266968,2.44555401802063,78.24915313720703,0.26838672725809626,0.6396352791136781,-95.84748181965037,0.24578816,2.2293105,13.358794,13.004425,-16.853558,-2.0999513,-3.710947,-6.0908237,-14.109151,19.951078,-14.420137,4.491506,-0.5872996,-0.7999865,8.02451,-6.775383,16.900398,-40.490505,61.86184,-0.93316,2.1658278,4.9657607,-11.394339,-12.788552,48.287395,64.46203,-8.909307,-2.104764,-1.9155284
50,0.33273443579673767,2.453385353088379,78.24043273925781,0.3373449634780045,0.6476308397596038,-95.86685482945425,0.26389435,2.1619265,13.379374,12.940596,-16.801939,-2.111347,-3.9576476,-6.196743,-13.939832,20.41449,-14.543999,4.5528617,-0.6256094,-0.85853875,8.037766,-6.8445415,16.888802,-40.512863,61.892727,-0.9505472,2.15545,4.952229,-11.435731,-12.785073,48.332165,64.52494,-8.917681,-2.0880558,-1.9297695
51,0.3131873309612274,2.4603183269500732,78.23296356201172,0.4026947342632841,0.6500716697339143,-95.8825060694093,0.28870177,2.0987945,13.397375,12.873829,-16.749435,-2.123694,-4.1903625,-6.2934103,-13.765858,20.858496,-14.65614,4.6144977,-0.6366877,-0.9186858,8.04819,-6.8615046,16.883427,-40.508205,61.873867,-0.89166427,2.145944,4.9364343,-11.444461,-12.783816,48.33267,64.57159,-8.933168,-2.0700388,-1.9474738
52,0.2906317114830017,2.4671471118927,78.23033905029297,0.45798686539447464,0.6513471095129155,-95.88794380016947,0.30603194,2.0491948,13.405483,12.821917,-16.708998,-2.136854,-4.4040084,-6.3698254,-13.586657,21.263096,-14.753315,4.6724257,-0.66966397,-0.9695679,8.068494,-6.93655,16.879795,-40.5585,61.893402,-0.89969915,2.1351426,4.927687,-11.485665,-12.783107,48.36015,64.62814,-8.895521,-2.055876,-1.9627073
53,0.2662947475910187,2.4757635593414307,78.22877502441406,0.499285289141406,0.6514108318130999,-95.88485430237915,0.3171863,2.018065,13.40521,12.784083,-16.684649,-2.1507866,-4.597387,-6.41992,-13.397482,21.623806,-14.829182,4.7293506,-0.71815246,-1.0100595,8.086927,-7.0306416,16.879986,-40.644318,61.9264,-0.9374622,2.1267533,4.9344325,-11.512455,-12.78258,48.364525,64.66637,-8.84402,-2.0435975,-1.9737427
54,0.2386617213487625,2.4855098724365234,78.22139739990234,0.5311389524491733,0.6479241653148461,-95.87528463505312,0.3289927,1.9989147,13.399304,12.751151,-16.668188,-2.1655037,-4.7736864,-6.451374,-13.20036,21.953573,-14.888604,4.7859864,-0.7554214,-1.0460505,8.108899,-7.0967474,16.882915,-40.709198,61.928947,-0.91694826,2.1212616,4.9478045,-11.551948,-12.783344,48.369694,64.7105,-8.737196,-2.0341783,-1.9818696
55,0.21175596117973328,2.495995283126831,78.21416473388672,0.5576353885908549,0.6436012958495484,-95.8545492602474,0.33194855,1.987303,13.382607,12.7338295,-16.658688,-2.1812806,-4.931766,-6.471278,-13.004595,22.247963,-14.939272,4.8351336,-0.8137817,-1.0767475,8.129849,-7.1441545,16.885834,-40.740242,61.91578,-0.87146825,2.1149988,4.9572177,-11.578287,-12.783965,48.361813,64.740005,-8.6482115,-2.0256598,-1.9929239
56,0.18393447995185852,2.505246877670288,78.20855712890625,0.5835216192262362,0.6408387391316637,-95.81659113217975,0.315601,1.9782754,13.349253,12.744825,-16.655657,-2.1983473,-5.071657,-6.4877725,-12.8198,22.506237,-14.99082,4.8698936,-0.8649893,-1.1129823,8.15452,-7.2531176,16.901777,-40.855793,61.933018,-0.9115935,2.1048565,4.9569483,-11.583069,-12.785777,48.309586,64.74686,-8.599231,-2.0207932,-2.0118604
57,0.15303561091423035,2.517796277999878,78.20310974121094,0.6102302795601334,0.6405248809775121,-95.75648888090493,0.27387363,1.97041,13.294368,12.791168,-16.65938,-2.217198,-5.195258,-6.5017786,-12.639198,22.728804,-15.044524,4.88695,-0.9341548,-1.1529253,8.177855,-7.338208,16.919544,-40.9205,61.92474,-0.91375816,2.0918593,4.9311748,-11.576183,-12.787104,48.237144,64.73845,-8.584261,-2.0214984,-2.0421462
58,0.1210334450006485,2.5301365852355957,78.19778442382812,0.6354507768071713,0.6412945528413309,-95.67842126782784,0.21267557,1.966424,13.222291,12.866436,-16.670828,-2.2376688,-5.30283,-6.509795,-12.46066,22.917856,-15.096754,4.8907223,-1.0088955,-1.196802,8.206866,-7.456676,16.948462,-41.02085,61.92583,-0.9581315,2.075671,4.8897424,-11.578061,-12.78843,48.164078,64.72577,-8.558885,-2.0277982,-2.0809402
59,0.08745911717414856,2.5415565967559814,78.19269561767578,0.6572271922832059,0.642040480255766,-95.59101750248875,0.14362314,1.9667332,13.14067,12.95448,-16.68626,-2.2586443,-5.387277,-6.5115266,-12.301548,23.065363,-15.144769,4.8858023,-1.0937434,-1.238031,8.237605,-7.5900936,16.984682,-41.13604,61.9301,-1.0289931,2.057855,4.852323,-11.575565,-12.78956,48.08471,64.70641,-8.557317,-2.033812,-2.1202679
60,0.051613129675388336,2.550685405731201,78.18610382080078,0.6734980070777059,0.6417873457252412,-95.5029889082123,0.07591984,1.9723749,13.057496,13.044153,-16.704294,-2.2791293,-5.44281,-6.506724,-12.178871,23.166489,-15.187193,4.876741,-1.1818434,-1.2685367,8.264837,-7.69023,17.01556,-41.20626,61.91144,-1.0545691,2.0410445,4.8383737,-11.56675,-12.7905,48.008213,64.68791,-8.5833,-2.0347946,-2.1520603
61,0.019719377160072327,2.5613889694213867,78.18090057373047,0.6797284535693314,0.6387969992760547,-95.41222818526204,0.008609745,1.9890754,12.969663,13.140029,-16.727535,-2.3004467,-5.4665093,-6.4908485,-12.096436,23.22071,-15.219848,4.8633137,-1.2484744,-1.2940829,8.29467,-7.7572546,17.064823,-41.26117,61.84938,-1.0373306,2.0270808,4.8594694,-11.529444,-12.795215,47.878582,64.64782,-8.682401,-2.0279386,-2.1757646
62,-0.011765814386308193,2.5699892044067383,78.17881774902344,0.6779215506048919,0.634256702333032,-95.31551728935662,-0.063650906,2.014922,12.874382,13.248821,-16.757452,-2.3219094,-5.4615884,-6.4650564,-12.045693,23.229675,-15.244261,4.843639,-1.3435687,-1.3024986,8.32986,-7.8874526,17.102468,-41.369183,61.84128,-1.1067587,2.007282,4.905807,-11.533354,-12.8013735,47.815147,64.632385,-8.760717,-2.0165524,-2.19825
63,-0.04404168948531151,2.578892230987549,78.17657470703125,0.6773779729606387,0.6309691426976096,-95.2202272152403,-0.1319012,2.0377421,12.7809515,13.348876,-16.784061,-2.3417118,-5.43237,-6.4399223,-12.024162,23.193695,-15.269227,4.819811,-1.4328995,-1.3074341,8.356234,-7.9888577,17.129948,-41.435783,61.81814,-1.1318964,1.9896022,4.957655,-11.509428,-12.807599,47.730946,64.6082,-8.868999,-2.0043683,-2.211448
64,-0.07486362010240555,2.5843892097473145,78.17140197753906,0.6873179106193027,0.6317682652490165,-95.13398115510479,-0.18705821,2.0450666,12.698647,13.418075,-16.79665,-2.3575213,-5.382476,-6.4259534,-12.029538,23.111792,-15.302838,4.7937913,-1.4989548,-1.3195432,8.374986,-8.08597,17.153753,-41.49516,61.791374,-1.1475892,1.9767134,4.996972,-11.479989,-12.815641,47.66596,64.59348,-8.927553,-1.998217,-2.2099588
65,-0.1062980368733406,2.5890910625457764,78.1668472290039,0.7168254002009097,0.6387123856594501,-95.05725257655875,-0.22639082,2.0249624,12.629918,13.446216,-16.79034,-2.3653557,-5.31319,-6.435453,-12.067597,22.9838,-15.356921,4.769858,-1.5569028,-1.3427415,8.379909,-8.179601,17.166838,-41.536263,61.77205,-1.1558852,1.9680754,5.0174866,-11.449634,-12.821702,47.639816,64.59575,-8.906907,-1.9991933,-2.1868627
66,-0.1303369700908661,2.586452007293701,78.16232299804688,0.7588336840925308,0.649868105501706,-94.98656885420652,-0.25391808,1.9864722,12.570012,13.444427,-16.769957,-2.3674989,-5.2236643,-6.460042,-12.137443,22.812632,-15.425316,4.7457576,-1.5856237,-1.377443,8.378037,-8.27939,17.18714,-41.598568,61.748535,-1.1735446,1.9640774,5.029532,-11.400291,-12.835852,47.61124,64.59077,-8.843584,-2.004819,-2.1459432
67,-0.16310393810272217,2.5892863273620605,78.15715026855469,0.7984097673962836,0.6618702480957197,-94.92323971283572,-0.2742824,1.9509102,12.516584,13.431016,-16.745655,-2.3711753,-5.109677,-6.4769454,-12.226917,22.592154,-15.4837,4.7139277,-1.6150438,-1.4033586,8.375001,-8.382541,17.198675,-41.644333,61.730667,-1.1982816,1.9616197,5.038633,-11.358948,-12.84749,47.615047,64.60255,-8.775981,-2.0132115,-2.1015291
68,-0.190938800573349,2.5897536277770996,78.15457916259766,0.8208944409424683,0.6716134758369723,-94.86872149617432,-0.2925839,1.9391373,12.468371,13.424924,-16.727726,-2.3835855,-4.970221,-6.4644666,-12.323156,22.32178,-15.510679,4.6666636,-1.6205741,-1.4121805,8.377486,-8.474413,17.209799,-41.675602,61.692814,-1.2142564,1.9629819,5.052192,-11.314143,-12.865846,47.630352,64.61598,-8.746375,-2.022341,-2.0668898
69,-0.22378692030906677,2.589792013168335,78.15352630615234,0.8262810419529042,0.6795073900298234,-94.82884158551578,-0.3025565,1.9508462,12.431234,13.415282,-16.712467,-2.4068375,-4.806416,-6.420862,-12.42656,22.001932,-15.507433,4.5946445,-1.6083453,-1.4016408,8.388243,-8.5685835,17.217741,-41.693623,61.646427,-1.231289,1.9698775,5.072851,-11.277031,-12.888751,47.67215,64.6414,-8.780291,-2.0350893,-2.0467827
70,-0.2548180818557739,2.586576461791992,78.15516662597656,0.8212578606090419,0.6868688055993775,-94.80121100514755,-0.30538127,1.977409,12.4037895,13.399666,-16.697588,-2.4371333,-4.619442,-6.35626,-12.542132,21.634413,-15.484123,4.5041084,-1.5719378,-1.3793744,8.40286,-8.6577215,17.220942,-41.695213,61.589554,-1.2344784,1.9821825,5.0972896,-11.254206,-12.911273,47.7475,64.68801,-8.830539,-2.0521066,-2.034177
71,-0.28207501769065857,2.582247018814087,78.15979766845703,0.8000514210329097,0.691636603124934,-94.77407382436695,-0.31132075,2.025365,12.373269,13.39865,-16.690205,-2.4723823,-4.4042163,-6.2662497,-12.665579,21.214153,-15.428934,4.410872,-1.5359848,-1.3365561,8.422562,-8.729799,17.220205,-41.66465,61.51459,-1.2329702,1.9923985,5.119498,-11.239026,-12.942768,47.852673,64.73897,-8.869755,-2.067212,-2.0224397
72,-0.3108348548412323,2.577779531478882,78.16964721679688,0.7572084588520726,0.6916526190770693,-94.73573993766513,-0.33136508,2.101023,12.326611,13.433047,-16.697094,-2.5105603,-4.1563463,-6.145905,-12.792258,20.737005,-15.330885,4.3307137,-1.5095452,-1.2673221,8.446289,-8.747311,17.21196,-41.556587,61.39778,-1.1853347,1.994248,5.132249,-11.207677,-12.982966,47.941616,64.77684,-8.901884,-2.0755422,-2.0036912
73,-0.3447786569595337,2.575542688369751,78.1823501586914,0.6850874497497594,0.6849754123085838,-94.68695157857154,-0.36831486,2.215564,12.261916,13.514836,-16.72487,-2.5527458,-3.863714,-5.982824,-12.919265,20.179901,-15.176846,4.2667265,-1.52119,-1.1616281,8.490978,-8.909475,17.204514,-41.591194,61.383152,-1.3972162,1.9750848,5.132359,-11.190558,-13.019074,48.039818,64.81874,-8.910813,-2.0770483,-1.9779418
74,-0.3758447766304016,2.5717108249664307,78.19458770751953,0.588888315012867,0.6731479693677866,-94.63265040374289,-0.41460592,2.3616123,12.185389,13.626708,-16.76622,-2.5995245,-3.5317883,-5.78316,-13.049044,19.551111,-14.975438,4.2107286,-1.4962896,-1.0330598,8.533749,-8.902859,17.18393,-41.421688,61.236946,-1.385749,1.9542902,5.1211705,-11.175708,-13.062262,48.14625,64.87228,-8.851584,-2.0769656,-1.9453778
75,-0.4064657390117645,2.5663788318634033,78.20841979980469,0.4822859309254021,0.6596807962132185,-94.5675134473459,-0.47072205,2.5198898,12.096492,13.758455,-16.814066,-2.648058,-3.1833498,-5.5694537,-13.184969,18.893562,-14.748488,4.161915,-1.4757898,-0.89503527,8.569123,-8.821492,17.15961,-41.174706,61.041378,-1.286391,1.9326651,5.1096797,-11.128261,-13.094852,48.200283,64.92056,-8.849527,-2.0706441,-1.9116648
76,-0.442470520734787,2.5606894493103027,78.22464752197266,0.3784124638828647,0.6483144390600122,-94.48614431898808,-0.5369501,2.6711254,11.994899,13.897739,-16.859695,-2.6954925,-2.839787,-5.363877,-13.330744,18.247967,-14.516712,4.11974,-1.519616,-0.74754107,8.627379,-9.03536,17.137083,-41.264206,61.07092,-1.5873704,1.8998778,5.1141105,-11.1756525,-13.130771,48.374832,65.01989,-8.775592,-2.0582623,-1.8851364
77,-0.4749678671360016,2.552635669708252,78.24127197265625,0.275467355858508,0.6370004369625721,-94.38469250830867,-0.6131452,2.8170495,11.876834,14.04862,-16.904638,-2.7436576,-2.4937468,-5.163877,-13.491589,17.605583,-14.273546,4.0873547,-1.5484598,-0.60959166,8.658381,-9.070803,17.119387,-41.21016,60.97873,-1.6338782,1.8754972,5.13383,-11.100056,-13.148285,48.358135,65.0736,-8.925768,-2.0327668,-1.8597654
78,-0.5087935924530029,2.543921709060669,78.25714111328125,0.16822003291866403,0.6248603368183799,-94.26652993078274,-0.699651,2.965443,11.743623,14.215261,-16.952026,-2.7930887,-2.1341045,-4.9589286,-13.664308,16.943056,-14.010068,4.064322,-1.58247,-0.46253484,8.693681,-9.115442,17.088518,-41.171696,60.90002,-1.6617993,1.8480309,5.1647058,-11.07472,-13.174347,48.40407,65.166916,-9.015945,-2.0005548,-1.83527
79,-0.5393171906471252,2.5436813831329346,78.27392578125,0.06631379808791929,0.6169497613359862,-94.13859974197537,-0.79377,3.1046114,11.60283,14.38118,-16.994574,-2.839353,-1.7898383,-4.763866,-13.839446,16.305616,-13.749615,4.0447145,-1.6243573,-0.32251298,8.722214,-9.148303,17.061373,-41.140015,60.816643,-1.6794971,1.8266046,5.1980386,-11.038804,-13.192905,48.42445,65.258194,-9.1225605,-1.9667866,-1.8136299
80,-0.5692549347877502,2.5399675369262695,78.28741455078125,-0.020891682959206802,0.6179983090095096,-94.00732196348861,-0.8931503,3.2234771,11.462064,14.531407,-17.025612,-2.8781393,-1.4870118,-4.5931334,-14.008385,15.733464,-13.51722,4.022679,-1.670878,-0.1988432,8.74104,-9.169236,17.032095,-41.10133,60.732304,-1.6849585,1.8178836,5.2250896,-10.987466,-13.209408,48.41377,65.329315,-9.218771,-1.9376752,-1.7951515
81,-0.6004215478897095,2.535045862197876,78.3001937866211,-0.09337685391498761,0.6313314283397843,-93.86977126558625,-1.0063922,3.3223066,11.317176,14.673619,-17.04545,-2.9073658,-1.2262164,-4.4460196,-14.173016,15.222273,-13.309804,3.994799,-1.7076454,-0.08457587,8.749574,-9.209696,16.966028,-41.07083,60.68898,-1.6655581,1.8267773,5.2521687,-10.969671,-13.242943,48.446987,65.405754,-9.182341,-1.9155307,-1.7766716
82,-0.6281031966209412,2.531266212463379,78.31243896484375,-0.1548283866886867,0.6537020084715777,-93.72403390787561,-1.1310967,3.4054973,11.166567,14.811443,-17.056654,-2.9298003,-0.99726444,-4.317445,-14.336885,14.759311,-13.119722,3.9650753,-1.7531841,0.0109101385,8.747269,-9.226399,16.919643,-41.041786,60.62523,-1.6324757,1.8524178,5.2777233,-10.923091,-13.262624,48.420788,65.46191,-9.171129,-1.8951436,-1.7600998
83,-0.6579564213752747,2.533278703689575,78.32293701171875,-0.202879667520616,0.6797224162617511,-93.5785492479243,-1.2495686,3.469622,11.02068,14.924956,-17.056463,-2.9480371,-0.8032401,-4.2116804,-14.49459,14.359035,-12.956614,3.9383497,-1.7724422,0.096539006,8.729317,-9.119542,16.839443,-40.868553,60.489094,-1.4092753,1.8830478,5.2933307,-10.858472,-13.292105,48.36999,65.504906,-9.142034,-1.8792398,-1.7473415
84,-0.6869057416915894,2.537569284439087,78.3298110961914,-0.23481800974556033,0.7041984727443569,-93.4416237705948,-1.34436,3.510505,10.890077,14.994438,-17.041933,-2.9644444,-0.64900684,-4.1345863,-14.640261,14.03979,-12.832285,3.9192004,-1.8076885,0.1714061,8.720281,-9.108523,16.758976,-40.793465,60.42276,-1.3537433,1.8970313,5.2903748,-10.774634,-13.321346,48.280113,65.51955,-9.184998,-1.8671867,-1.7459208
85,-0.7106842398643494,2.5431201457977295,78.33545684814453,-0.2469341227590851,0.7265660866726107,-93.31367277848935,-1.4108073,3.5233328,10.778991,15.009995,-17.009903,-2.9785745,-0.5417892,-4.0928698,-14.771671,13.816373,-12.756164,3.911417,-1.8352112,0.22875468,8.72427,-9.175363,16.682158,-40.802097,60.401627,-1.4386528,1.8932321,5.2592554,-10.716585,-13.353242,48.20552,65.536934,-9.20702,-1.8656927,-1.7600188
86,-0.7319079041481018,2.547863721847534,78.33718872070312,-0.24182435909964486,0.7491922742533806,-93.19098050872954,-1.458118,3.512116,10.681388,14.984165,-16.963188,-2.989464,-0.47511193,-4.0818005,-14.89238,13.671633,-12.719327,3.9114215,-1.8478581,0.26951787,8.736851,-9.263537,16.606792,-40.834473,60.384224,-1.5695913,1.8809876,5.2068253,-10.712599,-13.390005,48.1932,65.577095,-9.134786,-1.8744832,-1.7859325
87,-0.7528894543647766,2.551530599594116,78.33941650390625,-0.22600334600374164,0.7712612357116218,-93.07520692073227,-1.4904166,3.4858928,10.592566,14.930361,-16.906425,-2.9988174,-0.44190687,-4.0919976,-15.005109,13.595481,-12.710701,3.9125273,-1.8578259,0.30035055,8.747327,-9.3119755,16.532085,-40.826187,60.33622,-1.6676092,1.8635675,5.147671,-10.67775,-13.430066,48.137398,65.58596,-9.123978,-1.8830476,-1.8156809
88,-0.774036169052124,2.559666872024536,78.34419250488281,-0.20586225374988645,0.7919726077797768,-92.96812321983116,-1.5103613,3.4538972,10.508071,14.8594885,-16.843475,-3.008416,-0.42907146,-4.1126223,-15.112793,13.563873,-12.716228,3.9079978,-1.8493462,0.3198578,8.75477,-9.240172,16.471912,-40.70419,60.18767,-1.6160624,1.847183,5.0965133,-10.6513605,-13.463506,48.097687,65.59717,-9.11014,-1.8880641,-1.8433567
89,-0.7923671007156372,2.5638015270233154,78.34928131103516,-0.1795827251063766,0.8128308582767212,-92.8729486261861,-1.5157455,3.4132607,10.42867,14.764986,-16.770525,-3.0186415,-0.4451559,-4.1476526,-15.214879,13.5906725,-12.73969,3.896035,-1.8538091,0.3417373,8.767843,-9.219276,16.404865,-40.63252,60.079193,-1.6348882,1.8194242,5.059664,-10.639713,-13.505663,48.09947,65.59674,-9.1130705,-1.8837036,-1.8744754
90,-0.8100668787956238,2.571639060974121,78.35081481933594,-0.14510925927091928,0.8336471285240444,-92.78776041415921,-1.5057073,3.361114,10.356027,14.643571,-16.68698,-3.0285811,-0.49232912,-4.200648,-15.31028,13.680554,-12.7856655,3.880036,-1.853614,0.35745662,8.785534,-9.224502,16.337877,-40.59329,59.98609,-1.6926767,1.7828548,5.028903,-10.644451,-13.55429,48.132908,65.58963,-9.110422,-1.8752298,-1.910089
91,-0.8276997208595276,2.5756075382232666,78.35369110107422,-0.10834881810399939,0.8514128039239309,-92.70680221882685,-1.4871862,3.3060498,10.286995,14.514358,-16.60252,-3.0378568,-0.5506708,-4.260061,-15.400971,13.800902,-12.842775,3.8614843,-1.8349906,0.36928275,8.810455,-9.199248,16.273129,-40.528625,59.865738,-1.7073674,1.7470795,5.0043907,-10.718153,-13.607077,48.258625,65.62449,-8.99406,-1.8703926,-1.9389448
92,-0.8511455655097961,2.579066514968872,78.35621643066406,-0.07522074399703052,0.8629289399513962,-92.62417026026779,-1.4667907,3.2563472,10.218653,14.396877,-16.52714,-3.0460773,-0.5933898,-4.312948,-15.489198,13.904233,-12.896047,3.8419952,-1.8416978,0.37697917,8.829754,-9.14463,16.231812,-40.449192,59.73449,-1.7356114,1.7185497,4.9839644,-10.671717,-13.640312,48.193092,65.589165,-9.109481,-1.8645594,-1.9485581
93,-0.8705328106880188,2.5836691856384277,78.3556900024414,-0.04626904511807241,0.8672654984811055,-92.53794254405854,-1.4416175,3.2123797,10.151217,14.285061,-16.458767,-3.0522046,-0.62123483,-4.3588886,-15.575383,13.995507,-12.9465065,3.8192482,-1.8096493,0.38855463,8.867552,-9.100733,16.174978,-40.380806,59.612625,-1.7517095,1.6956168,4.9736214,-10.781554,-13.690239,48.322174,65.66097,-8.94199,-1.87461,-1.9276756
94,-0.8917819857597351,2.586700201034546,78.35607147216797,-0.018670446760589595,0.86609007979118,-92.45130247631637,-1.4117169,3.1704528,10.085878,14.176762,-16.396017,-3.0568075,-0.64547384,-4.4039044,-15.658197,14.093294,-13.000772,3.7933946,-1.8098933,0.3974824,8.901648,-9.06747,16.135147,-40.333984,59.510464,-1.8392719,1.6743509,4.968218,-10.778896,-13.725101,48.27287,65.66389,-9.007157,-1.8835244,-1.8851436
95,-0.9087716341018677,2.5913443565368652,78.35887908935547,0.0065420384382720055,0.8605351355877976,-92.36634873397576,-1.3799356,3.1324613,10.021236,14.078272,-16.340126,-3.0617251,-0.659539,-4.4445486,-15.738071,14.180799,-13.052397,3.7694957,-1.7952056,0.4069314,8.941581,-9.049534,16.096033,-40.312576,59.428795,-1.9285945,1.6586744,4.9710703,-10.808619,-13.761042,48.25932,65.68898,-9.010668,-1.8941337,-1.8414026
96,-0.9290311336517334,2.5911855697631836,78.35904693603516,0.0280513805266397,0.8516301858935161,-92.28496794836497,-1.3524834,3.1007943,9.955679,14.002607,-16.295311,-3.0688345,-0.6593507,-4.4784694,-15.81509,14.24647,-13.097435,3.7528126,-1.7998495,0.4226137,8.963994,-8.982709,16.05122,-40.2413,59.348534,-1.9421834,1.6522592,4.9795194,-10.672374,-13.798947,48.031548,65.59974,-9.278066,-1.8910543,-1.8139701
97,-0.9436427354812622,2.5925121307373047,78.3596420288086,0.0460489772931398,0.8383995868469852,-92.20826091002799,-1.3286917,3.075313,9.889039,13.952418,-16.262533,-3.078234,-0.6407833,-4.505581,-15.888346,14.284054,-13.134288,3.7486885,-1.7472905,0.43881977,9.016212,-8.97583,16.01121,-40.24511,59.302574,-1.9330277,1.6601888,5.0077915,-10.844564,-13.835837,48.232563,65.719215,-8.985508,-1.8972535,-1.8170208
98,-0.9596003890037537,2.5913872718811035,78.35838317871094,0.06128446630263284,0.8205596119730673,-92.13505901078014,-1.3072556,3.055126,9.821903,13.923627,-16.240898,-3.0890648,-0.60842115,-4.527516,-15.957933,14.303769,-13.166558,3.7530653,-1.7306879,0.45329764,9.055826,-8.92327,15.992672,-40.21288,59.24564,-1.8833292,1.6806744,5.044959,-10.875886,-13.849866,48.239258,65.75378,-8.947603,-1.893109,-1.8347114
99,-0.9739115834236145,2.5873963832855225,78.35535430908203,0.07273227778559067,0.8009760624386194,-92.06366305673464,-1.2878273,3.0408523,9.754599,13.90686,-16.22578,-3.1016543,-0.5653734,-4.542293,-16.026186,14.306084,-13.192452,3.7568276,-1.7199612,0.47465974,9.094989,-8.895882,15.967118,-40.197384,59.23098,-1.8507097,1.7000513,5.0794425,-10.9083605,-13.867868,48.255524,65.7821,-8.909824,-1.8837714,-1.8596096
100,-0.9940210580825806,2.5805087089538574,78.35596466064453,0.08056983632741901,0.782625923603666,-91.99279836301751,-1.2718797,3.0327704,9.687122,13.896985,-16.21533,-3.1163907,-0.518265,-4.5495715,-16.094938,14.29888,-13.2141075,3.7508724,-1.702306,0.49772665,9.125521,-8.87075,15.941476,-40.19012,59.23801,-1.8360254,1.7104247,5.0968366,-10.932475,-13.884007,48.26422,65.80208,-8.890874,-1.8693935,-1.8853601
101,-1.0133901834487915,2.5716054439544678,78.3556900024414,0.08393053656970843,0.7659113534894476,-91.92059895064973,-1.2606345,3.032046,9.617023,13.894083,-16.209198,-3.1339333,-0.46457845,-4.5469995,-16.165024,14.276237,-13.228756,3.7297118,-1.6737126,0.5225544,9.143474,-8.818119,15.91143,-40.15732,59.249584,-1.8058232,1.7058057,5.084476,-10.941582,-13.899474,48.259624,65.81019,-8.8988285,-1.8438684,-1.9171137
102,-1.0351157188415527,2.5639584064483643,78.3556137084961,0.08303609140000932,0.749408279915851,-91.84849674016317,-1.2529854,3.0381591,9.545138,13.900783,-16.208504,-3.153959,-0.4021106,-4.5356803,-16.235321,14.23652,-13.236509,3.6992583,-1.6507713,0.55103755,9.15773,-8.801366,15.88603,-40.16316,59.307117,-1.83987,1.6907123,5.0534067,-10.952827,-13.909958,48.260715,65.81651,-8.92154,-1.8095926,-1.9570322
103,-1.05190908908844,2.556547164916992,78.35382843017578,0.07957759249437604,0.7331809093040669,-91.77910668179545,-1.2459251,3.048556,9.476468,13.911685,-16.211254,-3.1751285,-0.3363675,-4.5191216,-16.30485,14.190509,-13.241269,3.6674259,-1.6216024,0.5777291,9.166252,-8.776798,15.864061,-40.165108,59.374928,-1.8617994,1.6767424,5.022134,-10.960757,-13.916301,48.25728,65.81869,-8.951731,-1.7781501,-1.9909779
104,-1.073724627494812,2.5457117557525635,78.35345458984375,0.07513792983491574,0.7171748130020289,-91.71533537873141,-1.2348104,3.0604546,9.415831,13.917426,-16.21243,-3.1961966,-0.27098042,-4.5010586,-16.372484,14.145427,-13.24493,3.6422806,-1.5985018,0.60273796,9.17561,-8.768543,15.851146,-40.18254,59.46192,-1.8970064,1.6731198,5.008938,-10.977344,-13.9185095,48.26222,65.817795,-8.978952,-1.7604992,-2.005116
105,-1.0972344875335693,2.534241199493408,78.35498809814453,0.06861734932748745,0.702187448143466,-91.65713041145406,-1.2204475,3.0749872,9.36485,13.918808,-16.213326,-3.2165763,-0.20571822,-4.4800534,-16.440298,14.10032,-13.246542,3.6265686,-1.5585363,0.62311566,9.174099,-8.711677,15.833334,-40.15395,59.53304,-1.8350065,1.6871928,5.024679,-10.985364,-13.919211,48.25805,65.81226,-9.010273,-1.7637696,-1.9880594
106,-1.1185953617095947,2.5200812816619873,78.35633087158203,0.060366954584106146,0.6879903723928904,-91.60347469226951,-1.2037544,3.0923018,9.321183,13.917476,-16.214405,-3.236958,-0.14112258,-4.4563055,-16.50757,14.0564575,-13.247466,3.615972,-1.5258802,0.641398,9.175622,-8.681815,15.828136,-40.15036,59.62987,-1.8000954,1.7112858,5.0558267,-11.002686,-13.918794,48.26331,65.8004,-9.04773,-1.7798401,-1.9498496
107,-1.1360204219818115,2.505225419998169,78.35253143310547,0.05128969607395114,0.6728989567229904,-91.55479289816496,-1.1853293,3.1114914,9.282174,13.918136,-16.21693,-3.258234,-0.07334912,-4.4300113,-16.571335,14.007215,-13.245117,3.6070802,-1.4959061,0.66047984,9.1747675,-8.655636,15.824205,-40.147766,59.743073,-1.769453,1.7356353,5.0905137,-11.021572,-13.917574,48.271652,65.78237,-9.074207,-1.8004284,-1.907171
108,-1.1544984579086304,2.4893949031829834,78.35298156738281,0.04558190771233407,0.6562400190357366,-91.51321004845542,-1.1623724,3.1280074,9.247898,13.91716,-16.21802,-3.2809677,-0.009323056,-4.407612,-16.625395,13.965775,-13.246874,3.5970528,-1.4595171,0.67622095,9.168476,-8.607686,15.816506,-40.12137,59.851414,-1.7201574,1.7540082,5.116226,-11.033468,-13.912439,48.27768,65.75318,-9.070461,-1.8151839,-1.8802143
109,-1.1752535104751587,2.4769692420959473,78.35260772705078,0.047993483686199,0.6407390560880074,-91.48122594659996,-1.1374049,3.1372483,9.2204075,13.913574,-16.21598,-3.30477,0.04232102,-4.394821,-16.664877,13.942295,-13.256831,3.586571,-1.4177556,0.69313204,9.168033,-8.580466,15.816023,-40.11595,59.966564,-1.7200769,1.7629353,5.1280017,-11.046469,-13.911354,48.27553,65.7075,-9.029826,-1.8210126,-1.8787011
110,-1.1965841054916382,2.460331439971924,78.3526611328125,0.049988827094117054,0.6149533917902341,-91.45275052695042,-1.101271,3.1493156,9.1934395,13.914312,-16.216333,-3.3310354,0.11559154,-4.376321,-16.700817,13.896571,-13.257166,3.5761428,-1.3866884,0.7000108,9.169444,-8.574148,15.815287,-40.11083,60.127075,-1.7444502,1.7585179,5.1330137,-11.053807,-13.903976,48.272552,65.64477,-8.958696,-1.825737,-1.8799856
111,-1.216623306274414,2.4440486431121826,78.34871673583984,0.054274013820815314,0.5932544434009939,-91.43154172256345,-1.0666041,3.1595778,9.172984,13.912081,-16.215477,-3.3577983,0.1740918,-4.3623543,-16.728834,13.868596,-13.265369,3.5643349,-1.3381401,0.7068777,9.165198,-8.545572,15.816317,-40.09777,60.26801,-1.7447091,1.7583559,5.1352525,-11.057208,-13.896489,48.26057,65.574715,-8.881393,-1.8291523,-1.8883841
112,-1.2405478954315186,2.4267776012420654,78.34830474853516,0.056095332711534746,0.5731342652818759,-91.41482393717607,-1.0332797,3.1739948,9.155959,13.910418,-16.216694,-3.3853319,0.22578369,-4.3462257,-16.755217,13.8486595,-13.2778225,3.5488951,-1.2884668,0.7086494,9.160519,-8.504577,15.82287,-40.064434,60.401894,-1.7135965,1.7653662,5.1324143,-11.07049,-13.875759,48.24299,65.509735,-8.82824,-1.8355107,-1.8890553
113,-1.2615245580673218,2.4113807678222656,78.34903717041016,0.053725546169314985,0.5555185663128404,-91.40236199602407,-1.0052872,3.196063,9.141107,13.915693,-16.223186,-3.4138126,0.27123153,-4.324692,-16.783136,13.833267,-13.292957,3.5275571,-1.2475562,0.7069277,9.15332,-8.4565735,15.841471,-40.023697,60.533073,-1.673916,1.782948,5.123549,-11.102046,-13.839379,48.241272,65.45331,-8.790778,-1.8446077,-1.8769888
114,-1.2844022512435913,2.400202989578247,78.34828186035156,0.04783054042167562,0.5392760759367778,-91.39499186836707,-0.97934115,3.2230783,9.129348,13.92419,-16.232843,-3.4432127,0.3120292,-4.299629,-16.809933,13.821675,-13.310254,3.5019073,-1.2120788,0.702822,9.1464,-8.424025,15.8705225,-40.000256,60.67743,-1.6572299,1.8061227,5.1090817,-11.143692,-13.7992735,48.248894,65.392265,-8.759647,-1.8547944,-1.8577819
115,-1.3067426681518555,2.385981321334839,78.3446044921875,0.04461887547976859,0.5237062324682208,-91.3920319743462,-0.9495959,3.249523,9.122597,13.925269,-16.240068,-3.473352,0.3456714,-4.27671,-16.830553,13.820832,-13.332414,3.4758787,-1.1768259,0.6978106,9.141663,-8.416268,15.900487,-40.004055,60.842747,-1.6673627,1.8285314,5.0959334,-11.183239,-13.767069,48.259216,65.315575,-8.737962,-1.865652,-1.8413513
116,-1.332387924194336,2.3704073429107666,78.3453369140625,0.046608057522335655,0.507988298549892,-91.39335670615529,-0.9097025,3.2692924,9.123367,13.907594,-16.239712,-3.5039008,0.37095097,-4.2608423,-16.840101,13.835543,-13.361166,3.4531963,-1.1302867,0.6877369,9.134074,-8.38013,15.92683,-39.98335,60.988968,-1.629524,1.8470389,5.0899343,-11.209333,-13.741878,48.261066,65.22778,-8.729637,-1.8778516,-1.8385019
117,-1.3562507629394531,2.358743190765381,78.34076690673828,0.05596059385533477,0.49271282885658907,-91.40000677613797,-0.8582645,3.2805068,9.133941,13.867605,-16.23016,-3.5335422,0.38509113,-4.2536774,-16.83308,13.868062,-13.397839,3.4349115,-1.0945777,0.66498107,9.129289,-8.350919,15.979599,-39.986225,61.12995,-1.6177264,1.8580344,5.0916743,-11.247783,-13.69613,48.276203,65.15716,-8.745897,-1.8914965,-1.8635331
118,-1.3853929042816162,2.343018054962158,78.3422622680664,0.0706502821558754,0.47804228381696384,-91.4117471255757,-0.79894507,3.286949,9.152603,13.812358,-16.214819,-3.56287,0.39008266,-4.2521214,-16.813517,13.915108,-13.441007,3.4190438,-1.0531776,0.639182,9.11991,-8.300304,16.027803,-39.97021,61.261467,-1.5653304,1.8651068,5.0996375,-11.258442,-13.655703,48.26382,65.064415,-8.811244,-1.9048903,-1.9047482
119,-1.4115633964538574,2.325714111328125,78.33686828613281,0.08994878504490526,0.4625310889118511,-91.42619735785009,-0.7301987,3.2887435,9.175213,13.740452,-16.192318,-3.5943625,0.38886833,-4.256083,-16.790531,13.976947,-13.490259,3.4045937,-1.0221324,0.6008448,9.107889,-8.219218,16.100075,-39.932335,61.36224,-1.5048964,1.8736386,5.107511,-11.226401,-13.595912,48.18512,64.948,-8.961146,-1.9196794,-1.9445528
120,-1.4384262561798096,2.3105599880218506,78.33539581298828,0.1105514134756544,0.44497477847523226,-91.4407801389907,-0.6501373,3.286839,9.197434,13.648848,-16.16015,-3.6305792,0.3844504,-4.2650027,-16.773464,14.054056,-13.545154,3.39068,-0.9673446,0.5549311,9.113888,-8.1704235,16.175726,-39.9242,61.469765,-1.4778527,1.8851291,5.1168685,-11.361168,-13.538405,48.330673,64.937645,-8.798763,-1.9470584,-1.9665169
121,-1.4635114669799805,2.295414686203003,78.33445739746094,0.13424120578446982,0.42275121642516816,-91.45508294882814,-0.55049723,3.2801728,9.218793,13.526713,-16.114662,-3.6742787,0.38132033,-4.27995,-16.767715,14.146171,-13.604547,3.380116,-0.9375878,0.5062097,9.113851,-8.097773,16.248962,-39.880615,61.570736,-1.4672703,1.9017371,5.1253834,-11.380988,-13.482645,48.32797,64.84336,-8.791888,-1.978247,-1.9522842
122,-1.4942001104354858,2.2798917293548584,78.33281707763672,0.161063933101522,0.39733908983869837,-91.47046094158182,-0.434995,3.2689805,9.24137,13.379253,-16.058533,-3.723465,0.3762582,-4.300616,-16.767292,14.253861,-13.669214,3.3723617,-0.9080462,0.45095074,9.117562,-8.035553,16.326942,-39.84983,61.677547,-1.4929051,1.9209595,5.1357503,-11.390739,-13.426195,48.310158,64.73763,-8.775684,-2.0164244,-1.9166399
123,-1.522574543952942,2.2678864002227783,78.32923889160156,0.19017848102569557,0.37328849511138873,-91.48675404506155,-0.31676137,3.255156,9.264795,13.2218275,-15.997111,-3.7733626,0.36426792,-4.3239336,-16.764805,14.371897,-13.738619,3.3616006,-0.8882459,0.39269665,9.131949,-8.086463,16.410402,-39.9398,61.862972,-1.6735691,1.9354465,5.1462183,-11.437582,-13.371669,48.33826,64.645355,-8.7095,-2.0530748,-1.8815768
124,-1.5570940971374512,2.252945899963379,78.32852935791016,0.22103049733812635,0.35484354973013044,-91.50421758929406,-0.21692695,3.2418292,9.288237,13.087323,-15.940102,-3.819253,0.3398203,-4.3473864,-16.752684,14.496733,-13.812609,3.3420317,-0.8487816,0.328207,9.142569,-8.074715,16.493568,-39.94945,61.990963,-1.7330242,1.9499738,5.1501904,-11.531592,-13.318862,48.428383,64.58332,-8.564612,-2.0808442,-1.8663952
125,-1.5892902612686157,2.2441763877868652,78.32632446289062,0.2571674343972863,0.3446147579399886,-91.52332417519165,-0.1369177,3.2268233,9.311943,12.972507,-15.884895,-3.8587096,0.29858902,-4.3724556,-16.726364,14.629668,-13.893139,3.3106747,-0.8054103,0.25471583,9.128334,-7.8869095,16.573153,-39.74224,61.992264,-1.5277877,1.9663873,5.1432676,-11.536876,-13.263575,48.40733,64.46683,-8.570464,-2.087137,-1.8779197
126,-1.6305327415466309,2.23358154296875,78.3232650756836,0.2964755246370299,0.3400058870731873,-91.54386299543485,-0.069419995,3.2097576,9.336031,12.868655,-15.829558,-3.8945296,0.24538033,-4.399254,-16.690933,14.769158,-13.978235,3.2710617,-0.7851139,0.17753236,9.128688,-7.8869324,16.661793,-39.732872,62.128277,-1.5688618,1.9717451,5.134634,-11.607254,-13.205497,48.467636,64.37814,-8.515798,-2.0828855,-1.9095402
127,-1.6688499450683594,2.221259593963623,78.32521057128906,0.33508581092413575,0.33684723382200654,-91.56471227638345,-0.010465346,3.195362,9.360431,12.777953,-15.779513,-3.930243,0.18528058,-4.4251246,-16.652231,14.916625,-14.066968,3.2271867,-0.75054365,0.09781751,9.111756,-7.7240677,16.74756,-39.537243,62.1378,-1.3797121,1.9836335,5.118673,-11.601332,-13.144972,48.423504,64.248375,-8.567949,-2.0747848,-1.943358
128,-1.7017672061920166,2.217825412750244,78.31864929199219,0.36934195977498663,0.3314329437841,-91.58507639946558,0.041445248,3.1891687,9.385112,12.705956,-15.741922,-3.9693003,0.12413879,-4.445899,-16.61655,15.070545,-14.15692,3.1828687,-0.7600831,0.031995527,9.132963,-7.926429,16.846024,-39.752968,62.401157,-1.7054507,1.98227,5.1053786,-11.705533,-13.085447,48.503887,64.17252,-8.505052,-2.0768137,-1.9748985
129,-1.7367485761642456,2.2201406955718994,78.31120300292969,0.3974612732536779,0.3210226913630496,-91.60513522936871,0.09156993,3.1905634,9.411778,12.649455,-15.717726,-4.013136,0.059137616,-4.463783,-16.582552,15.2440405,-14.253958,3.136348,-0.7354437,-0.027297098,9.139704,-7.904983,16.93563,-39.719147,62.482124,-1.7164428,1.9944903,5.0800676,-11.746293,-13.029239,48.48607,64.06984,-8.499299,-2.0898664,-1.9911375
130,-1.7785457372665405,2.2147247791290283,78.30567169189453,0.42196970112273857,0.30822931081516525,-91.62539650189635,0.13551554,3.1977386,9.439898,12.610419,-15.704989,-4.059737,-0.010430873,-4.479309,-16.54793,15.431039,-14.355923,3.0864701,-0.72441167,-0.077113576,9.146749,-7.876472,17.021055,-39.66808,62.551216,-1.7245784,2.008306,5.0470395,-11.747116,-12.976163,48.40784,63.940014,-8.565645,-2.1064563,-2.001701
131,-1.8155332803726196,2.209155321121216,78.29973602294922,0.44274304865291136,0.296677752057558,-91.64459083356196,0.16879173,3.2120216,9.46617,12.588618,-15.700499,-4.1072545,-0.07811995,-4.488432,-16.517233,15.609135,-14.452874,3.0382574,-0.70985925,-0.12174505,9.156487,-7.8580794,17.102842,-39.62608,62.615887,-1.7316489,2.0216935,5.017727,-11.775462,-12.928381,48.36846,63.82683,-8.5823145,-2.12688,-2.0121174
132,-1.8533202409744263,2.197683334350586,78.2947006225586,0.45742143384713896,0.28995442596066195,-91.66147633315785,0.18430057,3.235644,9.487171,12.589651,-15.703598,-4.1539717,-0.13637744,-4.486462,-16.495094,15.753709,-14.533549,2.9964342,-0.68977535,-0.1626585,9.168384,-7.856014,17.179659,-39.601223,62.68067,-1.7347353,2.0323415,5.0027523,-11.863735,-12.888382,48.42695,63.74943,-8.490802,-2.1489449,-2.0275066
133,-1.8919529914855957,2.191915988922119,78.28907012939453,0.4673792407802359,0.28712092972515835,-91.67612308990424,0.18403174,3.2696412,9.502927,12.611966,-15.713831,-4.2000504,-0.18034525,-4.4717603,-16.484797,15.857757,-14.5960245,2.9650738,-0.69084764,-0.19847487,9.167898,-7.8489475,17.24806,-39.570183,62.74857,-1.7246604,2.039649,5.0074058,-11.842194,-12.854775,48.37955,63.59338,-8.57502,-2.1633787,-2.046554
134,-1.9359873533248901,2.1902716159820557,78.28398895263672,0.47225811755311625,0.2869551627240247,-91.68886853667405,0.1710684,3.3126323,9.514911,12.652087,-15.730775,-4.2462416,-0.21345928,-4.446714,-16.483364,15.931265,-14.644119,2.9406824,-0.6752231,-0.23096478,9.172046,-7.8662796,17.309525,-39.568455,62.822266,-1.7112212,2.0451896,5.0271506,-11.892803,-12.8301325,48.44179,63.481,-8.52859,-2.1812315,-2.0696094
135,-1.9836822748184204,2.191601514816284,78.28038024902344,0.4734736759767923,0.2922517541197587,-91.69961529827049,0.13772905,3.3631089,9.521987,12.717946,-15.756981,-4.2915826,-0.24729171,-4.4141917,-16.485228,15.990136,-14.683949,2.9168403,-0.6782549,-0.26419657,9.1761265,-7.8634596,17.396507,-39.553204,62.853077,-1.6996373,2.0505643,5.0466084,-11.932818,-12.798982,48.489723,63.36168,-8.509823,-2.1996164,-2.0944648
136,-2.033872365951538,2.196550130844116,78.27603912353516,0.4701749041957974,0.3058655848250562,-91.70808870953292,0.07558284,3.4198356,9.522535,12.819536,-15.796336,-4.335062,-0.29172477,-4.3760223,-16.4847,16.046549,-14.719588,2.8872147,-0.6820802,-0.28902203,9.17889,-7.868492,17.479149,-39.542572,62.870323,-1.7011346,2.0536458,5.058734,-11.980821,-12.772594,48.526,63.251877,-8.4710455,-2.220626,-2.1185653
137,-2.0823984146118164,2.2028331756591797,78.27116394042969,0.4639584286627797,0.33005732657772757,-91.71320544116568,-0.019671401,3.4823685,9.5138,12.959948,-15.849116,-4.3755646,-0.34696347,-4.3319488,-16.481047,16.096382,-14.749697,2.8495996,-0.6995898,-0.3021281,9.171802,-7.873278,17.553799,-39.527462,62.875076,-1.722093,2.0521684,5.0577173,-11.967287,-12.7498255,48.454983,63.109047,-8.531238,-2.2415144,-2.139849
138,-2.129424571990967,2.208333730697632,78.2664566040039,0.45215498767654094,0.3628124992498261,-91.71547779794022,-0.14526619,3.5518389,9.497195,13.138742,-15.914472,-4.413829,-0.4084665,-4.280901,-16.477156,16.135155,-14.772613,2.807578,-0.71595657,-0.2992057,9.1582985,-7.906198,17.593124,-39.52306,62.904182,-1.7545244,2.0443957,5.053724,-11.974923,-12.739234,48.40151,62.98602,-8.542289,-2.2647276,-2.1608691
139,-2.174426794052124,2.2179486751556396,78.26033020019531,0.4374443978987956,0.40045887360486765,-91.71689832997825,-0.28922665,3.6278262,9.477962,13.339559,-15.9895935,-4.451999,-0.47855937,-4.224442,-16.47277,16.174826,-14.792253,2.7634635,-0.72964185,-0.29943666,9.149919,-7.9262094,17.663782,-39.52394,62.882023,-1.7933478,2.0404918,5.0473676,-11.967576,-12.72376,48.30598,62.854122,-8.5771055,-2.2900999,-2.182249
140,-2.218327760696411,2.232379913330078,78.25534057617188,0.4186473469354128,0.4394334925629317,-91.71958566782173,-0.45018864,3.7123787,9.4606905,13.56729,-16.077318,-4.4921374,-0.56100774,-4.1638174,-16.46808,16.229765,-14.8142185,2.7197351,-0.74515724,-0.2937651,9.145528,-7.9509997,17.725945,-39.51679,62.852524,-1.8194346,2.0389316,5.049284,-11.965907,-12.714234,48.228756,62.726383,-8.5813875,-2.3167467,-2.2065187
141,-2.2705624103546143,2.250124216079712,78.24609375,0.39766522310737223,0.4736803459676907,-91.72443646242009,-0.6124218,3.8032155,9.450076,13.803847,-16.17106,-4.5371113,-0.64850926,-4.099726,-16.46216,16.298788,-14.837359,2.679688,-0.75186783,-0.2825281,9.152211,-7.994311,17.768679,-39.511593,62.8303,-1.8288546,2.0428216,5.0657873,-11.996923,-12.712045,48.202007,62.62051,-8.50172,-2.3494327,-2.2390358
142,-2.3190743923187256,2.2667970657348633,78.23675537109375,0.3744867104789002,0.506763826883449,-91.7302938867596,-0.78383803,3.9009564,9.442334,14.057947,-16.273571,-4.5851216,-0.7419814,-4.0313597,-16.455244,16.376442,-14.860218,2.6411111,-0.77183676,-0.2699823,9.162656,-8.019918,17.82498,-39.488815,62.77374,-1.8290176,2.0521464,5.0870233,-11.93855,-12.713009,48.067745,62.449337,-8.545436,-2.381965,-2.274717
143,-2.3691513538360596,2.2898342609405518,78.22593688964844,0.3443408007777199,0.5496086276209733,-91.73572924836401,-0.9917907,4.0093966,9.429598,14.359331,-16.39513,-4.6306634,-0.8544417,-3.956821,-16.449608,16.463715,-14.882488,2.5982597,-0.7946943,-0.24354258,9.16397,-8.059186,17.85336,-39.462227,62.72866,-1.8230869,2.057872,5.1124606,-11.902075,-12.716313,47.968967,62.304955,-8.5445175,-2.4115677,-2.3080668
144,-2.4189162254333496,2.3162920475006104,78.21534729003906,0.3047620582954649,0.6129567393241433,-91.7394199912816,-1.2627598,4.1321106,9.403685,14.736485,-16.545305,-4.668237,-0.9989693,-3.8743417,-16.447258,16.56282,-14.904739,2.545237,-0.80974585,-0.20908973,9.155501,-8.099817,17.889242,-39.43963,62.65472,-1.8184509,2.057262,5.1308255,-11.881313,-12.725866,47.87514,62.175262,-8.526853,-2.432266,-2.32634
145,-2.4696009159088135,2.3457071781158447,78.20291137695312,0.26187131245653705,0.7009716704485145,-91.74415422315438,-1.5902975,4.259564,9.367545,15.168722,-16.716314,-4.694871,-1.1821209,-3.792431,-16.444942,16.678352,-14.929374,2.4813373,-0.8286607,-0.17270847,9.131508,-8.127023,17.941044,-39.41313,62.53951,-1.8153831,2.0492237,5.1410007,-11.863642,-12.747745,47.788017,62.04155,-8.504138,-2.4361384,-2.3229454
146,-2.522339105606079,2.382981777191162,78.18831634521484,0.21556758283309804,0.8073823300867734,-91.74970002163644,-1.9649411,4.393595,9.323304,15.650845,-16.9068,-4.7137856,-1.3965262,-3.709245,-16.442766,16.809978,-14.956498,2.4094024,-0.8659637,-0.12724143,9.086325,-8.14455,17.98069,-39.367413,62.41442,-1.8065504,2.0343816,5.1482053,-11.7940855,-12.769586,47.644585,61.882652,-8.567538,-2.4257398,-2.3053784
147,-2.5694146156311035,2.4229917526245117,78.16974639892578,0.15012905904701496,0.9276394383945873,-91.74999646755226,-2.4090226,4.553811,9.261333,16.233284,-17.135216,-4.7286463,-1.630109,-3.6055458,-16.448874,16.94045,-14.976933,2.3288088,-0.8992516,-0.05916925,9.0339,-8.175334,18.004166,-39.32133,62.284695,-1.7983456,2.01417,5.153689,-11.786085,-12.787841,47.57141,61.786304,-8.543068,-2.416645,-2.2874134
148,-2.605078935623169,2.46380877494812,78.14969635009766,0.050106135798021166,1.0570096465767833,-91.7390322758387,-2.9454863,4.760735,9.17146,16.967897,-17.420609,-4.743064,-1.8716278,-3.4623117,-16.471514,17.05515,-14.981681,2.2388594,-0.94841695,0.04739641,8.985975,-8.188179,18.040545,-39.238724,62.101006,-1.7864261,1.9919713,5.150176,-11.730651,-12.824361,47.447727,61.65619,-8.596158,-2.4136813,-2.2749007
149,-2.6430697441101074,2.518495559692383,78.12332153320312,-0.09088183027980953,1.2013705688141385,-91.71579999875763,-3.5924973,5.0230436,9.050385,17.87664,-17.778097,-4.7568064,-2.1227715,-3.269626,-16.512337,17.143087,-14.965471,2.1342156,-1.0080463,0.2000147,8.929435,-8.201747,18.064575,-39.129467,61.89563,-1.7739089,1.9674884,5.1405234,-11.6924925,-12.856334,47.34853,61.56663,-8.637914,-2.4246411,-2.2763188
150,-2.6850099563598633,2.5800294876098633,78.0922622680664,-0.2644999581929993,1.360779253465851,-91.68335976286262,-4.3325624,5.3286104,8.901347,18.92543,-18.192236,-4.767687,-2.3888934,-3.0387347,-16.5677,17.218145,-14.934724,2.0164943,-1.0782017,0.38974348,8.872615,-8.207929,18.092106,-38.990047,61.64856,-1.7566952,1.9407907,5.1228313,-11.665477,-12.903056,47.269913,61.48687,-8.666506,-2.4427636,-2.2821984
151,-2.7210733890533447,2.6452438831329346,78.0582275390625,-0.4642306418627393,1.5223926269460024,-91.64226880072289,-5.135649,5.6653996,8.723272,20.080666,-18.635761,-4.7764096,-2.6573775,-2.7803752,-16.637926,17.28646,-14.89615,1.8956982,-1.1606252,0.61147636,8.824819,-8.206703,18.120497,-38.82883,61.36848,-1.7393773,1.9090215,5.1018434,-11.636405,-12.964921,47.199394,61.407917,-8.697404,-2.4609828,-2.2908106
152,-2.75984263420105,2.7155649662017822,78.01850128173828,-0.683533323930318,1.6733490670645106,-91.59301961383113,-5.970002,6.021179,8.515927,21.306452,-19.080557,-4.784064,-2.9156234,-2.5049667,-16.72282,17.353212,-14.854964,1.7818235,-1.2511928,0.85852814,8.79695,-8.217297,18.14392,-38.673183,61.080036,-1.7413683,1.8691006,5.082924,-11.613332,-13.0328665,47.137085,61.34056,-8.722999,-2.4735126,-2.3005557
153,-2.801316261291504,2.7908811569213867,77.97223663330078,-0.9357823202388486,1.8156337983913329,-91.52648607600645,-6.85156,6.414626,8.276088,22.628386,-19.54417,-4.7958198,-3.1523843,-2.194067,-16.833735,17.390713,-14.802755,1.6761669,-1.3497881,1.1447183,8.780556,-8.1609745,18.160728,-38.433495,60.719437,-1.6664163,1.8188341,5.0646343,-11.559125,-13.111125,47.04373,61.263855,-8.791092,-2.4763172,-2.314044
154,-2.830702304840088,2.8772377967834473,77.9209213256836,-1.2199698547431734,1.9546434750709352,-91.44585689347628,-7.7871556,6.8433986,8.002713,24.047312,-20.030071,-4.8092356,-3.3805246,-1.8500533,-16.96672,17.413687,-14.740885,1.5738518,-1.4672432,1.4699345,8.781987,-8.153176,18.174002,-38.231133,60.37217,-1.6634368,1.756682,5.047271,-11.520151,-13.1975565,46.972263,61.203327,-8.84878,-2.4742568,-2.3329258
155,-2.8547887802124023,2.9644222259521484,77.86663818359375,-1.5067062804815448,2.0819946413772294,-91.36896235005653,-8.736804,7.2641125,7.7003922,25.503576,-20.49485,-4.814391,-3.612492,-1.5113505,-17.099215,17.465282,-14.688316,1.4753773,-1.589288,1.8022249,8.807854,-8.180373,18.184795,-38.062614,60.037823,-1.7019142,1.6927736,5.031248,-11.482918,-13.293567,46.901695,61.144356,-8.904254,-2.470742,-2.3472624
156,-2.874958038330078,3.0515732765197754,77.81111145019531,-1.7673946906502027,2.1891366055630543,-91.31372763943371,-9.65753,7.633862,7.3758893,26.932253,-20.894459,-4.8018727,-3.8632812,-1.2171476,-17.209108,17.594257,-14.665254,1.3813224,-1.6950303,2.1092482,8.861458,-8.180691,18.190863,-37.873356,59.678207,-1.6868751,1.6390542,5.0161724,-11.446628,-13.401715,46.828445,61.08203,-8.937657,-2.4698877,-2.3467042
157,-2.8866963386535645,3.1460683345794678,77.75712585449219,-2.0075137604372886,2.2736996956109916,-91.27210045051135,-10.55699,7.9793577,7.083057,28.371017,-21.225777,-4.761407,-4.126353,-0.96380806,-17.307598,17.79352,-14.667699,1.2901205,-1.7995855,2.4002864,8.952023,-8.202478,18.194353,-37.713333,59.326042,-1.6779499,1.5962619,4.996611,-11.40764,-13.52367,46.740993,61.003925,-8.956823,-2.4695656,-2.3236482
158,-2.886054515838623,3.2441258430480957,77.70691680908203,-2.238608353108672,2.3400555742488125,-91.23845777214585,-11.450533,8.311953,6.801365,29.833984,-21.509476,-4.699999,-4.397409,-0.73424596,-17.401175,18.04239,-14.686872,1.2022147,-1.9024686,2.6864455,9.074014,-8.243198,18.195494,-37.577084,58.97549,-1.6775,1.5594386,4.974379,-11.369291,-13.661004,46.646744,60.915913,-8.959747,-2.468888,-2.2847054
159,-2.891674518585205,3.341853141784668,77.6532974243164,-2.4413459044775223,2.390098119106172,-91.23464614620504,-12.31549,8.563941,6.4288225,31.241953,-21.738008,-4.637035,-4.693278,-0.54820246,-17.460352,18.366257,-14.734729,1.121594,-1.9832361,2.94276,9.217322,-8.274014,18.192625,-37.43867,58.615982,-1.6564513,1.5275105,4.961319,-11.334972,-13.813768,46.567734,60.829784,-8.942767,-2.4721622,-2.2424314
160,-2.8906209468841553,3.4431827068328857,77.60223388671875,-2.5958353320889636,2.4254039151022133,-91.28226661805137,-13.128762,8.663386,5.8670607,32.51675,-21.903982,-4.595611,-5.0306654,-0.42506686,-17.4555,18.791061,-14.82327,1.0519694,-2.0258787,3.1454406,9.373516,-8.296977,18.184889,-37.30317,58.26186,-1.6262931,1.4979542,4.9698133,-11.312763,-13.980024,46.532684,60.75953,-8.899215,-2.483519,-2.2099817
161,-2.8766403198242188,3.5443787574768066,77.55304718017578,-2.6921474736464934,2.4399729710671387,-91.37832317684169,-13.890013,8.586814,5.093473,33.67931,-22.006012,-4.5567646,-5.4069214,-0.37871504,-17.386139,19.328857,-14.961807,0.9957138,-2.0322566,3.2848148,9.551034,-8.338805,18.17311,-37.19732,57.930546,-1.6102092,1.4721518,5.0151224,-11.302285,-14.15871,46.54585,60.703857,-8.825272,-2.508799,-2.1915686
162,-2.8523194789886475,3.6480088233947754,77.50875091552734,-2.74089787772637,2.4350882709614967,-91.51400173202025,-14.605533,8.365545,4.167394,34.75917,-22.047768,-4.5232425,-5.8158636,-0.396666,-17.264687,19.964691,-15.142138,0.950583,-2.0063732,3.3733058,9.749408,-8.377113,18.156155,-37.097477,57.600887,-1.5788182,1.4511558,5.0865455,-11.307172,-14.350111,46.60179,60.663403,-8.713723,-2.54464,-2.1800752
163,-2.825624942779541,3.7521004676818848,77.46646118164062,-2.753118673770435,2.4231429279640495,-91.70226710242608,-15.261695,8.0095625,3.1144793,35.695423,-22.033052,-4.551812,-6.2663436,-0.45828933,-17.080849,20.679052,-15.347613,0.91360766,-1.9486815,3.4229455,9.949782,-8.411432,18.134329,-37.003586,57.2848,-1.5597895,1.4292041,5.1584024,-11.317283,-14.550764,46.685196,60.637527,-8.60187,-2.5800765,-2.1717985
164,-2.7950377464294434,3.8586432933807373,77.4210205078125,-2.7387064395732534,2.416593204247503,-91.95594566239095,-15.845847,7.5311675,1.9584548,36.429184,-21.96836,-4.696789,-6.7677245,-0.5429376,-16.824583,21.453037,-15.562159,0.88187796,-1.8558701,3.4434536,10.131488,-8.419879,18.106936,-36.894764,56.977673,-1.5526981,1.4014561,5.204858,-11.330167,-14.756034,46.78654,60.63459,-8.516437,-2.6048558,-2.1632552
165,-2.7590620517730713,3.962219476699829,77.37455749511719,-2.692727074714676,2.4193020282687985,-92.27771226411967,-16.342918,6.8737993,0.611591,36.894516,-21.82229,-5.054142,-7.3292146,-0.6553651,-16.49223,22.2966,-15.78762,0.85224265,-1.7208601,3.4281378,10.289161,-8.417932,18.074892,-36.787468,56.696415,-1.5879157,1.3583987,5.2180314,-11.348833,-14.961663,46.921093,60.668606,-8.458569,-2.622446,-2.1508317
166,-2.7102341651916504,4.067670822143555,77.32783508300781,-2.6110906206217432,2.425127143800238,-92.6609301191969,-16.752405,6.0531855,-0.9058124,37.14372,-21.612368,-5.569428,-7.9429145,-0.8011726,-16.088598,23.211452,-16.028913,0.8275382,-1.5474132,3.373054,10.43261,-8.403194,18.038374,-36.678864,56.433456,-1.6478305,1.3056091,5.211919,-11.374519,-15.165972,47.0858,60.73721,-8.420087,-2.6365278,-2.13777
167,-2.6537327766418457,4.171695232391357,77.27940368652344,-2.5079612304916683,2.431086342564958,-93.10473644292087,-17.09223,5.1951194,-2.412061,37.297157,-21.413889,-6.0658345,-8.592344,-0.958547,-15.616464,24.166882,-16.27431,0.8137965,-1.3512588,3.2962465,10.568322,-8.361048,17.996819,-36.55146,56.172,-1.7016368,1.2595081,5.1942916,-11.414274,-15.36738,47.262814,60.827324,-8.3920355,-2.6373644,-2.1312597
168,-2.5862526893615723,4.27580451965332,77.22779083251953,-2.3976548180502175,2.433946151940091,-93.60803187265779,-17.391779,4.4236517,-3.726195,37.47288,-21.289597,-6.363473,-9.257967,-1.1052612,-15.079351,25.126247,-16.510647,0.81759834,-1.1509765,3.2156413,10.700879,-8.27272,17.949402,-36.382744,55.894035,-1.7150518,1.2365336,5.172489,-11.451664,-15.563755,47.404835,60.910954,-8.403274,-2.6140554,-2.1381397
169,-2.5163793563842773,4.378500461578369,77.17327117919922,-2.2712983969641116,2.434623700131977,-94.17699121947807,-17.665071,3.7444773,-4.8269415,37.670063,-21.23379,-6.3632684,-9.953643,-1.2510315,-14.466826,26.116035,-16.744822,0.84319913,-0.93830496,3.12341,10.82823,-8.138431,17.893942,-36.169674,55.602818,-1.6680105,1.2448046,5.155548,-11.498113,-15.753533,47.53136,61.008026,-8.4706335,-2.5539653,-2.1691294
170,-2.4282426834106445,4.480343818664551,77.11162567138672,-2.125760974604767,2.434921695233638,-94.80993640208578,-17.900963,3.1039934,-5.804647,37.83452,-21.212645,-6.1728954,-10.679637,-1.3973647,-13.78076,27.135094,-16.977037,0.8874907,-0.70809644,3.014234,10.948232,-7.9565544,17.828794,-35.911785,55.299164,-1.5689797,1.2746143,5.1370697,-11.554337,-15.935939,47.652954,61.12545,-8.581371,-2.4660857,-2.217571
171,-2.3200557231903076,4.579145431518555,77.0444107055664,-1.9839907778988668,2.432708353275452,-95.49441590568813,-18.100082,2.5352426,-6.6467357,38.005863,-21.246033,-5.9218817,-11.411759,-1.5143028,-13.044459,28.140974,-17.194836,0.94634956,-0.48218146,2.911763,11.068041,-7.7465124,17.757938,-35.63285,54.989475,-1.4755453,1.3141414,5.1024604,-11.613246,-16.111336,47.739056,61.229527,-8.680978,-2.3730597,-2.2647839
172,-2.205636501312256,4.679249286651611,76.97346496582031,-1.869407319039927,2.42518922402252,-96.21803896498662,-18.263536,2.0728536,-7.341197,38.22358,-21.353746,-5.7408047,-12.124188,-1.5731525,-12.282118,29.089767,-17.384596,1.0155761,-0.27975708,2.8382595,11.19461,-7.5168457,17.687864,-35.349403,54.66934,-1.434009,1.3522693,5.0368805,-11.6682625,-16.282574,47.757664,61.28673,-8.713617,-2.297936,-2.292102
173,-2.0913846492767334,4.775129795074463,76.8926010131836,-1.785409277603092,2.4052522951477338,-96.98554967016099,-18.379393,1.7477324,-7.8578906,38.4949,-21.554586,-5.6622863,-12.807896,-1.568148,-11.490536,29.979963,-17.549437,1.1005422,-0.09771291,2.7985015,11.333614,-7.253943,17.62253,-35.050106,54.319317,-1.4496181,1.3912376,4.924131,-11.721009,-16.45281,47.707146,61.296814,-8.659612,-2.2397122,-2.2857547
174,-1.9570645093917847,4.876091003417969,76.80565643310547,-1.7205446963682325,2.3759377462153988,-97.80082239245915,-18.456364,1.5382231,-8.214914,38.797924,-21.83307,-5.616928,-13.475496,-1.5127039,-10.66203,30.832193,-17.69478,1.2027878,0.072357036,2.7803416,11.481209,-6.949895,17.562534,-34.72667,53.936104,-1.4942586,1.4360907,4.77552,-11.773097,-16.623432,47.60162,61.270107,-8.548523,-2.1883814,-2.258455
175,-1.8119137287139893,4.98127555847168,76.71502685546875,-1.676196804082314,2.3493174109701984,-98.65063780160084,-18.528807,1.3990827,-8.473047,39.135265,-22.1608,-5.581741,-14.138076,-1.4088271,-9.8143835,31.644081,-17.815413,1.3122287,0.21916297,2.7818398,11.63056,-6.6371174,17.511333,-34.41497,53.55129,-1.5813054,1.4793484,4.6178102,-11.820466,-16.794436,47.43877,61.188484,-8.391432,-2.1535497,-2.231237
176,-1.6662938594818115,5.078426837921143,76.6178207397461,-1.6536325263619562,2.3373682305266485,-99.52147032726893,-18.62969,1.2824454,-8.692509,39.510284,-22.510204,-5.533426,-14.8088875,-1.2596115,-8.965161,32.417713,-17.908302,1.418058,0.33461317,2.7993944,11.774074,-6.338496,17.47288,-34.14441,53.188877,-1.7133439,1.5141647,4.4778123,-11.860398,-16.966236,47.21567,61.03699,-8.196866,-2.1451552,-2.2249088
177,-1.5056544542312622,5.182212829589844,76.51630401611328,-1.6619573708491404,2.3459985573091537,-100.41505770184662,-18.756903,1.1968206,-8.857178,39.91279,-22.894264,-5.459528,-15.48571,-1.056687,-8.119301,33.135803,-17.96571,1.5194125,0.41881016,2.844211,11.904488,-6.047994,17.450733,-33.921715,52.838108,-1.896272,1.5376819,4.359172,-11.891802,-17.141287,46.923767,60.807873,-7.9385014,-2.172104,-2.246531
178,-1.333874225616455,5.279712200164795,76.41280364990234,-1.6981470163129286,2.366756193859479,-101.33669569033877,-18.89838,1.1604344,-8.946369,40.346893,-23.3224,-5.3744273,-16.163382,-0.8020914,-7.268529,33.80628,-17.993286,1.6219844,0.47662508,2.9130201,12.0280285,-5.756608,17.446323,-33.734264,52.48879,-2.1287768,1.5543488,4.248417,-11.916631,-17.321474,46.568363,60.509167,-7.6181927,-2.2272315,-2.2838738
179,-1.1593329906463623,5.383744239807129,76.30934143066406,-1.7460123222190176,2.3902533997267303,-102.27931901350367,-19.0652,1.1407826,-9.0109005,40.825176,-23.754427,-5.295245,-16.846184,-0.5133532,-6.4101486,34.45942,-18.001862,1.723829,0.5064483,2.981258,12.158087,-5.4793587,17.458803,-33.578564,52.163746,-2.3990378,1.5681026,4.146587,-11.928328,-17.502731,46.159393,60.14142,-7.2951255,-2.2960012,-2.3291078
180,-0.9803415536880493,5.494171142578125,76.20043182373047,-1.7890908734294733,2.407833398635161,-103.23600687607183,-19.269682,1.1048288,-9.1011505,41.362747,-24.151524,-5.2388864,-17.539186,-0.20787603,-5.5409575,35.125904,-18.00277,1.8222756,0.5071465,3.024613,12.308165,-5.2455096,17.486914,-33.462025,51.897854,-2.708258,1.582258,4.055412,-11.936005,-17.67712,45.723175,59.71949,-7.0095224,-2.3644445,-2.3752253
181,-0.799713671207428,5.610418319702148,76.08687591552734,-1.828647076995161,2.42051179750555,-104.20702174861958,-19.520252,1.0557721,-9.21081,41.97047,-24.50749,-5.2056794,-18.241245,0.11546165,-4.6657662,35.803738,-17.99773,1.9086446,0.4771788,3.043435,12.477548,-5.0540347,17.528753,-33.389057,51.70531,-3.129642,1.5866956,3.9692156,-11.952395,-17.83758,45.26599,59.25882,-6.735774,-2.442962,-2.420167
182,-0.6106139421463013,5.728970050811768,75.97346496582031,-1.871549169174445,2.431733580175434,-105.19572045551341,-19.808048,1.0064601,-9.318742,42.637283,-24.841295,-5.188138,-18.950562,0.46408236,-3.7847228,36.481983,-17.981754,1.9856503,0.41501436,3.0475817,12.658244,-4.893826,17.583927,-33.35451,51.57131,-3.640242,1.5832447,3.8894408,-11.964816,-17.98042,44.765343,58.752743,-6.478247,-2.5344477,-2.46833
183,-0.40640151500701904,5.863149642944336,75.85115051269531,-1.9090594990147833,2.436941322617826,-106.19877808032926,-20.119892,0.93726945,-9.452088,43.348152,-25.152542,-5.1916137,-19.670492,0.8311265,-2.8874385,37.17439,-17.953608,2.0671499,0.32455653,3.0254219,12.854833,-4.7708325,17.653122,-33.344765,51.476875,-4.085052,1.5931362,3.8290114,-11.979096,-18.103804,44.242954,58.206432,-6.2728944,-2.6148827,-2.523034
184,-0.19715313613414764,5.994589328765869,75.72647857666016,-1.9323416329997194,2.4319598510441702,-107.21340628060067,-20.44183,0.8285721,-9.637896,44.085945,-25.440115,-5.2215114,-20.401428,1.2101974,-1.96323,37.88952,-17.909643,2.1676052,0.20562282,2.966125,13.07161,-4.693452,17.738373,-33.347042,51.40548,-4.314507,1.6369791,3.800787,-11.983424,-18.205105,43.70142,57.610756,-6.182007,-2.659305,-2.587776
185,0.018104448914527893,6.131784915924072,75.5982666015625,-1.9315503851409843,2.41733130173189,-108.22908364362394,-20.78009,0.665554,-9.874669,44.861317,-25.694063,-5.2823014,-21.157475,1.5905068,-1.0041983,38.658997,-17.850367,2.2980645,0.05423983,2.8580844,13.304151,-4.653791,17.841316,-33.357594,51.34975,-4.246772,1.7338345,3.797174,-11.978226,-18.281288,43.146103,56.9784,-6.2552385,-2.6598828,-2.667172
186,0.23930205404758453,6.27589750289917,75.46688079833984,-1.913586280551012,2.39553172889258,-109.25095028431005,-21.137415,0.46025628,-10.149131,45.677586,-25.918377,-5.3716483,-21.932343,1.9800097,-0.017649591,39.46687,-17.776197,2.4473987,-0.12940282,2.708484,13.551186,-4.646241,17.962261,-33.379616,51.315647,-3.9736788,1.8682039,3.813931,-11.967213,-18.329893,42.570366,56.309406,-6.455216,-2.6299188,-2.7585275
187,0.46166613698005676,6.424957275390625,75.33399200439453,-1.8936517663014012,2.3652541249348515,-110.29861383689496,-21.496206,0.23312595,-10.470991,46.510384,-26.134014,-5.484281,-22.702341,2.4005446,0.98393947,40.263523,-17.690226,2.5977354,-0.33599454,2.5340922,13.822448,-4.688548,18.101675,-33.41689,51.309837,-3.61044,2.008389,3.8694143,-11.963079,-18.351603,41.979443,55.589672,-6.6858315,-2.5769968,-2.854348
188,0.6973302364349365,6.586750507354736,75.19380187988281,-1.8867726956156796,2.324578486018646,-111.3917848981284,-21.83783,0.005396854,-10.850618,47.333797,-26.360853,-5.614081,-23.441956,2.8727765,1.9879563,40.99652,-17.594107,2.7322993,-0.55513746,2.3516114,14.1283045,-4.789019,18.259,-33.465775,51.33098,-3.2616057,2.1233816,3.982502,-11.9778385,-18.349106,41.380047,54.80234,-6.8468747,-2.5089543,-2.9472022
189,0.9400593042373657,6.7535014152526855,75.0484848022461,-1.9014095632277448,2.2626460035651896,-112.52365026115379,-22.156204,-0.25980508,-11.391422,48.165833,-26.596907,-5.7692,-24.128624,3.3988607,2.9791281,41.652496,-17.49907,2.842827,-0.79236573,2.1733603,14.476404,-4.9398108,18.43551,-33.516132,51.364716,-2.9122841,2.1961625,4.1350765,-12.003722,-18.324913,40.751705,53.93267,-6.928072,-2.402071,-3.0343208
190,1.200522780418396,6.930387020111084,74.89610290527344,-1.926954166496241,2.183316569931862,-113.68793399174353,-22.458876,-0.5620639,-12.053108,49.01231,-26.834927,-5.950963,-24.780504,3.9676378,3.968014,42.260647,-17.40131,2.9398687,-1.0496963,1.9867816,14.859626,-5.139303,18.631594,-33.574238,51.41465,-2.5211186,2.2471073,4.324328,-12.031017,-18.27956,40.092613,52.98421,-6.982699,-2.260496,-3.119214
191,1.4632407426834106,7.108094692230225,74.73751068115234,-1.9511535715589559,2.1063932434215342,-114.90467446664863,-22.75144,-0.82002866,-12.632682,49.829506,-27.086182,-6.1402555,-25.429983,4.5795207,4.9803305,42.82915,-17.278276,3.036964,-1.3115793,1.7714933,15.265665,-5.408228,18.843367,-33.66331,51.510574,-2.1543953,2.301579,4.5931535,-12.085176,-18.215015,39.45448,51.983063,-6.9874263,-2.1343026,-3.2050054
192,1.7385475635528564,7.284059524536133,74.5822525024414,-1.9624552029546665,2.0522354716076943,-116.1939948903016,-23.044905,-0.9491886,-12.929685,50.57467,-27.361118,-6.3149943,-26.10841,5.236679,6.0413833,43.365482,-17.107676,3.148966,-1.5643836,1.5085533,15.681086,-5.7703905,19.064032,-33.807358,51.688416,-1.8809036,2.3844216,4.984687,-12.186808,-18.133806,38.885788,50.953907,-6.926816,-2.0736334,-3.2950065
193,2.0235772132873535,7.467926502227783,74.4256591796875,-1.956629024399113,2.0118410615362823,-117.55603356468055,-23.336168,-0.9615115,-12.966719,51.259045,-27.647722,-6.5076256,-26.807865,5.935631,7.158664,43.883495,-16.905468,3.265076,-1.8028418,1.1884129,16.113329,-6.2277412,19.287949,-34.011024,51.967285,-1.7614672,2.480068,5.5486817,-12.332467,-18.039043,38.403416,49.892944,-6.7363763,-2.104437,-3.4061384
194,2.3221397399902344,7.661520004272461,74.26339721679688,-1.9407052565754686,1.9794765793091744,-118.98174024882417,-23.624077,-0.8865025,-12.828692,51.89874,-27.944042,-6.713676,-27.51231,6.6780524,8.318731,44.3726,-16.675682,3.3855298,-2.0341618,0.8244627,16.564285,-6.774826,19.512568,-34.266087,52.33386,-1.7473854,2.5812476,6.2500887,-12.516044,-17.9325,37.984516,48.792614,-6.44028,-2.1962647,-3.5308673
195,2.6294684410095215,7.860043525695801,74.10234069824219,-1.922679069857248,1.9803712751243108,-120.47839388030555,-23.926493,-0.6614661,-12.409425,52.463764,-28.276958,-6.8559217,-28.24181,7.4740877,9.514115,44.808163,-16.3809,3.5436006,-2.2634077,0.43335804,17.011787,-7.4152064,19.734339,-34.57038,52.768776,-1.7343104,2.7263253,7.003899,-12.738518,-17.812172,37.605053,47.6599,-6.170087,-2.313757,-3.6354837
196,2.9425582885742188,8.066437721252441,73.94617462158203,-1.9116108436295984,2.038957722862981,-122.05361988422219,-24.252634,-0.22387144,-11.60402,52.91599,-28.676193,-6.859083,-29.015059,8.333451,10.7386675,45.16453,-15.984476,3.774268,-2.496053,0.031802405,17.43407,-8.156576,19.948942,-34.924747,53.255993,-1.6224,2.9559991,7.7249494,-13.011625,-17.673613,37.247818,46.51141,-6.047862,-2.4210596,-3.6877167
197,3.2822835445404053,8.275489807128906,73.78956604003906,-1.9058557689573163,2.1572730544435634,-123.73055227003408,-24.57768,0.49405915,-10.261123,53.22792,-29.18191,-6.660957,-29.851078,9.263414,12.027071,45.47035,-15.494861,4.0955057,-2.7176142,-0.39012605,17.825682,-9.002229,20.145824,-35.345894,53.825565,-1.3770659,3.3164287,8.435902,-13.35182,-17.515617,36.924488,45.358486,-6.113021,-2.5196753,-3.6678119
198,3.6324939727783203,8.491596221923828,73.63355255126953,-1.9057580924726079,2.3225887309045823,-125.4981838472445,-24.879648,1.4437386,-8.481918,53.428535,-29.775017,-6.323002,-30.728329,10.255138,13.374154,45.726147,-14.930864,4.493602,-2.931301,-0.8346778,18.196394,-9.954802,20.319614,-35.831776,54.485825,-1.0588462,3.776381,9.165904,-13.754004,-17.338594,36.640736,44.19833,-6.2951593,-2.6248758,-3.5979621
199,3.9926159381866455,8.710867881774902,73.48312377929688,-1.9247974863264474,2.536502574697446,-127.31288030429619,-25.180134,2.5129714,-6.5389895,53.56809,-30.389463,-5.9537745,-31.605343,11.289285,14.718692,45.858902,-14.270636,4.956342,-3.170574,-1.2762858,18.547592,-11.008166,20.478415,-36.344364,55.17564,-0.69820243,4.261329,9.838449,-14.195109,-17.138988,36.367867,43.02387,-6.556034,-2.7216678,-3.5086503
200,4.370279788970947,8.925810813903809,73.34208679199219,-1.976847749342568,2.7998952703455537,-129.13177254669282,-25.52224,3.5913193,-4.703051,53.697754,-30.953627,-5.65559,-32.44896,12.341386,15.999187,45.800518,-13.4934225,5.468208,-3.468203,-1.6931539,18.881783,-12.150453,20.640366,-36.84478,55.82268,-0.32179096,4.695382,10.377442,-14.66372,-16.910816,36.084053,41.83547,-6.845859,-2.7950563,-3.4305425
201,4.76959753036499,9.155786514282227,73.21046447753906,-2.070787328654991,3.1252336550692066,-130.96649130341666,-25.912374,4.680522,-2.9886878,53.783836,-31.48878,-5.4269166,-33.278027,13.473207,17.356215,45.550133,-12.574933,6.020309,-3.8409102,-2.0892146,19.198118,-13.380473,20.816357,-37.33347,56.41703,0.12889516,5.119254,10.7317505,-15.192567,-16.64936,35.80343,40.62986,-7.1946025,-2.8306582,-3.3560548
202,5.175913333892822,9.384438514709473,73.09651947021484,-2.202378197848927,3.504331341428944,-132.8325994211574,-26.327103,5.831172,-1.2713084,53.81654,-32.01756,-5.222813,-34.09718,14.655594,18.786085,45.1331,-11.539924,6.6298647,-4.2744265,-2.4787695,19.496391,-14.689974,21.009014,-37.821697,56.973892,0.649891,5.552931,10.948896,-15.774312,-16.351881,35.528233,39.406563,-7.621771,-2.840463,-3.274315
203,5.593045234680176,9.616952896118164,72.99605560302734,-2.363607519457166,3.9075594286228874,-134.69396103903637,-26.783632,7.009539,0.38770255,53.88215,-32.467255,-5.073149,-34.868473,15.727399,20.008339,44.517376,-10.434304,7.309132,-4.7505374,-2.8581963,19.781319,-16.072784,21.229568,-38.30662,57.46759,1.1052616,5.888003,11.1048565,-16.373142,-16.017904,35.23776,38.194897,-8.0291,-2.849732,-3.2114391
204,6.019486427307129,9.855138778686523,72.91264343261719,-2.543410406507564,4.306840378350195,-136.51562671615392,-27.302383,8.181891,1.9284538,54.063107,-32.764046,-5.005911,-35.570522,16.535206,20.731834,43.670353,-9.294416,8.058488,-5.250706,-3.2251813,20.05838,-17.512196,21.494316,-38.77939,57.858665,1.3646328,6.017259,11.277354,-16.928349,-15.646815,34.897594,37.0027,-8.339991,-2.88258,-3.1930182
205,6.450625419616699,10.097978591918945,72.8415298461914,-2.756222449925671,4.712220420050602,-138.27288440343486,-27.955833,9.34995,3.2873034,54.422997,-32.843155,-5.0595565,-36.18594,17.12189,21.017605,42.47963,-8.00061,9.021535,-5.80566,-3.5736568,20.343412,-19.016502,21.821592,-39.258823,58.128246,1.3558476,5.854387,11.476071,-17.435713,-15.229938,34.47067,35.808174,-8.549666,-2.9602327,-3.207606
206,6.886836051940918,10.340181350708008,72.78569030761719,-2.99878300025456,5.12971280723818,-139.99020985153416,-28.714941,10.528401,4.509101,54.900406,-32.757164,-5.204724,-36.73932,17.535696,20.980469,40.986237,-6.568706,10.140824,-6.415658,-3.9174378,20.630693,-20.580845,22.216568,-39.749626,58.274338,1.1585188,5.475638,11.66054,-17.925692,-14.764063,33.98067,34.613438,-8.697691,-3.065208,-3.2473671
207,7.309427261352539,10.572417259216309,72.74235534667969,-3.2327272657548565,5.529029525000754,-141.70777279487,-29.449642,11.702935,5.702213,55.389523,-32.607456,-5.368346,-37.276947,17.652061,20.38571,39.393204,-5.2178564,11.104531,-7.014709,-4.279186,20.893423,-22.173014,22.671156,-40.22043,58.289234,0.87035537,5.0177116,11.834753,-18.395487,-14.263858,33.493633,33.464554,-8.764383,-3.1628978,-3.3424876
208,7.725459098815918,10.786540985107422,72.70436096191406,-3.421328806541099,5.883981849515692,-143.46698809913624,-30.028372,12.861766,6.980605,55.78734,-32.496216,-5.479343,-37.841682,17.359415,18.979313,37.91912,-4.1630383,11.598484,-7.5351224,-4.6714835,21.10468,-23.776184,23.170986,-40.649097,58.182785,0.57576275,4.616546,12.006346,-18.842497,-13.75785,33.083256,32.402855,-8.721564,-3.2180357,-3.5228434
209,8.142711639404297,10.99209976196289,72.67036437988281,-3.555574197507319,6.192438132446178,-145.27425132922616,-30.419157,14.002666,8.378573,56.061142,-32.434883,-5.5214944,-38.403774,16.549389,16.4575,36.49562,-3.4138837,11.514999,-7.9591465,-5.094755,21.274384,-25.425375,23.710484,-41.072346,57.970394,0.24833056,4.283993,12.181983,-19.19809,-13.25556,32.734013,31.370522,-8.493167,-3.2171612,-3.8569868
210,8.547113418579102,11.168007850646973,72.64466857910156,-3.655203511888918,6.469923082227891,-147.10908080498868,-30.690172,15.131124,9.839272,56.270176,-32.375206,-5.533994,-38.876644,15.342336,13.027219,35.071056,-2.892719,11.044649,-8.3180485,-5.532499,21.414383,-27.12317,24.28654,-41.489544,57.646015,-0.13422489,3.9548616,12.356185,-19.48613,-12.761444,32.42379,30.358711,-8.101347,-3.182389,-4.3077264
211,8.942953109741211,11.32004451751709,72.62601470947266,-3.7312853367731234,6.721647920206948,-148.97541799685575,-30.858902,16.250092,11.34307,56.44728,-32.32756,-5.5289235,-39.24191,13.964189,9.195992,33.89494,-2.687262,10.318625,-8.616534,-5.9553976,21.503311,-28.812496,24.88692,-41.825157,57.197147,-0.4915728,3.6495044,12.522231,-19.770998,-12.297133,32.18938,29.419878,-7.7143755,-3.1271756,-4.7452393
212,9.329127311706543,11.450028419494629,72.61912536621094,-3.7962567490572394,6.954252192867621,-150.87987674495074,-30.947275,17.363718,12.870261,56.62667,-32.30266,-5.516718,-39.549007,12.614268,5.4678307,33.21609,-2.868877,9.450452,-8.860231,-6.329307,21.518785,-30.45127,25.497416,-42.01285,56.63044,-0.75814635,3.3879294,12.675198,-20.118269,-11.896529,32.074284,28.603806,-7.4932804,-3.060204,-5.039665
213,9.693929672241211,11.565999031066895,72.60841369628906,-3.844792119295438,7.1726568292562565,-152.84383901363444,-30.95654,18.473055,14.435436,56.821056,-32.306057,-5.493771,-39.797825,11.218301,1.696067,33.024387,-3.584279,8.351615,-9.023601,-6.6451077,21.450947,-32.072567,26.113008,-42.080276,56.00481,-0.89327586,3.1540618,12.791312,-20.5037,-11.584428,32.084923,27.903156,-7.4626513,-2.9692476,-5.15383
214,10.051305770874023,11.658994674682617,72.5958023071289,-3.875070312443288,7.3757920362607035,-154.85860993699208,-30.876308,19.57382,16.046902,57.012775,-32.33201,-5.4551277,-39.939346,9.703432,-2.2683566,33.21635,-4.791729,7.023419,-9.104865,-6.9051785,21.320276,-33.703396,26.73349,-42.05981,55.31898,-0.9480045,2.9437406,12.883788,-20.877401,-11.368035,32.194992,27.262,-7.540817,-2.8508573,-5.156151
215,10.409704208374023,11.725996017456055,72.57921600341797,-3.8994632573810573,7.562823534281285,-156.88660573352877,-30.713228,20.65746,17.678581,57.18843,-32.37276,-5.407161,-40.03732,8.222087,-5.9372735,33.883717,-6.2279496,5.6647687,-9.132169,-7.0970635,21.139893,-35.19057,27.351112,-41.79156,54.421764,-0.8784783,2.7952607,13.006518,-21.272558,-11.254945,32.393127,26.66876,-7.711331,-2.7260683,-5.074111
216,10.735489845275879,11.777606010437012,72.57128143310547,-3.9251123602541087,7.732485407243546,-158.89027472748145,-30.472502,21.709803,19.30816,57.33,-32.418526,-5.3554053,-40.207928,6.8995013,-8.840326,35.115513,-7.593184,4.431823,-9.156195,-7.214041,20.927292,-36.49296,27.959667,-41.208134,53.250156,-0.7607905,2.746687,13.210531,-21.745409,-11.252448,32.6935,26.120382,-7.952366,-2.6154609,-4.9387417
217,11.046311378479004,11.806982040405273,72.57250213623047,-3.9376705434508263,7.876107769243046,-160.88521827649095,-30.13833,22.721216,20.959194,57.448616,-32.483692,-5.2925806,-40.58457,5.778431,-10.747033,37.11443,-8.814067,3.2830405,-9.163676,-7.2595882,20.684086,-37.580692,28.555927,-40.211266,51.79919,-0.47893566,2.7893746,13.554513,-22.326971,-11.369942,33.122547,25.673103,-8.293835,-2.5421853,-4.6906695
218,11.33743667602539,11.820328712463379,72.58016204833984,-3.9190990516145607,7.995895416078015,-162.87675121666402,-29.700329,23.674307,22.648094,57.53915,-32.565956,-5.2150407,-41.107887,4.7388906,-11.93493,39.73068,-10.003441,2.1191845,-9.131913,-7.2446747,20.398619,-38.446846,29.151901,-38.853333,50.077843,-0.029843297,2.9100664,13.996941,-22.972328,-11.609483,33.668148,25.306152,-8.726816,-2.4914527,-4.336518
219,11.608023643493652,11.840973854064941,72.6007308959961,-3.8757431460982446,8.108589308240948,-164.81392022525498,-29.186125,24.55132,24.335802,57.56865,-32.633617,-5.1355357,-41.629707,3.670222,-12.71654,42.53921,-11.132004,1.0003731,-9.129227,-7.1832414,20.089605,-39.1928,29.742252,-37.285427,48.13566,0.32685617,3.1461127,14.432779,-23.63915,-11.958558,34.30505,24.879845,-9.185602,-2.422904,-4.002943
220,11.848669052124023,11.845267295837402,72.63824462890625,-3.8265086177305103,8.231746127340879,-166.65100298951842,-28.633793,25.350082,25.976526,57.505844,-32.653393,-5.0689206,-42.005028,2.4735408,-13.413118,45.14822,-12.190351,-0.0029935741,-9.151901,-7.06837,19.734318,-39.671898,30.331308,-35.562603,45.815296,0.48436338,3.5238397,14.7687435,-24.240553,-12.400773,34.94831,24.277277,-9.607836,-2.2967913,-3.8138864
221,12.067987442016602,11.850276947021484,72.69184112548828,-3.779365654702184,8.370611934535894,-168.38956932391864,-28.064325,26.07917,27.561049,57.362965,-32.633556,-5.0117354,-42.267323,1.1794358,-13.960195,47.633976,-13.166495,-0.85705554,-9.206144,-6.8910127,19.325245,-39.869263,30.910894,-33.590492,43.055145,0.4102165,4.09108,14.969243,-24.805546,-12.929025,35.62659,23.50538,-10.016957,-2.0770166,-3.8305235
222,12.25776195526123,11.858785629272461,72.76661682128906,-3.726107250148359,8.51579032726106,-170.05161998108588,-27.461521,26.73825,29.110142,57.147823,-32.584366,-4.960091,-42.483215,-0.16373979,-14.246617,50.139107,-14.054467,-1.601539,-9.283711,-6.6554637,18.869085,-39.821823,31.474787,-31.352383,39.920376,0.18116128,4.820631,15.091973,-25.349691,-13.538777,36.36371,22.611544,-10.446543,-1.7905079,-3.9748394
223,12.417570114135742,11.886754989624023,72.86792755126953,-3.668972903748882,8.664779554817905,-171.62507692510798,-26.818933,27.322445,30.617336,56.83101,-32.47816,-4.9290805,-42.557137,-1.6292826,-14.530696,52.407692,-14.882998,-2.270661,-9.382236,-6.3764277,18.375635,-39.57071,32.03568,-29.08555,36.51032,-0.2375907,5.628073,15.182592,-25.849455,-14.220597,37.098145,21.589012,-10.803706,-1.4961135,-4.165615
224,12.547416687011719,11.922795295715332,72.99645233154297,-3.610737464534316,8.81548064167098,-173.09828137544486,-26.131237,27.827827,32.075787,56.382946,-32.286568,-4.933813,-42.390194,-3.294702,-15.075086,54.20236,-15.687615,-2.896355,-9.490322,-6.0705385,17.854237,-39.15675,32.613586,-27.040686,32.905006,-0.8902796,6.4288483,15.28893,-26.23485,-14.960861,37.741875,20.40031,-11.034543,-1.2536223,-4.320174
225,12.653793334960938,11.976553916931152,73.15296936035156,-3.5583304565741405,8.977068348308597,-174.447272379212,-25.432337,28.259651,33.459198,55.81259,-32.00799,-4.9743776,-41.9241,-5.2104197,-15.986041,55.462383,-16.50798,-3.4906895,-9.631025,-5.7421308,17.303167,-38.620213,33.20751,-25.212124,29.02861,-1.9172806,7.3446207,15.3687935,-26.48124,-15.753832,38.249054,18.978632,-11.145841,-1.0791491,-4.414959
226,12.73332691192627,12.052245140075684,73.33590698242188,-3.511077424692578,9.147341355837709,-175.68763523532573,-24.723324,28.623625,34.773483,55.13079,-31.655182,-5.0443215,-41.213955,-7.312653,-17.13793,56.33654,-17.322157,-4.022086,-9.793406,-5.3851647,16.71496,-37.923885,33.809658,-23.49202,24.848259,-3.2639143,8.375573,15.436771,-26.619509,-16.60217,38.662487,17.363316,-11.168105,-0.94187826,-4.493145
227,12.780941009521484,12.136972427368164,73.54862976074219,-3.4591266464422485,9.30786768104507,-176.86643307521692,-23.94959,28.913662,36.059574,54.310474,-31.220055,-5.148725,-40.324055,-9.508418,-18.449762,56.903507,-18.075289,-4.4561872,-9.934564,-5.006906,16.110035,-37.043453,34.42534,-21.962372,20.54114,-4.6812716,9.252908,15.609684,-26.742924,-17.500553,39.045006,15.715189,-11.044328,-0.8317849,-4.575824
228,12.805196762084961,12.238565444946289,73.79237365722656,-3.3916904516665842,9.440594623603232,-178.03051931820232,-23.057186,29.120312,37.359585,53.326145,-30.695148,-5.2937374,-39.323997,-11.7088785,-19.83544,57.239872,-18.709805,-4.764537,-10.0198145,-4.622457,15.505058,-35.97833,35.058968,-20.710396,16.313654,-5.921801,9.701084,15.982577,-26.711983,-18.429491,39.408775,14.014328,-10.878047,-0.7375937,-4.6793013
229,12.809003829956055,12.354869842529297,74.06074523925781,-3.3010443259896207,9.546958267770249,-179.1531423363007,-22.06026,29.241926,38.69942,52.199768,-30.095755,-5.469841,-38.17519,-13.955515,-21.35744,57.316395,-19.255835,-4.909,-10.067391,-4.241232,14.900301,-34.725414,35.72011,-19.783796,12.139291,-7.01643,9.599254,16.656996,-26.5846,-19.37895,39.723377,12.305211,-10.601514,-0.67347,-4.818129
230,12.781049728393555,12.50446891784668,74.35424041748047,-3.194272710800463,9.635177532830653,179.77655606166212,-20.986109,29.279814,40.045475,50.9361,-29.417223,-5.6780047,-36.84312,-16.258924,-23.064426,57.123547,-19.72518,-4.9097753,-10.079687,-3.8521807,14.282613,-33.21831,36.41784,-19.091604,7.860851,-8.052357,9.100335,17.542233,-26.379183,-20.347385,39.9726,10.57983,-10.216885,-0.64035136,-4.9807982
231,12.721220016479492,12.671056747436523,74.68150329589844,-3.0800708187672234,9.698261571616845,178.68833589813667,-19.797106,29.220001,41.352283,49.471813,-28.626406,-5.942508,-35.41906,-18.49567,-24.83059,56.761814,-20.032986,-4.834999,-10.040669,-3.465205,13.680638,-31.649824,37.1348,-18.580915,3.7673805,-8.890736,8.341325,18.434797,-26.08916,-21.326351,40.2486,8.837778,-9.817986,-0.60930365,-5.150021
232,12.624428749084473,12.863463401794434,75.04134368896484,-2.968525169275533,9.72843756198668,177.51214702915772,-18.457613,29.047554,42.572315,47.741814,-27.686857,-6.2892756,-34.01077,-20.551662,-26.511314,56.327656,-20.098253,-4.757907,-9.867883,-3.0579407,13.074036,-29.809929,37.868305,-18.13001,-0.22071253,-9.350996,7.470191,19.13581,-25.699108,-22.30832,40.609226,7.152639,-9.487366,-0.551566,-5.3089232
233,12.496735572814941,13.068146705627441,75.43173217773438,-2.837972222900496,9.727161204889095,176.26679646805164,-16.911346,28.726248,43.86458,45.65573,-26.630007,-6.702648,-32.639103,-22.488585,-28.104523,55.854145,-19.960585,-4.671429,-9.593083,-2.6398592,12.45293,-27.758886,38.628506,-17.81306,-4.0162416,-9.330701,6.323378,19.671696,-25.234447,-23.29152,41.100727,5.535394,-9.223561,-0.41875014,-5.5025682
234,12.33923625946045,13.295921325683594,75.85273742675781,-2.6898641604441824,9.697960293193244,174.97649013414642,-15.207873,28.25753,45.182045,43.26072,-25.452564,-7.183342,-31.257423,-24.340641,-29.668468,55.29153,-19.646858,-4.5511227,-9.230691,-2.2153907,11.815563,-25.409054,39.427082,-17.605742,-7.75266,-8.914166,4.89991,20.128033,-24.686638,-24.276075,41.666885,3.963837,-8.998406,-0.23985985,-5.7246847
235,12.15080451965332,13.564053535461426,76.3028564453125,-2.5681595301224025,9.6358487746864,173.57938764857477,-13.466186,27.700508,46.166397,40.70144,-24.066751,-7.778821,-29.905746,-25.96449,-31.120638,54.614174,-19.058725,-4.447124,-8.755271,-1.7937602,11.217692,-22.883034,40.2389,-17.36144,-11.326932,-8.29779,3.5881248,20.39312,-24.122526,-25.247,42.284317,2.470275,-8.80612,-0.10214187,-5.8873467
236,11.936976432800293,13.871465682983398,76.7826919555664,-2.5172316374762604,9.53364377142992,172.01304999586964,-11.795502,27.143373,46.459953,38.13843,-22.393261,-8.529522,-28.639606,-27.21693,-32.366024,53.790604,-18.101988,-4.4102125,-8.136017,-1.3720186,10.689627,-20.14861,41.01685,-16.897877,-14.75868,-7.653522,2.7713792,20.339973,-23.538002,-26.180954,42.9289,1.0667051,-8.684393,-0.09263983,-5.9014196
237,11.714303970336914,14.211819648742676,77.28014373779297,-2.594262936032293,9.373604181931,170.22883364991134,-10.126521,26.608715,45.867466,35.36285,-20.301506,-9.6803055,-27.517294,-27.991804,-33.283623,52.803833,-16.65273,-4.5083914,-7.3154445,-0.8769516,10.230179,-17.098124,41.720867,-16.170954,-18.16363,-6.872964,2.6581697,19.77351,-22.960188,-27.063948,43.667526,-0.18489261,-8.643233,-0.24083821,-5.745813
