unveil-humanoid-operators/unveil-humanoid-operators.github.io/feature-analysis-animation/data/feature_matrix_fixed/gender_walking_turning_ankle_rom_low.csv
Frame,root_translateX,root_translateY,root_translateZ,root_rotateX,root_rotateY,root_rotateZ,left_hip_pitch_joint_dof,left_hip_roll_joint_dof,left_hip_yaw_joint_dof,left_knee_joint_dof,left_ankle_pitch_joint_dof,left_ankle_roll_joint_dof,right_hip_pitch_joint_dof,right_hip_roll_joint_dof,right_hip_yaw_joint_dof,right_knee_joint_dof,right_ankle_pitch_joint_dof,right_ankle_roll_joint_dof,waist_yaw_joint_dof,waist_roll_joint_dof,waist_pitch_joint_dof,left_shoulder_pitch_joint_dof,left_shoulder_roll_joint_dof,left_shoulder_yaw_joint_dof,left_elbow_joint_dof,left_wrist_roll_joint_dof,left_wrist_pitch_joint_dof,left_wrist_yaw_joint_dof,right_shoulder_pitch_joint_dof,right_shoulder_roll_joint_dof,right_shoulder_yaw_joint_dof,right_elbow_joint_dof,right_wrist_roll_joint_dof,right_wrist_pitch_joint_dof,right_wrist_yaw_joint_dof
0,0.6300094723701477,-2.9780125617980957,77.87542724609375,-0.653029748031376,-8.455223600784032,88.69042401320631,11.712857,8.981735,11.96586,8.362933,-10.888959,-9.481658,13.0661745,-6.1003933,-12.162196,7.5648637,-10.929392,6.6341987,-0.07254328,3.729706,8.94506,-91.669235,33.70192,-34.383038,54.830303,-55.226967,12.40418,-1.5232842,-100.804184,-23.93299,43.295795,63.07503,29.852406,2.4409645,-14.055598
1,0.6542457938194275,-2.9967575073242188,77.87892150878906,-0.7091319367982153,-8.442659737192452,88.69121645379882,11.5503235,9.101368,11.936108,8.645821,-11.013564,-9.514792,13.027714,-6.0089087,-12.155441,7.567457,-10.875683,6.559534,-0.08064228,3.784007,8.955212,-91.63874,33.751865,-34.443897,54.791073,-55.32972,12.392159,-1.5030199,-100.83739,-23.87095,43.32776,63.128315,29.848776,2.4359496,-14.081111
2,0.6785721778869629,-3.0141539573669434,77.88217163085938,-0.7633058511406745,-8.429868672195687,88.68984778937256,11.391981,9.217262,11.908123,8.922044,-11.134853,-9.549316,12.988275,-5.9201083,-12.146111,7.571102,-10.823886,6.483228,-0.09170422,3.833499,8.966383,-91.61077,33.808456,-34.507465,54.751503,-55.435955,12.381793,-1.4801489,-100.86624,-23.808685,43.35061,63.172813,29.83978,2.4321265,-14.106059
3,0.6995919346809387,-3.0325818061828613,77.88539123535156,-0.8220432232985376,-8.4168969258412,88.69274826450904,11.220334,9.3400955,11.875277,9.220918,-11.266562,-9.582451,12.950269,-5.8262534,-12.141857,7.5707774,-10.766418,6.4100676,-0.10551524,3.8838484,8.977637,-91.57584,33.871754,-34.577904,54.702206,-55.543915,12.370296,-1.4613606,-100.89709,-23.748255,43.377647,63.22109,29.838594,2.4269893,-14.131154
4,0.7224075198173523,-3.0560524463653564,77.88812255859375,-0.8901036881424402,-8.403400596673453,88.70624878957479,11.004212,9.483914,11.827997,9.600766,-11.433116,-9.6115055,12.918261,-5.718316,-12.150972,7.553488,-10.690236,6.3446126,-0.120950595,3.9418342,8.991968,-91.5799,33.924103,-34.69021,54.68364,-55.67182,12.357435,-1.4538034,-100.92814,-23.7046,43.418068,63.26857,29.857973,2.420065,-14.156771
5,0.7490620017051697,-3.083357334136963,77.89250183105469,-0.9670277079899361,-8.389996946561823,88.73079556765195,10.7435665,9.647022,11.769186,10.065038,-11.636514,-9.636143,12.89236,-5.5984445,-12.176071,7.521477,-10.595873,6.291262,-0.14923456,3.9989872,9.009715,-91.592026,33.99473,-34.845467,54.666397,-55.81886,12.34209,-1.4618982,-100.9693,-23.65336,43.467747,63.3332,29.899866,2.4081984,-14.185673
6,0.776427686214447,-3.11431622505188,77.89533233642578,-1.050316908424247,-8.37630411651324,88.76336122705233,10.450078,9.824303,11.70154,10.590402,-11.86641,-9.65818,12.871617,-5.468549,-12.212791,7.476223,-10.4869375,6.2462916,-0.16481923,4.066729,9.02673,-91.62925,34.037,-35.02034,54.675827,-55.968197,12.323612,-1.4830275,-101.006134,-23.628172,43.53789,63.3963,29.963045,2.3955266,-14.216111
7,0.8067325949668884,-3.1499240398406982,77.89741516113281,-1.147414022148717,-8.360909032107758,88.80583392294528,10.116563,10.022335,11.615721,11.182916,-12.123854,-9.678436,12.853053,-5.322346,-12.258064,7.418847,-10.363586,6.2024503,-0.20271151,4.1311054,9.047665,-91.695435,34.09834,-35.247017,54.69816,-56.146927,12.304449,-1.5048271,-101.04762,-23.596067,43.597076,63.462837,30.032696,2.3794563,-14.2446165
8,0.8366085290908813,-3.188586950302124,77.89850616455078,-1.265040125294488,-8.341870883771435,88.85997066217037,9.734159,10.248186,11.502308,11.85107,-12.410994,-9.697601,12.832852,-5.1529818,-12.308653,7.349162,-10.224469,6.1526775,-0.2509698,4.2124524,9.067121,-91.76687,34.15902,-35.478386,54.713768,-56.329662,12.285933,-1.5206728,-101.09564,-23.569407,43.65976,63.536335,30.10572,2.3623128,-14.267261
9,0.8637664914131165,-3.2296009063720703,77.89688110351562,-1.4036102924550324,-8.316843114116612,88.92648356946536,9.297545,10.502732,11.358393,12.596855,-12.728528,-9.716508,12.768946,-4.967774,-12.36313,7.3517156,-10.112045,6.087961,-0.30684075,4.3101673,9.0822115,-91.8521,34.212543,-35.73022,54.730618,-56.52694,12.265005,-1.5276911,-101.1478,-23.551517,43.72792,63.61854,30.186323,2.3392174,-14.2822485
10,0.8911944031715393,-3.2816789150238037,77.89315032958984,-1.5585588413726343,-8.287231629125355,89.0039198678698,8.814381,10.780385,11.18901,13.41152,-13.07321,-9.73485,12.668644,-4.7699604,-12.422668,7.4160295,-10.02186,6.014617,-0.37564436,4.4147944,9.096161,-91.95841,34.26862,-36.017258,54.754395,-56.74536,12.242414,-1.5298649,-101.20367,-23.538157,43.795815,63.70579,30.274467,2.311402,-14.291751
11,0.9197589755058289,-3.333656072616577,77.8882827758789,-1.7301241366353388,-8.25634958149454,89.08975110265783,8.2933445,11.077922,10.996934,14.287465,-13.440825,-9.75136,12.571308,-4.5546737,-12.483594,7.4652267,-9.917515,5.949059,-0.4609634,4.524586,9.114251,-92.0809,34.333645,-36.315865,54.7785,-56.96784,12.222934,-1.5296061,-101.26289,-23.526976,43.85117,63.788807,30.359602,2.28812,-14.297908
12,0.9475408792495728,-3.391753911972046,77.88097381591797,-1.9148733932087905,-8.226915284361855,89.18007512492824,7.7424517,11.389876,10.786203,15.218123,-13.827627,-9.764371,12.485264,-4.326182,-12.538329,7.487882,-9.796666,5.908104,-0.5541173,4.6461124,9.137229,-92.20416,34.39688,-36.579082,54.795364,-57.16222,12.210202,-1.5306709,-101.32854,-23.51898,43.89667,63.86809,30.431366,2.2785518,-14.303847
13,0.9727393984794617,-3.451284885406494,77.87357330322266,-2.1152775752090425,-8.196259049937751,89.27480532390432,7.1536746,11.7212925,10.561724,16.215109,-14.241028,-9.767033,12.409462,-4.0811443,-12.584405,7.479054,-9.651932,5.897736,-0.6531068,4.7833033,9.163572,-92.33705,34.45024,-36.806705,54.816467,-57.33058,12.201767,-1.5334566,-101.40133,-23.513071,43.931137,63.944256,30.483221,2.2907872,-14.313218
14,0.991581916809082,-3.518383502960205,77.86376190185547,-2.33109376894694,-8.164228982536484,89.37539007932212,6.529776,12.070366,10.320104,17.270168,-14.678557,-9.762343,12.341044,-3.8193204,-12.625638,7.44472,-9.486906,5.9088383,-0.7533569,4.9366384,9.190175,-92.47034,34.48639,-37.00007,54.83802,-57.47058,12.194518,-1.5372111,-101.48243,-23.509941,43.96251,64.027,30.523273,2.3174765,-14.3242445
15,1.0035574436187744,-3.5892088413238525,77.84807586669922,-2.5548409699645473,-8.137223693461314,89.48052357360169,5.8876314,12.424536,10.051637,18.359865,-15.121485,-9.763373,12.279693,-3.550356,-12.663224,7.4025784,-9.3209,5.9351993,-0.8686134,5.0869737,9.22611,-92.62728,34.52193,-37.193127,54.8706,-57.5975,12.194576,-1.5402226,-101.56895,-23.507786,43.97791,64.10659,30.561438,2.344599,-14.330474
16,1.0171496868133545,-3.661806106567383,77.82518005371094,-2.7829447014724784,-8.121128913170045,89.58945212512575,5.2441998,12.771003,9.74726,19.460842,-15.553832,-9.783116,12.23097,-3.2821007,-12.698966,7.3572507,-9.166887,5.970521,-0.9894091,5.2414193,9.273199,-92.79152,34.546883,-37.35411,54.90289,-57.688343,12.207231,-1.5450207,-101.66502,-23.508352,43.994217,64.19465,30.609426,2.3583367,-14.327443
17,1.0273287296295166,-3.738511800765991,77.79808807373047,-3.0144206086006076,-8.115274059600319,89.70852017596232,4.5964265,13.123569,9.462647,20.582714,-15.972868,-9.832133,12.18819,-3.0169952,-12.732953,7.3241,-9.032282,6.0200677,-1.1252134,5.3885555,9.332604,-92.96607,34.567764,-37.49671,54.93117,-57.744774,12.230237,-1.5474408,-101.77111,-23.512535,44.002647,64.29112,30.673166,2.347519,-14.312024
18,1.0341393947601318,-3.8168325424194336,77.76414489746094,-3.2507915998166146,-8.117091100717216,89.83595534875187,3.9350562,13.483134,9.1829195,21.737602,-16.389591,-9.900292,12.159304,-2.7495081,-12.76454,7.2770634,-8.901442,6.0849876,-1.268183,5.5466003,9.400635,-93.1418,34.577938,-37.595104,54.952682,-57.762005,12.265243,-1.5501544,-101.89277,-23.51751,44.018253,64.40301,30.744087,2.3234694,-14.287179
19,1.0338112115859985,-3.8976733684539795,77.72662353515625,-3.4892439039923167,-8.130841324153044,89.9587097901929,3.2716596,13.816453,8.794239,22.899586,-16.804903,-9.971051,12.140064,-2.4832978,-12.792618,7.2348366,-8.784763,6.1524487,-1.4206754,5.688551,9.484896,-93.34654,34.588295,-37.708893,54.991547,-57.769688,12.309258,-1.5558238,-102.01413,-23.527304,44.016556,64.50243,30.824284,2.299868,-14.258217
20,1.0315966606140137,-3.9801671504974365,77.68650817871094,-3.7289886932106677,-8.1598813457273,90.06405807419891,2.617346,14.08675,8.1842165,24.041456,-17.219204,-10.029735,12.130861,-2.2204392,-12.816531,7.2032022,-8.687393,6.20972,-1.5672715,5.827876,9.5808935,-93.54911,34.594723,-37.797523,55.033096,-57.749016,12.368598,-1.5716729,-102.12037,-23.542274,43.995033,64.57763,30.893524,2.2957587,-14.22788
21,1.0214287042617798,-4.063876152038574,77.64120483398438,-3.9753466982551022,-8.206384625908926,90.15739497028449,1.9566796,14.3026285,7.355161,25.198124,-17.641325,-10.039666,12.141192,-1.9529245,-12.845205,7.1696396,-8.605008,6.2509418,-1.7116195,5.971788,9.692621,-93.75142,34.594948,-37.84494,55.075115,-57.688248,12.4522505,-1.6010947,-102.21955,-23.560356,43.95586,64.62918,30.947613,2.3213863,-14.196908
22,0.9993016719818115,-4.1473069190979,77.59510040283203,-4.226714368198987,-8.267740120187705,90.2427869985102,1.2912439,14.470228,6.3583937,26.368204,-18.066998,-10.022418,12.165432,-1.6825436,-12.875801,7.139969,-8.538899,6.2836056,-1.8572068,6.1211395,9.817778,-93.94762,34.591496,-37.85025,55.112217,-57.588375,12.555106,-1.6405793,-102.321,-23.575003,43.909836,64.672905,30.995905,2.364841,-14.164787
23,0.9726711511611938,-4.234426975250244,77.54695129394531,-4.472838517081943,-8.341182094045676,90.30552655553471,0.66136354,14.54787,5.1575603,27.468813,-18.476828,-10.051873,12.190087,-1.4241091,-12.89061,7.129169,-8.49258,6.315034,-1.9882087,6.2586446,9.9503355,-94.157036,34.576813,-37.86221,55.169388,-57.47806,12.660447,-1.6874,-102.4002,-23.605213,43.84553,64.69307,31.045185,2.4124732,-14.129296
24,0.9406335353851318,-4.313406467437744,77.49716186523438,-4.701920078994829,-8.424094880770896,90.33068878512705,0.1089535,14.495604,3.7188725,28.420256,-18.85661,-10.201411,12.199777,-1.1931456,-12.872043,7.156613,-8.472267,6.352735,-2.0877361,6.395558,10.080624,-94.3411,34.561966,-37.87234,55.223717,-57.371525,12.750998,-1.7391038,-102.47503,-23.629189,43.808815,64.73239,31.118975,2.4455059,-14.09448
25,0.8952580690383911,-4.392156600952148,77.4434814453125,-4.913230059971621,-8.518533456095897,90.32596719103216,-0.36304608,14.297532,1.9906647,29.23035,-19.215296,-10.496969,12.207963,-0.991018,-12.827675,7.2043304,-8.477105,6.4008775,-2.1563973,6.52058,10.210158,-94.527855,34.53455,-37.91129,55.304787,-57.28047,12.819903,-1.8047619,-102.53148,-23.66494,43.78744,64.77917,31.223787,2.4599802,-14.0527525
26,0.8403010368347168,-4.473603248596191,77.38666534423828,-5.111928667621305,-8.62536414652921,90.29563735327928,-0.76524884,13.975316,0.012298959,29.943077,-19.567553,-10.898887,12.216422,-0.81071275,-12.763298,7.2708735,-8.505209,6.455005,-2.1979861,6.637298,10.34072,-94.71526,34.490433,-37.96132,55.407074,-57.1892,12.875824,-1.8823925,-102.570564,-23.713629,43.775627,64.82633,31.350378,2.4646811,-14.006287
27,0.7778244614601135,-4.5523810386657715,77.33087158203125,-5.296138830858473,-8.739767145388992,90.21976924695188,-1.0799494,13.551258,-2.116111,30.543276,-19.906086,-11.38009,12.19241,-0.6549105,-12.659004,7.3998947,-8.56086,6.5097494,-2.207008,6.7494082,10.467807,-94.88581,34.44019,-38.00818,55.50933,-57.09359,12.926416,-1.9525408,-102.59204,-23.762049,43.767963,64.86618,31.481945,2.4649258,-13.967137
28,0.7064195871353149,-4.628398895263672,77.27729034423828,-5.466079676222948,-8.857186002683385,90.07869180760704,-1.2924436,13.050089,-4.297537,31.0135,-20.221607,-11.912167,12.10336,-0.52591145,-12.495252,7.6340566,-8.647507,6.5600147,-2.1779253,6.85809,10.586636,-95.02223,34.394318,-38.040524,55.590603,-56.989418,12.978881,-1.9955739,-102.590904,-23.800678,43.754353,64.885574,31.60048,2.4662416,-13.9477825
29,0.6167017817497253,-4.706004619598389,77.22557067871094,-5.626119363242776,-8.979669314706538,89.86683176444188,-1.38604,12.439791,-6.628717,31.332323,-20.51973,-12.542749,11.950547,-0.41571656,-12.269367,7.9746118,-8.768246,6.599072,-2.106884,6.968546,10.698383,-95.119934,34.355705,-38.05007,55.64438,-56.86901,13.0379095,-1.9995482,-102.56555,-23.828354,43.735443,64.87947,31.70609,2.4703171,-13.9549265
30,0.519516110420227,-4.786510467529297,77.17422485351562,-5.774578748388348,-9.108207709602501,89.59484770163154,-1.3595799,11.7308235,-9.119473,31.520248,-20.81318,-13.26554,11.748502,-0.32428688,-11.991729,8.399777,-8.919245,6.631986,-1.9898893,7.0761576,10.802414,-95.207565,34.296413,-38.054714,55.705555,-56.736244,13.096524,-1.9772427,-102.5087,-23.863958,43.71068,64.84554,31.80736,2.4748065,-13.980674
31,0.4103640615940094,-4.865699768066406,77.12937927246094,-5.900314733113984,-9.236761844909493,89.26686616138349,-1.2358084,11.012343,-11.548754,31.619146,-21.093859,-13.969947,11.485874,-0.2654012,-11.662236,8.915619,-9.0917225,6.6716676,-1.8515129,7.177716,10.898075,-95.247086,34.269547,-38.048702,55.72544,-56.611195,13.154214,-1.9451187,-102.44162,-23.87628,43.683678,64.80735,31.894974,2.4765122,-14.015494
32,0.29071474075317383,-4.934825897216797,77.09284210205078,-5.992781492369457,-9.359307088599921,88.8864558070191,-1.0526642,10.3700905,-13.700022,31.666725,-21.341246,-14.546692,11.149795,-0.2532471,-11.279898,9.530796,-9.277966,6.7313657,-1.6853498,7.2582803,10.976137,-95.26058,34.24163,-38.050545,55.739185,-56.49737,13.199751,-1.9229004,-102.34553,-23.884634,43.636673,64.75301,31.958931,2.4743147,-14.04961
33,0.15132315456867218,-5.012065410614014,77.06233215332031,-6.014191850938527,-9.483964146302432,88.45029284411238,-0.7827644,9.784884,-15.538955,31.598625,-21.499535,-14.978784,10.708124,-0.3438316,-10.842384,10.341988,-9.529854,6.8254066,-1.4909447,7.2817097,11.042326,-95.24108,34.217922,-38.06386,55.742683,-56.39875,13.231627,-1.9133598,-102.21002,-23.885614,43.556828,64.67683,31.98948,2.4676096,-14.083212
34,-0.006379550322890282,-5.088404655456543,77.03607940673828,-5.983525728423442,-9.60930245681143,87.9502891775865,-0.429524,9.194304,-17.18983,31.4334,-21.59271,-15.000033,10.191376,-0.5017142,-10.3422575,11.276646,-9.813602,6.945147,-1.2614119,7.267934,11.095445,-95.196175,34.197384,-38.090485,55.741104,-56.31104,13.253741,-1.9072291,-102.0409,-23.877068,43.44688,64.58122,31.992424,2.4576182,-14.11961
35,-0.17445510625839233,-5.1653547286987305,77.01173400878906,-5.93563391416134,-9.72621072756727,87.40321549324271,-0.06326564,8.665571,-18.644886,31.241568,-21.669474,-15.000033,9.626659,-0.67201686,-9.789478,12.248926,-10.082187,7.078001,-1.011313,7.2468715,11.135867,-95.12564,34.186127,-38.121265,55.719845,-56.238384,13.267819,-1.9011011,-101.864174,-23.860518,43.33796,64.48367,31.983984,2.443882,-14.155774
36,-0.3470902144908905,-5.2455315589904785,76.98881530761719,-5.878109121530438,-9.831501906274418,86.83235328185904,0.27137166,8.183597,-19.906454,31.081367,-21.768272,-15.000033,9.028475,-0.84089434,-9.198873,13.222646,-10.319981,7.2226276,-0.76768523,7.2172384,11.169753,-95.05184,34.182224,-38.169712,55.689484,-56.191406,13.274109,-1.8900795,-101.702805,-23.831991,43.243958,64.40071,31.974186,2.4255724,-14.1876745
37,-0.5366564989089966,-5.332953453063965,76.96580505371094,-5.814043190560289,-9.925695709414459,86.23286028731086,0.5744887,7.736992,-20.998766,30.956577,-21.89981,-15.000033,8.4016905,-1.0058966,-8.565699,14.190889,-10.5265,7.382347,-0.51343423,7.1934986,11.1925335,-94.9432,34.18715,-38.210365,55.618916,-56.159996,13.273667,-1.8748488,-101.55163,-23.807808,43.19497,64.326744,31.978912,2.4032195,-14.213732
38,-0.729745626449585,-5.427661895751953,76.94062805175781,-5.737164199847603,-10.006934975882915,85.59904530454887,0.85663116,7.333233,-21.915033,30.835793,-22.038607,-15.000033,7.7378936,-1.1712202,-7.8892145,15.169395,-10.708585,7.558421,-0.25689706,7.159777,11.202366,-94.81309,34.207,-38.26648,55.527897,-56.149307,13.265611,-1.856724,-101.40366,-23.767603,43.15336,64.263115,31.979286,2.37526,-14.234749
39,-0.9351619482040405,-5.52507209777832,76.9168701171875,-5.653082192672167,-10.069447492341377,84.9538122120529,1.084972,6.9814734,-22.610094,30.73854,-22.177448,-15.000033,7.0199766,-1.3351003,-7.188739,16.182514,-10.869374,7.745833,-0.016020907,7.1252193,11.207367,-94.67401,34.240788,-38.320766,55.416397,-56.162216,13.250995,-1.8345451,-101.27946,-23.72317,43.135098,64.210236,31.976707,2.3451383,-14.256716
40,-1.150679111480713,-5.632656097412109,76.89112091064453,-5.564073927710248,-10.109499620549943,84.31891279796663,1.2379054,6.6571927,-23.049213,30.690918,-22.310873,-14.7712755,6.2337484,-1.5011523,-6.4812984,17.25226,-11.010544,7.941819,0.18060021,7.0853024,11.217547,-94.54637,34.295937,-38.375523,55.293148,-56.206543,13.230258,-1.8072125,-101.20005,-23.669956,43.131294,64.175064,31.965263,2.3144948,-14.283958
41,-1.3803859949111938,-5.754274845123291,76.8641357421875,-5.431862813952569,-10.138581692954947,83.68724635713734,1.3362594,6.338033,-23.177778,30.657969,-22.418184,-14.3569,5.34659,-1.7150563,-5.7470026,18.474228,-11.181059,8.155419,0.342679,7.007789,11.245847,-94.44247,34.368423,-38.448326,55.16504,-56.304127,13.201467,-1.7716167,-101.16598,-23.616987,43.15283,64.152214,31.951668,2.2818313,-14.314488
42,-1.6256541013717651,-5.890073776245117,76.83048248291016,-5.259373717152289,-10.158488878402581,83.05009437767092,1.3900027,6.030951,-23.024193,30.625978,-22.503708,-13.858999,4.3748393,-1.9698519,-4.9783893,19.817179,-11.370322,8.388462,0.48254135,6.890972,11.286735,-94.34361,34.455986,-38.531265,55.02138,-56.44047,13.164063,-1.7294099,-101.16101,-23.568071,43.19309,64.13472,31.933563,2.2469637,-14.346636
43,-1.882462739944458,-6.031445026397705,76.7932357788086,-5.072155743132638,-10.160579126036708,82.42487010215612,1.3881086,5.746836,-22.663319,30.608109,-22.575768,-13.293451,3.3647327,-2.2306879,-4.2053905,21.17031,-11.522605,8.633932,0.58063537,6.751803,11.336601,-94.25923,34.553314,-38.603264,54.874237,-56.582542,13.122908,-1.6856267,-101.18581,-23.523508,43.235077,64.11842,31.902029,2.2160938,-14.385025
44,-2.145559310913086,-6.185648441314697,76.75251007080078,-4.875235245285417,-10.144601583153396,81.82847223320024,1.3312551,5.4664845,-22.168154,30.61348,-22.637009,-12.665773,2.343858,-2.4947827,-3.4531498,22.484373,-11.617064,8.891463,0.6204759,6.5850425,11.397147,-94.18688,34.65216,-38.63479,54.728874,-56.688824,13.080544,-1.6456122,-101.23779,-23.484232,43.260166,64.10075,31.844679,2.1946447,-14.434617
45,-2.4194679260253906,-6.352982521057129,76.71143341064453,-4.666367327926117,-10.10912173497884,81.26736199033066,1.206768,5.201428,-21.46312,30.657682,-22.703226,-11.900576,1.3023113,-2.768247,-2.7310236,23.782583,-11.662929,9.155504,0.5983944,6.3848605,11.466849,-94.12896,34.74556,-38.615017,54.59382,-56.743996,13.036815,-1.6169078,-101.324326,-23.452759,43.266872,64.08316,31.760801,2.1871765,-14.495862
46,-2.6965410709381104,-6.525597095489502,76.67142486572266,-4.445529039643988,-10.054900929161784,80.73246101398249,1.0160127,4.9587817,-20.540993,30.735956,-22.77258,-11.019514,0.22935571,-3.0500555,-2.0231452,25.083553,-11.669343,9.428802,0.524732,6.156205,11.544484,-94.10053,34.82928,-38.56791,54.479904,-56.775024,12.990244,-1.5948107,-101.44296,-23.430428,43.263893,64.06514,31.656326,2.190059,-14.566701
47,-2.978057622909546,-6.705265522003174,76.6355972290039,-4.2182312014210686,-9.984879648167357,80.21656896480316,0.79369175,4.7208824,-19.571339,30.79613,-22.802534,-10.179465,-0.832696,-3.3272595,-1.3171083,26.299791,-11.598911,9.723722,0.4115323,5.904838,11.628551,-94.10088,34.886738,-38.505493,54.38927,-56.786594,12.936824,-1.5659828,-101.57398,-23.420698,43.246933,64.04526,31.53031,2.1949713,-14.647361
48,-3.2695178985595703,-6.892055988311768,76.6134262084961,-3.990774766045425,-9.902160730607301,79.71255256069244,0.5758005,4.4689975,-18.72352,30.783083,-22.747398,-9.537208,-1.8454877,-3.5870793,-0.6008462,27.353325,-11.414729,10.052745,0.2626877,5.641203,11.719932,-94.088585,34.938602,-38.417744,54.273872,-56.78104,12.876376,-1.5164568,-101.70242,-23.418438,43.21397,64.02437,31.38283,2.1940036,-14.739179
49,-3.5674989223480225,-7.089298248291016,76.60698699951172,-3.7387607504057443,-9.816667000692739,79.2406333257541,0.38190973,4.1560845,-18.056286,30.666117,-22.574375,-9.157971,-2.8193135,-3.8690321,0.13033119,28.296755,-11.1307535,10.417871,0.06364244,5.3373423,11.830679,-94.0871,34.967587,-38.31231,54.15507,-56.760445,12.805711,-1.4357237,-101.833115,-23.42309,43.15901,64.01105,31.207417,2.1856353,-14.847826
50,-3.8663036823272705,-7.299417495727539,76.60929870605469,-3.4680698738675435,-9.723586143055638,78.79718560533652,0.19217524,3.8058658,-17.4742,30.476412,-22.311127,-8.94988,-3.7687035,-4.1658854,0.87190634,29.151287,-10.761235,10.814946,-0.18697923,5.0007477,11.956655,-94.100334,34.98384,-38.188305,54.03585,-56.727097,12.728157,-1.3332233,-101.97552,-23.43214,43.088364,64.003624,31.00655,2.1741633,-14.971226
51,-4.175732135772705,-7.5166120529174805,76.62225341796875,-3.2339552887432204,-9.60507044290029,78.34011003321015,-0.022596052,3.5036788,-16.917624,30.262125,-22.005507,-8.834852,-4.657514,-4.396623,1.6194794,29.787,-10.27326,11.246621,-0.45173797,4.6920924,12.070233,-94.09371,34.99887,-38.03556,53.892548,-56.674633,12.647712,-1.2265887,-102.10948,-23.450476,43.008167,63.984615,30.789429,2.1605341,-15.097501
52,-4.487784385681152,-7.741930961608887,76.64608001708984,-3.090551455454586,-9.443739538279782,77.82723962054789,-0.29384783,3.336142,-16.327696,30.073666,-21.707382,-8.735449,-5.452237,-4.4837804,2.3669684,30.080439,-9.637083,11.714172,-0.70115113,4.457312,12.148266,-94.09173,35.004856,-37.904514,53.763226,-56.625565,12.560625,-1.1307456,-102.22735,-23.467453,42.922794,63.953457,30.575958,2.1397588,-15.217719
53,-4.797619342803955,-7.96663236618042,76.68487548828125,-3.06645366023402,-9.221932625450714,77.26232994935528,-0.6579479,3.3391626,-15.713595,29.940063,-21.426725,-8.6604595,-6.1766677,-4.403476,3.1059644,30.03369,-8.8466,12.1507635,-0.93910336,4.3286533,12.170309,-94.05913,35.00921,-37.75431,53.61233,-56.551857,12.473029,-1.0561831,-102.309105,-23.490597,42.813362,63.889168,30.341906,2.1156337,-15.329949
54,-5.110024452209473,-8.192327499389648,76.74080657958984,-3.1289216531802206,-8.955661058314893,76.66288850187907,-1.0885346,3.465087,-15.101601,29.83059,-21.137785,-8.642613,-6.8362103,-4.2090764,3.8421302,29.70157,-7.9182925,12.576717,-1.1793175,4.271731,12.157579,-94.00872,35.013947,-37.5881,53.443207,-56.460728,12.384161,-0.9933389,-102.36281,-23.529139,42.683395,63.791622,30.09055,2.0889728,-15.438376
55,-5.417117595672607,-8.424997329711914,76.80899810791016,-3.239053752707442,-8.677726546819125,76.00703248351869,-1.5235202,3.6774952,-14.456814,29.707476,-20.837612,-8.641125,-7.3705244,-3.9421225,4.5936813,29.042034,-6.860416,13.122991,-1.4027258,4.253484,12.143013,-93.96827,35.0162,-37.452263,53.288574,-56.389885,12.288472,-0.92587775,-102.41799,-23.56234,42.569145,63.698353,29.859772,2.0555303,-15.54234
56,-5.7260026931762695,-8.671483993530273,76.88729095458984,-3.359705916150817,-8.421195891929441,75.27355077042087,-1.9044963,3.9345863,-13.744681,29.541233,-20.527561,-8.6125765,-7.7176566,-3.6455207,5.3852406,28.01107,-5.6864214,13.920467,-1.5733374,4.254951,12.156755,-93.91334,35.023502,-37.333626,53.118984,-56.348354,12.192019,-0.83955985,-102.46258,-23.625528,42.502045,63.582844,29.675869,2.0233498,-15.636659
57,-6.048407554626465,-8.91373062133789,76.97786712646484,-3.4960659185099616,-8.196875308182882,74.45025904422072,-2.1972961,4.2512975,-12.947817,29.294031,-20.190248,-8.549591,-7.8205876,-3.3035953,6.259563,26.504036,-4.3234653,15.000033,-1.6905081,4.279281,12.212454,-93.84539,35.036396,-37.251884,52.93925,-56.346153,12.086767,-0.7184186,-102.50451,-23.699701,42.494,63.46799,29.557755,1.9779031,-15.725733
58,-6.3448028564453125,-9.160680770874023,77.07534790039062,-3.8278562538178615,-8.005843936423156,73.52176652184558,-2.4760654,4.8571987,-12.119536,29.143415,-19.937975,-8.533475,-7.5931005,-2.6780002,6.979108,24.328312,-2.6598077,15.000033,-1.7484787,4.489646,12.309116,-93.7882,35.041725,-37.208378,52.78238,-56.3744,11.973094,-0.5751137,-102.55968,-23.750635,42.524788,63.38313,29.480198,1.9189078,-15.811206
59,-6.63961935043335,-9.409579277038574,77.17166137695312,-4.1700589118913065,-7.831887510361794,72.53573660377488,-2.7335937,5.504355,-11.252792,29.00843,-19.70351,-8.513159,-7.171684,-2.088991,7.681622,21.766727,-0.9298369,15.000033,-1.7698538,4.7133365,12.428811,-93.72218,35.068924,-37.17776,52.607376,-56.43398,11.864428,-0.43837398,-102.62523,-23.82467,42.592354,63.287724,29.434917,1.8710767,-15.8833475
60,-6.9269700050354,-9.656901359558105,77.25997924804688,-4.441759066745995,-7.661303852258615,71.51559792909656,-2.9898162,6.086767,-10.353015,28.891323,-19.483576,-8.476565,-6.644112,-1.6579155,8.334903,19.001541,0.70293325,15.000033,-1.7707098,4.8566847,12.553807,-93.70492,35.104637,-37.19629,52.476837,-56.53996,11.763682,-0.33603466,-102.730896,-23.904888,42.67621,63.207214,29.403112,1.8501885,-15.934506
61,-7.207152843475342,-9.90538215637207,77.32825469970703,-4.618162985252728,-7.498751379983185,70.45275029661587,-3.2318003,6.578557,-9.405514,28.786346,-19.284094,-8.417298,-5.910911,-1.3397917,9.100025,15.812742,2.4018419,15.000033,-1.7449037,4.8926415,12.684848,-93.75689,35.135414,-37.28397,52.429703,-56.70356,11.665709,-0.28926513,-102.90948,-23.96597,42.80467,63.185112,29.4019,1.8600119,-15.961035
62,-7.479220390319824,-10.161191940307617,77.36984252929688,-4.674241502431641,-7.352361239701433,69.34675969118192,-3.428682,6.947921,-8.391309,28.650675,-19.078968,-8.325889,-4.9289827,-1.1991391,9.981911,12.125698,4.2039456,15.000033,-1.6912225,4.7929416,12.8284025,-93.85814,35.163116,-37.426147,52.440025,-56.912506,11.572949,-0.28159848,-103.14355,-24.014751,42.96959,63.210278,29.430996,1.8925226,-15.966466
63,-7.757852077484131,-10.421751022338867,77.3919906616211,-4.604814841987162,-7.204154160108179,68.21680459729015,-3.6079118,7.1812973,-7.3232055,28.489594,-18.856112,-8.204526,-3.8221955,-1.3874476,10.65437,8.193885,5.884803,15.000033,-1.620644,4.5609946,12.97599,-94.002045,35.203747,-37.60363,52.46579,-57.15836,11.495302,-0.2813807,-103.39426,-24.080988,43.120224,63.228554,29.456654,1.9424884,-15.958311
64,-8.043956756591797,-10.689629554748535,77.41280364990234,-4.488676349547483,-7.0312852337239,67.07304012344072,-3.8258095,7.3607254,-6.234083,28.34788,-18.626183,-8.073341,-3.9666271,-1.6562177,10.772483,6.943714,5.846003,15.000033,-1.5444692,4.2822394,13.104877,-94.15966,35.25836,-37.769226,52.47151,-57.40321,11.4376135,-0.2559169,-103.61903,-24.16128,43.178642,63.208076,29.41323,2.001045,-15.9428835
65,-8.3546142578125,-10.955220222473145,77.42125701904297,-4.385187177298407,-6.817351095291407,65.89781953678511,-4.1283917,7.558521,-5.13148,28.27911,-18.415005,-7.9434633,-4.691055,-2.1082742,10.137538,6.8487744,4.795186,15.000033,-1.4415231,4.053218,13.200935,-94.33552,35.29364,-37.891727,52.477463,-57.64721,11.386361,-0.18016793,-103.874664,-24.200966,43.169502,63.234318,29.278482,2.0571325,-15.93142
66,-8.67033576965332,-11.220930099487305,77.4358901977539,-4.301564835466298,-6.577763978484704,64.68934440186877,-4.4913187,7.7844653,-4.014723,28.275696,-18.229223,-7.813237,-5.4400744,-2.7571332,8.90707,6.7572517,3.4109848,15.000033,-1.3345397,3.8315177,13.287503,-94.56001,35.360516,-38.06207,52.485207,-57.942078,11.344932,-0.06742788,-104.10651,-24.259846,43.069958,63.19764,29.08196,2.1255522,-15.91739
67,-8.986873626708984,-11.486777305603027,77.44856262207031,-4.2378168150598325,-6.326335603156102,63.475814644279346,-4.88118,8.037147,-2.905727,28.304974,-18.05627,-7.684945,-6.1602154,-3.5347192,7.2409463,6.6804504,1.9002787,15.000033,-1.2354537,3.6358953,13.360205,-94.76611,35.44251,-38.19298,52.47138,-58.203857,11.326039,0.032665912,-104.31672,-24.318054,42.92425,63.144127,28.854212,2.2007532,-15.886088
68,-9.307477951049805,-11.752481460571289,77.45926666259766,-4.215032508918415,-6.080517821981788,62.28819562517408,-5.2677855,8.335314,-1.8360301,28.343546,-17.888184,-7.5655646,-6.784578,-4.3599677,5.3073063,6.603185,0.50280774,15.000033,-1.166921,3.4865243,13.418098,-94.92827,35.503292,-38.243168,52.46093,-58.366512,11.33515,0.076323494,-104.494705,-24.353004,42.765892,63.101185,28.631922,2.2775755,-15.831161
69,-9.623534202575684,-12.01609992980957,77.4771728515625,-4.26087425091408,-5.832987226375354,61.138042890287515,-5.6715384,8.709761,-0.8311673,28.409077,-17.729963,-7.4622145,-7.283267,-5.240326,2.9254732,6.4818144,-0.7866123,15.000033,-1.1514912,3.3924077,13.459712,-95.0516,35.556763,-38.221603,52.451454,-58.423767,11.384675,0.04305324,-104.61212,-24.378553,42.547024,63.023148,28.393078,2.370383,-15.731718
70,-9.940939903259277,-12.26911735534668,77.49944305419922,-4.312671719669744,-5.57444152545823,59.999960512600026,-6.090107,9.093991,0.15366653,28.480417,-17.569174,-7.360932,-7.716766,-6.2653775,0.09041768,6.421013,-2.1289113,15.000033,-1.158115,3.2973423,13.476647,-95.151085,35.606148,-38.143303,52.439934,-58.405087,11.46922,-0.04335308,-104.68884,-24.397814,42.273846,62.922874,28.133823,2.4764125,-15.59895
71,-10.261099815368652,-12.511565208435059,77.52994537353516,-4.411298844527765,-5.34336377688786,58.88525715720611,-6.4827394,9.529479,1.0995017,28.564276,-17.418924,-7.268678,-8.00914,-7.306528,-2.8394146,6.3896966,-3.3906896,15.000033,-1.1860114,3.266173,13.505396,-95.24363,35.63088,-38.038914,52.45426,-58.3469,11.558057,-0.14565417,-104.75355,-24.405792,42.04806,62.847927,27.923492,2.563904,-15.474502
72,-10.573505401611328,-12.749977111816406,77.56497192382812,-4.524115025075351,-5.143524354236124,57.77800170228416,-6.8178425,9.983011,2.0393384,28.618896,-17.26321,-7.178361,-8.163777,-8.300407,-5.4482427,6.371132,-4.423394,15.000033,-1.2442714,3.2326987,13.536678,-95.284424,35.67975,-37.913296,52.448303,-58.224594,11.655428,-0.2337987,-104.73126,-24.416618,41.76352,62.733086,27.702059,2.6242065,-15.365843
73,-10.88614273071289,-12.983097076416016,77.60494232177734,-4.651337458847003,-4.989637602774216,56.68650727496281,-7.07748,10.448353,2.9697158,28.636597,-17.097673,-7.0862885,-8.17258,-9.247722,-7.6962867,6.37299,-5.1996207,15.000033,-1.3164101,3.2396193,13.600726,-95.30343,35.7275,-37.778942,52.448154,-58.075054,11.741146,-0.29844877,-104.69758,-24.421394,41.586548,62.664402,27.59326,2.6236863,-15.300345
74,-11.19873332977295,-13.201822280883789,77.64795684814453,-4.78273407821486,-4.8634065823961485,55.6081333858467,-7.282896,10.91694,3.891878,28.621023,-16.920471,-6.9922366,-8.065145,-10.193727,-9.763318,6.417496,-5.80287,15.000033,-1.4016421,3.271079,13.679822,-95.30234,35.764187,-37.61583,52.46073,-57.875496,11.828042,-0.36104858,-104.64304,-24.416973,41.462666,62.627934,27.549934,2.5822062,-15.25653
75,-11.5260648727417,-13.409672737121582,77.68839263916016,-4.924852341924182,-4.76418092524871,54.53511196197908,-7.4436083,11.399288,4.807147,28.595375,-16.747314,-6.9036455,-7.849357,-11.090513,-11.589664,6.478772,-6.2386484,15.000033,-1.4906224,3.3333051,13.763629,-95.27186,35.7936,-37.435337,52.474304,-57.65717,11.9106455,-0.418037,-104.56758,-24.403389,41.374763,62.603645,27.53298,2.531534,-15.239725
76,-11.841906547546387,-13.607544898986816,77.72921752929688,-5.064726217221549,-4.683995213613186,53.45156946515776,-7.5691853,11.88857,5.7302494,28.57355,-16.588934,-6.8245025,-7.5678024,-11.912842,-13.095638,6.5640793,-6.5173645,15.000033,-1.5646288,3.4131634,13.838137,-95.2215,35.813824,-37.260784,52.494724,-57.456608,11.981729,-0.46953785,-104.47674,-24.383099,41.30928,62.57608,27.512747,2.5013025,-15.256847
77,-12.14736270904541,-13.795621871948242,77.76792907714844,-5.191599482283175,-4.620584134251161,52.347492696948464,-7.651694,12.374012,6.67431,28.542927,-16.43938,-6.750844,-7.237055,-12.655558,-14.1903715,6.6748505,-6.5736985,15.000033,-1.6179887,3.50365,13.89986,-95.149376,35.827694,-37.086704,52.528297,-57.27131,12.040195,-0.511591,-104.36536,-24.352655,41.276062,62.54,27.48844,2.5039535,-15.330253
78,-12.452174186706543,-13.988862991333008,77.80481719970703,-5.365603995411945,-4.553100182650887,51.17804142986801,-7.7494664,12.961827,7.6433706,28.583069,-16.335241,-6.710499,-6.908655,-13.173666,-14.856627,6.786252,-6.3976583,14.355457,-1.6074251,3.6624942,13.930654,-95.05229,35.8341,-36.90502,52.5695,-57.085808,12.090496,-0.5465223,-104.24454,-24.30432,41.2814,62.522003,27.475243,2.5212665,-15.449015
79,-12.738327980041504,-14.177276611328125,77.83414459228516,-5.54329299296811,-4.488442683095322,49.98967404701797,-7.839807,13.575265,8.622561,28.649227,-16.25079,-6.6877236,-6.562998,-13.610486,-15.270765,6.907476,-6.1091075,13.47901,-1.5757265,3.8415933,13.939955,-94.93843,35.830704,-36.733944,52.61302,-56.9171,12.134448,-0.5827852,-104.12313,-24.237574,41.296215,62.52398,27.459574,2.5391817,-15.571774
80,-13.00851821899414,-14.363130569458008,77.86149597167969,-5.698182656189582,-4.4316202861453045,48.81486626200081,-7.9156494,14.167614,9.598939,28.726383,-16.177704,-6.6752915,-6.184776,-14.066936,-15.593366,7.0495043,-5.8273134,12.692762,-1.547034,4.005588,13.934646,-94.815056,35.82056,-36.597046,52.640827,-56.78657,12.176881,-0.62669426,-103.99732,-24.17429,41.28317,62.52516,27.424347,2.547071,-15.652605
81,-13.277198791503906,-14.537986755371094,77.88065338134766,-5.820351780215932,-4.384004783329983,47.651307455076925,-7.973209,14.729164,10.579598,28.810751,-16.11549,-6.6779923,-6.674371,-14.786826,-15.545558,9.1397,-6.5738583,12.020057,-1.521178,4.156839,13.911237,-94.66422,35.801773,-36.473545,52.646008,-56.688046,12.219081,-0.6843506,-103.89203,-24.080431,41.237076,62.567745,27.351412,2.5329723,-15.686222
82,-13.538506507873535,-14.713854789733887,77.88937377929688,-5.891756017402102,-4.347493355894687,46.49577602578918,-7.9979105,15.237224,11.576078,28.884808,-16.056402,-6.6873736,-7.166938,-15.542567,-15.282611,11.323806,-7.306818,11.451796,-1.490372,4.2602367,13.878305,-94.50485,35.786633,-36.39255,52.6274,-56.631138,12.263649,-0.7486991,-103.75358,-24.02593,41.152504,62.563534,27.259201,2.5146005,-15.688486
83,-13.793034553527832,-14.883502960205078,77.88861083984375,-5.9108449382245825,-4.320749902000482,45.3585266502513,-7.9930687,15.685821,12.579113,28.94895,-15.997578,-6.692664,-7.6045074,-16.342623,-14.957185,13.471412,-7.9797606,10.965351,-1.4708383,4.321726,13.830058,-94.331436,35.761444,-36.327427,52.601562,-56.594704,12.304249,-0.8167802,-103.63399,-23.941727,41.071228,62.601555,27.167885,2.4953995,-15.666168
84,-14.033468246459961,-15.051362037658691,77.88292694091797,-5.88620667287682,-4.301786413319163,44.24892904274686,-7.9661193,16.081532,13.575379,29.00904,-15.938843,-6.6850424,-7.9668884,-17.203213,-14.714335,15.537583,-8.594993,10.530909,-1.4644363,4.337885,13.777024,-94.15868,35.746986,-36.29891,52.546856,-56.596405,12.345001,-0.88116604,-103.501976,-23.898565,41.024155,62.60628,27.123495,2.4966009,-15.616466
85,-14.258861541748047,-15.216100692749023,77.87019348144531,-5.830371018284396,-4.288690158991411,43.17705507404172,-7.9316583,16.43827,14.549252,29.084679,-15.889812,-6.6657567,-8.233123,-18.121475,-14.581083,17.511385,-9.167457,10.1746435,-1.4858245,4.326634,13.7077465,-93.98075,35.72957,-36.301704,52.481827,-56.639145,12.382675,-0.9498781,-103.39416,-23.840794,41.02478,62.64829,27.127293,2.5205169,-15.520536
86,-14.476832389831543,-15.379283905029297,77.85517883300781,-5.749775947814394,-4.282593537943408,42.134353602464316,-7.886447,16.766176,15.5059595,29.173168,-15.850624,-6.6413302,-8.419662,-19.07517,-14.490639,19.424507,-9.696352,9.898005,-1.5212818,4.2947044,13.62853,-93.78732,35.723484,-36.335007,52.378864,-56.725815,12.421733,-1.021477,-103.27425,-23.817703,41.05263,62.664238,27.170591,2.565188,-15.382603
87,-14.686529159545898,-15.537238121032715,77.83555603027344,-5.647485413333274,-4.286005339119193,41.10217357565329,-7.8175116,17.071161,16.460388,29.258286,-15.812882,-6.6116233,-8.550663,-20.061897,-14.449014,21.276167,-10.15616,9.629263,-1.5622464,4.2455163,13.556973,-93.61234,35.72185,-36.37216,52.26796,-56.808258,12.4673195,-1.0880064,-103.15834,-23.812904,41.08288,62.663315,27.22074,2.6171465,-15.240498
88,-14.888602256774902,-15.701370239257812,77.81954193115234,-5.512958481038125,-4.299217310745187,40.060679129207635,-7.704962,17.342054,17.436195,29.309334,-15.761262,-6.5741024,-8.661806,-21.094961,-14.451621,23.077276,-10.526123,9.297613,-1.5937124,4.171109,13.474883,-93.41436,35.72066,-36.428055,52.132378,-56.883713,12.4878845,-1.1143019,-103.02274,-23.807114,41.14159,62.649334,27.291645,2.6500337,-15.156575
89,-15.084574699401855,-15.85852336883545,77.799072265625,-5.344692791607687,-4.328849819706167,39.0026946563209,-7.538183,17.577457,18.43845,29.326204,-15.698185,-6.5247254,-8.750219,-22.18448,-14.495396,24.835882,-10.810732,8.894586,-1.6107147,4.075815,13.409412,-93.240524,35.72095,-36.49235,51.994644,-56.93526,12.500855,-1.1021354,-102.900734,-23.80116,41.228413,62.63157,27.379814,2.669343,-15.136067
90,-15.27739429473877,-16.018781661987305,77.77814483642578,-5.147367434548633,-4.370996186146583,37.93813507946229,-7.3296037,17.781595,19.45608,29.321522,-15.629604,-6.46629,-8.806595,-23.32714,-14.581526,26.555628,-11.02422,8.450962,-1.6225954,3.9580317,13.351161,-93.07473,35.722122,-36.55551,51.845417,-56.958485,12.513544,-1.0650352,-102.776085,-23.800262,41.31192,62.597374,27.463455,2.6870375,-15.146676
91,-15.464642524719238,-16.183176040649414,77.75918579101562,-4.939096883771842,-4.41318374597266,36.87662003826344,-7.1015563,17.974174,20.475454,29.300072,-15.552572,-6.410033,-8.836882,-24.497122,-14.726331,28.213036,-11.148208,7.949963,-1.6367577,3.8378344,13.293258,-92.92152,35.72533,-36.62247,51.695587,-56.979836,12.513265,-1.0147092,-102.65599,-23.803333,41.421627,62.55969,27.56813,2.6878216,-15.18833
92,-15.65212631225586,-16.342912673950195,77.73796081542969,-4.738132287119644,-4.444142917446654,35.827793335055084,-6.879045,18.175673,21.481804,29.272926,-15.467259,-6.366991,-8.848678,-25.667746,-14.94724,29.789558,-11.166581,7.3740163,-1.6661489,3.7200563,13.22926,-92.77563,35.727722,-36.661,51.552166,-56.975582,12.503232,-0.97265816,-102.53079,-23.808746,41.511436,62.514046,27.664179,2.6672065,-15.2430315
93,-15.819189071655273,-16.51148796081543,77.7184829711914,-4.549598281286498,-4.4581234315616385,34.79932335708092,-6.6710696,18.389473,22.467928,29.237,-15.369897,-6.3409247,-8.844367,-26.846613,-15.255327,31.299511,-11.074712,6.705032,-1.7121173,3.62053,13.154563,-92.63014,35.730495,-36.66139,51.4069,-56.958324,12.472971,-0.94039243,-102.40499,-23.820923,41.616417,62.46494,27.766144,2.6177976,-15.322312
94,-15.983651161193848,-16.679405212402344,77.70256042480469,-4.364146196353506,-4.462499043909158,33.7844690313481,-6.4639482,18.604948,23.442753,29.18857,-15.261447,-6.3255477,-8.82314,-28.050295,-15.641517,32.75803,-10.890417,5.950656,-1.7758702,3.5172572,13.071577,-92.498116,35.730938,-36.645573,51.27326,-56.920853,12.428056,-0.90997976,-102.26755,-23.832026,41.699078,62.40424,27.852242,2.5465434,-15.422908
95,-16.146892547607422,-16.85186195373535,77.68867492675781,-4.180011847866538,-4.465436827929397,32.770515752745084,-6.246794,18.824984,24.41658,29.135368,-15.147979,-6.317231,-8.785644,-29.2637,-16.095482,34.14643,-10.632424,5.133087,-1.8392161,3.424871,12.989725,-92.370384,35.730072,-36.60569,51.13838,-56.862396,12.382131,-0.8804524,-102.14004,-23.84708,41.792656,62.34599,27.954418,2.4598722,-15.53449
96,-16.306798934936523,-17.0274715423584,77.67396545410156,-3.994375145794942,-4.474995449396112,31.745207114621405,-6.009507,19.051714,25.399214,29.085608,-15.035251,-6.3123055,-8.7364,-30.473711,-16.604183,35.455067,-10.317968,4.2770414,-1.9016163,3.3260224,12.920097,-92.282166,35.728123,-36.577446,51.034485,-56.786526,12.350883,-0.85192513,-102.02835,-23.860826,41.864452,62.29024,28.071337,2.3655689,-15.637852
97,-16.463056564331055,-17.206470489501953,77.65966796875,-3.8049693322133322,-4.494546932393687,30.702893168675374,-5.7440495,19.282537,26.397383,29.0342,-14.922014,-6.3087616,-8.682257,-31.682934,-17.157185,36.696655,-9.955511,3.342197,-1.9289905,3.268355,12.859589,-92.15441,35.72449,-36.483185,50.87826,-56.66773,12.335411,-0.81832266,-101.948204,-23.89162,42.006622,62.25351,28.271082,2.2533212,-15.750687
98,-16.618547439575195,-17.387971878051758,77.64441680908203,-3.612241719571415,-4.519593473616517,29.651665305740202,-5.4572883,19.515171,27.404215,28.978989,-14.805795,-6.308735,-8.620343,-32.902554,-17.768303,37.883514,-9.542329,2.328525,-1.9642069,3.1914136,12.80937,-92.079056,35.721287,-36.416626,50.764267,-56.5315,12.328348,-0.7835793,-101.87335,-23.916527,42.11058,62.213425,28.487173,2.1223097,-15.864332
99,-16.76194953918457,-17.5720157623291,77.62923431396484,-3.423272414330357,-4.545530947630511,28.595218061209113,-5.1599784,19.759949,28.412088,28.93128,-14.690343,-6.3159227,-8.53583,-34.1157,-18.46366,38.991436,-9.07323,1.321352,-2.0015404,3.116015,12.7635975,-92.02562,35.718155,-36.357426,50.669987,-56.392975,12.328876,-0.75047374,-101.81219,-23.936407,42.19669,62.17705,28.689331,1.9956638,-15.966099
100,-16.897130966186523,-17.763565063476562,77.61483001708984,-3.2464855907631893,-4.568324748904394,27.537100244192562,-4.8652368,20.03045,29.412514,28.909214,-14.581644,-6.334094,-8.413985,-35.3035,-19.26836,39.999054,-8.542522,0.4070552,-2.028356,3.0775952,12.72134,-91.965416,35.71254,-36.266262,50.56892,-56.263363,12.341423,-0.7269443,-101.775276,-23.965498,42.29972,62.14254,28.854153,1.899953,-16.042686
101,-17.030654907226562,-17.9589786529541,77.60008239746094,-3.0927522567151753,-4.590133411976229,26.4792903781214,-4.5738378,20.341236,30.401068,28.918503,-14.485049,-6.364166,-8.231009,-36.466434,-20.234201,40.90075,-7.9493093,-0.39774424,-2.0560203,3.0654964,12.68227,-91.91807,35.704803,-36.171783,50.4846,-56.15085,12.369793,-0.7144056,-101.75136,-23.99748,42.382805,62.102077,28.949816,1.8401775,-16.089333
102,-17.161170959472656,-18.1607608795166,77.58116912841797,-2.955786900153283,-4.6131253371706995,25.419311818829147,-4.2800446,20.684025,31.38302,28.952644,-14.396284,-6.404077,-7.997311,-37.611774,-21.338478,41.720158,-7.301288,-1.138528,-2.0787423,3.0790937,12.64817,-91.880005,35.692665,-36.06417,50.409824,-56.04204,12.4126005,-0.7106628,-101.741066,-24.038528,42.459568,62.055542,29.007856,1.8046433,-16.114891
103,-17.283798217773438,-18.367027282714844,77.56119537353516,-2.8160375181255652,-4.631920307906943,24.35426269413531,-3.9807003,21.032095,32.36663,28.994528,-14.30649,-6.4529986,-7.7530994,-38.728764,-22.49024,42.478683,-6.6011233,-1.819761,-2.0951457,3.0963538,12.614805,-91.86153,35.674843,-35.964275,50.35052,-55.94855,12.455513,-0.7069819,-101.73806,-24.091587,42.52416,61.99846,29.038214,1.7899593,-16.117735
104,-17.398792266845703,-18.57944679260254,77.5374526977539,-2.654140001995532,-4.640385040519808,23.281202538058658,-3.6743376,21.359089,33.359734,29.029142,-14.207546,-6.5101995,-7.5431647,-39.806572,-23.594778,43.192337,-5.8482046,-2.444044,-2.112464,3.0871496,12.575236,-91.861984,35.660023,-35.898315,50.305866,-55.880116,12.48193,-0.6921573,-101.744804,-24.135359,42.55956,61.946594,29.046051,1.7899989,-16.09691
105,-17.51279067993164,-18.795616149902344,77.51045227050781,-2.473173241811901,-4.6343215253186205,22.198961191641608,-3.3678944,21.66952,34.35809,29.062895,-14.101845,-6.576651,-7.375932,-40.84024,-24.64855,43.859688,-5.0346546,-3.0010145,-2.1131094,3.0704584,12.527671,-91.87038,35.639065,-35.84903,50.256054,-55.835064,12.4876585,-0.6646074,-101.75219,-24.20569,42.584793,61.870766,29.035706,1.8181149,-16.042698
106,-17.62362289428711,-19.01533317565918,77.482177734375,-2.2815793621396097,-4.617139523942063,21.109053663112835,-3.0603502,21.974169,35.359314,29.101437,-13.992514,-6.6522317,-7.2327867,-41.83422,-25.69121,44.47569,-4.1598883,-3.489514,-2.114684,3.0428245,12.47526,-91.89965,35.62359,-35.831226,50.21937,-55.81853,12.479489,-0.6279965,-101.77273,-24.268064,42.583084,61.795376,28.994196,1.8689239,-15.959071
107,-17.735694885253906,-19.244522094726562,77.44993591308594,-2.069299479209028,-4.592822765312798,20.011877438460385,-2.7397034,22.257595,36.373676,29.127802,-13.871754,-6.7349696,-7.1260347,-42.78521,-26.688576,45.051167,-3.2347622,-3.9264255,-2.1123176,2.993127,12.4219475,-91.93973,35.608818,-35.823673,50.191536,-55.814453,12.468116,-0.586295,-101.79757,-24.3365,42.56761,61.719376,28.944803,1.924986,-15.864528
108,-17.841468811035156,-19.484338760375977,77.41643524169922,-1.8259599690009887,-4.564645501270117,18.90828824877128,-2.3945432,22.503138,37.41078,29.125643,-13.73228,-6.8229,-7.0687494,-43.69214,-27.606224,45.595608,-2.270572,-4.329429,-2.1123197,2.9075344,12.372082,-91.998474,35.594723,-35.820858,50.18849,-55.817696,12.463782,-0.5429074,-101.82898,-24.397734,42.54271,61.66194,28.904306,1.9661349,-15.778694
109,-17.9488468170166,-19.733369827270508,77.37967681884766,-1.5478402815008823,-4.52797117457252,17.795012781627513,-2.028471,22.706491,38.47422,29.093458,-13.572705,-6.9163136,-7.0817513,-44.560173,-28.425777,46.11491,-1.2525718,-4.711927,-2.1109023,2.78267,12.323012,-92.07693,35.58054,-35.817844,50.209087,-55.829353,12.47234,-0.50232387,-101.87263,-24.450714,42.510532,61.632324,28.87879,1.9836992,-15.6954975
110,-18.046796798706055,-19.99128532409668,77.33906555175781,-1.2415641763617302,-4.4814550474826955,16.672787739898723,-1.6463761,22.87558,39.557537,29.039114,-13.3965225,-7.0160413,-7.1601987,-45.38783,-29.161457,46.60141,-0.17866753,-5.0597076,-2.1058805,2.6269586,12.273471,-92.173584,35.564217,-35.818626,50.250023,-55.851204,12.487062,-0.46177754,-101.92184,-24.502304,42.464565,61.61684,28.856014,1.9892939,-15.608593
111,-18.148889541625977,-20.25434684753418,77.29553985595703,-0.9111342607238405,-4.432501471254195,15.54754853275481,-1.2395768,23.010939,40.655693,28.957975,-13.202633,-7.1211843,-7.281401,-46.161377,-29.826479,47.046413,0.91852933,-5.3495708,-2.1059692,2.4447439,12.229418,-92.28032,35.546947,-35.824978,50.31115,-55.87565,12.499215,-0.41317967,-101.98156,-24.544758,42.418156,61.619045,28.837904,1.9931235,-15.536181
112,-18.249120712280273,-20.52439308166504,77.24751281738281,-0.5602276816333972,-4.388927657165954,14.425172446167656,-0.79855883,23.113132,41.763645,28.844284,-12.989529,-7.2311687,-7.423581,-46.86345,-30.43314,47.441944,2.0057106,-5.557819,-2.110156,2.2280197,12.19504,-92.405556,35.50939,-35.854572,50.410892,-55.89029,12.497157,-0.3489005,-102.016624,-24.608072,42.35758,61.595016,28.819742,2.0089061,-15.495448
113,-18.340784072875977,-20.802289962768555,77.19523620605469,-0.17798921545343527,-4.352624894647263,13.302686746282918,-0.3155934,23.166397,42.8877,28.690666,-12.756505,-7.342641,-7.613164,-47.506786,-30.944836,47.802094,3.0772734,-5.735155,-2.1253097,1.9816858,12.172572,-92.52535,35.469772,-35.87941,50.534504,-55.884834,12.476678,-0.25186718,-102.063576,-24.651789,42.313435,61.591835,28.812834,2.0365493,-15.504749
114,-18.429731369018555,-21.094711303710938,77.14327239990234,0.23292526806505875,-4.317919311088184,12.178067599268552,0.2000902,23.17551,44.02578,28.503012,-12.504831,-7.4575844,-7.8592286,-48.08921,-31.36103,48.125107,4.150211,-5.8727117,-2.130822,1.694397,12.155205,-92.68311,35.381783,-35.928837,50.725872,-55.86158,12.437771,-0.13099644,-102.090965,-24.718044,42.259212,61.576706,28.81421,2.072586,-15.548334
115,-18.513874053955078,-21.397701263427734,77.0877914428711,0.6497091693874361,-4.281751027908276,11.05814039703168,0.732788,23.16979,45.16258,28.292864,-12.233938,-7.5830736,-8.112088,-48.57944,-31.744087,48.38373,5.2245927,-5.8540525,-2.1574585,1.4050847,12.14587,-92.817276,35.316727,-35.971508,50.90061,-55.844288,12.399159,-0.018934987,-102.136734,-24.756056,42.211987,61.58883,28.806229,2.1096637,-15.602738
116,-18.593090057373047,-21.70949363708496,77.03425598144531,1.0490023105716844,-4.2421956899609645,9.94950294973584,1.2661164,23.18158,46.282566,28.075016,-11.944969,-7.7263412,-8.322173,-48.939823,-32.154545,48.550312,6.3004136,-5.5601416,-2.2023394,1.1261942,12.141213,-92.95603,35.2491,-36.038517,51.078148,-55.85143,12.366909,0.052561983,-102.17645,-24.79012,42.1446,61.603058,28.766064,2.1443777,-15.639981
117,-18.67517852783203,-22.04078483581543,76.97786712646484,1.4239569425896346,-4.20126491926594,8.849722442798953,1.8001047,23.221579,47.386936,27.856094,-11.637745,-7.8969812,-8.557886,-49.114452,-32.440933,48.637268,7.6325984,-4.928754,-2.2512085,0.84919846,12.141784,-93.17436,35.121075,-36.181705,51.34507,-55.881927,12.336034,0.078859106,-102.183205,-24.849873,42.019833,61.592342,28.67612,2.17955,-15.652324
118,-18.767961502075195,-22.382078170776367,76.91939544677734,1.7858934719237956,-4.158994717095466,7.755509589796059,2.3403811,23.275023,48.482475,27.629791,-11.312359,-8.088839,-8.832511,-49.123802,-32.601562,48.65198,9.13345,-4.0172734,-2.325046,0.5987264,12.153725,-93.3377,35.043446,-36.29872,51.55005,-55.921776,12.317177,0.073698014,-102.209045,-24.88504,41.899914,61.600563,28.561703,2.2155824,-15.65762
119,-18.851396560668945,-22.73963165283203,76.85945129394531,2.1407695592407547,-4.110620516469952,6.672853379661619,2.8820686,23.330566,49.56424,27.385788,-10.967165,-8.284846,-9.007072,-49.05739,-32.937904,48.565735,10.290025,-2.8998263,-2.4105597,0.32376635,12.162271,-93.55181,34.9297,-36.48489,51.805405,-56.00183,12.294472,0.04194311,-102.204704,-24.938358,41.744667,61.586254,28.4275,2.2490664,-15.652441
120,-18.934919357299805,-23.100194931030273,76.81088256835938,2.4951585739549826,-4.052377585366026,5.6088376596887946,3.4212952,23.375462,50.626404,27.11341,-10.600927,-8.467759,-8.929098,-49.020065,-33.786987,48.353844,10.595701,-1.6748837,-2.5239213,0.05531763,12.166019,-93.69423,34.86803,-36.64209,51.96144,-56.130486,12.280976,-0.018888038,-102.22135,-24.973309,41.642498,61.594177,28.310547,2.27504,-15.642977
121,-19.01763153076172,-23.486797332763672,76.75447845458984,2.850765533345875,-3.985059119443681,4.566864488503671,3.9570913,23.411203,51.66996,26.812159,-10.209207,-8.653405,-8.461659,-49.025696,-35.38078,47.934547,9.714852,-0.22897768,-2.6549366,-0.260687,12.159893,-93.88777,34.78229,-36.899376,52.144276,-56.35945,12.266874,-0.12695989,-102.19016,-25.038815,41.511562,61.562466,28.185818,2.285118,-15.623359
122,-19.092872619628906,-23.901630401611328,76.68119812011719,3.2024550457530725,-3.9101047437643435,3.5424296071366275,4.489656,23.445955,52.69615,26.490131,-9.795296,-8.844537,-7.6946664,-49.015034,-37.55322,47.327057,8.01656,1.4336147,-2.8023992,-0.5804842,12.149777,-94.04772,34.71914,-37.167034,52.26891,-56.649963,12.261534,-0.27884555,-102.14843,-25.113733,41.39858,61.52253,28.060686,2.2843676,-15.596647
123,-19.167613983154297,-24.32705307006836,76.62237548828125,3.5500512918165943,-3.8252048010755155,2.5309800260293382,5.0185466,23.472174,53.701275,26.144106,-9.368042,-9.004774,-6.814638,-48.988506,-40.03846,46.663116,6.0459523,3.0358498,-2.9760544,-0.8984096,12.133801,-94.16347,34.68724,-37.41002,52.333363,-56.94944,12.259038,-0.4288656,-102.12693,-25.176506,41.323895,61.495193,27.95677,2.2908823,-15.5641165
124,-19.242738723754883,-24.75679588317871,76.57066345214844,3.8959806652056317,-3.7290745989874,1.5282033314764005,5.5448327,23.477724,54.68255,25.76619,-8.934036,-9.097708,-6.024464,-48.95998,-42.524803,46.09834,4.3112154,4.298884,-3.1743832,-1.2372764,12.109946,-94.26732,34.659206,-37.639317,52.37898,-57.210052,12.246544,-0.52861214,-102.10915,-25.255777,41.2691,61.44437,27.888489,2.3264055,-15.522514
125,-19.316471099853516,-25.19267463684082,76.5205307006836,4.246530075639399,-3.6184718288370683,0.5330520273728692,6.0877237,23.453028,55.686184,25.332708,-8.467339,-9.138202,-5.282556,-48.976635,-45.166534,45.6606,2.90432,5.212174,-3.4003444,-1.5758024,12.070882,-94.30717,34.64602,-37.798885,52.363106,-57.404835,12.22132,-0.5614375,-102.14292,-25.309116,41.285065,61.427155,27.876154,2.411022,-15.468073
126,-19.38266372680664,-25.64320945739746,76.47047424316406,4.59897789570798,-3.495247251153756,-0.45323757769418976,6.6391244,23.405012,56.699203,24.854794,-7.974386,-9.138398,-4.5130424,-48.998985,-48.033985,45.272217,1.5561056,5.9141736,-3.6419108,-1.9512237,12.023368,-94.36223,34.622353,-37.98932,52.342266,-57.59106,12.183446,-0.54894793,-102.15145,-25.41739,41.309593,61.344856,27.90617,2.535076,-15.39745
127,-19.444293975830078,-26.106157302856445,76.41890716552734,4.944393756271963,-3.3655054679888323,-1.4298577834080595,7.158705,23.348675,57.629436,24.38161,-7.5151014,-9.057517,-3.8812892,-48.95483,-50.655624,44.94891,0.19856818,6.3412337,-3.8882663,-2.3229434,11.970615,-94.391945,34.589485,-38.126358,52.296967,-57.73407,12.143177,-0.5216701,-102.15885,-25.555004,41.366226,61.248257,27.956266,2.655085,-15.329676
128,-19.510238647460938,-26.584636688232422,76.36409759521484,5.276480736005083,-3.236048356947938,-2.3951248346952925,7.607805,23.300821,58.385162,23.965342,-7.1532016,-8.854469,-3.5642424,-48.79421,-52.54818,44.707424,-1.2384832,6.42454,-4.142904,-2.6823146,11.917804,-94.41237,34.547634,-38.201633,52.2557,-57.833004,12.105572,-0.5047751,-102.18037,-25.696238,41.450996,61.173553,28.00455,2.7258697,-15.282802
129,-19.569936752319336,-27.071941375732422,76.31497955322266,5.610844359449167,-3.1030077184692932,-3.353743201483392,7.9959493,23.260946,59.01615,23.626322,-6.8932314,-8.464771,-3.696097,-48.55227,-53.48417,44.618454,-2.8379095,5.934439,-4.421975,-3.0449865,11.858536,-94.41405,34.512245,-38.200993,52.220833,-57.87929,12.068034,-0.49960765,-102.24433,-25.790257,41.570972,61.173595,28.042992,2.713711,-15.274699
130,-19.623126983642578,-27.56842613220215,76.26207733154297,5.9491485024847535,-2.9663078140739207,-4.3039371786188445,8.340487,23.222067,59.548756,23.335417,-6.7122054,-7.927201,-4.1722727,-48.265583,-53.71506,44.665157,-4.551944,4.971665,-4.701767,-3.4091072,11.796204,-94.40951,34.455902,-38.135563,52.18962,-57.877758,12.029391,-0.49489185,-102.31657,-25.90916,41.736526,61.181934,28.096647,2.65383,-15.290221
131,-19.68486976623535,-28.075790405273438,76.20545959472656,6.260997997628199,-2.8385487058230314,-5.234446622246292,8.612198,23.202019,59.853428,23.08382,-6.624817,-7.3550143,-4.8094616,-47.888573,-53.489815,44.7363,-6.252602,3.9617925,-4.998885,-3.755071,11.736469,-94.40162,34.389668,-38.04014,52.165558,-57.847874,11.993251,-0.4950929,-102.397064,-26.026346,41.904976,61.20063,28.144325,2.5862956,-15.303711
132,-19.73807144165039,-28.594987869262695,76.14118194580078,6.514232725192299,-2.73291213372942,-6.134521561217668,8.782561,23.216612,59.799786,22.851496,-6.6428547,-6.8613024,-5.403228,-47.375286,-53.094288,44.710606,-7.815422,3.3314168,-5.293588,-4.04714,11.691638,-94.41216,34.282906,-37.93685,52.163807,-57.803383,11.963954,-0.50667614,-102.45855,-26.192442,42.0612,61.180023,28.189531,2.5586066,-15.287983
133,-19.786792755126953,-29.12851333618164,76.07098388671875,6.710766253131491,-2.6599043961093227,-6.9955320156971155,8.79307,23.232197,59.211823,22.604631,-6.749716,-6.457386,-5.8882504,-46.68682,-52.522038,44.49186,-9.241957,3.2673392,-5.623901,-4.3044815,11.667416,-94.45762,34.164825,-37.86227,52.193913,-57.765625,11.947772,-0.52850544,-102.525734,-26.35991,42.17558,61.14969,28.218582,2.5795646,-15.223712
134,-19.827680587768555,-29.669591903686523,75.99653625488281,6.863782974678834,-2.6126345549001018,-7.8256732789776935,8.679315,23.251143,58.20437,22.360209,-6.9406123,-6.0838447,-6.344449,-45.861298,-51.690887,44.168518,-10.589936,3.5111792,-5.9823284,-4.530418,11.657886,-94.509445,34.040413,-37.780464,52.23347,-57.71474,11.94074,-0.5585095,-102.604576,-26.52524,42.273052,61.123734,28.23794,2.6253488,-15.129648
135,-19.859926223754883,-30.21954917907715,75.92652130126953,6.956516419675754,-2.578372834869236,-8.639782064684274,8.545365,23.35001,57.080006,22.185532,-7.253512,-5.751378,-6.78583,-44.97306,-50.778072,43.892677,-11.824364,3.8277504,-6.343646,-4.7006106,11.652823,-94.56683,33.89965,-37.690315,52.29124,-57.653233,11.932434,-0.59638524,-102.66713,-26.700483,42.35771,61.0786,28.24403,2.6859262,-15.036251
136,-19.88412857055664,-30.775699615478516,75.8633041381836,6.972251243355689,-2.5438458096903642,-9.452540818707567,8.489534,23.60647,56.13998,22.138027,-7.7255726,-5.477435,-7.2468243,-44.0931,-49.936718,43.817673,-12.910473,3.9858434,-6.6917343,-4.794203,11.639504,-94.60657,33.75009,-37.583996,52.35734,-57.57813,11.911218,-0.6413903,-102.69621,-26.874596,42.430313,61.009815,28.229065,2.7486992,-14.974587
137,-19.893159866333008,-31.337881088256836,75.80634307861328,6.911862604902796,-2.512176597924968,-10.243529825150349,8.548648,24.056551,55.522377,22.234333,-8.360624,-5.2873297,-7.775473,-43.276165,-49.169235,44.05485,-13.802969,3.9351528,-7.0426745,-4.8138857,11.62012,-94.64134,33.59281,-37.45595,52.439297,-57.483284,11.872906,-0.6983592,-102.695366,-27.044926,42.487858,60.914486,28.179678,2.8233016,-14.957563
138,-19.891948699951172,-31.913402557373047,75.74488067626953,6.781663856203677,-2.488934431719555,-11.012623818782183,8.658262,24.652672,55.045204,22.423674,-9.133612,-5.175882,-8.345372,-42.47066,-48.402744,44.502815,-14.534895,3.7988613,-7.401022,-4.7664843,11.600265,-94.672485,33.428856,-37.309006,52.53441,-57.371296,11.823869,-0.76576096,-102.67568,-27.210308,42.531677,60.802032,28.103325,2.9113984,-14.967195
139,-19.89797592163086,-32.502235412597656,75.67625427246094,6.570303030795863,-2.4659388727980764,-11.80432298942581,8.765991,25.351015,54.52913,22.663418,-10.031016,-5.113976,-8.89045,-41.577675,-47.668167,44.986774,-15.182574,3.604724,-7.7321067,-4.6312613,11.575294,-94.67577,33.260445,-37.154205,52.630325,-57.26023,11.770499,-0.83368224,-102.62934,-27.367552,42.57284,60.68021,28.024359,2.9895616,-14.988501
140,-19.9136905670166,-33.088104248046875,75.61442565917969,6.266717181936002,-2.4364484509927196,-12.664333836720948,8.821005,26.109144,53.79195,22.929129,-11.048806,-5.0624776,-9.342922,-40.497704,-46.997456,45.324413,-15.817298,3.37907,-8.001686,-4.387177,11.541422,-94.629616,33.09054,-37.004745,52.71674,-57.17035,11.719951,-0.892011,-102.54982,-27.511517,42.622448,60.55737,27.966072,3.0342376,-15.006492
141,-19.902061462402344,-33.66431427001953,75.56622314453125,5.840456926082141,-2.4031859750823448,-13.620757316573139,8.857339,26.962328,52.876205,23.216076,-12.217899,-5.0460954,-9.692353,-39.16534,-46.401714,45.4639,-16.433743,3.104193,-8.194042,-3.9986153,11.499129,-94.50714,32.919174,-36.826923,52.781326,-57.074764,11.680339,-0.93667877,-102.42454,-27.633612,42.674316,60.4267,27.928507,3.029328,-15.030188
142,-19.85847282409668,-34.2406120300293,75.52820587158203,5.308820654539323,-2.3743599391241768,-14.64535804268505,8.895808,27.909294,51.850857,23.536274,-13.530305,-5.059041,-9.977836,-37.64769,-45.860535,45.492466,-16.991724,2.7718856,-8.33189,-3.4879248,11.45031,-94.3127,32.755043,-36.618843,52.819553,-56.970173,11.646095,-0.97371364,-102.26601,-27.725748,42.72462,60.297554,27.898664,2.9893103,-15.064387
143,-19.803049087524414,-34.82313919067383,75.48843383789062,4.732100896006927,-2.3506807461480124,-15.69899895306696,8.863952,28.842934,50.56649,23.88566,-14.921394,-5.0128655,-10.2113085,-36.038967,-45.354042,45.43926,-17.511963,2.4207444,-8.438286,-2.9204574,11.395917,-94.10461,32.603264,-36.4584,52.861725,-56.926678,11.60505,-1.0077981,-102.109795,-27.793015,42.799435,60.198586,27.887669,2.938032,-15.086735
144,-19.744760513305664,-35.41780090332031,75.44577026367188,4.171035728292704,-2.3296220107318546,-16.74203094674828,8.676591,29.654276,48.863514,24.259445,-16.323484,-4.827432,-10.39909,-34.438404,-44.863167,45.336277,-18.01913,2.0908613,-8.55324,-2.367046,11.338769,-93.92965,32.504505,-36.4305,52.915268,-57.02608,11.549765,-1.0429257,-101.99012,-27.83035,42.91128,60.150387,27.901905,2.9000468,-15.074053
145,-19.676259994506836,-36.01097869873047,75.40174102783203,3.6193771106636192,-2.3115270720575563,-17.750129222554946,8.288952,30.334057,46.625137,24.636934,-17.80759,-4.4558744,-10.509888,-32.84848,-44.41581,45.182358,-18.527346,1.8051152,-8.672693,-1.8163615,11.268994,-93.803734,32.421734,-36.58002,53.011974,-57.31356,11.466633,-1.0846103,-101.90719,-27.863409,43.10948,60.16824,27.973825,2.8800983,-15.011346
146,-19.610877990722656,-36.591835021972656,75.35134887695312,3.054581029215848,-2.298701878434726,-18.74987002995004,7.7427626,30.911188,43.942173,25.030727,-19.376719,-3.9436119,-10.556404,-31.22663,-44.00433,44.960358,-19.019608,1.5360032,-8.780901,-1.2514751,11.190756,-93.72308,32.345036,-36.87742,53.15589,-57.748974,11.362955,-1.1288474,-101.834915,-27.89888,43.360806,60.220764,28.09189,2.8668551,-14.912992
147,-19.54844856262207,-37.164642333984375,75.29735565185547,2.513818751093089,-2.2886304887425433,-19.7783153288856,7.0877156,31.328403,40.975315,25.47131,-20.861204,-3.3599415,-10.601989,-29.60869,-43.558716,44.691322,-19.483398,1.251738,-8.84178,-0.71589005,11.116022,-93.69094,32.24843,-37.23382,53.34142,-58.222515,11.250058,-1.1703974,-101.75493,-27.95041,43.589043,60.268055,28.202099,2.8602521,-14.802282
148,-19.493894577026367,-37.73370361328125,75.23573303222656,2.033053902050895,-2.277244199893502,-20.871877733509187,6.381741,31.540915,37.899708,25.991705,-22.094915,-2.7840264,-10.701544,-28.031685,-43.01475,44.40165,-19.908367,0.9227472,-8.839426,-0.23043728,11.059709,-93.66108,32.16806,-37.5166,53.496407,-58.62584,11.152353,-1.2053531,-101.68376,-27.996107,43.747513,60.296345,28.255133,2.861227,-14.702433
149,-19.445463180541992,-38.29233169555664,75.17474365234375,1.6256058476412836,-2.250138693300196,-22.04154370103519,5.5868244,31.526922,34.59646,26.645203,-23.0686,-2.1362145,-10.87488,-26.511847,-42.358883,44.11212,-20.30295,0.53599894,-8.765005,0.20464277,11.011797,-93.59429,32.12504,-37.682182,53.57202,-58.945377,11.072368,-1.2307731,-101.63875,-28.018229,43.81853,60.320286,28.21242,2.8752913,-14.616513
150,-19.39349365234375,-38.842918395996094,75.13031768798828,1.2704517540583187,-2.2121513352303834,-23.26747091233102,4.708459,31.300863,31.047314,27.413675,-23.859858,-1.4188449,-11.076353,-25.028482,-41.62932,43.807873,-20.672136,0.112128675,-8.62625,0.59927773,10.967163,-93.53885,32.08614,-37.812675,53.63145,-59.239704,10.996491,-1.2485746,-101.61095,-28.033657,43.83595,60.345047,28.113773,2.8994818,-14.533602
151,-19.335247039794922,-39.395294189453125,75.12710571289062,0.9527967491668323,-2.1863387303288913,-24.539393700488432,3.871229,30.903223,27.589575,28.231709,-24.448496,-0.84297496,-11.258829,-23.563118,-40.84146,43.462196,-21.000687,-0.3267866,-8.4368105,0.9433142,10.94255,-93.54103,32.018063,-37.94248,53.743797,-59.485973,10.923167,-1.2637995,-101.57386,-28.053593,43.81352,60.35425,28.014341,2.919081,-14.458013
152,-19.279579162597656,-39.94138717651367,75.13447570800781,0.6582828495151294,-2.195943218045437,-25.84626129924414,3.185858,30.399529,24.553495,29.04438,-24.82488,-0.6220909,-11.378908,-22.097849,-40.009865,43.047256,-21.272371,-0.7598177,-8.226481,1.2762928,10.961237,-93.509346,32.003002,-37.995087,53.800316,-59.64572,10.875752,-1.2790266,-101.546135,-28.056404,43.8237,60.35863,27.97076,2.924635,-14.392975
153,-19.224878311157227,-40.47980880737305,75.14767456054688,0.38619044108492057,-2.249462819040218,-27.205308887705804,2.70583,29.819344,22.076847,29.855797,-24.930916,-0.93644416,-11.432395,-20.615477,-39.11591,42.553684,-21.480972,-1.195452,-7.9748926,1.563888,11.032914,-93.552666,31.970417,-38.07073,53.926476,-59.74333,10.826381,-1.2824379,-101.51275,-28.05707,43.855377,60.35082,28.026365,2.8998675,-14.344609
154,-19.172550201416016,-41.01246643066406,75.16304779052734,0.14681121765080693,-2.331278925830675,-28.61460595512958,2.3522387,29.148705,19.971403,30.715467,-24.822777,-1.6470511,-11.436031,-19.134119,-38.158222,41.999905,-21.63822,-1.6387913,-7.6840563,1.8201218,11.142182,-93.596344,31.96007,-38.093693,54.033638,-59.75419,10.795075,-1.2790375,-101.467285,-28.05463,43.87872,60.315212,28.118996,2.8627448,-14.305133
155,-19.1146183013916,-41.54159164428711,75.18773651123047,-0.06504635693114921,-2.427257529370524,-30.03387383113209,2.0200832,28.401499,18.064432,31.643602,-24.658657,-2.4865127,-11.378921,-17.675964,-37.182175,41.387043,-21.74747,-2.0679898,-7.381333,2.0508711,11.273686,-93.67301,31.951551,-38.10672,54.167503,-59.725445,10.776832,-1.2842057,-101.42845,-28.048851,43.91517,60.28339,28.24328,2.8191743,-14.275166
156,-19.052467346191406,-42.059688568115234,75.2221450805664,-0.25460229105542215,-2.5249237378997256,-31.423325910644774,1.6188353,27.582098,16.189722,32.641396,-24.575094,-3.1821384,-11.254168,-16.26471,-36.230236,40.718693,-21.813469,-2.46175,-7.0899677,2.2689686,11.403706,-93.74218,31.934721,-38.091343,54.30948,-59.65767,10.774186,-1.3139765,-101.401955,-28.029259,43.975197,60.28703,28.370087,2.779515,-14.254116
157,-18.98278045654297,-42.57719039916992,75.27269744873047,-0.4224869723653072,-2.6244362528111074,-32.77954702030004,1.1397592,26.655237,14.288538,33.710735,-24.597054,-3.675267,-11.060746,-14.903472,-35.30552,39.9919,-21.834345,-2.8212397,-6.8232417,2.4716256,11.535774,-93.818275,31.913723,-38.040924,54.47907,-59.532764,10.800053,-1.3834306,-101.37589,-27.992496,44.038933,60.316494,28.478407,2.7445855,-14.241295
158,-18.909622192382812,-43.08774948120117,75.3299789428711,-0.5668000630918543,-2.730482290413095,-34.12157812130271,0.6233565,25.624594,12.4572115,34.85386,-24.652172,-4.111701,-10.804345,-13.582682,-34.386192,39.208843,-21.81143,-3.1554403,-6.56628,2.6492538,11.677586,-93.90084,31.894339,-37.965614,54.665615,-59.35165,10.847607,-1.4786532,-101.340904,-27.94671,44.099377,60.35167,28.584862,2.7106128,-14.23824
159,-18.834861755371094,-43.59088134765625,75.39727020263672,-0.6917496715726129,-2.8365824211430954,-35.44571020977625,0.08216993,24.55098,10.773478,36.01898,-24.701477,-4.515695,-10.490463,-12.298975,-33.471394,38.370556,-21.747272,-3.4589472,-6.316113,2.8182573,11.818072,-93.98418,31.871342,-37.87859,54.86272,-59.15942,10.899835,-1.5793885,-101.32985,-27.872147,44.17496,60.434475,28.696676,2.678281,-14.237911
160,-18.751840591430664,-44.08900833129883,75.47408294677734,-0.8020227011446255,-2.9366234164173157,-36.74751630725355,-0.47936106,23.504923,9.305861,37.16387,-24.71022,-4.905603,-10.12545,-11.050973,-32.562984,37.48198,-21.646814,-3.7259133,-6.074922,2.9764357,11.950111,-94.07334,31.854588,-37.822803,55.058643,-59.016056,10.942894,-1.6622697,-101.33626,-27.78184,44.24295,60.548798,28.81139,2.6532104,-14.229895
161,-18.667102813720703,-44.59497833251953,75.55583953857422,-0.900320825664703,-3.0276964990831257,-38.01880531862603,-1.0715787,22.49903,8.063282,38.287018,-24.657734,-5.2806945,-9.705631,-9.838117,-31.66943,36.53462,-21.507816,-3.957519,-5.8483353,3.1243231,12.071916,-94.15684,31.848791,-37.799557,55.237846,-58.928497,10.974872,-1.7231405,-101.36239,-27.679825,44.31556,60.70251,28.950684,2.6324644,-14.218231
162,-18.572921752929688,-45.102901458740234,75.64679718017578,-0.9851961730059392,-3.1130684837012152,-39.26483835760563,-1.6965946,21.507957,7.004629,39.39982,-24.558033,-5.6241097,-9.229227,-8.660158,-30.784948,35.524803,-21.32749,-4.157793,-5.6330786,3.2601628,12.190819,-94.24281,31.85356,-37.798164,55.408817,-58.874443,11.004993,-1.7733412,-101.39419,-27.577812,44.387638,60.872814,29.106682,2.617127,-14.204721
163,-18.480487823486328,-45.61320877075195,75.74278259277344,-1.05551374682997,-3.196014462108865,-40.501804389651596,-2.34508,20.549295,6.116697,40.4873,-24.433249,-5.926376,-8.711276,-7.5207705,-29.889555,34.480427,-21.118536,-4.325236,-5.4159884,3.3879244,12.305735,-94.32237,31.868244,-37.8065,55.57171,-58.8453,11.0312395,-1.8132217,-101.44538,-27.458336,44.4484,61.066246,29.243067,2.6132443,-14.179027
164,-18.378456115722656,-46.12382888793945,75.83869934082031,-1.1100175054390158,-3.279813852298096,-41.74608197452591,-3.0031998,19.639124,5.389245,41.523155,-24.300158,-6.179691,-8.160488,-6.419496,-28.963795,33.4148,-20.885391,-4.459398,-5.179649,3.508068,12.418026,-94.401405,31.890009,-37.824566,55.7322,-58.83916,11.0535555,-1.8428218,-101.506775,-27.33375,44.473946,61.252163,29.322756,2.6302717,-14.129285
165,-18.27457046508789,-46.63588333129883,75.93277740478516,-1.1477712601692505,-3.365288095306174,-42.999246942247105,-3.6777728,18.782053,4.8311586,42.518314,-24.14896,-6.369455,-7.5735397,-5.356819,-28.003038,32.320465,-20.622164,-4.555027,-4.918604,3.6220956,12.527356,-94.47175,31.915068,-37.8534,55.885887,-58.861694,11.068664,-1.8550156,-101.57414,-27.206217,44.44656,61.425274,29.313732,2.6844027,-14.051456
166,-18.170196533203125,-47.1485710144043,76.02523803710938,-1.1702779687617297,-3.449957699133446,-44.253961858633325,-4.377943,17.974926,4.439055,43.475285,-23.971195,-6.4989223,-6.9497585,-4.33536,-27.016836,31.198547,-20.332735,-4.6169577,-4.6402187,3.7290845,12.633846,-94.54205,31.940996,-37.897743,56.038742,-58.91378,11.077769,-1.8521534,-101.64727,-27.077223,44.37878,61.59256,29.243437,2.7664893,-13.951546
167,-18.060834884643555,-47.66279602050781,76.11442565917969,-1.1802923834990826,-3.532188950468218,-45.51305780453178,-5.090824,17.222795,4.185362,44.35269,-23.784554,-6.58899,-6.2985086,-3.3545175,-26.005682,30.069067,-20.032364,-4.660355,-4.346793,3.8263166,12.737497,-94.62795,31.968071,-37.953175,56.202732,-58.979126,11.0855255,-1.8489101,-101.73344,-26.949114,44.300545,61.75731,29.1644,2.8471763,-13.833805
168,-17.939098358154297,-48.171958923339844,76.1971664428711,-1.1804506111145925,-3.610588590889442,-46.77898752523879,-5.8053536,16.529806,4.0412374,45.114098,-23.60991,-6.6604853,-5.632455,-2.4162214,-24.971836,28.960062,-19.740437,-4.697462,-4.0391903,3.9110699,12.837374,-94.73272,31.999807,-38.008522,56.377872,-59.03619,11.0963,-1.8598728,-101.83654,-26.825094,44.239582,61.92241,29.12818,2.8968787,-13.702315
169,-17.81908416748047,-48.68630599975586,76.27363586425781,-1.1696472457861358,-3.6856150023850613,-48.05860223708146,-6.515849,15.906436,4.029226,45.75147,-23.453318,-6.7225504,-4.952575,-1.5212971,-23.912304,27.874758,-19.459326,-4.728844,-3.7151167,3.9841807,12.937239,-94.87004,32.03832,-38.066605,56.57509,-59.09396,11.112388,-1.8919669,-101.964424,-26.707634,44.208984,62.084908,29.161034,2.9010918,-13.54349
170,-17.695730209350586,-49.208770751953125,76.34371185302734,-1.1476680388952016,-3.7571433283969484,-49.3486913451867,-7.230303,15.351875,4.151419,46.28076,-23.302296,-6.7594438,-4.2526507,-0.66880745,-22.827246,26.79916,-19.17985,-4.7481594,-3.3717039,4.0467696,13.034733,-95.01558,32.085308,-38.12161,56.77326,-59.15091,11.130319,-1.9361923,-102.10759,-26.59842,44.189148,62.241817,29.230923,2.877989,-13.360171
171,-17.572681427001953,-49.73640441894531,76.41163635253906,-1.1187656701218567,-3.82292288907272,-50.6380429806949,-7.9577665,14.850662,4.349491,46.702114,-23.149363,-6.755729,-3.539597,0.14106472,-21.723679,25.744286,-18.907764,-4.7555976,-3.021115,4.1003036,13.129241,-95.18223,32.140144,-38.18454,56.97806,-59.20497,11.15223,-1.98453,-102.26041,-26.495228,44.172955,62.39185,29.308773,2.8494844,-13.180621
172,-17.444107055664062,-50.269996643066406,76.47032165527344,-1.0872313938372606,-3.8808225351539796,-51.91512724679086,-8.706661,14.386591,4.5659103,47.016277,-22.988117,-6.6969037,-2.8215754,0.9084293,-20.609253,24.723742,-18.649036,-4.7510586,-2.6699166,4.144329,13.217391,-95.361916,32.199924,-38.25447,57.17909,-59.241116,11.17726,-2.028933,-102.412605,-26.397924,44.14911,62.53675,29.367043,2.83673,-13.033979
173,-17.31631088256836,-50.80565643310547,76.52174377441406,-1.0556438739874,-3.931445316975859,-53.18685707811659,-9.47777,13.973875,4.817546,47.22587,-22.827566,-6.563245,-2.095762,1.6389008,-19.476337,23.72738,-18.39836,-4.7334733,-2.3168495,4.1807423,13.30341,-95.56948,32.268948,-38.342724,57.387432,-59.25875,11.209079,-2.0658767,-102.57488,-26.29327,44.11468,62.688976,29.387896,2.8497062,-12.931271
174,-17.188220977783203,-51.340179443359375,76.56367492675781,-1.0217008594850556,-3.975390168947245,-54.45668462720915,-10.265435,13.615151,5.12466,47.326626,-22.667128,-6.367687,-1.3620023,2.3299587,-18.324696,22.756556,-18.155834,-4.701545,-1.9573805,4.2083406,13.386098,-95.795364,32.345257,-38.441032,57.5987,-59.25844,11.245394,-2.1003246,-102.75021,-26.18431,44.077946,62.848705,29.391422,2.8751633,-12.85608
175,-17.05109214782715,-51.889652252197266,76.5978012084961,-0.9825096700141861,-4.010688039570849,-55.70703387909769,-11.066714,13.275177,5.436263,47.308315,-22.484781,-6.145437,-0.6248408,2.9728267,-17.173246,21.82144,-17.933123,-4.6557126,-1.6094183,4.226238,13.458428,-96.02928,32.428177,-38.540985,57.807774,-59.254204,11.281505,-2.136599,-102.92775,-26.070866,44.040127,63.008553,29.395725,2.8978047,-12.796732
176,-16.912906646728516,-52.44268798828125,76.62449645996094,-0.9353683513728414,-4.035333384418693,-56.920413441972194,-11.878627,12.917753,5.7017875,47.159267,-22.256899,-5.932108,0.110795185,3.5599394,-16.041473,20.931463,-17.741837,-4.5973277,-1.2889435,4.2320633,13.512394,-96.25139,32.51675,-38.629055,58.001507,-59.254524,11.311386,-2.178944,-103.09887,-25.954792,44.007202,63.16351,29.421854,2.90249,-12.741171
177,-16.774150848388672,-53.0062255859375,76.64270782470703,-0.8797722193187559,-4.046697044337678,-58.091299218084025,-12.705538,12.541866,5.9250755,46.870808,-21.99593,-5.726674,0.84019345,4.08934,-14.933576,20.088955,-17.583702,-4.5163746,-1.0005349,4.2221622,13.544574,-96.454315,32.61125,-38.693657,58.174404,-59.256237,11.330304,-2.23015,-103.260056,-25.837877,43.976707,63.311268,29.479593,2.8784833,-12.690634
178,-16.632366180419922,-53.57587432861328,76.65463256835938,-0.8190831645990925,-4.046131433599469,-59.229648803429804,-13.544379,12.162175,6.128934,46.446476,-21.706272,-5.5148516,1.5651076,4.5671706,-13.841143,19.288202,-17.453331,-4.416029,-0.7354682,4.199506,13.560845,-96.65252,32.71164,-38.746464,58.336075,-59.25913,11.342823,-2.2872026,-103.41642,-25.720179,43.948013,63.453083,29.557024,2.8364313,-12.649862
179,-16.48592758178711,-54.15234375,76.65654754638672,-0.754792984891239,-4.038036194788744,-60.341102810687225,-14.383576,11.767382,6.289578,45.897392,-21.354189,-5.3128037,2.2872806,4.9988637,-12.765196,18.530838,-17.353912,-4.3181095,-0.48597604,4.169312,13.564004,-96.83733,32.817726,-38.794716,58.480274,-59.259865,11.355327,-2.3465297,-103.56968,-25.603128,43.92938,63.59136,29.643661,2.7928724,-12.612326
180,-16.337650299072266,-54.73579788208008,76.653564453125,-0.6863701891707088,-4.028018768442091,-61.431135264670445,-15.212062,11.347346,6.3824224,45.23588,-20.906387,-5.136369,3.0076394,5.3901706,-11.706997,17.82071,-17.289417,-4.244143,-0.24539804,4.138527,13.558228,-97.00927,32.9283,-38.85206,58.607243,-59.26169,11.374943,-2.404543,-103.72441,-25.488298,43.932014,63.728127,29.731125,2.764709,-12.5713415
181,-16.182771682739258,-55.32639694213867,76.64791870117188,-0.6161650847028983,-4.017734502333462,-62.498656488291864,-16.030483,10.895899,6.3945107,44.456867,-20.364515,-4.988958,3.7237647,5.7388983,-10.674466,17.164824,-17.264656,-4.192021,-0.014020122,4.1060596,13.544173,-97.16665,33.042282,-38.91985,58.71741,-59.25557,11.404014,-2.4637375,-103.88274,-25.37752,43.96539,63.864487,29.819935,2.7620034,-12.5350275
182,-16.0338134765625,-55.92665100097656,76.6358871459961,-0.5444179764254736,-4.0040739441509565,-63.541713064307224,-16.841782,10.420315,6.3400965,43.555016,-19.741928,-4.862996,4.4322953,6.0460362,-9.666335,16.563314,-17.27726,-4.1527915,0.20595513,4.070535,13.520519,-97.31297,33.159004,-38.993233,58.81326,-59.244175,11.438535,-2.524989,-104.04043,-25.271791,44.020576,63.99695,29.9132,2.774013,-12.503547
183,-15.87795352935791,-56.53558349609375,76.61907196044922,-0.4732092771141539,-3.985310221151026,-64.56408317598866,-17.63486,9.930085,6.2351594,42.5358,-19.019176,-4.756865,5.142804,6.3235626,-8.668705,15.988818,-17.313982,-4.137357,0.4193762,4.0356507,13.485996,-97.44112,33.277943,-39.066566,58.886795,-59.23848,11.475139,-2.5817518,-104.19303,-25.171925,44.08325,64.12216,30.008322,2.7864878,-12.458275
184,-15.714949607849121,-57.15117645263672,76.5940933227539,-0.4049539884490043,-3.9600936367027426,-65.56985966381542,-18.400824,9.436437,6.0944433,41.40711,-18.177334,-4.6688476,5.855054,6.580656,-7.6684623,15.436177,-17.366198,-4.155809,0.6310954,4.005458,13.439741,-97.54612,33.398956,-39.13556,58.931538,-59.250134,11.510617,-2.6276636,-104.33581,-25.078596,44.13721,64.23683,30.103773,2.7853413,-12.3807535
185,-15.553675651550293,-57.78129196166992,76.56430053710938,-0.3389962943252962,-3.9281654635181553,-66.56517224717568,-19.149323,8.938919,5.905746,40.179153,-17.205355,-4.572731,6.5648894,6.8219404,-6.650505,14.913739,-17.441051,-4.228924,0.8487728,3.9804726,13.381747,-97.62361,33.522453,-39.200176,58.939865,-59.287083,11.546184,-2.6619954,-104.46637,-24.99313,44.16476,64.33719,30.185497,2.7682233,-12.253181
186,-15.395216941833496,-58.41439437866211,76.52933502197266,-0.27867755551258216,-3.89025783446825,-67.54612501604801,-19.879303,8.4366455,5.6631083,38.8434,-16.114365,-4.4781313,7.2720885,7.043263,-5.6265206,14.422765,-17.539314,-4.343911,1.0672257,3.9593208,13.313506,-97.68018,33.64822,-39.264656,58.91887,-59.34352,11.582977,-2.6875253,-104.58663,-24.916504,44.178204,64.42353,30.259754,2.742725,-12.089641
187,-15.23429012298584,-59.05313491821289,76.4860610961914,-0.22255384738690015,-3.847133186193031,-68.5010386982378,-20.565147,7.9400363,5.39029,37.37852,-14.920013,-4.4364815,7.986555,7.2411013,-4.6226716,13.940338,-17.644548,-4.460814,1.2733067,3.9430156,13.234453,-97.715805,33.775494,-39.32231,58.87668,-59.40257,11.617181,-2.703644,-104.69651,-24.848742,44.2061,64.49942,30.349,2.708486,-11.918731
188,-15.069134712219238,-59.7027473449707,76.43927001953125,-0.17190153681193257,-3.799980303692302,-69.41909329750453,-21.179195,7.4564095,5.1107354,35.7574,-13.635261,-4.4991775,8.721693,7.4119153,-3.6641684,13.435521,-17.735897,-4.540296,1.4540204,3.9337754,13.144371,-97.73653,33.902893,-39.369972,58.826088,-59.4518,11.645381,-2.7098885,-104.796364,-24.788431,44.277527,64.56834,30.474628,2.6653154,-11.769193
189,-14.899103164672852,-60.36358642578125,76.39090728759766,-0.12746555420955408,-3.747319679811992,-70.29832184328339,-21.725502,6.983956,4.815355,33.967274,-12.17048,-4.680833,9.483779,7.5560703,-2.7457106,12.889022,-17.806734,-4.573441,1.605256,3.9312081,13.041235,-97.74267,34.03127,-39.4173,58.76758,-59.49477,11.661893,-2.7018073,-104.890205,-24.735138,44.424232,64.63734,30.670376,2.6028976,-11.644137
190,-14.723597526550293,-61.032249450683594,76.33101654052734,-0.08999609667627136,-3.690655278022138,-71.14588854380159,-22.208366,6.520689,4.4909854,32.01441,-10.545806,-4.954595,10.264278,7.677053,-1.8567882,12.321358,-17.867266,-4.5804935,1.7361137,3.9375274,12.926111,-97.729324,34.161106,-39.459644,58.694046,-59.534515,11.670117,-2.681415,-104.97757,-24.688301,44.624092,64.703804,30.914507,2.5248115,-11.529479
191,-14.545981407165527,-61.713523864746094,76.26451110839844,-0.06191116135011322,-3.634299920885441,-71.96553062546084,-22.596584,6.0735025,4.1558666,29.888998,-8.932847,-5.3098435,11.065068,7.776901,-1.0127106,11.741145,-17.918655,-4.5677733,1.8532319,3.9586737,12.804809,-97.70048,34.288784,-39.478085,58.612595,-59.561672,11.680445,-2.657142,-105.05591,-24.64497,44.82681,64.76133,31.15075,2.4517074,-11.428476
192,-14.365304946899414,-62.40004348754883,76.1900634765625,-0.04708967231690176,-3.5828707011876357,-72.76151779433587,-22.855316,5.652235,3.830362,27.574677,-7.499941,-5.7351804,11.887878,7.8589168,-0.22780825,11.157932,-17.961382,-4.5426893,1.965453,3.9993205,12.682016,-97.64964,34.408318,-39.444363,58.524178,-59.55668,11.701781,-2.63734,-105.12368,-24.601658,44.983604,64.80689,31.322788,2.403402,-11.344444
193,-14.173099517822266,-63.094818115234375,76.1064224243164,-0.04843897930032171,-3.539845023386422,-73.5283966587283,-22.950666,5.2435393,3.4774694,24.981733,-6.2643504,-6.2690372,12.751531,7.9242554,0.4891306,10.543485,-17.985634,-4.4972134,2.0693827,4.065399,12.561678,-97.57987,34.511574,-39.337086,58.434914,-59.504967,11.740168,-2.6254954,-105.18064,-24.554728,45.069275,64.839714,31.40042,2.3880398,-11.282284
194,-13.981792449951172,-63.806236267089844,76.01101684570312,-0.07413465780937986,-3.5072041039223705,-74.27554637636037,-22.88379,4.86975,3.0991607,22.105387,-5.124584,-6.902871,13.664787,7.9851685,1.1592655,9.881681,-17.982803,-4.435432,2.1798937,4.1532784,12.441192,-97.52566,34.564568,-39.19702,58.386864,-59.416237,11.784184,-2.617184,-105.2133,-24.522871,45.09787,64.85105,31.415846,2.3940024,-11.237357
195,-13.780231475830078,-64.53096771240234,75.90545654296875,-0.13666829496198535,-3.487377243001944,-75.03061368267501,-22.671377,4.5922594,2.780519,19.051205,-4.070884,-7.5569425,14.621175,8.063542,1.8157656,9.1852,-17.946806,-4.383345,2.3139782,4.291186,12.324084,-97.46707,34.608616,-39.04053,58.34811,-59.32422,11.831872,-2.6095462,-105.24592,-24.487755,45.12907,64.86605,31.414114,2.4114053,-11.201434
196,-13.585403442382812,-65.27035522460938,75.79029083251953,-0.24646673147048487,-3.480983756122189,-75.81822429767197,-22.348833,4.458458,2.6111705,15.955851,-3.1015031,-8.154931,15.605186,8.17516,2.4885006,8.482131,-17.879421,-4.364443,2.4907289,4.4678597,12.20904,-97.45474,34.631763,-38.952263,58.368267,-59.27234,11.872004,-2.5983949,-105.261055,-24.46528,45.168537,64.86582,31.426846,2.431015,-11.164253
197,-13.389822959899902,-66.02316284179688,75.6611328125,-0.4161734841591862,-3.486887913320849,-76.64929558095824,-21.883902,4.483289,2.585968,12.715909,-2.1989982,-8.728982,16.639761,8.331606,3.1822443,7.723531,-17.756775,-4.380455,2.724475,4.728709,12.090413,-97.42839,34.66345,-38.878105,58.38879,-59.255447,11.906655,-2.5758386,-105.29312,-24.430176,45.275837,64.89533,31.470785,2.454292,-11.126887
198,-13.19257640838623,-66.781005859375,75.52110290527344,-0.6488999154000373,-3.5106024156576576,-77.52164396426954,-21.201458,4.6430182,2.6904736,9.162633,-1.2901143,-9.313986,17.504128,8.544226,3.86596,7.388246,-17.834553,-4.4208784,3.0060837,5.0548515,11.974815,-97.42198,34.69312,-38.841465,58.442215,-59.27207,11.938477,-2.5450876,-105.32217,-24.39244,45.399727,64.92535,31.519955,2.4855835,-11.091029
199,-12.998470306396484,-67.54808044433594,75.3709945678711,-0.9139097498118025,-3.554016369533163,-78.4192906363135,-20.990776,4.9162397,2.936536,6.825983,-1.0760015,-9.8311205,18.26509,8.784347,4.557318,7.331394,-18.026432,-4.4860697,3.3214853,5.4183326,11.868086,-97.42677,34.72298,-38.82678,58.510586,-59.3019,11.971481,-2.523877,-105.351395,-24.349138,45.527058,64.95866,31.575912,2.5163512,-11.056774
200,-12.807357788085938,-68.32516479492188,75.22029876708984,-1.1716796154172247,-3.611125933167301,-79.30966156783344,-21.699589,5.261241,3.333888,6.708227,-1.9781768,-10.19434,19.03697,8.998175,5.263066,7.2897906,-18.187086,-4.572334,3.644289,5.7579756,11.769734,-97.45092,34.740433,-38.840275,58.593273,-59.324894,12.006789,-2.5277724,-105.355446,-24.323145,45.613735,64.96386,31.628996,2.5401027,-11.022428
201,-12.61743450164795,-69.10591125488281,75.07333374023438,-1.3967182640470115,-3.673635142533591,-80.18016818661195,-22.312464,5.6266346,4.019486,6.631339,-2.876722,-10.345738,19.809134,9.163309,5.968855,7.2647896,-18.326183,-4.678083,3.9597263,6.075731,11.68209,-97.46071,34.77683,-38.852814,58.648796,-59.346794,12.043948,-2.57099,-105.39315,-24.268347,45.715538,65.01005,31.70615,2.5423787,-10.993316
202,-12.434135437011719,-69.88782501220703,74.92508697509766,-1.5972440586078218,-3.735872408663565,-81.02666950631306,-22.846367,6.017805,4.9427056,6.58997,-3.8023293,-10.3440695,20.57837,9.285523,6.6570435,7.2523518,-18.444407,-4.7991905,4.256131,6.3572245,11.593295,-97.46959,34.82569,-38.887974,58.700188,-59.36907,12.082482,-2.6412196,-105.42286,-24.20345,45.788685,65.05107,31.781136,2.534071,-10.968156
203,-12.256754875183105,-70.67933654785156,74.78407287597656,-1.7755039947135551,-3.7970736192353676,-81.82735840392061,-23.27541,6.392275,6.0017743,6.574699,-4.6612496,-10.278694,21.342047,9.365276,7.3057175,7.25639,-18.523294,-4.9286256,4.5276704,6.601552,11.499259,-97.4846,34.861443,-38.938637,58.751427,-59.38586,12.121253,-2.7146018,-105.42264,-24.162472,45.83934,65.06272,31.855652,2.5259585,-10.946058
204,-12.082942962646484,-71.47293090820312,74.64691162109375,-1.9248406775526652,-3.8599192957225794,-82.56305351918557,-23.559372,6.6998816,7.102083,6.5535493,-5.3468246,-10.229548,22.101894,9.398289,7.894011,7.279314,-18.542938,-5.0583935,4.746556,6.8052936,11.401361,-97.48197,34.900898,-38.985348,58.777313,-59.390957,12.161309,-2.7677572,-105.39783,-24.120724,45.873165,65.063225,31.927631,2.5246017,-10.930581
205,-11.906417846679688,-72.2770767211914,74.51799774169922,-2.0737305667189,-3.9185758095956773,-83.24283543953017,-23.717545,6.981056,8.328962,6.5641265,-5.847514,-10.240373,22.85015,9.42008,8.427814,7.3237586,-18.509617,-5.2014003,4.9246044,6.998745,11.295075,-97.468254,34.944553,-39.030315,58.774326,-59.390068,12.204247,-2.7930415,-105.35496,-24.076956,45.879036,65.05737,31.983763,2.538355,-10.914786
206,-11.735635757446289,-73.0784912109375,74.39456939697266,-2.204795411972706,-3.973331758049457,-83.87097470584666,-23.746157,7.2252135,9.703666,6.578953,-6.2010665,-10.250082,23.589024,9.414502,8.908105,7.38599,-18.433432,-5.3530664,5.0615,7.1636667,11.182945,-97.44537,34.99646,-39.079338,58.74943,-59.383827,12.249653,-2.8045213,-105.2949,-24.0275,45.8584,65.04303,32.02862,2.5607958,-10.902015
207,-11.56588363647461,-73.8919448852539,74.27252197265625,-2.3081632831483434,-4.032466788822925,-84.44058081005365,-23.648718,7.385882,11.007507,6.609217,-6.4432635,-10.193494,24.245901,9.38327,9.32251,7.6417,-18.379082,-5.4902606,5.1539693,7.289987,11.063802,-97.40188,35.043564,-39.118618,58.707973,-59.36124,12.29754,-2.8073587,-105.20973,-23.984222,45.841595,65.01983,32.088818,2.5799062,-10.896682
208,-11.391542434692383,-74.72362518310547,74.15631866455078,-2.366266451900479,-4.09555450298914,-84.94337615669507,-23.429497,7.4049697,12.025122,6.642025,-6.5970397,-10.003554,24.487078,9.362572,9.612808,8.800502,-18.696133,-5.5875654,5.187035,7.3583193,10.931994,-97.31523,35.095833,-39.136475,58.638153,-59.319084,12.34921,-2.8049784,-105.10719,-23.936693,45.859707,65.006386,32.189915,2.5815644,-10.903287
209,-11.21032428741455,-75.56144714355469,74.04815673828125,-2.41329925750903,-4.176637905644439,-85.38720347452218,-23.041681,7.3344917,12.820981,6.7096577,-6.8059726,-9.746537,24.710217,9.341147,9.850344,10.074656,-18.990204,-5.6474314,5.171994,7.4092216,10.789013,-97.17892,35.149364,-39.118202,58.539417,-59.250107,12.412071,-2.7973452,-104.98308,-23.885427,45.939007,65.00951,32.356476,2.5595982,-10.928146
210,-11.021316528320312,-76.41874694824219,73.94522857666016,-2.4324308670253427,-4.269454189140137,-85.77984283696344,-22.499212,7.1569734,13.480979,6.8019443,-7.0105934,-9.427407,24.890821,9.301652,10.031442,11.495294,-19.283741,-5.6748586,5.1161995,7.438376,10.6370945,-96.97011,35.223938,-39.042404,58.379715,-59.15266,12.48514,-2.7823124,-104.86076,-23.807873,46.079967,65.0544,32.57396,2.5194142,-10.968537
211,-10.844012260437012,-77.29032897949219,73.84952545166016,-2.337354571757173,-4.3531348784580555,-86.12589907261435,-21.917564,6.7577934,13.815017,6.9004064,-6.9562397,-8.896568,24.937523,9.148727,10.14615,13.170422,-19.582705,-5.649531,5.028283,7.3441997,10.473536,-96.74335,35.284668,-38.958218,58.21508,-59.038177,12.552577,-2.7672412,-104.71961,-23.741129,46.22901,65.088684,32.803333,2.4743333,-11.013356
212,-10.67215347290039,-78.17694091796875,73.78009796142578,-2.038186310574985,-4.4081123944078975,-86.43658726450464,-21.401089,6.032927,13.643978,6.973711,-6.3764043,-8.008292,24.774593,8.780783,10.193027,15.18936,-19.884274,-5.5456166,4.9144387,7.0478296,10.30153,-96.48364,35.350536,-38.854572,58.024,-58.909393,12.605002,-2.7587743,-104.58309,-23.672659,46.37407,65.11681,33.01747,2.4340541,-11.054678
213,-10.493825912475586,-79.0612564086914,73.76235961914062,-1.4452635755161303,-4.410019153641126,-86.70733059442827,-20.989973,4.862496,12.698529,7.00592,-5.0366077,-6.523681,24.391579,8.097816,10.143094,17.55914,-20.241127,-5.3542476,4.769529,6.4543724,10.109893,-96.18698,35.423664,-38.737305,57.80513,-58.759853,12.6336565,-2.7612062,-104.4478,-23.61004,46.5232,65.127754,33.224823,2.4033947,-11.089319
214,-10.319289207458496,-79.9542465209961,73.76204681396484,-0.6262598166909515,-4.379711604058219,-86.95752138104123,-20.61104,3.364578,11.203222,7.0125504,-3.083397,-4.6259766,23.894878,7.1730275,10.047444,20.134586,-20.588036,-5.0722895,4.6137447,5.6318755,9.905016,-95.85815,35.502087,-38.606007,57.560406,-58.591267,12.649102,-2.7705226,-104.30876,-23.557016,46.682274,65.12384,33.43647,2.3783119,-11.119878
215,-10.141100883483887,-80.8676986694336,73.76619720458984,0.2517598916441542,-4.362236123606031,-87.22706264609549,-21.448502,2.036929,9.639509,9.6944065,-2.2911606,-2.7835655,23.379326,6.1878796,10.019484,22.776228,-20.742353,-4.6811986,4.481514,4.7508636,9.71357,-95.52146,35.58675,-38.46886,57.299847,-58.42723,12.669052,-2.7812712,-104.1679,-23.508295,46.8087,65.106285,33.62117,2.3563197,-11.145645
216,-9.95212459564209,-81.78971862792969,73.77204132080078,1.029760565261242,-4.3967143025446305,-87.54039398627934,-21.978079,0.84476143,8.5759325,11.905204,-1.4121879,-1.386343,22.89801,5.32798,10.14438,25.398766,-20.552011,-4.164697,4.3940115,3.9670572,9.556447,-95.21792,35.659927,-38.35044,57.056805,-58.291298,12.706387,-2.7872229,-104.016884,-23.4667,46.850986,65.06698,33.743164,2.333707,-11.166485
217,-9.760496139526367,-82.71758270263672,73.77770233154297,1.6816478685728966,-4.48114600570153,-87.88688529804452,-22.304714,-0.10796668,8.03175,13.897018,-0.6100065,-0.49053723,22.407385,4.6425138,10.442614,28.09934,-20.043802,-3.5912821,4.3325415,3.306685,9.418993,-94.90842,35.73584,-38.21889,56.796047,-58.176304,12.773559,-2.785761,-103.84236,-23.417023,46.77898,64.999695,33.786644,2.309196,-11.187958
218,-9.569902420043945,-83.64673614501953,73.7709732055664,2.286968991655583,-4.594104710064406,-88.24197675054864,-22.539656,-0.8972418,7.729093,15.874147,0.15556397,0.1869457,21.885874,4.0548196,10.851366,30.899702,-19.295187,-2.922965,4.2889934,2.6819859,9.28982,-94.62272,35.77512,-38.097313,56.56044,-58.07204,12.853143,-2.7800028,-103.63605,-23.38311,46.61578,64.89631,33.772587,2.283749,-11.20945
219,-9.39139175415039,-84.57275390625,73.74590301513672,2.8437074790476173,-4.743270958748491,-88.60268299226507,-22.684883,-1.5046498,7.6166525,17.863827,0.7260118,0.74779695,21.372753,3.5568476,11.322876,33.685436,-18.27994,-1.9931232,4.25951,2.1036432,9.20126,-94.388855,35.804474,-38.015377,56.359043,-57.999916,12.929471,-2.7727168,-103.446,-23.3518,46.421955,64.79644,33.718945,2.2553146,-11.224881
220,-9.21783447265625,-85.4936294555664,73.70613098144531,3.3376625151468278,-4.939986167458678,-88.96985394795935,-22.724733,-1.9512326,7.649078,19.830206,0.98285854,1.2273024,20.898363,3.1471953,11.823583,36.375713,-16.983206,-0.64904475,4.245901,1.5809051,9.188435,-94.261055,35.832474,-38.02501,56.231354,-57.985107,12.984019,-2.7656589,-103.31064,-23.320139,46.244957,64.73112,33.640232,2.2219534,-11.227206
221,-9.041821479797363,-86.40151977539062,73.66898345947266,3.737689523996485,-5.201911879754166,-89.3231738783331,-22.66253,-2.250753,7.838537,21.788141,0.9333578,1.5131112,20.479647,2.8948762,12.419216,39.018284,-15.389707,1.2103727,4.2528734,1.1625794,9.263729,-94.2345,35.846367,-38.12133,56.173946,-58.033997,13.009638,-2.7615569,-103.24604,-23.305103,46.130363,64.715996,33.535778,2.1869633,-11.187928
222,-8.875753402709961,-87.29249572753906,73.6258544921875,4.056358747614755,-5.520852648615043,-89.663678767754,-22.505856,-2.4171844,8.183269,23.737085,0.64756936,1.5888513,20.076988,2.8164716,13.126247,41.714355,-13.578414,3.4948802,4.2402782,0.7843737,9.409408,-94.34219,35.86533,-38.37641,56.217236,-58.167343,13.0151205,-2.7538986,-103.20805,-23.287819,45.96194,64.70796,33.369316,2.1487982,-11.115215
223,-8.723456382751465,-88.15080261230469,73.5920181274414,4.351316845341325,-5.869604503718099,-90.02765974332013,-22.2228,-2.5141187,8.627686,25.552547,0.14129335,1.59451,19.63415,2.8182464,13.849586,44.457283,-11.65698,6.0444484,4.2692127,0.45031744,9.614777,-94.50525,35.875595,-38.63998,56.290337,-58.316166,13.008379,-2.7452142,-103.21125,-23.282204,45.826324,64.720116,33.213795,2.1017756,-11.074661
224,-8.569554328918457,-88.98965454101562,73.57686614990234,4.6811417600093765,-6.2191774935171,-90.45393877052514,-21.784252,-2.606557,9.121801,27.114271,-0.57100123,1.6739105,19.088646,2.7795808,14.49391,47.230717,-9.696198,8.675775,4.3547235,0.08759282,9.868532,-94.71666,35.884533,-38.890102,56.385727,-58.448227,12.993533,-2.731911,-103.232414,-23.281395,45.68381,64.7285,33.09549,2.038947,-11.124266
225,-8.429862022399902,-89.80681610107422,73.5648422241211,5.1019880153195984,-6.583978805933742,-90.98601326529979,-21.142223,-2.7371216,9.724859,28.382454,-1.5888977,1.874247,18.444412,2.6362453,15.129069,50.069206,-7.534971,11.58127,4.5339575,-0.35193342,10.212002,-95.02375,35.900932,-39.15955,56.521866,-58.594456,12.964346,-2.709064,-103.29627,-23.279745,45.534943,64.743805,33.039032,1.9518447,-11.320248
226,-8.290281295776367,-90.60896301269531,73.56773376464844,5.5699678772957055,-6.969062157712249,-91.59239039951196,-20.333988,-2.9054403,10.447709,29.417322,-2.8766994,2.1108665,17.71251,2.479389,15.815722,53.014576,-5.1847973,14.757255,4.778626,-0.82855934,10.638335,-95.41892,35.931026,-39.4663,56.695255,-58.76692,12.921552,-2.6788497,-103.3992,-23.273254,45.375427,64.76743,33.013947,1.846235,-11.617028
227,-8.185748100280762,-91.40267944335938,73.5783920288086,5.836107856166486,-7.352095146655697,-92.18763749184306,-19.553131,-2.87882,11.042905,30.522263,-4.3635817,2.2743843,16.772326,2.2253666,15.534963,55.923004,-2.7795873,15.000033,5.007697,-1.1200815,11.066112,-95.79457,35.972294,-39.722195,56.851532,-58.896725,12.882303,-2.6502967,-103.502594,-23.258615,45.21938,64.787796,32.993683,1.7371732,-11.922835
228,-8.083252906799316,-92.17806243896484,73.60771179199219,5.866913725747458,-7.677302238966929,-92.71107869738793,-18.860226,-2.669961,11.439304,31.629929,-5.7927337,2.3464816,15.597751,1.981463,14.896817,58.716217,-0.6109069,15.000033,5.1610236,-1.1578918,11.403247,-96.06922,36.011143,-39.85386,56.96129,-58.926075,12.864533,-2.6328816,-103.56919,-23.236774,45.084843,64.79257,32.954098,1.6409079,-12.145675
229,-7.956225395202637,-92.94490814208984,73.66156005859375,5.933055725748445,-7.874898025774258,-93.2056454654938,-18.109715,-2.5687673,11.833421,32.280704,-6.9182663,2.3663142,14.083694,1.5394381,14.171644,61.58761,1.3474772,15.000033,5.260147,-1.228725,11.603989,-96.237915,36.060883,-39.84303,57.02883,-58.808342,12.877162,-2.6317432,-103.58833,-23.191519,44.945496,64.77505,32.877445,1.5510875,-12.2559185
230,-7.823683261871338,-93.70471954345703,73.74514770507812,6.048305078929779,-7.980228384096364,-93.68951685107612,-17.28052,-2.5653512,12.253477,32.53801,-7.877379,2.3584242,12.309436,0.91916806,13.431135,64.499405,3.196218,15.000033,5.3420587,-1.3320322,11.71853,-96.33888,36.103416,-39.70954,57.07258,-58.575794,12.90827,-2.6426423,-103.58447,-23.13693,44.825047,64.750725,32.790047,1.4629751,-12.305376
231,-7.681493282318115,-94.44901275634766,73.85369873046875,6.204484452292449,-8.04937228023172,-94.09005448164092,-16.369282,-2.6919246,12.631485,32.481663,-8.6733265,2.3524773,10.474852,0.21424775,12.737898,67.26168,4.5145793,15.000033,5.3435173,-1.4682487,11.788701,-96.35193,36.16119,-39.504025,57.06531,-58.31556,12.948715,-2.6582832,-103.5819,-23.04476,44.725677,64.75853,32.693985,1.3897778,-12.321327
232,-7.540671348571777,-95.18902587890625,73.97648620605469,6.381482697307613,-8.139589149288767,-94.33635368836474,-15.376963,-2.969282,12.89337,32.202595,-9.315064,2.3779995,8.771889,-0.4861741,12.103503,69.69537,4.8776755,15.000033,5.2253056,-1.6317983,11.856511,-96.28392,36.213116,-39.289104,57.00992,-58.110386,12.985241,-2.6708395,-103.57531,-22.944296,44.650146,64.79241,32.601006,1.3488477,-12.32953
233,-7.395552635192871,-95.92758178710938,74.11455535888672,6.595156375012107,-8.260356861812744,-94.37325247594005,-14.2921505,-3.449238,12.993546,31.660858,-9.7666855,2.451821,7.257577,-1.1552519,11.537121,71.7645,3.8342519,15.000033,4.9404936,-1.8450923,11.920862,-96.123245,36.24753,-39.050213,56.904,-57.96103,13.021357,-2.6803238,-103.54993,-22.848999,44.584286,64.83302,32.500874,1.359986,-12.336501
234,-7.255425930023193,-96.67302703857422,74.26513671875,6.840779407397449,-8.390243322282469,-94.24121036787486,-13.113436,-4.101877,12.953927,30.829481,-10.033884,2.554125,5.840971,-1.8366209,11.002685,73.5587,1.7096767,15.000033,4.5212245,-2.108678,11.965107,-95.89764,36.255993,-38.787598,56.771576,-57.83588,13.060778,-2.6898484,-103.48998,-22.777628,44.51937,64.85318,32.392307,1.4121324,-12.326473
235,-7.125487804412842,-97.41683197021484,74.43223571777344,6.917550021477659,-8.54600098626577,-94.02811007400743,-11.961539,-4.6014466,12.747207,30.086182,-10.328956,2.6217754,4.481432,-2.4447436,10.317267,75.033676,-0.6865284,15.000033,4.049981,-2.1928456,12.001778,-95.612236,36.247517,-38.520744,56.610565,-57.747505,13.090538,-2.697643,-103.43768,-22.693453,44.498295,64.91702,32.299038,1.4684572,-12.296952
236,-7.018572807312012,-98.16336059570312,74.60784912109375,6.875499720675867,-8.728582343104952,-93.81434755776114,-10.809522,-4.9371037,12.466395,29.427595,-10.66849,2.6453211,3.1254442,-3.1937194,9.277133,76.2365,-2.644026,14.395703,3.6063938,-2.1690125,12.057251,-95.332115,36.225647,-38.35176,56.449738,-57.73661,13.099834,-2.6995273,-103.36883,-22.643064,44.500748,64.98102,32.23933,1.5019512,-12.2388315
237,-6.9281816482543945,-98.90345001220703,74.78778839111328,6.775511930810131,-8.952780822741639,-93.5920379414013,-9.590763,-5.189702,12.129766,28.740574,-10.997081,2.6380882,1.8033113,-4.209355,7.791222,77.16716,-4.089838,12.967429,3.188996,-2.0922406,12.148358,-95.024994,36.194855,-38.274616,56.262146,-57.812878,13.088407,-2.6965451,-103.29731,-22.616835,44.55851,65.07783,32.235012,1.4952533,-12.132841
238,-6.845208168029785,-99.64618682861328,74.9720230102539,6.627035086941666,-9.209458264640693,-93.32555932446509,-8.308012,-5.404634,11.720555,27.984043,-11.285021,2.6160772,0.577028,-5.251586,6.1986327,77.829185,-5.413224,11.594394,2.7709353,-1.9592482,12.259817,-94.68505,36.127895,-38.244793,56.06467,-57.949684,13.058244,-2.6913607,-103.229065,-22.601261,44.676704,65.22261,32.2736,1.4655564,-11.990236
239,-6.7714080810546875,-100.38458251953125,75.1577377319336,6.452959628887599,-9.461163985394275,-93.05193431513399,-7.006176,-5.578373,11.290068,27.17407,-11.539647,2.5762455,-0.6000343,-6.243937,4.6298475,78.28101,-6.596095,10.280368,2.3703806,-1.8085339,12.369855,-94.3758,36.039444,-38.2935,55.895103,-58.13809,13.010271,-2.6808817,-103.14524,-22.613356,44.79607,65.3549,32.318417,1.439005,-11.845856
