unveil-humanoid-operators/unveil-humanoid-operators.github.io/feature-analysis-animation/data/feature_matrix_fixed/height_jogging_root_translate_rom_high.csv
Frame,root_translateX,root_translateY,root_translateZ,root_rotateX,root_rotateY,root_rotateZ,left_hip_pitch_joint_dof,left_hip_roll_joint_dof,left_hip_yaw_joint_dof,left_knee_joint_dof,left_ankle_pitch_joint_dof,left_ankle_roll_joint_dof,right_hip_pitch_joint_dof,right_hip_roll_joint_dof,right_hip_yaw_joint_dof,right_knee_joint_dof,right_ankle_pitch_joint_dof,right_ankle_roll_joint_dof,waist_yaw_joint_dof,waist_roll_joint_dof,waist_pitch_joint_dof,left_shoulder_pitch_joint_dof,left_shoulder_roll_joint_dof,left_shoulder_yaw_joint_dof,left_elbow_joint_dof,left_wrist_roll_joint_dof,left_wrist_pitch_joint_dof,left_wrist_yaw_joint_dof,right_shoulder_pitch_joint_dof,right_shoulder_roll_joint_dof,right_shoulder_yaw_joint_dof,right_elbow_joint_dof,right_wrist_roll_joint_dof,right_wrist_pitch_joint_dof,right_wrist_yaw_joint_dof
0,-2.352976083755493,-0.11307117342948914,77.89717102050781,-0.09652313736133998,-3.7475889881256834,2.8732882142344773,9.997808,5.083493,9.963471,7.1962543,-15.360619,-5.5062723,10.40729,-5.0860643,-19.721193,6.914758,-10.548018,6.1028585,-2.7342033,-0.86715543,10.78573,2.6994119,11.148342,-25.545612,64.16695,3.0043652,3.6600125,19.471106,-4.5142736,-6.1647916,25.636698,69.99602,-10.845591,-0.6657115,-9.425691
1,-2.3614513874053955,-0.12736159563064575,77.89842224121094,-0.09136063960400541,-3.7224174502463563,2.890416254989138,9.963576,5.081603,9.941682,7.1965566,-15.353238,-5.5045366,10.38333,-5.08849,-19.745165,6.9147496,-10.554322,6.10434,-2.7340367,-0.8874778,10.762732,2.7153866,11.164474,-25.496696,64.120125,3.0735998,3.7670834,19.374905,-4.5003304,-6.14522,25.618862,69.977844,-10.843398,-0.66140604,-9.377036
2,-2.357619285583496,-0.13422660529613495,77.8983383178711,-0.08600268116772808,-3.694419751141655,2.9097655972848866,9.925882,5.0797253,9.917332,7.1957927,-15.344236,-5.50274,10.356916,-5.0904655,-19.771627,6.914316,-10.561153,6.105272,-2.7404828,-0.9110471,10.7386,2.7350109,11.183733,-25.436068,64.06693,3.146166,3.8765817,19.272406,-4.492558,-6.121095,25.604006,69.96473,-10.841665,-0.6576718,-9.328745
3,-2.3555173873901367,-0.13516555726528168,77.89852905273438,-0.08152153663509107,-3.672125842018348,2.924676988968301,9.896153,5.0782385,9.898159,7.195578,-15.337807,-5.5011377,10.3365755,-5.092155,-19.793024,6.913698,-10.567342,6.107117,-2.742762,-0.9309395,10.717271,2.7515197,11.198812,-25.384274,64.02365,3.2173345,3.9802628,19.180462,-4.480044,-6.1012583,25.59198,69.94799,-10.838459,-0.65240794,-9.280505
4,-2.347325086593628,-0.13368214666843414,77.8974609375,-0.07882303569171757,-3.6644306206222956,2.9290411911929524,9.887786,5.077173,9.891556,7.195696,-15.33738,-5.499902,10.33148,-5.0934176,-19.801516,6.91398,-10.572755,6.1113105,-2.7443738,-0.94299453,10.707098,2.778099,11.210648,-25.337727,63.981007,3.2939446,4.0716267,19.111029,-4.478989,-6.083737,25.591759,69.944405,-10.831645,-0.6467617,-9.231204
5,-2.343538999557495,-0.13204672932624817,77.89647674560547,-0.07915235290342693,-3.6793748043152,2.9158439865920127,9.914279,5.076783,9.90535,7.1953416,-15.347093,-5.4985185,10.351573,-5.09336,-19.789993,6.9132543,-10.576476,6.120615,-2.7386334,-0.9476756,10.7127075,2.8093863,11.219055,-25.302807,63.953087,3.3766122,4.148192,19.07412,-4.4797726,-6.066923,25.60989,69.94483,-10.817889,-0.63479525,-9.182152
6,-2.3314666748046875,-0.11512643098831177,77.8934097290039,-0.0812112677812197,-3.710547780152188,2.890748979981353,9.9635315,5.0765696,9.933075,7.196564,-15.364037,-5.497046,10.388295,-5.0933757,-19.764444,6.914316,-10.580355,6.133671,-2.7330797,-0.9428903,10.72867,2.8524053,11.221562,-25.274088,63.9272,3.464247,4.2151356,19.06089,-4.49236,-6.0532126,25.644772,69.96089,-10.797123,-0.62071234,-9.132579
7,-2.3234660625457764,-0.11281891167163849,77.89167022705078,-0.08419858409240051,-3.7439107472571487,2.8641569738387913,10.016568,5.077238,9.962997,7.197444,-15.382002,-5.49667,10.427892,-5.092344,-19.736254,6.9145446,-10.582838,6.1448727,-2.7120225,-0.93344253,10.748619,2.8779595,11.220489,-25.2668,63.91875,3.545703,4.2704644,19.05739,-4.4911904,-6.049798,25.660498,69.96022,-10.783684,-0.6090796,-9.08028
8,-2.3194258213043213,-0.11664266884326935,77.89006805419922,-0.08705721775741673,-3.7649619183694965,2.8472897685080816,10.051729,5.0789394,9.982561,7.197415,-15.394336,-5.4983993,10.453805,-5.090387,-19.717527,6.9146895,-10.584604,6.148856,-2.701796,-0.9260671,10.757922,2.8948097,11.217702,-25.25823,63.91884,3.6129398,4.3110604,19.05017,-4.487016,-6.0460644,25.673607,69.95592,-10.776318,-0.60650295,-9.030325
9,-2.317655563354492,-0.11660576611757278,77.89019012451172,-0.08935343673365213,-3.771593084843289,2.847899027514857,10.062544,5.081904,9.984617,7.1974072,-15.3987055,-5.5041437,10.464497,-5.0877604,-19.715166,6.9149466,-10.585423,6.142244,-2.7196004,-0.92297536,10.752429,2.920172,11.211867,-25.230648,63.910534,3.6887116,4.3404074,19.041842,-4.4885197,-6.039263,25.687977,69.958,-10.774916,-0.615873,-8.978864
10,-2.3133656978607178,-0.11843360215425491,77.88949584960938,-0.09219687515036423,-3.768994682004151,2.8589329874519898,10.058641,5.086163,9.976532,7.197132,-15.398505,-5.5126452,10.46494,-5.084217,-19.72188,6.915076,-10.584443,6.128462,-2.7358983,-0.9199859,10.7441845,2.925587,11.20985,-25.222988,63.915676,3.7475631,4.351457,19.03553,-4.484011,-6.0367303,25.684542,69.94979,-10.780012,-0.6359191,-8.926689
11,-2.309392213821411,-0.1193247139453888,77.8891830444336,-0.0945963091858838,-3.7623188322904375,2.86774145343826,10.05098,5.090996,9.9694805,7.1975017,-15.398412,-5.5208316,10.460833,-5.0799956,-19.727129,6.9156203,-10.584566,6.11276,-2.7488668,-0.91883266,10.73032,2.9305623,11.206328,-25.207455,63.921955,3.801348,4.358197,19.02372,-4.4754853,-6.0318813,25.668253,69.93986,-10.800433,-0.6584389,-8.874753
12,-2.305250406265259,-0.11798876523971558,77.88866424560547,-0.09632674275130884,-3.7576601298638335,2.8609727561588634,10.051794,5.0960183,9.975325,7.197103,-15.401676,-5.525719,10.457965,-5.07497,-19.719112,6.91601,-10.587415,6.1002827,-2.7424288,-0.91746706,10.715658,2.9377298,11.202611,-25.196768,63.922485,3.821343,4.3704815,19.002459,-4.4662166,-6.0265093,25.653542,69.93131,-10.820001,-0.6741061,-8.832901
13,-2.3004255294799805,-0.11779065430164337,77.88898468017578,-0.09702193067662472,-3.7549679245206247,2.829294205705994,10.064375,5.101706,10.000969,7.198224,-15.412406,-5.524776,10.455429,-5.068321,-19.690552,6.9167686,-10.594538,6.0909376,-2.7090776,-0.91544306,10.697085,2.951335,11.199106,-25.186663,63.915268,3.8024707,4.3952246,18.962618,-4.452289,-6.0213323,25.64178,69.92244,-10.845192,-0.6802545,-8.799354
14,-2.296515464782715,-0.11626320332288742,77.88928985595703,-0.09722456079221524,-3.751645663003823,2.7817467245449476,10.083145,5.10806,10.038914,7.1985307,-15.426308,-5.520248,10.451307,-5.0602584,-19.648975,6.9176764,-10.604659,6.082433,-2.658662,-0.9136568,10.674008,2.9706514,11.19626,-25.1764,63.900787,3.7542965,4.425593,18.909367,-4.4336333,-6.0170555,25.633091,69.9112,-10.873222,-0.68187755,-8.771503
15,-2.277437210083008,-0.12606142461299896,77.8877944946289,-0.09658707396783149,-3.7483726494142893,2.7315840554800497,10.103127,5.113813,10.080234,7.1986938,-15.440876,-5.5159516,10.446684,-5.0528607,-19.60453,6.918556,-10.614854,6.076732,-2.6068425,-0.9115446,10.647569,2.9970765,11.193079,-25.16437,63.878002,3.6930144,4.4540405,18.856945,-4.409573,-6.011779,25.623768,69.897545,-10.905414,-0.68075925,-8.752254
16,-2.2596261501312256,-0.1307850033044815,77.88616180419922,-0.09616028349368996,-3.746956548590069,2.6971431812149933,10.119277,5.1183896,10.110798,7.1990633,-15.452438,-5.515793,10.445188,-5.0476775,-19.572357,6.9199834,-10.623957,6.0761466,-2.573148,-0.9109506,10.627024,3.0150378,11.188738,-25.152594,63.86436,3.6293058,4.4624386,18.824001,-4.3975616,-6.003975,25.616018,69.89508,-10.928776,-0.6830212,-8.74482
17,-2.250640392303467,-0.13067951798439026,77.88465881347656,-0.09531789645444513,-3.748515278666768,2.683310796779078,10.130764,5.1211243,10.128385,7.1995134,-15.459977,-5.521789,10.448981,-5.0454655,-19.55558,6.9200387,-10.630517,6.0836024,-2.5624223,-0.9106209,10.615157,3.02166,11.186274,-25.147354,63.858658,3.554245,4.445388,18.81785,-4.3961616,-5.9994454,25.611942,69.89985,-10.935209,-0.6919503,-8.753131
18,-2.2479255199432373,-0.12901416420936584,77.8834228515625,-0.09410265025608971,-3.752229413659067,2.6804376852901903,10.140845,5.1226096,10.13986,7.199127,-15.464749,-5.5315948,10.456003,-5.0452433,-19.546434,6.9195485,-10.635719,6.097136,-2.5658433,-0.9094562,10.6073475,3.02483,11.185039,-25.144869,63.85648,3.4637265,4.4090033,18.828058,-4.402163,-5.997186,25.608807,69.91354,-10.935514,-0.70646805,-8.774338
19,-2.246701240539551,-0.12840092182159424,77.88249206542969,-0.09314699232702463,-3.756146044921503,2.6834314330164206,10.149006,5.123956,10.14649,7.198646,-15.46827,-5.5423846,10.46406,-5.0455284,-19.54308,6.9190407,-10.64062,6.111469,-2.573953,-0.9078961,10.602149,3.0252504,11.182866,-25.1443,63.854187,3.375033,4.366235,18.843325,-4.4129205,-5.9931755,25.605366,69.92909,-10.933119,-0.71797895,-8.798864
20,-2.2414050102233887,-0.12887781858444214,77.88215637207031,-0.09352056516250812,-3.7574635906728213,2.6861830498597588,10.154402,5.1261344,10.150557,7.198292,-15.470825,-5.5513425,10.469455,-5.0450773,-19.542273,6.9184785,-10.644384,6.1213064,-2.5791588,-0.90581226,10.594602,3.0247996,11.181805,-25.143723,63.85051,3.3032491,4.3287573,18.850798,-4.419865,-5.9913607,25.60316,69.93828,-10.936222,-0.7201511,-8.81727
21,-2.2363131046295166,-0.12837012112140656,77.88188171386719,-0.09597929977793844,-3.7548212600919713,2.6892585392628408,10.1548815,5.130196,10.150385,7.1982727,-15.471836,-5.5582266,10.471307,-5.0429697,-19.546377,6.917991,-10.647514,6.1242275,-2.5817647,-0.9011413,10.583319,3.0258138,11.17844,-25.140717,63.84288,3.2504227,4.2992682,18.846832,-4.430401,-5.98598,25.598038,69.948944,-10.950691,-0.7087138,-8.828295
22,-2.2317097187042236,-0.13041533529758453,77.88046264648438,-0.09996823933094307,-3.749434186388147,2.694965773901272,10.152135,5.1350946,10.145964,7.197081,-15.470642,-5.564331,10.470942,-5.0401826,-19.555464,6.9172297,-10.649537,6.1233635,-2.5850263,-0.8959541,10.570611,3.0266235,11.176404,-25.135664,63.83155,3.210153,4.272534,18.83735,-4.436438,-5.9833627,25.594831,69.9505,-10.968973,-0.68708277,-8.836444
23,-2.2289252281188965,-0.1323157548904419,77.8804931640625,-0.10345129564707413,-3.744765734670482,2.7002640024101394,10.1492,5.139568,10.140744,7.197424,-15.4704,-5.5692563,10.470969,-5.037888,-19.564945,6.917393,-10.6520605,6.121809,-2.5891373,-0.8909069,10.559121,3.027435,11.174311,-25.129784,63.820675,3.1831486,4.244093,18.827183,-4.4443784,-5.9812536,25.592323,69.952835,-10.9902935,-0.6641499,-8.840856
24,-2.226949691772461,-0.13169993460178375,77.87879943847656,-0.10508073705371285,-3.744230739827086,2.7020668278914366,10.151924,5.14219,10.138699,7.1979575,-15.472953,-5.572514,10.474088,-5.037016,-19.569332,6.9180746,-10.65506,6.122561,-2.591008,-0.8888298,10.550352,3.0261633,11.173948,-25.128843,63.81373,3.1692731,4.2142057,18.822031,-4.4490995,-5.980981,25.5917,69.95396,-11.009006,-0.6493982,-8.841524
25,-2.2198164463043213,-0.13213452696800232,77.87798309326172,-0.10404240210367421,-3.7504162211001004,2.698879279064438,10.163407,5.142662,10.142013,7.198064,-15.479342,-5.574603,10.484077,-5.0372453,-19.56721,6.9177537,-10.659007,6.1272426,-2.5944731,-0.8874204,10.547009,3.0248804,11.1734085,-25.131584,63.81865,3.1692426,4.1664424,18.82337,-4.4568086,-5.980558,25.591381,69.95765,-11.034221,-0.6391579,-8.836268
26,-2.21909761428833,-0.1324409395456314,77.87612915039062,-0.10091754860137438,-3.7610926491802554,2.6922509695959294,10.180809,5.1411767,10.148696,7.198295,-15.48872,-5.575487,10.498399,-5.038836,-19.560928,6.9177375,-10.664231,6.133997,-2.59336,-0.88909346,10.545803,3.0196183,11.17297,-25.144083,63.831196,3.1833305,4.115648,18.830927,-4.4636,-5.980228,25.591646,69.96327,-11.05758,-0.6346798,-8.826772
27,-2.2114617824554443,-0.1327161192893982,77.87583923339844,-0.09738829629337904,-3.772224194573432,2.6847966859893653,10.198964,5.138743,10.154811,7.1979775,-15.49733,-5.574194,10.51275,-5.040607,-19.553087,6.9172807,-10.668387,6.1404495,-2.5813298,-0.89046717,10.54315,3.0055537,11.1728325,-25.173395,63.85228,3.1963224,4.065599,18.840553,-4.461167,-5.980054,25.583614,69.96404,-11.079857,-0.63324004,-8.817302
28,-2.2093074321746826,-0.13277828693389893,77.87427520751953,-0.09420423180993569,-3.7798191106665513,2.679756006919672,10.21236,5.1349225,10.156007,7.1986904,-15.503672,-5.569587,10.523201,-5.0427456,-19.54727,6.918072,-10.672087,6.1444526,-2.5800936,-0.89192545,10.541479,3.0008523,11.17329,-25.180786,63.854397,3.2184355,4.0259256,18.84354,-4.463518,-5.980284,25.58105,69.96667,-11.10205,-0.63309026,-8.810219
29,-2.2032930850982666,-0.13443292677402496,77.87525939941406,-0.09114185888163363,-3.782748628025541,2.6774979849065015,10.2201605,5.1282725,10.148657,7.1989737,-15.504605,-5.5587454,10.528992,-5.0450788,-19.543255,6.9181476,-10.672597,6.145129,-2.5763748,-0.89287037,10.5379925,2.9931052,11.174187,-25.184275,63.849487,3.2402022,3.9971182,18.840761,-4.460765,-5.9804354,25.574377,69.964325,-11.125073,-0.63590246,-8.807139
30,-2.202092409133911,-0.1347399204969406,77.87599182128906,-0.08796659449479637,-3.782624224638736,2.6768755080336235,10.224536,5.11925,10.13556,7.198506,-15.501685,-5.5431447,10.531843,-5.047702,-19.54003,6.9177804,-10.671189,6.1436915,-2.5737295,-0.8941532,10.535251,2.986908,11.176558,-25.178864,63.832996,3.2699256,3.9778862,18.833405,-4.4567933,-5.9803543,25.562836,69.959496,-11.153094,-0.6415386,-8.805609
31,-2.1985902786254883,-0.13518817722797394,77.87512969970703,-0.08504366321902622,-3.7820049915642233,2.676942764800055,10.227199,5.110943,10.12361,7.19993,-15.499887,-5.5282025,10.533678,-5.050484,-19.537691,6.918775,-10.670791,6.1411967,-2.57448,-0.8946089,10.531894,2.9843974,11.178478,-25.170246,63.812534,3.2991514,3.9604926,18.824434,-4.453869,-5.9800487,25.555094,69.9579,-11.173731,-0.64747363,-8.805441
32,-2.195518732070923,-0.1345931887626648,77.87395477294922,-0.08352217350803257,-3.783069965271048,2.67683160338622,10.231774,5.106978,10.119997,7.200567,-15.501043,-5.519276,10.537896,-5.0519695,-19.536459,6.9190793,-10.672278,6.138563,-2.577054,-0.89288753,10.529235,2.9841826,11.179468,-25.164757,63.794525,3.3213322,3.9381225,18.81479,-4.451148,-5.979759,25.549229,69.96006,-11.180416,-0.6515922,-8.804639
33,-2.1904518604278564,-0.13451345264911652,77.87329864501953,-0.08354045125329163,-3.7863791874244015,2.67673645468012,10.23861,5.108735,10.129078,7.200668,-15.507087,-5.517873,10.5454035,-5.052177,-19.53778,6.9191732,-10.677246,6.134852,-2.5812337,-0.88911545,10.527929,2.9884508,11.181352,-25.158524,63.776115,3.338998,3.909302,18.79456,-4.448563,-5.9791193,25.53833,69.96802,-11.171702,-0.6511354,-8.802945
34,-2.181377649307251,-0.13478770852088928,77.87310028076172,-0.08467185577981716,-3.791248838513362,2.676713760907814,10.247012,5.1141844,10.146536,7.2008505,-15.516688,-5.5210366,10.554609,-5.051919,-19.54069,6.919707,-10.684456,6.1300144,-2.585262,-0.88187534,10.528932,2.9985847,11.182804,-25.152983,63.751465,3.3558643,3.8766584,18.765089,-4.446416,-5.9783874,25.520618,69.97996,-11.154883,-0.64868706,-8.8000965
35,-2.179992437362671,-0.13433118164539337,77.87024688720703,-0.08621774368297443,-3.796235365409847,2.6766398174386232,10.255589,5.121003,10.165295,7.200329,-15.525992,-5.52777,10.564154,-5.050845,-19.543247,6.9191046,-10.691224,6.1262035,-2.5898244,-0.87453175,10.530316,3.006567,11.183676,-25.151314,63.73282,3.3667092,3.8430758,18.748167,-4.44382,-5.977746,25.506138,69.991905,-11.132668,-0.6483004,-8.796679
36,-2.1805036067962646,-0.13472910225391388,77.87039947509766,-0.08752191643448562,-3.8004324913369305,2.676189467066962,10.263216,5.126604,10.178374,7.2014446,-15.5335245,-5.5368495,10.571923,-5.049615,-19.54309,6.919922,-10.697194,6.1256547,-2.5880153,-0.8693916,10.533939,3.0095716,11.185376,-25.155968,63.72338,3.376183,3.8087182,18.761683,-4.4427214,-5.9760942,25.484674,70.00116,-11.119346,-0.65564495,-8.789874
37,-2.1781911849975586,-0.13666164875030518,77.8690414428711,-0.08889645507225312,-3.8034604626602744,2.674902219902575,10.270745,5.131211,10.184417,7.2007613,-15.535467,-5.551808,10.577414,-5.046941,-19.538155,6.9203696,-10.700565,6.129342,-2.5875092,-0.8677736,10.53941,3.003958,11.186099,-25.167002,63.73274,3.3888588,3.7719488,18.830357,-4.441173,-5.974654,25.47716,70.003044,-11.108823,-0.6768341,-8.78027
38,-2.174138307571411,-0.13729017972946167,77.86866760253906,-0.09042536556447164,-3.8060673262990843,2.673212052376086,10.277984,5.135826,10.186841,7.200233,-15.535101,-5.5719843,10.582734,-5.0430026,-19.53022,6.919994,-10.702665,6.135968,-2.5865521,-0.8688144,10.545688,2.992504,11.186072,-25.184717,63.757328,3.4021015,3.7317774,18.938496,-4.439622,-5.9732676,25.476742,70.00245,-11.097611,-0.7075217,-8.768751
39,-2.170513153076172,-0.13752105832099915,77.8677749633789,-0.09165732219612395,-3.8075172761403713,2.671507848629122,10.284021,5.139265,10.186663,7.199738,-15.534151,-5.589995,10.5860615,-5.0399017,-19.522654,6.920298,-10.704319,6.1442366,-2.5879126,-0.8670528,10.549997,2.9844718,11.185858,-25.193476,63.775623,3.404498,3.6994052,19.03195,-4.4381337,-5.972705,25.478983,69.99973,-11.089444,-0.7321674,-8.758268
40,-2.1666810512542725,-0.1374465376138687,77.8672103881836,-0.09149692434511854,-3.8103626741859276,2.6694419659615516,10.291172,5.1403475,10.185766,7.1989617,-15.534858,-5.598774,10.59166,-5.0387363,-19.518135,6.919693,-10.706815,6.1528025,-2.5807624,-0.8711589,10.55373,2.9683352,11.183994,-25.220272,63.805447,3.3576035,3.664386,19.104855,-4.4303365,-5.970745,25.485252,69.99351,-11.07151,-0.74706525,-8.751227
41,-2.163518190383911,-0.13704968988895416,77.8653335571289,-0.08891726519646206,-3.8123447637055397,2.667619397817426,10.295591,5.136629,10.181838,7.1985683,-15.537638,-5.593155,10.597311,-5.041639,-19.519327,6.918385,-10.710457,6.1632032,-2.568047,-0.86862624,10.547921,2.9616153,11.180495,-25.246656,63.812786,3.2452946,3.6491644,19.10151,-4.4204144,-5.9679065,25.484583,69.99281,-11.057352,-0.7348069,-8.752835
42,-2.164419174194336,-0.13509903848171234,77.86550903320312,-0.08505463150078897,-3.8143648657993574,2.6658312792570866,10.298956,5.130412,10.174861,7.1994004,-15.542306,-5.5780654,10.60232,-5.047184,-19.52401,6.9190464,-10.716028,6.175519,-2.5597456,-0.8648126,10.545064,2.965088,11.177736,-25.254469,63.79909,3.0971925,3.6430638,19.053389,-4.415053,-5.965822,25.481775,69.99096,-11.049926,-0.70788354,-8.754993
43,-2.1589620113372803,-0.13698619604110718,77.86582946777344,-0.08090012532741847,-3.815445709731244,2.6639161216204825,10.3011055,5.123625,10.169053,7.2002687,-15.547075,-5.5610585,10.606958,-5.052821,-19.529024,6.918521,-10.720978,6.186245,-2.548805,-0.86387795,10.542841,2.9691446,11.176202,-25.255444,63.783962,2.9695249,3.639689,18.998137,-4.410535,-5.9647293,25.479967,69.98917,-11.041182,-0.68148357,-8.7571335
44,-2.1550562381744385,-0.13818365335464478,77.86636352539062,-0.0783409795645223,-3.816100639361415,2.662968558112699,10.303984,5.119586,10.167067,7.200507,-15.550969,-5.5495906,10.610573,-5.0565686,-19.532442,6.91883,-10.725285,6.192254,-2.5427263,-0.85786825,10.539178,2.9719553,11.173662,-25.260292,63.771923,2.8809445,3.6379745,18.951622,-4.407012,-5.9627743,25.479263,69.98611,-11.037779,-0.6538837,-8.759182
45,-2.157090902328491,-0.1395338624715805,77.86643981933594,-0.07757736532107669,-3.815304018444009,2.662638609826105,10.3063755,5.1187887,10.171719,7.2008343,-15.554251,-5.5447173,10.611744,-5.058093,-19.53218,6.918634,-10.726995,6.192089,-2.5322661,-0.85582525,10.537049,2.9687128,11.16905,-25.267076,63.77195,2.8968987,3.6346872,18.937202,-4.405327,-5.959588,25.480772,69.9842,-11.031853,-0.6411318,-8.759778
46,-2.1549971103668213,-0.1379871517419815,77.86541748046875,-0.07800011918336297,-3.813161041049483,2.6627233029241872,10.307881,5.1201587,10.180599,7.201202,-15.557059,-5.542767,10.611369,-5.057814,-19.53023,6.918848,-10.728239,6.1875863,-2.52208,-0.85466164,10.536618,2.9614708,11.166315,-25.269806,63.777023,2.9732754,3.6312203,18.930716,-4.403395,-5.95785,25.482954,69.97821,-11.027221,-0.63394475,-8.757884
47,-2.151918888092041,-0.1335584819316864,77.86515045166016,-0.0789979523868963,-3.810791491581865,2.662882735861081,10.309171,5.1225367,10.19068,7.2013564,-15.558888,-5.544262,10.610484,-5.056861,-19.528008,6.9194613,-10.729524,6.180375,-2.5108578,-0.8542914,10.53589,2.9515836,11.161912,-25.269688,63.787563,3.067173,3.627714,18.929907,-4.399988,-5.9555855,25.48753,69.97022,-11.021681,-0.6268854,-8.757242
48,-2.146361827850342,-0.13764578104019165,77.86541748046875,-0.0800772559964706,-3.8085539478775656,2.6632341965110586,10.310559,5.1247797,10.198469,7.200627,-15.558917,-5.5495,10.60979,-5.05564,-19.52775,6.920117,-10.73172,6.1721306,-2.5020366,-0.8522624,10.534142,2.9458063,11.1583805,-25.266966,63.7949,3.1287508,3.622305,18.929317,-4.397425,-5.9540844,25.492666,69.964005,-11.017864,-0.6178445,-8.756285
49,-2.146691083908081,-0.13754215836524963,77.86468505859375,-0.08187771311941444,-3.8060829770032663,2.663360257581483,10.31058,5.1278486,10.203778,7.200631,-15.55672,-5.5624075,10.609636,-5.053253,-19.530457,6.920489,-10.735871,6.1609907,-2.4947102,-0.84677476,10.5298195,2.9488056,11.154557,-25.259972,63.79407,3.1468198,3.616867,18.930939,-4.3961005,-5.9526854,25.49993,69.9619,-11.015782,-0.6031786,-8.757945
50,-2.1424901485443115,-0.13898055255413055,77.86299896240234,-0.08443704807603365,-3.803241821119142,2.6635790603871423,10.310093,5.131784,10.208067,7.1992087,-15.551326,-5.581534,10.6102295,-5.0495067,-19.535305,6.920405,-10.741399,6.1468906,-2.4928029,-0.83915,10.522839,2.958538,11.149788,-25.245071,63.789894,3.146944,3.6107955,18.936096,-4.398781,-5.95109,25.515408,69.96558,-11.012098,-0.5854825,-8.761491
51,-2.138270139694214,-0.1397409439086914,77.86133575439453,-0.0866462780735181,-3.8011911729221346,2.6642958089954045,10.3098,5.1352863,10.210706,7.198711,-15.546684,-5.599213,10.610433,-5.0463896,-19.540016,6.921761,-10.746994,6.1337185,-2.485706,-0.8319983,10.517862,2.9640632,11.148164,-25.238644,63.78817,3.1344988,3.603511,18.941607,-4.3982453,-5.9505725,25.520628,69.966064,-11.012013,-0.57106435,-8.762939
52,-2.136049747467041,-0.13926489651203156,77.86139678955078,-0.08704708311098831,-3.800592365131105,2.6659417898916637,10.310723,5.1366873,10.211033,7.1987047,-15.544805,-5.607788,10.612505,-5.0449324,-19.542732,6.921869,-10.750012,6.125317,-2.4864948,-0.8271144,10.514316,2.9722729,11.146702,-25.230846,63.788494,3.1236343,3.5928376,18.94667,-4.399376,-5.950157,25.524824,69.96811,-11.014657,-0.5621709,-8.760709
53,-2.1350033283233643,-0.1398428976535797,77.86212921142578,-0.08416826736475456,-3.80326480694691,2.6683824987033504,10.315641,5.1342783,10.209463,7.197868,-15.546039,-5.6020513,10.618078,-5.046424,-19.541908,6.9206614,-10.749131,6.1241164,-2.4992125,-0.8255387,10.515496,2.9781132,11.1423025,-25.21782,63.798145,3.1172981,3.5761409,18.951126,-4.4030566,-5.9488077,25.524136,69.97211,-11.0231905,-0.566294,-8.751146
54,-2.1349103450775146,-0.14207878708839417,77.86180877685547,-0.07922282155800167,-3.8075495909497903,2.6712848452118867,10.321549,5.129694,10.206187,7.199072,-15.55067,-5.5871186,10.623798,-5.0500817,-19.538584,6.9215775,-10.747123,6.1274824,-2.5127673,-0.8263069,10.5184355,2.9804478,11.1417,-25.215788,63.812458,3.104293,3.5582309,18.955822,-4.404979,-5.9485993,25.519644,69.975845,-11.030826,-0.57763356,-8.739563
55,-2.131237745285034,-0.14385449886322021,77.86117553710938,-0.07429123324633437,-3.8126125742258683,2.6763134814674543,10.327231,5.124728,10.199256,7.2002273,-15.555676,-5.5707808,10.631087,-5.053981,-19.53682,6.9216876,-10.745052,6.132243,-2.525317,-0.8276172,10.523415,2.9777956,11.1398325,-25.21315,63.83481,3.0896459,3.5341961,18.958368,-4.410437,-5.9479055,25.499664,69.98313,-11.04978,-0.5929266,-8.721465
56,-2.1288793087005615,-0.14577576518058777,77.86090087890625,-0.0721241083595277,-3.8138350915527788,2.682163092153083,10.328118,5.1222606,10.189829,7.2004833,-15.559517,-5.5611467,10.634306,-5.0553217,-19.537422,6.921699,-10.744767,6.134461,-2.5260904,-0.82570636,10.525271,2.9706469,11.1371355,-25.215462,63.851242,3.0765355,3.520675,18.95546,-4.4136467,-5.9468718,25.47729,69.985344,-11.065603,-0.5967676,-8.710021
57,-2.1248395442962646,-0.14609089493751526,77.86141967773438,-0.07450183803394007,-3.8091745308390372,2.6904754213128883,10.320788,5.124139,10.174284,7.2009077,-15.562636,-5.5621896,10.631942,-5.052441,-19.542704,6.9220004,-10.748634,6.131636,-2.521002,-0.82052404,10.519702,2.9661212,11.135218,-25.217323,63.857224,3.0608761,3.5191603,18.944038,-4.4152727,-5.946411,25.469807,69.982956,-11.072042,-0.5835992,-8.707461
58,-2.1218020915985107,-0.14631415903568268,77.86101531982422,-0.07975777811997121,-3.801441719757556,2.7004417338600466,10.308883,5.1284986,10.154327,7.2006855,-15.565438,-5.569164,10.626541,-5.046965,-19.550518,6.9222164,-10.754774,6.1262445,-2.512216,-0.81417286,10.510508,2.962452,11.134613,-25.217707,63.858166,3.0446398,3.5239491,18.927448,-4.4168983,-5.9464164,25.468912,69.9791,-11.075053,-0.56219256,-8.70898
59,-2.1181552410125732,-0.1480872631072998,77.85968017578125,-0.08467295854869576,-3.7929965188938657,2.7105758317698023,10.295986,5.13252,10.13482,7.201166,-15.567624,-5.576303,10.620846,-5.042021,-19.559135,6.922077,-10.760457,6.122289,-2.5045345,-0.8074735,10.500442,2.9591968,11.133113,-25.217749,63.856834,3.0281243,3.529361,18.910206,-4.4183145,-5.94674,25.470213,69.973976,-11.076037,-0.53861237,-8.711991
60,-2.123918294906616,-0.1457727998495102,77.85811614990234,-0.08612587126589821,-3.788558432690207,2.718223096171304,10.288599,5.133519,10.122278,7.201341,-15.568142,-5.5782394,10.618713,-5.040448,-19.565714,6.921676,-10.763183,6.1237817,-2.5023143,-0.8036525,10.492724,2.958254,11.131834,-25.217068,63.85813,3.0151987,3.5272956,18.901907,-4.4194245,-5.947212,25.47288,69.97195,-11.074769,-0.5238213,-8.714208
61,-2.121305465698242,-0.1483658403158188,77.85888671875,-0.08127298696952293,-3.7923120016830736,2.7204820244647903,10.292532,5.128485,10.121908,7.2015,-15.567073,-5.5704265,10.624324,-5.0454984,-19.566988,6.921747,-10.761184,6.1351547,-2.5062382,-0.806596,10.493225,2.9634633,11.131025,-25.215666,63.860626,3.0113692,3.5117745,18.912132,-4.419497,-5.9474244,25.471884,69.97642,-11.075982,-0.529746,-8.713364
62,-2.1210687160491943,-0.15460993349552155,77.86174774169922,-0.07249532839762013,-3.8013114404886417,2.720086936958665,10.304384,5.119438,10.128581,7.201393,-15.565259,-5.5566626,10.636054,-5.0546646,-19.56596,6.9207435,-10.756025,6.15327,-2.514079,-0.81284505,10.498762,2.9758387,11.1295805,-25.213428,63.861683,3.014618,3.485405,18.934961,-4.4216933,-5.9472475,25.464842,69.988716,-11.081572,-0.54904854,-8.7097645
63,-2.1186881065368652,-0.1552349030971527,77.86233520507812,-0.06359840035422083,-3.810766002752038,2.718946117733148,10.316306,5.110828,10.137003,7.2013516,-15.561962,-5.544439,10.647451,-5.0636683,-19.56494,6.920144,-10.751036,6.1704955,-2.5190303,-0.81853503,10.505806,2.986636,11.127924,-25.211771,63.86118,3.019813,3.4601514,18.95685,-4.426172,-5.946095,25.451357,70.00334,-11.088463,-0.57053536,-8.705825
64,-2.117938280105591,-0.15636663138866425,77.86273193359375,-0.05822570429264044,-3.815594427632879,2.7194764194871572,10.322471,5.1064734,10.141491,7.2014985,-15.558158,-5.5410566,10.654077,-5.0687256,-19.56661,6.9202557,-10.750077,6.1793876,-2.5214021,-0.8220947,10.508493,2.9911153,11.127475,-25.210236,63.860966,3.0168989,3.443714,18.966196,-4.4258943,-5.945537,25.444931,70.007034,-11.08755,-0.58251315,-8.704699
65,-2.118602991104126,-0.15627260506153107,77.86174774169922,-0.05783823918864662,-3.8160684663957025,2.7225900311602076,10.322927,5.108352,10.140277,7.201027,-15.55286,-5.5510626,10.656897,-5.0674624,-19.572844,6.9200425,-10.755096,6.1769776,-2.5190547,-0.8208131,10.508129,2.9932463,11.127127,-25.206697,63.854362,3.0067616,3.437678,18.958645,-4.425161,-5.9448915,25.437723,70.00341,-11.082024,-0.5857577,-8.704581
66,-2.1192538738250732,-0.1545141637325287,77.86079406738281,-0.06039102576326869,-3.8138638947587826,2.727026412446271,10.320215,5.113875,10.136431,7.199767,-15.545919,-5.5695767,10.657104,-5.062594,-19.581806,6.919696,-10.763652,6.1675825,-2.5128596,-0.816316,10.507286,2.9922428,11.127042,-25.199593,63.842224,2.9949615,3.4395201,18.937613,-4.423987,-5.9442782,25.427137,69.99319,-11.075201,-0.5829653,-8.70518
67,-2.1191964149475098,-0.16042764484882355,77.86040496826172,-0.06409901183141453,-3.809577641357362,2.7319804308792914,10.314333,5.1209025,10.131299,7.198832,-15.538687,-5.5901113,10.653954,-5.0566716,-19.591469,6.9208856,-10.77301,6.1546965,-2.5053189,-0.81117326,10.508217,2.9867895,11.127496,-25.1862,63.83068,2.9883106,3.442601,18.91311,-4.4228735,-5.943421,25.40966,69.9786,-11.075288,-0.57806104,-8.704763
68,-2.1168243885040283,-0.16297315061092377,77.8610610961914,-0.06734808456455457,-3.803299408131814,2.7369895565584907,10.305983,5.126476,10.126002,7.198565,-15.532175,-5.606028,10.648846,-5.051437,-19.600498,6.9206343,-10.777872,6.141771,-2.5027947,-0.80574524,10.503632,2.98557,11.127773,-25.181152,63.825832,2.9750767,3.4389567,18.900972,-4.421087,-5.9431334,25.403975,69.970825,-11.073108,-0.57546026,-8.706552
69,-2.115269660949707,-0.16673578321933746,77.86163330078125,-0.07044069293846916,-3.7932184488016416,2.742656207401869,10.292513,5.131248,10.119801,7.198003,-15.524457,-5.6167426,10.6382,-5.0469327,-19.609413,6.9211836,-10.777596,6.1276364,-2.5050507,-0.7995614,10.496457,2.9851744,11.128007,-25.177298,63.830257,2.9671993,3.425297,18.90328,-4.420318,-5.942936,25.399185,69.96857,-11.080722,-0.5772226,-8.709931
70,-2.115913152694702,-0.16817507147789001,77.8613510131836,-0.07411018480060329,-3.779954540281488,2.749051082512268,10.275076,5.1359253,10.112411,7.198036,-15.516869,-5.6253114,10.623203,-5.042279,-19.618765,6.9214396,-10.77351,6.1112275,-2.5102103,-0.7921501,10.485456,2.9860783,11.127926,-25.17638,63.84121,2.9597805,3.4059794,18.915117,-4.4203577,-5.942777,25.396593,69.9714,-11.093086,-0.58088744,-8.715511
71,-2.11732816696167,-0.17050832509994507,77.8605728149414,-0.07713069282271745,-3.7672616607037903,2.7547991481756777,10.258608,5.1396217,10.105791,7.197738,-15.510623,-5.6308837,10.608556,-5.0381947,-19.626638,6.9219704,-10.768799,6.095881,-2.5155602,-0.78529644,10.474029,2.987096,11.127429,-25.177835,63.853474,2.94805,3.3855155,18.928444,-4.4204006,-5.942893,25.39672,69.976456,-11.104884,-0.5838639,-8.719514
72,-2.118814468383789,-0.16756193339824677,77.86070251464844,-0.07838767408616601,-3.7593304700527947,2.7585231659197387,10.248157,5.141471,10.10185,7.197506,-15.508538,-5.632517,10.599614,-5.0357738,-19.630932,6.9218583,-10.76562,6.085171,-2.518066,-0.7805634,10.46718,2.9884531,11.126788,-25.17808,63.859028,2.929418,3.3686898,18.93509,-4.418475,-5.942985,25.395975,69.97787,-11.112747,-0.5834552,-8.717409
73,-2.1165647506713867,-0.1705789864063263,77.86392211914062,-0.07679124537064722,-3.7584628083393796,2.759404502094639,10.246761,5.1401854,10.102098,7.197712,-15.513445,-5.628046,10.597766,-5.0364656,-19.629143,6.922047,-10.763986,6.08081,-2.516485,-0.77968186,10.466129,2.9902015,11.125935,-25.175838,63.856236,2.897026,3.3551102,18.9319,-4.4152026,-5.9430547,25.392878,69.976326,-11.116546,-0.5776361,-8.705357
74,-2.116952657699585,-0.17349128425121307,77.86468505859375,-0.07359482087287403,-3.7619788532758816,2.7582779581028585,10.251629,5.136749,10.105347,7.19817,-15.523822,-5.618563,10.600792,-5.0388875,-19.623045,6.9227104,-10.763765,6.080578,-2.5124698,-0.7808109,10.469401,2.9925811,11.125335,-25.17208,63.84728,2.855545,3.342988,18.923035,-4.410388,-5.942975,25.388487,69.9718,-11.118938,-0.5682933,-8.685924
75,-2.1184191703796387,-0.17239990830421448,77.8661880493164,-0.0697406552299815,-3.7664753515888707,2.756525420393607,10.25689,5.1330004,10.108736,7.19937,-15.534592,-5.6081486,10.605292,-5.0416484,-19.616997,6.922373,-10.763926,6.082407,-2.5077462,-0.78333414,10.474103,2.9936788,11.124528,-25.167593,63.83792,2.8176892,3.3337214,18.912153,-4.406727,-5.9428697,25.383125,69.96883,-11.120809,-0.5589235,-8.666273
76,-2.120234251022339,-0.17428766191005707,77.865234375,-0.06703062547914214,-3.768119426599262,2.755650078836983,10.25829,5.130852,10.109603,7.199061,-15.539601,-5.6007504,10.606783,-5.0429482,-19.615051,6.922442,-10.765352,6.0840473,-2.5036988,-0.784996,10.478761,2.990817,11.123156,-25.16291,63.83259,2.798007,3.3286214,18.902077,-4.4045477,-5.9425907,25.37532,69.967705,-11.125602,-0.55327797,-8.652209
77,-2.118415355682373,-0.17992714047431946,77.86609649658203,-0.0662570150683373,-3.7654066546005667,2.756064737399658,10.252249,5.1319203,10.106942,7.199609,-15.53788,-5.599188,10.603594,-5.041905,-19.619953,6.9228687,-10.7696495,6.0851865,-2.5015054,-0.785445,10.479858,2.9864545,11.122687,-25.163548,63.831493,2.798094,3.3299985,18.89609,-4.403422,-5.942427,25.374464,69.97108,-11.126916,-0.551244,-8.649819
78,-2.119508743286133,-0.18340511620044708,77.86649322509766,-0.06667301645812451,-3.7600183199042636,2.757223688942161,10.241879,5.134946,10.102044,7.199398,-15.531026,-5.6007648,10.598458,-5.0391026,-19.629429,6.922402,-10.775842,6.0868645,-2.4985523,-0.7856085,10.479211,2.9746852,11.121593,-25.168781,63.83836,2.8105528,3.3363113,18.89056,-4.4017124,-5.9418,25.374693,69.97579,-11.127212,-0.55098516,-8.653882
79,-2.126143217086792,-0.18299411237239838,77.86357116699219,-0.06671234037817783,-3.754695874840646,2.7582291687259657,10.232052,5.137326,10.096429,7.199294,-15.524,-5.6012774,10.593129,-5.036731,-19.638561,6.9222383,-10.781267,6.089068,-2.4964838,-0.786178,10.478498,2.964291,11.120644,-25.176397,63.844772,2.8269796,3.3439956,18.885193,-4.4006066,-5.941063,25.376131,69.98215,-11.12601,-0.5539299,-8.659138
80,-2.1251955032348633,-0.18645000457763672,77.86613464355469,-0.0652720388370688,-3.752433657010868,2.7581897495844494,10.226926,5.137418,10.091628,7.1988754,-15.520281,-5.596768,10.589752,-5.0361676,-19.642826,6.9220176,-10.782634,6.091648,-2.4983456,-0.78836125,10.480244,2.959965,11.1204815,-25.179564,63.845436,2.8397238,3.3482864,18.877481,-4.4003897,-5.940911,25.37707,69.9868,-11.125326,-0.5603657,-8.658575
81,-2.1267409324645996,-0.1897745281457901,77.86599731445312,-0.060726559574575144,-3.753704003329225,2.757692046811951,10.2271185,5.132818,10.085826,7.199669,-15.522678,-5.5816045,10.58959,-5.0387993,-19.641117,6.921155,-10.778077,6.096277,-2.5008373,-0.7928681,10.483285,2.9536288,11.119816,-25.189247,63.84698,2.8429976,3.349788,18.864145,-4.4002504,-5.940292,25.376251,69.99405,-11.119296,-0.5803748,-8.65118
82,-2.127838611602783,-0.19199685752391815,77.86674499511719,-0.054089979224062626,-3.7580215561397505,2.7561907908272354,10.231767,5.1251,10.079747,7.2009974,-15.52876,-5.559509,10.591061,-5.044008,-19.634811,6.921628,-10.770373,6.1025343,-2.5069263,-0.79927105,10.488984,2.9534662,11.119262,-25.195856,63.842705,2.845517,3.3490477,18.848833,-4.4001107,-5.939851,25.372929,70.00027,-11.114283,-0.6074222,-8.639152
83,-2.128174066543579,-0.19280950725078583,77.86809539794922,-0.048479010818314704,-3.7617010942738833,2.754462391127085,10.236736,5.1185355,10.075137,7.2012353,-15.534147,-5.540186,10.591547,-5.0482206,-19.627584,6.921934,-10.761584,6.1067615,-2.514112,-0.8053556,10.494624,2.9532235,11.119071,-25.200277,63.839027,2.848398,3.347909,18.833912,-4.401105,-5.939734,25.371582,70.00364,-11.110861,-0.6274636,-8.627115
84,-2.1297576427459717,-0.19301840662956238,77.86917877197266,-0.046070683868358546,-3.762934503173006,2.7538729188712794,10.237878,5.1168036,10.072697,7.2013216,-15.535596,-5.533093,10.590427,-5.0490727,-19.623192,6.921997,-10.755183,6.1057796,-2.5165436,-0.80761665,10.497877,2.9475367,11.118675,-25.217299,63.841633,2.8451974,3.3481982,18.82088,-4.405783,-5.9395623,25.371895,70.01023,-11.107769,-0.6352276,-8.61604
85,-2.1314291954040527,-0.19494232535362244,77.86892700195312,-0.049107275716277425,-3.7596150690312418,2.754186123489943,10.232394,5.1234374,10.074494,7.201723,-15.531151,-5.545536,10.585081,-5.0442057,-19.622595,6.9223723,-10.752038,6.0956483,-2.5124428,-0.8053202,10.495581,2.932088,11.118352,-25.251726,63.858284,2.8298469,3.3499823,18.816143,-4.4092593,-5.939966,25.385597,70.009346,-11.099906,-0.6101882,-8.613204
86,-2.131887912750244,-0.19975772500038147,77.86998748779297,-0.05560127384825326,-3.7535150802210584,2.7549307306354134,10.224147,5.1351233,10.079576,7.200432,-15.522333,-5.5707407,10.577725,-5.0353494,-19.623644,6.9225245,-10.750829,6.079083,-2.5076005,-0.80202186,10.488508,2.9097028,11.118245,-25.293474,63.88792,2.8053086,3.351292,18.815569,-4.407334,-5.9417353,25.41447,69.99837,-11.0857315,-0.5640121,-8.615255
87,-2.134542226791382,-0.19983097910881042,77.87008666992188,-0.06311133840411685,-3.7458181996903104,2.75584137421713,10.214095,5.1479497,10.085192,7.19872,-15.512477,-5.5978775,10.56915,-5.0253596,-19.625177,6.9215193,-10.749482,6.0624847,-2.5080283,-0.79777324,10.484595,2.8914742,11.1185,-25.319191,63.90967,2.7931387,3.3536417,18.811737,-4.414508,-5.9431515,25.439676,69.99205,-11.080031,-0.517861,-8.614311
88,-2.1370463371276855,-0.20246705412864685,77.87007904052734,-0.06828846872908531,-3.7366310464949977,2.7560938202814564,10.201894,5.1575127,10.089096,7.198161,-15.5047455,-5.616279,10.557403,-5.017875,-19.625187,6.9218006,-10.747718,6.0521045,-2.5098956,-0.7937028,10.473249,2.8801992,11.119046,-25.353933,63.92708,2.7755094,3.357302,18.807987,-4.414145,-5.9468603,25.47435,69.98778,-11.064633,-0.48908597,-8.613002
89,-2.1364402770996094,-0.20367275178432465,77.87109375,-0.07114329116133712,-3.7251192817765446,2.75574573926957,10.186408,5.162955,10.090222,7.1983933,-15.499345,-5.622046,10.54149,-5.01294,-19.623447,6.9219375,-10.744117,6.0503144,-2.5140767,-0.7914439,10.465469,2.8742397,11.119266,-25.363878,63.9311,2.782653,3.3635545,18.795788,-4.4199142,-5.9477897,25.483517,69.99288,-11.068043,-0.4875762,-8.602371
90,-2.1432788372039795,-0.20496053993701935,77.87132263183594,-0.07263073561080546,-3.710975174716849,2.7550545954195056,10.168161,5.166148,10.0899315,7.1978517,-15.4945345,-5.6212373,10.522248,-5.0090284,-19.620943,6.921609,-10.739888,6.053458,-2.518669,-0.78890294,10.452551,2.8705523,11.119736,-25.380487,63.93291,2.7879374,3.3716497,18.782738,-4.4249697,-5.949659,25.49713,70.00414,-11.0664425,-0.50077957,-8.59005
91,-2.1446585655212402,-0.20714160799980164,77.87109375,-0.07322849995507781,-3.699059770339166,2.753825061265193,10.15312,5.1679854,10.08989,7.1972876,-15.490653,-5.618011,10.505748,-5.0060368,-19.61772,6.9203897,-10.735116,6.059133,-2.5237134,-0.78784347,10.443613,2.8686972,11.119889,-25.386467,63.93211,2.8002906,3.3776042,18.768528,-4.4281845,-5.950144,25.501476,70.011765,-11.07097,-0.51781976,-8.577065
92,-2.1459665298461914,-0.20915456116199493,77.871337890625,-0.07383139813721787,-3.687405640280484,2.751966845278555,10.138208,5.1704745,10.091346,7.1978493,-15.486688,-5.6163573,10.489414,-5.0032663,-19.61388,6.920256,-10.73116,6.064318,-2.527964,-0.7859346,10.429849,2.8650036,11.120288,-25.399908,63.93636,2.8070376,3.381165,18.751831,-4.4360657,-5.9512343,25.51073,70.02856,-11.070034,-0.5364375,-8.563935
93,-2.1414272785186768,-0.21260234713554382,77.87340545654297,-0.07351083674582043,-3.683444860053389,2.749298244783031,10.1339035,5.1722,10.095369,7.1973286,-15.4827795,-5.616645,10.482531,-5.001514,-19.608564,6.919869,-10.728225,6.0710216,-2.529039,-0.78470385,10.419802,2.8594596,11.121413,-25.425686,63.94684,2.7999604,3.3797865,18.737253,-4.437386,-5.954238,25.52592,70.03625,-11.059755,-0.54894257,-8.553921
94,-2.1489944458007812,-0.21226170659065247,77.87313079833984,-0.0725643324597678,-3.68389379646248,2.745969492581401,10.13521,5.173201,10.100958,7.197109,-15.4795065,-5.6169214,10.480902,-5.000666,-19.602118,6.9196,-10.726067,6.0797195,-2.5308962,-0.7855373,10.415405,2.852757,11.122351,-25.440233,63.95829,2.800275,3.3755913,18.718618,-4.439162,-5.956574,25.533718,70.040306,-11.056358,-0.5619121,-8.541851
95,-2.147399663925171,-0.21613435447216034,77.87291717529297,-0.0715667990294829,-3.6845149290012063,2.7421321534011374,10.137189,5.1744018,10.106884,7.1971593,-15.476835,-5.617934,10.47967,-4.9998093,-19.596151,6.9191327,-10.724032,6.0863705,-2.530887,-0.7861337,10.41072,2.8445282,11.123653,-25.458836,63.97142,2.7982407,3.367023,18.70264,-4.438208,-5.959685,25.54237,70.040855,-11.050139,-0.5720012,-8.533795
96,-2.14827823638916,-0.21792753040790558,77.873779296875,-0.07169722639592131,-3.6815372961592407,2.7381168882641753,10.133817,5.177037,10.11164,7.19736,-15.473692,-5.620473,10.474343,-4.997597,-19.592785,6.918883,-10.722334,6.0869317,-2.5290294,-0.7849815,10.403729,2.839158,11.12571,-25.478477,63.979027,2.8014758,3.352863,18.692608,-4.436631,-5.9644604,25.548903,70.040596,-11.045587,-0.5764225,-8.533094
97,-2.1466310024261475,-0.22067891061306,77.87361907958984,-0.07342136611083158,-3.672156293003411,2.733611244908285,10.122774,5.1813874,10.114782,7.1970663,-15.47048,-5.625791,10.461627,-4.9936285,-19.593737,6.918814,-10.721145,6.0783463,-2.5276222,-0.78292364,10.39488,2.8378334,11.126789,-25.487667,63.97883,2.8198855,3.3274086,18.692154,-4.435602,-5.9666,25.551071,70.03747,-11.045932,-0.5690857,-8.546192
98,-2.1508283615112305,-0.2190980166196823,77.87446594238281,-0.07613637850889945,-3.6592499448376175,2.728850534741875,10.107239,5.186958,10.116823,7.1965923,-15.467195,-5.633069,10.444746,-4.988516,-19.597904,6.9183555,-10.720019,6.063496,-2.524134,-0.7790608,10.383512,2.8398492,11.128765,-25.497492,63.973385,2.8448713,3.293092,18.6984,-4.43416,-5.9698753,25.551125,70.03375,-11.046561,-0.5544268,-8.569019
99,-2.150176763534546,-0.2197088599205017,77.87410736083984,-0.0792373214209292,-3.6468534045534016,2.7238520997603657,10.092082,5.1928563,10.119059,7.19623,-15.463939,-5.640154,10.427719,-4.9833217,-19.60135,6.919811,-10.719661,6.0470476,-2.5223267,-0.7755436,10.373409,2.8401506,11.130045,-25.50447,63.96872,2.869821,3.26122,18.704552,-4.43478,-5.9714446,25.552063,70.03116,-11.0488825,-0.540793,-8.590431
100,-2.1558032035827637,-0.22181807458400726,77.87390899658203,-0.08175292112675128,-3.6386165545242646,2.7188256204575616,10.082603,5.198126,10.122821,7.1958523,-15.461254,-5.644812,10.415906,-4.9785504,-19.600666,6.9196763,-10.716807,6.033838,-2.5209591,-0.77209306,10.364575,2.8357544,11.132446,-25.51929,63.970585,2.881892,3.2416325,18.70484,-4.4368467,-5.973693,25.557331,70.03244,-11.049066,-0.537407,-8.599745
101,-2.1578521728515625,-0.22468198835849762,77.875,-0.08351836093300052,-3.6379160315092145,2.7136856301086003,10.082004,5.2024393,10.128854,7.1963964,-15.459243,-5.645375,10.412149,-4.9747367,-19.593508,6.920404,-10.712757,6.0246277,-2.52219,-0.7691375,10.360253,2.8228986,11.135945,-25.544163,63.98191,2.877635,3.2406404,18.694984,-4.443633,-5.9762554,25.570902,70.0403,-11.042054,-0.54982483,-8.591239
102,-2.1618471145629883,-0.22459831833839417,77.87711334228516,-0.08498233711267918,-3.641679410803331,2.7082368110394186,10.08787,5.206266,10.136562,7.195556,-15.456964,-5.643571,10.413983,-4.9709363,-19.582275,6.919971,-10.706815,6.0169873,-2.5257337,-0.7666945,10.358613,2.8039033,11.139371,-25.572947,64.000305,2.8642168,3.2512696,18.679281,-4.4536567,-5.978409,25.589334,70.05262,-11.031762,-0.57175976,-8.572016
103,-2.1567842960357666,-0.22748389840126038,77.87881469726562,-0.0862889956565335,-3.64588825815186,2.7032332949395137,10.093888,5.209838,10.144001,7.196344,-15.455995,-5.641547,10.416418,-4.9674664,-19.57057,6.920245,-10.701263,6.0110297,-2.524568,-0.7643335,10.353057,2.7849493,11.147094,-25.620655,64.020035,2.8304207,3.2669754,18.665428,-4.4543386,-5.9830875,25.616568,70.05882,-11.014661,-0.59586865,-8.550248
104,-2.1572043895721436,-0.2307683229446411,77.8781509399414,-0.08801797595526963,-3.647336020469989,2.6998087062304323,10.096166,5.213587,10.148865,7.19643,-15.454608,-5.641684,10.416273,-4.9638767,-19.56263,6.920405,-10.696869,6.0069194,-2.5259836,-0.7617705,10.348383,2.7687473,11.153183,-25.649889,64.03584,2.8057425,3.2795603,18.651905,-4.4602966,-5.9868746,25.635052,70.06715,-11.019094,-0.6177302,-8.525893
105,-2.1555240154266357,-0.23242884874343872,77.87757110595703,-0.0904196423122391,-3.6446858563712468,2.6987494259450697,10.093098,5.2179494,10.149883,7.196479,-15.453683,-5.6452265,10.412087,-4.960077,-19.559605,6.9207735,-10.693345,6.005829,-2.528411,-0.7586326,10.341795,2.7561285,11.157202,-25.66385,64.04857,2.7860205,3.2917995,18.64114,-4.467187,-5.9895997,25.646994,70.07498,-11.051907,-0.63689613,-8.497941
106,-2.157458782196045,-0.23141168057918549,77.87676239013672,-0.09331004938751865,-3.6395385813705063,2.699293305301908,10.086439,5.2227397,10.148409,7.196507,-15.452595,-5.650699,10.406141,-4.9560313,-19.559263,6.9201007,-10.689661,6.007265,-2.5301225,-0.7549928,10.332204,2.7437265,11.16032,-25.67775,64.06183,2.754769,3.3060613,18.6327,-4.4709344,-5.991961,25.661573,70.080124,-11.093279,-0.6562012,-8.466266
107,-2.1594393253326416,-0.23055441677570343,77.87702941894531,-0.09587028523248065,-3.633965242849415,2.7000439583246854,10.079737,5.2269278,10.146743,7.1964507,-15.45224,-5.65653,10.400046,-4.9523144,-19.560503,6.9200497,-10.688323,6.0089707,-2.531478,-0.7517321,10.321689,2.7332516,11.162364,-25.686966,64.07502,2.727619,3.315174,18.626501,-4.475664,-5.993742,25.6732,70.08657,-11.137876,-0.6718547,-8.438533
108,-2.156583786010742,-0.2330625355243683,77.8796157836914,-0.09753537283850461,-3.629647216012823,2.6995427585167446,10.07462,5.2300816,10.147131,7.1961117,-15.451704,-5.6612244,10.3954735,-4.9498887,-19.562206,6.919488,-10.689626,6.008872,-2.5312068,-0.74851954,10.31279,2.7268865,11.16455,-25.694876,64.083466,2.7101645,3.3126488,18.623123,-4.4797616,-5.9957943,25.68374,70.09051,-11.16787,-0.68011636,-8.422903
109,-2.1536617279052734,-0.23479962348937988,77.87911224365234,-0.09813201507806403,-3.6251935342745147,2.697387954776999,10.070589,5.2320814,10.150743,7.1956286,-15.451752,-5.6651263,10.391152,-4.9485836,-19.564537,6.9192796,-10.696151,6.006594,-2.5322373,-0.7459581,10.298585,2.7249136,11.16851,-25.709326,64.09653,2.687224,3.2870116,18.625956,-4.482049,-5.999706,25.702526,70.094475,-11.171176,-0.6790485,-8.422422
110,-2.1540181636810303,-0.2364077866077423,77.87855529785156,-0.09798524545821076,-3.6212507371753233,2.694195326569294,10.067325,5.233027,10.156361,7.1956253,-15.452493,-5.668713,10.3876,-4.948447,-19.567945,6.92044,-10.707525,6.0033274,-2.5297813,-0.74381036,10.287117,2.7284482,11.170179,-25.71478,64.10341,2.681671,3.2481873,18.63289,-4.4844813,-6.001416,25.709824,70.094894,-11.17096,-0.66850567,-8.43339
111,-2.1522374153137207,-0.23790672421455383,77.87742614746094,-0.09703485322171353,-3.6184716835408066,2.690715731862312,10.065581,5.2330317,10.162026,7.1955304,-15.453287,-5.6708107,10.38533,-4.949125,-19.57153,6.920979,-10.718749,5.9986677,-2.527656,-0.7419776,10.275821,2.7315073,11.172438,-25.72148,64.10939,2.6755729,3.2091656,18.638626,-4.488108,-6.0037284,25.717676,70.09898,-11.163738,-0.65808123,-8.448486
112,-2.1554319858551025,-0.23983149230480194,77.87721252441406,-0.095580249982398,-3.6181318402756064,2.687686813635474,10.065759,5.232335,10.165765,7.1960273,-15.453598,-5.6701045,10.386088,-4.9498973,-19.574434,6.920759,-10.726769,5.992276,-2.5278203,-0.7402511,10.267242,2.7313678,11.174732,-25.733328,64.112,2.6593623,3.1833477,18.63816,-4.4924564,-6.0059853,25.727707,70.108215,-11.152351,-0.6552595,-8.4616375
113,-2.1564698219299316,-0.24151524901390076,77.87744140625,-0.09293917784646748,-3.621865760350755,2.6848430465405073,10.070765,5.230006,10.167193,7.1959515,-15.452845,-5.665401,10.390146,-4.9514,-19.576303,6.922098,-10.731148,5.9812474,-2.5232222,-0.73905206,10.261373,2.7234938,11.18331,-25.770685,64.108505,2.6143303,3.1806555,18.628544,-4.4903445,-6.01428,25.739996,70.12019,-11.124469,-0.66437286,-8.47515
114,-2.157064199447632,-0.24306881427764893,77.87739562988281,-0.0895229825573801,-3.6290598334818065,2.682187078312812,10.079203,5.2266326,10.166953,7.1962366,-15.451497,-5.6577272,10.397793,-4.953552,-19.577763,6.922897,-10.732753,5.9667726,-2.5259144,-0.73920363,10.261933,2.707457,11.186242,-25.791384,64.1065,2.5758495,3.1900706,18.609074,-4.4991894,-6.0169206,25.744596,70.14689,-11.10035,-0.6808951,-8.488695
115,-2.158172607421875,-0.24331256747245789,77.8777847290039,-0.08580208161959976,-3.6361448346854175,2.680018033500129,10.087264,5.2228847,10.166015,7.196509,-15.4504795,-5.648834,10.405192,-4.956099,-19.57878,6.9238734,-10.733509,5.954443,-2.5232894,-0.7390805,10.260632,2.6862686,11.190056,-25.826876,64.10898,2.530419,3.2027822,18.591251,-4.508817,-6.0201797,25.749916,70.17823,-11.074938,-0.7001314,-8.499611
116,-2.155604124069214,-0.24471808969974518,77.87811279296875,-0.08302205485999466,-3.6397036473813578,2.6791916505854223,10.091277,5.2200522,10.164684,7.196227,-15.449894,-5.6406846,10.409338,-4.9579587,-19.579987,6.9242268,-10.735014,5.9498057,-2.5199177,-0.73897517,10.257012,2.6703022,11.192989,-25.8566,64.11104,2.50381,3.2099192,18.581228,-4.511736,-6.022558,25.753859,70.1956,-11.072231,-0.71352464,-8.500982
117,-2.158590078353882,-0.24595554172992706,77.87859344482422,-0.08108886832849169,-3.6384261108768334,2.6804379276956136,10.089046,5.2182355,10.162669,7.19648,-15.4511385,-5.632615,10.408837,-4.9600387,-19.58202,6.923651,-10.737613,5.957734,-2.517485,-0.73959166,10.250063,2.6624634,11.195219,-25.877134,64.11336,2.506933,3.2067642,18.584919,-4.514524,-6.024434,25.75982,70.20422,-11.1022215,-0.72003555,-8.488155
118,-2.1589231491088867,-0.2463863641023636,77.87853240966797,-0.07965853467953543,-3.634266878931988,2.683248806419805,10.0833,5.2168636,10.159905,7.1968155,-15.453606,-5.6239843,10.405671,-4.962104,-19.584438,6.9226227,-10.740746,5.974108,-2.5163898,-0.74010557,10.241358,2.658694,11.196951,-25.893318,64.11599,2.5275476,3.1986988,18.596476,-4.516102,-6.0258946,25.76776,70.20653,-11.153891,-0.7236114,-8.464928
119,-2.1584181785583496,-0.24807003140449524,77.8802490234375,-0.078739676720842,-3.6287360039422136,2.6866457115753897,10.07544,5.2162623,10.156596,7.1975617,-15.456215,-5.6167164,10.400222,-4.9635687,-19.586344,6.9227653,-10.743625,5.9912148,-2.5158489,-0.7408765,10.229536,2.6569269,11.198679,-25.910349,64.119095,2.5473323,3.1914976,18.60795,-4.5155163,-6.0274587,25.779045,70.205605,-11.204775,-0.7252199,-8.439891
120,-2.1553571224212646,-0.25028902292251587,77.88046264648438,-0.07795147366882758,-3.624109144308068,2.689595321826587,10.068841,5.2161565,10.153197,7.1978245,-15.45774,-5.612616,10.395333,-4.96369,-19.586462,6.922127,-10.743487,6.0014815,-2.5156848,-0.7405112,10.217682,2.654798,11.201434,-25.930183,64.11835,2.555189,3.1918728,18.606304,-4.511566,-6.029953,25.792404,70.20029,-11.236655,-0.72630924,-8.4208
121,-2.1548235416412354,-0.2518095076084137,77.88055419921875,-0.07742877529490795,-3.6206943832346385,2.691583559956434,10.063571,5.2168365,10.149691,7.1976504,-15.458119,-5.6120105,10.389848,-4.9618464,-19.582869,6.922448,-10.73961,6.000737,-2.5182657,-0.73974293,10.2095175,2.6474729,11.202839,-25.937754,64.11437,2.5537763,3.2055197,18.58033,-4.5131927,-6.031091,25.79695,70.19697,-11.253689,-0.72800916,-8.408225
122,-2.153505563735962,-0.25202253460884094,77.88106536865234,-0.07709895156002528,-3.6175621462079306,2.693229902429734,10.058421,5.2184124,10.145797,7.1977825,-15.458329,-5.6139407,10.384241,-4.958177,-19.576899,6.921681,-10.732357,5.993747,-2.5209553,-0.7384933,10.201613,2.6388912,11.204425,-25.945272,64.108154,2.5421038,3.2263007,18.541786,-4.5141954,-6.0321383,25.800352,70.19097,-11.257847,-0.729253,-8.399492
123,-2.1560862064361572,-0.25230661034584045,77.8795394897461,-0.07695678435067498,-3.61429948666912,2.6950565152819124,10.052976,5.2202234,10.142129,7.198036,-15.457714,-5.6184587,10.378427,-4.954433,-19.571514,6.9220395,-10.725729,5.986145,-2.5232472,-0.7368638,10.19258,2.6265917,11.2055435,-25.953217,64.10514,2.530351,3.248279,18.50061,-4.5147924,-6.032799,25.802813,70.18483,-11.2559805,-0.72956705,-8.391702
124,-2.1562185287475586,-0.25544649362564087,77.87904357910156,-0.07697326464985635,-3.6120919986962083,2.6981526058838026,10.049259,5.2212696,10.138689,7.1975265,-15.455977,-5.6255064,10.374834,-4.9519887,-19.570717,6.9216557,-10.720842,5.983768,-2.5186162,-0.7355558,10.184551,2.6131287,11.210807,-25.980253,64.107086,2.5236514,3.2564194,18.477709,-4.510499,-6.036269,25.803892,70.17448,-11.2516575,-0.7299597,-8.382067
125,-2.1573469638824463,-0.25779086351394653,77.8793716430664,-0.07692772177548744,-3.611042457060837,2.7030522112280497,10.047057,5.221082,10.135409,7.197326,-15.453246,-5.637796,10.37431,-4.9517183,-19.576784,6.921565,-10.719674,5.990232,-2.5234542,-0.7336947,10.180241,2.6083872,11.212737,-25.994099,64.10923,2.5535736,3.2442603,18.478874,-4.515405,-6.037708,25.80649,70.17077,-11.2578335,-0.7291522,-8.369501
126,-2.156367063522339,-0.259474515914917,77.8787612915039,-0.07716393158893518,-3.6107391623676857,2.709205639098784,10.04634,5.2204027,10.132234,7.196397,-15.44924,-5.654494,10.376432,-4.952344,-19.5873,6.920435,-10.719747,6.0017147,-2.52971,-0.73163563,10.176703,2.604877,11.214104,-26.010906,64.11589,2.59933,3.2191,18.495705,-4.52288,-6.0389676,25.811216,70.16969,-11.262519,-0.7275161,-8.356649
127,-2.154860734939575,-0.2607325613498688,77.87818145751953,-0.07741496537666662,-3.6110816314405882,2.715405125069771,10.046911,5.2197328,10.129721,7.194347,-15.444217,-5.6700525,10.37971,-4.953122,-19.598436,6.9186163,-10.720828,6.0129323,-2.5349846,-0.729243,10.173484,2.6019232,11.215338,-26.030115,64.122795,2.6391695,3.1928387,18.515287,-4.530196,-6.0403533,25.816315,70.169174,-11.263765,-0.72675216,-8.341251
128,-2.15735125541687,-0.25874051451683044,77.87883758544922,-0.07744187020442438,-3.612055591446471,2.7205185204302285,10.047067,5.220415,10.128204,7.1944017,-15.440649,-5.679019,10.382034,-4.9534388,-19.606314,6.919475,-10.7241335,6.018465,-2.5365546,-0.7272701,10.170712,2.595886,11.2168865,-26.051184,64.127686,2.6508422,3.1775663,18.52472,-4.537686,-6.042396,25.821665,70.16967,-11.2566185,-0.72847015,-8.321691
129,-2.1595723628997803,-0.2624451220035553,77.87915802001953,-0.07729780776980295,-3.6144299280603334,2.723644634508895,10.049297,5.222849,10.129341,7.1944203,-15.437852,-5.6781645,10.385776,-4.952567,-19.60928,6.919625,-10.729017,6.0151467,-2.5352166,-0.7264999,10.1701145,2.5853612,11.21811,-26.065594,64.13002,2.622994,3.1761951,18.517994,-4.544743,-6.0440617,25.825277,70.16932,-11.247437,-0.7334534,-8.29683
130,-2.1597843170166016,-0.26434239745140076,77.87945556640625,-0.07686611789185893,-3.617948211397597,2.7259593974069456,10.052574,5.226476,10.132,7.1948647,-15.435341,-5.671078,10.390385,-4.9513545,-19.609737,6.92035,-10.735964,6.0064516,-2.5329137,-0.72671676,10.171416,2.576548,11.218992,-26.07251,64.12673,2.577469,3.1822262,18.502651,-4.551234,-6.0452266,25.827744,70.16764,-11.239291,-0.73998284,-8.269163
131,-2.158500909805298,-0.266737163066864,77.88095092773438,-0.07648787906919643,-3.621213164527769,2.7277094235353068,10.055478,5.2301292,10.13431,7.19534,-15.433025,-5.662265,10.394823,-4.949812,-19.60916,6.9201035,-10.741755,5.9969387,-2.5295863,-0.72695374,10.173389,2.559476,11.220891,-26.085325,64.12916,2.5145984,3.193847,18.484062,-4.5643272,-6.0476704,25.833588,70.17294,-11.21343,-0.74975413,-8.234698
132,-2.1612179279327393,-0.26821258664131165,77.88031768798828,-0.07612977707133377,-3.6215521606246353,2.7294474689949952,10.054074,5.2325544,10.134117,7.1957693,-15.4298725,-5.6563554,10.394461,-4.948794,-19.60867,6.9213357,-10.744814,5.9912553,-2.5279148,-0.726766,10.173455,2.550654,11.222412,-26.094387,64.12581,2.4733686,3.2071958,18.470125,-4.571332,-6.0496373,25.83884,70.17323,-11.173068,-0.7586042,-8.199556
133,-2.161923408508301,-0.2681967318058014,77.88201904296875,-0.07568574231057147,-3.616983951368377,2.7314972730319997,10.046414,5.2327733,10.129832,7.195592,-15.425251,-5.6543884,10.387653,-4.948311,-19.609097,6.921338,-10.741479,5.991201,-2.5270512,-0.72615117,10.168046,2.5384521,11.224446,-26.112396,64.12821,2.4399884,3.2272902,18.461378,-4.5846734,-6.0525646,25.85009,70.18458,-11.085812,-0.7719071,-8.153546
134,-2.1636006832122803,-0.2674051523208618,77.88172912597656,-0.07515136101951876,-3.6092021637073137,2.733567459302354,10.034168,5.2318606,10.122846,7.1952,-15.419467,-5.6540737,10.376841,-4.947821,-19.609554,6.920524,-10.734397,5.994095,-2.5258594,-0.7247102,10.1582575,2.5289168,11.226746,-26.137274,64.13059,2.409669,3.2523813,18.456219,-4.596907,-6.05671,25.865267,70.1993,-10.967708,-0.7874593,-8.102642
135,-2.164721965789795,-0.268065869808197,77.88117218017578,-0.0746930833781068,-3.601936898841395,2.7350189241781457,10.022174,5.2305775,10.1157875,7.1954546,-15.414633,-5.6546297,10.365879,-4.947709,-19.609169,6.920549,-10.726802,5.997929,-2.524931,-0.72370154,10.151098,2.5219853,11.228048,-26.155426,64.1301,2.3931663,3.276196,18.451965,-4.604866,-6.0594454,25.877308,70.207054,-10.859723,-0.7999584,-8.054818
136,-2.1669704914093018,-0.26939070224761963,77.88114929199219,-0.0741934983332038,-3.5985117583336304,2.7353783467857324,10.0160265,5.229832,10.111134,7.194943,-15.411648,-5.6552057,10.360348,-4.9471526,-19.60757,6.919931,-10.72138,6.000631,-2.5210772,-0.7218259,10.145028,2.5153852,11.229642,-26.182098,64.1319,2.3752816,3.2916386,18.450153,-4.6112957,-6.0634093,25.897734,70.213715,-10.77797,-0.80673254,-8.021196
137,-2.168515920639038,-0.27060365676879883,77.88139343261719,-0.07357915304792244,-3.601360534224247,2.7337535496162504,10.018054,5.2296343,10.109687,7.194553,-15.412015,-5.6545954,10.362113,-4.9466624,-19.603304,6.919409,-10.718744,6.0028543,-2.5147378,-0.7206835,10.144989,2.513665,11.231207,-26.204649,64.12988,2.3727279,3.2948306,18.44944,-4.607558,-6.067602,25.922121,70.20315,-10.749277,-0.8027182,-8.007038
138,-2.169205904006958,-0.27222028374671936,77.88086700439453,-0.0727950381388514,-3.6081565549455883,2.7307416590168976,10.02511,5.229563,10.109948,7.1946273,-15.414698,-5.653574,10.369225,-4.9460053,-19.597319,6.9190264,-10.718247,6.0052795,-2.508977,-0.7199953,10.149779,2.5149002,11.232858,-26.221403,64.12583,2.3844318,3.2898695,18.448801,-4.6021357,-6.072061,25.951834,70.18614,-10.75381,-0.7923328,-8.004829
139,-2.170910120010376,-0.27228832244873047,77.88060760498047,-0.07220208526843565,-3.6160315779223544,2.7278127143280897,10.033154,5.229932,10.111305,7.1955357,-15.418458,-5.654477,10.3768015,-4.94529,-19.591637,6.9200063,-10.719197,6.005994,-2.5023518,-0.7190299,10.159603,2.5137227,11.233514,-26.229439,64.121544,2.40571,3.2819397,18.44665,-4.601088,-6.073545,25.966925,70.17262,-10.780007,-0.7813441,-8.005675
140,-2.1707072257995605,-0.2751098573207855,77.88190460205078,-0.07265898518610917,-3.621482975297741,2.7266840525154583,10.039212,5.2313547,10.113075,7.195247,-15.420471,-5.6597166,10.382289,-4.9436474,-19.58908,6.920113,-10.719753,6.003097,-2.5007267,-0.71756685,10.165966,2.5135322,11.234015,-26.237568,64.11858,2.4145634,3.2764533,18.446812,-4.59971,-6.074406,25.98113,70.16613,-10.792554,-0.77281684,-8.007203
141,-2.1759660243988037,-0.2750876247882843,77.88119506835938,-0.0746343823375794,-3.624251046440303,2.7279647590504856,10.042446,5.2345867,10.116162,7.1942677,-15.42051,-5.6738534,10.385058,-4.9401774,-19.590202,6.9198217,-10.720471,5.993275,-2.5057516,-0.7145094,10.170056,2.5136821,11.234616,-26.245901,64.11578,2.4032953,3.273375,18.449217,-4.5983596,-6.0750394,25.991762,70.16841,-10.789996,-0.7671849,-8.011154
142,-2.174971342086792,-0.2747360169887543,77.88309478759766,-0.07798470809145241,-3.6254052945136404,2.7308553278577494,10.042954,5.239433,10.120143,7.194529,-15.420264,-5.6942964,10.385319,-4.9357185,-19.593897,6.9211974,-10.722603,5.9785204,-2.5141466,-0.7103509,10.173909,2.5136986,11.23493,-26.250446,64.11247,2.384558,3.2707584,18.45202,-4.5969524,-6.0751524,25.994602,70.17565,-10.786067,-0.7635719,-8.0173435
143,-2.174846649169922,-0.27689066529273987,77.88387298583984,-0.08087427348974659,-3.6262862886921288,2.734086859936512,10.043919,5.243752,10.124154,7.1934423,-15.418972,-5.712759,10.3858,-4.9317884,-19.598812,6.921238,-10.723829,5.9647665,-2.5199468,-0.7048147,10.176349,2.5144074,11.236871,-26.268204,64.10886,2.3570466,3.269558,18.458485,-4.5955806,-6.074894,25.995066,70.18698,-10.777481,-0.7603869,-8.023105
144,-2.1772563457489014,-0.27773573994636536,77.8812484741211,-0.08136334777616559,-3.6270240893453094,2.736243611865914,10.04384,5.2447524,10.126666,7.1931076,-15.417689,-5.7206926,10.385623,-4.9310994,-19.603544,6.921305,-10.724224,5.958053,-2.5238345,-0.7035562,10.179956,2.513769,11.237588,-26.274023,64.10738,2.3570287,3.2710392,18.464111,-4.5942307,-6.0745873,25.99202,70.19239,-10.771399,-0.7574998,-8.017553
145,-2.178471088409424,-0.27855485677719116,77.88427734375,-0.07841662874123424,-3.628305851929096,2.7374377641371086,10.043361,5.2415795,10.126919,7.1925864,-15.414991,-5.713551,10.386322,-4.934872,-19.609602,6.9202433,-10.723069,5.9627333,-2.5223248,-0.7063565,10.183806,2.5130925,11.238538,-26.278648,64.10715,2.385095,3.2777753,18.472467,-4.5934186,-6.0740414,25.986914,70.19351,-10.764096,-0.75362927,-7.9978495
146,-2.1804044246673584,-0.27882900834083557,77.88336944580078,-0.0731068319509971,-3.6297659773642152,2.737824759663312,10.042482,5.2352495,10.126167,7.1930075,-15.412492,-5.6964917,10.386588,-4.94217,-19.61675,6.920317,-10.721926,5.974726,-2.519004,-0.7126905,10.187746,2.5125058,11.239284,-26.278952,64.10773,2.4330995,3.289273,18.483526,-4.5919023,-6.0735765,25.981169,70.19039,-10.755094,-0.7487787,-7.9676046
147,-2.1811130046844482,-0.27963268756866455,77.88272857666016,-0.0675234059953784,-3.6304212657608277,2.737929029505358,10.040102,5.2285643,10.12442,7.1942277,-15.410265,-5.6761994,10.385468,-4.949667,-19.622421,6.9206514,-10.720294,5.9871345,-2.5166147,-0.71942943,10.19141,2.5125124,11.239716,-26.277481,64.10937,2.4852898,3.2990918,18.492899,-4.5911083,-6.073305,25.975758,70.18685,-10.745778,-0.74530476,-7.9357796
148,-2.183551073074341,-0.28147706389427185,77.8833999633789,-0.06335523864060942,-3.6294454220215,2.73779856500724,10.036344,5.2236357,10.122362,7.194494,-15.40824,-5.6589985,10.382488,-4.9547553,-19.624088,6.9208603,-10.718215,5.9932857,-2.5160012,-0.72462946,10.194423,2.5131304,11.24027,-26.277584,64.112274,2.5265071,3.3020751,18.497482,-4.592453,-6.072991,25.97182,70.18586,-10.735432,-0.74489784,-7.9101076
149,-2.187319278717041,-0.2819395363330841,77.8842544555664,-0.06097229445219678,-3.6264243338760034,2.737063269938384,10.030347,5.22066,10.119537,7.195498,-15.408301,-5.644336,10.377649,-4.956462,-19.618961,6.920763,-10.715755,5.99009,-2.5179522,-0.7276068,10.194055,2.5161905,11.241067,-26.28491,64.118256,2.5498774,3.2940733,18.496944,-4.5962973,-6.0726895,25.973827,70.19142,-10.720354,-0.7497246,-7.8939114
150,-2.188255548477173,-0.27994632720947266,77.88516998291016,-0.05948765081087584,-3.6219779268495076,2.7357496554339242,10.023699,5.2184863,10.11591,7.194904,-15.408655,-5.629557,10.371026,-4.9563127,-19.60916,6.9204345,-10.712396,5.9815803,-2.5218542,-0.72925705,10.192629,2.5208406,11.241444,-26.293978,64.12559,2.565098,3.279167,18.492548,-4.599777,-6.0725956,25.97936,70.19718,-10.702236,-0.75797087,-7.8826456
151,-2.1882212162017822,-0.27912670373916626,77.88544464111328,-0.05881289965995508,-3.6161083640997944,2.734607120447811,10.014724,5.2175717,10.112523,7.1958327,-15.409189,-5.6179614,10.362487,-4.9552937,-19.598959,6.9208865,-10.709285,5.9715924,-2.5260394,-0.72962725,10.186241,2.5274239,11.242431,-26.315912,64.13453,2.5658123,3.2635236,18.48865,-4.6025968,-6.0725036,25.992476,70.206024,-10.679099,-0.76568764,-7.8757644
152,-2.1897778511047363,-0.28144335746765137,77.88749694824219,-0.059012947543079224,-3.6095183098593893,2.7341310925153257,10.004982,5.2181654,10.110924,7.196345,-15.407297,-5.6130114,10.352269,-4.953816,-19.592657,6.9221153,-10.706308,5.9638357,-2.529492,-0.72993,10.179179,2.5297918,11.243906,-26.340343,64.14445,2.5584223,3.2541423,18.484888,-4.603923,-6.072695,26.002161,70.211754,-10.66161,-0.7688427,-7.870183
153,-2.193166971206665,-0.2829861640930176,77.88765716552734,-0.06037600038507258,-3.60157673653764,2.7346758820689367,9.99394,5.2210326,10.111973,7.1961565,-15.40135,-5.6178226,10.340608,-4.9512906,-19.591976,6.9221115,-10.701812,5.9587884,-2.5385845,-0.73045254,10.176799,2.5265539,11.244535,-26.350447,64.15261,2.5581627,3.253924,18.477856,-4.608683,-6.072759,26.004465,70.212326,-10.660889,-0.7636519,-7.8621798
154,-2.195753812789917,-0.28459683060646057,77.88861846923828,-0.06288196443561318,-3.591749343930388,2.7361319173692595,9.980638,5.225827,10.114459,7.1952667,-15.392131,-5.629838,10.326091,-4.9477715,-19.594736,6.922267,-10.696361,5.954602,-2.5430088,-0.72997755,10.171578,2.5163305,11.246942,-26.378408,64.16501,2.5433683,3.2590775,18.471832,-4.6120143,-6.072734,26.002562,70.21223,-10.663909,-0.7529513,-7.856352
155,-2.1986918449401855,-0.28400278091430664,77.8880615234375,-0.0653782812454866,-3.5829795351598173,2.7375433737224344,9.96841,5.2307773,10.117589,7.195072,-15.383453,-5.643879,10.313176,-4.9444327,-19.598518,6.921891,-10.69159,5.9517894,-2.5516436,-0.7297603,10.169267,2.5086715,11.248404,-26.392399,64.17369,2.529613,3.264787,18.46268,-4.6157107,-6.0726647,26.000324,70.208984,-10.672187,-0.7440529,-7.850769
156,-2.202779531478882,-0.28481122851371765,77.88768768310547,-0.06715414251212655,-3.5774044226342774,2.7385196087178683,9.960648,5.2340035,10.120001,7.193678,-15.376891,-5.654804,10.304821,-4.9423795,-19.60186,6.9213324,-10.689208,5.9508095,-2.549932,-0.73007685,10.16726,2.4974358,11.251629,-26.418556,64.18654,2.4974644,3.2662325,18.453228,-4.6157413,-6.0727,25.993145,70.20657,-10.674961,-0.74442446,-7.8474216
157,-2.2034335136413574,-0.2845439910888672,77.88843536376953,-0.06787954446791912,-3.576085705641408,2.739402622493625,9.957826,5.2354035,10.121354,7.1928887,-15.373582,-5.6624284,10.302612,-4.942043,-19.605312,6.9200974,-10.689433,5.952913,-2.549242,-0.729997,10.167851,2.4948888,11.254052,-26.435478,64.192665,2.448844,3.2618392,18.43774,-4.6146674,-6.0730557,25.988388,70.2042,-10.67418,-0.7597436,-7.8450046
158,-2.205592632293701,-0.2852666974067688,77.88758850097656,-0.06833157772580097,-3.577800463102333,2.74013862585117,9.958138,5.236092,10.122489,7.1928906,-15.372521,-5.6693068,10.303643,-4.9429092,-19.609198,6.920834,-10.692938,5.957351,-2.5513146,-0.7296957,10.170287,2.4964175,11.255661,-26.443365,64.19645,2.3872287,3.2540557,18.417858,-4.6139555,-6.0736585,25.987314,70.202545,-10.671459,-0.78469026,-7.8439717
159,-2.207841396331787,-0.28592610359191895,77.88773345947266,-0.06808212559883739,-3.5810737953025322,2.740494051494692,9.960952,5.2355585,10.122932,7.192424,-15.372811,-5.6734824,10.307385,-4.944667,-19.612255,6.920438,-10.696964,5.9621873,-2.5519238,-0.7297373,10.173943,2.4994822,11.257852,-26.45133,64.19851,2.3287518,3.2447631,18.401144,-4.612023,-6.0750546,25.987827,70.19947,-10.6662,-0.8101239,-7.8440347
160,-2.2102437019348145,-0.28520873188972473,77.88699340820312,-0.06707169339996061,-3.5849688617423037,2.74000387881672,9.963756,5.234025,10.122468,7.1928034,-15.374321,-5.673319,10.311073,-4.947107,-19.613058,6.9207764,-10.701438,5.9652066,-2.552208,-0.73133594,10.179046,2.5012257,11.258889,-26.453392,64.20145,2.298692,3.2358546,18.394548,-4.611274,-6.076041,25.98876,70.19612,-10.662054,-0.82637966,-7.8450594
161,-2.2112185955047607,-0.28643208742141724,77.8875732421875,-0.06459017391113084,-3.590277537666669,2.7384688614099995,9.968124,5.230153,10.119309,7.1931963,-15.377745,-5.66481,10.316145,-4.951198,-19.611303,6.921316,-10.706549,5.9653807,-2.5502956,-0.7348644,10.185953,2.5007517,11.259635,-26.452906,64.20672,2.3077493,3.2268262,18.403788,-4.611008,-6.076862,25.98885,70.19022,-10.656049,-0.8276881,-7.844511
162,-2.212745428085327,-0.2876204550266266,77.88731384277344,-0.06119274517583486,-3.597169240085513,2.7360835778309647,9.973906,5.2245927,10.114239,7.194259,-15.383489,-5.6500597,10.322832,-4.9563584,-19.607641,6.9224353,-10.712928,5.963895,-2.5461328,-0.7395152,10.195127,2.499146,11.2610445,-26.44883,64.212326,2.342905,3.2168329,18.423561,-4.609059,-6.07853,25.987265,70.17969,-10.648795,-0.8200989,-7.842877
163,-2.2159860134124756,-0.28736644983291626,77.8861083984375,-0.05773400212270229,-3.6037474540880203,2.7333402192336758,9.979935,5.2192283,10.110488,7.194449,-15.388145,-5.6364846,10.329059,-4.9615297,-19.602324,6.922625,-10.7179365,5.9624977,-2.5411112,-0.74495655,10.205354,2.496564,11.261866,-26.444504,64.217186,2.3846538,3.207509,18.445072,-4.6074595,-6.0795803,25.986189,70.17091,-10.645705,-0.8126506,-7.84547
164,-2.2176527976989746,-0.284887433052063,77.88654327392578,-0.05505448229569996,-3.608081892019383,2.730481083268745,9.983585,5.2158065,10.1116295,7.1953044,-15.390355,-5.631199,10.331852,-4.965421,-19.595251,6.9230494,-10.721277,5.9628215,-2.5380006,-0.7499939,10.216317,2.4925957,11.263824,-26.437828,64.21977,2.4139524,3.1994302,18.458754,-4.6053224,-6.0822654,25.987413,70.16558,-10.652237,-0.81469357,-7.8565764
165,-2.2206974029541016,-0.2847074866294861,77.88697052001953,-0.054159827739490934,-3.6096703854276413,2.7281791968920284,9.984648,5.215826,10.120036,7.194875,-15.386272,-5.6375394,10.331097,-4.96672,-19.586044,6.9226665,-10.721551,5.9635115,-2.5354848,-0.7532948,10.223392,2.489637,11.264276,-26.438572,64.22051,2.415538,3.1934512,18.463717,-4.604712,-6.082903,25.99017,70.175705,-10.668946,-0.8304976,-7.884366
166,-2.221879720687866,-0.2841589152812958,77.88738250732422,-0.053845589317797184,-3.6099997705270934,2.7247110623183413,9.985958,5.2177196,10.134965,7.192965,-15.378274,-5.651265,10.328364,-4.9666886,-19.573088,6.9223495,-10.720399,5.9642124,-2.5332463,-0.7549579,10.232588,2.4835756,11.266094,-26.444609,64.220535,2.4001715,3.186085,18.464643,-4.6026525,-6.0852494,26.001062,70.19377,-10.692484,-0.86049217,-7.9311323
167,-2.2237868309020996,-0.2834682762622833,77.88665771484375,-0.05380442236899693,-3.6088024074834553,2.721240234208767,9.984577,5.219942,10.149897,7.1925583,-15.371478,-5.668218,10.322998,-4.966681,-19.560581,6.9230213,-10.719073,5.968217,-2.5308354,-0.7562491,10.239557,2.478132,11.267796,-26.454348,64.2194,2.3825924,3.1817746,18.463743,-4.600106,-6.087364,26.014961,70.211586,-10.716854,-0.89076155,-7.9747815
168,-2.227566719055176,-0.2833651304244995,77.88642883300781,-0.0536401452887169,-3.6054113328430644,2.7184572615717837,9.980483,5.2208757,10.158894,7.1914134,-15.36842,-5.6846323,10.315756,-4.9676733,-19.551756,6.9229217,-10.718016,5.9786787,-2.5281663,-0.7590429,10.244545,2.4752219,11.268724,-26.460934,64.21493,2.3892078,3.1837747,18.463398,-4.598789,-6.08857,26.024761,70.21591,-10.746737,-0.9058569,-7.9920278
169,-2.227811336517334,-0.28422969579696655,77.88614654541016,-0.054079970586547,-3.6007058048888325,2.715493214103338,9.974372,5.2216167,10.160459,7.1908665,-15.373355,-5.7022247,10.308474,-4.968311,-19.547024,6.921666,-10.717329,5.997782,-2.5254433,-0.7613392,10.247146,2.475032,11.269948,-26.465227,64.20747,2.4354658,3.1943696,18.465275,-4.5973344,-6.0902534,26.03345,70.211296,-10.781492,-0.9075622,-7.980642
170,-2.231405019760132,-0.28099483251571655,77.88531494140625,-0.05491898272495692,-3.5946967295932897,2.7122702760744044,9.966797,5.2221403,10.157812,7.1900253,-15.382747,-5.722058,10.300228,-4.9687667,-19.544624,6.9196253,-10.716304,6.023347,-2.522131,-0.7639396,10.249036,2.4772909,11.27065,-26.466227,64.19572,2.5084295,3.2116528,18.467693,-4.5958934,-6.0913734,26.0397,70.20057,-10.821661,-0.90145206,-7.9511986
171,-2.2333295345306396,-0.27928489446640015,77.88406372070312,-0.055001187912915195,-3.585755491109844,2.710044419017458,9.954876,5.2208347,10.152829,7.189238,-15.391518,-5.739472,10.288625,-4.9710135,-19.544401,6.9183755,-10.716966,6.0520363,-2.5223696,-0.76925313,10.24971,2.485162,11.272399,-26.461214,64.176025,2.581675,3.2328172,18.468008,-4.5946064,-6.094715,26.04982,70.1699,-10.865472,-0.8830756,-7.9047747
172,-2.2367706298828125,-0.279620498418808,77.88489532470703,-0.05240794447985335,-3.572281557572895,2.7102706600465964,9.937087,5.2150974,10.147161,7.1871986,-15.394055,-5.7496157,10.27236,-4.9773026,-19.546412,6.9157724,-10.717784,6.0806127,-2.5265722,-0.77789176,10.250203,2.4879708,11.274056,-26.458372,64.16219,2.6097436,3.245687,18.461191,-4.600546,-6.098493,26.062243,70.11912,-10.908529,-0.8549306,-7.847937
173,-2.241424560546875,-0.277019202709198,77.88438415527344,-0.046941202068300894,-3.55243885078496,2.7137989714249753,9.9093075,5.2045393,10.14031,7.1871967,-15.389795,-5.7524104,10.247671,-4.9889092,-19.553265,6.9161973,-10.7226925,6.1075873,-2.5378592,-0.79021114,10.247846,2.4869883,11.27851,-26.463726,64.15298,2.5643036,3.24932,18.44243,-4.6095777,-6.110751,26.101286,70.043144,-10.933484,-0.81110936,-7.782727
174,-2.246673107147217,-0.2751259505748749,77.88455200195312,-0.03920328440764873,-3.527785994890078,2.7197469787791757,9.874971,5.1900716,10.131798,7.1856017,-15.379693,-5.7500014,10.219172,-5.0038605,-19.564154,6.913423,-10.727627,6.1349344,-2.54507,-0.8058962,10.243009,2.4736598,11.281143,-26.481352,64.15675,2.4732094,3.2479622,18.416206,-4.62642,-6.119215,26.13752,69.956955,-10.95925,-0.75456184,-7.706771
175,-2.2509639263153076,-0.27152132987976074,77.88656616210938,-0.029737387790735183,-3.5007949075891487,2.726308383285842,9.836674,5.172733,10.123485,7.1846566,-15.367104,-5.7410407,10.186014,-5.022226,-19.573011,6.9140787,-10.734152,6.1644163,-2.5545175,-0.82430667,10.2366905,2.4645314,11.284309,-26.497646,64.157166,2.3743231,3.2447603,18.392942,-4.6385946,-6.131662,26.172388,69.83653,-10.987094,-0.6918401,-7.617083
176,-2.2584993839263916,-0.26416173577308655,77.88806915283203,-0.01864972281005348,-3.4747448915119636,2.731462265352029,9.798883,5.152959,10.117664,7.183802,-15.354025,-5.7241955,10.153531,-5.0422416,-19.57367,6.913319,-10.7378025,6.197662,-2.564622,-0.84616816,10.2333145,2.4649527,11.285462,-26.496319,64.14692,2.3156314,3.242768,18.381247,-4.6509433,-6.13814,26.174807,69.68043,-11.04117,-0.6324424,-7.508762
177,-2.265871047973633,-0.2597019374370575,77.89057159423828,-0.00717992715384632,-3.452477770643832,2.7350615206616182,9.764388,5.1328435,10.115118,7.1828756,-15.338996,-5.699221,10.124463,-5.06234,-19.562973,6.91196,-10.738079,6.2375402,-2.5701425,-0.8656503,10.248319,2.4745634,11.28967,-26.468258,64.11182,2.3150206,3.2376294,18.3802,-4.6403875,-6.170592,26.13023,69.45747,-11.132134,-0.5852188,-7.3744693
178,-2.274535894393921,-0.2548065185546875,77.89289093017578,0.005158290970341999,-3.4318568706431694,2.738087134712845,9.730153,5.1113677,10.11452,7.182792,-15.321832,-5.6668296,10.096093,-5.0836744,-19.544855,6.9107237,-10.736472,6.282313,-2.5682778,-0.8836576,10.271591,2.4872801,11.291421,-26.432863,64.067245,2.3427236,3.2298474,18.389143,-4.6182113,-6.211599,26.047447,69.19189,-11.249928,-0.5433313,-7.2205377
179,-2.282054901123047,-0.2500499486923218,77.89508056640625,0.020661109743168843,-3.407709847539114,2.740190242618296,9.69144,5.085409,10.114988,7.182842,-15.305249,-5.6269455,10.062156,-5.1097584,-19.5233,6.911266,-10.734901,6.326848,-2.5710058,-0.91013044,10.288087,2.502525,11.290426,-26.381798,64.02541,2.392757,3.227624,18.402508,-4.6077175,-6.236662,25.947382,68.89422,-11.382967,-0.493035,-7.049627
180,-2.293006420135498,-0.24013493955135345,77.89781951904297,0.041727898363843705,-3.3745814698755727,2.7408061962114187,9.642658,5.051533,10.115747,7.182222,-15.291738,-5.579372,10.017381,-5.1440454,-19.502735,6.9112663,-10.732799,6.366695,-2.5596178,-0.9381831,10.304714,2.5027437,11.287606,-26.328398,63.983578,2.4619973,3.2391663,18.407618,-4.5799584,-6.277502,25.802933,68.48756,-11.535287,-0.42084554,-6.8440456
181,-2.3051416873931885,-0.22953607141971588,77.90071105957031,0.06901854534391956,-3.3321877382326623,2.739403779884192,9.583431,5.0103407,10.118492,7.182624,-15.285115,-5.520679,9.960099,-5.187273,-19.484175,6.91224,-10.731163,6.3951607,-2.5440772,-0.97352695,10.3119,2.4926214,11.283841,-26.271233,63.940613,2.5096138,3.2689776,18.392775,-4.5397916,-6.32244,25.619932,67.97367,-11.702112,-0.30615485,-6.5836754
182,-2.3135812282562256,-0.21760497987270355,77.90499114990234,0.10110823499129955,-3.28298984287335,2.7365018065378237,9.516376,4.9633656,10.122871,7.183177,-15.28246,-5.4520555,9.893092,-5.2375474,-19.465734,6.9144726,-10.729716,6.4168787,-2.5247724,-1.01436,10.314338,2.4758217,11.279866,-26.207695,63.89399,2.5509403,3.311834,18.365835,-4.491953,-6.3693023,25.399767,67.374756,-11.886412,-0.16501313,-6.2794666
183,-2.331216335296631,-0.19928096234798431,77.91171264648438,0.13509617708684468,-3.225906998535547,2.7333868640562193,9.439634,4.9107857,10.124907,7.183586,-15.279192,-5.3803406,9.817257,-5.2924147,-19.445122,6.9161453,-10.727523,6.4410267,-2.4813972,-1.0471108,10.3218775,2.4452538,11.272481,-26.154766,63.850277,2.655734,3.3621233,18.351698,-4.4104433,-6.4525104,25.148241,66.66262,-12.083949,-0.027932258,-5.9722147
184,-2.341935157775879,-0.18037980794906616,77.91618347167969,0.17055512761617553,-3.1597981685269922,2.731770177125628,9.35113,4.850262,10.120233,7.1836596,-15.271096,-5.3122916,9.731892,-5.352339,-19.420166,6.9172316,-10.723878,6.477292,-2.4765446,-1.0956514,10.309856,2.4509127,11.268558,-26.05145,63.811626,2.8988652,3.4145384,18.383165,-4.385804,-6.4881754,24.98003,65.980835,-12.260378,0.07490604,-5.740227
185,-2.3510544300079346,-0.1526595503091812,77.91976928710938,0.20744621020761025,-3.08512419965112,2.730229335579596,9.251616,4.780463,10.108145,7.1824303,-15.256087,-5.248024,9.636659,-5.4172206,-19.385876,6.918645,-10.716254,6.521933,-2.466329,-1.1453716,10.299431,2.4603088,11.264949,-25.924786,63.79701,3.3832593,3.474559,18.478209,-4.365475,-6.52484,24.83134,65.252495,-12.435747,0.1342276,-5.575327
186,-2.363295555114746,-0.1271764189004898,77.92410278320312,0.2467089870068769,-3.0019053080701217,2.728699473094959,9.141745,4.701441,10.090619,7.179889,-15.236951,-5.184258,9.532383,-5.4877424,-19.345064,6.9186897,-10.705118,6.5721035,-2.4616904,-1.1810232,10.302979,2.479277,11.254592,-25.756392,63.77684,4.0543413,3.542536,18.61023,-4.316851,-6.6187797,24.70055,64.40739,-12.605541,0.16717346,-5.4371467
187,-2.375060558319092,-0.10584504157304764,77.92707061767578,0.2897995740816993,-2.9099532418808547,2.7287242702947543,9.02045,4.6149855,10.069821,7.1779113,-15.215279,-5.123428,9.418072,-5.565839,-19.305252,6.919784,-10.696934,6.6379223,-2.461769,-1.2348455,10.284977,2.5109246,11.248487,-25.591908,63.757687,4.7097726,3.6093633,18.755274,-4.311431,-6.6633763,24.609678,63.580166,-12.770636,0.18016876,-5.3532476
188,-2.392538547515869,-0.07637850195169449,77.92955780029297,0.33811221397220453,-2.8089983672046412,2.7314221525925646,8.888596,4.522197,10.048364,7.174816,-15.190946,-5.0676417,9.295448,-5.652792,-19.273787,6.9201603,-10.696201,6.729785,-2.463346,-1.2930956,10.267185,2.5522528,11.24209,-25.423487,63.69061,5.1944904,3.66036,18.863897,-4.327217,-6.711157,24.55273,62.711254,-12.940698,0.17632453,-5.298007
189,-2.406162738800049,-0.04677359387278557,77.9323959350586,0.39109303116493394,-2.7024691198602993,2.7361800455643803,8.750088,4.4241104,10.025832,7.1712594,-15.165234,-5.01547,9.168783,-5.7476263,-19.25075,6.9204926,-10.707135,6.8491464,-2.4696,-1.3504969,10.255408,2.615455,11.231514,-25.240356,63.547142,5.4449015,3.684779,18.922565,-4.3427157,-6.788255,24.561071,61.757584,-13.118003,0.1586868,-5.281164
190,-2.419459581375122,-0.01130859088152647,77.93096160888672,0.4522320742801056,-2.588495741799936,2.7397017390686695,8.602934,4.3168206,10.004356,7.1671014,-15.137169,-4.9669466,9.002103,-5.8656983,-19.226885,6.99491,-10.764833,6.99158,-2.4668245,-1.4134152,10.239891,2.6889105,11.217516,-25.060759,63.362843,5.549203,3.691417,18.957352,-4.363836,-6.8767653,24.613382,60.745766,-13.299689,0.12322505,-5.3068643
191,-2.441175937652588,0.02357889898121357,77.92937469482422,0.5161177785886851,-2.4617049024947257,2.7481706993735986,8.440442,4.2041187,9.980923,7.161498,-15.105377,-4.9249845,8.8262205,-5.9895263,-19.21299,7.0572715,-10.818023,7.15724,-2.4638488,-1.4772546,10.220695,2.7595294,11.204146,-24.896248,63.162125,5.583288,3.6956244,18.981085,-4.40141,-6.9610825,24.668556,59.69921,-13.473528,0.07394398,-5.345144
192,-2.4582395553588867,0.056516338139772415,77.92974853515625,0.5783701791999295,-2.3155480510831685,2.7649552609794297,8.252934,4.0904994,9.954892,7.1552744,-15.067858,-4.8934,8.632256,-6.1160874,-19.213121,7.1098647,-10.861508,7.3467255,-2.4615455,-1.5417783,10.192557,2.8116002,11.1983595,-24.76889,62.976254,5.6174884,3.7129538,19.008783,-4.4754367,-7.0145063,24.68006,58.66001,-13.629818,0.01377208,-5.3695345
193,-2.466956615447998,0.09229092299938202,77.93283081054688,0.6387491136859939,-2.1496459651688866,2.789343829406714,8.040535,3.976562,9.928242,7.1486154,-15.028065,-4.8843803,8.369852,-6.2636023,-19.226032,7.2596865,-10.958243,7.574889,-2.4803593,-1.596492,10.165071,2.8540905,11.200033,-24.670666,62.78291,5.651484,3.7586832,19.032606,-4.565472,-7.0770946,24.66237,57.573383,-13.760332,-0.059782874,-5.357446
194,-2.4780113697052,0.1334644854068756,77.93733215332031,0.698172756607037,-1.9673753918606915,2.820440690253071,7.8075886,3.8620038,9.90021,7.139989,-14.984241,-4.8925896,8.087463,-6.4163785,-19.253551,7.411289,-11.057831,7.83616,-2.4997222,-1.6465427,10.137172,2.8862898,11.212811,-24.612993,62.577724,5.6475058,3.8216374,19.049484,-4.6668596,-7.140613,24.614136,56.44092,-13.877164,-0.14789233,-5.3283987
195,-2.5141360759735107,0.1833558976650238,77.93992614746094,0.7574427246639674,-1.768182853430125,2.860132392483514,7.552696,3.7439885,9.86779,7.130971,-14.9320135,-4.8944645,7.8012238,-6.5676804,-19.289907,7.5291944,-11.1323185,8.102724,-2.5186856,-1.6977664,10.101945,2.9109848,11.228331,-24.563871,62.38034,5.648712,3.874034,19.071114,-4.8018265,-7.1793675,24.547415,55.32024,-13.969132,-0.24184191,-5.3080726
196,-2.5575225353240967,0.23642413318157196,77.94635009765625,0.817108513136511,-1.550737962690297,2.9103189177771718,7.27296,3.6197772,9.827873,7.123683,-14.866573,-4.866379,7.5023594,-6.7196736,-19.326551,7.6325974,-11.182614,8.346947,-2.5281236,-1.7462412,10.068916,2.9426968,11.25251,-24.498528,62.172646,5.695085,3.8890724,19.10164,-4.947573,-7.2229257,24.471937,54.191685,-14.01521,-0.33237317,-5.308964
197,-2.5811855792999268,0.29067111015319824,77.95147705078125,0.8726709811825053,-1.3177705926213479,2.9779352652573365,6.9624476,3.4958854,9.77675,7.1350045,-14.790589,-4.787426,7.190521,-6.867949,-19.363281,7.7342677,-11.212879,8.5587015,-2.5380147,-1.7897062,10.028415,2.9695163,11.268047,-24.414822,61.99453,5.8109045,3.8429737,19.165327,-5.123528,-7.245413,24.391548,53.086735,-13.995937,-0.4189815,-5.342368
198,-2.604503631591797,0.34905409812927246,77.95817565917969,0.9219210084369549,-1.0693312997747575,3.0603246425971182,6.6123867,3.3771245,9.715595,7.1857905,-14.720077,-4.675155,6.859304,-7.01408,-19.402924,7.847184,-11.235657,8.754234,-2.55006,-1.8239686,9.993746,3.0016575,11.292456,-24.316418,61.808823,5.9740944,3.7557125,19.24428,-5.3113713,-7.273416,24.299686,51.95788,-13.923569,-0.5066523,-5.388865
199,-2.64485502243042,0.41142866015434265,77.95892333984375,0.9669489109914009,-0.7998486353390392,3.1456273099484044,6.2333646,3.2573168,9.648498,7.243314,-14.646651,-4.562842,6.4999537,-7.1626663,-19.44251,7.9649744,-11.248336,8.944954,-2.5505607,-1.8489825,9.954687,3.0337799,11.316622,-24.20481,61.616535,6.1472363,3.6633718,19.3117,-5.5203505,-7.2988343,24.204302,50.844933,-13.835617,-0.59120196,-5.45305
200,-2.669915199279785,0.48544415831565857,77.96354675292969,1.002518478831233,-0.5054010007871257,3.223172583026649,5.824289,3.140795,9.577338,7.304308,-14.5840225,-4.484124,6.092399,-7.315695,-19.47941,8.113166,-11.266592,9.1423855,-2.5308797,-1.8560697,9.914698,3.0740526,11.345232,-24.068333,61.384655,6.2986226,3.605676,19.332592,-5.748595,-7.333048,24.113152,49.75784,-13.767444,-0.66972417,-5.531436
201,-2.7037367820739746,0.5728316307067871,77.96258544921875,1.0315581680897243,-0.16286885464847153,3.2907881177037446,5.278669,3.037388,9.497954,7.5375905,-14.626806,-4.4438286,5.6150956,-7.4760795,-19.516079,8.275187,-11.284483,9.359652,-2.47988,-1.8458179,9.8475275,3.1018968,11.361463,-23.90681,61.1392,6.436798,3.6007206,19.289154,-6.007426,-7.3646364,24.020655,48.717655,-13.733773,-0.73742193,-5.6380744
202,-2.7274465560913086,0.6575685739517212,77.957763671875,1.0565826691605777,0.21705317384614203,3.3536189184446887,4.5097036,2.9611537,9.405025,8.156146,-14.88037,-4.4243274,5.0834336,-7.6442714,-19.55199,8.450464,-11.300202,9.58749,-2.4066353,-1.8214065,9.762502,3.1202703,11.366647,-23.721735,60.88487,6.57518,3.6250532,19.202303,-6.2927675,-7.396969,23.927057,47.709034,-13.712894,-0.7972664,-5.7685957
203,-2.752152442932129,0.7544484734535217,77.95404052734375,1.0724635608317272,0.5880453930872149,3.4114123272135064,3.7099779,2.8945408,9.307562,8.869033,-15.17881,-4.424161,4.5342526,-7.8176856,-19.579699,8.680707,-11.329646,9.804008,-2.3238893,-1.7790372,9.69877,3.1419833,11.362757,-23.521797,60.619457,6.684973,3.6514492,19.10679,-6.602399,-7.4282804,23.838636,46.74109,-13.696087,-0.8573275,-5.902299
204,-2.847435474395752,0.8781020641326904,77.94074249267578,1.073459741644263,0.9047437999733896,3.4641792592597507,2.9108326,2.8483775,9.204764,9.728316,-15.537313,-4.4422746,3.9999971,-7.9942427,-19.59184,9.0145855,-11.391686,9.986776,-2.2506306,-1.7123696,9.697508,3.1861806,11.352384,-23.305899,60.331467,6.741015,3.652694,19.035484,-6.929266,-7.466618,23.769875,45.81088,-13.670804,-0.92521554,-6.016989
205,-2.871873140335083,0.9897390604019165,77.93069458007812,1.0477478803654428,1.154608294162092,3.525266136678299,2.1358783,2.8331735,9.084431,10.707129,-15.96326,-4.5055285,3.5221167,-8.1540365,-19.603298,9.408477,-11.467272,10.121453,-2.1984184,-1.6050586,9.766245,3.2459543,11.33715,-23.105373,60.047207,6.7120624,3.6060405,19.01785,-7.268716,-7.518519,23.730104,44.919273,-13.642341,-0.9960906,-6.109622
206,-2.88034725189209,1.1120485067367554,77.91758728027344,1.003048049884063,1.3629116209043237,3.5900909564272863,1.3606411,2.8415258,8.950245,11.793581,-16.447508,-4.602159,3.0715556,-8.305663,-19.612364,9.8553915,-11.5540905,10.221905,-2.1480076,-1.4704826,9.88193,3.313942,11.322645,-22.920052,59.76254,6.6153893,3.5319204,19.029713,-7.6286116,-7.5688987,23.700377,44.075344,-13.618667,-1.0689836,-6.1909933
207,-2.9237706661224365,1.2628424167633057,77.89675903320312,0.9598124302238731,1.5430883561920261,3.632245664132695,0.5471293,2.8610015,8.823326,13.051874,-16.978348,-4.676425,2.5728984,-8.4874735,-19.586903,10.455953,-11.694166,10.307292,-2.093042,-1.3280734,10.046738,3.4154534,11.299661,-22.672928,59.410076,6.510538,3.4661095,19.020306,-8.000225,-7.634266,23.685207,43.244255,-13.572744,-1.1547743,-6.25764
208,-3.004193067550659,1.4104632139205933,77.86910247802734,0.9378122826318238,1.70900423456082,3.625716992829638,-0.3489032,2.881566,8.723846,14.559501,-17.547152,-4.6680255,1.9516965,-8.735583,-19.494371,11.308219,-11.927566,10.395328,-2.0114713,-1.2053177,10.254095,3.5639997,11.264408,-22.30966,58.939365,6.4486976,3.445623,18.943548,-8.39018,-7.7007713,23.664112,42.427757,-13.491527,-1.2662101,-6.308559
209,-3.072714328765869,1.5720093250274658,77.8341293334961,0.942406674441101,1.872383160156926,3.568380856112244,-1.3659233,2.8740602,8.602421,16.334074,-18.14364,-4.5568295,1.1883669,-9.059149,-19.32769,12.416172,-12.259328,10.488074,-1.9046326,-1.1041446,10.497806,3.7535372,11.21232,-21.814857,58.348083,6.457526,3.5025597,18.776793,-8.811274,-7.766291,23.638044,41.628426,-13.370818,-1.4071498,-6.332166
210,-3.137493133544922,1.745497465133667,77.7900161743164,0.9597995650003686,2.0247088591707847,3.473038835994751,-2.4660392,2.857456,8.465366,18.319414,-18.767267,-4.3731885,0.32061106,-9.435815,-19.100922,13.731556,-12.666425,10.571246,-1.7827694,-1.0085279,10.7779,3.975232,11.142661,-21.217323,57.666294,6.5052223,3.609745,18.549759,-9.263695,-7.8303676,23.615381,40.85791,-13.220322,-1.5706726,-6.333745
211,-3.2070915699005127,1.922829031944275,77.72274780273438,0.9819620876929217,2.1502651989503088,3.335949196381487,-3.5794628,2.896257,8.411132,20.48404,-19.431177,-4.128998,-0.61948127,-9.846309,-18.814646,15.225258,-13.131965,10.638684,-1.648943,-0.91610795,11.101263,4.2457266,11.053361,-20.511713,56.88218,6.559557,3.7148418,18.29129,-9.731086,-7.893284,23.60243,40.116512,-13.03934,-1.7526816,-6.3372145
212,-3.2795283794403076,2.122264862060547,77.64615631103516,1.0000888435169908,2.2327476082297086,3.1531686704326263,-4.628527,3.0613976,8.5355015,22.784342,-20.142424,-3.8353734,-1.5958128,-10.26909,-18.471498,16.862547,-13.636054,10.688044,-1.5069257,-0.8235066,11.4752035,4.581553,10.9417515,-19.691477,55.983494,6.587726,3.765823,18.030437,-10.196414,-7.955064,23.606464,39.40357,-12.827198,-1.9491792,-6.366538
213,-3.3710110187530518,2.331627130508423,77.54370880126953,1.0154846321037332,2.2641667370308363,2.915092568977604,-5.585616,3.386621,8.92616,25.226473,-20.910221,-3.4868522,-2.6096656,-10.708066,-18.080927,18.661345,-14.188306,10.706585,-1.3512565,-0.72970927,11.911177,4.9923353,10.804097,-18.722446,54.98448,6.661223,3.788182,17.767931,-10.66382,-8.018325,23.63543,38.712353,-12.572159,-2.1576076,-6.432394
214,-3.446390390396118,2.549140453338623,77.41822814941406,1.0308823840077088,2.254105390314424,2.62639843531802,-6.4839773,3.8495302,9.498709,27.818195,-21.729145,-3.068689,-3.6695096,-11.165009,-17.637117,20.612549,-14.785664,10.700162,-1.1837696,-0.633083,12.403128,5.4601407,10.638159,-17.61459,53.88663,6.7707906,3.7965152,17.49051,-11.13873,-8.082554,23.68569,38.043217,-12.278508,-2.3806033,-6.5201516
215,-3.532151460647583,2.7675211429595947,77.27302551269531,1.0382478083684137,2.2118025976304896,2.304504167326697,-7.331513,4.4326634,10.089051,30.50281,-22.581224,-2.58275,-4.750982,-11.611962,-17.123034,22.647402,-15.391074,10.697461,-1.0175633,-0.52987903,12.932375,5.961437,10.444819,-16.431057,52.658257,6.7600937,3.7237685,17.207321,-11.610767,-8.143144,23.746592,37.413563,-11.967465,-2.6224554,-6.6163044
216,-3.611173391342163,2.998084783554077,77.11506652832031,1.0286733868876452,2.1462399760974304,1.967069692833322,-8.142811,5.107707,10.538986,33.227074,-23.445347,-2.0375867,-5.832957,-12.01982,-16.523651,24.706133,-15.971917,10.728227,-0.8634662,-0.41668677,13.480108,6.4784513,10.227356,-15.238441,51.26425,6.4718227,3.504802,16.92688,-12.067514,-8.192943,23.802633,36.839714,-11.6631975,-2.8874817,-6.7073703
217,-3.7060844898223877,3.2244482040405273,76.92626190185547,0.9981111478273028,2.0505953731999496,1.5929335358294177,-8.914351,5.8735647,10.84815,36.011497,-24.333979,-1.4076507,-6.927998,-12.371507,-15.806317,26.812075,-16.528801,10.786885,-0.70735186,-0.29431188,14.062105,7.0507717,9.985266,-14.008662,49.65155,5.6573853,3.035747,16.561697,-12.516923,-8.224551,23.843279,36.320312,-11.352456,-3.1729982,-6.785008
218,-3.7780091762542725,3.464921236038208,76.71861267089844,0.9498939969013646,1.922263593794037,1.1812064089112193,-9.635808,6.7373004,11.082227,38.859966,-25.245663,-0.7016077,-8.043367,-12.675676,-14.991549,28.990633,-17.07638,10.865952,-0.5487452,-0.16393505,14.68134,7.6760974,9.716677,-12.722403,47.848045,4.463363,2.3883097,16.127287,-12.967293,-8.236651,23.876606,35.857494,-11.031183,-3.4786046,-6.8584
219,-3.854290723800659,3.722074508666992,76.4862060546875,0.8856444647701964,1.7761889426757416,0.7794044379822537,-10.315702,7.672993,11.189437,41.69023,-26.129202,0.00721502,-9.143822,-12.943779,-14.147827,31.175314,-17.607689,10.993222,-0.4160411,-0.022058534,15.3003845,8.280328,9.425709,-11.464419,45.937725,3.3308482,1.752882,15.792612,-13.399492,-8.2324705,23.910755,35.462997,-10.737854,-3.8117828,-6.9398785
220,-3.919593334197998,3.977458953857422,76.22830200195312,0.8072260937811911,1.6279871688885528,0.4353250833564533,-10.9712105,8.651364,11.1166115,44.428406,-26.93793,0.65091115,-10.194245,-13.191595,-13.341661,33.300537,-18.114246,11.193811,-0.3345259,0.13367411,15.882036,8.793,9.124152,-10.324505,44.002476,2.7061226,1.3077539,15.742296,-13.791809,-8.221109,23.950861,35.1448,-10.510289,-4.1803384,-7.0408225
221,-3.977447748184204,4.245548725128174,75.95028686523438,0.705673007966486,1.482118269440105,0.14925618231632626,-11.62183,9.665758,10.827639,47.093178,-27.668392,1.2023447,-11.203328,-13.412874,-12.570687,35.37785,-18.599329,11.495321,-0.30967987,0.31484193,16.42189,9.221257,8.8227825,-9.334799,42.05859,2.80269,1.0985373,16.131182,-14.152515,-8.21192,24.006905,34.909496,-10.365772,-4.5902214,-7.1502347
222,-4.023820400238037,4.516811370849609,75.64929962158203,0.5826685467447104,1.3303757057537362,-0.10009390528457902,-12.26617,10.723688,10.357903,49.715424,-28.340975,1.6972942,-12.184988,-13.602584,-11.809989,37.440735,-19.070206,11.880622,-0.32194206,0.51599747,16.941214,9.604626,8.524206,-8.454245,40.05433,3.3514552,1.0316873,16.830992,-14.47428,-8.207516,24.066835,34.732117,-10.280761,-5.0360217,-7.2653117
223,-4.0734100341796875,4.7934250831604,75.33135223388672,0.45675223481575433,1.1694363861380526,-0.29720508265721984,-12.892593,11.81873,9.765984,52.243935,-28.94439,2.1589408,-13.118166,-13.787525,-11.088442,39.47028,-19.53227,12.305202,-0.361353,0.7099201,17.439896,9.926303,8.230244,-7.659377,37.966213,4.07737,1.0717399,17.606474,-14.723334,-8.209951,24.105726,34.58381,-10.230185,-5.508365,-7.4100246
224,-4.1168904304504395,5.056920051574707,75.0116195678711,0.3468477491386814,0.9963175520473678,-0.42660533566225434,-13.485424,12.945185,9.112445,54.626144,-29.466646,2.609994,-13.979516,-13.997112,-10.433083,41.439724,-19.985525,12.722124,-0.41525424,0.87063587,17.918505,10.167488,7.942269,-6.92819,35.769257,4.7057595,1.1732304,18.222261,-14.860354,-8.21968,24.095055,34.429867,-10.190119,-5.9979467,-7.607986
225,-4.152974605560303,5.325361728668213,74.67215728759766,0.26035790123800634,0.8091898218479124,-0.5015627493996748,-14.034489,14.090795,8.393396,56.88329,-29.892574,3.0659096,-14.7980175,-14.237847,-9.813703,43.394505,-20.41997,13.120271,-0.46103954,0.98158586,18.37774,10.340074,7.651304,-6.222333,33.408337,5.2770033,1.3965003,18.67818,-14.887681,-8.239184,24.039251,34.28912,-10.142377,-6.559654,-7.881762
226,-4.157211780548096,5.603052139282227,74.33091735839844,0.1867020545467078,0.6103640602408398,-0.5247273243260179,-14.552395,15.256468,7.587223,59.02995,-30.230614,3.506809,-15.573977,-14.498575,-9.226769,45.330894,-20.837914,13.522748,-0.5123638,1.0616283,18.816359,10.455471,7.35624,-5.5636573,30.908028,5.900336,1.7414279,19.07627,-14.821477,-8.269617,23.950644,34.17033,-10.105403,-7.179157,-8.214144
227,-4.151936054229736,5.884091854095459,73.9963150024414,0.11740413154442014,0.40278765800576316,-0.4643905290372653,-15.061714,16.45847,6.7258873,61.018196,-30.501867,3.9027016,-16.242804,-14.788686,-8.736379,47.152542,-21.260107,13.930197,-0.60914886,1.1316141,19.232014,10.4952,7.079462,-5.020745,28.35722,6.405983,2.0599318,19.337055,-14.647517,-8.311355,23.81137,34.02864,-10.110436,-7.7437267,-8.568458
228,-4.1654815673828125,6.156454086303711,73.65897369384766,0.04442483378799724,0.1894643455963044,-0.2888184641946906,-15.585946,17.712814,5.8404946,62.798717,-30.729372,4.2246256,-16.74194,-15.12199,-8.405895,48.765705,-21.707449,14.341489,-0.78381467,1.2063717,19.624216,10.437205,6.856949,-4.66819,25.84214,6.6202397,2.2018287,19.382973,-14.34124,-8.36393,23.594328,33.806,-10.187015,-8.1405735,-8.906972
229,-4.152605056762695,6.441570281982422,73.33651733398438,-0.036598602069869736,-0.038163884516479084,0.02735028892886412,-16.124039,19.043797,4.925384,64.38528,-30.919617,4.4563174,-17.045204,-15.514308,-8.268257,50.156628,-22.196934,14.754049,-1.0348654,1.2826278,20.005926,10.254487,6.7045603,-4.546128,23.38414,6.2702117,2.0744338,19.143621,-13.887413,-8.425397,23.262684,33.489117,-10.371373,-8.315205,-9.226417
230,-4.195853233337402,6.723706245422363,73.00633239746094,-0.16081225266098256,-0.271004496716839,0.4447703292064621,-16.68716,20.4875,3.950785,65.80982,-31.063763,4.5992193,-17.190544,-15.897922,-8.30851,51.3513,-22.698244,15.000033,-1.3167301,1.3837347,20.367466,9.958405,6.622953,-4.6223946,20.939821,5.511312,1.7793068,18.674131,-13.284938,-8.49654,22.82446,33.089645,-10.636137,-8.335617,-9.54181
231,-4.188751697540283,7.017873764038086,72.7005386352539,-0.32517987276660476,-0.4897364511592587,0.9217673195583662,-17.294855,22.000395,2.933019,67.029274,-31.151604,4.672508,-17.212986,-16.251207,-8.487376,52.35104,-23.181059,15.000033,-1.6179696,1.5075259,20.683876,9.583507,6.6274505,-4.8632913,18.497343,4.8120966,1.4540117,18.08623,-12.528214,-8.580568,22.320448,32.58209,-10.912326,-8.2727165,-9.842679
232,-4.153705596923828,7.312420845031738,72.4140853881836,-0.48195600081568396,-0.6829715954832056,1.4353736072617143,-17.94793,23.477598,1.910897,67.993645,-31.171564,4.7133617,-17.142284,-16.633207,-8.725132,53.175766,-23.632225,15.000033,-1.9417499,1.6091669,20.936901,9.167567,6.7405934,-5.2369876,16.038246,4.6413913,1.2250059,17.495388,-11.607538,-8.681238,21.789492,31.935467,-11.129328,-8.198415,-10.119045
233,-4.109731197357178,7.61971378326416,72.14795684814453,-0.6348357043928847,-0.8574782181538508,1.9843600800980443,-18.645542,24.953594,0.88068414,68.71543,-31.16847,4.7426744,-16.9593,-17.032715,-9.030545,53.81822,-24.083778,15.000033,-2.2813056,1.6928736,21.12052,8.704571,6.979895,-5.786732,13.565328,5.2087984,1.103077,16.929043,-10.495571,-8.79628,21.223747,31.146597,-11.256347,-8.108513,-10.36661
234,-4.064465522766113,7.9397993087768555,71.91798400878906,-0.7850671094884948,-1.019249875126486,2.586816593041289,-19.3832,26.435846,-0.1663703,69.210106,-31.129316,4.7441416,-16.656015,-17.4581,-9.420258,54.281998,-24.535334,15.000033,-2.6313303,1.7556287,21.246984,8.172498,7.343359,-6.52775,11.088093,6.225452,1.0167204,16.325613,-9.187657,-8.92222,20.596231,30.210175,-11.332003,-7.9734607,-10.589178
235,-4.0171356201171875,8.292530059814453,71.71898651123047,-0.9216777511079337,-1.1482216953028206,3.2313956746876276,-20.165318,27.83624,-1.2120509,69.44779,-30.963104,4.6824527,-16.283516,-17.922136,-9.861062,54.582436,-24.9067,15.000033,-2.9866962,1.7841872,21.321075,7.588934,7.8181477,-7.380743,8.591378,7.4187317,0.9623116,15.668612,-7.7077365,-9.060398,19.92252,29.090195,-11.392961,-7.826464,-10.789739
236,-3.9750173091888428,8.652291297912598,71.55529022216797,-1.0329849891314258,-1.225228250899301,3.9069153657279223,-20.991207,29.06706,-2.2358418,69.40338,-30.58201,4.5221453,-15.893236,-18.43765,-10.32156,54.73608,-25.11913,15.000033,-3.351229,1.7667395,21.348381,6.9771113,8.384972,-8.256192,6.0520854,8.521554,0.9412092,14.941658,-6.089548,-9.214184,19.228403,27.762226,-11.475592,-7.702363,-10.972559
237,-3.9217705726623535,9.058723449707031,71.44313049316406,-1.1020377609023888,-1.2427761576579417,4.640218194263026,-21.884785,30.089106,-3.2808592,69.06846,-29.975126,4.2428403,-15.495868,-19.032675,-10.810865,54.770443,-25.176003,15.000033,-3.7501838,1.6915171,21.323141,6.324866,9.037298,-9.146582,3.422068,9.465243,0.95455366,14.063144,-4.30704,-9.382106,18.512358,26.175793,-11.632078,-7.609797,-11.152423
238,-3.8650472164154053,9.495355606079102,71.38002014160156,-1.1377217514116063,-1.2130052657118586,5.427315003451935,-22.828453,30.956085,-4.3421774,68.46403,-29.193258,3.8672533,-15.06446,-19.689339,-11.343274,54.67045,-25.110779,15.000033,-4.1772895,1.5737212,21.244316,5.621387,9.772346,-10.093802,0.72116023,10.395308,0.9955373,13.064896,-2.3485527,-9.557106,17.770031,24.354942,-11.82537,-7.5308776,-11.322291
