unveil-humanoid-operators/unveil-humanoid-operators.github.io/feature-analysis-animation/data/feature_matrix_fixed/weight_kneeling_ankle_peak_vel_high.csv
Frame,root_translateX,root_translateY,root_translateZ,root_rotateX,root_rotateY,root_rotateZ,left_hip_pitch_joint_dof,left_hip_roll_joint_dof,left_hip_yaw_joint_dof,left_knee_joint_dof,left_ankle_pitch_joint_dof,left_ankle_roll_joint_dof,right_hip_pitch_joint_dof,right_hip_roll_joint_dof,right_hip_yaw_joint_dof,right_knee_joint_dof,right_ankle_pitch_joint_dof,right_ankle_roll_joint_dof,waist_yaw_joint_dof,waist_roll_joint_dof,waist_pitch_joint_dof,left_shoulder_pitch_joint_dof,left_shoulder_roll_joint_dof,left_shoulder_yaw_joint_dof,left_elbow_joint_dof,left_wrist_roll_joint_dof,left_wrist_pitch_joint_dof,left_wrist_yaw_joint_dof,right_shoulder_pitch_joint_dof,right_shoulder_roll_joint_dof,right_shoulder_yaw_joint_dof,right_elbow_joint_dof,right_wrist_roll_joint_dof,right_wrist_pitch_joint_dof,right_wrist_yaw_joint_dof
0,0.45531848073005676,2.247182607650757,39.86512756347656,-0.48516853691604933,1.7845049112752394,-88.44760055968496,6.2411075,-15.520653,-10.982593,107.00182,30.000067,-15.000033,7.2196336,7.0803766,-2.8713806,105.23692,30.000067,15.000033,-0.6153348,1.2967443,5.3929386,2.389168,10.075875,-25.365894,60.16225,25.019394,-4.630402,3.5896142,13.881773,-10.277276,14.614507,51.669895,-1.482581,-6.2325697,10.209742
1,0.46113765239715576,2.2470345497131348,39.861392974853516,-0.4805591261433735,1.7903192040799907,-88.44508848693665,6.2181087,-15.526783,-10.988853,107.00988,30.000067,-15.000033,7.2097363,7.066079,-2.879703,105.24161,30.000067,15.000033,-0.6249758,1.2866277,5.368633,2.406792,10.077364,-25.355242,60.152573,25.004848,-4.6283126,3.5950387,13.889607,-10.288061,14.603675,51.669327,-1.4771751,-6.2357473,10.2261915
2,0.4521535336971283,2.2356224060058594,39.858341217041016,-0.47566219489821965,1.796753849258048,-88.44357385837502,6.1937833,-15.53062,-10.993866,107.01837,30.000067,-15.000033,7.198736,7.0525503,-2.8871105,105.24653,30.000067,15.000033,-0.6325251,1.2786735,5.3453,2.4246392,10.078223,-25.34096,60.140305,24.991915,-4.62734,3.5992367,13.897858,-10.301293,14.583429,51.667442,-1.4760957,-6.24017,10.24694
3,0.4577721953392029,2.2477729320526123,39.86159133911133,-0.4710460510560995,1.8014851452590712,-88.4382981981368,6.172722,-15.540435,-11.003809,107.02555,30.000067,-15.000033,7.1912003,7.0375514,-2.8975763,105.25014,30.000067,15.000033,-0.6414591,1.2646711,5.323022,2.430395,10.078142,-25.336885,60.142853,24.977058,-4.623991,3.6063695,13.900168,-10.3032875,14.577171,51.672985,-1.4700328,-6.242062,10.255154
4,0.45997244119644165,2.258392333984375,39.86433029174805,-0.46784221627047945,1.8037333003165656,-88.43152736004255,6.1581655,-15.561662,-11.018483,107.02751,30.000067,-15.000033,7.188242,7.019815,-2.9092238,105.25271,30.000067,15.000033,-0.65026236,1.2539015,5.303915,2.442998,10.076974,-25.323889,60.140003,24.982212,-4.6216974,3.6062987,13.901366,-10.312637,14.552815,51.678288,-1.4790442,-6.2414975,10.274523
5,0.46340253949165344,2.259185791015625,39.864341735839844,-0.46780287536187837,1.7997396044209337,-88.41781124519,6.1575623,-15.602875,-11.047275,107.02399,30.000067,-15.000033,7.197197,6.9995637,-2.9280574,105.25074,30.000067,15.000033,-0.66169506,1.2388736,5.293974,2.4431887,10.076248,-25.321062,60.14947,24.998888,-4.61445,3.6045945,13.898234,-10.316018,14.547709,51.68192,-1.4882668,-6.231613,10.276821
6,0.47137850522994995,2.2541134357452393,39.86343002319336,-0.46983220475953663,1.7923486366614902,-88.39845743129058,6.165611,-15.657813,-11.086311,107.01634,30.000067,-15.000033,7.2135596,6.9771233,-2.952541,105.24569,30.000067,15.000033,-0.67831683,1.2273785,5.2910423,2.4401453,10.072375,-25.314528,60.161438,25.030624,-4.6064234,3.5982106,13.892018,-10.327989,14.544906,51.682117,-1.5018214,-6.2162733,10.277812
7,0.47823408246040344,2.249868869781494,39.864280700683594,-0.4697385234194537,1.7849901845649314,-88.37621065657454,6.172704,-15.717429,-11.126427,107.00788,30.000067,-15.000033,7.229858,6.951262,-2.9771647,105.24112,30.000067,15.000033,-0.69882786,1.2080855,5.2877336,2.4344316,10.070427,-25.314116,60.177753,25.060457,-4.597947,3.5934076,13.882575,-10.333276,14.546485,51.686935,-1.5121994,-6.2013206,10.274859
8,0.4890958368778229,2.2649025917053223,39.86503601074219,-0.4626733727319894,1.7806643133744762,-88.35179528232369,6.1703835,-15.772361,-11.158773,107.00373,30.000067,-15.000033,7.2401385,6.920328,-2.997726,105.23993,30.000067,15.000033,-0.72822016,1.1811965,5.2842484,2.4242196,10.068114,-25.31577,60.197937,25.077923,-4.594929,3.5915008,13.863134,-10.338504,14.545722,51.702244,-1.5096002,-6.193264,10.279204
9,0.5076748728752136,2.3019981384277344,39.87586975097656,-0.4405348695308433,1.7839716077876193,-88.31742655352053,6.1455765,-15.823314,-11.184882,107.00812,30.000067,-15.000033,7.23655,6.8783174,-3.0181062,105.24622,30.000067,15.000033,-0.7758268,1.138022,5.2799997,2.4105093,10.066372,-25.320559,60.21633,25.074366,-4.5974274,3.5939617,13.838822,-10.342008,14.536151,51.72006,-1.4906489,-6.1948133,10.295914
10,0.5210691094398499,2.310292959213257,39.87897872924805,-0.40792174899037215,1.7912899722802214,-88.27523059810906,6.1075745,-15.874409,-11.207691,107.0179,30.000067,-15.000033,7.2252903,6.8280487,-3.0388265,105.25673,30.000067,15.000033,-0.8275047,1.0864679,5.277374,2.3809834,10.06199,-25.338854,60.24557,25.053831,-4.606438,3.5977452,13.797156,-10.347112,14.5031185,51.75679,-1.4618301,-6.2058334,10.328662
11,0.5316419005393982,2.306030511856079,39.87724685668945,-0.38053867041715417,1.7971168716067347,-88.24112674667786,6.07553,-15.920793,-11.222946,107.02378,30.000067,-15.000033,7.216623,6.781067,-3.0511973,105.26587,30.000067,15.000033,-0.88008916,1.0345261,5.271893,2.363514,10.060719,-25.349691,60.267822,25.041151,-4.614179,3.6033924,13.769721,-10.348425,14.489324,51.780537,-1.4332705,-6.214876,10.349515
12,0.5431862473487854,2.293386936187744,39.873046875,-0.370924258950659,1.796225786030121,-88.2277274478677,6.066587,-15.960814,-11.22835,107.01805,30.000067,-15.000033,7.220741,6.7462783,-3.048995,105.26655,30.000067,15.000033,-0.8984026,1.0046239,5.2666397,2.3424745,10.057124,-25.382357,60.295227,25.038609,-4.618875,3.611666,13.73118,-10.352503,14.467509,51.82348,-1.4171785,-6.222109,10.358959
13,0.5673062205314636,2.2884602546691895,39.868980407714844,-0.39104800366457537,1.7799749926711819,-88.2520577187119,6.115034,-16.047222,-11.24141,106.98991,30.000067,-15.000033,7.251236,6.7344966,-3.0212445,105.25342,30.000067,15.000033,-0.87060726,1.0048382,5.257152,2.335655,10.051204,-25.430182,60.322758,25.059132,-4.6146693,3.6243608,13.712887,-10.362667,14.474354,51.861877,-1.41176,-6.2220683,10.334182
14,0.6000669002532959,2.291586399078369,39.867000579833984,-0.4304079866243643,1.7536054783479798,-88.30138973236558,6.200786,-16.16445,-11.259105,106.94535,30.000067,-15.000033,7.299176,6.7369123,-2.975489,105.23078,30.000067,15.000033,-0.8240257,1.0228115,5.2481585,2.3445337,10.045876,-25.470894,60.343,25.103693,-4.6070857,3.6377687,13.6987295,-10.375826,14.50808,51.901234,-1.4144514,-6.217501,10.286634
15,0.6286616921424866,2.2984976768493652,39.86735916137695,-0.47430942098231954,1.73201850150865,-88.35217604348819,6.2653084,-16.200811,-11.2397175,106.90488,30.000067,-15.000033,7.3405833,6.740795,-2.926694,105.209,30.000067,15.000033,-0.78825015,1.0528059,5.227874,2.3665473,10.034815,-25.520782,60.358276,25.136045,-4.5963116,3.65924,13.69168,-10.4094715,14.565621,51.932957,-1.3997421,-6.210265,10.235386
16,0.6527222394943237,2.254239082336426,39.85842514038086,-0.5076108265623179,1.7284896594641708,-88.38102878632873,6.251496,-16.045872,-11.142773,106.88541,30.000067,-15.000033,7.3528585,6.7321877,-2.8897285,105.198235,30.000067,15.000033,-0.7866153,1.0723987,5.2077613,2.3831804,10.02674,-25.545403,60.365658,25.169674,-4.5945477,3.6736805,13.662644,-10.43594,14.583649,51.971546,-1.4033945,-6.206268,10.215319
17,0.6901301145553589,2.2381293773651123,39.859413146972656,-0.5228488637114052,1.7492558094833142,-88.37500035494216,6.118534,-15.552551,-10.908952,106.897896,30.000067,-15.000033,7.327436,6.7058516,-2.8706086,105.2008,30.000067,15.000033,-0.8311319,1.0952529,5.1842356,2.3959134,10.006199,-25.56592,60.36161,25.186432,-4.601755,3.6900902,13.640329,-10.494577,14.5452795,51.98008,-1.4114696,-6.2055154,10.251002
18,0.7260687947273254,2.2432713508605957,39.86454391479492,-0.5286618378525306,1.7857898448554026,-88.34916289265489,5.908821,-14.818858,-10.578823,106.929,30.000067,-15.000033,7.277787,6.669366,-2.8607175,105.211555,30.000067,15.000033,-0.91149116,1.0937669,5.1497774,2.4107518,9.998008,-25.56868,60.357147,25.201235,-4.613771,3.708121,13.584193,-10.515019,14.487701,52.02531,-1.4379914,-6.2089,10.303122
19,0.7698414921760559,2.268399477005005,39.8691291809082,-0.5375276690008203,1.831728473747018,-88.32150581802553,5.6853366,-14.099407,-10.256183,106.97002,30.000067,-15.000033,7.211822,6.6310396,-2.8527412,105.22865,30.000067,15.000033,-0.9620147,1.1186049,5.122289,2.3969233,9.973571,-25.600721,60.358215,25.207006,-4.6291957,3.7182586,13.553182,-10.565156,14.365688,52.029545,-1.474931,-6.2110157,10.376894
20,0.819649338722229,2.285034656524658,39.870635986328125,-0.558883441256774,1.8805960812233393,-88.30950240568944,5.5093718,-13.651426,-10.042688,107.00879,30.000067,-15.000033,7.1386814,6.596206,-2.8396144,105.249985,30.000067,15.000033,-1.0060511,1.1366053,5.0823417,2.3825285,9.959619,-25.624228,60.36957,25.204655,-4.6407156,3.7193997,13.492609,-10.593681,14.30681,52.070507,-1.4911563,-6.209105,10.403239
21,0.8894097805023193,2.2727997303009033,39.8708610534668,-0.5975052866033527,1.9377641625680933,-88.31979924504834,5.391979,-13.593974,-9.985454,107.04627,30.000067,-15.000033,7.048688,6.5652404,-2.8219848,105.27936,30.000067,15.000033,-1.0064845,1.1721994,5.0351286,2.3423095,9.943186,-25.6684,60.397045,25.183397,-4.649572,3.703026,13.438253,-10.632202,14.278788,52.098137,-1.4894037,-6.197056,10.386891
22,0.9284873604774475,2.2840960025787354,39.873146057128906,-0.6469483050488286,2.004541149442262,-88.34181807152012,5.30057,-13.773648,-10.022841,107.087105,30.000067,-15.000033,6.941072,6.5351305,-2.8034613,105.31601,30.000067,15.000033,-0.99584055,1.2034854,4.9794407,2.2952468,9.93876,-25.697727,60.42821,25.160006,-4.6585855,3.671025,13.3726845,-10.647205,14.283258,52.13348,-1.4847337,-6.178067,10.336309
23,0.9703587889671326,2.296999216079712,39.87728500366211,-0.7023932041972186,2.06747586345719,-88.36902804170519,5.228552,-14.038243,-10.08987,107.126366,30.000067,-15.000033,6.837783,6.5082784,-2.7788312,105.35253,30.000067,15.000033,-0.96707076,1.2703145,4.9300466,2.2404683,9.913974,-25.771463,60.458637,25.108534,-4.664277,3.6423404,13.332211,-10.729728,14.291282,52.13081,-1.4384367,-6.159386,10.291396
24,1.0168222188949585,2.327826976776123,39.88703918457031,-0.7573320920766266,2.1136056246216293,-88.39298931251,5.1686597,-14.2369,-10.124149,107.15892,30.000067,-15.000033,6.760958,6.4860306,-2.7451744,105.38124,30.000067,15.000033,-0.9611019,1.3353785,4.901614,2.2053564,9.888201,-25.803843,60.472393,25.093536,-4.671834,3.6139,13.285835,-10.813687,14.289777,52.128696,-1.3961319,-6.149057,10.261074
25,1.0846092700958252,2.340812921524048,39.88742446899414,-0.8115872367867526,2.134964578347119,-88.41352276860621,5.126722,-14.340043,-10.111891,107.18092,30.000067,-15.000033,6.722505,6.4745083,-2.697732,105.397255,30.000067,15.000033,-0.9676116,1.396213,4.89772,2.1888633,9.864121,-25.814783,60.47169,25.115095,-4.6786313,3.5912535,13.22827,-10.888819,14.269832,52.139736,-1.3598365,-6.1486683,10.248189
26,1.1669132709503174,2.3346140384674072,39.88554000854492,-0.8680536075140046,2.140022844571021,-88.43421570828568,5.10372,-14.423912,-10.085472,107.19591,30.000067,-15.000033,6.708782,6.4713106,-2.6398363,105.40581,30.000067,15.000033,-0.9794466,1.4701798,4.9135714,2.18123,9.829302,-25.813353,60.461323,25.158964,-4.685278,3.570611,13.180943,-10.988801,14.239652,52.131496,-1.3162673,-6.152847,10.249738
27,1.242136836051941,2.3449041843414307,39.880523681640625,-0.9250969359070221,2.14017819760711,-88.45329157603261,5.0860248,-14.498798,-10.0511875,107.209724,30.000067,-15.000033,6.7029786,6.4638886,-2.5790045,105.413605,30.000067,15.000033,-0.9935134,1.5382497,4.9343524,2.1739428,9.798113,-25.812683,60.45302,25.202055,-4.691305,3.552249,13.120338,-11.074598,14.199355,52.14287,-1.2662143,-6.1660643,10.251916
28,1.3063337802886963,2.349076271057129,39.87858200073242,-0.9817824297321479,2.146724420185869,-88.46928322312152,5.0600767,-14.5736065,-10.014353,107.22976,30.000067,-15.000033,6.6883445,6.4400535,-2.5226457,105.42762,30.000067,15.000033,-1.0086311,1.601462,4.950585,2.160184,9.771455,-25.826242,60.45149,25.219448,-4.69777,3.535661,13.049091,-11.149434,14.147573,52.172577,-1.1988357,-6.1907215,10.252279
29,1.382057547569275,2.3650224208831787,39.88131332397461,-1.0366549365522508,2.1609957789628615,-88.47596201588621,5.025436,-14.64953,-9.979253,107.25624,30.000067,-15.000033,6.6667175,6.3890896,-2.4785266,105.447975,30.000067,15.000033,-1.0267422,1.6774584,4.9651585,2.1335945,9.734365,-25.86665,60.45854,25.195915,-4.704994,3.5219884,12.995692,-11.249407,14.071704,52.185024,-1.1045631,-6.2312064,10.262467
30,1.4717905521392822,2.370030641555786,39.879371643066406,-1.089851687597531,2.1776571866681427,-88.475837544673,4.9834456,-14.724209,-9.940833,107.29213,30.000067,-15.000033,6.6434145,6.319534,-2.4411008,105.473076,30.000067,15.000033,-1.0516322,1.7426447,4.9774213,2.102923,9.705162,-25.917233,60.472786,25.14975,-4.7117295,3.511084,12.924506,-11.327698,13.984726,52.22741,-0.9987827,-6.286875,10.270086
31,1.5573985576629639,2.384969472885132,39.880733489990234,-1.1464889033727663,2.1979233286433404,-88.4814090004527,4.9387455,-14.793132,-9.894446,107.32619,30.000067,-15.000033,6.611154,6.250713,-2.3969877,105.50233,30.000067,15.000033,-1.0623906,1.8256254,4.9924035,2.0631552,9.662517,-25.984344,60.49003,25.094154,-4.7197156,3.5012457,12.875225,-11.435762,13.880555,52.239574,-0.8689075,-6.3425665,10.286932
32,1.657540202140808,2.3805649280548096,39.87760543823242,-1.209386521540579,2.2228197425529475,-88.50462832457367,4.888844,-14.855738,-9.8333025,107.35619,30.000067,-15.000033,6.5607986,6.2000685,-2.3332884,105.53774,30.000067,15.000033,-1.068215,1.8880925,5.00122,2.031854,9.638964,-26.029854,60.503983,25.0563,-4.729117,3.4891288,12.779242,-11.502758,13.800015,52.30229,-0.7281481,-6.3903594,10.285929
33,1.7442173957824707,2.4086294174194336,39.883056640625,-1.2817068508046678,2.2554054637173517,-88.55283044914515,4.830647,-14.909524,-9.754143,107.37823,30.000067,-15.000033,6.4832406,6.178476,-2.2419846,105.58082,30.000067,15.000033,-1.0377381,1.9759152,5.011649,1.9971275,9.601795,-26.08121,60.50951,25.033396,-4.740673,3.476151,12.713649,-11.613,13.717396,52.315136,-0.54669213,-6.426983,10.286958
34,1.8317625522613525,2.4279236793518066,39.888309478759766,-1.3597300063716615,2.2936399690126583,-88.61836048530792,4.767645,-14.956397,-9.661078,107.39416,30.000067,-15.000033,6.386501,6.173395,-2.131337,105.63011,30.000067,15.000033,-0.99896145,2.0532334,5.016283,1.9691358,9.575552,-26.11477,60.511093,25.024746,-4.7533736,3.4623504,12.617371,-11.700399,13.655486,52.36041,-0.342543,-6.4612846,10.272078
35,1.936700701713562,2.435776948928833,39.88814926147461,-1.4421800876886495,2.3330238401711663,-88.69009098221098,4.6995506,-14.999245,-9.558572,107.413574,30.000067,-15.000033,6.2833943,6.173188,-2.0137768,105.684006,30.000067,15.000033,-0.96116495,2.1282592,5.023955,1.9428687,9.554269,-26.147327,60.509174,25.01572,-4.768503,3.4454708,12.507575,-11.784048,13.593509,52.41142,-0.13409561,-6.48442,10.262325
36,2.044943332672119,2.444511890411377,39.886741638183594,-1.5275192821514323,2.368343440883699,-88.75761427502906,4.6364956,-15.038174,-9.453938,107.4348,30.000067,-15.000033,6.1902947,6.166006,-1.9007882,105.737686,30.000067,15.000033,-0.9418961,2.2058604,5.042111,1.9173673,9.53387,-26.184528,60.503403,24.994963,-4.787873,3.4222682,12.389749,-11.87842,13.521248,52.4554,0.06050482,-6.4875674,10.274688
37,2.1644842624664307,2.449496269226074,39.884368896484375,-1.615599339380022,2.397772878997898,-88.81445506477588,4.5808163,-15.073692,-9.350974,107.46046,30.000067,-15.000033,6.114594,6.143171,-1.8007568,105.789444,30.000067,15.000033,-0.9513057,2.2993727,5.076576,1.8941227,9.507258,-26.233051,60.48713,24.951534,-4.814365,3.389536,12.275662,-12.010766,13.435706,52.46984,0.2551886,-6.457179,10.326224
38,2.2665956020355225,2.4795827865600586,39.8841438293457,-1.7061431276176817,2.4242720585466184,-88.86749031579411,4.524704,-15.1067915,-9.24464,107.4925,30.000067,-15.000033,6.045611,6.1119275,-1.7060188,105.843216,30.000067,15.000033,-0.9804425,2.376214,5.1139746,1.8692282,9.491661,-26.280306,60.47846,24.899683,-4.844596,3.3516903,12.120483,-12.112365,13.348879,52.52509,0.43758827,-6.4049726,10.387184
39,2.3810555934906006,2.486565589904785,39.87731170654297,-1.800226198280619,2.4495906626770867,-88.92618139189376,4.4704227,-15.135442,-9.130081,107.523415,30.000067,-15.000033,5.9751873,6.0867834,-1.6033973,105.898926,30.000067,15.000033,-1.0138851,2.4425373,5.1551414,1.8452387,9.484473,-26.32335,60.47094,24.850765,-4.8753595,3.3119588,11.945568,-12.194362,13.259632,52.59608,0.59374857,-6.3509855,10.448354
40,2.492202043533325,2.506220817565918,39.871604919433594,-1.8989641457222235,2.4760909374380566,-88.99983849023707,4.413938,-15.158755,-9.000396,107.55297,30.000067,-15.000033,5.8929477,6.0823584,-1.4801822,105.95866,30.000067,15.000033,-1.0367473,2.5177727,5.2051487,1.8290206,9.478726,-26.360886,60.446945,24.813257,-4.904605,3.2714427,11.789267,-12.300187,13.162636,52.630733,0.71782035,-6.31345,10.509519
41,2.5926434993743896,2.5332536697387695,39.86570739746094,-2.002961393920151,2.508392718412445,-89.08445001407225,4.346143,-15.176635,-8.861057,107.584564,30.000067,-15.000033,5.790802,6.111368,-1.3399105,106.02214,30.000067,15.000033,-1.061442,2.5808399,5.2531796,1.8129191,9.477439,-26.370085,60.428352,24.80355,-4.93102,3.2366936,11.610587,-12.383112,13.072294,52.685978,0.78878367,-6.3048396,10.555114
42,2.713031053543091,2.5585649013519287,39.86119842529297,-2.1116603942780348,2.5440259960408182,-89.17724022942137,4.270992,-15.1894045,-8.712339,107.6199,30.000067,-15.000033,5.6758666,6.163369,-1.1870861,106.08841,30.000067,15.000033,-1.0870874,2.64633,5.3071604,1.8013865,9.478957,-26.36602,60.39955,24.807762,-4.9571896,3.202356,11.432222,-12.47363,12.978266,52.727196,0.82530004,-6.310759,10.60228
43,2.8507978916168213,2.5667128562927246,39.85392761230469,-2.2236135167966453,2.573686467789558,-89.2891305233363,4.206687,-15.19776,-8.54408,107.64493,30.000067,-15.000033,5.562439,6.2171493,-1.0108564,106.15927,30.000067,15.000033,-1.1048541,2.705885,5.367043,1.7955909,9.483304,-26.356815,60.37133,24.817526,-4.9810047,3.1658938,11.249082,-12.558722,12.8882,52.767147,0.8370643,-6.3205523,10.638767
44,2.9666457176208496,2.5860178470611572,39.84891128540039,-2.3374528234660725,2.5881385877412977,-89.43135035976107,4.1703067,-15.202735,-8.34395,107.651024,30.000067,-15.000033,5.463765,6.251452,-0.7997726,106.235886,30.000067,15.000033,-1.1030648,2.766904,5.44104,1.8060325,9.490938,-26.356417,60.33094,24.819239,-5.002003,3.1207888,11.083378,-12.659041,12.803138,52.77629,0.84344697,-6.3211727,10.665775
45,3.093107223510742,2.6046018600463867,39.84054183959961,-2.4526708728581808,2.5748773552192725,-89.61120280098893,4.1869836,-15.208628,-8.106536,107.6204,30.000067,-15.000033,5.4009953,6.2518873,-0.5425784,106.31419,30.000067,15.000033,-1.0701122,2.822059,5.528223,1.8316487,9.499323,-26.371613,60.29367,24.812897,-5.0181737,3.0627372,10.92674,-12.751742,12.728696,52.78321,0.8482527,-6.3059716,10.669821
46,3.227037191390991,2.583298921585083,39.82289123535156,-2.5702470181299657,2.542058217397772,-89.82127918942851,4.2411866,-15.213955,-7.838165,107.56515,30.000067,-15.000033,5.3610034,6.2328033,-0.24765721,106.39478,30.000067,15.000033,-1.0134541,2.8828535,5.6318426,1.876191,9.509599,-26.39822,60.240948,24.800592,-5.03155,2.9930072,10.793343,-12.864303,12.658384,52.757896,0.8501898,-6.280936,10.664851
47,3.3695948123931885,2.5900635719299316,39.810829162597656,-2.6897084303819803,2.510268966145824,-90.0509492197371,4.2909837,-15.209939,-7.547357,107.510376,30.000067,-15.000033,5.308079,6.2153788,0.06593542,106.4866,30.000067,15.000033,-0.95400095,2.9367757,5.73955,1.9207214,9.521545,-26.418835,60.192993,24.787796,-5.042524,2.9273288,10.65414,-12.976091,12.59116,52.718723,0.82598233,-6.260162,10.652454
48,3.493922472000122,2.623748302459717,39.80304718017578,-2.811309404329758,2.500635590963753,-90.28938685262827,4.2940392,-15.187392,-7.2432127,107.480774,30.000067,-15.000033,5.2060533,6.221793,0.37897742,106.59848,30.000067,15.000033,-0.9124339,2.987635,5.849161,1.9635988,9.540888,-26.420055,60.134514,24.77519,-5.0531707,2.8756957,10.5108,-13.110439,12.520701,52.634583,0.76549923,-6.2546782,10.648668
49,3.6074440479278564,2.6687405109405518,39.80266189575195,-2.9327180372757944,2.522916301009094,-90.53279835898779,4.232093,-15.151698,-6.929536,107.48823,30.000067,-15.000033,5.038724,6.255988,0.68613154,106.73472,30.000067,15.000033,-0.89376307,3.0147605,5.949496,1.9877177,9.565859,-26.386368,60.09026,24.772097,-5.0609784,2.8493845,10.323577,-13.223873,12.452227,52.55584,0.6472109,-6.274611,10.639616
50,3.7324135303497314,2.700852394104004,39.796661376953125,-3.0543709213685086,2.5641450734164732,-90.78720289605587,4.1308494,-15.105049,-6.601467,107.51757,30.000067,-15.000033,4.8284426,6.307174,0.99757296,106.889336,30.000067,15.000033,-0.878576,3.009903,6.034985,1.978384,9.586241,-26.337187,60.096203,24.777063,-5.0633435,2.8469853,10.087125,-13.283716,12.381599,52.51679,0.4697739,-6.3140783,10.610295
51,3.8496346473693848,2.738532066345215,39.791717529296875,-3.1814537823662756,2.611587702445583,-91.0566361941715,4.013099,-15.033093,-6.254563,107.55495,30.000067,-15.000033,4.596278,6.375139,1.3174126,107.057045,30.000067,15.000033,-0.8741029,3.0092325,6.135853,1.9896033,9.629286,-26.281567,60.064373,24.775597,-5.0680523,2.8417454,9.870213,-13.377053,12.302765,52.407505,0.27065283,-6.3568945,10.596179
52,3.9744396209716797,2.7623188495635986,39.77532196044922,-3.318520974161792,2.6520858455773957,-91.34488192260727,3.9020686,-14.922214,-5.8847632,107.585846,30.000067,-15.000033,4.3644714,6.458723,1.6491846,107.23427,30.000067,15.000033,-0.8714446,3.0090444,6.245309,2.012154,9.690732,-26.249386,60.029472,24.756815,-5.0745106,2.830879,9.677417,-13.477664,12.21457,52.24405,0.056103338,-6.3947525,10.590219
53,4.092617511749268,2.8045194149017334,39.76627731323242,-3.4693659206325145,2.6837433387943666,-91.66347524092235,3.8013263,-14.755457,-5.47578,107.60296,30.000067,-15.000033,4.1360145,6.5547357,2.0014389,107.42055,30.000067,15.000033,-0.8508288,3.0089724,6.34968,2.0255241,9.751686,-26.252712,60.034252,24.721182,-5.0827646,2.8184123,9.49851,-13.557929,12.112342,52.05623,-0.17770866,-6.420646,10.584059
54,4.208499431610107,2.834669351577759,39.755882263183594,-3.6313222486610144,2.7128289501435203,-92.00647627383262,3.7006984,-14.544612,-5.0339236,107.616875,30.000067,-15.000033,3.9006567,6.6653385,2.3688495,107.61799,30.000067,15.000033,-0.81798464,3.0164673,6.4672537,2.0676658,9.849958,-26.288038,59.996323,24.659878,-5.094916,2.7950518,9.360563,-13.664727,11.989683,51.786133,-0.42206556,-6.4394355,10.596284
55,4.325963973999023,2.8811140060424805,39.74626541137695,-3.796461753517595,2.736894591514029,-92.35175328402788,3.603597,-14.319228,-4.5934143,107.63383,30.000067,-15.000033,3.6608608,6.795612,2.7364554,107.821495,30.000067,15.000033,-0.8054375,3.0077877,6.595692,2.101423,9.958646,-26.327093,59.97739,24.596872,-5.10497,2.7747605,9.2228565,-13.756071,11.855934,51.487823,-0.7035183,-6.466957,10.607745
56,4.41593599319458,2.9345507621765137,39.74171447753906,-3.9581194152266113,2.7543481547648354,-92.67695476949248,3.511092,-14.109108,-4.1877866,107.65798,30.000067,-15.000033,3.419287,6.9520297,3.0882642,108.02816,30.000067,15.000033,-0.83736026,2.9714289,6.7470565,2.1181078,10.080961,-26.357443,59.9783,24.542418,-5.1097074,2.760191,9.081917,-13.827356,11.702986,51.157352,-1.0382097,-6.5171485,10.6177225
57,4.5135016441345215,2.988135814666748,39.73292922973633,-4.099682677544584,2.7577970910327525,-92.96698435284154,3.4258492,-13.881452,-3.8021057,107.68904,30.000067,-15.000033,3.1938965,7.1181927,3.4182417,108.23245,30.000067,15.000033,-0.9332358,2.88264,6.9397936,2.133294,10.239108,-26.371063,59.969482,24.491714,-5.106282,2.7507977,8.937809,-13.880622,11.523225,50.7815,-1.4549525,-6.596476,10.631447
58,4.606254577636719,3.0475664138793945,39.72953414916992,-4.229615707011603,2.7507467128187706,-93.23682566062628,3.3471963,-13.634122,-3.4273334,107.724,30.000067,-15.000033,2.9787076,7.2969065,3.735087,108.43876,30.000067,15.000033,-1.0766865,2.7536824,7.1571546,2.13362,10.4113245,-26.372509,59.982956,24.445919,-5.096645,2.749259,8.78368,-13.907913,11.325462,50.380722,-1.940411,-6.6970944,10.642825
59,4.681192874908447,3.129523515701294,39.73052978515625,-4.376679130383161,2.748419424555619,-93.50779651962105,3.2640843,-13.444143,-3.1021833,107.77107,30.000067,-15.000033,2.7344599,7.520331,4.046754,108.6523,30.000067,15.000033,-1.2328676,2.6178272,7.3825545,2.143526,10.626195,-26.38514,59.974453,24.399952,-5.0875893,2.7401397,8.637716,-13.919211,11.11163,49.940407,-2.4356885,-6.810337,10.652026
60,4.753912925720215,3.1826093196868896,39.72246551513672,-4.5704606576469695,2.765301018349371,-93.80100467632344,3.1646812,-13.388522,-2.8656476,107.83759,30.000067,-15.000033,2.4241712,7.821803,4.358987,108.88084,30.000067,15.000033,-1.3747216,2.5167634,7.58814,2.147458,10.862508,-26.421326,59.97161,24.36096,-5.085236,2.7190976,8.504532,-13.921246,10.895255,49.47236,-2.8828824,-6.9270077,10.652475
61,4.833894729614258,3.212543249130249,39.71333312988281,-4.823368563084169,2.7965649787634836,-94.12174903898993,3.0643938,-13.613502,-2.7780414,107.92342,30.000067,-15.000033,2.0625448,8.235305,4.678921,109.108444,30.000067,15.000033,-1.4950858,2.463577,7.771767,2.153386,11.118382,-26.481268,59.970203,24.335878,-5.097058,2.677866,8.405873,-13.920503,10.679462,48.951046,-3.2632327,-7.041222,10.638375
62,4.903163909912109,3.2700016498565674,39.71682357788086,-5.1203996586743825,2.836850304176725,-94.45672562802844,2.9582207,-14.03794,-2.792917,108.026085,30.000067,-15.000033,1.6627287,8.737169,4.9964485,109.33742,30.000067,15.000033,-1.6125082,2.4412649,7.9451857,2.1587427,11.3935995,-26.557941,59.970512,24.320517,-5.1180077,2.6227295,8.33437,-13.9179945,10.459125,48.378174,-3.6067033,-7.1583877,10.615107
63,4.941283702850342,3.3715360164642334,39.74313735961914,-5.443399663798528,2.89706411217659,-94.80036289921499,2.8120315,-14.397923,-2.8068497,108.148224,30.000067,-15.000033,1.1877506,9.268025,5.296299,109.59826,30.000067,15.000033,-1.7323794,2.4396048,8.110094,2.1484416,11.686643,-26.658728,59.977547,24.302925,-5.1351085,2.5678768,8.261446,-13.915015,10.226875,47.79091,-3.9288929,-7.2866206,10.596961
64,4.983348846435547,3.4756393432617188,39.786251068115234,-5.775892410906228,2.9938540879471227,-95.14106076725497,2.5851893,-14.405283,-2.716379,108.29374,30.000067,-15.000033,0.5970669,9.768487,5.557316,109.919136,30.000067,15.000033,-1.8658452,2.4516315,8.26229,2.1063924,11.994772,-26.792292,59.99753,24.269768,-5.135299,2.5278003,8.159446,-13.9124775,9.974682,47.22603,-4.245588,-7.434223,10.598393
65,5.028453350067139,3.5732004642486572,39.83926010131836,-6.098052973420506,3.139313202954478,-95.4614001311304,2.2555096,-14.017454,-2.51382,108.47388,30.000067,-15.000033,-0.11182206,10.269602,5.786437,110.290596,30.000067,15.000033,-2.0188534,2.4551015,8.39768,2.0000398,12.319978,-26.983847,60.04864,24.211567,-5.11282,2.5041685,8.023007,-13.909266,9.695416,46.69091,-4.5508747,-7.618594,10.626973
66,5.069243431091309,3.6908063888549805,39.902217864990234,-6.423097027796866,3.3122086681217824,-95.78127424869214,1.8694171,-13.409526,-2.261001,108.67259,30.000067,-15.000033,-0.90889174,10.786869,5.9971223,110.7033,30.000067,15.000033,-2.1737716,2.4579685,8.528305,1.8447953,12.662966,-27.222994,60.123756,24.13705,-5.07528,2.4903886,7.868217,-13.90348,9.393271,46.16589,-4.84025,-7.83079,10.673426
67,5.122415542602539,3.812493324279785,39.98430252075195,-6.787532487253099,3.4953659767654965,-96.13305445217142,1.4612101,-12.570438,-1.9468625,108.87561,30.000067,-15.000033,-1.807671,11.23906,6.1646357,111.18147,30.000067,15.000033,-2.3222263,2.5038755,8.659572,1.6945354,13.017147,-27.46377,60.195732,24.061716,-5.0299892,2.4890501,7.696978,-13.899886,9.077364,45.65012,-5.1314282,-8.039366,10.7263565
68,5.139584541320801,3.923780918121338,40.08024978637695,-7.225273527172212,3.6529032895188367,-96.56891438509268,1.0932556,-11.5572815,-1.571243,109.05227,30.000067,-15.000033,-2.812789,11.545854,6.2829695,111.76135,30.000067,15.000033,-2.4379795,2.6335874,8.812712,1.6025764,13.37134,-27.657473,60.24083,24.002062,-4.984576,2.5031993,7.510319,-13.906595,8.759458,45.142223,-5.4407597,-8.212541,10.774708
69,5.171655178070068,4.035381317138672,40.17885208129883,-7.75932424227713,3.7778210460219683,-97.10517647039202,0.7896188,-10.286308,-1.1110103,109.19763,30.000067,-15.000033,-3.9192712,11.668297,6.3215537,112.43498,30.000067,15.000033,-2.5149379,2.8725865,8.979572,1.5720319,13.719087,-27.80697,60.273308,23.978432,-4.9359283,2.555588,7.3097277,-13.926457,8.440157,44.64462,-5.7722864,-8.33831,10.827007
70,5.214147567749023,4.132904529571533,40.28863525390625,-8.371657338453849,3.8864702313920434,-97.71601765190265,0.5157958,-8.766195,-0.56805444,109.33255,29.98821,-15.000033,-5.135184,11.657971,6.2919235,113.1914,30.000067,15.000033,-2.5684555,3.2026916,9.151293,1.5734457,14.058775,-27.930767,60.307144,23.978142,-4.8816986,2.6387157,7.0941176,-13.960538,8.116159,44.156624,-6.1157556,-8.434593,10.886006
71,5.249166965484619,4.266866683959961,40.419944763183594,-9.027644513353161,3.969919179292249,-98.3943299961578,0.2715591,-7.1914444,0.0058160108,109.44269,29.977169,-15.000033,-6.4593863,11.56424,6.2692623,114.049065,30.000067,15.000033,-2.599037,3.593049,9.351645,1.613108,14.385124,-28.000778,60.318825,23.969679,-4.830708,2.7099793,6.8618555,-14.017061,7.7938027,43.67099,-6.4650493,-8.514213,10.932261
72,5.281269073486328,4.415724754333496,40.56848907470703,-9.691949125021006,4.021306865561294,-99.13180178147088,0.05009764,-5.7588835,0.5643075,109.513626,29.97731,-15.000033,-7.8918734,11.441416,6.330174,115.022484,30.000067,15.000033,-2.6095824,4.01438,9.60312,1.6994904,14.690823,-27.985518,60.284115,23.92289,-4.7920775,2.7268565,6.610804,-14.109244,7.482254,43.17931,-6.8122005,-8.589531,10.946613
73,5.331355094909668,4.596615314483643,40.734130859375,-10.358200726482224,4.044848037823716,-99.93755245722056,-0.16870615,-4.5312324,1.097455,109.543625,29.984734,-15.000033,-9.444318,11.313445,6.496474,116.13179,30.000067,15.000033,-2.5715234,4.472086,9.90442,1.8186923,14.967154,-27.871862,60.209126,23.860754,-4.7716374,2.6738584,6.34853,-14.249417,7.183939,42.68416,-7.137447,-8.666393,10.908159
74,5.406899929046631,4.738819599151611,40.89531707763672,-11.036257839800111,4.04891506628024,-100.82725584574438,-0.390415,-3.4051692,1.6464746,109.5395,30.000067,-15.000033,-11.139744,11.10791,6.7338443,117.372215,30.000067,15.000033,-2.4787369,4.975012,10.230266,1.969469,15.210393,-27.674778,60.10866,23.790972,-4.7639003,2.5754414,6.07536,-14.439113,6.89759,42.184425,-7.4460893,-8.736458,10.834245
75,5.498557090759277,4.883934497833252,41.0736083984375,-11.715548625415254,4.031864584312469,-101.79729247078483,-0.5982032,-2.3355289,2.2377827,109.507484,30.000067,-15.000033,-12.998648,10.748824,7.032971,118.72678,30.000067,15.000033,-2.374095,5.4992127,10.572741,2.1809163,15.423215,-27.406582,59.968052,23.656963,-4.7608724,2.4486196,5.776831,-14.66864,6.6297274,41.668472,-7.766274,-8.790664,10.764306
76,5.5798773765563965,5.026092529296875,41.224727630615234,-12.407458325982686,3.9721065163249003,-102.800746883351,-0.7477583,-1.2535874,2.8577864,109.44904,30.000067,-15.000033,-14.953573,10.326592,7.404405,120.13347,30.000067,15.000033,-2.344453,6.0449657,10.956884,2.4846818,15.61158,-27.07884,59.768612,23.402588,-4.753792,2.310459,5.4341455,-14.925868,6.384738,41.129517,-8.129656,-8.820823,10.735922
77,5.663574695587158,5.1567230224609375,41.379119873046875,-13.116291596179735,3.8672548462189975,-103.86262244502758,-0.8336909,-0.12736347,3.5358517,109.359314,30.000067,-15.000033,-17.092905,9.396423,7.734395,121.637886,30.000067,14.521417,-2.401197,6.612494,11.387339,2.9189153,15.775919,-26.639814,59.47437,22.99019,-4.7287054,2.1665487,5.021568,-15.199186,6.156771,40.57248,-8.585717,-8.804135,10.783685
78,5.774575710296631,5.304020881652832,41.540863037109375,-13.832607679700649,3.725609790168584,-104.98901244346102,-0.87997335,1.0007526,4.2668777,109.243484,30.000067,-15.000033,-19.558031,7.310735,7.8567567,123.28931,30.000067,12.62943,-2.515462,7.198926,11.855502,3.4587884,15.915851,-26.09912,59.103775,22.457563,-4.692962,2.007183,4.549528,-15.488679,5.9477544,40.006725,-9.108434,-8.75293,10.877607
79,5.8950958251953125,5.451550006866455,41.69123840332031,-14.542302385704847,3.5537395873144684,-106.1258807119903,-0.89556676,2.0809453,5.006037,109.115616,30.000067,-15.000033,-22.159517,5.213279,8.121934,124.96556,30.000067,10.601163,-2.688114,7.7887444,12.352515,4.0415926,16.040049,-25.56483,58.716988,21.858292,-4.6693897,1.8255326,4.0591154,-15.801509,5.7726316,39.42595,-9.613463,-8.711358,10.95977
80,6.02203369140625,5.59589958190918,41.848052978515625,-15.230720561698568,3.3597645276357047,-107.22315111539108,-0.8939892,3.065159,5.7103076,108.99515,30.000067,-15.000033,-24.89387,3.1673944,8.482049,126.63057,30.000067,8.248036,-2.915017,8.368912,12.873294,4.6069627,16.163546,-25.14685,58.368027,21.246042,-4.6808577,1.613913,3.5956132,-16.147415,5.6421556,38.818035,-10.015504,-8.722624,10.973701
81,6.125936508178711,5.721595764160156,41.98354721069336,-15.88838505148211,3.114847135373494,-108.26407456572781,-0.83834326,3.9139457,6.3637476,108.87195,30.000067,-15.000033,-27.732346,1.1549407,8.9015465,128.31947,30.000067,5.4426794,-3.2109773,8.922747,13.463425,5.1727905,16.297693,-24.828938,58.03906,20.556139,-4.7414856,1.3522472,3.162535,-16.531065,5.5739202,38.168514,-10.3216915,-8.81068,10.890008
82,6.232913017272949,5.869504451751709,42.11569595336914,-16.522522863987692,2.8243581707580607,-109.27235717314431,-0.7353701,4.659389,6.989804,108.7409,30.000067,-15.000033,-30.69646,-0.84961206,9.4088335,130.0361,30.000067,2.2989416,-3.5759475,9.457929,14.119701,5.76976,16.444328,-24.565619,57.693855,19.78352,-4.8346434,1.0467535,2.7403855,-16.9495,5.558416,37.481525,-10.564121,-8.947861,10.745723
83,6.351701259613037,6.0149006843566895,42.2381706237793,-17.14585620436979,2.5554169805758833,-110.27211534124402,-0.6752268,5.3618636,7.608207,108.62333,30.000067,-15.000033,-33.870476,-2.7407134,10.055394,131.70625,30.000067,-0.96069026,-3.9657815,9.999091,14.752332,6.350325,16.605537,-24.428474,57.36801,19.069536,-4.938769,0.73141223,2.3438241,-17.400776,5.560407,36.771214,-10.697285,-9.0996,10.582581
84,6.474721431732178,6.1469292640686035,42.361419677734375,-17.76599204620926,2.3861020249103695,-111.30751048152399,-0.76415104,6.080553,8.253612,108.54544,30.000067,-15.000033,-37.384327,-4.379883,10.893488,133.2613,30.000067,-4.1051016,-4.3112483,10.570394,15.252398,6.861773,16.782278,-24.499306,57.10184,18.555325,-5.0342817,0.44171926,1.9960791,-17.88223,5.535568,36.045567,-10.676129,-9.232152,10.44451
85,6.606603622436523,6.276456356048584,42.48908996582031,-18.366119273781855,2.3291341919014186,-112.38820643716711,-1.0171226,6.797634,8.926044,108.51207,30.000067,-15.000033,-41.311455,-5.7747197,11.930779,134.73077,30.000067,-7.179336,-4.6091495,11.154968,15.601067,7.304797,16.979685,-24.81381,56.902752,18.266014,-5.1218033,0.17385939,1.702226,-18.392292,5.4754086,35.28934,-10.470501,-9.330143,10.370073
86,6.749250888824463,6.41616153717041,42.61573028564453,-18.931543973066425,2.3641803069413707,-113.5250185071597,-1.4099466,7.481875,9.636645,108.51452,30.000067,-15.000033,-45.66772,-6.9412365,13.129553,136.15569,30.000067,-10.292089,-4.852879,11.732641,15.8231,7.7000413,17.201036,-25.333069,56.75256,18.128881,-5.211788,-0.086003624,1.4608403,-18.928946,5.394151,34.496433,-10.111652,-9.414079,10.328561
87,6.9088311195373535,6.543450832366943,42.7445182800293,-19.46836458644686,2.5321986109030017,-114.79151675180053,-2.0091815,8.174677,10.458454,108.568886,30.000067,-15.000033,-50.559536,-7.7463956,14.467228,137.50117,30.000067,-13.346724,-4.94213,12.319071,15.848381,8.024465,17.442583,-26.027925,56.657356,18.139585,-5.3013597,-0.3155236,1.286862,-19.489801,5.2813096,33.68966,-9.648294,-9.5045,10.258967
88,7.075951099395752,6.6734395027160645,42.86662292480469,-19.99433915197636,2.8647313311521194,-116.26308852948328,-2.8690393,8.932911,11.455762,108.6873,30.000067,-15.000033,-55.815273,-7.101341,15.945994,138.71715,30.000067,-15.000033,-4.772153,12.934853,15.611336,8.251641,17.696398,-26.872265,56.627987,18.29462,-5.387443,-0.49170867,1.1988617,-20.071291,5.1236687,32.89002,-9.130236,-9.622512,10.10018
89,7.101266860961914,6.651209831237793,42.924888610839844,-20.342123142173623,1.9368959304155677,-115.66367370240441,-1.6207682,9.147847,11.021123,108.441376,30.000067,-15.000033,-51.045715,3.9353225,18.03663,140.9356,20.419638,-3.4035215,-6.3865347,13.301792,17.187998,8.368695,17.990873,-27.906208,56.688282,18.621971,-5.4842196,-0.6127486,1.2053902,-20.656858,4.930464,32.08211,-8.555143,-9.7509575,9.847575
90,7.201939582824707,6.633534908294678,42.932586669921875,-20.179221419099882,1.392928643260088,-115.37798191028295,-0.91983175,8.852831,11.12059,108.25886,30.000067,-15.000033,-46.745796,12.073761,22.35956,143.40173,10.030638,5.8335266,-7.65143,13.2146225,18.20698,8.410384,18.31855,-29.138002,56.79983,19.109447,-5.5870466,-0.68619746,1.305488,-21.255615,4.695102,31.260742,-7.9101725,-9.893699,9.53049
91,7.340485572814941,6.673692226409912,42.946563720703125,-19.873553922078017,1.2106718041622173,-115.64357035726657,-0.8250241,8.542746,11.71145,108.1887,30.000067,-15.000033,-46.122658,14.279658,26.252398,145.45593,2.582007,8.205271,-8.359357,13.03931,18.662144,8.385035,18.65995,-30.4613,56.93294,19.707613,-5.6720815,-0.72283924,1.4909896,-21.859482,4.4102483,30.448463,-7.201565,-10.079086,9.137627
92,7.463983535766602,6.737269401550293,42.95247268676758,-19.566546301369524,1.1410456078089384,-116.14533844182213,-0.9087403,8.326004,12.485784,108.142136,30.000067,-15.000033,-47.444946,14.010056,29.301195,147.10754,-3.3750894,7.8132195,-8.772505,12.8952265,18.906633,8.305178,18.995213,-31.760036,57.06482,20.371605,-5.714758,-0.7325689,1.7440978,-22.455942,4.0766206,29.677786,-6.4400535,-10.333398,8.65685
93,7.572171211242676,6.806948184967041,42.953887939453125,-19.20240220906323,1.1107361879916375,-116.72340579378726,-1.0297624,8.142712,13.377616,108.09668,30.000067,-15.000033,-49.769306,12.537601,31.894676,148.45132,-8.8888,6.413538,-9.031904,12.73049,19.050089,8.139548,19.315847,-33.077213,57.233444,21.128447,-5.705835,-0.71111584,2.0661597,-23.046083,3.694271,28.960827,-5.6159787,-10.697541,8.057148
94,7.688012599945068,6.878201007843018,42.94321060180664,-18.77766016388168,1.0776886368061693,-117.28894180499317,-1.1137415,7.9556894,14.319486,108.041626,30.000067,-15.000033,-52.679188,10.327088,34.19888,149.56238,-14.489728,4.4747267,-9.22214,12.533465,19.158686,7.8828983,19.62067,-34.448914,57.45464,21.992956,-5.6580815,-0.6539517,2.4621205,-23.632133,3.2654457,28.286175,-4.732662,-11.150027,7.3554535
95,7.775645732879639,6.947155952453613,42.928531646728516,-18.3874551978499,0.9780985749360976,-117.77104949791864,-1.0809908,7.785999,15.163784,107.95462,30.000067,-15.000033,-55.69383,8.066049,36.072636,150.37712,-19.78898,2.592153,-9.420362,12.369451,19.338379,7.5936418,19.903965,-35.740013,57.67053,22.90339,-5.579787,-0.5706539,2.907122,-24.198866,2.801964,27.663282,-3.8203316,-11.624128,6.6086726
96,7.820186138153076,6.994203567504883,42.92164611816406,-18.09649168614036,0.7861288485167586,-118.14553352829878,-0.9173942,7.633962,15.816291,107.82553,30.000067,-15.000033,-58.362965,6.3915067,37.46687,150.84549,-24.245358,1.3235388,-9.669763,12.274006,19.63914,7.335482,20.160648,-36.805214,57.826946,23.800907,-5.4795327,-0.4697799,3.3615336,-24.725344,2.3275728,27.111588,-2.9117002,-12.048199,5.8676853
97,7.849815368652344,7.041092395782471,42.91660690307617,-17.890097985845735,0.5041925103745821,-118.41140224508294,-0.63831353,7.4551716,16.270313,107.644714,30.000067,-15.000033,-60.55862,5.4770913,38.474815,150.92456,-27.535458,0.87010074,-9.976988,12.222784,20.055605,7.113614,20.389034,-37.61881,57.930805,24.754387,-5.3434114,-0.34160927,3.8049202,-25.198044,1.8488201,26.659466,-1.9898982,-12.423795,5.1161227
98,7.873208999633789,7.089563369750977,42.904945373535156,-17.704601400143485,0.1703839899313246,-118.59661988885014,-0.30353904,7.234275,16.60676,107.439705,30.000067,-15.000033,-62.441833,5.026943,39.23242,150.67387,-29.974932,1.0300072,-10.312208,12.165121,20.53011,6.900438,20.591488,-38.24532,58.012585,25.77022,-5.170597,-0.18637165,4.2473125,-25.618835,1.3635375,26.302155,-1.0529046,-12.783662,4.332053
99,7.880647659301758,7.133294582366943,42.88177490234375,-17.518965613878226,-0.17731427644477155,-118.74461268732159,0.05900056,6.9627786,16.868587,107.208885,30.000067,-15.000033,-64.09263,4.8913746,39.741516,150.20996,-31.87587,1.6229019,-10.642695,12.089807,21.013853,6.712675,20.770214,-38.674164,58.049427,26.69474,-4.991675,-0.02624603,4.6935444,-25.991589,0.88271356,26.008835,-0.1507809,-13.100138,3.5563467
100,7.857970237731934,7.186092376708984,42.8421516418457,-17.321132518591345,-0.5063359402702995,-118.89828621112031,0.41520476,6.658244,17.09912,106.97308,30.000067,-15.000033,-65.58326,4.938397,39.98931,149.65656,-33.568645,2.4899888,-10.93965,11.993913,21.466818,6.5712333,20.92795,-38.887547,58.014496,27.376566,-4.838712,0.118054144,5.141094,-26.320189,0.42440522,25.753773,0.66929,-13.343241,2.8277283
101,7.835397720336914,7.229549407958984,42.799766540527344,-17.11526712080372,-0.8122393435579941,-119.07036992231649,0.7581919,6.3223634,17.304573,106.72469,30.000067,-15.000033,-66.862885,5.236249,39.976288,148.96962,-35.041954,3.7721229,-11.196216,11.886762,21.890696,6.4950786,21.065151,-38.84502,57.881668,27.797237,-4.7125335,0.25272632,5.5896316,-26.60762,-0.009514041,25.526703,1.4055486,-13.481059,2.1276157
102,7.820101737976074,7.250546455383301,42.76410675048828,-16.900608974552544,-1.1066712673220198,-119.24437204355041,1.097457,5.9443865,17.47114,106.45753,30.000067,-15.000033,-67.92326,5.8139396,39.742184,148.11768,-36.178326,5.4974833,-11.423877,11.763336,22.297634,6.4720488,21.182293,-38.562508,57.667904,28.030952,-4.600273,0.3854232,6.033985,-26.854664,-0.4232023,25.345154,2.0845358,-13.53492,1.4419681
103,7.781091213226318,7.288288116455078,42.723201751708984,-16.66037794638787,-1.3830923443056449,-119.40382476987673,1.4245768,5.521271,17.606493,106.188126,30.000067,-15.000033,-68.903336,6.4689956,39.292305,147.20027,-37.09043,7.33209,-11.635423,11.602384,22.670294,6.4747076,21.2829,-38.110607,57.410564,28.06357,-4.5142303,0.499267,6.468282,-27.059565,-0.8097383,25.221193,2.7006,-13.552253,0.8173871
104,7.723487377166748,7.328359127044678,42.667686462402344,-16.37962012793582,-1.6354770851070284,-119.53017843079907,1.734679,5.055336,17.713915,105.931366,30.000067,-15.000033,-69.92579,7.0059786,38.609592,146.3181,-37.87568,8.949158,-11.843709,11.387151,22.995262,6.475685,21.372023,-37.561966,57.1452,27.8808,-4.466584,0.5770652,6.88883,-27.217651,-1.1637652,25.165962,3.2468843,-13.579263,0.30175915
105,7.6657562255859375,7.364376544952393,42.6070671081543,-16.056632912205675,-1.8633102038251934,-119.62478738486071,2.0269597,4.53834,17.795158,105.68638,30.000067,-15.000033,-71.022125,7.384304,37.644516,145.48764,-38.52654,10.299485,-12.029567,11.1077,23.257587,6.454358,21.436792,-36.90868,56.908978,27.417782,-4.467974,0.6022692,7.3075542,-27.30997,-1.4978215,25.189768,3.6987505,-13.634464,-0.09291128
106,7.609735488891602,7.403326988220215,42.54047775268555,-15.701378713136389,-2.069377534852485,-119.69586139303566,2.306695,3.9779732,17.849264,105.44562,30.000067,-15.000033,-72.10949,7.7103143,36.418716,144.66066,-39.00818,11.570276,-12.203035,10.785359,23.480003,6.459201,21.501184,-36.103897,56.62458,26.703913,-4.511395,0.58000743,7.7199616,-27.368681,-1.8075119,25.27459,4.083757,-13.686113,-0.3846093
107,7.551159858703613,7.449089527130127,42.47917938232422,-15.325366673320167,-2.2578905474231687,-119.73455551822865,2.5712566,3.4000366,17.869911,105.221245,30.000067,-15.000033,-73.134476,8.008982,35.014652,143.83623,-39.36278,12.793211,-12.36987,10.43259,23.668812,6.454031,21.555435,-35.241463,56.32706,25.854555,-4.5738716,0.5511357,8.122921,-27.38216,-2.0911407,25.407822,4.41619,-13.709538,-0.59181994
108,7.4919538497924805,7.496060371398926,42.40043258666992,-14.9387789761193,-2.432705770927459,-119.73203614759315,2.8172348,2.8367271,17.85743,105.0257,30.000067,-15.000033,-74.050735,8.306347,33.51719,143.01625,-39.63601,13.994816,-12.545842,10.065249,23.840223,6.4238734,21.60278,-34.39419,56.016335,24.991613,-4.635981,0.55126864,8.51459,-27.3547,-2.346832,25.563828,4.7207685,-13.679228,-0.7259709
109,7.424869537353516,7.553676605224609,42.32170104980469,-14.53715891613493,-2.588324399948701,-119.68503257462586,3.0437183,2.3112724,17.820688,104.87297,30.000067,-15.000033,-74.90481,8.540698,31.890486,142.20407,-39.822796,15.000033,-12.745486,9.666844,23.999426,6.391813,21.657625,-33.52061,55.656395,24.103481,-4.7002044,0.5862983,8.87758,-27.273523,-2.5748029,25.742788,4.9848185,-13.579982,-0.7678605
110,7.346219539642334,7.621142864227295,42.24620056152344,-14.129271092912251,-2.726444446313352,-119.60045948027292,3.2522209,1.8226548,17.746029,104.7503,30.000067,-15.000033,-75.851555,8.48604,29.759892,141.38637,-39.867664,15.000033,-12.944712,9.221713,24.134888,6.3575296,21.733011,-32.60643,55.25539,23.136818,-4.7733903,0.6381698,9.219387,-27.107267,-2.7769957,25.956087,5.1855693,-13.42872,-0.72484064
111,7.263837814331055,7.682908535003662,42.17082595825195,-13.715374357156083,-2.8558015324819,-119.48437045097097,3.441537,1.3161787,17.624949,104.644135,30.000067,-15.000033,-76.637215,8.462611,27.550173,140.5693,-39.84102,15.000033,-13.120882,8.773998,24.248674,6.2794933,21.80377,-31.743465,54.86524,22.166422,-4.847534,0.7040405,9.586444,-26.899117,-2.9671018,26.172125,5.361313,-13.244552,-0.6295521
112,7.156140327453613,7.758877277374268,42.11000061035156,-13.510259571073833,-3.015652299901408,-119.38560870470513,3.6498582,0.98951846,17.390371,104.56254,30.000067,-15.000033,-77.25524,8.502222,24.980015,139.67296,-39.70561,15.000033,-13.246754,8.522123,24.427786,6.1617923,21.87911,-30.942087,54.49781,21.29445,-4.91579,0.776448,9.958297,-26.641296,-3.1037993,26.395494,5.5197215,-13.051458,-0.52946484
113,7.026279926300049,7.840813159942627,42.05077362060547,-13.461238906885653,-3.2150343631315974,-119.28592571916886,3.8873947,0.7477536,17.02707,104.47971,30.000067,-15.000033,-77.61823,8.675093,22.09097,138.68738,-39.477386,15.000033,-13.342504,8.410941,24.663084,6.013075,21.955366,-30.212452,54.14708,20.504215,-4.9759564,0.8681222,10.349719,-26.354454,-3.177724,26.616987,5.689116,-12.832113,-0.4314336
114,6.8855881690979,7.914486408233643,41.99475860595703,-13.44330936047977,-3.4377733804427866,-119.1610212977874,4.1473837,0.4754994,16.577044,104.38745,30.000067,-15.000033,-77.747955,8.971937,19.076366,137.66565,-39.196537,15.000033,-13.427415,8.307207,24.915787,5.845181,22.044533,-29.523016,53.7961,19.764969,-5.0327525,0.9769485,10.753767,-26.015516,-3.195277,26.841013,5.844819,-12.582448,-0.31750545
115,6.735019207000732,7.999997615814209,41.939170837402344,-13.376214416386965,-3.6559281950185416,-119.01681997943012,4.3999705,0.14547554,16.115206,104.29908,30.000067,-15.000033,-77.7447,9.302797,16.171778,136.68054,-38.92041,15.000033,-13.486789,8.163194,25.150202,5.641183,22.144146,-28.892618,53.459118,19.12841,-5.0887685,1.0749298,11.169946,-25.645006,-3.178411,27.067131,5.9725556,-12.339221,-0.17656162
116,6.577723503112793,8.089449882507324,41.872371673583984,-13.199515547138548,-3.836151656221316,-118.8655289277499,4.602214,-0.26371425,15.702533,104.22747,30.000067,-15.000033,-77.71071,9.564114,13.571791,135.80042,-38.684372,15.000033,-13.504373,7.943695,25.328709,5.3841333,22.251507,-28.332006,53.15316,18.64986,-5.1459007,1.1347394,11.588836,-25.252718,-3.1432111,27.301022,6.0503545,-12.141105,-5.5263707e-05
117,6.432496547698975,8.172618865966797,41.792686462402344,-12.927508209768106,-3.9798421486911404,-118.7149292988684,4.7495737,-0.7142681,15.346958,104.19281,30.000067,-15.000033,-77.64642,9.735728,11.199879,135.01009,-38.46468,15.000033,-13.46782,7.6740336,25.456964,5.056686,22.363316,-27.85795,52.888893,18.364513,-5.209189,1.1379006,12.019878,-24.843699,-3.0877361,27.540995,6.100536,-12.007794,0.19976407
118,6.288830280303955,8.262497901916504,41.71139907836914,-12.5949064288462,-4.098840414520056,-118.5595876801104,4.855807,-1.2041526,15.009039,104.182526,30.000067,-15.000033,-77.512596,9.868038,8.960435,134.28316,-38.236988,15.000033,-13.389484,7.3768163,25.549877,4.669014,22.477116,-27.46102,52.658882,18.235514,-5.2755785,1.1035048,12.463117,-24.417542,-3.0046458,27.786795,6.1272454,-11.916014,0.4241137
119,6.156637191772461,8.360918998718262,41.6246337890625,-12.181196565567184,-4.165670877735409,-118.39480875372034,4.890669,-1.745558,14.713326,104.191284,30.000067,-15.000033,-77.352974,9.94912,6.9912353,133.64938,-38.019516,15.000033,-13.288277,7.030348,25.582262,4.2448726,22.588474,-27.113192,52.452198,18.211586,-5.334522,1.0603846,12.897554,-23.978115,-2.9035597,28.041498,6.083488,-11.837216,0.70238966
120,6.029275417327881,8.451088905334473,41.54061508178711,-11.67152394879926,-4.153572233561156,-118.21584411607796,4.8247843,-2.3603098,14.47129,104.20886,30.000067,-15.000033,-77.21336,9.961879,5.419912,133.14197,-37.830036,15.000033,-13.184248,6.618215,25.53026,3.806806,22.691555,-26.786495,52.259846,18.241383,-5.3756266,1.0375637,13.300749,-23.532156,-2.7940342,28.308546,5.922218,-11.743321,1.0641813
121,5.91367244720459,8.546950340270996,41.45718002319336,-11.071993212844454,-4.049756839578937,-118.0299228320709,4.639872,-3.0341704,14.295717,104.23419,30.000067,-15.000033,-77.12052,9.894054,4.178569,132.7669,-37.48116,15.000033,-13.081833,6.149162,25.383152,3.3516965,22.78156,-26.48094,52.094444,18.337412,-5.39766,1.0381421,13.662191,-23.076267,-2.6896122,28.594463,5.6416264,-11.621059,1.5402741
122,5.810779571533203,8.631959915161133,41.374671936035156,-10.400723230904859,-3.8698342553376204,-117.83492167888555,4.35167,-3.7473288,14.175726,104.274155,30.000067,-15.000033,-77.043144,9.75222,3.2025392,132.5093,-37.0285,15.000033,-12.972953,5.6426387,25.1593,2.8637156,22.856243,-26.210527,51.963745,18.519308,-5.4057126,1.0493636,13.995457,-22.61097,-2.5836356,28.896006,5.261968,-11.490085,2.107739
123,5.728553295135498,8.71806526184082,41.27885055541992,-9.666771112458347,-3.6324699987584883,-117.6116557815094,3.9804022,-4.500098,14.096153,104.32976,30.000067,-15.000033,-76.93958,9.545379,2.6223342,132.36139,-36.85625,15.000033,-12.864547,5.1027293,24.879791,2.352623,22.912441,-25.96267,51.84669,18.74597,-5.399136,1.075301,14.308092,-22.152359,-2.4481444,29.209532,4.7743382,-11.372558,2.7159357
124,5.64825963973999,8.792466163635254,41.185367584228516,-8.868195884614119,-3.3558448166875126,-117.34229009424867,3.551925,-5.2985706,14.037069,104.40222,30.000067,-15.000033,-76.77246,9.265999,2.5750146,132.32043,-37.350266,15.000033,-12.766807,4.5263414,24.56406,1.8335185,22.946161,-25.720306,51.718727,18.97688,-5.3772798,1.119399,14.603014,-21.72751,-2.2502744,29.534935,4.1744895,-11.289556,3.314134
125,5.592702865600586,8.855931282043457,41.08610153198242,-7.914553740473032,-3.011518470969897,-117.00259376240226,3.0242612,-6.2304425,14.033781,104.49534,30.000067,-15.000033,-76.5261,8.827976,3.36224,132.47417,-38.868343,15.000033,-12.7066345,3.836365,24.16263,1.3090947,22.951073,-25.480356,51.582294,19.225994,-5.332949,1.1875979,14.886982,-21.358715,-1.9583167,29.874437,3.4689634,-11.254622,3.893611
126,5.574959754943848,8.920848846435547,40.980628967285156,-6.815150821341935,-2.6102808492329372,-116.59771160917636,2.408385,-7.2834163,14.089525,104.59843,30.000067,-15.000033,-76.23134,8.150903,4.8238645,132.83484,-41.169773,15.000033,-12.692029,3.044107,23.684822,0.78006226,22.923016,-25.24075,51.445873,19.507744,-5.2692146,1.2753491,15.147095,-21.048801,-1.5844632,30.237095,2.6692495,-11.25589,4.4804053
127,5.490039825439453,9.002556800842285,40.88732147216797,-6.118305393019625,-2.3212889565588934,-116.27718051383613,1.9745427,-7.888087,14.02002,104.723625,30.000067,-15.000033,-75.85373,7.122524,5.543088,133.08826,-43.605167,14.19739,-12.577829,2.6462748,23.396986,0.26494223,22.872835,-24.983177,51.29697,19.782604,-5.204123,1.3707246,15.357405,-20.788128,-1.1500812,30.63841,1.7813872,-11.27652,5.0721436
128,5.325807094573975,9.087174415588379,40.82730484008789,-5.6658164612772435,-2.1105780849476834,-115.99072020222067,1.6557946,-8.235987,13.805665,104.84805,30.000067,-15.000033,-75.49679,5.7685246,4.9844236,133.19133,-45.686676,11.15578,-12.424591,2.4639504,23.240355,-0.21660389,22.808815,-24.700975,51.089725,20.002113,-5.150717,1.4592669,15.501571,-20.578001,-0.7133451,31.07139,0.8065025,-11.2982235,5.6802225
129,5.1566314697265625,9.153777122497559,40.76560592651367,-5.254637690235141,-1.9426754144766918,-115.67286434492738,1.38358,-8.586382,13.517327,104.94374,30.000067,-15.000033,-75.09322,4.979921,4.8417306,133.15585,-47.377174,9.927403,-12.28796,2.3152158,23.144114,-0.68478906,22.714926,-24.380482,50.86028,20.185465,-5.107476,1.544255,15.571504,-20.362337,-0.28139412,31.556248,-0.35952008,-11.344927,6.314832
130,4.987044811248779,9.247063636779785,40.71377182006836,-4.870859180000364,-1.802133543724272,-115.32827753331367,1.1422758,-8.93486,13.175605,105.02386,30.000067,-15.000033,-74.67482,4.4797463,5.0354004,133.04053,-48.87713,9.80641,-12.150079,2.2175736,23.095665,-1.1273954,22.613327,-24.059858,50.56724,20.32141,-5.0687714,1.6238482,15.615191,-20.20102,0.13097385,32.049187,-1.6571621,-11.420695,6.991712
131,4.820418357849121,9.35547161102295,40.673606872558594,-4.543201291500243,-1.677572417796444,-114.9911087556127,0.9165226,-9.219418,12.819075,105.10163,30.000067,-15.000033,-74.34887,4.10205,5.2731595,132.87202,-50.000305,10.071132,-11.997354,2.187627,23.103842,-1.5513402,22.497513,-23.721756,50.226734,20.408806,-5.0372705,1.7043927,15.591951,-20.076635,0.56793797,32.563934,-2.9600258,-11.478669,7.645198
132,4.65577507019043,9.480104446411133,40.65975570678711,-4.328775865627454,-1.435036576634935,-114.83647065212281,0.5192398,-9.306822,12.60906,105.21298,30.000067,-15.000033,-74.55302,3.8712332,5.2170672,132.56613,-50.000305,9.996298,-11.673225,2.3116207,23.064007,-1.9664619,22.366394,-23.371696,49.841534,20.433964,-5.015954,1.790969,15.477487,-19.99138,1.0455639,33.09861,-4.1324525,-11.466063,8.223406
133,4.496163368225098,9.59561824798584,40.67442321777344,-4.215046348683366,-1.2225572924238963,-114.69222295464274,0.16770715,-9.228931,12.402497,105.344475,30.000067,-15.000033,-74.77028,3.5779543,4.8548646,132.40205,-50.000305,9.4508,-11.367716,2.5364897,23.112276,-2.3922584,22.16295,-22.950777,49.46854,20.416714,-5.011353,1.8888677,15.205356,-19.938055,1.6339444,33.707634,-5.2032976,-11.357052,8.694982
134,4.34016227722168,9.702648162841797,40.71956253051758,-4.168461353928618,-1.0913123244782985,-114.48705711055362,-0.077676825,-9.056306,12.132807,105.48191,30.000067,-15.000033,-74.88895,3.2229588,4.3550596,132.34477,-50.000305,8.794768,-11.103377,2.845404,23.303368,-2.8087652,21.945541,-22.531195,49.030365,20.317997,-5.0203037,1.9854861,14.869621,-19.946053,2.2386558,34.311913,-6.201626,-11.180188,9.126149
135,4.188464641571045,9.799652099609375,40.803985595703125,-4.164642155696273,-0.997051035169665,-114.26706394843296,-0.27712378,-8.864426,11.823662,105.58684,30.000067,-15.000033,-74.92753,2.8539486,3.7968853,132.2699,-50.000305,8.105312,-10.860278,3.2015133,23.568834,-3.1992123,21.704714,-22.097801,48.56493,20.187014,-5.03264,2.0945618,14.451908,-20.006838,2.8861525,34.948475,-7.053364,-10.951246,9.505569
136,4.043464183807373,9.902408599853516,40.93323516845703,-4.179866050887595,-0.8969181593768919,-114.07737324247793,-0.48990357,-8.726462,11.498928,105.62288,30.000067,-15.000033,-74.90424,2.5260687,3.2626262,132.05243,-50.000305,7.469193,-10.593858,3.5803473,23.843426,-3.5700655,21.430834,-21.67216,48.11725,20.060179,-5.037738,2.2303061,13.970114,-20.118938,3.5646198,35.62454,-7.6811943,-10.68592,9.830827
137,3.908524751663208,10.00410270690918,41.085880279541016,-4.2381486290014125,-0.7986476837933869,-113.91818491063539,-0.7044473,-8.63137,11.146313,105.57555,30.000067,-15.000033,-74.787094,2.2564352,2.747298,131.65532,-50.000305,6.9230394,-10.305022,4.009852,24.151245,-3.9325316,21.108973,-21.241747,47.6961,19.924065,-5.0361366,2.4079635,13.395788,-20.286488,4.2960777,36.369247,-8.038094,-10.367065,10.072646
138,3.8056704998016357,10.112597465515137,41.25703048706055,-4.342835342408605,-0.7194321593231433,-113.7690158389296,-0.89713037,-8.550283,10.757183,105.465614,30.000067,-15.000033,-74.575714,2.0177743,2.2151659,131.14905,-50.000305,6.418774,-10.016693,4.495971,24.51086,-4.2918243,20.734928,-20.801298,47.29576,19.770884,-5.032863,2.6187115,12.727138,-20.510445,5.0813828,37.174133,-8.173896,-9.989101,10.239935
139,3.7032909393310547,10.208008766174316,41.44202423095703,-4.439412027938871,-0.6315100504957484,-113.6446328929412,-1.1027551,-8.536821,10.356953,105.30821,30.000067,-15.000033,-74.33495,1.8030226,1.7048962,130.55913,-50.000305,5.921373,-9.711265,4.9817924,24.85217,-4.644316,20.320282,-20.388498,46.932545,19.642097,-5.023257,2.8396976,12.032578,-20.776625,5.8748345,37.98174,-8.156269,-9.586387,10.38749
140,3.6195569038391113,10.30400276184082,41.64316177368164,-4.473594968969293,-0.5069263686652445,-113.5593361893149,-1.3616318,-8.617133,9.992186,105.1279,30.000067,-15.000033,-74.13155,1.6058046,1.2562118,129.91371,-50.000305,5.3975925,-9.359041,5.405704,25.10645,-4.9876585,19.886484,-20.050087,46.617546,19.57594,-5.001616,3.0472422,11.388532,-21.063625,6.618503,38.727818,-8.059619,-9.194136,10.570751
141,3.527296304702759,10.409157752990723,41.84452438354492,-4.427210423733509,-0.3168568543385674,-113.54412929401919,-1.7093043,-8.863502,9.665195,104.904594,30.000067,-15.000033,-73.99224,1.4337808,0.8808971,129.14973,-50.000305,4.8187838,-8.905597,5.747413,25.237087,-5.323335,19.440735,-19.791666,46.351994,19.592834,-4.960403,3.2429883,10.803456,-21.360754,7.303879,39.423904,-7.848314,-8.8108,10.81381
142,3.438009738922119,10.51057243347168,42.05435562133789,-4.3330616843195795,-0.08398859997818198,-113.58159218871559,-2.1167128,-9.22786,9.362228,104.64047,30.000067,-15.000033,-73.87432,1.2940828,0.55960923,128.27293,-50.000305,4.213283,-8.370026,6.035196,25.288746,-5.65204,18.983078,-19.59976,46.124928,19.66463,-4.9032936,3.4359152,10.245246,-21.666645,7.951821,40.0928,-7.5095243,-8.420384,11.08078
143,3.3390467166900635,10.608686447143555,42.264766693115234,-4.211866364269008,0.14082184892968028,-113.6157374114647,-2.5071032,-9.622237,9.056296,104.355194,30.000067,-15.000033,-73.74087,1.1764138,0.28411117,127.42046,-50.000305,3.628275,-7.831062,6.2778897,25.315619,-5.9648714,18.529991,-19.492775,45.920437,19.757162,-4.841021,3.6118824,9.731769,-21.971075,8.544951,40.682537,-7.1528974,-8.037423,11.338741
144,3.229950428009033,10.70616340637207,42.476654052734375,-4.080303374089911,0.30622204747604176,-113.58866125092854,-2.8084319,-9.960795,8.721667,104.07491,30.000067,-15.000033,-73.56399,1.0598243,0.044885285,126.729485,-50.000305,3.1064236,-7.3660955,6.481017,25.37455,-6.248303,18.108091,-19.49279,45.71312,19.832077,-4.7846465,3.7550845,9.283892,-22.255842,9.060338,41.13677,-6.8896885,-7.6778717,11.557282
145,3.1086270809173584,10.789017677307129,42.6887321472168,-3.9185973143636175,0.3976528406439768,-113.47263801769972,-3.0075903,-10.221429,8.36564,103.819885,30.000067,-15.000033,-73.37135,0.9247514,-0.13117073,126.29507,-50.000305,2.6661572,-6.9926634,6.61361,25.472921,-6.493172,17.740108,-19.62527,45.48657,19.855825,-4.725981,3.8652272,8.911973,-22.505867,9.483135,41.435394,-6.7529325,-7.3227487,11.746907
146,2.9455037117004395,10.876872062683105,42.90520477294922,-3.722389730485103,0.4425664968979478,-113.30112193990767,-3.1454062,-10.454882,7.9980197,103.57641,30.000067,-15.000033,-73.17632,0.77639484,-0.24997637,126.02694,-50.000305,2.2753253,-6.665805,6.672446,25.586866,-6.693013,17.430681,-19.876171,45.23591,19.848206,-4.6627502,3.9453406,8.599123,-22.71718,9.823583,41.612106,-6.6875324,-6.9725795,11.917442
147,2.7875094413757324,10.965991020202637,43.14335250854492,-3.533995015903605,0.4551331928131394,-113.11253097724098,-3.2306378,-10.664623,7.6073174,103.31238,30.000067,-15.000033,-72.93686,0.63194996,-0.371155,125.78898,-50.000305,1.9022468,-6.368597,6.704957,25.723822,-6.839127,17.176441,-20.204432,44.954838,19.855774,-4.6146064,3.9853003,8.320546,-22.893135,10.09666,41.6948,-6.671435,-6.6731544,12.038032
148,2.6227970123291016,11.05591106414795,43.40603256225586,-3.3952437689089274,0.44951950224334014,-112.94350252436128,-3.2734723,-10.854121,7.1810436,102.999146,30.000067,-15.000033,-72.60537,0.51177794,-0.553585,125.43953,-50.000305,1.5179592,-6.087806,6.7600985,25.890678,-6.927209,16.970514,-20.568874,44.6415,19.92614,-4.601346,3.975557,8.051648,-23.0431,10.318545,41.711155,-6.6806345,-6.4697604,12.077364
149,2.4633595943450928,11.140792846679688,43.68632507324219,-3.321700719697028,0.41904297723177686,-112.81608873314423,-3.2679532,-11.013075,6.726231,102.63214,30.000067,-15.000033,-72.1614,0.43873572,-0.8193347,124.95181,-50.000305,1.1122991,-5.817049,6.8428693,26.101124,-6.9388514,16.83031,-20.965105,44.25588,20.06888,-4.626722,3.8966475,7.773585,-23.164509,10.496818,41.655994,-6.7636957,-6.3860536,12.032286
150,2.3041603565216064,11.208454132080078,43.99424743652344,-3.2879948773699073,0.3597252804722246,-112.70529967865828,-3.2106328,-11.148693,6.241786,102.22513,30.000067,-15.000033,-71.631035,0.39709648,-1.1332163,124.39607,-50.000305,0.70263803,-5.598253,6.893698,26.37205,-6.827726,16.79363,-21.321295,43.745052,20.294788,-4.689728,3.7313752,7.450381,-23.212097,10.636779,41.54218,-6.9518633,-6.3951263,11.917058
151,2.138045072555542,11.263384819030762,44.325592041015625,-3.2808016338712775,0.2943629438104964,-112.58218822391363,-3.1313012,-11.259951,5.723175,101.78985,30.000067,-15.000033,-71.04201,0.35646945,-1.47077,123.78262,-50.000305,0.30559042,-5.3679905,7.0174527,26.605465,-6.767442,16.71648,-21.88039,43.362415,20.49829,-4.7652726,3.595963,7.2325644,-23.330036,10.716152,41.341717,-7.017982,-6.4599495,11.726493
152,1.961269736289978,11.30036449432373,44.677642822265625,-3.281289844987861,0.24258204904062022,-112.41565140484393,-3.0501359,-11.375002,5.151028,101.32877,30.000067,-15.000033,-70.41935,0.28392655,-1.8044306,123.122734,-50.000305,-0.064446494,-5.237232,7.1110415,26.85183,-6.6207404,16.679792,-22.33948,42.977654,20.793697,-4.880523,3.4377651,6.9846396,-23.39294,10.770099,41.14593,-6.977867,-6.5534225,11.456526
153,1.7919000387191772,11.327593803405762,45.05070877075195,-3.2915945192311664,0.1987763661474855,-112.18814135178883,-2.965098,-11.478381,4.5236893,100.85059,30.000067,-15.000033,-69.74606,0.16701706,-2.1348774,122.40596,-50.000305,-0.39922786,-5.152853,7.2241616,27.081154,-6.491206,16.64566,-22.882557,42.70627,21.119387,-5.044359,3.3093524,6.8233123,-23.447285,10.749606,40.886127,-6.7567005,-6.6836987,11.063572
154,1.6253597736358643,11.355670928955078,45.439117431640625,-3.318981319425932,0.15544031665065522,-111.9177703351867,-2.8670301,-11.569261,3.8482518,100.35138,30.000067,-15.000033,-69.01535,0.026030941,-2.4743297,121.63033,-50.000305,-0.7062125,-5.1348534,7.341185,27.309505,-6.3361855,16.623243,-23.448547,42.49463,21.503805,-5.252807,3.1827302,6.679953,-23.47567,10.684207,40.601223,-6.4265966,-6.8652296,10.56197
155,1.460383415222168,11.379410743713379,45.844154357910156,-3.35590366786103,0.13211257909337124,-111.62938506986045,-2.7766418,-11.67163,3.1365454,99.820694,30.000067,-15.000033,-68.270966,-0.122306004,-2.815334,120.82019,-50.000305,-0.9936653,-5.14767,7.456809,27.514828,-6.1584573,16.609127,-24.00519,42.342323,21.931396,-5.4621124,3.049721,6.549189,-23.477896,10.574114,40.312233,-6.0029817,-7.0684795,10.036704
156,1.2938660383224487,11.39503288269043,46.265037536621094,-3.3949232252753863,0.1482254955208854,-111.34737178487939,-2.7120113,-11.813179,2.395248,99.25444,30.000067,-15.000033,-67.55867,-0.262926,-3.1516845,120.00101,-50.000305,-1.2720532,-5.1547813,7.5693884,27.676947,-5.96015,16.595228,-24.518732,42.24698,22.390457,-5.6285315,2.901149,6.4280963,-23.457293,10.411306,40.036995,-5.503431,-7.263122,9.575093
157,1.1235392093658447,11.395660400390625,46.699119567871094,-3.4340282922019045,0.22421616545853876,-111.06259296239598,-2.6916406,-11.997409,1.6159648,98.64451,30.000067,-15.000033,-66.89909,-0.40880632,-3.4819767,119.180214,-50.000305,-1.5376447,-5.1206183,7.6972003,27.766247,-5.787323,16.566038,-25.0447,42.259373,22.899935,-5.7398047,2.7334728,6.3738527,-23.396032,10.121501,39.749,-4.9267325,-7.4570174,9.196413
158,0.9474755525588989,11.385409355163574,47.14876937866211,-3.478369189028559,0.3456415104095571,-110.76641442111121,-2.7016056,-12.2127695,0.80034477,97.998,30.000067,-15.000033,-66.26774,-0.5627423,-3.812768,118.346504,-50.000305,-1.7885746,-5.1663566,7.810865,27.810858,-5.535048,16.536945,-25.456543,42.304268,23.48659,-5.828009,2.5366051,6.2560945,-23.331139,9.856076,39.52401,-4.238892,-7.660307,8.846674
159,0.7952635288238525,11.37055492401123,47.61341094970703,-3.5264456691718653,0.47931194428014023,-110.48859506810145,-2.698951,-12.4731245,-0.042378105,97.3141,30.000067,-15.000033,-65.64301,-0.6937983,-4.1426353,117.49128,-50.000305,-2.0376437,-5.119481,7.9444213,27.827171,-5.3606634,16.482975,-25.93447,42.477776,24.055597,-5.885122,2.35535,6.2281685,-23.210651,9.459028,39.257538,-3.5180414,-7.850516,8.536617
160,0.6363564133644104,11.359570503234863,48.080162048339844,-3.5801914938671273,0.5942635787260333,-110.25512021353376,-2.6698315,-12.747265,-0.8620607,96.62717,30.000067,-15.000033,-65.00642,-0.77400744,-4.47137,116.60802,-50.000305,-2.2963808,-5.1269155,8.04927,27.881115,-5.077071,16.445217,-26.246471,42.59589,24.582165,-5.9287496,2.177867,6.096041,-23.129822,9.190448,39.04259,-2.727304,-7.9984975,8.253123
161,0.47716423869132996,11.348746299743652,48.54335021972656,-3.6395535324168424,0.6964673590761828,-110.07146127758405,-2.602749,-12.999922,-1.6530889,95.92022,30.000067,-15.000033,-64.36692,-0.79826826,-4.795716,115.69206,-50.000305,-2.572302,-4.982844,8.173588,27.931768,-4.90902,16.3715,-26.650255,42.85628,25.032795,-5.921693,2.0346875,6.0646725,-22.977268,8.784536,38.771454,-1.9322367,-8.096553,8.008621
162,0.3230127990245819,11.340665817260742,49.013553619384766,-3.7037663042462294,0.7989517538021088,-109.92316924115232,-2.5180757,-13.239685,-2.4257092,95.19457,30.000067,-15.000033,-63.732456,-0.7826109,-5.114365,114.74777,-50.000305,-2.8574488,-4.8535533,8.281731,27.987904,-4.689137,16.292603,-26.955574,43.132496,25.4634,-5.881499,1.8927708,5.977591,-22.82796,8.428807,38.5365,-1.064253,-8.156574,7.7917676
163,0.16850826144218445,11.328597068786621,49.49028396606445,-3.7725008941508458,0.8794021889191956,-109.81055124801294,-2.3770487,-13.606708,-3.2610164,94.43611,30.000067,-15.000033,-63.07678,-0.7257337,-5.427337,113.783554,-50.000305,-3.1426368,-4.7170515,8.380445,28.072235,-4.433733,16.216589,-27.184484,43.40796,25.836401,-5.8466988,1.7702338,5.874305,-22.693947,8.106715,38.297707,-0.16830486,-8.192925,7.6051025
164,0.011741816997528076,11.308990478515625,49.974422454833984,-3.85287225107285,0.940206205480135,-109.7594633936079,-2.1747928,-14.2079935,-4.211101,93.64031,30.000067,-15.000033,-62.41047,-0.59991896,-5.7392373,112.80083,-50.000305,-3.4237373,-4.590164,8.471507,28.194977,-4.076878,16.176807,-27.279995,43.58837,26.119806,-5.8603406,1.6746283,5.72472,-22.627666,7.892652,38.05195,0.74382687,-8.218256,7.4470096
165,-0.15211009979248047,11.30041217803955,50.46493911743164,-3.968577134130827,0.9918588814947326,-109.83358540759586,-1.8769414,-15.138111,-5.344417,92.73206,30.000067,-15.000033,-61.756847,-0.33644494,-6.056614,111.78399,-50.000305,-3.7110653,-4.2407923,8.607087,28.303576,-3.8431299,16.085049,-27.416544,43.912296,26.30111,-5.9244723,1.6396757,5.6684256,-22.48449,7.5601625,37.75656,1.5807768,-8.236993,7.337136
166,-0.31511250138282776,11.293922424316406,50.95795440673828,-4.097282034335267,1.0038589254203496,-109.96309575186497,-1.4458368,-16.316349,-6.662262,91.73876,30.000067,-15.000033,-61.088264,-0.009622509,-6.3647966,110.7041,-49.794083,-3.9968147,-3.9142852,8.730361,28.468712,-3.5025795,16.023926,-27.418737,44.15305,26.394531,-6.0269394,1.6291064,5.554109,-22.401402,7.330875,37.474247,2.4641774,-8.236447,7.2650304
167,-0.47225871682167053,11.291631698608398,51.454891204833984,-4.212115964031642,1.0201570030494624,-110.09435306131321,-1.0370007,-17.50779,-7.9838753,90.83203,30.000067,-15.000033,-60.461555,0.3124084,-6.6509504,109.55431,-49.319508,-4.266556,-3.5607393,8.831953,28.624884,-3.2224298,15.936053,-27.400719,44.473434,26.431896,-6.147976,1.6566104,5.4648895,-22.287746,7.0951886,37.16794,3.2787755,-8.225181,7.193519
168,-0.6449664235115051,11.289511680603027,51.965492248535156,-4.2837003741050035,1.0808595336254583,-110.17031389823565,-0.7667637,-18.54343,-9.170955,90.13746,30.000067,-15.000033,-59.890564,0.5616813,-6.9043384,108.393425,-48.82348,-4.506135,-3.2688298,8.878547,28.73828,-2.959485,15.854425,-27.342808,44.808975,26.426006,-6.2735624,1.7145959,5.3633776,-22.1798,6.9324656,36.846336,4.0093803,-8.208664,7.0820994
169,-0.805875837802887,11.31501579284668,52.48147964477539,-4.304014910146389,1.1999554806542292,-110.18143383920457,-0.70785517,-19.358511,-10.140035,89.714516,30.000067,-15.000033,-59.390682,0.71734023,-7.1228356,107.22259,-48.298622,-4.704539,-3.048257,8.861643,28.801838,-2.701567,15.789843,-27.242826,45.142365,26.37623,-6.4080467,1.8090286,5.2484713,-22.084435,6.840894,36.50718,4.666314,-8.179299,6.9412704
170,-0.9652354717254639,11.366032600402832,52.997886657714844,-4.2840060964842905,1.3584734557021876,-110.15045414163377,-0.8066534,-20.073423,-10.971099,89.49912,30.000067,-15.000033,-58.940144,0.8080881,-7.3109283,106.03832,-47.74695,-4.869694,-2.871867,8.791625,28.832935,-2.4496746,15.7374735,-27.099619,45.481438,26.27325,-6.556713,1.9384125,5.127958,-21.992493,6.802792,36.150112,5.262322,-8.137194,6.7849255
171,-1.1365240812301636,11.434362411499023,53.526222229003906,-4.224201309265732,1.550950021488116,-110.0702790545812,-1.0409095,-20.777624,-11.725916,89.46617,30.000067,-15.000033,-58.533333,0.8386161,-7.469722,104.85355,-47.187714,-5.0154095,-2.7430332,8.665282,28.833212,-2.2224216,15.692444,-26.914179,45.838737,26.126495,-6.7073526,2.0852184,5.0048923,-21.88798,6.8229985,35.76922,5.7579293,-8.100971,6.5827103
172,-1.3060493469238281,11.510152816772461,54.0450439453125,-4.1253154298647665,1.7744128769766014,-109.93247612233002,-1.3904226,-21.560738,-12.47247,89.599754,30.000067,-15.000033,-58.168606,0.8116322,-7.602009,103.68015,-46.635483,-5.1565914,-2.650302,8.502301,28.81098,-2.0286849,15.6675205,-26.721447,46.185493,25.924334,-6.8456345,2.2304444,4.9450626,-21.793337,6.8734365,35.287045,6.1344805,-8.084223,6.3164616
173,-1.4856358766555786,11.600032806396484,54.56931686401367,-3.98781933934027,2.020046510341288,-109.74488914054858,-1.8061492,-22.666632,-13.396558,89.907616,30.000067,-15.000033,-57.83404,0.7410064,-7.7139316,102.51318,-46.09228,-5.3068943,-2.612642,8.247453,28.755638,-1.8784387,15.65672,-26.462002,46.584522,25.67285,-6.9744744,2.3688865,4.824848,-21.616045,7.032263,34.83466,6.2995453,-8.102035,5.900256
174,-1.6699661016464233,11.705894470214844,55.0867805480957,-3.8056620300572614,2.313115363213808,-109.49316632050036,-2.368584,-24.040812,-14.422166,90.51402,29.823196,-15.000033,-57.56121,0.60086083,-7.805625,101.355995,-45.549107,-5.4540763,-2.6076076,7.94852,28.666265,-1.7568281,15.681207,-26.207045,46.961273,25.339863,-7.0952764,2.5083594,4.7760763,-21.445766,7.214764,34.266907,6.32691,-8.132035,5.3947706
175,-1.8630187511444092,11.832497596740723,55.53800582885742,-3.9057641780423094,2.6309058447652394,-109.18421722253312,-2.8992126,-25.478453,-15.709839,92.4657,26.38072,-15.000033,-57.30464,0.56139445,-8.249664,100.17656,-45.00777,-5.6738844,-2.6538143,7.872979,28.555597,-1.6286813,15.736335,-25.928467,47.305016,24.990404,-7.205062,2.6531591,4.771485,-21.264252,7.4239864,33.64768,6.283497,-8.175879,4.9088697
176,-2.0703601837158203,11.970457077026367,55.94251251220703,-4.604642390292515,2.930657299073954,-108.83842541373483,-3.487816,-25.597506,-16.638323,94.77891,22.905127,-15.000033,-56.908665,0.8037748,-9.351208,98.7679,-44.38297,-5.9904637,-2.7255404,8.424032,28.474764,-1.4781871,15.801598,-25.648039,47.6005,24.67388,-7.298143,2.8112202,4.86852,-21.108892,7.608073,32.952877,6.257256,-8.229486,4.5683928
177,-2.244527816772461,12.125045776367188,56.35132598876953,-5.192492507309224,3.352249628629669,-108.36775552196102,-4.5743065,-24.69038,-16.700413,97.08756,19.934155,-15.000033,-56.657223,0.8737881,-10.350396,97.38974,-43.765617,-6.2296615,-2.8924363,8.882481,28.281813,-1.3669523,15.875048,-25.36055,47.900196,24.412416,-7.3763967,2.9951632,5.024877,-20.962326,7.7987165,32.188606,6.3098955,-8.295186,4.358727
178,-2.4061193466186523,12.284131050109863,56.750614166259766,-5.763971839029472,3.842745825273807,-107.82613075623969,-5.943533,-23.011364,-16.27451,99.47384,17.079521,-15.000033,-56.47478,0.87874264,-11.346593,96.006424,-43.14583,-6.4334188,-3.110286,9.329988,28.02696,-1.2907065,15.95711,-25.062212,48.206947,24.178411,-7.4416666,3.1996565,5.2326007,-20.81678,8.005655,31.361977,6.3819733,-8.373784,4.228972
179,-2.5926687717437744,12.460827827453613,57.14958190917969,-6.358023621304779,4.339363502257442,-107.27467239471761,-7.3427243,-20.948034,-15.75198,101.846825,14.152338,-15.000033,-56.28708,0.9023877,-12.365788,94.60271,-42.52384,-6.6358657,-3.3285449,9.799898,27.768726,-1.231999,16.048168,-24.73749,48.508484,23.954407,-7.505142,3.4077442,5.4680147,-20.661608,8.18744,30.542862,6.3880954,-8.4709215,4.2212515
180,-2.7837846279144287,12.639392852783203,57.54177474975586,-6.986264915066722,4.797504550454729,-106.75227794290585,-8.609708,-18.91314,-15.418823,104.1095,11.082262,-15.000033,-56.04492,0.993353,-13.40813,93.171776,-41.89933,-6.8616753,-3.5049841,10.329317,27.549,-1.2046611,16.117266,-24.396906,48.819916,23.719452,-7.5779333,3.60736,5.751564,-20.526344,8.276292,29.75696,6.2606473,-8.588943,4.385044
181,-2.9421188831329346,12.8082275390625,57.928871154785156,-7.3999479666893215,5.2172643530497265,-106.2073000961604,-9.910826,-16.907581,-14.99163,106.18728,7.948951,-15.000033,-55.8114,0.96234727,-14.214552,91.86643,-41.350266,-7.055675,-3.7032797,10.62457,27.357517,-1.1718339,16.208012,-23.97985,49.115685,23.49082,-7.6713905,3.7848163,6.019521,-20.33187,8.28692,29.073278,5.929889,-8.747353,4.7737455
182,-3.1025471687316895,12.97118091583252,58.3116455078125,-7.786839083145195,5.587191142788835,-105.68144485036018,-11.132881,-14.74859,-14.556285,108.19059,4.5998483,-15.000033,-55.537083,0.9551608,-14.976659,90.581604,-40.825115,-7.256739,-3.8597696,10.900209,27.206001,-1.1739998,16.293222,-23.544512,49.425766,23.262655,-7.775163,3.956307,6.3392444,-20.124588,8.20643,28.408133,5.4638324,-8.938891,5.3552747
183,-3.268277168273926,13.12885856628418,58.6857795715332,-8.144366363268606,5.8936819698738825,-105.19264670737729,-12.305179,-12.330841,-13.952772,110.04835,1.2986479,-14.400517,-55.209152,0.97570205,-15.683177,89.32171,-40.314434,-7.453587,-3.9672225,11.149829,27.103636,-1.1986074,16.37356,-23.099756,49.740963,23.021744,-7.8724575,4.1279964,6.660641,-19.90615,8.085899,27.817144,4.9075313,-9.145188,6.0044737
184,-3.394315481185913,13.261270523071289,59.0505485534668,-8.40210347159088,6.134197361492996,-104.7381247465262,-13.63761,-9.001591,-12.506101,111.664795,-1.5971875,-11.319769,-54.842197,0.9577123,-16.248846,88.13956,-39.832916,-7.606031,-4.030882,11.31866,27.046045,-1.2375681,16.45103,-22.66435,50.05196,22.749651,-7.946539,4.306713,6.9436274,-19.680655,7.969321,27.347424,4.307745,-9.345068,6.59772
185,-3.5057685375213623,13.389126777648926,59.41221237182617,-8.554836271672691,6.323638928863919,-104.30256702200425,-14.74967,-6.4786944,-11.406262,113.10542,-4.1360626,-8.82156,-54.44965,0.890703,-16.703106,87.01943,-39.360023,-7.7293253,-4.0713835,11.379659,27.02606,-1.2875141,16.52772,-22.232765,50.35719,22.440517,-7.991275,4.4991584,7.1844263,-19.444569,7.8445497,27.010948,3.6363358,-9.561737,7.1518083
186,-3.6376588344573975,13.529141426086426,59.782142639160156,-8.62623014794508,6.478797486755516,-103.87333307571731,-15.730407,-4.567534,-10.538517,114.39911,-6.3940225,-6.7637906,-54.04383,0.77964324,-17.075539,85.946396,-38.89383,-7.835161,-4.0968604,11.359065,27.029629,-1.3523797,16.604633,-21.796534,50.659435,22.104147,-8.016797,4.69983,7.398077,-19.195026,7.698448,26.785593,2.88221,-9.799555,7.714437
187,-3.7446041107177734,13.662431716918945,60.15979766845703,-8.64462502556273,6.613975907745103,-103.45264258651738,-16.60417,-3.1278565,-9.860262,115.52957,-8.503817,-5.163557,-53.62612,0.64889663,-17.39225,84.890076,-38.43223,-7.948389,-4.094398,11.288593,27.039764,-1.4345556,16.681986,-21.370216,50.9557,21.746113,-8.030596,4.8973517,7.5737324,-18.943548,7.5716615,26.664557,2.116372,-10.0022745,8.210246
188,-3.8455891609191895,13.789484977722168,60.538185119628906,-8.637037233958312,6.740327248040705,-103.04529417747693,-17.379139,-2.0204878,-9.337423,116.47686,-10.604984,-4.045832,-53.19609,0.52422553,-17.675644,83.824425,-37.97663,-8.092775,-4.0528903,11.200349,27.044065,-1.5329508,16.758766,-20.965853,51.239254,21.371649,-8.040254,5.079668,7.700121,-18.709776,7.507945,26.640968,1.412983,-10.111644,8.565975
189,-3.9404518604278564,13.91469669342041,60.9234733581543,-8.599421095735039,6.861449500017925,-102.64774692399136,-18.046509,-1.3153554,-8.98795,117.229164,-12.674922,-3.5301912,-52.759647,0.40039825,-17.926256,82.75736,-37.537384,-8.289411,-3.9734316,11.095172,27.040737,-1.6451958,16.832844,-20.581999,51.50172,20.959549,-8.044703,5.2531,7.7754145,-18.508253,7.5285406,26.709732,0.80507594,-10.091059,8.742244
190,-4.041530609130859,14.035171508789062,61.32159423828125,-8.52595186904336,6.9758594958961435,-102.25573062391379,-18.648407,-1.0042877,-8.782382,117.79805,-14.607276,-3.5129337,-52.318302,0.2659589,-18.14214,81.69393,-37.10847,-8.5219345,-3.8698313,10.967226,27.034367,-1.7677338,16.902512,-20.208818,51.743835,20.514408,-8.041559,5.4203396,7.806805,-18.340645,7.6112046,26.869188,0.25523844,-9.972677,8.787798
191,-4.146709442138672,14.145721435546875,61.725337982177734,-8.43797268015833,7.084307672245205,-101.87554204762927,-19.245605,-0.85670626,-8.636966,118.1968,-16.442656,-3.7188191,-51.863613,0.13802138,-18.33724,80.607155,-36.668365,-8.7576065,-3.7473536,10.835989,27.025501,-1.8964221,16.96631,-19.845612,51.971523,20.081316,-8.036277,5.563428,7.798655,-18.204401,7.733727,27.118559,-0.26825717,-9.801962,8.762493
192,-4.237419128417969,14.25023078918457,62.140357971191406,-8.353759366571554,7.186282860551272,-101.51341851618187,-19.89015,-0.6618996,-8.475627,118.43628,-18.225996,-3.890219,-51.38704,0.03313758,-18.521011,79.471634,-36.193027,-8.963855,-3.6088989,10.716808,27.014297,-2.029368,17.023584,-19.492958,52.192772,19.705275,-8.033374,5.664921,7.7558775,-18.0965,7.871211,27.456764,-0.79945403,-9.62485,8.725662
193,-4.321645736694336,14.354557037353516,62.560359954833984,-8.278999831231992,7.274705608400121,-101.1755373317584,-20.569118,-0.4451551,-8.314808,118.51562,-20.017231,-4.0551443,-50.88234,-0.039892837,-18.691723,78.286354,-35.67803,-9.132061,-3.44563,10.613202,27.005413,-2.1724086,17.075827,-19.153503,52.41641,19.388521,-8.037192,5.7160773,7.6743355,-18.016714,8.03186,27.898903,-1.3512248,-9.439684,8.66857
194,-4.400713920593262,14.471158027648926,62.986244201660156,-8.205213384404582,7.3521322113388345,-100.85744475004836,-21.26884,-0.2816428,-8.180504,118.42837,-21.773594,-4.310448,-50.3538,-0.08981551,-18.84627,77.0592,-35.137062,-9.280913,-3.2575777,10.517679,26.996937,-2.3257136,17.123478,-18.826942,52.63679,19.110386,-8.043326,5.7276692,7.5536227,-17.966158,8.221956,28.440666,-1.9052037,-9.225579,8.568658
195,-4.471901893615723,14.582101821899414,63.42621612548828,-8.12574368286284,7.431635840851203,-100.55024676741505,-22.028416,-0.05999513,-8.014431,118.181175,-23.38846,-4.523136,-49.81221,-0.13029765,-18.985685,75.78853,-34.56768,-9.415579,-3.0548892,10.433103,26.979797,-2.4880857,17.15807,-18.52039,52.848583,18.878897,-8.043379,5.7130237,7.4170146,-17.941017,8.407833,29.04091,-2.4460728,-9.001145,8.464741
196,-4.561127662658691,14.692362785339355,63.88460922241211,-8.031814296316536,7.52564463766599,-100.2450350798617,-22.881851,0.31724378,-7.7602854,117.773796,-24.755877,-4.573107,-49.265194,-0.1758489,-19.10915,74.468216,-33.97265,-9.541949,-2.8605468,10.346617,26.945932,-2.6410742,17.179745,-18.219435,53.03538,18.70688,-8.029405,5.6834993,7.2613716,-17.92888,8.575622,29.682594,-2.9637628,-8.786136,8.390365
197,-4.628991603851318,14.794269561767578,64.35325622558594,-7.92288417327414,7.633976637541097,-99.94546311696209,-23.838528,0.90261316,-7.383528,117.215355,-25.846663,-4.444354,-48.71849,-0.22397123,-19.207018,73.104675,-33.355263,-9.6747675,-2.644829,10.273057,26.888342,-2.815042,17.182981,-17.961983,53.21814,18.607225,-7.9965987,5.636498,7.116763,-17.92611,8.674583,30.348806,-3.495469,-8.583802,8.368085
198,-4.68312406539917,14.896323204040527,64.82933044433594,-7.800490400260265,7.749830465015176,-99.65495077430971,-24.866175,1.6234405,-6.916458,116.499855,-26.725115,-4.2083874,-48.16572,-0.2714782,-19.278412,71.69962,-32.71478,-9.807339,-2.4504943,10.186271,26.81864,-2.966724,17.172367,-17.67633,53.375717,18.589378,-7.951768,5.5639973,6.910197,-17.929531,8.787531,31.107367,-4.0368204,-8.384796,8.3633795
199,-4.743076324462891,14.994086265563965,65.32430267333984,-7.658368035384152,7.8754802143155285,-99.36361965549315,-25.931902,2.3838851,-6.400539,115.61193,-27.431023,-3.8803117,-47.5992,-0.33261716,-19.3353,70.245514,-32.047085,-9.912958,-2.265578,10.087279,26.736696,-3.1140027,17.145206,-17.39459,53.518444,18.604595,-7.898362,5.4857216,6.684623,-17.943407,8.908245,31.905485,-4.5149684,-8.190677,8.358931
200,-4.79655647277832,15.09341049194336,65.82707977294922,-7.490199665414235,8.013801997885574,-99.06126631600097,-27.006268,3.0897284,-5.878336,114.53634,-28.003052,-3.4721417,-47.01295,-0.42119715,-19.389713,68.73625,-31.348316,-9.964765,-2.0902681,9.9713545,26.645123,-3.2612154,17.101221,-17.130798,53.6467,18.609238,-7.8404617,5.4193516,6.467383,-17.97217,9.044361,32.701294,-4.857038,-8.002714,8.335415
201,-4.83416748046875,15.181395530700684,66.34616088867188,-7.287495912917623,8.170410358808342,-98.74658959520058,-28.112175,3.75364,-5.329661,113.2773,-28.425867,-2.9237328,-46.410397,-0.5492589,-19.437218,67.17028,-30.618443,-9.959744,-1.9046286,9.829217,26.542057,-3.4131954,17.055384,-16.900349,53.744938,18.58888,-7.7738895,5.3665476,6.271058,-18.00872,9.182986,33.489826,-5.043842,-7.816345,8.281913
202,-4.882906436920166,15.271307945251465,66.86992645263672,-7.054805997295749,8.341777296255648,-98.42390076885629,-29.24263,4.4126253,-4.7351294,111.83717,-28.702227,-2.252066,-45.793842,-0.7087298,-19.471375,65.553,-29.860502,-9.911143,-1.744073,9.662433,26.43021,-3.548343,16.989962,-16.656408,53.812637,18.57983,-7.6992707,5.318798,6.0520716,-18.068018,9.359567,34.310772,-5.1056757,-7.63144,8.204679
203,-4.929582118988037,15.35653305053711,67.40119171142578,-6.803761383427293,8.518450842176282,-98.09148164731631,-30.330868,5.0091796,-4.1380377,110.20788,-28.888092,-1.5794791,-45.15376,-0.8843332,-19.4996,63.88328,-29.073662,-9.818886,-1.5878367,9.486517,26.31135,-3.6833966,16.920578,-16.44899,53.868565,18.563353,-7.624661,5.273849,5.855853,-18.135431,9.52733,35.109886,-5.0723815,-7.4603677,8.130818
204,-4.974003791809082,15.447492599487305,67.93805694580078,-6.546556704406116,8.690906589707485,-97.74672679935895,-31.312748,5.48349,-3.5884647,108.37333,-29.041489,-1.0316545,-44.47979,-1.0613096,-19.53199,62.159603,-28.257515,-9.68078,-1.448498,9.311037,26.188763,-3.8147027,16.84925,-16.285675,53.928413,18.535555,-7.5590944,5.2297463,5.690097,-18.206272,9.68133,35.86459,-4.9682727,-7.3142424,8.07944
205,-5.002211570739746,15.527690887451172,68.4847412109375,-6.287217794081465,8.864344284232379,-97.38721039164865,-32.198414,5.8095236,-3.108303,106.31535,-29.16159,-0.6386936,-43.773415,-1.2398415,-19.568222,60.37097,-27.39568,-9.489318,-1.3294858,9.140352,26.061148,-3.944843,16.776814,-16.170652,53.992737,18.486694,-7.502277,5.1933675,5.5495543,-18.278101,9.820694,36.58106,-4.7870626,-7.1989927,8.057422
206,-5.030928134918213,15.59924030303955,69.03306579589844,-6.018334057511862,9.04192327514558,-97.01368841030224,-33.011433,6.0254335,-2.6688094,104.04414,-29.226088,-0.3301705,-43.038628,-1.428356,-19.601963,58.521023,-26.495052,-9.249159,-1.226497,8.966359,25.926083,-4.072848,16.703295,-16.0961,54.053875,18.422865,-7.450278,5.163102,5.4271564,-18.35112,9.950801,37.273056,-4.5215483,-7.1077967,8.052184
207,-5.069675445556641,15.665480613708496,69.58489227294922,-5.737302281836665,9.212266071486697,-96.62993561979727,-33.714645,6.1712275,-2.2415316,101.58453,-29.244793,-0.07136788,-42.270287,-1.6224993,-19.633726,56.628616,-25.58788,-8.976922,-1.1349324,8.784028,25.784958,-4.1944175,16.630377,-16.060139,54.11586,18.360035,-7.4064655,5.1246114,5.3376245,-18.42216,10.068155,37.919838,-4.194417,-7.0328903,8.056867
208,-5.10988712310791,15.72441291809082,70.13777160644531,-5.440699823383938,9.363890117023448,-96.2399871754584,-34.272953,6.2869263,-1.7932326,98.96087,-29.222939,0.17511344,-41.463497,-1.8167436,-19.662577,54.710636,-24.704128,-8.688983,-1.049008,8.587397,25.638973,-4.3057613,16.560873,-16.06231,54.182926,18.314024,-7.374087,5.063455,5.294925,-18.486296,10.168195,38.501774,-3.82912,-6.9667215,8.064379
209,-5.146514415740967,15.781609535217285,70.68144989013672,-5.126493609813874,9.498066428821103,-95.83959020240432,-34.687836,6.3666525,-1.3188909,96.15392,-29.166616,0.41182306,-40.616516,-2.010013,-19.68687,52.762203,-23.856113,-8.405379,-0.96745557,8.366685,25.489855,-4.405822,16.508324,-16.105846,54.24878,18.278786,-7.357804,4.968336,5.297724,-18.52958,10.244165,39.020786,-3.4076934,-6.9114394,8.072722
210,-5.175412654876709,15.82459545135498,71.22534942626953,-4.797380533732841,9.619672276914612,-95.42791460801894,-34.97312,6.393035,-0.8390143,93.15741,-29.07326,0.6191518,-39.73102,-2.2064047,-19.707739,50.77501,-23.025988,-8.113946,-0.898569,8.137443,25.334036,-4.5062885,16.447393,-16.187658,54.329502,18.254673,-7.3543787,4.8533373,5.3423305,-18.57143,10.303538,39.483948,-2.921178,-6.868853,8.085367
211,-5.2077531814575195,15.854888916015625,71.7590103149414,-4.455892434460213,9.723018457701926,-95.0142829952871,-35.11501,6.3804846,-0.34029993,90.00869,-28.93119,0.8150392,-38.808117,-2.4092252,-19.730104,48.76399,-22.202871,-7.7825193,-0.8341337,7.886894,25.171545,-4.579116,16.407667,-16.302946,54.395817,18.245277,-7.3561006,4.725025,5.419728,-18.59483,10.354553,39.896652,-2.4282696,-6.834446,8.102644
212,-5.245422840118408,15.886837005615234,72.27855682373047,-4.106884128698238,9.80220997106452,-94.60788323550719,-35.102104,6.344202,0.19011372,86.74481,-28.727997,1.019757,-37.850765,-2.6198428,-19.75979,46.746307,-21.371395,-7.3774037,-0.7658928,7.6368957,24.994558,-4.639897,16.356434,-16.460224,54.477398,18.266472,-7.353902,4.6046033,5.546986,-18.622637,10.398147,40.245922,-1.9750082,-6.801272,8.125996
213,-5.279095649719238,15.899840354919434,72.78288269042969,-3.7510061605130764,9.856983979027758,-94.20893906424135,-34.9289,6.3046093,0.7705745,83.34603,-28.446905,1.2740057,-36.84883,-2.8330114,-19.799673,44.698364,-20.505089,-6.892549,-0.6994172,7.3780637,24.806633,-4.669513,16.314945,-16.655058,54.55267,18.329573,-7.344463,4.4891434,5.713749,-18.647991,10.447018,40.537067,-1.5733377,-6.76029,8.159456
214,-5.30309534072876,15.899445533752441,73.2743911743164,-3.3863909276937374,9.890103281296152,-93.81325688329929,-34.603798,6.2446146,1.3867837,79.79926,-28.09823,1.5564156,-35.80404,-3.048093,-19.84613,42.61753,-19.618126,-6.344618,-0.6452542,7.1017823,24.611248,-4.659239,16.29076,-16.873672,54.609753,18.427479,-7.333584,4.368887,5.9078293,-18.665901,10.506154,40.77952,-1.19684,-6.7174144,8.199998
215,-5.3223371505737305,15.891483306884766,73.74443054199219,-3.013986828153281,9.900123985032769,-93.42447433295901,-34.141476,6.1274867,1.9990314,76.15394,-27.710566,1.7964219,-34.733093,-3.2707798,-19.896175,40.543438,-18.757755,-5.7348146,-0.5776419,6.830206,24.402735,-4.645669,16.254225,-17.143227,54.682087,18.528437,-7.3251314,4.251759,6.1679416,-18.692064,10.537147,40.943104,-0.8374893,-6.688893,8.244737
216,-5.340226650238037,15.874518394470215,74.19097137451172,-2.632189724227574,9.885626402989473,-93.0447638751113,-33.55381,5.916464,2.5649893,72.44513,-27.303444,1.9265115,-33.647385,-3.5097156,-19.946815,38.511715,-17.971338,-5.0649643,-0.53256905,6.536612,24.189344,-4.576899,16.22395,-17.390768,54.722244,18.62086,-7.327477,4.1266675,6.4385123,-18.71087,10.58056,41.068344,-0.49255607,-6.693164,8.279822
217,-5.3491926193237305,15.845849990844727,74.61573791503906,-2.2352997853460734,9.84241712776843,-92.67388790054892,-32.819546,5.5668254,3.042835,68.59891,-26.86626,1.9182286,-32.536255,-3.7722142,-19.997665,36.516636,-17.271616,-4.3142023,-0.49627283,6.228031,23.97336,-4.471065,16.18502,-17.636406,54.745464,18.696203,-7.3429627,3.992016,6.7461047,-18.727158,10.606743,41.135746,-0.15395316,-6.743146,8.314617
218,-5.351367950439453,15.805625915527344,75.01943969726562,-1.8263315173046588,9.771803416995395,-92.31103348287235,-31.942614,5.1156273,3.4505925,64.6099,-26.385061,1.8225117,-31.392206,-4.0521464,-20.0527,34.538425,-16.634468,-3.4919438,-0.47346148,5.903999,23.75266,-4.326997,16.140766,-17.880968,54.7543,18.769442,-7.368009,3.8501625,7.0819798,-18.739,10.628308,41.15397,0.17329144,-6.8267975,8.34902
219,-5.3511457443237305,15.764917373657227,75.39924621582031,-1.4168130285689833,9.681149085891322,-91.95859224014944,-30.974243,4.6458426,3.8399043,60.614853,-25.872005,1.6849893,-30.234941,-4.3383875,-20.116526,32.59445,-16.050838,-2.6451914,-0.46687666,5.5668154,23.519363,-4.1390357,16.107382,-18.120844,54.742634,18.838282,-7.3979483,3.70998,7.4306297,-18.745384,10.670432,41.132954,0.47581112,-6.9238644,8.36698
220,-5.348037242889404,15.709715843200684,75.74801635742188,-1.0199847013517784,9.577783351798775,-91.61898744604059,-29.967348,4.2329698,4.2721925,56.755608,-25.340448,1.5404736,-29.083582,-4.616097,-20.19441,30.697836,-15.506958,-1.8189627,-0.44339913,5.2444715,23.256414,-3.9587765,16.067846,-18.406786,54.76191,18.894289,-7.4255133,3.592652,7.82473,-18.754332,10.710527,41.051994,0.7360364,-7.013262,8.357187
221,-5.344376564025879,15.652486801147461,76.07373809814453,-0.6312289016877557,9.459374359910248,-91.29382543188991,-28.90161,3.8603144,4.7596097,52.994514,-24.750725,1.3335395,-27.928955,-4.887088,-20.288723,28.832481,-14.998538,-0.99427915,-0.4243018,4.9204006,22.967527,-3.7536595,16.041344,-18.718435,54.78433,18.9316,-7.453923,3.4989607,8.241744,-18.76519,10.7883835,40.92173,0.94920146,-7.0913734,8.298991
222,-5.338119983673096,15.580238342285156,76.36984252929688,-0.24712366381435152,9.322691645907577,-90.98222352992418,-27.756004,3.4894307,5.273877,49.259865,-24.100132,1.0588716,-26.76069,-5.153831,-20.399498,26.989094,-14.528757,-0.15730135,-0.4186299,4.5865655,22.660263,-3.5084426,16.031637,-19.036568,54.79295,18.956812,-7.4854636,3.4183674,8.672802,-18.774902,10.902292,40.748928,1.1241914,-7.16912,8.204458
223,-5.327614784240723,15.495885848999023,76.63633728027344,0.11603448987514252,9.174338839954268,-90.68316492875644,-26.587986,3.1584709,5.825881,45.65759,-23.45553,0.8162069,-25.602198,-5.401248,-20.527832,25.198645,-14.095176,0.6423679,-0.40785953,4.2671356,22.33427,-3.2468815,16.029104,-19.367851,54.79869,18.980783,-7.513889,3.3431325,9.1323185,-18.785011,11.013388,40.526512,1.2735054,-7.247483,8.107135
224,-5.3189873695373535,15.407594680786133,76.8741683959961,0.44394600133032736,9.021423905570483,-90.39516444983555,-25.452738,2.9028914,6.432548,42.29488,-22.889648,0.7024603,-24.474163,-5.6141214,-20.67399,23.482906,-13.688485,1.3569438,-0.39779937,3.9730923,21.992733,-2.965859,16.030031,-19.678574,54.79065,19.027088,-7.5347,3.2604835,9.602946,-18.791428,11.112033,40.27034,1.4092016,-7.32775,8.037427
225,-5.3194074630737305,15.314689636230469,77.08963775634766,0.7315657365766478,8.867928194602818,-90.12473846139358,-24.354328,2.7470224,7.150903,39.19747,-22.432644,0.7428435,-23.389757,-5.7818656,-20.840858,21.85088,-13.310775,1.96913,-0.38649026,3.7057958,21.625996,-2.6586535,16.032288,-19.9567,54.76837,19.117199,-7.5446086,3.1590598,10.079579,-18.791656,11.201686,39.988827,1.5277029,-7.4119887,8.001565
226,-5.308108806610107,15.222217559814453,77.286376953125,0.9882805756457941,8.710291639685904,-89.87005022039895,-23.268602,2.6537285,7.9659953,36.308643,-22.044903,0.8732723,-22.339296,-5.913562,-21.026983,20.290033,-12.96051,2.5101593,-0.3793497,3.45676,21.235592,-2.3247232,16.035372,-20.20959,54.7363,19.238264,-7.547223,3.0479932,10.561902,-18.784859,11.295275,39.680584,1.6243831,-7.4990015,7.982153
227,-5.287718296051025,15.134037971496582,77.46340942382812,1.222895670643717,8.54461957681673,-89.616898079942,-22.212828,2.5714915,8.7888365,33.625122,-21.699799,1.0584466,-21.313604,-6.0269933,-21.224167,18.798946,-12.633168,3.0059762,-0.39249277,3.2182493,20.839851,-1.9741875,16.037947,-20.431566,54.697052,19.365734,-7.548488,2.9461532,11.033338,-18.774576,11.393357,39.353916,1.7062042,-7.5850434,7.973943
228,-5.266746520996094,15.043036460876465,77.61847686767578,1.4425853952629097,8.367154199057566,-89.35163382355019,-21.20565,2.4573898,9.526053,31.144485,-21.369099,1.2675692,-20.308062,-6.1401315,-21.423807,17.386982,-12.3255,3.480994,-0.41340455,2.9904535,20.449509,-1.6379559,16.043724,-20.668898,54.66812,19.45246,-7.551143,2.8779483,11.507239,-18.755392,11.475267,39.00127,1.7829689,-7.6668367,7.9707193
229,-5.243642807006836,14.947223663330078,77.75595092773438,1.654257577525068,8.182224504500871,-89.07073225506488,-20.262741,2.3208137,10.189296,28.897415,-21.065933,1.5360415,-19.337822,-6.26431,-21.61198,16.074654,-12.036895,3.929637,-0.4627884,2.7632039,20.068113,-1.3048949,16.049158,-20.887608,54.63956,19.503899,-7.560141,2.850069,11.960773,-18.733448,11.56632,38.62182,1.8418492,-7.7401857,7.965385
230,-5.226306915283203,14.851397514343262,77.88765716552734,1.851812618314971,7.991477102080309,-88.7814198999379,-19.378748,2.183026,10.817327,26.885004,-20.807472,1.8635201,-18.404974,-6.387533,-21.797276,14.856554,-11.770195,4.3447227,-0.5240197,2.5436113,19.683155,-0.9773476,16.056124,-21.106964,54.617245,19.526587,-7.570676,2.853034,12.409068,-18.704782,11.658286,38.214127,1.8847324,-7.808248,7.962016
231,-5.205907344818115,14.754583358764648,78.00154113769531,2.021754063038928,7.787105109515532,-88.48642848743239,-18.54576,2.0314136,11.350976,25.072256,-20.57126,2.1761932,-17.48063,-6.4906287,-22.006523,13.695845,-11.525332,4.7467217,-0.60818005,2.3440208,19.305603,-0.6439325,16.063007,-21.302807,54.591232,19.541195,-7.5803185,2.8679352,12.843229,-18.66926,11.736726,37.805546,1.9337484,-7.8773675,7.9765873
232,-5.188351154327393,14.663131713867188,78.10262298583984,2.1519129375216806,7.561283695844028,-88.1884123815704,-17.754158,1.8585917,11.728174,23.422007,-20.328749,2.4080858,-16.535093,-6.5540624,-22.26581,12.553966,-11.302099,5.1555924,-0.69393694,2.1709642,18.93861,-0.31894603,16.077818,-21.498388,54.574177,19.551794,-7.5830917,2.881479,13.268381,-18.596165,11.760739,37.43019,1.9994755,-7.9558783,8.021
233,-5.164159297943115,14.567708969116211,78.17606353759766,2.2463152457843947,7.301980881914122,-87.86874756008184,-17.019753,1.6693163,11.927144,21.997938,-20.099892,2.603495,-15.529901,-6.577513,-22.601261,11.3862095,-11.099024,5.594105,-0.82062405,2.0194056,18.59682,0.014370894,16.09718,-21.656706,54.55741,19.560137,-7.581059,2.8908393,13.674944,-18.491539,11.738562,37.08654,2.111196,-8.048682,8.12077
234,-5.135883808135986,14.47642707824707,78.24092102050781,2.311987425756559,7.01900110420879,-87.53190545102106,-16.350447,1.4791605,11.979279,20.810846,-19.898472,2.7908633,-14.491453,-6.5686216,-22.991482,10.218271,-10.912959,6.0462556,-0.9741748,1.8825305,18.269371,0.34904656,16.121925,-21.79381,54.54552,19.559044,-7.575024,2.9046423,14.066577,-18.35535,11.678513,36.764736,2.250261,-8.151051,8.260366
235,-5.1277055740356445,14.375838279724121,78.2783432006836,2.3403722077879103,6.735573817771016,-87.21493984189003,-15.730372,1.3020825,11.899158,19.758064,-19.679663,2.8837926,-13.478408,-6.5160604,-23.391876,9.09631,-10.730565,6.474091,-1.1244351,1.7730956,17.938873,0.6919887,16.14775,-21.908693,54.52268,19.574327,-7.56457,2.915402,14.434866,-18.20677,11.600057,36.475647,2.3794231,-8.25296,8.397572
236,-5.120732307434082,14.278239250183105,78.3011474609375,2.319652044670827,6.474544903126423,-86.95495765115078,-15.140444,1.1535732,11.700299,18.73167,-19.397377,2.7947264,-12.552307,-6.4088173,-23.757694,8.077279,-10.542382,6.839441,-1.2250309,1.6982043,17.58494,1.0366367,16.177544,-22.015966,54.48586,19.630262,-7.5478625,2.916992,14.764374,-18.030565,11.509604,36.25048,2.4454694,-8.346965,8.485803
237,-5.090972423553467,14.18199348449707,78.30023956298828,2.2288962146544646,6.247761986333791,-86.76258070087827,-14.580057,1.0442511,11.329911,17.690502,-19.048702,2.4622805,-11.905642,-6.3052998,-24.075607,7.5750475,-10.556811,7.1484866,-1.2908618,1.6945324,17.198025,1.413404,16.19629,-22.09245,54.40847,19.753765,-7.5232453,2.907765,15.072652,-17.884012,11.425685,36.05758,2.4458911,-8.43272,8.512235
238,-5.043853282928467,14.078639030456543,78.30198669433594,2.0797531452280396,6.041092524028188,-86.61696894612078,-14.05727,0.9730053,10.796788,16.702044,-18.66206,1.9523593,-11.496072,-6.21566,-24.363787,7.539732,-10.767756,7.4174876,-1.300498,1.7288227,16.781942,1.7796226,16.21886,-22.175829,54.337833,19.923096,-7.4890594,2.8959289,15.3467,-17.679234,11.308749,35.937294,2.3695161,-8.518625,8.492904
239,-5.0147013664245605,13.978351593017578,78.28305053710938,1.9066035048729475,5.838540402886074,-86.50693791944163,-13.566399,0.9363082,10.20551,15.819294,-18.235962,1.3647312,-11.112124,-6.088051,-24.6168,7.514262,-10.940769,7.6252875,-1.2956837,1.7812552,16.370909,2.1461356,16.238579,-22.234798,54.250847,20.099798,-7.455176,2.8732038,15.581349,-17.475363,11.190731,35.85882,2.2860556,-8.591703,8.45747
240,-4.985378265380859,13.902693748474121,78.26097869873047,1.7439139228619112,5.624125450783203,-86.42156692595367,-13.106313,0.92585516,9.6616,15.098469,-17.765501,0.79519194,-10.7417965,-5.9618607,-24.805529,7.501912,-11.083067,7.7532916,-1.2877053,1.8183707,15.99218,2.4953341,16.257816,-22.269085,54.153088,20.243225,-7.429163,2.8351676,15.763429,-17.270435,11.078968,35.822723,2.2380173,-8.642747,8.429519
