unveil-humanoid-operators/unveil-humanoid-operators.github.io/feature-analysis-animation/data/feature_matrix_fixed/weight_walking_ankle_peak_vel_high.csv
Frame,root_translateX,root_translateY,root_translateZ,root_rotateX,root_rotateY,root_rotateZ,left_hip_pitch_joint_dof,left_hip_roll_joint_dof,left_hip_yaw_joint_dof,left_knee_joint_dof,left_ankle_pitch_joint_dof,left_ankle_roll_joint_dof,right_hip_pitch_joint_dof,right_hip_roll_joint_dof,right_hip_yaw_joint_dof,right_knee_joint_dof,right_ankle_pitch_joint_dof,right_ankle_roll_joint_dof,waist_yaw_joint_dof,waist_roll_joint_dof,waist_pitch_joint_dof,left_shoulder_pitch_joint_dof,left_shoulder_roll_joint_dof,left_shoulder_yaw_joint_dof,left_elbow_joint_dof,left_wrist_roll_joint_dof,left_wrist_pitch_joint_dof,left_wrist_yaw_joint_dof,right_shoulder_pitch_joint_dof,right_shoulder_roll_joint_dof,right_shoulder_yaw_joint_dof,right_elbow_joint_dof,right_wrist_roll_joint_dof,right_wrist_pitch_joint_dof,right_wrist_yaw_joint_dof
0,-0.026833422482013702,1.7999553680419922,80.20052337646484,-0.7741153097886615,2.3755715845249457,-88.05633251765495,2.106913,4.9805713,0.44644907,7.5043635,-16.060701,-13.426795,4.237648,-3.5886815,-9.616986,6.83472,-9.993493,8.448036,-0.98518544,-0.43885738,-1.1920105,35.85101,90.03309,53.76235,71.58672,-12.109957,17.441288,-6.372205,37.27387,-90.583275,-42.393677,74.371,-2.4038548,5.0184665,15.589424
1,-0.025424804538488388,1.7731328010559082,80.1897964477539,-0.7511144809733458,2.360718869950337,-88.01272201220331,2.112969,4.9537044,0.40596452,7.501289,-16.050972,-13.429244,4.265671,-3.6167352,-9.66094,6.838241,-10.027992,8.442876,-0.9828634,-0.4791925,-1.2491102,35.26322,90.194885,53.09522,71.7688,-12.157031,17.458635,-6.273097,37.01426,-90.62133,-42.08699,74.48787,-2.3262675,5.0068903,15.598708
2,-0.03455408662557602,1.775408148765564,80.18978118896484,-0.7265231073510968,2.3453923137234556,-87.96806760498136,2.119805,4.9246864,0.36426234,7.497837,-16.041485,-13.431648,4.295489,-3.6467633,-9.704645,6.840373,-10.063535,8.438926,-0.99039704,-0.51563066,-1.2932552,34.79654,90.33164,52.55984,71.92194,-12.202773,17.482668,-6.1907635,36.847366,-90.66806,-41.890118,74.58242,-2.2460554,4.9930625,15.636531
3,-0.049800269305706024,1.7860350608825684,80.19015502929688,-0.7054254304195497,2.3312495029282596,-87.92548299064795,2.1249685,4.900321,0.32496506,7.4948773,-16.031458,-13.434311,4.322728,-3.6723962,-9.748868,6.8425593,-10.095441,8.432427,-1.0016353,-0.5472934,-1.3263209,34.41315,90.44311,52.120735,72.04483,-12.239105,17.505766,-6.11968,36.733,-90.70871,-41.759766,74.65678,-2.178063,4.9843817,15.669661
4,-0.050626806914806366,1.8019152879714966,80.18854522705078,-0.6926341343448329,2.320036640470406,-87.88812166204343,2.1259775,4.88712,0.29156956,7.493191,-16.020487,-13.437519,4.344497,-3.687113,-9.793956,6.8440447,-10.1183,8.419596,-1.0127333,-0.57077044,-1.3492824,34.089966,90.53341,51.75928,72.14089,-12.256193,17.52216,-6.0627036,36.65009,-90.74052,-41.675045,74.71547,-2.1371996,4.9873753,15.676463
5,-0.05539580434560776,1.812384843826294,80.19007873535156,-0.6920678400689547,2.315568050110418,-87.85863160559079,2.1181087,4.890984,0.26782084,7.493722,-16.006802,-13.441922,4.3560886,-3.686154,-9.843415,6.8446608,-10.129128,8.394607,-1.0210538,-0.5820306,-1.3663002,33.810394,90.60613,51.46082,72.2152,-12.238465,17.530474,-6.0226097,36.578102,-90.76277,-41.62027,74.76302,-2.1402063,5.006156,15.645768
6,-0.06377243995666504,1.8151355981826782,80.19503021240234,-0.700280940009655,2.315708566941629,-87.83490508671684,2.1047287,4.907095,0.25089642,7.494529,-15.990896,-13.447162,4.35997,-3.6738062,-9.89603,6.845255,-10.1312,8.361105,-1.0279615,-0.5846535,-1.3784574,33.5699,90.66521,51.215313,72.272095,-12.196527,17.533104,-5.994882,36.512978,-90.777336,-41.58615,74.80184,-2.174216,5.036206,15.588028
7,-0.07314496487379074,1.8285764455795288,80.19743347167969,-0.7107219307243821,2.31351118518422,-87.81228717220257,2.0934882,4.925647,0.23464422,7.49564,-15.97608,-13.452079,4.365099,-3.6581519,-9.944775,6.844954,-10.128755,8.329447,-1.036036,-0.5863519,-1.3814548,33.36556,90.71402,51.014977,72.313675,-12.157707,17.53013,-5.9735518,36.463955,-90.78712,-41.56817,74.83211,-2.2103107,5.0717783,15.516315
8,-0.08678778260946274,1.8401662111282349,80.19640350341797,-0.7165794084157868,2.3017380898707063,-87.78641854196061,2.0919538,4.937226,0.21281338,7.4967804,-15.96523,-13.455734,4.3791265,-3.6471715,-9.983171,6.845161,-10.126813,8.310259,-1.0478218,-0.59435374,-1.370552,33.19546,90.75532,50.85316,72.34135,-12.149755,17.522106,-5.9527955,36.44332,-90.79496,-41.56536,74.853294,-2.2198133,5.1070848,15.444215
9,-0.09152410179376602,1.8473429679870605,80.19672393798828,-0.7151239960382253,2.271351501710298,-87.75239022286549,2.1109524,4.9368653,0.18013494,7.4955916,-15.961161,-13.457041,4.412196,-3.6437666,-10.006053,6.8446054,-10.124221,8.312323,-1.066278,-0.6113145,-1.337757,33.051918,90.79101,50.72448,72.35433,-12.189929,17.502785,-5.9334917,36.460724,-90.80265,-41.57782,74.8651,-2.1927466,5.1425886,15.365819
10,-0.09990251809358597,1.8590433597564697,80.19671630859375,-0.7099299744419503,2.228568136600053,-87.71380164032989,2.1430688,4.9302764,0.141174,7.493239,-15.96142,-13.45678,4.4573016,-3.6436565,-10.018155,6.844302,-10.120165,8.328106,-1.0885001,-0.6326055,-1.2887393,32.926792,90.82159,50.621437,72.35561,-12.260435,17.47385,-5.917608,36.504723,-90.8092,-41.60224,74.86989,-2.145133,5.180538,15.277392
11,-0.10419806838035583,1.8579449653625488,80.2005844116211,-0.7052683883331424,2.1889705249253497,-87.67883069225833,2.1714404,4.9249783,0.10426054,7.4912777,-15.960871,-13.456594,4.4972672,-3.6426878,-10.027404,6.8441844,-10.1158495,8.343248,-1.1086099,-0.6546676,-1.2394006,32.820873,90.84772,50.5373,72.35157,-12.336005,17.447104,-5.9007406,36.560432,-90.8145,-41.63696,74.87041,-2.0870676,5.217804,15.195127
12,-0.11311129480600357,1.8764731884002686,80.2030258178711,-0.7049073057644136,2.1682151840207062,-87.65593256431917,2.17939,4.9274244,0.078032196,7.490389,-15.953635,-13.457843,4.516053,-3.6374145,-10.041891,6.843729,-10.1133,8.343755,-1.1207685,-0.6735932,-1.2057174,32.733723,90.86942,50.464344,72.34879,-12.390912,17.434267,-5.878959,36.609215,-90.817345,-41.676533,74.869514,-2.0286026,5.251195,15.136428
13,-0.12362086772918701,1.8964970111846924,80.20116424560547,-0.7114800547315384,2.17564672706367,-87.64900154646472,2.1560934,4.9426293,0.06459703,7.4904246,-15.934874,-13.460699,4.504508,-3.625455,-10.072197,6.843843,-10.11723,8.317096,-1.122405,-0.68792933,-1.1965916,32.66698,90.88679,50.399685,72.349884,-12.420929,17.44148,-5.8446956,36.64277,-90.81774,-41.714825,74.869225,-1.9676956,5.2790966,15.1111145
14,-0.13468816876411438,1.9077880382537842,80.20187377929688,-0.7225099309664751,2.2012597807390977,-87.6530236408894,2.111849,4.965858,0.05941097,7.492439,-15.909497,-13.46449,4.473265,-3.6092114,-10.111312,6.8436475,-10.124903,8.27357,-1.1161386,-0.7000582,-1.2029154,32.608727,90.90228,50.335594,72.353935,-12.439093,17.461288,-5.8012104,36.670525,-90.81685,-41.753574,74.8691,-1.9004842,5.3034673,15.107736
15,-0.1432139277458191,1.9193073511123657,80.205810546875,-0.7340132720640006,2.231397294010046,-87.6625996476254,2.064057,4.990197,0.06082612,7.494264,-15.88358,-13.46937,4.4340153,-3.5918503,-10.14079,6.8428855,-10.127679,8.233675,-1.1065085,-0.7115586,-1.21253,32.560555,90.91467,50.279186,72.357376,-12.445704,17.48531,-5.762145,36.687935,-90.81555,-41.787895,74.86891,-1.834292,5.3265896,15.110512
16,-0.15254706144332886,1.9339261054992676,80.21134185791016,-0.7416359726964055,2.252542122480693,-87.67262104256264,2.029656,5.0084662,0.06728905,7.4941063,-15.8634,-13.475215,4.39769,-3.576925,-10.142032,6.8424673,-10.1176815,8.217693,-1.0970979,-0.72434074,-1.2136632,32.517212,90.9246,50.230564,72.35849,-12.441296,17.505144,-5.740748,36.696808,-90.81479,-41.818962,74.86841,-1.7765197,5.3509135,15.104029
17,-0.15308789908885956,1.9437484741210938,80.21333312988281,-0.7438572426725961,2.2653659174259646,-87.67991764233435,2.0072305,5.017782,0.07924872,7.494078,-15.852151,-13.482467,4.359843,-3.5649185,-10.099626,6.840321,-10.083089,8.237251,-1.0899324,-0.73931247,-1.2077161,32.4658,90.933685,50.17673,72.35866,-12.418851,17.521206,-5.743923,36.69895,-90.813896,-41.852985,74.86684,-1.7321638,5.3810444,15.085015
18,-0.15953022241592407,1.9556032419204712,80.21358489990234,-0.7429372618270296,2.2757012154915963,-87.68786712819966,1.990321,5.022315,0.09735971,7.493088,-15.845198,-13.491056,4.317124,-3.5538812,-10.027186,6.8377843,-10.03253,8.279408,-1.0851223,-0.75678486,-1.1989827,32.435844,90.93825,50.14493,72.35406,-12.380401,17.537525,-5.76371,36.680435,-90.81399,-41.875725,74.86552,-1.6962188,5.414364,15.060401
19,-0.16380256414413452,1.967556357383728,80.21189880371094,-0.7413663825125312,2.2774441162612638,-87.70087780076196,1.9846742,5.0251207,0.119828925,7.491994,-15.84175,-13.499981,4.283398,-3.5439727,-9.948757,6.833973,-9.982455,8.3277645,-1.074172,-0.77224535,-1.1819822,32.39472,90.94274,50.104744,72.35179,-12.339902,17.549374,-5.790194,36.66783,-90.81463,-41.902267,74.86417,-1.6610833,5.442343,15.033855
20,-0.16524501144886017,1.9772522449493408,80.21330261230469,-0.7411049303609258,2.2646783568159066,-87.7233253896518,1.9963566,5.0291233,0.14516743,7.4902463,-15.839674,-13.508373,4.2710404,-3.5360107,-9.888011,6.831979,-9.95181,8.365885,-1.0545477,-0.7854127,-1.149862,32.36792,90.94457,50.084267,72.34811,-12.310764,17.553286,-5.8149633,36.654293,-90.81583,-41.917027,74.86363,-1.6193905,5.4564357,15.006464
21,-0.16515721380710602,1.9764187335968018,80.2181625366211,-0.7420485321408034,2.2271301095405183,-87.75807705458297,2.0366383,5.0333686,0.17240413,7.4876328,-15.839517,-13.514858,4.2942,-3.531682,-9.853632,6.83208,-9.951282,8.395619,-1.0176858,-0.79285854,-1.0930767,32.309464,90.94758,50.042072,72.35026,-12.293362,17.542206,-5.844085,36.67295,-90.8202,-41.944294,74.86564,-1.5656784,5.448464,14.978657
22,-0.1691209226846695,1.99237859249115,80.22028350830078,-0.743090726268857,2.1708327762426385,-87.80221328291624,2.0989187,5.0369105,0.20244959,7.484493,-15.841757,-13.520211,4.3433576,-3.5301504,-9.8320675,6.83223,-9.968854,8.423783,-0.9707312,-0.7978576,-1.0169935,32.254795,90.949066,50.010914,72.35235,-12.281262,17.521053,-5.8811007,36.69598,-90.82463,-41.96457,74.868774,-1.5051454,5.4248586,14.94877
23,-0.168324813246727,2.011817216873169,80.2205810546875,-0.7457855536999826,2.114332941721085,-87.85151658425603,2.1625373,5.042764,0.23682818,7.4817777,-15.845693,-13.527198,4.3934584,-3.5275748,-9.814265,6.832746,-9.988651,8.440766,-0.918359,-0.79909426,-0.94168067,32.19008,90.95007,49.96827,72.357765,-12.279682,17.499392,-5.9045568,36.727974,-90.8314,-41.991608,74.8707,-1.4459496,5.3994246,14.920582
24,-0.16540296375751495,2.026885986328125,80.21857452392578,-0.7512313273910122,2.0763805068741443,-87.90188331267676,2.2068734,5.053329,0.27687237,7.4808717,-15.85108,-13.537935,4.4207916,-3.5207539,-9.7909565,6.8316817,-9.994053,8.437321,-0.87234426,-0.80208653,-0.885582,32.173077,90.94961,49.963287,72.360115,-12.293343,17.48871,-5.8975635,36.72835,-90.833496,-41.9958,74.86455,-1.3963097,5.3868413,14.893911
25,-0.16778822243213654,2.0415852069854736,80.21871948242188,-0.764133010988445,2.060210863386417,-87.9543656989816,2.2298827,5.0754,0.32631537,7.482335,-15.860764,-13.560861,4.419443,-3.5041466,-9.764563,6.832451,-9.980457,8.392706,-0.824196,-0.79463017,-0.8524376,32.11964,90.94532,49.912804,72.36604,-12.332592,17.49365,-5.827761,36.740593,-90.84432,-42.021263,74.85999,-1.355096,5.3888345,14.876395
26,-0.1636018604040146,2.051116704940796,80.21578216552734,-0.7818927376735497,2.057136096195467,-88.0068411747224,2.2400544,5.1045356,0.3793738,7.484265,-15.872553,-13.591879,4.4031425,-3.481798,-9.742258,6.8334365,-9.956946,8.3183,-0.78318894,-0.7891027,-0.83376694,32.116573,90.94474,49.91032,72.37181,-12.380645,17.508583,-5.730139,36.727276,-90.84588,-42.02476,74.84558,-1.3207513,5.398777,14.860346
27,-0.17106902599334717,2.0643396377563477,80.2208023071289,-0.7976717123313993,2.0647379444116583,-88.0666463680151,2.239606,5.1317973,0.44091126,7.4868526,-15.883453,-13.616063,4.3713884,-3.4608514,-9.7044525,6.834265,-9.928762,8.251308,-0.7348945,-0.7825322,-0.82464236,32.1071,90.93965,49.886745,72.3774,-12.450962,17.525534,-5.6168666,36.711098,-90.85213,-42.033688,74.82947,-1.2932559,5.4167643,14.845017
28,-0.1688990741968155,2.0763185024261475,80.22342681884766,-0.8015530958047922,2.0812156004947724,-88.12083472689324,2.2256408,5.142079,0.49443904,7.4879456,-15.885602,-13.61708,4.328235,-3.453597,-9.652143,6.8339715,-9.903674,8.230792,-0.69111735,-0.7803865,-0.8317811,32.077477,90.930374,49.83783,72.3941,-12.487952,17.528597,-5.558268,36.705845,-90.86576,-42.048653,74.80988,-1.2736626,5.43413,14.828396
29,-0.15940240025520325,2.08976149559021,80.22533416748047,-0.7868156770704153,2.112032444910444,-88.17211285327463,2.191242,5.1262336,0.5406106,7.486827,-15.874556,-13.578399,4.2655773,-3.466878,-9.568026,6.8323517,-9.8824005,8.28306,-0.652906,-0.797385,-0.8583555,32.087673,90.92661,49.818405,72.42248,-12.486835,17.515398,-5.574984,36.689297,-90.87314,-42.0576,74.77351,-1.266088,5.4564295,14.808908
30,-0.15513357520103455,2.101820945739746,80.22274017333984,-0.759729635799001,2.1562818264889985,-88.22189996222768,2.1393623,5.09297,0.5831089,7.4848504,-15.855194,-13.512421,4.184751,-3.493626,-9.46068,6.829147,-9.860615,8.382378,-0.61622524,-0.82035,-0.9035121,32.088673,90.92027,49.779884,72.46145,-12.46285,17.490963,-5.6336784,36.680504,-90.88807,-42.07853,74.73102,-1.2686335,5.483193,14.792387
31,-0.15465769171714783,2.1114096641540527,80.22187042236328,-0.7318005184656964,2.202017671890944,-88.27064941648274,2.085708,5.0583005,0.6256069,7.4818015,-15.834362,-13.447679,4.1026955,-3.521706,-9.355012,6.826045,-9.841337,8.487754,-0.5807099,-0.8471358,-0.94950897,32.10981,90.91732,49.763706,72.50154,-12.436403,17.465649,-5.712178,36.67277,-90.896736,-42.09302,74.68473,-1.2732394,5.507479,14.768369
32,-0.14875490963459015,2.114370584487915,80.22313690185547,-0.7151165782260314,2.237370143505376,-88.31903650475893,2.045335,5.0386634,0.67164856,7.481052,-15.821771,-13.41213,4.0359764,-3.5388167,-9.275806,6.8234124,-9.825902,8.558291,-0.54291886,-0.86397004,-0.9806973,32.126194,90.914665,49.755875,72.5365,-12.427974,17.448177,-5.7830133,36.679966,-90.90313,-42.10289,74.64776,-1.2717136,5.521069,14.734413
33,-0.1399330496788025,2.112941026687622,80.22464752197266,-0.7153014912314488,2.259769411137049,-88.3687417632225,2.0225685,5.041855,0.72555476,7.4823284,-15.820397,-13.422011,3.9888499,-3.539688,-9.236204,6.8218255,-9.817195,8.576504,-0.49963135,-0.8658995,-0.99229664,32.129814,90.91183,49.752804,72.56463,-12.450834,17.44337,-5.84523,36.71395,-90.9093,-42.109188,74.6256,-1.2637084,5.5230317,14.68418
34,-0.14219653606414795,2.1267762184143066,80.22560119628906,-0.7250373979799569,2.2753283976696603,-88.41905906445062,2.0092716,5.0579987,0.7844153,7.4841547,-15.824743,-13.459618,3.9525142,-3.531675,-9.220892,6.81993,-9.812547,8.566397,-0.4530809,-0.85685384,-0.9932515,32.12437,90.90731,49.751244,72.58993,-12.491573,17.445522,-5.9107313,36.76976,-90.91732,-42.11632,74.61293,-1.2530282,5.5170784,14.624149
35,-0.14502674341201782,2.148996353149414,80.2228775024414,-0.7371910257482231,2.2852138055422015,-88.46667201463958,2.0024102,5.076619,0.8406013,7.4868655,-15.83131,-13.501549,3.9241714,-3.5215685,-9.211552,6.818621,-9.808647,8.5492735,-0.40803432,-0.8453062,-0.98833054,32.115387,90.901634,49.751007,72.612465,-12.531344,17.44757,-5.9697595,36.831715,-90.926285,-42.12556,74.6037,-1.2377524,5.50244,14.562875
36,-0.14104647934436798,2.161757707595825,80.2239761352539,-0.7439437730435395,2.2905919391557448,-88.50844075404487,1.9989026,5.08717,0.88663036,7.4884686,-15.834574,-13.525095,3.9007156,-3.5167398,-9.18993,6.8175097,-9.800572,8.546778,-0.3692087,-0.8395161,-0.9824741,32.10794,90.89664,49.751083,72.63375,-12.551388,17.442776,-6.013395,36.881485,-90.9335,-42.13531,74.59206,-1.215861,5.4782214,14.510227
37,-0.13924077153205872,2.1716413497924805,80.22346496582031,-0.7432169208629423,2.2893323000311145,-88.54295140912019,2.0012386,5.0858245,0.918618,7.4887037,-15.833991,-13.522511,3.8846016,-3.5186758,-9.14732,6.816354,-9.785564,8.567174,-0.33829543,-0.84301627,-0.9750383,32.10106,90.89403,49.751205,72.655556,-12.540967,17.42704,-6.0373673,36.908356,-90.93706,-42.138325,74.57519,-1.1829481,5.4304595,14.466889
38,-0.13546951115131378,2.1780197620391846,80.22579956054688,-0.7389414977405709,2.2815916178479663,-88.57211914473834,2.0096564,5.0786123,0.9411065,7.4885583,-15.831756,-13.506549,3.8762624,-3.5239015,-9.0946665,6.8156524,-9.766966,8.598384,-0.3123389,-0.84773463,-0.96427196,32.08968,90.88814,49.7481,72.6742,-12.512081,17.404688,-6.0463324,36.93863,-90.944664,-42.1517,74.55823,-1.1401612,5.363773,14.431856
39,-0.12109540402889252,2.18097186088562,80.22679901123047,-0.7335210427551946,2.272238406617345,-88.5975058379265,2.019202,5.0694776,0.9595348,7.488222,-15.828684,-13.48454,3.8712502,-3.5303025,-9.0434265,6.8143754,-9.748322,8.63011,-0.28992677,-0.8540233,-0.9530664,32.079323,90.88334,49.744385,72.69149,-12.480172,17.381338,-6.0467305,36.963947,-90.95119,-42.166573,74.543,-1.0978605,5.306396,14.401474
40,-0.1227913573384285,2.189635753631592,80.22718811035156,-0.729216947039459,2.2659650774707787,-88.6207793396573,2.0246122,5.0622673,0.97932583,7.4886317,-15.825482,-13.463757,3.8643415,-3.536683,-9.004687,6.814204,-9.735447,8.652438,-0.26998687,-0.85798454,-0.94429034,32.07325,90.87858,49.74002,72.707245,-12.460213,17.362326,-6.0453444,36.98819,-90.95846,-42.18598,74.5332,-1.0646472,5.28629,14.376745
41,-0.11941363662481308,2.1960415840148926,80.22889709472656,-0.726307600148362,2.2647477829852023,-88.64144949399886,2.0237825,5.057235,1.0017785,7.489465,-15.821274,-13.441808,3.854848,-3.5429592,-8.98379,6.8135185,-9.72963,8.660493,-0.25244355,-0.858954,-0.9384354,32.072456,90.87346,49.735645,72.72116,-12.456728,17.349024,-6.041426,37.018875,-90.968704,-42.221985,74.53251,-1.044555,5.3242826,14.361406
42,-0.109523244202137,2.20632004737854,80.23230743408203,-0.7234750113061085,2.2657278022604013,-88.65906205835026,2.0195317,5.0527554,1.0240749,7.4912367,-15.8165455,-13.416326,3.8445916,-3.5501468,-8.973864,6.813703,-9.72879,8.660271,-0.2380622,-0.8605746,-0.9340991,32.078175,90.87074,49.73443,72.73452,-12.460835,17.33869,-6.0333295,37.040936,-90.97654,-42.257446,74.537674,-1.0318652,5.401041,14.352691
43,-0.1023959219455719,2.2113070487976074,80.23165130615234,-0.721359964011765,2.2669547048952174,-88.67467065907621,2.0149803,5.049221,1.0453844,7.4929132,-15.812204,-13.394364,3.835779,-3.556544,-8.968354,6.8127527,-9.728773,8.658205,-0.226079,-0.8606324,-0.93041545,32.091248,90.869125,49.737087,72.74563,-12.469789,17.330729,-6.0241623,37.071445,-90.98448,-42.303112,74.54063,-1.0227998,5.484242,14.345384
44,-0.10435866564512253,2.221090078353882,80.23284912109375,-0.7200845107675928,2.266249431995406,-88.68987361359333,2.0133011,5.046233,1.0651804,7.4944725,-15.810197,-13.382586,3.8280988,-3.5619373,-8.960171,6.8134813,-9.7280245,8.660545,-0.21614818,-0.8598076,-0.927374,32.11221,90.86878,49.74319,72.75384,-12.480487,17.324316,-6.016648,37.102566,-90.99013,-42.343113,74.53476,-1.0131004,5.5415897,14.331228
45,-0.09808279573917389,2.2249813079833984,80.23430633544922,-0.7205653099642271,2.262551740540681,-88.70559039616477,2.017229,5.0456834,1.0848027,7.494507,-15.810845,-13.3882475,3.8242948,-3.5643504,-8.947425,6.813039,-9.724445,8.668869,-0.20837156,-0.85631883,-0.9247762,32.143272,90.86928,49.751957,72.758705,-12.493191,17.317959,-6.0136204,37.135998,-90.99454,-42.376003,74.5143,-1.0003285,5.571028,14.306424
46,-0.09914796054363251,2.227787733078003,80.23683166503906,-0.7220418639781864,2.257085743964296,-88.72103100402562,2.024036,5.0463405,1.1042118,7.4944377,-15.812152,-13.405791,3.823211,-3.5652747,-8.933512,6.8117833,-9.719748,8.679898,-0.20294097,-0.8502228,-0.9218313,32.188747,90.87,49.769733,72.759926,-12.509259,17.31286,-6.0145564,37.18408,-90.99922,-42.420208,74.482346,-0.9877134,5.587584,14.278394
47,-0.09847676753997803,2.2381200790405273,80.23766326904297,-0.7237247265296898,2.2516250349966995,-88.73409865098496,2.0305085,5.046789,1.1200463,7.4941864,-15.815642,-13.423695,3.8220487,-3.5658793,-8.921012,6.8111477,-9.714865,8.692661,-0.19981068,-0.8446743,-0.92065835,32.233944,90.871086,49.786007,72.75832,-12.526834,17.310856,-6.010718,37.22354,-91.00278,-42.45311,74.45288,-0.97746396,5.584549,14.24724
48,-0.08951276540756226,2.2445995807647705,80.23464965820312,-0.7236260506329728,2.2478642158678865,-88.74272608352167,2.0338476,5.044458,1.1294054,7.4938126,-15.818289,-13.430271,3.8201656,-3.5686288,-8.912041,6.8103313,-9.710529,8.706403,-0.19916496,-0.84016746,-0.92020315,32.282265,90.87235,49.811623,72.753944,-12.543526,17.315317,-6.0007334,37.270164,-91.00716,-42.496227,74.4337,-0.97344995,5.555146,14.223462
49,-0.08777469396591187,2.2486863136291504,80.23265838623047,-0.7202267935339752,2.247136511176406,-88.74581953164774,2.031324,5.036789,1.1296347,7.4940944,-15.820765,-13.417436,3.8148243,-3.575407,-8.9074135,6.8109403,-9.708202,8.723908,-0.20138006,-0.8402338,-0.92231804,32.326725,90.87357,49.841324,72.74554,-12.562368,17.330694,-5.9739437,37.315887,-91.01222,-42.54224,74.43053,-0.9815896,5.479896,14.204811
50,-0.08782921731472015,2.2544682025909424,80.2325439453125,-0.714677067030713,2.2481872381851313,-88.74472217664803,2.0247874,5.025798,1.1229769,7.495853,-15.82413,-13.393134,3.8089757,-3.5844724,-8.906096,6.8094587,-9.7055,8.744435,-0.20640707,-0.8421883,-0.9269678,32.370853,90.87467,49.874058,72.73354,-12.583726,17.354513,-5.9360323,37.363377,-91.017876,-42.590385,74.437164,-0.99763125,5.3685555,14.190138
51,-0.07366806268692017,2.2576727867126465,80.2362289428711,-0.709986734881283,2.248915030173716,-88.74093435215026,2.0185227,5.015301,1.1135776,7.49652,-15.825441,-13.369319,3.803709,-3.593049,-8.906665,6.8094664,-9.702488,8.762591,-0.21273792,-0.84308857,-0.9304062,32.41709,90.8756,49.911873,72.71993,-12.600333,17.377354,-5.9021616,37.414722,-91.02382,-42.643356,74.44767,-1.0118728,5.2572665,14.17862
52,-0.07415258139371872,2.261009454727173,80.23612976074219,-0.7088848536003592,2.2469520153945934,-88.73636477996753,2.0124483,5.009497,1.1052027,7.502195,-15.826247,-13.357949,3.8100207,-3.5964377,-8.908196,6.7946014,-9.689062,8.772753,-0.21874066,-0.8401887,-0.9308209,32.46336,90.87653,49.94854,72.70678,-12.605981,17.389708,-5.886288,37.464695,-91.02866,-42.692707,74.456665,-1.0130296,5.1827283,14.168222
53,-0.0652116984128952,2.258805513381958,80.23729705810547,-0.7143570497582152,2.2411416743545196,-88.73163955465698,2.015471,5.012378,1.0999146,7.497527,-15.816829,-13.366589,3.8091173,-3.5939424,-8.907601,6.8079395,-9.68637,8.769831,-0.22355494,-0.8311856,-0.9256388,32.512833,90.87807,49.987915,72.69354,-12.5919485,17.38911,-5.8981705,37.518524,-91.03298,-42.743935,74.46292,-0.990527,5.154591,14.160289
54,-0.05488887429237366,2.264350175857544,80.23761749267578,-0.724260082589094,2.2328081245513585,-88.72566085745292,2.0188293,5.021068,1.0945927,7.496867,-15.806268,-13.387253,3.8189054,-3.5851367,-8.907395,6.807931,-9.673352,8.758222,-0.22812536,-0.8175071,-0.91685253,32.5642,90.880005,50.02945,72.679985,-12.564064,17.380877,-5.928499,37.575073,-91.03626,-42.796535,74.469154,-0.9526247,5.153379,14.155785
55,-0.07083233445882797,2.2756807804107666,80.23794555664062,-0.7333242714210051,2.223795677839669,-88.71788729635917,2.0228317,5.0281005,1.0886996,7.496218,-15.794753,-13.409211,3.8303602,-3.5783415,-8.910087,6.8069253,-9.659795,8.745585,-0.23343007,-0.804993,-0.90852696,32.60801,90.88227,50.062923,72.66812,-12.537591,17.365831,-5.9611807,37.62269,-91.03855,-42.838142,74.4775,-0.91698956,5.1717086,14.148504
56,-0.05814541503787041,2.277470827102661,80.23814392089844,-0.7360107156146167,2.2159916253463003,-88.70746069743073,2.0258527,5.0258465,1.0814354,7.4957376,-15.785022,-13.421484,3.8395412,-3.5812852,-8.918533,6.8073053,-9.650715,8.739692,-0.24137084,-0.79768944,-0.9011626,32.662846,90.88508,50.10984,72.65807,-12.52604,17.346992,-5.9873776,37.68364,-91.04012,-42.89478,74.48246,-0.9021452,5.2024083,14.140586
57,-0.05452420562505722,2.2831311225891113,80.23684692382812,-0.728905708124726,2.2109340411991556,-88.69333114563405,2.026403,5.0100665,1.0734874,7.495731,-15.777461,-13.4208145,3.84468,-3.5985768,-8.935834,6.8061996,-9.644965,8.742901,-0.2528442,-0.7986724,-0.89964247,32.697712,90.88692,50.135582,72.65432,-12.541665,17.31887,-5.9936743,37.716557,-91.04027,-42.92529,74.493004,-0.9270879,5.261513,14.120688
58,-0.052818987518548965,2.2942874431610107,80.23873901367188,-0.7158203325565057,2.2073195697449854,-88.67606723214698,2.026201,4.9852557,1.0649999,7.4951315,-15.770244,-13.41301,3.8469148,-3.6257222,-8.959625,6.806703,-9.642795,8.75102,-0.2677944,-0.8048458,-0.9006257,32.74152,90.88957,50.170063,72.65293,-12.573483,17.283691,-5.995287,37.756725,-91.03942,-42.964153,74.50075,-0.97677076,5.3475227,14.0982685
59,-0.038291677832603455,2.29262375831604,80.23887634277344,-0.7015386739377194,2.2023975680142582,-88.65801021176533,2.0266879,4.958608,1.0541883,7.4953246,-15.764516,-13.401368,3.85174,-3.6544626,-8.984839,6.80584,-9.641355,8.761757,-0.28209153,-0.81215125,-0.90173846,32.779915,90.89199,50.199512,72.65198,-12.605139,17.248295,-5.9954224,37.795475,-91.038284,-42.99573,74.50976,-1.0191404,5.424482,14.076314
60,-0.031858257949352264,2.292069911956787,80.23853302001953,-0.6911542209555546,2.1940720205561903,-88.64147767753164,2.0297017,4.9369183,1.0393945,7.4957685,-15.760651,-13.38881,3.8614523,-3.6773467,-9.006055,6.8056517,-9.640561,8.772876,-0.29226854,-0.8164814,-0.8984628,32.81617,90.8948,50.23159,72.64815,-12.619911,17.221111,-6.0014715,37.84316,-91.03715,-43.02727,74.51869,-1.021522,5.456993,14.061874
61,-0.022935591638088226,2.2940468788146973,80.23822021484375,-0.685987476360967,2.179412544039611,-88.62776799224804,2.0377862,4.921923,1.0183336,7.49665,-15.759564,-13.373541,3.879744,-3.692141,-9.021983,6.8052835,-9.639776,8.784691,-0.29588166,-0.8170846,-0.8883056,32.857243,90.89833,50.274063,72.6394,-12.607961,17.204506,-6.023194,37.917908,-91.03658,-43.066086,74.52612,-0.95653486,5.4204125,14.059999
62,-0.023725930601358414,2.292921304702759,80.24137878417969,-0.6834571994775908,2.1605306967546,-88.61536511035723,2.049038,4.9101815,0.9924941,7.4979806,-15.760847,-13.35495,3.9039361,-3.7028608,-9.03542,6.8052435,-9.6400795,8.79779,-0.29570717,-0.8151422,-0.8725475,32.907585,90.90199,50.331394,72.626854,-12.5794115,17.194622,-6.0560575,38.017796,-91.036064,-43.11766,74.530785,-0.84806913,5.3386474,14.068462
63,-0.01166769489645958,2.2960779666900635,80.23794555664062,-0.6825421786872479,2.1418812115752317,-88.60243417381122,2.0600898,4.9006743,0.96566725,7.4990625,-15.762055,-13.337443,3.9283864,-3.711002,-9.04755,6.8052993,-9.640486,8.8113575,-0.29507953,-0.81188834,-0.8581664,32.943684,90.904526,50.374527,72.61433,-12.549255,17.188232,-6.0803313,38.100758,-91.035934,-43.154617,74.538666,-0.73962367,5.249324,14.076012
64,-0.008110206574201584,2.2978553771972656,80.24089050292969,-0.6818960313633472,2.1276488145162964,-88.5870990220478,2.0672705,4.89239,0.94170886,7.501508,-15.762541,-13.325736,3.9483263,-3.7180223,-9.05914,6.804638,-9.63962,8.824568,-0.29923669,-0.80808276,-0.8496816,32.98316,90.90687,50.41556,72.60257,-12.530465,17.184626,-6.0876036,38.166496,-91.03562,-43.19099,74.544,-0.67476285,5.190562,14.081387
65,-0.0033398629166185856,2.303659439086914,80.24046325683594,-0.682372757818441,2.1197340243439777,-88.56771446859993,2.0694532,4.8874006,0.9214534,7.5044847,-15.76093,-13.324019,3.96091,-3.7222078,-9.069752,6.805909,-9.639162,8.838121,-0.31128192,-0.8035646,-0.8496544,33.026207,90.90894,50.454056,72.59209,-12.530348,17.184912,-6.068141,38.20589,-91.03436,-43.227005,74.54412,-0.6746148,5.177404,14.082575
66,0.005259087309241295,2.3043041229248047,80.24002075195312,-0.6839145984981181,2.115361555062157,-88.54582387349035,2.0686955,4.885446,0.9030435,7.508026,-15.7580805,-13.328893,3.9700725,-3.7235603,-9.07904,6.8069544,-9.637954,8.852227,-0.32690573,-0.79764247,-0.8577111,33.04807,90.90982,50.4649,72.58358,-12.540266,17.188437,-6.0264554,38.210102,-91.03379,-43.23857,74.54643,-0.71063966,5.187409,14.078615
67,0.002118030097335577,2.3076605796813965,80.23661041259766,-0.6855234866361025,2.1129409851986236,-88.52347212212216,2.0664623,4.8824453,0.88566625,7.5116673,-15.755542,-13.33344,3.9776137,-3.725806,-9.0889015,6.807338,-9.636018,8.864676,-0.3438407,-0.79176694,-0.86681455,33.086166,90.91208,50.489315,72.57451,-12.553023,17.19396,-5.982706,38.217117,-91.03213,-43.26184,74.54585,-0.75960755,5.2049727,14.075674
68,0.01174865197390318,2.300778388977051,80.23632049560547,-0.6856178442305244,2.1107350422016746,-88.5031468402953,2.063387,4.8743224,0.86881024,7.515487,-15.754249,-13.330887,3.9837725,-3.7331572,-9.100641,6.807829,-9.633001,8.873211,-0.35494742,-0.787273,-0.87398195,33.119503,90.91468,50.512676,72.56409,-12.554006,17.198545,-5.947966,38.22862,-91.03014,-43.282505,74.55273,-0.78871864,5.2113504,14.069627
69,0.018188539892435074,2.3103654384613037,80.23696899414062,-0.6822700565151003,2.106942515268767,-88.48475914512277,2.0617077,4.8563123,0.8507764,7.5176945,-15.753704,-13.315779,3.9917831,-3.749343,-9.114555,6.8073053,-9.629521,8.880136,-0.36094075,-0.7856088,-0.8806781,33.167953,90.91832,50.544117,72.54825,-12.547023,17.204071,-5.932077,38.258297,-91.02764,-43.30832,74.564735,-0.7896416,5.2014894,14.059059
70,0.02395208179950714,2.313180923461914,80.24008178710938,-0.676609600456292,2.103152479997931,-88.46724235511115,2.0601614,4.831602,0.83244354,7.519091,-15.753856,-13.292732,3.999314,-3.7719061,-9.129885,6.806988,-9.625972,8.885737,-0.36324555,-0.78482765,-0.8899796,33.20982,90.9206,50.56217,72.52929,-12.536326,17.210316,-5.922037,38.285534,-91.02646,-43.323326,74.58396,-0.7767317,5.1849704,14.042664
71,0.031907930970191956,2.313410758972168,80.24192810058594,-0.6727871199616476,2.101738897225683,-88.4514203460081,2.0563116,4.8089557,0.8168631,7.5203896,-15.754231,-13.271092,4.003612,-3.7930827,-9.147033,6.805984,-9.620004,8.884603,-0.36355463,-0.7834694,-0.8967597,33.275776,90.92614,50.61348,72.51133,-12.515717,17.215708,-5.91637,38.33517,-91.02293,-43.363716,74.59781,-0.76138926,5.168614,14.033995
72,0.06606093794107437,2.3115222454071045,80.24271392822266,-0.6745021974916757,2.1045193727083924,-88.43816259829376,2.0481198,4.7963667,0.80736774,7.5228443,-15.755034,-13.259938,4.002403,-3.8060617,-9.166688,6.80494,-9.611164,8.871361,-0.36130118,-0.7760112,-0.9082628,33.3124,90.92911,50.64177,72.50233,-12.484549,17.214567,-5.8949575,38.367863,-91.02094,-43.385296,74.60976,-0.75278234,5.1603823,14.034083
73,0.06223813816905022,2.324796676635742,80.24266052246094,-0.6863792157001771,2.1161426933376717,-88.42830129490874,2.0309472,4.801631,0.8079687,7.527125,-15.756376,-13.266153,3.9884167,-3.8045871,-9.193073,6.8048844,-9.594632,8.8312645,-0.35733873,-0.7594736,-0.9231865,33.347282,90.93279,50.68818,72.50471,-12.43406,17.20626,-5.85134,38.408134,-91.018585,-43.419056,74.61082,-0.7544111,5.164325,14.057672
74,0.07391176372766495,2.324246644973755,80.24248504638672,-0.7049710671566811,2.134072688617354,-88.42113034635724,2.0073864,4.818515,0.8158875,7.5316553,-15.757603,-13.283497,3.9660099,-3.7938793,-9.224745,6.8045616,-9.57239,8.771733,-0.35105613,-0.736033,-0.9432023,33.367847,90.9351,50.729893,72.514915,-12.370121,17.192335,-5.7898297,38.443977,-91.01737,-43.44756,74.607445,-0.76044875,5.1759605,14.09506
75,0.09125664085149765,2.322638511657715,80.2448959350586,-0.7229585983201621,2.1504593736289204,-88.41530671127285,1.986031,4.8343067,0.82407886,7.5363193,-15.759443,-13.300862,3.9453595,-3.783964,-9.252721,6.804899,-9.55366,8.720332,-0.34375247,-0.7129714,-0.9628449,33.396008,90.93668,50.776367,72.525795,-12.304548,17.176867,-5.738285,38.48593,-91.016884,-43.478584,74.60037,-0.7664015,5.1900473,14.132187
76,0.10876742005348206,2.3191847801208496,80.24182891845703,-0.7323603663922584,2.1569887375523784,-88.40964781087,1.9764771,4.8359838,0.8256503,7.5391216,-15.761517,-13.306983,3.938651,-3.785179,-9.2686825,6.8043957,-9.547002,8.704695,-0.3350384,-0.69820094,-0.9747404,33.42366,90.937775,50.810204,72.53426,-12.248351,17.162039,-5.7180977,38.521458,-91.01701,-43.500618,74.5978,-0.7709754,5.1998744,14.150519
77,0.1308736503124237,2.313528299331665,80.24195098876953,-0.7308527175367012,2.148531998227798,-88.40464497210225,1.9838885,4.8197465,0.81686807,7.5394807,-15.763968,-13.298433,3.9514859,-3.799535,-9.263856,6.8039837,-9.558111,8.741363,-0.32571256,-0.6949524,-0.9756738,33.484882,90.93939,50.857258,72.535324,-12.20178,17.148188,-5.754944,38.57528,-91.017525,-43.532295,74.592964,-0.7666561,5.2064767,14.147214
78,0.14607694745063782,2.3118035793304443,80.23980712890625,-0.7227882447579314,2.130650646325677,-88.40073395158487,2.002006,4.7928867,0.8020416,7.5388412,-15.767311,-13.281312,3.9766836,-3.821532,-9.245074,6.803487,-9.580931,8.812236,-0.3149493,-0.69827133,-0.96828127,33.56015,90.94115,50.90897,72.53398,-12.159329,17.133398,-5.828233,38.63493,-91.017715,-43.5668,74.587395,-0.75842375,5.2120357,14.129907
79,0.15880535542964935,2.3102192878723145,80.236572265625,-0.709972781541447,2.110859358854067,-88.39612791177991,2.0237355,4.758155,0.7861885,7.537207,-15.770514,-13.258748,4.006089,-3.8511188,-9.226312,6.8032317,-9.608807,8.894268,-0.30443016,-0.70715606,-0.95975935,33.640385,90.94273,50.95998,72.530914,-12.125531,17.121319,-5.906266,38.69484,-91.017845,-43.601,74.5814,-0.75490385,5.2143974,14.105409
80,0.17653803527355194,2.3072993755340576,80.2347183227539,-0.694671092437114,2.0967865165945314,-88.38917119992551,2.0403802,4.719288,0.7739937,7.5366335,-15.773644,-13.233914,4.031459,-3.887358,-9.2216,6.8018975,-9.633658,8.963848,-0.29634652,-0.7186412,-0.95614916,33.722103,90.94382,51.01706,72.52641,-12.104641,17.115915,-5.9585953,38.752644,-91.01751,-43.64004,74.57497,-0.7655231,5.21135,14.082846
81,0.19540686905384064,2.303601026535034,80.23470306396484,-0.6727325876330594,2.0930226421380747,-88.3772573329141,2.048255,4.6703515,0.76667273,7.536167,-15.775275,-13.204696,4.0485787,-3.9370916,-9.238789,6.8031826,-9.661846,9.023221,-0.2912674,-0.7359482,-0.96908563,33.785625,90.944664,51.050434,72.52261,-12.109248,17.118763,-5.9833813,38.79814,-91.01767,-43.66385,74.57081,-0.7966936,5.199579,14.059726
82,0.2240605354309082,2.290233612060547,80.23383331298828,-0.6444718251583794,2.0948981420306088,-88.36217828637768,2.0516055,4.6115775,0.7617649,7.536208,-15.776363,-13.170334,4.0631247,-3.9984574,-9.268999,6.804151,-9.693446,9.082132,-0.28936002,-0.7595252,-0.9874612,33.866993,90.945946,51.10273,72.516655,-12.130882,17.128849,-6.0005255,38.855503,-91.01824,-43.703327,74.56432,-0.8432748,5.1807227,14.038115
83,0.2619800865650177,2.2770724296569824,80.22914123535156,-0.6187498433285223,2.095190685384545,-88.34807342945568,2.057428,4.555757,0.758446,7.536619,-15.778556,-13.1361885,4.079324,-4.0574355,-9.301249,6.804186,-9.71785,9.127891,-0.28641695,-0.78138214,-1.0027059,33.925564,90.94634,51.134644,72.511154,-12.152571,17.141235,-5.9883785,38.89314,-91.018654,-43.729763,74.56054,-0.89192593,5.162088,14.012511
84,0.2721402943134308,2.2829580307006836,80.22647857666016,-0.6042203272757068,2.0860779401141225,-88.33930403593439,2.0733373,4.515243,0.7560551,7.538123,-15.784582,-13.107673,4.101032,-4.1005025,-9.324323,6.805133,-9.725971,9.148199,-0.28107244,-0.7944505,-1.0086883,33.971367,90.94615,51.147297,72.502975,-12.158472,17.154285,-5.9365416,38.91566,-91.018875,-43.742493,74.553085,-0.926909,5.1516194,13.987303
85,0.2868075966835022,2.285748243331909,80.22743225097656,-0.6066879888355363,2.0617083131403375,-88.33821165815567,2.1042066,4.4984202,0.75477153,7.5427704,-15.797172,-13.088072,4.133307,-4.118909,-9.33596,6.8060837,-9.708336,9.125487,-0.2685395,-0.7936766,-0.9918003,34.007244,90.94576,51.151043,72.49112,-12.126874,17.173208,-5.8419294,38.922215,-91.01911,-43.749546,74.54923,-0.9411058,5.149615,13.9649315
86,0.30136552453041077,2.291914701461792,80.22655487060547,-0.6207188159151364,2.0261674892657418,-88.34100916571899,2.147083,4.4971704,0.7539319,7.5493855,-15.814604,-13.073927,4.17403,-4.121529,-9.342825,6.806895,-9.672374,9.07128,-0.25704446,-0.7840578,-0.96242064,34.05145,90.94499,51.152348,72.47265,-12.078281,17.203682,-5.702803,38.92372,-91.01935,-43.7568,74.541084,-0.9463874,5.1519365,13.94549
87,0.3334106206893921,2.2823846340179443,80.22940826416016,-0.636770811547769,1.9920369224960954,-88.34624132008621,2.1888092,4.498015,0.7543178,7.5551023,-15.831198,-13.060232,4.211262,-4.121686,-9.344319,6.8078747,-9.63252,9.016051,-0.24638513,-0.77324885,-0.93490463,34.090782,90.94334,51.15199,72.453476,-12.041132,17.225206,-5.539433,38.919907,-91.019325,-43.763405,74.524376,-0.9488874,5.1604466,13.92347
88,0.35501447319984436,2.271165370941162,80.22881317138672,-0.6446368818249963,1.9719259955104558,-88.35142401630699,2.2155259,4.4859986,0.7560109,7.560066,-15.843439,-13.0418215,4.2345862,-4.133661,-9.34082,6.8077965,-9.602865,8.990825,-0.23884784,-0.77011913,-0.9236777,34.111927,90.94015,51.150097,72.44113,-12.046042,17.2163,-5.368463,38.91019,-91.0185,-43.7678,74.49278,-0.9562372,5.1763635,13.892785
89,0.38097602128982544,2.264256000518799,80.22830200195312,-0.6411786330283362,1.9724607882448808,-88.35638210642765,2.2212481,4.4565988,0.7588859,7.562083,-15.848053,-13.017315,4.23644,-4.1615505,-9.328835,6.80698,-9.58636,9.006613,-0.23531012,-0.7778157,-0.9423855,34.099236,90.935036,51.147686,72.44514,-12.110683,17.159323,-5.1896334,38.886684,-91.01659,-43.770134,74.439224,-0.9849092,5.1985598,13.858918
90,0.4169330894947052,2.2556729316711426,80.23056030273438,-0.6315098796247928,1.9869061874617615,-88.36200263882144,2.212691,4.417402,0.7627266,7.562774,-15.848254,-12.989366,4.2238812,-4.198013,-9.30967,6.805805,-9.576667,9.046287,-0.23510715,-0.79172736,-0.977549,34.05619,90.927734,51.143265,72.46357,-12.215168,17.064356,-4.99576,38.84546,-91.01332,-43.77024,74.36919,-1.0296171,5.227632,13.82316
91,0.4315204322338104,2.262437343597412,80.23265838623047,-0.6196747051332813,2.0067018833449914,-88.36696338798951,2.197044,4.3741755,0.76672304,7.5636897,-15.846897,-12.959276,4.205118,-4.2386746,-9.291002,6.804388,-9.570687,9.097168,-0.23756056,-0.80752957,-1.0055414,34.004272,90.91758,51.131798,72.48225,-12.33501,16.95389,-4.7925878,38.79771,-91.00797,-43.764717,74.29521,-1.0608573,5.2668214,13.76928
92,0.4697932004928589,2.252828598022461,80.23173522949219,-0.6097622186531226,2.023826998329147,-88.36971792454726,2.1818712,4.333022,0.77018225,7.5650053,-15.846135,-12.928684,4.1888,-4.2788143,-9.2803955,6.802957,-9.566198,9.146623,-0.24116161,-0.8206162,-1.0074915,33.970943,90.90348,51.10646,72.48334,-12.448798,16.852505,-4.586107,38.7622,-90.99923,-43.74792,74.229355,-1.0426645,5.318676,13.678265
93,0.49626198410987854,2.251178503036499,80.23194885253906,-0.6015366286525349,2.035887356198165,-88.36984136897547,2.167949,4.2941318,0.7738688,7.5690293,-15.847493,-12.896558,4.177711,-4.319602,-9.282084,6.8021326,-9.5663595,9.197161,-0.24187915,-0.83104223,-0.9761975,33.98238,90.88504,51.06124,72.44528,-12.542311,16.768291,-4.3855276,38.761658,-90.98638,-43.714115,74.18334,-0.9589476,5.3854423,13.544684
94,0.5205053687095642,2.267970561981201,80.2275390625,-0.5933075398509389,2.046856495423589,-88.36828590686056,2.1534855,4.2545915,0.77809596,7.572673,-15.848766,-12.862646,4.167554,-4.3627543,-9.291043,6.8014865,-9.57116,9.253765,-0.23936802,-0.8411835,-0.93303835,34.03021,90.86131,50.99518,72.373055,-12.635086,16.692425,-4.184965,38.79579,-90.96856,-43.660946,74.146126,-0.818337,5.46393,13.374313
95,0.5632352232933044,2.261746883392334,80.22549438476562,-0.5866598579540179,2.0577473551155037,-88.36507560466671,2.1372674,4.2166963,0.78054434,7.5770283,-15.850017,-12.829383,4.156437,-4.404198,-9.301988,6.8010473,-9.574244,9.306698,-0.23952757,-0.84924376,-0.89483297,34.081158,90.83128,50.909588,72.2927,-12.756066,16.622316,-3.9660974,38.8386,-90.9447,-43.588444,74.09381,-0.62591165,5.549693,13.165262
96,0.6001026630401611,2.254681348800659,80.22838592529297,-0.5834886210133867,2.067995378320691,-88.36016021609367,2.1202557,4.1825986,0.7787694,7.582231,-15.851365,-12.799242,4.1440525,-4.439765,-9.309738,6.80051,-9.5694065,9.346402,-0.24997525,-0.8521464,-0.8707566,34.092453,90.793594,50.805904,72.23501,-12.9309635,16.55493,-3.7097619,38.852966,-90.91337,-43.49699,74.00322,-0.39090034,5.639023,12.916605
97,0.6105939745903015,2.279698371887207,80.22726440429688,-0.5859974964151098,2.079759787784273,-88.35250854149147,2.0990334,4.154578,0.7704049,7.5896835,-15.852516,-12.7745495,4.1270924,-4.4659004,-9.314262,6.799306,-9.550226,9.361953,-0.27460906,-0.8488845,-0.85773677,34.045193,90.7471,50.68273,72.20994,-13.18948,16.480036,-3.3824482,38.820503,-90.8732,-43.385017,73.86152,-0.1143309,5.743665,12.599558
98,0.6393284201622009,2.277703285217285,80.2313232421875,-0.5927488147484271,2.0961493412759964,-88.34155613564926,2.070525,4.130624,0.7562259,7.597277,-15.851738,-12.75324,4.1019883,-4.485669,-9.31856,6.7990494,-9.521795,9.361084,-0.2820818,-0.84166765,-0.88130736,33.515854,90.49971,49.99442,72.09449,-13.630339,16.33884,-2.7334983,38.36463,-90.654564,-42.757965,73.6482,0.27685988,5.8878164,11.9743595
99,0.688230037689209,2.2680954933166504,80.23262786865234,-0.5986337478405999,2.107119914931353,-88.3319011361368,2.0481355,4.1056957,0.7431399,7.6033463,-15.851285,-12.731547,4.082589,-4.5058866,-9.318607,6.7976785,-9.49323,9.362838,-0.25363937,-0.8337374,-0.9121779,32.457886,90.13156,48.82628,71.96212,-14.020213,16.174553,-1.9659116,37.432533,-90.32957,-41.686825,73.51138,0.63575155,5.9880037,11.22033
100,0.727603554725647,2.282269239425659,80.22874450683594,-0.5999614826680011,2.1094772490108182,-88.32470975557749,2.037096,4.075417,0.7341978,7.606852,-15.852246,-12.705304,4.0737696,-4.532613,-9.313108,6.7965236,-9.474741,9.385818,-0.17437118,-0.8232183,-1.0284749,30.416365,89.657616,46.60109,71.916115,-14.384352,15.965226,-1.002302,35.59869,-89.93203,-39.6238,73.59777,1.0200082,6.028898,10.283225
101,0.7681396007537842,2.2779979705810547,80.22994995117188,-0.5981698813546149,2.095003620327048,-88.3233153425723,2.046047,4.042835,0.73244077,7.6097603,-15.857243,-12.674999,4.0849996,-4.5637083,-9.296736,6.7967315,-9.471581,9.439169,-0.1439122,-0.8134242,-1.0958132,28.786467,89.44608,44.932034,72.09582,-14.576108,15.846072,-0.41376388,34.097645,-89.753365,-38.006126,73.74947,1.4145437,5.9870543,9.670399
102,0.802418053150177,2.2864644527435303,80.22833251953125,-0.5944602210059533,2.069471826174402,-88.32575988096924,2.0678651,4.0087442,0.7350819,7.6122966,-15.864906,-12.642195,4.109404,-4.597395,-9.272192,6.7961597,-9.476357,9.511611,-0.12161611,-0.8091622,-1.1407765,27.185421,89.264175,43.36653,72.33686,-14.686239,15.758359,0.07433289,32.585537,-89.580505,-36.42127,73.92334,1.8318167,5.8861895,9.122208
103,0.8405728936195374,2.289130687713623,80.22322845458984,-0.5869784726358567,2.0439425228811183,-88.32483463940189,2.0896797,3.9686038,0.73570806,7.61391,-15.873265,-12.605924,4.135209,-4.6373334,-9.251162,6.7961855,-9.486238,9.590875,-0.11004621,-0.81301916,-1.1857978,25.550024,89.05465,41.799736,72.596405,-14.774938,15.694437,0.5578226,30.982101,-89.37109,-34.793686,74.10204,2.2248435,5.8030353,8.602519
104,0.8694019317626953,2.302656888961792,80.21853637695312,-0.5736853686959734,2.029230970863359,-88.31343663624864,2.098299,3.9180737,0.72779715,7.615792,-15.881437,-12.564951,4.1513004,-4.687376,-9.245463,6.7966833,-9.497588,9.664706,-0.11805352,-0.8269216,-1.2499291,23.878971,88.7948,40.198708,72.85547,-14.895139,15.654446,1.0960591,29.26357,-89.11174,-33.11466,74.27088,2.5464582,5.8156996,8.109206
105,0.915285587310791,2.299903154373169,80.21456909179688,-0.5502413092341452,2.0333950375135132,-88.28576604059016,2.0850093,3.8501408,0.7074809,7.6171837,-15.889664,-12.515021,4.1507416,-4.754346,-9.261878,6.79666,-9.513463,9.736926,-0.15031599,-0.8553723,-1.3474663,22.157316,88.47613,38.57179,73.11628,-15.053703,15.654798,1.7174498,27.42621,-88.80047,-31.410164,74.432884,2.76615,5.9804316,7.6670594
106,0.9508839845657349,2.289283037185669,80.21418762207031,-0.5186553987067135,2.049006379504396,-88.24710882294028,2.05814,3.7687886,0.6789512,7.617821,-15.898168,-12.457902,4.1405063,-4.834481,-9.292934,6.797219,-9.535038,9.811767,-0.1982708,-0.8934133,-1.4644204,20.401207,88.09357,36.94224,73.37753,-15.227075,15.6867,2.398192,25.512175,-88.43426,-29.70695,74.593376,2.916819,6.244803,7.259354
107,0.99737548828125,2.2972426414489746,80.20816802978516,-0.48828245422792277,2.063870673618743,-88.20619567740202,2.031754,3.6872826,0.64797616,7.6189995,-15.906138,-12.402335,4.1313252,-4.9147615,-9.328731,6.797916,-9.553058,9.877462,-0.25183108,-0.9288812,-1.5761317,18.675146,87.63505,35.322456,73.61461,-15.420191,15.713809,3.1138098,23.58149,-87.99978,-28.01518,74.740166,3.0455568,6.5233054,6.8255553
108,1.0353347063064575,2.3232851028442383,80.20263671875,-0.46844639169113234,2.065675953342535,-88.17194191596911,2.0194838,3.6186762,0.6201425,7.62049,-15.9113655,-12.3569355,4.1334286,-4.981934,-9.359292,6.7989902,-9.558396,9.922281,-0.3004807,-0.95182353,-1.6582334,17.05123,87.086716,33.729717,73.7983,-15.6377535,15.699455,3.8415892,21.69708,-87.48108,-26.346107,74.85877,3.1994486,6.7300744,6.301352
109,1.0828489065170288,2.3197779655456543,80.20263671875,-0.46392205355362237,2.041231015251836,-88.14698495031867,2.0368834,3.569049,0.5963371,7.6226306,-15.913602,-12.327566,4.161503,-5.0296082,-9.384282,6.800379,-9.545083,9.930289,-0.33808047,-0.958061,-1.6937721,15.57105,86.43823,32.19498,73.9037,-15.886377,15.634542,4.5803304,19.885147,-86.86579,-24.727484,74.94119,3.3620832,6.84394,5.664488
110,1.1260414123535156,2.3221778869628906,80.2010269165039,-0.4689227217228193,2.0005154482198755,-88.12654609645485,2.072302,3.530474,0.57367134,7.6255918,-15.91388,-12.308146,4.2050714,-5.0662236,-9.408285,6.8025312,-9.518945,9.912067,-0.36931404,-0.9553543,-1.6951128,14.244686,85.68329,30.75735,73.929375,-16.161072,15.5363455,5.3492036,18.164156,-86.149124,-23.202667,74.98319,3.5165038,6.9105334,4.940139
111,1.1686968803405762,2.3355801105499268,80.1987075805664,-0.4766165853773987,1.966133080161142,-88.10830443620026,2.1000369,3.494783,0.55254054,7.6284337,-15.912523,-12.290359,4.240266,-5.0994997,-9.428532,6.804261,-9.4896555,9.895459,-0.39967564,-0.94881266,-1.6815804,13.094404,84.81174,29.442383,73.87948,-16.449512,15.407873,6.155687,16.582182,-85.324135,-21.801813,74.97661,3.7083323,6.939655,4.1377997
112,1.211474895477295,2.357455015182495,80.19644927978516,-0.48065161616083685,1.9607937761492307,-88.09027447272078,2.092802,3.4538302,0.5331213,7.6330485,-15.911662,-12.265188,4.2416644,-5.1377177,-9.441759,6.804779,-9.466104,9.908064,-0.43533108,-0.9446849,-1.6734052,12.137151,83.81475,28.269764,73.75868,-16.738796,15.25205,7.0078616,15.183616,-84.38756,-20.550753,74.90837,3.9825974,6.9437256,3.2657664
113,1.2567012310028076,2.3703866004943848,80.1923599243164,-0.4791250681806119,2.000046814747827,-88.07145840324574,2.0339932,3.4058042,0.515184,7.637615,-15.910773,-12.231607,4.191742,-5.1816235,-9.442335,6.804236,-9.451464,9.965719,-0.48063755,-0.9431854,-1.6855171,11.395489,82.68444,27.248734,73.55819,-17.087667,15.058615,7.975855,13.989647,-83.33744,-19.467007,74.76727,4.3610044,6.9045463,2.3123431
114,1.3080984354019165,2.382148027420044,80.19021606445312,-0.47593939974097993,2.068858363915593,-88.05309234120831,1.94028,3.3548024,0.49881247,7.643234,-15.909784,-12.193946,4.1072226,-5.227122,-9.43312,6.802949,-9.440824,10.050842,-0.53103065,-0.94069725,-1.7001691,10.869357,81.42007,26.381031,73.26049,-17.479105,14.826726,9.036194,12.996659,-82.17558,-18.557232,74.5478,4.8129745,6.819686,1.2755365
115,1.3574501276016235,2.3963260650634766,80.19010925292969,-0.4714427892924148,2.1437582906423374,-88.03620809370219,1.8383801,3.301794,0.48456097,7.649791,-15.907894,-12.151373,4.0156765,-5.2753806,-9.425521,6.8000298,-9.430556,10.141196,-0.5801598,-0.9357105,-1.6890261,10.521972,80.027534,25.654629,72.8659,-17.787966,14.577968,10.054036,12.187313,-80.90421,-17.806087,74.25204,5.306117,6.722966,0.18290138
116,1.4058005809783936,2.403122901916504,80.19012451171875,-0.4658641667943783,2.2013398880153376,-88.02186883197537,1.7562301,3.2470996,0.47334093,7.6550775,-15.9033,-12.103126,3.9434218,-5.328007,-9.430705,6.7997637,-9.421504,10.214285,-0.62178856,-0.9282275,-1.6253515,10.30388,78.5187,25.043173,72.382805,-17.891537,14.3389845,10.894323,11.528727,-79.52654,-17.181479,73.88998,5.8095107,6.647554,-0.93821216
117,1.4548406600952148,2.4232568740844727,80.18630981445312,-0.4595475757352678,2.2339121281600938,-88.00979897504766,1.7003483,3.1909451,0.46432132,7.6618342,-15.896738,-12.046054,3.9017043,-5.3865194,-9.460188,6.8004932,-9.414205,10.261407,-0.65722895,-0.9198387,-1.501668,10.184689,76.905975,24.501152,71.81927,-17.718378,14.131191,11.503513,10.981123,-78.045044,-16.643303,73.46967,6.402308,6.5998416,-2.1224492
118,1.5055705308914185,2.4371178150177,80.18525695800781,-0.45230987792754723,2.254384550445298,-87.99950900134418,1.6574185,3.132993,0.45751336,7.6684194,-15.887825,-11.981483,3.875629,-5.449669,-9.505346,6.801211,-9.408917,10.295339,-0.6893969,-0.91260755,-1.3378783,10.138781,75.200516,23.988169,71.191605,-17.348587,13.940965,11.956476,10.520177,-76.46575,-16.15818,72.99892,7.073198,6.5567775,-3.3675435
119,1.5606874227523804,2.462665557861328,80.18092346191406,-0.4439246958143929,2.2699117024363566,-87.99190596258437,1.619689,3.0732281,0.45421535,7.675895,-15.878391,-11.915577,3.8530872,-5.5147953,-9.546748,6.801443,-9.40075,10.326483,-0.7152121,-0.90737134,-1.1499987,10.1247835,73.413536,23.48801,70.52715,-16.887506,13.743848,12.311295,10.135386,-74.79899,-15.701559,72.48122,7.656419,6.5219383,-4.5918455
120,1.6121374368667603,2.478687047958374,80.18000793457031,-0.4343389869421238,2.2878924983093163,-87.98798585926619,1.5807664,3.0118392,0.45597684,7.6823573,-15.867697,-11.854731,3.8214083,-5.579383,-9.564522,6.802454,-9.3866,10.365117,-0.7324587,-0.9050108,-0.9530405,10.114011,71.552986,22.999449,69.84806,-16.439608,13.514823,12.62469,9.821287,-73.05599,-15.255396,71.91951,7.9872713,6.5074778,-5.7131124
121,1.6676807403564453,2.49472713470459,80.18028259277344,-0.42266196191522126,2.311187717589834,-87.9874059428611,1.502054,2.9480433,0.46253532,7.763008,-15.895344,-11.7993145,3.7759144,-5.6422734,-9.547252,6.8018823,-9.36282,10.414234,-0.7400366,-0.9037455,-0.75343925,10.083001,69.61929,22.520433,69.172646,-16.0044,13.246083,12.889912,9.567866,-71.239494,-14.793298,71.3179,7.9283314,6.5459423,-6.7309217
122,1.7191836833953857,2.5058350563049316,80.17794036865234,-0.4093640802005721,2.335566810735913,-87.98999514997753,1.4120388,2.882165,0.47415775,7.866154,-15.933203,-11.746846,3.7232823,-5.705089,-9.507383,6.8007383,-9.332293,10.4682455,-0.74169314,-0.90377295,-0.54601365,10.043856,67.61362,22.038946,68.49391,-15.535978,12.950529,13.083359,9.353416,-69.351776,-14.2985735,70.68764,7.601284,6.6332927,-7.68052
123,1.7752249240875244,2.5251500606536865,80.17694091796875,-0.3958285492316795,2.357554303114841,-87.99613669598044,1.3248914,2.815405,0.48842958,7.9707465,-15.9722805,-11.69729,3.6717238,-5.7685733,-9.461647,6.7994723,-9.29955,10.52476,-0.7417686,-0.90642464,-0.32710448,10.02407,65.54175,21.542122,67.795494,-15.0707245,12.633601,13.2352705,9.159655,-67.40139,-13.775627,70.04136,7.2279835,6.7260833,-8.531843
124,1.8341429233551025,2.5517821311950684,80.1724624633789,-0.38344898680509454,2.3736523630131865,-88.00645845773556,1.2452958,2.7488132,0.502417,8.074727,-16.012762,-11.650538,3.6284115,-5.8335032,-9.42649,6.7991557,-9.268588,10.581169,-0.74275625,-0.91278213,-0.09316634,10.047417,63.4115,21.010834,67.06281,-14.6451845,12.30164,13.374942,8.976055,-65.39957,-13.236183,69.38825,7.029573,6.773849,-9.253865
125,1.8912667036056519,2.5720794200897217,80.16694641113281,-0.3733257979678003,2.377629512736692,-88.02257183162119,1.1820852,2.6832576,0.51560366,8.1776905,-16.058355,-11.6129055,3.602897,-5.899867,-9.408507,6.7985315,-9.242941,10.638586,-0.74014837,-0.92165065,0.16088626,10.11889,61.218376,20.408031,66.28335,-14.30408,11.92231,13.543954,8.789946,-63.342995,-12.666738,68.72635,7.1530013,6.7616334,-9.886474
126,1.9554693698883057,2.5844759941101074,80.16768646240234,-0.36462275298866503,2.37293612002683,-88.04375294456105,1.1311333,2.6182437,0.529322,8.2788515,-16.106754,-11.582096,3.588529,-5.966913,-9.398188,6.798493,-9.220017,10.697629,-0.73205847,-0.9311689,0.42892733,10.221141,58.963085,19.738518,65.47585,-14.016753,11.502633,13.71686,8.612351,-61.2311,-12.063009,68.05578,7.4506125,6.711649,-10.429818
127,2.01519513130188,2.6057372093200684,80.16889190673828,-0.3554325717726919,2.371089158343608,-88.06666672968588,1.0715628,2.5515554,0.5437,8.390368,-16.157473,-11.545704,3.5700896,-6.0360036,-9.387915,6.798604,-9.192675,10.755739,-0.7246419,-0.94230103,0.69892246,10.337193,56.664654,19.04711,64.676865,-13.703854,11.108188,13.8182,8.465537,-59.081776,-11.452379,67.38783,7.698058,6.629501,-10.789803
128,2.0744307041168213,2.6293282508850098,80.168701171875,-0.3447982296179892,2.383279448045291,-88.08809527067551,0.9837434,2.4815795,0.55869985,8.521662,-16.208662,-11.491203,3.5328,-6.1074715,-9.370408,6.79856,-9.153783,10.8099575,-0.7242955,-0.95450056,0.95794135,10.43713,54.345913,18.37263,63.932186,-13.287939,10.804959,13.768074,8.364293,-56.916004,-10.856247,66.73922,7.6724963,6.5247836,-10.867817
129,2.1345407962799072,2.6386313438415527,80.16871643066406,-0.33242869077686615,2.4181833763961085,-88.10876096034472,0.84762144,2.4093783,0.5760233,8.692322,-16.265814,-11.409503,3.4650621,-6.1798925,-9.340318,6.7973733,-9.097376,10.853785,-0.73685634,-0.9690868,1.1899871,10.497442,52.018257,17.729788,63.276024,-12.683672,10.628302,13.4825,8.292066,-54.740448,-10.2877035,66.15755,7.232642,6.379443,-10.511917
130,2.2015535831451416,2.6645314693450928,80.16963958740234,-0.3190041263791543,2.4679241567644095,-88.12973677582453,0.67939997,2.335451,0.5953254,8.889359,-16.326328,-11.309399,3.3776774,-6.2534847,-9.303004,6.794943,-9.028428,10.890703,-0.756849,-0.98585504,1.4024626,10.523477,49.676655,17.088621,62.695312,-11.956019,10.533265,13.017091,8.241189,-52.547356,-9.725176,65.628006,6.527862,6.1899786,-9.812334
131,2.2775652408599854,2.693866491317749,80.1722183227539,-0.30434399339541446,2.5190330621150516,-88.14854158667397,0.5118082,2.2569122,0.61323637,9.080064,-16.381279,-11.204519,3.2873034,-6.3315167,-9.265523,6.794626,-8.956608,10.932742,-0.7742745,-1.0044407,1.6172353,10.526062,47.319572,16.418459,62.16435,-11.252988,10.466291,12.504106,8.239439,-50.342533,-9.133289,65.07401,5.7708044,5.9919357,-9.035543
132,2.3421521186828613,2.7293190956115723,80.17345428466797,-0.28817516539849175,2.558029372375015,-88.16239816653966,0.3768643,2.1711931,0.6263066,9.231577,-16.420938,-11.108607,3.2121215,-6.4169,-9.235146,6.7986455,-8.892076,10.99206,-0.77949727,-1.021483,1.8546116,10.516734,44.94631,15.681362,61.659515,-10.724121,10.378647,12.076577,8.299117,-48.139027,-8.463894,64.43462,5.1703672,5.831926,-8.443514
133,2.400150775909424,2.7720842361450195,80.17344665527344,-0.27121749172072446,2.5786170716305006,-88.17457041408142,0.29162204,2.0770948,0.6372006,9.33176,-16.446507,-11.027457,3.1604562,-6.5097136,-9.208088,6.8061986,-8.833612,11.066966,-0.7642318,-1.0321198,2.115519,10.484779,42.543114,14.860643,61.190235,-10.516077,10.233339,11.831756,8.441704,-45.942238,-7.6667724,63.672092,4.7643113,5.731709,-8.118012
134,2.4756436347961426,2.7841997146606445,80.17594146728516,-0.25311834644957537,2.588868568703959,-88.18517932875673,0.23629679,1.9762698,0.6465905,9.398283,-16.460773,-10.95326,3.1213942,-6.60875,-9.182494,6.8177066,-8.778151,11.152872,-0.73621374,-1.0338541,2.3876567,10.449691,40.107544,13.979215,60.75215,-10.516571,10.066983,11.678936,8.625942,-43.75932,-6.7567487,62.859524,4.4452076,5.6675124,-7.9129095
135,2.555163621902466,2.8153645992279053,80.17817687988281,-0.23255740347961465,2.596451889193477,-88.18715831908592,0.18394014,1.8690075,0.64785594,9.4569025,-16.466988,-10.878083,3.086742,-6.7150116,-9.16915,6.830407,-8.727478,11.257815,-0.72271675,-1.0290749,2.665335,10.415833,37.666943,13.051065,60.362045,-10.473115,9.943881,11.469516,8.822499,-41.605755,-5.7928886,62.052505,4.208565,5.6233993,-7.743022
136,2.6596076488494873,2.816344976425171,80.17708587646484,-0.20805603929922356,2.6091816786826314,-88.17320018527782,0.11100131,1.7557949,0.6345556,9.525109,-16.463287,-10.794372,3.0458608,-6.8302517,-9.178701,6.847276,-8.686814,11.389824,-0.7389373,-1.0228848,2.9393115,10.378913,35.26294,12.072414,60.043194,-10.142594,9.926639,11.050057,8.993446,-39.49694,-4.8396664,61.321873,4.0514364,5.5828514,-7.52131
137,2.7452237606048584,2.8349826335906982,80.18053436279297,-0.17738583341842568,2.6281253835480305,-88.14374341476397,0.01593167,1.6355253,0.6055078,9.598983,-16.443214,-10.698102,2.994454,-6.957546,-9.218972,6.8772893,-8.67196,11.566815,-0.7748687,-1.0209395,3.1943662,10.303286,32.91179,11.034404,59.854084,-9.439105,10.0723715,10.315456,9.13949,-37.42627,-3.9187195,60.696526,4.0129857,5.5491023,-7.1974096
138,2.8197286128997803,2.886345624923706,80.1843490600586,-0.14171407542494618,2.649593661970952,-88.10171147022481,-0.0926788,1.5082386,0.5640742,9.677114,-16.412619,-10.594051,2.9436958,-7.0941014,-9.283788,6.906872,-8.673903,11.779505,-0.81560594,-1.0242205,3.4322886,10.181577,30.609383,9.927447,59.79352,-8.502673,10.32492,9.35715,9.285011,-35.38396,-3.0037403,60.140522,4.083766,5.52944,-6.8233423
139,2.9000532627105713,2.9419384002685547,80.18576049804688,-0.10599768638752706,2.673244828607382,-88.04402042695372,-0.21310663,1.3772165,0.5107287,9.759468,-16.375738,-10.488172,2.8888729,-7.234226,-9.360854,6.9399314,-8.668701,11.995217,-0.87450844,-1.0273255,3.6678455,10.02458,28.371223,8.740161,59.825455,-7.4310403,10.578003,8.317544,9.431358,-33.380165,-2.0861983,59.61935,4.1882997,5.512622,-6.4641833
140,2.9863574504852295,2.9798052310943604,80.18991088867188,-0.07418777739024597,2.69895369902917,-87.9676390255176,-0.3461011,1.2452343,0.44588444,9.851937,-16.339823,-10.386157,2.827075,-7.372791,-9.437427,6.9758725,-8.631829,12.18148,-0.9642674,-1.0242001,3.9107544,9.834961,26.221043,7.4500966,59.928486,-6.329519,10.732747,7.340093,9.580314,-31.430931,-1.154526,59.10426,4.2533703,5.48674,-6.1804595
141,3.069749593734741,3.0283422470092773,80.19425201416016,-0.04741631837739322,2.7259772420528487,-87.8693763906967,-0.4954848,1.1116894,0.36789426,9.967854,-16.313831,-10.288978,2.759615,-7.5091496,-9.508255,7.014983,-8.554751,12.326096,-1.0807968,-1.0130849,4.158589,9.599992,24.157421,6.0096784,60.15952,-5.164794,10.770626,6.434162,9.740442,-29.532118,-0.18570328,58.577953,4.287187,5.4657364,-6.041736
142,3.160804510116577,3.0736966133117676,80.2040786743164,-0.022454956940161003,2.7547362406250233,-87.75188082212767,-0.65598977,0.97468835,0.2776501,10.092189,-16.286983,-10.193798,2.6876094,-7.646504,-9.580524,7.056789,-8.450466,12.44836,-1.2154197,-0.9986786,4.402254,9.318237,22.17635,4.4396315,60.525597,-3.9091215,10.739506,5.5324535,9.914188,-27.678457,0.80349624,58.059597,4.3213806,5.4503098,-5.9954004
143,3.2551660537719727,3.1295337677001953,80.21310424804688,0.0015758546776489769,2.7870893580525418,-87.62052132308318,-0.8253629,0.835531,0.17902304,10.209792,-16.249321,-10.100663,2.6057944,-7.7850485,-9.659656,7.1038127,-8.32938,12.562429,-1.3721802,-0.9856544,4.639148,9.001715,20.302301,2.8163726,60.93689,-2.6772711,10.650127,4.6626472,10.085803,-25.886934,1.7706492,57.585846,4.3243527,5.408464,-5.9161835
144,3.36275053024292,3.2160699367523193,80.21944427490234,0.02564796977970236,2.8246329045310983,-87.48079281560219,-0.99376374,0.6958832,0.07593547,10.290305,-16.182823,-10.009785,2.4078076,-7.942043,-9.73694,7.3740664,-8.315651,12.682123,-1.5554227,-0.9810321,4.865297,8.652116,18.566792,1.2151568,61.31027,-1.5870069,10.517785,3.8454022,10.237961,-24.179134,2.6735117,57.194336,4.2679486,5.3085046,-5.673681
145,3.455531597137451,3.3040621280670166,80.22566223144531,0.044733780029709944,2.866715063971425,-87.32644245812831,-1.1611947,0.5633145,-0.03726964,10.329925,-16.08354,-9.926097,2.0578203,-8.116823,-9.815551,7.948492,-8.45676,12.815185,-1.7715505,-0.98818,5.080422,8.261706,16.970797,-0.32930356,61.65357,-0.70466155,10.342382,3.0729823,10.371626,-22.549782,3.4257505,56.88353,4.0715346,5.140588,-5.0735955
146,3.5382091999053955,3.394918918609619,80.23639678955078,0.05996962752171571,2.9126888304492797,-87.15715283006432,-1.3302525,0.43501145,-0.16059361,10.339742,-15.958697,-9.848053,1.7076815,-8.286879,-9.910647,8.505606,-8.577297,12.952869,-2.0125175,-1.0074729,5.289529,7.8286138,15.500138,-1.860171,61.99397,0.03851523,10.122903,2.3341115,10.500389,-20.984844,4.065294,56.621082,3.7788293,4.919704,-4.236067
147,3.629411458969116,3.4952824115753174,80.25174713134766,0.08183329280660677,2.9647966326670074,-86.98701819879919,-1.5062524,0.2967122,-0.28137708,10.334308,-15.819259,-9.766041,1.3109721,-8.474527,-9.9993725,9.131792,-8.716617,13.083306,-2.2642424,-1.0440096,5.492802,7.361339,14.165196,-3.4164505,62.28064,0.7302447,9.875174,1.6411643,10.616148,-19.498621,4.7454133,56.414032,3.5516818,4.655296,-3.5007157
148,3.7271652221679688,3.5904104709625244,80.26377868652344,0.12143461534071316,3.0251531754644816,-86.83049746530108,-1.6826992,0.13394277,-0.3864092,10.303039,-15.662262,-9.67043,0.83300054,-8.699401,-10.060023,9.889142,-8.901421,13.19506,-2.5189083,-1.1018634,5.684772,6.869145,12.982956,-5.0355287,62.47275,1.4558244,9.6117,1.0004541,10.705861,-18.114035,5.6319737,56.28367,3.555848,4.363378,-3.1993847
149,3.8457977771759033,3.703831195831299,80.2637939453125,0.18518578178726913,3.099833306224504,-86.68239245768868,-1.8739913,-0.06411938,-0.47924927,10.25916,-15.4924135,-9.554068,0.24271618,-8.977479,-10.095748,10.8339205,-9.159365,13.2645235,-2.7766905,-1.1913689,5.860353,6.352816,11.926486,-6.702647,62.533035,2.236087,9.417992,0.4057308,10.7690115,-16.8296,6.8868003,56.274845,3.9718513,3.9918334,-3.7114024
150,3.964982509613037,3.783379077911377,80.27523040771484,0.2687227683805873,3.18634804164171,-86.53868382008248,-2.0788379,-0.29035917,-0.56296253,10.201886,-15.308984,-9.423135,-0.42699695,-9.295742,-10.113987,11.903428,-9.463646,13.306224,-3.0558727,-1.3078402,6.019036,5.8223476,10.982192,-8.391703,62.482014,3.032598,9.260318,-0.14489579,10.8028,-15.642554,8.402436,56.379944,4.663816,3.541274,-4.7573104
151,4.052489280700684,3.9109609127044678,80.2843017578125,0.3650001166713996,3.273689999256117,-86.41518808092503,-2.2681353,-0.52951175,-0.62458205,10.103839,-15.102405,-9.288303,-1.1357943,-9.632322,-10.096736,13.025978,-9.771867,13.364884,-3.360895,-1.4342607,6.159238,5.2743,10.200236,-10.144678,62.387066,3.8302546,8.974964,-0.6415542,10.798416,-14.57171,9.922491,56.537975,5.3281455,3.1208377,-5.677218
152,4.15066385269165,4.088545799255371,80.2836685180664,0.46482302431915357,3.350844267031139,-86.32717881632124,-2.4136324,-0.76465017,-0.65226746,9.939914,-14.865257,-9.160475,-1.8430103,-9.963051,-10.02799,14.128274,-10.044481,13.485143,-3.6821773,-1.5609218,6.2827916,4.6881957,9.652884,-12.019581,62.32093,4.601987,8.398362,-1.0826162,10.754743,-13.632113,11.174378,56.668236,5.677976,2.863705,-5.8100343
153,4.251875877380371,4.228510856628418,80.28739929199219,0.5701396989522901,3.4112031528387337,-86.27591853100978,-2.486659,-0.99771535,-0.646463,9.671494,-14.580895,-9.040443,-2.5221546,-10.284726,-9.9033575,15.175976,-10.286398,13.704687,-4.016712,-1.6992294,6.3850503,4.0326657,9.394949,-14.163026,62.302666,5.340101,7.367048,-1.5103128,10.664963,-12.822209,12.014995,56.750854,5.504065,2.85659,-4.69522
154,4.353621006011963,4.364531517028809,80.28958129882812,0.6826044176813117,3.4618479292521545,-86.25374533562417,-2.507343,-1.2336154,-0.6135823,9.319411,-14.256916,-8.923356,-3.2018447,-10.605985,-9.732761,16.215929,-10.517054,13.991085,-4.341355,-1.8724233,6.474755,3.2995489,9.407388,-16.546013,62.284115,6.0330954,6.0108476,-1.923118,10.555216,-12.119093,12.58362,56.786087,5.002629,3.0058138,-2.7691224
155,4.471173286437988,4.515018463134766,80.29267120361328,0.7920249644616715,3.512234057798759,-86.26310423097762,-2.526105,-1.4597026,-0.55065095,8.957163,-13.92625,-8.811493,-3.9296715,-10.919889,-9.520896,17.30873,-10.722521,14.28238,-4.6332917,-2.0795264,6.576434,2.5064607,9.636467,-18.944363,62.241627,6.6613626,4.602637,-2.248621,10.450553,-11.505567,13.049167,56.737366,4.50397,3.1942768,-0.728323
156,4.571661949157715,4.68740701675415,80.29617309570312,0.8903642831711097,3.572082375010814,-86.30643684234198,-2.591534,-1.6652905,-0.4538091,8.65482,-13.620071,-8.706759,-4.748669,-11.220666,-9.271808,18.504921,-10.883864,14.518215,-4.8842516,-2.3064597,6.712843,1.6883906,10.0229025,-21.115362,62.146126,7.2204385,3.4174225,-2.4121826,10.360881,-10.975686,13.592245,56.587772,4.348836,3.3351328,0.7234336
157,4.659928321838379,4.874691963195801,80.29539489746094,0.976325850137134,3.644465305899056,-86.38289361446182,-2.7286673,-1.8476704,-0.31847012,8.454256,-13.353804,-8.610685,-5.6662817,-11.507832,-8.992332,19.811476,-10.99675,14.695945,-5.1095495,-2.5291522,6.880307,0.7763003,10.570909,-23.092457,62.081135,7.726525,2.4393263,-2.3771155,10.27963,-10.548382,14.347578,56.338608,4.736992,3.412542,1.3330566
158,4.76901912689209,5.048987865447998,80.2943115234375,1.0552378343878983,3.7243921110258844,-86.49182989618352,-2.9067042,-2.0140548,-0.1472707,8.308601,-13.107677,-8.521484,-6.6593595,-11.783022,-8.678017,21.197851,-11.067279,14.844553,-5.3265786,-2.7512202,7.0704684,-0.2196163,11.288044,-24.967932,62.027866,8.192921,1.5530146,-2.1905177,10.186583,-10.233959,15.21058,56.006813,5.458021,3.4783177,1.4947274
159,4.8758544921875,5.273586273193359,80.28633117675781,1.1288978236079827,3.8096728061626437,-86.63624080239934,-3.0981083,-2.1698253,0.053583425,8.169503,-12.867759,-8.435959,-7.7207875,-12.043608,-8.316105,22.64844,-11.087022,14.951722,-5.532122,-2.9844837,7.296947,-1.142274,12.121985,-26.568546,61.80819,8.622037,0.886098,-1.8948371,10.066142,-10.01461,15.999651,55.609394,6.238737,3.5621457,1.468655
160,4.970082759857178,5.505032062530518,80.27962493896484,1.1997920630057066,3.898026799774754,-86.81885340567827,-3.273441,-2.3211107,0.27772972,7.9864707,-12.619264,-8.350636,-8.842415,-12.285378,-7.894674,24.14548,-11.047218,15.000033,-5.7256355,-3.233888,7.564959,-1.8567188,12.999168,-27.695982,61.284332,9.026301,0.5662202,-1.5193857,9.892647,-9.870141,16.53515,55.184433,6.800605,3.698001,1.5046183
161,5.093131065368652,5.726800441741943,80.27244567871094,1.2550137891025297,3.9951034067930644,-87.04652244231553,-3.4388425,-2.4564853,0.5227561,7.762089,-12.366283,-8.263635,-10.03723,-12.49646,-7.420189,25.697552,-10.926725,14.960071,-5.8987885,-3.4706566,7.8670373,-2.3536515,13.882307,-28.233648,60.425682,9.47681,0.710217,-0.9932913,9.631489,-9.799862,16.656902,54.73195,7.0856266,4.028064,1.7162083
162,5.205397129058838,5.9339280128479,80.27718353271484,1.2976727578782639,4.100018766979764,-87.31585291933246,-3.603474,-2.5784671,0.79247695,7.5168953,-12.114211,-8.176498,-11.300566,-12.67749,-6.8990817,27.299372,-10.730093,14.83769,-6.045193,-3.686006,8.191282,-2.7457547,14.777819,-28.305332,59.38011,9.948691,1.2250613,-0.316964,9.306572,-9.816481,16.487494,54.248177,7.2294483,4.488512,1.9461656
163,5.325798034667969,6.182314872741699,80.26210021972656,1.3525482231557227,4.200388286136389,-87.6141297674549,-3.8444443,-2.7118542,1.0937432,7.441603,-11.961936,-8.090876,-12.60081,-12.846582,-6.3164415,28.925285,-10.48801,14.734992,-6.1702805,-3.9148111,8.536339,-3.0758123,15.682978,-28.061657,58.275265,10.309922,1.9204408,0.3771648,8.97972,-9.922427,16.271639,53.767532,7.2451024,4.808222,2.0388548
164,5.462963104248047,6.433966636657715,80.23397827148438,1.4436018596364344,4.283872054632025,-87.9289138922135,-4.0930877,-2.8805497,1.4269854,7.4166417,-11.844468,-8.009349,-13.909103,-13.019644,-5.655337,30.555311,-10.235205,14.749337,-6.281546,-4.192911,8.899624,-3.38782,16.588812,-27.650267,57.242355,10.437681,2.6012034,0.9627913,8.704224,-10.113378,16.25717,53.335896,7.1479335,4.7153645,1.8371129
165,5.586503505706787,6.671763896942139,80.21025085449219,1.5680619881505256,4.3588267794980355,-88.26955528890402,-4.3393474,-3.0755765,1.8011887,7.391532,-11.734808,-7.9421997,-15.260816,-13.173522,-4.8683624,32.22409,-9.964275,14.919639,-6.364826,-4.5268903,9.279523,-3.6789947,17.482391,-27.00075,56.28657,10.3450985,3.2942948,1.3977275,8.494344,-10.395302,16.559694,53.013626,6.9003625,3.9431913,1.174082
166,5.730531215667725,6.943927764892578,80.16909790039062,1.6961285443965353,4.432905982394326,-88.6492030356169,-4.5910554,-3.2593098,2.2167962,7.3711576,-11.636671,-7.8930874,-16.654127,-13.260952,-4.007895,33.913834,-9.655833,15.000033,-6.4177227,-4.8788037,9.674012,-3.9375813,18.362385,-26.056921,55.36456,10.087442,4.073179,1.7578505,8.311775,-10.772617,17.039888,52.769516,6.4962764,2.705435,0.16964942
167,5.841001033782959,7.219347953796387,80.13199615478516,1.8387022495426766,4.486139906120654,-89.04502566085763,-4.8151116,-3.4527414,2.6535716,7.349472,-11.546381,-7.8434668,-18.00746,-13.331884,-3.166426,35.556118,-9.344675,15.000033,-6.4690404,-5.24107,10.084188,-4.2013454,19.238844,-25.010088,54.53653,9.601025,4.809395,2.0992203,8.1369915,-11.225337,17.549461,52.508755,6.0034757,1.4501089,-0.90159017
168,5.9605512619018555,7.467873573303223,80.08806610107422,1.9972483939145778,4.501300402952399,-89.4409683848349,-4.982704,-3.6650755,3.0957956,7.3256235,-11.46379,-7.7773457,-19.239714,-13.426779,-2.4201021,37.068348,-9.0548935,15.000033,-6.52858,-5.6027107,10.50854,-4.509419,20.128437,-24.067667,53.862755,8.820457,5.373603,2.4790845,7.9565187,-11.717417,17.926537,52.138405,5.507788,0.61806387,-1.7597375
169,6.108566761016846,7.674161911010742,80.04866790771484,2.183057616645826,4.460345816446242,-89.84443296828152,-5.0673847,-3.9094715,3.5556457,7.2971263,-11.39139,-7.682732,-20.33708,-13.554328,-1.7393479,38.426033,-8.750725,15.000033,-6.5779257,-5.9865937,10.965209,-4.880442,21.045464,-23.267427,53.36969,7.5704217,5.724043,2.8913527,7.7562695,-12.2253475,18.11577,51.63028,4.9764,0.35862386,-2.3358524
170,6.2372589111328125,7.8989057540893555,80.00440216064453,2.3935447326151773,4.3778472418886185,-90.260056472897,-5.0913897,-4.18002,4.036676,7.2664833,-11.329413,-7.570488,-21.342548,-13.70256,-1.0954726,39.679325,-8.436701,15.000033,-6.5998874,-6.4021482,11.447842,-5.3000555,21.991348,-22.52993,53.028107,5.9336553,5.9260716,3.3144197,7.547194,-12.743375,18.187834,51.04793,4.3834567,0.42261916,-2.7750976
171,6.3415446281433105,8.12501049041748,79.9627456665039,2.608331646730039,4.28543581923121,-90.6678569948909,-5.0980463,-4.4538836,4.5096965,7.238215,-11.274309,-7.460088,-22.265688,-13.884737,-0.56218296,40.85853,-8.196241,15.000033,-6.6103,-6.818665,11.916297,-5.750725,22.963545,-21.885124,52.81178,4.232048,6.01097,3.779019,7.3503947,-13.263871,18.172846,50.44215,3.8381417,0.6455229,-3.1150692
172,6.474032878875732,8.357379913330078,79.9006118774414,2.808768189359938,4.213558128939843,-91.047615655948,-5.1245527,-4.7115374,4.9455075,7.20231,-11.208615,-7.369922,-23.115248,-14.113687,-0.2079709,41.9907,-8.109228,15.000033,-6.619824,-7.206125,12.330244,-6.2229824,23.95444,-21.371489,52.70187,2.7848427,6.0126987,4.317007,7.1916943,-13.774583,18.09292,49.85967,3.4453006,0.8622969,-3.3964405
173,6.599907398223877,8.547554969787598,79.85448455810547,2.9949804152518027,4.167461157683612,-91.40372685433769,-5.1830864,-4.951156,5.345528,7.1688976,-11.14126,-7.3072424,-23.894838,-14.404544,-0.054657057,43.047417,-8.206224,15.000033,-6.6243668,-7.564632,12.67446,-6.739566,24.970892,-21.058031,52.75476,1.6476452,5.859446,4.9905868,7.062278,-14.270702,17.914083,49.298912,3.2328432,1.1583191,-3.5611525
174,6.71000862121582,8.736347198486328,79.81254577636719,3.1760486054023396,4.1313938015726235,-91.74327000034555,-5.250445,-5.183588,5.7220473,7.132437,-11.071509,-7.2611403,-24.602213,-14.752982,-0.054284018,44.029984,-8.441629,15.000033,-6.6168394,-7.909905,12.972061,-7.2995434,26.014433,-20.91245,52.95981,0.66274005,5.5585732,5.7594256,6.9531302,-14.750368,17.631275,48.745304,3.1410995,1.5751631,-3.6112232
175,6.8214192390441895,8.917221069335938,79.7649154663086,3.3449964101029583,4.102938920773596,-92.04949987522832,-5.3263354,-5.4044275,6.0621915,7.0969086,-10.995774,-7.222433,-25.234756,-15.144603,-0.17096448,45.00249,-8.777414,15.000033,-6.6095715,-8.234173,13.236754,-7.858921,27.0614,-20.811357,53.20867,-0.16938688,5.269463,6.5093737,6.878584,-15.2084675,17.316193,48.23918,3.1442933,1.8824238,-3.6838908
176,6.93829345703125,9.102506637573242,79.72021484375,3.494994501877452,4.079636242826011,-92.30574473336985,-5.4094114,-5.610206,6.352819,7.064561,-10.909248,-7.1818137,-25.789454,-15.565659,-0.3692953,46.02967,-9.176203,15.000033,-6.6203513,-8.527598,13.478158,-8.375361,28.076342,-20.622578,53.40818,-0.84703493,5.154919,7.1334534,6.846853,-15.640893,17.047022,47.828766,3.21848,1.8499596,-3.9181848
177,7.045526027679443,9.288941383361816,79.67957305908203,3.6260275023035184,4.069874089606657,-92.50440312225706,-5.513288,-5.801071,6.589316,7.0386586,-10.807089,-7.1406035,-26.273058,-16.027618,-0.671329,47.12382,-9.658702,15.000033,-6.6623087,-8.7802,13.679153,-8.875436,29.044708,-20.355192,53.600277,-1.3173785,5.2729716,7.5706024,6.871283,-16.054222,16.869236,47.578705,3.4354067,1.1649152,-4.4005046
178,7.149940490722656,9.463970184326172,79.64741516113281,3.7413562445239528,4.069629260065277,-92.65408333062581,-5.6330094,-5.979597,6.777499,7.0183225,-10.693809,-7.102121,-26.679352,-16.53783,-1.082392,48.250816,-10.235232,15.000033,-6.7309256,-8.9941225,13.837538,-9.372741,29.967676,-20.054089,53.831333,-1.592716,5.537784,7.896277,6.9383254,-16.45393,16.738596,47.45335,3.7735777,0.031063853,-5.037785
179,7.2359299659729,9.5928955078125,79.63204956054688,3.8383172275985866,4.0577579090331,-92.76268787196639,-5.73964,-6.142506,6.9190493,6.9994593,-10.57804,-7.060246,-26.982456,-17.063908,-1.5475734,49.400967,-10.84937,15.000033,-6.8157754,-9.176591,13.9842615,-9.815914,30.83037,-19.647945,54.030235,-1.7771982,5.894546,8.209631,7.0167594,-16.829145,16.599003,47.350967,4.077489,-1.0046116,-5.7059145
180,7.3365983963012695,9.728638648986816,79.61988830566406,3.9150456778133877,4.0136862630545815,-92.83840059659578,-5.8061213,-6.288004,7.016263,6.980903,-10.469865,-7.0087314,-27.159925,-17.575289,-2.0114632,50.565166,-11.444534,15.000033,-6.908532,-9.337306,14.1457205,-10.156543,31.612087,-19.062319,54.136494,-1.9708298,6.2859125,8.610712,7.065959,-17.163713,16.399473,47.18379,4.204961,-1.3913587,-6.2929835
181,7.425963878631592,9.869414329528809,79.6126937866211,3.966689156010031,3.9155731305745802,-92.86679404569296,-5.8114643,-6.41717,7.0498657,6.9676137,-10.374456,-6.939969,-27.177347,-18.081219,-2.4955072,51.754784,-12.012278,15.000033,-7.016999,-9.472875,14.343396,-10.40774,32.29572,-18.282984,54.17833,-2.1341083,6.7387724,9.144382,7.059813,-17.440985,16.114824,46.9141,4.053066,-0.7556719,-6.832125
182,7.5197553634643555,9.99710464477539,79.60008239746094,3.996888302171355,3.7786225552154775,-92.84784400202166,-5.772372,-6.5306764,7.023585,6.9563327,-10.283904,-6.8591065,-27.052214,-18.593487,-3.0171607,52.967693,-12.578902,15.000033,-7.137989,-9.581832,14.552045,-10.613616,32.87914,-17.362528,54.210304,-2.2357826,7.2687397,9.754301,7.0164876,-17.660559,15.774186,46.614056,3.7286482,0.5366655,-7.3619914
183,7.60502815246582,10.107758522033691,79.59358978271484,4.013585284376595,3.638712958762521,-92.81219966517759,-5.7253447,-6.6295877,6.976647,6.9473276,-10.198298,-6.7788076,-26.841568,-19.070498,-3.519415,54.172626,-13.142086,15.000033,-7.246346,-9.674402,14.729145,-10.763688,33.36542,-16.319029,54.200565,-2.3836682,7.800274,10.389368,6.9652486,-17.836462,15.40971,46.354782,3.408145,1.9259504,-7.7849936
184,7.67464542388916,10.200631141662598,79.6020278930664,4.025125653354996,3.5330667028646805,-92.79207042825756,-5.7100506,-6.7091346,6.9494767,6.941928,-10.116585,-6.7126412,-26.610714,-19.474592,-3.9469748,55.345993,-13.697749,14.97997,-7.320297,-9.759679,14.833802,-10.835596,33.761845,-15.160464,54.10256,-2.6840208,8.256318,10.999091,6.9425683,-17.991764,15.055163,46.19352,3.2581656,2.8495965,-8.01499
185,7.743964195251465,10.287982940673828,79.59798431396484,4.0295839081262175,3.473733924898587,-92.79118453735897,-5.737995,-6.7635655,6.9472513,6.940789,-10.03702,-6.665417,-26.378359,-19.785267,-4.320386,56.49579,-14.247991,14.700679,-7.3623834,-9.838948,14.847033,-10.800409,34.060986,-13.7947,53.87136,-3.0954049,8.674565,11.543872,6.978411,-18.138317,14.684133,46.139557,3.3466167,3.091107,-7.92646
186,7.792504787445068,10.392470359802246,79.60211944580078,4.019663054630932,3.445287091662802,-92.8016143011149,-5.7893753,-6.7895184,6.9562073,6.9367967,-9.95804,-6.6296,-26.11877,-20.015572,-4.613633,57.627506,-14.788513,14.485437,-7.379552,-9.89642,14.790965,-10.679216,34.258766,-12.241772,53.53953,-3.5848246,9.074922,12.060068,7.0536237,-18.277456,14.295595,46.149364,3.5781655,2.9736116,-7.6000133
187,7.8341522216796875,10.49832820892334,79.60615539550781,3.9955863383546855,3.4394576932414007,-92.83095471097698,-5.8672843,-6.7880764,6.983251,6.949264,-9.89315,-6.6050673,-25.827034,-20.189156,-4.868279,58.71933,-15.314836,14.302056,-7.362837,-9.925531,14.693836,-10.510313,34.371223,-10.67224,53.15638,-4.2648234,9.351851,12.611141,7.139807,-18.414627,13.955775,46.191616,3.8708498,2.7431326,-7.2638726
188,7.869641304016113,10.581147193908691,79.60701751708984,3.9644355226261627,3.4433435358521836,-92.8797037782694,-5.951096,-6.7719626,7.0276275,6.954516,-9.831301,-6.589647,-25.494427,-20.344185,-5.12121,59.75679,-15.828897,14.122843,-7.3065004,-9.928944,14.589972,-10.323079,34.42499,-9.260992,52.759068,-5.25278,9.396155,13.257252,7.211838,-18.556438,13.725935,46.230297,4.1377797,2.642617,-7.1470847
189,7.9064226150512695,10.6635160446167,79.60851287841797,3.92309556429633,3.4611404917514546,-92.95439357804412,-6.0469065,-6.733255,7.0955315,6.9543595,-9.776586,-6.59195,-25.121712,-20.489494,-5.388658,60.759815,-16.352194,13.948745,-7.1905775,-9.906054,14.482634,-10.116383,34.43047,-8.039406,52.32307,-6.686781,9.160089,14.087451,7.276948,-18.703192,13.656068,46.245594,4.38433,2.7223976,-7.400061
190,7.937844753265381,10.760934829711914,79.61524200439453,3.8735182379846917,3.494561117621931,-93.04827173737279,-6.16192,-6.6756415,7.1824985,6.963659,-9.735051,-6.608788,-24.712278,-20.614016,-5.645036,61.733677,-16.881035,13.793812,-7.0244565,-9.865518,14.360031,-9.868881,34.38419,-6.922269,51.82393,-8.465745,8.691888,15.02979,7.3480153,-18.851505,13.698045,46.25388,4.647143,2.8551672,-7.8699527
191,7.969095706939697,10.859429359436035,79.62132263183594,3.82211168229514,3.5330136263804257,-93.15206907670232,-6.278635,-6.610744,7.2778606,6.9726877,-9.696646,-6.623932,-24.263487,-20.708326,-5.8697944,62.630863,-17.370834,13.644013,-6.8392143,-9.813086,14.233863,-9.566015,34.29421,-5.901372,51.28498,-10.349375,8.035113,15.899077,7.409047,-18.99657,13.768763,46.26752,4.88569,3.0179143,-8.331458
192,8.00158405303955,10.94398021697998,79.62506103515625,3.775226240930373,3.5659679952041996,-93.256528413337,-6.381867,-6.5511475,7.3714333,6.9779186,-9.65585,-6.6209054,-23.774067,-20.766693,-6.042451,63.404484,-17.776764,13.486007,-6.660587,-9.756652,14.116385,-9.203117,34.17306,-4.9782376,50.735825,-12.10664,7.2507815,16.516523,7.448123,-19.131765,13.778199,46.29779,5.055065,3.189821,-8.55829
193,8.023665428161621,11.028240203857422,79.62667083740234,3.7311898900940323,3.5861868048480905,-93.35497312887361,-6.4645195,-6.497155,7.4549837,6.9855547,-9.614796,-6.5865993,-23.23295,-20.768742,-6.144763,64.039276,-18.078066,13.319321,-6.493045,-9.699869,14.016695,-8.756772,34.023716,-4.1400423,50.163097,-13.812631,6.2288165,16.840443,7.460547,-19.251417,13.679081,46.347683,5.118924,3.4085429,-8.42532
194,8.046157836914062,11.126845359802246,79.63331604003906,3.6876293908053333,3.6007129334551244,-93.45364218652631,-6.533238,-6.4436502,7.535469,6.989739,-9.571967,-6.532628,-22.645977,-20.725777,-6.1925416,64.561676,-18.300959,13.150682,-6.321301,-9.641585,13.927761,-8.240404,33.844223,-3.3958364,49.557888,-15.551296,4.9933743,16.94744,7.452911,-19.353851,13.523868,46.412674,5.104269,3.6712222,-8.074325
195,8.069053649902344,11.20726490020752,79.63542175292969,3.6503713959793753,3.6200873972701637,-93.56280196678297,-6.6072903,-6.392456,7.627282,6.9986706,-9.533652,-6.4795785,-22.036743,-20.669996,-6.217905,64.98753,-18.471289,12.9763155,-6.113946,-9.604633,13.83524,-7.7568865,33.68948,-2.8388262,48.9985,-17.143444,3.8214014,16.855497,7.4465504,-19.412455,13.356262,46.49126,5.062519,3.896075,-7.676363
196,8.117042541503906,11.249655723571777,79.6518783569336,3.6248454163867576,3.6558074142686077,-93.69231692945637,-6.6986413,-6.3437877,7.743129,7.0022135,-9.494955,-6.4476953,-21.428072,-20.631687,-6.253643,65.3294,-18.613266,12.792986,-5.9458055,-9.54379,13.73537,-7.2016673,33.468136,-2.3316977,48.398926,-18.305744,2.9799526,16.618382,7.3847847,-19.485655,13.293358,46.600086,5.0514064,4.0061183,-7.415846
197,8.155696868896484,11.307401657104492,79.65702056884766,3.6149665862983325,3.712762029164176,-93.85509900573457,-6.8157387,-6.2970366,7.897585,7.0046153,-9.459159,-6.446832,-20.835077,-20.618269,-6.2943587,65.602325,-18.72811,12.600148,-5.737834,-9.496332,13.619108,-6.721466,33.27813,-2.0538394,47.86637,-19.054605,2.572685,16.209103,7.3229094,-19.537062,13.320688,46.722736,5.097902,3.938014,-7.350558
198,8.171710014343262,11.391216278076172,79.65206146240234,3.6167502984981192,3.784387351474485,-94.04253931396114,-6.9472384,-6.2536325,8.079931,7.0028024,-9.424495,-6.4644427,-20.242958,-20.613558,-6.3274794,65.79552,-18.804537,12.399408,-5.5095277,-9.467988,13.496518,-6.254089,33.124535,-1.9466151,47.352192,-19.498405,2.4525359,15.628756,7.244357,-19.560202,13.411337,46.86272,5.167207,3.7474058,-7.380029
199,8.174591064453125,11.475953102111816,79.6436996459961,3.625005906397378,3.863711299235827,-94.23244749102938,-7.0868244,-6.2133164,8.266529,6.9991937,-9.389215,-6.4882684,-19.631018,-20.618221,-6.3725276,65.887726,-18.851206,12.190926,-5.293637,-9.442137,13.365049,-5.7682304,32.95997,-1.9363686,46.85653,-19.647085,2.5035973,14.974319,7.145767,-19.560814,13.530818,47.016846,5.2343183,3.5325978,-7.4325237
200,8.153658866882324,11.585590362548828,79.63157653808594,3.634798133502701,3.943380255585433,-94.40260816697763,-7.2303586,-6.1795096,8.434637,7.0019293,-9.355605,-6.5058403,-18.976591,-20.63081,-6.450648,65.855896,-18.8757,11.974624,-5.097103,-9.423606,13.228052,-5.2735004,32.797047,-1.9977771,46.401985,-19.549711,2.6157444,14.326581,7.0582027,-19.529251,13.620964,47.14954,5.2762475,3.3926554,-7.42417
201,8.157306671142578,11.667078018188477,79.62644958496094,3.6467592200777923,4.0189588157490785,-94.54578687895074,-7.3681235,-6.1531844,8.576954,7.0041103,-9.3217,-6.5099607,-18.261639,-20.65945,-6.5736346,65.702576,-18.890392,11.725708,-4.9321704,-9.414775,13.086411,-4.7553625,32.63733,-2.1205142,45.9803,-19.160738,2.8118281,13.661022,6.9844627,-19.465588,13.66588,47.25819,5.2852955,3.3540404,-7.3188205
202,8.15766429901123,11.7472562789917,79.62376403808594,3.6623714027895224,4.095191622160557,-94.67427349569905,-7.5068035,-6.1343155,8.706389,7.007995,-9.289493,-6.508454,-17.501421,-20.698214,-6.7307086,65.437126,-18.887674,11.45256,-4.7856326,-9.406598,12.934715,-4.229894,32.457054,-2.331593,45.601036,-18.46021,3.1201005,12.955622,6.9040427,-19.363201,13.68909,47.37619,5.265648,3.3624537,-7.171727
203,8.165593147277832,11.815114974975586,79.61181640625,3.6801290434944938,4.178556294668516,-94.79497003698727,-7.655777,-6.116989,8.82827,7.011655,-9.253112,-6.511738,-16.725754,-20.731955,-6.9060388,65.04974,-18.846165,11.20687,-4.6481776,-9.403293,12.775982,-3.6968994,32.276165,-2.616374,45.256905,-17.559093,3.451896,12.273049,6.824353,-19.235954,13.71684,47.479492,5.236908,3.399627,-7.020936
204,8.169530868530273,11.895950317382812,79.60163116455078,3.696901984931245,4.275351307088816,-94.91476180510546,-7.8250666,-6.0972743,8.9481535,7.0150285,-9.207995,-6.5300255,-15.9652195,-20.743216,-7.083632,64.53246,-18.74496,11.039533,-4.504292,-9.395785,12.603805,-3.1814384,32.070076,-2.97567,44.972935,-16.547014,3.714575,11.697234,6.728998,-19.07483,13.767386,47.589813,5.2007675,3.4443033,-6.919995
205,8.165092468261719,12.0130615234375,79.59164428710938,3.7153068883621647,4.395076498974211,-95.03237030803263,-8.026469,-6.0782056,9.065139,7.0156293,-9.148343,-6.572466,-15.233873,-20.740845,-7.2679977,63.872734,-18.60096,10.970991,-4.3667064,-9.386024,12.413066,-2.6622937,31.85625,-3.4101274,44.728382,-15.44966,3.8675492,11.259567,6.625393,-18.893099,13.832746,47.675003,5.16029,3.552858,-6.8559165
206,8.159000396728516,12.109940528869629,79.57697296142578,3.735728466088419,4.531696336864759,-95.14507034525751,-8.252341,-6.060867,9.177237,7.0152416,-9.078193,-6.631215,-14.514308,-20.729315,-7.464095,63.080105,-18.418402,10.971865,-4.2361927,-9.37439,12.205909,-2.144545,31.63295,-3.9253342,44.529137,-14.216787,3.965154,10.916956,6.5165005,-18.688965,13.90554,47.74245,5.1114583,3.715636,-6.811293
207,8.159602165222168,12.18175220489502,79.56822967529297,3.751935351445816,4.668876085497124,-95.2584522855549,-8.480163,-6.0379167,9.288037,7.015778,-9.00675,-6.6912017,-13.786866,-20.680483,-7.6579113,62.173637,-18.154778,11.016789,-4.0983887,-9.360089,11.999738,-1.6408509,31.392555,-4.4892383,44.383728,-12.848161,4.070413,10.618691,6.4032583,-18.46811,14.023901,47.81498,5.0700793,3.8168705,-6.8141904
208,8.168209075927734,12.268763542175293,79.56486511230469,3.759022532037229,4.79038303539976,-95.37785452644624,-8.687555,-6.00085,9.400738,7.017329,-8.941658,-6.7374516,-13.033351,-20.568012,-7.8337374,61.17413,-17.768852,11.080001,-3.9442766,-9.3408575,11.812274,-1.1541306,31.12345,-5.0610075,44.29322,-11.340892,4.2441854,10.31059,6.285251,-18.240637,14.230833,47.913345,5.054262,3.741081,-6.892888
209,8.166054725646973,12.351227760314941,79.56045532226562,3.755990569081005,4.889745623892923,-95.50193751637264,-8.866065,-5.9512167,9.510942,7.0215564,-8.885663,-6.757816,-12.255349,-20.355844,-7.9433475,60.108467,-17.191153,11.121279,-3.7765172,-9.310524,11.647498,-0.67506653,30.816006,-5.649447,44.248703,-9.56978,4.528193,9.964983,6.1634145,-18.016762,14.587712,48.05264,5.1271834,3.404999,-7.1680136
210,8.158921241760254,12.447104454040527,79.55574035644531,3.7451249021017703,4.976359191787053,-95.62860492580639,-9.028524,-5.892661,9.618505,7.027109,-8.833926,-6.763061,-11.461788,-20.071218,-8.005955,58.959877,-16.465412,11.163518,-3.604919,-9.265261,11.495605,-0.19670439,30.468363,-6.260896,44.2479,-7.571238,4.877683,9.608307,6.038,-17.79869,15.060846,48.21476,5.260648,2.887726,-7.58525
211,8.152570724487305,12.544207572937012,79.5584945678711,3.726598676072461,5.058019774659786,-95.76223015508519,-9.1844635,-5.818325,9.732841,7.031501,-8.783384,-6.772763,-10.64562,-19.774902,-8.107564,57.68309,-15.720086,11.276057,-3.428441,-9.210069,11.353901,0.27237815,30.082823,-6.8537335,44.302547,-5.586304,5.2253294,9.2699585,5.906117,-17.58595,15.548153,48.373222,5.3369217,2.3185616,-7.911672
212,8.149311065673828,12.644902229309082,79.55742645263672,3.6979981523648497,5.142107800594857,-95.90713199005461,-9.34855,-5.720447,9.86454,7.0434794,-8.741242,-6.8075595,-9.797134,-19.528025,-8.339421,56.22894,-15.083917,11.527377,-3.2452998,-9.149322,11.220647,0.72527367,29.66372,-7.3847175,44.42184,-3.8581107,5.508957,8.985267,5.764754,-17.376923,15.946667,48.501247,5.2432623,1.8283203,-7.917219
213,8.134265899658203,12.755849838256836,79.55603790283203,3.659162028025765,5.226770419482563,-96.0626494002784,-9.51168,-5.594995,10.020341,7.0502286,-8.709473,-6.8929267,-8.88937,-19.364197,-8.773732,54.523838,-14.515008,12.003546,-3.0578594,-9.086826,11.101201,1.1637963,29.212004,-7.8334923,44.604523,-2.4431093,5.710878,8.791167,5.6227474,-17.168169,16.172726,48.60515,4.9014144,1.3880372,-7.382992
214,8.112849235534668,12.870674133300781,79.55859375,3.610488509545559,5.309246305393791,-96.22718499755132,-9.674339,-5.4470425,10.194193,7.0610094,-8.68949,-7.011593,-7.933844,-19.234907,-9.348284,52.609398,-13.963093,12.649929,-2.8617446,-9.01978,10.995027,1.586379,28.72722,-8.231269,44.84883,-1.2168843,5.871134,8.664109,5.4818687,-16.959747,16.294872,48.69259,4.39286,0.94296277,-6.4873624
215,8.0858736038208,12.981208801269531,79.55519104003906,3.5549802899271694,5.396029927540193,-96.40356331467737,-9.844351,-5.2841535,10.373238,7.0731974,-8.660068,-7.1180644,-6.975825,-19.07774,-9.950101,50.59708,-13.541473,13.325959,-2.6504843,-8.946674,10.891742,1.9846399,28.212637,-8.60689,45.16004,-0.15465961,6.015259,8.551047,5.3268614,-16.754482,16.443657,48.737564,3.8436303,0.5894666,-5.594528
216,8.06666088104248,13.095264434814453,79.56114959716797,3.4952437329043233,5.493460643451141,-96.59424413054394,-10.030845,-5.1159086,10.544524,7.086477,-8.600844,-7.166694,-6.063337,-18.842081,-10.4658985,48.603157,-13.370637,13.883243,-2.4208498,-8.865669,10.781262,2.3552918,27.67313,-8.984456,45.53932,0.76782477,6.166539,8.396871,5.1408463,-16.554455,16.753416,48.713528,3.374237,0.43408906,-5.0648494
217,8.025128364562988,13.232186317443848,79.5830078125,3.430494638092845,5.604074499324475,-96.80162686808293,-10.238203,-4.9448814,10.699181,7.1018186,-8.498571,-7.1217394,-5.193146,-18.516264,-10.879183,46.626945,-13.599557,14.246569,-2.1708395,-8.777573,10.661666,2.7062213,27.107763,-9.357181,45.984314,1.6096005,6.335699,8.140235,4.9119906,-16.35838,17.29856,48.596,3.0574903,0.5697199,-5.096262
218,7.987123012542725,13.368804931640625,79.6038818359375,3.3601252318314314,5.724054672197967,-97.02313527472843,-10.4606,-4.7656207,10.84527,7.11813,-8.36548,-7.0156884,-4.3467946,-18.141739,-11.247576,44.61557,-14.128047,14.493918,-1.9105395,-8.684251,10.537362,3.048464,26.515156,-9.705298,46.485935,2.3417678,6.508091,7.825074,4.645551,-16.16392,18.002941,48.407227,2.8164423,0.9238151,-5.459781
219,7.970862865447998,13.48898696899414,79.61135864257812,3.285596743640683,5.850429200552976,-97.25446999199926,-10.691823,-4.5775332,10.995833,7.1351557,-8.222935,-6.904856,-3.5467837,-17.745705,-11.568781,42.60604,-14.705006,14.706455,-1.6490233,-8.585772,10.408071,3.3767471,25.902199,-10.040943,47.039547,2.8545256,6.6706486,7.554639,4.3526816,-15.973838,18.76922,48.19208,2.5420792,1.3589654,-5.8731284
220,7.950592994689941,13.610865592956543,79.61896514892578,3.2003097778576466,5.985369660892081,-97.49687381881573,-10.9358425,-4.3663926,11.16626,7.1611004,-8.09613,-6.848144,-2.8186402,-17.34184,-11.838908,40.627407,-15.072567,14.973107,-1.387269,-8.475768,10.27021,3.6825602,25.279652,-10.37996,47.64136,3.0339851,6.8128424,7.4326377,4.049091,-15.792569,19.497868,47.990574,2.121045,1.7363749,-6.052729
221,7.907912254333496,13.756754875183105,79.63040924072266,3.087072581701981,6.141181344388591,-97.75881704387362,-11.19577,-4.1060805,11.364236,7.17946,-7.982751,-6.875012,-2.176619,-16.864077,-12.060457,38.63513,-15.126665,15.000033,-1.113544,-8.343136,10.112006,3.9537086,24.653868,-10.737646,48.311615,2.7403593,6.935298,7.52504,3.752679,-15.621494,20.143787,47.799526,1.4432983,2.005897,-5.853701
222,7.857542514801025,13.884242057800293,79.66358947753906,2.965503806318184,6.307499059049476,-98.0310072943128,-11.470817,-3.8264592,11.579086,7.2068915,-7.8813214,-6.945159,-1.5927453,-16.347664,-12.211045,36.628998,-15.016549,15.000033,-0.8288105,-8.204448,9.944651,4.194714,24.024187,-11.109484,49.04391,2.0650065,7.0419693,7.76475,3.461419,-15.458835,20.758183,47.59135,0.5927781,2.2405603,-5.446791
223,7.818863391876221,14.024212837219238,79.67955780029297,2.8410326700668036,6.472345704659538,-98.31090891590193,-11.747278,-3.5364537,11.800105,7.235757,-7.7784452,-7.031368,-1.0543169,-15.8385935,-12.326649,34.672344,-14.845568,15.000033,-0.5404045,-8.064687,9.783003,4.4226003,23.392134,-11.477475,49.796734,1.241215,7.127971,8.0552435,3.153745,-15.305731,21.390795,47.376076,-0.2552889,2.4883783,-5.023758
224,7.768198013305664,14.202000617980957,79.6844711303711,2.7179113998540543,6.62411781383597,-98.59649765944758,-12.014268,-3.2434225,12.017382,7.261476,-7.6618495,-7.1066303,-0.5500905,-15.373939,-12.451695,32.828094,-14.714087,15.000033,-0.25574863,-7.927729,9.642832,4.6569386,22.758888,-11.821672,50.525284,0.50363547,7.192611,8.298598,2.8089573,-15.162932,22.09268,47.160618,-0.9231759,2.805173,-4.775741
225,7.726634979248047,14.369991302490234,79.70466613769531,2.5907442218180354,6.758992005794687,-98.88631358478618,-12.271716,-2.9396164,12.224017,7.287732,-7.527507,-7.1657476,-0.06605325,-14.945129,-12.6193075,31.083414,-14.615426,15.000033,0.021486714,-7.789626,9.532716,4.910972,22.123814,-12.129794,51.21919,-0.22133024,7.1904554,8.540055,2.4165668,-15.02647,22.90556,46.939213,-1.3389744,3.2584846,-4.829186
226,7.65933895111084,14.558497428894043,79.70989990234375,2.458791166721079,6.8838658254952145,-99.18280336560328,-12.524231,-2.6237555,12.427554,7.312431,-7.3794727,-7.222564,0.38978535,-14.530703,-12.805007,29.410585,-14.501485,15.000033,0.29174796,-7.650217,9.441961,5.178696,21.486742,-12.408176,51.896717,-1.0110692,7.135868,8.806077,1.984087,-14.89392,23.799309,46.714436,-1.6012816,3.805247,-5.0585313
227,7.585187911987305,14.733986854553223,79.7308349609375,2.3334322153404057,7.003249022464749,-99.48967671549634,-12.772109,-2.3106349,12.639721,7.3350687,-7.2291245,-7.2784977,0.791582,-14.149292,-12.97217,27.859392,-14.415397,15.000033,0.5569525,-7.5161047,9.359208,5.445476,20.849245,-12.669581,52.558228,-1.6388098,7.125633,8.971868,1.5241684,-14.7684,24.71276,46.499393,-1.7898836,4.33788,-5.2759814
228,7.5324907302856445,14.906830787658691,79.74666595458984,2.2273893614495583,7.12176668441981,-99.8105280408679,-13.074502,-2.0035584,12.874367,7.481834,-7.150168,-7.3344564,1.1074274,-13.831529,-13.08469,26.494844,-14.410232,15.000033,0.8198472,-7.3954988,9.273572,5.6942477,20.213638,-12.928035,53.20607,-1.8801589,7.2601867,8.914519,1.0506219,-14.65798,25.58406,46.305588,-1.9879484,4.7480764,-5.29252
229,7.486294746398926,15.088232040405273,79.76544952392578,2.141287999917087,7.247838865327668,-100.15109687041743,-13.401574,-1.7136148,13.137456,7.666865,-7.100503,-7.3886275,1.2981049,-13.612727,-13.159474,25.40113,-14.552103,15.000033,1.090837,-7.28557,9.178581,5.9121904,19.576155,-13.179425,53.845295,-1.530575,7.649057,8.479388,0.5744364,-14.570169,26.39437,46.118385,-2.2065892,5.006617,-5.043292
230,7.454261779785156,15.274243354797363,79.77501678466797,2.0675047359002243,7.376376451673109,-100.50824789491998,-13.678017,-1.449021,13.419124,7.733046,-6.9923053,-7.4399385,1.3822428,-13.472439,-13.216201,24.544153,-14.810264,15.000033,1.3681446,-7.179353,9.082754,6.1083965,18.934814,-13.422227,54.47472,-0.75350094,8.205074,7.766354,0.09285083,-14.507233,27.175133,45.928795,-2.4060073,5.1703515,-4.6335115
231,7.40639591217041,15.493038177490234,79.78579711914062,2.005381946602341,7.49123459307719,-100.87154165765841,-13.915561,-1.200625,13.708459,7.7453547,-6.857453,-7.4912477,1.418521,-13.355421,-13.220639,23.802956,-15.088597,15.000033,1.636588,-7.078943,8.999075,6.3013186,18.296509,-13.671674,55.083755,0.11931901,8.739429,7.0383554,-0.4003097,-14.468203,27.939655,45.7561,-2.5954716,5.25928,-4.1282907
232,7.356884479522705,15.686890602111816,79.79845428466797,1.9560839105868708,7.5766778163889885,-101.23060863523366,-14.120874,-0.9611015,13.9942255,7.7577267,-6.7219486,-7.5457296,1.4668708,-13.206065,-13.132053,23.051765,-15.284311,15.000033,1.8827621,-6.989925,8.941433,6.506586,17.67401,-13.946057,55.661823,0.74332243,9.078271,6.5693483,-0.91077334,-14.449444,28.698729,45.618645,-2.7847679,5.2934065,-3.5921073
233,7.313057899475098,15.879425048828125,79.8028793334961,1.924505911698083,7.626823276722701,-101.59173928508379,-14.284418,-0.731481,14.280963,7.771024,-6.589158,-7.6031647,1.529311,-13.006507,-12.890789,22.27393,-15.359202,15.000033,2.1082134,-6.923115,8.915188,6.7422256,17.076136,-14.251171,56.213802,0.93422234,9.121535,6.525045,-1.4488038,-14.447826,29.448332,45.543194,-2.9453335,5.216601,-2.97473
234,7.258590221405029,16.08367156982422,79.80748748779297,1.9102975129256485,7.650886222721255,-101.9569798970026,-14.408434,-0.5162024,14.57266,7.7636137,-6.4446445,-7.662114,1.578212,-12.790724,-12.529934,21.532272,-15.369487,15.000033,2.3198144,-6.8777356,8.914424,6.9980793,16.5039,-14.578218,56.73755,0.90044874,8.985215,6.7307777,-2.0095103,-14.462057,30.184473,45.512783,-3.0800128,5.038007,-2.2646265
235,7.184912204742432,16.28956413269043,79.8123779296875,1.9064429245251024,7.656173047285473,-102.30995102218866,-14.506939,-0.31348455,14.856928,7.740365,-6.287928,-7.7241015,1.6372094,-12.575263,-12.147157,20.803667,-15.35267,15.000033,2.5129979,-6.8400846,8.93744,7.247469,15.956998,-14.922207,57.21077,0.8831405,8.827436,6.9553657,-2.571487,-14.487676,30.916481,45.473537,-3.2479286,4.8758216,-1.5837089
236,7.114088535308838,16.532163619995117,79.81236267089844,1.904605399399508,7.649704972186557,-102.63478369809701,-14.59032,-0.12165992,15.121288,7.6968365,-6.1172953,-7.790879,1.730715,-12.377515,-11.840744,20.059956,-15.343753,15.000033,2.6829486,-6.796365,8.981592,7.462718,15.434717,-15.277615,57.613068,1.1209995,8.807509,6.9685974,-3.1155176,-14.518749,31.654987,45.37551,-3.510831,4.847385,-1.053683
237,7.060941219329834,16.77530860900879,79.8095932006836,1.9007303508551556,7.625916533764763,-102.9267019399577,-14.6487055,0.05964227,15.362721,7.626372,-5.929034,-7.8656993,1.8954155,-12.187732,-11.629498,19.248753,-15.344581,15.000033,2.8237236,-6.738789,9.050557,7.639478,14.935238,-15.698286,57.933422,1.926906,9.01529,6.6366334,-3.6471834,-14.551029,32.42886,45.218834,-3.9262328,5.041811,-0.71137375
238,6.977043151855469,16.99777603149414,79.81189727783203,1.9007770825481443,7.583565510887167,-103.1945857607389,-14.678972,0.22786409,15.588357,7.528559,-5.723709,-7.9467025,2.1077738,-12.004082,-11.461312,18.398909,-15.338109,15.000033,2.9398792,-6.677412,9.142782,7.7920785,14.458357,-16.168625,58.187416,3.0937378,9.341754,6.1012645,-4.1755576,-14.583157,33.224777,45.032448,-4.450447,5.3769155,-0.48805755
239,6.927884578704834,17.198974609375,79.8092041015625,1.9112638343725197,7.536473898540602,-103.44226366174185,-14.7077,0.38208812,15.800632,7.4212546,-5.505858,-8.027237,2.2989748,-11.852677,-11.331407,17.60861,-15.334272,15.000033,3.0393007,-6.626559,9.247515,7.92078,14.007273,-16.575834,58.392143,4.0769873,9.656778,5.5519347,-4.688884,-14.614612,33.990463,44.811092,-4.995381,5.7139378,-0.3492357
240,6.858486175537109,17.433305740356445,79.80075073242188,1.9369540464327504,7.498222456267677,-103.67350247468245,-14.76292,0.5241327,16.000923,7.325508,-5.2815886,-8.101202,2.3995872,-11.756699,-11.237621,16.978638,-15.345043,15.000033,3.1276379,-6.5991254,9.356557,8.025839,13.5867815,-16.803982,58.559643,4.326988,9.845169,5.1872253,-5.1772046,-14.64449,34.67509,44.545246,-5.4715056,5.9142265,-0.26394203
241,6.804781436920166,17.688791275024414,79.78166198730469,1.9806193504243765,7.472516138738701,-103.89035412478464,-14.862335,0.65750563,16.18984,7.2646194,-5.0613065,-8.168035,2.3428454,-11.746758,-11.188325,16.6238,-15.375887,15.000033,3.2007484,-6.6064906,9.477026,8.105388,13.198769,-16.80852,58.677456,3.5343306,9.883869,5.091176,-5.657234,-14.672299,35.269955,44.22721,-5.8681207,5.9216514,-0.22885521
