unveil-humanoid-operators/unveil-humanoid-operators.github.io/feature-analysis-animation/data/matrix_clips/jump_up_down.csv
Frame,root_translateX,root_translateY,root_translateZ,root_rotateX,root_rotateY,root_rotateZ,left_hip_pitch_joint_dof,left_hip_roll_joint_dof,left_hip_yaw_joint_dof,left_knee_joint_dof,left_ankle_pitch_joint_dof,left_ankle_roll_joint_dof,right_hip_pitch_joint_dof,right_hip_roll_joint_dof,right_hip_yaw_joint_dof,right_knee_joint_dof,right_ankle_pitch_joint_dof,right_ankle_roll_joint_dof,waist_yaw_joint_dof,waist_roll_joint_dof,waist_pitch_joint_dof,left_shoulder_pitch_joint_dof,left_shoulder_roll_joint_dof,left_shoulder_yaw_joint_dof,left_elbow_joint_dof,left_wrist_roll_joint_dof,left_wrist_pitch_joint_dof,left_wrist_yaw_joint_dof,right_shoulder_pitch_joint_dof,right_shoulder_roll_joint_dof,right_shoulder_yaw_joint_dof,right_elbow_joint_dof,right_wrist_roll_joint_dof,right_wrist_pitch_joint_dof,right_wrist_yaw_joint_dof
0,-0.09447181224822998,2.3118293285369873,78.22151947021484,0.9123668907175368,-2.1276488650702845,-90.52653513132088,4.606872,8.5269165,14.283738,6.7656417,-6.3135853,-10.305722,3.8828704,-11.748227,-11.56787,7.215128,-8.939429,11.884576,-2.8928597,-1.4550716,8.633125,-0.69198877,19.350132,-36.5998,55.433147,21.28914,1.0960486,5.342961,-4.5496197,-13.717189,34.39873,59.55517,-29.4868,-0.71728396,-5.1317477
1,-0.09417311102151871,2.3138890266418457,78.22457885742188,0.9068808038854612,-2.12858389443302,-90.52029586107336,4.602903,8.530729,14.271514,6.765997,-6.3043222,-10.310463,3.8795712,-11.742418,-11.57161,7.2209697,-8.939097,11.873956,-2.9009585,-1.4566995,8.654129,-0.7003162,19.36734,-36.59943,55.414738,21.265966,1.087075,5.339082,-4.565303,-13.715756,34.392765,59.544323,-29.488613,-0.7148198,-5.132037
2,-0.09078603237867355,2.318114757537842,78.22811126708984,0.9007739478680137,-2.1286407494983455,-90.51417327605344,4.5983014,8.534166,14.259344,6.765554,-6.294344,-10.315206,3.876147,-11.736609,-11.57557,7.224267,-8.937471,11.86431,-2.9092493,-1.4564095,8.67255,-0.7134521,19.37662,-36.600445,55.406483,21.242891,1.0780385,5.3370023,-4.5818386,-13.71456,34.387447,59.536503,-29.491228,-0.7115374,-5.132989
3,-0.09463773667812347,2.3175277709960938,78.23178100585938,0.8948614949652592,-2.1303638217422725,-90.50774377052613,4.595331,8.538099,14.246921,6.7661214,-6.285665,-10.319672,3.8719099,-11.730974,-11.578865,7.234597,-8.939368,11.85275,-2.9160435,-1.4560716,8.691406,-0.7269176,19.384268,-36.602077,55.39906,21.222084,1.0697958,5.33444,-4.595444,-13.713101,34.380905,59.527,-29.492434,-0.7089535,-5.133129
4,-0.09391822665929794,2.3233749866485596,78.23382568359375,0.8879931997106909,-2.1365039073310155,-90.50076085689516,4.598465,8.541751,14.233995,6.766132,-6.278961,-10.323412,3.8744285,-11.724903,-11.581833,7.245026,-8.940851,11.836363,-2.9195645,-1.4564571,8.713561,-0.740628,19.392305,-36.60422,55.39065,21.20778,1.0656681,5.330976,-4.607571,-13.711278,34.371346,59.519173,-29.491102,-0.70789886,-5.132292
5,-0.09247167408466339,2.321626901626587,78.23699951171875,0.8817873995723415,-2.1488127900333365,-90.4933158514707,4.609763,8.545597,14.22068,6.766686,-6.2746673,-10.326431,3.8831015,-11.718356,-11.582706,7.2622776,-8.944439,11.812446,-2.9162338,-1.4591106,8.739854,-0.75299484,19.405182,-36.611565,55.37645,21.202879,1.0673069,5.3251424,-4.6136723,-13.707926,34.35614,59.50899,-29.48616,-0.7077948,-5.128566
6,-0.09070277959108353,2.3224854469299316,78.24009704589844,0.8757488521212615,-2.165620435684404,-90.48569484641938,4.626653,8.548562,14.2073,6.767571,-6.272,-10.328818,3.8912303,-11.713542,-11.580847,7.295031,-8.95548,11.783191,-2.9155855,-1.4610083,8.764462,-0.7629376,19.409372,-36.614716,55.368023,21.208542,1.0731515,5.319742,-4.617892,-13.706822,34.349895,59.501648,-29.474321,-0.7069236,-5.1239886
7,-0.09181838482618332,2.322854995727539,78.24089813232422,0.8711365040960133,-2.1836558435260556,-90.47709906896198,4.645563,8.551194,14.193085,6.7684507,-6.271996,-10.33047,3.9043326,-11.7089815,-11.580928,7.322874,-8.965223,11.752709,-2.9086225,-1.4654607,8.793083,-0.77539444,19.418926,-36.62061,55.356213,21.212477,1.0791849,5.313354,-4.6199656,-13.704208,34.333794,59.49166,-29.462145,-0.70950776,-5.1190324
8,-0.09211675077676773,2.3179728984832764,78.24240112304688,0.8668156384697356,-2.1992898941377894,-90.46687562941416,4.661771,8.552458,14.177718,6.7688866,-6.27519,-10.331397,3.9139006,-11.707226,-11.584335,7.3539295,-8.979941,11.725155,-2.9058688,-1.4707608,8.819358,-0.7838322,19.425407,-36.618023,55.345028,21.209156,1.0822433,5.309156,-4.6216607,-13.702283,34.319824,59.480904,-29.447966,-0.7157399,-5.1168556
9,-0.0943533331155777,2.3222508430480957,78.2431640625,0.8643159857234021,-2.212814665555453,-90.45408082762738,4.6742415,8.550828,14.159884,6.769596,-6.282308,-10.3294935,3.9248426,-11.708447,-11.594409,7.379231,-8.996271,11.700472,-2.9054852,-1.4791703,8.848133,-0.7882667,19.432697,-36.601498,55.328568,21.196934,1.0805429,5.3042264,-4.624418,-13.699826,34.29894,59.467243,-29.431564,-0.73004115,-5.118349
10,-0.09213750809431076,2.316887378692627,78.24449157714844,0.8656340365106598,-2.225502264470706,-90.43931961253055,4.6853447,8.546877,14.140315,6.7704406,-6.292975,-10.32536,3.9352112,-11.712407,-11.608646,7.405137,-9.01547,11.677063,-2.908411,-1.4894154,8.876268,-0.7887424,19.438242,-36.574955,55.311462,21.178602,1.0760368,5.299721,-4.627406,-13.697613,34.278404,59.45303,-29.409424,-0.7496637,-5.122822
11,-0.09216523915529251,2.3151211738586426,78.2446060180664,0.8644688243334643,-2.23635002981795,-90.42425929710416,4.6954126,8.543979,14.121073,6.771244,-6.3064847,-10.3235,3.9477782,-11.715203,-11.6242695,7.424871,-9.034259,11.656296,-2.9115496,-1.4990519,8.901008,-0.78825027,19.441965,-36.55038,55.29747,21.157248,1.071379,5.2992263,-4.6299453,-13.695895,34.262966,59.440784,-29.387505,-0.7684771,-5.1276116
12,-0.09444741904735565,2.3095357418060303,78.24401092529297,0.8625796741878542,-2.244927291261055,-90.4106841216591,4.7047257,8.5452795,14.104412,6.771968,-6.321822,-10.328241,3.9607663,-11.713972,-11.637628,7.439206,-9.0520525,11.63977,-2.9232192,-1.5095747,8.933888,-0.77532,19.454527,-36.498577,55.265392,21.160343,1.0652483,5.2978272,-4.645835,-13.690236,34.24682,59.433216,-29.389349,-0.7840635,-5.125269
13,-0.09856098145246506,2.30419921875,78.24430847167969,0.8569603120405682,-2.2489563022479526,-90.4005418047918,4.712745,8.552364,14.093208,6.7723465,-6.341073,-10.342521,3.9774563,-11.706279,-11.646888,7.4360914,-9.062856,11.627877,-2.9245896,-1.5162771,8.950949,-0.77186394,19.461418,-36.48094,55.255512,21.153404,1.0616531,5.3118243,-4.651564,-13.687045,34.24592,59.428005,-29.397871,-0.78956085,-5.120948
14,-0.10272324085235596,2.297989845275879,78.24201965332031,0.8505423390386471,-2.2496937650693196,-90.39227649655439,4.7189207,8.56292,14.085417,6.772715,-6.3635154,-10.36335,3.9909132,-11.695897,-11.653041,7.4329333,-9.075842,11.61996,-2.921362,-1.520204,8.962921,-0.77014697,19.464468,-36.4725,55.251152,21.149427,1.058956,5.333784,-4.6554666,-13.685645,34.247887,59.42478,-29.41873,-0.7908261,-5.1130404
15,-0.10540582984685898,2.2880444526672363,78.24138641357422,0.8435637628255993,-2.2499555033051966,-90.3829483170355,4.725578,8.57463,14.077058,6.772585,-6.385871,-10.385762,4.007738,-11.68416,-11.661023,7.4247327,-9.088312,11.615236,-2.922667,-1.5254129,8.976665,-0.7638428,19.471176,-36.457912,55.243412,21.151905,1.0567653,5.355164,-4.6641273,-13.682576,34.254757,59.42571,-29.439955,-0.78842103,-5.104615
16,-0.1080699935555458,2.2780861854553223,78.2395248413086,0.8367725279882108,-2.250108276149428,-90.37031391499092,4.730993,8.584506,14.063538,6.772856,-6.4041343,-10.407377,4.0249286,-11.674356,-11.6735,7.4191327,-9.103374,11.612984,-2.9213789,-1.5294788,8.987137,-0.76185656,19.472244,-36.45546,55.243916,21.153048,1.057457,5.3698215,-4.663791,-13.68206,34.25553,59.426746,-29.45007,-0.78345823,-5.0996
17,-0.11085871607065201,2.2690165042877197,78.2374496459961,0.8295481607350108,-2.255623293189912,-90.34968626130386,4.740466,8.593119,14.039614,6.7724833,-6.416798,-10.427868,4.052498,-11.665197,-11.6965,7.411782,-9.119277,11.6127615,-2.9320912,-1.5382082,9.0112,-0.7559915,19.481283,-36.44256,55.23516,21.164108,1.0604222,5.377527,-4.670146,-13.676921,34.254265,59.429146,-29.447485,-0.77255744,-5.096334
18,-0.11648686975240707,2.258735418319702,78.23768615722656,0.8246148506566963,-2.260538587150065,-90.32557236520073,4.748308,8.600251,14.010831,6.7724156,-6.426112,-10.448778,4.083667,-11.656979,-11.724637,7.3991213,-9.133466,11.615113,-2.9418092,-1.5459961,9.030659,-0.75471723,19.484795,-36.44172,55.23521,21.17548,1.0662043,5.380164,-4.6708446,-13.674765,34.250744,59.43506,-29.433842,-0.75727385,-5.096025
19,-0.12022469937801361,2.244976043701172,78.23863220214844,0.8180624403163866,-2.265956055805466,-90.30077261326866,4.7573805,8.606973,13.981422,6.7724805,-6.4343705,-10.46717,4.11558,-11.649186,-11.754134,7.3888044,-9.151116,11.620576,-2.9477985,-1.556242,9.054105,-0.7540667,19.491377,-36.442043,55.235786,21.18816,1.0727435,5.3793507,-4.668529,-13.670148,34.239697,59.43918,-29.420761,-0.74195427,-5.096196
20,-0.12855465710163116,2.231549024581909,78.23883056640625,0.8180316917944088,-2.270273243730482,-90.28036410622481,4.7675877,8.609233,13.958268,6.7725325,-6.4437723,-10.479746,4.0707607,-11.661864,-11.763895,7.538176,-9.255767,11.630437,-2.9450114,-1.5737935,9.07974,-0.7510027,19.500492,-36.440536,55.235836,21.198606,1.0789934,5.3766594,-4.662151,-13.663,34.21947,59.44044,-29.417982,-0.7307207,-5.096119
21,-0.1328258067369461,2.208361864089966,78.2390365600586,0.8159299345702404,-2.2801116788803046,-90.26175104281776,4.786441,8.6137905,13.938865,6.772849,-6.4554276,-10.484255,4.0756493,-11.663215,-11.780937,7.5973964,-9.316558,11.641995,-2.9411917,-1.5896251,9.111642,-0.7447484,19.506197,-36.433464,55.243267,21.203796,1.084234,5.372693,-4.649318,-13.65774,34.20118,59.436325,-29.425777,-0.7231779,-5.096763
22,-0.14022932946681976,2.1943821907043457,78.23961639404297,0.8130134146021528,-2.2934366373377486,-90.24374034796712,4.810809,8.620083,13.921132,6.77392,-6.4683895,-10.482969,4.102927,-11.659599,-11.801535,7.6204047,-9.36138,11.655778,-2.9367774,-1.6054292,9.146845,-0.73546106,19.510288,-36.424335,55.2564,21.203932,1.0894412,5.367457,-4.6340094,-13.6531725,34.185406,59.43294,-29.436062,-0.7172072,-5.0989714
23,-0.1505051553249359,2.1849236488342285,78.23817443847656,0.8080764938097657,-2.300925582849867,-90.22910562212967,4.8299284,8.628479,13.906675,6.774814,-6.4810085,-10.48005,4.127633,-11.653078,-11.820735,7.633123,-9.402346,11.6746855,-2.9237585,-1.6227266,9.1890745,-0.72663045,19.518406,-36.401325,55.26094,21.219864,1.0938394,5.356859,-4.617563,-13.643276,34.14385,59.422184,-29.464252,-0.71615595,-5.096922
24,-0.15336836874485016,2.163710355758667,78.23622131347656,0.7992454905048177,-2.2918043490334026,-90.21962292715108,4.8316708,8.642513,13.895726,6.775257,-6.4920387,-10.480365,4.1317725,-11.641064,-11.83652,7.646343,-9.444376,11.7009,-2.9117405,-1.6301842,9.214622,-0.7139236,19.521069,-36.383675,55.264965,21.22957,1.1015785,5.3529663,-4.602507,-13.639175,34.121216,59.410675,-29.463873,-0.7154693,-5.095976
25,-0.15757490694522858,2.147238254547119,78.23214721679688,0.7828261992693586,-2.2648342887822324,-90.21403190133428,4.797215,8.671202,13.88332,6.810365,-6.519007,-10.485913,4.1123295,-11.619592,-11.850043,7.662506,-9.485167,11.732088,-2.8977106,-1.6280968,9.234308,-0.70054704,19.524605,-36.351448,55.256916,21.2562,1.1141762,5.3497562,-4.591195,-13.633007,34.085712,59.393116,-29.451836,-0.71648955,-5.096818
26,-0.16814583539962769,2.1387624740600586,78.2271957397461,0.7637393256326607,-2.225682316720107,-90.21289927696866,4.648947,8.728152,13.85825,7.0629754,-6.6596923,-10.4933,4.07903,-11.594112,-11.860626,7.675201,-9.52296,11.768064,-2.8814025,-1.6218364,9.248594,-0.68388,19.527279,-36.312157,55.240543,21.291311,1.1309963,5.3478026,-4.582433,-13.62753,34.04797,59.373096,-29.42832,-0.7188385,-5.0999455
27,-0.1718176305294037,2.1213648319244385,78.22032928466797,0.7477964726684376,-2.1721251532866654,-90.21706379640611,4.48883,8.784017,13.83907,7.3098984,-6.796663,-10.50145,4.032436,-11.568616,-11.868321,7.679792,-9.561898,11.813862,-2.8628325,-1.6167495,9.256402,-0.66425544,19.53037,-36.26331,55.221394,21.329649,1.1426693,5.345775,-4.5787654,-13.620796,34.0067,59.35331,-29.407358,-0.72682756,-5.092634
28,-0.17934086918830872,2.1019668579101562,78.21550750732422,0.7366607651266361,-2.1020145228801956,-90.2275483679406,4.3250227,8.831267,13.830244,7.530458,-6.919553,-10.509029,3.9724262,-11.548792,-11.872761,7.671653,-9.605765,11.875272,-2.8391066,-1.6181768,9.246793,-0.64396334,19.532572,-36.227093,55.21444,21.348486,1.142528,5.3478923,-4.578063,-13.615573,33.97976,59.339745,-29.385153,-0.7415582,-5.0668573
29,-0.18714293837547302,2.0854854583740234,78.21212005615234,0.7278554158931249,-2.012412578481713,-90.24705429524778,4.157677,8.873644,13.835532,7.720412,-7.0266886,-10.51676,3.8939958,-11.529413,-11.869001,7.6510563,-9.643673,11.935811,-2.8078725,-1.6237783,9.216517,-0.6221436,19.534252,-36.200573,55.22435,21.348991,1.121886,5.3574586,-4.579319,-13.610981,33.961143,59.33398,-29.365263,-0.76652884,-5.0212226
30,-0.1936575472354889,2.0637261867523193,78.20735931396484,0.723155915025901,-1.908626790198132,-90.27506372653446,3.9921212,8.909144,13.85355,7.8796916,-7.116759,-10.524478,3.8021002,-11.51258,-11.857846,7.620335,-9.678079,11.99894,-2.7669754,-1.6338874,9.1717205,-0.6016638,19.534653,-36.18925,55.247482,21.33268,1.0884728,5.374211,-4.580256,-13.60924,33.953484,59.331337,-29.338293,-0.79823434,-4.962637
31,-0.20086145401000977,2.0439722537994385,78.2021484375,0.7258292331991738,-1.7866657369666654,-90.30409581920571,3.803926,8.93902,13.873001,8.043917,-7.209302,-10.531684,3.6968637,-11.503379,-11.851958,7.5787196,-9.732178,12.098064,-2.7275226,-1.650723,9.115673,-0.5785418,19.535257,-36.16882,55.26894,21.314682,1.0518017,5.3850265,-4.58813,-13.605886,33.94173,59.33161,-29.328806,-0.8355925,-4.88201
32,-0.21108484268188477,2.021792411804199,78.1954345703125,0.7450018578109554,-1.661498466753479,-90.33055356804822,3.6302824,8.943004,13.894208,8.168054,-7.2807293,-10.535798,3.6054428,-11.516683,-11.860812,7.5133767,-9.825085,12.268604,-2.6883912,-1.6870434,9.063149,-0.5584617,19.535725,-36.152794,55.28459,21.286276,1.0280163,5.3845572,-4.5960064,-13.603396,33.937046,59.3245,-29.334675,-0.8696767,-4.782198
33,-0.21860170364379883,1.9985811710357666,78.18518829345703,0.7874835947975267,-1.523288466228891,-90.3540473915869,3.4496963,8.917245,13.915475,8.273802,-7.3418393,-10.535368,3.5284312,-11.559455,-11.893837,7.4048014,-9.967607,12.549807,-2.6516716,-1.7476981,9.001719,-0.5368481,19.536507,-36.134876,55.290226,21.24375,1.0206571,5.3650565,-4.6087775,-13.601082,33.93801,59.31525,-29.369051,-0.903274,-4.6433887
34,-0.22965171933174133,1.974797248840332,78.17462921142578,0.8468085633299446,-1.3745642370461395,-90.37711536351867,3.271277,8.866696,13.940411,8.349642,-7.386757,-10.531496,3.471068,-11.623162,-11.9465475,7.2414823,-10.13753,12.914011,-2.615827,-1.8280635,8.934971,-0.5133389,19.537868,-36.115685,55.289062,21.188206,1.0227876,5.332904,-4.623926,-13.599088,33.946198,59.301216,-29.422955,-0.9373569,-4.4736433
35,-0.23903164267539978,1.9583981037139893,78.16077423095703,0.90969204294337,-1.2239743315825216,-90.39592792260326,3.090261,8.812626,13.961594,8.423369,-7.4294133,-10.528602,3.3921428,-11.695883,-12.002708,7.1251516,-10.348666,13.292384,-2.5860727,-1.9121788,8.875925,-0.4913046,19.539618,-36.09536,55.283596,21.134575,1.0288788,5.2980847,-4.6422606,-13.597856,33.958668,59.284386,-29.480902,-0.96927667,-4.30616
36,-0.2492852509021759,1.9378708600997925,78.1524658203125,0.9594871329810378,-1.080730607704583,-90.40687800286237,2.9013515,8.77592,13.971399,8.521809,-7.4813075,-10.530971,3.2511797,-11.766333,-12.044599,7.155046,-10.61514,13.616331,-2.5753284,-1.9838464,8.8412,-0.46454996,19.544107,-36.05703,55.266212,21.104372,1.0328803,5.2690115,-4.669869,-13.5960045,33.979713,59.265774,-29.52638,-0.99656713,-4.1732473
37,-0.25618740916252136,1.9203126430511475,78.14181518554688,0.9953483614399043,-0.9447099024448213,-90.40702169090017,2.7103593,8.756748,13.968141,8.630759,-7.5349293,-10.541607,3.1153982,-11.81939,-12.088932,7.191867,-10.866724,13.885532,-2.5820358,-2.0422528,8.831706,-0.433061,19.553288,-36.001003,55.2336,21.102093,1.0332857,5.250621,-4.7029066,-13.59342,34.009495,59.244465,-29.559668,-1.0213798,-4.0745163
38,-0.2678287625312805,1.9070353507995605,78.13336181640625,1.0225049978436165,-0.8119613520389254,-90.39890500128456,2.514282,8.747108,13.954903,8.749245,-7.590475,-10.557598,2.9815645,-11.863978,-12.138255,7.235113,-11.119815,14.1304245,-2.5961359,-2.0935295,8.839812,-0.40329358,19.565435,-35.942593,55.191948,21.11334,1.0339763,5.238148,-4.737102,-13.590932,34.039467,59.218952,-29.58975,-1.0446548,-3.9952033
39,-0.2795342803001404,1.8886831998825073,78.12357330322266,1.0411230073759663,-0.6850946602236992,-90.38742985956978,2.3074367,8.751515,13.934015,8.899671,-7.660241,-10.574208,2.7901175,-11.90818,-12.169001,7.409194,-11.422599,14.328223,-2.6002097,-2.1362586,8.862806,-0.3977304,19.571142,-35.91266,55.170494,21.125154,1.0365967,5.2280846,-4.7612934,-13.59012,34.04791,59.18306,-29.613787,-1.0603336,-3.9484515
40,-0.29641252756118774,1.8822917938232422,78.11505126953125,1.0504291440308107,-0.5675814915009416,-90.37632623456881,2.0756056,8.775966,13.9049015,9.123405,-7.7667937,-10.586083,2.5319731,-11.950268,-12.168763,7.7353587,-11.768982,14.456503,-2.6419945,-2.1703572,8.917402,-0.365483,19.592234,-35.83829,55.11367,21.160652,1.0396674,5.2028513,-4.8211513,-13.58716,34.066826,59.154037,-29.627733,-1.0647832,-3.943627
41,-0.3048895299434662,1.8612288236618042,78.1057357788086,1.0497918117015412,-0.46037635037570007,-90.36867884710242,1.8342835,8.818337,13.872351,9.393075,-7.89765,-10.592066,2.2282937,-11.983798,-12.132916,8.168284,-12.133387,14.507292,-2.6736922,-2.1945822,8.987242,-0.35695314,19.608706,-35.804237,55.084793,21.200104,1.05087,5.1649704,-4.8760543,-13.584734,34.063915,59.11842,-29.630838,-1.0500809,-3.9975882
42,-0.3206326961517334,1.8594566583633423,78.09298706054688,1.0410323960734904,-0.3614481075183746,-90.3615902105432,1.5830369,8.875873,13.834455,9.701882,-8.048265,-10.59473,1.886487,-12.009626,-12.069809,8.6912565,-12.514979,14.493441,-2.7098122,-2.2097747,9.076348,-0.35627213,19.624601,-35.781124,55.062607,21.253191,1.0673354,5.1169577,-4.9373198,-13.582244,34.05114,59.0803,-29.625439,-1.0213872,-4.0989976
43,-0.33353495597839355,1.857025384902954,78.08139038085938,1.0243156111876148,-0.2679000207752179,-90.35303972741548,1.2936966,8.950992,13.785579,10.098783,-8.240854,-10.594366,1.4867419,-12.035313,-11.985617,9.339352,-12.928817,14.4242115,-2.7510343,-2.2185433,9.18575,-0.3671622,19.638786,-35.76035,55.043568,21.296349,1.079799,5.0731177,-5.002331,-13.579638,34.01514,59.034073,-29.613174,-0.9884468,-4.224967
44,-0.3507160544395447,1.8578065633773804,78.06327819824219,1.0046619155465284,-0.17643985927192685,-90.34089369466383,0.9399735,9.046131,13.720178,10.62804,-8.494951,-10.5915985,1.0084295,-12.068615,-11.886007,10.14895,-13.390482,14.308303,-2.7848718,-2.2319894,9.326085,-0.38656592,19.682096,-35.738953,54.99368,21.30417,1.078224,5.0415206,-5.065439,-13.570215,33.913685,58.967247,-29.610275,-0.96446985,-4.3496695
45,-0.36959537863731384,1.861195683479309,78.03871154785156,0.980535141373429,-0.07810329821756021,-90.32333178599785,0.5079014,9.163487,13.634136,11.295345,-8.812393,-10.584614,0.43962756,-12.109678,-11.772695,11.126282,-13.906015,14.136628,-2.8208728,-2.2424192,9.482142,-0.430398,19.723917,-35.722202,54.947865,21.2623,1.0556884,5.0366416,-5.1252193,-13.558765,33.753765,58.883938,-29.597301,-0.95068574,-4.475437
46,-0.3875487744808197,1.8711163997650146,78.00770568847656,0.9523612149492915,0.023609042215674822,-90.30242258526687,0.016039774,9.2976265,13.531829,12.07233,-9.1804,-10.572438,-0.19868286,-12.156085,-11.642172,12.233484,-14.4597845,13.908241,-2.8520544,-2.2542613,9.657582,-0.49355322,19.775024,-35.715584,54.897064,21.185795,1.0189816,5.04727,-5.1827307,-13.542615,33.53534,58.78541,-29.581251,-0.9424573,-4.6115437
47,-0.40794047713279724,1.8804993629455566,77.9649887084961,0.9271703674113018,0.11255691249859182,-90.28195358862727,-0.52181846,9.443691,13.418406,12.972474,-9.606759,-10.556065,-0.89482236,-12.2141695,-11.488838,13.479676,-15.044183,13.643106,-2.8770137,-2.2727191,9.86317,-0.56213105,19.843147,-35.705746,54.827877,21.092083,0.9799526,5.0606976,-5.242856,-13.520803,33.28567,58.67408,-29.576715,-0.93445903,-4.751115
48,-0.4295414686203003,1.903031349182129,77.91246032714844,0.9090311979235056,0.17242603010315058,-90.26565922681402,-1.0833937,9.594341,13.300761,13.992115,-10.095859,-10.536753,-1.6299102,-12.289164,-11.308947,14.858159,-15.646392,13.361969,-2.9059315,-2.297961,10.106765,-0.62569755,19.916487,-35.666718,54.744175,21.004364,0.9494703,5.066161,-5.3161006,-13.500441,33.049847,58.555832,-29.591093,-0.9200557,-4.8873506
49,-0.4542796015739441,1.92988121509552,77.84381866455078,0.9057432783826602,0.20305962279061737,-90.25438107292149,-1.675629,9.742556,13.1793785,15.144805,-10.649389,-10.512088,-2.4196095,-12.389853,-11.09125,16.394594,-16.26369,13.06078,-2.9385276,-2.3381624,10.392069,-0.68772084,19.99511,-35.59737,54.652603,20.926657,0.9323949,5.0597167,-5.40165,-13.482662,32.820637,58.42782,-29.640455,-0.89421755,-5.021633
50,-0.4764038920402527,1.950785756111145,77.76273345947266,0.9172836538196169,0.2118437424008343,-90.24636958788503,-2.3024375,9.890636,13.051533,16.420633,-11.262086,-10.48111,-3.2638257,-12.513046,-10.839352,18.074184,-16.898428,12.731239,-2.9733107,-2.3919868,10.713358,-0.7525543,20.079746,-35.50595,54.552826,20.848553,0.9219801,5.047701,-5.4970675,-13.467246,32.586456,58.288074,-29.712996,-0.86104685,-5.156251
51,-0.49885237216949463,1.980510950088501,77.65794372558594,0.9308266908807643,0.19410717931606628,-90.2410455471415,-2.9516199,10.049306,12.916495,17.809616,-11.936046,-10.447911,-4.119665,-12.644253,-10.572997,19.8319,-17.546444,12.387192,-3.0060945,-2.4470518,11.067286,-0.8120191,20.170868,-35.39319,54.428825,20.769487,0.9127668,5.0338144,-5.5973005,-13.456245,32.36186,58.133682,-29.786877,-0.8288005,-5.2843156
52,-0.5243775248527527,2.0113446712493896,77.53559112548828,0.9360221240565374,0.14512594369822115,-90.237519789471,-3.6158414,10.23244,12.7718115,19.31271,-12.674494,-10.416849,-4.94442,-12.7672,-10.313419,21.604235,-18.203976,12.043572,-3.0342712,-2.4892137,11.450943,-0.8563458,20.268965,-35.256893,54.262917,20.690218,0.8992076,5.021611,-5.6971064,-13.453597,32.162315,57.96096,-29.84037,-0.80583274,-5.399012
53,-0.5431634187698364,2.0393052101135254,77.38697814941406,0.9340148218011328,0.05926367998584401,-90.23429049796036,-4.2957606,10.436648,12.617173,20.94371,-13.488907,-10.380371,-5.7395296,-12.887397,-10.059399,23.407047,-18.8707,11.698651,-3.0596604,-2.5225718,11.874784,-0.88137084,20.374336,-35.08213,54.045555,20.611258,0.88165265,5.0054846,-5.7948074,-13.459987,31.986557,57.76876,-29.872498,-0.79316014,-5.4874215
54,-0.5674135088920593,2.0652289390563965,77.2205581665039,0.9320333868896916,-0.059713706472331145,-90.23187833403837,-4.993265,10.65838,12.4517975,22.695219,-14.3720665,-10.338767,-6.5215383,-13.007675,-9.802718,25.260199,-19.546257,11.347359,-3.08401,-2.5509806,12.337218,-0.89237297,20.487507,-34.872906,53.786316,20.532314,0.8624475,4.9856005,-5.8932424,-13.475792,31.829618,57.558254,-29.892855,-0.78673375,-5.5566225
55,-0.5945387482643127,2.092021942138672,77.03285217285156,0.9100444856428666,-0.20263680594478656,-90.23262035838043,-5.705555,10.913573,12.271923,24.542759,-15.30618,-10.3096285,-7.2711535,-13.105582,-9.556382,27.111998,-20.231897,11.000421,-3.103568,-2.5561364,12.819085,-0.8932445,20.60869,-34.657784,53.49435,20.452433,0.8389612,4.9738913,-5.987751,-13.504246,31.700012,57.31984,-29.893442,-0.7875384,-5.6290517
56,-0.6186203360557556,2.1180946826934814,76.82030487060547,0.8542667557808353,-0.3603944270053394,-90.23871110829076,-6.4228196,11.216538,12.074818,26.447023,-16.266798,-10.31026,-7.974372,-13.159856,-9.332295,28.922905,-20.92867,10.66721,-3.1144075,-2.518349,13.301628,-0.88928705,20.737726,-34.467594,53.180195,20.369293,0.8084555,4.9825325,-6.072348,-13.551146,31.605545,57.041935,-29.866411,-0.79651207,-5.726777
57,-0.642021656036377,2.1323211193084717,76.58753204345703,0.7536148614046372,-0.535721064366265,-90.25745660444306,-7.1443768,11.581131,11.863847,28.420918,-17.26209,-10.356799,-8.624534,-13.158243,-9.129958,30.684698,-21.63328,10.332423,-3.1093204,-2.423336,13.788424,-0.88147986,20.875233,-34.31859,52.842377,20.313618,0.7760184,5.0087895,-6.1400814,-13.62258,31.548382,56.716442,-29.815739,-0.8110058,-5.8582754
58,-0.6635169386863708,2.139732837677002,76.32788848876953,0.6179389115821246,-0.7318276103043514,-90.2849904342651,-7.8723774,11.996319,11.637372,30.471521,-18.29792,-10.436122,-9.232244,-13.112499,-8.945333,32.42482,-22.347843,9.997379,-3.0909657,-2.2812304,14.288379,-0.86804926,21.020796,-34.19411,52.47547,20.275963,0.7410749,5.0481563,-6.189149,-13.72066,31.521181,56.341244,-29.743477,-0.8317538,-6.009514
59,-0.6934986114501953,2.1477396488189697,76.04635620117188,0.4569613112381877,-0.9401945201070323,-90.30711409851175,-8.616608,12.444904,11.3854265,32.584545,-19.356556,-10.524251,-9.808871,-13.039605,-8.786779,34.154514,-23.088764,9.696609,-3.0713193,-2.1088545,14.78992,-0.85119367,21.172134,-34.075657,52.086514,20.193409,0.69214773,5.110451,-6.2240086,-13.84496,31.519562,55.917973,-29.63754,-0.8655232,-6.169099
60,-0.7226060032844543,2.145395517349243,75.74041748046875,0.2840324569981045,-1.1521277584597815,-90.30974521993453,-9.388339,12.909553,11.098531,34.74898,-20.42177,-10.597756,-10.368439,-12.959554,-8.661329,35.892933,-23.877932,9.463275,-3.0631063,-1.9235756,15.280372,-0.8325191,21.325594,-33.943256,51.684265,20.004139,0.6176103,5.205473,-6.2512703,-13.994363,31.538584,55.453026,-29.488548,-0.91900307,-6.3261642
61,-0.7593837380409241,2.14522647857666,75.40555572509766,0.07906861996881911,-1.3685383024002935,-90.28645669013879,-10.209532,13.410271,10.758277,37.00109,-21.500393,-10.65297,-10.904323,-12.861087,-8.580815,37.63868,-24.728241,9.310556,-3.0765364,-1.7083784,15.762117,-0.81543005,21.48092,-33.8058,51.271217,19.690266,0.5164601,5.3432875,-6.2672863,-14.167573,31.569294,54.92974,-29.315716,-0.99560076,-6.4660454
62,-0.7928427457809448,2.1385865211486816,75.04480743408203,-0.15414424147037292,-1.59274221378838,-90.24543141521842,-11.068007,13.945687,10.373592,39.33214,-22.59655,-10.703131,-11.416125,-12.744091,-8.536852,39.39502,-25.63277,9.216595,-3.1034749,-1.4602925,16.239273,-0.79907495,21.638296,-33.67033,50.845604,19.285025,0.39332798,5.515885,-6.2716103,-14.365301,31.616627,54.353474,-29.117867,-1.0913707,-6.59841
63,-0.8212794661521912,2.1269359588623047,74.65870666503906,-0.3864032614908128,-1.8198695026859726,-90.19487145336923,-11.921517,14.466995,9.974146,41.662785,-23.689688,-10.748225,-11.921592,-12.643859,-8.505234,41.176693,-26.5762,9.160626,-3.1287487,-1.2163832,16.702692,-0.77807254,21.792505,-33.510925,50.409687,18.806194,0.24450667,5.705978,-6.273102,-14.587458,31.698582,53.758797,-28.851263,-1.2025015,-6.74844
64,-0.8524278402328491,2.11210560798645,74.24173736572266,-0.580685531478684,-2.0456027339984493,-90.14306904613457,-12.731856,14.929087,9.58985,43.922504,-24.763489,-10.7859955,-12.438863,-12.594592,-8.461617,42.996952,-27.542936,9.123228,-3.1384392,-1.0145569,17.141626,-0.7472563,21.935022,-33.29977,49.969574,18.272516,0.066599034,5.8964844,-6.2855816,-14.834394,31.837645,53.18683,-28.470734,-1.3253447,-6.9418125
65,-0.8807081580162048,2.0789794921875,73.8114242553711,-0.7358608580703109,-2.2731528731426587,-90.08722260567377,-13.506331,15.330432,9.215028,46.13572,-25.826431,-10.811635,-12.978128,-12.605477,-8.406338,44.888054,-28.54449,9.109294,-3.1356616,-0.8608432,17.555298,-0.7038678,22.059868,-33.01926,49.515766,17.647987,-0.14683175,6.097124,-6.314111,-15.108526,32.054623,52.623413,-27.931137,-1.4620879,-7.187634
66,-0.9115656614303589,2.041727304458618,73.36638641357422,-0.8663175749476686,-2.503564130491307,-90.02478012553674,-14.2622795,15.695832,8.83765,48.333996,-26.887344,-10.82592,-13.528613,-12.660491,-8.348804,46.83569,-29.58558,9.125402,-3.1274724,-0.73490316,17.947027,-0.65304667,22.165422,-32.685207,49.056522,16.938454,-0.39360845,6.3115296,-6.3538013,-15.41036,32.33758,52.05788,-27.266338,-1.6156225,-7.4706035
67,-0.9401322603225708,2.0004069805145264,72.91326904296875,-0.9699995494363487,-2.7285397617419758,-89.96460297943574,-14.974071,16.020245,8.478583,50.453182,-27.927784,-10.832722,-14.071756,-12.751475,-8.28034,48.772312,-30.633171,9.155684,-3.1029866,-0.63374305,18.3127,-0.6047755,22.24887,-32.32304,48.626556,16.223936,-0.66302764,6.5143366,-6.39793,-15.733548,32.654243,51.531715,-26.553514,-1.783554,-7.779855
68,-0.9622176885604858,1.950690746307373,72.45834350585938,-1.042562908096651,-2.939904952392225,-89.91582880619761,-15.61596,16.299274,8.1602955,52.428646,-28.92896,-10.836961,-14.588769,-12.868126,-8.193862,50.629036,-31.653358,9.186027,-3.0503435,-0.5545899,18.647497,-0.5716449,22.30648,-31.959871,48.263542,15.584177,-0.9428918,6.681466,-6.4413075,-16.066473,32.971638,51.090687,-25.86884,-1.9621786,-8.106097
69,-0.98759925365448,1.8908034563064575,72.01351165771484,-1.070470548527911,-3.1373463841701392,-89.88469909099982,-16.184294,16.520819,7.8981333,54.26468,-29.901176,-10.831386,-15.096715,-13.023824,-8.075969,52.431232,-32.6559,9.214082,-2.9550354,-0.51350033,18.949343,-0.5738367,22.336689,-31.612621,47.982235,14.999389,-1.2558562,6.817764,-6.4962945,-16.406374,33.30549,50.74375,-25.180923,-2.1688697,-8.487323
70,-1.0109801292419434,1.824662446975708,71.57550811767578,-1.058468933930999,-3.3246405521237192,-89.86545787385448,-16.690346,16.694756,7.6775465,55.988678,-30.85172,-10.815142,-15.59571,-13.215261,-7.936336,54.1958,-33.65261,9.249469,-2.825171,-0.5066683,19.218983,-0.6036061,22.338573,-31.26631,47.76872,14.440522,-1.5986897,6.9329185,-6.5659075,-16.75272,33.664284,50.476536,-24.468216,-2.4010093,-8.915565
71,-1.0376250743865967,1.744167685508728,71.1496353149414,-1.0347460969046884,-3.500113531879287,-89.84860989345863,-17.137064,16.84774,7.4756417,57.58492,-31.755154,-10.803723,-16.048285,-13.407324,-7.8022056,55.852,-34.607414,9.295329,-2.683942,-0.5030392,19.454998,-0.63282883,22.308584,-30.899467,47.62035,13.972707,-1.9202051,7.0124626,-6.632774,-17.093346,34.00141,50.3069,-23.82421,-2.621776,-9.315385
72,-1.0665587186813354,1.6521437168121338,70.74602508544922,-1.0284881215556925,-3.6620448010509317,-89.82455657674276,-17.524763,17.0045,7.2731647,59.03039,-32.583534,-10.815055,-16.414976,-13.567452,-7.701267,57.325794,-35.48531,9.354449,-2.5540285,-0.47387013,19.653694,-0.6370742,22.2415,-30.493713,47.539925,13.660268,-2.1683857,7.043703,-6.685658,-17.410315,34.26999,50.266,-23.343088,-2.7914057,-9.614143
73,-1.1014297008514404,1.5534027814865112,70.3665771484375,-1.0454522246404572,-3.814495836521776,-89.7959300986456,-17.864073,17.172894,7.0607376,60.35777,-33.3496,-10.863536,-16.700228,-13.686939,-7.6308475,58.639057,-36.30191,9.432772,-2.4340386,-0.4153447,19.81816,-0.6132459,22.133188,-30.026527,47.526726,13.576767,-2.3285003,7.001319,-6.739947,-17.69172,34.478733,50.389538,-23.04903,-2.920433,-9.813467
74,-1.1361802816390991,1.4373950958251953,70.02513885498047,-1.0706280626973323,-3.957140214709358,-89.76615958936533,-18.150284,17.337704,6.8537006,61.564842,-34.059574,-10.938492,-16.92036,-13.784583,-7.580569,59.818546,-37.069256,9.527388,-2.3168652,-0.34470564,19.94533,-0.5769486,21.982693,-29.513088,47.58834,13.669575,-2.4281929,6.9017944,-6.8071175,-17.933392,34.648876,50.67384,-22.893261,-3.0199919,-9.949097
75,-1.161179542541504,1.317776083946228,69.73104858398438,-1.1004591909074422,-4.080889199840845,-89.72661090995996,-18.363546,17.485676,6.669095,62.580444,-34.67607,-11.01991,-17.056406,-13.868744,-7.565052,60.79948,-37.740005,9.625391,-2.2142398,-0.2656641,20.021587,-0.5339226,21.78987,-28.994062,47.742172,13.813038,-2.4791667,6.7955236,-6.867625,-18.12967,34.74822,51.091377,-22.861414,-3.0500169,-9.999726
76,-1.1866858005523682,1.1941583156585693,69.48958587646484,-1.1284680039924655,-4.176604043182685,-89.66863586417294,-18.48349,17.603395,6.5244102,63.33331,-35.162086,-11.088128,-17.089066,-13.946807,-7.5992785,61.516212,-38.268654,9.714444,-2.1346774,-0.18121608,20.033155,-0.49061203,21.55478,-28.5142,48.0062,13.881096,-2.4921432,6.7330265,-6.899098,-18.27464,34.740353,51.61351,-22.940348,-2.9712663,-9.943181
77,-1.210175633430481,1.0512713193893433,69.32038116455078,-1.1586215003056881,-4.23864868262356,-89.58652948171371,-18.523663,17.691336,6.4154234,63.840588,-35.541615,-11.141373,-17.031935,-14.022528,-7.6886845,61.99233,-38.67165,9.794369,-2.085132,-0.086482674,19.970346,-0.4430195,21.270891,-28.05995,48.393,13.839867,-2.4688022,6.7167883,-6.901375,-18.361893,34.58909,52.25416,-23.142183,-2.7599027,-9.7241125
78,-1.2225160598754883,0.8999700546264648,69.22628021240234,-1.1945611652876982,-4.273073132448554,-89.48604144348373,-18.487408,17.754044,6.338546,64.12701,-35.822823,-11.190604,-16.888672,-14.090262,-7.825621,62.247997,-38.962955,9.8710575,-2.0566428,0.018523416,19.840067,-0.39498305,20.935553,-27.6213,48.89815,13.757044,-2.40358,6.724369,-6.8854485,-18.389101,34.320873,53.02972,-23.47108,-2.4433534,-9.3691845
79,-1.2352010011672974,0.7295284867286682,69.22333526611328,-1.2235619566145828,-4.2883397387157425,-89.3758191258533,-18.341658,17.782349,6.310775,64.13606,-35.94179,-11.233126,-16.628,-14.143374,-8.00496,62.2158,-39.09405,9.940792,-2.0351636,0.12297759,19.654257,-0.36020887,20.560099,-27.246271,49.50842,13.657025,-2.2955053,6.7688093,-6.845026,-18.35922,33.99161,53.911858,-23.904305,-2.0591936,-8.9789
80,-1.2500277757644653,0.5541425943374634,69.31099700927734,-1.2357262669494327,-4.29311865598803,-89.26437380529244,-18.052235,17.766657,6.3492455,63.80858,-35.83457,-11.265776,-16.217241,-14.174826,-8.221584,61.825764,-39.01712,9.999907,-2.005194,0.21434467,19.427189,-0.34502453,20.16481,-26.981766,50.198223,13.562542,-2.1432793,6.8621044,-6.7687697,-18.27888,33.65361,54.86325,-24.418262,-1.6432773,-8.653357
81,-1.2629145383834839,0.36713719367980957,69.50164794921875,-1.23319565692544,-4.298455958645144,-89.14537658237312,-17.596764,17.709188,6.463236,63.12397,-35.51999,-11.282948,-15.633213,-14.1870575,-8.47826,61.06703,-38.74701,10.053918,-1.9665396,0.29055497,19.176292,-0.34669793,19.762144,-26.82888,50.95607,13.362149,-1.9614574,7.043264,-6.6477575,-18.148981,33.276733,55.890533,-25.028341,-1.1918483,-8.413798
82,-1.2824599742889404,0.16710695624351501,69.79058074951172,-1.2186109067142719,-4.296717406877046,-89.01718977760244,-16.997707,17.612295,6.6412077,62.11553,-35.021385,-11.28684,-14.89908,-14.18084,-8.775191,59.976025,-38.30238,10.101712,-1.9251844,0.35423195,18.892708,-0.35055012,19.355183,-26.764484,51.776207,13.0786085,-1.7459658,7.2922244,-6.484411,-17.968527,32.84594,56.99653,-25.739933,-0.6906145,-8.203604
83,-1.2997280359268188,-0.0391172356903553,70.1802978515625,-1.1895462549607831,-4.2686839322074075,-88.89510692315734,-16.291147,17.467854,6.866034,60.808548,-34.284866,-11.286516,-14.049764,-14.146867,-9.103352,58.551765,-37.638252,10.12962,-1.8767186,0.39908984,18.552418,-0.34400973,18.952934,-26.797472,52.640163,12.934293,-1.4662589,7.5317097,-6.2886767,-17.745102,32.441444,58.13961,-26.510221,-0.15792705,-8.008592
84,-1.3131331205368042,-0.25592005252838135,70.66853332519531,-1.1433580961101233,-4.194922756599244,-88.79484214846116,-15.513533,17.268421,7.119189,59.22794,-33.257233,-11.291243,-13.121303,-14.076301,-9.453312,56.793537,-36.711205,10.124929,-1.8185047,0.4182163,18.133041,-0.31118822,18.567661,-26.934391,53.52463,13.151116,-1.0897875,7.681271,-6.070575,-17.49199,32.14501,59.27326,-27.29519,0.38806826,-7.8155437
85,-1.3328790664672852,-0.47468268871307373,71.25001525878906,-1.0746066962720606,-4.065386495437294,-88.72237273296852,-14.639963,17.012691,7.417193,57.311165,-31.944601,-11.295061,-12.062495,-13.966591,-9.865476,54.5762,-35.55082,10.068953,-1.7462995,0.40273377,17.623785,-0.24257955,18.205414,-27.20439,54.442635,13.928004,-0.5413846,7.729092,-5.8202896,-17.213158,31.975878,60.412014,-28.13097,0.9884804,-7.653061
86,-1.3544825315475464,-0.7146917581558228,71.92121124267578,-0.9854219715184998,-3.8915086937977845,-88.668413434695,-13.667047,16.707884,7.752443,55.072033,-30.373955,-11.29314,-10.874401,-13.820801,-10.328816,51.9438,-34.172585,9.973852,-1.6642685,0.35674033,17.040106,-0.14043854,17.867287,-27.59323,55.38949,15.098717,0.13977107,7.702011,-5.5328884,-16.908546,31.89414,61.56138,-29.022528,1.6381271,-7.51288
87,-1.3756531476974487,-0.9450708627700806,72.67017364501953,-0.8870727430754093,-3.686587225921163,-88.62524265887093,-12.662745,16.358414,8.068924,52.64698,-28.525679,-11.298569,-9.673626,-13.640369,-10.756021,49.1507,-32.50847,9.874058,-1.5830283,0.29222086,16.401157,-0.0041750497,17.559265,-28.039381,56.310326,16.340698,0.8134576,7.5817385,-5.221487,-16.590147,31.888216,62.654884,-29.884449,2.2478733,-7.3314395
88,-1.3955907821655273,-1.1716389656066895,73.48668670654297,-0.791607038826406,-3.464022053414351,-88.58495484864906,-11.694822,15.969142,8.312547,50.17231,-26.373219,-11.328353,-8.576789,-13.430402,-11.060009,46.447296,-30.489208,9.805771,-1.5154588,0.22297585,15.72986,0.16833737,17.290592,-28.479635,57.14248,17.328823,1.3391609,7.3614545,-4.8978434,-16.277676,31.950762,63.61649,-30.625883,2.7275205,-7.048819
89,-1.409849762916565,-1.3978725671768188,74.36884307861328,-0.6954611667569257,-3.225766059134301,-88.54602910215459,-10.738887,15.520633,8.456199,47.601337,-23.874046,-11.404442,-7.5667477,-13.180671,-11.212341,43.805756,-28.054104,9.77379,-1.4631126,0.14627665,15.023055,0.3875585,17.069706,-28.940542,57.882175,17.999334,1.6804748,7.0077496,-4.540326,-15.983427,32.105457,64.42053,-31.237629,3.0710704,-6.64285
90,-1.4218496084213257,-1.6119636297225952,75.2947998046875,-0.5938224498418783,-2.964771813922738,-88.51170058719666,-9.779224,15.025064,8.517656,44.898293,-21.061497,-11.516821,-6.6049776,-12.895881,-11.256005,41.136467,-25.260803,9.762174,-1.4208137,0.05767663,14.276964,0.6545178,16.898956,-29.439692,58.544056,18.51732,1.9093332,6.538915,-4.142044,-15.711507,32.34648,65.09081,-31.760105,3.318162,-6.15017
91,-1.4262723922729492,-1.820453405380249,76.25282287597656,-0.497218648558863,-2.681112289750141,-88.48190105164906,-8.895396,14.528435,8.5128765,42.210644,-18.016941,-11.636937,-5.779234,-12.604238,-11.208533,38.596176,-22.211826,9.773521,-1.3911691,-0.029158257,13.515983,0.9576695,16.776081,-29.897928,59.089165,18.902103,2.051196,6.032922,-3.7301335,-15.468633,32.61637,65.61644,-32.18022,3.4474177,-5.601248
92,-1.417760968208313,-2.019294500350952,77.2354736328125,-0.4173399828993054,-2.3746216326733878,-88.45683870259178,-8.168444,14.071486,8.465524,39.68671,-14.814871,-11.737367,-5.1765356,-12.335109,-11.088021,36.340115,-19.002506,9.810862,-1.3778851,-0.09921776,12.76502,1.2865916,16.696032,-30.233698,59.4773,19.174463,2.1325078,5.567192,-3.3298573,-15.262846,32.85562,65.983925,-32.486767,3.4376593,-5.0268993
93,-1.4064453840255737,-2.198167562484741,78.22867584228516,-0.3550990966276943,-2.0317878060756622,-88.44183816095631,-7.6460824,13.643556,8.35746,37.3616,-11.339265,-11.783411,-4.8848424,-12.087038,-10.837319,34.47149,-15.498427,9.847495,-1.380116,-0.14645891,12.01951,1.6438733,16.655382,-30.417645,59.681423,19.259064,2.1439848,5.1353364,-2.945819,-15.103802,33.07035,66.16926,-32.687927,3.2471368,-4.391588
94,-1.3873462677001953,-2.3484888076782227,79.23136138916016,-0.30416979760635127,-1.6558296355304667,-88.43531663419952,-7.2888403,13.231147,8.184599,35.176723,-7.5969963,-11.810344,-4.848237,-11.850508,-10.462622,32.901836,-11.701226,9.896053,-1.3965793,-0.17600998,11.271955,2.0321867,16.652988,-30.49448,59.725693,19.172132,2.079805,4.7063,-2.5562994,-14.998916,33.281906,66.1702,-32.780552,2.901016,-3.6932414
95,-1.3620468378067017,-2.478637456893921,80.22726440429688,-0.26170516543459427,-1.2722204054337116,-88.42772104055504,-7.040807,12.860408,7.997656,33.127792,-3.8368585,-11.890823,-4.9317064,-11.640778,-10.073226,31.487284,-7.903524,10.019504,-1.4297423,-0.19211677,10.539316,2.4385622,16.685387,-30.494656,59.653503,19.07136,1.9710807,4.3209586,-2.159655,-14.938275,33.45653,66.026245,-32.736736,2.481634,-3.0139093
96,-1.3332970142364502,-2.6015725135803223,81.2066421508789,-0.2297667811714445,-0.9076157768875192,-88.40958225990647,-6.839231,12.55179,7.8441825,31.201593,-0.30465215,-12.090863,-4.991732,-11.470691,-9.7736845,30.072588,-4.394826,10.279667,-1.4766,-0.19459213,9.839377,2.8422315,16.743029,-30.454128,59.51753,19.115665,1.8465934,4.0221972,-1.7485346,-14.917597,33.554646,65.77074,-32.53224,2.0717678,-2.4337761
97,-1.298056721687317,-2.7238247394561768,82.16151428222656,-0.21040304552226421,-0.5592758699030397,-88.37643104227594,-6.6822767,12.284339,7.706521,29.31653,3.1568115,-12.485815,-4.9892063,-11.334566,-9.556538,28.506027,-1.016321,10.811132,-1.5495244,-0.18511665,9.173401,3.2731857,16.844471,-30.329628,59.272667,19.415787,1.7218832,3.8175962,-1.3284241,-14.928302,33.556854,65.394966,-32.135113,1.6746948,-1.940764
98,-1.2655575275421143,-2.8376166820526123,83.07122802734375,-0.2034713933824249,-0.21610276399925185,-88.3343484549891,-6.5972114,12.04103,7.5556803,27.49786,6.6123934,-13.025337,-4.9937387,-11.224795,-9.348297,26.888643,2.3146996,11.556241,-1.6370265,-0.15895905,8.530974,3.7153819,16.975178,-30.128475,58.929768,19.864553,1.5785167,3.6898336,-0.89797133,-14.973517,33.474895,64.88752,-31.571096,1.2570413,-1.4999462
99,-1.2303780317306519,-2.951221466064453,83.9024429321289,-0.20368562843727311,0.106474082291364,-88.28996419234569,-6.5557284,11.847542,7.442255,25.881666,9.687664,-13.570094,-5.019903,-11.157269,-9.186848,25.444708,5.20198,12.269727,-1.7267077,-0.12541789,7.923453,4.140966,17.138105,-29.926453,58.541786,20.291973,1.3938215,3.6328712,-0.46457568,-15.049156,33.35137,64.28864,-30.89434,0.84256077,-1.1607175
100,-1.19795560836792,-3.0421764850616455,84.62741088867188,-0.20040652612200832,0.3913826719093465,-88.24966835116528,-6.517387,11.73444,7.446152,24.586714,12.012846,-13.96643,-5.075617,-11.149948,-9.154067,24.389374,7.257668,12.683277,-1.8026072,-0.09605506,7.362317,4.520142,17.337542,-29.80468,58.164154,20.527325,1.145637,3.6396081,-0.03470619,-15.1496725,33.224194,63.642662,-30.163166,0.4517332,-0.97453743
101,-1.1711843013763428,-3.140033006668091,85.30975341796875,-0.19859640977710766,0.6419095918981879,-88.21449409533717,-6.462617,11.723915,7.644452,23.619148,13.451116,-14.17008,-5.158984,-11.224022,-9.363147,23.788574,8.262227,12.663433,-1.8622309,-0.0703311,6.838783,4.8456063,17.580816,-29.808374,57.811386,20.52517,0.80490047,3.7351613,0.3953268,-15.271977,33.1047,62.9406,-29.336987,0.09489562,-0.9765064
102,-1.1480858325958252,-3.2308027744293213,85.93355560302734,-0.1986717853756585,0.8621239938100417,-88.18178960353339,-6.3891354,11.789683,8.008421,22.876291,14.240693,-14.251597,-5.2494674,-11.361579,-9.7759285,23.496653,8.481528,12.35731,-1.9113026,-0.046394855,6.3533344,5.1356874,17.869783,-29.888813,57.449352,20.376175,0.39135113,3.9117029,0.8249405,-15.415682,32.968697,62.16892,-28.407703,-0.24537541,-1.1315246
103,-1.1262826919555664,-3.306063175201416,86.4754867553711,-0.19955603664487565,1.0361471640658653,-88.15178913728431,-6.289306,11.898009,8.464768,22.33093,14.567775,-14.224742,-5.3239374,-11.519257,-10.260024,23.404467,8.260206,11.910248,-1.9478034,-0.029147686,5.9311366,5.3998795,18.1964,-29.98667,57.061157,20.112873,-0.04455379,4.111798,1.24623,-15.57531,32.80569,61.35946,-27.479633,-0.59138376,-1.3864949
104,-1.1086435317993164,-3.3698980808258057,86.95343780517578,-0.19550069063947187,1.148616146967799,-88.12468773152055,-6.155995,12.017206,8.937312,21.955526,14.61392,-14.102099,-5.37447,-11.659784,-10.678313,23.431396,7.935631,11.466612,-1.9708452,-0.02464067,5.5935254,5.6438303,18.546516,-30.04097,56.639286,19.767756,-0.4517868,4.2803164,1.6463041,-15.742663,32.607346,60.554768,-26.657787,-0.96307176,-1.6903259
105,-1.0965936183929443,-3.4316022396087646,87.3604736328125,-0.18775569395428277,1.195966596111217,-88.10372966661528,-5.986312,12.161058,9.438748,21.779837,14.245673,-13.828237,-5.4051743,-11.791203,-11.044124,23.601194,7.4757,10.997832,-1.9739736,-0.031094158,5.338932,5.8514886,18.912783,-30.062609,56.203766,19.274323,-0.8440683,4.411917,2.0129447,-15.914714,32.395565,59.779453,-25.942743,-1.3970987,-2.070858
106,-1.0816850662231445,-3.492440700531006,87.70557403564453,-0.17940797246534182,1.1860996496898917,-88.08774112533335,-5.778898,12.3402605,9.993817,21.79687,13.428369,-13.421911,-5.417761,-11.925243,-11.407132,23.942081,6.740257,10.453016,-1.961974,-0.043608226,5.1544394,6.0222273,19.29352,-30.073687,55.764027,18.642298,-1.2401433,4.5322924,2.3511398,-16.090223,32.171482,59.018787,-25.289904,-1.8747984,-2.5429819
107,-1.072395920753479,-3.5370583534240723,87.9890365600586,-0.16857743423671487,1.1209629017427658,-88.06997071864033,-5.537663,12.521547,10.540218,21.939743,12.486783,-13.004469,-5.3879414,-12.029195,-11.6956415,24.34674,5.914631,9.937642,-1.9507098,-0.06338621,5.042985,6.180456,19.681318,-30.031094,55.30211,18.016788,-1.5954908,4.636343,2.6691139,-16.26235,31.898952,58.262516,-24.733667,-2.3288345,-3.0391593
108,-1.0628917217254639,-3.5770468711853027,88.20720672607422,-0.15349849248431854,1.0023421838378035,-88.0435739185512,-5.2659473,12.674104,11.0261135,22.140032,11.74935,-12.686674,-5.285315,-12.069562,-11.845908,24.694273,5.1912513,9.553387,-1.957673,-0.09080539,5.007311,6.3505874,20.06519,-29.888544,54.802307,17.54542,-1.8648864,4.722235,2.973757,-16.418938,31.541365,57.502808,-24.307806,-2.689561,-3.4939294
109,-1.0585319995880127,-3.614645481109619,88.37178039550781,-0.12772212423131923,0.8079785624577325,-88.01177001985371,-4.939255,12.797599,11.4763365,22.415573,11.275009,-12.489956,-5.0829973,-12.0457325,-11.83909,24.978386,4.558378,9.328042,-1.9872566,-0.1338209,5.06831,6.5369244,20.435823,-29.616549,54.26844,17.276964,-2.0244389,4.7928557,3.257796,-16.54979,31.076921,56.74974,-24.033463,-2.942841,-3.9153352
110,-1.0541106462478638,-3.6552138328552246,88.47905731201172,-0.0946007809328974,0.5445809096315246,-87.97676522064192,-4.562945,12.906258,11.909687,22.787592,10.901484,-12.352871,-4.8032684,-11.973382,-11.712899,25.252928,3.936659,9.204591,-2.0314023,-0.18942128,5.2135158,6.7214108,20.790735,-29.245148,53.72137,17.131138,-2.1016476,4.8522468,3.5108278,-16.65178,30.532095,56.021767,-23.889208,-3.1217136,-4.335038
111,-1.0488317012786865,-3.6940255165100098,88.52210235595703,-0.06644022034044728,0.25711579294261294,-87.93050159876798,-4.189905,12.99394,12.269042,23.201727,10.621666,-12.260468,-4.502459,-11.846918,-11.489968,25.516285,3.4126139,9.154628,-2.0882413,-0.2428014,5.395919,6.8937507,21.130424,-28.818735,53.170937,17.059978,-2.1280077,4.901053,3.73102,-16.72511,29.945398,55.32798,-23.839136,-3.2261436,-4.7233315
112,-1.0455609560012817,-3.7300045490264893,88.51345825195312,-0.056575854571211476,-0.009691968816877892,-87.86454259675791,-3.8737488,13.056704,12.496599,23.60512,10.426961,-12.198316,-4.2375083,-11.660527,-11.192091,25.768406,3.0712526,9.150175,-2.155894,-0.27944028,5.569317,7.044162,21.457748,-28.3817,52.624985,17.015915,-2.1350813,4.939345,3.9191515,-16.772642,29.353806,54.673702,-23.849163,-3.2565963,-5.049755
113,-1.039670467376709,-3.769641399383545,88.45539855957031,-0.07467193899943177,-0.26372931209546085,-87.77427970121998,-3.611348,13.101817,12.573333,23.999687,10.3405485,-12.179012,-3.9996786,-11.392196,-10.799471,25.999447,2.9935112,9.21399,-2.2369888,-0.28957286,5.7438607,7.174473,21.772522,-27.92594,52.079277,17.024134,-2.1092923,4.9507146,4.080842,-16.793491,28.740211,54.05589,-23.945147,-3.1775894,-5.3002195
114,-1.0333577394485474,-3.799819231033325,88.34178161621094,-0.11165908178711852,-0.5221914311285941,-87.66483365797534,-3.3811152,13.130899,12.531397,24.409374,10.358463,-12.204394,-3.7649605,-11.051918,-10.309722,26.212687,3.1147304,9.351499,-2.3308852,-0.28354734,5.93634,7.2874837,22.074142,-27.436008,51.53325,17.097418,-2.0412052,4.9407663,4.213395,-16.787415,28.093092,53.474762,-24.133636,-2.999987,-5.492724
115,-1.0345903635025024,-3.819831371307373,88.17402648925781,-0.152033333030965,-0.7542180546158904,-87.54230211514984,-3.2093608,13.131426,12.388672,24.814816,10.429243,-12.243899,-3.568103,-10.681679,-9.770616,26.428896,3.3002527,9.509918,-2.4310098,-0.27591103,6.1121316,7.377438,22.366722,-26.944645,50.993958,17.168917,-1.968164,4.9417806,4.3090315,-16.759838,27.459536,52.932533,-24.348812,-2.7942426,-5.6442966
116,-1.0315734148025513,-3.841747283935547,87.95195007324219,-0.1843113068929102,-0.9286937120517713,-87.41303886655074,-3.1252196,13.090685,12.162418,25.202217,10.50098,-12.267351,-3.4447975,-10.322753,-9.23113,26.668617,3.4159505,9.635521,-2.530945,-0.2817703,6.2369757,7.4398713,22.657526,-26.483303,50.46548,17.171768,-1.9276124,4.9859776,4.3605084,-16.722296,26.885645,52.43048,-24.525604,-2.6311505,-5.7727113
117,-1.0339404344558716,-3.8518056869506836,87.67642974853516,-0.21756620447757358,-1.0241945594343338,-87.27299579817668,-3.1534622,13.001624,11.80763,25.538176,10.618746,-12.294902,-3.4188676,-9.95294,-8.678396,26.920336,3.458047,9.703447,-2.63453,-0.29009017,6.289177,7.4772987,22.950747,-26.05367,49.942715,17.07681,-1.9272897,5.092143,4.3753495,-16.680794,26.371883,51.96217,-24.649141,-2.520095,-5.8643208
118,-1.0304882526397705,-3.861239433288574,87.34542083740234,-0.25599769302232017,-1.0617484613410353,-87.12067081416959,-3.2750716,12.871136,11.331139,25.846304,10.78993,-12.334588,-3.4654183,-9.559203,-8.096241,27.178186,3.4880826,9.74677,-2.7433615,-0.29684806,6.2935596,7.4950514,23.246891,-25.640102,49.417187,16.92286,-1.948335,5.2385535,4.361022,-16.63653,25.896772,51.5183,-24.752378,-2.427021,-5.9146266
119,-1.0295724868774414,-3.870225429534912,86.95291900634766,-0.27157134748905826,-1.074463186441658,-86.96642080532052,-3.442825,12.703522,10.831382,26.17641,10.906413,-12.338419,-3.5514102,-9.198467,-7.5280495,27.476328,3.4667127,9.797109,-2.847406,-0.32821935,6.2864566,7.4935737,23.54806,-25.248476,48.884853,16.744461,-1.9879632,5.396462,4.3127093,-16.595522,25.474228,51.09072,-24.842247,-2.3574247,-5.9551826
120,-1.0347089767456055,-3.8794028759002686,86.49675750732422,-0.23956492128108883,-1.0954935353555424,-86.82072309535366,-3.6112566,12.505143,10.406647,26.580473,10.859801,-12.257124,-3.6438484,-8.928155,-7.0168962,27.846806,3.3554292,9.885468,-2.9370306,-0.40936148,6.3049855,7.4751678,23.856632,-24.883026,48.338833,16.57678,-2.0429964,5.5367656,4.2298017,-16.565065,25.117771,50.663994,-24.925112,-2.3168573,-6.0164404
121,-1.039810061454773,-3.8734800815582275,85.98023986816406,-0.12092076049844586,-1.1279674524604628,-86.68525706845918,-3.8150656,12.2247305,10.040916,27.082209,10.841983,-12.033968,-3.7534995,-8.772207,-6.5100684,28.264742,3.3363442,10.110269,-3.0102026,-0.5816764,6.350985,7.4391856,24.175137,-24.545734,47.780758,16.419333,-2.1212194,5.65619,4.1123505,-16.549456,24.83673,50.23496,-24.987951,-2.3167984,-6.1083755
122,-1.0532491207122803,-3.8592238426208496,85.39501953125,0.06016327502822299,-1.1565425049927935,-86.55497886955273,-4.06428,11.876904,9.696389,27.653875,10.836364,-11.710168,-3.89217,-8.695238,-6.006129,28.724628,3.3638353,10.425667,-3.0721333,-0.81846243,6.408957,7.387811,24.5036,-24.232576,47.206875,16.25651,-2.2213826,5.7677817,3.9660926,-16.548738,24.622087,49.80216,-25.030754,-2.3512752,-6.212884
123,-1.0620803833007812,-3.8369264602661133,84.7698974609375,0.23389661572855813,-1.1862776840747835,-86.42997994243844,-4.2790885,11.567627,9.432789,28.272158,10.420598,-11.381277,-4.0314436,-8.669901,-5.6263704,29.289703,3.0592914,10.642081,-3.1239297,-1.0454131,6.488523,7.3233232,24.840645,-23.94059,46.607506,16.099396,-2.3268182,5.867422,3.7933307,-16.56731,24.460482,49.3609,-25.080454,-2.3988085,-6.319126
124,-1.0465096235275269,-3.8038108348846436,84.11277770996094,0.33348201326639987,-1.2215110248806225,-86.31001376120925,-4.3859053,11.402572,9.302286,28.92534,9.163619,-11.1423235,-4.1464553,-8.672124,-5.4906507,30.028543,2.0435328,10.5673,-3.1664243,-1.1877056,6.5997987,7.248764,25.183298,-23.666018,45.972076,15.96034,-2.4208045,5.951072,3.5995312,-16.611048,24.339104,48.901707,-25.162418,-2.437979,-6.415422
125,-1.0516273975372314,-3.7719156742095947,83.39368438720703,0.31639250177101225,-1.2268343561445951,-86.19537262311486,-4.3431635,11.451527,9.356851,29.568512,6.702877,-11.025326,-4.2690988,-8.689272,-5.7028136,31.018322,0.0928433,9.99988,-3.2007246,-1.1955583,6.7049403,7.1766567,25.529505,-23.402605,45.282585,15.843837,-2.5011544,6.0044894,3.3956354,-16.685587,24.253801,48.413315,-25.285534,-2.469874,-6.4945817
126,-1.0371670722961426,-3.7230989933013916,82.54972839355469,0.22795709591926885,-1.2103296744709873,-86.08510927538494,-4.2165384,11.64636,9.5423,30.249092,3.3364244,-10.991422,-4.4101067,-8.730128,-6.139426,32.219357,-2.5597687,9.10511,-3.2271738,-1.1182042,6.811559,7.0992856,25.878592,-23.154627,44.550564,15.742558,-2.5760384,6.034296,3.1805677,-16.791964,24.211582,47.89587,-25.434162,-2.5035768,-6.562707
127,-1.0220013856887817,-3.6673319339752197,81.63104248046875,0.13781019447496096,-1.2414005282660374,-85.9773433652953,-4.0995393,11.890126,9.753412,31.109112,-0.38886958,-11.023934,-4.511556,-8.807573,-6.5919776,33.521667,-5.612944,8.23513,-3.2448192,-1.0312057,6.9967794,6.988923,26.229115,-22.935667,43.81171,15.652088,-2.6439786,6.0684223,2.9374912,-16.92829,24.217274,47.362614,-25.596737,-2.5297155,-6.6288786
128,-1.0021370649337769,-3.6059093475341797,80.69170379638672,0.10988444331520113,-1.3905484510101156,-85.87089826356554,-4.083067,12.087401,9.889969,32.299137,-3.9361823,-11.087598,-4.5176206,-8.949879,-6.8917317,34.818752,-8.762921,7.7243433,-3.2513855,-1.0099682,7.3377886,6.815891,26.579268,-22.761513,43.104534,15.567015,-2.7036672,6.1351767,2.6495538,-17.090694,24.274797,46.828503,-25.762617,-2.5386112,-6.7024384
129,-0.9898762106895447,-3.5298664569854736,79.73263549804688,0.1935108320790314,-1.7473935236085876,-85.76107862793828,-4.1289663,12.184096,9.908172,33.921494,-7.3059907,-11.196252,-4.318859,-9.225376,-6.995864,36.096172,-12.137014,7.7348166,-3.2506337,-1.1068846,7.92537,6.5776167,26.935965,-22.629131,42.4024,15.444223,-2.7854278,6.2331996,2.315061,-17.27887,24.370249,46.252728,-25.918304,-2.5355425,-6.755302
130,-0.9832847714424133,-3.4475033283233643,78.75367736816406,0.3428453506652061,-2.25051404342598,-85.65152852815355,-4.219368,12.246766,9.870633,35.90131,-10.75723,-11.352627,-3.986385,-9.618575,-7.031023,37.423367,-15.836942,8.055958,-3.2392097,-1.273576,8.694023,6.2897162,27.30154,-22.53409,41.69478,15.299305,-2.879851,6.349953,1.9421301,-17.492867,24.506165,45.642864,-26.073362,-2.523321,-6.792702
131,-0.9808783531188965,-3.3599421977996826,77.7688980102539,0.48631317788548073,-2.7448839912452883,-85.55372862332845,-4.449376,12.3556795,9.839418,38.0803,-14.133421,-11.497477,-3.7323062,-10.0351095,-7.0931783,38.8193,-19.520576,8.458312,-3.2056375,-1.4296871,9.487286,5.9466276,27.661003,-22.489223,41.05104,15.218289,-2.9262831,6.4988685,1.5256827,-17.727053,24.709927,45.091625,-26.253529,-2.4880106,-6.875136
132,-0.9712123274803162,-3.265411138534546,76.78853607177734,0.5489661765531241,-3.0765917686385236,-85.47701915367026,-4.9047513,12.588675,9.872737,40.283188,-17.265562,-11.573895,-3.760482,-10.367114,-7.244275,40.290916,-22.841434,8.718889,-3.1423283,-1.491603,10.147362,5.532317,27.988358,-22.509212,40.55676,15.28996,-2.8636336,6.6960697,1.0524553,-17.973995,25.01057,44.703354,-26.485771,-2.4146762,-7.0648346
133,-0.9654719233512878,-3.164259433746338,75.83951568603516,0.4838793624929152,-3.178662599293174,-85.40628329135055,-5.7301683,13.02822,9.979987,42.64125,-20.209503,-11.554395,-4.2029223,-10.570868,-7.5295634,41.952305,-25.816364,8.7801485,-3.0554237,-1.3982538,10.624865,4.954007,28.283564,-22.658108,40.271458,15.364382,-2.7222164,6.9758863,0.44504303,-18.24309,25.486795,44.526527,-26.754778,-2.2741647,-7.4500794
134,-0.9581062197685242,-3.0437822341918945,74.94334411621094,0.3379324996182923,-3.1428191858139174,-85.34180354869143,-6.824196,13.612226,10.1226845,45.16662,-23.018454,-11.471388,-4.9156575,-10.708878,-7.8912697,43.756123,-28.600012,8.763514,-2.9491057,-1.1997819,11.006741,4.241124,28.544958,-22.907852,40.14692,15.455018,-2.5186405,7.3216414,-0.27121875,-18.535887,26.100132,44.501854,-27.051706,-2.080315,-7.973904
135,-0.9581326246261597,-2.914001941680908,74.16356658935547,0.18029996481736388,-3.0529815476625295,-85.31576922730966,-7.898199,14.198489,10.29398,47.49097,-25.505127,-11.360058,-5.681101,-10.818035,-8.223409,45.446453,-31.040878,8.711935,-2.815624,-0.9789744,11.335996,3.549257,28.733883,-23.135973,40.127823,15.896334,-2.167802,7.6730657,-0.96256304,-18.826797,26.703852,44.587254,-27.41871,-1.8816327,-8.48332
136,-0.9553731679916382,-2.778686285018921,73.54436492919922,0.08079359470148287,-2.9935848346382112,-85.35950541695368,-8.663161,14.643293,10.502522,49.24332,-27.474985,-11.257948,-6.2819266,-10.929002,-8.428278,46.756615,-32.974598,8.668746,-2.6488779,-0.8178749,11.647444,3.018282,28.793379,-23.223703,40.19245,17.031673,-1.5813953,7.96663,-1.5075023,-19.078165,27.155344,44.768772,-27.903744,-1.7268131,-8.829065
137,-0.9179155230522156,-2.675004243850708,73.08261108398438,0.06747126444817515,-2.979170767168993,-85.49641031200636,-9.041484,14.904332,10.786704,50.319733,-28.89325,-11.165265,-6.6970515,-11.05427,-8.4832325,47.653515,-34.372414,8.628194,-2.4359004,-0.7434082,11.94071,2.6508262,28.667286,-23.104492,40.40142,19.213533,-0.63489,8.176691,-1.903416,-19.257973,27.408768,45.11721,-28.660135,-1.6368111,-8.989496
138,-0.8852916955947876,-2.6163079738616943,72.77434539794922,0.099303531189035,-2.967699072076462,-85.70459164929339,-9.180168,15.056637,11.144265,50.90777,-29.850906,-11.06613,-7.024762,-11.168652,-8.446956,48.251717,-35.309055,8.568821,-2.188243,-0.7034561,12.181418,2.341915,28.34526,-22.865372,40.82312,22.191313,0.5926553,8.299531,-2.2369385,-19.363773,27.553526,45.67992,-29.624868,-1.5819466,-9.04533
139,-0.8473318815231323,-2.5908854007720947,72.63362884521484,0.149738245779969,-2.9592774500869443,-85.94746853033128,-9.133264,15.128613,11.527679,51.081074,-30.339285,-10.972335,-7.228323,-11.241631,-8.34773,48.500942,-35.77058,8.510249,-1.9321616,-0.66288596,12.357613,2.0753174,27.855442,-22.623734,41.432987,25.397806,1.8806441,8.31835,-2.502454,-19.408663,27.642834,46.38569,-30.52368,-1.5383836,-8.999037
140,-0.8137037754058838,-2.587864637374878,72.65934753417969,0.18923992318473012,-2.9540006535383116,-86.18822238537975,-8.955843,15.148683,11.8880205,50.91162,-30.347973,-10.893948,-7.2700715,-11.243936,-8.213209,48.351757,-35.74037,8.471945,-1.6898512,-0.59088755,12.465061,1.8564844,27.251657,-22.491167,42.169117,28.26119,3.0109835,8.260245,-2.681916,-19.416471,27.723032,47.13932,-31.079288,-1.4829497,-8.850808
141,-0.779179036617279,-2.5995371341705322,72.8561019897461,0.2118656463739515,-2.9804920141512974,-86.4258912981201,-8.6179495,15.125812,12.219672,50.395153,-29.853748,-10.826481,-7.0983686,-11.161671,-8.033242,47.76285,-35.194263,8.455239,-1.4476275,-0.4860677,12.545002,1.7280881,26.553946,-22.44259,42.98968,30.875885,4.000358,8.137722,-2.7267816,-19.397938,27.74597,47.896137,-31.194227,-1.3968582,-8.541168
142,-0.7431848645210266,-2.611468553543091,73.20537567138672,0.2331313145879953,-3.0293055340387456,-86.67714743163273,-8.107704,15.040833,12.547841,49.50304,-28.869398,-10.765233,-6.7459745,-11.013267,-7.7984133,46.771317,-34.149254,8.449482,-1.1939634,-0.36835104,12.59324,1.6982555,25.763,-22.437843,43.89289,33.462914,4.934131,7.939305,-2.641129,-19.354494,27.699335,48.68182,-31.021881,-1.2975372,-8.086507
143,-0.7011088728904724,-2.6235110759735107,73.69454956054688,0.25670542713607886,-3.043037972552988,-86.93279305470087,-7.510172,14.8826275,12.8652935,48.273773,-27.439661,-10.719397,-6.3075967,-10.82052,-7.533266,45.456905,-32.653057,8.457374,-0.9545285,-0.24109638,12.542805,1.7279927,24.918447,-22.560833,44.86269,35.62705,5.7085466,7.7066054,-2.482781,-19.2979,27.682766,49.495365,-30.657242,-1.2141947,-7.600405
144,-0.6581605672836304,-2.6489806175231934,74.31253051757812,0.2882743772456881,-2.964042386237932,-87.18336680405923,-6.912147,14.643633,13.160551,46.746166,-25.609213,-10.699405,-5.877204,-10.606212,-7.261067,43.89563,-30.752184,8.482704,-0.75254935,-0.11464842,12.333425,1.7903962,24.082134,-22.891071,45.859863,36.958233,6.2254996,7.495422,-2.3012688,-19.24429,27.789299,50.318542,-30.194557,-1.1795934,-7.1940613
145,-0.6123090982437134,-2.706624984741211,75.04991149902344,0.3278263407808967,-2.7572691125638213,-87.4351560753558,-6.318442,14.31799,13.416085,44.846996,-23.336721,-10.715247,-5.458499,-10.372362,-6.965232,42.01534,-28.394186,8.536355,-0.5875125,0.004655674,11.925692,1.9050717,23.301716,-23.522839,46.8766,37.11622,6.432173,7.371608,-2.0986986,-19.20329,28.088165,51.18662,-29.494747,-1.2247132,-6.9295435
146,-0.567730724811554,-2.7757728099823,75.8888168334961,0.37377474530833027,-2.4589255277760644,-87.68993920384959,-5.6987114,13.929234,13.620845,42.59594,-20.627739,-10.765304,-5.015039,-10.12513,-6.624172,39.82173,-25.587523,8.6192045,-0.444462,0.108341925,11.370866,2.1080062,22.584488,-24.38501,47.881214,36.378212,6.392992,7.3015113,-1.8354096,-19.17195,28.507092,52.062214,-28.558022,-1.3261225,-6.7311354
147,-0.5232868194580078,-2.856647491455078,76.80616760253906,0.4228192353518238,-2.118180080067436,-87.93070488558536,-5.089273,13.510833,13.770607,40.172665,-17.592703,-10.842187,-4.5876904,-9.887058,-6.2547445,37.514442,-22.466505,8.720047,-0.32884625,0.1827493,10.744866,2.3930712,21.92839,-25.305014,48.804928,35.258144,6.1891456,7.1924524,-1.506848,-19.14829,28.930521,52.826782,-27.687183,-1.4368974,-6.5050716
148,-0.485090970993042,-2.932516574859619,77.78225708007812,0.4752459170344059,-1.7847231542383681,-88.14106093729882,-4.52303,13.08455,13.871941,37.749153,-14.32991,-10.939416,-4.2161,-9.669946,-5.88209,35.285583,-19.153614,8.828418,-0.25017047,0.21779063,10.124894,2.7587905,21.326374,-26.10544,49.574913,34.271847,5.9039,6.9533353,-1.1099262,-19.130175,29.24587,53.361214,-27.18501,-1.5095009,-6.1605296
149,-0.4505763351917267,-3.0093870162963867,78.7918930053711,0.5382815676694401,-1.476277353569703,-88.31440188784731,-3.986922,12.612295,13.905204,35.30955,-10.711836,-10.9851675,-3.9024441,-9.45279,-5.487101,33.15242,-15.508282,8.870182,-0.22020262,0.2023602,9.524262,3.2369142,20.776167,-26.756353,50.14869,33.47615,5.4996014,6.51393,-0.6178167,-19.115185,29.41875,53.61413,-27.250408,-1.5226568,-5.6243696
150,-0.4156797230243683,-3.078519821166992,79.81526947021484,0.611031579490116,-1.16416413975494,-88.4598780775323,-3.4880366,12.112891,13.860415,32.815556,-6.7484827,-11.020381,-3.6495926,-9.245877,-5.060025,31.060167,-11.532936,8.888636,-0.23540667,0.14590365,8.904307,3.8203619,20.281246,-27.341436,50.57198,32.622066,4.9571395,5.932892,-0.044309095,-19.103745,29.512276,53.657707,-27.683052,-1.5107195,-4.962984
151,-0.3879711329936981,-3.140733480453491,80.8377914428711,0.6800398961572637,-0.8286939259198186,-88.58508401572158,-3.080201,11.661737,13.764537,30.383986,-2.7309046,-11.199504,-3.4871702,-9.083891,-4.639294,29.066036,-7.5489254,9.038929,-0.28346476,0.06980519,8.266053,4.45139,19.841173,-27.85129,50.89943,31.768915,4.3859057,5.3213825,0.55062,-19.09892,29.562834,53.559082,-28.184126,-1.5070157,-4.2965326
152,-0.363578736782074,-3.1958210468292236,81.84687042236328,0.7354952241174517,-0.4511332724861973,-88.6977948312755,-2.8005989,11.3070135,13.641709,28.095644,1.0675353,-11.667145,-3.4205496,-8.98064,-4.2564654,27.178648,-3.8613405,9.464173,-0.3537223,-0.004731477,7.6108794,5.0742683,19.452839,-28.272306,51.184326,30.981966,3.8904517,4.7950635,1.1029853,-19.106949,29.611809,53.388676,-28.451632,-1.5362465,-3.7455676
153,-0.33816587924957275,-3.2342488765716553,82.82782745361328,0.7742325437399444,-0.005396641617889254,-88.80078427614303,-2.637069,10.9838295,13.432002,25.759142,4.8929143,-12.665586,-3.4182777,-8.905229,-3.8603654,25.174269,-0.28357008,10.375772,-0.4505356,-0.0751628,6.911661,5.70086,19.113775,-28.590847,51.407734,30.388315,3.4748924,4.3234897,1.6095828,-19.13083,29.656242,53.13449,-28.456232,-1.582415,-3.306516
154,-0.3158772885799408,-3.2668259143829346,83.7608871459961,0.8041334262956357,0.4912442011354694,-88.88955153230397,-2.5616171,10.648226,13.098695,23.35862,8.810093,-14.063536,-3.4681034,-8.830007,-3.4175735,23.07634,3.2839472,11.641683,-0.5804774,-0.15062238,6.1787496,6.351288,18.82366,-28.811338,51.550488,29.919619,3.0885186,3.8695743,2.098927,-19.17126,29.680182,52.76636,-28.339876,-1.6362727,-2.9268265
155,-0.29661598801612854,-3.2541346549987793,84.59403228759766,0.9144504545212326,1.0115863056401218,-88.9238021734299,-2.5423512,10.269237,12.910623,21.083431,12.363071,-15.000033,-3.6728294,-8.898062,-3.0168278,21.377422,6.3566403,12.900157,-0.76986855,-0.30950356,5.4502516,6.9797025,18.58097,-28.950865,51.665585,29.350079,2.751254,3.5388296,2.5614667,-19.229803,29.704262,52.32041,-28.058443,-1.7262549,-2.6521919
156,-0.2631627917289734,-3.227637767791748,85.32421875,1.0497884343527741,1.4976692497112665,-88.92452737178036,-2.5967202,10.024693,13.077938,19.342821,14.982757,-15.000033,-4.033864,-9.074098,-2.8150628,20.406733,8.540957,13.722651,-0.9864299,-0.49274045,4.795087,7.5415792,18.381704,-29.027473,51.805534,28.455696,2.4830916,3.4340122,2.985938,-19.308638,29.75207,51.835377,-27.567009,-1.8819939,-2.5271425
157,-0.25803881883621216,-3.189347267150879,86.02943420410156,1.059470377145538,1.9326046913226922,-88.94885270910831,-2.8462336,10.1422205,13.341353,18.53594,16.2815,-15.000033,-4.477285,-9.198082,-2.9876852,20.12138,9.730212,13.864168,-1.1769503,-0.5633977,4.235133,8.019342,18.221981,-29.045012,52.000504,27.006392,2.318401,3.6569834,3.3651044,-19.41419,29.851126,51.307247,-26.758652,-2.139423,-2.604282
158,-0.247615784406662,-3.147357702255249,86.6895751953125,0.9853274014761544,2.33916472312152,-88.98156412566262,-3.25008,10.502256,13.693161,18.388128,16.623152,-15.000033,-4.9808545,-9.306119,-3.4650004,20.311665,10.179406,13.563272,-1.3612863,-0.5602103,3.7415624,8.435898,18.100214,-28.9938,52.219032,25.18143,2.2218714,4.129195,3.7102673,-19.548824,29.983541,50.714756,-25.689018,-2.4782524,-2.8400278
159,-0.24767595529556274,-3.1030702590942383,87.26132202148438,0.8662054541836255,2.6741922268855527,-89.02133289505194,-3.6753187,10.984232,14.085911,18.636581,16.364521,-15.000033,-5.4445243,-9.391883,-4.0787883,20.765587,10.189641,13.038982,-1.5363594,-0.51671803,3.3516088,8.808376,18.016151,-28.876266,52.422134,23.369083,2.115047,4.6798406,4.03354,-19.705923,30.106157,50.077866,-24.55703,-2.842583,-3.137031
160,-0.24510405957698822,-3.047476053237915,87.75688171386719,0.7597709371994594,2.899215942015755,-89.06047791209076,-3.9826396,11.463369,14.651729,19.000608,15.8814745,-14.43633,-5.789872,-9.470816,-4.6466007,21.294521,10.059868,12.525868,-1.701671,-0.48111683,3.097158,9.153429,17.969732,-28.69665,52.5715,21.957378,1.9364008,5.135737,4.344693,-19.872017,30.174507,49.422115,-23.56202,-3.1715958,-3.4033182
161,-0.24675261974334717,-2.9758501052856445,88.18781280517578,0.7371822036976076,3.014200039313992,-89.06842791787918,-4.1354113,11.853103,15.31376,19.416313,15.119905,-13.659543,-6.0828037,-9.640909,-5.1663494,22.072971,9.686078,12.014929,-1.8882871,-0.53527856,2.9808729,9.470863,17.962435,-28.426706,52.664997,21.067417,1.6646235,5.505757,4.632112,-20.038866,30.19445,48.750504,-22.682615,-3.4685261,-3.6454237
162,-0.24156004190444946,-2.902374505996704,88.5588607788086,0.7113370597767067,3.0271302927213983,-89.07445203946122,-4.212174,12.295871,16.028639,20.07792,13.897434,-12.738197,-6.2979975,-9.813806,-5.7163653,23.063974,9.0019245,11.399723,-2.0703013,-0.5966545,2.995833,9.755239,17.994688,-28.074745,52.719585,20.486109,1.3407592,5.864359,4.8865223,-20.204508,30.186924,48.064453,-21.838694,-3.7597206,-3.9047174
163,-0.24770304560661316,-2.8325412273406982,88.86486053466797,0.6853128121590604,2.9570911698765605,-89.08256100645042,-4.197217,12.726693,16.696651,20.813824,12.574589,-11.877054,-6.405413,-9.958331,-6.2121706,24.06418,8.213856,10.816623,-2.24158,-0.66016114,3.1038945,10.013481,18.062954,-27.703522,52.72947,20.099745,1.0098026,6.1370273,5.123451,-20.362549,30.12552,47.388317,-21.14188,-4.0131354,-4.147513
164,-0.2557457685470581,-2.7692368030548096,89.10881042480469,0.6619569455842016,2.8230870815902938,-89.0970639129046,-4.0814095,13.085589,17.23843,21.46406,11.5140505,-11.267782,-6.370846,-10.04112,-6.5781283,24.858688,7.533729,10.399815,-2.3916225,-0.71865785,3.2668886,10.246003,18.161303,-27.380766,52.695255,19.793272,0.7163108,6.249665,5.3604336,-20.502628,29.979498,46.746246,-20.703568,-4.1950116,-4.3416524
165,-0.2579216957092285,-2.7022125720977783,89.29322052001953,0.6468063624456765,2.59623995240227,-89.12236550094865,-3.8071742,13.3626795,17.692043,21.988407,10.771513,-10.965412,-6.1425986,-10.056542,-6.8053107,25.394732,6.9782376,10.20477,-2.5107436,-0.77630424,3.5062056,10.448293,18.286491,-27.11142,52.619667,19.57499,0.4577187,6.139026,5.60351,-20.61625,29.717623,46.145596,-20.600441,-4.28675,-4.4724455
166,-0.2671034634113312,-2.641383647918701,89.41246032714844,0.6369929963564241,2.27795704851118,-89.15538953898911,-3.4027114,13.588412,18.091858,22.47947,10.17218,-10.857555,-5.754571,-10.016901,-6.934687,25.783813,6.450546,10.15334,-2.602202,-0.8362254,3.829128,10.614815,18.437944,-26.870005,52.512424,19.49042,0.217784,5.8626013,5.839523,-20.70043,29.360365,45.583656,-20.759089,-4.3074884,-4.5626216
167,-0.2751719057559967,-2.584524154663086,89.47450256347656,0.6246872682996043,1.9326424536860582,-89.18921365341204,-2.978398,13.76082,18.364767,22.955069,9.739362,-10.879901,-5.311986,-9.920423,-6.966577,26.080109,5.987772,10.177249,-2.6766553,-0.89252555,4.1752925,10.743615,18.613852,-26.67625,52.387123,19.481989,0.018976623,5.5261493,6.0521092,-20.756874,28.954597,45.0773,-21.068546,-4.2797804,-4.636547
168,-0.28418755531311035,-2.522794246673584,89.48360443115234,0.6015845978961121,1.6241414902973392,-89.21713851744958,-2.6473427,13.879915,18.434057,23.437225,9.492916,-10.969906,-4.9191546,-9.767491,-6.899355,26.337688,5.626771,10.20913,-2.7439506,-0.93740934,4.485099,10.83057,18.81104,-26.55118,52.25898,19.492846,-0.11647601,5.2351966,6.228786,-20.789164,28.546553,44.63735,-21.416874,-4.226335,-4.7180448
169,-0.2966884672641754,-2.468843698501587,89.43922424316406,0.562682771424007,1.3491111724114078,-89.23810185935268,-2.413722,13.9448595,18.279924,23.92488,9.514719,-11.164899,-4.5712957,-9.539173,-6.7040343,26.53382,5.4047394,10.2599945,-2.8057592,-0.9657558,4.760585,10.864874,19.02722,-26.508179,52.14066,19.506258,-0.16172789,4.9871435,6.3677883,-20.797602,28.135387,44.269863,-21.82773,-4.1364098,-4.8049164
170,-0.31251150369644165,-2.40201997756958,89.33885192871094,0.5140024931426028,1.080180267320337,-89.25529024931188,-2.228559,13.95315,17.942175,24.411894,9.765708,-11.483434,-4.223433,-9.244468,-6.3905163,26.653711,5.2918763,10.356419,-2.8575134,-0.9811721,5.0275173,10.849658,19.261028,-26.533455,52.02448,19.55482,-0.13625729,4.736587,6.4759455,-20.780354,27.701998,43.96611,-22.341694,-4.0031533,-4.8861456
171,-0.3248882591724396,-2.33474063873291,89.18225860595703,0.4638226795372517,0.8456179508464222,-89.26811104339816,-2.1182268,13.902085,17.433584,24.898743,10.091331,-11.835051,-3.9195678,-8.925873,-6.014482,26.76253,5.225348,10.455367,-2.901014,-0.9912242,5.260777,10.799367,19.511755,-26.606977,51.89783,19.654823,-0.08649887,4.5251865,6.550955,-20.743473,27.264069,43.7204,-22.875214,-3.8550558,-4.973424
172,-0.33673930168151855,-2.254645824432373,88.97061157226562,0.4195973053430544,0.6735244483661008,-89.2760599841433,-2.111258,13.79176,16.769068,25.392712,10.334844,-12.127007,-3.7050538,-8.623772,-5.6323643,26.92722,5.141499,10.5139885,-2.939681,-1.0011951,5.4370537,10.732193,19.777884,-26.705751,51.743458,19.82318,-0.05903977,4.39368,6.594562,-20.696152,26.841103,43.51817,-23.342485,-3.7203982,-5.0784044
173,-0.34849968552589417,-2.189544200897217,88.7003402709961,0.3798768632490925,0.5728968252710327,-89.27867434408377,-2.2210505,13.602507,15.88796,25.886593,10.463701,-12.355316,-3.5935292,-8.321559,-5.213642,27.140831,5.0456386,10.515908,-2.9769847,-1.0054007,5.545103,10.64738,20.058226,-26.83706,51.567493,20.110779,-0.061644256,4.365221,6.609932,-20.644922,26.432411,43.359608,-23.739128,-3.5975604,-5.2060814
174,-0.35965290665626526,-2.1023950576782227,88.38127899169922,0.341978192913492,0.5277916914292408,-89.27651805415277,-2.4267209,13.335389,14.806152,26.381334,10.55644,-12.565823,-3.5594532,-8.006045,-4.743797,27.376888,4.9639826,10.486684,-3.0110893,-1.0016172,5.600711,10.5370455,20.35197,-27.007515,51.374325,20.493734,-0.070746735,4.413819,6.599866,-20.591906,26.029837,43.24218,-24.102596,-3.4743483,-5.3488417
175,-0.3658129572868347,-2.0230705738067627,88.0008773803711,0.31264246626773373,0.528980152602179,-89.27115403528907,-2.7093837,13.026786,13.653096,26.90261,10.626014,-12.735876,-3.5908809,-7.7212033,-4.303648,27.671799,4.86596,10.445864,-3.038343,-0.9999157,5.620751,10.409443,20.65827,-27.19302,51.143997,20.876476,-0.085955665,4.507009,6.56505,-20.541079,25.6423,43.14869,-24.411,-3.3627653,-5.5003433
176,-0.3667391240596771,-1.9364310503005981,87.56521606445312,0.2991054480922538,0.5672166711454962,-89.2636295334041,-3.0522041,12.715574,12.557368,27.47285,10.687993,-12.841161,-3.6758223,-7.511219,-3.9740114,28.059578,4.7215333,10.412402,-3.057388,-1.0095553,5.6222415,10.274482,20.976553,-27.366774,50.854553,21.163918,-0.10762082,4.612229,6.505218,-20.497189,25.281847,43.06141,-24.641184,-3.2751045,-5.6547027
177,-0.37225717306137085,-1.8375998735427856,87.0752182006836,0.31040684251232203,0.6700949597644089,-89.25194575756798,-3.5266993,12.375324,11.454416,28.095795,10.979526,-12.867096,-3.8461814,-7.3985286,-3.7923825,28.535479,4.6984177,10.462673,-3.0698016,-1.0366126,5.5785823,10.134201,21.307274,-27.530579,50.495422,21.340183,-0.13145289,4.735748,6.4237247,-20.462162,24.948832,42.98041,-24.766304,-3.2189724,-5.82296
178,-0.3735942840576172,-1.7494065761566162,86.52571105957031,0.337164888284451,0.832140248323105,-89.23605702927259,-4.1137495,11.993852,10.309919,28.756735,11.419381,-12.832417,-4.0962296,-7.3565173,-3.7103753,29.08371,4.7546244,10.56168,-3.076847,-1.0732377,5.492085,9.985366,21.650297,-27.694212,50.07693,21.453632,-0.1588561,4.889676,6.3215365,-20.436483,24.638916,42.909687,-24.804182,-3.186808,-6.0041065
179,-0.37222373485565186,-1.6478620767593384,85.92098236083984,0.3681038565396361,0.9954429123056676,-89.22107413668141,-4.670991,11.642622,9.295151,29.461397,11.539307,-12.752085,-4.364384,-7.3565803,-3.6789062,29.735682,4.5394998,10.561172,-3.0769472,-1.108837,5.42223,9.829847,22.004072,-27.842539,49.610924,21.503996,-0.19928983,5.049823,6.1936107,-20.425257,24.357027,42.83877,-24.80065,-3.1683557,-6.1741333
180,-0.36876150965690613,-1.5338242053985596,85.2483139038086,0.3899702075502988,1.1023843715663868,-89.21210395306642,-5.0693803,11.403039,8.57547,30.235271,10.858909,-12.631853,-4.587933,-7.3681884,-3.647188,30.519402,3.7032614,10.314902,-3.070042,-1.1314704,5.428643,9.67259,22.365763,-27.957298,49.10641,21.493443,-0.26257446,5.191901,6.037414,-20.435308,24.109459,42.752758,-24.800312,-3.1527922,-6.3085403
181,-0.3578632175922394,-1.424122929573059,84.56234741210938,0.39706525674238713,1.168010951045031,-89.20621042632811,-5.297851,11.326218,8.234595,31.101597,9.131762,-12.415384,-4.810048,-7.3761888,-3.595113,31.517422,2.1169899,9.62793,-3.0619242,-1.1323373,5.4966803,9.516504,22.735605,-28.035648,48.555927,21.405941,-0.35759383,5.309882,5.8542314,-20.47295,23.89898,42.64295,-24.80126,-3.1417637,-6.3934407
182,-0.3508453369140625,-1.2944129705429077,83.76751708984375,0.39913323129791434,1.2139555969397755,-89.20119104916161,-5.4345016,11.365416,8.1497345,32.06199,6.639208,-12.124731,-5.0524354,-7.3874946,-3.5270748,32.7027,-0.02343229,8.636576,-3.0525987,-1.1198736,5.6043835,9.360841,23.113464,-28.084959,47.95562,21.246958,-0.47769466,5.416009,5.648786,-20.540064,23.722637,42.511856,-24.782381,-3.139556,-6.443251
183,-0.33192694187164307,-1.1761635541915894,82.88738250732422,0.405047306044493,1.1929206730592072,-89.20346946064902,-5.494824,11.462372,8.179759,33.130936,3.6847973,-11.878151,-5.217322,-7.40713,-3.435828,33.93164,-2.5878108,7.6891885,-3.0334904,-1.1064982,5.799759,9.199434,23.494602,-28.104874,47.32555,21.047678,-0.60880953,5.51366,5.421438,-20.634691,23.580378,42.36345,-24.759022,-3.1393855,-6.4762053
184,-0.3208790123462677,-1.041964054107666,81.94465637207031,0.4218339733197319,1.0575467076459,-89.22002109348546,-5.4838266,11.562931,8.2054405,34.30608,0.574217,-11.778255,-5.204715,-7.45504,-3.3397315,35.0569,-5.450343,7.1261864,-2.9957175,-1.1025474,6.129886,9.025175,23.871044,-28.09426,46.689156,20.840717,-0.7365205,5.6073213,5.1703396,-20.752264,23.472855,42.205173,-24.746994,-3.1342702,-6.511013
185,-0.3068940043449402,-0.9096614122390747,80.94010925292969,0.46724744806838325,0.7489066695789631,-89.25340051272333,-5.313132,11.643749,8.226341,35.56752,-2.804966,-11.879781,-4.8875966,-7.5793366,-3.2505345,35.990818,-8.793588,7.1146317,-2.9394546,-1.126848,6.6441913,8.860234,24.240265,-28.028753,46.005894,20.628042,-0.8549751,5.673814,4.9101534,-20.89328,23.37908,42.00375,-24.726828,-3.1375985,-6.5247602
186,-0.28544434905052185,-0.7750717401504517,79.91691589355469,0.5345126744110577,0.3097670962639538,-89.3000008398448,-5.0205398,11.747492,8.308078,36.939133,-6.5614295,-12.116756,-4.366824,-7.7783737,-3.1913528,36.846565,-12.624302,7.4419365,-2.8690076,-1.1664968,7.3021984,8.698678,24.602228,-27.916656,45.283733,20.395342,-0.97229797,5.719465,4.636598,-21.057856,23.30702,41.768017,-24.697945,-3.1479557,-6.516769
187,-0.25325432419776917,-0.6370576620101929,78.88236236572266,0.585901897499666,-0.15634311957540406,-89.35847435612791,-4.797237,11.921063,8.439901,38.487946,-10.389344,-12.399921,-3.8809829,-8.001967,-3.2019286,37.77823,-16.558588,7.882033,-2.7812715,-1.1846054,8.015507,8.484544,24.950502,-27.808195,44.628872,20.150724,-1.0956951,5.794462,4.3111143,-21.241398,23.300722,41.582344,-24.706413,-3.1357398,-6.5408654
188,-0.23501673340797424,-0.5062638521194458,77.84101104736328,0.585406894651036,-0.5480097073341853,-89.426863911918,-4.8214707,12.206117,8.602357,40.26552,-13.979526,-12.640305,-3.6593254,-8.182152,-3.2883039,38.933712,-20.21634,8.214798,-2.6737347,-1.1433831,8.696143,8.15575,25.273752,-27.75565,44.157413,19.90383,-1.2325711,5.950414,3.891838,-21.436285,23.403975,41.537655,-24.800142,-3.0712333,-6.6520195
189,-0.21411287784576416,-0.36032071709632874,76.79837799072266,0.5005782925969116,-0.8733229179401564,-89.50591780970079,-5.172963,12.666993,8.779821,42.44544,-17.38694,-12.849054,-3.7776175,-8.282461,-3.4568312,40.46963,-23.6377,8.4179945,-2.5383708,-1.0046071,9.369809,7.639082,25.58434,-27.82856,43.8808,19.535141,-1.4297107,6.214463,3.3014314,-21.658606,23.708546,41.657017,-24.86133,-2.957269,-6.9221263
190,-0.1923723667860031,-0.1900186389684677,75.78194427490234,0.35365561901598597,-1.1761862268766479,-89.59559020341241,-5.7348886,13.268122,8.981854,44.939224,-20.737543,-13.059711,-4.10545,-8.348087,-3.6918895,42.273266,-26.990587,8.604179,-2.3821063,-0.7920588,10.069639,6.986219,25.883732,-27.979605,43.740234,19.080393,-1.6700549,6.553689,2.5840497,-21.911175,24.16428,41.886578,-24.905287,-2.8058069,-7.302376
191,-0.17746996879577637,0.0015444178134202957,74.8122329711914,0.20011757396792162,-1.4097048673610535,-89.69274457043625,-6.38139,13.892031,9.218623,47.385128,-23.818914,-13.217319,-4.548787,-8.41673,-3.9441702,44.06532,-30.078863,8.751751,-2.2218637,-0.5636097,10.717084,6.31116,26.130268,-28.083515,43.767334,18.789385,-1.8629092,6.935362,1.8722109,-22.152784,24.59746,42.219414,-25.185205,-2.5970492,-7.6682887
192,-0.16888318955898285,0.1986708790063858,73.9500503540039,0.09422648255625593,-1.5269946005128485,-89.79498602396076,-6.9868765,14.415156,9.502271,49.41611,-26.40926,-13.267707,-5.0072227,-8.5178795,-4.1665635,45.547653,-32.690556,8.837391,-2.0711672,-0.38015357,11.224732,5.7013493,26.25878,-28.021685,44.041195,18.915195,-1.9132981,7.3342295,1.2826201,-22.318165,24.835735,42.68462,-25.964243,-2.3076403,-7.8978777
193,-0.16939610242843628,0.37583690881729126,73.25509643554688,0.044816555774057396,-1.463180577033624,-89.90663712734049,-7.609023,14.827432,9.879319,51.002625,-28.477482,-13.152286,-5.5386686,-8.655961,-4.3760753,46.677227,-34.80429,8.823493,-1.9253656,-0.26051897,11.522241,5.0658283,26.231709,-27.852608,44.76983,19.427277,-1.9029709,7.8191752,0.74775374,-22.355433,24.910355,43.43604,-27.426188,-1.9814403,-7.9465814
194,-0.12924382090568542,0.4935292899608612,72.72150421142578,0.02409806307373943,-1.2612200558771298,-90.02788298143705,-8.274678,15.18106,10.3288765,52.303455,-30.128584,-12.912794,-6.156388,-8.806301,-4.5872746,47.578083,-36.515564,8.730088,-1.8033094,-0.16544084,11.652836,4.3582606,26.018723,-27.58503,45.940548,20.24809,-1.8400271,8.386645,0.18112393,-22.277435,24.920082,44.491943,-29.402485,-1.6125748,-7.8834867
195,-0.07616406679153442,0.5420495867729187,72.33597564697266,0.03048496329716344,-1.0353631924131865,-90.15032023543392,-8.8116865,15.437225,10.7735815,53.224102,-31.337456,-12.6462145,-6.6950045,-8.952675,-4.753438,48.200787,-37.779274,8.618584,-1.6778874,-0.096186824,11.697866,3.697062,25.631891,-27.125143,47.292522,21.518232,-1.5125656,8.894927,-0.27786613,-22.07371,24.70833,45.670414,-31.656883,-1.1111957,-7.7480016
196,-0.019698357209563255,0.547673225402832,72.10858154296875,0.06675909601518738,-0.9002122414841802,-90.2654308105344,-9.055031,15.557467,11.1379385,53.678833,-32.07162,-12.4496975,-6.991726,-9.08022,-4.82892,48.498543,-38.548096,8.549022,-1.5485274,-0.0499447,11.740145,3.2296667,25.073019,-26.352919,48.548813,23.387129,-0.7166894,9.184745,-0.503648,-21.746588,24.159052,46.787666,-33.94187,-0.38478994,-7.5740347
197,0.024518128484487534,0.5272605419158936,72.04217529296875,0.14439695041165876,-0.9221556960449304,-90.37725216237108,-8.899324,15.507985,11.413428,53.604546,-32.30783,-12.346246,-6.958768,-9.194729,-4.7827206,48.447186,-38.802994,8.530793,-1.3912455,-0.0451854,11.848017,3.0219715,24.29913,-25.075716,49.647694,26.30967,0.77297175,9.118877,-0.4090496,-21.264578,23.09934,47.78099,-36.54396,0.67535436,-7.2741876
198,0.057164691388607025,0.49729055166244507,72.1443099975586,0.26260636314251085,-1.0283221503128928,-90.48839859706075,-8.454517,15.311371,11.642903,53.059193,-32.064186,-12.282786,-6.697924,-9.298429,-4.64896,48.074207,-38.570866,8.529032,-1.218009,-0.07637637,11.948555,2.9593344,23.289993,-23.429268,50.772217,30.093956,2.7608001,8.715629,-0.102282055,-20.611174,21.662966,48.78511,-39.48932,1.974097,-6.822075
199,0.09000181406736374,0.45254310965538025,72.4077377319336,0.3906626104915663,-1.12493528670033,-90.58852540699196,-7.8775496,15.017653,11.831372,52.13315,-31.36787,-12.246624,-6.3310323,-9.374328,-4.4803643,47.414,-37.87057,8.540105,-1.0718613,-0.10658418,11.924054,2.9423194,22.116274,-21.787033,51.965687,33.905994,4.8254485,8.100472,0.27111134,-19.835533,20.176472,49.87425,-42.129562,3.3214118,-6.3758574
200,0.12531358003616333,0.3857681155204773,72.82099151611328,0.500658921610502,-1.1173134554500415,-90.66667056430724,-7.3302703,14.679432,11.981099,50.924026,-30.245972,-12.223311,-5.9814644,-9.405718,-4.327304,46.504345,-36.724728,8.561101,-0.99182785,-0.10288437,11.684598,2.9347937,20.917063,-20.498085,53.168842,36.873833,6.5916038,7.5003037,0.6138381,-19.037169,18.938866,51.0422,-43.79456,4.55477,-6.1369805
201,0.15550747513771057,0.2924802303314209,73.3697738647461,0.5828839751826598,-0.9539140801888546,-90.72063411646685,-6.860046,14.3077,12.074984,49.395794,-28.673437,-12.220237,-5.6748323,-9.385534,-4.195241,45.28308,-35.088314,8.600139,-0.98337066,-0.05790674,11.206451,3.0367389,19.776001,-19.571682,54.240005,38.802963,8.184561,7.043435,0.98394644,-18.267649,17.936398,52.207073,-44.15972,5.78666,-6.3178177
202,0.18644340336322784,0.16261081397533417,74.04315948486328,0.6555654430123804,-0.6929998617675596,-90.7553241535891,-6.3844304,13.8860855,12.103392,47.52407,-26.653107,-12.242221,-5.3521996,-9.329796,-4.051357,43.764133,-32.97503,8.658286,-1.0201509,0.0024092263,10.573772,3.310906,18.697325,-18.839632,55.109673,40.11618,9.741381,6.6191273,1.4595243,-17.52149,17.018494,53.289818,-43.59629,7.0524154,-6.795269
203,0.2214571237564087,0.025358015671372414,74.82083129882812,0.7257153492901267,-0.4048367958842948,-90.77051265066308,-5.870423,13.428169,12.08161,45.4212,-24.255068,-12.273491,-5.011028,-9.257066,-3.887574,42.098785,-30.48439,8.723782,-1.0923046,0.06062489,9.867562,3.690372,17.7161,-18.37086,55.803215,40.842007,10.941183,6.174152,2.00337,-16.829746,16.26477,54.25814,-42.478058,8.085375,-7.282791
204,0.25508493185043335,-0.13382819294929504,75.68424987792969,0.8022841991879358,-0.16007792003761698,-90.7662869020075,-5.285735,12.940562,12.029402,43.199043,-21.543756,-12.29928,-4.649711,-9.182851,-3.6984942,40.438896,-27.712013,8.786089,-1.1880987,0.099851556,9.173916,4.119294,16.882301,-18.232962,56.327038,40.998734,11.456192,5.6514926,2.6034434,-16.24202,15.750889,55.0499,-41.191273,8.6286745,-7.458981
205,0.292598694562912,-0.2988671660423279,76.61507415771484,0.8948749416234477,0.0054350513580089,-90.73838904843402,-4.561298,12.39964,11.948886,40.802925,-18.443077,-12.297303,-4.228335,-9.114788,-3.4683056,38.79593,-24.577665,8.826165,-1.3169911,0.11194934,8.513347,4.633345,16.240496,-18.510197,56.645542,40.438255,11.050384,4.955596,3.3103812,-15.798293,15.514064,55.606304,-39.61764,8.566373,-7.1982985
206,0.3131793737411499,-0.47040531039237976,77.60387420654297,0.9973495793342783,0.13524751175403577,-90.68813966817586,-3.7460964,11.823518,11.815874,38.223824,-14.960501,-12.290574,-3.7729151,-9.0539055,-3.1958537,37.120968,-21.073832,8.870898,-1.4769015,0.10490741,7.8516455,5.269057,15.788456,-19.147726,56.734596,39.173252,9.955971,4.1279597,4.151669,-15.493779,15.500287,55.926884,-37.61688,8.057946,-6.6480036
207,0.342284619808197,-0.6447928547859192,78.62928009033203,1.095782254386917,0.277675112090597,-90.62431330696506,-2.9828253,11.266638,11.619551,35.6347,-11.275505,-12.330248,-3.376307,-8.996523,-2.8989007,35.46347,-17.392838,8.974387,-1.6422013,0.08691644,7.187907,5.9656944,15.492711,-19.99862,56.63144,37.472874,8.543385,3.312849,5.0716486,-15.300128,15.653011,56.053783,-35.553112,7.27386,-5.8864055
208,0.3781053423881531,-0.8199898600578308,79.67030334472656,1.1762683394180116,0.48140390874533173,-90.55561228443737,-2.4068518,10.770862,11.350938,33.19065,-7.551958,-12.465729,-3.1244936,-8.931189,-2.5923655,33.857265,-13.7150955,9.182195,-1.7919154,0.067505136,6.516444,6.658761,15.30596,-20.909985,56.382317,35.623383,7.1711144,2.6789882,5.997163,-15.182309,15.922685,56.0508,-33.791767,6.3759465,-5.0147643
209,0.40336862206459045,-0.9767163395881653,80.72066497802734,1.234017135424939,0.7683570738578179,-90.47759227381046,-2.063542,10.292389,10.942278,30.849556,-3.5792816,-12.715745,-3.0465722,-8.812587,-2.228258,32.22786,-9.819324,9.505383,-1.9307196,0.053663544,5.8007755,7.3434253,15.205689,-21.936342,55.966278,33.37929,5.6822777,2.1807334,6.9208865,-15.130974,16.35116,55.94813,-32.351227,5.2974505,-3.9804065
210,0.4306674599647522,-1.1318271160125732,81.75772857666016,1.278853253450887,1.1106501836505782,-90.3879802784197,-1.889484,9.823598,10.39989,28.578114,0.64223003,-13.069561,-3.1017427,-8.663611,-1.7905684,30.594332,-5.697825,9.937909,-2.0815783,0.036897063,5.0438356,8.037608,15.194913,-23.106125,55.40541,30.710882,3.9730725,1.7204864,7.841224,-15.149028,16.963936,55.75824,-31.049915,3.999909,-2.7563121
211,0.451150119304657,-1.2702637910842896,82.77082824707031,1.320336682330076,1.4824577141933168,-90.29858896935389,-1.8367949,9.436547,9.848832,26.498764,4.6496215,-13.511048,-3.255532,-8.556629,-1.3596652,29.0988,-1.8369088,10.470758,-2.2017918,0.016884593,4.3009253,8.682881,15.262137,-24.29848,54.819546,28.220026,2.457053,1.4701349,8.753022,-15.232251,17.632593,55.46388,-29.967669,2.66187,-1.5022688
212,0.4632258713245392,-1.373128056526184,83.7243881225586,1.3658955805441841,1.8560319001792414,-90.22135310713878,-1.8489679,9.187647,9.440713,24.715754,7.996849,-13.996556,-3.4571075,-8.5490885,-1.0431987,27.854143,1.2885722,11.063589,-2.321223,-0.021235842,3.631456,9.273042,15.390485,-25.285177,54.2984,26.55439,1.5228206,1.66209,9.570447,-15.349709,18.307861,55.115097,-29.194849,1.4581943,-0.40171355
213,0.4691772758960724,-1.4493361711502075,84.5645523071289,1.4199290621488334,2.2478317878916223,-90.15180557756075,-1.9078158,9.060587,9.194825,23.140074,10.7291,-14.639695,-3.6692955,-8.660265,-0.9148902,26.771091,3.6135852,11.828918,-2.440144,-0.089519106,3.0226655,9.7683325,15.573098,-26.069574,53.89431,26.112509,1.4941553,2.6430683,10.279947,-15.489735,19.006788,54.719727,-28.841469,0.34628496,0.52479064
214,0.4728553295135498,-1.4974302053451538,85.30038452148438,1.5624962745577204,2.676478247249136,-90.05454969673184,-1.987835,8.900815,9.209302,21.575712,13.148266,-15.000033,-3.9636874,-8.9460535,-0.9088954,25.88433,5.3540764,12.748327,-2.590105,-0.25998327,2.4359453,10.192627,15.808586,-26.72803,53.55021,26.471886,2.0907066,4.23772,10.901012,-15.653956,19.760168,54.27869,-28.838781,-0.75339305,1.3409095
215,0.48119550943374634,-1.5360203981399536,86.01275634765625,1.7102899633092137,3.086868263874229,-89.96806161824499,-2.0974917,8.805097,9.487889,20.245768,15.026258,-15.000033,-4.326236,-9.260478,-0.985357,25.275932,6.5799737,13.501359,-2.7330515,-0.43850425,1.9280622,10.597556,16.086426,-27.211689,53.217766,27.037117,2.7884345,5.922851,11.444896,-15.837471,20.492668,53.796215,-29.028442,-1.7238846,1.9912406
216,0.4687296152114868,-1.5693148374557495,86.68950653076172,1.7636414715618547,3.4220189369974583,-89.9376820289923,-2.2684827,8.889708,9.8667555,19.434488,16.081966,-15.000033,-4.732272,-9.449198,-1.1131333,25.015598,7.3527975,13.760827,-2.8265402,-0.5214312,1.5563575,11.0248165,16.394224,-27.472343,52.859825,27.249504,3.026774,7.1887236,11.918472,-16.030102,21.133358,53.280563,-29.256264,-2.4415638,2.4265635
217,0.45579349994659424,-1.5779190063476562,87.27938842773438,1.6833169218923605,3.675461600033234,-89.9904564409552,-2.550641,9.262829,10.386497,19.360199,15.980214,-15.000033,-5.243249,-9.488428,-1.3317038,25.297482,7.4906373,13.271379,-2.8423088,-0.473172,1.3368891,11.472907,16.7271,-27.456089,52.50222,27.050879,2.5817485,7.9430537,12.305703,-16.227116,21.688755,52.7225,-29.560783,-2.8295174,2.6101701
218,0.4441583454608917,-1.5747023820877075,87.79911041259766,1.5070658805018502,3.86983520814846,-90.10382116117411,-2.899243,9.882922,11.178564,19.827312,14.9326935,-14.603512,-5.8277373,-9.445387,-1.6524633,25.99625,7.024908,12.259234,-2.8020072,-0.3319501,1.2421848,11.914718,17.084642,-27.204557,52.16517,26.722357,1.7716645,8.441356,12.602271,-16.428587,22.193722,52.129517,-30.007074,-2.967454,2.5748167
219,0.44236379861831665,-1.5655370950698853,88.25399780273438,1.4413664217950668,4.0251683984546816,-90.17817181520437,-3.1426115,10.401313,12.274494,20.249502,13.61748,-13.518629,-6.453229,-9.547367,-1.9600121,26.918869,6.2210474,11.182449,-2.8027115,-0.291324,1.218632,12.350575,17.461006,-26.815685,51.809032,26.23247,0.82631683,8.70412,12.837045,-16.627838,22.614159,51.53382,-30.48176,-2.9627328,2.3798192
220,0.4508567154407501,-1.5561076402664185,88.65164184570312,1.383490837258717,4.111297681630654,-90.23008173391453,-3.282675,10.8257265,13.220333,20.562372,12.450687,-12.63109,-6.883222,-9.613245,-2.2224963,27.527998,5.5530415,10.38978,-2.8260489,-0.25657815,1.2781184,12.77438,17.847635,-26.39412,51.401684,25.544832,-0.02243281,8.754275,13.038777,-16.815638,22.908688,50.971546,-30.872437,-2.9235425,2.0829387
221,0.4551768898963928,-1.545716404914856,88.98030853271484,1.3223289250658758,4.1068535519202145,-90.26618251683041,-3.3069634,11.168221,14.0135765,20.785753,11.439984,-11.929094,-7.068589,-9.6160555,-2.4369764,27.749537,5.089958,9.959984,-2.8633528,-0.21519881,1.4421461,13.187657,18.239592,-25.9408,50.935116,24.541773,-0.78068733,8.516909,13.205761,-16.986835,23.054258,50.453674,-31.19325,-2.8337257,1.6464415
222,0.4640956521034241,-1.5417871475219727,89.24842834472656,1.2519539929414736,4.023785154367492,-90.29729261666628,-3.253603,11.486125,14.751444,21.040354,10.355185,-11.273217,-7.0967417,-9.57063,-2.6324797,27.787842,4.6399136,9.694282,-2.900437,-0.16236772,1.7063181,13.584171,18.635216,-25.418823,50.441658,23.268324,-1.5378796,7.9994054,13.326015,-17.139812,23.071114,49.96768,-31.490524,-2.6484776,1.0576984
223,0.48070791363716125,-1.5396138429641724,89.45191192626953,1.1768126843847644,3.897752069195006,-90.31017781731315,-3.1535993,11.751516,15.385689,21.25296,9.362119,-10.762751,-7.004458,-9.490001,-2.8186016,27.634901,4.2362294,9.554665,-2.9444833,-0.10659294,2.022869,13.942843,19.030567,-24.874727,49.952618,21.937355,-2.1900678,7.3595824,13.411496,-17.271923,22.981833,49.518406,-31.703022,-2.4359696,0.40918854
224,0.4952338635921478,-1.5409255027770996,89.59040069580078,1.100803716082354,3.764491267616367,-90.29184402035173,-3.039337,11.939878,15.871825,21.351416,8.625197,-10.498443,-6.8264065,-9.3862,-3.0049903,27.280104,3.9114463,9.503661,-2.9993176,-0.05524327,2.3440826,14.236497,19.420246,-24.359118,49.504196,20.767784,-2.644137,6.7656035,13.476526,-17.379707,22.804487,49.109364,-31.773525,-2.2668602,-0.20790435
225,0.5069997906684875,-1.5438971519470215,89.67733001708984,1.0208799609406132,3.6093412088221486,-90.2342603589149,-2.872499,12.039126,16.20457,21.271204,8.196293,-10.576847,-6.498355,-9.251478,-3.2081163,26.605156,3.6696951,9.5947895,-3.0725465,-0.0066087306,2.6801631,14.45946,19.798914,-23.8699,49.097286,19.75739,-2.838938,6.2092857,13.523471,-17.457975,22.520914,48.749504,-31.668306,-2.1553273,-0.8006488
226,0.5150609612464905,-1.5430727005004883,89.70681762695312,0.9358097939476717,3.4212092364471682,-90.14572802516413,-2.653132,12.066395,16.4137,21.065062,7.986029,-10.914352,-6.023246,-9.083056,-3.419661,25.646198,3.4993358,9.823748,-3.158714,0.042393744,3.0472295,14.61804,20.165232,-23.38894,48.72681,18.815132,-2.8368495,5.6306124,13.541552,-17.505875,22.127054,48.44225,-31.426928,-2.0685701,-1.4091758
227,0.5227838754653931,-1.538537859916687,89.68788146972656,0.8524833453465299,3.2409114832185213,-90.0380819221298,-2.4708486,12.042747,16.505482,20.836931,7.9449697,-11.344444,-5.537503,-8.900736,-3.6103673,24.62768,3.407324,10.069614,-3.2426505,0.08766189,3.407198,14.703874,20.521503,-22.940792,48.415962,18.0295,-2.7428346,5.1225486,13.527025,-17.527721,21.665155,48.17896,-31.100449,-2.0073006,-1.9912148
228,0.5239978432655334,-1.5261731147766113,89.61585235595703,0.7777775725967261,3.1089240563545486,-89.92350398526867,-2.4135916,11.988697,16.484125,20.68833,8.027183,-11.702705,-5.1810956,-8.724607,-3.7501583,23.783709,3.396357,10.214255,-3.308803,0.12574245,3.7227125,14.709447,20.871786,-22.550743,48.184883,17.485388,-2.665478,4.773949,13.479384,-17.531103,21.176197,47.94553,-30.74029,-1.9707907,-2.5036829
229,0.5240059494972229,-1.5131186246871948,89.4918441772461,0.7115506117314981,3.028359276601367,-89.79442620288074,-2.5006685,11.899238,16.334581,20.626534,8.299989,-12.000058,-4.9753184,-8.549204,-3.8273873,23.137619,3.4976377,10.222198,-3.3589978,0.15951759,3.9960203,14.622929,21.215137,-22.216291,48.044083,17.253742,-2.6241124,4.6213,13.408857,-17.514648,20.630705,47.729607,-30.315653,-1.9782827,-2.934663
230,0.5250121355056763,-1.4935282468795776,89.3253402709961,0.6503887187204551,2.98013090992336,-89.64817442737659,-2.6855114,11.766658,16.056295,20.602005,8.761222,-12.311093,-4.853606,-8.367827,-3.8591897,22.585016,3.6960714,10.158467,-3.3990302,0.19128631,4.2434773,14.450625,21.550783,-21.928076,47.98004,17.272703,-2.5695589,4.613022,13.314747,-17.476866,20.019482,47.53856,-29.814728,-2.0244038,-3.3062391
231,0.5277565717697144,-1.476080298423767,89.09656524658203,0.5970857903402451,2.9717920239546074,-89.50474144733494,-2.9607203,11.608326,15.676835,20.639416,9.2605295,-12.565815,-4.825277,-8.1986475,-3.8589904,22.171242,3.9228733,10.058381,-3.4203205,0.21615481,4.4499273,14.216181,21.885695,-21.696798,47.970173,17.427448,-2.507597,4.702476,13.180769,-17.430868,19.416481,47.384174,-29.313791,-2.069797,-3.6260977
232,0.5290561318397522,-1.442502498626709,88.80816650390625,0.5547338019026835,3.0110159246662094,-89.38419364993212,-3.3211834,11.442721,15.226468,20.76818,9.647454,-12.69055,-4.895525,-8.058825,-3.840575,21.932684,4.1121917,9.957176,-3.4169989,0.23021565,4.6024475,13.95142,22.230133,-21.528702,47.98094,17.602724,-2.4442868,4.841154,12.995916,-17.397165,18.898865,47.266632,-28.885511,-2.0748293,-3.9006917
233,0.5336064100265503,-1.4167660474777222,88.46856689453125,0.5281517165896532,3.125551212119168,-89.29187176625861,-3.8036497,11.249987,14.660181,20.975945,9.917344,-12.642824,-5.0946445,-7.9608173,-3.8116732,21.85932,4.2748246,9.870492,-3.3837845,0.23290029,4.6733494,13.662619,22.589052,-21.430359,48.002148,17.796894,-2.3817508,5.0394406,12.77187,-17.386536,18.46371,47.174427,-28.500795,-2.0253742,-4.124831
234,0.5407117605209351,-1.388872742652893,88.06908416748047,0.5146726678206026,3.3023780588434666,-89.21735765147034,-4.3965282,11.025157,13.982803,21.253468,10.142133,-12.469156,-5.4087725,-7.892032,-3.7643676,21.936045,4.4368253,9.77741,-3.327653,0.22822201,4.6812105,13.341835,22.961536,-21.393415,48.03792,18.059301,-2.3161967,5.3126154,12.518387,-17.398947,18.080027,47.094276,-28.132103,-1.9435219,-4.2946453
235,0.5441911220550537,-1.3495218753814697,87.60835266113281,0.5071981153341855,3.488190235151275,-89.15695980085337,-5.0194426,10.807627,13.301789,21.628653,10.288964,-12.225222,-5.785566,-7.834839,-3.686452,22.210543,4.5511928,9.658428,-3.2617679,0.21619828,4.682164,13.002119,23.349094,-21.400965,48.074825,18.352493,-2.2447538,5.619794,12.219416,-17.442873,17.784367,47.02514,-27.852901,-1.8429646,-4.4190273
236,0.5495558381080627,-1.30220365524292,87.09039306640625,0.4982539397559358,3.6298010726833003,-89.10690376166659,-5.5934844,10.639432,12.722645,22.128332,10.323461,-11.965345,-6.1710105,-7.7715197,-3.565727,22.72686,4.5710073,9.4945345,-3.2033908,0.19820979,4.732929,12.663061,23.753952,-21.431019,48.09363,18.639177,-2.165718,5.9190297,11.859718,-17.530853,17.618633,46.96273,-27.734251,-1.7376252,-4.5055747
237,0.5550907254219055,-1.2584888935089111,86.50875854492188,0.47950530944060893,3.744308946788505,-89.07219695113031,-6.183702,10.542838,12.239033,22.795597,10.4872,-11.657121,-6.6409216,-7.67384,-3.350072,23.587288,4.759725,9.277992,-3.1578097,0.18223052,4.829574,12.3333235,24.16976,-21.464327,48.105297,18.860594,-2.0979764,6.2490783,11.427811,-17.669102,17.610027,46.911797,-27.79304,-1.6274291,-4.5526366
238,0.5709782242774963,-1.2148258686065674,85.86259460449219,0.4560403765586991,3.8494957294553465,-89.05262217623647,-6.800728,10.493359,11.807535,23.595734,10.717406,-11.283092,-7.189209,-7.556692,-3.0651734,24.728352,5.0560455,9.020373,-3.121995,0.16877605,4.9486117,12.006625,24.593458,-21.510891,48.11191,19.05499,-2.0362525,6.6153264,10.933181,-17.858122,17.740108,46.8703,-27.987833,-1.505889,-4.555449
