unveil-humanoid-operators/unveil-humanoid-operators.github.io/feature-analysis-animation/data/matrix_clips/two_hands_behind.csv
Frame,root_translateX,root_translateY,root_translateZ,root_rotateX,root_rotateY,root_rotateZ,left_hip_pitch_joint_dof,left_hip_roll_joint_dof,left_hip_yaw_joint_dof,left_knee_joint_dof,left_ankle_pitch_joint_dof,left_ankle_roll_joint_dof,right_hip_pitch_joint_dof,right_hip_roll_joint_dof,right_hip_yaw_joint_dof,right_knee_joint_dof,right_ankle_pitch_joint_dof,right_ankle_roll_joint_dof,waist_yaw_joint_dof,waist_roll_joint_dof,waist_pitch_joint_dof,left_shoulder_pitch_joint_dof,left_shoulder_roll_joint_dof,left_shoulder_yaw_joint_dof,left_elbow_joint_dof,left_wrist_roll_joint_dof,left_wrist_pitch_joint_dof,left_wrist_yaw_joint_dof,right_shoulder_pitch_joint_dof,right_shoulder_roll_joint_dof,right_shoulder_yaw_joint_dof,right_elbow_joint_dof,right_wrist_roll_joint_dof,right_wrist_pitch_joint_dof,right_wrist_yaw_joint_dof
0,-0.27241653203964233,-2.512382984161377,77.99847412109375,-0.23762357442133109,1.7355705105468444,91.16349799898342,-1.2760353,5.025159,-5.097272,11.815362,-11.149688,-7.2605205,1.7957234,-11.003988,-18.789133,13.870381,-12.600917,8.834722,-1.0911112,0.100395635,3.0671484,-4.5585265,19.627,-41.95733,54.637756,14.388375,-2.7581043,-2.2670767,-10.020145,-16.221663,41.330536,59.85147,3.9404469,5.825671,-5.6826134
1,-0.3137917220592499,-2.532540798187256,77.99657440185547,-0.2539789780939097,1.7573396597601971,90.98879689058789,-1.381322,5.032212,-4.934361,12.044383,-11.2678995,-7.203554,1.6923424,-10.995415,-18.599745,13.854914,-12.5335045,8.867852,-1.0435389,0.10849722,3.0904844,-4.5322075,19.645208,-41.941082,54.586056,14.363716,-2.7564173,-2.2619967,-10.094052,-16.240433,41.34953,59.853306,3.8891697,5.8426447,-5.70179
2,-0.35617396235466003,-2.55212140083313,77.995361328125,-0.2708850159824111,1.7799456996439817,90.81707521833293,-1.4896951,5.0393643,-4.7747,12.276487,-11.387327,-7.1470346,1.5890713,-10.9866,-18.412777,13.840288,-12.467845,8.9004135,-0.99669796,0.11832446,3.1103725,-4.5124826,19.654701,-41.924965,54.549774,14.337637,-2.7567787,-2.2548864,-10.165772,-16.259848,41.369564,59.85612,3.8344932,5.8599935,-5.7228045
3,-0.3943444788455963,-2.57348895072937,77.99591064453125,-0.288035102767206,1.8007370080128382,90.63917490330552,-1.5938864,5.046737,-4.608877,12.506515,-11.506288,-7.0895596,1.4843837,-10.978028,-18.220396,13.826858,-12.400286,8.934336,-0.9482117,0.12955266,3.1328902,-4.4978147,19.658428,-41.910305,54.517883,14.315363,-2.7569425,-2.2503414,-10.244096,-16.280731,41.391697,59.86485,3.7894373,5.874719,-5.738942
4,-0.44124695658683777,-2.598499298095703,77.99653625488281,-0.3060672883301838,1.8169979420772024,90.44624427563001,-1.689825,5.0545545,-4.4282494,12.734576,-11.625717,-7.029806,1.375554,-10.97109,-18.0145,13.81772,-12.328697,8.971389,-0.9051664,0.14579514,3.1671734,-4.480651,19.658281,-41.885624,54.474545,14.306285,-2.75449,-2.2524111,-10.330403,-16.315182,41.429886,59.861904,3.7738419,5.888414,-5.74514
5,-0.4944286644458771,-2.6205854415893555,77.994140625,-0.3272859216260551,1.825889528782767,90.23539679709708,-1.7742486,5.0640697,-4.2306323,12.963082,-11.748575,-6.9673924,1.2610459,-10.965851,-17.794418,13.821828,-12.256303,9.012346,-0.8584241,0.16924867,3.2160583,-4.466839,19.651436,-41.85253,54.42328,14.312081,-2.7499416,-2.2658634,-10.428638,-16.364546,41.48113,59.85544,3.8001287,5.8972983,-5.7321043
6,-0.5511844754219055,-2.646641969680786,77.99266815185547,-0.350462357373509,1.8294086538728591,90.011610083389,-1.8496119,5.0753264,-4.020852,13.190274,-11.873111,-6.902989,1.1450188,-10.9609585,-17.564548,13.82945,-12.18024,9.056092,-0.8091563,0.19963068,3.2760491,-4.4570503,19.635954,-41.8132,54.368607,14.329726,-2.7437093,-2.2867491,-10.529172,-16.431517,41.540424,59.835964,3.8550017,5.9042163,-5.7055397
7,-0.6149175763130188,-2.671048879623413,77.99292755126953,-0.37308254232813487,1.8328671868363808,89.77716526045133,-1.9225283,5.0848584,-3.7995763,13.414764,-11.995527,-6.8365436,1.0222116,-10.958671,-17.321417,13.839437,-12.101588,9.102162,-0.7595342,0.22821462,3.3394396,-4.456577,19.616693,-41.785454,54.3187,14.349129,-2.7377346,-2.3088276,-10.638955,-16.499956,41.59933,59.82124,3.9159167,5.9068766,-5.677695
8,-0.6785843968391418,-2.7030105590820312,77.98980712890625,-0.3920034740433377,1.8417985492737508,89.53429024790097,-2.0016265,5.0896187,-3.5676205,13.639765,-12.115151,-6.7680206,0.88593775,-10.961641,-17.061615,13.853072,-12.022941,9.149793,-0.7146,0.25137013,3.4015284,-4.469796,19.59573,-41.781685,54.279327,14.361895,-2.7343864,-2.3260734,-10.75415,-16.57265,41.65242,59.806156,3.9619403,5.9045835,-5.6595397
9,-0.7567580938339233,-2.7342143058776855,77.98799896240234,-0.40669275994972437,1.8583500691684398,89.28290015247163,-2.0867722,5.087369,-3.3236272,13.860671,-12.228493,-6.6979904,0.73879707,-10.970119,-16.781635,13.860291,-11.9410095,9.200123,-0.67213666,0.26777753,3.4595068,-4.4951315,19.57431,-41.806004,54.24903,14.360904,-2.7352495,-2.3327355,-10.872973,-16.649437,41.69573,59.79259,3.9793503,5.895967,-5.652482
10,-0.8281933069229126,-2.763474702835083,77.9873275756836,-0.41751507567203205,1.8792770666287797,89.02212341201947,-2.1761713,5.0800214,-3.0677755,14.08217,-12.339741,-6.6262445,0.5809119,-10.983714,-16.48367,13.8681345,-11.85847,9.2530575,-0.6305998,0.27994445,3.517111,-4.5303917,19.552221,-41.85141,54.22359,14.351827,-2.738762,-2.3336513,-10.995981,-16.734098,41.73345,59.77823,3.9824684,5.881894,-5.6508045
11,-0.9050132632255554,-2.793013334274292,77.9849853515625,-0.42833306130814053,1.9022678476524943,88.75269556656612,-2.2685523,5.0711827,-2.8027768,14.3041935,-12.449483,-6.551632,0.41098553,-10.999691,-16.174587,13.884094,-11.774971,9.306438,-0.5939279,0.28693065,3.579496,-4.5782213,19.532473,-41.9148,54.202892,14.346986,-2.7421265,-2.3385313,-11.122762,-16.821915,41.765633,59.755066,3.9883947,5.8651423,-5.6555543
12,-0.9845284819602966,-2.8294272422790527,77.98155212402344,-0.4397511145156482,1.9249851123683344,88.47524074688971,-2.3605502,5.064955,-2.5311103,14.5230665,-12.556505,-6.4731374,0.2299962,-11.015323,-15.861353,13.910317,-11.687767,9.357889,-0.56601346,0.28758377,3.6515691,-4.640019,19.517874,-41.99186,54.18605,14.359676,-2.7423258,-2.3572385,-11.2526655,-16.911469,41.792725,59.71474,4.013566,5.848329,-5.6676755
13,-1.0635979175567627,-2.8709824085235596,77.97962188720703,-0.453014802732366,1.9469200193265797,88.19313352806155,-2.4528618,5.062993,-2.2581298,14.740196,-12.662681,-6.389909,0.03969885,-11.028345,-15.5496025,13.948271,-11.597967,9.406348,-0.5514253,0.28015664,3.7324421,-4.7143464,19.51211,-42.082317,54.172905,14.402302,-2.7390018,-2.3988674,-11.389983,-16.994562,41.821037,59.66398,4.071731,5.8258653,-5.689805
14,-1.1445410251617432,-2.913971185684204,77.97874450683594,-0.4680080290602777,1.9692520807186216,87.90494706335723,-2.5455592,5.0630627,-1.980765,14.954734,-12.766782,-6.3026752,-0.16047452,-11.040529,-15.234381,13.99495,-11.505669,9.453455,-0.545742,0.26603836,3.8216805,-4.799553,19.515238,-42.18789,54.15927,14.465103,-2.73356,-2.4564342,-11.528829,-17.081745,41.84655,59.595615,4.151168,5.798944,-5.7200823
15,-1.234728217124939,-2.954268455505371,77.97758483886719,-0.48230420519503386,1.992098979949766,87.60432754007313,-2.641882,5.0626783,-1.6898922,15.1739235,-12.869817,-6.2127266,-0.37614846,-11.055126,-14.906662,14.054734,-11.411215,9.500065,-0.5466024,0.24542482,3.9211051,-4.8936934,19.527552,-42.305473,54.14077,14.52572,-2.7255867,-2.5154824,-11.673947,-17.168455,41.861965,59.51467,4.228903,5.7780433,-5.7549977
16,-1.322981595993042,-3.003474235534668,77.9776611328125,-0.4927140382997446,2.0155035827154215,87.28506953947065,-2.7361522,5.0594664,-1.3753095,15.387246,-12.968214,-6.121447,-0.6135233,-11.075541,-14.557268,14.132038,-11.314747,9.547769,-0.5490902,0.21911319,4.0333667,-4.997117,19.548618,-42.434227,54.11381,14.560877,-2.7148297,-2.5614858,-11.825341,-17.258698,41.85881,59.41834,4.2837462,5.774029,-5.7903676
17,-1.4202759265899658,-3.0596776008605957,77.9748764038086,-0.5011909132625807,2.038354514434281,86.94704310261358,-2.8356118,5.053758,-1.0358795,15.611522,-13.066458,-6.029573,-0.8724682,-11.101627,-14.185174,14.228954,-11.217066,9.596544,-0.56255573,0.18930143,4.155522,-5.111096,19.570475,-42.574036,54.091717,14.580219,-2.699502,-2.5876672,-12.006535,-17.324875,41.850433,59.349007,4.3054924,5.7950573,-5.8299794
18,-1.5241948366165161,-3.1128759384155273,77.97289276123047,-0.508943124887571,2.0610795650177187,86.5932146059893,-2.9383478,5.046622,-0.6763531,15.841832,-13.163418,-5.9362063,-1.1517069,-11.131589,-13.794496,14.345249,-11.117591,9.645827,-0.5645802,0.15550703,4.2959323,-5.243775,19.60831,-42.75042,54.05644,14.581759,-2.6793423,-2.603085,-12.17166,-17.419687,41.810734,59.233044,4.306873,5.8366613,-5.870191
19,-1.6363580226898193,-3.178452730178833,77.97222137451172,-0.5126457918791305,2.0858314070078867,86.22144204389866,-3.0370545,5.0360775,-0.2963422,16.059416,-13.253694,-5.8403144,-1.449577,-11.165423,-13.384698,14.470825,-11.014411,9.696387,-0.5740442,0.112615354,4.444782,-5.3782315,19.651697,-42.917572,54.012085,14.5562525,-2.659465,-2.6155965,-12.342241,-17.513882,41.75403,59.097694,4.298009,5.8807607,-5.910042
20,-1.7501745223999023,-3.2495975494384766,77.97196960449219,-0.509783030063367,2.1148714461507887,85.82947694917978,-3.1229067,5.02045,0.104584605,16.243147,-13.331057,-5.7407937,-1.7709032,-11.2043495,-12.953954,14.608874,-10.908061,9.748638,-0.5873351,0.05422246,4.597071,-5.5088806,19.699682,-43.058495,53.95522,14.483956,-2.6437123,-2.632494,-12.509405,-17.609514,41.668438,58.927494,4.28702,5.9112196,-5.9454203
21,-1.8691494464874268,-3.3136720657348633,77.97223663330078,-0.49983920232533124,2.1476911586279366,85.4126102291286,-3.1891098,4.9970984,0.5310205,16.383114,-13.392172,-5.6352515,-2.1188817,-11.250763,-12.499313,14.764113,-10.800233,9.803781,-0.5996059,-0.021177506,4.751779,-5.635399,19.75142,-43.169807,53.88723,14.32616,-2.6383111,-2.6601727,-12.667745,-17.707304,41.540028,58.718636,4.269638,5.9248357,-5.9681697
22,-1.9958664178848267,-3.387707471847534,77.97150421142578,-0.48313634951568696,2.1835965632412986,84.97329025243756,-3.240314,4.9676714,0.9813676,16.489258,-13.439974,-5.5251193,-2.4912379,-11.302774,-12.022128,14.935376,-10.690331,9.861169,-0.61191595,-0.1104251,4.9113,-5.7614326,19.806559,-43.26194,53.810425,14.105251,-2.6393201,-2.692983,-12.822386,-17.8084,41.37792,58.47869,4.244452,5.92995,-5.9826665
23,-2.1232333183288574,-3.4611876010894775,77.97101593017578,-0.4630003160261997,2.2243763877346936,84.52070311447956,-3.2897987,4.935516,1.4464667,16.578075,-13.479872,-5.414814,-2.8810036,-11.354682,-11.528105,15.109554,-10.573091,9.919486,-0.6328312,-0.21128571,5.077167,-5.8890414,19.865578,-43.33846,53.722084,13.888575,-2.635771,-2.720686,-12.974265,-17.91407,41.201435,58.200798,4.2196684,5.9278665,-6.0035377
24,-2.2600202560424805,-3.5409860610961914,77.96896362304688,-0.4443325620377288,2.2718502988459597,84.06378265929877,-3.3489323,4.9048924,1.9171915,16.66326,-13.51613,-5.3087463,-3.2823353,-11.4004755,-11.022795,15.27584,-10.444068,9.976914,-0.67161447,-0.32119247,5.251301,-6.0194764,19.929506,-43.402523,53.618404,13.743662,-2.616968,-2.7330716,-13.127602,-18.02593,41.034935,57.879585,4.20823,5.919675,-6.0455327
25,-2.3976993560791016,-3.623664379119873,77.96568298339844,-0.4274406098615674,2.327293118827384,83.60591647502767,-3.4177725,4.8766947,2.3906367,16.742199,-13.547702,-5.209714,-3.69093,-11.438338,-10.50573,15.427395,-10.303272,10.031795,-0.7297019,-0.4427432,5.432837,-6.1472807,19.998802,-43.439972,53.493652,13.708454,-2.5746887,-2.724302,-13.278519,-18.144838,40.883644,57.510345,4.225129,5.9010363,-6.1168036
26,-2.5337297916412354,-3.7105870246887207,77.96512603759766,-0.40884154844823095,2.389470836800751,83.14200966972258,-3.4908786,4.848814,2.8718295,16.808842,-13.57267,-5.114935,-4.1105347,-11.470943,-9.974683,15.570698,-10.15216,10.08533,-0.80355227,-0.57596266,5.621521,-6.2728524,20.073763,-43.4529,53.349895,13.740214,-2.51653,-2.7011735,-13.426657,-18.270847,40.737103,57.09548,4.2613187,5.8728833,-6.207988
27,-2.6713054180145264,-3.799809217453003,77.96664428710938,-0.39108542230801147,2.4564216748668937,82.6681361766589,-3.5734916,4.820952,3.3636231,16.875948,-13.595625,-5.020282,-4.54766,-11.49972,-9.432427,15.71606,-9.989562,10.140381,-0.8942487,-0.71563196,5.819701,-6.4033785,20.155296,-43.46623,53.192493,13.789411,-2.4553428,-2.6722467,-13.576977,-18.404243,40.589645,56.638916,4.2854238,5.844786,-6.3075967
28,-2.816688060760498,-3.8959250450134277,77.96632385253906,-0.37304884255714654,2.5261196964630357,82.18073371084512,-3.6699262,4.7929645,3.8688323,16.955048,-13.620991,-4.921651,-5.010072,-11.52648,-8.88137,15.875987,-9.815352,10.199829,-1.0024257,-0.85665935,6.029789,-6.5472636,20.244501,-43.50674,53.02792,13.805064,-2.4040093,-2.6458368,-13.733516,-18.54566,40.4336,56.14394,4.2643023,5.826309,-6.4039707
29,-2.9779303073883057,-4.0107221603393555,77.96469116210938,-0.3544439512933604,2.599704962681313,81.6807031394308,-3.7832065,4.7620306,4.3864527,17.048244,-13.650601,-4.8172054,-5.4990296,-11.554704,-8.325148,16.050814,-9.6292515,10.267533,-1.126987,-0.9959207,6.24992,-6.7037024,20.340065,-43.57051,52.853344,13.783727,-2.3673131,-2.6311562,-13.896431,-18.696402,40.26767,55.610058,4.163048,5.8258567,-6.4976883
30,-3.143827199935913,-4.12547492980957,77.9608154296875,-0.3351480923157823,2.6776514281231916,81.1693868412298,-3.9094446,4.729366,4.915559,17.148802,-13.681499,-4.7092366,-6.0110636,-11.58223,-7.76128,16.235853,-9.431973,10.341511,-1.267024,-1.1373154,6.4792542,-6.8701234,20.44113,-43.64834,52.668,13.749222,-2.3381002,-2.6214163,-14.064419,-18.857832,40.09671,55.03596,4.009673,5.836512,-6.593543
31,-3.310155153274536,-4.240610599517822,77.95760345458984,-0.3183836812393926,2.756888270805775,80.64340652672922,-4.047133,4.701218,5.4589257,17.261965,-13.71456,-4.5997825,-6.5428057,-11.60115,-7.1837807,16.429022,-9.221131,10.415438,-1.4226198,-1.285129,6.7236247,-7.0520134,20.55066,-43.759933,52.478397,13.690654,-2.3106017,-2.6009624,-14.2302065,-19.028433,39.912983,54.41485,3.8577228,5.8458185,-6.6860394
32,-3.476975440979004,-4.361621856689453,77.95365142822266,-0.30433102610208185,2.8344879856494263,80.0991084523141,-4.194184,4.6838064,6.0193815,17.392336,-13.74954,-4.4909673,-7.091278,-11.603612,-6.5868435,16.628325,-8.993748,10.482838,-1.5925589,-1.444795,6.988705,-7.253934,20.6739,-43.926697,52.288025,13.596166,-2.279347,-2.554529,-14.385967,-19.204506,39.706875,53.73972,3.7603745,5.8411307,-6.769997
33,-3.6451573371887207,-4.485490798950195,77.95153045654297,-0.29222570161596245,2.911467011376459,79.53338711259934,-4.351027,4.6770287,6.6010165,17.53992,-13.785511,-4.3829355,-7.658104,-11.588797,-5.9662747,16.833195,-8.752386,10.543481,-1.7736042,-1.6231871,7.2735705,-7.4756904,20.81465,-44.15033,52.093353,13.437413,-2.238036,-2.4681618,-14.5325775,-19.384352,39.479584,53.007156,3.7711043,5.805442,-6.841757
34,-3.818387269973755,-4.635105609893799,77.9471206665039,-0.28303446069395133,2.9887515160156877,78.948861308312,-4.5198636,4.678562,7.201071,17.706121,-13.822794,-4.2747383,-8.244073,-11.55915,-5.326466,17.04502,-8.49731,10.5997925,-1.9673847,-1.8174293,7.576141,-7.7119327,20.974148,-44.42093,51.88784,13.22803,-2.1912851,-2.3537104,-14.671976,-19.567339,39.232033,52.221066,3.845238,5.7499065,-6.9048376
35,-4.0013203620910645,-4.787849426269531,77.9425277709961,-0.27746243047331626,3.063105737993607,78.35040157403078,-4.6949806,4.690826,7.8126225,17.883627,-13.862441,-4.1670275,-8.844917,-11.512395,-4.67471,17.265305,-8.223346,10.649791,-2.1806102,-2.019513,7.898875,-7.9598346,21.154123,-44.74379,51.67177,13.018409,-2.1495333,-2.2348933,-14.809912,-19.752386,38.966324,51.39676,3.900588,5.702906,-6.9650135
36,-4.1931633949279785,-4.931782245635986,77.93846893310547,-0.280860171942388,3.1313266111198907,77.74267597036521,-4.867403,4.715548,8.429171,18.058758,-13.904104,-4.0605116,-9.45973,-11.446781,-4.0174236,17.502693,-7.927662,10.691695,-2.4196749,-2.2217844,8.24482,-8.217243,21.356497,-45.12473,51.4458,12.858506,-2.1227984,-2.1354153,-14.950545,-19.938047,38.681393,50.549583,3.8513656,5.6930127,-7.0282674
37,-4.390504360198975,-5.093044281005859,77.93260955810547,-0.2929045193459183,3.1850225851470926,77.13106296305955,-5.039085,4.753278,9.0442095,18.250498,-13.954421,-3.9545777,-10.079573,-11.364839,-3.361153,17.759853,-7.6132836,10.72426,-2.690887,-2.4214118,8.626246,-8.487539,21.582834,-45.577236,51.205624,12.766208,-2.115121,-2.060556,-15.096749,-20.1223,38.36932,49.67892,3.6282372,5.7435417,-7.1051073
38,-4.597081661224365,-5.271998882293701,77.92662811279297,-0.312167389911806,3.228268899337597,76.51153553326183,-5.2113366,4.8027606,9.662992,18.454481,-14.010163,-3.8492365,-10.71269,-11.266101,-2.7004008,18.042547,-7.2824163,10.748647,-2.989213,-2.624825,9.037313,-8.769332,21.833496,-46.094975,50.949635,12.71266,-2.1204324,-1.9984411,-15.247631,-20.304768,38.033077,48.781174,3.2910485,5.834164,-7.188871
39,-4.794959545135498,-5.443606376647949,77.92222595214844,-0.33728326214037424,3.2766285907536816,75.87489084881835,-5.3866405,4.865443,10.2954445,18.648726,-14.061799,-3.746257,-11.361943,-11.144117,-2.0280323,18.319525,-6.9223394,10.767796,-3.3046997,-2.8365164,9.45464,-9.051969,22.108315,-46.652752,50.680046,12.677821,-2.1333492,-1.9471468,-15.398652,-20.485516,37.68695,47.86018,2.950464,5.9285116,-7.2606783
40,-4.988287925720215,-5.606192588806152,77.92057800292969,-0.36735030624363335,3.3454238447978426,75.2120046795432,-5.56862,4.9423213,10.951356,18.813602,-14.101085,-3.6473835,-12.029125,-10.992841,-1.336946,18.557503,-6.520888,10.78557,-3.628863,-3.0601826,9.855054,-9.322927,22.406927,-47.22094,50.397514,12.645394,-2.1485715,-1.9048895,-15.538932,-20.663492,37.34021,46.914948,2.7098117,5.989855,-7.302201
41,-5.188848495483398,-5.779576301574707,77.91862487792969,-0.4014313347030612,3.4338212929170737,74.51986149347876,-5.754558,5.0325694,11.633785,18.944462,-14.125424,-3.5508764,-12.730068,-10.813001,-0.6173129,18.78353,-6.077622,10.805519,-3.9628496,-3.2975657,10.243519,-9.582921,22.730722,-47.797302,50.094475,12.62737,-2.161992,-1.867403,-15.668974,-20.837719,36.993053,45.936237,2.6269617,6.00566,-7.300623
42,-5.3866472244262695,-5.9589385986328125,77.91768646240234,-0.4407926766341036,3.5348734709015304,73.80364840416664,-5.9412704,5.1354766,12.337273,19.047235,-14.136797,-3.4565668,-13.455463,-10.60687,0.1237471,18.999361,-5.597129,10.826722,-4.312733,-3.5469785,10.627807,-9.834978,23.0808,-48.39223,49.769764,12.628699,-2.1773384,-1.8370403,-15.792908,-21.007824,36.641266,44.928154,2.6334603,5.9962897,-7.2688723
43,-5.586395263671875,-6.146722316741943,77.92131805419922,-0.4881430108783934,3.6548971032922677,73.06585983771787,-6.1403174,5.2559004,13.058932,19.137686,-14.144847,-3.369217,-14.179619,-10.372327,0.868996,19.155037,-5.0783906,10.846248,-4.676559,-3.8052776,10.989376,-10.076108,23.456112,-49.00112,49.439095,12.616135,-2.2012348,-1.8215744,-15.913158,-21.173376,36.296112,43.914165,2.656889,5.973605,-7.2279882
44,-5.79602575302124,-6.338816165924072,77.92372131347656,-0.5459154969138044,3.7998944889221105,72.30902178607862,-6.3504553,5.395195,13.795666,19.204702,-14.144641,-3.2926435,-14.872045,-10.108285,1.6022803,19.191494,-4.515578,10.860523,-5.05353,-4.068242,11.309669,-10.304032,23.854498,-49.618813,49.120052,12.555863,-2.2405868,-1.8286059,-16.030003,-21.333067,35.96717,42.917896,2.6210837,5.9494176,-7.1992297
45,-6.000730514526367,-6.508429527282715,77.92957305908203,-0.613553860752003,3.976160744058022,71.52925888477276,-6.5734606,5.5508657,14.55223,19.237808,-14.13207,-3.2302759,-15.541988,-9.812355,2.3542068,19.10088,-3.9025376,10.863911,-5.445396,-4.3392878,11.58356,-10.519371,24.275402,-50.242767,48.82049,12.437629,-2.3063498,-1.8594841,-16.161154,-21.487404,35.678204,41.94686,2.52897,5.918706,-7.1813827
46,-6.192502021789551,-6.683692932128906,77.93619537353516,-0.6903724625911478,4.178012062102781,70.72699448925674,-6.805868,5.7224,15.328274,19.240517,-14.107949,-3.1790893,-16.19617,-9.489599,3.1223786,18.907106,-3.24129,10.860801,-5.8543243,-4.6186204,11.820283,-10.7238655,24.71912,-50.874607,48.53147,12.280134,-2.3918352,-1.9102025,-16.30161,-21.636168,35.418816,40.991035,2.4119468,5.877709,-7.1656995
47,-6.392640590667725,-6.863202095031738,77.94485473632812,-0.7799976438638468,4.393701048128253,69.91034063131242,-7.0485406,5.9162073,16.113085,19.244148,-14.08631,-3.133784,-16.808928,-9.154345,3.8420212,18.612837,-2.546376,10.861874,-6.27769,-4.896981,12.023544,-10.918926,25.183647,-51.517067,48.247604,12.093675,-2.4776132,-1.980661,-16.416431,-21.774706,35.14421,40.043964,2.2404563,5.8400474,-7.1624255
48,-6.585719585418701,-7.042296409606934,77.95744323730469,-0.8841849331260183,4.61157202330353,69.08755313062248,-7.299441,6.137697,16.896454,19.274038,-14.077793,-3.08881,-17.354269,-8.819571,4.447894,18.217384,-1.8305222,10.875504,-6.7118154,-5.166071,12.1962805,-11.1077795,25.665136,-52.175083,47.966785,11.8884735,-2.5440855,-2.0701308,-16.474573,-21.896952,34.81137,39.105637,1.9861468,5.81921,-7.1815763
49,-6.768300533294678,-7.208456039428711,77.96842193603516,-1.0065389739987542,4.835372919791313,68.2555455341059,-7.561498,6.3901024,17.68209,19.32963,-14.084627,-3.0453684,-17.835398,-8.467816,4.9869256,17.70239,-1.0694038,10.903916,-7.158147,-5.4230695,12.331909,-11.293565,26.161604,-52.867863,47.691906,11.633207,-2.5839987,-2.1703966,-16.47512,-21.996813,34.413597,38.18067,1.5815338,5.8257036,-7.238698
50,-6.952775478363037,-7.366174697875977,77.9824447631836,-1.1436871840937406,5.067802427696721,67.41186592300446,-7.831608,6.668215,18.47322,19.39676,-14.099615,-3.0052083,-18.262533,-8.103617,5.473604,17.0731,-0.26414853,10.940896,-7.6170506,-5.6737165,12.430215,-11.479243,26.671787,-53.590553,47.42981,11.333216,-2.6081727,-2.2837937,-16.433767,-22.072107,33.969513,37.27393,1.059809,5.8500633,-7.323938
51,-7.132655143737793,-7.519237041473389,77.99549865722656,-1.288505005963528,5.295214309120318,66.56621927370512,-8.101225,6.964368,19.259266,19.487272,-14.123789,-2.9633462,-18.618595,-7.7683253,5.7924714,16.358055,0.5327397,10.980664,-8.084314,-5.9236197,12.504288,-11.665474,27.19155,-54.309387,47.18442,11.054946,-2.6246564,-2.4254541,-16.345818,-22.124676,33.477684,36.38638,0.5450821,5.8754535,-7.409483
52,-7.3000593185424805,-7.659502983093262,78.01070404052734,-1.4350082200788816,5.504883487051757,65.72803247293264,-8.363216,7.271824,20.029196,19.614107,-14.158897,-2.914962,-18.895607,-7.5005617,5.828681,15.601983,1.2658805,11.016678,-8.554069,-6.1767883,12.567134,-11.852769,27.714739,-54.99006,46.960247,10.866655,-2.6415517,-2.6103017,-16.206217,-22.159653,32.937054,35.515484,0.16494225,5.884498,-7.4678082
53,-7.466830253601074,-7.802762985229492,78.02178955078125,-1.580837555248494,5.693978650506795,64.90174354955067,-8.617858,7.5866184,20.778967,19.782663,-14.20465,-2.8547964,-19.06993,-7.312865,5.5206475,14.754127,1.9876949,11.076612,-9.0301485,-6.4348035,12.618853,-12.043909,28.236925,-55.632607,46.770252,10.801692,-2.6616368,-2.8595052,-16.002085,-22.177818,32.33755,34.651283,-0.02013268,5.869048,-7.4872255
54,-7.63028621673584,-7.941245079040527,78.03189086914062,-1.7273124422357236,5.868424563643047,64.08232085161244,-8.866098,7.909907,21.515251,19.98286,-14.259736,-2.7861385,-19.15268,-7.1800175,4.939977,13.811046,2.7072968,11.1538925,-9.512955,-6.6957035,12.653949,-12.241006,28.755905,-56.25337,46.61416,10.820008,-2.6813407,-3.1589496,-15.738266,-22.178753,31.68303,33.794563,-0.08504617,5.839477,-7.483762
55,-7.784693717956543,-8.073784828186035,78.04696655273438,-1.8768360486823772,6.029184211800361,63.263733662566956,-9.10426,8.246013,22.243582,20.206894,-14.324346,-2.7171052,-19.185844,-7.0821967,4.1695313,12.881642,3.3025806,11.190529,-9.990899,-6.9554152,12.677741,-12.444829,29.268637,-56.84399,46.477818,10.877533,-2.6996899,-3.4710367,-15.429081,-22.167479,30.989626,32.951763,-0.109819666,5.8060093,-7.47165
56,-7.938239097595215,-8.200308799743652,78.06636810302734,-2.0341055862290998,6.177970677880727,62.43917936019804,-9.33005,8.601665,22.969233,20.447655,-14.398375,-2.656096,-19.213495,-7.001043,3.2914948,12.075689,3.6501105,11.128786,-10.451968,-7.206661,12.696389,-12.653609,29.771759,-57.392136,46.345726,10.932911,-2.7153444,-3.758106,-15.081373,-22.15207,30.2704,32.121944,-0.17901555,5.7793536,-7.464877
57,-8.083067893981934,-8.3245210647583,78.08289337158203,-2.2061195825594155,6.320638592055641,61.61064141330372,-9.559282,8.985724,23.68595,20.719355,-14.485721,-2.6028736,-19.251831,-6.944237,2.251496,11.42706,3.638649,10.921446,-10.894921,-7.4396396,12.710388,-12.87708,30.263136,-57.91444,46.22559,10.979887,-2.733684,-4.016716,-14.68323,-22.136347,29.518652,31.291225,-0.2924146,5.7512164,-7.4698052
58,-8.23953914642334,-8.456852912902832,78.09452819824219,-2.390083000334723,6.454886760130496,60.77956141009345,-9.788863,9.395373,24.393108,21.021646,-14.58561,-2.553787,-19.275932,-6.911994,1.032373,10.878155,3.3557422,10.614322,-11.321939,-7.656556,12.7184725,-13.11666,30.74102,-58.413147,46.126324,11.038805,-2.7539477,-4.2645497,-14.229089,-22.121582,28.727743,30.455912,-0.41129696,5.7200513,-7.47733
59,-8.379417419433594,-8.570441246032715,78.10942077636719,-2.5824705427722545,6.571297310125811,59.9375042706743,-9.992185,9.823452,25.104733,21.332783,-14.694531,-2.5127513,-19.26911,-6.878609,-0.22827019,10.3940325,2.9817963,10.286853,-11.726163,-7.8656344,12.725628,-13.355184,31.202238,-58.850792,46.031048,11.111387,-2.7648585,-4.495782,-13.733829,-22.11213,27.911436,29.62458,-0.55967945,5.70677,-7.4788623
60,-8.511444091796875,-8.681473731994629,78.1263656616211,-2.774580462139352,6.660529869725106,59.07627668073801,-10.142008,10.261443,25.835226,21.629889,-14.808244,-2.4837549,-19.227352,-6.8207407,-1.3941257,9.963235,2.686292,10.013823,-12.103331,-8.0759945,12.735054,-13.574582,31.64387,-59.188824,45.924328,11.197287,-2.755281,-4.704919,-13.21468,-22.115387,27.087477,28.8092,-0.76257515,5.7322607,-7.4657574
61,-8.642230987548828,-8.787504196166992,78.1470947265625,-2.9738413152215335,6.714166643609259,58.19403344947511,-10.2267885,10.715401,26.585402,21.913033,-14.929389,-2.471468,-19.132423,-6.7290134,-2.4622223,9.569455,2.5002232,9.796693,-12.447795,-8.285106,12.756827,-13.770817,32.0637,-59.411427,45.800957,11.306735,-2.714355,-4.9007306,-12.667139,-22.135725,26.261675,28.001911,-1.0131735,5.8199563,-7.431702
62,-8.766469955444336,-8.885684967041016,78.16659545898438,-3.179035829937762,6.739402026135116,57.294682762448865,-10.261424,11.1868105,27.349707,22.189594,-15.056932,-2.4727283,-18.995886,-6.617019,-3.494105,9.228285,2.3358386,9.59959,-12.763181,-8.487136,12.787451,-13.952951,32.461,-59.539146,45.67184,11.436612,-2.6510344,-5.0831275,-12.080435,-22.173504,25.42456,27.193064,-1.3010166,5.9529634,-7.3820295
63,-8.881643295288086,-8.977428436279297,78.18843078613281,-3.3818222256832513,6.750735513766924,56.378419653832516,-10.264592,11.663909,28.13213,22.463778,-15.190144,-2.480464,-18.856697,-6.4980702,-4.453257,8.9663925,2.1929219,9.436595,-13.057593,-8.684629,12.8110695,-14.119597,32.834785,-59.58649,45.54242,11.5709,-2.5836365,-5.2326474,-11.45741,-22.22881,24.56702,26.386272,-1.6446259,6.0916557,-7.32569
64,-8.992072105407715,-9.07206916809082,78.20587158203125,-3.5724481158685912,6.763067305686675,55.44514681452423,-10.25363,12.1343775,28.936825,22.736261,-15.326884,-2.4875135,-18.756117,-6.3871784,-5.303324,8.8155155,2.0688477,9.321318,-13.339403,-8.879849,12.811891,-14.2684555,33.184032,-59.56546,45.417828,11.695194,-2.5301774,-5.329917,-10.804306,-22.30129,23.68083,25.587072,-2.059765,6.196365,-7.272307
65,-9.10452938079834,-9.163297653198242,78.21773529052734,-3.7495856744138054,6.781041379314648,54.492761930899626,-10.236138,12.59896,29.765263,23.013977,-15.467754,-2.4890902,-18.7023,-6.2868814,-6.04487,8.788485,1.9673988,9.267104,-13.608851,-9.073348,12.785725,-14.394407,33.50722,-59.462906,45.30587,11.8064,-2.5036721,-5.3645606,-10.115268,-22.389254,22.760382,24.79205,-2.6294737,6.2616343,-7.2248926
66,-9.22859001159668,-9.25007152557373,78.22694396972656,-3.9187554177486557,6.797354989274326,53.5217784805188,-10.202322,13.063877,30.615269,23.295221,-15.613895,-2.4902136,-18.679,-6.1923018,-6.6944666,8.874685,1.8856002,9.261109,-13.861136,-9.262002,12.741199,-14.500211,33.803238,-59.278103,45.204212,11.91183,-2.4914982,-5.3486075,-9.388528,-22.491037,21.809017,23.99909,-3.3182416,6.306926,-7.178283
67,-9.321186065673828,-9.317879676818848,78.24029541015625,-4.080655551371947,6.808819305326146,52.53517142668383,-10.143217,13.524524,31.485725,23.567884,-15.763217,-2.4982858,-18.684324,-6.1078053,-7.2406087,9.05895,1.816991,9.277679,-14.097844,-9.443309,12.6815,-14.597413,34.072063,-59.045616,45.103806,12.009432,-2.4735591,-5.296126,-8.634224,-22.607111,20.830063,23.216122,-3.9690235,6.328715,-7.1302423
68,-9.41144847869873,-9.382040023803711,78.24760437011719,-4.234806602304222,6.812450378344538,51.53644848860592,-10.050365,13.975297,32.375744,23.820728,-15.914239,-2.5205204,-18.715675,-6.03778,-7.67175,9.323612,1.756792,9.291943,-14.318677,-9.614592,12.61059,-14.701937,34.31408,-58.80516,44.995384,12.093797,-2.4298003,-5.2211657,-7.859946,-22.738848,19.82445,22.445719,-4.4214144,6.325844,-7.0783825
69,-9.492355346679688,-9.4397554397583,78.25607299804688,-4.378093920967213,6.809572925762419,50.518185415361444,-9.918097,14.411929,33.295883,24.044388,-16.065874,-2.5608797,-18.782135,-5.9781866,-7.948927,9.682293,1.7079862,9.304501,-14.514819,-9.7762375,12.529076,-14.815313,34.527496,-58.557175,44.875614,12.159625,-2.3470132,-5.1060214,-7.0601544,-22.88799,18.793192,21.68224,-4.5879927,6.2794085,-7.0135765
70,-9.599674224853516,-9.511544227600098,78.25724029541016,-4.511725599187038,6.8017688183920395,49.48136131986196,-9.751886,14.835755,34.243908,24.24619,-16.218506,-2.6148705,-18.880129,-5.9293575,-8.090595,10.134902,1.6737489,9.326643,-14.687861,-9.928944,12.435968,-14.932728,34.7107,-58.286736,44.751835,12.209466,-2.2385044,-4.950282,-6.2310247,-23.053984,17.731987,20.923449,-4.5668864,6.197385,-6.939867
71,-9.684504508972168,-9.559913635253906,78.26313781738281,-4.637244836372638,6.7862112011156475,48.442217874063275,-9.558776,15.249799,35.19986,24.437822,-16.371382,-2.677034,-18.98499,-5.901573,-8.171652,10.640414,1.6503172,9.349518,-14.852565,-10.069567,12.333227,-15.058427,34.865288,-58.008316,44.628128,12.252937,-2.1242673,-4.7938066,-5.375721,-23.232058,16.63006,20.172686,-4.4810348,6.1179643,-6.8743787
72,-9.764322280883789,-9.594472885131836,78.26622009277344,-4.7580476327681955,6.759929210831361,47.41687362114195,-9.347833,15.659229,36.143307,24.6349,-16.525888,-2.7419991,-19.07549,-5.905578,-8.266169,11.163859,1.6306038,9.363277,-15.0229845,-10.1965275,12.221878,-15.198482,34.995117,-57.73941,44.509148,12.297644,-2.0239964,-4.6764255,-4.5003805,-23.416359,15.477742,19.439617,-4.455594,6.0778685,-6.834224
73,-9.835953712463379,-9.641480445861816,78.26427459716797,-4.874034934082677,6.719143793630653,46.405861861816334,-9.1148815,16.067451,37.072598,24.840202,-16.682508,-2.8081706,-19.144608,-5.940772,-8.3742695,11.708935,1.6254578,9.366883,-15.201886,-10.310756,12.1014,-15.344783,35.102795,-57.46625,44.393803,12.34878,-1.9407922,-4.611436,-3.5968347,-23.599178,14.260717,18.722254,-4.5305233,6.0929117,-6.820078
74,-9.899660110473633,-9.684906005859375,78.26668548583984,-4.9831814732494415,6.666573868233571,45.40217843098677,-8.8565645,16.469028,37.99815,25.045511,-16.840189,-2.87821,-19.198734,-6.0031495,-8.462945,12.280571,1.6394236,9.365373,-15.383551,-10.41583,11.96982,-15.494826,35.189728,-57.184875,44.278698,12.401303,-1.8645341,-4.576813,-2.6697445,-23.776834,12.989273,18.025558,-4.639578,6.140679,-6.8241973
75,-9.953951835632324,-9.722319602966309,78.2672119140625,-5.0807135525510825,6.608952150653664,44.41062254659115,-8.581418,16.853598,38.91684,25.241909,-16.994823,-2.953233,-19.251917,-6.1010337,-8.555056,12.876987,1.639693,9.357599,-15.568789,-10.513579,11.82671,-15.664517,35.25914,-56.930454,44.163692,12.443827,-1.7957845,-4.5594206,-1.7430793,-23.952892,11.69084,17.364693,-4.745494,6.203977,-6.8512964
76,-9.993460655212402,-9.750094413757324,78.26998901367188,-5.165436123137112,6.552767082199896,43.43599428796623,-8.296703,17.210735,39.82662,25.418129,-17.14101,-3.0342457,-19.303793,-6.2410884,-8.674619,13.467212,1.6081194,9.34218,-15.756311,-10.605588,11.672929,-15.871017,35.31461,-56.73934,44.04744,12.465739,-1.7346945,-4.5459476,-0.83465946,-24.136192,10.389575,16.747797,-4.8105226,6.265827,-6.9055
77,-10.045635223388672,-9.786775588989258,78.26359558105469,-5.234493946645218,6.501968773110045,42.47564045663612,-8.005436,17.535484,40.729557,25.568933,-17.27814,-3.1221285,-19.370117,-6.4327073,-8.825838,14.080722,1.5235933,9.3187275,-15.941517,-10.68929,11.507675,-16.113192,35.357327,-56.611305,43.9211,12.471895,-1.6815337,-4.530091,0.061876073,-24.332207,9.0857935,16.171627,-4.8005934,6.323875,-7.000227
78,-10.08792495727539,-9.809996604919434,78.25977325439453,-5.288636481080628,6.452776763370135,41.52838258107246,-7.7032337,17.831514,41.626167,25.698494,-17.40745,-3.2159774,-19.43929,-6.671154,-8.996251,14.709894,1.4043232,9.287897,-16.126762,-10.764718,11.331596,-16.38304,35.387787,-56.529797,43.78394,12.464778,-1.6360981,-4.5197597,0.95812255,-24.541348,7.767192,15.628182,-4.7419057,6.3867025,-7.1287823
79,-10.124361038208008,-9.839646339416504,78.25485229492188,-5.3308259569701315,6.401194001156066,40.60061383651959,-7.390447,18.106386,42.51002,25.816338,-17.530056,-3.314631,-19.500189,-6.943257,-9.182853,15.32701,1.271367,9.2493925,-16.319347,-10.831999,11.149829,-16.684603,35.408707,-56.50278,43.641357,12.43316,-1.5977204,-4.5231147,1.8495873,-24.762646,6.4357195,15.112631,-4.685347,6.453406,-7.26543
80,-10.151785850524902,-9.870871543884277,78.25010681152344,-5.364558324735173,6.3433258470419815,39.698648522860005,-7.0650406,18.365316,43.375427,25.925648,-17.64383,-3.4168005,-19.537848,-7.2346444,-9.383154,15.896435,1.1465673,9.202888,-16.526255,-10.892092,10.967301,-17.019764,35.423748,-56.536198,43.496876,12.367994,-1.5655487,-4.5483265,2.7307782,-24.993895,5.093066,14.62009,-4.6827054,6.5234594,-7.3842006
81,-10.168703079223633,-9.890766143798828,78.24913024902344,-5.391119547444061,6.276375574372536,38.825729769526156,-6.7263465,18.612345,44.217888,26.032373,-17.750994,-3.5246363,-19.542141,-7.5477147,-9.606841,16.412249,1.0300658,9.144663,-16.752449,-10.944012,10.784968,-17.383873,35.435894,-56.63771,43.34726,12.247504,-1.5388557,-4.5791116,3.5985956,-25.23534,3.7373772,14.164743,-4.7579236,6.5947576,-7.4656405
82,-10.189953804016113,-9.921111106872559,78.24226379394531,-5.4089991412341645,6.203380422798197,37.97759484750147,-6.3759737,18.8436,45.041023,26.131716,-17.8509,-3.6380496,-19.522997,-7.8875456,-9.851831,16.893055,0.9112097,9.076148,-16.993664,-10.987124,10.600348,-17.776602,35.44673,-56.802994,43.18707,12.080128,-1.5180569,-4.617345,4.4579353,-25.485561,2.3680048,13.743654,-4.879979,6.6682343,-7.5276766
83,-10.18411636352539,-9.948710441589355,78.23697662353516,-5.41618427639704,6.128897122061308,37.14969492184316,-6.017513,19.05632,45.85163,26.217655,-17.94113,-3.752463,-19.49603,-8.2431345,-10.098872,17.340069,0.7966023,9.005121,-17.242266,-11.025876,10.4136,-18.202686,35.457726,-57.014122,43.017326,11.909866,-1.5032864,-4.69868,5.311919,-25.74175,0.98815477,13.330841,-5.0211015,6.747967,-7.5997915
84,-10.186838150024414,-9.985108375549316,78.22994232177734,-5.412560574233184,6.05773241869923,36.33715439110123,-5.6549025,19.247417,46.65599,26.283998,-18.019426,-3.86343,-19.476627,-8.602682,-10.328671,17.753994,0.69275707,8.939267,-17.491877,-11.06421,10.223885,-18.670822,35.471375,-57.258965,42.841606,11.773795,-1.4948074,-4.858624,6.1622705,-26.000072,-0.39717457,12.9014225,-5.153828,6.8380747,-7.712265
85,-10.184163093566895,-10.021073341369629,78.22124481201172,-5.3934324367125015,5.991667196925148,35.54188420079162,-5.2867255,19.404448,47.453976,26.315138,-18.078974,-3.965525,-19.473467,-8.974011,-10.531459,18.146317,0.59868157,8.874648,-17.742544,-11.10674,10.028992,-19.183315,35.490845,-57.552135,42.656643,11.712012,-1.4944848,-5.11728,7.00825,-26.26234,-1.7870086,12.468202,-5.283689,6.948661,-7.881903
86,-10.169363975524902,-10.05376148223877,78.21644592285156,-5.361846625250048,5.928208615501451,34.76482585284146,-4.917019,19.54067,48.243614,26.335571,-18.132051,-4.065071,-19.473143,-9.3581915,-10.7206955,18.505356,0.51533866,8.8084345,-17.997803,-11.150225,9.829897,-19.73568,35.51792,-57.896458,42.458054,11.690944,-1.5014895,-5.4524302,7.848719,-26.529163,-3.1838973,12.038496,-5.4211993,7.0746956,-8.089727
87,-10.149751663208008,-10.088268280029297,78.21270751953125,-5.325495991683385,5.866333485290441,34.00044367569186,-4.5446796,19.66717,49.024155,26.34535,-18.175823,-4.1670957,-19.473986,-9.736908,-10.906156,18.826347,0.4385925,8.752726,-18.25521,-11.190029,9.630947,-20.316166,35.551624,-58.248383,42.24531,11.652547,-1.511307,-5.8360195,8.684867,-26.794851,-4.5888066,11.579551,-5.54908,7.1975675,-8.312115
88,-10.136093139648438,-10.1281156539917,78.20602416992188,-5.292985321467897,5.8045302743627065,33.242466328439136,-4.1735206,19.805918,49.7976,26.36772,-18.219614,-4.28005,-19.468603,-10.09071,-11.100357,19.09306,0.36973798,8.7183075,-18.513409,-11.222561,9.435827,-20.917368,35.5907,-58.568924,42.02219,11.534051,-1.5187591,-6.2401366,9.510318,-27.051758,-5.9992743,11.065901,-5.650696,7.2984443,-8.526254
89,-10.112430572509766,-10.183340072631836,78.19710540771484,-5.26923586066393,5.7431875885870305,32.48984364850846,-3.8086524,19.969822,50.563084,26.41841,-18.26923,-4.40688,-19.456268,-10.414333,-11.305601,19.303385,0.3101727,8.715171,-18.770557,-11.243675,9.245372,-21.531614,35.634407,-58.83567,41.782032,11.300442,-1.5247682,-6.686489,10.331332,-27.296095,-7.4183016,10.489398,-5.6924677,7.3392487,-8.73655
90,-10.068309783935547,-10.231973648071289,78.18946838378906,-5.249732865080023,5.682747766544186,31.7452811314508,-3.447444,20.147526,51.320473,26.485811,-18.320757,-4.543206,-19.440962,-10.7173,-11.516337,19.465332,0.25872695,8.734952,-19.027386,-11.257935,9.057802,-22.165794,35.683937,-59.074337,41.527348,10.991576,-1.5294187,-7.1804256,11.147294,-27.529734,-8.845538,9.865664,-5.6954293,7.340795,-8.952367
91,-10.027812004089355,-10.287956237792969,78.1847152709961,-5.229051184031162,5.621440388471626,31.008810031018072,-3.0806246,20.322279,52.07229,26.546091,-18.365356,-4.685839,-19.423477,-11.001462,-11.732846,19.580141,0.21167791,8.761116,-19.28726,-11.273383,8.872088,-22.832235,35.740776,-59.315956,41.274487,10.658554,-1.5266334,-7.669551,11.9448395,-27.751146,-10.271932,9.201173,-5.724435,7.3723836,-9.158782
92,-9.98629379272461,-10.348844528198242,78.17705535888672,-5.200867487682388,5.557822238902886,30.280387013833913,-2.700295,20.47739,52.820087,26.576748,-18.395124,-4.8316107,-19.403421,-11.269448,-11.955563,19.647915,0.16543178,8.777301,-19.55175,-11.299844,8.688071,-23.549456,35.807007,-59.59793,41.04225,10.347634,-1.5118278,-8.101392,12.707281,-27.959322,-11.689572,8.505254,-5.8451653,7.503746,-9.340415
93,-9.930908203125,-10.418429374694824,78.17048645019531,-5.166148031508248,5.4908414542969135,29.555125833118492,-2.3027918,20.613749,53.56901,26.574427,-18.408335,-4.982624,-19.383862,-11.514714,-12.17437,19.66719,0.116037875,8.775538,-19.815037,-11.339288,8.50754,-24.317268,35.88368,-59.942604,40.82918,10.052505,-1.4723536,-8.439792,13.428859,-28.154552,-13.097388,7.7820215,-6.118654,7.8027453,-9.501967
94,-9.875173568725586,-10.494377136230469,78.16612243652344,-5.127174800971714,5.421632093002621,28.834607475474055,-1.8934282,20.7382,54.31641,26.54969,-18.408789,-5.139682,-19.364298,-11.738229,-12.392551,19.638552,0.066193424,8.765887,-20.076784,-11.386938,8.3309555,-25.135715,35.97072,-60.336002,40.627705,9.746424,-1.4152251,-8.71979,14.122752,-28.336632,-14.501452,7.021408,-6.496338,8.216316,-9.64643
95,-9.812909126281738,-10.572346687316895,78.16468811035156,-5.081146983113209,5.351929269362822,28.128250690970347,-1.4782038,20.844225,55.052,26.502998,-18.397402,-5.297803,-19.340397,-11.952982,-12.6304245,19.5666,0.022079436,8.758754,-20.345337,-11.444404,8.157478,-25.994287,36.06542,-60.727776,40.43531,9.481579,-1.3650554,-8.99639,14.799428,-28.505337,-15.907145,6.212036,-6.8809614,8.632317,-9.756057
96,-9.75164794921875,-10.647603988647461,78.16424560546875,-5.025165746849819,5.283393833592794,27.445525455179574,-1.0606027,20.920824,55.766594,26.425274,-18.370369,-5.451841,-19.306358,-12.171668,-12.908611,19.453405,-0.00867881,8.764749,-20.63131,-11.512481,7.9846077,-26.88078,36.164024,-61.06494,40.252052,9.311334,-1.3466294,-9.324691,15.467745,-28.659847,-17.316605,5.3442206,-7.1743116,8.937961,-9.816487
97,-9.675692558288574,-10.730134010314941,78.1623306274414,-4.956273222332723,5.214644704200961,26.783499059385314,-0.6366128,20.960976,56.463512,26.308252,-18.323914,-5.6015406,-19.262848,-12.399512,-13.227585,19.298012,-0.015927657,8.791705,-20.932987,-11.593287,7.8121095,-27.804918,36.26609,-61.339096,40.085094,9.279545,-1.3821038,-9.754042,16.130047,-28.801369,-18.72763,4.4206424,-7.3421345,9.07533,-9.821263
98,-9.608403205871582,-10.817724227905273,78.16193389892578,-4.876724640527938,5.145507453987889,26.138901222289434,-0.20679261,20.97127,57.145206,26.157242,-18.260103,-5.749453,-19.212126,-12.628464,-13.578299,19.10001,-0.00638253,8.8324,-21.251787,-11.687812,7.6375384,-28.758028,36.368225,-61.562874,39.937443,9.360238,-1.4548674,-10.243708,16.777752,-28.929422,-20.130466,3.4470341,-7.440618,9.113398,-9.783678
99,-9.52790355682373,-10.902752876281738,78.16603088378906,-4.791771199376365,5.079823249547594,25.520632964577196,0.21640502,20.965286,57.799538,25.989595,-18.187004,-5.8946943,-19.151283,-12.852284,-13.966814,18.862112,0.0024531842,8.875549,-21.586613,-11.784891,7.46357,-29.746958,36.47308,-61.769955,39.798542,9.448962,-1.5315881,-10.713156,17.413057,-29.046839,-21.544483,2.4135926,-7.5015416,9.129811,-9.711292
100,-9.440947532653809,-10.998485565185547,78.16368865966797,-4.706428943546187,5.020866545418635,24.93811842269563,0.6227965,20.951357,58.413776,25.810766,-18.106764,-6.035013,-19.076916,-13.064862,-14.398972,18.58652,-0.006434678,8.909645,-21.948954,-11.881315,7.2868757,-30.769232,36.578136,-61.98065,39.670612,9.452027,-1.5771897,-11.082613,18.026516,-29.152527,-22.966526,1.3178692,-7.5629945,9.202847,-9.618432
101,-9.341715812683105,-11.093406677246094,78.16139221191406,-4.621338121641144,4.969001278980309,24.39618433178069,1.0055741,20.943697,58.9842,25.648937,-18.034767,-6.173264,-18.99046,-13.267062,-14.880789,18.27866,-0.04477665,8.930781,-22.340467,-11.975838,7.107895,-31.820698,36.68248,-62.19559,39.548634,9.347966,-1.5801424,-11.32727,18.628119,-29.243774,-24.40672,0.14392713,-7.629238,9.34848,-9.495639
102,-9.239968299865723,-11.194273948669434,78.1592025756836,-4.533581752422203,4.922485026397755,23.889648561778547,1.3761841,20.92094,59.515812,25.463932,-17.950537,-6.3061924,-18.890263,-13.460527,-15.407429,17.929892,-0.09733861,8.946267,-22.765226,-12.076359,6.9207783,-32.904675,36.777348,-62.40399,39.45376,9.186438,-1.5598297,-11.491414,19.205986,-29.318277,-25.840101,-1.0912486,-7.687763,9.527686,-9.347534
103,-9.131284713745117,-11.300856590270996,78.1579818725586,-4.445029451394998,4.8815655137107825,23.41043048419364,1.7308053,20.898596,60.01706,25.284622,-17.866795,-6.437015,-18.77956,-13.641139,-15.970455,17.547415,-0.15616213,8.959639,-23.203093,-12.173397,6.7349954,-34.028934,36.865017,-62.614117,39.37271,8.98613,-1.5250919,-11.596694,19.774225,-29.379623,-27.29038,-2.3895302,-7.7355046,9.732592,-9.183822
104,-9.016620635986328,-11.408827781677246,78.15498352050781,-4.356996110594108,4.846220370463051,22.950858401006606,2.0690832,20.883854,60.496353,25.123987,-17.78836,-6.567428,-18.652609,-13.802247,-16.562674,17.119019,-0.20811793,8.974732,-23.645502,-12.26331,6.5538883,-35.1861,36.94557,-62.815704,39.29947,8.778654,-1.4847331,-11.665667,20.321966,-29.430033,-28.754166,-3.7316823,-7.773908,9.955995,-9.022045
105,-8.903145790100098,-11.518476486206055,78.14976501464844,-4.27113788001506,4.8179035703638675,22.511529107064074,2.3889637,20.878984,60.953766,24.981903,-17.716507,-6.7009587,-18.508434,-13.9381895,-17.187334,16.635397,-0.25292832,8.99026,-24.108828,-12.350143,6.367486,-36.36653,37.01267,-62.994625,39.251717,8.55356,-1.4289676,-11.67843,20.828924,-29.474003,-30.196342,-5.113959,-7.8785357,10.247847,-8.8727
106,-8.773680686950684,-11.631959915161133,78.14346313476562,-4.185761810598126,4.795766779636909,22.096130574358675,2.6919322,20.879356,61.385597,24.85175,-17.648575,-6.8354545,-18.347433,-14.051975,-17.846949,16.099184,-0.29452825,9.006238,-24.582575,-12.428121,6.1824036,-37.592625,37.07091,-63.178654,39.219822,8.282696,-1.3579819,-11.631319,21.322271,-29.510885,-31.651703,-6.558667,-8.017908,10.593412,-8.717404
107,-8.642191886901855,-11.748285293579102,78.13639831542969,-4.097685495801485,4.77677656571032,21.700983423653717,2.9818583,20.884682,61.79435,24.740807,-17.584751,-6.9642153,-18.179,-14.153992,-18.531141,15.543675,-0.33121035,9.027715,-25.073732,-12.51029,5.9910245,-38.848206,37.115788,-63.355717,39.216892,8.023631,-1.2956728,-11.57275,21.772755,-29.551325,-33.093937,-8.010868,-8.057866,10.895674,-8.571798
108,-8.508647918701172,-11.865256309509277,78.1282730102539,-4.004044500471262,4.758147606749758,21.322568097002616,3.263567,20.89286,62.182953,24.651627,-17.523052,-7.0803967,-18.012714,-14.25512,-19.22925,15.003463,-0.36154634,9.059219,-25.540064,-12.580383,5.8201065,-40.13407,37.150562,-63.52829,39.19666,7.8302546,-1.264497,-11.549358,22.2307,-29.593983,-34.61766,-9.482477,-7.8371754,11.053003,-8.414476
109,-8.366415023803711,-11.978957176208496,78.11924743652344,-3.9012063758665754,4.738396379141447,20.9651826736196,3.53776,20.89758,62.547333,24.580189,-17.461744,-7.1776714,-17.842663,-14.36183,-19.951067,14.471065,-0.37876523,9.115972,-26.014547,-12.6577015,5.650363,-41.421993,37.16885,-63.66193,39.186855,7.777348,-1.2803465,-11.593521,22.678364,-29.642836,-36.16993,-10.9582815,-7.251615,11.010168,-8.227845
110,-8.216537475585938,-12.106069564819336,78.10533905029297,-3.791333329052958,4.719195766654828,20.629118880540393,3.8029788,20.900797,62.887917,24.524359,-17.40151,-7.260919,-17.666948,-14.467306,-20.69783,13.934695,-0.38584262,9.190989,-26.506285,-12.743275,5.47471,-42.722176,37.173233,-63.770687,39.198498,7.811675,-1.3281736,-11.673756,23.096277,-29.702278,-37.72437,-12.432228,-6.4072194,10.832671,-8.026605
111,-8.06771469116211,-12.22695541381836,78.08692169189453,-3.681258622300828,4.702289295285285,20.304621952460444,4.057839,20.919142,63.212948,24.501425,-17.349167,-7.3407845,-17.500889,-14.562022,-21.446629,13.41993,-0.3958042,9.254572,-26.964758,-12.804483,5.322159,-44.05255,37.1565,-63.87407,39.194584,7.8390307,-1.383541,-11.742436,23.507586,-29.772465,-39.361248,-13.9141865,-5.456966,10.602068,-7.8558226
112,-7.905002593994141,-12.350791931152344,78.06694793701172,-3.577441060716244,4.689522264232309,19.98154216494613,4.3024116,20.967133,63.531506,24.524933,-17.30956,-7.4275017,-17.362383,-14.638823,-22.17336,12.958602,-0.4246957,9.2765465,-27.410534,-12.854209,5.1740146,-45.397404,37.118347,-63.972954,39.20334,7.7756395,-1.4215091,-11.754595,23.864023,-29.858181,-40.99569,-15.360273,-4.5879483,10.401384,-7.817746
113,-7.742588996887207,-12.469058990478516,78.04338073730469,-3.479339522814713,4.683831533520997,19.661969560529784,4.5312366,21.043962,63.840424,24.596592,-17.287992,-7.522443,-17.258865,-14.698172,-22.863441,12.551879,-0.48082596,9.244554,-27.845444,-12.890248,5.030513,-46.7609,37.060467,-64.06762,39.219875,7.5781527,-1.4273897,-11.690821,24.169827,-29.96301,-42.633965,-16.78679,-3.8628175,10.253856,-7.952042
114,-7.574305534362793,-12.597973823547363,78.01786804199219,-3.384621749141535,4.683385833174023,19.349337740198905,4.746723,21.144114,64.13756,24.70903,-17.28029,-7.6204853,-17.181194,-14.743922,-23.531555,12.187644,-0.55633014,9.175465,-28.276463,-12.913109,4.8972597,-48.140083,36.976574,-64.14007,39.248886,7.3101606,-1.4156622,-11.577929,24.41349,-30.090872,-44.279423,-18.189535,-3.1917996,10.1120205,-8.207505
115,-7.399302005767822,-12.726461410522461,77.98773956298828,-3.298629125982582,4.683134623586855,19.03640469233802,4.959157,21.27829,64.4321,24.869017,-17.279472,-7.721874,-17.119308,-14.773311,-24.19881,11.872146,-0.6409507,9.083818,-28.66579,-12.91815,4.7758317,-49.54338,36.876118,-64.23433,39.274204,6.997495,-1.4119289,-11.4385195,24.590836,-30.250551,-45.946743,-19.509722,-2.5082524,9.946617,-8.524652
116,-7.222879886627197,-12.850157737731934,77.95498657226562,-3.22613808791623,4.677701056327161,18.715556363038782,5.179385,21.457003,64.73401,25.081982,-17.278332,-7.8273544,-17.063066,-14.78323,-24.886065,11.611605,-0.7241132,8.983611,-29.02944,-12.901909,4.6671286,-50.937008,36.755543,-64.3114,39.304684,6.719245,-1.4329185,-11.295657,24.775816,-30.44793,-47.653748,-20.786018,-1.6798118,9.732172,-8.846219
117,-7.036228656768799,-12.981409072875977,77.92438507080078,-3.175176823017774,4.667192839423651,18.389635797009888,5.3990335,21.703522,65.03776,25.377592,-17.281242,-7.9318223,-17.016443,-14.770764,-25.60626,11.417755,-0.79099894,8.879233,-29.398567,-12.865883,4.535629,-52.29717,36.621544,-64.37719,39.363598,6.473463,-1.4888754,-11.155451,25.280573,-30.672035,-49.532806,-22.221571,-0.41814557,9.4357,-9.144964
118,-6.836530685424805,-13.107488632202148,77.8910903930664,-3.1390508022903307,4.653801312630022,18.0605339043097,5.618822,22.000813,65.34259,25.736254,-17.28602,-8.036664,-16.985134,-14.741337,-26.343847,11.28931,-0.8549666,8.762086,-29.658813,-12.788074,4.5040436,-53.73221,36.46378,-64.457756,39.36907,6.2342353,-1.564539,-11.004162,25.093632,-30.959425,-51.23483,-23.138405,0.50617516,9.06919,-9.419618
119,-6.624452114105225,-13.232965469360352,77.85234069824219,-3.1092393606248043,4.635337329441982,17.72061156414635,5.8583922,22.314726,65.66247,26.110853,-17.286863,-8.151704,-16.953508,-14.693654,-27.083069,11.19669,-0.9377908,8.627342,-29.914963,-12.708575,4.4405384,-55.107548,36.291996,-64.50543,39.390594,6.0276756,-1.6556122,-10.840234,25.137655,-31.30752,-53.01953,-24.133677,1.6400372,8.700755,-9.760292
120,-6.414732933044434,-13.360542297363281,77.81686401367188,-3.072699597346512,4.60921268565382,17.36179511176524,6.139147,22.602484,66.01234,26.443693,-17.272005,-8.286595,-16.91259,-14.632783,-27.804447,11.123226,-1.0683752,8.470738,-30.147207,-12.62492,4.3816648,-56.48294,36.09787,-64.536125,39.430183,5.8261604,-1.7482631,-10.662189,25.195381,-31.713554,-54.786774,-25.078142,2.7219954,8.386044,-10.210003
121,-6.190305233001709,-13.493721008300781,77.78047943115234,-3.023371299226291,4.570546028616612,16.983002226881407,6.471448,22.849949,66.397995,26.720629,-17.240347,-8.445896,-16.845104,-14.557311,-28.515305,11.038876,-1.2452403,8.322636,-30.329193,-12.551743,4.32974,-57.83948,35.882195,-64.54586,39.468567,5.6662593,-1.8447175,-10.471098,25.224771,-32.182316,-56.524773,-25.925676,3.7146523,8.147901,-10.7862215
122,-5.954764366149902,-13.622660636901855,77.73894500732422,-2.968548407355599,4.522198741518081,16.588088480292264,6.8422246,23.079718,66.81081,26.971157,-17.196451,-8.623319,-16.761715,-14.465535,-29.220955,10.960964,-1.4554917,8.174615,-30.455683,-12.487311,4.276516,-59.125523,35.65262,-64.50197,39.4777,5.5895033,-1.9519924,-10.266364,25.247913,-32.71662,-58.257206,-26.671316,4.678162,7.948604,-11.462225
123,-5.70985221862793,-13.745808601379395,77.6972885131836,-2.9163197524647826,4.473664075404602,16.17650140857308,7.2375474,23.306818,67.24444,27.208088,-17.140495,-8.812871,-16.694954,-14.362533,-29.89905,10.944212,-1.7125214,7.9651356,-30.56292,-12.40403,4.2266374,-60.42421,35.403343,-64.45035,39.509636,5.488055,-2.0623894,-10.044814,25.248077,-33.319824,-59.956272,-27.335327,5.5677505,7.7559004,-12.223943
124,-5.447711944580078,-13.872361183166504,77.66077423095703,-2.8760639684190847,4.434789029428779,15.747623481178717,7.6425653,23.549517,67.69247,27.447113,-17.074015,-9.008005,-16.673084,-14.250867,-30.52866,11.034719,-2.025749,7.6322775,-30.63867,-12.291334,4.1652718,-61.674263,35.134182,-64.35133,39.53734,5.391288,-2.1778479,-9.799913,25.23205,-33.992317,-61.606705,-27.893902,6.3340306,7.537894,-13.058469
125,-5.169759750366211,-14.001848220825195,77.61997985839844,-2.8447857741313007,4.40997811018175,15.300227737527957,8.055969,23.799314,68.15761,27.678701,-16.995169,-9.21011,-16.702957,-14.150986,-31.178343,11.263592,-2.4682899,7.122509,-30.681665,-12.147104,4.0861263,-62.867912,34.845787,-64.19365,39.559505,5.3083997,-2.2971435,-9.525367,25.217773,-34.736248,-63.2183,-28.352709,6.977228,7.277177,-13.969158
126,-4.889894485473633,-14.131821632385254,77.5841064453125,-2.8192863665835355,4.393464608566877,14.83509725462953,8.485072,24.05059,68.6422,27.898443,-16.902973,-9.420937,-16.765247,-14.05436,-31.833218,11.593254,-3.010119,6.4816008,-30.69145,-11.979563,3.9953036,-64.021255,34.53934,-63.990276,39.582882,5.239662,-2.4211254,-9.225725,25.200666,-35.55353,-64.79585,-28.71095,7.5142713,6.9950924,-14.961272
127,-4.595155715942383,-14.265337944030762,77.54474639892578,-2.8079391055488663,4.379119893066457,14.354417747075052,8.9294195,24.325394,69.13911,28.130323,-16.800783,-9.635358,-16.860394,-13.928006,-32.345768,11.989812,-3.5147908,5.7952485,-30.67201,-11.7902,3.9008033,-65.1402,34.218212,-63.756344,39.60634,5.1700635,-2.5519722,-8.911536,25.168564,-36.44319,-66.32681,-28.964516,7.938386,6.7206526,-16.024017
128,-4.300492763519287,-14.4118013381958,77.51726531982422,-2.819471979224771,4.360436158087755,13.860760913553424,9.388467,24.64636,69.64099,28.39887,-16.69256,-9.847956,-16.99151,-13.739925,-32.572258,12.422803,-3.844589,5.1482377,-30.627836,-11.5807085,3.8113487,-66.22959,33.887737,-63.505825,39.626945,5.0846543,-2.6919608,-8.593307,25.107412,-37.402527,-67.79651,-29.108582,8.241296,6.483589,-17.14711
129,-3.9979870319366455,-14.561546325683594,77.49359893798828,-2.8656922184055738,4.3378760720748,13.349187694966668,9.86083,25.036768,70.15494,28.721361,-16.577232,-10.05314,-17.173103,-13.462837,-32.426517,12.904482,-3.9561772,4.5143895,-30.552387,-11.339582,3.7336318,-67.28354,33.551685,-63.228985,39.632717,4.9686046,-2.837362,-8.263297,25.02306,-38.42985,-69.19994,-29.154095,8.386735,6.3021927,-18.359625
130,-3.6715891361236572,-14.706976890563965,77.46025848388672,-2.9377616445164776,4.3130784457289835,12.82090029107135,10.348821,25.479143,70.68264,29.084082,-16.45531,-10.25446,-17.398,-13.118858,-32.008022,13.440993,-3.9173164,3.8660598,-30.447943,-11.072126,3.6611874,-68.302086,33.213238,-62.923252,39.625023,4.8335447,-2.9885347,-7.919486,24.92459,-39.5247,-70.54704,-29.103533,8.391014,6.1633964,-19.65832
131,-3.3391501903533936,-14.862783432006836,77.42471313476562,-3.012138968976285,4.281223602527487,12.286641047590894,10.860668,25.923756,71.21041,29.442604,-16.32003,-10.459509,-17.635761,-12.749718,-31.451557,13.991701,-3.759153,3.285344,-30.35437,-10.791809,3.594214,-69.410515,32.86973,-62.687786,39.682606,4.599202,-3.148467,-7.5843024,24.784418,-40.687935,-71.83961,-28.964422,8.327559,6.049827,-20.983685
132,-2.9905014038085938,-15.027263641357422,77.38694763183594,-3.068387874386817,4.2383198402782964,11.757327255883483,11.400516,26.332417,71.72325,29.769228,-16.17326,-10.677182,-17.854486,-12.396335,-30.88996,14.513964,-3.515478,2.853127,-30.216097,-10.564896,3.4908516,-70.2741,32.544556,-62.32229,39.620007,4.615568,-3.3398643,-7.2661343,24.65031,-41.91182,-73.105736,-28.65865,8.266779,5.93598,-22.278362
133,-2.63354229927063,-15.197442054748535,77.34502410888672,-3.096493602411495,4.180858599109473,11.23999774215264,11.977512,26.67669,72.22058,30.024778,-16.007113,-10.924043,-18.04007,-12.066475,-30.31692,14.967065,-3.1127224,2.6409533,-30.115225,-10.355145,3.3860261,-71.251274,32.235775,-62.064663,39.623177,4.548266,-3.5614722,-6.980846,24.457245,-43.200485,-74.32548,-28.259813,8.19552,5.815891,-23.5562
134,-2.278357744216919,-15.379923820495605,77.28998565673828,-3.1103885101936593,4.1122128176377535,10.726946107209455,12.582994,26.991554,72.707855,30.247005,-15.826126,-11.190642,-18.210335,-11.737245,-29.674196,15.384689,-2.563623,2.5906003,-30.01495,-10.165992,3.2703967,-72.20039,31.944967,-61.81627,39.613777,4.51315,-3.8104997,-6.713384,24.231781,-44.552925,-75.49693,-27.74779,8.084232,5.702765,-24.840263
135,-1.9059290885925293,-15.572202682495117,77.23199462890625,-3.1213516412033178,4.03868015644137,10.206423382344711,13.200982,27.310223,73.18181,30.483183,-15.639001,-11.44632,-18.385952,-11.409588,-29.011677,15.839845,-2.0341544,2.585698,-29.91759,-9.983725,3.1483319,-73.14719,31.675718,-61.589096,39.612534,4.479837,-4.056303,-6.4628744,23.980433,-45.967976,-76.62451,-27.132383,7.987852,5.6077924,-26.075903
136,-1.525146484375,-15.768856048583984,77.17681884765625,-3.1401568352447415,3.9661601243845364,9.667039844598465,13.817064,27.664564,73.63961,30.780123,-15.453866,-11.660017,-18.58681,-11.084614,-28.381985,16.402542,-1.6869117,2.509044,-29.81644,-9.801507,3.019826,-74.069084,31.433779,-61.365517,39.612183,4.4621224,-4.2705574,-6.226571,23.716988,-47.442062,-77.714294,-26.415052,7.960894,5.539273,-27.208908
137,-1.13765287399292,-15.963996887207031,77.11812591552734,-3.1676208080613253,3.8978941313165967,9.110031217317621,14.435423,28.045206,74.09371,31.11763,-15.285605,-11.834184,-18.840088,-10.779806,-27.79682,17.131598,-1.5526764,2.3334103,-29.723425,-9.608553,2.8870695,-75.018906,31.221561,-61.184734,39.634293,4.4259195,-4.4448524,-6.0160494,23.424475,-48.975597,-78.774315,-25.602146,8.014129,5.487248,-28.221199
138,-0.7410498857498169,-16.176097869873047,77.0579605102539,-3.1982400832610867,3.8296959165928386,8.540341828941838,15.062969,28.43902,74.54212,31.478333,-15.124811,-11.981578,-19.126106,-10.485734,-27.229662,17.969658,-1.5458353,2.1204672,-29.63424,-9.414872,2.747491,-75.96124,31.041473,-61.02588,39.654823,4.3993936,-4.5953903,-5.827871,23.103626,-50.568054,-79.79674,-24.691004,8.118905,5.4483976,-29.14317
139,-0.3472929894924164,-16.392770767211914,76.9979248046875,-3.2333462023305297,3.756470988999019,7.952200930477645,15.689046,28.877802,74.96138,31.919327,-14.947761,-12.085608,-19.401777,-10.168568,-26.67429,18.82808,-1.6580176,1.8845513,-29.548021,-9.224933,2.6078017,-76.89271,30.895113,-60.875957,39.684,4.3487983,-4.7243686,-5.6427484,22.768541,-52.214096,-80.75821,-23.69741,8.2741585,5.441161,-29.991861
140,0.0445251427590847,-16.61528205871582,76.94812774658203,-3.2752481248532472,3.6732414659637205,7.339532940358963,16.3045,29.39289,75.32911,32.49381,-14.729149,-12.128738,-19.620596,-9.793972,-26.124416,19.613892,-1.8821552,1.6380603,-29.465117,-9.040286,2.4765933,-77.82265,30.782478,-60.729454,39.740444,4.229582,-4.8338914,-5.4418983,22.429405,-53.90409,-81.63441,-22.640816,8.479423,5.4841394,-30.78405
141,0.45106181502342224,-16.85861587524414,76.90613555908203,-3.333102569497651,3.578640281113463,6.696596811783777,16.903336,30.024078,75.628204,33.25469,-14.473475,-12.098416,-19.776192,-9.346835,-25.580036,20.331694,-2.275877,1.3730389,-29.376785,-8.854218,2.36068,-78.745155,30.70372,-60.580517,39.817383,4.0504403,-4.915479,-5.2193613,22.083696,-55.630863,-82.42197,-21.525951,8.759597,5.5854273,-31.554264
142,0.8536648154258728,-17.09981346130371,76.86589050292969,-3.4045200703440246,3.4752086922965755,6.0275665056915795,17.495173,30.744507,75.87902,34.152218,-14.187504,-12.005174,-19.893219,-8.8482485,-25.04052,21.028053,-2.8272502,1.0840163,-29.286392,-8.6655855,2.2555578,-79.66479,30.659515,-60.439205,39.91188,3.8223188,-4.9711833,-4.986028,21.718925,-57.39056,-83.1289,-20.353815,9.107194,5.731792,-32.284786
143,1.2609039545059204,-17.34661102294922,76.83438110351562,-3.474998010132616,3.365011011436027,5.34122176178874,18.092808,31.487263,76.1141,35.091778,-13.851366,-11.866242,-19.970503,-8.320737,-24.499763,21.67392,-3.426489,0.7866464,-29.207806,-8.487475,2.1513722,-80.58333,30.650305,-60.308483,40.032845,3.526028,-5.0204005,-4.747463,21.335083,-59.17716,-83.75263,-19.132849,9.471082,5.911092,-32.913364
144,1.6754987239837646,-17.605104446411133,76.80866241455078,-3.529212285405342,3.249888104007119,4.646282144963343,18.708866,32.184326,76.36535,35.98085,-13.445678,-11.699689,-20.005651,-7.786459,-23.953314,22.236755,-3.9618804,0.49705765,-29.15422,-8.333504,2.0388432,-81.50302,30.676575,-60.19205,40.189617,3.142247,-5.0824375,-4.5095797,20.932058,-60.98287,-84.28902,-17.87089,9.799143,6.1133122,-33.37717
145,2.0850162506103516,-17.87466049194336,76.7894058227539,-3.567721794536709,3.1258400492668277,3.9376377988694395,19.36368,32.836205,76.66909,36.822105,-12.964778,-11.512681,-19.9903,-7.2377434,-23.40078,22.703249,-4.4120545,0.20675647,-29.122856,-8.20756,1.9215848,-82.43196,30.738585,-60.094086,40.396893,2.638331,-5.172478,-4.2847214,20.4984,-62.801407,-84.726364,-16.571432,10.083421,6.3521852,-33.647675
146,2.493083953857422,-18.1362247467041,76.7800064086914,-3.596625502569209,2.9932705614352613,3.2129769717225223,20.046406,33.47042,77.00073,37.654625,-12.418387,-11.295078,-19.925817,-6.6691365,-22.843327,23.090086,-4.833315,-0.0889019,-29.108086,-8.103124,1.8034738,-83.36742,30.836254,-60.014286,40.64493,2.0336764,-5.27761,-4.0671186,20.023525,-64.629555,-85.05932,-15.236981,10.348046,6.629549,-33.762783
147,2.898027181625366,-18.40714454650879,76.77449035644531,-3.6080249249590937,2.86218324859216,2.4856341606002372,20.718437,34.063858,77.296005,38.44964,-11.814256,-11.040367,-19.826893,-6.1064944,-22.281002,23.412905,-5.231054,-0.36792448,-29.121853,-8.016649,1.6760701,-84.303894,30.96899,-59.955433,40.910694,1.378679,-5.375452,-3.8354597,19.506556,-66.46388,-85.292114,-13.879348,10.588952,6.9208193,-33.75937
148,3.2986865043640137,-18.674823760986328,76.78410339355469,-3.5944570705001455,2.7423720536396323,1.768984472792934,21.33731,34.596413,77.48763,39.18188,-11.162169,-10.742363,-19.70835,-5.5736365,-21.715248,23.685146,-5.6091704,-0.6085028,-29.175287,-7.9448943,1.5311803,-85.236984,31.135422,-59.920986,41.171555,0.72263855,-5.4433665,-3.5677123,18.950201,-68.30143,-85.432846,-12.509962,10.802441,7.198785,-33.672882
149,3.69211483001709,-18.940351486206055,76.79776763916016,-3.547560101082357,2.635487111649778,1.0656779206933717,21.908941,35.05458,77.59762,39.837276,-10.453463,-10.407051,-19.570957,-5.0777063,-21.142212,23.906563,-5.971234,-0.8026357,-29.271563,-7.8957553,1.3616493,-86.162056,31.333553,-59.9123,41.418922,0.08810109,-5.4645605,-3.244827,18.342077,-70.13857,-85.47163,-11.132783,10.991286,7.4583273,-33.47909
150,4.079616546630859,-19.207950592041016,76.8197021484375,-3.4737935132396953,2.53724771155153,0.36879486900159975,22.445953,35.454098,77.64588,40.43419,-9.687728,-10.035927,-19.408089,-4.60448,-20.563868,24.069777,-6.313175,-0.96371156,-29.40369,-7.867587,1.1733727,-87.082375,31.561995,-59.928104,41.66609,-0.5541712,-5.4558992,-2.8820837,17.666357,-71.97379,-85.39143,-9.743319,11.154844,7.714368,-33.169903
151,4.475950241088867,-19.47602653503418,76.84962463378906,-3.386971575510327,2.449403760613272,-0.3226918758655346,22.91313,35.820946,77.560616,40.99781,-8.886866,-9.617424,-19.223948,-4.146281,-19.98993,24.175692,-6.626856,-1.1018827,-29.56964,-7.843356,0.9775331,-88.00715,31.820395,-59.968674,41.926224,-1.2341837,-5.4455576,-2.5090759,16.919151,-73.80931,-85.18872,-8.339263,11.285909,7.9698005,-32.805023
152,4.867786407470703,-19.73882293701172,76.88381958007812,-3.3009681932961588,2.373452353650115,-1.0096774656116372,23.273779,36.1789,77.26955,41.548515,-8.069857,-9.140969,-19.02365,-3.69597,-19.430038,24.226131,-6.9043117,-1.2270546,-29.767544,-7.8055105,0.7852206,-88.94635,32.108917,-60.034626,42.21198,-1.9824623,-5.4614773,-2.1560886,16.09473,-75.650635,-84.858925,-6.915888,11.377728,8.227072,-32.444485
153,5.248032569885254,-19.988418579101562,76.92350769042969,-3.2179696191836555,2.311370017242022,-1.6821911842682438,23.504778,36.54259,76.73691,42.10156,-7.236043,-8.593737,-18.799812,-3.2574787,-18.901018,24.211737,-7.1437526,-1.3372631,-30.008667,-7.750859,0.59502137,-89.89597,32.42792,-60.12331,42.52403,-2.7826147,-5.517757,-1.8293368,15.178834,-77.502785,-84.38581,-5.470445,11.397007,8.496233,-32.10728
154,5.617255687713623,-20.232419967651367,76.96436309814453,-3.1313580955567217,2.26228426991202,-2.3430373847638424,23.624176,36.89509,76.00479,42.641273,-6.3743677,-7.987334,-18.553148,-2.833133,-18.393179,24.133871,-7.349118,-1.4298811,-30.2913,-7.686107,0.40132558,-90.85138,32.77729,-60.235065,42.855812,-3.626508,-5.5977383,-1.5139341,14.133138,-79.36936,-83.73396,-3.9963999,11.358074,8.772334,-31.76031
155,5.974076747894287,-20.47162437438965,77.00785827636719,-3.041750892706651,2.2233845881332726,-3.0118019799996967,23.656282,37.212746,75.115715,43.14473,-5.4884624,-7.34894,-18.29911,-2.4150333,-17.876545,24.009644,-7.5213084,-1.513007,-30.59553,-7.610034,0.20736033,-91.816696,33.156754,-60.373787,43.206806,-4.5526447,-5.6832843,-1.2085305,12.906308,-81.25283,-82.8598,-2.4844952,11.326413,9.035334,-31.386042
156,6.325387001037598,-20.702198028564453,77.0579605102539,-2.9492704730272403,2.191929300197186,-3.70840286740959,23.62719,37.471466,74.11257,43.58846,-4.582148,-6.705435,-18.052643,-1.9950117,-17.320538,23.856289,-7.661241,-1.5939243,-30.899088,-7.5218596,0.017218046,-92.79478,33.565678,-60.542164,43.57467,-5.5982184,-5.7563467,-0.91127014,11.437511,-83.14716,-81.70993,-0.9307562,11.3693,9.265996,-30.966898
157,6.661099910736084,-20.921707153320312,77.1076889038086,-2.8562103866420703,2.1679353280979625,-4.4363340481020845,23.531752,37.675842,72.983925,43.982433,-3.6572409,-6.0451684,-17.810532,-1.5680256,-16.718292,23.664206,-7.7646875,-1.673549,-31.1956,-7.4214544,-0.1646091,-93.79435,34.00253,-60.745663,43.954647,-6.8163753,-5.8150983,-0.6282962,9.672784,-85.02545,-80.2371,0.6483786,11.502799,9.460475,-30.496813
158,6.989501953125,-21.12991714477539,77.15867614746094,-2.761111220038302,2.1530494003680976,-5.185630003944912,23.359615,37.827297,71.7147,44.330765,-2.7075386,-5.3623013,-17.565964,-1.1415869,-16.084682,23.428474,-7.832787,-1.7476199,-31.492313,-7.3183746,-0.33769783,-94.81863,34.46451,-60.990627,44.344566,-8.172375,-5.868158,-0.35970926,7.5816607,-86.82501,-78.40745,2.1989238,11.6964445,9.629957,-29.986609
159,7.310758590698242,-21.328182220458984,77.21443939208984,-2.6584561157404503,2.1463536736600055,-5.955653529941907,23.13045,37.903725,70.34181,44.61358,-1.730613,-4.691857,-17.329174,-0.7276838,-15.422759,23.176939,-7.8755074,-1.8155035,-31.785236,-7.2307014,-0.5005603,-95.87374,34.94699,-61.289703,44.748558,-9.577651,-5.9123363,-0.094598465,5.165325,-88.446625,-76.21522,3.6385474,11.949279,9.778775,-29.445368
160,7.62237024307251,-21.5113525390625,77.27054595947266,-2.5427723495508614,2.147118752527135,-6.745896756025017,22.866816,37.88201,68.9039,44.80792,-0.72440004,-4.0677996,-17.110777,-0.3373367,-14.736185,22.936867,-7.902082,-1.8767594,-32.072544,-7.179015,-0.65174484,-96.96851,35.442966,-61.658497,45.173702,-10.944059,-5.943989,0.1784686,2.4797397,-89.791046,-73.70959,4.8837304,12.257276,9.911564,-28.881214
161,7.929080963134766,-21.68821907043457,77.33164978027344,-2.4096085685867985,2.1571424756675524,-7.563961655757809,22.576862,37.75327,67.413994,44.91676,0.3160755,-3.467204,-16.916483,0.025063423,-14.01832,22.713987,-7.9110465,-1.9305048,-32.34746,-7.17275,-0.7910786,-98.1174,35.943665,-62.104904,45.62285,-12.252897,-5.954603,0.4663579,-0.36698934,-90.82071,-70.98671,5.9061403,12.612023,10.041881,-28.304813
162,8.229873657226562,-21.85769271850586,77.39006805419922,-2.262547362167733,2.176911477271075,-8.40750138364716,22.255249,37.526367,65.85607,44.950447,1.3882198,-2.882685,-16.739477,0.3656191,-13.270013,22.494688,-7.8992705,-1.9769168,-32.608288,-7.2045717,-0.91610396,-99.324066,36.440033,-62.627693,46.096188,-13.551437,-5.9484634,0.7636956,-3.2806642,-91.57976,-68.1509,6.7432365,13.019409,10.16686,-27.705854
163,8.515259742736816,-22.018587112426758,77.45130920410156,-2.1095028033123002,2.2032341200421914,-9.261072696127544,21.904509,37.209347,64.22198,44.90367,2.4785311,-2.3726785,-16.57241,0.6897041,-12.506535,22.27729,-7.873425,-2.0171983,-32.859177,-7.2594423,-1.0251362,-100.5762,36.924522,-63.220413,46.59871,-14.851605,-5.942163,1.0642518,-6.2213364,-92.14965,-65.26745,7.4608116,13.498754,10.266984,-27.059856
164,8.802029609680176,-22.174266815185547,77.51558685302734,-1.9580022393828889,2.232809582660991,-10.109166753777457,21.526213,36.809444,62.499958,44.77166,3.5719047,-1.9972892,-16.41003,1.002087,-11.743004,22.064474,-7.842983,-2.052435,-33.106384,-7.323833,-1.1172615,-101.85834,37.391644,-63.874504,47.134518,-16.16333,-5.951761,1.3608803,-9.194106,-92.60134,-62.354794,8.114926,14.069062,10.323256,-26.343214
165,9.085087776184082,-22.32539939880371,77.58145141601562,-1.8096823767632446,2.262475044855492,-10.9531467318637,21.126339,36.31316,60.66744,44.542313,4.664527,-1.7953563,-16.247574,1.3055722,-10.979025,21.852663,-7.8062773,-2.0804932,-33.34558,-7.391024,-1.1901658,-103.16913,37.839024,-64.59816,47.699818,-17.48465,-5.9865694,1.6609778,-12.212534,-92.9799,-59.395287,8.753457,14.75846,10.318904,-25.544085
166,9.345046997070312,-22.46859359741211,77.63983917236328,-1.6600846842675618,2.2948352217108243,-11.799310160302193,20.713568,35.715954,58.739704,44.22303,5.7605934,-1.7292113,-16.091017,1.5962337,-10.208087,21.645643,-7.7620187,-2.1010332,-33.574482,-7.458522,-1.2490636,-104.50538,38.265175,-65.37646,48.294987,-18.809132,-6.03804,1.9660199,-15.301078,-93.31045,-56.35193,9.397625,15.551061,10.273762,-24.675344
167,9.615602493286133,-22.607810974121094,77.69776153564453,-1.5082835104285317,2.335119057919053,-12.63966228672987,20.29191,35.03976,56.761005,43.840134,6.855435,-1.7434825,-15.946141,1.8698784,-9.435888,21.44653,-7.713853,-2.1183424,-33.80349,-7.520734,-1.304715,-105.85068,38.66767,-66.17008,48.93165,-20.142508,-6.094304,2.259376,-18.509256,-93.60638,-53.184155,10.04581,16.39989,10.222663,-23.751165
168,9.866848945617676,-22.729995727539062,77.75354766845703,-1.3533892336865567,2.3883704105504475,-13.466238663026633,19.864052,34.307003,54.777122,43.41708,7.946041,-1.7806107,-15.819858,2.122766,-8.668147,21.260296,-7.6664643,-2.1365948,-34.042202,-7.572327,-1.367393,-107.18846,39.04386,-66.939674,49.62347,-21.489912,-6.1427393,2.5251417,-21.88922,-93.87511,-49.849346,10.6932535,17.257322,10.199014,-22.786451
169,10.11398696899414,-22.851408004760742,77.80635070800781,-1.1932151086778409,2.454574702152999,-14.274471068371415,19.40957,33.499702,52.73795,42.948963,9.029262,-1.8281835,-15.712074,2.3496263,-7.9081063,21.088652,-7.622044,-2.157141,-34.296688,-7.6137905,-1.4412619,-108.51612,39.393093,-67.687065,50.375427,-22.870573,-6.1879754,2.7615047,-25.47791,-94.12127,-46.30485,11.348897,18.12027,10.213352,-21.755688
170,10.35594367980957,-22.96927833557129,77.86599731445312,-1.0286493382825883,2.5311222643346443,-15.069449123890658,18.945435,32.61111,50.645977,42.42871,10.105086,-1.9153711,-15.621929,2.553761,-7.1520395,20.933125,-7.5801854,-2.1773539,-34.561794,-7.6443505,-1.5227817,-109.83629,39.716145,-68.423134,51.18322,-24.275314,-6.2334676,2.9773254,-29.315767,-94.34592,-42.505653,12.029884,19.01046,10.250349,-20.662752
171,10.59925651550293,-23.080730438232422,77.92356872558594,-0.8644111267600999,2.6197032462261505,-15.8574797010908,18.518059,31.687595,48.615414,41.878635,11.177453,-2.0492885,-15.550552,2.7455149,-6.396052,20.787617,-7.535719,-2.1955633,-34.82937,-7.6564274,-1.6095414,-111.14125,40.01325,-69.12254,52.048187,-25.666786,-6.264294,3.173439,-33.465355,-94.54707,-38.402832,12.742266,19.917322,10.300808,-19.565649
172,10.832283020019531,-23.179357528686523,77.97936248779297,-0.7066283345700343,2.721686756510817,-16.644874608656103,18.163498,30.781387,46.752422,41.3212,12.249858,-2.238468,-15.497371,2.936902,-5.636774,20.642097,-7.48139,-2.210248,-35.090393,-7.64087,-1.6983223,-112.42328,40.284855,-69.75879,52.972485,-27.00774,-6.2653894,3.3512223,-37.9913,-94.72137,-33.944187,13.4931,20.832012,10.352815,-18.52232
173,11.04750919342041,-23.272748947143555,78.0323257446289,-0.5565491863435935,2.837835448248602,-17.43808568644107,17.885305,29.900839,45.073177,40.753212,13.319393,-2.4897156,-15.465069,3.131543,-4.867426,20.49659,-7.4143844,-2.221203,-35.33673,-7.593319,-1.7876331,-113.676414,40.531498,-70.31091,53.965885,-28.277252,-6.2305865,3.528825,-42.949883,-94.86501,-29.077991,14.284797,21.751928,10.419509,-17.537027
174,11.262557983398438,-23.36590003967285,78.08903503417969,-0.41210434998495366,2.9668177118207355,-18.23219001506351,17.65678,29.026543,43.51457,40.166946,14.383893,-2.7980475,-15.452071,3.3242695,-4.092104,20.353765,-7.3381715,-2.2289104,-35.56931,-7.5135365,-1.8776349,-114.89988,40.75531,-70.785484,55.023506,-29.498161,-6.1683154,3.7023838,-48.379322,-94.97379,-23.755924,15.133538,22.687218,10.498645,-16.583797
175,11.47278881072998,-23.45334815979004,78.139892578125,-0.2739903270052278,3.107459769895245,-19.016891557383694,17.46647,28.166187,42.06102,39.56758,15.450149,-3.155141,-15.453109,3.5130148,-3.3231823,20.21084,-7.255513,-2.2330775,-35.788776,-7.397174,-1.9669813,-116.09514,40.960346,-71.196976,56.124825,-30.701633,-6.084684,3.840636,-54.312813,-95.04081,-17.935633,16.06763,23.649704,10.554345,-15.673972
176,11.67950439453125,-23.54353904724121,78.18821716308594,-0.14341215198506682,3.258839600098854,-19.781452581676003,17.300539,27.329344,40.69626,38.966415,16.523829,-3.553179,-15.462058,3.6956255,-2.5735447,20.063065,-7.168473,-2.2334807,-35.99407,-7.2399693,-2.0526817,-117.26419,41.152054,-71.558136,57.24675,-31.917793,-5.984887,3.9120538,-60.774055,-95.05672,-11.58408,17.11409,24.653198,10.550068,-14.817366
177,11.88158130645752,-23.627700805664062,78.23432922363281,-0.023739865320407855,3.4188640601566576,-20.52656931381667,17.159227,26.522032,39.421745,38.358734,17.620451,-4.00587,-15.47474,3.8766232,-1.8426355,19.906609,-7.07462,-2.2314343,-36.17332,-7.034605,-2.1270998,-118.41065,41.335655,-71.869156,58.39565,-33.169254,-5.872078,3.920199,-67.779884,-95.00954,-4.6815443,18.294779,25.696238,10.447682,-14.013921
178,12.079574584960938,-23.705921173095703,78.27986145019531,0.08628392580232383,3.5883824899636036,-21.256828161937232,17.041641,25.739672,38.236027,37.739563,18.730701,-4.514525,-15.495083,4.055502,-1.1249008,19.743713,-6.973294,-2.2266016,-36.308,-6.7778687,-2.184425,-119.52988,41.514545,-72.10086,59.565044,-34.43622,-5.7405725,3.8804164,-75.32378,-94.88481,2.766206,19.609781,26.791113,10.273011,-13.255385
179,12.269083023071289,-23.779619216918945,78.32621002197266,0.19397227476793508,3.7706786113072317,-21.9675459340228,16.932379,24.973492,37.118797,37.11988,19.824186,-5.054356,-15.533012,4.2220106,-0.4253524,19.586079,-6.8726335,-2.2163305,-36.385353,-6.474107,-2.2231104,-120.61512,41.690544,-72.22244,60.710644,-35.686123,-5.5795465,3.7786264,-83.35783,-94.66753,10.71705,21.04556,27.97473,10.0870495,-12.538515
180,12.443830490112305,-23.849782943725586,78.37017059326172,0.30601870712115653,3.9693315246068805,-22.653793288033246,16.817612,24.216328,36.053127,36.511944,20.870684,-5.5985494,-15.596936,4.36655,0.25083777,19.441694,-6.779057,-2.1980658,-36.389477,-6.127878,-2.2401185,-121.66031,41.863518,-72.20078,61.787754,-36.885834,-5.3776903,3.6006603,-91.78431,-94.34199,19.080065,22.585796,29.283987,9.95091,-11.859717
181,12.620814323425293,-23.91564178466797,78.41191864013672,0.4255101992464641,4.188397540591555,-23.31713440619733,16.699186,23.4616,35.043053,35.902466,21.869738,-6.158172,-15.695701,4.485387,0.90141565,19.319258,-6.6968865,-2.1691167,-36.307796,-5.7443213,-2.2342923,-122.67369,42.02912,-71.98959,62.799618,-38.069466,-5.1070843,3.309325,-100.44886,-93.89307,27.712141,24.209494,30.687717,9.9149065,-11.239569
182,12.793709754943848,-23.97681999206543,78.45181274414062,0.5478703161782198,4.424926767218799,-23.959260240068737,16.579668,22.717157,34.093315,35.290146,22.834023,-6.7407517,-15.822514,4.5848103,1.5294747,19.210995,-6.6213536,-2.131623,-36.122208,-5.3254333,-2.1970055,-123.65965,42.18262,-71.5976,63.754997,-39.23854,-4.775493,2.9258482,-109.14583,-93.30865,36.41122,25.902863,32.19543,9.939048,-10.665119
183,12.950065612792969,-24.028709411621094,78.48838806152344,0.6696585006564613,4.671481021037161,-24.57512561458009,16.449532,21.994032,33.192112,34.698013,23.760883,-7.3111196,-15.961845,4.668992,2.1382039,19.098639,-6.543769,-2.0901585,-35.819206,-4.8767095,-2.1187613,-124.60991,42.322277,-71.087585,64.62278,-40.3126,-4.427743,2.5208654,-117.61879,-92.584694,44.91503,27.640938,33.89964,9.955912,-10.0817795
184,13.098470687866211,-24.074935913085938,78.5239486694336,0.7874938246668252,4.920565703320504,-25.159537659369278,16.299673,21.302654,32.329155,34.148117,24.65005,-7.8335886,-16.09796,4.741938,2.7304237,18.964558,-6.456042,-2.0493023,-35.402657,-4.4071164,-1.9963459,-125.51775,42.449112,-70.53764,65.377266,-41.211903,-4.112163,2.1618314,-125.581,-91.72807,52.925728,29.38423,35.880836,9.904522,-9.43425
185,13.235941886901855,-24.11622428894043,78.56163024902344,0.9025362995567232,5.176490727817037,-25.711683441910278,16.117205,20.646626,31.509516,33.651173,25.50274,-8.2878895,-16.232277,4.8043017,3.3131778,18.797342,-6.352204,-2.009517,-34.901028,-3.9282272,-1.847614,-126.3851,42.56208,-69.982506,66.02618,-41.869442,-3.8277926,1.8541723,-132.74437,-90.75533,60.140285,31.095572,38.23711,9.7560215,-8.717273
186,13.369050979614258,-24.145891189575195,78.5958480834961,1.0162518673896497,5.441281520307621,-26.233954018633224,15.90814,20.020584,30.738155,33.192844,26.322887,-8.694502,-16.371561,4.8537397,3.8828125,18.60781,-6.237459,-1.9687316,-34.374485,-3.4646664,-1.7151133,-127.20031,42.65818,-69.442406,66.60976,-42.340244,-3.5548162,1.562242,-138.76132,-89.69861,66.24197,32.71368,40.850452,9.546735,-7.969824
187,13.497861862182617,-24.176115036010742,78.63372039794922,1.127008718901978,5.7032059712047785,-26.726515208127257,15.692675,19.419184,30.004896,32.757545,27.113546,-9.07904,-16.507439,4.889671,4.4269805,18.410564,-6.119264,-1.9276451,-33.91678,-3.0534024,-1.650764,-127.93251,42.738434,-69.01088,67.16851,-42.72773,-3.316165,1.2906207,-143.18298,-88.61414,70.831116,34.15924,43.449455,9.299885,-7.211515
188,13.623661994934082,-24.196176528930664,78.67242431640625,1.2322290961684312,5.949628966054151,-27.189349460181667,15.49326,18.837666,29.299461,32.330208,27.877104,-9.466997,-16.629074,4.91195,4.9331245,18.216764,-6.003481,-1.8868995,-33.618454,-2.7236664,-1.6519051,-128.61504,42.810158,-68.795906,67.751236,-43.142483,-3.1315303,1.0397733,-145.90837,-87.57024,73.747055,35.38052,45.750107,9.068529,-6.4250064
189,13.745920181274414,-24.201351165771484,78.7120590209961,1.332689695809836,6.175999814301808,-27.619367501534775,15.305668,18.271927,28.602934,31.909218,28.624798,-9.86784,-16.732508,4.915727,5.3922973,18.02532,-5.8889713,-1.8448774,-33.485477,-2.4714117,-1.6606897,-129.31705,42.887383,-68.86535,68.34576,-43.6049,-3.0270023,0.8103254,-147.4549,-86.6111,75.42899,36.42511,47.69129,8.891647,-5.5169873
190,13.86115550994873,-24.201841354370117,78.74321746826172,1.3826003606219424,6.407212779015665,-27.992974317682396,15.036956,17.813473,27.8804,31.631205,29.29151,-10.27516,-16.819338,4.9400706,5.768619,17.77557,-5.743992,-1.8087329,-33.477657,-2.2103908,-1.6338171,-130.05075,42.978245,-69.141426,68.92152,-44.071415,-2.9830854,0.5966067,-148.40608,-85.73924,76.44156,37.340923,49.437973,8.757122,-4.504916
191,13.968868255615234,-24.192832946777344,78.76360321044922,1.3325914646905241,6.6623228527786305,-28.29406432405334,14.617697,17.556871,27.120197,31.62805,29.792307,-10.68692,-16.89237,5.033496,6.0312505,17.426712,-5.546599,-1.7894267,-33.55899,-1.8579484,-1.5535011,-130.79193,43.082165,-69.48284,69.48526,-44.562286,-2.9503853,0.3886732,-149.08543,-84.93558,77.10442,38.12074,51.07683,8.658109,-3.5180502
192,14.069681167602539,-24.178518295288086,78.77725219726562,1.2833423234696173,6.902320958698686,-28.58658916243243,14.162399,17.361584,26.438322,31.83984,30.000067,-11.067214,-16.974651,5.125746,6.2930255,17.128311,-5.3748145,-1.774694,-33.639175,-1.5204401,-1.4591167,-131.50327,43.19637,-69.77475,70.050545,-45.095367,-2.882632,0.17830855,-149.61435,-84.1827,77.53249,38.74357,52.67112,8.583608,-2.6866608
193,14.171086311340332,-24.16424560546875,78.78827667236328,1.2331036002495002,7.122713908919609,-28.87171601587662,13.710945,17.217197,25.862112,32.18226,30.000067,-11.410178,-17.057798,5.219645,6.5558314,16.875359,-5.226514,-1.7676055,-33.70621,-1.1891117,-1.3439065,-132.1796,43.32188,-70.00485,70.63,-45.67867,-2.776021,-0.025010161,-150.0428,-83.46944,77.784325,39.1978,54.266003,8.520946,-2.0748959
194,14.272470474243164,-24.14658546447754,78.79553985595703,1.1835603826183447,7.324942697325166,-29.144469569152225,13.322303,17.084267,25.389006,32.47297,30.000067,-11.723535,-17.135187,5.309378,6.812268,16.649687,-5.093202,-1.7659669,-33.76512,-0.86340445,-1.2084694,-132.82234,43.461174,-70.20706,71.20183,-46.298447,-2.654679,-0.2190899,-150.40572,-82.789734,77.91668,39.521046,55.832745,8.464054,-1.6076792
195,14.370569229125977,-24.13434600830078,78.80338287353516,1.1392693658088917,7.520770654133696,-29.404006423262178,12.979443,16.954987,24.995909,32.714478,30.000067,-12.011701,-17.222017,5.392135,7.0609417,16.454826,-4.9761558,-1.7643901,-33.818985,-0.54558563,-1.0732878,-133.42183,43.611122,-70.35019,71.74794,-46.941017,-2.5109622,-0.42449555,-150.72728,-82.13989,77.94706,39.75642,57.31051,8.412258,-1.2034233
196,14.454107284545898,-24.121986389160156,78.807373046875,1.10459307673386,7.721370538058546,-29.64978256725879,12.666042,16.820606,24.659758,32.90858,30.000067,-12.279623,-17.33532,5.465727,7.3004985,16.298204,-4.878929,-1.7577109,-33.871395,-0.23936987,-0.9587642,-133.96928,43.76464,-70.40358,72.2546,-47.592022,-2.336966,-0.6617987,-151.0259,-81.51804,77.886566,39.946106,58.63817,8.367935,-0.7806977
197,14.54001522064209,-24.11113166809082,78.80941009521484,1.0825587016884235,7.932631439052609,-29.88274421134713,12.379519,16.682533,24.39656,33.0534,30.000067,-12.524428,-17.48256,5.527731,7.533677,16.180325,-4.8009624,-1.7421286,-33.918324,0.055779595,-0.8723295,-134.45853,43.914833,-70.32816,72.734215,-48.269207,-2.1158762,-0.94179106,-151.30766,-80.92497,77.72447,40.089386,59.839413,8.312545,-0.26740584
198,14.61672306060791,-24.105449676513672,78.81016540527344,1.069800445512261,8.148186703533867,-30.102349573479056,12.125357,16.54822,24.211185,33.151394,30.000067,-12.743346,-17.653925,5.5804434,7.7592773,16.096024,-4.739917,-1.7213031,-33.957916,0.34155673,-0.8033219,-134.89578,44.059277,-70.149414,73.19738,-48.97152,-1.8562158,-1.2509978,-151.57115,-80.36302,77.46912,40.16955,60.93374,8.24865,0.2764231
199,14.685317993164062,-24.096023559570312,78.80854797363281,1.0608852536322628,8.36096938709936,-30.30530553430584,11.900795,16.416088,24.063623,33.209293,30.000067,-12.942494,-17.842505,5.629206,7.970203,16.050806,-4.7004323,-1.7013137,-33.996304,0.6147448,-0.7450139,-135.29141,44.196854,-69.93643,73.62819,-49.656784,-1.5878346,-1.5749425,-151.82211,-79.83328,77.159,40.202374,61.85383,8.207939,0.7329783
200,14.75104808807373,-24.08405303955078,78.80132293701172,1.0508930343865086,8.564012308851428,-30.488361106349497,11.702832,16.282337,23.911303,33.234577,30.000067,-13.131539,-18.045736,5.679184,8.158993,16.057764,-4.691652,-1.6881602,-34.03834,0.8731541,-0.6901842,-135.65556,44.327103,-69.756355,74.00987,-50.28398,-1.3417916,-1.9000576,-152.06558,-79.33473,76.8322,40.2056,62.53025,8.218028,0.9833357
201,14.814545631408691,-24.07782745361328,78.7912368774414,1.0413908118227524,8.758863794496552,-30.65295072404405,11.538847,16.149464,23.778927,33.221386,30.000067,-13.299715,-18.259249,5.7278247,8.32891,16.10361,-4.7045674,-1.6831537,-34.081093,1.1159424,-0.64023066,-135.99083,44.447666,-69.595924,74.35502,-50.82601,-1.1211747,-2.2244115,-152.30292,-78.86571,76.48112,40.164524,62.958332,8.30147,0.9807482
202,14.870723724365234,-24.073753356933594,78.77771759033203,1.0346263210489643,8.948492402357248,-30.79962465944349,11.402395,16.014477,23.663343,33.173058,30.000067,-13.461984,-18.505226,5.7761617,8.479879,16.22629,-4.7599325,-1.6833926,-34.1226,1.34493,-0.5975444,-136.29338,44.556503,-69.43021,74.67219,-51.31091,-0.91285706,-2.557525,-152.53346,-78.426544,76.09316,40.077076,63.169704,8.432176,0.7927888
203,14.92329216003418,-24.07416343688965,78.762451171875,1.0242972181839711,9.127762486164574,-30.92484152208952,11.290177,15.885477,23.542982,33.09361,30.000067,-13.59362,-18.735464,5.8235435,8.608854,16.340422,-4.814129,-1.6879945,-34.17054,1.562168,-0.5580223,-136.56432,44.655163,-69.310486,74.931175,-51.778896,-0.72009045,-2.8992803,-152.76122,-78.01903,75.70538,39.9819,63.157574,8.564503,0.47187218
204,14.97014045715332,-24.075944900512695,78.74376678466797,1.0129277107093293,9.294852977754754,-31.02093036480394,11.185327,15.75388,23.367353,32.993866,30.000067,-13.705431,-18.953266,5.8658934,8.708793,16.460484,-4.8787336,-1.6943923,-34.23434,1.7669119,-0.5230236,-136.80461,44.747284,-69.286194,75.100464,-52.271202,-0.54650563,-3.2503045,-152.98932,-77.645424,75.35317,39.918785,62.914364,8.654641,0.07082757
205,15.016423225402832,-24.082141876220703,78.72370910644531,0.9941985291175841,9.44565497664406,-31.08818589279027,11.097917,15.620005,23.124504,32.86234,30.000067,-13.804637,-19.148489,5.910118,8.776244,16.576298,-4.9467316,-1.7049407,-34.31519,1.9603649,-0.4858249,-137.01738,44.835472,-69.37799,75.17505,-52.773975,-0.38016257,-3.635157,-153.22221,-77.30599,75.05487,39.902996,62.33957,8.690424,-0.4723654
206,15.061116218566895,-24.09027671813965,78.70661926269531,0.9671522236219259,9.581189002944987,-31.130985606051997,11.033173,15.488066,22.834967,32.698154,30.000067,-13.890995,-19.324104,5.958849,8.815006,16.688593,-5.0177174,-1.7207476,-34.40696,2.1451793,-0.44490227,-137.202,44.919968,-69.5562,75.170135,-53.27338,-0.2237961,-4.0476813,-153.45683,-77.0004,74.78816,39.911407,61.471024,8.704248,-1.1616181
207,15.097565650939941,-24.10576057434082,78.68925476074219,0.9317903333415928,9.703551537071277,-31.15290478349787,10.972055,15.363064,22.497194,32.529697,30.000067,-13.9621315,-19.468985,6.0097404,8.83064,16.770338,-5.0810647,-1.7395386,-34.507164,2.3235457,-0.40301958,-137.35394,45.001015,-69.80125,75.07719,-53.811733,-0.09914712,-4.4375367,-153.68811,-76.729675,74.53199,39.918774,60.509674,8.714936,-1.8566282
208,15.13524341583252,-24.122539520263672,78.67317962646484,0.8887788011327165,9.814422798553828,-31.15741992871743,10.896855,15.251168,22.114346,32.384773,30.000067,-14.010364,-19.573158,6.060603,8.828573,16.794956,-5.126308,-1.7590346,-34.612637,2.4984994,-0.36166668,-137.47049,45.07859,-70.093,74.89842,-54.432415,-0.03303539,-4.76127,-153.91002,-76.4964,74.26356,39.899887,59.655544,8.732736,-2.4161131
209,15.168106079101562,-24.140762329101562,78.65782928466797,0.8340518134927224,9.908772689143657,-31.138305426682898,10.80321,15.151616,21.65398,32.267548,30.000067,-14.023584,-19.621637,6.1122284,8.801537,16.744942,-5.148831,-1.7827406,-34.730923,2.6722584,-0.31473666,-137.54274,45.152863,-70.438675,74.60029,-55.141777,-0.01980203,-5.091858,-154.1257,-76.30489,73.970955,39.857624,58.942043,8.701133,-2.761434
210,15.197917938232422,-24.1646728515625,78.64579772949219,0.7689568152967177,9.987641774373376,-31.095772860218542,10.699414,15.060736,21.123352,32.165455,30.000067,-14.011495,-19.625174,6.1652236,8.749401,16.63994,-5.155759,-1.8103832,-34.861423,2.841721,-0.26220146,-137.5771,45.224155,-70.84696,74.19368,-55.92001,-0.04862854,-5.426345,-154.33368,-76.15842,73.66304,39.79587,58.26649,8.631145,-2.9821756
211,15.225160598754883,-24.187213897705078,78.63391876220703,0.7020517245379391,10.061947219345871,-31.043636474083588,10.59103,14.983665,20.596567,32.076653,30.000067,-13.986375,-19.604794,6.2158256,8.689376,16.495298,-5.147483,-1.8337407,-34.989902,3.0016804,-0.21586983,-137.59152,45.2929,-71.29782,73.7387,-56.76897,-0.1384853,-5.6031303,-154.52446,-76.0578,73.35514,39.695408,57.630802,8.628844,-3.187386
212,15.248547554016113,-24.211545944213867,78.62425231933594,0.6416068394528553,10.142477536897989,-30.995561423461734,10.482192,14.925308,20.144423,31.999998,30.000067,-13.964691,-19.58427,6.261053,8.638245,16.330341,-5.12584,-1.844796,-35.10123,3.1477191,-0.18769604,-137.60286,45.359303,-71.7693,73.297554,-57.68929,-0.31483608,-5.4629097,-154.69098,-76.00064,73.064926,39.53705,57.03561,8.802438,-3.4842176
213,15.269697189331055,-24.24185562133789,78.61549377441406,0.5896806719347916,10.232393943038378,-30.949304274748634,10.371992,14.88971,19.782753,31.93365,30.000067,-13.94995,-19.56498,6.297038,8.597494,16.139053,-5.086817,-1.8383693,-35.192917,3.281205,-0.18447803,-137.60326,45.424152,-72.270775,72.85738,-58.77103,-0.6392336,-4.858195,-154.83957,-75.98495,72.77847,39.31562,56.501934,9.240513,-3.898199
214,15.2848482131958,-24.268346786499023,78.60729217529297,0.5419866351021992,10.325940170658294,-30.899601651939093,10.258705,14.873704,19.475271,31.878267,30.000067,-13.933188,-19.535845,6.326131,8.559328,15.913536,-5.0298443,-1.8198652,-35.272938,3.403601,-0.19843799,-137.58736,45.4879,-72.80871,72.39536,-59.978287,-1.0977322,-3.9160295,-154.97308,-76.009995,72.4936,39.04196,56.025295,9.866167,-4.370157
215,15.300252914428711,-24.296165466308594,78.60041809082031,0.4974099904662822,10.420154781254695,-30.85491697331753,10.143633,14.870351,19.21161,31.8376,30.000067,-13.914397,-19.50105,6.353789,8.52629,15.672791,-4.9649167,-1.7970827,-35.339714,3.512003,-0.22086298,-137.57303,45.55062,-73.35546,71.94971,-61.126133,-1.5928526,-2.8782005,-155.08237,-76.07269,72.253174,38.73181,55.571827,10.539628,-4.88055
216,15.31355094909668,-24.3244686126709,78.59565734863281,0.4544332320677672,10.512311233730705,-30.823714251831532,10.029663,14.874671,18.986176,31.81381,30.000067,-13.888537,-19.462978,6.3851213,8.501071,15.429796,-4.8982935,-1.7777772,-35.389572,3.6038773,-0.2449695,-137.57611,45.61151,-73.879715,71.55761,-62.034676,-2.0119522,-1.979342,-155.16342,-76.16547,72.10927,38.403435,55.106136,11.120375,-5.4111214
217,15.326128959655762,-24.352506637573242,78.59268188476562,0.41362597668641893,10.606189530060972,-30.81031795727223,9.911349,14.886891,18.807127,31.811844,30.000067,-13.847764,-19.421627,6.420119,8.484747,15.177395,-4.8284674,-1.7649658,-35.41428,3.6820168,-0.27786303,-137.59769,45.67019,-74.3838,71.239845,-62.612,-2.3104877,-1.2337295,-155.22209,-76.27965,72.10232,38.067497,54.596638,11.59867,-5.94712
218,15.335533142089844,-24.387348175048828,78.5889663696289,0.3800810098260733,10.705995865033355,-30.808835279774787,9.785238,14.907142,18.68202,31.828796,30.000067,-13.789831,-19.385359,6.4512734,8.477467,14.921993,-4.7582326,-1.7529788,-35.37325,3.7773292,-0.3708918,-137.50705,45.692062,-74.68655,70.993095,-62.84553,-2.569388,-0.5270942,-155.2502,-76.325264,72.222115,37.789783,54.004417,12.0421095,-6.4937267
219,15.34455394744873,-24.423978805541992,78.58580017089844,0.34813204170846745,10.79724695789566,-30.8127930820352,9.668113,14.934889,18.58384,31.855219,30.000067,-13.736338,-19.346352,6.4848404,8.474889,14.678552,-4.690886,-1.739814,-35.355217,3.8415291,-0.43876025,-137.50444,45.71719,-75.0991,70.77863,-63.094006,-2.780773,0.106227115,-155.28783,-76.37477,72.418785,37.51915,53.490543,12.414154,-7.0971446
220,15.35184097290039,-24.458494186401367,78.58216857910156,0.3162921346965672,10.872245408396562,-30.8170201106121,9.571496,14.96742,18.495398,31.88124,30.000067,-13.701591,-19.302507,6.5224257,8.47684,14.460327,-4.6282787,-1.7218119,-35.348534,3.883738,-0.48467314,-137.5315,45.743954,-75.49181,70.56934,-63.402493,-2.988719,0.6131041,-155.3105,-76.42749,72.63131,37.262356,53.064957,12.682962,-7.769508
221,15.357748985290527,-24.49904441833496,78.57901763916016,0.28212235079322456,10.929542375457574,-30.82253350127082,9.498104,15.006798,18.414223,31.905088,30.000067,-13.698486,-19.25658,6.568663,8.485569,14.274892,-4.568267,-1.6972331,-35.34802,3.909329,-0.5140173,-137.56245,45.770683,-75.797066,70.36006,-63.753536,-3.1829343,0.9440925,-155.27849,-76.47975,72.83599,37.0015,52.726337,12.819799,-8.548993
222,15.363614082336426,-24.5379581451416,78.57610321044922,0.2479352689371824,10.973340317585528,-30.831088855288602,9.44226,15.052813,18.349255,31.931185,30.000067,-13.715526,-19.203236,6.6196227,8.501431,14.102539,-4.508038,-1.667949,-35.353306,3.9165905,-0.52954906,-137.61264,45.797802,-76.05972,70.16321,-64.11273,-3.348882,1.137961,-155.21005,-76.530594,73.06434,36.740623,52.45885,12.847151,-9.416603
223,15.369179725646973,-24.57718276977539,78.5721664428711,0.21568708770693093,11.004806480398408,-30.84041471096605,9.400155,15.103001,18.299364,31.961264,30.000067,-13.733885,-19.147198,6.671633,8.518314,13.952378,-4.457049,-1.6364962,-35.3531,3.9088497,-0.5364166,-137.667,45.826984,-76.31298,69.95984,-64.49956,-3.5295212,1.2916445,-155.15617,-76.58228,73.33005,36.499035,52.24041,12.827,-10.306897
224,15.37132740020752,-24.621566772460938,78.56987762451172,0.18714192252724526,11.024337565299424,-30.84805460842958,9.369259,15.154618,18.263466,31.996546,30.000067,-13.734257,-19.088804,6.720153,8.530179,13.826465,-4.4236007,-1.6053276,-35.339245,3.896224,-0.54248446,-137.68877,45.854343,-76.5344,69.74396,-64.88201,-3.7675295,1.5010403,-155.12445,-76.62749,73.57579,36.292706,52.00768,12.838952,-11.147203
225,15.377968788146973,-24.66204833984375,78.56245422363281,0.16327711291317318,11.029311565579134,-30.85133345871376,9.346095,15.208771,18.236532,32.046215,30.000067,-13.708769,-19.027468,6.763799,8.533564,13.731664,-4.414565,-1.5738827,-35.309483,3.878246,-0.547464,-137.6654,45.87837,-76.74163,69.50794,-65.28162,-4.10662,1.7941194,-155.11679,-76.66335,73.78428,36.121277,51.72674,12.900327,-11.949336
226,15.376202583312988,-24.70010757446289,78.556884765625,0.1427939089774317,11.020630550695866,-30.85226731263814,9.33259,15.26646,18.220554,32.106537,30.000067,-13.668643,-18.962408,6.8051705,8.532321,13.662138,-4.4226336,-1.5412687,-35.27688,3.844131,-0.5487525,-137.628,45.91163,-76.980736,69.253654,-65.7201,-4.517186,2.114928,-155.12976,-76.70816,73.99637,35.973892,51.4421,12.966154,-12.7375145
227,15.377077102661133,-24.74310874938965,78.5499267578125,0.12437138666349178,11.003432002848465,-30.85480985109437,9.335181,15.325012,18.224934,32.1603,30.000067,-13.623052,-18.896576,6.8457594,8.530517,13.609975,-4.439412,-1.5094259,-35.249832,3.804379,-0.54111,-137.59073,45.93612,-77.17146,69.01253,-66.12896,-4.92158,2.4429038,-155.12944,-76.737366,74.1487,35.857544,51.180016,13.045305,-13.466376
228,15.37884521484375,-24.779932022094727,78.54268646240234,0.1064405380191826,10.984874849594641,-30.863866446504264,9.357267,15.381864,18.259245,32.1914,30.000067,-13.5815115,-18.83576,6.8879356,8.532666,13.566638,-4.455841,-1.4805237,-35.23998,3.7547371,-0.53324336,-137.57602,45.960438,-77.33149,68.79841,-66.487015,-5.258271,2.7516606,-155.12167,-76.7641,74.28118,35.78037,51.00215,13.121224,-14.085408
229,15.378479957580566,-24.815473556518555,78.5364761352539,0.09092268537398941,10.967700486886379,-30.878675999367573,9.399013,15.432879,18.321507,32.194096,30.000067,-13.550272,-18.784138,6.928739,8.538804,13.535755,-4.4729905,-1.454046,-35.259678,3.6944785,-0.5238369,-137.59631,45.972305,-77.38614,68.64294,-66.74273,-5.4894,3.0187697,-155.09023,-76.776924,74.34248,35.772625,50.890636,13.205522,-14.522462
230,15.378534317016602,-24.85416603088379,78.5297622680664,0.07586143417188652,10.945422010590136,-30.89954359396076,9.46241,15.482334,18.409817,32.177315,30.000067,-13.523809,-18.734142,6.970981,8.547952,13.516745,-4.4929385,-1.4296352,-35.285748,3.6246407,-0.5125297,-137.62466,45.989067,-77.40719,68.50026,-66.9856,-5.687379,3.2964795,-155.06047,-76.79533,74.39764,35.78314,50.84446,13.310319,-14.881503
231,15.373371124267578,-24.88818359375,78.52542114257812,0.06003183033686831,10.919408128993789,-30.925091143460282,9.5419035,15.535043,18.527742,32.147366,30.000067,-13.491362,-18.682028,7.0155735,8.559512,13.498382,-4.509567,-1.4082645,-35.305744,3.5547657,-0.5010597,-137.6473,46.00373,-77.40135,68.35395,-67.18004,-5.8454905,3.5696151,-155.02945,-76.811745,74.448105,35.804333,50.870674,13.39104,-15.192237
232,15.370160102844238,-24.923553466796875,78.5189437866211,0.04084960642600102,10.891224713720112,-30.955540043146215,9.632221,15.597068,18.679554,32.11157,30.000067,-13.442632,-18.622206,7.064759,8.573644,13.464784,-4.5138106,-1.3912729,-35.30644,3.4956248,-0.49769872,-137.64046,46.013824,-77.39253,68.19538,-67.29666,-5.9686003,3.8288424,-154.98169,-76.823074,74.501465,35.82598,50.971138,13.408208,-15.504348
233,15.367887496948242,-24.957448959350586,78.5125732421875,0.015677414305290956,10.855448082409866,-30.994562243118985,9.73895,15.6756115,18.87642,32.07679,30.000067,-13.376625,-18.547422,7.1230807,8.5919695,13.4132595,-4.5015764,-1.3824915,-35.273277,3.445928,-0.5049106,-137.58202,46.031452,-77.40096,67.99281,-67.3242,-6.0495477,4.094555,-154.92479,-76.84138,74.6154,35.83664,51.22523,13.313532,-15.865617
234,15.36521053314209,-24.989688873291016,78.50463104248047,-0.011095002844030009,10.821528756760838,-31.033225616029227,9.846315,15.764964,19.102518,32.044464,30.000067,-13.298792,-18.477526,7.1838746,8.606866,13.363618,-4.4842324,-1.379732,-35.235123,3.402312,-0.519692,-137.52435,46.05465,-77.43374,67.79459,-67.284454,-6.0693355,4.313456,-154.87314,-76.863335,74.74901,35.873222,51.58143,13.139819,-16.179556
235,15.356986045837402,-25.024826049804688,78.4997787475586,-0.03868830879030933,10.786157798039513,-31.07894456217754,9.971989,15.852138,19.357521,31.988628,30.000067,-13.206351,-18.394442,7.245665,8.629796,13.285781,-4.4511952,-1.3761427,-35.19342,3.3563397,-0.5346764,-137.46574,46.07071,-77.4831,67.5888,-67.22935,-6.077387,4.532902,-154.81526,-76.877365,74.882126,35.91832,51.979572,12.937876,-16.484688
236,15.34384536743164,-25.05902099609375,78.49942779541016,-0.06412937744295029,10.74996317576343,-31.134644557314694,10.124605,15.923492,19.634369,31.887207,30.000067,-13.097398,-18.297043,7.3053164,8.667265,13.176239,-4.4064107,-1.364717,-35.150726,3.302425,-0.5528786,-137.4077,46.095764,-77.545044,67.37716,-67.20634,-6.1180425,4.7648225,-154.75932,-76.898026,75.04285,35.971035,52.354576,12.748305,-16.78665
237,15.33242130279541,-25.091461181640625,78.499267578125,-0.0888986279241003,10.71318672932761,-31.200429158078897,10.30539,15.979068,19.931952,31.738565,30.000067,-12.986614,-18.176327,7.363064,8.721493,13.01544,-4.342259,-1.3500545,-35.10733,3.2424495,-0.5710356,-137.3415,46.112923,-77.60497,67.15477,-67.20991,-6.203739,5.027199,-154.69168,-76.912186,75.19813,36.02573,52.642876,12.605287,-17.090221
238,15.315619468688965,-25.12627601623535,78.50476837158203,-0.11318135321044566,10.674438400383224,-31.27528082581479,10.511568,16.02347,20.253756,31.552242,30.000067,-12.870552,-18.040434,7.420758,8.78874,12.823481,-4.2658763,-1.333852,-35.05639,3.178594,-0.59573555,-137.26286,46.13441,-77.67714,66.926125,-67.225105,-6.3149443,5.3055463,-154.62685,-76.92991,75.39698,36.092484,52.903908,12.470495,-17.391888
239,15.302555084228516,-25.155336380004883,78.509033203125,-0.134150869373264,10.635095541285276,-31.36059403868261,10.7429085,16.050243,20.60001,31.3223,30.000067,-12.719833,-17.896236,7.4749465,8.868605,12.611246,-4.1779003,-1.3046197,-34.993626,3.1079905,-0.62341297,-137.1835,46.166378,-77.741005,66.67411,-67.26143,-6.435806,5.579468,-154.57797,-76.95626,75.62462,36.153122,53.22915,12.310022,-17.687847
