unveil-humanoid-operators/unveil-humanoid-operators.github.io/assets/demos/g1_csv/exercising.csv
Frame,root_translateX,root_translateY,root_translateZ,root_rotateX,root_rotateY,root_rotateZ,left_hip_pitch_joint_dof,left_hip_roll_joint_dof,left_hip_yaw_joint_dof,left_knee_joint_dof,left_ankle_pitch_joint_dof,left_ankle_roll_joint_dof,right_hip_pitch_joint_dof,right_hip_roll_joint_dof,right_hip_yaw_joint_dof,right_knee_joint_dof,right_ankle_pitch_joint_dof,right_ankle_roll_joint_dof,waist_yaw_joint_dof,waist_roll_joint_dof,waist_pitch_joint_dof,left_shoulder_pitch_joint_dof,left_shoulder_roll_joint_dof,left_shoulder_yaw_joint_dof,left_elbow_joint_dof,left_wrist_roll_joint_dof,left_wrist_pitch_joint_dof,left_wrist_yaw_joint_dof,right_shoulder_pitch_joint_dof,right_shoulder_roll_joint_dof,right_shoulder_yaw_joint_dof,right_elbow_joint_dof,right_wrist_roll_joint_dof,right_wrist_pitch_joint_dof,right_wrist_yaw_joint_dof
0,0.05437266826629639,2.1510324478149414,78.1528091430664,0.3088685823201381,-1.343250875541013,-90.77050842875114,1.5167185,2.603943,-1.6905233,9.732557,-11.649945,-2.961529,0.6239143,-7.2306666,-9.147425,12.383621,-10.753038,6.5527606,-1.0048107,-1.5743585,7.6885557,-0.14834416,14.468168,-29.187767,61.89945,21.321045,8.357161,9.434583,-5.9140105,-15.589025,36.87949,62.65345,-6.9954395,3.3820848,-5.302172
1,0.04918260499835014,2.176919460296631,78.16690063476562,0.30185632458861206,-1.2080198054542193,-90.72521267662411,1.3479338,2.6078088,-1.7287153,9.669908,-11.542941,-2.9655116,0.51195866,-7.2189317,-9.219201,12.253847,-10.651926,6.529566,-1.0314904,-1.5734673,7.647164,-0.276047,14.503327,-29.290844,61.787495,21.51678,8.366804,9.201703,-6.047585,-15.630802,36.942345,62.5516,-7.1176367,3.4399443,-5.06045
2,0.04479508846998215,2.2090566158294678,78.18102264404297,0.29725722656421766,-1.0749471277678722,-90.68077062426278,1.18387,2.6103692,-1.7657481,9.605581,-11.436157,-2.9675415,0.40152314,-7.2103367,-9.293643,12.127667,-10.553875,6.5066457,-1.0502547,-1.5761923,7.6146216,-0.3864991,14.565599,-29.40732,61.64548,21.70901,8.379429,8.960147,-6.150845,-15.700833,36.993828,62.40749,-7.230695,3.4968085,-4.814659
3,0.04284946620464325,2.245598554611206,78.19911193847656,0.2888182026471233,-0.9371571969291296,-90.63453464872542,1.0082345,2.6164212,-1.8055462,9.548212,-11.330804,-2.9738166,0.2868673,-7.197027,-9.362512,11.995145,-10.449866,6.483255,-1.0646627,-1.5784737,7.5977664,-0.48551324,14.665565,-29.521431,61.445614,21.887022,8.3805,8.715598,-6.238006,-15.814003,37.042633,62.197357,-7.353272,3.5556555,-4.5596027
4,0.038643933832645416,2.2895185947418213,78.21349334716797,0.2722497999503682,-0.7877174564482544,-90.58379256560106,0.80371106,2.6307392,-1.8522302,9.509352,-11.229842,-2.9904792,0.16232434,-7.1714807,-9.417685,11.844989,-10.329603,6.458784,-1.0845618,-1.5723314,7.584511,-0.6007558,14.778596,-29.619349,61.216064,22.039747,8.356104,8.483164,-6.3593087,-15.944608,37.11685,61.969543,-7.4968486,3.6166408,-4.2974005
5,0.03577898442745209,2.3366966247558594,78.23107147216797,0.2494984828489214,-0.6215284257261352,-90.52728649321702,0.5780515,2.652672,-1.9067364,9.458404,-11.117966,-3.0214317,0.019743536,-7.132919,-9.442111,11.68022,-10.192417,6.4309697,-1.1102519,-1.5583093,7.570179,-0.73362136,14.91089,-29.708487,60.94821,22.155212,8.294385,8.256161,-6.512435,-16.100033,37.218517,61.712307,-7.6757407,3.6805167,-4.0226383
6,0.03137632831931114,2.387678623199463,78.24867248535156,0.22055995771110284,-0.44337286366486406,-90.46669547323829,0.33952662,2.6800084,-1.9667823,9.394233,-10.995825,-3.0625527,-0.13537279,-7.0854707,-9.444935,11.5043955,-10.042749,6.4008694,-1.1390063,-1.5391927,7.5582895,-0.87148315,15.062665,-29.787058,60.639954,22.24837,8.206123,8.0317335,-6.682892,-16.28173,37.34016,61.420986,-7.877377,3.7465477,-3.73733
7,0.028032803907990456,2.442511558532715,78.26404571533203,0.18864915086021833,-0.26209889645876094,-90.40467273098741,0.093097806,2.712517,-2.0294557,9.328301,-10.866837,-3.1076932,-0.28910416,-7.032298,-9.455952,11.310156,-9.8801565,6.373397,-1.1685749,-1.515938,7.562123,-1.022192,15.233469,-29.853796,60.302216,22.319565,8.110307,7.824907,-6.8721714,-16.489296,37.477863,61.099926,-8.081641,3.8135908,-3.4494226
8,0.020021896809339523,2.4981765747070312,78.28162384033203,0.15422669084450624,-0.08616945198305223,-90.3436611962894,-0.15461944,2.7495341,-2.0916114,9.268617,-10.732769,-3.1507108,-0.42920622,-6.9769864,-9.504686,11.093781,-9.706311,6.353306,-1.1967335,-1.4908415,7.59378,-1.1868132,15.421437,-29.899479,59.941498,22.379095,8.0264635,7.6503,-7.084718,-16.722261,37.62858,60.758728,-8.268444,3.8805573,-3.1671383
9,0.011839564889669418,2.5671496391296387,78.30249786376953,0.10722131046836007,0.08258455432258723,-90.27662480364943,-0.48270565,2.7970853,-2.167011,9.380825,-10.678544,-3.1935723,-0.557841,-6.911162,-9.613897,10.861663,-9.5145,6.327998,-1.229895,-1.4529569,7.6581383,-1.3675514,15.62627,-29.917242,59.548306,22.427544,7.960538,7.5041447,-7.3226547,-16.98093,37.795456,60.38985,-8.431829,3.9487374,-2.8971195
10,0.0029200022108852863,2.6383519172668457,78.31999969482422,0.04762520871226799,0.2489504653706117,-90.20442896439637,-0.9008109,2.8559146,-2.2554398,9.676456,-10.71259,-3.238923,-0.68044597,-6.832028,-9.763954,10.614568,-9.306834,6.299261,-1.267974,-1.4012041,7.7471256,-1.5625197,15.848234,-29.912758,59.12382,22.46099,7.902027,7.3810735,-7.5855265,-17.26629,37.98116,59.994595,-8.5819235,4.018375,-2.6333923
11,-0.005447647999972105,2.7172837257385254,78.33285522460938,-0.01462735910791792,0.414177925588665,-90.1407759995021,-1.3356973,2.9198868,-2.3353105,10.007538,-10.760366,-3.2822797,-0.7857272,-6.746357,-9.922958,10.3293915,-9.093164,6.292381,-1.2988377,-1.346678,7.8544574,-1.7686287,16.084892,-29.896917,58.68969,22.482124,7.8462133,7.2936454,-7.8662457,-17.575113,38.17707,59.584095,-8.724777,4.0873504,-2.364699
12,-0.012593265622854233,2.79297137260437,78.34795379638672,-0.07730404544930843,0.5806864811804738,-90.09816975324483,-1.7587434,2.9880824,-2.3893545,10.319284,-10.795263,-3.320074,-0.8603344,-6.6545873,-10.061282,9.977491,-8.880371,6.3319263,-1.3117113,-1.2952062,7.9714723,-1.9845989,16.332138,-29.881523,58.271347,22.49314,7.788151,7.254878,-8.160428,-17.9028,38.373802,59.17702,-8.868645,4.1533966,-2.0803447
13,-0.019658921286463737,2.875682830810547,78.36324310302734,-0.13391747715681615,0.7461795847830149,-90.07702799293072,-2.1557565,3.0557652,-2.411363,10.587398,-10.806642,-3.3452039,-0.8998192,-6.560579,-10.164167,9.552385,-8.666309,6.4343586,-1.3044538,-1.2532649,8.101023,-2.220549,16.588337,-29.877108,57.88191,22.489038,7.72183,7.280616,-8.474408,-18.247074,38.573353,58.775257,-9.019489,4.218565,-1.7671553
14,-0.027191001921892166,2.958815336227417,78.38212585449219,-0.18560985505517913,0.9105428176763735,-90.07157506932079,-2.5487158,3.1240668,-2.410951,10.853589,-10.81304,-3.3616087,-0.91018116,-6.4637103,-10.249331,9.06575,-8.447156,6.583322,-1.281767,-1.2169788,8.244045,-2.4741535,16.852863,-29.874542,57.50911,22.473274,7.6515694,7.360327,-8.810375,-18.607346,38.779785,58.375767,-9.171577,4.28286,-1.4346945
15,-0.03942139819264412,3.038168430328369,78.39701843261719,-0.241266871974794,1.0790181364146456,-90.08529300786213,-2.937159,3.1998878,-2.3927739,11.108108,-10.813315,-3.3817954,-0.8987142,-6.359611,-10.33503,8.525417,-8.231543,6.7540464,-1.2440906,-1.1781973,8.389532,-2.7328706,17.122652,-29.862146,57.146866,22.452602,7.587901,7.4678535,-9.157589,-18.980005,38.98565,57.988125,-9.316865,4.34102,-1.1063863
16,-0.05461932718753815,3.118807554244995,78.41349792480469,-0.30398296653067236,1.2572259177280665,-90.1214621071785,-3.3230035,3.2904782,-2.3618066,11.344797,-10.80748,-3.4183187,-0.8723744,-6.243539,-10.439708,7.9379807,-8.027525,6.9216976,-1.190578,-1.1281883,8.525999,-2.9785545,17.392431,-29.822107,56.785908,22.442616,7.541633,7.5772877,-9.507702,-19.35941,39.186386,57.62497,-9.442273,4.3877096,-0.8062707
17,-0.062063977122306824,3.2019457817077637,78.43289184570312,-0.37528291683822274,1.456477743232615,-90.18708679284377,-3.7144752,3.3977478,-2.3116574,11.553002,-10.787271,-3.4749362,-0.8032632,-6.1122065,-10.584067,7.221402,-7.807559,7.1262236,-1.1187637,-1.0652422,8.644156,-3.217961,17.659344,-29.759012,56.43244,22.446863,7.5198054,7.700393,-9.870107,-19.74325,39.38695,57.303062,-9.545421,4.415671,-0.52926
18,-0.07350781559944153,3.281013250350952,78.45520782470703,-0.45038089437527024,1.6704677044747451,-90.2787976122317,-4.1076245,3.5156157,-2.2412453,11.738611,-10.754961,-3.544246,-0.9364238,-6.0167975,-10.726599,6.910347,-7.843931,7.3657823,-1.0295786,-0.9956699,8.750724,-3.4582925,17.92286,-29.678007,56.093044,22.459393,7.515453,7.8455243,-10.249661,-20.130074,39.591522,57.017284,-9.628714,4.429652,-0.26705354
19,-0.08306025713682175,3.364523410797119,78.47055053710938,-0.5288075755397358,1.8776827678088177,-90.38389950496645,-4.483412,3.6422083,-2.1647446,11.914802,-10.724747,-3.6222327,-1.1866784,-5.9376445,-10.848118,6.865763,-8.039013,7.5517216,-0.9315523,-0.9212435,8.856607,-3.6906593,18.18208,-29.569168,55.768734,22.469172,7.5179033,7.9823375,-10.629951,-20.515945,39.78524,56.754784,-9.704078,4.442908,-0.03923365
20,-0.09439138323068619,3.4322657585144043,78.49037170410156,-0.6126930786304551,2.056855256118968,-90.48922165518303,-4.82497,3.77819,-2.0978496,12.098074,-10.712271,-3.7053547,-1.4157356,-5.839675,-10.935332,6.8347836,-8.232567,7.5954003,-0.8327785,-0.84032243,8.973371,-3.9038682,18.435638,-29.420496,55.458004,22.46793,7.516401,8.080287,-10.992223,-20.894,39.95111,56.49975,-9.7831745,4.468447,0.13459846
21,-0.1108958050608635,3.5035431385040283,78.50768280029297,-0.710801298428532,2.206427400971177,-90.59701231648619,-5.138423,3.9340765,-2.0445282,12.305137,-10.727132,-3.7956815,-1.6275264,-5.7053037,-10.965838,6.8190007,-8.4133215,7.4553304,-0.73174053,-0.74712485,9.102296,-4.0968695,18.682398,-29.216679,55.163834,22.445877,7.5082927,8.129767,-11.340035,-21.259703,40.088135,56.26332,-9.8659725,4.511077,0.2388219
22,-0.13332651555538177,3.567169666290283,78.5215835571289,-0.8222224270699541,2.336639834292176,-90.71187205467811,-5.4331827,4.109284,-1.9985027,12.530004,-10.762672,-3.8946667,-1.829408,-5.5410566,-10.959687,6.8187227,-8.597398,7.1841717,-0.62685496,-0.64127874,9.23673,-4.2748933,18.92212,-28.966578,54.887615,22.410547,7.4993014,8.14778,-11.682835,-21.610758,40.203808,56.054836,-9.949365,4.563366,0.28660613
23,-0.15148407220840454,3.6211118698120117,78.5388412475586,-0.9361243771305089,2.4443523786259345,-90.8242757208396,-5.6945863,4.2899027,-1.9598825,12.748148,-10.806078,-3.998068,-2.0067017,-5.3679595,-10.95358,6.8306365,-8.797725,6.8354754,-0.52643055,-0.52951115,9.374214,-4.442562,19.15591,-28.70119,54.631718,22.372515,7.491118,8.144394,-12.021954,-21.946247,40.30401,55.869125,-10.032558,4.6192827,0.30100206
24,-0.17683355510234833,3.6729931831359863,78.55171203613281,-1.0408831569844612,2.526770517088636,-90.92479130488474,-5.905908,4.4619474,-1.9281629,12.931468,-10.84257,-4.1017685,-2.1412904,-5.2070994,-10.984606,6.8449645,-9.025194,6.4627438,-0.43861422,-0.41867158,9.512739,-4.610133,19.386377,-28.457424,54.402626,22.336018,7.485519,8.129913,-12.35167,-22.265835,40.384834,55.69592,-10.125612,4.6730995,0.3051702
25,-0.20786449313163757,3.720794200897217,78.56114959716797,-1.1360155385188906,2.5804018494285126,-91.01334333408577,-6.0650263,4.6252284,-1.9034432,13.083538,-10.876207,-4.2042146,-2.228025,-5.056909,-11.052907,6.863127,-9.301412,6.04751,-0.35986957,-0.31067318,9.656753,-4.780554,19.616436,-28.242764,54.19775,22.301056,7.48189,8.0913315,-12.672466,-22.569168,40.444443,55.53497,-10.2345295,4.7279067,0.30129474
26,-0.23552048206329346,3.7562944889068604,78.57328796386719,-1.2268051554049104,2.608091237508925,-91.09416507736805,-6.1784244,4.7864537,-1.885489,13.212135,-10.910185,-4.307964,-2.2754283,-4.907492,-11.14069,6.8862386,-9.614659,5.572781,-0.28691173,-0.20284067,9.805732,-4.9462843,19.846304,-28.038317,54.011875,22.26612,7.4798107,8.028073,-12.983516,-22.856186,40.47932,55.390026,-10.358675,4.785189,0.2784092
27,-0.2717058062553406,3.7904207706451416,78.58353424072266,-1.3101473345351469,2.6156182208863457,-91.16386704487266,-6.2484517,4.939958,-1.873397,13.307622,-10.935961,-4.4146976,-2.2885997,-4.769418,-11.257767,6.909409,-9.927902,5.0946455,-0.22613083,-0.09412305,9.951832,-5.104908,20.074049,-27.84441,53.850075,22.2315,7.480964,7.9696283,-13.286549,-23.12756,40.49867,55.25806,-10.474748,4.8367705,0.23982525
28,-0.3176100552082062,3.8079802989959717,78.59249877929688,-1.3829989844198154,2.6086640971981585,-91.21899141054122,-6.276527,5.080574,-1.8663262,13.358937,-10.944207,-4.526094,-2.2737443,-4.65413,-11.414717,6.930186,-10.204296,4.6687,-0.18316033,0.016741456,10.087012,-5.2499657,20.295214,-27.65671,53.714127,22.204512,7.487354,7.945247,-13.578424,-23.38386,40.50592,55.132786,-10.564762,4.874562,0.18876724
29,-0.3613424599170685,3.820972204208374,78.5988998413086,-1.4453225304786788,2.5836645480714036,-91.2582665771687,-6.25366,5.208751,-1.8624486,13.357383,-10.929871,-4.646288,-2.2253907,-4.561564,-11.616004,6.948508,-10.451169,4.2983174,-0.16272345,0.1322623,10.213439,-5.387781,20.507587,-27.48928,53.620193,22.191887,7.5002594,7.968189,-13.8609705,-23.625029,40.500336,55.01703,-10.632288,4.8964233,0.121868365
30,-0.40572136640548706,3.8273918628692627,78.6124496459961,-1.4987497970248076,2.539351104703973,-91.28357288554143,-6.1825876,5.326662,-1.8626437,13.311885,-10.899573,-4.7730446,-2.1429188,-4.4871407,-11.855286,6.965755,-10.682418,3.9573863,-0.16015972,0.25190443,10.333707,-5.5228486,20.710842,-27.341156,53.56702,22.187757,7.518497,8.021842,-14.137184,-23.85176,40.483273,54.91565,-10.68039,4.9065695,0.03844657
31,-0.44993990659713745,3.8319039344787598,78.61681365966797,-1.5403385842793833,2.4843885715329748,-91.29607362612457,-6.0847716,5.4302406,-1.8698374,13.243522,-10.863992,-4.8989882,-2.0479655,-4.439014,-12.127634,7.0009522,-10.880743,3.656903,-0.16836701,0.37117353,10.440592,-5.641611,20.90174,-27.181557,53.527615,22.182724,7.5396967,8.09056,-14.394633,-24.064611,40.44724,54.81599,-10.707673,4.907105,-0.053366885
32,-0.4985624849796295,3.831191062927246,78.61750030517578,-1.5695821295176497,2.4276627979301857,-91.29709070928224,-5.975515,5.517838,-1.8869694,13.160053,-10.827124,-5.0160213,-1.9416553,-4.4185038,-12.430629,7.0281787,-11.004182,3.4076033,-0.18101627,0.48810077,10.526001,-5.7338424,21.07637,-26.981289,53.479343,22.165314,7.561437,8.159189,-14.629605,-24.265923,40.395824,54.713715,-10.702923,4.8997426,-0.14574388
33,-0.55185866355896,3.819760799407959,78.62286376953125,-1.586306950405165,2.3666754216454344,-91.28487743627934,-5.8475227,5.5882916,-1.9164317,13.052979,-10.786534,-5.121959,-1.814164,-4.4373236,-12.80804,7.0503306,-11.070051,3.2207718,-0.20176466,0.6046295,10.590068,-5.790118,21.231604,-26.726791,53.41662,22.131256,7.5850825,8.229535,-14.834545,-24.45591,40.320477,54.600487,-10.663488,4.8855076,-0.23407169
34,-0.6048541069030762,3.8072361946105957,78.62227630615234,-1.5912811173128174,2.2982447041983933,-91.2594473870623,-5.6953797,5.643167,-1.9561458,12.920031,-10.740487,-5.2208486,-1.662903,-4.4889402,-13.247974,7.067887,-11.084815,3.087516,-0.23315199,0.7220287,10.635753,-5.8224416,21.367403,-26.437357,53.35747,22.084911,7.611172,8.3084955,-15.019329,-24.635998,40.230137,54.486504,-10.588991,4.8628726,-0.3235787
35,-0.6595073342323303,3.784541130065918,78.62145233154297,-1.5850094193054436,2.230183189830299,-91.22455482560703,-5.538174,5.684115,-2.0024917,12.7787285,-10.693816,-5.3144546,-1.5159822,-4.5506797,-13.664115,7.080721,-11.00424,2.9883385,-0.2656006,0.83904976,10.66181,-5.840984,21.482702,-26.122747,53.300713,22.038998,7.6360006,8.386942,-15.182555,-24.806787,40.127926,54.369877,-10.493644,4.8315353,-0.41993454
36,-0.7183079719543457,3.7578728199005127,78.61421966552734,-1.5670883915370988,2.1704848021079504,-91.18417392990526,-5.3942533,5.71159,-2.0514412,12.645543,-10.650518,-5.404189,-1.4011713,-4.6008854,-13.9697695,7.088475,-10.784529,2.9040666,-0.29057756,0.95290834,10.665592,-5.8573475,21.576525,-25.79349,53.24846,22.005482,7.6560287,8.455973,-15.327463,-24.970325,40.02102,54.25578,-10.390733,4.790575,-0.5289398
37,-0.7781978249549866,3.7378509044647217,78.60839080810547,-1.5344194165539633,2.134680336172774,-91.14017290491081,-5.283166,5.721429,-2.099273,12.522905,-10.611767,-5.4854794,-1.4008496,-4.6478615,-14.119809,7.2044764,-10.402214,2.804065,-0.30644587,1.0643415,10.632518,-5.873513,21.645948,-25.448997,53.210068,21.9829,7.6721673,8.520878,-15.452102,-25.127434,39.900223,54.1436,-10.274145,4.736477,-0.6615493
38,-0.8422355055809021,3.7113845348358154,78.60308074951172,-1.4862571425613524,2.114347232764107,-91.09070995837165,-5.189281,5.7130504,-2.1479635,12.40001,-10.573958,-5.5587773,-1.5917498,-4.7310653,-14.158096,7.6455607,-10.017968,2.7127926,-0.3158575,1.1733779,10.567817,-5.8859053,21.6896,-25.085909,53.1845,21.967691,7.6857586,8.584278,-15.552436,-25.278158,39.762054,54.02888,-10.1422825,4.6707845,-0.8112042
39,-0.9075080752372742,3.683014154434204,78.59034729003906,-1.428000589647484,2.081036568092978,-91.03330215549774,-5.08152,5.6936593,-2.203325,12.280337,-10.537776,-5.633387,-1.7546595,-4.810669,-14.151128,8.039987,-9.585652,2.688831,-0.31778768,1.2778983,10.499499,-5.9004107,21.711334,-24.713833,53.158672,21.96254,7.6937466,8.633268,-15.635202,-25.424637,39.632088,53.913063,-10.004439,4.600456,-0.9578277
40,-0.9733396768569946,3.6501638889312744,78.57471466064453,-1.3678952008260759,2.0059162913779662,-90.96499534501054,-4.930255,5.6736345,-2.272809,12.171467,-10.505902,-5.719237,-1.7923139,-4.8753552,-14.155245,8.285054,-9.204005,2.7848454,-0.31312776,1.37791,10.457049,-5.9169426,21.717703,-24.338417,53.112793,21.97232,7.693044,8.654203,-15.703007,-25.56967,39.53051,53.7934,-9.877212,4.5327325,-1.0811542
41,-1.0444910526275635,3.616330862045288,78.5639877319336,-1.3060395661795339,1.8699083600986133,-90.88675930004686,-4.7087107,5.6543856,-2.3547878,12.068179,-10.476887,-5.814808,-1.6476123,-4.9167056,-14.167771,8.299222,-8.86204,3.0760603,-0.29824793,1.4722534,10.4571,-5.93052,21.712646,-23.946491,53.03881,22.00952,7.686154,8.627785,-15.753981,-25.715813,39.463337,53.663296,-9.754407,4.4695015,-1.1740443
42,-1.1272644996643066,3.5767662525177,78.55733489990234,-1.2405861906648714,1.6923812340582751,-90.79966067119584,-4.442817,5.6322203,-2.4474502,11.976833,-10.454456,-5.9164476,-1.3919301,-4.9432836,-14.162641,8.174269,-8.529978,3.510161,-0.27530468,1.5621016,10.482937,-5.9368987,21.696814,-23.536861,52.939583,22.067596,7.6732426,8.5653515,-15.785617,-25.863235,39.41897,53.520046,-9.63084,4.407132,-1.2476473
43,-1.2042025327682495,3.532834768295288,78.5450439453125,-1.177669749271424,1.5015897454612754,-90.70021105296257,-4.171112,5.611623,-2.5574996,11.900845,-10.437857,-6.03127,-1.1061862,-4.9638147,-14.163487,8.034855,-8.258215,3.9454527,-0.25343135,1.6521908,10.513984,-5.940966,21.672783,-23.13734,52.815243,22.119938,7.6483994,8.499824,-15.803769,-26.011566,39.39488,53.37145,-9.520226,4.344603,-1.3093379
44,-1.2816290855407715,3.487164258956909,78.53533172607422,-1.1236676190685473,1.3255350238859631,-90.58466368781218,-3.9374378,5.5969186,-2.692587,11.855613,-10.433151,-6.1664996,-0.8652317,-4.9861627,-14.195801,7.9929695,-8.097531,4.241747,-0.2418217,1.7463676,10.530168,-5.9473276,21.643795,-22.776022,52.665134,22.140377,7.6056423,8.464055,-15.812673,-26.159706,39.38561,53.22471,-9.438733,4.280768,-1.3664594
45,-1.3620415925979614,3.439624309539795,78.52931213378906,-1.0824179241775576,1.1680589226040774,-90.44920120345972,-3.744374,5.59766,-2.8390217,11.831198,-10.430998,-6.343948,-0.6978823,-5.0101686,-14.267415,8.110414,-8.095781,4.338895,-0.24157631,1.8503916,10.531198,-5.9601593,21.612556,-22.453012,52.480656,22.105267,7.5361834,8.466727,-15.815915,-26.30703,39.39624,53.087826,-9.394526,4.2095237,-1.4210277
46,-1.444267988204956,3.4023244380950928,78.52684020996094,-1.0494865350421845,1.0152957130948466,-90.29670274055951,-3.5723655,5.6083426,-2.997854,11.826159,-10.433132,-6.5531883,-0.56082034,-5.0330434,-14.3651285,8.31609,-8.215013,4.319838,-0.24792656,1.9587376,10.526538,-5.972075,21.579327,-22.15417,52.260128,22.036371,7.445638,8.489735,-15.810891,-26.453392,39.426888,52.95535,-9.377649,4.1333556,-1.4692011
47,-1.522660732269287,3.372800350189209,78.52566528320312,-1.0178143463031717,0.8679321482043068,-90.13246839461326,-3.428371,5.6116667,-3.1990166,11.86114,-10.457296,-6.753344,-0.42579287,-5.057655,-14.483866,8.535676,-8.379412,4.2589507,-0.26149312,2.0604904,10.511619,-5.9829626,21.54478,-21.896769,52.024643,21.963028,7.3496895,8.526545,-15.790377,-26.597849,39.462936,52.812214,-9.377977,4.0641513,-1.5095818
48,-1.5971282720565796,3.3379831314086914,78.52296447753906,-0.9830868335056802,0.7266934761417024,-89.96205021504055,-3.3226476,5.5909934,-3.4728696,11.963108,-10.524466,-6.9036307,-0.26978296,-5.0876613,-14.617865,8.705076,-8.518685,4.230422,-0.28023592,2.1446095,10.481654,-5.9914412,21.508501,-21.697746,51.793087,21.918016,7.2643547,8.570872,-15.748252,-26.739716,39.491062,52.64458,-9.380901,4.013394,-1.540773
49,-1.6692094802856445,3.2965991497039795,78.52349853515625,-0.9400784950435102,0.5958924063263732,-89.78211422106082,-3.2674387,5.544689,-3.8199227,12.148716,-10.645244,-6.9864726,-0.08516868,-5.124697,-14.776936,8.800939,-8.618665,4.2510204,-0.30151796,2.2097473,10.433242,-6.003012,21.468372,-21.56071,51.570976,21.90472,7.1927505,8.632866,-15.674757,-26.878334,39.49383,52.44772,-9.384175,3.9850237,-1.5705893
50,-1.740729570388794,3.2647125720977783,78.52394104003906,-0.8949706390017718,0.4737350028392878,-89.59139798998831,-3.254714,5.4808044,-4.226717,12.402767,-10.807769,-7.025993,0.11398319,-5.1661725,-14.960306,8.861967,-8.716548,4.281958,-0.32504958,2.2618077,10.369366,-6.02012,21.423883,-21.479855,51.35095,21.907137,7.1269765,8.712424,-15.572337,-27.013844,39.478207,52.227886,-9.397709,3.9725893,-1.596945
51,-1.8068218231201172,3.2247822284698486,78.52818298339844,-0.8490478926577739,0.3517499887651254,-89.39814082196116,-3.2601817,5.3975244,-4.7024627,12.695511,-10.994488,-7.0441365,0.32525596,-5.207762,-15.147603,8.904359,-8.813143,4.3142505,-0.35343817,2.3003297,10.294325,-6.0324244,21.377811,-21.453287,51.129566,21.931784,7.0662827,8.787834,-15.458489,-27.147833,39.47436,51.990635,-9.419061,3.9722326,-1.603762
52,-1.8724430799484253,3.17887020111084,78.5331039428711,-0.805488879922904,0.22161029849008634,-89.21080191979247,-3.258161,5.293214,-5.2561135,12.995471,-11.187288,-7.0629635,0.5469353,-5.2453747,-15.318327,8.942915,-8.908453,4.338968,-0.39072546,2.3249478,10.213157,-6.0331135,21.335726,-21.481913,50.905514,21.979824,7.0098825,8.837021,-15.349536,-27.281908,39.512005,51.73986,-9.447878,3.9802375,-1.5748343
53,-1.931061029434204,3.1322498321533203,78.5344009399414,-0.7641230292027996,0.07813792550232453,-89.01838747326286,-3.2491167,5.1530056,-5.953192,13.305537,-11.380451,-7.1136446,0.78074485,-5.281294,-15.474949,8.990818,-9.011723,4.3544717,-0.4457662,2.3331137,10.129574,-6.010401,21.297329,-21.54475,50.667065,22.07062,6.9647646,8.851412,-15.242066,-27.416878,39.59434,51.466564,-9.492339,4.0065565,-1.4904615
54,-1.9884669780731201,3.0886404514312744,78.5328140258789,-0.724365946717165,-0.07327140508800448,-88.82086369096696,-3.2414334,4.982178,-6.767348,13.636387,-11.58277,-7.1764784,1.032467,-5.3158126,-15.626245,9.024677,-9.112526,4.365483,-0.51609904,2.3257594,10.041043,-5.970507,21.26259,-21.647415,50.417435,22.194414,6.9287124,8.843097,-15.1316395,-27.552229,39.71052,51.171246,-9.548271,4.049453,-1.3643432
55,-2.0431783199310303,3.0385427474975586,78.53343200683594,-0.6846845064066498,-0.2250534572056562,-88.64271440013704,-3.2297952,4.8084607,-7.570952,13.984098,-11.806274,-7.1966457,1.2801661,-5.3497567,-15.75792,9.061585,-9.21441,4.3728957,-0.5868711,2.3054395,9.942814,-5.91732,21.238293,-21.820114,50.16131,22.322618,6.887176,8.819832,-15.028782,-27.687527,39.86148,50.86897,-9.60389,4.087917,-1.2301867
56,-2.089648962020874,2.9794461727142334,78.53675842285156,-0.6445587906451887,-0.3695039635316078,-88.50862843787122,-3.2098653,4.6610456,-8.237189,14.341938,-12.061414,-7.118798,1.505216,-5.382794,-15.856419,9.109949,-9.315027,4.3775387,-0.64264,2.2732913,9.831048,-5.851487,21.23479,-22.092709,49.898705,22.426088,6.825473,8.788476,-14.945158,-27.821804,40.0499,50.574013,-9.643485,4.100741,-1.1215127
57,-2.1287879943847656,2.917872428894043,78.54053497314453,-0.6000793023758249,-0.5061168117223163,-88.4209783458984,-3.1892505,4.5393553,-8.744848,14.731375,-12.40143,-6.8867803,1.7046576,-5.420756,-15.926026,9.177064,-9.417919,4.3799653,-0.679559,2.2234752,9.705282,-5.769743,21.258238,-22.476463,49.61183,22.49178,6.7460513,8.739933,-14.88037,-27.954754,40.278107,50.286877,-9.66433,4.075856,-1.0448439
58,-2.1621930599212646,2.8553059101104736,78.54210662841797,-0.5541992668264182,-0.6385541259453785,-88.36796666126064,-3.1673913,4.4325266,-9.159186,15.145136,-12.803711,-6.544151,1.889739,-5.461054,-15.971419,9.252176,-9.520193,4.3795424,-0.70538014,2.1552987,9.5689945,-5.670427,21.309393,-22.95571,49.30049,22.533386,6.6542134,8.672561,-14.829057,-28.085907,40.54286,49.998493,-9.674103,4.02647,-0.98281676
59,-2.1896016597747803,2.7951231002807617,78.54226684570312,-0.5126839968363236,-0.7650920375799947,-88.35330166579679,-3.1303258,4.354717,-9.482353,15.536224,-13.165972,-6.184458,2.056875,-5.4918075,-15.979401,9.332197,-9.619977,4.375109,-0.72261345,2.0781493,9.423926,-5.5554843,21.390713,-23.518095,48.99,22.564266,6.5403576,8.604022,-14.79627,-28.21324,40.83966,49.71026,-9.672789,3.9697816,-0.93348604
60,-2.215872049331665,2.732463836669922,78.54147338867188,-0.48546971880360734,-0.8838771958330575,-88.38078763154405,-3.065378,4.319274,-9.714876,15.859586,-13.385148,-5.9004254,2.2041512,-5.5012307,-15.936789,9.410309,-9.712797,4.3654027,-0.73484164,2.0005367,9.271917,-5.431182,21.506285,-24.1546,48.709564,22.592775,6.3946414,8.552043,-14.7813225,-28.332724,41.156403,49.42031,-9.670374,3.9228613,-0.8949017
61,-2.2357234954833984,2.663327693939209,78.53955078125,-0.4657922822080963,-0.9944455860976635,-88.4503590613273,-2.9794505,4.327313,-9.831807,16.127283,-13.3922615,-5.6823993,2.3317053,-5.493586,-15.837135,9.484929,-9.798068,4.349608,-0.73887104,1.9154556,9.110036,-5.299226,21.661907,-24.871283,48.44651,22.65547,6.2098317,8.51121,-14.787081,-28.441265,41.499897,49.13581,-9.641972,3.8868265,-0.8800789
62,-2.255689859390259,2.5972917079925537,78.53836059570312,-0.4521057186462797,-1.0976087212315258,-88.56062519370899,-2.8792248,4.372479,-9.840008,16.360716,-13.258575,-5.491076,2.4329998,-5.474966,-15.687495,9.575386,-9.886468,4.328478,-0.73578376,1.818468,8.938997,-5.154489,21.859144,-25.668715,48.188095,22.735205,5.992525,8.474501,-14.815385,-28.537338,41.874035,48.8579,-9.593068,3.8533843,-0.8858154
63,-2.2697603702545166,2.533170461654663,78.53197479248047,-0.4574838738151289,-1.194057299232336,-88.71248092612403,-2.745793,4.4560246,-9.787153,16.518703,-13.08409,-5.3749137,2.5200393,-5.428886,-15.497764,9.65591,-9.963563,4.3028407,-0.73386425,1.7228442,8.766553,-4.9954176,22.093864,-26.531675,47.965515,22.758802,5.753605,8.457319,-14.869106,-28.618698,42.268387,48.577633,-9.568494,3.8259077,-0.8860662
64,-2.278482675552368,2.4622933864593506,78.51716613769531,-0.4932806151785484,-1.2844687794554364,-88.9069894401752,-2.5621555,4.578353,-9.721772,16.563747,-12.969959,-5.3840504,2.594631,-5.3421235,-15.276547,9.723001,-10.027251,4.273589,-0.74067205,1.6433351,8.599845,-4.8241267,22.358881,-27.447292,47.815136,22.652609,5.5042334,8.475576,-14.957334,-28.683487,42.68007,48.29106,-9.604352,3.8076122,-0.85528517
65,-2.284503936767578,2.4002225399017334,78.49440002441406,-0.5692683172517383,-1.3679711535783206,-89.14885526714207,-2.3039086,4.7488656,-9.667545,16.437399,-12.924798,-5.591393,2.6598892,-5.2005224,-15.022837,9.765133,-10.071605,4.2382593,-0.7551953,1.5937431,8.437982,-4.643692,22.64944,-28.422705,47.758247,22.3294,5.224334,8.558244,-15.077192,-28.729782,43.101494,47.99586,-9.743243,3.8045065,-0.7793227
66,-2.2842726707458496,2.3358426094055176,78.47293853759766,-0.6777239705306445,-1.444588210293109,-89.43587144173036,-1.9854759,4.96283,-9.59392,16.174679,-12.900605,-5.950316,2.7130854,-5.014905,-14.733187,9.789845,-10.100189,4.1972537,-0.77403015,1.5639337,8.275993,-4.459936,22.965242,-29.465387,47.782707,21.84925,4.9147344,8.688363,-15.233925,-28.758118,43.544716,47.70451,-9.947727,3.8124115,-0.6746379
67,-2.2749624252319336,2.2626941204071045,78.45113372802734,-0.8007178470897542,-1.5168705190294105,-89.75859285793719,-1.6464858,5.199521,-9.468134,15.87715,-12.912601,-6.3326283,2.7461212,-4.809537,-14.412542,9.825058,-10.127871,4.156004,-0.8021493,1.5352883,8.115795,-4.259885,23.304243,-30.548235,47.856155,21.373182,4.6188,8.812731,-15.416957,-28.766413,44.00203,47.410603,-10.16844,3.821275,-0.5608833
68,-2.2641420364379883,2.200699806213379,78.43303680419922,-0.9226038969079917,-1.5870573839458562,-90.10782873448878,-1.3232521,5.4383335,-9.258154,15.6384325,-12.968659,-6.611259,2.7649739,-4.6060576,-14.067261,9.869358,-10.153425,4.120067,-0.84487545,1.4871197,7.958402,-4.029913,23.664427,-31.642096,47.947067,21.063517,4.3813334,8.880554,-15.631414,-28.753452,44.48199,47.12078,-10.340949,3.8204978,-0.4582029
69,-2.253203868865967,2.1339223384857178,78.4105224609375,-1.0440639767249424,-1.6576677401336972,-90.48693257473025,-1.0245441,5.6829166,-8.947138,15.488677,-13.084392,-6.760114,2.764935,-4.402833,-13.691704,9.936228,-10.185561,4.08677,-0.9031653,1.4189229,7.8067,-3.7766914,24.048494,-32.74714,48.063564,20.978693,4.2105155,8.8857975,-15.882014,-28.717413,44.993904,46.837353,-10.452271,3.8066585,-0.37271404
70,-2.234677314758301,2.06745982170105,78.38650512695312,-1.1709488495439335,-1.7272888243045943,-90.89891103806326,-0.73000467,5.9408135,-8.554746,15.3756,-13.249922,-6.844892,2.7480252,-4.1899548,-13.285261,10.016745,-10.219044,4.0546002,-0.9762568,1.3399634,7.658993,-3.5056543,24.458626,-33.87496,48.217968,21.025381,4.0841775,8.854626,-16.175436,-28.657574,45.540886,46.565,-10.526539,3.785318,-0.2939184
71,-2.2141284942626953,2.013261318206787,78.36141967773438,-1.2979543319737123,-1.7929379257781353,-91.33446491410584,-0.43585452,6.196207,-8.105395,15.276533,-13.4377,-6.8774567,2.7200942,-3.980061,-12.860315,10.099102,-10.245297,4.0307817,-1.0673105,1.2459396,7.50943,-3.193809,24.889933,-35.005657,48.379707,21.145662,4.0021205,8.785215,-16.490225,-28.571705,46.091278,46.29434,-10.589648,3.761603,-0.2166504
72,-2.190992593765259,1.9484376907348633,78.3408432006836,-1.4121386775292846,-1.851338903572199,-91.78439160740963,-0.14148617,6.4331994,-7.6240063,15.173785,-13.6232195,-6.8696747,2.6792247,-3.787149,-12.428896,10.18575,-10.263212,4.0226574,-1.1794717,1.1340024,7.3516164,-2.8284543,25.334255,-36.12628,48.5286,21.275679,3.9638846,8.676124,-16.806309,-28.45718,46.61482,46.017353,-10.665644,3.740359,-0.13571697
73,-2.1601574420928955,1.890989065170288,78.32457733154297,-1.5119061985015918,-1.8916264661391313,-92.25000304236121,0.14247794,6.6450534,-7.1005964,15.0652895,-13.804139,-6.8010955,2.613595,-3.6165257,-11.991536,10.273503,-10.262939,4.0365176,-1.3124771,1.0000364,7.171536,-2.4094756,25.786892,-37.241917,48.671448,21.430107,3.9932482,8.520161,-17.126202,-28.313503,47.110416,45.738678,-10.761965,3.7246091,-0.043089364
74,-2.1230316162109375,1.828542947769165,78.30921173095703,-1.6029410916743136,-1.9189906710890827,-92.73522533384083,0.42001268,6.8410277,-6.5279493,14.959155,-13.992503,-6.674448,2.524617,-3.4604619,-11.542571,10.369474,-10.252531,4.067269,-1.4636662,0.8484554,6.9745984,-1.9511245,26.247593,-38.36031,48.8264,21.632158,4.081959,8.321211,-17.46066,-28.140926,47.593563,45.464584,-10.861155,3.710968,0.05605524
75,-2.0826332569122314,1.7556084394454956,78.29702758789062,-1.6878875900523638,-1.9542720127555915,-93.23429014818568,0.7142718,7.0290523,-5.9345055,14.850106,-14.183744,-6.5357013,2.4504719,-3.3095386,-11.085982,10.447927,-10.233311,4.1049867,-1.6329418,0.68828654,6.7815537,-1.4486754,26.713726,-39.46318,48.98216,21.841228,4.1823716,8.094827,-17.799223,-27.939066,48.05574,45.195194,-10.959315,3.6951036,0.14725313
76,-2.0432498455047607,1.6900606155395508,78.28260803222656,-1.774420370188265,-2.0183896285904694,-93.74175719365074,1.0498356,7.217653,-5.3482776,14.730052,-14.371052,-6.4302945,2.427339,-3.1547854,-10.62544,10.487759,-10.209433,4.1392946,-1.8196846,0.529129,6.61355,-0.90012497,27.182241,-40.533813,49.129784,22.01473,4.2471747,7.8570566,-18.131245,-27.707159,48.488537,44.92914,-11.051668,3.6726923,0.21597277
77,-1.993917465209961,1.628993034362793,78.26065826416016,-1.8578809400049467,-2.1218638272927124,-94.25599458842954,1.4405763,7.4049406,-4.774388,14.594065,-14.553314,-6.3629293,2.4736457,-2.9975245,-10.164286,10.478524,-10.184044,4.1666303,-2.024324,0.367913,6.4803877,-0.3114085,27.653038,-41.578316,49.281715,22.149292,4.2660794,7.6088157,-18.458359,-27.443838,48.887257,44.66801,-11.129668,3.64255,0.2563663
78,-1.9492884874343872,1.5605137348175049,78.24354553222656,-1.9387357579711455,-2.252100646583608,-94.78030006075711,1.8731223,7.5868216,-4.1978765,14.4430895,-14.731463,-6.3116918,2.5668283,-2.8421774,-9.69929,10.4334345,-10.154549,4.1923823,-2.2496662,0.20116015,6.3706203,0.2885478,28.12792,-42.626717,49.461224,22.235287,4.2630725,7.3435793,-18.78619,-27.148443,49.25663,44.41308,-11.202265,3.6071556,0.2766034
79,-1.9059628248214722,1.4881529808044434,78.22615051269531,-2.01876624279943,-2.3945045261505244,-95.31549286545497,2.3245382,7.768824,-3.6173897,14.290698,-14.907444,-6.281578,2.6832025,-2.6836228,-9.224567,10.365153,-10.115458,4.2194824,-2.4897866,0.038573686,6.26824,0.9371204,28.603827,-43.638252,49.62677,22.293608,4.244085,7.065659,-19.114807,-26.82348,49.608696,44.169014,-11.273981,3.5672185,0.283342
80,-1.8618881702423096,1.4143673181533813,78.20905303955078,-2.1048375548762754,-2.5346878470989003,-95.86262375817934,2.7731593,7.956415,-3.0313501,14.14774,-15.081741,-6.277299,2.8019395,-2.516582,-8.734529,10.2790575,-10.056923,4.251457,-2.7440825,-0.10846549,6.1583743,1.6549205,29.076859,-44.582928,49.750984,22.32752,4.214739,6.779496,-19.44085,-26.47274,49.9544,43.93731,-11.358177,3.523894,0.28338096
81,-1.8179038763046265,1.3399431705474854,78.19175720214844,-2.2029022676509302,-2.6760407256443157,-96.42159260151021,3.222094,8.158942,-2.4410126,14.017989,-15.256876,-6.310099,2.9323843,-2.332097,-8.229985,10.163774,-9.968129,4.288939,-3.0216537,-0.23509942,6.047188,2.4119458,29.547335,-45.495335,49.85912,22.2665,4.1775365,6.4908533,-19.776667,-26.097244,50.309578,43.714363,-11.45705,3.4771092,0.27593043
82,-1.7676048278808594,1.271439552307129,78.17450714111328,-2.3081010690754393,-2.8238141627389144,-96.99177240543231,3.6795316,8.370332,-1.8462297,13.89609,-15.431883,-6.3734865,3.0826633,-2.1357372,-7.7130966,10.017239,-9.855201,4.3301444,-3.310843,-0.3451982,5.9326816,3.2855995,30.014019,-46.303864,49.906593,22.21779,4.1309385,6.195579,-20.103016,-25.697096,50.64874,43.497696,-11.574342,3.4267316,0.2591715
83,-1.7109686136245728,1.1954212188720703,78.15592193603516,-2.4105548968357917,-2.9665068177736926,-97.57371850074257,4.132585,8.572576,-1.2433044,13.777812,-15.601495,-6.4454646,3.2227566,-1.944418,-7.1800966,9.872767,-9.741384,4.375139,-3.6225314,-0.44581032,5.8156605,4.1053762,30.476957,-47.14657,49.998394,22.064545,4.0690703,5.885723,-20.433727,-25.27489,50.985886,43.291737,-11.684497,3.3735523,0.2343852
84,-1.6534583568572998,1.1205965280532837,78.1396713256836,-2.496727675911552,-3.0922461933929397,-98.16749691931386,4.566255,8.748059,-0.62960607,13.662249,-15.762232,-6.504368,3.3238516,-1.7746005,-6.6275487,9.762978,-9.649913,4.4241247,-3.933329,-0.53946406,5.679292,4.914614,30.92694,-47.966095,50.096912,21.932001,3.9891393,5.552551,-20.731514,-24.8363,51.283314,43.09259,-11.790777,3.3186383,0.20584212
85,-1.5955835580825806,1.046370267868042,78.12439727783203,-2.5622534796479406,-3.2020611773822303,-98.77985303363879,4.9863114,8.893162,0.0014362538,13.544545,-15.912103,-6.551668,3.3848367,-1.630377,-6.0437407,9.691088,-9.586244,4.478235,-4.2328644,-0.6260864,5.5180693,5.773333,31.356676,-48.720943,50.171066,21.885279,3.8811789,5.21311,-20.991085,-24.388018,51.53987,42.89738,-11.888533,3.2644777,0.17506534
86,-1.5287952423095703,0.9739170670509338,78.10555267333984,-2.6153233855416937,-3.3004378089069184,-99.40843492873458,5.3956223,9.017493,0.6454784,13.428838,-16.05422,-6.596761,3.4187927,-1.502054,-5.434569,9.642043,-9.538677,4.5371423,-4.5314612,-0.7014147,5.341025,6.643627,31.764145,-49.449806,50.250824,21.85443,3.7493985,4.866059,-21.219109,-23.932493,51.763905,42.69772,-11.984232,3.2104135,0.1403738
87,-1.464909553527832,0.9029055237770081,78.08992004394531,-2.6612746149956212,-3.380694912624355,-100.04005159384855,5.7772684,9.123366,1.2888545,13.323649,-16.191317,-6.630016,3.4180882,-1.3860078,-4.823005,9.618733,-9.503003,4.5991006,-4.83123,-0.7614689,5.1458197,7.506299,32.147034,-50.130512,50.339443,21.855879,3.6126533,4.4751496,-21.419271,-23.47443,51.96203,42.50272,-12.06129,3.1508486,0.100945
88,-1.3999049663543701,0.825234591960907,78.07625579833984,-2.700794871200771,-3.435525615047578,-100.66160945876446,6.1149254,9.2142,1.9178228,13.236641,-16.3258,-6.641932,3.3750784,-1.2784655,-4.2321243,9.623084,-9.473902,4.6625185,-5.137327,-0.8017733,4.9312687,8.337975,32.50404,-50.745087,50.441082,21.898167,3.4897,4.0036497,-21.596844,-23.019249,52.143494,42.31899,-12.101884,3.0806067,0.055843446
89,-1.3353302478790283,0.7536607980728149,78.06534576416016,-2.735304360394734,-3.457681905646564,-101.2690484417576,6.394403,9.288085,2.527596,13.17739,-16.459524,-6.6250396,3.2792487,-1.1820046,-3.6712785,9.661801,-9.453802,4.730233,-5.456136,-0.8218482,4.688334,9.154192,32.832794,-51.293236,50.54766,22.016947,3.3824341,3.4217029,-21.736334,-22.568758,52.299362,42.131542,-12.105042,2.9995196,-0.016261578
90,-1.2720869779586792,0.6905569434165955,78.05387115478516,-2.762387801926952,-3.4525180722325812,-101.86950694414048,6.6276884,9.345565,3.1251168,13.139023,-16.591087,-6.5860376,3.137449,-1.0966533,-3.127399,9.731096,-9.44382,4.802086,-5.782907,-0.82291824,4.42117,9.958077,33.13151,-51.787148,50.662216,22.195217,3.280206,2.7555237,-21.844765,-22.125544,52.43596,41.940388,-12.069932,2.9097214,-0.10766769
91,-1.2003892660140991,0.629167914390564,78.04446411132812,-2.7872554398487632,-3.432234322170146,-102.46665985034076,6.832827,9.394459,3.7137482,13.113702,-16.72235,-6.536815,2.967721,-1.0145417,-2.5896366,9.818912,-9.437916,4.8719664,-6.1027803,-0.80217665,4.149407,10.721204,33.39993,-52.212967,50.793354,22.378613,3.1829984,2.0523133,-21.926958,-21.69258,52.548546,41.756824,-12.022128,2.81127,-0.17458333
92,-1.1341220140457153,0.5679963231086731,78.03630065917969,-2.813701280420779,-3.4097345951272837,-103.06407823476295,7.0303183,9.4417,4.297462,13.088621,-16.852327,-6.489458,2.790608,-0.92785907,-2.0471685,9.909101,-9.428489,4.933637,-6.4009066,-0.7579646,3.8900607,11.436541,33.63925,-52.535915,50.936806,22.533314,3.0923219,1.3589473,-22.007723,-21.277615,52.65508,41.603077,-11.957979,2.702951,-0.17382596
93,-1.0678046941757202,0.5072780251502991,78.02787780761719,-2.8429660872202485,-3.380774228649555,-103.6651194837782,7.215614,9.490252,4.876945,13.067375,-16.985971,-6.4430485,2.600568,-0.8328222,-1.4961346,10.004571,-9.416167,4.9839315,-6.6770964,-0.6812516,3.6397893,12.116995,33.84761,-52.748554,51.08166,22.660643,3.002289,0.659397,-22.056395,-20.882702,52.7249,41.463963,-11.883302,2.5734437,-0.10020489
94,-0.9965284466743469,0.44383636116981506,78.02027130126953,-2.87412966805054,-3.3413582439986533,-104.26704631532782,7.38076,9.536153,5.45005,13.055211,-17.122435,-6.3924427,2.3913844,-0.73380286,-0.94275326,10.109356,-9.402832,5.026749,-6.9370914,-0.57646024,3.3933485,12.7590475,34.02339,-52.87457,51.233025,22.7709,2.9144468,-0.062226415,-22.072512,-20.509176,52.763298,41.32951,-11.79254,2.4274478,0.025630191
95,-0.9269542098045349,0.4000176191329956,78.01190948486328,-2.903725959792526,-3.3032305453446704,-104.86446182421658,7.5421615,9.576449,6.0168123,13.039573,-17.251165,-6.3432994,2.1777315,-0.63586634,-0.3910001,10.218802,-9.387994,5.066412,-7.174925,-0.4609116,3.1664805,13.345264,34.169598,-52.907703,51.400078,22.860434,2.8427815,-0.7594802,-22.10132,-20.163618,52.818226,41.216248,-11.695068,2.2891016,0.20863935
96,-0.861124575138092,0.35831567645072937,78.00389099121094,-2.927356233396417,-3.2778066174943876,-105.45193798498983,7.7135515,9.608085,6.5767837,13.011933,-17.362822,-6.301239,1.9753293,-0.5438748,0.15501548,10.325401,-9.369317,5.107309,-7.3857,-0.3513808,2.9773877,13.856378,34.29286,-52.842518,51.588036,22.922108,2.8016605,-1.3861984,-22.177055,-19.852087,52.927326,41.127205,-11.611222,2.1835892,0.4538445
97,-0.7887320518493652,0.32882705330848694,78.00062561035156,-2.942526243222445,-3.267867556220849,-106.03700284598129,7.9027195,9.628722,7.1386476,12.963224,-17.451286,-6.271524,1.7822818,-0.4588793,0.70502,10.432037,-9.345784,5.1515284,-7.5627413,-0.24976724,2.8327072,14.295348,34.397133,-52.659847,51.782894,22.980122,2.7978408,-1.9572676,-22.315401,-19.583382,53.108784,41.05863,-11.534189,2.120511,0.78206986
98,-0.7170907855033875,0.30160632729530334,77.9942626953125,-2.9513089692024463,-3.267156003369952,-106.6196388479784,8.095915,9.640705,7.6989245,12.909022,-17.526966,-6.249622,1.5906744,-0.3780471,1.2576618,10.5446,-9.321063,5.1963983,-7.7101536,-0.14868127,2.7252185,14.673667,34.483093,-52.364845,51.976784,23.031902,2.8232644,-2.4893255,-22.484804,-19.359613,53.332607,40.993023,-11.463581,2.0867894,1.184407
99,-0.6440504193305969,0.28636103868484497,77.98615264892578,-2.9567719286374468,-3.273442947381426,-107.18289051352836,8.291096,9.644528,8.242088,12.845527,-17.589247,-6.2262406,1.4107604,-0.3025054,1.7926667,10.649518,-9.292567,5.2392955,-7.84227,-0.053954203,2.6477199,14.986824,34.55437,-51.989822,52.18703,23.026522,2.8715122,-2.9381824,-22.686285,-19.179968,53.600918,40.942772,-11.387579,2.0703564,1.620859
100,-0.5716459155082703,0.2653175890445709,77.97962188720703,-2.960791927805304,-3.284511192685203,-107.70986867845504,8.478463,9.642127,8.751179,12.784955,-17.646393,-6.1919975,1.2492273,-0.23362532,2.2897224,10.741465,-9.262805,5.277418,-7.973076,0.028698683,2.5929983,15.231918,34.616165,-51.56524,52.428738,22.914242,2.9367101,-3.2598019,-22.914965,-19.0396,53.909367,40.92029,-11.303305,2.0596142,2.0512064
101,-0.5005707740783691,0.24979296326637268,77.97346496582031,-2.9639388055790694,-3.304669356969987,-108.19712671990145,8.66337,9.633993,9.2225065,12.725349,-17.69671,-6.1421704,1.11276,-0.17180489,2.7434685,10.8181715,-9.231461,5.3077483,-8.10302,0.09583403,2.5652454,15.412553,34.672398,-51.07727,52.700897,22.673061,3.02516,-3.4474711,-23.187487,-18.937485,54.28311,40.948093,-11.177273,2.0473711,2.4744859
102,-0.4280310273170471,0.24293342232704163,77.9675064086914,-2.966084399917048,-3.333817894253342,-108.65324064157848,8.846808,9.619263,9.664655,12.664667,-17.738773,-6.082233,0.99531525,-0.1170141,3.164921,10.884289,-9.198511,5.33244,-8.226085,0.14987619,2.5672302,15.528377,34.724663,-50.517975,52.9929,22.32915,3.1377704,-3.5230026,-23.49656,-18.871729,54.71185,41.011726,-11.027942,2.0418203,2.9087372
103,-0.3513026237487793,0.2366797924041748,77.96466827392578,-2.9648424614162527,-3.3619332237027404,-109.07990538441122,9.018473,9.597703,10.080171,12.601568,-17.773182,-6.0185385,0.8848647,-0.07003763,3.55844,10.943288,-9.165679,5.356438,-8.346458,0.1929373,2.585106,15.586512,34.775135,-49.912758,53.299522,21.920784,3.2608948,-3.485018,-23.830933,-18.838932,55.16375,41.089394,-10.894921,2.0514407,3.3419347
104,-0.2916805148124695,0.22928035259246826,77.96219635009766,-2.960659728260229,-3.379491142933711,-109.47809488307539,9.166911,9.569371,10.471329,12.53753,-17.802408,-5.9575315,0.77094144,-0.031068498,3.9281867,10.995372,-9.132936,5.384672,-8.453581,0.22741593,2.602729,15.574728,34.820168,-49.311028,53.632076,21.480848,3.3805208,-3.3313038,-24.169615,-18.837185,55.58858,41.159462,-10.823897,2.083632,3.7635074
105,-0.22266313433647156,0.22807198762893677,77.9586181640625,-2.9536430783469765,-3.3865158153737323,-109.84638666127599,9.293316,9.533831,10.839798,12.467698,-17.82507,-5.897761,0.6524339,-0.00054516416,4.2752213,11.041183,-9.098235,5.4156184,-8.580404,0.25193092,2.6253934,15.524454,34.872715,-48.659393,53.965553,21.010628,3.4893,-3.047577,-24.53361,-18.859047,56.026287,41.232994,-10.810998,2.1331904,4.147922
106,-0.15436917543411255,0.2280121147632599,77.95760345458984,-2.94317793147419,-3.386767132274341,-110.18480938595651,9.400725,9.492117,11.18355,12.396361,-17.842468,-5.8368487,0.5337715,0.021675369,4.597351,11.081226,-9.062864,5.447559,-8.701186,0.2640011,2.6545918,15.414244,34.93176,-47.978382,54.31349,20.491835,3.5935714,-2.6388865,-24.914757,-18.905201,56.462284,41.319912,-10.84434,2.1968572,4.510085
107,-0.09084904193878174,0.2361033409833908,77.95738220214844,-2.9305363861239533,-3.37797948330586,-110.49658502661542,9.487515,9.444806,11.501063,12.3243065,-17.852978,-5.779804,0.41437057,0.03500324,4.894235,11.113072,-9.030079,5.4852953,-8.816994,0.2673986,2.6870966,15.248812,34.996742,-47.30023,54.666054,19.936893,3.698081,-2.137949,-25.305563,-18.973637,56.878967,41.392128,-10.93262,2.2878647,4.890628
108,-0.026912478730082512,0.23948036134243011,77.95823669433594,-2.9147702647428484,-3.35689488517379,-110.78539929904046,9.550991,9.393136,11.790052,12.253873,-17.85585,-5.7317057,0.29298905,0.038896374,5.1653476,11.135392,-9.004298,5.5337048,-8.927619,0.26665363,2.7181044,15.064828,35.069523,-46.619484,54.99046,19.39378,3.8089495,-1.5779506,-25.699762,-19.064037,57.25966,41.41955,-11.079795,2.4194083,5.3301415
109,0.03472183644771576,0.2446281760931015,77.96040344238281,-2.89804699429664,-3.3226265258290058,-111.04940911075833,9.58613,9.339919,12.046856,12.190664,-17.85266,-5.6981945,0.16357471,0.035160337,5.4074054,11.156379,-8.979844,5.581184,-9.032984,0.26153222,2.7520783,14.834364,35.148754,-45.96193,55.30821,18.848099,3.938116,-0.9112899,-26.081274,-19.16992,57.57072,41.39069,-11.355129,2.607239,5.841721
110,0.09206835925579071,0.2539571225643158,77.96062469482422,-2.880000361197885,-3.2768407997193414,-111.28768475658666,9.596384,9.283952,12.273892,12.130446,-17.842499,-5.6750736,0.028298685,0.023287907,5.6217866,11.174317,-8.956846,5.6293845,-9.138813,0.24982086,2.7906644,14.5594425,35.239338,-45.31223,55.61761,18.284124,4.07636,-0.13947469,-26.469921,-19.295727,57.84434,41.32265,-11.721646,2.8375947,6.4033628
111,0.1528746634721756,0.26394760608673096,77.96087646484375,-2.8575150652950216,-3.2207620853401355,-111.50463314896452,9.588961,9.22105,12.477362,12.0676365,-17.824257,-5.6527066,-0.100712,-0.0006336214,5.8147807,11.171636,-8.9476595,5.7028966,-9.238798,0.23279178,2.8244019,14.279418,35.346905,-44.65241,55.88081,17.719448,4.199762,0.6314712,-26.865059,-19.447401,58.106266,41.221794,-12.088411,3.0822,7.004776
112,0.212369903922081,0.2792930006980896,77.9628677368164,-2.825349668139213,-3.154887966742616,-111.70477936058448,9.571965,9.146635,12.663609,11.99409,-17.79512,-5.621417,-0.21360648,-0.040434353,5.9925375,11.135197,-8.966653,5.8263435,-9.327676,0.21113884,2.8453612,13.979215,35.470104,-44.02913,56.102413,17.114447,4.2854214,1.2967194,-27.269474,-19.618101,58.379837,41.104065,-12.368321,3.3143327,7.6344247
113,0.2634211480617523,0.2882072329521179,77.9643325805664,-2.781059811501817,-3.0759712428735386,-111.88646754869795,9.541584,9.054825,12.830682,11.906435,-17.753138,-5.5786257,-0.30565685,-0.10420652,6.1505537,11.050068,-9.010172,6.027683,-9.404401,0.1822935,2.8442016,13.677186,35.611122,-43.41758,56.26523,16.486946,4.335695,1.8435967,-27.688982,-19.80903,58.67615,40.977238,-12.513047,3.5304081,8.296545
114,0.3081885576248169,0.29501187801361084,77.96686553955078,-2.726357236368569,-2.9843955643210003,-112.0480239577167,9.4974575,8.949236,12.976525,11.80588,-17.698584,-5.529524,-0.38330442,-0.18788958,6.286865,10.927518,-9.072651,6.2869177,-9.468787,0.1467495,2.827961,13.376222,35.77108,-42.802612,56.36986,15.85393,4.361176,2.3222787,-28.106121,-20.017141,58.964878,40.827168,-12.596642,3.7462983,8.994442
115,0.3560497760772705,0.30171293020248413,77.97322845458984,-2.670086627297227,-2.88900304510267,-112.19441421562088,9.446628,8.84129,13.107317,11.703045,-17.637642,-5.475982,-0.45074698,-0.2759572,6.411472,10.7880535,-9.162174,6.556418,-9.530962,0.10982156,2.8120527,13.054272,35.950665,-42.23009,56.44017,15.175647,4.3541093,2.7207227,-28.539255,-20.241116,59.266277,40.655693,-12.653341,3.962292,9.71348
116,0.407431036233902,0.31183919310569763,77.977294921875,-2.6201411613095407,-2.798346337187996,-112.33032703412002,9.398504,8.741652,13.229353,11.6035185,-17.573961,-5.4198656,-0.51134825,-0.3539233,6.534854,10.651725,-9.288185,6.7887464,-9.586863,0.07848905,2.8043563,12.766405,36.14557,-41.650784,56.448833,14.513658,4.307978,3.0263505,-28.986368,-20.480724,59.580303,40.46319,-12.730778,4.177876,10.440306
117,0.45490333437919617,0.32137584686279297,77.98075866699219,-2.5777830077477786,-2.7141534196077735,-112.45654940540587,9.353913,8.651336,13.343444,11.510692,-17.506424,-5.3577785,-0.5586533,-0.4208988,6.6573067,10.50999,-9.47181,6.9857073,-9.643048,0.055518944,2.8117645,12.467472,36.355278,-41.11362,56.42384,13.804929,4.2069077,3.211255,-29.443745,-20.730732,59.904675,40.243576,-12.851342,4.3968067,11.196061
118,0.4941367506980896,0.3259690999984741,77.98761749267578,-2.5384538214360854,-2.6320882384625337,-112.57070629482494,9.3103895,8.564205,13.447117,11.416934,-17.431799,-5.2899218,-0.5926269,-0.48451197,6.773911,10.3556795,-9.701422,7.1688204,-9.692874,0.03723828,2.8217518,12.194204,36.57755,-40.56982,56.340347,13.099519,4.0626297,3.2889209,-29.91986,-20.992277,60.246857,40.00947,-12.972706,4.6162815,11.980185
119,0.5308516025543213,0.33132925629615784,77.99498748779297,-2.5030652848446424,-2.551562181173211,-112.67314926451394,9.265342,8.483417,13.5398855,11.325752,-17.358004,-5.2237773,-0.62940335,-0.5399871,6.8877206,10.215629,-9.938706,7.3191767,-9.746381,0.019579908,2.8421066,11.900549,36.812237,-40.08474,56.238567,12.35696,3.906835,3.3111665,-30.40966,-21.262573,60.597713,39.75219,-13.109601,4.830697,12.745067
120,0.568249523639679,0.3394814431667328,78.00471496582031,-2.4725458583509337,-2.472180260873566,-112.76410531762956,9.22029,8.410339,13.622135,11.231952,-17.288752,-5.166648,-0.6843386,-0.5833337,7.0028057,10.115236,-10.145337,7.4171634,-9.788139,0.00038171996,2.8690712,11.655431,37.053795,-39.587627,56.07782,11.683796,3.7711868,3.3297305,-30.879519,-21.537943,60.916206,39.46817,-13.294497,5.0345883,13.444594
121,0.6058049201965332,0.35611239075660706,78.00826263427734,-2.4493149608898466,-2.394168142556401,-112.84467232462217,9.175372,8.349628,13.695907,11.136314,-17.22773,-5.122364,-0.76415163,-0.60847664,7.125581,10.067628,-10.317728,7.440837,-9.827907,-0.019185603,2.9092524,11.406748,37.302513,-39.126682,55.89112,10.992941,3.661543,3.330198,-31.354528,-21.816938,61.228928,39.15986,-13.522762,5.2259235,14.076702
122,0.633631706237793,0.36223945021629333,78.01676940917969,-2.432138889758634,-2.3177335160451764,-112.91459577264362,9.131065,8.298481,13.760734,11.038339,-17.170532,-5.0862975,-0.8595864,-0.61924154,7.253103,10.057022,-10.4749775,7.40553,-9.861009,-0.037583187,2.9559624,11.188015,37.556057,-38.66304,55.655354,10.323124,3.5632339,3.2946723,-31.837084,-22.100893,61.541256,38.834892,-13.779655,5.406602,14.663352
123,0.6568748950958252,0.3684530258178711,78.02401733398438,-2.4168222350800694,-2.2417471039839225,-112.97140233648707,9.082204,8.251366,13.811306,10.94544,-17.116621,-5.0537686,-0.9643308,-0.6244025,7.3746686,10.06972,-10.614038,7.3467636,-9.894768,-0.05860933,3.013208,10.957517,37.81466,-38.268173,55.409843,9.68343,3.4731762,3.2725809,-32.291767,-22.379887,61.80941,38.484676,-14.083334,5.5795507,15.191129
124,0.6821110248565674,0.37460705637931824,78.02810668945312,-2.3988661062019565,-2.1654265329404954,-113.01294255568801,9.026874,8.201751,13.842813,10.858825,-17.061699,-5.0200853,-1.0710799,-0.6333928,7.479599,10.090576,-10.731261,7.29997,-9.940128,-0.0872052,3.0677896,10.740516,38.07568,-37.948593,55.15922,9.140613,3.387684,3.312681,-32.748398,-22.65791,62.06423,38.13153,-14.353218,5.7404675,15.646706
125,0.7049564719200134,0.38164064288139343,78.03506469726562,-2.377254442075841,-2.088618624069156,-113.03754855429409,8.964997,8.147389,13.851537,10.776963,-17.003382,-4.983657,-1.1779824,-0.64851993,7.563532,10.1172285,-10.826496,7.267921,-10.001372,-0.12338307,3.1188102,10.536305,38.33859,-37.728226,54.90807,8.699988,3.3064568,3.4391086,-33.197926,-22.933662,62.29986,37.769756,-14.601615,5.8942504,16.016214
126,0.7295202612876892,0.3907891511917114,78.03913116455078,-2.3543378353831694,-2.011682970333977,-113.04677958280456,8.896739,8.092278,13.840726,10.701351,-16.944971,-4.9470587,-1.289023,-0.66497296,7.632758,10.157427,-10.901555,7.23369,-10.064655,-0.16447042,3.1737194,10.324085,38.602726,-37.603935,54.657276,8.331455,3.2300582,3.6232057,-33.613876,-23.198357,62.481796,37.392525,-14.882184,6.043524,16.310192
127,0.7442667484283447,0.3936658203601837,78.042724609375,-2.3304625638333043,-1.934682307435058,-113.04315449533374,8.822049,8.038254,13.816654,10.634618,-16.889887,-4.911931,-1.4054463,-0.68183035,7.6922464,10.210624,-10.95496,7.203689,-10.129162,-0.2106024,3.2285783,10.121257,38.863045,-37.521694,54.39834,8.052361,3.1562026,3.8342361,-34.020344,-23.45813,62.63284,37.016476,-15.146784,6.1782875,16.551699
128,0.7576103210449219,0.39766499400138855,78.04750061035156,-2.3069066178746485,-1.8577467976534887,-113.0294402170111,8.738034,7.987836,13.785053,10.585779,-16.84507,-4.879675,-1.529041,-0.6976969,7.7469096,10.277334,-10.986225,7.184363,-10.178151,-0.2596402,3.2922435,9.919289,39.113106,-37.44313,54.12806,7.878526,3.0829215,4.0423512,-34.3759,-23.70962,62.69793,36.633343,-15.436693,6.296024,16.764322
129,0.7695382237434387,0.40241411328315735,78.05132293701172,-2.2815910416684955,-1.7808081794324861,-113.00694471540257,8.644146,7.939116,13.748458,10.555554,-16.810862,-4.8500752,-1.6647757,-0.71417445,7.7999287,10.363852,-10.989322,7.1833115,-10.209924,-0.31103638,3.361927,9.729358,39.350502,-37.36313,53.837276,7.861736,3.011711,4.2455344,-34.69037,-23.954165,62.68407,36.246193,-15.751981,6.3893,16.946175
130,0.7805576920509338,0.4102625548839569,78.05419921875,-2.2548699231664573,-1.703926496972265,-112.97411406747634,8.541474,7.8917246,13.70316,10.541289,-16.78536,-4.8224835,-1.8107337,-0.7312087,7.8480425,10.46896,-10.966957,7.1950874,-10.232622,-0.3646189,3.436586,9.544303,39.57524,-37.304405,53.53587,7.974954,2.9438999,4.4587336,-34.971886,-24.192223,62.60627,35.855923,-16.0851,6.4632072,17.08729
131,0.7872946262359619,0.41649332642555237,78.0555191040039,-2.230016760334421,-1.627116675148679,-112.92883012082001,8.431456,7.849399,13.646931,10.53949,-16.766172,-4.797989,-1.9549587,-0.74593705,7.8865833,10.574454,-10.92806,7.2068787,-10.246405,-0.4195789,3.517621,9.368053,39.782696,-37.23404,53.230145,8.147547,2.8768802,4.677039,-35.20916,-24.422754,62.457153,35.465137,-16.413874,6.528988,17.198717
132,0.7913841605186462,0.4214029312133789,78.05529022216797,-2.2106649744318245,-1.5505269352450544,-112.86913514586735,8.314864,7.816663,13.577161,10.547571,-16.751087,-4.777756,-2.0856905,-0.75520927,7.9106436,10.662057,-10.880968,7.205752,-10.25462,-0.47446847,3.6071687,9.20358,39.966618,-37.118893,52.928806,8.306217,2.8078382,4.8955245,-35.39335,-24.643251,62.233776,35.078384,-16.715504,6.598197,17.291481
133,0.7922114133834839,0.4273427128791809,78.05658721923828,-2.197836932117873,-1.4726333001250673,-112.79602506557066,8.191504,7.794308,13.495377,10.562865,-16.739244,-4.76132,-2.203183,-0.7580989,7.919435,10.727178,-10.817694,7.189388,-10.260294,-0.5266537,3.7044177,9.056549,40.123337,-36.95507,52.63683,8.459434,2.7327821,5.1195445,-35.527657,-24.850946,61.934887,34.693707,-17.00139,6.6711507,17.380823
134,0.7927584648132324,0.43416377902030945,78.0595474243164,-2.189536604030298,-1.3938851817009243,-112.71017651924997,8.059783,7.780566,13.402087,10.590603,-16.733742,-4.7483745,-2.3124673,-0.75611836,7.915279,10.779349,-10.737196,7.16421,-10.263178,-0.5762617,3.8083117,8.921867,40.251865,-36.758453,52.353813,8.636818,2.6543453,5.350161,-35.616703,-25.044146,61.56548,34.31515,-17.27738,6.7428555,17.456436
135,0.7879560589790344,0.43647727370262146,78.06035614013672,-2.1846487802182293,-1.3173054159850262,-112.60866429731922,7.9235525,7.773503,13.2935,10.6271105,-16.731003,-4.7400603,-2.4088435,-0.75123024,7.898235,10.820806,-10.657676,7.1309385,-10.2596035,-0.62630695,3.920191,8.789999,40.349426,-36.520714,52.0775,8.803306,2.5784438,5.575846,-35.652542,-25.220875,61.12801,33.952587,-17.512058,6.81699,17.491371
136,0.7765032052993774,0.4385772943496704,78.0644302368164,-2.1817821684962984,-1.245940709162515,-112.488570569344,7.786066,7.7713633,13.1658,10.671902,-16.729557,-4.737505,-2.4880283,-0.74565387,7.868473,10.854985,-10.598294,7.090277,-10.244037,-0.6792934,4.0395575,8.671746,40.411808,-36.211895,51.791344,8.9438715,2.5108328,5.784889,-35.62568,-25.378979,60.62425,33.616726,-17.67394,6.89715,17.458084
137,0.7639381289482117,0.4421066641807556,78.06712341308594,-2.1817656198676896,-1.1826130340941257,-112.35203676819654,7.6508384,7.775311,13.020626,10.725177,-16.730202,-4.7424626,-2.54299,-0.73773444,7.8307714,10.875757,-10.575271,7.0417457,-10.213408,-0.7335278,4.1695113,8.585748,40.434273,-35.798206,51.48126,9.049466,2.4482768,5.983637,-35.534813,-25.516232,60.049545,33.305874,-17.740637,6.9934688,17.350845
138,0.7532253265380859,0.4477091133594513,78.06781768798828,-2.1850760957908575,-1.1250911319402448,-112.19953889031254,7.5152354,7.785681,12.859085,10.786837,-16.732904,-4.7539124,-2.5783246,-0.7272065,7.7835097,10.884574,-10.575388,6.985195,-10.177477,-0.78757936,4.311687,8.496948,40.41708,-35.32549,51.178986,9.107642,2.3885918,6.1757007,-35.390236,-25.629578,59.411236,33.01795,-17.732054,7.1011443,17.183
139,0.7331302165985107,0.4513455927371979,78.07077026367188,-2.189158631816438,-1.0684523783297866,-112.02617210714757,7.3727183,7.799606,12.67641,10.85752,-16.736864,-4.7687516,-2.6053033,-0.7173563,7.7169557,10.891698,-10.570689,6.9217305,-10.137517,-0.84370184,4.456296,8.400204,40.361404,-34.82046,50.890724,9.162235,2.3396845,6.344621,-35.18916,-25.716774,58.71932,32.76713,-17.682028,7.201262,16.95707
140,0.7059681415557861,0.4522416293621063,78.07310485839844,-2.192278169806676,-1.0079977510351086,-111.82702500973039,7.2143946,7.8153644,12.467258,10.942063,-16.743176,-4.784046,-2.6369462,-0.7116856,7.621496,10.9104595,-10.534956,6.8524613,-10.090957,-0.90377146,4.5914135,8.326511,40.268482,-34.2757,50.59495,9.287666,2.309684,6.473207,-34.92528,-25.7766,57.981125,32.568172,-17.624605,7.274869,16.676117
141,0.6762738227844238,0.45410996675491333,78.07630157470703,-2.190985926103218,-0.9375207521536091,-111.59855045894916,7.031761,7.8286247,12.226487,11.0424595,-16.751913,-4.794536,-2.674162,-0.71451205,7.49751,10.933579,-10.460453,6.7930593,-10.065792,-0.9776488,4.7198825,8.158294,40.179646,-33.82192,50.361053,9.332069,2.310113,6.5420814,-34.622246,-25.787333,57.2232,32.428474,-17.535345,7.335429,16.34328
142,0.6421428322792053,0.4544782340526581,78.07858276367188,-2.1873738243466496,-0.8619605746469836,-111.34408597946918,6.8332973,7.841353,11.95825,11.153786,-16.761436,-4.8032055,-2.7085848,-0.72281563,7.3490953,10.9545555,-10.360132,6.7377543,-9.995476,-1.0553368,4.827672,8.223082,39.995712,-33.066372,49.984924,9.688273,2.330149,6.569835,-34.207466,-25.788881,56.33613,32.32003,-17.454342,7.376574,15.989432
143,0.6015157103538513,0.45644626021385193,78.07994079589844,-2.18684999257879,-0.7905703837283792,-111.0689945956576,6.6304884,7.860207,11.671026,11.276423,-16.77365,-4.8197365,-2.7466528,-0.7294743,7.171929,10.997525,-10.242873,6.654916,-9.981902,-1.127217,4.9670568,7.9250073,39.800186,-32.6578,49.883102,9.730173,2.3546324,6.584449,-33.802563,-25.749855,55.49606,32.25561,-17.347702,7.3849444,15.545088
144,0.5558694005012512,0.45722076296806335,78.08183288574219,-2.1947660836450966,-0.734248227929969,-110.77810561383308,6.4402714,7.891023,11.373813,11.402158,-16.785507,-4.853735,-2.7920837,-0.72779596,6.961487,11.084721,-10.117016,6.513115,-9.916779,-1.192176,5.0992503,7.725162,39.574127,-32.191658,49.71053,9.921506,2.3663251,6.609652,-33.327267,-25.679855,54.61927,32.269474,-17.27412,7.32617,14.994816
145,0.5087365508079529,0.4566596448421478,78.08114624023438,-2.2145762988478364,-0.692735459037532,-110.4725410801719,6.2640305,7.9378014,11.070655,11.528972,-16.796463,-4.9154754,-2.8645213,-0.7117377,6.7159824,11.2485,-9.972234,6.269093,-9.821236,-1.2435102,5.2355256,7.628829,39.318737,-31.662893,49.461765,10.236938,2.3581254,6.657808,-32.78854,-25.579851,53.712746,32.34721,-17.258749,7.1928844,14.35997
146,0.46435973048210144,0.45542725920677185,78.08396911621094,-2.242238976661655,-0.6613318301384411,-110.15002354926999,6.0950294,7.99563,10.756407,11.659315,-16.807539,-4.997145,-2.9562278,-0.68761736,6.4370713,11.468277,-9.808204,5.951493,-9.749613,-1.2873567,5.4063544,7.275793,39.05244,-31.380999,49.405144,10.359205,2.340558,6.715876,-32.222324,-25.438759,52.800827,32.46387,-17.290035,7.003304,13.645111
147,0.4048716723918915,0.45847609639167786,78.0848159790039,-2.2734754355244386,-0.6439805717293321,-109.80952709012634,5.933297,8.059698,10.425004,11.79844,-16.82043,-5.0815015,-3.027062,-0.6663301,6.1257014,11.683634,-9.647347,5.636263,-9.643017,-1.3323542,5.5699663,6.9913793,38.763714,-31.065062,49.29938,10.59571,2.3216884,6.7637315,-31.616804,-25.268705,51.89294,32.6595,-17.303015,6.7626743,12.7982
148,0.34149566292762756,0.4641120433807373,78.09008026123047,-2.3039946597930103,-0.6441898842316912,-109.45035556452353,5.7792315,8.125139,10.070709,11.951817,-16.837652,-5.151289,-3.0382695,-0.6577823,5.7840676,11.835457,-9.51241,5.399776,-9.537837,-1.3819243,5.7465577,6.6300817,38.46706,-30.839466,49.25148,10.822533,2.30952,6.7846622,-31.016914,-25.07125,51.05274,32.9277,-17.255827,6.482354,11.762758
149,0.27504366636276245,0.470878541469574,78.09324645996094,-2.3351528503434347,-0.6673515980883902,-109.07271740590014,5.6367087,8.194723,9.689101,12.1244545,-16.861464,-5.199053,-2.970166,-0.6623521,5.4108577,11.896899,-9.400456,5.2767515,-9.419559,-1.4391907,5.9328103,6.250135,38.166794,-30.663351,49.217888,11.095886,2.3011916,6.7586393,-30.414042,-24.850664,50.276608,33.277596,-17.144737,6.151174,10.508589
150,0.2037692368030548,0.4765877425670624,78.0956802368164,-2.3688818456521843,-0.7097236399445026,-108.67661609741927,5.502982,8.270056,9.28395,12.314699,-16.891434,-5.2350783,-2.8469598,-0.67372674,5.006194,11.903108,-9.301784,5.22201,-9.286186,-1.499294,6.1392117,5.8165097,37.866398,-30.562307,49.21385,11.379164,2.293906,6.6993027,-29.759949,-24.596556,49.504906,33.67557,-17.04859,5.770223,9.072198
151,0.13297215104103088,0.4831167757511139,78.09766387939453,-2.4026783875796593,-0.7618636116684028,-108.26151259923883,5.3721614,8.344339,8.862053,12.510879,-16.92155,-5.269015,-2.69173,-0.69060475,4.5747633,11.884661,-9.228471,5.191025,-9.147661,-1.5653954,6.347722,5.3542047,37.564026,-30.50712,49.224945,11.672556,2.2966795,6.6385474,-29.11302,-24.318665,48.79112,34.147923,-16.901995,5.354932,7.4965982
152,0.05432695150375366,0.4881006181240082,78.09623718261719,-2.4335209034115852,-0.8141855923663087,-107.82663214589643,5.236023,8.411465,8.429889,12.705357,-16.948162,-5.310415,-2.5277853,-0.7124325,4.1210814,11.871095,-9.191551,5.1394935,-8.999155,-1.6342139,6.5536895,4.8896127,37.252903,-30.458977,49.21914,11.995064,2.3184683,6.607972,-28.447453,-24.017805,48.105877,34.67018,-16.736736,4.9261055,5.8264174
153,-0.025766519829630852,0.4891267418861389,78.0982437133789,-2.463016433964751,-0.86903135540735,-107.369540342464,5.100818,8.472896,7.988838,12.8901205,-16.972288,-5.366743,-2.3518403,-0.73598725,3.6388535,11.869009,-9.206056,5.0520363,-8.850177,-1.7074187,6.759773,4.387526,36.931244,-30.441257,49.226093,12.344092,2.377522,6.620736,-27.78619,-23.699541,47.48861,35.25945,-16.52767,4.4758377,4.0141234
154,-0.1076824814081192,0.4958268702030182,78.1007308959961,-2.491981000749014,-0.929980256239648,-106.89133945416306,4.967015,8.531029,7.5354376,13.073043,-16.996046,-5.4313135,-2.1548688,-0.7620362,3.1282809,11.863387,-9.261957,4.953621,-8.691469,-1.7835083,6.966018,3.8847091,36.595894,-30.428501,49.22086,12.749412,2.4639452,6.657908,-27.109123,-23.365505,46.918198,35.90804,-16.294281,3.9949634,2.0570948
155,-0.1885465532541275,0.5077170133590698,78.10232543945312,-2.5160102061572136,-0.9894559107988261,-106.39679866970882,4.8220463,8.579611,7.069566,13.264212,-17.01489,-5.492018,-1.9494642,-0.7961083,2.6033711,11.849753,-9.332761,4.860123,-8.531513,-1.8580105,7.1673126,3.3501236,36.248623,-30.453127,49.233242,13.120196,2.5446126,6.7057543,-26.43001,-23.018324,46.376724,36.598763,-16.0373,3.498328,0.062498994
156,-0.2631814181804657,0.5174545049667358,78.10400390625,-2.530860256336536,-1.040191753882058,-105.89104870586992,4.6544085,8.612166,6.5914164,13.471233,-17.022547,-5.5370564,-1.747925,-0.8441702,2.0780177,11.822396,-9.390752,4.787558,-8.365087,-1.9284316,7.351982,2.8224857,35.888306,-30.490349,49.238167,13.428286,2.5861855,6.7501407,-25.757275,-22.664734,45.839714,37.316673,-15.745914,3.00053,-1.8628176
157,-0.3467978537082672,0.5311603546142578,78.10823059082031,-2.535512261020149,-1.0821284959980257,-105.3716129961906,4.4602675,8.627375,6.096649,13.701513,-17.018724,-5.5649486,-1.5477767,-0.90855205,1.5531311,11.775207,-9.429416,4.7444725,-8.188537,-1.9920081,7.5206013,2.288639,35.517235,-30.559395,49.24097,13.628218,2.5713966,6.7794213,-25.066328,-22.30655,45.28344,38.04945,-15.4380865,2.496488,-3.7246869
158,-0.4276926517486572,0.5354830622673035,78.11410522460938,-2.5325027701264604,-1.1186856051078666,-104.8372139387296,4.2461734,8.628225,5.586895,13.949149,-17.006063,-5.581832,-1.3441137,-0.9853988,1.021987,11.712434,-9.462877,4.7208395,-8.002186,-2.0515714,7.678301,1.7321942,35.136604,-30.669228,49.252205,13.744828,2.5208483,6.8039494,-24.361382,-21.947037,44.72635,38.803165,-15.105345,1.9784173,-5.569088
159,-0.5035175681114197,0.5493348240852356,78.11856079101562,-2.521508670263457,-1.1476195925165666,-104.29393983407688,4.016435,8.61388,5.0711827,14.20224,-16.983463,-5.5872264,-1.1470926,-1.072714,0.4873016,11.64875,-9.497882,4.705121,-7.810244,-2.1102226,7.826054,1.1751137,34.742718,-30.785332,49.258823,13.846972,2.4576652,6.843112,-23.662613,-21.591352,44.17998,39.57183,-14.740471,1.460223,-7.348225
160,-0.5745814442634583,0.5570172071456909,78.12678527832031,-2.5027320338391155,-1.1666479607287434,-103.748128891933,3.774371,8.584344,4.558334,14.4502125,-16.950556,-5.5808053,-0.96663904,-1.1681896,-0.048191074,11.598538,-9.540876,4.6857185,-7.6159134,-2.168827,7.965174,0.6513115,34.32926,-30.861227,49.238712,14.016539,2.4050922,6.9159503,-22.981659,-21.24377,43.648647,40.343624,-14.343043,0.95677286,-9.013842
161,-0.6393091082572937,0.5702692866325378,78.13604736328125,-2.4766053998823265,-1.1718037462003361,-103.19671189788534,3.5096645,8.539784,4.0426636,14.70075,-16.913448,-5.5622973,-0.8138558,-1.2730533,-0.58886534,11.575884,-9.59821,4.662079,-7.42386,-2.2250495,8.097117,0.13990921,33.892433,-30.90571,49.20889,14.277511,2.3692865,7.0422215,-22.317553,-20.906454,43.125633,41.111305,-13.8646555,0.46826535,-10.553785
162,-0.7159085869789124,0.5842061042785645,78.14556121826172,-2.442630215283521,-1.1655668137325392,-102.63797950227676,3.2250824,8.4802,3.5225222,14.954941,-16.869555,-5.5327153,-0.6798894,-1.3884932,-1.1343919,11.569493,-9.6651325,4.6396976,-7.229537,-2.2770023,8.2197075,-0.36096027,33.43129,-30.92815,49.170635,14.596919,2.3382804,7.2073007,-21.662962,-20.581486,42.61111,41.88026,-13.31637,-0.014634051,-11.993369
163,-0.7876232266426086,0.5936469435691833,78.15534973144531,-2.3995388422852244,-1.1553933587576561,-102.07982672056994,2.940288,8.40509,3.0123823,15.199115,-16.808594,-5.49314,-0.54731023,-1.5125295,-1.6751014,11.558882,-9.732353,4.616035,-7.031895,-2.3255548,8.333531,-0.8368038,32.94759,-30.922815,49.1148,14.926903,2.3078318,7.3796024,-21.023247,-20.270746,42.12316,42.655098,-12.791278,-0.48741022,-13.341683
164,-0.8570543527603149,0.6061376333236694,78.16852569580078,-2.3479571130803034,-1.1491666058207861,-101.53025606785025,2.674703,8.3144655,2.5265007,15.420854,-16.721695,-5.4441695,-0.40036628,-1.6430691,-2.2013474,11.527781,-9.792944,4.588651,-6.834439,-2.3728342,8.43958,-1.2828238,32.446533,-30.893131,49.040333,15.205681,2.2731326,7.527414,-20.422588,-19.978369,41.698765,43.450043,-12.361433,-0.94225615,-14.60968
165,-0.9202801585197449,0.6115270853042603,78.18412017822266,-2.283961969276557,-1.1489717237024017,-100.98672004107767,2.428775,8.206329,2.0582166,15.622179,-16.601433,-5.381628,-0.22835858,-1.7795886,-2.7123678,11.461397,-9.841421,4.5535398,-6.6373076,-2.4238489,8.543466,-1.6868522,31.930676,-30.818634,48.928345,15.426565,2.2340584,7.641621,-19.85624,-19.705315,41.336685,44.264904,-12.064332,-1.3817847,-15.807968
166,-0.989614725112915,0.6197330355644226,78.19979095458984,-2.210992824155997,-1.1512225777787768,-100.44649633535575,2.1893942,8.08234,1.6028868,15.817304,-16.459627,-5.306689,-0.044497453,-1.9229028,-3.2129805,11.377764,-9.886303,4.5134106,-6.440694,-2.476664,8.644064,-2.0507789,31.401136,-30.701664,48.779415,15.619244,2.1924155,7.738686,-19.316277,-19.451738,41.02228,45.092762,-11.851089,-1.8032185,-16.930426
167,-1.0532044172286987,0.625913143157959,78.21550750732422,-2.1305446311973504,-1.1535603093145637,-99.91673609213727,1.9680519,7.9472065,1.179642,15.983146,-16.298567,-5.227241,0.14090252,-2.0734193,-3.7018158,11.28807,-9.928933,4.476022,-6.2429004,-2.5240133,8.734258,-2.3852024,30.860743,-30.575937,48.613537,15.783695,2.1460142,7.824934,-18.807213,-19.219332,40.757317,45.922905,-11.673724,-2.1882858,-17.96349
168,-1.118425726890564,0.6292223930358887,78.23394775390625,-2.0433172944828435,-1.1531876532533611,-99.40474511705666,1.7703555,7.8062034,0.80669963,16.109081,-16.128172,-5.1507554,0.31232682,-2.2321222,-4.1771674,11.214464,-9.976656,4.44878,-6.0405655,-2.5582328,8.807326,-2.6992965,30.312258,-30.474321,48.44889,15.921395,2.0925303,7.906542,-18.32344,-19.009539,40.531944,46.73879,-11.497447,-2.5200756,-18.892267
169,-1.1751139163970947,0.631188154220581,78.25165557861328,-1.9481636803776488,-1.150064874349701,-98.9114884898826,1.5969994,7.6561055,0.47919723,16.193361,-15.947539,-5.0736938,0.46833095,-2.4025714,-4.6394773,11.16081,-10.031054,4.4325466,-5.829098,-2.5786939,8.857216,-2.997632,29.756264,-30.414568,48.28764,15.995878,2.02746,7.988431,-17.87174,-18.826315,40.357155,47.551395,-11.319639,-2.7852867,-19.704697
170,-1.2240835428237915,0.6351544857025146,78.26708984375,-1.843624036912542,-1.1455218817811315,-98.43319954665037,1.444226,7.496367,0.19053829,16.243366,-15.753957,-4.993112,0.61599684,-2.583451,-5.0893245,11.116593,-10.088443,4.423538,-5.6077094,-2.5892286,8.889992,-3.2702365,29.19121,-30.374102,48.11482,16.023888,1.9531586,8.065903,-17.444738,-18.671196,40.224968,48.356667,-11.156924,-2.9945579,-20.411604
171,-1.2763664722442627,0.62907475233078,78.28386688232422,-1.7364699063220974,-1.1390182614614826,-97.97083097083623,1.3107482,7.336041,-0.04408128,16.260796,-15.553784,-4.917118,0.7527545,-2.7688792,-5.5250425,11.082566,-10.148548,4.421776,-5.3833337,-2.5899844,8.915944,-3.5262961,28.619415,-30.34379,47.942444,16.064848,1.8780614,8.131269,-17.035316,-18.54316,40.11672,49.131176,-10.985,-3.1688926,-21.031975
172,-1.3199403285980225,0.6296559572219849,78.30242156982422,-1.6304630079412208,-1.1301265549702617,-97.5252190469229,1.1949451,7.183694,-0.209515,16.248173,-15.354061,-4.8538523,0.87566787,-2.9528437,-5.9450026,11.059188,-10.210126,4.427281,-5.161391,-2.5822816,8.9450035,-3.7659092,28.04478,-30.308813,47.77375,16.184944,1.8110664,8.176658,-16.63613,-18.439737,40.012817,49.85186,-10.780294,-3.329914,-21.584291
173,-1.3561980724334717,0.6257336139678955,78.32109069824219,-1.5233924694217331,-1.1192468277921173,-97.10025531376066,1.1076107,7.039323,-0.29428354,16.186138,-15.146598,-4.8104053,0.98716176,-3.1369426,-6.34495,11.040828,-10.270124,4.4433784,-4.9398236,-2.5703928,8.980759,-3.976742,27.469137,-30.25695,47.595818,16.4156,1.7529653,8.191363,-16.24843,-18.359898,39.91277,50.515575,-10.537093,-3.4757836,-22.069218
174,-1.3904447555541992,0.6300618052482605,78.33661651611328,-1.4155273122222782,-1.106469511634015,-96.6942666578823,1.0433288,6.8992,-0.30951524,16.0845,-14.933605,-4.7803607,1.0849849,-3.3236885,-6.7268033,11.034975,-10.33339,4.4686394,-4.7177835,-2.5530963,9.018357,-4.1609607,26.89356,-30.199081,47.407475,16.715748,1.6996064,8.18207,-15.877506,-18.303247,39.826866,51.134933,-10.264942,-3.597463,-22.478523
175,-1.4212253093719482,0.6309197545051575,78.34856414794922,-1.309960726403419,-1.0900773879199726,-96.29968972550336,0.98505837,6.76701,-0.2728004,15.972373,-14.728443,-4.7516932,1.1703107,-3.50783,-7.09848,11.038122,-10.397381,4.4963465,-4.5018897,-2.5251694,9.054091,-4.334588,26.32143,-30.150406,47.226353,17.04823,1.6525118,8.166819,-15.519478,-18.267666,39.74827,51.712677,-9.969205,-3.7069135,-22.816906
176,-1.447779893875122,0.6356934309005737,78.36275482177734,-1.2148355032585856,-1.068450098891397,-95.9090465625267,0.91195786,6.6466994,-0.20212252,15.885194,-14.547547,-4.7124925,1.2416455,-3.6840498,-7.46781,11.0536175,-10.464198,4.5197845,-4.298139,-2.4822426,9.083985,-4.512593,25.757536,-30.125633,47.069042,17.375813,1.613576,8.163422,-15.175384,-18.251165,39.674797,52.2553,-9.649035,-3.8161306,-23.089397
177,-1.467545986175537,0.6411406397819519,78.37603759765625,-1.1273729926864673,-1.039003276675829,-95.52197613598405,0.8147515,6.5399985,-0.089517005,15.83917,-14.396711,-4.6529117,1.2958485,-3.8521364,-7.8357267,11.082329,-10.533673,4.535601,-4.107744,-2.4253094,9.106094,-4.691222,25.205082,-30.12434,46.934124,17.697174,1.5760374,8.181948,-14.845207,-18.252232,39.603127,52.764904,-9.289367,-3.9436848,-23.29026
178,-1.4860490560531616,0.6471009850502014,78.38800811767578,-1.0461563682716706,-1.0032183290711825,-95.14209025509683,0.7058819,6.4443903,0.07053993,15.812651,-14.2666235,-4.5813646,1.3333147,-4.014994,-8.198224,11.125107,-10.606533,4.5478745,-3.9277442,-2.357441,9.123471,-4.8650823,24.665043,-30.142187,46.81234,18.025787,1.541636,8.21071,-14.53013,-18.269836,39.53479,53.239285,-8.895446,-4.0775905,-23.419249
179,-1.5012696981430054,0.650540292263031,78.39686584472656,-0.9730161629184763,-0.9651433816183156,-94.76708945840048,0.5952306,6.3588953,0.25558093,15.788169,-14.152523,-4.514001,1.3614513,-4.1711807,-8.555954,11.176796,-10.680706,4.560809,-3.7573283,-2.2775362,9.139383,-5.037653,24.138012,-30.18017,46.70265,18.354689,1.5249791,8.234049,-14.230285,-18.302935,39.472366,53.67667,-8.499709,-4.1837287,-23.488758
180,-1.509041666984558,0.6581600904464722,78.402099609375,-0.9111262304322745,-0.9288397552538101,-94.39500101395612,0.49390557,6.2828693,0.44319725,15.74601,-14.048585,-4.467018,1.3869054,-4.318643,-8.909721,11.233798,-10.755357,4.5784583,-3.5955186,-2.183828,9.1570635,-5.2139754,23.624174,-30.240746,46.60517,18.676088,1.5405968,8.236497,-13.947312,-18.350765,39.419502,54.0768,-8.132853,-4.228299,-23.512123
181,-1.5048110485076904,0.6635039448738098,78.41030883789062,-0.8599515667748578,-0.8904707903163098,-94.0289459080728,0.40440533,6.2208476,0.6545466,15.672584,-13.951394,-4.4559717,1.4013631,-4.456731,-9.256121,11.30066,-10.830587,4.6029706,-3.4398718,-2.0723405,9.174516,-5.397237,23.122772,-30.330324,46.524994,18.954062,1.5893387,8.219771,-13.681604,-18.412735,39.374718,54.44039,-7.7855306,-4.2080283,-23.498314
182,-1.501734733581543,0.6790367960929871,78.41222381591797,-0.8214176259282618,-0.8493382096400546,-93.66867378267206,0.32158926,6.1718206,0.8924022,15.57996,-13.863953,-4.4686465,1.4040669,-4.5862255,-9.595956,11.378751,-10.90767,4.6316423,-3.2911873,-1.9452999,9.190795,-5.582159,22.632965,-30.44446,46.45934,19.2064,1.6644968,8.189984,-13.4333935,-18.488592,39.33616,54.769238,-7.4475603,-4.1385045,-23.4395
183,-1.496421217918396,0.6904959678649902,78.40918731689453,-0.7905943660118685,-0.814243761197734,-93.30767876201422,0.2410394,6.1262784,1.1063634,15.493761,-13.793193,-4.479573,1.4127055,-4.708785,-9.936002,11.457623,-10.984944,4.6617813,-3.1543777,-1.8103582,9.211035,-5.76834,22.156374,-30.575012,46.402485,19.497131,1.7683202,8.137891,-13.201699,-18.577372,39.305977,55.060875,-7.1511116,-4.0135775,-23.32342
184,-1.4861562252044678,0.7066164016723633,78.4068832397461,-0.7668897309738911,-0.7940367896468258,-92.93897212939233,0.15769154,6.0749936,1.2459928,15.44074,-13.746062,-4.463468,1.4460306,-4.825031,-10.283333,11.524841,-11.059989,4.690602,-3.0352716,-1.6749929,9.240638,-5.9556913,21.696632,-30.714054,46.348263,19.888542,1.9028422,8.053888,-12.985077,-18.677374,39.28495,55.313343,-6.931325,-3.8273091,-23.137774
185,-1.4748984575271606,0.7203873991966248,78.40220642089844,-0.7491731894750925,-0.7923320887613923,-92.55753237432272,0.068213694,6.0161214,1.3115436,15.435757,-13.730271,-4.401198,1.5075697,-4.9368343,-10.642215,11.584772,-11.136702,4.7165394,-2.9402087,-1.5418384,9.282537,-6.138055,21.256306,-30.863495,46.29495,20.426502,2.0777833,7.938748,-12.785863,-18.787243,39.2779,55.52649,-6.8049674,-3.5734718,-22.874462
186,-1.4603029489517212,0.7337522506713867,78.39720153808594,-0.7383666407124297,-0.8037841660003386,-92.16807396134787,-0.023658456,5.9545617,1.3254035,15.460889,-13.739081,-4.3104906,1.5880871,-5.0427713,-11.008215,11.640275,-11.214128,4.7413363,-2.8656545,-1.4073851,9.333918,-6.316879,20.836447,-31.027294,46.24386,21.06545,2.2880616,7.794849,-12.606085,-18.90606,39.284973,55.702618,-6.7506146,-3.2571805,-22.541557
187,-1.4421604871749878,0.7571037411689758,78.3914794921875,-0.7349005218659125,-0.824023542557736,-91.77858900372068,-0.113758594,5.8897758,1.2703127,15.497589,-13.760974,-4.2208323,1.6840491,-5.1410947,-11.374727,11.685126,-11.287255,4.7674584,-2.8020618,-1.2726046,9.39152,-6.490847,20.437202,-31.191168,46.183636,21.743124,2.5134785,7.614193,-12.440573,-19.032537,39.2946,55.841656,-6.752158,-2.8893034,-22.15119
188,-1.4206119775772095,0.764371931552887,78.38812255859375,-0.7395401457442163,-0.8488465283384666,-91.39718071598617,-0.19672692,5.822088,1.1290026,15.525467,-13.783827,-4.1618943,1.7947379,-5.228477,-11.73564,11.707079,-11.348205,4.7972684,-2.740229,-1.1376811,9.451842,-6.6632876,20.059473,-31.34428,46.106556,22.39312,2.7340608,7.3899503,-12.2872,-19.165758,39.29956,55.945946,-6.788956,-2.480786,-21.715666
189,-1.3994057178497314,0.7786388397216797,78.37885284423828,-0.7534015514222094,-0.8818630852646624,-91.02037558168655,-0.27164605,5.7505546,0.86525935,15.546164,-13.81171,-4.141968,1.9255924,-5.301254,-12.094624,11.705176,-11.39738,4.8310785,-2.6811786,-1.0005617,9.520185,-6.835918,19.704357,-31.488546,46.011425,23.029394,2.9478202,7.1101665,-12.14104,-19.30417,39.290604,56.00791,-6.881266,-2.0225677,-21.215525
190,-1.3770710229873657,0.7940680980682373,78.36968994140625,-0.7788113896508119,-0.9235096919171024,-90.64564325283636,-0.34022704,5.6750345,0.49891743,15.567952,-13.849038,-4.1451445,2.0760975,-5.361533,-12.453328,11.682884,-11.43713,4.8677726,-2.628819,-0.8627217,9.596101,-7.006966,19.372562,-31.629963,45.902077,23.67601,3.1628597,6.7815576,-12.007606,-19.447786,39.276848,56.032696,-7.0313187,-1.5144312,-20.650925
191,-1.3472142219543457,0.8106039762496948,78.35852813720703,-0.8057792828961368,-0.9650851426769693,-90.28278942935793,-0.40272626,5.5964975,0.0968434,15.581347,-13.883257,-4.1644917,2.2319493,-5.4166694,-12.801672,11.6440115,-11.46634,4.907673,-2.5781584,-0.72899514,9.668885,-7.168956,19.063377,-31.757372,45.772644,24.286171,3.3754392,6.4262,-11.8904295,-19.59616,39.26764,56.029446,-7.2012515,-0.978775,-20.06334
192,-1.314943552017212,0.8252261281013489,78.35047912597656,-0.8274296832523148,-0.9978113136792384,-89.9415776784242,-0.45854557,5.5167847,-0.27416137,15.575028,-13.9012375,-4.193239,2.3776484,-5.474481,-13.129571,11.5950575,-11.485647,4.9512053,-2.524759,-0.60354304,9.72789,-7.314321,18.77527,-31.859251,45.617214,24.81251,3.582835,6.0664587,-11.794292,-19.748283,39.2738,56.00862,-7.350668,-0.4371567,-19.495096
193,-1.2855253219604492,0.8365617990493774,78.34122467041016,-0.8450887256850087,-1.0193494142216213,-89.6228709738706,-0.50802976,5.4383264,-0.6112766,15.544792,-13.900249,-4.2420387,2.515396,-5.5330086,-13.437335,11.525814,-11.48979,4.999303,-2.4701633,-0.48510695,9.770071,-7.4436855,18.508162,-31.93897,45.432808,25.235647,3.7961588,5.695096,-11.722214,-19.903368,39.307735,55.971012,-7.460223,0.11588968,-18.958876
194,-1.2504775524139404,0.8474208116531372,78.33750915527344,-0.8615074404372222,-1.0342198363342479,-89.32208129404765,-0.5516797,5.3598714,-0.945276,15.497772,-13.887398,-4.3104186,2.6502392,-5.5894513,-13.729359,11.438663,-11.481361,5.0514464,-2.4166937,-0.37212756,9.8011,-7.558975,18.262072,-31.99897,45.222122,25.584307,4.013837,5.305072,-11.674306,-20.060635,39.364937,55.914,-7.5507617,0.6885167,-18.432093
195,-1.2138630151748657,0.8559904098510742,78.33303833007812,-0.8717499273287673,-1.044758395408335,-89.0405957702507,-0.58832115,5.2769985,-1.2593242,15.437229,-13.863272,-4.374899,2.7774653,-5.649769,-14.001968,11.346778,-11.466115,5.1058455,-2.3619106,-0.26788896,9.822437,-7.662695,18.036652,-32.031097,44.996113,25.877113,4.2143936,4.9202147,-11.646139,-20.219252,39.42203,55.844196,-7.6543517,1.2638115,-17.904133
196,-1.1709660291671753,0.8667063117027283,78.33116912841797,-0.8744826571981377,-1.0531348774717162,-88.77979907445237,-0.6180827,5.1848927,-1.536666,15.368972,-13.829314,-4.411906,2.8904772,-5.7203975,-14.251416,11.266899,-11.451886,5.160661,-2.302511,-0.17579885,9.835784,-7.757054,17.831045,-32.027138,44.76518,26.132599,4.3763065,4.5645733,-11.633537,-20.37808,39.45734,55.76638,-7.7991734,1.8242073,-17.364035
197,-1.125651478767395,0.8855845928192139,78.33074951171875,-0.8619664105359073,-1.0579865138213551,-88.53639499013678,-0.6447437,5.0777307,-1.7736112,15.295047,-13.781987,-4.4116635,2.987503,-5.806842,-14.478875,11.2008,-11.439473,5.216247,-2.2375224,-0.09763117,9.8375435,-7.84651,17.644743,-31.98699,44.53584,26.338491,4.482088,4.2357473,-11.636117,-20.537647,39.472446,55.68955,-7.9938326,2.3624504,-16.810797
198,-1.0821512937545776,0.893339991569519,78.33216094970703,-0.8406218338376992,-1.0589234295530578,-88.31084984570764,-0.66851836,4.959561,-1.9789648,15.215298,-13.723229,-4.387989,3.0710096,-5.9049497,-14.685504,11.142306,-11.425861,5.273249,-2.168283,-0.031112038,9.828041,-7.9290814,17.477535,-31.914557,44.30211,26.490356,4.5481563,3.924719,-11.655398,-20.698385,39.476402,55.608326,-8.2229,2.887941,-16.248938
199,-1.037763237953186,0.9034052491188049,78.3345718383789,-0.8149576736897134,-1.0594249586253615,-88.11021585758657,-0.6785696,4.840644,-2.1543014,15.120714,-13.657313,-4.3524637,3.1461844,-6.00485,-14.868249,11.086659,-11.409539,5.330144,-2.0954888,0.026335655,9.814394,-8.001118,17.329756,-31.811079,44.058456,26.615042,4.6038227,3.6455882,-11.693571,-20.85909,39.460983,55.51134,-8.47656,3.4074976,-15.675176
200,-0.9911342263221741,0.912325918674469,78.33506774902344,-0.7922318564577738,-1.0629906405425442,-87.94144948262499,-0.6656157,4.731426,-2.3013947,15.00477,-13.58984,-4.316728,3.2169054,-6.097549,-15.023661,11.031422,-11.389748,5.385433,-2.0194452,0.077097125,9.803771,-8.059824,17.202192,-31.678736,43.79972,26.738514,4.678106,3.4121802,-11.752715,-21.017382,39.417328,55.38753,-8.74532,3.9281466,-15.087068
201,-0.9453380703926086,0.9189965128898621,78.3387451171875,-0.7689866310938478,-1.0683883802717076,-87.81007812417734,-0.62564516,4.6320124,-2.4156885,14.860255,-13.516448,-4.2783775,3.2823758,-6.182993,-15.1483345,10.974369,-11.364051,5.4390454,-1.9374576,0.11750662,9.795303,-8.098221,17.094912,-31.51127,43.52066,26.852324,4.7778482,3.2359593,-11.837129,-21.171734,39.354073,55.247074,-9.009041,4.442212,-14.502893
202,-0.8993828892707825,0.9338622093200684,78.34011840820312,-0.7453776221069353,-1.0743927899208914,-87.71105833422227,-0.56315714,4.537648,-2.4978418,14.690015,-13.4347515,-4.232928,3.3407197,-6.2656436,-15.244729,10.917526,-11.333487,5.4917126,-1.851119,0.14709866,9.785862,-8.118731,17.007944,-31.308964,43.224396,26.947903,4.8882437,3.1068523,-11.945756,-21.321318,39.27292,55.093708,-9.279521,4.948919,-13.917835
203,-0.8518173098564148,0.9323070049285889,78.34151458740234,-0.7226348678042194,-1.0846596098184702,-87.6360233323678,-0.4858728,4.452036,-2.5581193,14.511251,-13.357924,-4.189152,3.395681,-6.3423843,-15.318776,10.864153,-11.303457,5.542855,-1.766613,0.1731087,9.778819,-8.133502,16.942472,-31.085575,42.9193,27.04971,5.0058327,3.0064383,-12.074783,-21.465658,39.15508,54.91013,-9.594742,5.464374,-13.293141
204,-0.8007776141166687,0.9393756985664368,78.34291076660156,-0.7075297566770756,-1.1023940230279115,-87.57682192164121,-0.40018022,4.378715,-2.6067064,14.338624,-13.296921,-4.1558127,3.4523914,-6.4097295,-15.376476,10.81346,-11.276576,5.5920916,-1.6888067,0.2017567,9.777253,-8.1536255,16.900063,-30.855307,42.613373,27.184055,5.127132,2.9160929,-12.220896,-21.60585,38.9828,54.679356,-9.9923,6.0034866,-12.58898
205,-0.7509586215019226,0.9459056854248047,78.34235382080078,-0.7008257963958544,-1.1313997428004203,-87.53739333164602,-0.3013565,4.322633,-2.641084,14.171382,-13.257097,-4.1360135,3.5115483,-6.464183,-15.41274,10.769049,-11.2552805,5.6389294,-1.6137096,0.23806103,9.784859,-8.185611,16.883001,-30.629572,42.31479,27.34846,5.244361,2.8440566,-12.386138,-21.742811,38.754986,54.413242,-10.493148,6.571525,-11.807719
206,-0.7053357362747192,0.9574891328811646,78.33935546875,-0.7003094249919583,-1.1687513927319162,-87.52013734138406,-0.18965578,4.2806897,-2.6577787,14.005687,-13.232753,-4.1247644,3.5715923,-6.5078516,-15.426755,10.727402,-11.236089,5.6836486,-1.5392529,0.2772569,9.799141,-8.223262,16.892103,-30.401258,42.017006,27.529837,5.3618016,2.795665,-12.5711565,-21.877464,38.48044,54.11458,-11.074507,7.156333,-10.963458
207,-0.6563579440116882,0.9681428074836731,78.33586120605469,-0.7005808787775621,-1.2084534194324843,-87.51413867756153,-0.073323265,4.2439823,-2.664909,13.841734,-13.214467,-4.1183724,3.6294916,-6.54831,-15.430097,10.68993,-11.22043,5.7270303,-1.4738259,0.3111232,9.814319,-8.253733,16.92509,-30.151678,41.701977,27.74345,5.493967,2.7478716,-12.761798,-22.01067,38.14714,53.74559,-11.718793,7.7456245,-10.0328045
208,-0.6060610413551331,0.9835946559906006,78.33052062988281,-0.6996064727637561,-1.2444748941220032,-87.50833591424622,0.038022302,4.2037373,-2.6708107,13.681969,-13.193819,-4.113498,3.6843405,-6.591763,-15.434538,10.651442,-11.205639,5.7697415,-1.4250356,0.33198795,9.824302,-8.266375,16.977749,-29.86332,41.354244,28.005,5.6552873,2.67793,-12.94638,-22.144339,37.746246,53.270435,-12.404517,8.32723,-8.992774
209,-0.5559319853782654,0.9905945658683777,78.32745361328125,-0.6940094635597077,-1.2784932891984784,-87.50250650202823,0.14317259,4.156856,-2.675689,13.532401,-13.170932,-4.1102753,3.7339528,-6.642339,-15.44124,10.620912,-11.195535,5.811885,-1.394364,0.33930206,9.829982,-8.267281,17.047676,-29.54135,40.9953,28.306585,5.841501,2.5894163,-13.126481,-22.28083,37.265625,52.689255,-13.131076,8.897553,-7.826348
210,-0.5064196586608887,1.0099644660949707,78.3224105834961,-0.6854382321962263,-1.3127353229280858,-87.50154949809412,0.24736138,4.108555,-2.6757789,13.389131,-13.149126,-4.1103373,3.7803576,-6.6953826,-15.444679,10.595342,-11.188713,5.853036,-1.376816,0.33787593,9.833347,-8.261798,17.134218,-29.193022,40.628635,28.644522,6.04752,2.4913192,-13.30443,-22.422125,36.7134,52.015285,-13.909923,9.457845,-6.547022
211,-0.45697730779647827,1.015599012374878,78.31849670410156,-0.6776764599144458,-1.3415805697716838,-87.50250498542691,0.34755763,4.061393,-2.6734555,13.245232,-13.127523,-4.1125636,3.8256843,-6.7455173,-15.446369,10.560966,-11.1802225,5.8932843,-1.3719649,0.32777718,9.82939,-8.239665,17.235601,-28.80391,40.213554,29.038992,6.2854185,2.3676074,-13.464581,-22.568579,36.105446,51.229023,-14.745132,10.004234,-5.1781783
212,-0.4131564795970917,1.0215047597885132,78.3158187866211,-0.6728595799799894,-1.3598167852776935,-87.50210240593331,0.4426758,4.018758,-2.6710558,13.089419,-13.102657,-4.1159024,3.87075,-6.7877893,-15.4478035,10.506677,-11.166863,5.9327316,-1.3801001,0.3102482,9.813419,-8.192811,17.350193,-28.360016,39.710365,29.507614,6.5669847,2.2022588,-13.594722,-22.718647,35.461918,50.312378,-15.63519,10.532937,-3.743272
213,-0.3714805841445923,1.0259677171707153,78.31450653076172,-0.6672363766508994,-1.3692694489656372,-87.49788507860605,0.5333389,3.9782827,-2.6721127,12.925346,-13.075057,-4.1136365,3.923354,-6.8212423,-15.452076,10.422295,-11.140893,5.973846,-1.4094688,0.28400517,9.781756,-8.111616,17.47676,-27.842682,39.105564,30.095343,6.9148526,1.9568899,-13.687499,-22.870012,34.76101,49.237183,-16.655672,11.068432,-2.1551673
214,-0.3253460228443146,1.032491683959961,78.31167602539062,-0.664515561210483,-1.371536224067287,-87.49211641301589,0.6207342,3.9392765,-2.6742604,12.75473,-13.044875,-4.1087565,3.9803407,-6.848372,-15.457494,10.316204,-11.106537,6.0157485,-1.4586108,0.24872988,9.736594,-8.002652,17.615444,-27.263336,38.42232,30.780403,7.3139906,1.6488574,-13.754485,-23.02364,34.006264,48.024567,-17.782276,11.59355,-0.42883873
215,-0.28440624475479126,1.0357331037521362,78.3113784790039,-0.6626510115792125,-1.3614496153833466,-87.48888074204034,0.7016719,3.906828,-2.6711586,12.570832,-13.012497,-4.114202,4.027537,-6.8691654,-15.458242,10.202074,-11.075586,6.053609,-1.5140904,0.20774396,9.683047,-7.874762,17.765673,-26.647707,37.67017,31.485863,7.7210784,1.3455834,-13.79846,-23.18007,33.239822,46.71865,-18.875616,12.053395,1.2552911
216,-0.24571852385997772,1.0365849733352661,78.31015014648438,-0.6614787325068584,-1.3333748852888228,-87.4924750526811,0.7735865,3.8855007,-2.6562073,12.365619,-12.977528,-4.1427417,4.0523615,-6.88325,-15.449158,10.090234,-11.058655,6.0825524,-1.5633323,0.16416146,9.626142,-7.737342,17.926176,-26.020994,36.85951,32.13267,8.094918,1.1169627,-13.825678,-23.338669,32.505726,45.36742,-19.788866,12.407662,2.710838
217,-0.21082478761672974,1.036078691482544,78.3105239868164,-0.6681626919282141,-1.2932595190054137,-87.4974764380129,0.842718,3.8777173,-2.6402888,12.139607,-12.93534,-4.183774,4.0626636,-6.8855443,-15.428097,9.982243,-11.048877,6.077175,-1.6109087,0.12066218,9.563163,-7.590567,18.097595,-25.395636,35.98638,32.715744,8.443131,0.96594816,-13.840399,-23.497782,31.812592,43.971176,-20.472902,12.667368,3.9279182
218,-0.1787320226430893,1.037883996963501,78.31332397460938,-0.6784234667727034,-1.2415457400020897,-87.50372649199613,0.909069,3.880356,-2.6225514,11.893695,-12.886053,-4.23502,4.062015,-6.877641,-15.39841,9.8718195,-11.043477,6.04824,-1.6616309,0.07491089,9.492344,-7.4305787,18.279757,-24.755766,35.048164,33.2698,8.783292,0.86144656,-13.840234,-23.655779,31.138113,42.51044,-21.001928,12.861944,4.98692
219,-0.15196003019809723,1.0489435195922852,78.31472778320312,-0.6863258703000114,-1.1644668125331537,-87.52363701273266,0.9580595,3.891553,-2.579375,11.627263,-12.84074,-4.3221087,4.0297318,-6.8688426,-15.361841,9.75975,-11.058987,6.0448303,-1.7024031,0.024076447,9.420728,-7.257361,18.46763,-24.081701,34.05357,33.778656,9.09083,0.82363725,-13.825177,-23.81071,30.481506,41.00484,-21.406157,12.987616,5.833983
220,-0.12514503300189972,1.06160306930542,78.3147964477539,-0.6878495633004585,-1.048422889672725,-87.56920826081594,0.9766627,3.9094331,-2.4868994,11.336089,-12.80861,-4.470776,3.942972,-6.8686523,-15.320251,9.651083,-11.113976,6.1160316,-1.7212317,-0.03389362,9.3540125,-7.0781336,18.653671,-23.355904,33.020683,34.221825,9.341671,0.87392926,-13.796554,-23.960056,29.842905,39.4771,-21.71687,13.038621,6.4147143
221,-0.10322833061218262,1.08341383934021,78.31443786621094,-0.6754888982989166,-0.8883391844943135,-87.64269666093548,0.9814155,3.9311652,-2.3339686,10.977669,-12.779006,-4.710593,3.8154044,-6.878466,-15.273687,9.508109,-11.201129,6.3022614,-1.712589,-0.10086215,9.280458,-6.9086256,18.835419,-22.570353,31.947563,34.598713,9.510056,0.97876436,-13.756109,-24.10231,29.212059,37.926514,-21.924734,12.998518,6.7192025
222,-0.08021405339241028,1.1117569208145142,78.31193542480469,-0.6585079744001552,-0.6924209773272132,-87.73752797912574,0.97374225,3.959857,-2.1346931,10.566834,-12.750176,-5.0208077,3.6544032,-6.891126,-15.222956,9.337703,-11.31194,6.568158,-1.6840706,-0.17282118,9.200763,-6.7436233,19.01192,-21.736013,30.832575,34.91763,9.616744,1.1421444,-13.703742,-24.23599,28.59147,36.345406,-22.01671,12.881154,6.7728553
223,-0.06392806768417358,1.1541152000427246,78.30752563476562,-0.6431934891726845,-0.4678093653717246,-87.85257612103622,0.9169268,4.001288,-1.9030436,10.189407,-12.746362,-5.3513265,3.4303834,-6.9050627,-15.171335,9.212523,-11.46497,6.8496113,-1.6431152,-0.244065,9.138622,-6.559426,19.1749,-20.862518,29.696575,35.174744,9.707499,1.4420298,-13.64384,-24.359032,28.004507,34.75279,-22.017271,12.723677,6.5746965
224,-0.046264998614788055,1.2079442739486694,78.31201171875,-0.6406861651541894,-0.2219155893925077,-87.98682049431015,0.77113295,4.060507,-1.653449,9.938568,-12.796671,-5.651584,3.1070101,-6.9213767,-15.119675,9.217833,-11.684765,7.0825577,-1.5974057,-0.3087299,9.11681,-6.337363,19.311295,-19.95879,28.567017,35.367226,9.828399,1.9571761,-13.5807705,-24.46853,27.475088,33.16998,-21.953373,12.56226,6.123373
225,-0.0329522006213665,1.2669590711593628,78.31851959228516,-0.6543185183623408,0.0472936127157739,-88.14199939478455,0.53372604,4.1465917,-1.3793352,9.819839,-12.9072485,-5.9234104,2.7026403,-6.935754,-15.087955,9.317237,-11.964967,7.2867594,-1.5449477,-0.3594331,9.1319685,-6.0915976,19.412539,-19.024517,27.461027,35.476944,9.976455,2.7550163,-13.524659,-24.564533,27.029663,31.607323,-21.799597,12.400644,5.3282585
226,-0.02138610929250717,1.3364149332046509,78.3257064819336,-0.680100422442173,0.3407445141653728,-88.3180930058228,0.22286601,4.25471,-1.0765009,9.795234,-13.065997,-6.18826,2.225565,-6.950653,-15.068648,9.493277,-12.300144,7.4839463,-1.483738,-0.39922708,9.172959,-5.836455,19.476212,-18.055561,26.375202,35.51216,10.132591,3.7806368,-13.475169,-24.647413,26.652658,30.060474,-21.554453,12.218235,4.2198615
227,-0.015050296671688557,1.417420744895935,78.33212280273438,-0.7074784851393463,0.6497952792595851,-88.51133096943501,-0.17612524,4.368844,-0.76386064,9.904227,-13.281374,-6.424429,1.6261866,-6.976068,-15.02018,9.858557,-12.720261,7.6114206,-1.4182479,-0.4371398,9.251177,-5.558591,19.49741,-17.059229,25.309675,35.507282,10.320203,4.929054,-13.413683,-24.712143,26.299572,28.522776,-21.282373,12.016054,2.9781315
228,-0.011131535284221172,1.513166069984436,78.33675384521484,-0.7286062795473499,0.9667236208071222,-88.71856824965255,-0.6737262,4.472704,-0.46023968,10.175626,-13.555839,-6.609799,0.8553683,-7.021968,-14.899588,10.520903,-13.254233,7.606438,-1.3509579,-0.4827005,9.376604,-5.2507668,19.47035,-16.045685,24.271732,35.495144,10.562702,6.0969567,-13.326515,-24.750795,25.926039,26.993984,-21.044952,11.798453,1.7813485
229,-0.012187807820737362,1.6222748756408691,78.33457946777344,-0.7400086586006495,1.305126980326273,-88.94302177534495,-1.2677537,4.5676947,-0.15578857,10.573072,-13.883059,-6.753896,-0.13038656,-7.0904956,-14.69243,11.534378,-13.926783,7.4256744,-1.2775928,-0.5387282,9.530789,-4.9263306,19.39173,-15.020044,23.275993,35.47221,10.91207,7.2719636,-13.224438,-24.758038,25.516073,25.472729,-20.8509,11.595623,0.71189374
230,-0.017121540382504463,1.7488154172897339,78.32789611816406,-0.7427235128912821,1.6656801993393207,-89.1862361654094,-1.954794,4.656544,0.15546733,11.093874,-14.263119,-6.861322,-1.2875059,-7.1752005,-14.417874,12.809858,-14.710019,7.111271,-1.1944559,-0.60445756,9.711022,-4.597444,19.262106,-13.9796715,22.326384,35.421814,11.340642,8.506713,-13.115577,-24.733957,25.094088,23.969742,-20.672028,11.396223,-0.33808163
231,-0.015255922451615334,1.8761554956436157,78.31389617919922,-0.7312253834381581,2.022232345730579,-89.44222048243837,-2.7479088,4.725063,0.44821405,11.823813,-14.712136,-6.902164,-2.5578346,-7.2784266,-14.078987,14.287457,-15.565388,6.7282515,-1.1053635,-0.6847551,9.951666,-4.245332,19.08056,-12.919604,21.402443,35.36158,11.754738,9.793859,-12.97706,-24.676804,24.67408,22.496521,-20.51718,11.145687,-1.4758806
232,-0.025687500834465027,2.0410256385803223,78.2833251953125,-0.7016717630021222,2.348560347695477,-89.70389884556103,-3.6615877,4.7612395,0.69575137,12.850645,-15.246898,-6.846514,-3.8755076,-7.3992305,-13.681992,15.8914585,-16.449291,6.342125,-1.0148035,-0.78241587,10.286692,-3.8482945,18.845861,-11.835968,20.480968,35.312695,12.063154,11.123984,-12.7851305,-24.584263,24.269547,21.065027,-20.39943,10.789527,-2.808343
233,-0.025024311617016792,2.2089920043945312,78.23621368408203,-0.6394874668877043,2.654699972229531,-89.97647357064716,-4.723326,4.740082,0.8869878,14.208709,-15.888334,-6.647147,-5.2762074,-7.549336,-13.19701,17.656307,-17.374483,5.9299397,-0.9244148,-0.91149765,10.713407,-3.3852978,18.551733,-10.692058,19.518948,35.3358,12.287666,12.401219,-12.538584,-24.45254,23.867624,19.677614,-20.318771,10.321442,-4.309986
234,-0.025433657690882683,2.3790841102600098,78.17015838623047,-0.5510659018631344,2.9507075918605574,-90.26024808432052,-5.9143624,4.6760674,1.035664,15.836862,-16.616392,-6.3302603,-6.773911,-7.715138,-12.629553,19.589035,-18.343744,5.4729023,-0.8337941,-1.0645198,11.214807,-2.8740973,18.196993,-9.499923,18.542543,35.406513,12.464192,13.660392,-12.253288,-24.279835,23.470108,18.334475,-20.278643,9.769989,-5.9418154
235,-0.036303311586380005,2.5780978202819824,78.07378387451172,-0.4693725536859651,3.2091015442332087,-90.54038472410586,-7.174709,4.6228933,1.1502792,17.671806,-17.387877,-5.978527,-8.255978,-7.854228,-12.047038,21.549839,-19.297068,5.0408607,-0.7446606,-1.2076879,11.805482,-2.3442068,17.79173,-8.3311825,17.628727,35.42166,12.51846,15.0908785,-11.932263,-24.070162,23.11196,17.045094,-20.299532,9.132873,-7.7912188
236,-0.03633623570203781,2.7685718536376953,77.94879913330078,-0.4297732388859197,3.401429141383041,-90.80264647776903,-8.44953,4.636662,1.2383963,19.6612,-18.160076,-5.6775336,-9.619676,-7.9320664,-11.519452,23.426031,-20.189959,4.7009454,-0.6581537,-1.3064286,12.50271,-1.8177886,17.352669,-7.2580957,16.845366,35.280216,12.370698,16.881527,-11.571061,-23.831633,22.824469,15.809903,-20.405716,8.407957,-9.94715
237,-0.04751020297408104,2.9751033782958984,77.79362487792969,-0.4506775213687521,3.4992651822022283,-91.03932581937154,-9.720653,4.739716,1.2939343,21.826591,-18.919527,-5.456075,-10.811294,-7.9256425,-11.053491,25.18116,-21.028847,4.4615765,-0.57370454,-1.3483691,13.345068,-1.2583841,16.882307,-6.258617,16.156158,34.923317,11.917381,19.085283,-11.132069,-23.568668,22.596325,14.585602,-20.61989,7.590691,-12.45409
238,-0.05586976185441017,3.184171438217163,77.60782623291016,-0.517047362618731,3.5237753842169983,-91.25964893596077,-11.012464,4.904997,1.312682,24.171755,-19.681364,-5.271752,-11.899049,-7.857118,-10.622288,26.893465,-21.838459,4.2881713,-0.48983067,-1.3467697,14.3154335,-0.65860116,16.37979,-5.3102503,15.5311985,34.43805,11.212065,21.591478,-10.617784,-23.28301,22.412786,13.371778,-20.942022,6.6942773,-15.258896
