unveil-humanoid-operators/unveil-humanoid-operators.github.io/feature-analysis-animation/data/trajectories/exercising_jumping_heavy.csv
Frame,root_translateX,root_translateY,root_translateZ,root_rotateX,root_rotateY,root_rotateZ,left_hip_pitch_joint_dof,left_hip_roll_joint_dof,left_hip_yaw_joint_dof,left_knee_joint_dof,left_ankle_pitch_joint_dof,left_ankle_roll_joint_dof,right_hip_pitch_joint_dof,right_hip_roll_joint_dof,right_hip_yaw_joint_dof,right_knee_joint_dof,right_ankle_pitch_joint_dof,right_ankle_roll_joint_dof,waist_yaw_joint_dof,waist_roll_joint_dof,waist_pitch_joint_dof,left_shoulder_pitch_joint_dof,left_shoulder_roll_joint_dof,left_shoulder_yaw_joint_dof,left_elbow_joint_dof,left_wrist_roll_joint_dof,left_wrist_pitch_joint_dof,left_wrist_yaw_joint_dof,right_shoulder_pitch_joint_dof,right_shoulder_roll_joint_dof,right_shoulder_yaw_joint_dof,right_elbow_joint_dof,right_wrist_roll_joint_dof,right_wrist_pitch_joint_dof,right_wrist_yaw_joint_dof
0,-0.039413999766111374,2.048456907272339,77.63497924804688,-0.051180710812026076,1.554816784045013,-91.61968790820694,4.39949,3.9275951,18.095942,11.179157,-16.272923,-4.221898,0.72506213,-4.4568577,-9.629635,13.054139,-15.709238,4.3754478,-2.0965967,0.5310594,3.900844,4.54921,19.834255,-36.487938,51.628048,1.6017361,-3.2106004,4.540378,1.9501365,-18.475765,31.002241,52.584156,5.9176645,0.46188998,-4.507415
1,-0.041162341833114624,2.064073085784912,77.63128662109375,-0.027368296391455046,1.6747172351272992,-91.6008916408561,4.11327,3.934091,18.052074,11.45923,-16.40475,-4.190988,0.38974684,-4.5173607,-9.601468,13.448609,-15.895135,4.3693275,-2.093052,0.50331306,3.905195,4.534625,19.850979,-36.3312,51.473515,1.3740727,-3.2624278,4.5256486,1.929554,-18.476786,30.865042,52.468987,6.269811,0.4130951,-4.5178037
2,-0.03946677967905998,2.084146499633789,77.62238311767578,-0.004875266585227619,1.7919041853075506,-91.57944845157076,3.8419902,3.9378994,18.00491,11.714491,-16.524622,-4.1611314,0.07102486,-4.5746245,-9.57551,13.818532,-16.070602,4.3634005,-2.0910432,0.47675535,3.9002879,4.512925,19.861216,-36.19157,51.339424,1.1502113,-3.3068364,4.50556,1.902579,-18.475147,30.74211,52.37236,6.612991,0.37812388,-4.5132337
3,-0.03781691938638687,2.1117067337036133,77.6052017211914,0.020247991291272076,1.9139545708561645,-91.56330312635305,3.5408437,3.9467506,17.96386,12.0220785,-16.669989,-4.1280775,-0.28264233,-4.638417,-9.543779,14.242612,-16.268959,4.356262,-2.0878105,0.44719216,3.9125118,4.498988,19.875374,-36.01265,51.17927,0.9234474,-3.3680623,4.494639,1.8773448,-18.470762,30.593136,52.254894,6.973719,0.31395897,-4.537499
4,-0.03524528816342354,2.143988609313965,77.58043670654297,0.051941975755297284,2.049056964506942,-91.56047888895243,3.1605356,3.9700503,17.937862,12.467259,-16.881226,-4.0873966,-0.7302874,-4.719268,-9.497259,14.813993,-16.525564,4.346031,-2.0769145,0.41236046,3.9456003,4.485,19.893223,-35.79356,50.988556,0.6437928,-3.4718597,4.5205355,1.8373965,-18.463512,30.426733,52.12168,7.425152,0.17432147,-4.646445
5,-0.03511562943458557,2.1843509674072266,77.54582977294922,0.09030607241777809,2.2004929318704254,-91.57279445602752,2.7010913,4.007726,17.931118,13.04416,-17.162626,-4.0355606,-1.2826178,-4.819099,-9.434928,15.5450945,-16.847202,4.330806,-2.0544007,0.3754537,3.9985433,4.4659047,19.90773,-35.53527,50.773354,0.32755437,-3.6284926,4.58718,1.7871895,-18.455708,30.240698,51.969902,7.9660997,-0.059834994,-4.8468494
6,-0.030761973932385445,2.2309887409210205,77.4990463256836,0.13346386468669738,2.3633936974045757,-91.59595735683881,2.181626,4.0571084,17.937508,13.723637,-17.497068,-3.9753864,-1.9109671,-4.932829,-9.360168,16.393063,-17.216835,4.311041,-2.034376,0.33483526,4.0750074,4.4551396,19.929853,-35.222565,50.520348,-0.006838423,-3.8231099,4.6768346,1.7187315,-18.444473,30.042257,51.804054,8.56659,-0.36358878,-5.1089315
7,-0.028054069727659225,2.2824485301971436,77.44622039794922,0.18175448012570497,2.5340613668327188,-91.62900618362669,1.5949197,4.1196413,17.950825,14.526705,-17.885082,-3.911381,-2.6150372,-5.059905,-9.27038,17.366514,-17.634516,4.288351,-2.0043452,0.2895011,4.1652164,4.4441805,19.948938,-34.88293,50.246826,-0.40954128,-4.0455704,4.7978077,1.6525953,-18.43176,29.820549,51.613716,9.2448,-0.71749794,-5.4367437
8,-0.025009892880916595,2.3409807682037354,77.3838119506836,0.23567775476884725,2.7087391956063755,-91.6711459765469,0.9334565,4.1972346,17.964832,15.476303,-18.328184,-3.8475077,-3.3937154,-5.1996217,-9.163116,18.473066,-18.100807,4.264854,-1.9635838,0.23804185,4.2707257,4.4294024,19.961937,-34.51916,49.95585,-0.92435306,-4.2863045,4.9518156,1.5949179,-18.417023,29.568892,51.3887,10.01674,-1.1021574,-5.8306894
9,-0.022268295288085938,2.404359817504883,77.31314849853516,0.29993156433172136,2.9027981737833506,-91.72546117555795,0.17354564,4.2865276,17.977856,16.582838,-18.827633,-3.7789028,-4.278098,-5.3564615,-9.030679,19.7361,-18.620071,4.24138,-1.9194939,0.17267843,4.3843145,4.416937,19.977358,-34.11586,49.629345,-1.4968679,-4.5354877,5.1629224,1.5389626,-18.39267,29.28724,51.137173,10.8441105,-1.5275962,-6.31315
10,-0.02185113914310932,2.4780757427215576,77.23095703125,0.3728582904888748,3.112851582282248,-91.79125932902453,-0.67395854,4.3894186,17.991425,17.83589,-19.384216,-3.7030075,-5.258613,-5.528587,-8.875368,21.144684,-19.191294,4.2163906,-1.8671335,0.09369441,4.505229,4.404464,19.996141,-33.683228,49.27364,-2.1283813,-4.801766,5.4225283,1.476913,-18.3549,28.981783,50.872707,11.7339945,-2.0041165,-6.875532
11,-0.018896659836173058,2.560485601425171,77.12873840332031,0.44532806699673383,3.3066814108629887,-91.86162315086999,-1.562303,4.515151,18.004517,19.220804,-19.99674,-3.6276767,-6.272275,-5.70528,-8.710766,22.653563,-19.80342,4.18919,-1.8054351,0.016178818,4.6563406,4.39221,20.00679,-33.221817,48.905342,-2.9300015,-5.103386,5.6738977,1.4319429,-18.317608,28.642433,50.5557,12.746521,-2.5097024,-7.4664397
12,-0.012593458406627178,2.651956558227539,77.01200866699219,0.5084490379430054,3.451734327703847,-91.92986421261192,-2.4442794,4.671978,18.01674,20.721382,-20.662373,-3.562426,-7.256386,-5.8767104,-8.550921,24.219955,-20.446495,4.1598473,-1.7719439,-0.060966745,4.873396,4.4273157,20.023668,-32.64982,48.49186,-3.9806345,-5.4552727,5.843087,1.3764033,-18.252962,28.272783,50.188435,13.916751,-3.0248148,-8.031066
13,-0.010601654648780823,2.7455596923828125,76.87395477294922,0.5612583571744936,3.5309380779475874,-91.99488269507974,-3.2988727,4.861474,18.034454,22.337814,-21.396053,-3.5061996,-8.187416,-6.040782,-8.399219,25.840675,-21.129698,4.1317363,-1.7541584,-0.12683627,5.1637826,4.4960966,20.036535,-32.0236,48.032,-5.349157,-5.886095,5.9519978,1.3356678,-18.180386,27.871033,49.738224,15.26144,-3.5287962,-8.62988
14,-0.0018408993491902947,2.836350202560425,76.71066284179688,0.6075075847532247,3.5646525334700527,-92.06019696837703,-4.1525154,5.08003,18.054626,24.07331,-22.19173,-3.4555964,-9.101699,-6.2013035,-8.248959,27.537458,-21.852875,4.1052585,-1.7492162,-0.18591127,5.514032,4.591319,20.04447,-31.336,47.528435,-6.967839,-6.3781314,6.0144224,1.3008785,-18.099258,27.439226,49.21945,16.754278,-4.0424495,-9.262353
15,0.0010243913857266307,2.9305503368377686,76.5206527709961,0.6450387808241662,3.5770875654365835,-92.12563027588769,-5.0294223,5.3274174,18.062275,25.914204,-23.017103,-3.417869,-10.019248,-6.3542943,-8.101025,29.289635,-22.592167,4.076137,-1.7455398,-0.2411273,5.898366,4.6973157,20.041626,-30.560905,47.034615,-8.780945,-6.876903,5.974906,1.2837787,-18.012966,26.965698,48.64513,18.4083,-4.6015735,-9.790452
16,0.007120812311768532,3.0086610317230225,76.31185913085938,0.6720489497774265,3.592437440480041,-92.19108994691778,-5.960101,5.604115,18.042673,27.861116,-23.840303,-3.4007084,-10.9611025,-6.4970884,-7.9565024,31.079275,-23.323603,4.040421,-1.7329308,-0.29542467,6.2912517,4.799718,20.02,-29.66856,46.604996,-10.730377,-7.3243546,5.781419,1.2884723,-17.922846,26.44419,48.034904,20.24502,-5.2349796,-10.073589
17,0.010381361469626427,3.101792097091675,76.0746078491211,0.6881172542890032,3.599036157884678,-92.25984407211617,-6.936754,5.9119544,17.996998,29.92676,-24.667055,-3.414684,-11.922621,-6.627994,-7.817094,32.919746,-24.048183,3.997155,-1.7037983,-0.35255647,6.708767,4.896569,19.973797,-28.64762,46.233215,-12.90976,-7.750573,5.3806043,1.3318294,-17.830362,25.862293,47.330128,22.349121,-5.9583406,-10.094548
18,0.009766084142029285,3.2023966312408447,75.82616424560547,0.6939572641014538,3.5900123116675933,-92.33094081214198,-7.9485316,6.2480474,17.931517,32.107117,-25.508865,-3.4547367,-12.895291,-6.7472034,-7.6831417,34.81432,-24.775846,3.9498713,-1.6652685,-0.4077376,7.1574445,4.986561,19.899996,-27.515257,45.905666,-15.317233,-8.154704,4.810407,1.4055595,-17.735687,25.22734,46.541687,24.692665,-6.7383485,-9.908094
19,0.012506130151450634,3.307826519012451,75.5645523071289,0.6891275017958234,3.596684332417222,-92.3979228265038,-9.010451,6.6012263,17.838636,34.352436,-26.334343,-3.5045893,-13.892787,-6.854647,-7.5524464,36.72632,-25.49366,3.900489,-1.6296828,-0.45168588,7.596327,5.0544496,19.794895,-26.286472,45.671207,-17.748625,-8.437335,4.166967,1.4801246,-17.637953,24.559582,45.79259,27.126919,-7.5206866,-9.483479
20,0.018954772502183914,3.4101083278656006,75.29317474365234,0.6731372827467209,3.650596676085183,-92.45461912548397,-10.137933,6.960871,17.71057,36.613815,-27.112246,-3.5474176,-14.928529,-6.949757,-7.4230485,38.619038,-26.18871,3.8510795,-1.610254,-0.4754926,7.9834576,5.08811,19.654963,-24.975313,45.579617,-19.994015,-8.511316,3.556459,1.524437,-17.535553,23.880407,45.209347,29.503359,-8.250018,-8.797848
21,0.020426152274012566,3.5062413215637207,75.01395416259766,0.6350071936352678,3.7630746945821008,-92.4945564485152,-11.381093,7.3396835,17.520376,38.95561,-27.826023,-3.5826104,-16.020853,-7.021215,-7.30233,40.505745,-26.851496,3.79435,-1.6161388,-0.46786585,8.313522,5.095479,19.467997,-23.533337,45.63241,-21.981462,-8.317711,2.9388046,1.5364599,-17.4217,23.16379,44.809185,31.96469,-8.990621,-7.656639
22,0.02914952114224434,3.601147174835205,74.7191162109375,0.578565568802838,3.9161722916147426,-92.5227297923621,-12.716654,7.7354016,17.279236,41.378,-28.49499,-3.6192236,-17.157862,-7.0723124,-7.191014,42.399796,-27.491108,3.734422,-1.6394944,-0.4364382,8.603925,5.0736194,19.232246,-21.969753,45.823208,-23.817762,-7.918232,2.2985902,1.5245985,-17.295113,22.41004,44.543087,34.544003,-9.706209,-6.128058
23,0.0355696976184845,3.6934919357299805,74.40676879882812,0.5251499508507492,4.09746302643151,-92.55012719008919,-14.049658,8.113098,17.037468,43.736263,-29.14085,-3.6543465,-18.30788,-7.1237025,-7.0744467,44.263344,-28.12175,3.6892147,-1.6667229,-0.40061417,8.84852,5.007267,18.970425,-20.382607,46.17284,-25.56154,-7.421989,1.7780033,1.4803119,-17.16811,21.6787,44.428036,36.908173,-10.226888,-4.6100388
24,0.04248372092843056,3.7780158519744873,74.08013153076172,0.49656479199517123,4.29451730589543,-92.58745101123866,-15.288076,8.441403,16.8485,45.892555,-29.788355,-3.6872697,-19.440405,-7.1969757,-6.9377246,46.06082,-28.759047,3.67702,-1.6835027,-0.38132867,9.04509,4.894734,18.71965,-18.869844,46.677097,-27.28092,-6.9425826,1.5121026,1.4049016,-17.061272,21.027506,44.46466,38.704453,-10.430258,-3.5220551
25,0.04956071451306343,3.8479316234588623,73.7457504272461,0.4910715831366094,4.523119147383816,-92.63454612515605,-16.448885,8.724644,16.719608,47.847336,-30.439314,-3.72562,-20.564934,-7.289367,-6.780687,47.77851,-29.416405,3.7144015,-1.6831944,-0.3804667,9.190571,4.7449875,18.496393,-17.446848,47.31533,-29.049685,-6.4976134,1.5894576,1.2991142,-16.986265,20.487495,44.63006,39.69354,-10.248173,-3.0191033
26,0.06105474382638931,3.9050214290618896,73.40435028076172,0.49942883119276116,4.783485270969745,-92.68653715688683,-17.569454,8.976045,16.628868,49.666927,-31.08363,-3.7713797,-21.692453,-7.3920555,-6.6106896,49.43882,-30.083899,3.7894843,-1.6726903,-0.39037317,9.293041,4.5831413,18.301336,-16.06291,48.058468,-30.825338,-6.046441,1.9181381,1.1812812,-16.942371,20.018665,44.90347,40.103516,-9.7945595,-2.880836
27,0.08649492263793945,3.9555985927581787,73.05941772460938,0.5345139600918036,5.040228872796521,-92.74689964746737,-18.590168,9.179931,16.586443,51.313957,-31.728874,-3.8130045,-22.794483,-7.516427,-6.421515,51.059906,-30.741907,3.8761077,-1.6577702,-0.41945595,9.369439,4.433772,18.155497,-14.720732,48.878998,-32.5072,-5.61335,2.3565698,1.0756216,-16.934431,19.57347,45.28816,40.28121,-9.237389,-2.9655688
28,0.10553202778100967,4.004852294921875,72.71977996826172,0.608761106813693,5.257688630854074,-92.81882336609745,-19.45052,9.321234,16.602592,52.74924,-32.38017,-3.83611,-23.84208,-7.673654,-6.2061014,52.658092,-31.367788,3.9475908,-1.6374481,-0.47922856,9.440256,4.324988,18.092825,-13.430503,49.735996,-33.99771,-5.210539,2.760425,1.0164711,-16.966919,19.095985,45.773342,40.57226,-8.737798,-3.1319995
29,0.12574772536754608,4.046087265014648,72.38542938232422,0.7385040192126168,5.441846195292573,-92.90293227175866,-20.130903,9.381507,16.697992,53.9258,-33.064262,-3.8244276,-24.852283,-7.884748,-5.9582667,54.25541,-31.972845,3.9938958,-1.6145831,-0.58791673,9.5050335,4.255017,18.129675,-12.238931,50.635197,-35.276222,-4.854004,3.161041,0.9957232,-17.04148,18.63709,46.397755,41.007915,-8.341,-3.4468603
30,0.13893450796604156,4.0748114585876465,72.06656646728516,0.9134143192801294,5.606819357611771,-92.99738866345827,-20.666986,9.375645,16.862394,54.8784,-33.76784,-3.786352,-25.831472,-8.136458,-5.6810536,55.836872,-32.561024,4.030347,-1.5762691,-0.7433695,9.558398,4.2190886,18.26897,-11.141416,51.57443,-36.40728,-4.5278263,3.6066988,1.0143505,-17.152275,18.190777,47.13775,41.427616,-7.9607086,-3.9463682
31,0.15483194589614868,4.091257095336914,71.76773834228516,1.1053192489951333,5.72922247534984,-93.10195198563541,-21.079334,9.339846,17.060627,55.691227,-34.44715,-3.7446322,-26.730145,-8.389055,-5.3833647,57.352974,-33.104347,4.068105,-1.5378976,-0.9214816,9.617233,4.2705526,18.50791,-10.015894,52.48224,-37.401237,-4.183275,3.9732058,1.0920519,-17.3012,17.660723,47.901215,41.89179,-7.561492,-4.452061
32,0.16963468492031097,4.096714973449707,71.49210357666016,1.2861799594930212,5.785943557670058,-93.21680845616814,-21.386236,9.309233,17.256927,56.446037,-35.056656,-3.7229302,-27.49932,-8.604261,-5.0753984,58.754833,-33.575233,4.1168623,-1.512403,-1.0962005,9.699249,4.4622073,18.842138,-8.741805,53.28659,-38.26765,-3.7674992,4.137563,1.2528356,-17.494547,16.946917,48.590282,42.460056,-7.10508,-4.7870307
33,0.1784456968307495,4.100065231323242,71.23773193359375,1.4703796854589675,5.747820749017719,-93.35161534748967,-21.555447,9.275018,17.462873,57.15828,-35.59419,-3.7268486,-28.1386,-8.7913,-4.7264075,60.09498,-33.961094,4.1767473,-1.5032388,-1.2777804,9.837965,4.8111353,19.267147,-7.291155,53.99614,-38.902725,-3.216073,3.9367313,1.4956561,-17.72986,16.00877,49.221207,43.17151,-6.543745,-4.843668
34,0.18599189817905426,4.106144428253174,71.00559997558594,1.6656225008939818,5.635120811854556,-93.5036687974846,-21.588474,9.22477,17.689867,57.786407,-36.080982,-3.7429652,-28.66987,-8.965298,-4.3429556,61.378105,-34.278526,4.2418656,-1.5038848,-1.4731177,10.013811,5.2889767,19.778202,-5.721272,54.644108,-39.33161,-2.5644972,3.4770172,1.8089876,-18.003916,14.903491,49.83197,43.98382,-5.9050994,-4.7408814
35,0.1958744078874588,4.103618144989014,70.808837890625,1.8347278905686397,5.498207073054858,-93.65416623280613,-21.55248,9.188503,17.902227,58.324963,-36.50774,-3.7673311,-29.080027,-9.100165,-3.991511,62.486454,-34.54464,4.310706,-1.5118456,-1.6501441,10.164878,5.8834324,20.36845,-4.0388904,55.194565,-39.759617,-1.911164,3.0410595,2.204939,-18.32821,13.677132,50.353138,44.837856,-5.2642283,-4.6401834
36,0.2028605192899704,4.091134071350098,70.64440155029297,1.9401162512782413,5.38704648413768,-93.7837366256286,-21.514784,9.197084,18.064732,58.7709,-36.864784,-3.7963133,-29.357101,-9.172217,-3.7380126,63.304623,-34.77765,4.38066,-1.5259589,-1.77335,10.230542,6.584076,21.029642,-2.250618,55.61133,-40.398804,-1.3565049,2.9139037,2.7062,-18.723774,12.375274,50.703953,45.681034,-4.6995,-4.699511
37,0.20570962131023407,4.066491603851318,70.51640319824219,1.957351945100623,5.306924929768306,-93.8874950271361,-21.51808,9.282997,18.150177,59.19159,-37.15689,-3.8351545,-29.5131,-9.161087,-3.5948193,63.846657,-34.976166,4.4578524,-1.5480602,-1.8156371,10.204856,7.4157186,21.747547,-0.28711462,55.897636,-41.362858,-0.9559126,3.2023163,3.3493104,-19.204084,10.970375,50.844513,46.447044,-4.2112274,-4.9215283
38,0.20829236507415771,4.03079891204834,70.42648315429688,1.9109792918452222,5.23349695298937,-93.97543296452578,-21.517609,9.42274,18.18271,59.56609,-37.38567,-3.8833735,-29.55169,-9.087979,-3.5275567,64.16201,-35.133385,4.5382624,-1.5792246,-1.7921298,10.114222,8.377688,22.509237,1.8358204,56.08072,-42.522,-0.65708625,3.744311,4.127813,-19.766533,9.448558,50.81451,47.18941,-3.7639208,-5.2328305
39,0.21147426962852478,3.9792470932006836,70.38284301757812,1.8358148319843532,5.171960234368407,-94.05019874602766,-21.451574,9.563521,18.204138,59.75916,-37.541008,-3.9296656,-29.44826,-8.992109,-3.5317469,64.1876,-35.258114,4.60318,-1.6152334,-1.7309587,9.947565,9.428433,23.313534,3.98165,56.15199,-43.725166,-0.40054247,4.4243293,5.010413,-20.407385,7.8703156,50.644455,48.03387,-3.3881857,-5.676313
40,0.20940440893173218,3.9151289463043213,70.39299774169922,1.7671213717728684,5.1279426885634525,-94.11483437582112,-21.257444,9.650846,18.2571,59.634346,-37.61233,-3.962946,-29.177822,-8.911928,-3.6026568,63.86004,-35.359516,4.633674,-1.6513201,-1.6627241,9.69787,10.530656,24.170504,6.01289,56.09286,-44.824116,-0.11945411,5.1274834,5.96425,-21.123114,6.2958717,50.362354,49.106937,-3.1183727,-6.2952213
41,0.2078048437833786,3.8255703449249268,70.45999145507812,1.7070541791715932,5.113983725064078,-94.1595864243813,-20.934515,9.676297,18.34212,59.16699,-37.64529,-3.967044,-28.719336,-8.862887,-3.7651677,63.129993,-35.508587,4.607209,-1.6941077,-1.5900214,9.341947,11.706063,25.10337,7.898484,55.915485,-45.79801,0.2154147,5.887483,7.0124297,-21.920946,4.729958,50.008537,50.429073,-2.9837873,-7.0600257
42,0.21160262823104858,3.7162740230560303,70.58929443359375,1.6394922658826683,5.12353030733728,-94.18659932383729,-20.510462,9.66631,18.43999,58.425655,-37.629635,-3.9517953,-28.090584,-8.821637,-4.0110617,62.04183,-35.67817,4.5372777,-1.7364293,-1.5013989,8.89226,12.97058,26.11359,9.705525,55.624165,-46.728283,0.56450087,6.7422104,8.180927,-22.795847,3.131531,49.546783,51.93733,-2.9704013,-7.956079
43,0.2114211618900299,3.597118377685547,70.78861236572266,1.5716786969968777,5.133296034790068,-94.21606738044764,-19.965242,9.618047,18.563206,57.415073,-37.468292,-3.944073,-27.32509,-8.769311,-4.2864842,60.67429,-35.728825,4.458891,-1.7595651,-1.4062773,8.394623,14.287628,27.175203,11.451742,55.17871,-47.61283,0.8974251,7.585262,9.433975,-23.719294,1.4979097,48.896862,53.62869,-3.0583308,-9.052511
44,0.21430838108062744,3.4663655757904053,71.06144714355469,1.5107900023823009,5.120073731692147,-94.26831895221876,-19.279835,9.529199,18.723434,56.14112,-37.06501,-3.9707913,-26.456583,-8.688679,-4.5375347,59.105553,-35.5193,4.407744,-1.7494638,-1.3139216,7.89524,15.617525,28.254906,13.157475,54.538906,-48.442493,1.1831055,8.31319,10.725567,-24.65682,-0.16669978,47.9874,55.49691,-3.2384686,-10.422956
45,0.20817148685455322,3.3285539150238037,71.40515899658203,1.4594746886032928,5.076395876644528,-94.34771637208316,-18.430729,9.397893,18.925793,54.57913,-36.42513,-4.0443482,-25.4659,-8.580375,-4.767596,57.312107,-35.057926,4.393146,-1.7094017,-1.2294625,7.4050064,17.001358,29.348907,14.825853,53.675327,-49.177006,1.4590876,8.848479,12.081124,-25.603144,-1.8564602,46.772533,57.65906,-3.5375562,-12.258211
46,0.20610885322093964,3.1886470317840576,71.82659149169922,1.413749897505418,5.015241013259038,-94.44369072998657,-17.433615,9.224862,19.158722,52.734528,-35.590576,-4.1460953,-24.343437,-8.452087,-4.9967947,55.266766,-34.405724,4.3942847,-1.6513655,-1.1496619,6.9053864,18.464455,30.463068,16.462452,52.594234,-49.826847,1.7297094,9.264874,13.518311,-26.561304,-3.5716958,45.294777,60.064987,-4.0066175,-14.455861
47,0.1989963948726654,3.0452613830566406,72.31647491455078,1.370840487201868,4.943892615044423,-94.55425530262515,-16.325548,9.010082,19.408768,50.654095,-34.522095,-4.2572093,-23.139112,-8.298342,-5.1960745,53.04446,-33.504375,4.4036107,-1.5746458,-1.0705335,6.3908267,19.985312,31.57558,18.087265,51.27321,-50.468285,1.9114108,9.68484,14.96994,-27.508783,-5.31178,43.628067,62.455627,-4.646822,-16.653357
48,0.19313767552375793,2.898230791091919,72.87594604492188,1.3276724678539382,4.869872103272552,-94.67719959726234,-15.145655,8.754894,19.662302,48.386757,-33.175243,-4.3599305,-21.902414,-8.114452,-5.337958,50.71659,-32.295773,4.416359,-1.4948,-0.9932893,5.8812337,21.344929,32.6633,19.745222,49.84921,-51.104313,1.9110757,10.241093,16.340359,-28.419497,-7.070072,41.838375,64.572525,-5.415813,-18.495306
49,0.19070275127887726,2.7507741451263428,73.49928283691406,1.2801351901599982,4.7880915017641446,-94.82286084924236,-13.859578,8.458452,19.923656,45.877327,-31.547016,-4.4554996,-20.613829,-7.8815374,-5.400842,48.247578,-30.75427,4.42994,-1.3922595,-0.9112005,5.3529625,22.775824,33.701324,21.467884,48.07779,-51.857685,1.7064123,11.011245,17.64895,-29.283457,-8.896704,39.89749,66.40963,-6.2968383,-19.96522
50,0.18654634058475494,2.59529972076416,74.18165588378906,1.2311311230125959,4.697206425972714,-94.98845871588185,-12.461218,8.121768,20.18993,43.124783,-29.660412,-4.549356,-19.257864,-7.60996,-5.4027333,45.6171,-28.916773,4.4502797,-1.2791895,-0.8296135,4.8308005,24.187206,34.6884,23.257824,46.053932,-52.62462,1.3363999,11.916243,18.919535,-30.107325,-10.778803,37.764175,68.07735,-7.2883945,-21.22776
51,0.18730910122394562,2.438904285430908,74.91264343261719,1.1899647058799208,4.609662220208342,-95.15279866919899,-11.031454,7.749352,20.44065,40.255062,-27.511656,-4.6343474,-17.900686,-7.338677,-5.3745894,42.939228,-26.81907,4.4856925,-1.1676569,-0.7584422,4.3302455,25.568634,35.629627,25.046953,43.83603,-53.320587,0.8092627,12.825012,20.106155,-30.898294,-12.63352,35.529118,69.50601,-8.334447,-22.21432
52,0.1890048384666443,2.274742841720581,75.68280029296875,1.1655989295989306,4.53779076934778,-95.2945703785285,-9.653931,7.3449135,20.658314,37.393597,-25.09363,-4.7068872,-16.605898,-7.1055202,-5.348932,40.32177,-24.491272,4.544362,-1.0748929,-0.7101249,3.8687756,26.83998,36.537815,26.77352,41.54268,-53.836815,0.14046773,13.609011,21.163074,-31.665182,-14.373801,33.275597,70.6329,-9.373078,-22.857649
53,0.19222204387187958,2.1235368251800537,76.48139953613281,1.162576662746917,4.485034680295184,-95.41688208321901,-8.310412,6.885134,20.850967,34.489788,-22.353136,-4.7566447,-15.365563,-6.911214,-5.322416,37.74712,-21.899363,4.5961785,-0.99948424,-0.69354767,3.425057,28.015797,37.426067,28.435547,39.148895,-54.184765,-0.72864836,14.238561,22.082005,-32.4189,-15.993521,30.986135,71.46903,-10.391703,-23.076534
54,0.1908784806728363,1.9856336116790771,77.29864501953125,1.1756825861880495,4.4449355555366346,-95.52830875757098,-6.9748087,6.379629,21.022629,31.51162,-19.31432,-4.7930903,-14.163183,-6.7407255,-5.2821035,35.188522,-19.048555,4.648938,-0.9332547,-0.7006739,2.9905233,29.105501,38.297985,30.055342,36.631832,-54.408978,-1.7773947,14.780439,22.877104,-33.164642,-17.528727,28.639292,72.059494,-11.397325,-22.937243
55,0.19855333864688873,1.870620846748352,78.11817169189453,1.1993275756147312,4.414997725143078,-95.61631207024904,-5.724586,5.8786163,21.154959,28.618795,-16.084875,-4.844761,-13.053459,-6.6035047,-5.2434,32.74565,-16.02719,4.767321,-0.8844796,-0.72101456,2.5997255,30.041613,39.1545,31.609295,34.09188,-54.461178,-2.8683078,15.254567,23.577469,-33.90192,-18.963657,26.27467,72.40096,-12.362395,-22.594671
56,0.20696225762367249,1.7599560022354126,78.94586181640625,1.228863295841757,4.392585555852488,-95.6684709872909,-4.633181,5.424059,21.233282,25.958199,-12.760879,-4.9390764,-12.084268,-6.5046515,-5.2166905,30.50429,-12.912033,5.015969,-0.8466709,-0.73941535,2.3033442,30.73223,39.999363,33.060783,31.626917,-54.292088,-3.863939,15.682345,24.010353,-34.636852,-20.2655,24.109697,72.423935,-13.26735,-22.207815
57,0.21291659772396088,1.663115382194519,79.77775573730469,1.2670968584716402,4.3702675822093715,-95.68086800396966,-3.717213,5.0035453,21.231216,23.544395,-9.207808,-5.039326,-11.287647,-6.414821,-5.121336,28.509619,-9.568616,5.327615,-0.8361789,-0.76015013,2.100966,31.18074,40.84651,34.441364,29.218851,-53.787193,-4.687547,16.077753,24.305124,-35.379383,-21.43588,22.014517,72.10258,-14.135333,-21.765781
58,0.22038675844669342,1.5984190702438354,80.5982437133789,1.3190319210349848,4.351723024256135,-95.66172927693464,-2.952639,4.5934734,21.17296,21.324253,-5.431833,-5.1402774,-10.642437,-6.342221,-4.9662757,26.724285,-6.0098715,5.699554,-0.84396917,-0.78986937,1.9696585,31.409552,41.704453,35.743668,26.83367,-53.009354,-5.422,16.433857,24.40933,-36.136086,-22.474356,20.012804,71.45486,-14.974718,-21.21173
59,0.23105041682720184,1.5565896034240723,81.40660095214844,1.3826779105651759,4.349926579842493,-95.61525488367025,-2.3487415,4.21349,21.112152,19.335873,-1.7279027,-5.3153644,-10.100374,-6.3303084,-4.887572,25.077085,-2.5167527,6.288032,-0.86987054,-0.83037317,1.8871399,31.415829,42.569344,36.90209,24.54457,-52.17442,-6.1713424,16.741018,24.39914,-36.900875,-23.38567,18.086258,70.63083,-15.737496,-20.632317
60,0.23886334896087646,1.5296218395233154,82.1893539428711,1.4517078201832159,4.377944390176678,-95.54445089501554,-1.8936024,3.880558,21.091417,17.575796,1.6292425,-5.6442323,-9.600524,-6.404206,-5.017975,23.471962,0.65241784,7.242276,-0.89653945,-0.87311417,1.8521852,31.170942,43.43283,37.835262,22.417027,-51.4945,-7.043625,16.987898,24.140923,-37.66496,-24.1498,16.394024,69.701454,-16.373907,-20.109692
61,0.2527281641960144,1.522011160850525,82.93309783935547,1.532652766170118,4.4513607447652355,-95.4416013931898,-1.5451318,3.598545,21.21404,15.899036,4.753254,-6.2117767,-9.054791,-6.562096,-5.383673,21.652395,3.665093,8.879896,-0.9399727,-0.9304851,1.8648059,30.684477,44.301033,38.5101,20.430626,-51.03819,-8.173735,17.231071,23.710604,-38.42629,-24.768658,14.866869,68.69474,-16.899357,-19.623314
62,0.2655681371688843,1.5431270599365234,83.61076354980469,1.6244378860728161,4.558126142761185,-95.30614457011218,-1.2994953,3.338787,21.41234,14.296898,7.769363,-6.9522786,-8.49628,-6.7492204,-5.886842,19.69288,6.6423,11.0274315,-0.994812,-0.99827534,1.9337639,29.943861,45.18526,38.951103,18.558662,-50.68542,-9.471104,17.455332,23.081028,-39.189396,-25.241098,13.500267,67.54198,-17.333715,-19.14241
63,0.2804919481277466,1.5893198251724243,84.21095275878906,1.7006178293151355,4.670041283478538,-95.15011271798295,-1.2003884,3.0979507,21.471804,12.981633,10.408987,-7.7330256,-8.034715,-6.927882,-6.5210695,17.982843,9.245717,13.086593,-1.0491521,-1.045723,2.042987,28.938128,46.07805,39.19152,16.854033,-50.372,-10.7067995,17.54018,22.337662,-39.949715,-25.5882,12.225335,66.30197,-17.626068,-18.730608
64,0.29790881276130676,1.6661901473999023,84.7464370727539,1.7295848388045978,4.7606327654225975,-94.98597025983013,-1.3011923,2.9004135,21.187307,12.198169,12.371839,-8.430199,-7.7929792,-7.0981984,-7.329175,16.948895,11.088145,14.449186,-1.0851448,-1.0360472,2.1849606,27.656141,46.956326,39.266228,15.351793,-50.037193,-11.6544485,17.365864,21.513758,-40.69677,-25.829657,11.013162,65.0081,-17.72159,-18.447943
65,0.31598928570747375,1.775854468345642,85.23174285888672,1.6851069175047892,4.830326572733482,-94.811467192001,-1.6535922,2.771505,20.43281,12.064955,13.473382,-9.096102,-7.834731,-7.3256116,-8.537961,16.816906,11.874691,14.835742,-1.0974139,-0.9435527,2.3755734,26.026018,47.796894,39.220352,14.072292,-49.72924,-12.259242,16.744268,20.626335,-41.423798,-25.989582,9.826189,63.616165,-17.568312,-18.346178
66,0.33980077505111694,1.9000297784805298,85.67619323730469,1.5901414060725614,4.889888013390889,-94.62249044844354,-2.2092946,2.6942756,19.357069,12.43493,13.895672,-9.78182,-8.070589,-7.6356215,-10.099279,17.331282,11.845418,14.6022215,-1.0987705,-0.7959886,2.624254,24.08733,48.585873,39.03151,12.956791,-49.462437,-12.644695,15.786484,19.634188,-42.126106,-26.046474,8.690506,62.116577,-17.200863,-18.367636
67,0.3637222647666931,2.0473904609680176,86.05439758300781,1.4864775173148244,4.929822827285956,-94.42890167505723,-2.8741248,2.6355355,18.17488,13.156727,13.888166,-10.359041,-8.40002,-7.9766803,-11.650508,18.197353,11.402679,14.096231,-1.1063496,-0.6388089,2.9078364,22.002459,49.309875,38.64395,11.92599,-49.117855,-12.852825,14.825546,18.56815,-42.793972,-25.973274,7.6008716,60.62479,-16.694715,-18.41213
68,0.3855309784412384,2.1975276470184326,86.37689208984375,1.4087222919827747,4.942659003068831,-94.23871067158343,-3.5644903,2.5796168,17.09258,14.090295,13.707859,-10.695073,-8.73946,-8.269755,-12.83388,19.115108,10.975232,13.6624775,-1.1325916,-0.5070389,3.2040663,19.927393,49.95553,37.99787,10.902233,-48.577457,-12.925264,14.195747,17.42751,-43.41399,-25.737942,6.579895,59.240067,-16.130796,-18.383474
69,0.4136906862258911,2.3507492542266846,86.65634155273438,1.3577128060427663,4.917615605964095,-94.05039498470109,-4.3130274,2.531938,16.091707,15.332771,13.344505,-10.6827545,-9.102922,-8.498417,-13.596651,20.11445,10.615345,13.31106,-1.1798966,-0.4021878,3.5321903,17.87647,50.50714,37.077717,9.844518,-47.815746,-12.814155,14.067266,16.227854,-43.977585,-25.343073,5.5844526,58.004448,-15.5126,-18.290892
70,0.4455934166908264,2.5017929077148438,86.89031982421875,1.3132668034923929,4.862249977016466,-93.86078524223902,-5.1458054,2.4914768,15.087172,16.90439,12.703206,-10.414379,-9.521274,-8.690901,-14.11341,21.296143,10.130972,12.892573,-1.2413443,-0.30411434,3.90044,15.782019,50.950165,35.927937,8.788712,-46.895233,-12.511069,14.230665,14.963465,-44.478275,-24.808134,4.610096,56.857277,-14.803541,-18.171228
71,0.47800907492637634,2.652733564376831,87.07453155517578,1.2729360436884336,4.797842482423555,-93.67430776138718,-5.966223,2.4564369,14.177805,18.539564,11.916656,-10.052635,-9.953718,-8.816323,-14.380146,22.476145,9.595714,12.508795,-1.3170311,-0.21165743,4.2689486,13.682791,51.27406,34.585873,7.77143,-45.830566,-12.116123,14.452008,13.623788,-44.904675,-24.134058,3.7177289,55.745583,-14.0296,-17.97565
72,0.5092288851737976,2.7980337142944336,87.20433044433594,1.238808684394485,4.746293034586772,-93.49570943530172,-6.6888037,2.4366398,13.46555,20.001385,11.09851,-9.756139,-10.368202,-8.852156,-14.392345,23.490923,9.070822,12.260005,-1.4058714,-0.12751491,4.5982323,11.621039,51.47273,33.089497,6.8282967,-44.632034,-11.737188,14.500235,12.195007,-45.2431,-23.320282,2.9724822,54.612,-13.219695,-17.655027
73,0.5459500551223755,2.9409546852111816,87.27689361572266,1.212381846334559,4.714985722030762,-93.31764407973772,-7.3087244,2.4589636,13.016011,21.288996,10.2201185,-9.545553,-10.774455,-8.778327,-14.102582,24.32892,8.547505,12.1825075,-1.5153614,-0.053688537,4.8885612,9.640733,51.542545,31.45944,5.93474,-43.265198,-11.426602,14.314184,10.685446,-45.488018,-22.393608,2.3614762,53.363594,-12.31158,-17.121088
74,0.5793920159339905,3.074856758117676,87.29330444335938,1.192755513184647,4.6920920603094265,-93.13994874503173,-7.8728957,2.5269709,12.758777,22.524963,9.2296295,-9.338315,-11.189583,-8.603171,-13.533016,25.076317,7.9963446,12.222416,-1.6423728,0.012000338,5.1627107,7.735164,51.47226,29.696852,5.0693407,-41.73665,-11.1261835,14.01431,9.103679,-45.63059,-21.355782,1.8542374,52.04662,-11.322553,-16.419117
75,0.6114881634712219,3.2106313705444336,87.26459503173828,1.1796278406660308,4.671299778593933,-92.97852705469073,-8.37784,2.6163528,12.595527,23.667032,8.200575,-9.137528,-11.594668,-8.358222,-12.782462,25.72791,7.438061,12.339847,-1.7702632,0.0701918,5.416868,5.886369,51.24535,27.823542,4.2598367,-40.11468,-10.783106,13.643699,7.473434,-45.650955,-20.188591,1.4583061,50.823334,-10.395443,-15.707465
76,0.6431889533996582,3.336200475692749,87.18328857421875,1.172688728815762,4.646045967426545,-92.8492403199139,-8.8182,2.6967556,12.4301815,24.666782,7.210363,-8.947393,-11.96901,-8.079611,-11.94735,26.27388,6.8974476,12.493647,-1.8841257,0.120439224,5.6509356,4.0838947,50.841198,25.872623,3.5258098,-38.465496,-10.340497,13.242254,5.8213224,-45.521755,-18.878242,1.1759374,49.860176,-9.662474,-15.154936
77,0.6763423681259155,3.4556145668029785,87.05599212646484,1.1719396087001834,4.613873924506666,-92.75347454273934,-9.181419,2.7571025,12.24536,25.488813,6.240728,-8.769837,-12.307882,-7.760052,-10.993042,26.704338,6.361968,12.695752,-1.9830045,0.16517235,5.8692746,2.3405802,50.238728,23.857769,2.8355677,-36.7344,-9.790953,12.777907,4.1481357,-45.216488,-17.423882,0.99089766,49.251007,-9.170662,-14.820857
78,0.7100308537483215,3.5742907524108887,86.87274169921875,1.177418166113746,4.578514960704502,-92.68330485697614,-9.475277,2.8145533,12.090273,26.167625,5.263076,-8.602882,-12.615207,-7.3888564,-9.890932,27.024689,5.8220673,12.956683,-2.0736296,0.20354883,6.0846186,0.7334995,49.432438,21.820248,2.1335585,-34.90226,-9.167417,12.234383,2.521677,-44.729168,-15.888238,0.8390474,48.892124,-8.8345995,-14.622084
79,0.7379276156425476,3.6666624546051025,86.64791870117188,1.1894418925979642,4.54360398850251,-92.64166234955889,-9.720767,2.8771687,11.970786,26.749432,4.3434443,-8.444737,-12.8922415,-7.0012455,-8.742133,27.259174,5.308827,13.234033,-2.1544535,0.23130816,6.3126564,-0.70272005,48.430267,19.811573,1.4392614,-33.075512,-8.465813,11.671268,1.0325453,-44.06639,-14.336317,0.67646277,48.645473,-8.583516,-14.514422
80,0.7693077921867371,3.7480640411376953,86.3773193359375,1.208273209122925,4.512781625347498,-92.63132423153922,-9.945018,2.955273,11.892508,27.2934,3.545967,-8.293468,-13.1380005,-6.6313295,-7.6457887,27.418884,4.8580604,13.487601,-2.1917653,0.2537097,6.5778213,-1.93139,47.247005,17.86319,0.7401729,-31.38356,-7.6767855,11.152516,-0.5036238,-43.242798,-12.741979,0.71375346,48.313496,-8.345605,-14.443623
81,0.7981073260307312,3.822702169418335,86.06085968017578,1.2388976940803829,4.487813048834101,-92.66315850438426,-10.137272,3.0482533,11.874268,27.777384,2.8810105,-8.15337,-13.344377,-6.2767215,-6.5729437,27.45884,4.490432,13.745217,-2.2289531,0.25219232,6.8437123,-2.9137175,45.89126,15.972103,0.05870331,-29.789175,-6.744042,10.697471,-1.6823825,-42.264168,-11.184036,0.59319586,47.99486,-8.139312,-14.44238
82,0.8169990181922913,3.893497943878174,85.69901275634766,1.2798928839414832,4.466774859242833,-92.73236046289747,-10.289682,3.1525145,11.90861,28.183807,2.3167615,-8.023551,-13.512691,-5.92644,-5.486824,27.384142,4.18643,14.015809,-2.234794,0.24091624,7.128993,-3.7224562,44.36753,14.079919,-0.59980136,-28.23982,-5.6861095,10.263155,-2.7775762,-41.128014,-9.588018,0.55347854,47.686802,-7.983261,-14.51667
83,0.8345400094985962,3.955261707305908,85.29349517822266,1.3210425502685719,4.446481722575709,-92.81844897099897,-10.424614,3.273042,11.960703,28.56211,1.856342,-7.89434,-13.657651,-5.5989246,-4.473793,27.280493,3.9252462,14.232735,-2.2331688,0.22731514,7.4357586,-4.340524,42.7212,12.25118,-1.2156907,-26.824265,-4.595208,9.82522,-3.7358909,-39.871082,-8.029337,0.56006026,47.353554,-7.832006,-14.614466
84,0.8470982313156128,4.008001327514648,84.84214782714844,1.3514798045529985,4.423412330488953,-92.90093273925301,-10.565891,3.4152343,11.9959135,28.965048,1.5013729,-7.755694,-13.7965765,-5.310969,-3.6200132,27.23415,3.6863608,14.329808,-2.2424233,0.220685,7.7666717,-4.816221,41.010468,10.519522,-1.7163802,-25.639183,-3.5637357,9.366341,-4.573506,-38.53957,-6.559601,0.6402572,46.959442,-7.639054,-14.680113
85,0.8593403100967407,4.059920787811279,84.34346008300781,1.368938123632699,4.399898889100064,-92.9796935964439,-10.723989,3.6108441,12.053341,29.370403,1.5295525,-7.6428676,-13.914313,-5.05391,-2.919964,27.1529,3.7492883,14.459048,-2.2644763,0.21932414,8.111148,-5.1993146,39.255974,8.836098,-2.0433679,-24.811205,-2.607456,8.916063,-5.3362164,-37.143337,-5.146868,0.8494578,46.459362,-7.369913,-14.702703
86,0.8667002320289612,4.109162330627441,83.7986068725586,1.3783689906809664,4.37624446685248,-93.06408717269456,-10.8849125,3.8486223,12.136868,29.76201,1.8475633,-7.544819,-14.009822,-4.8218718,-2.3355265,27.026459,4.032381,14.599962,-2.2895072,0.21730757,8.458595,-5.5148625,37.46096,7.1557198,-2.1844084,-24.270267,-1.674509,8.487185,-6.0290427,-35.67848,-3.7548604,1.1933905,45.898506,-7.058827,-14.70935
87,0.8687888979911804,4.156771183013916,83.20525360107422,1.3801094068500555,4.346126976235099,-93.14801924430355,-11.034684,4.068875,12.156243,30.201374,1.8999242,-7.388027,-14.124416,-4.634777,-1.906118,27.0679,3.970118,14.427625,-2.3162012,0.21744938,8.80437,-5.786869,35.661274,5.511879,-2.1205425,-23.82717,-0.75848496,8.039251,-6.635085,-34.176815,-2.4153047,1.6551605,45.381306,-6.7634015,-14.702792
88,0.8630666136741638,4.200708389282227,82.56520080566406,1.3751340693369116,4.303286702398623,-93.22537932252611,-11.157008,4.207914,12.018518,30.745808,1.1333084,-7.1056027,-14.3010025,-4.511023,-1.6640061,27.492474,2.9926646,13.621049,-2.3433444,0.22253713,9.140518,-6.050821,33.90357,3.934739,-1.8175321,-23.303907,0.14279296,7.5277357,-7.1511507,-32.683773,-1.1522019,2.2335525,45.02462,-6.542029,-14.68842
89,0.8618859648704529,4.248877048492432,81.91770935058594,1.354466881397176,4.243854463482248,-93.30086157735208,-11.221589,4.211631,11.590907,31.393328,-0.73136395,-6.6057415,-14.552629,-4.4277782,-1.5901614,28.433035,0.74094266,11.765129,-2.3649938,0.2379895,9.458303,-6.3281746,32.19631,2.4156554,-1.2482566,-22.682539,1.0534501,6.9119835,-7.5663133,-31.210432,0.049411565,2.933978,44.888123,-6.421365,-14.664061
90,0.8675379753112793,4.304035663604736,81.1897201538086,1.3212071091246553,4.1716758646237295,-93.37603534973707,-11.252412,4.1126337,10.945371,32.131638,-3.355812,-5.9410825,-14.865815,-4.3400292,-1.5910456,29.76684,-2.4242704,9.154678,-2.381683,0.25923812,9.761601,-6.6191916,30.528229,0.93773806,-0.4191522,-22.065128,1.9616276,6.2297654,-7.898693,-29.748055,1.2039597,3.7655795,44.91722,-6.3684015,-14.630701
91,0.8607978224754333,4.345359802246094,80.35843658447266,1.29556488686483,4.0922304812965224,-93.43965133633331,-11.314813,3.978544,10.297185,33.000984,-6.372904,-5.2677846,-15.236139,-4.251308,-1.6120737,31.312315,-5.9880667,6.529779,-2.402996,0.27109283,10.057105,-6.9394784,28.920149,-0.481895,0.6692379,-21.459404,2.8133206,5.552815,-8.189491,-28.318289,2.2863011,4.73523,45.05973,-6.3521934,-14.599243
92,0.8592777848243713,4.380460739135742,79.46904754638672,1.297556488717513,4.011191954621078,-93.47973729380082,-11.469682,3.890725,9.872828,34.031433,-9.4231415,-4.759503,-15.650053,-4.219072,-1.6871814,32.868248,-9.438899,4.620099,-2.437035,0.25972274,10.351422,-7.3134127,27.404713,-1.829343,2.0240176,-20.889141,3.555378,4.9572387,-8.483067,-26.951784,3.268335,5.853146,45.277218,-6.342967,-14.582346
93,0.8579608798027039,4.4347310066223145,78.59548950195312,1.3331119655096157,3.879121205642425,-93.48941814540267,-11.632947,3.8809671,9.751659,35.188793,-12.636421,-4.515861,-16.001757,-4.334855,-1.965692,34.338295,-12.862497,3.6960948,-2.489699,0.22054249,10.679921,-7.7492256,25.98238,-3.097317,3.649287,-20.262693,4.1978645,4.4387755,-8.781669,-25.648817,4.1163015,7.098683,45.602364,-6.336589,-14.571651
94,0.8563430309295654,4.515244960784912,77.71509552001953,1.3906222459065447,3.711255847634411,-93.47657111973216,-11.814175,3.9184203,9.816729,36.4859,-16.144358,-4.4361234,-16.340302,-4.580949,-2.435237,35.857693,-16.473755,3.342619,-2.5518432,0.16036355,11.033659,-8.232869,24.642244,-4.286628,5.5215263,-19.6152,4.7613425,3.9708083,-9.060013,-24.401342,4.843453,8.454094,46.05125,-6.3474207,-14.563899
95,0.8624679446220398,4.623717308044434,76.83174896240234,1.4625187704385583,3.609769641714114,-93.45081381671268,-12.208218,3.9997125,10.002861,38.01532,-19.594204,-4.408603,-16.879997,-4.887067,-2.9381292,37.568615,-19.96662,3.2551148,-2.6103628,0.08287527,11.350487,-8.759474,23.407084,-5.396164,7.6167507,-19.171104,5.2129393,3.602762,-9.319969,-23.233477,5.493382,9.936568,46.564342,-6.375408,-14.58161
96,0.8700220584869385,4.757067680358887,75.96273803710938,1.5429265991091756,3.6757754097195487,-93.42117482495219,-13.0021925,4.1130757,10.23199,39.86047,-22.629608,-4.316911,-17.82928,-5.1660056,-3.2863185,39.60244,-23.029072,3.1212175,-2.6534507,-0.009163532,11.570528,-9.322052,22.314669,-6.4263754,9.910821,-19.16843,5.5220795,3.388662,-9.56041,-22.18209,6.1122675,11.561444,47.094666,-6.421867,-14.649107
97,0.8792135119438171,4.911725044250488,75.11268615722656,1.6458643038120027,4.002276960839066,-93.38236795764483,-14.363176,4.271625,10.565373,42.129345,-25.202816,-4.0874443,-19.386238,-5.42292,-3.4341326,42.109447,-25.60676,2.874259,-2.6805975,-0.12705296,11.658122,-9.949292,21.39269,-7.385032,12.381607,-19.826853,5.634667,3.3787782,-9.788474,-21.262682,6.690822,13.287188,47.661274,-6.5660934,-14.86781
98,0.8837903141975403,5.077184200286865,74.30846405029297,1.7699650645274683,4.513073322068871,-93.33106493574103,-16.14046,4.488089,11.003623,44.745975,-27.496756,-3.7869833,-21.391523,-5.700722,-3.4814847,44.98382,-27.86417,2.663217,-2.6991138,-0.2709679,11.662209,-10.6182165,20.639256,-8.267113,15.012501,-20.989695,5.5807853,3.5350974,-9.990721,-20.468702,7.2104535,15.09339,48.293114,-6.783653,-15.192468
99,0.8740009069442749,5.24315071105957,73.57920837402344,1.8869127197255882,5.0546915910576065,-93.27926978611974,-18.039663,4.7335286,11.379588,47.501663,-29.48931,-3.504018,-23.50371,-5.9503207,-3.4428046,47.946148,-29.802044,2.4949565,-2.7118418,-0.4205101,11.646706,-11.238475,20.042343,-9.054187,17.791779,-22.32451,5.4567823,3.77945,-10.141313,-19.806736,7.7105293,17.039167,48.957752,-6.918488,-15.432019
100,0.8502160310745239,5.419532775878906,72.90706634521484,1.9676216521690542,5.473985720940004,-93.24055218450461,-19.772852,4.967379,11.538231,50.18136,-31.144695,-3.337637,-25.381779,-6.1226096,-3.3385623,50.71616,-31.414843,2.3824477,-2.723554,-0.5490323,11.674454,-11.716788,19.584394,-9.723887,20.711273,-23.496895,5.3647594,4.036478,-10.2217655,-19.292257,8.237758,19.19277,49.627766,-6.81084,-15.401745
101,0.8238065838813782,5.562149524688721,72.29877471923828,1.9938110432465646,5.776661413303539,-93.22334706793971,-21.39531,5.174826,11.385662,52.8551,-32.3658,-3.35297,-27.066656,-6.176149,-3.1331882,53.35071,-32.58105,2.3541024,-2.733672,-0.6368248,11.7232685,-12.042963,19.26403,-10.315106,23.834856,-24.388979,5.3227677,4.346692,-10.248866,-18.962086,8.885579,21.644468,50.257305,-6.339629,-14.985249
102,0.8156023025512695,5.66621208190918,71.7582015991211,1.9829911822153505,6.028890191937271,-93.2197187114804,-23.015383,5.3660016,11.032094,55.58406,-33.194897,-3.4816701,-28.693018,-6.145185,-2.8386087,55.952404,-33.342693,2.3841133,-2.7431467,-0.6871372,11.774756,-12.245028,19.081345,-10.822656,27.125582,-25.186417,5.2785506,4.7272325,-10.2285595,-18.824318,9.613873,24.328905,50.878773,-5.609143,-14.317227
103,0.8287892937660217,5.743087291717529,71.27605438232422,1.9604387317454581,6.167927020300801,-93.21871980666437,-24.434769,5.534886,10.635317,58.150177,-33.79629,-3.637032,-30.064726,-6.0969195,-2.5486398,58.311977,-33.927227,2.4221544,-2.7550263,-0.71157944,11.895072,-12.29265,19.018679,-11.1613455,30.432268,-26.004248,5.2375836,5.072894,-10.119415,-18.836405,10.262373,27.080763,51.57399,-4.7944336,-13.587156
104,0.8431819081306458,5.8095245361328125,70.85493469238281,1.95148775946711,6.130667577613759,-93.20915850660136,-25.45358,5.684608,10.353162,60.332798,-34.334858,-3.7356415,-30.981522,-6.0979924,-2.357228,60.20838,-34.560528,2.4337497,-2.7718484,-0.7313003,12.144949,-12.167758,19.05536,-11.248163,33.626377,-26.948063,5.206048,5.2798653,-9.88113,-18.933807,10.666428,29.747713,52.41665,-4.0730853,-12.978145
105,0.8456551432609558,5.875908374786377,70.49390411376953,1.9639689565197178,5.821197405407412,-93.18745661657447,-25.956337,5.822835,10.235012,62.124657,-34.793694,-3.760489,-31.271563,-6.1680355,-2.3128734,61.52781,-35.31173,2.4147134,-2.7999842,-0.7658896,12.618995,-11.914035,19.185244,-11.132338,36.885624,-28.017677,5.171187,5.2393866,-9.55411,-19.070864,10.834347,32.486214,53.401314,-3.4404104,-12.406789
106,0.8423186540603638,5.946249008178711,70.199462890625,1.9842454812534391,5.2984482396713055,-93.15979630019471,-26.068243,5.945428,10.200761,63.62285,-35.100796,-3.761539,-31.077383,-6.2672324,-2.3639734,62.399178,-36.052658,2.393167,-2.83493,-0.81491834,13.245945,-11.529634,19.418268,-10.840847,40.232105,-29.157976,5.1414003,5.039393,-9.150962,-19.248913,10.833139,35.342297,54.47221,-2.818999,-11.8201065
107,0.8365370035171509,6.008171081542969,69.97299194335938,2.0054719044898563,4.732037874312307,-93.12953597705877,-25.95294,6.0413566,10.212249,64.766754,-35.3431,-3.755657,-30.674364,-6.371147,-2.4531531,62.971,-36.709995,2.3871486,-2.8664472,-0.8669651,13.842363,-10.928834,19.756584,-10.251208,43.30106,-30.393244,5.1522818,4.8671527,-8.5848,-19.477795,10.586472,37.98758,55.644016,-2.2830532,-11.439507
108,0.8386561870574951,6.030187606811523,69.80984497070312,2.0208427156451947,4.291880571739504,-93.09951858648188,-25.778013,6.1014104,10.229705,65.50039,-35.609093,-3.758018,-30.33915,-6.458799,-2.521082,63.39189,-37.21442,2.4146411,-2.8840492,-0.9057701,14.227653,-10.031666,20.194193,-9.241067,45.733715,-31.749224,5.2311964,4.907781,-7.7684236,-19.768932,10.016287,40.090733,56.942146,-1.9150708,-11.48147
109,0.8425050377845764,6.034538269042969,69.70268249511719,2.03863620114333,4.008100598145175,-93.05938892795392,-25.55663,6.10412,10.234823,65.77343,-35.94386,-3.7645128,-30.124329,-6.545499,-2.5482776,63.696728,-37.559902,2.4935064,-2.8905838,-0.9299306,14.373743,-8.766942,20.70611,-7.7164073,47.43258,-33.28827,5.3916616,5.2824273,-6.638192,-20.111458,9.03759,41.559105,58.51081,-1.8439367,-12.185198
110,0.8494341969490051,6.016136169433594,69.64692687988281,2.059062708715696,3.795144569018143,-93.01139607324878,-25.213354,6.061606,10.250965,65.63203,-36.294525,-3.7651148,-29.890272,-6.634917,-2.5687947,63.80949,-37.781338,2.6083956,-2.8908536,-0.9448233,14.362617,-7.1840124,21.269415,-5.762901,48.61785,-34.98001,5.6047325,5.867536,-5.249101,-20.48856,7.717932,42.58539,60.29973,-2.0198903,-13.36122
111,0.8604589104652405,5.986197471618652,69.64219665527344,2.0633139324601313,3.6499593334123874,-92.97700936978345,-24.782892,6.0184913,10.297624,65.16548,-36.601402,-3.76501,-29.626394,-6.6933312,-2.5990326,63.71138,-37.86676,2.7286234,-2.8756845,-0.94406766,14.182841,-5.3856378,21.88503,-3.5276148,49.40592,-36.70938,5.8330216,6.480687,-3.6933956,-20.911463,6.203861,43.265305,62.044144,-2.2451322,-14.586382
112,0.8732392191886902,5.940591812133789,69.69062805175781,2.03254941690353,3.569618062413778,-92.97739625027151,-24.299265,6.018592,10.395382,64.46221,-36.804398,-3.7733078,-29.325024,-6.688433,-2.6535025,63.385998,-37.804424,2.8237789,-2.8369553,-0.9192543,13.834988,-3.4645455,22.57347,-1.144679,49.882595,-38.361126,6.0526342,6.936412,-2.0557172,-21.413668,4.6348214,43.669353,63.49207,-2.2868063,-15.450795
113,0.8845221400260925,5.870908260345459,69.80379486083984,1.9486404178772696,3.596729118511332,-93.03249576053737,-23.789083,6.100848,10.570851,63.508797,-36.96228,-3.791783,-29.04647,-6.5960793,-2.7260091,62.856117,-37.599014,2.8805726,-2.754946,-0.85314673,13.264204,-1.338397,23.33448,1.5397122,49.900745,-39.98235,6.29036,7.145343,-0.2615016,-22.016962,2.9502914,43.679947,64.55433,-2.0034852,-15.795642
114,0.8889658451080322,5.780211925506592,69.99048614501953,1.8255293612018615,3.7184457202073276,-93.12647916609289,-23.22708,6.2360826,10.803374,62.27263,-37.081726,-3.8119535,-28.776245,-6.443306,-2.8066814,62.12263,-37.255764,2.9152503,-2.6380749,-0.750131,12.485208,1.0213568,24.14167,4.536542,49.49021,-41.611645,6.559972,7.2179112,1.7176917,-22.709906,1.1070163,43.30576,65.383705,-1.5207704,-15.8635845
115,0.8850482106208801,5.665960788726807,70.25458526611328,1.6935965059575797,3.849094629511458,-93.2267411732788,-22.56888,6.36372,11.044619,60.80985,-37.033005,-3.8338618,-28.39285,-6.272639,-2.9050226,61.13316,-36.75677,2.9416342,-2.5202475,-0.63368917,11.623552,3.4531562,24.994368,7.51647,48.947613,-43.114376,6.8189983,7.269976,3.73615,-23.484138,-0.7473512,42.77162,66.08744,-0.9953225,-15.853131
116,0.8776431083679199,5.5515289306640625,70.59683227539062,1.5837617939414546,3.903422713050201,-93.30017268581084,-21.771706,6.421123,11.246221,59.175907,-36.681698,-3.8606813,-27.774605,-6.124827,-3.0313299,59.83789,-36.091488,2.972529,-2.436427,-0.5319732,10.8190775,5.7954316,25.91765,10.161425,48.534256,-44.363396,7.0217557,7.4126043,5.6485915,-24.335073,-2.4753442,42.28199,66.7757,-0.5869855,-15.956938
117,0.8708077669143677,5.431117534637451,71.01870727539062,1.5017390594333095,3.855110123520382,-93.3390054258358,-20.810297,6.393249,11.393754,57.370827,-36.007442,-3.8991482,-26.867868,-6.008811,-3.1921422,58.199753,-35.278164,3.0046973,-2.397855,-0.4583099,10.121358,8.048342,26.969728,12.406693,48.293316,-45.214993,7.172302,7.596635,7.4573197,-25.286312,-4.042484,41.854156,67.381645,-0.24831282,-16.145426
118,0.8647875189781189,5.309650421142578,71.51773834228516,1.4326023990296257,3.751136656664784,-93.36033161418472,-19.711445,6.310311,11.512123,55.368546,-35.075535,-3.9490187,-25.744434,-5.9038024,-3.3772752,56.25751,-34.321503,3.0293307,-2.3782554,-0.40457073,9.462513,10.2755,28.163944,14.431871,48.08973,-45.79164,7.2984853,7.7774277,9.244164,-26.334991,-5.542835,41.372074,67.88693,0.084770255,-16.335108
119,0.8556808233261108,5.174814224243164,72.08598327636719,1.375918508698432,3.616457158436064,-93.36810046609536,-18.511557,6.1794195,11.611406,53.184174,-33.888138,-4.0035586,-24.46941,-5.803525,-3.573464,54.068466,-33.17431,3.0528443,-2.3627193,-0.36967924,8.810248,12.417157,29.455412,16.298834,47.893127,-46.353146,7.378032,8.076168,10.966713,-27.434671,-7.029493,40.845184,68.462845,0.2627179,-16.637184
120,0.8355996608734131,5.032771587371826,72.71607208251953,1.3308870669374153,3.4760401950498854,-93.36630068040537,-17.244265,6.009315,11.700613,50.82804,-32.44704,-4.0542517,-23.106806,-5.7022324,-3.7681332,51.685467,-31.792597,3.0845068,-2.3348036,-0.3481679,8.134443,14.40918,30.780096,18.057154,47.66738,-47.14598,7.375301,8.622567,12.581418,-28.52724,-8.556864,40.27957,69.267,0.123742715,-17.163708
121,0.8227404356002808,4.888850212097168,73.39898681640625,1.2971661138987844,3.317786877419107,-93.34358704483509,-15.881275,5.800588,11.761972,48.268253,-30.749445,-4.0993686,-21.593185,-5.599032,-3.977149,49.01993,-30.18043,3.1230712,-2.3129065,-0.3396054,7.445184,16.31818,32.124725,19.69059,47.375267,-48.341274,7.2882504,9.568949,14.0954075,-29.59359,-10.151193,39.67498,70.44324,-0.41434154,-18.046917
122,0.8085353374481201,4.752357482910156,74.12464904785156,1.2752463274219883,3.1350327874502852,-93.30208609693018,-14.417818,5.5532923,11.792069,45.514942,-28.800344,-4.1425185,-19.922157,-5.494775,-4.199777,46.08158,-28.361443,3.1660264,-2.3019178,-0.34898505,6.7710414,18.15721,33.50516,21.214775,47.014904,-49.749367,7.1063485,10.810371,15.539677,-30.643492,-11.795779,38.99525,71.84326,-1.2800666,-19.178846
123,0.7867554426193237,4.621865749359131,74.89082336425781,1.2658855228679722,2.9605904578085562,-93.26576814910347,-12.925515,5.2766438,11.821045,42.644604,-26.60463,-4.18245,-18.245052,-5.3890176,-4.3989167,43.07144,-26.310759,3.2242372,-2.2617793,-0.37207213,6.0975065,19.862442,34.892967,22.700853,46.53347,-51.096962,6.788161,12.087565,16.872927,-31.666245,-13.463586,38.23701,73.18318,-2.3998954,-20.314953
124,0.7678707838058472,4.496356010437012,75.6898193359375,1.2701169063255549,2.8275399379825883,-93.25854669903379,-11.478704,4.980579,11.879662,39.7354,-24.16606,-4.2194724,-16.714176,-5.284793,-4.5376177,40.18846,-24.00016,3.3106391,-2.1646545,-0.4043582,5.42687,21.287638,36.240826,24.232662,45.931423,-52.060776,6.311384,13.151198,18.057308,-32.64921,-15.127316,37.368694,74.18166,-3.6834261,-21.22653
125,0.7553412318229675,4.392971515655518,76.50833892822266,1.2954759698974063,2.7445966213061035,-93.29145390309304,-10.063377,4.651409,11.964982,36.742107,-21.4441,-4.221268,-15.37281,-5.1589775,-4.55071,37.487118,-21.378927,3.2843952,-2.001096,-0.44921815,4.7321634,22.50187,37.515083,25.911295,45.09977,-52.61146,5.7238274,13.88396,19.123247,-33.590233,-16.832863,36.347755,74.82705,-5.1999826,-21.910166
126,0.7499788403511047,4.300636291503906,77.33953094482422,1.338567359086151,2.6948213129862135,-93.35045360630905,-8.658505,4.3006635,12.06234,33.660427,-18.457878,-4.20148,-14.150471,-5.030883,-4.48097,34.882042,-18.485779,3.192884,-1.8030016,-0.50327444,4.042741,23.55135,38.70956,27.69804,44.041782,-52.872524,5.0298543,14.445534,20.037611,-34.498356,-18.571087,35.206947,75.231384,-6.9593744,-22.477634
127,0.7535393834114075,4.218481540679932,78.17536926269531,1.3870286976568642,2.672032602329915,-93.42163393048534,-7.324708,3.9635444,12.186594,30.6175,-15.291088,-4.230961,-13.023304,-4.9518876,-4.438215,32.34475,-15.417696,3.332478,-1.6025347,-0.5535486,3.412915,24.453993,39.82332,29.443464,42.772198,-52.836414,4.1542764,15.002405,20.830006,-35.382538,-20.238924,33.902863,75.361336,-8.76595,-22.889978
128,0.7683275938034058,4.157413005828857,79.00695037841797,1.4312833810183745,2.669543069108325,-93.49063333647587,-6.118175,3.6601171,12.3501215,27.725872,-12.018714,-4.383039,-11.954169,-4.9498215,-4.5090394,29.81476,-12.254485,3.9972434,-1.4252295,-0.5879423,2.9010024,25.210953,40.862156,30.988956,41.31049,-52.491325,3.022883,15.720675,21.43386,-36.254707,-21.72652,32.477264,75.15901,-10.424457,-23.113209
129,0.7929648160934448,4.116382598876953,79.83356475830078,1.4876680180582345,2.6845003125015516,-93.56638642775572,-5.0834923,3.318692,12.443712,24.986776,-8.352704,-4.5541973,-10.927706,-4.966279,-4.547414,27.180117,-8.663535,5.40559,-1.2770358,-0.6196961,2.5231988,25.83718,41.83618,32.275673,39.61811,-51.756588,1.5498836,16.747347,21.85142,-37.131466,-23.000742,30.8787,74.63817,-11.957159,-23.108822
130,0.8215369582176208,4.095256805419922,80.64144134521484,1.5696884513109877,2.720217787005803,-93.65156356860308,-4.181285,2.9406135,12.498221,22.345448,-4.351638,-4.7564244,-9.949568,-4.9810567,-4.488358,24.460712,-4.69889,7.364622,-1.1471996,-0.66421294,2.2389057,26.31483,42.756138,33.38,37.70538,-50.64602,-0.18365514,17.98589,22.099812,-38.024143,-24.110373,29.120304,73.83742,-13.440425,-22.922253
131,0.8513758182525635,4.096011638641357,81.43607330322266,1.655328318724216,2.77740740804974,-93.7219944994112,-3.3173757,2.6190624,12.719923,19.767607,-0.57544684,-5.218502,-9.004163,-5.055965,-4.578507,21.77321,-0.9786615,9.534675,-1.0416994,-0.7071452,2.0175455,26.61115,43.629734,34.352623,35.6566,-49.2975,-2.0051126,19.232954,22.192984,-38.930187,-25.062387,27.285515,72.75436,-14.762892,-22.64232
132,0.8847885727882385,4.113896369934082,82.19063568115234,1.7040850253786672,2.856219806031,-93.75388126868343,-2.3701828,2.424409,13.299234,17.1493,2.4513228,-6.1569233,-8.064656,-5.2365503,-5.151643,19.212296,1.9166237,11.556615,-0.9639076,-0.7161046,1.8324214,26.692554,44.464714,35.24255,33.55195,-47.866688,-3.7581956,20.27236,22.162882,-39.842487,-25.871029,25.435093,71.38357,-15.812847,-22.354902
133,0.9097839593887329,4.14795446395874,82.85391998291016,1.6569605608873648,2.9781374674007974,-93.73730715935125,-1.1389657,2.3792353,14.485842,14.024608,4.71833,-7.997042,-6.9774985,-5.5082,-6.5848,16.450882,3.887467,13.566736,-0.9124444,-0.63205284,1.680714,26.533785,45.272404,36.067356,31.379274,-46.41645,-5.5226817,21.07078,22.03602,-40.768055,-26.54285,23.513523,69.638275,-16.539167,-22.04186
134,0.917106568813324,4.221628189086914,83.39505004882812,1.4414902448438263,3.155207518014866,-93.71348842911993,0.2158454,2.4949582,16.113249,10.593467,6.535336,-10.546898,-5.654474,-5.591074,-8.829522,13.170304,5.517673,15.000033,-0.86136067,-0.38947624,1.5563538,26.156069,46.060028,36.79502,29.100784,-44.866375,-7.3427362,21.74653,21.788622,-41.711098,-27.062197,21.500711,67.55328,-17.014526,-21.668503
135,0.8987846970558167,4.335780620574951,83.87294006347656,1.1020572207104056,3.374995668904261,-93.73957710426191,1.2781694,2.7592309,17.79567,7.768784,7.817891,-13.049075,-4.262995,-5.32566,-11.4441,9.657342,7.116139,15.000033,-0.7678339,-0.04905645,1.4293793,25.590197,46.827316,37.397377,26.755743,-43.17199,-9.026653,22.293442,21.361326,-42.65116,-27.405418,19.521671,65.29279,-17.314392,-21.285353
136,0.9011142253875732,4.469809532165527,84.29417419433594,0.893410674783879,3.5361537389826068,-93.70959289262721,1.8093561,2.9273114,19.031605,6.297126,8.447792,-14.62813,-3.2733552,-5.1630764,-13.608497,7.209236,8.330525,15.000033,-0.7332069,0.1608933,1.3533891,24.85312,47.558983,37.82509,24.378754,-41.289066,-10.389507,22.70088,20.722233,-43.557266,-27.572723,17.680021,63.011543,-17.512978,-20.944117
137,0.9167872667312622,4.617376804351807,84.6999740600586,0.8259554950938854,3.5961942959695374,-93.59800559739811,1.8429625,3.0767455,19.76387,6.2967525,8.276511,-14.878553,-3.0232182,-5.370968,-15.299949,6.763587,8.6407995,15.000033,-0.76822203,0.23169628,1.3902771,23.92066,48.246426,38.105957,21.917532,-39.05283,-11.397075,22.911732,19.872553,-44.41043,-27.598236,15.94455,60.558975,-17.608412,-20.622438
138,0.9430211186408997,4.779016017913818,85.09931182861328,0.8356315684988007,3.5822785844144613,-93.41386479044029,1.9752948,3.1118326,20.241085,6.3782754,7.882947,-14.2907295,-3.3243613,-5.9267015,-16.784937,7.895677,8.044136,15.000033,-0.85828155,0.22466415,1.5321574,22.789877,48.882908,38.243282,19.348806,-36.544823,-12.160253,22.941385,18.853456,-45.201283,-27.490215,14.239118,57.90668,-17.573105,-20.292906
139,0.9718378782272339,4.946636199951172,85.46672821044922,0.8818504713686827,3.5208097127115328,-93.19159710743564,1.6411817,3.2507744,20.354994,7.6678805,6.812148,-13.403149,-3.8188171,-6.6091275,-17.942223,9.673878,7.055647,15.000033,-0.9818011,0.18235154,1.7142036,21.507658,49.446205,38.148506,16.74585,-34.090256,-12.712512,22.875578,17.674286,-45.903736,-27.200972,12.614805,55.383255,-17.435911,-20.00568
140,0.9942458271980286,5.118340492248535,85.77174377441406,0.9145836397328874,3.4434952770409994,-92.9735955244111,1.2836308,3.3336198,20.079735,9.00229,5.835881,-12.7452,-4.2611704,-7.1575475,-18.651344,11.3475485,6.1247134,15.000033,-1.1094383,0.15645565,1.8696932,20.11359,49.907104,37.7318,14.17959,-32.011738,-13.081311,22.798243,16.351755,-46.484188,-26.689638,11.1149235,53.31863,-17.21943,-19.81344
141,1.0182557106018066,5.307025909423828,86.00931549072266,0.922797969873533,3.3577478105956233,-92.76239047443306,0.9132926,3.3277254,19.310009,10.299259,5.018062,-12.379215,-4.6903076,-7.5056157,-18.80583,12.919515,5.251564,15.000033,-1.2330306,0.15964735,1.9923809,18.597322,50.239666,36.994434,11.580146,-30.4013,-13.214312,22.733114,14.87549,-46.912395,-25.983658,9.692033,51.803833,-16.893122,-19.778105
142,1.0402907133102417,5.489431858062744,86.18920135498047,0.9373518117921896,3.249929667794656,-92.54017584629662,0.46372837,3.2317913,18.108696,11.784498,4.1713934,-12.050989,-5.208396,-7.762709,-18.492771,14.689516,4.271177,15.000033,-1.3590837,0.15719764,2.1236346,16.96028,50.428886,35.996693,8.897553,-29.088852,-13.120207,22.616707,13.287105,-47.173195,-25.138971,8.293255,50.65879,-16.445698,-19.851208
143,1.057251214981079,5.6684651374816895,86.31749725341797,0.9499270734170067,3.1216057444590835,-92.32463259997127,0.004881468,3.0610206,16.703163,13.341906,3.38518,-11.822023,-5.729484,-7.906314,-17.905308,16.473783,3.327064,14.915978,-1.4763539,0.15176636,2.2675195,15.255292,50.460976,34.73507,6.2430406,-28.002102,-12.915426,22.408453,11.670411,-47.257683,-24.151047,6.968271,49.804577,-15.930852,-19.924698
144,1.064729928970337,5.849422931671143,86.39954376220703,0.9263588322502162,2.9829438208335715,-92.15047505308105,-0.43551907,2.8979259,15.325306,14.940036,2.7015932,-11.758972,-6.165088,-7.89254,-17.246431,18.067993,2.5664575,14.609212,-1.559182,0.17186186,2.4193683,13.533783,50.327385,33.20251,3.737949,-27.067616,-12.718401,22.073158,10.103432,-47.166374,-23.006353,5.7745223,49.162933,-15.407062,-19.892263
145,1.0733952522277832,6.0233893394470215,86.43103790283203,0.8897288689491045,2.818783247073299,-91.99727322497387,-0.7878416,2.6822107,13.934273,16.459227,2.203177,-11.940318,-6.5236244,-7.7728624,-16.431025,19.551176,1.9674476,14.545947,-1.6311024,0.20388438,2.590154,11.809758,50.00902,31.371193,1.3598555,-26.478037,-12.610848,21.56156,8.575803,-46.89163,-21.671385,4.722312,48.822598,-14.900484,-19.723064
146,1.079638957977295,6.192564964294434,86.41168212890625,0.8513982472864577,2.6268597290327613,-91.85229963303925,-1.0788041,2.3935864,12.442358,17.955399,1.8352717,-12.314279,-6.848585,-7.548869,-15.400452,21.019657,1.4475886,14.6742325,-1.7017998,0.2367526,2.7856627,10.106693,49.488976,29.290018,-0.96151215,-26.200115,-12.515369,20.912035,7.0809803,-46.426826,-20.183523,3.7733774,48.786095,-14.3778105,-19.480906
147,1.0868513584136963,6.359313488006592,86.34063720703125,0.8176759894321517,2.40955347125157,-91.7109366742048,-1.3281304,2.077195,10.979939,19.489,1.519838,-12.715049,-7.1330404,-7.267227,-14.279691,22.486385,0.95433456,14.875012,-1.7731313,0.25680417,3.0176005,8.493706,48.770134,27.063498,-3.1729581,-25.822977,-12.316126,20.21522,5.6927133,-45.783226,-18.627016,2.9206583,48.844612,-13.808607,-19.196926
148,1.0960447788238525,6.512531757354736,86.21728515625,0.7841447310500307,2.1713569269075474,-91.57317098675381,-1.5569218,1.793735,9.676748,21.109865,1.1901389,-12.977377,-7.357545,-6.963082,-13.196389,23.926168,0.46283782,15.000033,-1.843489,0.26214808,3.2935398,7.016079,47.86992,24.777008,-5.1990004,-24.932663,-11.902813,19.550636,4.4675703,-44.982925,-17.072445,2.1709597,48.79096,-13.163061,-18.897089
149,1.1066511869430542,6.661253929138184,86.04741668701172,0.7619517475264238,1.9031508675043516,-91.43035228920597,-1.7593355,1.5266454,8.514553,22.82735,0.8347911,-13.060327,-7.521705,-6.6666064,-12.151184,25.378849,-0.064513326,15.000033,-1.9251909,0.24128163,3.6203365,5.6748576,46.792942,22.383041,-7.0544643,-23.153202,-11.205137,18.905975,3.4089725,-44.034977,-15.489033,1.5403748,48.561577,-12.376562,-18.53884
150,1.1124920845031738,6.810458183288574,85.82890319824219,0.7459736418232603,1.6063250452782614,-91.2857867176654,-1.9230881,1.2634736,7.43907,24.602182,0.49683562,-13.048254,-7.6313434,-6.353623,-11.080296,26.842196,-0.60031545,15.000033,-2.0227897,0.20359148,3.999397,4.4290566,45.54005,19.843258,-8.720324,-20.766235,-10.3113785,18.213903,2.4909463,-42.9436,-13.846778,1.0238521,48.265705,-11.483833,-18.120722
151,1.117331862449646,6.94178581237793,85.5633544921875,0.7295975582498914,1.292968542764368,-91.14205524048383,-2.042312,1.0424339,6.515731,26.374323,0.21767429,-12.953298,-7.68242,-6.016196,-10.027157,28.261688,-1.0976738,15.000033,-2.1298325,0.16171484,4.3999224,3.4886038,44.141415,17.33619,-10.253767,-18.423641,-9.33963,17.48577,1.9166269,-41.734364,-12.274561,0.45346802,47.997227,-10.60505,-17.735426
152,1.1182345151901245,7.0669450759887695,85.25299072265625,0.7063500348351095,0.9759066604053337,-91.00171101333807,-2.110593,0.9039801,5.8095775,28.078083,0.037974726,-12.786169,-7.6757336,-5.6501393,-9.034901,29.5907,-1.5130073,15.000033,-2.2003667,0.13459669,4.8637266,2.6662507,42.626537,14.86982,-11.467942,-16.69539,-8.392907,16.747494,1.1204615,-40.432953,-10.671427,0.3147325,47.714546,-9.849239,-17.453424
153,1.1129231452941895,7.186827659606934,84.89568328857422,0.6615847178819994,0.6485789309488752,-90.8698691382875,-2.120661,0.9182003,5.426588,29.744223,0.096581735,-12.621221,-7.575452,-5.240876,-8.13049,30.773582,-1.7807319,15.000033,-2.295263,0.12311571,5.342302,2.0360308,41.015186,12.433649,-12.307802,-15.829051,-7.472069,16.035713,0.5917185,-39.052593,-9.121651,0.1763636,47.492493,-9.247698,-17.336426
154,1.1102524995803833,7.298853874206543,84.49502563476562,0.6016677181609225,0.3067325779613869,-90.74323980485416,-2.0805702,1.06235,5.297396,31.392517,0.32756144,-12.417138,-7.3958464,-4.805992,-7.284612,31.860573,-1.9485344,15.000033,-2.3920019,0.12862343,5.848058,1.538486,39.317936,9.943803,-12.79792,-15.470653,-6.513777,15.342373,0.17262404,-37.595615,-7.562627,0.19252631,47.28506,-8.735255,-17.324673
155,1.1034659147262573,7.404615879058838,84.04717254638672,0.5517964195692955,-0.03472449505667002,-90.6116959322318,-2.0017703,1.2266843,5.2286835,32.93202,0.4697307,-12.017355,-7.206222,-4.385491,-6.4540687,32.948784,-2.133944,15.000033,-2.4913168,0.13060474,6.3557453,1.1594915,37.584755,7.512776,-12.97274,-15.355353,-5.5124083,14.648525,-0.13784723,-36.09693,-6.04733,0.35428596,47.200523,-8.305442,-17.370441
156,1.0995079278945923,7.50413703918457,83.54948425292969,0.5419549125458841,-0.3594723590858339,-90.46633788547183,-1.9029086,1.285378,5.0300255,34.282356,0.25566214,-11.278267,-7.0795774,-4.0133033,-5.5915046,34.136116,-2.453376,15.000033,-2.595294,0.10152744,6.8322163,0.85796165,35.874504,5.2557945,-12.841926,-15.236143,-4.469425,13.92967,-0.3491126,-34.597153,-4.6212406,0.66213757,47.35886,-7.953655,-17.427294
157,1.0964375734329224,7.598211765289307,83.00647735595703,0.5681742300623593,-0.669592328335885,-90.30747317155428,-1.8159263,1.1962615,4.6033406,35.45612,-0.2788395,-10.001275,-7.0237136,-3.647185,-4.661952,35.44071,-2.703126,15.000033,-2.6986516,0.03977502,7.2675166,0.576995,34.203754,3.1520362,-12.339032,-15.141723,-3.3127284,13.158601,-0.48560816,-33.097485,-3.2535117,1.1581937,47.865013,-7.732776,-17.52515
158,1.0970678329467773,7.688868999481201,82.43169403076172,0.5649185794858642,-0.9648212589888993,-90.16041956176284,-1.7610447,1.0859976,4.056273,36.562847,-1.0626042,-8.341194,-6.985231,-3.2087872,-3.743617,36.743412,-2.8510637,14.83691,-2.780231,0.0032324477,7.6636333,0.2820809,32.56349,1.1368046,-11.428727,-15.195188,-2.0605695,12.370771,-0.56996155,-31.58754,-1.9131591,1.8640368,48.646553,-7.631962,-17.67443
159,1.0801482200622559,7.777090549468994,81.78943634033203,0.5453531543445078,-1.2342598566801728,-90.02603469508246,-1.6950908,0.968332,3.5031242,37.574764,-2.2582324,-6.6653414,-6.9673643,-2.7816231,-2.9717908,38.013702,-3.315097,14.0751095,-2.8464758,-0.031937815,8.006541,-0.041934226,30.966751,-0.7340463,-10.159368,-15.301184,-0.86122376,11.628614,-0.61212367,-30.090393,-0.6476493,2.753759,49.563366,-7.550695,-17.802225
160,1.0627765655517578,7.862563610076904,81.10364532470703,0.5493372160982238,-1.4669147176705195,-89.90028205237742,-1.5657424,0.83654505,3.058595,38.44351,-4.0318713,-5.3300653,-6.987753,-2.4668863,-2.3274264,39.25198,-4.534948,12.932493,-2.9091702,-0.09918353,8.281707,-0.3976455,29.432934,-2.3976295,-8.585811,-15.378438,0.13376881,10.991576,-0.6286531,-28.642076,0.49759778,3.8077343,50.486347,-7.38591,-17.840778
161,1.0624487400054932,7.953522205352783,80.35482788085938,0.5576073908519341,-1.6572433425992363,-89.78675781889731,-1.2922742,0.70856386,2.7074265,39.03951,-6.669976,-4.447268,-7.0466447,-2.2397375,-1.7589778,40.425385,-6.812458,11.105062,-2.971922,-0.18328585,8.474873,-0.754552,27.953405,-3.8153162,-6.725254,-15.236013,0.87855476,10.43724,-0.60187685,-27.242634,1.4978142,4.996287,51.443054,-7.070139,-17.74314
162,1.0586037635803223,8.038657188415527,79.54713439941406,0.5728299965855952,-1.8119446819953526,-89.68205392617901,-0.928192,0.56987345,2.3942366,39.428307,-10.009105,-3.8183792,-7.157902,-2.0363307,-1.1904268,41.585903,-9.875569,8.744472,-3.0345662,-0.28186518,8.604699,-1.106435,26.513624,-5.005959,-4.5822725,-14.989478,1.4520066,9.946292,-0.53220135,-25.88195,2.3772004,6.322561,52.490643,-6.66713,-17.560993
163,1.0505887269973755,8.126769065856934,78.72370147705078,0.6291787572944582,-1.9364154345865938,-89.58068000808437,-0.633772,0.40746477,2.178504,39.878143,-13.564456,-3.3468597,-7.343934,-1.8877931,-0.65815735,42.81755,-13.285012,6.418674,-3.0958161,-0.4251228,8.701412,-1.4889462,25.131227,-5.9931746,-2.1866186,-15.024723,1.8928666,9.588287,-0.45821843,-24.589857,3.1608908,7.8194785,53.550716,-6.274848,-17.375114
164,1.0420422554016113,8.216973304748535,77.87858581542969,0.7612355356940647,-2.0372805816840716,-89.47769096198597,-0.5653306,0.20248279,2.1205163,40.657322,-16.856236,-2.93602,-7.615728,-1.8777817,-0.2637836,44.17976,-16.598501,4.6906843,-3.1538486,-0.64420426,8.795823,-1.9377675,23.837204,-6.8018,0.43523884,-15.740845,2.2425942,9.4402,-0.4163876,-23.412508,3.873649,9.516349,54.562862,-5.9940066,-17.267195
165,1.0376830101013184,8.29112720489502,77.01580810546875,1.0225115086503018,-2.1437642814761553,-89.36321429011865,-0.7300015,-0.081580535,2.304112,41.84394,-19.894478,-2.5884404,-7.954327,-2.1421475,-0.08944469,45.7315,-19.89621,3.7987337,-3.217796,-0.99576247,8.92917,-2.448164,22.633394,-7.3827615,3.2433975,-17.413265,2.4607608,9.60471,-0.40080854,-22.365854,4.505321,11.387146,55.53795,-5.89578,-17.241768
166,1.0397802591323853,8.422951698303223,76.1348876953125,1.380221702446734,-2.244248708001107,-89.24353689166564,-1.0607735,-0.41210818,2.6866972,43.307896,-22.904005,-2.3496432,-8.361387,-2.641385,-0.10402079,47.42437,-23.361021,3.4158947,-3.288285,-1.4423556,9.083565,-2.9762125,21.515495,-7.7240763,6.2186174,-19.784,2.5262578,10.011441,-0.3883108,-21.44446,5.045929,13.400108,56.516754,-5.9141374,-17.260511
167,1.0559003353118896,8.54974365234375,75.27149200439453,1.7439024317861396,-2.283658890691779,-89.13798121490558,-1.5957236,-0.70939034,3.1369627,44.999165,-25.728308,-2.1817043,-8.875288,-3.2248263,-0.27224472,49.14998,-26.708092,3.2573586,-3.3480346,-1.8756659,9.199863,-3.5079758,20.515606,-7.918715,9.380382,-22.46004,2.513874,10.486192,-0.38161474,-20.664549,5.5177035,15.57715,57.487976,-5.950294,-17.33911
168,1.0867007970809937,8.688429832458496,74.43704223632812,2.0218299354360108,-2.206278267168634,-89.06481898894955,-2.367674,-0.9006952,3.5218947,46.85581,-28.201046,-2.0424488,-9.528801,-3.7209284,-0.53465986,50.790848,-29.644249,3.0355723,-3.3791232,-2.189884,9.220557,-4.032764,19.681557,-8.071068,12.75109,-25.0661,2.516961,10.868406,-0.379139,-20.04963,5.9415426,17.938354,58.4493,-5.9056115,-17.496418
169,1.120741605758667,8.83476734161377,73.65567016601562,2.2026609912499286,-1.9190047896927092,-89.01593348865667,-3.551721,-0.9697959,3.8331268,49.01146,-30.261295,-1.9184182,-10.439502,-4.1501956,-0.99463814,52.36872,-32.126663,2.686032,-3.3732193,-2.3750303,9.083121,-4.6118336,19.056923,-8.26552,16.460087,-27.73208,2.5228062,11.14259,-0.39278606,-19.627659,6.387466,20.561792,59.3094,-5.7343035,-17.755037
170,1.1138129234313965,8.922080039978027,72.96601867675781,2.3295315591620382,-1.4772431053093094,-88.9852931220169,-5.068708,-0.9492762,4.1347823,51.44292,-32.003624,-1.8261837,-11.5480995,-4.5922494,-1.6440367,53.92978,-34.304253,2.357473,-3.3422973,-2.4853065,8.842145,-5.2018385,18.644539,-8.441108,20.415491,-30.610939,2.494396,11.389273,-0.40297773,-19.393822,6.822952,23.38432,60.11805,-5.496585,-18.102884
171,1.0813647508621216,8.99812126159668,72.37290954589844,2.394151209969367,-1.046785064209657,-88.99437505814245,-6.5697775,-0.8493659,4.400082,53.846375,-33.48624,-1.7701676,-12.620265,-4.9407506,-2.2472627,55.380463,-36.169792,2.076291,-3.2971556,-2.5130625,8.612081,-5.6526337,18.422016,-8.489828,24.329319,-33.356133,2.5102754,11.605455,-0.36274615,-19.31292,7.1154294,26.223019,61.072666,-5.253351,-18.505985
172,1.0572165250778198,9.07763957977295,71.85841369628906,2.391854477618153,-0.7935833814673028,-89.06512194287944,-7.7053094,-0.68486017,4.6048226,55.911064,-34.76504,-1.7586643,-13.430767,-5.0808673,-2.5742838,56.63215,-37.70561,1.8700426,-3.244067,-2.450538,8.504613,-5.83044,18.354422,-8.305292,27.936447,-35.608162,2.6539714,11.793002,-0.2245684,-19.334421,7.1288805,28.903023,62.358982,-5.0656233,-18.92725
173,1.0351747274398804,9.137720108032227,71.4259262084961,2.2712236310884144,-0.7989484205643147,-89.21232456008403,-8.411868,-0.4109857,4.698333,57.697746,-35.81798,-1.8225225,-13.914948,-4.8916016,-2.5224247,57.70362,-38.853462,1.7652959,-3.174452,-2.2404463,8.586763,-5.783455,18.430756,-7.9575872,31.42531,-37.04983,3.0485249,11.866815,-0.03316139,-19.433006,6.85896,31.602068,64.20264,-4.9271383,-19.374647
174,1.0296406745910645,9.195734977722168,71.06330871582031,2.0544251603779715,-0.9627075975486271,-89.4209288857692,-8.862238,-0.042776443,4.7105923,59.31455,-36.621876,-1.9504917,-14.194292,-4.464436,-2.236344,58.629486,-39.63691,1.7359114,-3.0835445,-1.9101425,8.77819,-5.57077,18.658373,-7.48288,34.88213,-37.9351,3.6271179,11.863752,0.20969614,-19.611477,6.361876,34.348255,66.427765,-4.822918,-19.862936
175,1.033963680267334,9.230806350708008,70.78575897216797,1.8360224709511204,-1.1779727860508835,-89.66830821396286,-9.068012,0.3184814,4.7427335,60.531155,-37.22879,-2.089258,-14.326927,-3.9968028,-1.8587248,59.338898,-40.16248,1.7357042,-2.9876544,-1.5817844,8.969088,-5.077683,19.023748,-6.712295,37.892117,-38.75766,4.1869516,11.963737,0.59687304,-19.865278,5.597475,36.759483,68.61462,-4.793844,-20.35967
176,1.0370218753814697,9.243099212646484,70.59876251220703,1.7091207556561314,-1.3371464115461866,-89.93324726230671,-9.045428,0.5733685,4.8945613,61.12364,-37.69263,-2.1823795,-14.373774,-3.6797562,-1.5338163,59.753147,-40.5345,1.7218312,-2.9042292,-1.3747565,9.049673,-4.19069,19.497894,-5.468637,40.047375,-40.01036,4.516765,12.344377,1.2066419,-20.184965,4.5309963,38.472958,70.34406,-4.8732142,-20.827135
177,1.0461556911468506,9.222354888916016,70.51233673095703,1.72174661935586,-1.4360576239567582,-90.23991793198307,-8.720053,0.68440616,5.246654,60.949257,-38.062523,-2.215134,-14.340605,-3.577102,-1.278457,59.874706,-40.796062,1.6779008,-2.8349867,-1.3407711,9.007975,-2.7669497,20.042154,-3.6011252,41.167698,-41.874836,4.4963923,13.164207,2.084384,-20.551916,3.0732248,39.37219,71.44065,-5.099186,-21.307768
178,1.0642703771591187,9.184597969055176,70.52633666992188,1.8163460799679225,-1.52332039000233,-90.59012652094049,-8.111074,0.70320916,5.728286,60.156326,-38.29781,-2.2168553,-14.200097,-3.5793886,-1.0254085,59.734447,-40.887383,1.6295761,-2.774608,-1.4089764,8.883469,-0.9017164,20.62803,-1.2318405,41.541092,-44.059654,4.230184,14.273468,3.1661983,-20.957623,1.2804165,39.704403,72.146545,-5.4397817,-21.799135
179,1.0847067832946777,9.124958992004395,70.64788055419922,1.9310858080465798,-1.5696034208461347,-90.92946867491338,-7.373711,0.6667812,6.2104197,58.955574,-38.3129,-2.1981535,-13.965291,-3.6145887,-0.79495084,59.29459,-40.748955,1.5984501,-2.7234693,-1.5102919,8.648763,1.1585224,21.244843,1.4012499,41.4599,-46.349663,3.847246,15.392416,4.379819,-21.413641,-0.67144144,39.639835,72.673164,-5.817162,-22.194136
180,1.111979603767395,9.030624389648438,70.87765502929688,2.0062596973331153,-1.5462219266372141,-91.2033509072804,-6.6640186,0.61792785,6.5657883,57.560364,-38.02425,-2.1703386,-13.64892,-3.6110456,-0.60591847,58.518406,-40.324963,1.6050364,-2.6862357,-1.5731088,8.28962,3.1870708,21.906828,4.0751734,41.17729,-48.53607,3.5033493,16.254854,5.6650796,-21.948517,-2.6118722,39.31662,73.233315,-6.1529336,-22.386765
181,1.1404011249542236,8.907432556152344,71.2071533203125,2.0279779690870203,-1.4257276874095937,-91.40234718088128,-5.9882636,0.5523387,6.768008,55.905376,-37.427383,-2.1299946,-13.251698,-3.559344,-0.45203978,57.347694,-39.60268,1.6623191,-2.665192,-1.5827562,7.7625837,5.2399797,22.622093,6.8947735,40.60353,-50.7714,3.2612264,16.74165,7.1002088,-22.582912,-4.566266,38.616875,73.87575,-6.3667903,-22.238935
182,1.1660754680633545,8.763105392456055,71.62989044189453,2.026458961175205,-1.2300630290697936,-91.5541015269922,-5.2732534,0.45100397,6.885627,53.915466,-36.563618,-2.0767498,-12.767946,-3.501609,-0.31884798,55.82282,-38.6173,1.7510619,-2.6568253,-1.5692781,7.0884657,7.43084,23.37374,9.920378,39.65944,-53.107014,3.0498247,17.011454,8.71968,-23.308798,-6.597623,37.50738,74.49953,-6.5086164,-21.846302
183,1.1809157133102417,8.61713695526123,72.13462829589844,2.0055814600396373,-1.0052532291998886,-91.65929740496499,-4.557865,0.3409143,6.935307,51.79202,-35.418037,-2.0259666,-12.199935,-3.4415774,-0.21416205,54.051308,-37.377277,1.8466852,-2.660621,-1.5297906,6.370557,9.636093,24.157463,12.893685,38.54924,-55.180298,2.8382556,17.226843,10.396158,-24.111752,-8.611471,36.218315,75.08845,-6.6983724,-21.447683
184,1.1915805339813232,8.472240447998047,72.71058654785156,1.9709233302633942,-0.7974294444150131,-91.71886094760791,-3.8865037,0.25038972,6.933436,49.744762,-33.971626,-1.989263,-11.549723,-3.3762753,-0.15233178,52.13583,-35.893723,1.9299717,-2.673605,-1.4668615,5.721651,11.69409,24.989796,15.5680685,37.475113,-56.632774,2.5888495,17.549007,11.98413,-24.979311,-10.531675,34.97744,75.62809,-7.0584598,-21.27704
185,1.2005434036254883,8.318023681640625,73.34898376464844,1.9058044018183662,-0.6196856301819761,-91.70967444184998,-3.2521734,0.19322154,6.8367825,47.783096,-32.192413,-1.9618087,-10.764499,-3.2878106,-0.1670499,50.00632,-34.137253,2.0043418,-2.698876,-1.3666669,5.1707106,13.5601015,25.910624,17.920069,36.472534,-57.27792,2.3341246,17.986052,13.498592,-25.919949,-12.378875,33.799282,76.12043,-7.637786,-21.415428
186,1.2050665616989136,8.166808128356934,74.0384292602539,1.8149098137409885,-0.44727960016943596,-91.63968022258658,-2.6450746,0.14937994,6.657866,45.81989,-30.103249,-1.9357959,-9.862211,-3.1803913,-0.2408591,47.642727,-32.1178,2.078958,-2.7304063,-1.2400002,4.6611133,15.30051,26.937017,20.087923,35.447388,-57.353123,2.0934658,18.464746,15.02951,-26.9302,-14.207278,32.550823,76.58069,-8.362564,-21.72487
187,1.20651113986969,8.01590633392334,74.77388000488281,1.728963928577541,-0.26996571809741493,-91.55609036782205,-2.103195,0.102570936,6.491835,43.918285,-27.769901,-1.9150221,-8.954865,-3.0781739,-0.3181586,45.22742,-29.888578,2.1486003,-2.7504807,-1.1267903,4.191438,16.910276,28.051432,22.0791,34.38484,-57.126263,1.8023369,19.022547,16.403528,-27.979445,-15.990626,31.34648,76.979004,-9.1816845,-22.11261
188,1.1990917921066284,7.87123966217041,75.54198455810547,1.682942233440165,-0.07779341343257663,-91.50562243493731,-1.660526,0.043672703,6.4280057,42.14032,-25.253635,-1.9051286,-8.155327,-3.0077024,-0.34506163,42.942303,-27.500042,2.2095263,-2.7528462,-1.0704513,3.752757,18.371172,29.227173,23.900848,33.284676,-56.841568,1.3874302,19.701271,17.607922,-29.030642,-17.697187,30.141323,77.3174,-10.043637,-22.486628
189,1.1851131916046143,7.738327980041504,76.3335189819336,1.7030940996486648,0.1384272923406382,-91.49759635525075,-1.317259,-0.028024137,6.5019183,40.476055,-22.480347,-1.8783039,-7.4717417,-2.9872565,-0.3095762,40.785427,-24.926868,2.2216866,-2.7351098,-1.1045002,3.34675,19.805016,30.475958,25.549261,32.018047,-56.54795,0.87805355,20.504805,18.591839,-30.079514,-19.347897,28.97358,77.63166,-11.0013485,-22.88776
190,1.169023871421814,7.620666980743408,77.13817596435547,1.7634483771813692,0.37128302850295986,-91.50743612630555,-1.0634917,-0.09534811,6.655637,38.91152,-19.44855,-1.8462596,-6.8596587,-2.9998636,-0.24599613,38.68973,-22.160267,2.2031255,-2.7046459,-1.2052836,2.9834337,21.168812,31.812635,27.049623,30.629623,-56.101707,0.3026279,21.416498,19.42003,-31.13438,-20.959991,27.791306,77.9083,-12.062718,-23.343826
191,1.1548230648040771,7.514077186584473,77.95210266113281,1.8306674068076043,0.6063998677863158,-91.53019830158289,-0.91175765,-0.14028074,6.830698,37.492847,-16.321459,-1.8780874,-6.351328,-3.017349,-0.16540882,36.734642,-19.269901,2.237003,-2.6477833,-1.3211799,2.6747034,22.317793,33.20152,28.415573,29.239973,-55.495193,-0.4188913,22.447348,20.061697,-32.182514,-22.499811,26.58798,78.01516,-13.113021,-23.754923
192,1.1408864259719849,7.42191743850708,78.76398468017578,1.8628994280313762,0.8292839738044607,-91.56162741649372,-0.8711071,-0.15265138,6.963567,36.259586,-13.258319,-2.0414433,-5.9736867,-3.0075371,-0.07047972,34.988678,-16.317205,2.4064226,-2.558025,-1.3971447,2.4431734,23.11152,34.581005,29.658424,27.937462,-54.698364,-1.3686131,23.61884,20.492647,-33.20625,-23.931265,25.333641,77.81737,-14.0381365,-24.027233
193,1.1381852626800537,7.350321292877197,79.56439208984375,1.8478533067733813,1.034180693030653,-91.61254857010331,-0.93804425,-0.13662948,7.0235023,35.203842,-10.198752,-2.3708606,-5.7364583,-2.939345,0.054350067,33.461964,-13.183025,2.6950634,-2.4451962,-1.4145072,2.3160644,23.564009,35.91627,30.813208,26.669573,-53.558548,-2.5837638,25.157011,20.686747,-34.204926,-25.273184,23.991737,77.30232,-14.822804,-24.158215
194,1.1445626020431519,7.3012590408325195,80.35308837890625,1.8077509163247418,1.230275021745458,-91.68071143610472,-1.1032794,-0.09823306,7.025592,34.29437,-7.0841956,-2.8473706,-5.624447,-2.829829,0.21575452,32.113926,-9.871774,3.0735962,-2.3259025,-1.39946,2.2883775,23.766762,37.20568,31.881153,25.340784,-52.091583,-3.9889119,27.007275,20.649183,-35.188595,-26.5227,22.564245,76.52819,-15.524007,-24.200565
195,1.1550147533416748,7.274816989898682,81.11373901367188,1.7549775634013796,1.425222830635353,-91.74294932444705,-1.3646494,-0.039254077,6.9794693,33.533306,-4.075495,-3.4445093,-5.614071,-2.7141893,0.40729058,30.914728,-6.617056,3.6051176,-2.2045305,-1.3661406,2.3359573,23.698296,38.438004,32.80902,23.96174,-50.531654,-5.519226,28.768257,20.429071,-36.159393,-27.613949,21.045567,75.47183,-16.139118,-24.142267
196,1.176234245300293,7.280020236968994,81.83879089355469,1.7025212171642432,1.626244574908282,-91.77641929117512,-1.7219697,0.035949107,6.908595,32.926777,-1.3317202,-4.115527,-5.676909,-2.6245115,0.6253799,29.828848,-3.6495283,4.351068,-2.0863745,-1.3276199,2.436529,23.33659,39.59729,33.54212,22.542522,-49.13489,-7.147835,30.025148,20.079462,-37.11334,-28.481016,19.429747,74.11148,-16.667747,-23.969868
197,1.1962422132492065,7.306118488311768,82.52374267578125,1.6469142966392645,1.8419553071966297,-91.77389953109294,-2.2094631,0.103071064,6.767097,32.48932,1.1962644,-4.905001,-5.8057146,-2.5262082,0.9697632,28.790106,-0.8854547,5.4617906,-1.9682299,-1.2816287,2.6086435,22.652678,40.671803,34.060253,21.04542,-48.13683,-9.154544,30.646555,19.625114,-38.059364,-29.102228,17.635057,72.34408,-17.156622,-23.620096
198,1.2259379625320435,7.36243200302124,83.1585464477539,1.5849033287566556,2.065433554815112,-91.74805554531937,-2.8125436,0.15808965,6.557404,32.205906,3.5698736,-5.8122687,-6.0032806,-2.404311,1.432834,27.817553,1.7619451,6.8682494,-1.8598659,-1.2239623,2.8571405,21.676203,41.659695,34.392117,19.454836,-47.363644,-11.489472,30.860872,19.023092,-39.003944,-29.494045,15.688735,70.21874,-17.603752,-23.122189
199,1.2543038129806519,7.437363147735596,83.73235321044922,1.5277571233664187,2.280800130741019,-91.70693044738461,-3.462686,0.23557436,6.3971534,32.048748,5.6484556,-6.7018433,-6.255165,-2.3279448,1.8246902,26.99742,4.0668645,8.288531,-1.779403,-1.167136,3.144429,20.475298,42.55905,34.557045,17.808195,-46.48068,-13.6513,30.782131,18.23065,-39.931553,-29.6589,13.73398,67.933014,-17.932547,-22.596144
200,1.288461446762085,7.529077053070068,84.24897003173828,1.4865856786309684,2.472659048408428,-91.65837651853694,-4.093049,0.37996104,6.418078,31.991837,7.292573,-7.425765,-6.5553794,-2.3760126,1.9254452,26.423336,5.807907,9.422545,-1.7369664,-1.1240418,3.4334917,19.125051,43.367546,34.574986,16.1321,-45.14638,-15.134283,30.533936,17.21232,-40.81159,-29.605104,11.904234,65.67842,-18.056921,-22.15428
201,1.3215246200561523,7.635500907897949,84.70462799072266,1.4685514547663248,2.639135935511971,-91.59839585676947,-4.7019796,0.6088979,6.695919,32.069893,8.514855,-8.00183,-6.919501,-2.6223192,1.5735236,26.181944,6.8773427,10.206773,-1.7224759,-1.1044751,3.7233925,17.58894,44.076675,34.488155,14.386334,-43.22081,-15.698837,29.969185,15.987105,-41.62167,-29.359825,10.127217,63.358646,-17.871119,-21.80359
202,1.3492845296859741,7.756765842437744,85.10206604003906,1.4662758304231347,2.787269199349109,-91.52508321376432,-5.320901,0.90634954,7.1686,32.289944,9.379015,-8.46641,-7.3475714,-3.0207694,0.8883609,26.209846,7.4179683,10.776688,-1.7287827,-1.1025981,4.0359383,15.853177,44.675785,34.27663,12.546875,-40.912014,-15.6812935,29.053297,14.574676,-42.348747,-28.91349,8.336899,60.91646,-17.448627,-21.469244
203,1.3757022619247437,7.878724575042725,85.45370483398438,1.4685586874839254,2.9154629464267963,-91.44960813183137,-5.929376,1.2726232,7.767201,32.57929,9.820182,-8.700886,-7.8081155,-3.4741883,0.06505928,26.367823,7.5825434,11.132645,-1.7621545,-1.1070168,4.3701115,14.007804,45.160927,33.858242,10.677035,-38.382988,-15.423884,28.085379,12.948998,-42.971992,-28.231958,6.673119,58.59843,-16.962103,-21.147171
204,1.4048173427581787,8.006608009338379,85.7602767944336,1.4639354197827597,3.0226314950116575,-91.38318127121481,-6.504861,1.7036204,8.417696,32.856747,9.770932,-8.598112,-8.269632,-3.8789318,-0.69430876,26.510126,7.520521,11.284539,-1.8232265,-1.1051823,4.72465,12.133665,45.53456,33.14367,8.850982,-35.804466,-15.237467,27.385462,11.094076,-43.465412,-27.29386,5.2735577,56.648422,-16.579603,-20.8533
205,1.4307761192321777,8.134468078613281,86.00495147705078,1.449349101521131,3.095854695898142,-91.33120343021635,-7.041298,2.2598705,9.21945,33.186123,9.030186,-7.9789524,-8.739599,-4.246521,-1.4255482,26.685644,7.137363,11.111245,-1.9029505,-1.0931134,5.116486,10.200026,45.79888,32.096,7.0363917,-33.03667,-15.105474,27.161203,8.976974,-43.796135,-26.111092,4.1197767,55.14452,-16.339119,-20.624409
206,1.4557698965072632,8.261821746826172,86.2002944946289,1.4315830877375473,3.139851032959749,-91.28652459955715,-7.5415864,2.911339,10.152243,33.572254,7.6780424,-6.980785,-9.2240925,-4.622571,-2.199354,26.936571,6.388432,10.664061,-1.9841865,-1.0793576,5.545604,8.152305,45.948467,30.749899,5.226763,-30.056482,-14.869418,27.189114,6.6675043,-43.94121,-24.743313,3.1229684,53.948116,-16.144884,-20.45035
207,1.4738047122955322,8.388592720031738,86.34576416015625,1.4156471475059416,3.1813402080338467,-91.24196441407474,-8.001676,3.5137322,10.971263,33.837337,6.085939,-5.966014,-9.694652,-4.946797,-2.8688593,27.102497,5.508044,10.208133,-2.0582721,-1.0706755,5.9865613,6.0434837,45.971752,29.131418,3.5333626,-27.208612,-14.621508,27.169529,4.3187084,-43.892128,-23.249651,2.3078291,52.984894,-15.963507,-20.284107
208,1.4948391914367676,8.509842872619629,86.4444351196289,1.405189244956263,3.246724946869168,-91.19028330117803,-8.429884,3.9373622,11.461067,33.815693,4.6435122,-5.2664714,-10.126505,-5.1597013,-3.2984788,27.022625,4.7398067,9.9981575,-2.1226647,-1.0730363,6.4154954,3.9314759,45.854443,27.27228,2.0683308,-24.826912,-14.482167,26.816637,2.0530553,-43.653614,-21.669119,1.7216078,52.17553,-15.763369,-20.075363
209,1.5136992931365967,8.615891456604004,86.49203491210938,1.40502683034401,3.3320448923538124,-91.12944756762032,-8.80854,4.14996,11.581731,33.423412,3.4168255,-4.9441967,-10.497965,-5.223834,-3.3913183,26.615686,4.1292877,10.133545,-2.186558,-1.0942705,6.8469367,1.8401957,45.579235,25.146347,0.81650114,-23.013027,-14.600316,26.095898,-0.14209443,-43.222813,-19.979004,1.3758996,51.56893,-15.56252,-19.830696
210,1.5263946056365967,8.708744049072266,86.4852066040039,1.412926747905086,3.4263320769777468,-91.06313065604655,-9.14239,4.2253137,11.4561,32.75947,2.2247493,-4.814379,-10.827789,-5.18906,-3.2461681,25.977194,3.5547519,10.452987,-2.2486565,-1.1294438,7.2951856,-0.19438338,45.13359,22.79087,-0.3106278,-21.587862,-14.886075,25.158487,-2.28355,-42.59228,-18.20292,1.2295908,51.184696,-15.365167,-19.570496
211,1.5415219068527222,8.80653190612793,86.42347717285156,1.4201424981235344,3.545230151244766,-90.99337022640145,-9.472863,4.2048182,11.132042,31.930922,1.0970125,-4.8167243,-11.151368,-5.1249046,-3.025561,25.208742,3.0136728,10.819955,-2.3049242,-1.1699558,7.744664,-2.1641362,44.511898,20.315388,-1.2540631,-20.426023,-15.114892,23.992695,-4.298972,-41.77254,-16.41793,1.2700436,50.892384,-15.119895,-19.260637
212,1.559874176979065,8.887675285339355,86.31729888916016,1.4176188262168148,3.704505327579627,-90.92258684406625,-9.840438,4.1276255,10.654883,31.04369,0.061750002,-4.8961225,-11.503097,-5.089462,-2.8891442,24.406857,2.5127275,11.1097765,-2.3432565,-1.202101,8.159239,-3.8700972,43.715843,17.895842,-2.1075268,-19.45791,-15.062529,22.583294,-6.029299,-40.792336,-14.725086,1.4269478,50.587326,-14.776087,-18.867065
213,1.5731122493743896,8.953434944152832,86.1643295288086,1.4029442041726499,3.9192216628312053,-90.84705075658474,-10.261716,3.9705591,9.964066,30.056099,-0.93148035,-5.037606,-11.8906555,-5.0740314,-2.8303473,23.519321,2.0238974,11.296826,-2.394372,-1.2199428,8.5267105,-5.425658,42.723476,15.481142,-2.746809,-18.658287,-14.659117,20.78697,-7.501681,-39.653595,-13.082372,1.7403114,50.265594,-14.283574,-18.324486
214,1.592350959777832,9.007478713989258,85.96678161621094,1.3808081804796515,4.1756508550413844,-90.76735248032735,-10.702201,3.7344005,9.063484,28.929329,-1.8777694,-5.2560196,-12.288244,-5.0541854,-2.779409,22.50813,1.5612578,11.446381,-2.449261,-1.2209274,8.867998,-6.745301,41.53138,13.060114,-3.2701535,-18.059053,-14.026101,18.652357,-8.789844,-38.364685,-11.448023,2.2508135,49.959217,-13.67959,-17.668343
215,1.609255313873291,9.056007385253906,85.72528839111328,1.3494042708439908,4.4478055188154775,-90.69273599736172,-11.134962,3.4876482,8.09151,27.782358,-2.6701,-5.55558,-12.685192,-5.049844,-2.800438,21.496502,1.1952308,11.584,-2.4995508,-1.2087873,9.2124405,-7.776801,40.18477,10.726285,-3.7161183,-17.537937,-13.224212,16.431047,-9.846669,-36.976574,-9.856342,2.8666208,49.634415,-13.050001,-17.01824
216,1.6216400861740112,9.098750114440918,85.44218444824219,1.3069683880724758,4.711042325862328,-90.63228646041271,-11.541425,3.291631,7.1859374,26.73849,-3.2024872,-5.953241,-13.075138,-5.0755677,-2.9589384,20.614004,0.99358726,11.739604,-2.5378947,-1.1864372,9.578938,-8.537224,38.75377,8.540104,-4.0638046,-16.994291,-12.3143425,14.371935,-10.650413,-35.556465,-8.324389,3.5226898,49.273884,-12.481742,-16.495407
217,1.63576340675354,9.123916625976562,85.12145233154297,1.2452334081765337,4.97618883055211,-90.59037685104751,-11.922415,3.1450615,6.332655,25.762476,-3.3803031,-6.5419207,-13.463071,-5.136447,-3.3245962,19.84464,1.0090381,11.92311,-2.5549874,-1.1485168,9.951117,-9.112317,37.266514,6.444336,-4.236031,-16.434738,-11.247277,12.491211,-11.235575,-34.134,-6.787632,4.2868247,48.83519,-12.039733,-16.198124
218,1.6492756605148315,9.139939308166504,84.75675964355469,1.1659934760294008,5.2504204290275,-90.5619282731047,-12.284406,3.0165303,5.4739347,24.805374,-3.2823293,-7.2923656,-13.850486,-5.212124,-3.8472588,19.139366,1.1941066,12.123623,-2.5587587,-1.091047,10.310672,-9.5420065,35.726856,4.3803153,-4.1929326,-15.906569,-10.005758,10.6731825,-11.643277,-32.712948,-5.219389,5.21761,48.365253,-11.665942,-16.042955
219,1.6694409847259521,9.15233325958252,84.34410858154297,1.082866183430215,5.5046052194358985,-90.54169542234081,-12.639001,2.9171484,4.681427,24.001228,-3.0685604,-8.04365,-14.233014,-5.282929,-4.411118,18.58954,1.4598731,12.337698,-2.5615942,-1.0225912,10.667716,-9.836758,34.17922,2.3813324,-3.9234555,-15.393627,-8.69948,8.966541,-11.915094,-31.32573,-3.6842952,6.284963,47.980263,-11.263685,-15.877104
220,1.6823229789733887,9.157157897949219,83.88690185546875,1.0106713259214137,5.711285485163649,-90.52417013336648,-13.002652,2.858251,4.0286756,23.489939,-2.902633,-8.633166,-14.613293,-5.337881,-4.8976593,18.29336,1.7134237,12.56084,-2.5751944,-0.95585144,11.029285,-10.023664,32.68374,0.47667018,-3.3993392,-14.902975,-7.4380527,7.4243836,-12.102108,-30.011423,-2.2476711,7.4685645,47.80523,-10.737469,-15.548174
221,1.6958829164505005,9.15744400024414,83.38568115234375,0.9555614995819014,5.869876218889332,-90.5086899067179,-13.374013,2.8474905,3.5322828,23.258091,-2.5916305,-9.1322975,-14.965777,-5.37695,-5.295809,18.188423,2.2558181,13.03051,-2.603131,-0.9034167,11.403488,-10.130417,31.268341,-1.3743539,-2.5858288,-14.520998,-6.209261,6.1710024,-12.227905,-28.779823,-0.9110046,8.792071,47.886528,-10.059437,-15.025643
222,1.7080422639846802,9.158795356750488,82.8309326171875,0.9089482784553117,5.995491797443609,-90.49795168854901,-13.759662,2.8745768,3.150553,23.264885,-2.1335487,-9.589281,-15.3116045,-5.407919,-5.655058,18.27338,3.019349,13.663358,-2.6338804,-0.8623318,11.782605,-10.186638,29.926208,-3.1911983,-1.4800105,-14.251662,-4.959617,5.1526084,-12.277556,-27.619278,0.35322234,10.261085,48.16585,-9.277783,-14.392608
223,1.7201777696609497,9.15610408782959,82.22811126708984,0.86517285700279,6.084098674031773,-90.49139107851347,-14.184227,2.9284897,2.8766155,23.60351,-1.977639,-9.807053,-15.717782,-5.4442534,-5.957268,18.724363,3.3588376,13.981311,-2.6588771,-0.8238327,12.148778,-10.217919,28.66037,-4.902372,-0.101516254,-13.981147,-3.741223,4.153345,-12.249661,-26.53492,1.5239774,11.831138,48.608864,-8.410427,-13.668183
224,1.7337689399719238,9.150162696838379,81.57426452636719,0.8214784809359906,6.13047755656486,-90.4878905260014,-14.664694,2.9966738,2.706482,24.35713,-2.5713372,-9.591116,-16.238813,-5.5043254,-6.1901393,19.69491,2.6359673,13.51416,-2.671938,-0.78085846,12.486931,-10.234736,27.476154,-6.4277306,1.5176795,-13.592999,-2.6114872,2.953612,-12.146241,-25.538485,2.5831575,13.461436,49.188553,-7.4750404,-12.87149
225,1.746259093284607,9.145977020263672,80.87313079833984,0.7899110547909508,6.132211499112834,-90.49083566654049,-15.203285,3.0529413,2.6354353,25.607264,-4.1093545,-8.6756115,-16.873081,-5.566458,-6.2324796,21.26282,0.43669176,11.782118,-2.6717913,-0.7432729,12.7895,-10.206857,26.374212,-7.735756,3.3578482,-12.939593,-1.5956059,1.4258382,-11.951074,-24.636154,3.525791,15.137895,50.01189,-6.373759,-11.86189
226,1.759279727935791,9.143354415893555,80.14105987548828,0.7749358678479507,6.089078517658679,-90.49816331922104,-15.773464,3.0857618,2.6407204,27.25765,-6.30655,-7.2337375,-17.59503,-5.5870614,-6.0465364,23.326368,-2.794034,9.151975,-2.6665833,-0.7178405,13.074551,-10.126197,25.350464,-8.85869,5.409909,-12.123091,-0.6705624,-0.29449865,-11.678319,-23.82656,4.365483,16.8762,51.046165,-5.1156454,-10.692644
227,1.7870463132858276,9.138373374938965,79.3174819946289,0.7650817875136013,5.999276524256752,-90.5001414811073,-16.362097,3.1062617,2.696828,29.152765,-8.9059925,-5.7307177,-18.407364,-5.572303,-5.7756505,25.741926,-6.4095373,6.433634,-2.6639757,-0.6940654,13.366795,-10.030616,24.403172,-9.809487,7.6559305,-11.402277,0.1857448,-2.0296667,-11.365475,-23.107826,5.1086264,18.672764,52.073517,-3.893351,-9.661577
228,1.815222978591919,9.108733177185059,78.40398406982422,0.7443625861556886,5.864058716988429,-90.48822839610997,-16.967728,3.1552188,2.8058374,31.159805,-11.677875,-4.6353807,-19.30309,-5.592048,-5.6573124,28.35251,-9.804174,4.4548607,-2.6717372,-0.6582541,13.688101,-9.955834,23.53263,-10.598173,10.080103,-11.039748,1.0140971,-3.5964735,-11.042519,-22.477673,5.760852,20.51761,52.89551,-2.918208,-9.049988
229,1.842934489250183,9.074614524841309,77.4954605102539,0.669877542528738,5.622370513107133,-90.46313598745435,-17.503637,3.3319426,3.050964,33.278217,-14.889444,-4.101982,-20.22138,-5.7221184,-5.9310203,31.201962,-13.0777025,3.4820538,-2.6897585,-0.5716346,14.101536,-9.904212,22.730864,-11.167234,12.678428,-11.1069355,1.897885,-5.1001678,-10.698592,-21.938854,6.3346324,22.377407,53.384533,-2.2829595,-8.945301
230,1.8804113864898682,9.086933135986328,76.59109497070312,0.5569770102154802,5.298080473455034,-90.42966867343571,-18.018585,3.6133091,3.4174929,35.603153,-18.582146,-3.8757637,-21.199474,-5.9552584,-6.451903,34.384903,-16.513498,3.0621471,-2.717849,-0.44582993,14.576527,-9.84624,21.99809,-11.521849,15.439923,-11.462103,2.8130486,-6.579365,-10.319996,-21.493235,6.827199,24.254374,53.689632,-1.8764571,-9.181606
231,1.917115569114685,9.121622085571289,75.68836975097656,0.47448835382570426,5.021924581174658,-90.38686473226515,-18.726978,3.8805363,3.7804527,38.174,-22.20799,-3.813577,-22.370897,-6.2798967,-6.941062,37.80807,-19.810823,2.9491992,-2.7562778,-0.34274843,14.993546,-9.773315,21.35461,-11.7718115,18.34597,-12.065936,3.6449823,-7.745195,-9.909202,-21.13129,7.2078495,26.176987,54.033005,-1.6097815,-9.651559
232,1.9508256912231445,9.204580307006836,74.82052612304688,0.49553294443061746,4.922332658152978,-90.3333802241838,-19.827948,3.9989743,4.0031967,41.006886,-25.205803,-3.766511,-23.85608,-6.6530356,-7.104559,41.34187,-22.641409,2.894336,-2.7988408,-0.3346094,15.235128,-9.677275,20.832611,-12.035437,21.379513,-12.896298,4.26769,-8.308493,-9.460842,-20.835371,7.435544,28.171946,54.63229,-1.3931566,-10.24876
233,1.9806180000305176,9.296712875366211,73.96034240722656,0.6814337090056561,5.118126611436658,-90.26343335636102,-21.601925,3.879291,4.0197387,44.331345,-27.36228,-3.721624,-25.933187,-7.089787,-6.776419,45.184456,-24.846292,2.9196103,-2.8375516,-0.48845065,15.231265,-9.599927,20.466608,-12.39156,24.633608,-14.084822,4.547031,-8.092293,-8.984877,-20.582315,7.472566,30.305698,55.534447,-1.2643933,-11.028143
234,2.0071170330047607,9.357755661010742,73.12418365478516,0.9813441404120101,5.512742335721137,-90.1779292326312,-23.863539,3.6182768,3.9200766,48.07873,-29.007862,-3.727394,-28.463762,-7.594177,-6.1412406,49.334396,-26.626348,3.107799,-2.8724153,-0.7695567,15.0589905,-9.511659,20.267193,-12.77586,28.061459,-15.625152,4.5574675,-7.284141,-8.462301,-20.364655,7.3340816,32.53005,56.61654,-1.2592639,-12.012075
235,2.0090770721435547,9.379620552062988,72.3380126953125,1.3007729637387364,5.909554201158793,-90.08614612862678,-26.104301,3.340147,3.791742,51.79168,-30.384396,-3.7310526,-30.926756,-8.078955,-5.4317145,53.32463,-28.17264,3.3168163,-2.9159343,-1.0923209,14.821368,-9.298752,20.22283,-13.082889,31.445011,-17.285194,4.479947,-6.1456823,-7.8417635,-20.193497,7.0653834,34.69515,57.84286,-1.2855276,-13.050437
236,2.012556552886963,9.37800407409668,71.60095977783203,1.5435323090320525,6.111398897101766,-90.0005031672171,-27.816027,3.164431,3.7166734,54.98818,-31.724676,-3.7098823,-32.78912,-8.476371,-4.8950624,56.67627,-29.67393,3.4284732,-2.9773295,-1.3612598,14.620552,-8.856966,20.308426,-13.1996565,34.577114,-18.832338,4.517296,-4.9309053,-7.078768,-20.095314,6.7160306,36.659374,59.187225,-1.2464725,-13.998631
237,2.012538433074951,9.338794708251953,70.91946411132812,1.6918045150816758,6.081835401516983,-89.91346541640726,-28.897934,3.1045523,3.725963,57.56755,-33.05057,-3.6726463,-33.90917,-8.790019,-4.6186733,59.25596,-31.179218,3.4162571,-3.0788467,-1.542888,14.443942,-8.16454,20.510782,-13.204194,37.562172,-20.092918,4.752822,-3.6051607,-6.157591,-20.08809,6.350689,38.494846,60.8119,-1.0552313,-14.859369
238,2.0104594230651855,9.246814727783203,70.3321533203125,1.7921734136078369,5.9196025992198775,-89.82331085885323,-29.607069,3.0929546,3.7772574,59.76404,-34.242615,-3.6419744,-34.564034,-9.050696,-4.4796667,61.31813,-32.583195,3.3561227,-3.209846,-1.6752454,14.245716,-7.2741184,20.826872,-13.117191,40.46782,-21.229166,5.0638046,-2.0660357,-5.1020517,-20.172121,5.9317684,40.24417,62.68641,-0.7888642,-15.705177
239,2.0139408111572266,9.146077156066895,69.83023834228516,1.844140783298301,5.63138916706356,-89.75305121181513,-29.980387,3.1265912,3.8375816,61.60299,-35.31226,-3.6298006,-34.85052,-9.24364,-4.415275,62.97483,-33.83842,3.2935047,-3.3266559,-1.7678567,14.081896,-6.195089,21.238676,-12.735151,43.033604,-22.512945,5.358765,-0.46126005,-3.9337795,-20.346516,5.356194,41.727917,64.50126,-0.5832113,-16.491043
240,2.030163526535034,9.038684844970703,69.40769958496094,1.8476346086736284,5.223693540875349,-89.7252893780558,-30.05463,3.206136,3.8718143,63.10826,-36.2747,-3.6463578,-34.86644,-9.355643,-4.3602533,64.33512,-34.89911,3.271689,-3.3917236,-1.8308767,14.011044,-4.926211,21.718908,-11.84367,44.99461,-24.204264,5.5380497,1.0569334,-2.6837344,-20.611649,4.5296907,42.772865,65.945114,-0.5639976,-17.161238
