unveil-humanoid-operators/unveil-humanoid-operators.github.io/feature-analysis-animation/data/trajectories/jumping_turning_light.csv
Frame,root_translateX,root_translateY,root_translateZ,root_rotateX,root_rotateY,root_rotateZ,left_hip_pitch_joint_dof,left_hip_roll_joint_dof,left_hip_yaw_joint_dof,left_knee_joint_dof,left_ankle_pitch_joint_dof,left_ankle_roll_joint_dof,right_hip_pitch_joint_dof,right_hip_roll_joint_dof,right_hip_yaw_joint_dof,right_knee_joint_dof,right_ankle_pitch_joint_dof,right_ankle_roll_joint_dof,waist_yaw_joint_dof,waist_roll_joint_dof,waist_pitch_joint_dof,left_shoulder_pitch_joint_dof,left_shoulder_roll_joint_dof,left_shoulder_yaw_joint_dof,left_elbow_joint_dof,left_wrist_roll_joint_dof,left_wrist_pitch_joint_dof,left_wrist_yaw_joint_dof,right_shoulder_pitch_joint_dof,right_shoulder_roll_joint_dof,right_shoulder_yaw_joint_dof,right_elbow_joint_dof,right_wrist_roll_joint_dof,right_wrist_pitch_joint_dof,right_wrist_yaw_joint_dof
0,-2.3309683799743652,0.023385481908917427,78.58013916015625,0.6216473078822571,-3.1259954652392614,-2.1988350340992975,8.093508,6.503384,23.71337,6.885105,-9.012293,-6.728258,5.986131,-6.6578856,-17.069334,8.551232,-10.432652,4.550105,-1.6021694,-1.3310276,9.106791,2.871368,12.529664,-21.37654,63.949364,11.258906,-2.9180415,8.787389,-0.77823734,-11.199546,30.540497,62.37648,-11.465887,-1.2207557,-5.4825506
1,-2.3324263095855713,0.02889377996325493,78.57750701904297,0.622984435613389,-3.1377281778164985,-2.1883627870404716,8.103704,6.4959564,23.701609,6.8852396,-9.019182,-6.731528,5.9995737,-6.664788,-17.074837,8.5532875,-10.446115,4.5518556,-1.5966309,-1.3344262,9.122745,2.9311419,12.561052,-21.381796,63.808506,11.25305,-2.8316994,8.797499,-0.752915,-11.208029,30.531221,62.348907,-11.451717,-1.2292519,-5.486111
2,-2.337594985961914,0.0336117148399353,78.5753173828125,0.6239534482579489,-3.1501442908257515,-2.1780812839325834,8.115199,6.4885263,23.689837,6.8843384,-9.026286,-6.7354345,6.013655,-6.671292,-17.079586,8.555061,-10.460184,4.5528693,-1.590449,-1.3344187,9.136116,2.9880047,12.584317,-21.389622,63.67014,11.249562,-2.73775,8.813745,-0.73054487,-11.212342,30.519602,62.33046,-11.437076,-1.2384597,-5.492592
3,-2.3400089740753174,0.03370369225740433,78.57625579833984,0.6257025537876358,-3.1614193826887993,-2.1674433285138135,8.124512,6.480847,23.678144,6.884834,-9.03241,-6.7379246,6.02571,-6.6789355,-17.085451,8.559188,-10.47374,4.555446,-1.5867622,-1.3328964,9.144959,3.0162249,12.588549,-21.391611,63.582413,11.247964,-2.659952,8.827882,-0.7157319,-11.212552,30.514832,62.32406,-11.425054,-1.2445817,-5.4991655
4,-2.340120315551758,0.03404110670089722,78.57648468017578,0.6289983001154855,-3.169520105321846,-2.156008950049541,8.130389,6.471918,23.666946,6.8842335,-9.033668,-6.736923,6.0360045,-6.687921,-17.09463,8.56089,-10.4809675,4.5617523,-1.5811609,-1.3329555,9.151545,3.0619543,12.597381,-21.393126,63.49182,11.24443,-2.604755,8.829843,-0.7009277,-11.212753,30.507421,62.31593,-11.432164,-1.2434152,-5.5002227
5,-2.3391566276550293,0.03640678524971008,78.57644653320312,0.6359554243874647,-3.1718650660920553,-2.1431616118722854,8.127613,6.4605546,23.656971,6.8846803,-9.027146,-6.7303,6.0427,-6.70036,-17.109169,8.558255,-10.477599,4.5756044,-1.5707958,-1.3401402,9.154576,3.0702167,12.599859,-21.39009,63.47428,11.232194,-2.597595,8.808078,-0.69102657,-11.212645,30.507603,62.307243,-11.454895,-1.2325734,-5.4911127
6,-2.3375673294067383,0.03733760863542557,78.5797348022461,0.6453587150435087,-3.170352373955382,-2.1288476329238737,8.120654,6.446773,23.647396,6.883935,-9.015074,-6.7196274,6.0464153,-6.7152643,-17.12813,8.554107,-10.467597,4.5948377,-1.5610313,-1.351762,9.1558275,3.0785408,12.604088,-21.378893,63.474556,11.217652,-2.6164875,8.769325,-0.6791678,-11.21264,30.512339,62.290653,-11.495929,-1.2119279,-5.4757514
7,-2.3384742736816406,0.042687710374593735,78.57967376708984,0.6535473591428118,-3.169683770857705,-2.1153186553014582,8.11491,6.4348164,23.63797,6.8839145,-9.003829,-6.7086964,6.049694,-6.7289243,-17.145939,8.55305,-10.458765,4.612224,-1.5493879,-1.3620634,9.159451,3.0837574,12.604799,-21.373262,63.483704,11.20444,-2.6424205,8.734532,-0.67193687,-11.212713,30.51513,62.279568,-11.53421,-1.1926249,-5.462701
8,-2.339081048965454,0.045974284410476685,78.58008575439453,0.6579126514719825,-3.174658363523624,-2.1017522390918577,8.115953,6.426516,23.625065,6.884072,-8.997998,-6.7006803,6.059416,-6.738439,-17.161493,8.553934,-10.457261,4.6211767,-1.553134,-1.3697672,9.164466,3.0975103,12.606564,-21.354166,63.485996,11.201725,-2.6644928,8.705702,-0.65564513,-11.212936,30.520525,62.26056,-11.569387,-1.1731342,-5.4567337
9,-2.3431246280670166,0.050462763756513596,78.57830047607422,0.6543628860550413,-3.190403666064849,-2.091993214912672,8.131386,6.4260216,23.609648,6.8850193,-9.001875,-6.6972237,6.07701,-6.739752,-17.168736,8.561794,-10.467313,4.616362,-1.5645087,-1.3672818,9.1823,3.1281488,12.6067505,-21.340942,63.4568,11.214937,-2.6644928,8.704035,-0.6468436,-11.212737,30.51879,62.25662,-11.580916,-1.1696895,-5.4693136
10,-2.3423454761505127,0.05224417522549629,78.57894897460938,0.6461125986301446,-3.212849100152496,-2.0841429081841327,8.155792,6.4304185,23.592176,6.8855853,-9.010719,-6.6961102,6.1016045,-6.7354264,-17.171669,8.5711355,-10.48307,4.6026163,-1.5789992,-1.3589629,9.205371,3.16213,12.604974,-21.33344,63.423656,11.236172,-2.6589077,8.716021,-0.63849175,-11.21174,30.508514,62.260117,-11.582457,-1.1735283,-5.492228
11,-2.339980125427246,0.056770648807287216,78.57669830322266,0.6375665190628841,-3.234284505462346,-2.0760998436793376,8.179359,6.435321,23.57523,6.886912,-9.0215,-6.6963744,6.12413,-6.7311373,-17.1742,8.583529,-10.50169,4.5874424,-1.5905198,-1.3479438,9.227767,3.205164,12.602296,-21.330334,63.3755,11.256072,-2.6483712,8.732453,-0.62940586,-11.210389,30.493408,62.264225,-11.587471,-1.17618,-5.5133514
12,-2.3329739570617676,0.05891555920243263,78.57574462890625,0.6329381806095599,-3.2461824893737496,-2.065903598023079,8.192827,6.4364166,23.561981,6.8863792,-9.028381,-6.6969514,6.141072,-6.730145,-17.180779,8.587374,-10.513268,4.578189,-1.5894098,-1.3421661,9.236483,3.2326,12.594355,-21.328482,63.347855,11.2615595,-2.6436598,8.739819,-0.6171693,-11.207028,30.473925,62.26672,-11.603909,-1.1691957,-5.5178742
13,-2.3257064819335938,0.06076580658555031,78.57514953613281,0.6357559510937144,-3.2416018045036066,-2.0527921919196417,8.187263,6.4307647,23.555178,6.887432,-9.031956,-6.6973777,6.1416693,-6.737643,-17.191921,8.5920925,-10.522537,4.5781355,-1.5776929,-1.3465031,9.224048,3.251841,12.589702,-21.324436,63.330036,11.242316,-2.6445634,8.732367,-0.60119396,-11.205518,30.466976,62.263714,-11.631664,-1.1459389,-5.499623
14,-2.320014238357544,0.06251142174005508,78.57231140136719,0.6421928566500266,-3.2264601980816123,-2.037497052365992,8.171454,6.42105,23.55236,6.886612,-9.03308,-6.698321,6.1374536,-6.748056,-17.206743,8.585865,-10.524821,4.582794,-1.5612891,-1.3569661,9.198524,3.2663321,12.583624,-21.316307,63.31848,11.206274,-2.649779,8.716037,-0.58095413,-11.204301,30.468594,62.253277,-11.662819,-1.1115754,-5.4662533
15,-2.3140451908111572,0.059129420667886734,78.57166290283203,0.6487637558744737,-3.2139734453068414,-2.022279166831198,8.157613,6.412112,23.549963,6.886414,-9.033955,-6.7003493,6.1341314,-6.7582645,-17.221958,8.582222,-10.52745,4.5882616,-1.5394772,-1.3677589,9.181121,3.27277,12.581363,-21.311014,63.30884,11.168891,-2.6556633,8.700844,-0.56918544,-11.204043,30.470924,62.248837,-11.691314,-1.0829294,-5.433065
16,-2.3152616024017334,0.058816395699977875,78.57061767578125,0.6517497295441447,-3.2105651978723944,-2.008331361993948,8.152158,6.4078836,23.543524,6.8851647,-9.033752,-6.703459,6.136477,-6.7639294,-17.236696,8.582057,-10.530165,4.590409,-1.5412593,-1.3732914,9.16623,3.2972007,12.570524,-21.275951,63.293037,11.155045,-2.6558692,8.690441,-0.55459225,-11.204258,30.48723,62.238113,-11.729586,-1.0549217,-5.403851
17,-2.312318801879883,0.057633161544799805,78.5698471069336,0.6484317679784201,-3.229327164972751,-1.9966121001274466,8.1671915,6.4125876,23.531881,6.8861485,-9.03562,-6.7102523,6.1559258,-6.761348,-17.250143,8.587482,-10.533734,4.5867567,-1.5331472,-1.370453,9.186037,3.3063817,12.566467,-21.259214,63.276646,11.149797,-2.6507795,8.692634,-0.5519932,-11.204335,30.486513,62.237514,-11.7601595,-1.0510453,-5.39026
18,-2.323957920074463,0.06130382418632507,78.56988525390625,0.6409881502233163,-3.2615621484921022,-1.9855084615566585,8.194498,6.423253,23.516499,6.886719,-9.036899,-6.719763,6.1884146,-6.7522626,-17.264257,8.590194,-10.534124,4.5798793,-1.5310918,-1.3612105,9.226207,3.3180459,12.561972,-21.231113,63.250977,11.162361,-2.6413856,8.700277,-0.55742985,-11.204239,30.479977,62.239166,-11.798239,-1.0580997,-5.38122
19,-2.3247487545013428,0.06012873351573944,78.56893920898438,0.6337286398002028,-3.293950233657052,-1.9761753314103894,8.223124,6.4334173,23.501307,6.8869653,-9.038088,-6.7277126,6.2200384,-6.743388,-17.27668,8.594988,-10.535735,4.573497,-1.5345988,-1.3514744,9.270328,3.3271852,12.551086,-21.184317,63.23067,11.192029,-2.632679,8.708865,-0.5719128,-11.203998,30.475271,62.24512,-11.841656,-1.0683565,-5.3740067
20,-2.335800886154175,0.050527434796094894,78.56884765625,0.6304237299246707,-3.3141879122116453,-1.9683352807358245,8.241486,6.437565,23.488422,6.8868294,-9.038366,-6.729946,6.2402806,-6.7403393,-17.286802,8.601133,-10.5400915,4.571316,-1.5288377,-1.3471493,9.294366,3.3379734,12.5434065,-21.160158,63.21999,11.213736,-2.626033,8.718419,-0.57975686,-11.20412,30.480885,62.25026,-11.878894,-1.0732137,-5.369262
21,-2.3403408527374268,0.052388858050107956,78.56698608398438,0.6328754773065122,-3.3152714541878017,-1.9612147321278195,8.241979,6.4326406,23.476076,6.8876753,-9.037442,-6.722566,6.2467546,-6.7444477,-17.295797,8.600813,-10.544027,4.5743423,-1.5298861,-1.3493954,9.293362,3.3666408,12.53453,-21.1336,63.207436,11.247009,-2.6213899,8.732095,-0.5976653,-11.205147,30.507431,62.2638,-11.937561,-1.0618834,-5.3587627
22,-2.3381154537200928,0.05246208235621452,78.56919860839844,0.6386539285593995,-3.304224738855685,-1.9559718497122267,8.232096,6.4224033,23.464886,6.8880534,-9.034966,-6.7087264,6.243972,-6.7526245,-17.302711,8.596816,-10.5477,4.5805287,-1.5285729,-1.3570703,9.274017,3.396272,12.5251255,-21.11576,63.207214,11.281278,-2.618854,8.749587,-0.6104749,-11.207308,30.549782,62.271656,-12.005272,-1.039914,-5.3475947
23,-2.326388359069824,0.051050975918769836,78.57272338867188,0.6455834856215564,-3.292708609907893,-1.9524772028453221,8.22361,6.4106784,23.457066,6.888498,-9.034241,-6.694886,6.240026,-6.762665,-17.307405,8.595648,-10.553989,4.589116,-1.5318083,-1.3638848,9.249229,3.4302855,12.511781,-21.09694,63.210487,11.311521,-2.617174,8.764218,-0.62206453,-11.211959,30.612326,62.283844,-12.03451,-1.027772,-5.349353
24,-2.315986394882202,0.05101119726896286,78.57402038574219,0.6508768945185383,-3.2919802482434797,-1.950840607950025,8.22842,6.4023676,23.455162,6.888267,-9.036917,-6.6875753,6.2465796,-6.7704225,-17.309645,8.595553,-10.561136,4.5991373,-1.5186914,-1.3651663,9.239924,3.4523392,12.501076,-21.09081,63.212887,11.327731,-2.616319,8.764173,-0.6198994,-11.216495,30.656633,62.291542,-11.994315,-1.0482998,-5.371546
25,-2.301826238632202,0.052202172577381134,78.57231903076172,0.6538596811560807,-3.3086078693528664,-1.9515718966614675,8.254679,6.3990455,23.463255,6.887534,-9.046058,-6.6906247,6.273445,-6.7739553,-17.30875,8.591492,-10.567967,4.6126413,-1.4987789,-1.3585037,9.246205,3.4677975,12.493535,-21.091787,63.216553,11.330635,-2.6186934,8.737532,-0.60316956,-11.219967,30.712173,62.303295,-11.822137,-1.1198996,-5.4390764
26,-2.298301935195923,0.05791839212179184,78.5682601928711,0.6557739708028697,-3.3352646947320417,-1.954695910820899,8.293765,6.398515,23.478949,6.887875,-9.060654,-6.6999135,6.3128133,-6.775465,-17.304983,8.583468,-10.574075,4.6293173,-1.4985316,-1.3442682,9.250651,3.494166,12.476428,-21.0865,63.222687,11.31704,-2.6231203,8.69727,-0.5821259,-11.229259,30.830587,62.32583,-11.531077,-1.2247406,-5.5459867
27,-2.2915282249450684,0.0603090338408947,78.56578826904297,0.6573997788049165,-3.3624982635734564,-1.9582920760809182,8.333608,6.3986917,23.494415,6.8878098,-9.074866,-6.709807,6.350029,-6.777203,-17.300568,8.581242,-10.582545,4.644922,-1.4771606,-1.3314762,9.26585,3.5070283,12.4672165,-21.090025,63.226963,11.295447,-2.6257498,8.659722,-0.5532061,-11.234674,30.89536,62.33785,-11.257695,-1.3336453,-5.6402698
28,-2.2840118408203125,0.06110185757279396,78.56330871582031,0.658408341622396,-3.380231165167773,-1.9594330822089034,8.360868,6.3981524,23.500742,6.8882904,-9.085553,-6.7147365,6.376763,-6.7787576,-17.299715,8.579482,-10.58877,4.65497,-1.4586425,-1.3231115,9.275886,3.5234418,12.462949,-21.088787,63.225822,11.253864,-2.6220655,8.6544285,-0.5293232,-11.236847,30.918882,62.34044,-11.072039,-1.4078283,-5.689681
29,-2.276597261428833,0.06027808412909508,78.56139373779297,0.6586031724097112,-3.3842021077751494,-1.9577047139940609,8.3706,6.3959994,23.49271,6.88825,-9.089927,-6.711017,6.3879404,-6.780293,-17.304161,8.580567,-10.592669,4.6576085,-1.4614904,-1.3203223,9.266823,3.5568945,12.458484,-21.075762,63.220356,11.170729,-2.60654,8.70846,-0.5141153,-11.238669,30.927843,62.338894,-10.9763155,-1.4332469,-5.682434
30,-2.2726361751556396,0.058858975768089294,78.5606689453125,0.6581391895770279,-3.380286803512045,-1.9545003356093253,8.370155,6.39317,23.476063,6.8880086,-9.090529,-6.702282,6.3904004,-6.781487,-17.311775,8.581805,-10.593507,4.6554065,-1.4768113,-1.3198706,9.251244,3.6004744,12.4533415,-21.049133,63.20794,11.061854,-2.583652,8.799466,-0.5054082,-11.239994,30.915146,62.3316,-10.939102,-1.4300228,-5.6352487
31,-2.2697393894195557,0.05529080331325531,78.56096649169922,0.657490854213151,-3.373247870256714,-1.9500263344479882,8.365345,6.390984,23.458336,6.888582,-9.090893,-6.6942077,6.3889327,-6.7824817,-17.319714,8.584633,-10.595702,4.650698,-1.4960785,-1.3186723,9.235304,3.645139,12.444422,-21.011135,63.194798,10.958652,-2.5609288,8.891174,-0.5009611,-11.24155,30.884205,62.32188,-10.944566,-1.4131602,-5.5765805
32,-2.262256622314453,0.05137203261256218,78.56099700927734,0.6568031857922452,-3.3683947905617937,-1.9443944732865115,8.362418,6.3907332,23.447357,6.889987,-9.09338,-6.692337,6.389201,-6.783015,-17.325304,8.5873,-10.600628,4.645857,-1.5099443,-1.3152841,9.223367,3.6808121,12.438954,-20.979982,63.188583,10.886986,-2.5463116,8.947634,-0.49469185,-11.242113,30.853436,62.30932,-10.971568,-1.3962808,-5.536119
33,-2.25641131401062,0.05185835063457489,78.55815887451172,0.6560877832983709,-3.3645541255120786,-1.9374669913458227,8.361764,6.393004,23.447256,6.88846,-9.096563,-6.6997046,6.390752,-6.781672,-17.326555,8.588142,-10.609018,4.6395226,-1.5178107,-1.3083996,9.215613,3.7041245,12.430853,-20.944029,63.19361,10.859819,-2.5426822,8.953999,-0.48396587,-11.243065,30.810925,62.287697,-11.036893,-1.3761846,-5.520828
34,-2.2473151683807373,0.050947267562150955,78.55699920654297,0.6551043097445122,-3.36001293206911,-1.9290477108839839,8.358544,6.3978987,23.453087,6.889512,-9.102072,-6.7128096,6.3898787,-6.7794757,-17.325428,8.589829,-10.619933,4.6310735,-1.5259458,-1.3007996,9.200823,3.7202373,12.426319,-20.927555,63.212337,10.833953,-2.544583,8.936306,-0.47199357,-11.243615,30.787273,62.265717,-11.114149,-1.3470665,-5.523684
35,-2.2423524856567383,0.05137699097394943,78.55575561523438,0.6547659485958044,-3.357592104778567,-1.9201956622715746,8.359324,6.401872,23.459785,6.888463,-9.107593,-6.727437,6.3939166,-6.777501,-17.324728,8.587568,-10.63055,4.624057,-1.5290688,-1.293318,9.190435,3.7352877,12.422785,-20.907986,63.22987,10.830801,-2.550242,8.904207,-0.4535439,-11.244233,30.754572,62.238407,-11.207157,-1.3193544,-5.52933
36,-2.237060785293579,0.049208641052246094,78.55623626708984,0.6564774040546507,-3.3608865697601504,-1.9121398030376902,8.36731,6.402307,23.462534,6.887934,-9.113859,-6.73936,6.4056163,-6.779017,-17.326708,8.586334,-10.642846,4.622055,-1.5190706,-1.2879375,9.191588,3.74106,12.415462,-20.890419,63.248867,10.840064,-2.556686,8.872837,-0.43412432,-11.246779,30.709383,62.217876,-11.2816,-1.3067205,-5.5309525
37,-2.230435609817505,0.045087508857250214,78.5561294555664,0.662100610144913,-3.3725309386563893,-1.90508043483076,8.386792,6.396163,23.459492,6.8877444,-9.121939,-6.747803,6.426991,-6.787494,-17.332102,8.590342,-10.660329,4.628274,-1.5071934,-1.289775,9.194734,3.751713,12.412695,-20.890757,63.267063,10.836428,-2.5649908,8.84351,-0.42227942,-11.248203,30.705236,62.224678,-11.28886,-1.3140923,-5.537789
38,-2.219021797180176,0.04105956852436066,78.55591583251953,0.6704464109746612,-3.389880912346463,-1.8983529691314711,8.413871,6.386078,23.453398,6.8879924,-9.131339,-6.7548976,6.459613,-6.7990932,-17.340147,8.58786,-10.676742,4.640072,-1.4901756,-1.2949841,9.204814,3.7629197,12.411045,-20.894978,63.282326,10.841114,-2.5756288,8.807941,-0.41301265,-11.249387,30.71093,62.243393,-11.269619,-1.3346038,-5.546706
39,-2.212247371673584,0.042047638446092606,78.55149841308594,0.6778898727197592,-3.4088692772925993,-1.8917895868189056,8.443743,6.376183,23.445927,6.886412,-9.1400585,-6.7608542,6.494667,-6.8096285,-17.349731,8.585011,-10.692431,4.652181,-1.475153,-1.2986994,9.212132,3.7790325,12.408304,-20.905092,63.295776,10.843904,-2.5852191,8.778968,-0.4031097,-11.251845,30.732212,62.26856,-11.233494,-1.3587083,-5.5589924
40,-2.1994142532348633,0.041648779064416885,78.54891967773438,0.6808015850926337,-3.422713767959017,-1.8851317759920714,8.46629,6.3722415,23.43874,6.885821,-9.148185,-6.765794,6.5220504,-6.813847,-17.359564,8.583298,-10.704406,4.659195,-1.4694921,-1.2974504,9.215463,3.7983623,12.404025,-20.909664,63.30479,10.843986,-2.5904822,8.767667,-0.39614156,-11.256094,30.761261,62.29025,-11.20181,-1.3759838,-5.571659
41,-2.192060947418213,0.04077289253473282,78.54743957519531,0.6761254347431356,-3.4290651585683554,-1.8790109642717645,8.4771595,6.378293,23.432798,6.8876057,-9.156007,-6.7700768,6.5398064,-6.8072805,-17.369658,8.578694,-10.708332,4.6571774,-1.4634547,-1.2906786,9.219798,3.8107827,12.401754,-20.907871,63.310925,10.847899,-2.5914161,8.778318,-0.39118296,-11.258045,30.769526,62.30472,-11.194693,-1.3877985,-5.5810795
42,-2.189183235168457,0.0339118167757988,78.54737854003906,0.666188961286299,-3.431317904734625,-1.8729958500095703,8.482694,6.390431,23.426754,6.8884177,-9.1623,-6.773521,6.5505652,-6.793921,-17.380568,8.576769,-10.709443,4.6498466,-1.4666125,-1.2775557,9.22055,3.8318777,12.39787,-20.899055,63.30784,10.853728,-2.5886734,8.806734,-0.38807932,-11.26035,30.784883,62.318302,-11.189117,-1.397158,-5.5915575
43,-2.181413173675537,0.037365302443504333,78.55009460449219,0.6564793531149531,-3.433427663586836,-1.8663457721632566,8.488224,6.402432,23.419529,6.8886385,-9.16784,-6.7755322,6.5628324,-6.7801356,-17.3924,8.571688,-10.708135,4.6432343,-1.4648616,-1.266031,9.223559,3.8435974,12.396418,-20.894754,63.30904,10.858535,-2.5841897,8.837946,-0.3846384,-11.260944,30.791307,62.32958,-11.187899,-1.4029343,-5.5994697
44,-2.174929618835449,0.03787972033023834,78.55164337158203,0.6515402919798855,-3.440001346864659,-1.8577685279249818,8.499318,6.4085507,23.409021,6.8902526,-9.174328,-6.775567,6.581391,-6.7731633,-17.405706,8.569336,-10.711628,4.6433206,-1.4688159,-1.258156,9.225879,3.8611634,12.392328,-20.887299,63.307785,10.862615,-2.5776517,8.861607,-0.38115034,-11.262231,30.810654,62.34138,-11.179964,-1.4021554,-5.6054807
45,-2.166250705718994,0.03802986070513725,78.54920959472656,0.6539011436408886,-3.4548270618548975,-1.8455526455723423,8.522077,6.4048753,23.393078,6.88997,-9.18003,-6.772159,6.6149173,-6.775374,-17.422754,8.561988,-10.716709,4.6551843,-1.4681722,-1.2571821,9.232327,3.8722994,12.38961,-20.888008,63.31196,10.862474,-2.568698,8.873208,-0.37549993,-11.263269,30.834156,62.35251,-11.16081,-1.3930986,-5.6078653
46,-2.1469292640686035,0.03424813598394394,78.54664611816406,0.6611227435795674,-3.474409281445367,-1.8314189794358937,8.550558,6.3955975,23.373636,6.891149,-9.186277,-6.7660484,6.6544175,-6.7843657,-17.441639,8.558581,-10.725916,4.6744223,-1.4631267,-1.2605135,9.242082,3.8778934,12.38765,-20.894007,63.3191,10.861105,-2.5574644,8.878575,-0.36572388,-11.264268,30.858652,62.358948,-11.137762,-1.3778304,-5.606687
47,-2.134349822998047,0.029749039560556412,78.54464721679688,0.6689597674038618,-3.491979710735795,-1.8174659884378117,8.577982,6.385226,23.354391,6.8908296,-9.191739,-6.759844,6.691486,-6.7941236,-17.459375,8.555968,-10.736745,4.6930027,-1.4597483,-1.2647437,9.248173,3.8845189,12.386419,-20.901768,63.32581,10.85604,-2.5460021,8.881887,-0.35526335,-11.265115,30.881401,62.364246,-11.118458,-1.3597059,-5.6040654
48,-2.126816749572754,0.03052459843456745,78.540771484375,0.6734134942462362,-3.502446685438694,-1.8059269613997042,8.59701,6.3794494,23.338816,6.891323,-9.197691,-6.7562723,6.7204227,-6.7991223,-17.472784,8.549606,-10.74553,4.7028418,-1.4653594,-1.2660929,9.244694,3.9008467,12.384752,-20.909996,63.327038,10.843527,-2.5347185,8.887902,-0.34093565,-11.266242,30.907011,62.36372,-11.108632,-1.3403162,-5.6024203
49,-2.119385004043579,0.027211859822273254,78.5379867553711,0.6736217192752398,-3.4988833284546828,-1.7989915230748432,8.600979,6.3792205,23.329132,6.8910456,-9.202957,-6.755176,6.727954,-6.7988253,-17.478062,8.549819,-10.757708,4.698637,-1.4766351,-1.2626456,9.232833,3.9237287,12.383202,-20.90996,63.31941,10.833113,-2.5260606,8.892605,-0.32861987,-11.266438,30.90625,62.358604,-11.136604,-1.3224822,-5.5933733
50,-2.1088345050811768,0.02445966750383377,78.53730010986328,0.6711447662645952,-3.486867756259369,-1.794481976416318,8.595143,6.382794,23.322489,6.8924065,-9.208888,-6.7553725,6.724379,-6.795022,-17.47844,8.550204,-10.770494,4.6857386,-1.4915308,-1.2565167,9.216378,3.9461274,12.381748,-20.90721,63.310585,10.820564,-2.5193439,8.895406,-0.31655312,-11.265698,30.889587,62.34808,-11.186413,-1.3039783,-5.578961
51,-2.0971555709838867,0.02016453631222248,78.53738403320312,0.6685317933101674,-3.4735439316231314,-1.7918533188026404,8.588081,6.386878,23.31919,6.892889,-9.214701,-6.7580585,6.716327,-6.79129,-17.476345,8.554747,-10.785032,4.671922,-1.4958,-1.2484789,9.202276,3.9681928,12.378822,-20.90497,63.294,10.818856,-2.511702,8.895952,-0.29987708,-11.262969,30.845436,62.333164,-11.257291,-1.288915,-5.5617456
52,-2.08902907371521,0.015301658771932125,78.53528594970703,0.66748684745486,-3.4675446009262885,-1.7904422646653677,8.589083,6.389761,23.319284,6.892727,-9.221536,-6.764517,6.718015,-6.7885466,-17.474667,8.553926,-10.795567,4.664909,-1.4883392,-1.241654,9.197444,3.9724934,12.375795,-20.907476,63.287663,10.821481,-2.5057337,8.893033,-0.28465664,-11.259027,30.804255,62.321804,-11.314925,-1.2821375,-5.5497284
53,-2.078144073486328,0.014475908130407333,78.53498840332031,0.6694298554309335,-3.4715947532552107,-1.7906644859409475,8.6000805,6.3909073,23.324879,6.892525,-9.229783,-6.777181,6.732323,-6.7882276,-17.473288,8.547553,-10.80205,4.6685867,-1.4726559,-1.2365602,9.203271,3.9687765,12.373521,-20.909647,63.27935,10.833563,-2.4990087,8.883122,-0.27272722,-11.255128,30.779173,62.316914,-11.349838,-1.2873335,-5.54838
54,-2.0718421936035156,0.014875687658786774,78.5333480834961,0.6730578279141194,-3.4810512380095022,-1.7933565540608452,8.616846,6.3912425,23.335848,6.8921175,-9.239507,-6.794725,6.751065,-6.789732,-17.47018,8.541328,-10.807754,4.678284,-1.4537259,-1.232318,9.214899,3.9606216,12.372602,-20.908579,63.26919,10.852246,-2.4926953,8.867516,-0.26272058,-11.25306,30.768328,62.31456,-11.372293,-1.3013067,-5.553529
55,-2.060340404510498,0.01361522264778614,78.52961730957031,0.6763430758320684,-3.4929107728592457,-1.7957592800453663,8.636157,6.3917656,23.346443,6.890766,-9.2481985,-6.812612,6.772118,-6.790843,-17.46812,8.53569,-10.812692,4.688666,-1.4308678,-1.2288706,9.232202,3.9472866,12.371403,-20.904123,63.260323,10.875248,-2.488415,8.853375,-0.2516764,-11.24983,30.75007,62.30835,-11.395509,-1.315838,-5.557223
56,-2.062751293182373,0.009752062149345875,78.52951049804688,0.677473714946565,-3.5017373737920012,-1.7957079094839492,8.6520405,6.3936,23.351337,6.890336,-9.255506,-6.826267,6.7904315,-6.7899275,-17.469309,8.531385,-10.81687,4.6945133,-1.4158384,-1.2254655,9.246379,3.939633,12.370103,-20.896566,63.252884,10.88813,-2.4888248,8.850108,-0.24345917,-11.246491,30.735033,62.300037,-11.413248,-1.3220439,-5.5537744
57,-2.0595102310180664,0.007891195826232433,78.53089141845703,0.6745243917442759,-3.506048586824356,-1.7929155143449802,8.662878,6.398263,23.34813,6.8898606,-9.259612,-6.834597,6.803566,-6.7847686,-17.474318,8.529945,-10.819446,4.6926537,-1.4104857,-1.2217286,9.254301,3.9394548,12.369041,-20.887722,63.249714,10.885838,-2.494555,8.86496,-0.2386968,-11.244494,30.725779,62.289955,-11.426066,-1.3154751,-5.5386596
58,-2.0476129055023193,0.005317023955285549,78.53340148925781,0.6687744968199417,-3.5107215471635684,-1.7880245050081551,8.673321,6.4054785,23.339453,6.8911133,-9.263061,-6.840114,6.8175297,-6.7763853,-17.482397,8.529654,-10.820902,4.6865315,-1.4119153,-1.219845,9.269887,3.9412174,12.365273,-20.859806,63.246304,10.890751,-2.5056298,8.892018,-0.23494059,-11.238941,30.704151,62.2678,-11.452528,-1.2985742,-5.511175
59,-2.042191505432129,0.004533641505986452,78.53305053710938,0.663586999850681,-3.5143712586591604,-1.7819671009967208,8.683061,6.4114046,23.329401,6.8913674,-9.265256,-6.8433657,6.830323,-6.769425,-17.49193,8.530768,-10.823496,4.6805525,-1.416531,-1.2173246,9.281741,3.9433565,12.361385,-20.834673,63.245396,10.887964,-2.5193021,8.917765,-0.23522826,-11.233835,30.690033,62.25268,-11.465743,-1.2833751,-5.4869056
60,-2.0308094024658203,0.0027274079620838165,78.53299713134766,0.661460851832895,-3.5195553473434975,-1.774919844574499,8.695479,6.4132013,23.321505,6.891049,-9.268523,-6.845112,6.8469796,-6.766885,-17.502073,8.529461,-10.828574,4.6790185,-1.4199927,-1.2150111,9.292749,3.94376,12.358102,-20.816404,63.242725,10.880764,-2.5342436,8.929942,-0.23359539,-11.229597,30.681437,62.240677,-11.461726,-1.277059,-5.4754014
61,-2.0165441036224365,0.002528741955757141,78.5309066772461,0.664398166332903,-3.526855450031125,-1.7669182603250433,8.710534,6.4093833,23.31778,6.891853,-9.273903,-6.8453517,6.86591,-6.772084,-17.511839,8.531419,-10.841179,4.6845393,-1.4201108,-1.2131704,9.303387,3.9405618,12.356003,-20.80699,63.237576,10.865242,-2.5532336,8.919141,-0.2284245,-11.226666,30.67738,62.232372,-11.434781,-1.283267,-5.48242
62,-2.006646156311035,0.0026666715275496244,78.5274658203125,0.6704542805648753,-3.5360869118219656,-1.7577174334008736,8.728519,6.401425,23.315977,6.8917813,-9.279608,-6.8438706,6.8902106,-6.781428,-17.522636,8.528236,-10.854663,4.6942844,-1.4189626,-1.2126698,9.3147955,3.932394,12.353301,-20.800009,63.23455,10.845196,-2.5764828,8.893873,-0.22113839,-11.222359,30.674976,62.22664,-11.39272,-1.296785,-5.502144
63,-1.997168779373169,0.003881502663716674,78.5237045288086,0.6768266474093005,-3.545647163525595,-1.74757437835052,8.746979,6.392696,23.312708,6.891612,-9.285564,-6.84085,6.917017,-6.7909045,-17.5348,8.522076,-10.867556,4.7045703,-1.4177854,-1.2122288,9.324374,3.9209425,12.349739,-20.798233,63.235397,10.825535,-2.5978012,8.868931,-0.2125691,-11.215456,30.674255,62.22168,-11.344585,-1.3130673,-5.525167
64,-1.988300085067749,0.0034425524063408375,78.52245330810547,0.6813177635877062,-3.5540638701325546,-1.737003958327968,8.7628355,6.3861213,23.305008,6.8920693,-9.291554,-6.836667,6.940333,-6.7983203,-17.548216,8.519892,-10.880099,4.711769,-1.4185603,-1.2111436,9.32979,3.9099019,12.346496,-20.79788,63.239685,10.816275,-2.6104312,8.859165,-0.20632397,-11.207607,30.670574,62.219673,-11.304657,-1.327624,-5.541935
65,-1.9762215614318848,0.0009596094023436308,78.52304077148438,0.6829358684122058,-3.560077519722501,-1.7267117770026859,8.775248,6.3822865,23.29141,6.892718,-9.297503,-6.82991,6.9598494,-6.801876,-17.563225,8.519166,-10.890096,4.714529,-1.4226063,-1.2094871,9.334609,3.9051127,12.343685,-20.795673,63.23613,10.823925,-2.6106675,8.868666,-0.19751424,-11.199149,30.663126,62.208035,-11.266039,-1.3427447,-5.5486956
66,-1.9684566259384155,0.00044484881800599396,78.52303314208984,0.6831384863159182,-3.5645190002299296,-1.7164128773003675,8.785413,6.3796916,23.273882,6.893119,-9.302968,-6.8209286,6.9771366,-6.8035836,-17.579447,8.519962,-10.899467,4.7149024,-1.430215,-1.2065006,9.337497,3.9024699,12.3422985,-20.792938,63.231018,10.842215,-2.6035137,8.888978,-0.19004169,-11.194046,30.655445,62.19561,-11.225061,-1.3612456,-5.55023
67,-1.9592119455337524,5.258754754322581e-05,78.5233154296875,0.6827264062943421,-3.569901737376716,-1.704589407441549,8.795902,6.377796,23.25405,6.894132,-9.309063,-6.8125024,6.994493,-6.804863,-17.596972,8.52326,-10.909629,4.7143865,-1.4388347,-1.204478,9.340353,3.9003806,12.340912,-20.786985,63.22604,10.866722,-2.5924203,8.914251,-0.18275683,-11.187849,30.64227,62.18154,-11.202874,-1.3734391,-5.548893
68,-1.94888436794281,-0.00042901732376776636,78.52037811279297,0.6819102055342474,-3.578424677509579,-1.6898957578404334,8.809513,6.3765736,23.233437,6.894253,-9.314949,-6.807639,7.0191913,-6.804782,-17.616417,8.51912,-10.916393,4.7142777,-1.448485,-1.2031804,9.344468,3.898706,12.339435,-20.774311,63.22205,10.891469,-2.581823,8.93757,-0.18029909,-11.179158,30.622015,62.17066,-11.218479,-1.3715937,-5.5454764
69,-1.9427194595336914,-0.0027119717560708523,78.51728820800781,0.6805675892084577,-3.5915753003529582,-1.6710262836110783,8.826897,6.3764353,23.210257,6.8956776,-9.322119,-6.8068933,7.0487595,-6.8047295,-17.638168,8.518843,-10.926557,4.713943,-1.4639357,-1.2023854,9.3482485,3.9028063,12.338657,-20.755802,63.216396,10.910485,-2.5693278,8.962666,-0.18263124,-11.173121,30.602942,62.1607,-11.287864,-1.3465172,-5.539951
70,-1.9371733665466309,-0.005769530311226845,78.51541900634766,0.6786302264217587,-3.6081961366405433,-1.6490004371059608,8.848038,6.3770328,23.184515,6.895612,-9.3289,-6.8087783,7.082635,-6.8038683,-17.662016,8.518552,-10.936695,4.712985,-1.4850622,-1.2033682,9.356292,3.9108803,12.337946,-20.718605,63.206486,10.9396,-2.5544262,8.988684,-0.19360629,-11.164155,30.572687,62.153503,-11.407843,-1.3054181,-5.529332
71,-1.9310189485549927,-0.008755102753639221,78.51444244384766,0.6772360666796832,-3.624299530159477,-1.6265810975528787,8.867872,6.377433,23.160618,6.8966336,-9.336072,-6.8129516,7.114491,-6.804536,-17.685337,8.521827,-10.949049,4.7133827,-1.5048821,-1.2051998,9.359236,3.9157345,12.3378,-20.686996,63.204872,10.960142,-2.5429559,9.011006,-0.20336638,-11.155475,30.55008,62.1489,-11.520047,-1.2629263,-5.520474
72,-1.914475679397583,-0.013097640126943588,78.5156021118164,0.6782090323108706,-3.6375188324731127,-1.6058696890759185,8.885908,6.3754973,23.142557,6.8969326,-9.342831,-6.818823,7.1452065,-6.807252,-17.706682,8.519989,-10.959314,4.717243,-1.5191267,-1.2051585,9.359151,3.9197514,12.338172,-20.67126,63.20317,10.970081,-2.537904,9.023706,-0.20853859,-11.153114,30.538939,62.144123,-11.585323,-1.2331887,-5.5159492
73,-1.9005450010299683,-0.01696711778640747,78.51280212402344,0.6827143329789492,-3.643727436990409,-1.5889184507209448,8.89754,6.370326,23.13528,6.89655,-9.348152,-6.8278894,7.166853,-6.814371,-17.723467,8.517822,-10.969205,4.7266965,-1.524392,-1.2058645,9.355087,3.9171205,12.339118,-20.65919,63.206287,10.973733,-2.5463011,9.013802,-0.20843352,-11.151129,30.530565,62.13909,-11.577362,-1.2275155,-5.516797
74,-1.8876959085464478,-0.014290901832282543,78.51131439208984,0.6899671959965114,-3.649046657528342,-1.5718700390515314,8.908632,6.3622947,23.133232,6.895726,-9.35292,-6.8397956,7.1929126,-6.823503,-17.740297,8.50381,-10.973696,4.740417,-1.5254813,-1.2103349,9.353033,3.9029107,12.341991,-20.644405,63.221294,10.980772,-2.567733,8.983688,-0.20540443,-11.148468,30.522211,62.132786,-11.529606,-1.2352209,-5.519852
75,-1.8776330947875977,-0.01126853283494711,78.51025390625,0.6969439970102702,-3.6536563587656063,-1.556086182497279,8.919753,6.354634,23.132263,6.8942685,-9.357676,-6.8518386,7.215184,-6.8331966,-17.755404,8.496486,-10.981929,4.754079,-1.5241485,-1.2145678,9.348474,3.8900213,12.3457365,-20.637716,63.235767,10.978103,-2.5876837,8.95864,-0.2012816,-11.146505,30.519428,62.128372,-11.481337,-1.2405483,-5.523324
76,-1.8682165145874023,-0.010135774500668049,78.50907897949219,0.7008172182122724,-3.662785435575369,-1.5394786936471903,8.936207,6.349603,23.124828,6.8944674,-9.365553,-6.861329,7.242356,-6.8397875,-17.772352,8.492836,-10.992802,4.763681,-1.5247698,-1.2203152,9.345198,3.8840578,12.352672,-20.633043,63.246155,10.9724045,-2.5981328,8.955276,-0.19946305,-11.144338,30.515982,62.12792,-11.486577,-1.2270368,-5.5216646
77,-1.8585020303726196,-0.010763919912278652,78.50863647460938,0.6998794721447574,-3.6824679250152306,-1.520587314945377,8.965401,6.34833,23.106516,6.894787,-9.377171,-6.867165,7.285101,-6.840746,-17.793123,8.488438,-11.00658,4.767717,-1.5307167,-1.226657,9.350195,3.893701,12.36297,-20.62834,63.240875,10.96371,-2.5926247,8.986966,-0.19800068,-11.142223,30.503603,62.121433,-11.585515,-1.1777507,-5.50771
78,-1.844191312789917,-0.012500419281423092,78.50721740722656,0.6965067685285294,-3.708200633351429,-1.5006323324024673,9.002184,6.3489647,23.081974,6.8957243,-9.391581,-6.8708034,7.3348584,-6.8396964,-17.815605,8.488784,-11.024865,4.768514,-1.5400839,-1.2323524,9.356781,3.9090357,12.369284,-20.625486,63.234756,10.95091,-2.5775912,9.043008,-0.19963685,-11.141726,30.489851,62.118504,-11.739956,-1.1058445,-5.4869466
79,-1.8283019065856934,-0.0134463245049119,78.50596618652344,0.6915529541191292,-3.7317988602855086,-1.4815827928134127,9.036573,6.3512497,23.057127,6.8955817,-9.404833,-6.873942,7.381617,-6.8364196,-17.837725,8.487752,-11.040326,4.767712,-1.5449672,-1.2360249,9.36432,3.924682,12.37664,-20.623415,63.225372,10.94242,-2.5610676,9.099896,-0.20105143,-11.141931,30.472225,62.1191,-11.900319,-1.0390989,-5.4664607
80,-1.8146014213562012,-0.013544759713113308,78.50479888916016,0.6874729192216988,-3.7436756781460487,-1.465804195458283,9.055436,6.3541174,23.037663,6.897325,-9.415364,-6.878099,7.4103537,-6.833639,-17.856382,8.489113,-11.051096,4.766989,-1.5408852,-1.2378702,9.36551,3.9292903,12.382191,-20.623123,63.225468,10.940982,-2.5521493,9.136625,-0.20535424,-11.142792,30.463253,62.135136,-12.005861,-1.0049783,-5.4573426
81,-1.8109530210494995,-0.019107842817902565,78.50135803222656,0.682779735025833,-3.7361758566296817,-1.451242886394412,9.049515,6.359248,23.022886,6.8974233,-9.418946,-6.8858085,7.417482,-6.827467,-17.874908,8.479779,-11.046417,4.7665415,-1.5267948,-1.2347854,9.355646,3.9218748,12.3873205,-20.62455,63.23349,10.952952,-2.5533142,9.145425,-0.21338251,-11.144062,30.466476,62.174778,-12.035665,-1.020532,-5.463688
82,-1.7982257604599,-0.021304920315742493,78.49969482421875,0.6773904138590501,-3.715901109660524,-1.4376984410688594,9.027526,6.3661785,23.01062,6.89693,-9.418844,-6.895413,7.4053993,-6.8201885,-17.892649,8.473875,-11.036545,4.765648,-1.5068759,-1.228718,9.337727,3.907081,12.39214,-20.626537,63.248074,10.973669,-2.559887,9.138976,-0.22462045,-11.145593,30.479973,62.23233,-12.021337,-1.0670702,-5.480569
83,-1.7885993719100952,-0.022769592702388763,78.49879455566406,0.6737047978071082,-3.697780851949903,-1.4293131984133494,9.008003,6.3716965,23.003777,6.897015,-9.417986,-6.902697,7.3947363,-6.8141937,-17.904737,8.465229,-11.025389,4.7644315,-1.4828993,-1.2236127,9.325347,3.895976,12.393816,-20.627182,63.256954,10.994711,-2.5665445,9.129355,-0.23048301,-11.1462965,30.488306,62.277287,-11.9974,-1.1104492,-5.4996204
84,-1.7895033359527588,-0.019199630245566368,78.5035629272461,0.6727795852182478,-3.689013781985718,-1.4305658581244325,9.002539,6.3734083,23.00602,6.8974366,-9.41906,-6.903169,7.389064,-6.8122115,-17.905088,8.463598,-11.023549,4.7623024,-1.4639482,-1.223894,9.317564,3.8824203,12.406475,-20.618883,63.27187,11.003334,-2.5770745,9.110691,-0.25040883,-11.151024,30.526217,62.332043,-11.949289,-1.154,-5.524132
85,-1.785247564315796,-0.01738041266798973,78.50297546386719,0.6785653352664442,-3.703273418201659,-1.4469149166473865,9.028352,6.366549,23.022144,6.897732,-9.422155,-6.890831,7.398492,-6.8202744,-17.886679,8.477653,-11.0394,4.758982,-1.4343106,-1.2280338,9.333751,3.8837855,12.410741,-20.607069,63.26606,11.00537,-2.580365,9.098116,-0.2617986,-11.152683,30.534138,62.350895,-11.936035,-1.1594611,-5.544324
86,-1.7866045236587524,-0.015248582698404789,78.49980163574219,0.6889154426320089,-3.73017750772077,-1.4757151332858838,9.071834,6.354351,23.050232,6.8981814,-9.426163,-6.869811,7.4143653,-6.83436,-17.853369,8.501391,-11.065791,4.754429,-1.3995975,-1.2384764,9.366261,3.8850446,12.418511,-20.580748,63.256058,11.0071535,-2.5840957,9.079669,-0.2705712,-11.155712,30.536001,62.3484,-11.930528,-1.1505903,-5.5644035
87,-1.7791277170181274,-0.01276461873203516,78.49884033203125,0.6990184651415848,-3.759165634122811,-1.5047384111299003,9.1188545,6.3417797,23.078875,6.897373,-9.431112,-6.8502607,7.4358377,-6.847685,-17.819866,8.5188675,-11.090597,4.7508626,-1.362921,-1.2466204,9.399374,3.8890505,12.423114,-20.562958,63.24478,11.004943,-2.5869334,9.064551,-0.27549824,-11.1576395,30.531012,62.340767,-11.91602,-1.137459,-5.5840535
88,-1.7698742151260376,-0.009760454297065735,78.49554443359375,0.704532361829814,-3.778939782802657,-1.5232444277139665,9.152371,6.3345923,23.09811,6.898507,-9.439641,-6.842525,7.454177,-6.8558435,-17.798359,8.528638,-11.109042,4.750392,-1.3363444,-1.249568,9.420996,3.892378,12.4262705,-20.551329,63.24212,11.00145,-2.5936332,9.054294,-0.2782752,-11.158968,30.525473,62.33888,-11.877623,-1.1329578,-5.5990405
89,-1.7605195045471191,-0.007723076269030571,78.4936752319336,0.7031198866146353,-3.785541026194051,-1.5296743262669832,9.170065,6.334574,23.107454,6.8970156,-9.451711,-6.8537474,7.467968,-6.855653,-17.79127,8.52711,-11.118276,4.754345,-1.3236945,-1.2446414,9.430711,3.8999627,12.431896,-20.542553,63.241093,10.999517,-2.606433,9.05157,-0.27947885,-11.160982,30.518776,62.342167,-11.801507,-1.1379584,-5.6078734
90,-1.7551103830337524,-0.005915106274187565,78.49320983886719,0.6976230623927866,-3.7846280857763013,-1.5291009671307563,9.177482,6.3393383,23.111128,6.897419,-9.468348,-6.8768725,7.479896,-6.8506427,-17.792456,8.51814,-11.122571,4.761403,-1.3199844,-1.2344264,9.431503,3.9122374,12.43536,-20.542051,63.24073,10.993716,-2.622075,9.0554085,-0.27689803,-11.161945,30.51287,62.345703,-11.698513,-1.1459476,-5.6135063
91,-1.7478868961334229,-0.0055379015393555164,78.49327087402344,0.6912140489858196,-3.783050088146407,-1.52178873098706,9.182566,6.3448524,23.107943,6.896687,-9.483713,-6.9012995,7.49531,-6.8443313,-17.80086,8.503297,-11.123222,4.769576,-1.3177565,-1.2230283,9.429293,3.928031,12.441842,-20.551353,63.23925,10.984835,-2.6375442,9.058729,-0.2739715,-11.163072,30.505419,62.352425,-11.586284,-1.1605932,-5.616027
92,-1.7366085052490234,-0.004606304690241814,78.49160766601562,0.688192191899584,-3.7838925733196134,-1.509314403083769,9.188321,6.3459773,23.09814,6.895671,-9.49435,-6.9158306,7.5109086,-6.842693,-17.813568,8.495729,-11.127757,4.776685,-1.3239791,-1.2171471,9.430512,3.9341602,12.442845,-20.552868,63.247753,10.976454,-2.6475465,9.054515,-0.27047455,-11.163092,30.502653,62.350662,-11.50403,-1.1781541,-5.6169267
93,-1.7255644798278809,-0.0023367442190647125,78.4898681640625,0.6897499660407688,-3.7938226366497774,-1.483082818297976,9.198705,6.341482,23.072351,6.8956704,-9.498282,-6.9164968,7.5392027,-6.84633,-17.838741,8.488223,-11.134527,4.782978,-1.331025,-1.2210265,9.437778,3.929798,12.447838,-20.557257,63.27017,10.970875,-2.6579003,9.030955,-0.26791057,-11.16329,30.49969,62.351585,-11.427525,-1.217978,-5.60863
94,-1.717182993888855,-0.001678239437751472,78.48683166503906,0.6942106248213497,-3.8053292657274005,-1.4487156200729094,9.206978,6.333599,23.037352,6.897702,-9.499116,-6.909445,7.567415,-6.8542423,-17.870804,8.487479,-11.14509,4.78895,-1.3460028,-1.2299637,9.448622,3.920548,12.45136,-20.557165,63.295986,10.966232,-2.6648164,8.995968,-0.2649079,-11.163301,30.499594,62.34522,-11.369788,-1.2679478,-5.594358
95,-1.7137839794158936,-0.007972612977027893,78.48475646972656,0.6990445861195349,-3.81816620024377,-1.413490951177022,9.216889,6.324714,23.000488,6.897852,-9.497485,-6.8992867,7.596531,-6.8630533,-17.904549,8.488886,-11.156005,4.794781,-1.3648239,-1.2410553,9.460779,3.9099634,12.455272,-20.554913,63.323624,10.960419,-2.6686528,8.964193,-0.2629521,-11.163248,30.500109,62.335022,-11.326561,-1.310758,-5.5827627
96,-1.709370732307434,-0.00783600751310587,78.48455047607422,0.7017127783428366,-3.8279366214902546,-1.3889933737862932,9.226705,6.3184776,22.973879,6.897633,-9.497922,-6.8907213,7.6199994,-6.8690667,-17.929985,8.489582,-11.163031,4.799871,-1.3815941,-1.2475634,9.46892,3.9100397,12.456875,-20.553183,63.33938,10.950957,-2.6664271,8.952716,-0.26276335,-11.163131,30.498692,62.319817,-11.3038,-1.3242221,-5.5832977
97,-1.7022775411605835,-0.005838260054588318,78.48536682128906,0.7007614246582493,-3.842880185620127,-1.3699834866190004,9.243799,6.315732,22.950745,6.8988047,-9.501974,-6.882824,7.6529927,-6.870905,-17.95516,8.482313,-11.1629715,4.8053846,-1.4001099,-1.2551091,9.4865265,3.920117,12.468149,-20.55014,63.336758,10.934618,-2.6550145,8.968258,-0.2576571,-11.16157,30.481558,62.283623,-11.311883,-1.2960664,-5.598826
98,-1.695070743560791,0.0024309565778821707,78.48768615722656,0.6985622809278156,-3.8561748618123075,-1.359829177359888,9.2612095,6.314827,22.935211,6.9002814,-9.507282,-6.874053,7.6769342,-6.8726106,-17.973791,8.486634,-11.165185,4.810355,-1.4156313,-1.2564361,9.499441,3.9435167,12.473739,-20.55366,63.320763,10.912124,-2.634354,9.007899,-0.25303623,-11.159746,30.459719,62.2425,-11.344455,-1.2370882,-5.6269565
99,-1.691634178161621,-0.00043004643521271646,78.48635864257812,0.6959835454466929,-3.8666518289362015,-1.3537892928155595,9.276966,6.314071,22.924215,6.9010663,-9.513196,-6.8669815,7.6977386,-6.873707,-17.988098,8.488429,-11.165613,4.8149667,-1.4238436,-1.2563035,9.509249,3.9662018,12.478481,-20.563667,63.30408,10.889529,-2.6131332,9.049538,-0.24806862,-11.156977,30.427624,62.202835,-11.390246,-1.1732053,-5.656802
100,-1.682069182395935,0.0010707828914746642,78.48455810546875,0.6943372947298255,-3.870755483868798,-1.350044113009648,9.285255,6.3124895,22.917894,6.901629,-9.518632,-6.8642383,7.7102995,-6.8754416,-17.99639,8.487808,-11.166378,4.819083,-1.432984,-1.2558693,9.510638,3.9845378,12.479899,-20.56965,63.29654,10.87231,-2.6005523,9.07338,-0.24593122,-11.155191,30.407707,62.17367,-11.425982,-1.1282359,-5.680318
101,-1.6773982048034668,0.007617018651217222,78.48064422607422,0.6942669350543205,-3.8634788674655405,-1.351630734865899,9.282235,6.309461,22.92024,6.901191,-9.524239,-6.86802,7.707284,-6.8782783,-17.993683,8.484991,-11.167988,4.8223515,-1.418817,-1.2541567,9.501708,3.9985294,12.4824915,-20.59187,63.289444,10.861821,-2.596111,9.073222,-0.23981172,-11.149379,30.359528,62.156425,-11.466033,-1.1119173,-5.6923156
102,-1.6694834232330322,0.01938067562878132,78.48023223876953,0.6948532141610647,-3.8482580557302106,-1.35852048398758,9.270977,6.3058763,22.93008,6.900951,-9.53066,-6.876492,7.6930447,-6.881518,-17.981924,8.481479,-11.17038,4.8249383,-1.4184424,-1.2530972,9.482512,4.014938,12.482165,-20.596937,63.28878,10.853711,-2.6001754,9.057378,-0.24100514,-11.147068,30.344128,62.147923,-11.487592,-1.1094728,-5.702464
103,-1.664163589477539,0.021926667541265488,78.4793472290039,0.6959896701025149,-3.8331276262501497,-1.3640410481832899,9.259883,6.301497,22.93942,6.899975,-9.53669,-6.8859673,7.678423,-6.885833,-17.971016,8.478853,-11.173662,4.827447,-1.4091052,-1.25098,9.462625,4.032785,12.480402,-20.608088,63.28305,10.85418,-2.6048605,9.037306,-0.24218972,-11.143775,30.31571,62.146652,-11.524957,-1.1110986,-5.708028
104,-1.6620063781738281,0.015641935169696808,78.47626495361328,0.6974278119384615,-3.8275342255186526,-1.360437315112552,9.256721,6.297037,22.93906,6.8999844,-9.541883,-6.8930106,7.6778765,-6.8910537,-17.971785,8.476563,-11.177885,4.8306103,-1.4038334,-1.2526718,9.452765,4.0441203,12.477556,-20.619106,63.280804,10.86079,-2.6085567,9.021641,-0.24471083,-11.140412,30.29622,62.143757,-11.570057,-1.103875,-5.71382
105,-1.6624354124069214,0.02037329412996769,78.4778823852539,0.6992575838509115,-3.8354258726597714,-1.3423488735300184,9.265665,6.2916803,22.923672,6.899352,-9.545614,-6.8973804,7.6952043,-6.8984704,-17.990967,8.47975,-11.186128,4.8346853,-1.407417,-1.2607962,9.456418,4.050867,12.475636,-20.624575,63.27943,10.8828945,-2.6103165,9.010909,-0.24871649,-11.138691,30.293018,62.13773,-11.632543,-1.0850505,-5.7173967
106,-1.6547808647155762,0.018065858632326126,78.47575378417969,0.7016028188817975,-3.851942110642016,-1.314050535236279,9.281422,6.285729,22.898033,6.8995237,-9.54856,-6.900675,7.7279625,-6.9065976,-18.022783,8.47836,-11.193227,4.839381,-1.414767,-1.2721729,9.468327,4.0590463,12.473794,-20.630146,63.272984,10.917242,-2.6103892,9.002665,-0.25460973,-11.137347,30.29476,62.13394,-11.713668,-1.0592608,-5.7191105
107,-1.6446490287780762,0.016643889248371124,78.47479248046875,0.7035611926166527,-3.8712472948689274,-1.28591700601493,9.300311,6.280053,22.872272,6.8995743,-9.551242,-6.902227,7.7634425,-6.914209,-18.054611,8.477459,-11.200509,4.8440986,-1.4220488,-1.2832237,9.48253,4.067928,12.469955,-20.635542,63.264275,10.948668,-2.6106844,8.995395,-0.2605317,-11.134808,30.301432,62.12976,-11.790334,-1.0310931,-5.722575
108,-1.641143798828125,0.01819869503378868,78.47358703613281,0.7053251018035792,-3.8844685500449314,-1.269308398193982,9.314786,6.274911,22.858006,6.9004354,-9.555111,-6.901075,7.7852106,-6.9211407,-18.072727,8.482084,-11.208252,4.84794,-1.4213881,-1.292764,9.491942,4.073166,12.468157,-20.637384,63.257023,10.963697,-2.6137447,8.985353,-0.26539895,-11.133837,30.304838,62.12362,-11.840819,-1.0085759,-5.7287736
109,-1.6392728090286255,0.02076253853738308,78.47352600097656,0.7064915481074774,-3.898585947875613,-1.265025563178586,9.333144,6.269897,22.856041,6.8999586,-9.559121,-6.895706,7.8034277,-6.9261074,-18.07585,8.485595,-11.214128,4.850655,-1.4195882,-1.294954,9.504506,4.0911264,12.462024,-20.63681,63.23285,10.955376,-2.6174588,8.975865,-0.27069476,-11.130583,30.310434,62.11127,-11.865439,-0.9786335,-5.752222
110,-1.6395235061645508,0.024128757417201996,78.47283172607422,0.7070972410598517,-3.908627297430998,-1.270926801491042,9.349324,6.2655907,22.86448,6.9002843,-9.564117,-6.8869815,7.813428,-6.928868,-18.067116,8.488316,-11.2175255,4.8519635,-1.4085149,-1.2948705,9.514861,4.101294,12.452025,-20.63217,63.21365,10.933945,-2.6237717,8.964426,-0.274758,-11.125569,30.311588,62.0964,-11.865997,-0.9514039,-5.782094
111,-1.634098768234253,0.028240224346518517,78.47386932373047,0.707889445807279,-3.917054156066819,-1.2798243299388101,9.364532,6.261035,22.875172,6.8995767,-9.568405,-6.8777127,7.819783,-6.9321547,-18.05498,8.493635,-11.222147,4.854351,-1.3949183,-1.2951382,9.523984,4.1097307,12.445013,-20.629034,63.19495,10.907667,-2.6310868,8.952522,-0.27712828,-11.122357,30.308754,62.080254,-11.865744,-0.92735374,-5.805261
112,-1.6319211721420288,0.03426428139209747,78.47298431396484,0.7089965955999158,-3.9239493325318793,-1.2858678752969928,9.377188,6.2558684,22.8815,6.900601,-9.574469,-6.8707285,7.8278294,-6.936156,-18.046698,8.496025,-11.226289,4.859869,-1.3858194,-1.2935882,9.529195,4.122287,12.4317875,-20.626957,63.175884,10.891058,-2.6364021,8.944834,-0.2790292,-11.116764,30.301037,62.06964,-11.88741,-0.9090196,-5.8081813
113,-1.6233749389648438,0.03837084770202637,78.47394561767578,0.7110881244027808,-3.9285758987418538,-1.2878756528445667,9.387483,6.249283,22.881645,6.9005165,-9.5803995,-6.867468,7.8391504,-6.941773,-18.044106,8.491724,-11.228767,4.8712654,-1.3805552,-1.2896291,9.525135,4.130345,12.411753,-20.631353,63.17194,10.887713,-2.641791,8.941184,-0.2836261,-11.109088,30.281126,62.075966,-11.951888,-0.8986052,-5.778523
114,-1.619939923286438,0.04392733797430992,78.47462463378906,0.7138069543387164,-3.9311370731892215,-1.2890886933572512,9.396107,6.2416806,22.87946,6.900581,-9.587228,-6.866179,7.8503475,-6.948625,-18.043022,8.486804,-11.232364,4.886588,-1.3737679,-1.2862679,9.51595,4.133492,12.393091,-20.642614,63.177128,10.88684,-2.6498182,8.936583,-0.2855776,-11.102658,30.251026,62.086758,-12.040115,-0.8957307,-5.72473
115,-1.6135706901550293,0.04899292811751366,78.47352600097656,0.7160676600255312,-3.932530131241519,-1.289095132359287,9.402732,6.2345057,22.875397,6.900715,-9.593926,-6.864928,7.8608856,-6.954956,-18.04351,8.480836,-11.234632,4.9013,-1.3695158,-1.283154,9.507979,4.1470337,12.375937,-20.655231,63.166904,10.88566,-2.6530142,8.937184,-0.28357765,-11.097605,30.22591,62.090733,-12.118411,-0.895488,-5.6695175
116,-1.6073737144470215,0.05463798716664314,78.47135925292969,0.7164988907029866,-3.9334930189558945,-1.2888672242789045,9.407561,6.2301183,22.871384,6.9008026,-9.599628,-6.8619876,7.8655806,-6.959991,-18.043549,8.482739,-11.237562,4.910777,-1.3586848,-1.2783043,9.499355,4.1462626,12.355215,-20.672272,63.17252,10.881082,-2.6534083,8.947096,-0.2808174,-11.091809,30.207985,62.09844,-12.157243,-0.90151095,-5.631567
117,-1.6061452627182007,0.056843917816877365,78.47089385986328,0.7138114777317102,-3.933383104997364,-1.2862885206121877,9.408541,6.229902,22.864126,6.901491,-9.604213,-6.855783,7.8680325,-6.9606876,-18.045841,8.483165,-11.234573,4.9122024,-1.3512073,-1.2782747,9.498511,4.151852,12.348784,-20.679253,63.160095,10.872536,-2.646,8.968424,-0.27897552,-11.090026,30.212538,62.096783,-12.143888,-0.9111852,-5.6165223
118,-1.601271152496338,0.060653023421764374,78.46803283691406,0.7088830182389321,-3.931661186316601,-1.2816611033293295,9.405775,6.2327538,22.853994,6.9022164,-9.607648,-6.8476005,7.8673487,-6.9588113,-18.05003,8.484822,-11.22858,4.9086356,-1.3513262,-1.2708278,9.482337,4.1554875,12.320346,-20.695738,63.168243,10.85403,-2.630779,9.013036,-0.2868827,-11.082239,30.252686,62.123566,-12.08407,-0.9236296,-5.622717
119,-1.5980050563812256,0.06256470829248428,78.4665756225586,0.7037331113202031,-3.9307056833144376,-1.2785502021361508,9.404097,6.2357655,22.846983,6.903043,-9.611374,-6.8398857,7.8645988,-6.9571,-18.052717,8.490326,-11.224368,4.90386,-1.3565936,-1.2629514,9.470809,4.156466,12.287697,-20.695972,63.17793,10.844988,-2.6162431,9.054707,-0.29962975,-11.073331,30.299538,62.150887,-12.002405,-0.94047546,-5.6355915
120,-1.602501630783081,0.06371423602104187,78.46603393554688,0.7004711882680763,-3.9332534918789746,-1.2799105316891455,9.4073715,6.236712,22.848415,6.903593,-9.615497,-6.835238,7.8651714,-6.95695,-18.051561,8.494236,-11.222641,4.901677,-1.3456446,-1.2598209,9.476184,4.1603284,12.278861,-20.697424,63.162514,10.842328,-2.607475,9.072281,-0.29484248,-11.070779,30.312654,62.143406,-11.919803,-0.962635,-5.642129
121,-1.5985112190246582,0.06766285747289658,78.46310424804688,0.699039829815218,-3.940096350676847,-1.2908240076816249,9.418475,6.2351904,22.866583,6.9031014,-9.620134,-6.834699,7.8677063,-6.9582615,-18.041994,8.497463,-11.2243805,4.9036875,-1.3354589,-1.2465409,9.47612,4.1564894,12.246972,-20.69343,63.16935,10.850403,-2.6028905,9.077616,-0.30014607,-11.062041,30.339586,62.156883,-11.791084,-0.9931154,-5.658983
122,-1.602046251296997,0.07511916011571884,78.46099090576172,0.6989560756479094,-3.9502099560113253,-1.3080502402610246,9.434435,6.2323017,22.89593,6.902546,-9.625382,-6.83684,7.873233,-6.9597096,-18.027193,8.496843,-11.226243,4.907569,-1.3080151,-1.2353249,9.490333,4.1481304,12.231919,-20.690092,63.163593,10.865657,-2.603945,9.061213,-0.29387426,-11.0578165,30.339785,62.146317,-11.64274,-1.0325981,-5.67364
123,-1.6072585582733154,0.07844515144824982,78.4592514038086,0.6993186543320934,-3.9608981774709404,-1.3226050305085884,9.450815,6.22861,22.922604,6.9023366,-9.631203,-6.8401275,7.8794484,-6.962448,-18.014456,8.499245,-11.232021,4.911624,-1.2840749,-1.2264198,9.506393,4.148193,12.225165,-20.68783,63.145847,10.878746,-2.6066356,9.040911,-0.28158528,-11.055727,30.335598,62.126038,-11.504282,-1.0701717,-5.687966
124,-1.6105294227600098,0.08212196081876755,78.46089935302734,0.7002577752775899,-3.9702429726100696,-1.3261259180349372,9.464407,6.2240024,22.933327,6.901312,-9.636272,-6.8430924,7.88885,-6.967047,-18.01103,8.501979,-11.239388,4.9140854,-1.2719749,-1.2149198,9.50913,4.1337504,12.192022,-20.685766,63.163578,10.896947,-2.610301,9.037188,-0.27065358,-11.045904,30.322685,62.125458,-11.420498,-1.097282,-5.702776
125,-1.6056835651397705,0.08353887498378754,78.46489715576172,0.7016961689419036,-3.976656210524632,-1.310030795960603,9.471197,6.2184696,22.91688,6.90108,-9.640796,-6.845332,7.902784,-6.973915,-18.024313,8.506868,-11.252327,4.9126406,-1.2902004,-1.2160816,9.505399,4.1486487,12.181582,-20.68299,63.15437,10.906646,-2.6157858,9.044088,-0.24862373,-11.042014,30.315817,62.110275,-11.403435,-1.1102165,-5.7137704
126,-1.5995635986328125,0.08412198722362518,78.4666976928711,0.7033497090431214,-3.9817871659121584,-1.2809747660419086,9.474157,6.2124724,22.882915,6.9022894,-9.646022,-6.84764,7.923516,-6.9814343,-18.049023,8.505753,-11.265282,4.9088335,-1.3256058,-1.2163273,9.487751,4.1623096,12.151947,-20.676474,63.16705,10.927138,-2.6224823,9.065769,-0.22455262,-11.028419,30.298584,62.110573,-11.443544,-1.1135269,-5.726859
127,-1.5870240926742554,0.08813788741827011,78.46646118164062,0.7049657866165714,-3.9867748018816482,-1.2520407924098493,9.476927,6.206502,22.84843,6.9031262,-9.651022,-6.8503385,7.9430356,-6.98945,-18.073347,8.507363,-11.278624,4.906559,-1.3624004,-1.2216853,9.475072,4.184865,12.139014,-20.671915,63.16144,10.929803,-2.630663,9.081717,-0.19994147,-11.021279,30.289646,62.101143,-11.487159,-1.112956,-5.7343364
128,-1.581071138381958,0.09465619921684265,78.46330261230469,0.705526645397273,-3.9927452973714512,-1.2359633758635318,9.482965,6.2018633,22.830011,6.9030457,-9.656244,-6.853627,7.958021,-6.9955506,-18.086502,8.508254,-11.285698,4.909759,-1.3799394,-1.2193013,9.463906,4.1917086,12.111903,-20.66659,63.17213,10.921546,-2.6380847,9.0920925,-0.19164898,-11.005725,30.278746,62.115593,-11.515694,-1.1130362,-5.7360296
129,-1.58095383644104,0.10241395980119705,78.46066284179688,0.7040419926442466,-4.002091935750373,-1.2402135432017467,9.495323,6.200353,22.836805,6.9026875,-9.662842,-6.859702,7.969004,-6.9976273,-18.082096,8.505547,-11.281967,4.9214334,-1.3668623,-1.2149767,9.471035,4.1909785,12.101756,-20.666315,63.166782,10.871491,-2.6498594,9.078318,-0.19190271,-11.000607,30.278957,62.121136,-11.503567,-1.1161313,-5.717599
130,-1.5876919031143188,0.10709378123283386,78.4598617553711,0.7009290692886445,-4.013747373850844,-1.256536875170553,9.512582,6.2008247,22.858307,6.9020944,-9.671283,-6.867606,7.9803514,-6.996275,-18.067568,8.49577,-11.268689,4.938717,-1.3388114,-1.2004098,9.477208,4.168184,12.06959,-20.667929,63.190243,10.80113,-2.6624339,9.062321,-0.21509126,-10.98856,30.28777,62.16038,-11.478234,-1.1171508,-5.692279
131,-1.5871717929840088,0.11254694312810898,78.45858001708984,0.6986320105299766,-4.0216891027049995,-1.2722983978767866,9.524461,6.200135,22.879742,6.9012566,-9.677431,-6.873123,7.9843974,-6.9967937,-18.053438,8.491759,-11.257315,4.957122,-1.3065077,-1.1952895,9.491054,4.1660457,12.066905,-20.667604,63.174015,10.733405,-2.6743457,9.036516,-0.21625008,-10.9878645,30.289312,62.159767,-11.44798,-1.1196892,-5.664875
132,-1.5904642343521118,0.11629282683134079,78.45701599121094,0.6985740359897782,-4.026597300606025,-1.2829870584730438,9.532389,6.19672,22.89518,6.900797,-9.681569,-6.8731236,7.9886417,-6.99959,-18.043467,8.48535,-11.247836,4.9714384,-1.2888265,-1.182806,9.49396,4.148005,12.0388775,-20.668644,63.190277,10.675095,-2.6842756,9.017158,-0.23122679,-10.9825735,30.297733,62.185467,-11.3991165,-1.1267861,-5.65177
133,-1.5902055501937866,0.12173517793416977,78.45582580566406,0.7028548942082716,-4.019608394325329,-1.2766901160477049,9.5225115,6.186967,22.892456,6.9012303,-9.679714,-6.862556,7.9829454,-7.009233,-18.048313,8.483958,-11.245649,4.9816647,-1.2904651,-1.1816704,9.484153,4.145356,12.022921,-20.6633,63.194477,10.649064,-2.695091,8.997021,-0.22042099,-10.979351,30.291231,62.1855,-11.341391,-1.1420358,-5.6600723
134,-1.5881506204605103,0.12131807208061218,78.45707702636719,0.7099982382067547,-4.005348975244609,-1.2620832468022638,9.502892,6.1730194,22.881317,6.9012585,-9.673602,-6.844901,7.971655,-7.022904,-18.060377,8.483417,-11.246354,4.9899096,-1.3019918,-1.1830808,9.465651,4.1419964,12.005824,-20.655565,63.204403,10.638314,-2.7063909,8.976325,-0.2017399,-10.974851,30.277052,62.181282,-11.271299,-1.1626675,-5.681752
135,-1.5864841938018799,0.12887659668922424,78.45743560791016,0.7167118200788546,-3.9912462534168487,-1.2469980340021756,9.483452,6.1596103,22.868248,6.9007106,-9.667263,-6.8271184,7.959692,-7.0361013,-18.073084,8.485327,-11.249169,4.9952693,-1.3156322,-1.186449,9.447449,4.1402774,11.992999,-20.64948,63.21305,10.642183,-2.71294,8.961798,-0.18352237,-10.970559,30.262268,62.17737,-11.2073345,-1.1847903,-5.7053194
136,-1.5850549936294556,0.13324332237243652,78.45599365234375,0.7197800466680911,-3.984775556909967,-1.238985996219681,9.473513,6.151808,22.859598,6.9017463,-9.666411,-6.816187,7.9537454,-7.0440574,-18.08004,8.48817,-11.25195,4.996752,-1.3237652,-1.1848164,9.437516,4.1377807,11.976496,-20.647625,63.221443,10.666504,-2.7065516,8.965995,-0.17603704,-10.964611,30.248257,62.183704,-11.173975,-1.2023863,-5.720824
137,-1.5856143236160278,0.13644354045391083,78.45463562011719,0.7169561646722759,-3.9902737750356736,-1.2430655417212615,9.4802,6.15246,22.858646,6.9014034,-9.672032,-6.816292,7.957318,-7.0435038,-18.077562,8.491849,-11.254564,4.991814,-1.3257177,-1.1795877,9.442681,4.1404467,11.966957,-20.652252,63.219135,10.721322,-2.6802316,8.996944,-0.18188347,-10.961363,30.24351,62.1965,-11.178651,-1.2152126,-5.7234516
138,-1.5832685232162476,0.13597816228866577,78.45370483398438,0.710401176698791,-4.002816765432413,-1.2537748593162934,9.495316,6.158883,22.860998,6.902714,-9.683177,-6.822883,7.9648204,-7.0381613,-18.069918,8.499228,-11.258703,4.981717,-1.325583,-1.1714824,9.456202,4.144616,11.95724,-20.660385,63.213924,10.802588,-2.6395721,9.047729,-0.19152358,-10.958711,30.242826,62.208183,-11.211288,-1.2222868,-5.720701
139,-1.5925655364990234,0.13938011229038239,78.45342254638672,0.7036492963258738,-4.01650763850486,-1.2648297120449215,9.512597,6.1655483,22.863447,6.9028177,-9.693573,-6.830097,7.9756317,-7.0317082,-18.062052,8.503073,-11.261356,4.9712987,-1.3244925,-1.1626761,9.472061,4.1549444,11.950626,-20.66931,63.199417,10.883461,-2.5958254,9.100798,-0.21030249,-10.957084,30.24315,62.23123,-11.250289,-1.2318515,-5.7149334
140,-1.5923800468444824,0.13946664333343506,78.4527587890625,0.7001096540772448,-4.02371949000562,-1.2680345417207608,9.52129,6.166993,22.860752,6.9025607,-9.699169,-6.831761,7.9794106,-7.030673,-18.05965,8.5100565,-11.265116,4.965502,-1.3251123,-1.1576955,9.478474,4.160299,11.942446,-20.677153,63.195297,10.930448,-2.5702698,9.131119,-0.22282402,-10.955365,30.244036,62.25102,-11.275807,-1.2397463,-5.7099824
141,-1.589497685432434,0.14221800863742828,78.45381164550781,0.7007251717652041,-4.02095686416703,-1.2585773942412921,9.516278,6.16167,22.848753,6.9032526,-9.698079,-6.824978,7.978135,-7.035396,-18.067041,8.51245,-11.266188,4.9650354,-1.3287418,-1.1604123,9.474244,4.159642,11.9383745,-20.678286,63.19934,10.933622,-2.5690048,9.129229,-0.22350933,-10.954686,30.2457,62.260933,-11.281347,-1.2489942,-5.7038302
142,-1.5884716510772705,0.146402969956398,78.45327758789062,0.7038672169019529,-4.0115755900610575,-1.2403689420811006,9.502429,6.151972,22.830017,6.903614,-9.692071,-6.81321,7.9726872,-7.043906,-18.081419,8.513365,-11.265903,4.967544,-1.3416045,-1.1640633,9.456183,4.1501904,11.924101,-20.672035,63.22496,10.911474,-2.5824702,9.1115465,-0.22676334,-10.952907,30.258242,62.28374,-11.274909,-1.2609588,-5.696704
143,-1.5839433670043945,0.1483287364244461,78.45513153076172,0.7079993683168412,-4.002678543610085,-1.2232090092816557,9.489061,6.141307,22.813337,6.904254,-9.685755,-6.80085,7.967387,-7.0533757,-18.094336,8.513361,-11.265425,4.9729023,-1.3498185,-1.1714488,9.443463,4.144394,11.918775,-20.665058,63.24011,10.876988,-2.6021745,9.082165,-0.22519447,-10.9527645,30.264467,62.294445,-11.26841,-1.2694831,-5.6904845
144,-1.5859816074371338,0.15196260809898376,78.45650482177734,0.7117114172619409,-3.999509429566973,-1.214913237974609,9.483472,6.1326394,22.805738,6.904363,-9.682127,-6.792017,7.966577,-7.0611706,-18.099691,8.511281,-11.264868,4.9809866,-1.3559583,-1.1771642,9.438932,4.1372256,11.912228,-20.654348,63.256733,10.846749,-2.6216428,9.05247,-0.22705708,-10.953184,30.269577,62.301956,-11.265974,-1.2715977,-5.690139
145,-1.586977243423462,0.15405254065990448,78.45535278320312,0.7157748773335613,-4.00755116443463,-1.2209651417312792,9.492753,6.1257734,22.813278,6.9042773,-9.683654,-6.788384,7.9747953,-7.0672016,-18.092484,8.505495,-11.264625,4.995446,-1.3513919,-1.1809751,9.449869,4.1339645,11.908884,-20.646729,63.26358,10.8144455,-2.6413581,9.018059,-0.2309451,-10.9538145,30.262947,62.301384,-11.276039,-1.2630888,-5.6973763
146,-1.5879740715026855,0.1583167165517807,78.45299530029297,0.7203063859233264,-4.020196260919364,-1.2349238183089248,9.5083475,6.119521,22.829674,6.903349,-9.686999,-6.7873693,7.985339,-7.0728836,-18.078125,8.499394,-11.265576,5.01508,-1.3415663,-1.185806,9.465197,4.134893,11.908141,-20.643219,63.265476,10.776134,-2.6615744,8.98093,-0.23297553,-10.953976,30.256798,62.294594,-11.286758,-1.2491515,-5.709329
147,-1.589550495147705,0.1608780026435852,78.4518814086914,0.724067220525303,-4.033096119660769,-1.2507978940119906,9.523852,6.1149592,22.847485,6.9042745,-9.692078,-6.7873826,7.995178,-7.0777936,-18.06216,8.494495,-11.266664,5.0327272,-1.3305236,-1.1884545,9.483687,4.134454,11.907428,-20.639145,63.267723,10.741714,-2.680592,8.945348,-0.2360899,-10.9542265,30.247116,62.28682,-11.297501,-1.232634,-5.7254066
148,-1.5990102291107178,0.16762210428714752,78.44966888427734,0.7250215959043708,-4.039310895365286,-1.2609449352407878,9.532706,6.112173,22.857924,6.9019966,-9.694807,-6.7867475,7.9990416,-7.0799737,-18.051603,8.491388,-11.266233,5.040918,-1.3136674,-1.1858819,9.506217,4.12062,11.904657,-20.63536,63.274097,10.73332,-2.6911707,8.923012,-0.24083056,-10.956034,30.214369,62.27859,-11.31043,-1.2213755,-5.740064
149,-1.5957965850830078,0.17067816853523254,78.45071411132812,0.7213239044913217,-4.026936242794906,-1.2594424729238918,9.517263,6.1141467,22.853731,6.9025955,-9.695899,-6.784736,7.983346,-7.078776,-18.051727,8.49425,-11.264495,5.033871,-1.3076872,-1.1837069,9.502359,4.110469,11.90267,-20.645596,63.287636,10.748302,-2.680997,8.939646,-0.23798579,-10.957592,30.211807,62.277676,-11.281175,-1.2215782,-5.7607107
150,-1.5917167663574219,0.1701239049434662,78.453369140625,0.7142929080255291,-4.003756130989908,-1.2516872531432168,9.4888735,6.1190567,22.841259,6.9027085,-9.695594,-6.782362,7.9567556,-7.0745783,-18.057682,8.499919,-11.261559,5.016786,-1.3089557,-1.1788437,9.484531,4.1048794,11.900249,-20.664198,63.30185,10.777142,-2.6573653,8.981026,-0.2347475,-10.959612,30.226929,62.284225,-11.224352,-1.2269298,-5.7881994
151,-1.596841812133789,0.17179258167743683,78.45571899414062,0.706935300926548,-3.9805396681069483,-1.2432663885640474,9.45994,6.124826,22.82785,6.9042263,-9.695847,-6.779785,7.9311366,-7.069677,-18.064926,8.503818,-11.257093,4.998753,-1.3139981,-1.174315,9.463697,4.1019244,11.897843,-20.682905,63.31736,10.810449,-2.6319973,9.024073,-0.23327643,-10.961886,30.250551,62.296185,-11.167056,-1.2331663,-5.81518
152,-1.596274971961975,0.1718551516532898,78.45684051513672,0.7026366097217388,-3.968648770838754,-1.2398579582898206,9.445285,6.1278696,22.820744,6.904915,-9.696577,-6.7770615,7.9171987,-7.066721,-18.06845,8.506952,-11.253959,4.9889503,-1.3161862,-1.172001,9.455723,4.0993934,11.8965025,-20.692059,63.32885,10.844314,-2.6162267,9.044095,-0.23356292,-10.963477,30.264723,62.30537,-11.144316,-1.2365571,-5.831846
153,-1.5906455516815186,0.17165708541870117,78.45713806152344,0.7027584814772496,-3.97451964951952,-1.2450945366728758,9.452709,6.1274533,22.823805,6.9042573,-9.69797,-6.773184,7.9216905,-7.0661993,-18.06594,8.506999,-11.251128,4.991688,-1.3130592,-1.1727065,9.461802,4.095873,11.895643,-20.696812,63.342834,10.872988,-2.6133995,9.032719,-0.2355143,-10.965312,30.274797,62.31394,-11.16383,-1.235595,-5.8360043
154,-1.5929311513900757,0.17638932168483734,78.45479583740234,0.7053552873151101,-3.992407117470372,-1.2555264196503377,9.474432,6.1257076,22.832811,6.9048347,-9.701107,-6.768604,7.938782,-7.0668554,-18.05981,8.506337,-11.249392,5.001562,-1.3055867,-1.175682,9.478717,4.086021,11.89536,-20.696035,63.36483,10.904726,-2.6195986,9.000064,-0.23995833,-10.967778,30.28017,62.324306,-11.211155,-1.2337687,-5.831513
155,-1.5998846292495728,0.17814353108406067,78.45166015625,0.7086349797273621,-4.009540392212994,-1.2651899415565535,9.49511,6.123093,22.841764,6.9053993,-9.703561,-6.765058,7.955014,-7.068391,-18.054253,8.505805,-11.248153,5.012674,-1.298934,-1.1793971,9.4969425,4.077683,11.895898,-20.691206,63.380806,10.933796,-2.628201,8.963261,-0.24341498,-10.970358,30.279346,62.331966,-11.268252,-1.2304835,-5.823384
156,-1.6017932891845703,0.17690373957157135,78.45121002197266,0.7102172085488179,-4.014618824477743,-1.2684586741365564,9.501702,6.1210723,22.845005,6.9044757,-9.703039,-6.764601,7.960999,-7.0691223,-18.052822,8.502021,-11.245162,5.0191813,-1.2971634,-1.1831497,9.506324,4.0714006,11.8973055,-20.684708,63.389656,10.95224,-2.635797,8.936738,-0.24426346,-10.973538,30.275911,62.3379,-11.309992,-1.226009,-5.819178
157,-1.609803318977356,0.17690399289131165,78.45258331298828,0.7088767232908183,-3.9985285680914915,-1.2594950704051229,9.481313,6.1206455,22.83716,6.904608,-9.698227,-6.7698407,7.947155,-7.0690293,-18.05996,8.497188,-11.241551,5.0181813,-1.3058491,-1.1856012,9.496102,4.0732546,11.89922,-20.683445,63.385265,10.950836,-2.6410458,8.929204,-0.24062125,-10.976241,30.275707,62.34488,-11.322522,-1.2200905,-5.8231564
158,-1.6116596460342407,0.1760924905538559,78.45377349853516,0.7062996552440811,-3.970379206664115,-1.2431217570503812,9.446769,6.1203465,22.823013,6.903234,-9.689823,-6.7790146,7.9223804,-7.0686674,-18.072054,8.491636,-11.237986,5.0132585,-1.3204504,-1.1886486,9.474778,4.077945,11.90086,-20.68522,63.374664,10.935419,-2.646297,8.931833,-0.23583812,-10.977717,30.277035,62.3553,-11.319447,-1.2126724,-5.8320932
159,-1.6064990758895874,0.1746741384267807,78.45521545410156,0.7036927926506579,-3.9431263621862276,-1.2286920964221164,9.413643,6.1200614,22.81103,6.9024677,-9.683114,-6.787671,7.8993526,-7.0681796,-18.082174,8.483737,-11.233497,5.00821,-1.3329718,-1.1910301,9.453516,4.083591,11.902355,-20.686808,63.36256,10.914339,-2.6501076,8.936521,-0.23014371,-10.978497,30.27818,62.36509,-11.313684,-1.2039549,-5.8417044
160,-1.5989294052124023,0.17626655101776123,78.45448303222656,0.7020160550560722,-3.9259831350861765,-1.2243634091259468,9.393676,6.1199727,22.808422,6.902283,-9.680938,-6.791029,7.881167,-7.068753,-18.08364,8.4829,-11.232174,5.006639,-1.3377458,-1.1916348,9.436809,4.0924587,11.904844,-20.687056,63.35149,10.891856,-2.6502807,8.935987,-0.22326867,-10.979345,30.279112,62.371906,-11.318117,-1.1922953,-5.8494973
161,-1.5978572368621826,0.17984920740127563,78.45539093017578,0.7020590622054753,-3.9327845382173057,-1.2387825142899123,9.404169,6.120023,22.824003,6.9035053,-9.687858,-6.786777,7.8831263,-7.069893,-18.069038,8.484754,-11.232079,5.010336,-1.3266034,-1.1904696,9.443001,4.097988,11.906328,-20.682634,63.33662,10.87007,-2.6379755,8.929043,-0.21704148,-10.979811,30.2757,62.368805,-11.339294,-1.1750894,-5.8543787
162,-1.5989552736282349,0.1843220740556717,78.45319366455078,0.7030862426934336,-3.9538759140205784,-1.2652681164673334,9.433912,6.1199355,22.851408,6.904511,-9.700529,-6.777845,7.8950043,-7.071977,-18.043417,8.492596,-11.235289,5.0170994,-1.3052772,-1.1880807,9.464659,4.103149,11.908419,-20.670876,63.314594,10.849357,-2.6166296,8.917887,-0.20879355,-10.980533,30.264761,62.35476,-11.37444,-1.1528955,-5.8570786
163,-1.593395471572876,0.1868211328983307,78.4539794921875,0.7043712097484177,-3.9746421945569126,-1.2916432153043527,9.46399,6.119314,22.878437,6.9046445,-9.713299,-6.76771,7.9083495,-7.074,-18.018803,8.497405,-11.23724,5.024905,-1.2814597,-1.1859659,9.483137,4.1027837,11.910788,-20.658941,63.312744,10.831093,-2.6068635,8.904665,-0.2039818,-10.981534,30.255796,62.34875,-11.405036,-1.1365631,-5.8573804
164,-1.6000468730926514,0.19339260458946228,78.45464324951172,0.7053468428825906,-3.986789221145246,-1.3097301874116463,9.483505,6.1184473,22.896587,6.9049296,-9.723358,-6.7609444,7.917907,-7.075317,-18.002264,8.498114,-11.23838,5.0317063,-1.2598444,-1.1861055,9.499044,4.095925,11.912786,-20.644085,63.33725,10.827986,-2.6239395,8.886015,-0.19592962,-10.982753,30.249294,62.339394,-11.432275,-1.1279706,-5.855403
165,-1.5969617366790771,0.1952865719795227,78.45710754394531,0.7062572089035816,-3.979818987772883,-1.3118740046430242,9.480202,6.115415,22.897448,6.9049673,-9.728893,-6.756708,7.914509,-7.0776234,-18.001406,8.495905,-11.240262,5.0384903,-1.2454306,-1.189655,9.498505,4.0829215,11.915152,-20.62585,63.407722,10.84459,-2.6831203,8.862627,-0.19113697,-10.984832,30.254362,62.34453,-11.442708,-1.1397864,-5.849552
166,-1.5937520265579224,0.19755536317825317,78.45574188232422,0.7072462927379167,-3.9619959895788233,-1.3048038126887422,9.463591,6.111343,22.887993,6.9043255,-9.730791,-6.7535186,7.906481,-7.0798,-18.010126,8.48737,-11.240446,5.0457783,-1.2428584,-1.2026395,9.484604,4.0384545,11.917444,-20.590363,63.556717,10.877392,-2.7888706,8.827576,-0.18305948,-10.9890995,30.28711,62.350437,-11.432779,-1.1648681,-5.839345
167,-1.5850547552108765,0.1977679282426834,78.4554443359375,0.7072814334591728,-3.9433479979503776,-1.2962303110625235,9.445522,6.1085496,22.877924,6.9047503,-9.732855,-6.7531414,7.899191,-7.0802736,-18.020319,8.475629,-11.238859,5.05114,-1.2485476,-1.2113639,9.469357,4.013551,11.918156,-20.554695,63.68427,10.907813,-2.8907948,8.79669,-0.18147658,-10.993664,30.328587,62.36294,-11.414991,-1.1887071,-5.831692
168,-1.5758020877838135,0.1983807235956192,78.45533752441406,0.7057863992155312,-3.932955450860702,-1.2938978428052585,9.437733,6.108691,22.876556,6.904314,-9.735587,-6.7573643,7.8930354,-7.0795126,-18.022923,8.474461,-11.241106,5.052179,-1.2632275,-1.215882,9.4629135,4.0032682,11.917302,-20.511063,63.772736,10.926985,-2.9699154,8.771394,-0.18357964,-10.999729,30.368198,62.36968,-11.399722,-1.1989721,-5.8271427
169,-1.5737179517745972,0.20054182410240173,78.45467376708984,0.7011694671941857,-3.9364305208145214,-1.301139478707245,9.446237,6.1150403,22.889969,6.904109,-9.74013,-6.7705197,7.8958015,-7.073613,-18.014837,8.476,-11.241977,5.046192,-1.2668444,-1.2110269,9.4706745,4.004227,11.91646,-20.488333,63.808594,10.921968,-3.0146878,8.754521,-0.18063325,-11.002057,30.374365,62.36422,-11.39201,-1.1901075,-5.82841
170,-1.57218337059021,0.20239265263080597,78.45264434814453,0.6942037194271851,-3.9481864082592546,-1.313788328791553,9.4644,6.125521,22.912245,6.903454,-9.745348,-6.790482,7.9049644,-7.0638356,-18.000597,8.476862,-11.240855,5.035195,-1.2717226,-1.2031696,9.488721,4.0072446,11.915142,-20.46195,63.822014,10.908601,-3.04462,8.740068,-0.17706196,-11.003794,30.36823,62.34953,-11.3866205,-1.1693611,-5.83289
171,-1.5754295587539673,0.20181266963481903,78.4486312866211,0.6876532382063828,-3.9593018174082832,-1.3258884196448204,9.481279,6.135551,22.933071,6.902935,-9.749451,-6.8088665,7.910567,-7.0556083,-17.986357,8.483745,-11.242812,5.0236588,-1.2767477,-1.1944208,9.504962,4.01348,11.913439,-20.44055,63.821003,10.889088,-3.0619078,8.729701,-0.17420717,-11.004594,30.354021,62.337345,-11.38638,-1.1472812,-5.8346834
172,-1.5746766328811646,0.20221132040023804,78.4466781616211,0.6846927056332818,-3.9637183846809285,-1.3326171570952983,9.48946,6.1397567,22.94325,6.902805,-9.751533,-6.81742,7.9102526,-7.05295,-17.977402,8.49201,-11.246833,5.016216,-1.2831197,-1.1899142,9.518166,4.020667,11.911635,-20.415148,63.81302,10.883595,-3.0734499,8.721485,-0.16978307,-11.004787,30.330091,62.32251,-11.410276,-1.1275945,-5.825122
173,-1.5719088315963745,0.19975802302360535,78.4469985961914,0.6864891813049806,-3.9538824774270607,-1.3297286407822788,9.479304,6.135538,22.935892,6.902872,-9.749055,-6.810806,7.9023285,-7.0565453,-17.978685,8.489348,-11.246798,5.0143013,-1.2944783,-1.1917975,9.509824,4.0283046,11.909992,-20.398232,63.808388,10.872665,-3.075568,8.720084,-0.165119,-11.004513,30.30998,62.32238,-11.445699,-1.1160839,-5.8017244
174,-1.5680972337722778,0.19913804531097412,78.4468994140625,0.6915821092355422,-3.9357335853806257,-1.3210884265741185,9.457908,6.1260805,22.917564,6.903662,-9.743614,-6.794407,7.88496,-7.065797,-17.985163,8.491183,-11.250052,5.0154386,-1.310055,-1.1972771,9.492759,4.039561,11.90765,-20.378172,63.793743,10.867137,-3.0671933,8.72243,-0.16033025,-11.00362,30.280464,62.32628,-11.502294,-1.1071974,-5.7655916
175,-1.5619693994522095,0.20091210305690765,78.44738006591797,0.6972220142954458,-3.9183546768687556,-1.311863199661559,9.437768,6.1155376,22.89763,6.903878,-9.738635,-6.776266,7.869593,-7.0757456,-17.9926,8.491945,-11.253399,5.0179114,-1.324413,-1.2033377,9.47427,4.0494576,11.905388,-20.36533,63.779476,10.860437,-3.0545852,8.728086,-0.15593322,-11.002457,30.257097,62.33229,-11.553585,-1.1003629,-5.732891
176,-1.5619808435440063,0.20178747177124023,78.44713592529297,0.7006107031812755,-3.9107579825298044,-1.3071175306908964,9.429986,6.1089664,22.885136,6.90396,-9.737116,-6.76432,7.8652782,-7.081727,-17.99673,8.490896,-11.255964,5.0198607,-1.3296696,-1.2061744,9.466772,4.053572,11.902014,-20.358665,63.769485,10.862216,-3.0438619,8.733983,-0.15313847,-11.000659,30.237764,62.335552,-11.591548,-1.095557,-5.7141795
177,-1.5640212297439575,0.20041313767433167,78.44902038574219,0.7005428344278192,-3.9208459506003086,-1.3101815039391402,9.444596,6.1086326,22.883799,6.9049215,-9.74353,-6.761817,7.8777905,-7.0822906,-17.99425,8.4942255,-11.262349,5.0196443,-1.3236371,-1.2038878,9.476036,4.050122,11.90033,-20.363522,63.767673,10.87523,-3.0348108,8.742284,-0.15219197,-10.999936,30.23486,62.334347,-11.605868,-1.0928444,-5.718193
178,-1.5618035793304443,0.20207688212394714,78.44975280761719,0.6983242474794442,-3.9420738312578383,-1.3175103941339616,9.473199,6.111819,22.888083,6.9055467,-9.753914,-6.7642913,7.9014835,-7.0796833,-17.988352,8.500353,-11.271555,5.0185876,-1.3105931,-1.199171,9.496434,4.042749,11.898772,-20.375479,63.76803,10.89645,-3.0243738,8.753428,-0.15144508,-10.999676,30.241367,62.328697,-11.605601,-1.0914454,-5.736956
179,-1.5523451566696167,0.20514366030693054,78.4494400024414,0.6964267467665095,-3.9587022261243368,-1.324200903693617,9.496802,6.1143365,22.893696,6.905778,-9.763735,-6.767279,7.9207973,-7.077251,-17.983381,8.504305,-11.278095,5.019443,-1.2993474,-1.1954759,9.511632,4.036916,11.89814,-20.384695,63.767845,10.915126,-3.0169187,8.760298,-0.1521608,-10.999748,30.24839,62.323883,-11.601459,-1.0924481,-5.755101
180,-1.548937201499939,0.2080152928829193,78.45074462890625,0.6968063202253407,-3.9662436811414956,-1.3275738713877463,9.509542,6.113381,22.898552,6.905148,-9.768842,-6.7677283,7.934774,-7.0770974,-17.982094,8.498537,-11.27689,5.0252223,-1.2858751,-1.1950805,9.514797,4.024587,11.894507,-20.42039,63.777573,10.900248,-3.0115724,8.7686205,-0.14484179,-11.000806,30.274256,62.319313,-11.573077,-1.0940093,-5.7784386
181,-1.5417143106460571,0.20854687690734863,78.45199584960938,0.7024533398574891,-3.9452142593979005,-1.3222328854268959,9.487423,6.1043897,22.898983,6.9046454,-9.765792,-6.7621593,7.9196243,-7.084405,-17.988968,8.489184,-11.268504,5.039985,-1.2874976,-1.2043474,9.499135,4.022787,11.892594,-20.42643,63.770885,10.879987,-3.0167592,8.755134,-0.14143968,-11.001462,30.279295,62.314243,-11.562573,-1.1029835,-5.778704
182,-1.531727910041809,0.21080631017684937,78.45194244384766,0.7108800356049301,-3.9076566358657714,-1.3118977500679287,9.446285,6.090544,22.897915,6.903129,-9.757852,-6.7536054,7.889504,-7.0953345,-18.000881,8.473854,-11.253742,5.061186,-1.2957603,-1.2194717,9.470209,4.0221634,11.8903,-20.4255,63.76242,10.848544,-3.028622,8.730667,-0.13823761,-11.0023,30.282322,62.309776,-11.55028,-1.1168152,-5.7715445
183,-1.5253877639770508,0.21219344437122345,78.45331573486328,0.7186504811591647,-3.8710176968375616,-1.3026022066465046,9.405893,6.0779624,22.897797,6.9022694,-9.749909,-6.7456346,7.859513,-7.1052113,-18.011957,8.457943,-11.237345,5.081046,-1.3041959,-1.2340407,9.44531,4.022391,11.888582,-20.420744,63.750244,10.813205,-3.0403957,8.707424,-0.13742098,-11.002823,30.283182,62.30536,-11.53847,-1.1289973,-5.76303
184,-1.5331037044525146,0.21688756346702576,78.4552993774414,0.7216794984314848,-3.8518408167003124,-1.3001844960048414,9.385363,6.072566,22.900429,6.9027696,-9.746253,-6.7419276,7.842959,-7.109364,-18.01616,8.450568,-11.227123,5.091958,-1.3063533,-1.2414916,9.43774,4.0212035,11.887044,-20.41771,63.738018,10.779606,-3.0458045,8.698273,-0.14012565,-11.003147,30.284412,62.302822,-11.52692,-1.1330768,-5.7598834
185,-1.522568941116333,0.21354877948760986,78.45306396484375,0.7171779826504522,-3.863206562435938,-1.309757132157362,9.400406,6.0786004,22.908695,6.9031157,-9.748049,-6.7450814,7.8515434,-7.1036477,-18.00875,8.452764,-11.223071,5.0907054,-1.2987487,-1.2365465,9.461891,4.015689,11.883729,-20.41698,63.727695,10.738763,-3.0426342,8.7126255,-0.1524081,-11.003464,30.288424,62.306507,-11.512516,-1.1232449,-5.766521
186,-1.5204323530197144,0.2124674916267395,78.45103454589844,0.7081182624541393,-3.889165674308984,-1.3254439349754852,9.431916,6.0913477,22.919344,6.903869,-9.752578,-6.7520995,7.868811,-7.093062,-17.995237,8.465217,-11.224043,5.081807,-1.2832571,-1.2267244,9.495374,4.012034,11.882565,-20.417847,63.71916,10.696367,-3.0357196,8.738089,-0.15835683,-11.003449,30.289528,62.308376,-11.500179,-1.106248,-5.776497
187,-1.5351518392562866,0.2149737924337387,78.44937133789062,0.6979121985145426,-3.921402825521168,-1.3436977647341057,9.472133,6.105822,22.93198,6.904208,-9.758773,-6.760508,7.894699,-7.079917,-17.979324,8.474065,-11.225165,5.06897,-1.2659016,-1.2124337,9.544961,4.002834,11.879696,-20.424397,63.70478,10.653356,-3.0228925,8.771664,-0.17607799,-11.0032835,30.293062,62.31096,-11.483845,-1.0850316,-5.7904983
188,-1.5395864248275757,0.21493712067604065,78.44898986816406,0.69172993084779,-3.927463835575203,-1.3520759220227132,9.481763,6.1139913,22.937605,6.9038873,-9.760287,-6.764712,7.897333,-7.0723705,-17.97221,8.47931,-11.226387,5.0561686,-1.253223,-1.1982878,9.555763,3.9861357,11.866165,-20.44795,63.71114,10.634563,-3.0095391,8.797281,-0.19146477,-11.002207,30.301228,62.32698,-11.464396,-1.075576,-5.8001847
189,-1.5360485315322876,0.2154594510793686,78.44915771484375,0.6911647309176958,-3.8928721219279323,-1.3470712548254562,9.443966,6.1137776,22.933954,6.9044094,-9.756027,-6.7628016,7.862348,-7.0729237,-17.976833,8.480824,-11.228524,5.0410523,-1.2553604,-1.1955774,9.523083,3.9833367,11.861897,-20.46099,63.703537,10.670068,-2.9922779,8.806041,-0.19514795,-11.0020685,30.309229,62.3325,-11.457377,-1.0804764,-5.7988453
190,-1.5304350852966309,0.21520692110061646,78.4503173828125,0.6936702225402374,-3.83263576218001,-1.3340461247894349,9.377455,6.1085014,22.924442,6.9037743,-9.747405,-6.7573833,7.804074,-7.077958,-17.988586,8.480155,-11.231753,5.0226064,-1.2640371,-1.1937456,9.455488,3.9852068,11.853578,-20.488367,63.698784,10.729973,-2.969584,8.812865,-0.19205725,-11.002216,30.328398,62.340546,-11.4467945,-1.0929359,-5.7953095
191,-1.5203564167022705,0.21178564429283142,78.45356750488281,0.6972122498420674,-3.7749961340296085,-1.319574900749758,9.313372,6.102266,22.91424,6.903421,-9.739514,-6.7519455,7.749048,-7.0841117,-18.001337,8.4797325,-11.236379,5.006857,-1.2754774,-1.194858,9.393426,3.9846745,11.85009,-20.506876,63.69385,10.798179,-2.9513378,8.806451,-0.19085303,-11.002574,30.34197,62.34572,-11.438405,-1.1087745,-5.788245
192,-1.5143334865570068,0.21427492797374725,78.45909118652344,0.6997589038672296,-3.7468657726727375,-1.310040552796751,9.282811,6.098207,22.90793,6.903574,-9.737407,-6.7500076,7.725606,-7.08771,-18.00966,8.477029,-11.240327,4.999721,-1.2821611,-1.1929512,9.358238,3.9812593,11.843454,-20.53608,63.693935,10.833982,-2.9415514,8.788987,-0.18936104,-11.003764,30.359913,62.349773,-11.4160385,-1.120486,-5.786422
193,-1.5081087350845337,0.21413441002368927,78.46073150634766,0.7008478000299033,-3.7658762919476794,-1.3096011871802877,9.30621,6.0978656,22.909643,6.903408,-9.743381,-6.753318,7.7495065,-7.0879297,-18.009418,8.476618,-11.246118,5.005828,-1.2825373,-1.1909221,9.37794,3.9641783,11.840381,-20.553871,63.703518,10.8409395,-2.9517412,8.738136,-0.19599366,-11.00469,30.365797,62.34941,-11.382826,-1.1293808,-5.7850766
194,-1.5106587409973145,0.20912957191467285,78.456787109375,0.7021153860501963,-3.806757753737676,-1.313838094140183,9.354523,6.098488,22.915648,6.9048796,-9.755443,-6.7591634,7.79417,-7.087456,-18.00425,8.4791565,-11.253628,5.0208235,-1.2850362,-1.1908033,9.419515,3.9548006,11.83997,-20.56046,63.705696,10.837141,-2.9708424,8.66899,-0.2015368,-11.004831,30.366928,62.34179,-11.348494,-1.1369096,-5.7818136
195,-1.510107398033142,0.21040025353431702,78.45169067382812,0.7027652882491352,-3.8645867171136263,-1.3173147489485828,9.422763,6.09941,22.920517,6.9042134,-9.768446,-6.7667527,7.8623557,-7.0852466,-18.000597,8.472913,-11.258109,5.038039,-1.2816012,-1.1886833,9.48419,3.9271183,11.839802,-20.574883,63.7223,10.815722,-2.9973912,8.5943365,-0.21581265,-11.005284,30.367483,62.34017,-11.306324,-1.1437242,-5.7830973
196,-1.5115412473678589,0.2140684276819229,78.4468994140625,0.7031781998721567,-3.894858929333064,-1.3139555658181121,9.457879,6.099436,22.918066,6.9039707,-9.775724,-6.772482,7.899933,-7.0851493,-18.003372,8.471029,-11.262504,5.049201,-1.2828835,-1.190587,9.520195,3.9069645,11.839754,-20.587725,63.73622,10.793281,-3.0156343,8.561435,-0.22534932,-11.005789,30.365625,62.337917,-11.288456,-1.1492381,-5.783039
197,-1.5135267972946167,0.21485379338264465,78.44684600830078,0.7031629695795922,-3.8911097690148875,-1.2988175809255482,9.45205,6.098326,22.902956,6.9035134,-9.774819,-6.7770348,7.9050283,-7.0869665,-18.0174,8.465759,-11.262382,5.051396,-1.2904094,-1.1963358,9.522319,3.89704,11.839031,-20.59923,63.746964,10.768142,-3.0251088,8.588003,-0.22966935,-11.006466,30.360458,62.338654,-11.301962,-1.1538073,-5.7836466
198,-1.5093705654144287,0.21331723034381866,78.44953918457031,0.7027795212737595,-3.8681077427763686,-1.2762141048401008,9.422815,6.0962152,22.879728,6.902786,-9.7691345,-6.7813106,7.892811,-7.0895653,-18.038528,8.456795,-11.258914,5.0489726,-1.3042144,-1.204768,9.503435,3.898107,11.83656,-20.604004,63.752373,10.740891,-3.028614,8.652653,-0.23064283,-11.007285,30.353024,62.342335,-11.338306,-1.1573803,-5.784404
199,-1.4986406564712524,0.20938152074813843,78.45245361328125,0.7025997754731794,-3.8410932437598344,-1.2543336856452814,9.388988,6.094052,22.85726,6.9034133,-9.76393,-6.7839017,7.872563,-7.0935116,-18.059172,8.454969,-11.258252,5.0457973,-1.3211097,-1.213343,9.481191,3.902841,11.83261,-20.60138,63.754948,10.717683,-3.0307364,8.719533,-0.23419885,-11.008222,30.346966,62.345955,-11.381674,-1.1585791,-5.784279
200,-1.4959547519683838,0.21025249361991882,78.45392608642578,0.7032957589390291,-3.8252262468070297,-1.2413097530214012,9.36939,6.0921316,22.844093,6.903405,-9.761301,-6.783466,7.8602138,-7.0967307,-18.07259,8.455259,-11.25869,5.0457287,-1.333467,-1.218525,9.471648,3.898921,11.827422,-20.596508,63.761795,10.701972,-3.035844,8.752714,-0.23951936,-11.009337,30.341894,62.34084,-11.416244,-1.15621,-5.7811923
201,-1.4927775859832764,0.2112947702407837,78.45315551757812,0.705258740801318,-3.8277875079608346,-1.241697240176523,9.372685,6.0909457,22.84507,6.904123,-9.764234,-6.777682,7.8669143,-7.0970564,-18.075752,8.448356,-11.255662,5.0518675,-1.3353981,-1.2204775,9.481079,3.8875022,11.82574,-20.59532,63.769196,10.689577,-3.0467587,8.730954,-0.24626797,-11.009857,30.339859,62.323704,-11.432361,-1.1489846,-5.774234
202,-1.4936959743499756,0.21128875017166138,78.4522476196289,0.708282823427096,-3.839981201477711,-1.2502854110185109,9.388445,6.089724,22.854671,6.9044,-9.769572,-6.7678328,7.8799796,-7.0973787,-18.072691,8.44458,-11.254133,5.061571,-1.3299388,-1.2209927,9.501372,3.8641741,11.8248005,-20.594883,63.78491,10.679566,-3.0623217,8.67642,-0.25447857,-11.0104885,30.336676,62.29809,-11.441484,-1.1374823,-5.76347
203,-1.494637370109558,0.2108888477087021,78.45167541503906,0.7106958650718269,-3.851881432869711,-1.26043359102051,9.404414,6.089278,22.86607,6.9041634,-9.774672,-6.758424,7.891195,-7.096781,-18.067804,8.442813,-11.25362,5.0696006,-1.3238149,-1.2203856,9.523635,3.8391275,11.824373,-20.595493,63.798534,10.675437,-3.0744004,8.621411,-0.2625098,-11.011717,30.330708,62.268883,-11.453035,-1.1251948,-5.7532263
204,-1.497955083847046,0.2105967402458191,78.44969177246094,0.7109803382801705,-3.8543757255193425,-1.2658229080097874,9.40894,6.090734,22.872412,6.9039025,-9.777262,-6.753953,7.892977,-7.0949063,-18.065887,8.442344,-11.253651,5.07067,-1.3236682,-1.2206391,9.534667,3.8193552,11.82437,-20.596748,63.81027,10.680618,-3.0774083,8.596254,-0.26656333,-11.012626,30.32375,62.242027,-11.47718,-1.1133934,-5.746799
205,-1.501173496246338,0.20811814069747925,78.45052337646484,0.7077735475486819,-3.8417443012982866,-1.2629543377388746,9.39477,6.095257,22.870674,6.904355,-9.776779,-6.757259,7.8814206,-7.0905004,-18.069815,8.440988,-11.253353,5.060756,-1.3345816,-1.2202418,9.528296,3.8151143,11.824253,-20.598307,63.812584,10.702558,-3.0652068,8.621392,-0.27035704,-11.013456,30.319195,62.229176,-11.519817,-1.1057471,-5.7444224
206,-1.5038374662399292,0.20469997823238373,78.45169067382812,0.7019601333722251,-3.8154777358861276,-1.2548194836913795,9.364369,6.10223,22.863712,6.903308,-9.772162,-6.765115,7.855594,-7.084176,-18.0775,8.441869,-11.253965,5.04333,-1.3487207,-1.2186474,9.512217,3.8186197,11.8226595,-20.604658,63.804535,10.741739,-3.0387716,8.685037,-0.26856938,-11.015718,30.300035,62.21022,-11.593507,-1.0959424,-5.7399197
207,-1.49991774559021,0.20309898257255554,78.45277404785156,0.6961601484539434,-3.791259101180248,-1.2473584736478411,9.335968,6.1091847,22.856876,6.9041505,-9.768668,-6.7737517,7.830674,-7.078179,-18.083406,8.445006,-11.256013,5.0251093,-1.3655928,-1.2156959,9.494043,3.8278375,11.820405,-20.610092,63.79074,10.77783,-3.0118325,8.7447815,-0.2658629,-11.017742,30.282776,62.194157,-11.656857,-1.0874584,-5.7426023
208,-1.4922088384628296,0.20180682837963104,78.4534683227539,0.6921630796957936,-3.7775858958619004,-1.245064444572471,9.320907,6.1138597,22.854223,6.9035034,-9.764984,-6.779108,7.8149347,-7.0733852,-18.083416,8.44792,-11.257672,5.0124273,-1.3810209,-1.2124273,9.485307,3.8360312,11.8182,-20.611021,63.768017,10.7986965,-2.992275,8.770603,-0.25895518,-11.019671,30.26159,62.16529,-11.697496,-1.0770135,-5.7554545
209,-1.4914268255233765,0.20044776797294617,78.45283508300781,0.6907924380556761,-3.781685916028083,-1.2517486242955034,9.327288,6.1154714,22.858656,6.903922,-9.763287,-6.779958,7.814881,-7.0700564,-18.073107,8.450664,-11.259568,5.007376,-1.3773763,-1.2055732,9.500218,3.828939,11.814207,-20.613897,63.74436,10.79721,-2.9845123,8.749874,-0.23669435,-11.025667,30.202312,62.10112,-11.731121,-1.0540115,-5.776752
210,-1.493874430656433,0.2016758769750595,78.45338439941406,0.6908835115257759,-3.7963100767428863,-1.2639978279228246,9.3466625,6.115547,22.867313,6.9035516,-9.76111,-6.7785673,7.8234777,-7.067573,-18.05573,8.453665,-11.261541,5.0063925,-1.3901387,-1.2019861,9.516864,3.831428,11.813497,-20.607729,63.716366,10.766419,-2.9834843,8.703803,-0.22438385,-11.027295,30.17784,62.041214,-11.726762,-1.0221463,-5.814674
211,-1.5016214847564697,0.2030314803123474,78.45246124267578,0.6917465609390945,-3.811965692110404,-1.275451473298447,9.3670225,6.1142774,22.87508,6.9028306,-9.759529,-6.775847,7.8339915,-7.065963,-18.039509,8.455049,-11.262532,5.007501,-1.3916428,-1.1981813,9.54375,3.8299422,11.814091,-20.59337,63.666943,10.756168,-2.9833326,8.637957,-0.19356011,-11.032063,30.112831,61.955025,-11.729145,-1.0018822,-5.8516865
212,-1.499155879020691,0.2004726380109787,78.45281219482422,0.6926955128705033,-3.8173847067848623,-1.2796339386008755,9.3731985,6.113254,22.876724,6.9040456,-9.759029,-6.772637,7.8375664,-7.065183,-18.032398,8.453592,-11.262023,5.0087266,-1.4005194,-1.1951364,9.555308,3.834803,11.815568,-20.58043,63.594086,10.76807,-2.9790802,8.568003,-0.1600441,-11.036099,30.053057,61.88293,-11.703907,-1.0195153,-5.886064
213,-1.5051937103271484,0.1997714638710022,78.45555877685547,0.6938061345364742,-3.8080920656292747,-1.2724519076503704,9.360004,6.11167,22.868896,6.9035645,-9.757532,-6.768881,7.829385,-7.0667415,-18.038765,8.452022,-11.260864,5.010925,-1.3984106,-1.1900964,9.558385,3.841776,11.822706,-20.575527,63.485928,10.839693,-2.9712915,8.477259,-0.111700945,-11.048987,29.948267,61.815723,-11.655354,-1.1015828,-5.9053216
214,-1.4986588954925537,0.2010907083749771,78.4560775756836,0.6949702603764262,-3.7905276941346764,-1.2590523805839262,9.335911,6.110072,22.855991,6.902873,-9.756383,-6.7643466,7.819266,-7.0679893,-18.053453,8.440802,-11.254608,5.014432,-1.4059619,-1.1871138,9.547149,3.8612783,11.831561,-20.572508,63.352448,10.940066,-2.9602554,8.371473,-0.053469606,-11.062737,29.859375,61.754025,-11.563803,-1.2231525,-5.9269466
215,-1.4950995445251465,0.20132789015769958,78.45719909667969,0.6967030662556081,-3.7696740499889594,-1.2427047733354446,9.306224,6.107771,22.84014,6.9036884,-9.7554865,-6.7590747,7.802402,-7.071734,-18.071035,8.437408,-11.25216,5.0176015,-1.4264393,-1.1836591,9.526977,3.891547,11.84092,-20.555756,63.192646,11.029634,-2.944874,8.274964,-0.001064633,-11.076182,29.775553,61.700844,-11.471259,-1.3480296,-5.9513254
216,-1.4977372884750366,0.20108091831207275,78.45885467529297,0.6983807731857892,-3.752650851616954,-1.229073811704387,9.281127,6.1050196,22.826302,6.9039845,-9.753393,-6.7536025,7.7909575,-7.073901,-18.08583,8.427654,-11.246818,5.0181847,-1.4287215,-1.1806496,9.525544,3.9142113,11.860305,-20.52907,62.99091,11.074702,-2.9200838,8.205775,0.083168805,-11.103746,29.639963,61.57827,-11.447691,-1.43395,-5.970787
217,-1.5016162395477295,0.20146358013153076,78.4613265991211,0.6998412712694202,-3.750613180178565,-1.2266640451934074,9.275437,6.1021123,22.822123,6.9041104,-9.751428,-6.746932,7.7863674,-7.0764785,-18.088451,8.429638,-11.248483,5.0147014,-1.439298,-1.1763858,9.5296,3.942604,11.874654,-20.468098,62.76578,11.052432,-2.8813882,8.178364,0.15881473,-11.125962,29.508028,61.44384,-11.475106,-1.464749,-5.998495
218,-1.507226586341858,0.20312802493572235,78.46174621582031,0.7015974705143143,-3.7576580804320514,-1.2308933246641545,9.280946,6.0990205,22.823622,6.9047875,-9.749974,-6.73928,7.78578,-7.079554,-18.084002,8.439124,-11.254549,5.0085,-1.4391164,-1.1717348,9.551617,3.9679277,11.89414,-20.383646,62.50557,10.997036,-2.8336535,8.171905,0.25190374,-11.158604,29.337986,61.26157,-11.555198,-1.464236,-6.02173
219,-1.509344220161438,0.20286142826080322,78.46441650390625,0.7037073879912853,-3.750634198422208,-1.2242237852365592,9.266963,6.094222,22.81471,6.9051967,-9.745409,-6.7322655,7.775526,-7.083359,-18.090359,8.440255,-11.255449,5.0023932,-1.440458,-1.1669902,9.570975,3.9969118,11.928228,-20.305773,62.200848,10.9092865,-2.7833185,8.186008,0.38159734,-11.220106,29.149012,61.016953,-11.661061,-1.4491824,-6.044751
220,-1.5097936391830444,0.20526671409606934,78.4650650024414,0.707233433749405,-3.7057780478385407,-1.1887973348435856,9.202259,6.085586,22.778652,6.904849,-9.734778,-6.7273817,7.734236,-7.0908685,-18.124384,8.4323635,-11.249355,4.9993625,-1.4898468,-1.166714,9.536822,4.027189,11.950613,-20.231783,61.903625,10.801809,-2.7423801,8.233416,0.48111242,-11.261471,29.00501,60.835167,-11.76039,-1.4416159,-6.090461
221,-1.5116796493530273,0.2049655169248581,78.46752166748047,0.7112935565025083,-3.6036697480615594,-1.1039259767457006,9.059965,6.0737305,22.697468,6.9043746,-9.716216,-6.730843,7.6558237,-7.101087,-18.207552,8.398672,-11.229391,5.002629,-1.5830501,-1.1726557,9.44506,4.0634146,11.982223,-20.187923,61.57857,10.660937,-2.7105849,8.327137,0.59841096,-11.315806,28.877243,60.64354,-11.874621,-1.4373492,-6.1523743
222,-1.4997944831848145,0.20307716727256775,78.47280883789062,0.7162750773423675,-3.4611108519578555,-0.9843209582074832,8.863082,6.0586376,22.58463,6.903855,-9.692285,-6.7397995,7.549161,-7.114277,-18.32493,8.34987,-11.20129,5.009922,-1.708223,-1.1819576,9.312098,4.1089687,12.025964,-20.165121,61.220703,10.481443,-2.6846123,8.458261,0.73424655,-11.386743,28.762114,60.433846,-12.002717,-1.4305323,-6.225105
223,-1.5002449750900269,0.19734860956668854,78.4786605834961,0.722922032842773,-3.31056506247559,-0.8659321301896992,8.654657,6.040795,22.470686,6.9031014,-9.664572,-6.7428484,7.4300895,-7.129404,-18.440027,8.300862,-11.16866,5.015349,-1.8418336,-1.1922996,9.17252,4.14623,12.065215,-20.133377,60.86248,10.302676,-2.6651595,8.590332,0.85666835,-11.448353,28.65368,60.24575,-12.12646,-1.4286526,-6.3075676
224,-1.5107101202011108,0.19220291078090668,78.48536682128906,0.7326177683528272,-3.1840266307509983,-0.7849368857457294,8.477625,6.019426,22.386793,6.9019427,-9.635213,-6.7281427,7.3086915,-7.1486716,-18.515432,8.277819,-11.1414,5.013328,-1.9458386,-1.2012084,9.070017,4.1618295,12.101422,-20.077454,60.515396,10.156297,-2.6536539,8.679458,0.96211714,-11.505502,28.528332,60.073456,-12.226563,-1.4416841,-6.3891926
225,-1.535192847251892,0.18846355378627777,78.49298858642578,0.7453805052505895,-3.100330921300046,-0.7616436993848631,8.356128,5.995737,22.347355,6.901941,-9.605466,-6.6888976,7.198359,-7.170204,-18.53102,8.281189,-11.11774,5.001829,-1.9838712,-1.2058616,9.054953,4.170644,12.162857,-19.9891,60.1233,10.053084,-2.6593611,8.692776,1.1098063,-11.612422,28.350832,59.807148,-12.294866,-1.4692383,-6.4560657
226,-1.5652213096618652,0.19482919573783875,78.50359344482422,0.7609510762727333,-3.0384829244121674,-0.7730988520923877,8.263066,5.969241,22.333883,6.901574,-9.573131,-6.6324973,7.0882816,-7.195072,-18.509962,8.302783,-11.095677,4.9840245,-2.0046284,-1.2099935,9.062758,4.151892,12.199976,-19.86239,59.76716,9.985204,-2.679856,8.675497,1.2126282,-11.687228,28.17069,59.606136,-12.342834,-1.5102135,-6.535234
227,-1.5956250429153442,0.2006228268146515,78.51402282714844,0.7782407850885882,-2.9727305696927098,-0.7907039149955588,8.163297,5.9404545,22.327541,6.9019613,-9.538653,-6.5688763,6.965862,-7.2220273,-18.481493,8.328283,-11.070529,4.9619603,-2.0295188,-1.2140349,9.063517,4.110774,12.2264805,-19.738348,59.43421,9.925359,-2.6916087,8.652731,1.2922633,-11.743364,27.997332,59.444622,-12.381271,-1.5594321,-6.6180515
228,-1.6249444484710693,0.20885306596755981,78.5261001586914,0.7962599119911141,-2.877065337760604,-0.7861014062969501,8.023538,5.9090443,22.309969,6.9013352,-9.501284,-6.508062,6.816684,-7.2510333,-18.474432,8.347431,-11.039806,4.937971,-2.0735216,-1.215907,9.044299,4.059617,12.268379,-19.654,59.081394,9.850503,-2.6708417,8.641122,1.4053639,-11.828828,27.822588,59.232407,-12.426329,-1.6096286,-6.6847463
229,-1.6581518650054932,0.21760568022727966,78.53517150878906,0.8149151933858434,-2.7540214441382824,-0.7415049022855964,7.8438263,5.8746195,22.268555,6.90102,-9.465905,-6.455127,6.654317,-7.2817965,-18.507538,8.354823,-11.00898,4.914112,-2.1506937,-1.2165408,8.991452,4.011246,12.330977,-19.631842,58.68232,9.727564,-2.5865731,8.657971,1.5518503,-11.948255,27.677053,58.983994,-12.473517,-1.6698842,-6.720322
230,-1.6883149147033691,0.22034434974193573,78.5461654663086,0.8342457486900675,-2.61466025414831,-0.6753836616496308,7.640344,5.8375363,22.215454,6.8992095,-9.430256,-6.404239,6.4828396,-7.3133693,-18.562035,8.352302,-10.97487,4.888724,-2.256345,-1.219987,8.90999,3.9512122,12.391319,-19.63659,58.27968,9.586853,-2.4591632,8.693705,1.6833676,-12.052935,27.557732,58.770844,-12.524244,-1.7395973,-6.7447076
231,-1.7259836196899414,0.22624461352825165,78.560791015625,0.8542258611057488,-2.444649753952497,-0.6134707187346817,7.3972745,5.799715,22.169529,6.898741,-9.3859415,-6.3486896,6.2691236,-7.34558,-18.610676,8.350087,-10.927409,4.8583097,-2.3688576,-1.2202175,8.810092,3.8680072,12.457225,-19.66164,57.91181,9.458931,-2.3445327,8.722231,1.8178178,-12.1591015,27.428669,58.546772,-12.564601,-1.8028777,-6.784097
232,-1.765998125076294,0.23335577547550201,78.5803451538086,0.8736664137110663,-2.230253701389922,-0.5810926646971895,7.101374,5.7627325,22.148907,6.8970704,-9.321738,-6.28216,5.9877667,-7.375097,-18.627666,8.343389,-10.849436,4.8194895,-2.493485,-1.2138172,8.679124,3.7375011,12.499224,-19.67139,57.670452,9.391215,-2.298467,8.730291,1.906324,-12.22253,27.28738,58.373047,-12.58362,-1.8431774,-6.883213
233,-1.8136597871780396,0.2449103146791458,78.60132598876953,0.8905734868099254,-1.9563350553189214,-0.5910303392345506,6.7371798,5.728556,22.161648,6.8938737,-9.2341,-6.201254,5.6119323,-7.4007425,-18.597923,8.341994,-10.741166,4.7709956,-2.561978,-1.1877513,8.546463,3.5581038,12.574142,-19.728357,57.514076,9.388718,-2.351787,8.683335,2.0696537,-12.341097,27.052114,58.056866,-12.574362,-1.8442745,-7.0351233
234,-1.8693318367004395,0.2605765759944916,78.62291717529297,0.9071175455475294,-1.6345862720141573,-0.6277922115728596,6.3155932,5.6942377,22.196604,6.8906927,-9.128931,-6.109887,5.1647844,-7.4248705,-18.538477,8.339192,-10.607265,4.7150297,-2.6686258,-1.156656,8.365263,3.338105,12.608088,-19.744385,57.499058,9.466006,-2.4707305,8.620198,2.151601,-12.395935,26.848717,57.838802,-12.53728,-1.8164132,-7.2585893
235,-1.9353101253509521,0.26910915970802307,78.64183044433594,0.935640031089325,-1.289203924228021,-0.6763096876469714,5.863864,5.6460853,22.245459,6.8855104,-9.010072,-6.0119314,4.6707387,-7.463961,-18.464233,8.35591,-10.463218,4.6518188,-2.7583957,-1.1307784,8.184715,3.076639,12.648144,-19.79561,57.526855,9.534222,-2.609532,8.549914,2.2564628,-12.459405,26.586796,57.587658,-12.498197,-1.7932667,-7.4862413
236,-2.03999662399292,0.2986176013946533,78.65463256835938,1.0192114510658712,-0.9314881844770685,-0.7326930634788493,5.3954797,5.5378795,22.315575,6.877202,-8.881558,-5.904839,3.752113,-7.699907,-18.322868,9.264466,-10.768608,4.590095,-2.8330524,-1.1576434,8.012986,2.7994435,12.710717,-19.886726,57.5225,9.52544,-2.7231858,8.490536,2.4005055,-12.550445,26.27182,57.290417,-12.462657,-1.8053796,-7.6738176
237,-2.118927240371704,0.31184178590774536,78.64093017578125,1.1283851221211936,-0.5551882560675352,-0.7777971589611771,4.837217,5.4237056,22.379631,7.006884,-8.817099,-5.7892046,2.5320795,-8.060477,-18.150152,10.780953,-11.3733,4.524594,-2.9930224,-1.217783,7.8159704,2.531497,12.751798,-19.915766,57.506542,9.446309,-2.7917862,8.443319,2.4536357,-12.596562,26.023092,57.113327,-12.42645,-1.8602685,-7.840516
238,-2.214993476867676,0.3317618668079376,78.61426544189453,1.2364313315291404,-0.16343764689185156,-0.8158219342603912,4.0856624,5.380525,22.425526,7.5207586,-8.943669,-5.6675215,1.233383,-8.437371,-17.971268,12.415778,-12.023775,4.4490004,-3.1253433,-1.2776785,7.637524,2.2346463,12.832335,-20.01123,57.460754,9.28802,-2.8393848,8.387526,2.5613852,-12.670942,25.689817,56.86538,-12.406441,-1.9450461,-7.973045
239,-2.332390785217285,0.35308200120925903,78.57738494873047,1.352082197934295,0.20724621766632362,-0.8538848254825641,3.0693173,5.4533277,22.45297,8.689696,-9.409902,-5.546904,-0.07411839,-8.826594,-17.777468,14.107796,-12.692475,4.3704615,-3.3070002,-1.3494259,7.487155,1.9400481,12.914193,-20.085869,57.42503,9.121047,-2.896854,8.355834,2.645046,-12.724874,25.359264,56.65054,-12.36466,-2.0464382,-8.099901
