unveil-humanoid-operators/unveil-humanoid-operators.github.io/feature-analysis-animation/data/trajectories/looking_heavy.csv
Frame,root_translateX,root_translateY,root_translateZ,root_rotateX,root_rotateY,root_rotateZ,left_hip_pitch_joint_dof,left_hip_roll_joint_dof,left_hip_yaw_joint_dof,left_knee_joint_dof,left_ankle_pitch_joint_dof,left_ankle_roll_joint_dof,right_hip_pitch_joint_dof,right_hip_roll_joint_dof,right_hip_yaw_joint_dof,right_knee_joint_dof,right_ankle_pitch_joint_dof,right_ankle_roll_joint_dof,waist_yaw_joint_dof,waist_roll_joint_dof,waist_pitch_joint_dof,left_shoulder_pitch_joint_dof,left_shoulder_roll_joint_dof,left_shoulder_yaw_joint_dof,left_elbow_joint_dof,left_wrist_roll_joint_dof,left_wrist_pitch_joint_dof,left_wrist_yaw_joint_dof,right_shoulder_pitch_joint_dof,right_shoulder_roll_joint_dof,right_shoulder_yaw_joint_dof,right_elbow_joint_dof,right_wrist_roll_joint_dof,right_wrist_pitch_joint_dof,right_wrist_yaw_joint_dof
0,0.07883279770612717,2.368784189224243,77.72447204589844,0.12834615319074588,-3.2343446137324174,-90.44113084302776,-2.434,5.8612986,6.732765,18.99712,-13.307188,-6.937157,-2.616287,-6.4161215,-20.367964,20.102299,-14.751466,2.5189846,-2.6027985,-2.1157262,3.67694,-6.815604,17.376537,-60.40364,72.21015,-13.994753,-0.4720264,8.228968,-2.403047,-10.984239,30.109648,64.36053,-0.8892699,1.211583,-2.6404688
1,0.07751837372779846,2.359520196914673,77.72382354736328,0.12919099512499757,-3.240318967822103,-90.44223470908359,-2.4178321,5.863629,6.7349024,18.996702,-13.317963,-6.9394093,-2.6011531,-6.4137287,-20.367027,20.102404,-14.758678,2.5272048,-2.6033115,-2.1258488,3.6748717,-6.813749,17.382008,-60.401047,72.20782,-13.931618,-0.5087411,8.203154,-2.3927715,-10.984488,30.10563,64.3549,-0.9163407,1.1891868,-2.6204312
2,0.07497328519821167,2.351792335510254,77.72311401367188,0.13026239692316469,-3.2471903947318324,-90.44313362875909,-2.3998048,5.8656716,6.7370768,18.994654,-13.328256,-6.9416876,-2.5852616,-6.411846,-20.36628,20.103374,-14.766158,2.5362434,-2.6005263,-2.1381629,3.6755025,-6.8101673,17.393858,-60.39378,72.19831,-13.855404,-0.54720193,8.173408,-2.3749464,-10.985557,30.089796,64.340775,-0.9538292,1.1638658,-2.5958824
3,0.07206118851900101,2.3444879055023193,77.7210693359375,0.13120114036745956,-3.2526897161230033,-90.44454415238552,-2.3845987,5.8681192,6.7393627,18.994978,-13.339061,-6.9438486,-2.5707974,-6.409373,-20.365154,20.103296,-14.773388,2.5436223,-2.5959833,-2.1494846,3.6778023,-6.807684,17.411009,-60.390575,72.18108,-13.792877,-0.5806382,8.148861,-2.3600233,-10.987502,30.074694,64.32538,-0.9866007,1.1446282,-2.5760412
4,0.0668715164065361,2.3324949741363525,77.72093963623047,0.1320055720382425,-3.2545487528918153,-90.44740070711781,-2.3739786,5.8709974,6.7421064,18.995947,-13.348412,-6.9457493,-2.563287,-6.4071836,-20.362425,20.10757,-14.783493,2.5470753,-2.590445,-2.160658,3.6766062,-6.80881,17.419662,-60.388474,72.17232,-13.755088,-0.60561156,8.135964,-2.35232,-10.988541,30.071522,64.31417,-1.0019636,1.1400882,-2.5691392
5,0.06302002817392349,2.3246371746063232,77.71994018554688,0.13473342927457185,-3.2515581436699086,-90.45323852144661,-2.370037,5.87406,6.746296,18.998808,-13.355708,-6.946797,-2.5647075,-6.405166,-20.35671,20.115147,-14.795705,2.5452154,-2.5824358,-2.1726153,3.6749332,-6.811853,17.431396,-60.38793,72.15602,-13.753016,-0.6168757,8.138452,-2.351469,-10.989677,30.078003,64.29886,-1.0007823,1.1581675,-2.5780678
6,0.060243334621191025,2.317674160003662,77.71945190429688,0.13639213492250055,-3.2449621336159713,-90.46110429030384,-2.370998,5.8773055,6.751447,19.003199,-13.36173,-6.9472194,-2.5731907,-6.403344,-20.348597,20.126326,-14.81019,2.5395544,-2.5697331,-2.184884,3.6717694,-6.8191457,17.436705,-60.387733,72.1439,-13.772232,-0.61878264,8.152204,-2.3565412,-10.990008,30.088652,64.28389,-0.9875837,1.1919738,-2.5983462
7,0.05708475783467293,2.3069820404052734,77.71986389160156,0.13895384235903516,-3.237134358089497,-90.46824484382998,-2.3741024,5.881326,6.7557216,19.008648,-13.368265,-6.948168,-2.5824723,-6.401014,-20.341703,20.137197,-14.825343,2.5319788,-2.5632064,-2.1959956,3.6673157,-6.82337,17.44465,-60.386074,72.12748,-13.80482,-0.61641693,8.171625,-2.3663106,-10.990025,30.111725,64.27385,-0.9637738,1.2299284,-2.6260493
8,0.04879710450768471,2.3026466369628906,77.71854400634766,0.13922875678954427,-3.2302979752808287,-90.47193005246167,-2.3753722,5.886404,6.7575,19.012354,-13.375672,-6.9506454,-2.5871825,-6.397129,-20.339073,20.145168,-14.839887,2.5242922,-2.557511,-2.2038608,3.6659095,-6.8300877,17.45079,-60.384163,72.11451,-13.830829,-0.6151126,8.190366,-2.3740122,-10.9893675,30.127779,64.26835,-0.9440994,1.2597524,-2.6535501
9,0.0476953350007534,2.290405750274658,77.71798706054688,0.136459484020759,-3.2250107304555433,-90.46953551407005,-2.3748415,5.8939266,6.7545567,19.015059,-13.385258,-6.954741,-2.5840936,-6.3904057,-20.343945,20.14735,-14.8537445,2.5161943,-2.559115,-2.2055397,3.666695,-6.8344197,17.453648,-60.382427,72.10068,-13.851761,-0.6147716,8.213537,-2.3809888,-10.988708,30.140015,64.27386,-0.9241365,1.2801615,-2.686277
10,0.04139425978064537,2.282728433609009,77.7148666381836,0.13132782881058944,-3.220276535901773,-90.4633455255512,-2.375529,5.9037824,6.748396,19.020887,-13.398226,-6.96003,-2.57693,-6.38142,-20.353792,20.146734,-14.867962,2.5068934,-2.5684474,-2.2027721,3.669259,-6.8367476,17.458305,-60.378513,72.085045,-13.875297,-0.61354136,8.242039,-2.3914926,-10.98662,30.159569,64.28908,-0.89762706,1.2970849,-2.7260644
11,0.0333133228123188,2.274376392364502,77.71330261230469,0.12616794564768422,-3.2153977554963724,-90.45694243678598,-2.3747704,5.9124193,6.7424016,19.023682,-13.409806,-6.9665875,-2.5704439,-6.3736334,-20.363518,20.147762,-14.882556,2.4978628,-2.5822608,-2.2009428,3.6700659,-6.8355784,17.464577,-60.36983,72.06789,-13.897982,-0.6111655,8.26587,-2.4057717,-10.98254,30.183739,64.31084,-0.8723022,1.3091457,-2.7624693
12,0.02810121513903141,2.2621986865997314,77.71268463134766,0.12493855215463102,-3.209996060252976,-90.4538575211361,-2.3724403,5.917259,6.7394853,19.022587,-13.4180155,-6.9746857,-2.569509,-6.370379,-20.368355,20.15567,-14.898366,2.4906778,-2.5839384,-2.2033424,3.6705272,-6.839097,17.4681,-60.36253,72.05397,-13.91342,-0.6071083,8.274854,-2.417124,-10.979724,30.197668,64.32551,-0.85653085,1.3157213,-2.7835183
13,0.026093050837516785,2.255730390548706,77.71122741699219,0.12814090757817106,-3.2031178613000613,-90.45687158694625,-2.3697119,5.917224,6.7418294,19.019306,-13.423101,-6.9855866,-2.578816,-6.3735423,-20.364897,20.176144,-14.917054,2.4841492,-2.5713766,-2.213643,3.6678817,-6.8489437,17.470343,-60.357803,72.046524,-13.924147,-0.60026556,8.260399,-2.424274,-10.977954,30.205189,64.33067,-0.84927815,1.3180058,-2.7831461
14,0.0246981680393219,2.247545003890991,77.71269989013672,0.13472262533270363,-3.1954051066878932,-90.46333644425913,-2.36566,5.9128385,6.7474747,19.01193,-13.424727,-6.9986277,-2.5959113,-6.3824334,-20.35635,20.208063,-14.939679,2.4781353,-2.5533917,-2.2291036,3.6648629,-6.860924,17.473166,-60.348347,72.03983,-13.928834,-0.5907451,8.229665,-2.4366455,-10.975993,30.2153,64.33633,-0.8411033,1.3155514,-2.76907
15,0.02133036032319069,2.236560344696045,77.71290588378906,0.14215750797324164,-3.1881528266560344,-90.46949138808074,-2.3608873,5.90744,6.7531123,19.00463,-13.426379,-7.0115232,-2.611151,-6.391683,-20.347586,20.237091,-14.959747,2.4751053,-2.5357816,-2.244309,3.6613305,-6.870605,17.475082,-60.336124,72.03277,-13.9299965,-0.5818948,8.1970415,-2.4464061,-10.975108,30.22186,64.33983,-0.8446636,1.3065599,-2.7504134
16,0.019065625965595245,2.2273714542388916,77.71073913574219,0.1478593259781771,-3.1829492553586567,-90.47190397722085,-2.3554356,5.9035807,6.755951,18.999643,-13.430506,-7.02196,-2.6192746,-6.398818,-20.342707,20.258694,-14.976568,2.4776692,-2.524025,-2.2558281,3.660061,-6.8779073,17.476574,-60.324493,72.02557,-13.932975,-0.5770569,8.176009,-2.4530168,-10.9749775,30.226566,64.34134,-0.8618685,1.2889521,-2.7374017
17,0.016691701486706734,2.2155611515045166,77.7088851928711,0.15212099927976291,-3.180715606840173,-90.47025081027002,-2.347691,5.900958,6.7566338,18.995766,-13.43701,-7.030144,-2.6166553,-6.4028106,-20.341812,20.267227,-14.986401,2.4903429,-2.516647,-2.2637851,3.661963,-6.8813324,17.477222,-60.312405,72.01852,-13.93528,-0.57737637,8.170503,-2.454109,-10.975456,30.225939,64.34092,-0.9010564,1.2572247,-2.7318718
18,0.012792844325304031,2.2041308879852295,77.70733642578125,0.155341919674793,-3.179674355439633,-90.46601930795345,-2.3398812,5.8991365,6.755903,18.993982,-13.445739,-7.0371165,-2.6081393,-6.405125,-20.343199,20.267618,-14.991443,2.5104496,-2.51095,-2.2689524,3.6634986,-6.8827887,17.477211,-60.308052,72.01181,-13.942129,-0.5811118,8.173128,-2.4526742,-10.97571,30.225262,64.33766,-0.9494034,1.219823,-2.729114
19,0.011396617628633976,2.193413019180298,77.70825958251953,0.1582720521697309,-3.1806779520738395,-90.45902870622231,-2.3300874,5.897469,6.7522817,18.99277,-13.455118,-7.0413756,-2.5945773,-6.4069395,-20.347792,20.265287,-14.996373,2.5299292,-2.5135942,-2.2728152,3.670208,-6.881426,17.476885,-60.287495,72.00296,-13.939609,-0.5865269,8.180725,-2.4491947,-10.976815,30.218016,64.335655,-1.0165347,1.1699694,-2.7283235
20,0.007394296117126942,2.182500123977661,77.7044906616211,0.15766485169899205,-3.1796162527547254,-90.44891709692591,-2.32514,5.8979287,6.743311,18.997042,-13.466783,-7.041818,-2.5810325,-6.406492,-20.356913,20.262356,-15.003768,2.5401187,-2.5169969,-2.274766,3.6691813,-6.877946,17.476542,-60.27822,71.99416,-13.943592,-0.5924984,8.189763,-2.4426527,-10.977536,30.215433,64.332146,-1.0625912,1.1338264,-2.731902
21,0.0015016583492979407,2.171149492263794,77.7022933959961,0.15481358750954333,-3.1770785367498777,-90.43320894219144,-2.3260639,5.9009295,6.725348,19.010038,-13.482115,-7.0352664,-2.564924,-6.403222,-20.374083,20.257488,-15.014374,2.5369391,-2.5271375,-2.274141,3.6613715,-6.870816,17.476175,-60.27436,71.983055,-13.952922,-0.6007706,8.203413,-2.4317272,-10.978201,30.2152,64.32752,-1.093391,1.1068842,-2.7421248
22,-0.0004727622726932168,2.159946918487549,77.70462036132812,0.14775499618899618,-3.1737419785505745,-90.4127062881934,-2.3304794,5.9058833,6.700476,19.028303,-13.499949,-7.0233645,-2.5460024,-6.39776,-20.397333,20.250645,-15.027004,2.5254476,-2.542768,-2.2710402,3.6484725,-6.8601937,17.475906,-60.275467,71.96997,-13.966298,-0.611322,8.222181,-2.4160795,-10.978591,30.216772,64.321266,-1.1157146,1.0845351,-2.7580075
23,-0.00416641915217042,2.1421170234680176,77.70323944091797,0.14002221628396688,-3.1695706463434914,-90.39233894560697,-2.337162,5.912405,6.6750536,19.04941,-13.518965,-7.0119905,-2.527925,-6.390907,-20.421186,20.244059,-15.040764,2.511227,-2.5552096,-2.2684975,3.6290882,-6.8457055,17.475544,-60.28145,71.95889,-13.979951,-0.6199041,8.239763,-2.3932843,-10.979241,30.221178,64.313126,-1.1278722,1.0684154,-2.7754216
24,-0.008819849230349064,2.123875617980957,77.7025375366211,0.13474661439325525,-3.1652389435273918,-90.37745606595712,-2.3422253,5.9179726,6.6567607,19.067894,-13.536625,-7.006731,-2.5160635,-6.386187,-20.438099,20.24457,-15.0568285,2.5001318,-2.556729,-2.2691457,3.6144714,-6.8373075,17.475098,-60.28468,71.95213,-13.986631,-0.6222839,8.247985,-2.3761845,-10.97986,30.223175,64.30637,-1.1313258,1.0593828,-2.7874503
25,-0.011345828883349895,2.117305040359497,77.70113372802734,0.1328398699108165,-3.1610533901437683,-90.3707402962768,-2.3451817,5.922544,6.6488657,19.082865,-13.552185,-7.010605,-2.5117877,-6.3839536,-20.44539,20.252886,-15.075029,2.4928396,-2.5441868,-2.2738516,3.6068344,-6.8377037,17.474785,-60.283894,71.95159,-13.98465,-0.6149116,8.24244,-2.369366,-10.980062,30.223032,64.303185,-1.1267238,1.0601099,-2.7905264
26,-0.013870598748326302,2.1066534519195557,77.69881439208984,0.13097927458571582,-3.1555071581439997,-90.3682518669801,-2.3501074,5.928252,6.6460104,19.098728,-13.567632,-7.0203032,-2.5133445,-6.3816853,-20.447771,20.265574,-15.094641,2.4863348,-2.5206425,-2.2821004,3.5988295,-6.842517,17.47443,-60.28033,71.95652,-13.972104,-0.59826267,8.22569,-2.3577871,-10.980136,30.221523,64.29331,-1.1135786,1.0701492,-2.790224
27,-0.02126733958721161,2.0956268310546875,77.69550323486328,0.13057944757414075,-3.1500931601476645,-90.36749014067193,-2.3542802,5.9335732,6.6452518,19.114689,-13.583536,-7.031414,-2.5169888,-6.3803635,-20.448112,20.282515,-15.116395,2.4813845,-2.496438,-2.2909992,3.594168,-6.8479733,17.473083,-60.267605,71.96372,-13.95343,-0.5826667,8.207761,-2.3485482,-10.980279,30.216564,64.28329,-1.0969402,1.0836979,-2.7882006
28,-0.023528549820184708,2.078580617904663,77.69477081298828,0.1297375683863184,-3.145539647166419,-90.3645142051076,-2.354948,5.9384327,6.641993,19.126263,-13.598146,-7.03976,-2.514143,-6.3777666,-20.451181,20.2913,-15.134532,2.4785717,-2.4802787,-2.2956138,3.5884275,-6.846539,17.472809,-60.264183,71.966225,-13.952051,-0.5772965,8.200816,-2.3458261,-10.980299,30.21541,64.28513,-1.0728474,1.0931469,-2.7893467
29,-0.02707436867058277,2.0599958896636963,77.69503021240234,0.12659172349566303,-3.141742515136733,-90.3590989589266,-2.3541002,5.943967,6.635356,19.138716,-13.614929,-7.044079,-2.5055952,-6.373232,-20.457193,20.295029,-15.150953,2.4796271,-2.4727385,-2.2961535,3.5816011,-6.8389497,17.472109,-60.25588,71.96555,-13.9583645,-0.582031,8.202179,-2.3409343,-10.980243,30.212646,64.28843,-1.0334322,1.0994698,-2.7949662
30,-0.031105950474739075,2.04573917388916,77.69376373291016,0.12147051908249398,-3.138604379638726,-90.35196855928135,-2.352507,5.9512496,6.6261563,19.152243,-13.633535,-7.0468407,-2.4912221,-6.365526,-20.465878,20.29125,-15.164246,2.4835942,-2.479386,-2.2898943,3.5739527,-6.81799,17.469969,-60.22861,71.96006,-13.958823,-0.5957301,8.211198,-2.3421671,-10.980377,30.212511,64.30109,-0.9872965,1.104214,-2.8021946
31,-0.03493595868349075,2.0345685482025146,77.69026184082031,0.11817212380876228,-3.135222416152167,-90.34468995431929,-2.349441,5.956882,6.617246,19.162537,-13.650397,-7.049047,-2.4773781,-6.359622,-20.474434,20.288975,-15.178165,2.487141,-2.4836082,-2.2854288,3.566734,-6.80016,17.468521,-60.215786,71.95607,-13.972499,-0.61234605,8.22346,-2.340888,-10.980401,30.21259,64.31078,-0.94225574,1.1107097,-2.8101704
32,-0.0383383110165596,2.019622802734375,77.68858337402344,0.11587642326598037,-3.130105590437654,-90.33737427622087,-2.347493,5.961205,6.608813,19.171211,-13.665167,-7.052336,-2.4663382,-6.355501,-20.483395,20.288074,-15.192196,2.4864118,-2.493342,-2.281569,3.5571558,-6.7772098,17.466223,-60.195084,71.95221,-13.97674,-0.62756824,8.236214,-2.343172,-10.980175,30.219624,64.32037,-0.9171297,1.1239821,-2.8143606
33,-0.038496822118759155,2.005574941635132,77.68684387207031,0.11507385568753391,-3.123465055652896,-90.33065835698895,-2.346145,5.9628515,6.601719,19.177181,-13.676475,-7.0572596,-2.460865,-6.355316,-20.492186,20.293812,-15.209043,2.4779384,-2.4917173,-2.2832901,3.550989,-6.765205,17.46533,-60.193027,71.95026,-13.982302,-0.6387081,8.246883,-2.3394053,-10.979675,30.221102,64.3184,-0.91831076,1.1440033,-2.8139389
34,-0.041123196482658386,1.9903424978256226,77.68621826171875,0.11526813599413456,-3.1153819752236127,-90.32304532047092,-2.3459306,5.9634104,6.594037,19.18206,-13.685754,-7.0631504,-2.4569585,-6.356888,-20.502615,20.30017,-15.226073,2.4645736,-2.4913635,-2.2867177,3.539233,-6.7454424,17.464437,-60.19385,71.94837,-13.983402,-0.65126336,8.261391,-2.3315477,-10.978685,30.224638,64.3116,-0.9387532,1.1749038,-2.80977
35,-0.044188618659973145,1.971532940864563,77.68862915039062,0.11646920811406772,-3.1062508593479157,-90.31608650722391,-2.3461137,5.9628444,6.5874467,19.18538,-13.694565,-7.068869,-2.45519,-6.359525,-20.511816,20.307682,-15.2430105,2.4520671,-2.4897704,-2.2913594,3.5267515,-6.7267494,17.463808,-60.19684,71.947716,-13.988064,-0.66339993,8.275665,-2.3221622,-10.977557,30.227762,64.30181,-0.96509576,1.2066857,-2.8059576
36,-0.051987458020448685,1.9578590393066406,77.6868896484375,0.1190626401882533,-3.096904131271245,-90.3103921836704,-2.344883,5.961997,6.582536,19.185617,-13.703716,-7.07345,-2.4546652,-6.3621597,-20.51779,20.316149,-15.259416,2.4462974,-2.4846573,-2.2962515,3.5170677,-6.712695,17.463503,-60.19773,71.94892,-13.998245,-0.6751857,8.287422,-2.3151443,-10.97692,30.228497,64.29238,-0.9817908,1.2328664,-2.8057885
37,-0.054811518639326096,1.9427329301834106,77.68404388427734,0.12344212141451566,-3.086255864581972,-90.30500980616684,-2.344299,5.9582105,6.579219,19.18421,-13.714916,-7.076084,-2.460231,-6.3686037,-20.519028,20.334042,-15.279417,2.4516242,-2.478642,-2.304425,3.4991603,-6.6898613,17.462366,-60.192642,71.95316,-14.013336,-0.6925573,8.301246,-2.2994933,-10.974238,30.225525,64.27483,-0.9942613,1.2639956,-2.8111475
38,-0.05879361554980278,1.9304158687591553,77.68264770507812,0.12758287184528266,-3.0758496225749385,-90.30036456277742,-2.3413146,5.95352,6.5773506,19.17809,-13.725667,-7.077769,-2.4659119,-6.375265,-20.51732,20.351297,-15.298205,2.463785,-2.4699497,-2.3125927,3.4882052,-6.675307,17.461199,-60.18033,71.959496,-14.029842,-0.71002364,8.311363,-2.2942572,-10.971746,30.219149,64.26396,-1.0002415,1.2893472,-2.820124
39,-0.06642332673072815,1.9155217409133911,77.68212890625,0.13157596740736358,-3.065406603696939,-90.29732830532183,-2.3378196,5.950542,6.576704,19.172115,-13.737009,-7.0792894,-2.4704826,-6.379822,-20.514877,20.365364,-15.314808,2.4764593,-2.4607625,-2.3188303,3.478336,-6.6615596,17.46011,-60.16621,71.96619,-14.049602,-0.7245477,8.319644,-2.2899506,-10.969614,30.21192,64.25336,-1.0043167,1.3095416,-2.8282695
40,-0.06450136005878448,1.8988467454910278,77.6805419921875,0.13480871188007126,-3.0541573170144227,-90.29748775764122,-2.3337197,5.9499507,6.5782924,19.165525,-13.747037,-7.081181,-2.4738793,-6.381697,-20.51284,20.375011,-15.328704,2.4835541,-2.455376,-2.3239765,3.4660645,-6.6427665,17.45838,-60.14249,71.97395,-14.063081,-0.73313963,8.32607,-2.2827325,-10.966344,30.200714,64.24148,-1.018781,1.3243518,-2.8303068
41,-0.06389541923999786,1.8804560899734497,77.68275451660156,0.13152606566411798,-3.042745157009383,-90.30256077221026,-2.3289313,5.9567943,6.5823293,19.160522,-13.756745,-7.083867,-2.4715238,-6.3749194,-20.512733,20.370554,-15.3347645,2.481237,-2.4525075,-2.3232584,3.452094,-6.620922,17.45552,-60.11353,71.982254,-14.076125,-0.73032284,8.328509,-2.279427,-10.960965,30.19108,64.23856,-1.0382723,1.3255035,-2.8233445
42,-0.06481513381004333,1.865983247756958,77.68238067626953,0.12526439502777223,-3.0305081719200118,-90.31167578876493,-2.3241205,5.968304,6.5887327,19.156536,-13.766378,-7.0868144,-2.4662817,-6.362674,-20.513021,20.357214,-15.335467,2.4735756,-2.4446566,-2.3193653,3.432857,-6.5974307,17.453642,-60.097805,71.99064,-14.102947,-0.7200909,8.329043,-2.2675552,-10.957527,30.18382,64.23241,-1.0530437,1.3177985,-2.8123698
43,-0.0666167214512825,1.8486641645431519,77.68256378173828,0.11898331269319079,-3.0190778038163986,-90.32046396584116,-2.3176916,5.9797783,6.5950866,19.15122,-13.77514,-7.09032,-2.458787,-6.349825,-20.513872,20.34092,-15.33507,2.4656048,-2.438201,-2.3155787,3.4140935,-6.574731,17.451683,-60.084133,72.00047,-14.130555,-0.7075089,8.328656,-2.255171,-10.954055,30.175098,64.22698,-1.0665421,1.3077699,-2.8020175
44,-0.06989404559135437,1.833892583847046,77.68299865722656,0.11674709295502975,-3.00992983733083,-90.3245306799629,-2.3094227,5.9866323,6.598768,19.144773,-13.783271,-7.094754,-2.450023,-6.3418155,-20.515512,20.3287,-15.338089,2.4624403,-2.4332228,-2.3147469,3.4005454,-6.5574155,17.450531,-60.076523,72.01116,-14.155404,-0.6980647,8.32891,-2.2459009,-10.952098,30.168814,64.22173,-1.0666124,1.3017246,-2.7992358
45,-0.07384990155696869,1.8166654109954834,77.6817855834961,0.11515312897990158,-3.0042240651826835,-90.320487091618,-2.2987025,5.988478,6.597281,19.13685,-13.791141,-7.101318,-2.4357805,-6.337364,-20.51995,20.3141,-15.342129,2.4658391,-2.4363403,-2.3170762,3.3880982,-6.5383306,17.449099,-60.06644,72.023926,-14.174933,-0.6919075,8.333654,-2.2343829,-10.9496765,30.15803,64.21575,-1.0608085,1.3045675,-2.807902
46,-0.07479184865951538,1.8027905225753784,77.68185424804688,0.11645514030108159,-3.0010909439152615,-90.31146389805374,-2.28533,5.986395,6.5928683,19.126646,-13.797847,-7.1093154,-2.4182096,-6.336551,-20.526178,20.300077,-15.34803,2.4732394,-2.4418812,-2.3229458,3.3818567,-6.525169,17.445646,-60.054115,72.04175,-14.188569,-0.6874673,8.340288,-2.2266886,-10.943974,30.138378,64.21189,-1.0509156,1.3115876,-2.8247726
47,-0.07822468131780624,1.7844858169555664,77.68551635742188,0.11882353406378215,-2.998221847920642,-90.30272487079245,-2.2721293,5.9831085,6.588922,19.117678,-13.804788,-7.116894,-2.4022605,-6.337282,-20.530916,20.289606,-15.355685,2.481911,-2.4474788,-2.32907,3.3756611,-6.5132227,17.443842,-60.05072,72.05717,-14.200315,-0.68325585,8.34329,-2.2215836,-10.94113,30.13131,64.21024,-1.0300407,1.3159859,-2.8404987
48,-0.08138363808393478,1.7692384719848633,77.68324279785156,0.12165903927934807,-2.9942136164025497,-90.29962038379382,-2.2594059,5.9804707,6.589003,19.10948,-13.810875,-7.122259,-2.3906014,-6.3378406,-20.530996,20.283703,-15.364494,2.4892986,-2.4463089,-2.3364608,3.367954,-6.502129,17.442913,-60.047913,72.072464,-14.187024,-0.67911744,8.335595,-2.2178087,-10.939849,30.126501,64.21227,-1.0230064,1.311408,-2.842259
49,-0.08135493099689484,1.7551368474960327,77.68152618408203,0.1261893333751495,-2.9884724750914686,-90.30498856576105,-2.2503514,5.977905,6.59513,19.108007,-13.817355,-7.123668,-2.3879144,-6.3401294,-20.522911,20.288996,-15.376341,2.496109,-2.4362516,-2.3452108,3.3589497,-6.492917,17.441172,-60.0469,72.08706,-14.128981,-0.6724903,8.305727,-2.2206328,-10.937845,30.127798,64.22473,-1.0331156,1.2879117,-2.8211222
50,-0.08420161157846451,1.7392956018447876,77.68428039550781,0.13261849758517888,-2.9820941140834716,-90.31524111831993,-2.2424839,5.9751496,6.6047187,19.109407,-13.823325,-7.122612,-2.38939,-6.343104,-20.509806,20.299566,-15.389424,2.5032198,-2.4213746,-2.3558946,3.3510768,-6.4862175,17.439507,-60.04794,72.10144,-14.039863,-0.6642176,8.262247,-2.2275486,-10.936677,30.136835,64.24094,-1.0529344,1.2543408,-2.7877579
51,-0.08960922062397003,1.7257869243621826,77.68211364746094,0.13816806965095346,-2.974587588584443,-90.32751228505306,-2.235303,5.973262,6.616003,19.110733,-13.830414,-7.1216464,-2.3935473,-6.346018,-20.495754,20.312973,-15.4042635,2.5084345,-2.4091485,-2.3656814,3.3373153,-6.4765983,17.436665,-60.047153,72.11743,-13.960234,-0.6591327,8.221209,-2.2401423,-10.935317,30.156502,64.267845,-1.0661883,1.2205168,-2.7519588
52,-0.08691371977329254,1.7096151113510132,77.68260192871094,0.13876532177672327,-2.9668370063833787,-90.33648475778567,-2.2276192,5.9761896,6.623908,19.109653,-13.84085,-7.1239223,-2.393034,-6.343708,-20.48826,20.318493,-15.41756,2.5092275,-2.397325,-2.3718224,3.3267705,-6.4692893,17.435757,-60.046818,72.127945,-13.932671,-0.65943795,8.207107,-2.2451031,-10.935052,30.165876,64.27824,-1.0728579,1.2097751,-2.7295067
53,-0.09156560152769089,1.6909129619598389,77.6795654296875,0.13427961668013588,-2.9572817224162096,-90.34305766620464,-2.2196681,5.9860315,6.629397,19.104961,-13.856699,-7.131627,-2.3876374,-6.3342366,-20.48872,20.312801,-15.428969,2.5021467,-2.3923514,-2.3726811,3.3099065,-6.456844,17.434488,-60.04391,72.1365,-13.991612,-0.6720081,8.235083,-2.2435079,-10.934302,30.177174,64.27761,-1.0598731,1.2301991,-2.7233253
54,-0.09368632733821869,1.6736891269683838,77.67555236816406,0.12422939099741567,-2.946879729220435,-90.34805706462883,-2.2115471,6.0013614,6.6329594,19.097898,-13.87618,-7.142773,-2.3787827,-6.319317,-20.494728,20.29963,-15.439195,2.489341,-2.3890162,-2.371356,3.292061,-6.4448333,17.433084,-60.04029,72.14385,-14.106049,-0.6920802,8.29194,-2.2358065,-10.932959,30.186594,64.265045,-1.037586,1.2732648,-2.7291093
55,-0.09257183969020844,1.659175157546997,77.6755142211914,0.11526233370505498,-2.9369498500897167,-90.3521396372852,-2.2032013,6.016952,6.6357284,19.091265,-13.896391,-7.153734,-2.3690183,-6.3040566,-20.501493,20.286354,-15.449287,2.4771547,-2.385552,-2.3691514,3.2754726,-6.435151,17.431618,-60.03853,72.15013,-14.223399,-0.7099954,8.347807,-2.2261598,-10.930551,30.192423,64.2501,-1.0164461,1.3190733,-2.7382
56,-0.09474889189004898,1.6442527770996094,77.6754150390625,0.10858117878882492,-2.929124123302006,-90.35532770775171,-2.1941593,6.0282245,6.6382847,19.086578,-13.913633,-7.1609664,-2.3598697,-6.292996,-20.504866,20.27876,-15.460077,2.4718926,-2.3794851,-2.3680577,3.2633772,-6.4286456,17.430794,-60.036983,72.1531,-14.286155,-0.71531236,8.373947,-2.2176588,-10.928813,30.19222,64.23991,-1.0074716,1.3487103,-2.7433999
57,-0.09518254548311234,1.6311910152435303,77.67244720458984,0.10554114823272955,-2.924389690062543,-90.35742897701387,-2.184551,6.032974,6.640806,19.086187,-13.927149,-7.1623898,-2.3520174,-6.288208,-20.502687,20.280312,-15.472068,2.4771674,-2.3710377,-2.3694222,3.256613,-6.425209,17.429777,-60.034885,72.153114,-14.26485,-0.6975453,8.354681,-2.2143445,-10.927078,30.190674,64.24177,-1.012841,1.3555661,-2.7434
58,-0.09603844583034515,1.6175342798233032,77.67292022705078,0.10584029049395878,-2.9215707171624063,-90.3585836289151,-2.1746871,6.034318,6.6429877,19.08856,-13.938837,-7.1603374,-2.3447552,-6.2867293,-20.497541,20.287432,-15.48494,2.4890058,-2.3620777,-2.3712244,3.2528086,-6.42351,17.428507,-60.030193,72.15037,-14.191637,-0.66428375,8.30702,-2.211578,-10.925602,30.18635,64.248116,-1.0293616,1.3505006,-2.7413905
59,-0.09462878108024597,1.597130298614502,77.67305755615234,0.10579340265778309,-2.918816915838109,-90.35885019738052,-2.1652822,6.0345187,6.6443586,19.091206,-13.949631,-7.1576533,-2.336931,-6.2860417,-20.492546,20.293114,-15.496392,2.5021212,-2.3583863,-2.3725119,3.2514608,-6.421903,17.428034,-60.029274,72.14737,-14.123584,-0.6378145,8.26089,-2.2103574,-10.925255,30.184807,64.25227,-1.0449239,1.3417578,-2.7397473
60,-0.09893735498189926,1.5822337865829468,77.67460632324219,0.1068999116644447,-2.916442723186215,-90.35960070397455,-2.1554773,6.035255,6.64592,19.094053,-13.962164,-7.15718,-2.3273492,-6.2847567,-20.48926,20.295519,-15.507331,2.5114195,-2.3526366,-2.371858,3.2458913,-6.4203715,17.427364,-60.023342,72.14368,-14.073471,-0.6241632,8.221798,-2.2044911,-10.924783,30.177479,64.25656,-1.057102,1.3317075,-2.7397752
61,-0.09725994616746902,1.568447470664978,77.67526245117188,0.10501127437546554,-2.912527818709114,-90.36065506793472,-2.1478975,6.03803,6.6470675,19.097921,-13.977029,-7.16074,-2.3154874,-6.280889,-20.489075,20.287674,-15.513421,2.5151215,-2.3520055,-2.368519,3.2432349,-6.4177594,17.4258,-60.006897,72.142,-14.079534,-0.64790636,8.216855,-2.1933532,-10.9233675,30.155231,64.24559,-1.0714928,1.3252046,-2.7396848
62,-0.09813249111175537,1.5530141592025757,77.67264556884766,0.1037050204041362,-2.908429806235276,-90.36182080282815,-2.141069,6.041108,6.648062,19.10234,-13.992905,-7.1663723,-2.3020248,-6.2764106,-20.49041,20.274807,-15.517056,2.516111,-2.3570635,-2.3637822,3.2384553,-6.4142447,17.424961,-59.995914,72.14239,-14.127407,-0.69420314,8.228355,-2.1821997,-10.922277,30.137526,64.2333,-1.0772756,1.3174765,-2.741945
63,-0.10060440003871918,1.5383130311965942,77.67454528808594,0.10030335550689623,-2.903747930543997,-90.36191353831228,-2.1350687,6.044477,6.6477265,19.107073,-14.009187,-7.1717596,-2.287592,-6.2714787,-20.493568,20.259548,-15.520322,2.5159688,-2.3582726,-2.359049,3.2364688,-6.41429,17.423244,-59.98152,72.14269,-14.164237,-0.73888147,8.239442,-2.169428,-10.9194,30.104662,64.21824,-1.0899634,1.3101928,-2.743553
64,-0.10263650119304657,1.5228092670440674,77.67208862304688,0.098547041945873,-2.897917139313135,-90.360312722658,-2.1300673,6.047477,6.6454687,19.11206,-14.025203,-7.174503,-2.2750626,-6.2676334,-20.4981,20.249214,-15.527845,2.5162761,-2.360833,-2.3549995,3.228058,-6.4103036,17.422325,-59.97517,72.1404,-14.168806,-0.7590381,8.236581,-2.1579883,-10.917626,30.091814,64.21114,-1.0876926,1.3047277,-2.7493725
65,-0.10052745044231415,1.5026485919952393,77.6711196899414,0.09447861388469603,-2.8906465146291622,-90.35442508078341,-2.1271985,6.0517235,6.6381655,19.1188,-14.041302,-7.172816,-2.2619612,-6.2632155,-20.507608,20.241371,-15.540031,2.5159185,-2.358389,-2.3531039,3.2175925,-6.4086595,17.420341,-59.969063,72.13978,-14.094715,-0.7402567,8.202806,-2.1427648,-10.914681,30.07548,64.20694,-1.0909283,1.303919,-2.758393
66,-0.09977677464485168,1.4866186380386353,77.67009735107422,0.08896348246597634,-2.8820420997998464,-90.34565483147432,-2.126261,6.055784,6.627587,19.126892,-14.057636,-7.1681023,-2.2492156,-6.2595296,-20.520468,20.23586,-15.555778,2.5147152,-2.3577929,-2.3511658,3.2022321,-6.404739,17.417953,-59.968006,72.13787,-13.981833,-0.6970733,8.151656,-2.1291673,-10.911863,30.07243,64.20985,-1.0821335,1.3058803,-2.7719445
67,-0.10052476823329926,1.4685232639312744,77.66931915283203,0.08551896694885748,-2.8730714122892147,-90.33787916769319,-2.1249502,6.0596128,6.6181183,19.133867,-14.0736265,-7.163829,-2.2382088,-6.256078,-20.531511,20.232227,-15.572221,2.5150208,-2.3570442,-2.349641,3.186253,-6.399618,17.415821,-59.967064,72.13391,-13.873391,-0.6526055,8.10732,-2.1171727,-10.909839,30.073977,64.21429,-1.0704262,1.3067349,-2.7846606
68,-0.10220387578010559,1.44893479347229,77.66844177246094,0.08218522333376231,-2.8644549212473875,-90.33501079804628,-2.1218739,6.0626607,6.6141934,19.139269,-14.089624,-7.1632376,-2.2299402,-6.252971,-20.535484,20.229652,-15.586342,2.519212,-2.354961,-2.3486314,3.1732535,-6.394618,17.413877,-59.964203,72.12778,-13.817265,-0.62998176,8.09459,-2.106508,-10.908201,30.074041,64.21474,-1.0620348,1.3025911,-2.791516
69,-0.10096392035484314,1.4313087463378906,77.67042541503906,0.08185512603677078,-2.855847437037147,-90.34025694389656,-2.1160827,6.0647345,6.6192985,19.14042,-14.104806,-7.168974,-2.2271845,-6.2500806,-20.52783,20.228956,-15.596787,2.5300264,-2.3503666,-2.3494408,3.1625826,-6.3904576,17.41162,-59.959408,72.12015,-13.846518,-0.64096403,8.1333475,-2.098044,-10.906455,30.071518,64.2104,-1.0608529,1.2890701,-2.7896821
70,-0.09992267936468124,1.416523814201355,77.66680145263672,0.08273148081603975,-2.8470234264500163,-90.35089554443692,-2.1096091,6.0660024,6.6303234,19.140911,-14.120352,-7.1786566,-2.22857,-6.2476997,-20.512375,20.230288,-15.6054325,2.5454993,-2.3427515,-2.3519337,3.1544695,-6.386083,17.408619,-59.95199,72.110794,-13.926364,-0.6717667,8.20806,-2.0899975,-10.904313,30.065237,64.20171,-1.0665444,1.2690914,-2.7818089
71,-0.0988396555185318,1.4017163515090942,77.66653442382812,0.08455592840593155,-2.8388728814236273,-90.3616836234913,-2.1018236,6.0670137,6.641745,19.140383,-14.135734,-7.188276,-2.230191,-6.2458215,-20.496391,20.233776,-15.614918,2.5610516,-2.335058,-2.353767,3.1478734,-6.383346,17.404097,-59.94377,72.10366,-14.007697,-0.7058229,8.282724,-2.0835507,-10.901269,30.055992,64.19454,-1.0730752,1.2502838,-2.7719696
72,-0.10037784278392792,1.3869553804397583,77.66236114501953,0.08419533601785928,-2.8320950619580483,-90.36751006663107,-2.0937808,6.068408,6.648135,19.14189,-14.152181,-7.1937685,-2.2264237,-6.2440453,-20.487616,20.235188,-15.625455,2.5721996,-2.3313086,-2.3533328,3.1403887,-6.380129,17.399841,-59.93727,72.099304,-14.043926,-0.7263154,8.323662,-2.0776117,-10.8985815,30.050108,64.19298,-1.0701003,1.239995,-2.765423
73,-0.10583944618701935,1.3644185066223145,77.66291809082031,0.08150200075140507,-2.8268214635286344,-90.36497058614594,-2.0859623,6.0706105,6.64581,19.14613,-14.169844,-7.1933894,-2.214959,-6.2419186,-20.490005,20.234495,-15.6382675,2.5758543,-2.3343844,-2.348995,3.1309967,-6.3743563,17.396376,-59.931274,72.09905,-14.00605,-0.7282056,8.316516,-2.070366,-10.896393,30.04949,64.19806,-1.0526706,1.2445378,-2.7659068
74,-0.10298194736242294,1.3436174392700195,77.66278839111328,0.0756055868126716,-2.822802178113251,-90.35749807738443,-2.078088,6.0731235,6.638465,19.152224,-14.18874,-7.189484,-2.1989996,-6.239929,-20.498764,20.233158,-15.652491,2.5751204,-2.3467982,-2.342136,3.1191742,-6.366614,17.389105,-59.92172,72.10654,-13.925943,-0.72094256,8.2814665,-2.0672066,-10.892036,30.057783,64.2134,-1.0249913,1.2585262,-2.7711086
75,-0.10108866542577744,1.3291480541229248,77.66165924072266,0.07179445073741114,-2.819483513509542,-90.3501261098916,-2.0685873,6.075299,6.631593,19.157309,-14.206902,-7.1842504,-2.1819615,-6.238401,-20.508415,20.232157,-15.667468,2.5743747,-2.356592,-2.3347647,3.109137,-6.3592,17.385868,-59.915237,72.10881,-13.842287,-0.70772713,8.236659,-2.0603638,-10.890026,30.061443,64.22377,-0.99950904,1.2727274,-2.7732716
76,-0.09834729135036469,1.3116341829299927,77.6596908569336,0.06927768827324744,-2.8163584153405865,-90.34759815214437,-2.058425,6.0768137,6.6301136,19.163002,-14.224799,-7.17997,-2.16797,-6.238491,-20.5133,20.233465,-15.682735,2.5781622,-2.3633945,-2.3297794,3.100624,-6.3531876,17.38386,-59.906616,72.1087,-13.790527,-0.69340086,8.200538,-2.0564387,-10.888841,30.061426,64.23258,-0.9847397,1.2775655,-2.766837
77,-0.09640289098024368,1.2875558137893677,77.6607437133789,0.06935233938584874,-2.814186912278935,-90.35195136972294,-2.0462995,6.077942,6.6363544,19.1687,-14.241015,-7.1757784,-2.155543,-6.2390537,-20.512552,20.23306,-15.695736,2.5886328,-2.3711584,-2.3265278,3.0969615,-6.3503103,17.379698,-59.884678,72.10695,-13.781996,-0.678224,8.176361,-2.0589938,-10.886563,30.056013,64.239395,-0.99270445,1.2652954,-2.7444537
78,-0.09371654689311981,1.274726390838623,77.66268157958984,0.06997307951871759,-2.8126966284148613,-90.36028968859732,-2.0330281,6.0786905,6.6472416,19.175295,-14.256516,-7.1708956,-2.144069,-6.240472,-20.508904,20.23274,-15.7081585,2.6030536,-2.3722794,-2.326026,3.0933197,-6.349592,17.378067,-59.871777,72.10228,-13.806828,-0.6601877,8.155686,-2.0587554,-10.885815,30.047844,64.24196,-1.0070856,1.2426587,-2.7131624
79,-0.08953829854726791,1.2581075429916382,77.66316223144531,0.07298943814790297,-2.8101076548348303,-90.36991307572318,-2.0190814,6.0784163,6.6597433,19.178171,-14.270906,-7.16788,-2.1351638,-6.242894,-20.503035,20.234426,-15.721776,2.6184616,-2.3718312,-2.3257573,3.089482,-6.348994,17.377512,-59.863724,72.09741,-13.839501,-0.642263,8.139258,-2.0581973,-10.885574,30.041552,64.24055,-1.0192674,1.2248435,-2.6864476
80,-0.08916676044464111,1.2434812784194946,77.65681457519531,0.07722009160711961,-2.807577499087758,-90.38077876519901,-1.998433,6.074663,6.6744256,19.16968,-14.283653,-7.1690445,-2.1286523,-6.248809,-20.492481,20.243593,-15.740262,2.632177,-2.3756442,-2.3233042,3.0936277,-6.350214,17.373169,-59.82232,72.09048,-13.841196,-0.61543125,8.117606,-2.0652013,-10.884003,30.006601,64.241615,-1.0541011,1.218012,-2.6589594
81,-0.08786406368017197,1.2264188528060913,77.65270233154297,0.08290749116224036,-2.801793912209921,-90.39085598741762,-1.9734757,6.067611,6.6885886,19.14689,-14.294735,-7.1781363,-2.1270173,-6.2574444,-20.478241,20.260052,-15.764581,2.642572,-2.377661,-2.3214715,3.0839753,-6.342573,17.370699,-59.802757,72.08492,-13.8414955,-0.58482486,8.099642,-2.0594368,-10.882956,29.987848,64.237366,-1.0545174,1.2396033,-2.6585724
82,-0.08488684147596359,1.1996403932571411,77.65109252929688,0.08801405270919949,-2.794273566125889,-90.40041934833428,-1.9470952,6.0610948,6.7016997,19.118122,-14.306717,-7.1933722,-2.125216,-6.264376,-20.462378,20.27476,-15.789733,2.6509883,-2.3817077,-2.3181858,3.0719726,-6.334723,17.370098,-59.794334,72.0829,-13.845488,-0.55392176,8.084511,-2.0541039,-10.882599,29.978775,64.23495,-1.0377034,1.2722175,-2.670628
83,-0.08214066177606583,1.1794291734695435,77.64920806884766,0.09910801277021689,-2.786543627588945,-90.41294403041049,-1.9131405,6.0460663,6.7207375,19.074556,-14.311457,-7.2066703,-2.1323295,-6.2813625,-20.440372,20.306492,-15.822252,2.6606662,-2.3817692,-2.3179166,3.0647542,-6.3247147,17.365324,-59.75285,72.07436,-13.815954,-0.5155365,8.067225,-2.0479002,-10.880101,29.934244,64.22309,-1.0564443,1.3172308,-2.6806343
84,-0.07714607566595078,1.1624383926391602,77.64855194091797,0.10753951291748252,-2.7757885437719576,-90.42363611960201,-1.8911163,6.035175,6.737583,19.046133,-14.31921,-7.2133546,-2.141287,-6.29442,-20.422588,20.332096,-15.848196,2.671755,-2.3863947,-2.3164845,3.054856,-6.3160048,17.36297,-59.742126,72.07244,-13.820041,-0.4941579,8.061636,-2.0466623,-10.878792,29.920673,64.21542,-1.0686209,1.3435872,-2.690754
85,-0.07662061601877213,1.147837519645691,77.64910125732422,0.11525781337124222,-2.762347133004219,-90.4344803616434,-1.8820636,6.0259666,6.756246,19.035486,-14.330117,-7.208595,-2.158491,-6.307629,-20.406275,20.36255,-15.870227,2.6867793,-2.3935826,-2.3159938,3.048954,-6.310505,17.361416,-59.742207,72.07568,-13.844042,-0.4917974,8.068439,-2.053956,-10.878042,29.917667,64.20662,-1.1065451,1.3491887,-2.6922588
86,-0.07307735085487366,1.129318118095398,77.64838409423828,0.1265317655047836,-2.7456052700045843,-90.44634131955544,-1.8780409,6.013947,6.7783103,19.026484,-14.33805,-7.196129,-2.185558,-6.3253603,-20.38858,20.402287,-15.892309,2.7048442,-2.4005885,-2.317736,3.0423048,-6.3063054,17.357513,-59.756905,72.084625,-13.887056,-0.5023441,8.0864725,-2.0684175,-10.876387,29.919834,64.201195,-1.163492,1.343558,-2.6897378
87,-0.06822331249713898,1.1121559143066406,77.64698791503906,0.13665362138824516,-2.7285722614818075,-90.45659139210133,-1.8767651,6.0030313,6.797558,19.021088,-14.346228,-7.1831856,-2.211216,-6.3418374,-20.37354,20.438915,-15.913664,2.7214808,-2.4100597,-2.3185694,3.0374267,-6.3023243,17.355862,-59.770226,72.09201,-13.922938,-0.5138994,8.104183,-2.0823724,-10.875755,29.926086,64.193634,-1.2170676,1.3356087,-2.6903048
88,-0.06677844375371933,1.0952754020690918,77.64382934570312,0.14607607788863802,-2.7125898201044776,-90.46374585182055,-1.8713913,5.99139,6.81065,19.009384,-14.35142,-7.176028,-2.2297704,-6.3576446,-20.362722,20.468315,-15.937047,2.733069,-2.4181402,-2.3189518,3.0298896,-6.299127,17.35318,-59.78926,72.0989,-13.9422655,-0.5145706,8.114528,-2.0921597,-10.87481,29.933754,64.19107,-1.2447691,1.3351929,-2.701922
89,-0.06382881850004196,1.0732945203781128,77.64270782470703,0.1541770272950045,-2.6991134781809403,-90.46680242073002,-1.861203,5.979438,6.813951,18.99216,-14.354276,-7.175219,-2.2380247,-6.3723884,-20.357506,20.489954,-15.965355,2.7362058,-2.4301114,-2.31607,3.0259178,-6.2967234,17.351583,-59.795475,72.09684,-13.920542,-0.49397415,8.110798,-2.0987775,-10.874204,29.936377,64.18904,-1.2536776,1.3461221,-2.7259994
90,-0.061420731246471405,1.0543009042739868,77.64312744140625,0.1600073680418593,-2.686748431429878,-90.46676673774957,-1.8505908,5.9688597,6.8099704,18.975824,-14.357265,-7.1779404,-2.2374108,-6.383795,-20.35748,20.499964,-15.9935465,2.7334466,-2.444619,-2.3117833,3.0230024,-6.294968,17.350798,-59.79762,72.09461,-13.875812,-0.46422648,8.099645,-2.103348,-10.873949,29.93793,64.18936,-1.2502841,1.3610038,-2.7571237
91,-0.05953675135970116,1.0345995426177979,77.64234924316406,0.1698142017715629,-2.6740168884409177,-90.46545493483814,-1.8348985,5.9539146,6.806154,18.947584,-14.353814,-7.184398,-2.2399738,-6.4007134,-20.357452,20.518183,-16.026693,2.731118,-2.4586685,-2.3076832,3.0207481,-6.293844,17.348892,-59.796665,72.08685,-13.822345,-0.431797,8.087171,-2.1107097,-10.872981,29.941742,64.19347,-1.2267687,1.380763,-2.7956116
92,-0.05827663838863373,1.015514612197876,77.64057922363281,0.17605440596654942,-2.659476771284512,-90.46368798676377,-1.821643,5.944721,6.8045464,18.919811,-14.350684,-7.1976075,-2.2429667,-6.4114847,-20.358528,20.531393,-16.053684,2.7329717,-2.4742603,-2.3041372,3.0168972,-6.2932453,17.348476,-59.79766,72.09031,-13.790498,-0.42322508,8.082187,-2.1140742,-10.872666,29.9425,64.19563,-1.1909646,1.3943863,-2.8244088
93,-0.06004708632826805,0.9961386322975159,77.63729858398438,0.19002872399219733,-2.641487623794712,-90.46348332516281,-1.802106,5.9272246,6.8119864,18.870974,-14.336775,-7.2152815,-2.2613094,-6.4336176,-20.354385,20.566692,-16.084942,2.7438276,-2.4789212,-2.309431,3.013312,-6.297523,17.347206,-59.802742,72.101166,-13.773857,-0.44534352,8.085208,-2.1237404,-10.870609,29.94867,64.203156,-1.097993,1.4162296,-2.8584845
94,-0.05875010788440704,0.9766712784767151,77.63697052001953,0.20111461692036306,-2.621454300012297,-90.4628517175222,-1.7847064,5.9136105,6.8209496,18.821278,-14.322567,-7.2388816,-2.2813962,-6.4518485,-20.351233,20.599676,-16.111307,2.7584493,-2.480231,-2.3153317,3.0079324,-6.301935,17.347134,-59.807426,72.118095,-13.766884,-0.4888905,8.093508,-2.1289465,-10.869766,29.950436,64.210365,-0.978954,1.4397688,-2.8899548
95,-0.06209929287433624,0.9565802216529846,77.63883972167969,0.21283300089791454,-2.6012933602070176,-90.46091151107633,-1.762427,5.8994603,6.831541,18.76139,-14.302912,-7.2678237,-2.3011763,-6.4707932,-20.348532,20.633585,-16.138836,2.7742805,-2.4839864,-2.3227694,3.0034015,-6.3095455,17.34753,-59.820145,72.13917,-13.774731,-0.5340557,8.104905,-2.1350753,-10.867525,29.953512,64.215866,-0.8647868,1.4525251,-2.9150178
96,-0.06595688313245773,0.9361864328384399,77.63855743408203,0.22098803626622374,-2.58295269206497,-90.45492923178516,-1.7384659,5.891072,6.8389015,18.702564,-14.283772,-7.3032084,-2.3117003,-6.4828706,-20.350655,20.656977,-16.166246,2.7870257,-2.5037847,-2.3228757,2.9979956,-6.3111143,17.348164,-59.827953,72.15617,-13.787665,-0.5586177,8.117178,-2.1354167,-10.865883,29.949995,64.21202,-0.8134144,1.4400854,-2.9235425
97,-0.07242482155561447,0.9163806438446045,77.63798522949219,0.22689558048216799,-2.5675941012771517,-90.44147989599787,-1.7108258,5.8869147,6.840447,18.642588,-14.264141,-7.34523,-2.310665,-6.4896836,-20.359798,20.67094,-16.195282,2.7954664,-2.542385,-2.3181555,2.9923437,-6.3083014,17.350063,-59.837646,72.16746,-13.812303,-0.55286855,8.131317,-2.1288188,-10.862052,29.932814,64.19859,-0.8561678,1.3826851,-2.9105883
98,-0.07791612297296524,0.8932012319564819,77.63928985595703,0.22860912585484847,-2.5538480481615045,-90.42263949585785,-1.6816136,5.8871636,6.838133,18.583008,-14.244858,-7.3935785,-2.301906,-6.4915886,-20.374163,20.67833,-16.225159,2.8015335,-2.6010904,-2.3066833,2.986485,-6.3002615,17.351467,-59.841026,72.175415,-13.847556,-0.5297216,8.147769,-2.1196516,-10.859633,29.917381,64.177734,-0.9551887,1.2939044,-2.8821764
99,-0.08742065727710724,0.8676756024360657,77.63841247558594,0.22999263870634384,-2.540489738465417,-90.40522705458861,-1.647578,5.8901644,6.8385463,18.51538,-14.221324,-7.4471674,-2.2889838,-6.4896264,-20.388447,20.677418,-16.253645,2.8073397,-2.6574926,-2.2932854,2.9828088,-6.2925963,17.353977,-59.843567,72.18388,-13.878384,-0.5017801,8.163753,-2.109196,-10.855887,29.888237,64.15153,-1.0727476,1.2068554,-2.8439066
100,-0.09436195343732834,0.8396564722061157,77.63783264160156,0.2309554368034451,-2.5262561920558353,-90.39611236169458,-1.6064605,5.8961887,6.847792,18.43435,-14.190625,-7.50523,-2.2755272,-6.4827323,-20.397436,20.667984,-16.279385,2.814562,-2.6918364,-2.2795832,2.9875996,-6.2957263,17.359446,-59.85041,72.19698,-13.893608,-0.48191518,8.175077,-2.1052897,-10.848994,29.838646,64.12264,-1.1624509,1.1561712,-2.8025136
101,-0.10416096448898315,0.8103850483894348,77.6358642578125,0.23021321889291765,-2.5108328456166724,-90.39517012490164,-1.5598611,5.9069924,6.864545,18.34173,-14.1517315,-7.5685444,-2.2576733,-6.468095,-20.404068,20.639067,-16.292696,2.8227053,-2.7162206,-2.2633657,2.993488,-6.2999687,17.36491,-59.853485,72.22056,-13.888677,-0.4754535,8.180042,-2.1123762,-10.842738,29.80049,64.092636,-1.1909661,1.1587853,-2.7521312
102,-0.11397598683834076,0.7970506548881531,77.63909912109375,0.22603917446963004,-2.495239049911657,-90.3999548513561,-1.5070595,5.9216776,6.887141,18.238155,-14.105754,-7.6372643,-2.2355587,-6.4474287,-20.40907,20.596893,-16.298683,2.8311021,-2.7198462,-2.2498055,3.0069463,-6.311934,17.379868,-59.862,72.24308,-13.866094,-0.4726328,8.179137,-2.1274607,-10.827347,29.737406,64.06363,-1.2061286,1.192028,-2.6897953
103,-0.1269138604402542,0.7708609700202942,77.64308166503906,0.22416427176820164,-2.4783896791916407,-90.41105349475767,-1.4504155,5.9381356,6.9177947,18.126408,-14.056115,-7.709346,-2.2163484,-6.424209,-20.407188,20.554287,-16.311705,2.8414156,-2.7358766,-2.227078,3.0177956,-6.3168845,17.387032,-59.855644,72.27239,-13.846973,-0.474332,8.181477,-2.1498358,-10.820842,29.706018,64.03577,-1.1909593,1.2389276,-2.639356
104,-0.14160162210464478,0.7500953674316406,77.6495361328125,0.22622034907894925,-2.460415767706144,-90.42997380479781,-1.3826662,5.9522505,6.9607058,17.991575,-14.001624,-7.7829566,-2.2075052,-6.4028463,-20.391901,20.527702,-16.348457,2.855244,-2.7457032,-2.1990385,3.037266,-6.323493,17.400114,-59.844986,72.2875,-13.840028,-0.47439983,8.190725,-2.1804802,-10.810257,29.660204,64.01799,-1.1853582,1.2768326,-2.6167467
105,-0.1551111787557602,0.7286828756332397,77.64984893798828,0.22855583006393138,-2.4398578937419164,-90.45514019787412,-1.3092309,5.9669714,7.0170364,17.84058,-13.947528,-7.859918,-2.211355,-6.380992,-20.362562,20.519564,-16.416504,2.8800514,-2.7654672,-2.1567383,3.057732,-6.32539,17.410192,-59.827503,72.2921,-13.86617,-0.47469988,8.216488,-2.2187421,-10.803207,29.62756,64.01125,-1.163437,1.3070741,-2.6467464
106,-0.16919966042041779,0.70430988073349,77.65422821044922,0.2329125077192134,-2.417571266032207,-90.48658600987548,-1.2298204,5.9827986,7.084884,17.674833,-13.892045,-7.9404197,-2.2230368,-6.3574677,-20.32211,20.521097,-16.505653,2.9126272,-2.7877448,-2.104473,3.0841084,-6.32626,17.42215,-59.80084,72.28557,-13.907827,-0.4754544,8.25248,-2.2677834,-10.796174,29.594187,64.01451,-1.1314281,1.337846,-2.7113936
107,-0.18694601953029633,0.6849048733711243,77.65628051757812,0.2421421485789065,-2.3952430430403324,-90.52744072057702,-1.139,5.994181,7.161831,17.490215,-13.826908,-8.01987,-2.2420352,-6.3382874,-20.270487,20.533848,-16.606453,2.938723,-2.8043723,-2.052852,3.1137266,-6.324228,17.438929,-59.768837,72.27513,-13.945304,-0.47571722,8.2850895,-2.3218913,-10.78844,29.564861,64.02294,-1.1077131,1.3626794,-2.774541
108,-0.20831972360610962,0.6641287803649902,77.65666198730469,0.26276916788057036,-2.3742304775912397,-90.58096046991997,-1.0315918,5.995586,7.2455735,17.28141,-13.744663,-8.093956,-2.2667491,-6.3281384,-20.208206,20.555313,-16.707102,2.9439118,-2.801558,-2.0116818,3.1403,-6.325129,17.448,-59.74575,72.28867,-13.963838,-0.47658977,8.301605,-2.3660176,-10.785655,29.54684,64.02467,-1.102978,1.3760566,-2.801324
109,-0.22859400510787964,0.6377538442611694,77.66349029541016,0.3013023393668917,-2.358175370079079,-90.65331257132674,-0.904803,5.9795785,7.3391123,17.054056,-13.639626,-8.159458,-2.3011634,-6.3361855,-20.127024,20.599377,-16.816904,2.9199111,-2.7736964,-1.9918795,3.1735592,-6.32932,17.462801,-59.722923,72.31835,-13.939403,-0.4786773,8.291222,-2.4051006,-10.783298,29.529215,64.01621,-1.14347,1.3684776,-2.7642086
110,-0.2554319202899933,0.6186290383338928,77.67170715332031,0.3533373135702997,-2.345274454053845,-90.74090609903095,-0.75698835,5.9503975,7.4427757,16.797638,-13.515708,-8.219774,-2.3435783,-6.3563623,-20.029737,20.659885,-16.93676,2.8757823,-2.7259302,-1.9830885,3.2082572,-6.335898,17.473873,-59.710884,72.36345,-13.89601,-0.48033822,8.265759,-2.4400966,-10.783625,29.517292,64.00449,-1.2097094,1.3459684,-2.6900337
111,-0.28871798515319824,0.5978336334228516,77.67717742919922,0.40587061118120055,-2.328883585598543,-90.83264016621207,-0.6039763,5.921798,7.548775,16.526396,-13.383676,-8.279342,-2.387699,-6.3738327,-19.93166,20.714897,-17.047424,2.8233292,-2.6691654,-1.9727688,3.2406528,-6.343039,17.4874,-59.69594,72.41305,-13.851198,-0.4812336,8.235228,-2.4706697,-10.786382,29.509205,63.993015,-1.2785213,1.3236353,-2.6142855
112,-0.3174472749233246,0.5757701396942139,77.68877410888672,0.4458296704969431,-2.3038256779706052,-90.9170076682386,-0.45854643,5.907498,7.64922,16.250467,-13.255045,-8.342696,-2.4237378,-6.373217,-19.849325,20.738306,-17.128172,2.7745242,-2.6208189,-1.9414918,3.2692916,-6.344422,17.500809,-59.666145,72.44646,-13.826839,-0.47404745,8.215644,-2.5041506,-10.791508,29.509916,63.99152,-1.3284354,1.3182175,-2.5743783
113,-0.34988030791282654,0.5433756113052368,77.69634246826172,0.4673213825808196,-2.2669078575465935,-90.99168836076089,-0.3197844,5.9146667,7.7436557,15.961376,-13.130723,-8.412947,-2.4491837,-6.3472757,-19.788918,20.720947,-17.173254,2.7296057,-2.5952675,-1.8790916,3.2879264,-6.328669,17.525015,-59.59754,72.45424,-13.840491,-0.45778337,8.2123995,-2.5423045,-10.803657,29.54321,64.001755,-1.3469882,1.3410932,-2.586319
114,-0.3825116753578186,0.5101888179779053,77.71124267578125,0.47898162942158673,-2.2219128038252665,-91.06263524657881,-0.18254256,5.9346733,7.8357563,15.658727,-13.006222,-8.48698,-2.4690483,-6.3052187,-19.74141,20.677935,-17.194246,2.683185,-2.5832014,-1.7966186,3.2991004,-6.29858,17.556564,-59.49928,72.44493,-13.874523,-0.43434122,8.218003,-2.5833836,-10.822008,29.604498,64.02108,-1.3464504,1.381564,-2.6293528
115,-0.417839914560318,0.48228809237480164,77.7196273803711,0.4885229884504271,-2.1719304714074927,-91.13069854984477,-0.051884245,5.958438,7.9243007,15.357408,-12.880289,-8.5601845,-2.4868417,-6.2568445,-19.698809,20.619123,-17.195353,2.6388888,-2.5561566,-1.7133458,3.307913,-6.284682,17.57348,-59.427757,72.45454,-13.911494,-0.41180414,8.221525,-2.621269,-10.832959,29.643929,64.050255,-1.3406334,1.4200548,-2.6821806
116,-0.4698377251625061,0.4522947669029236,77.7286148071289,0.5055588703964076,-2.1197503770641584,-91.19679513842961,0.06579623,5.9775333,8.0078945,15.075697,-12.753513,-8.627989,-2.5074005,-6.211758,-19.653164,20.557245,-17.182596,2.6001756,-2.5611954,-1.634161,3.3280177,-6.2540417,17.611645,-59.329746,72.431015,-13.900399,-0.39547518,8.212581,-2.6739645,-10.857487,29.703678,64.07707,-1.3183994,1.4407136,-2.7219625
117,-0.5216287970542908,0.4230763912200928,77.73430633544922,0.534518666524578,-2.06383674892179,-91.26322799516863,0.1694348,5.9867797,8.088376,14.812486,-12.619901,-8.686044,-2.5333364,-6.1742473,-19.600527,20.49149,-17.154665,2.5713096,-2.5487697,-1.5754147,3.36136,-6.23679,17.66579,-59.272167,72.39158,-13.833895,-0.3841316,8.180452,-2.7156537,-10.88718,29.723677,64.0866,-1.29125,1.4345534,-2.7447715
118,-0.5742102265357971,0.39423027634620667,77.74778747558594,0.5723962526480784,-2.0033842855437105,-91.32885740107159,0.26140773,5.9920907,8.165661,14.561914,-12.482161,-8.737851,-2.5620646,-6.138788,-19.545752,20.417767,-17.11012,2.5493324,-2.524548,-1.5293955,3.3991494,-6.233272,17.71557,-59.239388,72.36014,-13.72873,-0.37649128,8.133729,-2.7576103,-10.911601,29.716738,64.10201,-1.2586588,1.4113327,-2.763553
119,-0.6321172118186951,0.36610257625579834,77.7574691772461,0.608860076532246,-1.9425626142565915,-91.38927600102497,0.344129,5.9997945,8.2357025,14.326465,-12.349581,-8.790321,-2.5888968,-6.100198,-19.49392,20.339117,-17.051872,2.5269675,-2.5087683,-1.4802574,3.4450338,-6.2260966,17.784315,-59.21821,72.304085,-13.632016,-0.37456948,8.088321,-2.801971,-10.942305,29.701475,64.114006,-1.2226634,1.3815445,-2.774354
120,-0.6972418427467346,0.33937954902648926,77.76808166503906,0.6394010135771798,-1.8853567431363523,-91.44026047226069,0.42026165,6.016125,8.294547,14.10812,-12.230908,-8.8504715,-2.61019,-6.0538945,-19.450237,20.261421,-16.984041,2.496927,-2.5114913,-1.4154725,3.4941454,-6.215371,17.850897,-59.201508,72.24664,-13.582843,-0.38346133,8.060842,-2.8580782,-10.970322,29.68463,64.139786,-1.1902506,1.354148,-2.7768338
121,-0.7637882232666016,0.31488102674484253,77.76808166503906,0.6631248363513399,-1.8331481278033566,-91.47959441083799,0.4940775,6.0406013,8.340925,13.89928,-12.12576,-8.9234705,-2.6252618,-5.9996443,-19.414783,20.18601,-16.898582,2.4598336,-2.5379698,-1.3338902,3.549024,-6.2013025,17.915373,-59.18605,72.18533,-13.614592,-0.41292933,8.065634,-2.928227,-10.997271,29.671543,64.17991,-1.1569772,1.3256655,-2.7656379
122,-0.8284774422645569,0.2826947569847107,77.77387237548828,0.6827008380860796,-1.7836087272205032,-91.51000861042216,0.56293005,6.0700803,8.377298,13.701845,-12.030812,-9.004456,-2.6365361,-5.9401884,-19.385414,20.111212,-16.797066,2.418738,-2.5828748,-1.2415547,3.6122875,-6.179462,17.993546,-59.170624,72.10184,-13.694401,-0.4567828,8.090321,-3.0055497,-11.030238,29.656342,64.22292,-1.122866,1.2935109,-2.7421296
123,-0.8920808434486389,0.25544074177742004,77.7814712524414,0.6965655110481039,-1.7354763598031293,-91.53431360148363,0.6186346,6.108752,8.404331,13.532096,-11.949121,-9.085819,-2.6418557,-5.8726573,-19.363287,20.030687,-16.694265,2.3700697,-2.6407917,-1.1346298,3.6775968,-6.154668,18.077303,-59.171715,72.012,-13.784162,-0.49775556,8.112025,-3.090994,-11.064441,29.639492,64.27229,-1.0910264,1.267685,-2.7167253
124,-0.9650554656982422,0.22473756968975067,77.7866439819336,0.7042894646801658,-1.687700486794554,-91.55541224764228,0.6511587,6.160541,8.422542,13.410613,-11.886675,-9.159888,-2.6381774,-5.79408,-19.34991,19.936926,-16.604887,2.3102489,-2.7057352,-1.0095803,3.7399833,-6.1277533,18.16135,-59.196808,71.92684,-13.835521,-0.51788634,8.10768,-3.1828136,-11.095267,29.617403,64.32842,-1.0680196,1.2581792,-2.6993203
125,-1.0441386699676514,0.19629423320293427,77.78826904296875,0.703577709049163,-1.6384207335345693,-91.5756681605293,0.65450025,6.2301188,8.434348,13.347185,-11.84844,-9.225218,-2.6270692,-5.7010307,-19.34582,19.827755,-16.531073,2.2366846,-2.776132,-0.8629236,3.7990437,-6.1003056,18.244724,-59.257072,71.851585,-13.854193,-0.5133581,8.0749655,-3.284198,-11.1199045,29.590605,64.39585,-1.0484514,1.2715123,-2.694888
126,-1.1196340322494507,0.16506537795066833,77.78742218017578,0.6956845714742752,-1.5888096850218252,-91.59316564462482,0.6354123,6.3139753,8.438926,13.328977,-11.829851,-9.285714,-2.6096718,-5.596123,-19.349966,19.708036,-16.466013,2.1518972,-2.8543866,-0.6986619,3.856282,-6.070685,18.326694,-59.33991,71.78348,-13.8525915,-0.4933875,8.024977,-3.3956163,-11.138303,29.557253,64.47684,-1.0341623,1.3007436,-2.6979578
127,-1.2010325193405151,0.13691601157188416,77.78984832763672,0.6847510461115642,-1.5420002882186472,-91.60387368723406,0.60356855,6.4041986,8.431289,13.341655,-11.822789,-9.341564,-2.5810337,-5.4851284,-19.362228,19.577433,-16.409306,2.0599308,-2.9421413,-0.5231779,3.9097545,-6.043372,18.4068,-59.44672,71.72267,-13.825759,-0.46072835,7.954984,-3.5148933,-11.151631,29.520468,64.56748,-1.0331595,1.3360586,-2.7024832
128,-1.2853331565856934,0.10636404901742935,77.7925033569336,0.6751037106052737,-1.5010042528157996,-91.60381760921156,0.5690073,6.4921393,8.407128,13.370174,-11.818516,-9.392795,-2.5377722,-5.3745117,-19.381872,19.438236,-16.361235,1.9648018,-3.0425467,-0.34216955,3.9566233,-6.024375,18.475939,-59.575714,71.6781,-13.766756,-0.4189246,7.8623457,-3.6378293,-11.160545,29.481995,64.66405,-1.0567856,1.3675812,-2.702601
129,-1.3683240413665771,0.0711032971739769,77.79692840576172,0.6676122324873395,-1.4699461399635916,-91.58701645758575,0.5327744,6.575132,8.356906,13.418749,-11.8180275,-9.436287,-2.4718294,-5.2660494,-19.414288,19.286917,-16.324528,1.8652014,-3.1566074,-0.15623468,4.004372,-6.012017,18.549442,-59.725945,71.635666,-13.666554,-0.36341527,7.7336607,-3.7632134,-11.168817,29.43779,64.75771,-1.1182054,1.4000666,-2.6922374
130,-1.4546587467193604,0.0357234962284565,77.80194091796875,0.6605961888998599,-1.4461076286078296,-91.55727894102628,0.49027875,6.657597,8.285883,13.492054,-11.824517,-9.473021,-2.3876653,-5.156443,-19.457386,19.12437,-16.29872,1.7595326,-3.287247,0.038770854,4.0507317,-6.0048814,18.617126,-59.894,71.605606,-13.530442,-0.29522485,7.574673,-3.8945215,-11.1757765,29.393177,64.85531,-1.2081327,1.4364185,-2.6763647
131,-1.5470212697982788,0.007196333259344101,77.80419921875,0.6516976073383759,-1.4222353977110949,-91.52510096938126,0.4419832,6.7430334,8.210914,13.57756,-11.833365,-9.5094,-2.2981815,-5.042382,-19.501297,18.953295,-16.275877,1.652521,-3.4343607,0.24359302,4.083227,-6.0006886,18.658142,-60.070023,71.600525,-13.364283,-0.22416635,7.4109907,-4.033107,-11.179367,29.36042,64.96662,-1.2989665,1.4643296,-2.6637673
132,-1.6391760110855103,-0.02913234941661358,77.8086929321289,0.6444626189695231,-1.390770204446952,-91.50102378579872,0.39040443,6.8334785,8.14929,13.6583185,-11.837965,-9.551697,-2.2161705,-4.92188,-19.535147,18.77721,-16.248535,1.5483354,-3.5389953,0.4443534,4.099304,-6.005066,18.730383,-60.32844,71.555534,-13.208757,-0.15148032,7.265791,-4.1399975,-11.183954,29.275583,65.058975,-1.3832664,1.4710318,-2.6578097
133,-1.7362186908721924,-0.06763779371976852,77.80873107910156,0.6338728362119568,-1.3474728383516672,-91.48731600112956,0.3292563,6.9342566,8.105245,13.739108,-11.841333,-9.601367,-2.1454053,-4.788859,-19.555408,18.59142,-16.212597,1.4485769,-3.647893,0.65418243,4.087734,-6.0045767,18.795456,-60.624523,71.506035,-13.036484,-0.07870511,7.145944,-4.247908,-11.184424,29.198088,65.166756,-1.4366605,1.4453913,-2.66468
134,-1.8397787809371948,-0.1042669415473938,77.8107681274414,0.6208741303005838,-1.29711418286441,-91.47861692439648,0.25920698,7.042361,8.069538,13.826291,-11.845811,-9.655114,-2.0787807,-4.646474,-19.56781,18.396036,-16.173088,1.3509992,-3.7605534,0.87260777,4.0536513,-6.0058312,18.845568,-60.95675,71.46581,-12.845238,-0.0040822974,7.0385866,-4.3551006,-11.181492,29.122036,65.28592,-1.4753724,1.3975395,-2.680292
135,-1.9351426362991333,-0.1452115774154663,77.81640625,0.6108778938401251,-1.2458653229726535,-91.47365301226552,0.19349813,7.1493735,8.039596,13.90734,-11.844355,-9.71238,-2.011922,-4.5046515,-19.576675,18.19936,-16.134312,1.2539319,-3.852348,1.0874351,4.0083904,-6.013181,18.896303,-61.31128,71.4156,-12.6528225,0.06656334,6.940627,-4.4443035,-11.1752405,29.018986,65.398926,-1.5178087,1.3426255,-2.7007232
136,-2.0369839668273926,-0.19085103273391724,77.82527160644531,0.6067731507907091,-1.2000016967033837,-91.47106933910682,0.14358868,7.2477565,8.012407,13.9728155,-11.831681,-9.772562,-1.9419546,-4.3732452,-19.586327,18.012924,-16.10178,1.1555547,-3.9500847,1.2965021,3.9594672,-6.0144525,18.93508,-61.615067,71.3607,-12.464982,0.12320248,6.8505554,-4.5281453,-11.168224,28.925915,65.512,-1.5656834,1.2973238,-2.725179
137,-2.141417980194092,-0.23498819768428802,77.82975006103516,0.6113960217340582,-1.1595746494740868,-91.47197904584779,0.10959329,7.335168,7.989726,14.023839,-11.806677,-9.834057,-1.8689812,-4.255762,-19.596935,17.836948,-16.07846,1.0533729,-4.017311,1.4906554,3.9076958,-6.0249977,18.980553,-61.917572,71.286316,-12.292041,0.16314827,6.7658763,-4.580262,-11.155778,28.79065,65.60743,-1.6482587,1.256513,-2.7538815
138,-2.240389585494995,-0.27749449014663696,77.83209991455078,0.6231554376492225,-1.1217841189905935,-91.47650149495448,0.08766782,7.415722,7.972456,14.061414,-11.77053,-9.89757,-1.795725,-4.1468716,-19.606302,17.669134,-16.060984,0.948777,-4.0852823,1.6783347,3.8488288,-6.030508,19.026012,-62.194805,71.19734,-12.117269,0.19045511,6.6888585,-4.6250257,-11.138754,28.655077,65.70447,-1.7430754,1.2152514,-2.7889965
139,-2.3405110836029053,-0.3237782418727875,77.83855438232422,0.6362424570155231,-1.0887110375148341,-91.4822053487695,0.0780597,7.49163,7.9562907,14.087156,-11.727398,-9.966209,-1.7174851,-4.0430017,-19.615753,17.504807,-16.046078,0.8459064,-4.154328,1.8630409,3.7863677,-6.0289865,19.064037,-62.42638,71.09916,-11.949119,0.21273154,6.6219687,-4.6649847,-11.120809,28.525906,65.79875,-1.825919,1.1871724,-2.825051
140,-2.439639091491699,-0.3741730749607086,77.84588623046875,0.6510051219323291,-1.0622201771736737,-91.48656454583616,0.083019085,7.5645647,7.9371285,14.097938,-11.678534,-10.042994,-1.6296556,-3.9402583,-19.626402,17.338484,-16.030123,0.7489328,-4.229551,2.0490139,3.7247572,-6.021104,19.087,-62.597637,70.99856,-11.806876,0.23701401,6.5677013,-4.7103424,-11.108728,28.42304,65.89047,-1.8630763,1.1861839,-2.8566372
141,-2.5408289432525635,-0.42208126187324524,77.85307312011719,0.6624668772696657,-1.043113741347761,-91.48765532898375,0.10577595,7.6349115,7.911743,14.08672,-11.622221,-10.13184,-1.5312321,-3.8372042,-19.639805,17.170895,-16.01266,0.6580421,-4.2866564,2.2347856,3.6650639,-6.0197005,19.104696,-62.743008,70.88738,-11.711122,0.26781622,6.5282426,-4.7536306,-11.099332,28.308975,65.97626,-1.8187147,1.2344127,-2.8981438
142,-2.638221502304077,-0.4727928936481476,77.8578109741211,0.6744588926891035,-1.030195979943866,-91.48724828386172,0.14379306,7.7018275,7.882901,14.058321,-11.559036,-10.229992,-1.4214252,-3.7348578,-19.655376,16.997066,-15.994059,0.57119673,-4.3318205,2.4198353,3.6057518,-6.020417,19.117088,-62.857277,70.76474,-11.6464205,0.3005043,6.5018425,-4.787806,-11.092847,28.183262,66.05045,-1.7247934,1.3185985,-2.946251
143,-2.7374398708343506,-0.5210398435592651,77.85914611816406,0.6902791920114708,-1.0228467457525252,-91.48831754643314,0.19239418,7.7647276,7.8562026,14.023391,-11.491652,-10.33065,-1.3069376,-3.6373565,-19.669086,16.82813,-15.977942,0.48927513,-4.3812003,2.60034,3.5458643,-6.0092945,19.119846,-62.908062,70.63574,-11.588473,0.33123073,6.483773,-4.8221173,-11.092053,28.09212,66.119156,-1.643626,1.396958,-2.970711
144,-2.8333799839019775,-0.5749686360359192,77.86488342285156,0.712579092136071,-1.0204581834666246,-91.49396641590911,0.24706173,7.8225245,7.8369484,13.992526,-11.42263,-10.42689,-1.1877971,-3.5468893,-19.677748,16.660673,-15.964663,0.41321635,-4.422104,2.765606,3.4815865,-5.983894,19.118147,-62.90556,70.50201,-11.527205,0.35788378,6.469231,-4.8385124,-11.093487,28.034435,66.17134,-1.6612856,1.4273847,-2.9409232
145,-2.930814743041992,-0.6275533437728882,77.87342071533203,0.7471698331600511,-1.0253680233015752,-91.50905697301498,0.31272957,7.8719983,7.8315105,13.965649,-11.351028,-10.518188,-1.0656098,-3.4683323,-19.67566,16.503065,-15.959542,0.3457645,-4.420968,2.9096658,3.425079,-5.964145,19.107306,-62.851192,70.368805,-11.442404,0.3813201,6.4536986,-4.823817,-11.104473,27.961962,66.19135,-1.8719479,1.3722483,-2.8071036
146,-3.0332565307617188,-0.6831088662147522,77.88177490234375,0.7896856514030971,-1.0369227422026923,-91.53071808757933,0.3899246,7.9149485,7.8352385,13.937847,-11.275566,-10.607895,-0.93748575,-3.398251,-19.66647,16.348944,-15.958475,0.28552154,-4.4166822,3.0422873,3.3675096,-5.929852,19.084036,-62.72577,70.23474,-11.349561,0.400871,6.4424667,-4.787166,-11.127496,27.928942,66.185646,-2.1928043,1.2645134,-2.604303
147,-3.1376705169677734,-0.735209584236145,77.88703155517578,0.8334256949823535,-1.050569502757234,-91.54987412359019,0.46580207,7.9576454,7.8373966,13.916827,-11.202194,-10.694541,-0.80600023,-3.3291237,-19.65989,16.194199,-15.957544,0.22689474,-4.42244,3.1780078,3.3097613,-5.885142,19.03938,-62.54,70.102234,-11.256981,0.41484362,6.437281,-4.7452292,-11.170201,27.934092,66.15885,-2.501668,1.161,-2.402349
148,-3.236799716949463,-0.7865743041038513,77.89025115966797,0.8678069256679266,-1.0620616329341521,-91.55776835587803,0.52807665,8.006725,7.8271112,13.909598,-11.135987,-10.776981,-0.67221445,-3.2529185,-19.665382,16.032003,-15.951529,0.16431531,-4.4290104,3.3151982,3.2504842,-5.8431683,18.991793,-62.348293,69.96231,-11.194915,0.42302632,6.43927,-4.7138453,-11.213534,27.949705,66.1266,-2.6850257,1.1186737,-2.2742171
149,-3.336087703704834,-0.8373323082923889,77.8966293334961,0.8957582707468446,-1.0703124585936168,-91.55144917006449,0.57440037,8.062163,7.801382,13.917455,-11.077239,-10.850214,-0.53588265,-3.1689818,-19.685373,15.860834,-15.940929,0.09450638,-4.4540462,3.4691145,3.19194,-5.8011317,18.91314,-62.111256,69.83298,-11.1589775,0.4195564,6.4509454,-4.6955357,-11.283303,28.004478,66.06866,-2.6738832,1.1771259,-2.2521079
150,-3.435487747192383,-0.887656569480896,77.90013122558594,0.918282740283708,-1.0778895388577117,-91.53598120541896,0.6114126,8.1210375,7.766134,13.936169,-11.023205,-10.916569,-0.39640814,-3.0810802,-19.714457,15.683809,-15.927486,0.020934274,-4.475145,3.624128,3.1322348,-5.7629304,18.823772,-61.853294,69.70341,-11.153449,0.40808308,6.470452,-4.6786942,-11.358227,28.069649,65.99121,-2.5552118,1.2966528,-2.2946424
151,-3.5376977920532227,-0.9406458735466003,77.90315246582031,0.9362269381752429,-1.0847115363965634,-91.51378059847717,0.63894147,8.18563,7.7237353,13.967249,-10.976005,-10.9852915,-0.25456196,-2.9874434,-19.75191,15.501216,-15.908635,-0.051507864,-4.4990644,3.779936,3.0723944,-5.7253036,18.724878,-61.58461,69.568565,-11.152141,0.39566243,6.4938684,-4.6651983,-11.438915,28.14386,65.91516,-2.404376,1.4228525,-2.354717
152,-3.6348109245300293,-0.9902103543281555,77.90747833251953,0.9463857977344715,-1.0910108217008256,-91.4874500507497,0.6595464,8.257874,7.676915,14.005745,-10.934695,-11.065636,-0.11012161,-2.8860562,-19.79679,15.310678,-15.879826,-0.11775934,-4.525724,3.9359894,3.0131292,-5.6926723,18.619167,-61.335026,69.42444,-11.142431,0.38895473,6.5170784,-4.6438265,-11.522705,28.207458,65.84915,-2.3099806,1.5017952,-2.3839219
153,-3.7433359622955322,-1.0355886220932007,77.9101333618164,0.9483603972694681,-1.0954937796029567,-91.4579492353466,0.6710974,8.344147,7.62802,14.054245,-10.903772,-11.166233,0.03855252,-2.7704184,-19.85103,15.105377,-15.83381,-0.17233002,-4.550631,4.0922704,2.952747,-5.664716,18.508656,-61.096626,69.27327,-11.119291,0.39034924,6.533154,-4.6187983,-11.609367,28.269615,65.802345,-2.2934647,1.5046918,-2.360391
154,-3.8482017517089844,-1.0822498798370361,77.90814208984375,0.9412078139313407,-1.098580144464296,-91.42385604609007,0.6743321,8.441161,7.5753546,14.111145,-10.880839,-11.280169,0.19091916,-2.643452,-19.914145,14.888049,-15.774695,-0.21898425,-4.5760827,4.2489095,2.8914218,-5.638667,18.394499,-60.85957,69.11159,-11.091386,0.39764562,6.5463824,-4.586406,-11.698264,28.327715,65.76158,-2.3187282,1.4652904,-2.3124604
155,-3.9466750621795654,-1.1309703588485718,77.90689086914062,0.9339010711416849,-1.1025461131750627,-91.38408309363462,0.6718531,8.536872,7.5148067,14.176614,-10.860103,-11.393132,0.3446452,-2.5173938,-19.982044,14.670583,-15.715489,-0.26679727,-4.6064463,4.4019303,2.833126,-5.6158786,18.277489,-60.647488,68.93426,-11.059073,0.40599385,6.568883,-4.558607,-11.789552,28.378239,65.73448,-2.3426976,1.4223058,-2.2690237
156,-4.048767566680908,-1.1777317523956299,77.90802764892578,0.9353407915618962,-1.110030265177613,-91.33761336592579,0.6649412,8.620091,7.442066,14.253898,-10.837488,-11.490955,0.49448362,-2.4051588,-20.050377,14.471473,-15.673161,-0.32485586,-4.645512,4.54803,2.781239,-5.598461,18.158628,-60.489605,68.73184,-11.027299,0.415246,6.613562,-4.5379167,-11.882906,28.407063,65.72169,-2.333971,1.4147819,-2.2582273
157,-4.147772312164307,-1.2281768321990967,77.91373443603516,0.9494048174367138,-1.1222387144567776,-91.28326050812576,0.65199274,8.683419,7.3527894,14.347105,-10.808045,-11.563547,0.63693666,-2.3150554,-20.117617,14.301859,-15.6564045,-0.4008102,-4.6938887,4.6824555,2.7378576,-5.5842175,18.03817,-60.391933,68.4948,-10.994599,0.42988387,6.691974,-4.525202,-11.978726,28.407202,65.723785,-2.2668397,1.4652787,-2.3039706
158,-4.245126247406006,-1.2746105194091797,77.91471862792969,0.9708359740392641,-1.1377996296666029,-91.22183520061502,0.6325339,8.734533,7.2502847,14.455159,-10.776509,-11.620636,0.77440006,-2.2388701,-20.1864,14.152115,-15.656113,-0.48820055,-4.7479253,4.8085175,2.7014742,-5.5744624,17.91633,-60.343754,68.2294,-10.962099,0.44915465,6.79466,-4.51968,-12.076752,28.387161,65.74174,-2.1613824,1.5474367,-2.385691
159,-4.343076229095459,-1.3133314847946167,77.91242980957031,0.991775407886518,-1.1547373873648514,-91.15521097787735,0.61272544,8.784645,7.1418266,14.563173,-10.746309,-11.677732,0.91612095,-2.162132,-20.258446,13.997641,-15.655071,-0.5754246,-4.8067102,4.934237,2.6673188,-5.5702677,17.793581,-60.335846,67.95046,-10.92618,0.46394208,6.9025846,-4.5145383,-12.177526,28.348293,65.768875,-2.067346,1.6315137,-2.465188
160,-4.441856384277344,-1.3600172996520996,77.91168975830078,1.0039094047680628,-1.1713433211429176,-91.08541252670796,0.6000466,8.844386,7.035435,14.654435,-10.720388,-11.75033,1.0692602,-2.0717518,-20.335464,13.818427,-15.638795,-0.6506059,-4.86795,5.067869,2.6320894,-5.573834,17.670555,-60.35978,67.67181,-10.883353,0.46506926,6.996531,-4.5029416,-12.280305,28.290955,65.80023,-2.0338738,1.6842921,-2.5035658
161,-4.543166637420654,-1.406098484992981,77.90946960449219,1.0034622475170385,-1.1892814425285967,-91.00985640022216,0.5971077,8.91791,6.9318266,14.727014,-10.702026,-11.848376,1.2406349,-1.9627961,-20.42031,13.604315,-15.600764,-0.70769024,-4.9349756,5.212772,2.5974538,-5.586337,17.547693,-60.422234,67.38873,-10.832974,0.45141822,7.060927,-4.4934225,-12.386286,28.221111,65.84531,-2.0775464,1.6912141,-2.4776962
162,-4.636783599853516,-1.4492486715316772,77.90436553955078,0.9951246475452425,-1.2087774105552853,-90.92854509935201,0.60002166,8.998339,6.827549,14.788606,-10.688578,-11.961507,1.4279168,-1.8418422,-20.511011,13.360338,-15.548088,-0.75391906,-5.008891,5.3641596,2.5639577,-5.603474,17.425123,-60.52045,67.09471,-10.7738495,0.42764848,7.109343,-4.4752116,-12.495086,28.125816,65.89276,-2.18477,1.6731248,-2.412124
163,-4.731156826019287,-1.4992026090621948,77.90251922607422,0.9847758820375214,-1.2255776764074744,-90.84721513214583,0.6051499,9.081527,6.7233105,14.838423,-10.675296,-12.07504,1.6144313,-1.7161696,-20.602062,13.110807,-15.490288,-0.7972228,-5.080298,5.516813,2.5280764,-5.6285224,17.303637,-60.648525,66.80563,-10.714493,0.39245138,7.1670256,-4.4548197,-12.605993,28.018686,65.947426,-2.3074107,1.644703,-2.340922
164,-4.823639392852783,-1.5467088222503662,77.89741516113281,0.9754250935564335,-1.2355593500018842,-90.77149586259117,0.60754997,9.162929,6.6195273,14.878861,-10.659213,-12.174113,1.7914176,-1.5902555,-20.688229,12.86141,-15.432518,-0.8458829,-5.1418285,5.664948,2.4857113,-5.6615086,17.184494,-60.79508,66.53644,-10.659479,0.34470746,7.2590675,-4.4349117,-12.718169,27.911633,66.007774,-2.401964,1.6250178,-2.29833
165,-4.916224479675293,-1.5918984413146973,77.8940658569336,0.9654982675952691,-1.2377767154238906,-90.70386123322837,0.60525256,9.243712,6.515924,14.912832,-10.640924,-12.253003,1.9567962,-1.4633795,-20.767262,12.615129,-15.378199,-0.90294015,-5.193968,5.8085337,2.4344547,-5.7016582,17.069342,-60.970676,66.284294,-10.640951,0.27553788,7.402979,-4.4063997,-12.829708,27.798504,66.06704,-2.4725993,1.6157817,-2.294986
166,-5.008261203765869,-1.637761116027832,77.88987731933594,0.954932929456525,-1.2343833803352096,-90.64097376750436,0.6030187,9.325101,6.4126654,14.934297,-10.619608,-12.3202915,2.1192458,-1.3321445,-20.842463,12.35905,-15.319819,-0.96379244,-5.2386465,5.948827,2.3777413,-5.7482743,16.958849,-61.17533,66.04178,-10.643552,0.18838221,7.5818586,-4.383422,-12.940955,27.688711,66.138504,-2.521347,1.60805,-2.3128014
167,-5.100876331329346,-1.6821794509887695,77.8899154663086,0.9448890954668281,-1.2259364762129124,-90.57987186397784,0.59814185,9.40419,6.309816,14.948262,-10.597641,-12.382318,2.2705896,-1.203804,-20.915966,12.111336,-15.263179,-1.0249307,-5.279307,6.085307,2.3163512,-5.800652,16.853144,-61.385925,65.81746,-10.612611,0.101108335,7.768677,-4.352204,-13.051236,27.563627,66.20859,-2.5737472,1.6058303,-2.340833
168,-5.195251941680908,-1.724531888961792,77.88797760009766,0.937519423620423,-1.2127432276981562,-90.51745715385891,0.5910196,9.47765,6.207885,14.95303,-10.574162,-12.44543,2.40656,-1.0838866,-20.990252,11.882192,-15.210883,-1.0828277,-5.3164215,6.215914,2.2528796,-5.8612776,16.752073,-61.583626,65.621346,-10.495839,0.031680327,7.936944,-4.32459,-13.162352,27.431273,66.28582,-2.6212041,1.6120135,-2.3693244
169,-5.283741474151611,-1.765984058380127,77.88264465332031,0.9314562381260931,-1.191785843603733,-90.45015498790475,0.5755542,9.543637,6.1034513,14.9509945,-10.550078,-12.510828,2.5203173,-0.9756737,-21.069405,11.678484,-15.162664,-1.1350824,-5.3492713,6.340276,2.1859217,-5.934581,16.65543,-61.77427,65.45319,-10.248428,-0.01809935,8.085896,-4.317624,-13.275903,27.309492,66.38383,-2.640668,1.6249727,-2.3984506
170,-5.368162631988525,-1.8081245422363281,77.87899017333984,0.9291128391189794,-1.1639014153375769,-90.38050909842427,0.55539423,9.604089,5.9977837,14.938127,-10.52355,-12.575222,2.6178567,-0.8748268,-21.15136,11.489375,-15.115585,-1.1840532,-5.380981,6.4602046,2.1139855,-6.0166197,16.563166,-61.963478,65.30989,-9.910956,-0.05758776,8.227354,-4.3060975,-13.391101,27.174421,66.48221,-2.6635048,1.6447883,-2.4322128
171,-5.456031322479248,-1.8462175130844116,77.87242889404297,0.9267234727926528,-1.1354554873588094,-90.31472394769816,0.53788716,9.662353,5.8970637,14.919772,-10.497348,-12.638659,2.7064276,-0.77843606,-21.228235,11.315661,-15.076051,-1.233466,-5.4084077,6.5767155,2.043537,-6.101299,16.475601,-62.130116,65.191246,-9.547886,-0.08134553,8.354841,-4.286944,-13.5072365,27.025497,66.57622,-2.6898777,1.674173,-2.4665904
172,-5.538902759552002,-1.8825567960739136,77.86613464355469,0.9245451020736821,-1.112722395091563,-90.25904489043482,0.53474474,9.720994,5.8086004,14.8922615,-10.469934,-12.701101,2.7943902,-0.6830361,-21.292377,11.155234,-15.048674,-1.2870476,-5.42787,6.690038,1.9833547,-6.1863003,16.393803,-62.257076,65.09996,-9.22839,-0.08663347,8.461522,-4.280613,-13.624939,26.887642,66.68044,-2.6906538,1.7150377,-2.4984643
173,-5.621065139770508,-1.9262276887893677,77.86141967773438,0.9224998297765861,-1.0989632978452992,-90.21587326601295,0.55380404,9.782199,5.733903,14.8497505,-10.440083,-12.763204,2.8916311,-0.5837712,-21.340279,10.996046,-15.032042,-1.348232,-5.4443717,6.8035817,1.9353107,-6.266712,16.318504,-62.33121,65.04066,-8.9340515,-0.06394344,8.550552,-4.2647586,-13.742398,26.735119,66.7768,-2.6814473,1.7841733,-2.5312796
174,-5.703014373779297,-1.9646281003952026,77.85684204101562,0.9205598009367418,-1.0903149134140624,-90.18162685495663,0.58665305,9.843975,5.6692247,14.797071,-10.409773,-12.824739,2.9871862,-0.48530176,-21.376537,10.8515835,-15.02895,-1.4141171,-5.449843,6.9134793,1.8999552,-6.3528204,16.250275,-62.37105,65.01136,-8.640335,-0.018142872,8.624469,-4.3032813,-13.863503,26.633093,66.91978,-2.5840025,1.8725964,-2.567172
175,-5.782674789428711,-2.001751661300659,77.85282897949219,0.9205123403045185,-1.0825568574492874,-90.15355933601745,0.62315947,9.903655,5.614025,14.741965,-10.378684,-12.884635,3.0762448,-0.39153135,-21.405771,10.720407,-15.031542,-1.4789581,-5.4581957,7.0195174,1.864894,-6.4307446,16.190308,-62.374027,64.996025,-8.404923,0.032435134,8.6722355,-4.298505,-13.983577,26.490526,67.024864,-2.55656,1.9535068,-2.5943286
176,-5.8599419593811035,-2.034311532974243,77.84733581542969,0.9250361036520591,-1.0717027462236826,-90.12893426908929,0.65369457,9.958645,5.567708,14.69219,-10.346436,-12.94179,3.1550264,-0.30575854,-21.433016,10.598924,-15.030575,-1.5371517,-5.46533,7.1169944,1.8249729,-6.4994535,16.13991,-62.350834,64.98042,-8.282342,0.06969623,8.684456,-4.2438145,-14.099686,26.306702,67.084694,-2.6340115,1.9962497,-2.6031127
177,-5.9395341873168945,-2.066333055496216,77.84033203125,0.9365190519561867,-1.0558013365934047,-90.10971222908876,0.67907757,10.007562,5.5352154,14.642805,-10.311624,-12.994469,3.2184389,-0.2309901,-21.457531,10.49219,-15.025104,-1.5864704,-5.4450397,7.19711,1.7898967,-6.582168,16.101063,-62.317844,64.97149,-8.329379,0.08680569,8.656269,-4.302613,-14.221983,26.254827,67.238884,-2.6224144,1.974334,-2.5912807
178,-6.021519660949707,-2.1029913425445557,77.83370208740234,0.9525670431027329,-1.0375132836742695,-90.09642542227833,0.7029748,10.052431,5.5150504,14.593596,-10.275742,-13.043819,3.2711403,-0.16394699,-21.4774,10.397528,-15.018184,-1.6301885,-5.44539,7.274537,1.7404234,-6.6340933,16.074804,-62.227028,64.96266,-8.495657,0.09457205,8.590321,-4.180235,-14.334626,26.029663,67.238,-2.891145,1.9185486,-2.557533
179,-6.0950751304626465,-2.1334261894226074,77.82829284667969,0.9715037781090695,-1.0188122089397944,-90.08428111676122,0.7216046,10.093814,5.497479,14.552712,-10.239184,-13.09269,3.3164878,-0.103163384,-21.495693,10.315089,-15.01481,-1.6706493,-5.4106593,7.3361144,1.7106767,-6.7142024,16.06091,-62.156216,64.955605,-8.706101,0.09965715,8.502825,-4.272031,-14.456585,26.022684,67.416,-2.8908186,1.8445988,-2.5223286
180,-6.168982982635498,-2.165647506713867,77.82386016845703,0.9899254855416246,-1.0020184228174853,-90.06841383136867,0.7319227,10.13286,5.4728255,14.528236,-10.202592,-13.144013,3.3636842,-0.04406209,-21.515507,10.232533,-15.013788,-1.7102815,-5.4048986,7.396877,1.6784952,-6.7684865,16.05846,-62.06247,64.930504,-8.863657,0.109173015,8.4005785,-4.274038,-14.565781,25.92362,67.511055,-2.994387,1.7976756,-2.4889827
181,-6.243321895599365,-2.1979942321777344,77.82024383544922,1.009471720914952,-0.9874892151258455,-90.0464124826221,0.728439,10.168958,5.4360204,14.530945,-10.168092,-13.199172,3.4109113,0.011589875,-21.538021,10.156075,-15.019355,-1.7455298,-5.4029617,7.4555464,1.654882,-6.8183265,16.066015,-61.966343,64.88453,-8.96022,0.12974356,8.268683,-4.281882,-14.683824,25.827309,67.600105,-3.0619998,1.7744603,-2.4458177
182,-6.3096418380737305,-2.2217283248901367,77.81585693359375,1.0298123050702308,-0.9741505301101739,-90.02121645950227,0.71588695,10.201903,5.393297,14.550772,-10.133388,-13.256698,3.458531,0.0642143,-21.561571,10.080683,-15.025872,-1.7766316,-5.405696,7.5072536,1.635216,-6.8616014,16.08264,-61.858376,64.82926,-9.036112,0.15603316,8.107737,-4.3019547,-14.795043,25.738462,67.69737,-3.1132772,1.7600169,-2.395056
183,-6.3781304359436035,-2.2477450370788574,77.81001281738281,1.0502622049946726,-0.9618549255993432,-89.99608410936736,0.69964886,10.233183,5.3507905,14.578365,-10.09944,-13.31411,3.5004609,0.11255835,-21.584501,10.018135,-15.040012,-1.8109403,-5.4426975,7.560645,1.6033204,-6.871758,16.107878,-61.73207,64.76509,-9.090317,0.17681636,7.9514804,-4.113338,-14.892913,25.438179,67.6084,-3.4158368,1.7704674,-2.3561716
184,-6.454221248626709,-2.2751450538635254,77.80484008789062,1.0722757300543226,-0.9498205961627804,-89.97423267622716,0.68346334,10.264622,5.3143497,14.606622,-10.068202,-13.369496,3.5305257,0.15538138,-21.605474,9.980567,-15.068725,-1.8559803,-5.4209003,7.6003685,1.6077138,-6.937547,16.14073,-61.6901,64.7092,-9.131448,0.1785051,7.8433867,-4.2679243,-15.006297,25.481445,67.79641,-3.2405326,1.7936192,-2.3665802
185,-6.523521900177002,-2.298103094100952,77.7982406616211,1.0944520556216208,-0.9376407941358278,-89.95677186613514,0.6676925,10.297523,5.2867093,14.633239,-10.03968,-13.425582,3.5445912,0.19236283,-21.624437,9.973934,-15.116574,-1.9181876,-5.414056,7.6441708,1.6173859,-6.9956117,16.179201,-61.668552,64.651794,-9.138868,0.15203129,7.787533,-4.3897686,-15.116968,25.496912,67.939255,-3.0506885,1.8673632,-2.450284
186,-6.589165210723877,-2.3200011253356934,77.79217529296875,1.115549955614564,-0.92566661148864,-89.94183538819937,0.6507554,10.33073,5.264321,14.661901,-10.012708,-13.482463,3.5483792,0.22466119,-21.641815,9.987496,-15.177098,-1.9920408,-5.4215264,7.6891723,1.6240468,-7.0407047,16.222324,-61.661865,64.59495,-9.11878,0.10534135,7.7638235,-4.398114,-15.218024,25.390776,67.97356,-2.963318,1.9823192,-2.583781
187,-6.656219005584717,-2.3452742099761963,77.78466033935547,1.137406066226931,-0.9153828107558714,-89.92843391410658,0.6342977,10.36242,5.2439437,14.693272,-9.987664,-13.533392,3.5473864,0.25289354,-21.657684,10.014651,-15.244069,-2.0671573,-5.433248,7.7293763,1.6296016,-7.0802283,16.268335,-61.671585,64.5418,-9.094086,0.057612836,7.767473,-4.3576517,-15.311051,25.237654,67.95842,-2.9471388,2.0914872,-2.7129083
188,-6.721748352050781,-2.36930775642395,77.77999877929688,1.1618304067282779,-0.9080060185496924,-89.91546460784866,0.6194196,10.390762,5.222161,14.729705,-9.9657345,-13.57183,3.5477016,0.277819,-21.671707,10.046418,-15.309202,-2.1331391,-5.434291,7.759347,1.6434076,-7.1276827,16.315235,-61.69875,64.49387,-9.084087,0.027589878,7.794524,-4.4055634,-15.403918,25.190844,68.012054,-2.8789499,2.146349,-2.7839966
189,-6.784365177154541,-2.3925888538360596,77.77374267578125,1.188232284816009,-0.9047719397719443,-89.90361319182813,0.60879695,10.414841,5.199497,14.769513,-9.946538,-13.591027,3.5529947,0.29976866,-21.683184,10.0776415,-15.368328,-2.1874335,-5.449727,7.7821455,1.6559252,-7.161553,16.3618,-61.71783,64.448,-9.0907345,0.025560733,7.8579683,-4.425984,-15.4939575,25.142197,68.03185,-2.957547,2.1250963,-2.7588294
190,-6.844176292419434,-2.414442300796509,77.76893615722656,1.2157752304386855,-0.9048187552760026,-89.89310327713245,0.6000039,10.435835,5.1771,14.814261,-9.930604,-13.596208,3.55876,0.31807354,-21.692299,10.115665,-15.427574,-2.2354734,-5.4759955,7.7995605,1.6671048,-7.186041,16.407427,-61.739506,64.40689,-9.106141,0.039402157,7.95543,-4.4038467,-15.57923,25.068,68.0049,-3.1598923,2.0561485,-2.6740408
191,-6.903196811676025,-2.4358651638031006,77.7634048461914,1.2438789036861824,-0.9059776325417715,-89.88231515986061,0.59398603,10.454655,5.153975,14.856384,-9.913247,-13.598517,3.5671859,0.33522332,-21.700878,10.15082,-15.48301,-2.2790008,-5.502301,7.812452,1.6776959,-7.2075872,16.449474,-61.769466,64.3753,-9.122699,0.055150937,8.056085,-4.386615,-15.658619,25.00781,67.98102,-3.3492708,1.9757503,-2.5832198
192,-6.968829154968262,-2.461479902267456,77.75819396972656,1.271813323454673,-0.906345232596096,-89.86959505322231,0.5903928,10.472655,5.128721,14.891123,-9.891079,-13.609087,3.5829074,0.35504133,-21.710337,10.169553,-15.529599,-2.3197339,-5.5186095,7.8236284,1.689728,-7.233412,16.487478,-61.81422,64.35462,-9.135166,0.058755644,8.128856,-4.4240847,-15.736779,25.00625,68.00949,-3.3837762,1.9205507,-2.538934
193,-7.028177261352539,-2.487844228744507,77.75244903564453,1.2973335787886675,-0.906596181747627,-89.85314993005477,0.5893527,10.489557,5.099227,14.919163,-9.862716,-13.629764,3.6066113,0.37751007,-21.721502,10.17255,-15.567808,-2.3579893,-5.546839,7.837897,1.6922992,-7.2436523,16.51971,-61.860775,64.34862,-9.144078,0.03988345,8.168176,-4.3923883,-15.806652,24.940107,67.98978,-3.3674142,1.9098655,-2.569802
194,-7.083917617797852,-2.5189380645751953,77.74909973144531,1.3218572259776364,-0.9072923257047011,-89.83427252999309,0.5905193,10.50486,5.0667396,14.942703,-9.830209,-13.655077,3.6373496,0.40136743,-21.733532,10.16266,-15.598249,-2.3929453,-5.5608625,7.853404,1.6994904,-7.2603173,16.552704,-61.9348,64.34661,-9.158321,0.008488592,8.190565,-4.388431,-15.8877945,24.909548,67.99189,-3.214429,1.9182078,-2.6412416
195,-7.134446620941162,-2.5420265197753906,77.74742889404297,1.3465902054949521,-0.9064080768172041,-89.81611258756479,0.59495866,10.519441,5.0353355,14.957272,-9.794698,-13.68488,3.6715338,0.4267189,-21.745201,10.141922,-15.622212,-2.4244628,-5.572404,7.8685412,1.7053615,-7.272622,16.581417,-62.00324,64.346886,-9.159805,-0.019630486,8.193656,-4.3976827,-15.969814,24.903944,68.00116,-3.0351696,1.9295613,-2.7097561
196,-7.191991806030273,-2.5660862922668457,77.74310302734375,1.3707682709440234,-0.9017654889397141,-89.80175254165799,0.6037893,10.534445,5.008977,14.957055,-9.756551,-13.719036,3.7044392,0.45273763,-21.755499,10.113751,-15.641223,-2.4523277,-5.590578,7.8816304,1.7013311,-7.270725,16.603373,-62.041843,64.34668,-9.137382,-0.028356202,8.174482,-4.3640165,-16.043423,24.866047,67.966576,-2.9877527,1.9291852,-2.730116
197,-7.248143672943115,-2.5931236743927,77.73943328857422,1.3940475173312197,-0.8933064631121214,-89.79109496756652,0.6187261,10.550505,4.988156,14.938375,-9.716542,-13.758806,3.7382524,0.48071516,-21.765587,10.073655,-15.653273,-2.4739804,-5.607398,7.879901,1.6867117,-7.2674847,16.611076,-62.05594,64.36461,-9.072869,-0.0068390127,8.118806,-4.380517,-16.078863,24.876383,67.983734,-3.0632677,1.8849682,-2.6692553
198,-7.302393913269043,-2.625006675720215,77.73700714111328,1.4158041242280317,-0.8816121611995275,-89.78283114827727,0.6386012,10.567339,4.9708853,14.904437,-9.673879,-13.803644,3.7756817,0.5112189,-21.775589,10.017544,-15.655836,-2.4901905,-5.6272006,7.8947196,1.6737142,-7.2469363,16.62345,-62.040737,64.34912,-8.973882,0.035143565,8.031218,-4.325802,-16.16008,24.862003,67.903656,-3.2702146,1.8208946,-2.5418415
199,-7.349769115447998,-2.650512933731079,77.73556518554688,1.438132777775563,-0.866799768826678,-89.77814108499133,0.6596501,10.583375,4.957501,14.863758,-9.628659,-13.8513155,3.8092198,0.54090285,-21.782547,9.961455,-15.657597,-2.5065696,-5.640009,7.903821,1.6566796,-7.226666,16.629631,-62.022583,64.34226,-8.885465,0.07890416,7.9428463,-4.2912273,-16.230822,24.86206,67.84048,-3.4215832,1.7809557,-2.4285202
200,-7.400695323944092,-2.678004503250122,77.73381805419922,1.4634754500078893,-0.8486684834800975,-89.77819744476699,0.67834556,10.596731,4.9485226,14.823725,-9.580397,-13.899327,3.830497,0.56546205,-21.783718,9.922232,-15.666948,-2.5284734,-5.6469975,7.8985953,1.6307232,-7.204028,16.63064,-62.00877,64.35496,-8.844884,0.10752139,7.8843765,-4.2753325,-16.272402,24.853884,67.8061,-3.406804,1.8158334,-2.4008863
201,-7.4561333656311035,-2.7051403522491455,77.7323989868164,1.4922807281088282,-0.8255759632629012,-89.78536946425781,0.69402957,10.605312,4.9459615,14.784386,-9.527059,-13.948754,3.831905,0.58067834,-21.77573,9.912593,-15.690854,-2.55955,-5.6359305,7.887874,1.6032664,-7.1854277,16.629227,-62.007275,64.37722,-8.882997,0.11109118,7.872347,-4.2794724,-16.325457,24.852074,67.77886,-3.1010563,1.9695646,-2.4911687
202,-7.504569053649902,-2.7312211990356445,77.7301254272461,1.5243278048676676,-0.7979399028573597,-89.79834635462585,0.70826566,10.610682,4.948839,14.742883,-9.469889,-14.000286,3.819373,0.5900554,-21.761549,9.920735,-15.72291,-2.5958633,-5.6131334,7.875796,1.5721382,-7.1659393,16.623526,-62.010136,64.40444,-8.973327,0.10061984,7.88738,-4.2710905,-16.39004,24.834509,67.72911,-2.6272368,2.205493,-2.6563
203,-7.5517706871032715,-2.7583673000335693,77.73040771484375,1.5547157112588281,-0.7691522772107428,-89.81281708325089,0.720738,10.617155,4.9531612,14.702619,-9.412905,-14.050951,3.808535,0.6018417,-21.745487,9.921142,-15.749609,-2.6324754,-5.585554,7.8600745,1.5402331,-7.1466827,16.615559,-62.016148,64.43229,-9.070323,0.09111519,7.9068546,-4.2847166,-16.44129,24.826406,67.704895,-2.1017203,2.4517567,-2.8455267
204,-7.598955154418945,-2.785087823867798,77.7287826538086,1.58046318422521,-0.7423104673429357,-89.824603226159,0.73031557,10.629499,4.954841,14.669046,-9.361921,-14.097821,3.8136978,0.62421966,-21.733587,9.888481,-15.756523,-2.6631253,-5.570206,7.849912,1.5103993,-7.120551,16.6076,-62.014698,64.448784,-9.129714,0.09383662,7.906438,-4.2870355,-16.476624,24.802828,67.68193,-1.704448,2.6415572,-2.9994543
205,-7.647171497344971,-2.811678171157837,77.72831726074219,1.5982398136119027,-0.7180287490858109,-89.83199684695354,0.73537046,10.649032,4.9496713,14.645617,-9.317524,-14.139212,3.8437524,0.66108036,-21.728117,9.805663,-15.733895,-2.685152,-5.5619884,7.856171,1.4886999,-7.0937386,16.594412,-62.009735,64.44243,-9.139682,0.1215939,7.8758583,-4.2730436,-16.51946,24.768024,67.644264,-1.4563422,2.7611077,-3.0985901
206,-7.694187164306641,-2.8375468254089355,77.72758483886719,1.6146060875035178,-0.6943977117689175,-89.83768818398649,0.7374129,10.671265,4.9417906,14.62713,-9.276036,-14.176721,3.8834908,0.7036889,-21.72549,9.701376,-15.697308,-2.7017317,-5.5724587,7.8565407,1.4621199,-7.0536375,16.592175,-62.00205,64.42233,-9.134359,0.16442466,7.8308825,-4.2781863,-16.524508,24.749758,67.64382,-1.2764434,2.843092,-3.1842787
207,-7.736154079437256,-2.8621463775634766,77.72932434082031,1.6230487063984835,-0.6721538384821102,-89.8429597438608,0.7382689,10.70064,4.935648,14.612634,-9.240276,-14.213536,3.9378378,0.7582079,-21.724077,9.565766,-15.643656,-2.7170696,-5.561379,7.879335,1.4522874,-7.028366,16.569801,-61.991577,64.39788,-9.092769,0.20429063,7.779409,-4.246392,-16.570538,24.68321,67.5919,-1.1545035,2.9020815,-3.2423644
208,-7.780473709106445,-2.886726140975952,77.72865295410156,1.631164573962679,-0.649122765395738,-89.85091024946944,0.7421289,10.7309675,4.9407043,14.591037,-9.207675,-14.25101,3.9823694,0.81047773,-21.719805,9.448334,-15.60014,-2.7340527,-5.557091,7.893241,1.4360691,-6.9945345,16.555113,-61.987946,64.3816,-9.056121,0.2205154,7.740071,-4.2284036,-16.593239,24.638517,67.57163,-1.0381426,2.941105,-3.2992313
209,-7.823333263397217,-2.911853313446045,77.7286605834961,1.6349367289759527,-0.6253376260185616,-89.86197721675029,0.7520707,10.765922,4.964439,14.555749,-9.178817,-14.2904215,4.019265,0.86515373,-21.71196,9.344127,-15.565676,-2.7548,-5.559347,7.902432,1.4146278,-6.9467072,16.550589,-61.98373,64.37114,-9.005965,0.19871968,7.7103014,-4.22182,-16.598785,24.6107,67.58097,-0.9277696,2.9522028,-3.3483295
210,-7.864708423614502,-2.934314012527466,77.72799682617188,1.634715048880729,-0.6016980753200868,-89.87492688819025,0.76572716,10.80614,5.0006533,14.512833,-9.154206,-14.330465,4.0580425,0.9260291,-21.70223,9.233624,-15.528682,-2.7772882,-5.534809,7.9160967,1.4017924,-6.9151917,16.53443,-61.992752,64.375,-8.927899,0.15180293,7.6815734,-4.184394,-16.616323,24.528725,67.56321,-0.8673945,2.9357338,-3.3759103
211,-7.90382719039917,-2.9524028301239014,77.72593688964844,1.63403519027755,-0.5781395327281358,-89.8889815800988,0.7787277,10.845572,5.036034,14.471339,-9.130927,-14.369961,4.0921016,0.98436075,-21.691687,9.13206,-15.495321,-2.7985487,-5.519204,7.9280906,1.3880306,-6.8766723,16.523361,-62.00247,64.372406,-8.864804,0.10505997,7.665325,-4.1606164,-16.625727,24.476706,67.563446,-0.8098325,2.9125278,-3.4054618
212,-7.94143009185791,-2.9714694023132324,77.72059631347656,1.6348412493442672,-0.555438566342116,-89.90334090035515,0.78675866,10.879966,5.056515,14.442009,-9.106975,-14.407767,4.1217585,1.0356514,-21.681786,9.040527,-15.464319,-2.8160958,-5.4899898,7.93771,1.3819419,-6.855076,16.501461,-62.026016,64.37041,-8.83544,0.08328168,7.667662,-4.1286073,-16.640532,24.41647,67.54844,-0.7670402,2.9041746,-3.4446301
213,-7.975575923919678,-2.9915013313293457,77.724609375,1.6428749161383214,-0.534395390280488,-89.91621149317409,0.7869989,10.904724,5.0531816,14.431859,-9.079847,-14.439356,4.1475463,1.0746944,-21.67483,8.960856,-15.435555,-2.8272257,-5.474773,7.9430714,1.3829019,-6.832851,16.479637,-62.045975,64.352585,-8.8505745,0.10340915,7.7047944,-4.111357,-16.651472,24.391203,67.5404,-0.7321978,2.9158638,-3.5082984
214,-8.011295318603516,-3.0096991062164307,77.7219009399414,1.654620715589344,-0.5145826134279146,-89.92846141674646,0.7821147,10.92319,5.035142,14.434809,-9.052039,-14.466724,4.169677,1.1055168,-21.669603,8.891326,-15.409386,-2.833958,-5.467762,7.9458513,1.3892175,-6.8112917,16.455992,-62.064922,64.326004,-8.895369,0.14878081,7.7678304,-4.0971,-16.659922,24.380873,67.53246,-0.7181774,2.9363399,-3.586081
215,-8.047635078430176,-3.02606463432312,77.7187728881836,1.664312066442971,-0.49410709275328263,-89.94358211580237,0.7790796,10.94346,5.0161524,14.433423,-9.023892,-14.498544,4.1875086,1.1370364,-21.661562,8.826738,-15.384437,-2.840822,-5.453992,7.947302,1.3983442,-6.7960453,16.428982,-62.081253,64.3026,-8.954822,0.19378673,7.8279643,-4.098407,-16.6668,24.391218,67.53475,-0.68663,2.9622965,-3.6603127
216,-8.083610534667969,-3.0421557426452637,77.71556854248047,1.668515423957727,-0.47149164755706685,-89.96486688309369,0.7826827,10.973307,5.0094275,14.415624,-8.998583,-14.543207,4.2026443,1.17833,-21.64629,8.75987,-15.359315,-2.8522635,-5.432119,7.949315,1.4052087,-6.7786336,16.41058,-62.083294,64.275475,-9.016457,0.2155646,7.8563137,-4.096698,-16.669928,24.399109,67.53124,-0.64573634,2.991111,-3.7137897
217,-8.122932434082031,-3.056011438369751,77.71118927001953,1.6632193924737473,-0.4459320670456536,-89.9943055707035,0.7959871,11.015802,5.020219,14.374201,-8.975477,-14.606086,4.2132382,1.2325487,-21.621056,8.691044,-15.334367,-2.8698173,-5.3916893,7.95345,1.406646,-6.773473,16.374401,-62.070057,64.283356,-9.087053,0.19634387,7.8353705,-4.1043167,-16.673681,24.417603,67.53031,-0.49951997,3.050713,-3.7654033
218,-8.160213470458984,-3.0731444358825684,77.7077407836914,1.6544170335163382,-0.41864130452165554,-90.02970294706978,0.8152152,11.066638,5.040721,14.318494,-8.954005,-14.681789,4.2203803,1.2950201,-21.588823,8.621685,-15.309451,-2.8910418,-5.3364277,7.9555306,1.4084097,-6.7666025,16.356102,-62.048435,64.275345,-9.171833,0.15763982,7.7839966,-4.1051726,-16.674309,24.425713,67.516235,-0.30435207,3.1331773,-3.816651
219,-8.192693710327148,-3.0869226455688477,77.70281219482422,1.6408037389352865,-0.3899748794638644,-90.06842519548323,0.8381998,11.121528,5.065705,14.253676,-8.934261,-14.762125,4.223901,1.3610287,-21.553364,8.5548725,-15.285251,-2.914198,-5.2762265,7.958006,1.4116348,-6.763686,16.34215,-62.02448,64.26795,-9.249991,0.11245973,7.7260327,-4.115582,-16.67374,24.448725,67.51066,-0.17965661,3.180958,-3.8224301
220,-8.225085258483887,-3.101212978363037,77.6986083984375,1.6263523944093363,-0.3603523238744792,-90.10796380235533,0.86222386,11.176568,5.0899897,14.185871,-8.916924,-14.839086,4.226557,1.4271247,-21.518742,8.487437,-15.259723,-2.937499,-5.2385035,7.9663043,1.411716,-6.751459,16.321377,-61.983513,64.26275,-9.293896,0.08109176,7.6868706,-4.1083946,-16.668955,24.480156,67.498795,-0.30034956,3.1390371,-3.73857
221,-8.259671211242676,-3.112788200378418,77.69246673583984,1.6098787276571689,-0.33052094791040604,-90.14899340921444,0.8889785,11.232548,5.1128263,14.114376,-8.903051,-14.914102,4.2274623,1.4933907,-21.485426,8.422335,-15.233317,-2.9617035,-5.2005587,7.9775205,1.412924,-6.738799,16.3094,-61.953506,64.24368,-9.29856,0.068568856,7.6750765,-4.0811377,-16.66286,24.515104,67.48459,-0.80665743,2.9439566,-3.4977355
222,-8.290573120117188,-3.125828981399536,77.68476867675781,1.5906896013479235,-0.29978180182287917,-90.19141235354161,0.9192862,11.289119,5.136114,14.034857,-8.890871,-14.989785,4.2243314,1.5589187,-21.452309,8.363054,-15.208491,-2.9868193,-5.1849732,7.9922795,1.4112993,-6.717038,16.291561,-61.90058,64.22952,-9.26915,0.06364233,7.676048,-4.0459714,-16.647057,24.567438,67.476585,-1.5926325,2.6378758,-3.1472843
223,-8.317671775817871,-3.1399857997894287,77.67912292480469,1.5771078627557953,-0.2665288667199618,-90.23053075802653,0.95217294,11.330453,5.15734,13.940145,-8.872121,-15.000033,4.2084146,1.6122752,-21.421782,8.325829,-15.194365,-3.0090432,-5.178162,7.999296,1.405533,-6.697815,16.270624,-61.8493,64.22558,-9.230751,0.06276571,7.6821804,-4.018633,-16.620466,24.622814,67.47888,-2.3795025,2.3233287,-2.8076699
224,-8.34396743774414,-3.1528921127319336,77.67221069335938,1.564221731358616,-0.230525883352729,-90.26829734527303,0.9811383,11.369433,5.1797004,13.845816,-8.852001,-15.000033,4.1907754,1.6650681,-21.390797,8.28614,-15.180358,-3.0292065,-5.158147,8.00336,1.4020712,-6.6915627,16.25997,-61.82499,64.21693,-9.210306,0.062833756,7.685056,-3.9922001,-16.6017,24.655964,67.4601,-2.896622,2.1104932,-2.5882952
225,-8.372654914855957,-3.1667985916137695,77.6668701171875,1.5523482093662098,-0.19190165796372463,-90.30546819164921,1.0102286,11.406133,5.2018347,13.743465,-8.826799,-15.000033,4.1728334,1.7180566,-21.357445,8.239355,-15.163613,-3.046911,-5.136773,8.001747,1.3996339,-6.6952424,16.25038,-61.81093,64.21713,-9.206491,0.06298254,7.6834884,-4.0050225,-16.579062,24.691608,67.45623,-3.003487,2.0538077,-2.5513072
226,-8.399764060974121,-3.177774429321289,77.6626968383789,1.5413946795767557,-0.15090204405843785,-90.34267423944426,1.034479,11.442148,5.223226,13.645277,-8.801822,-15.000033,4.151414,1.7703804,-21.322475,8.194007,-15.148435,-3.0630066,-5.111482,7.9960933,1.397575,-6.7085805,16.242544,-61.81048,64.22313,-9.211584,0.06556696,7.681804,-4.039904,-16.553385,24.729256,67.45808,-2.8643265,2.0896633,-2.6243834
227,-8.421272277832031,-3.188040018081665,77.65866088867188,1.5309299199379651,-0.10756287581781304,-90.37762094999147,1.0526814,11.477985,5.2483687,13.552496,-8.779341,-15.000033,4.1294136,1.8225962,-21.289213,8.143706,-15.131354,-3.078008,-5.0858216,7.996078,1.3993845,-6.7249603,16.241253,-61.81449,64.220375,-9.213617,0.06809444,7.6774635,-4.0497828,-16.546303,24.737524,67.41908,-2.6794753,2.1493866,-2.714062
228,-8.44909954071045,-3.1981303691864014,77.65459442138672,1.519845831626953,-0.062024064877167565,-90.40791388294593,1.0602224,11.514499,5.2809997,13.473662,-8.763635,-15.000033,4.107009,1.8734715,-21.261042,8.090268,-15.114276,-3.0925295,-5.070675,7.982732,1.3917553,-6.7440205,16.23679,-61.82995,64.24497,-9.215631,0.06636754,7.6725016,-4.0963964,-16.504902,24.772263,67.43416,-2.5761545,2.1588979,-2.7490656
229,-8.47592544555664,-3.2087337970733643,77.64998626708984,1.5081195606314248,-0.012173283074001468,-90.43293259543856,1.0541527,11.553615,5.327951,13.4098015,-8.757972,-15.000033,4.083184,1.9244183,-21.239513,8.030673,-15.09609,-3.1069095,-5.0718102,7.9745245,1.3791205,-6.7545047,16.235563,-61.836082,64.27192,-9.199181,0.05857658,7.660508,-4.092966,-16.467497,24.757637,67.40671,-2.7003963,2.0882034,-2.6745632
230,-8.499788284301758,-3.2206192016601562,77.64546966552734,1.497152773755566,0.04114327631442884,-90.45397466231883,1.0377358,11.594184,5.3853,13.356635,-8.759088,-15.000033,4.0585585,1.9753196,-21.222324,7.9648924,-15.076349,-3.1208298,-5.076927,7.957788,1.3595638,-6.767604,16.237091,-61.85261,64.31404,-9.176813,0.046956394,7.644501,-4.089397,-16.409353,24.721432,67.390854,-2.916471,1.9763967,-2.5501833
231,-8.524760246276855,-3.2336502075195312,77.63981628417969,1.4874528529803053,0.0942035519082298,-90.47145024635083,1.0140059,11.632805,5.4405303,13.316897,-8.763292,-15.000033,4.0328665,2.0224662,-21.208189,7.9023314,-15.058466,-3.1334481,-5.084724,7.937051,1.3418031,-6.78454,16.242064,-61.875294,64.359,-9.154969,0.03574549,7.6294866,-4.0881224,-16.345165,24.682964,67.37356,-3.1265433,1.870111,-2.4276009
232,-8.54921817779541,-3.241730213165283,77.63346862792969,1.4811399363581768,0.142804120421866,-90.48599851295229,0.9860513,11.666335,5.481023,13.293209,-8.767655,-15.000033,4.006657,2.063257,-21.195436,7.850865,-15.045093,-3.1441624,-5.0887065,7.916298,1.3366363,-6.8109865,16.247866,-61.903027,64.398674,-9.138911,0.028698983,7.620563,-4.102229,-16.296041,24.669083,67.35008,-3.2184842,1.8156362,-2.3568122
233,-8.570334434509277,-3.2502400875091553,77.63001251220703,1.47948684509369,0.18591023769244286,-90.49774164683943,0.9524871,11.693342,5.5019555,13.290508,-8.771091,-15.000033,3.978483,2.09583,-21.18355,7.8142557,-15.037437,-3.1525788,-5.0924807,7.8822165,1.337589,-6.8443503,16.257769,-61.93848,64.44279,-9.134375,0.02849871,7.621503,-4.104088,-16.227856,24.634174,67.30654,-3.2063224,1.8412924,-2.3737803
234,-8.593358993530273,-3.259141445159912,77.62776184082031,1.4822425812276736,0.22567915577832584,-90.50635699350565,0.91168153,11.716275,5.5103097,13.307301,-8.776263,-15.000033,3.9480596,2.122368,-21.173172,7.7892547,-15.034852,-3.159248,-5.0932927,7.8430715,1.3480918,-6.8879957,16.269749,-61.982296,64.48686,-9.136087,0.033335444,7.6291766,-4.1237864,-16.15987,24.617016,67.26396,-3.089726,1.9168648,-2.4417472
235,-8.613229751586914,-3.2675530910491943,77.62615203857422,1.485051332446328,0.26299964811555576,-90.51174175316488,0.86966413,11.735331,5.5122166,13.329384,-8.780261,-15.000033,3.9216053,2.1455493,-21.165426,7.7624464,-15.03051,-3.1643019,-5.100588,7.8123274,1.3642474,-6.93073,16.278414,-62.020073,64.52527,-9.136426,0.03767987,7.6364074,-4.119338,-16.11386,24.592712,67.18697,-2.966733,2.0033298,-2.5117874
236,-8.633126258850098,-3.2759270668029785,77.62261962890625,1.488829012718552,0.2982751249183132,-90.51390774273561,0.8330869,11.750228,5.5140967,13.341263,-8.779031,-15.000033,3.8985963,2.164952,-21.161211,7.7355156,-15.025107,-3.1679602,-5.1063404,7.776304,1.3778186,-6.974542,16.290316,-62.067604,64.56312,-9.138378,0.040886868,7.6383233,-4.1291757,-16.053131,24.574863,67.13865,-2.8806329,2.0566506,-2.547804
237,-8.647744178771973,-3.2851154804229736,77.62154388427734,1.4914252452740033,0.33152515198906923,-90.51241581815596,0.8011098,11.761703,5.516817,13.343627,-8.773473,-15.000033,3.8845153,2.1829848,-21.161066,7.6971183,-15.012031,-3.1696777,-5.1234713,7.7444973,1.388998,-7.0116606,16.304047,-62.110302,64.5949,-9.136432,0.042289417,7.6300063,-4.1400366,-15.987932,24.559296,67.10305,-2.8642223,2.064083,-2.5301332
