unveil-humanoid-operators/unveil-humanoid-operators.github.io/feature-analysis-animation/data/trajectories/standing_idle_heavy.csv
Frame,root_translateX,root_translateY,root_translateZ,root_rotateX,root_rotateY,root_rotateZ,left_hip_pitch_joint_dof,left_hip_roll_joint_dof,left_hip_yaw_joint_dof,left_knee_joint_dof,left_ankle_pitch_joint_dof,left_ankle_roll_joint_dof,right_hip_pitch_joint_dof,right_hip_roll_joint_dof,right_hip_yaw_joint_dof,right_knee_joint_dof,right_ankle_pitch_joint_dof,right_ankle_roll_joint_dof,waist_yaw_joint_dof,waist_roll_joint_dof,waist_pitch_joint_dof,left_shoulder_pitch_joint_dof,left_shoulder_roll_joint_dof,left_shoulder_yaw_joint_dof,left_elbow_joint_dof,left_wrist_roll_joint_dof,left_wrist_pitch_joint_dof,left_wrist_yaw_joint_dof,right_shoulder_pitch_joint_dof,right_shoulder_roll_joint_dof,right_shoulder_yaw_joint_dof,right_elbow_joint_dof,right_wrist_roll_joint_dof,right_wrist_pitch_joint_dof,right_wrist_yaw_joint_dof
0,-0.2732650935649872,1.6250230073928833,78.08565521240234,0.26498573456596114,4.027594680695246,-86.0226731721759,-5.239659,-3.4109414,-3.0045695,9.3788185,-9.966014,-0.3195858,-6.0419016,-7.5533905,-10.917943,9.170057,-6.157526,5.4350853,-1.1549592,-1.0151061,6.297133,-10.76923,22.81881,-51.7424,54.790916,9.757126,7.884734,4.058024,-7.246821,-21.090584,47.64012,53.012024,-12.365922,9.660871,-6.4121256
1,-0.2730805575847626,1.625193476676941,78.0856704711914,0.26469984422831383,4.025987893978428,-86.02174597204733,-5.2391453,-3.4046803,-2.9979057,9.382693,-9.971587,-0.3180426,-6.0395465,-7.5497637,-10.921088,9.168903,-6.157541,5.431907,-1.1582942,-1.0123217,6.3036766,-10.774023,22.825811,-51.742012,54.764988,9.766528,7.8977847,4.038823,-7.246728,-21.097721,47.63883,52.998005,-12.375314,9.674421,-6.4085817
2,-0.2814428210258484,1.6253421306610107,78.08624267578125,0.2642536279445446,4.023951304332804,-86.020869360134,-5.2384305,-3.397977,-2.990571,9.386962,-9.977721,-0.31655732,-6.035707,-7.5457597,-10.924619,9.165832,-6.1567693,5.428774,-1.1600696,-1.0096426,6.3100305,-10.776775,22.83024,-51.740128,54.736862,9.77956,7.9147434,4.0177865,-7.245442,-21.102314,47.63656,52.983746,-12.384731,9.690279,-6.4057007
3,-0.2882575988769531,1.626132607460022,78.08646392822266,0.2643356778450874,4.02260225076254,-86.02001556235678,-5.2380986,-3.392157,-2.984649,9.390141,-9.982397,-0.31499302,-6.0340486,-7.54224,-10.927436,9.16497,-6.156553,5.4255056,-1.162587,-1.0073713,6.3156114,-10.780145,22.836174,-51.73812,54.71276,9.792259,7.926057,4.001346,-7.245003,-21.108541,47.634068,52.971478,-12.394965,9.703175,-6.4024434
4,-0.293861985206604,1.6264971494674683,78.08658599853516,0.2654704990387719,4.0225400884879265,-86.0194439098928,-5.2387204,-3.3880532,-2.9821448,9.390842,-9.983207,-0.31330407,-6.0344505,-7.539297,-10.928939,9.16484,-6.1561766,5.4218364,-1.1659259,-1.0065032,6.3195996,-10.785224,22.837942,-51.739594,54.696,9.802141,7.9267125,3.9976091,-7.2474184,-21.110407,47.635113,52.961987,-12.403204,9.711996,-6.3991613
5,-0.2974650263786316,1.627103567123413,78.08668518066406,0.2680952149626177,4.024365229211253,-86.01924352333421,-5.241786,-3.3870547,-2.98552,9.389701,-9.9786825,-0.31098908,-6.037392,-7.5371766,-10.928741,9.164247,-6.15421,5.4174733,-1.169246,-1.0075514,6.32512,-10.793493,22.843624,-51.74897,54.682747,9.805465,7.9118814,4.014954,-7.253959,-21.116537,47.642155,52.94873,-12.403141,9.719137,-6.3969502
6,-0.30439504981040955,1.6262911558151245,78.08698272705078,0.2716361864514134,4.027518268470874,-86.01947967280339,-5.246239,-3.3878932,-2.9928555,9.386384,-9.970005,-0.30822667,-6.0436726,-7.5357304,-10.92707,9.16644,-6.152914,5.412588,-1.1744843,-1.0086405,6.326589,-10.8012705,22.844576,-51.75394,54.677345,9.812844,7.886743,4.041028,-7.2607117,-21.117516,47.64615,52.941418,-12.408084,9.720116,-6.39293
7,-0.3089629113674164,1.6266796588897705,78.08885192871094,0.2756757211462964,4.0314305949230675,-86.01948740278621,-5.2501645,-3.389292,-3.0005994,9.38019,-9.959694,-0.30602804,-6.051438,-7.534831,-10.924797,9.169873,-6.1521544,5.407787,-1.1764535,-1.0126563,6.330402,-10.810342,22.847366,-51.766136,54.67703,9.818634,7.854791,4.077821,-7.272468,-21.12061,47.657272,52.934135,-12.404922,9.720659,-6.39095
8,-0.3155529499053955,1.6279548406600952,78.09031677246094,0.2790740782034255,4.033546861530884,-86.01957246673594,-5.2497926,-3.3889058,-3.004349,9.370935,-9.950915,-0.3054605,-6.056991,-7.533429,-10.92218,9.173411,-6.1523175,5.4036407,-1.1797774,-1.0151129,6.3301244,-10.823808,22.854006,-51.791355,54.67537,9.802892,7.836954,4.1028767,-7.278473,-21.127855,47.67758,52.92377,-12.397405,9.722435,-6.3929496
9,-0.32037991285324097,1.6280282735824585,78.09114074707031,0.2820829004814557,4.033543789660119,-86.01916174294904,-5.2456565,-3.3864934,-3.0021412,9.36141,-9.946702,-0.3063272,-6.0576506,-7.5312395,-10.919169,9.17255,-6.151029,5.4017515,-1.1783954,-1.0172472,6.3323836,-10.8322735,22.859568,-51.797333,54.667553,9.810167,7.8359785,4.1072726,-7.282128,-21.134306,47.685448,52.917286,-12.409571,9.723637,-6.3933353
10,-0.3262501060962677,1.629185676574707,78.09058380126953,0.28450839363039243,4.032694840482001,-86.01819942216373,-5.2396593,-3.3827882,-2.996934,9.351834,-9.94536,-0.30826256,-6.055423,-7.5285277,-10.915942,9.168215,-6.148213,5.4013166,-1.1775819,-1.0178933,6.3332586,-10.842008,22.86097,-51.79918,54.66396,9.819719,7.843275,4.10227,-7.284817,-21.13589,47.68853,52.916737,-12.4341345,9.724755,-6.39318
11,-0.3315276503562927,1.6299463510513306,78.08995819091797,0.2866122746880912,4.030439651789605,-86.01800776957808,-5.2282577,-3.3781364,-2.990611,9.334604,-9.940566,-0.3119901,-6.053962,-7.5256968,-10.912293,9.169101,-6.1493053,5.399288,-1.1772964,-1.0188518,6.3382883,-10.857777,22.866512,-51.80395,54.658836,9.820078,7.855705,4.092647,-7.2885704,-21.142134,47.698265,52.909836,-12.451431,9.72608,-6.3958044
12,-0.33632105588912964,1.6295515298843384,78.09136962890625,0.2867433550188737,4.028643601848354,-86.0182321712255,-5.220584,-3.372175,-2.9865515,9.323861,-9.937786,-0.31854692,-6.052741,-7.520885,-10.910874,9.170724,-6.152622,5.392493,-1.1769528,-1.01755,6.3404117,-10.8717,22.869373,-51.80643,54.65774,9.817931,7.8641667,4.0857983,-7.2941413,-21.14524,47.703228,52.908493,-12.460607,9.726562,-6.396895
13,-0.3415184020996094,1.6305254697799683,78.0914535522461,0.28381968859687023,4.026844334323616,-86.01910591495204,-5.214951,-3.363654,-2.9860198,9.316387,-9.934443,-0.33030185,-6.052349,-7.513387,-10.912658,9.17588,-6.160958,5.3769436,-1.1763318,-1.0133828,6.3419633,-10.882479,22.874695,-51.807358,54.653416,9.808396,7.8698716,4.08274,-7.299072,-21.150778,47.708733,52.901783,-12.447763,9.726453,-6.398403
14,-0.347411572933197,1.6312346458435059,78.0921630859375,0.27887473322345707,4.024637500356128,-86.02064215741507,-5.2096934,-3.3534021,-2.987515,9.310166,-9.930735,-0.34600374,-6.0519905,-7.503953,-10.916622,9.183262,-6.1730566,5.3554244,-1.1740396,-1.0078362,6.342559,-10.89122,22.878357,-51.805286,54.649452,9.797477,7.876072,4.0800643,-7.3053675,-21.154552,47.711777,52.897667,-12.4230175,9.725919,-6.3999405
15,-0.3518561124801636,1.631346583366394,78.09247589111328,0.2737276492157505,4.022689034619817,-86.02253276508327,-5.206273,-3.3430758,-2.9886413,9.307518,-9.92859,-0.3612013,-6.05173,-7.4942207,-10.920392,9.1902275,-6.1843114,5.33472,-1.1710106,-1.0018938,6.341663,-10.898436,22.880117,-51.802574,54.64805,9.787016,7.879777,4.0784936,-7.30999,-21.156273,47.712727,52.89339,-12.399034,9.725368,-6.4015784
16,-0.3563287556171417,1.6320934295654297,78.09333038330078,0.27089722830785423,4.020918642101914,-86.02510489107627,-5.203385,-3.3351243,-2.9872024,9.305907,-9.927216,-0.37136832,-6.050803,-7.486704,-10.921343,9.192789,-6.1894913,5.3219266,-1.1716695,-0.99780935,6.3435044,-10.908851,22.884617,-51.798584,54.650913,9.776389,7.8779473,4.0769305,-7.3187275,-21.160421,47.71615,52.89068,-12.387346,9.724895,-6.4030023
17,-0.36156100034713745,1.6313410997390747,78.09204864501953,0.27099702300292333,4.019209021598148,-86.02855524497441,-5.201105,-3.3302498,-2.981134,9.30707,-9.928465,-0.37437588,-6.0491004,-7.481997,-10.917436,9.189553,-6.185734,5.3213162,-1.1735425,-0.99622476,6.34579,-10.917121,22.891138,-51.79519,54.655308,9.7684965,7.8678927,4.0775867,-7.3248744,-21.16575,47.718956,52.88637,-12.397107,9.724541,-6.4057803
18,-0.36640116572380066,1.6303085088729858,78.09059143066406,0.27337721437253093,4.017456937870027,-86.03272346444493,-5.2004123,-3.3274941,-2.9720004,9.312746,-9.93269,-0.37287644,-6.0456443,-7.479098,-10.910523,9.180329,-6.175057,5.3285136,-1.1744959,-0.996581,6.3486247,-10.925649,22.89658,-51.79348,54.663033,9.761936,7.8524427,4.0800047,-7.331158,-21.169643,47.72083,52.883244,-12.418217,9.7243595,-6.409596
19,-0.3704873025417328,1.6300125122070312,78.09036254882812,0.2760254565895299,4.016602213087702,-86.03695147085344,-5.2002273,-3.325343,-2.9635737,9.316739,-9.935222,-0.36977926,-6.0450773,-7.477063,-10.903821,9.174476,-6.165278,5.33684,-1.176289,-0.9976437,6.3517084,-10.932267,22.907995,-51.79049,54.667458,9.757095,7.836962,4.081623,-7.3352857,-21.176844,47.719894,52.87552,-12.442591,9.725387,-6.411015
20,-0.3735155761241913,1.6307920217514038,78.0911636352539,0.2777651919324616,4.017610942447976,-86.04027619428959,-5.205086,-3.323064,-2.9593558,9.324277,-9.937449,-0.3677716,-6.047427,-7.474862,-10.901159,9.171822,-6.1585603,5.3398376,-1.1762189,-0.998296,6.350087,-10.940703,22.913774,-51.78901,54.680325,9.757523,7.827971,4.081688,-7.3432965,-21.180197,47.71945,52.87552,-12.453471,9.728525,-6.4080763
21,-0.3774728775024414,1.6345294713974,78.0926284790039,0.2776255016383692,4.021105579378641,-86.0424396942504,-5.218838,-3.3199468,-2.96181,9.340349,-9.940463,-0.36759293,-6.0535884,-7.4719653,-10.905243,9.173723,-6.156025,5.333786,-1.1766012,-0.99798054,6.3481593,-10.951207,22.91823,-51.78496,54.69518,9.76405,7.826731,4.078221,-7.3536153,-21.182755,47.716507,52.869816,-12.446854,9.738558,-6.396557
22,-0.3816002607345581,1.6370123624801636,78.09518432617188,0.2770693065248149,4.026751613063283,-86.04399109072247,-5.237288,-3.3171363,-2.9683647,9.358424,-9.941766,-0.36761916,-6.06574,-7.469872,-10.912996,9.183674,-6.1580386,5.322897,-1.1756163,-0.9979878,6.3448114,-10.958966,22.924536,-51.775288,54.70817,9.781098,7.8306875,4.071653,-7.3661966,-21.186548,47.71053,52.863613,-12.429194,9.751648,-6.3788686
23,-0.38443711400032043,1.639697551727295,78.09629821777344,0.27634931516347777,4.032550473562084,-86.04501566681368,-5.2555914,-3.3143747,-2.9757195,9.375694,-9.943,-0.36773685,-6.07651,-7.4675846,-10.921356,9.191106,-6.160036,5.312305,-1.1773225,-0.9967518,6.3406057,-10.969125,22.928797,-51.769306,54.725006,9.793527,7.8377876,4.0657744,-7.37902,-21.189106,47.706516,52.858772,-12.412991,9.764789,-6.3610744
24,-0.38940519094467163,1.638275384902954,78.0967025756836,0.2759207737450266,4.036552765220256,-86.04581419919911,-5.2687254,-3.311714,-2.9803152,9.388465,-9.945215,-0.36774394,-6.0831575,-7.464877,-10.926526,9.193766,-6.1613946,5.307047,-1.1799066,-0.99512863,6.336544,-10.979658,22.932798,-51.7669,54.744877,9.800222,7.8465123,4.0638003,-7.39117,-21.191519,47.704613,52.860847,-12.408999,9.77313,-6.3493967
25,-0.39318615198135376,1.639163851737976,78.09616088867188,0.2765759198259003,4.038255045682026,-86.04579432912296,-5.274717,-3.3097372,-2.9814625,9.393761,-9.947563,-0.36642465,-6.0832376,-7.4618764,-10.9274845,9.1877165,-6.1617637,5.3111553,-1.1823009,-0.9948441,6.339097,-10.984619,22.944588,-51.759598,54.75306,9.810398,7.8581176,4.065966,-7.3998947,-21.19855,47.699345,52.859093,-12.424629,9.775148,-6.3444467
26,-0.39582833647727966,1.6409320831298828,78.09498596191406,0.27797668771569783,4.038618584228745,-86.04494098022273,-5.276584,-3.3083763,-2.980882,9.394585,-9.950035,-0.3641809,-6.078377,-7.4586873,-10.926235,9.174361,-6.1607103,5.3210607,-1.187023,-0.99386847,6.3428774,-10.984675,22.964876,-51.758007,54.749367,9.81199,7.875406,4.072077,-7.401587,-21.210052,47.694725,52.85141,-12.453625,9.774689,-6.3451242
27,-0.4000488519668579,1.6409411430358887,78.09497833251953,0.2788500022229242,4.038279402897812,-86.04468884305146,-5.275144,-3.3063257,-2.9791353,9.391646,-9.952281,-0.36349618,-6.072738,-7.454923,-10.923751,9.161082,-6.1597576,5.330404,-1.1912419,-0.9922672,6.3431797,-10.990425,22.97283,-51.760235,54.764275,9.8103285,7.8906283,4.0799513,-7.4066978,-21.214355,47.693714,52.857605,-12.4831705,9.771795,-6.347597
28,-0.40251827239990234,1.641101360321045,78.0958251953125,0.27857937715294745,4.037915702307646,-86.04592304453337,-5.2718997,-3.3026402,-2.9767623,9.386185,-9.95345,-0.36673,-6.070182,-7.450403,-10.920942,9.154907,-6.159912,5.3331246,-1.1928837,-0.9909402,6.344093,-10.994673,22.986864,-51.764847,54.774338,9.803232,7.9011674,4.0856576,-7.409528,-21.221579,47.69142,52.859253,-12.505398,9.769456,-6.346715
29,-0.40618255734443665,1.6396448612213135,78.09563446044922,0.27573264836018946,4.037412675707937,-86.04974423251475,-5.2653623,-3.2955484,-2.9728692,9.376872,-9.954137,-0.37662184,-6.070602,-7.44387,-10.91852,9.155902,-6.1598935,5.325056,-1.1926857,-0.9880794,6.3425417,-10.999001,22.994732,-51.768578,54.791416,9.791517,7.907058,4.0892863,-7.415535,-21.225647,47.692245,52.867153,-12.517639,9.769803,-6.342399
30,-0.4082418978214264,1.6355891227722168,78.0963363647461,0.27138822465664875,4.036256022760324,-86.05545305557364,-5.254482,-3.286116,-2.9674666,9.361899,-9.95344,-0.39115632,-6.0734477,-7.4360933,-10.915493,9.163734,-6.161275,5.3103375,-1.1900448,-0.98426104,6.3416047,-11.002792,23.002174,-51.774895,54.80753,9.772153,7.9105763,4.093223,-7.422145,-21.229532,47.69485,52.874825,-12.522212,9.771222,-6.3366694
31,-0.40922778844833374,1.6360971927642822,78.0951156616211,0.26744732036386026,4.03527667121108,-86.06123875778509,-5.243572,-3.277379,-2.9627337,9.346176,-9.951502,-0.40574884,-6.076262,-7.4286346,-10.911697,9.170925,-6.1613812,5.2950273,-1.1867422,-0.98223644,6.3415394,-11.003708,23.02385,-51.787857,54.811604,9.746082,7.9110775,4.0952806,-7.4254117,-21.240849,47.699226,52.87475,-12.52093,9.771492,-6.3291664
32,-0.41203805804252625,1.6381707191467285,78.09323120117188,0.2654114958897259,4.034512752697127,-86.06578131763405,-5.2368474,-3.272089,-2.9607322,9.3364315,-9.949431,-0.41580805,-6.0775895,-7.4230986,-10.906635,9.173839,-6.1603785,5.285055,-1.1860114,-0.98050004,6.3399444,-11.005211,23.03388,-51.792057,54.82852,9.73736,7.908101,4.095082,-7.4296875,-21.246025,47.700428,52.88162,-12.524459,9.768981,-6.3193636
33,-0.41468051075935364,1.6389853954315186,78.09259033203125,0.26648111758284826,4.034514729721381,-86.06838837775133,-5.232347,-3.272278,-2.9639127,9.325708,-9.941971,-0.42036143,-6.079716,-7.420895,-10.898315,9.175237,-6.1599164,5.281872,-1.1857904,-0.98162407,6.3368807,-11.000712,23.043488,-51.79086,54.845215,9.748012,7.899345,4.092553,-7.4302006,-21.250912,47.697853,52.888203,-12.530785,9.762564,-6.305967
34,-0.4167709946632385,1.6387817859649658,78.0932846069336,0.26946896866907016,4.034852566076652,-86.0698871762746,-5.230285,-3.2759697,-2.9705312,9.316888,-9.9321,-0.42177424,-6.0818663,-7.4205613,-10.887693,9.175305,-6.1593785,5.282339,-1.1891142,-0.9831871,6.3335447,-10.998813,23.050314,-51.79118,54.866974,9.761995,7.8868847,4.088105,-7.431359,-21.254332,47.69529,52.896946,-12.539139,9.754666,-6.2896156
35,-0.419838547706604,1.6375296115875244,78.09408569335938,0.2731376957816044,4.034932710979439,-86.07121269559478,-5.2291083,-3.2805138,-2.9765165,9.310354,-9.922783,-0.42039323,-6.083239,-7.4213896,-10.877834,9.174072,-6.158434,5.2856956,-1.1904553,-0.98667747,6.333004,-10.992322,23.068716,-51.789345,54.87593,9.780327,7.874842,4.0812984,-7.428655,-21.26347,47.688442,52.896965,-12.545769,9.745056,-6.2726912
36,-0.4196527302265167,1.6388300657272339,78.09542083740234,0.2763728321066336,4.034044729979386,-86.07298782679396,-5.2284913,-3.2833114,-2.9776986,9.309543,-9.918732,-0.41641212,-6.0812383,-7.4219775,-10.8720665,9.168894,-6.1552444,5.2911234,-1.1907009,-0.98920196,6.329184,-10.989179,23.073011,-51.787193,54.897316,9.79874,7.8702054,4.0760946,-7.429216,-21.265654,47.685986,52.90589,-12.546547,9.737521,-6.2618937
37,-0.4217938184738159,1.640369176864624,78.09593963623047,0.2796374530434035,4.031752485278217,-86.07623165344356,-5.226801,-3.2841475,-2.9710503,9.313219,-9.919891,-0.4065429,-6.0776434,-7.424135,-10.871895,9.164351,-6.1521297,5.3015575,-1.1898326,-0.9933429,6.3320847,-10.981335,23.092253,-51.776115,54.897503,9.819012,7.874131,4.0657115,-7.428449,-21.275606,47.679966,52.900177,-12.54211,9.728921,-6.2522
38,-0.4231078624725342,1.6391172409057617,78.09814453125,0.28351676934647596,4.028565229822636,-86.08004775156101,-5.2258186,-3.284093,-2.959369,9.322691,-9.925725,-0.39173427,-6.0718703,-7.4275384,-10.875677,9.157583,-6.1477485,5.316393,-1.1874386,-0.99729145,6.3307586,-10.982529,23.097795,-51.77249,54.91522,9.833885,7.8854322,4.055921,-7.4311266,-21.278564,47.67868,52.905407,-12.5300865,9.721141,-6.247548
39,-0.4247380793094635,1.6371376514434814,78.09919738769531,0.2865181992861188,4.0250412346574835,-86.08345074624798,-5.2247906,-3.2830677,-2.9475098,9.332725,-9.932426,-0.3787593,-6.066032,-7.430136,-10.880132,9.151697,-6.143899,5.3295856,-1.1860857,-1.0009392,6.3316765,-10.981849,23.108187,-51.764507,54.928265,9.848278,7.895758,4.046386,-7.432969,-21.284225,47.676117,52.90566,-12.519441,9.713631,-6.245007
40,-0.4254941940307617,1.6370043754577637,78.09881591796875,0.2878733902858525,4.021862045104783,-86.08474476779152,-5.2229867,-3.2815058,-2.940384,9.338968,-9.936751,-0.37425917,-6.0625296,-7.430891,-10.882027,9.150899,-6.1433415,5.335465,-1.1865078,-1.001475,6.330837,-10.980236,23.112091,-51.75999,54.94571,9.855969,7.90161,4.0426664,-7.4330177,-21.286392,47.67383,52.90706,-12.515977,9.7094555,-6.246302
41,-0.4276875853538513,1.6376761198043823,78.09858703613281,0.28651301368566395,4.018886783013558,-86.08319345152219,-5.218096,-3.2781117,-2.9401045,9.335795,-9.935857,-0.38382363,-6.060875,-7.427826,-10.880011,9.154185,-6.1455555,5.329241,-1.1922978,-0.9990689,6.3362923,-10.970242,23.131578,-51.744728,54.947758,9.861249,7.8979273,4.042301,-7.432218,-21.297537,47.669487,52.895138,-12.525087,9.7080965,-6.2490535
42,-0.4298321306705475,1.6382085084915161,78.09664916992188,0.28327607012196,4.016114448564435,-86.07957492435006,-5.2118874,-3.2735589,-2.9436362,9.328461,-9.932788,-0.40251577,-6.0621724,-7.422903,-10.875668,9.164,-6.151489,5.315126,-1.1976674,-0.9946804,6.339024,-10.961577,23.145485,-51.733524,54.96054,9.860547,7.8882627,4.0477033,-7.4285817,-21.305477,47.66414,52.8853,-12.541385,9.708839,-6.25629
43,-0.43017467856407166,1.6405078172683716,78.09544372558594,0.2796649509957375,4.013530068056574,-86.07562016014764,-5.206381,-3.2691596,-2.9485223,9.321293,-9.929814,-0.42170832,-6.061775,-7.4172664,-10.871541,9.17005,-6.1558504,5.300496,-1.2023113,-0.98969245,6.3398557,-10.954469,23.153633,-51.725063,54.977806,9.857917,7.8779893,4.0551167,-7.425706,-21.310196,47.65907,52.8799,-12.555735,9.7104025,-6.2656937
44,-0.42973941564559937,1.6412936449050903,78.0953598022461,0.2777529927628167,4.011416940165265,-86.07303554612331,-5.201556,-3.2664354,-2.9519799,9.314873,-9.92705,-0.4326035,-6.063281,-7.414287,-10.868914,9.17828,-6.16145,5.292693,-1.2059647,-0.98571056,6.3385634,-10.949331,23.15751,-51.719967,54.99448,9.854839,7.871399,4.0614905,-7.423889,-21.312437,47.65501,52.879166,-12.559684,9.710945,-6.275536
45,-0.4319685995578766,1.6409761905670166,78.09577941894531,0.27819202647436103,4.009742124689031,-86.07243132980278,-5.199777,-3.2662935,-2.9527974,9.315071,-9.927968,-0.43138313,-6.0606546,-7.4137006,-10.869374,9.17678,-6.1630936,5.2957835,-1.2088107,-0.9838452,6.3377366,-10.943704,23.163486,-51.713207,55.00195,9.853292,7.869459,4.0640445,-7.4226155,-21.315863,47.648502,52.877712,-12.549742,9.709324,-6.285005
46,-0.4329701364040375,1.6403175592422485,78.09757995605469,0.28010708757499414,4.008404760337351,-86.07295411973178,-5.2009954,-3.2678568,-2.952337,9.321034,-9.931975,-0.4232095,-6.055672,-7.4146686,-10.871581,9.169276,-6.1621256,5.305178,-1.209467,-0.9837171,6.3360496,-10.934583,23.168694,-51.70459,55.001575,9.855123,7.8705544,4.0656104,-7.420541,-21.318876,47.640182,52.876713,-12.529849,9.706751,-6.295831
47,-0.4338228702545166,1.641093373298645,78.09874725341797,0.2820530929354604,4.007537771533483,-86.07362427153603,-5.201232,-3.2698605,-2.952578,9.323218,-9.933488,-0.4128629,-6.053599,-7.4164596,-10.87406,9.166626,-6.1632085,5.315134,-1.2114635,-0.9830658,6.337321,-10.923901,23.18151,-51.694183,54.990265,9.859032,7.871977,4.065422,-7.416616,-21.326086,47.6285,52.86958,-12.513435,9.70369,-6.3036027
48,-0.43405917286872864,1.6412135362625122,78.09892272949219,0.28332964047941883,4.007520607885532,-86.07344875109085,-5.20331,-3.2714016,-2.954719,9.326099,-9.934752,-0.40508756,-6.053056,-7.4174595,-10.876284,9.165039,-6.162913,5.3199024,-1.2129704,-0.9817877,6.3350353,-10.915812,23.188002,-51.691124,54.988056,9.865283,7.871872,4.0682106,-7.4141145,-21.329666,47.62386,52.869415,-12.499775,9.701887,-6.3096685
49,-0.4356229305267334,1.640966773033142,78.09825897216797,0.2834581692532792,4.0086413547161825,-86.07281661499803,-5.20916,-3.2727637,-2.9599931,9.331767,-9.93599,-0.3996143,-6.0554967,-7.4175363,-10.877614,9.166411,-6.160662,5.3172,-1.2146845,-0.97973657,6.3351026,-10.908094,23.201683,-51.69459,54.978714,9.876367,7.868393,4.0726542,-7.410171,-21.337172,47.621025,52.86337,-12.497472,9.700535,-6.3093033
50,-0.43623611330986023,1.642472505569458,78.09850311279297,0.28303506849135446,4.010828350379798,-86.07195767620513,-5.21547,-3.2739716,-2.9674976,9.334522,-9.934678,-0.3945111,-6.0633206,-7.417682,-10.878306,9.176206,-6.1605835,5.3103037,-1.2156773,-0.9772017,6.332551,-10.898944,23.210966,-51.698273,54.974655,9.899615,7.8622,4.079368,-7.4053035,-21.342184,47.620384,52.861664,-12.501332,9.699093,-6.305852
51,-0.43535587191581726,1.644782543182373,78.09785461425781,0.2823533866817486,4.0131019217112,-86.07013098196497,-5.2220507,-3.2749808,-2.9751751,9.3367605,-9.9328375,-0.39165428,-6.070202,-7.417617,-10.879546,9.184029,-6.159573,5.302012,-1.2193376,-0.9734432,6.330085,-10.89442,23.216738,-51.705055,54.97399,9.915255,7.8560696,4.084871,-7.400562,-21.345095,47.620514,52.860962,-12.509492,9.69803,-6.3013926
52,-0.43470972776412964,1.6463406085968018,78.0966796875,0.2817537874265944,4.014825776125009,-86.06633056663803,-5.224823,-3.275487,-2.9811752,9.333468,-9.928991,-0.3931381,-6.0756965,-7.4180264,-10.881892,9.191647,-6.161264,5.2952013,-1.2196641,-0.9712637,6.32874,-10.888013,23.227468,-51.71198,54.963543,9.920505,7.8521457,4.0860715,-7.394505,-21.350475,47.61812,52.857838,-12.51181,9.695849,-6.2981715
53,-0.4330368638038635,1.6486797332763672,78.0969467163086,0.28083836659275,4.015278680819062,-86.05960117939487,-5.2211227,-3.2749677,-2.9848318,9.320369,-9.921355,-0.40208426,-6.078583,-7.4190664,-10.885523,9.198217,-6.1664376,5.289386,-1.2246304,-0.9677026,6.3278913,-10.884233,23.231464,-51.712788,54.9546,9.906734,7.8496337,4.0806623,-7.3895745,-21.35234,47.614334,52.857655,-12.514205,9.692576,-6.2962723
54,-0.4341042935848236,1.6500129699707031,78.0965805053711,0.28009033220189605,4.0150991158067715,-86.05053252566273,-5.212778,-3.2739377,-2.9871812,9.300224,-9.911284,-0.41650698,-6.079873,-7.420499,-10.89009,9.2040415,-6.173769,5.283545,-1.2277625,-0.9651738,6.328934,-10.879273,23.238995,-51.711716,54.93644,9.882663,7.848605,4.0702295,-7.383317,-21.355865,47.605663,52.855373,-12.515932,9.687945,-6.2937646
55,-0.4345339238643646,1.6504738330841064,78.09693908691406,0.278978849831336,4.01525932228334,-86.04160102341675,-5.2059507,-3.272385,-2.988661,9.282246,-9.901793,-0.43095002,-6.0823603,-7.42189,-10.89497,9.21122,-6.1817617,5.2792964,-1.2328302,-0.9623029,6.3289576,-10.877542,23.239838,-51.710842,54.9266,9.857975,7.8482466,4.060783,-7.3799915,-21.356236,47.60373,52.856514,-12.513862,9.684842,-6.2939672
56,-0.4332078993320465,1.6539100408554077,78.09616088867188,0.27884506006744253,4.016145143322909,-86.03350284109833,-5.2033896,-3.2723472,-2.9913619,9.27095,-9.894215,-0.43961743,-6.082331,-7.423661,-10.90169,9.211127,-6.183671,5.2787223,-1.2365065,-0.95870066,6.328951,-10.873057,23.24235,-51.70941,54.910786,9.843319,7.8524804,4.0515337,-7.373902,-21.357235,47.598682,52.857037,-12.516128,9.682543,-6.296197
57,-0.4349260926246643,1.6525007486343384,78.0972900390625,0.27874685799712257,4.018948495450567,-86.02826895655681,-5.2093477,-3.272438,-2.9943569,9.27266,-9.890985,-0.44075853,-6.085713,-7.4250836,-10.909334,9.210667,-6.1808715,5.283471,-1.2384087,-0.95594317,6.3292665,-10.869417,23.243977,-51.709667,54.899307,9.848227,7.8598933,4.047879,-7.3677263,-21.357777,47.5967,52.856155,-12.518275,9.683827,-6.303819
58,-0.43464046716690063,1.655460000038147,78.09657287597656,0.2788071647146912,4.023002806812913,-86.02425787924079,-5.222433,-3.2728214,-2.9974747,9.285845,-9.892152,-0.4374311,-6.0877123,-7.425818,-10.918652,9.20332,-6.1720066,5.2922115,-1.2402799,-0.95302755,6.329351,-10.868675,23.247093,-51.715816,54.88817,9.856907,7.8710985,4.045981,-7.36157,-21.358616,47.597725,52.854794,-12.520125,9.687282,-6.315164
59,-0.43616047501564026,1.657975673675537,78.09654998779297,0.2794231991600469,4.026746567054911,-86.0207942628747,-5.236066,-3.274154,-3.0006135,9.30112,-9.894391,-0.43166396,-6.0896525,-7.4274144,-10.927506,9.196668,-6.1635904,5.301717,-1.2422777,-0.9506449,6.330034,-10.868293,23.249456,-51.72134,54.877777,9.867136,7.8820252,4.0448947,-7.3549094,-21.358955,47.59941,52.852516,-12.523081,9.691023,-6.3263183
60,-0.4367114007472992,1.6590906381607056,78.097900390625,0.2808186225233123,4.028597708063852,-86.01758062994165,-5.2454467,-3.2765312,-3.0031087,9.311776,-9.895873,-0.42557168,-6.091042,-7.4303,-10.934,9.193651,-6.159663,5.3086424,-1.2425895,-0.94954073,6.3322277,-10.868617,23.25059,-51.724083,54.86668,9.872217,7.8896303,4.0428667,-7.3499928,-21.358982,47.600704,52.850983,-12.524669,9.693354,-6.3325667
61,-0.43533048033714294,1.6629136800765991,78.09864807128906,0.2832721788189716,4.028723655172082,-86.01363484290637,-5.252401,-3.2810595,-3.0060508,9.321657,-9.899402,-0.41752917,-6.0920815,-7.4355245,-10.938354,9.195699,-6.1626744,5.3125668,-1.2386456,-0.950782,6.3333497,-10.865748,23.254747,-51.72762,54.844406,9.867893,7.897698,4.038856,-7.339807,-21.358746,47.60098,52.845867,-12.525519,9.694655,-6.3355527
62,-0.43557700514793396,1.663712739944458,78.0979995727539,0.2870332863206372,4.026919516786088,-86.01004162737576,-5.254908,-3.2874289,-3.0087085,9.3268585,-9.90215,-0.4070898,-6.0928884,-7.442914,-10.940511,9.202765,-6.1710134,5.315169,-1.2344811,-0.9531041,6.3375564,-10.86357,23.25582,-51.724117,54.82283,9.862417,7.901877,4.034082,-7.33256,-21.358442,47.59957,52.841885,-12.529299,9.694048,-6.332311
63,-0.43443095684051514,1.6659237146377563,78.0967025756836,0.29072381855784873,4.024580614301997,-86.00669520283196,-5.2560773,-3.2936485,-3.010897,9.330637,-9.904386,-0.39826867,-6.0933547,-7.449926,-10.941686,9.20947,-6.179189,5.316229,-1.2309701,-0.95488614,6.342456,-10.8617325,23.256706,-51.71845,54.80094,9.857201,7.905493,4.028241,-7.3253593,-21.357924,47.597755,52.83657,-12.532251,9.693854,-6.3286457
64,-0.4333338141441345,1.6684157848358154,78.09654998779297,0.2930475382642194,4.022738529020634,-86.00356419422234,-5.256464,-3.297375,-3.012728,9.330943,-9.903315,-0.39515194,-6.0946116,-7.4544578,-10.942581,9.215761,-6.184988,5.3154855,-1.2280678,-0.95524937,6.347589,-10.859468,23.257591,-51.71041,54.78126,9.859244,7.909315,4.0215397,-7.319051,-21.356901,47.59681,52.8308,-12.529045,9.695315,-6.3286147
65,-0.43510809540748596,1.6680160760879517,78.09716796875,0.2931050760119059,4.021275430607507,-86.0007243523899,-5.255058,-3.297295,-3.0136201,9.326674,-9.898147,-0.40149987,-6.095278,-7.4547787,-10.943012,9.21754,-6.1850533,5.3117514,-1.2248598,-0.9530953,6.3525734,-10.862031,23.258173,-51.70805,54.76873,9.864804,7.9139376,4.013395,-7.31518,-21.355616,47.600044,52.82525,-12.510918,9.698799,-6.3351307
66,-0.43343013525009155,1.673178791999817,78.09698486328125,0.2918722058485891,4.019801091389429,-85.99822960879574,-5.249582,-3.2947054,-3.0139444,9.313635,-9.887171,-0.4143068,-6.0977173,-7.453005,-10.942371,9.22167,-6.184691,5.3055286,-1.2187921,-0.9503948,6.356718,-10.861846,23.258263,-51.704792,54.756966,9.880055,7.9190526,4.0045,-7.3119264,-21.353872,47.60593,52.82031,-12.480304,9.703795,-6.3461246
67,-0.43680527806282043,1.6720867156982422,78.09835815429688,0.29028650057444155,4.018840947368107,-85.99578920843341,-5.2457585,-3.29176,-3.0144134,9.302443,-9.876731,-0.4272883,-6.1004353,-7.450702,-10.9419985,9.224926,-6.182972,5.2991743,-1.2126169,-0.947246,6.360338,-10.861694,23.25794,-51.701797,54.7459,9.895132,7.9240685,3.9968855,-7.307863,-21.352161,47.611416,52.814278,-12.45047,9.709674,-6.3571796
68,-0.4347054362297058,1.6773732900619507,78.09900665283203,0.2893170118095943,4.018712047552041,-85.99307723455024,-5.2462068,-3.290567,-3.0158303,9.298057,-9.870104,-0.4341831,-6.103363,-7.4499702,-10.943313,9.227428,-6.1806602,5.295263,-1.2071706,-0.9442861,6.363743,-10.861164,23.257395,-51.699795,54.733303,9.90277,7.927151,3.9938407,-7.3039365,-21.350708,47.614265,52.807198,-12.431242,9.714752,-6.3624897
69,-0.43407970666885376,1.679579734802246,78.09908294677734,0.28911677290640025,4.020664505114776,-85.99017542675561,-5.2538443,-3.291816,-3.01886,9.302335,-9.86766,-0.43139884,-6.1081333,-7.451695,-10.947223,9.228832,-6.1766214,5.295036,-1.2064275,-0.94176733,6.3636885,-10.853542,23.254923,-51.688496,54.714943,9.909309,7.931572,3.9943926,-7.303977,-21.345781,47.62568,52.805145,-12.414063,9.723278,-6.36806
70,-0.43330299854278564,1.6829276084899902,78.09843444824219,0.28915798639451445,4.0239692869612576,-85.98662184021993,-5.266919,-3.2944446,-3.0232325,9.314353,-9.869016,-0.42294163,-6.114437,-7.4545894,-10.953261,9.230761,-6.1718993,5.2969966,-1.2044103,-0.9386369,6.364514,-10.851832,23.253546,-51.68508,54.697094,9.902862,7.9333224,3.9989927,-7.304226,-21.34344,47.631428,52.801003,-12.404152,9.730535,-6.368248
71,-0.43284180760383606,1.6847872734069824,78.09771728515625,0.28958166276232883,4.026718267036334,-85.98368575588674,-5.2787623,-3.2973998,-3.027279,9.325352,-9.870466,-0.4138788,-6.119794,-7.457916,-10.958699,9.23187,-6.1672325,5.299227,-1.2005587,-0.9363985,6.36563,-10.847607,23.25204,-51.68124,54.677258,9.898192,7.9357567,4.005475,-7.3027253,-21.341265,47.635887,52.79469,-12.401144,9.738212,-6.3660083
72,-0.4325849115848541,1.686663031578064,78.09545135498047,0.2902582138154126,4.027220101785488,-85.98179804789308,-5.2842674,-3.2997787,-3.029575,9.330166,-9.87015,-0.4092626,-6.122679,-7.4603815,-10.961244,9.234123,-6.16585,5.2997,-1.1979641,-0.9344223,6.367677,-10.841591,23.249695,-51.67571,54.659187,9.898071,7.9393525,4.0113773,-7.30319,-21.338104,47.642986,52.790398,-12.408124,9.745754,-6.360697
73,-0.43352729082107544,1.6857578754425049,78.09500122070312,0.29139499468259145,4.023727032900201,-85.98167477315987,-5.2788873,-3.3010578,-3.0282633,9.324873,-9.867424,-0.41125774,-6.1210437,-7.461779,-10.959262,9.2370205,-6.1691427,5.2972603,-1.1962166,-0.9329456,6.372599,-10.835583,23.247223,-51.67112,54.64542,9.904944,7.9463534,4.0150323,-7.3028507,-21.334692,47.64906,52.785442,-12.439408,9.753617,-6.3469653
74,-0.43562570214271545,1.6864373683929443,78.09445190429688,0.2930411454105608,4.017567881966861,-85.98303279691747,-5.266025,-3.3018875,-3.0245717,9.312464,-9.863252,-0.41693518,-6.117135,-7.462813,-10.954059,9.241862,-6.17617,5.2931166,-1.1928277,-0.9325273,6.38015,-10.831402,23.245064,-51.669926,54.63336,9.9141655,7.9558535,4.017749,-7.3010807,-21.331621,47.65246,52.778458,-12.489067,9.761677,-6.3265834
75,-0.4337216317653656,1.6903823614120483,78.09537506103516,0.29475090837990714,4.011367054771063,-85.98446114877947,-5.2531433,-3.3028529,-3.0218313,9.299756,-9.858382,-0.42359158,-6.1131268,-7.463734,-10.948564,9.246471,-6.182902,5.289088,-1.1861193,-0.9331707,6.386688,-10.824076,23.241436,-51.66739,54.619556,9.925367,7.963325,4.0228934,-7.297933,-21.326576,47.654003,52.771423,-12.533348,9.768859,-6.3102503
76,-0.4309264123439789,1.6937811374664307,78.09664154052734,0.29602091070411285,4.007739631410149,-85.98455135699847,-5.246845,-3.3048322,-3.0232673,9.290979,-9.852242,-0.42853838,-6.1122603,-7.46523,-10.945617,9.250249,-6.1853347,5.2870426,-1.182695,-0.9324987,6.3894877,-10.824692,23.234892,-51.671215,54.613518,9.91549,7.962012,4.0331826,-7.302171,-21.31716,47.6605,52.774246,-12.55174,9.772468,-6.307648
77,-0.4308377802371979,1.6997109651565552,78.09675598144531,0.29695558740798234,4.008230919873273,-85.98290155956451,-5.2510886,-3.30818,-3.0318892,9.287981,-9.843177,-0.4315494,-6.1169705,-7.467472,-10.945995,9.253771,-6.181362,5.286815,-1.1780941,-0.9305943,6.3912377,-10.827686,23.232874,-51.676422,54.599274,9.883033,7.9473557,4.0513425,-7.3070445,-21.314245,47.666893,52.77149,-12.528934,9.771611,-6.326648
78,-0.4290359914302826,1.7022011280059814,78.09678649902344,0.297489719478295,4.011203048642644,-85.98028432946867,-5.263271,-3.3123975,-3.0450165,9.292056,-9.834236,-0.43394613,-6.1244626,-7.469883,-10.948352,9.255953,-6.1725926,5.2875752,-1.1756456,-0.92837304,6.385233,-10.835639,23.22566,-51.693993,54.593384,9.8243,7.924216,4.078705,-7.319032,-21.303308,47.68909,52.780956,-12.469959,9.769032,-6.3644466
79,-0.4281618297100067,1.7032368183135986,78.09686279296875,0.2980003146213589,4.014176571437172,-85.97730549187293,-5.275055,-3.3168547,-3.0582967,9.295113,-9.825064,-0.43521038,-6.132367,-7.472672,-10.951488,9.258878,-6.164574,5.2902975,-1.1726568,-0.9256286,6.384606,-10.840681,23.223515,-51.700703,54.57722,9.775382,7.900115,4.1020327,-7.325668,-21.299976,47.696648,52.776646,-12.418419,9.764159,-6.3983917
80,-0.4288773536682129,1.7045490741729736,78.09796142578125,0.29830552211836464,4.015128578516042,-85.97470885976146,-5.282104,-3.3204312,-3.0671859,9.2975025,-9.820431,-0.43492627,-6.136723,-7.4751296,-10.954677,9.260234,-6.160194,5.2958126,-1.1700712,-0.9233473,6.380225,-10.842137,23.21958,-51.713432,54.567825,9.734242,7.8826942,4.1219516,-7.3327713,-21.293934,47.711155,52.776825,-12.372312,9.757819,-6.422177
81,-0.4263932704925537,1.7067432403564453,78.09822082519531,0.2985376569680704,4.012623279414523,-85.97219082184314,-5.284229,-3.323427,-3.0700092,9.30364,-9.824999,-0.4313923,-6.131418,-7.4768367,-10.958897,9.251941,-6.1582227,5.307227,-1.169021,-0.92140347,6.3766017,-10.83864,23.21451,-51.721245,54.56144,9.715737,7.87447,4.1315417,-7.335137,-21.286516,47.716835,52.774067,-12.353858,9.747952,-6.424545
82,-0.42485833168029785,1.7100744247436523,78.097412109375,0.2990722250747333,4.008088946728005,-85.96966056436396,-5.2834024,-3.3265975,-3.0693097,9.311968,-9.835237,-0.42525798,-6.1209497,-7.478682,-10.963884,9.238609,-6.158014,5.323206,-1.170009,-0.919235,6.376712,-10.834425,23.212849,-51.72436,54.554047,9.708976,7.870432,4.133565,-7.3357425,-21.28422,47.716705,52.763844,-12.348744,9.734911,-6.4136214
83,-0.42383116483688354,1.713158130645752,78.0970458984375,0.29895774665420416,4.003244112171493,-85.96762317800568,-5.2823644,-3.32847,-3.0670116,9.32172,-9.847177,-0.41997516,-6.110079,-7.479545,-10.968743,9.225106,-6.1580205,5.3376474,-1.1684201,-0.91702646,6.3742447,-10.826434,23.208504,-51.729797,54.548042,9.71022,7.8701167,4.1347065,-7.332439,-21.278502,47.711613,52.75362,-12.353246,9.723194,-6.398872
84,-0.42323678731918335,1.7158045768737793,78.09711456298828,0.2984850302637243,4.0004090916592165,-85.9673603657455,-5.280872,-3.3289814,-3.0641446,9.324548,-9.852746,-0.41867793,-6.1057944,-7.4801188,-10.971076,9.219535,-6.158378,5.3445983,-1.1664165,-0.9158421,6.3736897,-10.819831,23.207634,-51.730656,54.541943,9.715237,7.8680162,4.1344476,-7.3323245,-21.277449,47.709885,52.741047,-12.3579,9.715659,-6.389281
85,-0.4222354292869568,1.7170363664627075,78.09638214111328,0.2960491782688251,3.999906529644479,-85.96920778433238,-5.2807746,-3.3259974,-3.0609543,9.323316,-9.852315,-0.4244369,-6.108628,-7.478166,-10.971415,9.222277,-6.1575885,5.3401217,-1.1627591,-0.9135767,6.367737,-10.809394,23.203266,-51.735577,54.538273,9.720978,7.8663917,4.138524,-7.3292084,-21.271904,47.701946,52.73073,-12.377464,9.714893,-6.380966
86,-0.42227813601493835,1.71837317943573,78.09564208984375,0.29295907181678127,4.001013312292853,-85.97260973786197,-5.280547,-3.3211224,-3.0566232,9.317607,-9.847435,-0.4346908,-6.116125,-7.4755683,-10.970053,9.230407,-6.1565332,5.328439,-1.1606276,-0.9115122,6.362779,-10.803516,23.199316,-51.74165,54.539272,9.725323,7.8647394,4.1424356,-7.3294168,-21.26653,47.696873,52.72059,-12.402386,9.719405,-6.3759737
87,-0.42161309719085693,1.7199416160583496,78.09478759765625,0.29005002602644236,4.00246678707109,-85.97664240312055,-5.2810893,-3.3161511,-3.0520358,9.311539,-9.841591,-0.44467574,-6.1260853,-7.4729695,-10.967299,9.242056,-6.1562424,5.314756,-1.1560766,-0.9106305,6.355773,-10.796151,23.19378,-51.747326,54.54254,9.73573,7.86385,4.144293,-7.327552,-21.258686,47.68881,52.711746,-12.430667,9.725121,-6.3720617
88,-0.4211529493331909,1.7228014469146729,78.09439086914062,0.2884193076394978,4.002753511571433,-85.97986565120502,-5.2821255,-3.3134396,-3.0485601,9.308516,-9.838098,-0.44953123,-6.1346955,-7.471938,-10.963775,9.253817,-6.157349,5.304598,-1.1506308,-0.91101515,6.348898,-10.79351,23.186676,-51.755554,54.551407,9.747139,7.8647747,4.140967,-7.3296976,-21.248394,47.68276,52.70934,-12.452423,9.730026,-6.3692503
89,-0.4209761619567871,1.7240219116210938,78.09439849853516,0.28823023302858,4.001929045151115,-85.98171765393893,-5.2857547,-3.3137467,-3.0466132,9.312132,-9.839635,-0.44638845,-6.141308,-7.4725876,-10.958824,9.264138,-6.1595263,5.29884,-1.1471524,-0.9116378,6.343488,-10.78775,23.183502,-51.757984,54.55436,9.765141,7.8664026,4.129778,-7.3314223,-21.243769,47.681282,52.700516,-12.466221,9.735395,-6.365845
90,-0.4204530119895935,1.7281631231307983,78.0943374633789,0.2890741791073809,4.000364850135442,-85.9826804151398,-5.290666,-3.3158443,-3.0458338,9.319081,-9.843443,-0.43831456,-6.146279,-7.474081,-10.952982,9.273018,-6.161646,5.294724,-1.1434196,-0.9134209,6.339642,-10.782658,23.182756,-51.75882,54.55676,9.786577,7.8686686,4.1141505,-7.335056,-21.24273,47.681244,52.691746,-12.475359,9.74055,-6.3630867
91,-0.41943398118019104,1.7311580181121826,78.09381103515625,0.29075201732987305,3.9986492406995002,-85.98434493523742,-5.295374,-3.3189943,-3.0445368,9.3258705,-9.846825,-0.42949364,-6.15375,-7.47703,-10.946119,9.286518,-6.166226,5.2923317,-1.1393511,-0.9157297,6.3318853,-10.775561,23.179165,-51.760464,54.56124,9.812373,7.8746614,4.0944443,-7.3369946,-21.237497,47.681816,52.68509,-12.483104,9.746793,-6.361456
92,-0.41830945014953613,1.7346312999725342,78.09371185302734,0.29174468017499106,3.99526755627561,-85.98597173206537,-5.297196,-3.3214755,-3.043112,9.332144,-9.848833,-0.4243148,-6.1564198,-7.47929,-10.941892,9.294672,-6.1689434,5.2915382,-1.1355162,-0.9180666,6.329285,-10.766909,23.175707,-51.758636,54.56323,9.838168,7.885207,4.079471,-7.3380075,-21.23254,47.680737,52.677883,-12.485156,9.748029,-6.3667474
93,-0.41686907410621643,1.737485647201538,78.0950698852539,0.2923138924706339,3.989829168183092,-85.98851096633501,-5.2939205,-3.3234024,-3.0409307,9.334047,-9.846463,-0.424457,-6.156863,-7.4819427,-10.940496,9.302814,-6.172368,5.2924314,-1.1339715,-0.9195535,6.330461,-10.760654,23.17206,-51.756535,54.567745,9.862256,7.9033523,4.066562,-7.342166,-21.227293,47.679913,52.678032,-12.48135,9.741837,-6.3814545
94,-0.41521912813186646,1.7401354312896729,78.09547424316406,0.29255351890235703,3.9828469246162914,-85.99136279575569,-5.2883325,-3.3251421,-3.0385833,9.336335,-9.843183,-0.427507,-6.1542196,-7.4844527,-10.941157,9.308295,-6.175291,5.2949047,-1.130642,-0.92161584,6.335334,-10.751559,23.169083,-51.752544,54.568848,9.88942,7.9268737,4.055612,-7.343194,-21.223207,47.677654,52.67373,-12.469442,9.7319,-6.403172
95,-0.41307201981544495,1.7425825595855713,78.09603118896484,0.29291922385171687,3.975726672089488,-85.99424925626704,-5.281263,-3.3271291,-3.0359282,9.336077,-9.838256,-0.43121734,-6.150646,-7.4872427,-10.941888,9.3119135,-6.1769314,5.299082,-1.130127,-0.9225744,6.340391,-10.743356,23.165136,-51.745693,54.571655,9.915277,7.951893,4.045311,-7.3473477,-21.217634,47.674927,52.67715,-12.459742,9.719426,-6.4246936
96,-0.41194117069244385,1.7473852634429932,78.09446716308594,0.2932120678677235,3.9701621079871843,-85.99670192416181,-5.278007,-3.328692,-3.033331,9.339894,-9.836708,-0.43353578,-6.1475744,-7.4889784,-10.941317,9.312599,-6.1763,5.3047423,-1.1286681,-0.92473,6.3431463,-10.735075,23.162563,-51.74132,54.576626,9.931556,7.970057,4.040716,-7.348214,-21.214062,47.672935,52.673832,-12.4497385,9.71184,-6.43803
97,-0.4110737144947052,1.747987985610962,78.09329223632812,0.29338346986306957,3.9666609648220708,-85.99807264364756,-5.27877,-3.3299797,-3.0309532,9.347038,-9.838502,-0.43420976,-6.144316,-7.489647,-10.939051,9.307616,-6.1714644,5.313665,-1.128986,-0.92733985,6.3423185,-10.726621,23.159153,-51.737,54.587,9.935318,7.979859,4.043872,-7.3479924,-21.20939,47.670322,52.66829,-12.445006,9.7086735,-6.439512
98,-0.4104388952255249,1.749548316001892,78.09149932861328,0.2933448256561674,3.9643145724417836,-85.99880348435718,-5.2815123,-3.3309236,-3.028709,9.355505,-9.842035,-0.43429914,-6.1399117,-7.489273,-10.936051,9.297324,-6.1632524,5.3252625,-1.1321076,-0.9298982,6.3397436,-10.722903,23.156391,-51.73669,54.605114,9.924561,7.9839487,4.0527363,-7.3482494,-21.20555,47.6682,52.66225,-12.443417,9.707718,-6.433373
99,-0.4095803499221802,1.7528079748153687,78.09024810791016,0.29349772255264217,3.9627150048813937,-85.99987750523513,-5.2866764,-3.331998,-3.0260825,9.3670435,-9.847267,-0.43343264,-6.1359844,-7.488895,-10.932307,9.285909,-6.1537385,5.336199,-1.1321518,-0.93302226,6.3361135,-10.717125,23.154335,-51.73607,54.620216,9.915534,7.9861565,4.0615926,-7.346607,-21.20281,47.665897,52.656178,-12.439719,9.7085905,-6.4252696
100,-0.4073232412338257,1.7559363842010498,78.0911865234375,0.29427346173530977,3.961292875553985,-86.00196442481223,-5.2906103,-3.333749,-3.0229394,9.374312,-9.84893,-0.43124336,-6.1370654,-7.49015,-10.927705,9.284476,-6.1493096,5.343156,-1.1304656,-0.9352184,6.33377,-10.713735,23.153788,-51.735847,54.630733,9.9123955,7.988687,4.063457,-7.3459806,-21.202066,47.66521,52.654434,-12.434985,9.710012,-6.4197993
101,-0.40525123476982117,1.7599891424179077,78.091796875,0.2957520813137973,3.9609150599793583,-86.00601985119484,-5.2984104,-3.336428,-3.0188558,9.386737,-9.851627,-0.42737126,-6.141818,-7.49259,-10.921779,9.287092,-6.1458335,5.344499,-1.1275916,-0.9381749,6.327553,-10.711014,23.15161,-51.7371,54.63998,9.918317,7.991233,4.054741,-7.3429704,-21.198805,47.665504,52.658905,-12.431058,9.714309,-6.4149694
102,-0.40426120162010193,1.7635315656661987,78.09427642822266,0.29818477733636956,3.9610456227526885,-86.01104621489216,-5.305619,-3.3402576,-3.0143838,9.395541,-9.850659,-0.42200235,-6.152411,-7.4969997,-10.914417,9.300437,-6.147535,5.3423004,-1.122595,-0.94047356,6.3221936,-10.710901,23.15051,-51.739086,54.645454,9.929881,7.9928527,4.0386124,-7.343071,-21.196796,47.66833,52.670208,-12.424139,9.719813,-6.4115458
103,-0.402792364358902,1.768097996711731,78.0948486328125,0.30031919256814216,3.961247950422856,-86.01657566212687,-5.3135104,-3.343673,-3.0093017,9.405766,-9.851536,-0.41592947,-6.1627064,-7.5010962,-10.907224,9.31304,-6.1487546,5.338588,-1.1180785,-0.94230044,6.315444,-10.710092,23.148651,-51.741116,54.65095,9.940045,7.9948425,4.023304,-7.3434887,-21.192448,47.675232,52.686073,-12.416005,9.7254305,-6.4099708
104,-0.40112990140914917,1.7719976902008057,78.0948486328125,0.3007675963767872,3.9601835115153468,-86.02154488392874,-5.318541,-3.3453524,-3.0045063,9.414044,-9.854288,-0.40973222,-6.1684575,-7.5030494,-10.902125,9.319796,-6.1478596,5.335459,-1.1140615,-0.9427503,6.3129883,-10.709688,23.14844,-51.740986,54.65592,9.943612,7.9983697,4.016694,-7.3410406,-21.191813,47.676586,52.69708,-12.414499,9.729014,-6.409029
105,-0.39809414744377136,1.7750991582870483,78.0934066772461,0.29899515328774484,3.9590093178447074,-86.02768900022438,-5.322941,-3.3442838,-2.9977543,9.422808,-9.862179,-0.402814,-6.1749544,-7.502638,-10.897637,9.327834,-6.148127,5.332415,-1.1083999,-0.94217056,6.3061576,-10.704475,23.147213,-51.73771,54.663193,9.940175,8.004339,4.0190425,-7.336639,-21.188658,47.68311,52.71274,-12.411621,9.729544,-6.411696
106,-0.3974264860153198,1.7765448093414307,78.09139251708984,0.29536575862409603,3.956768210576576,-86.03359189169032,-5.3251114,-3.3411536,-2.9908793,9.430663,-9.873061,-0.3951093,-6.178359,-7.50021,-10.895193,9.332893,-6.147777,5.3287416,-1.105926,-0.9389956,6.302612,-10.703296,23.146101,-51.73526,54.673695,9.923954,8.010808,4.0295434,-7.3337426,-21.185888,47.690323,52.729305,-12.412542,9.727937,-6.415732
107,-0.3958640694618225,1.777843713760376,78.0892105102539,0.2918847662518565,3.9541779267393222,-86.0387459602646,-5.3263216,-3.3385043,-2.9847028,9.436915,-9.882888,-0.38801417,-6.1797833,-7.497956,-10.893498,9.334854,-6.146217,5.3260636,-1.0996504,-0.9370151,6.300596,-10.700785,23.145832,-51.73273,54.681988,9.912958,8.018162,4.041273,-7.328755,-21.1854,47.692017,52.743313,-12.413591,9.726784,-6.4194403
108,-0.39222976565361023,1.782710075378418,78.08795928955078,0.2896627716208989,3.9514169935613372,-86.0442828736409,-5.3264904,-3.3375127,-2.978643,9.440663,-9.888514,-0.38315427,-6.1820583,-7.4971466,-10.889865,9.337404,-6.14508,5.325778,-1.0981437,-0.9345565,6.297902,-10.699697,23.145277,-51.729958,54.691677,9.902031,8.026355,4.049446,-7.323578,-21.184414,47.695076,52.756897,-12.417403,9.726029,-6.421498
109,-0.38841137290000916,1.7868496179580688,78.08843994140625,0.28987063497770693,3.948824433175431,-86.04902868248394,-5.3250093,-3.3395052,-2.974058,9.438362,-9.885765,-0.3815758,-6.182361,-7.4985604,-10.884843,9.334275,-6.141706,5.3296194,-1.097814,-0.93490154,6.2931466,-10.693957,23.143959,-51.723743,54.700367,9.906892,8.03735,4.0510526,-7.319027,-21.182606,47.70025,52.7715,-12.419128,9.726901,-6.4206476
110,-0.38583678007125854,1.7904613018035889,78.08902740478516,0.29157127512751324,3.9460903858421656,-86.05269386978823,-5.3221116,-3.3438017,-2.9709225,9.432029,-9.877735,-0.38217306,-6.182214,-7.501956,-10.879392,9.3296995,-6.1383195,5.336505,-1.1013069,-0.9352917,6.28946,-10.691501,23.143196,-51.719448,54.710327,9.914757,8.049623,4.0484633,-7.316939,-21.181572,47.703846,52.786568,-12.424021,9.729136,-6.4165735
111,-0.383341908454895,1.7939600944519043,78.08961486816406,0.29335548887709717,3.9430491902250995,-86.05656022151744,-5.318352,-3.3482869,-2.9675686,9.42464,-9.8688,-0.38333544,-6.181337,-7.5054708,-10.87353,9.324609,-6.134403,5.34334,-1.1029096,-0.9366222,6.2853384,-10.684434,23.142294,-51.711243,54.717514,9.928254,8.060833,4.04609,-7.3143115,-21.180624,47.70649,52.801773,-12.425365,9.731485,-6.4137096
112,-0.3800736367702484,1.7980737686157227,78.09054565429688,0.2943428624638256,3.9396564054178604,-86.06109881599562,-5.3161893,-3.3515697,-2.9628236,9.422952,-9.865041,-0.38336378,-6.1820526,-7.508552,-10.867452,9.323659,-6.1308293,5.3473654,-1.1040406,-0.93669915,6.2816534,-10.677059,23.141432,-51.70272,54.72427,9.931851,8.066955,4.047883,-7.3085384,-21.179832,47.70547,52.813656,-12.42499,9.732906,-6.4151998
113,-0.37611857056617737,1.8013296127319336,78.09033966064453,0.2933970846998741,3.9357030269039464,-86.06659564793142,-5.3156095,-3.3525949,-2.9558973,9.427933,-9.868168,-0.38210714,-6.185262,-7.5104465,-10.861288,9.330643,-6.1292634,5.3455043,-1.1046842,-0.9348727,6.278486,-10.671738,23.141094,-51.696957,54.731564,9.918243,8.067158,4.0550594,-7.302973,-21.17955,47.703083,52.824413,-12.417835,9.732851,-6.42225
114,-0.3722863793373108,1.8045789003372192,78.09017181396484,0.29160140999573264,3.931507905881197,-86.07371797585543,-5.315919,-3.352348,-2.9464214,9.4366455,-9.874931,-0.38034979,-6.1907616,-7.511811,-10.853733,9.342427,-6.1281447,5.340075,-1.1037135,-0.9318119,6.2723336,-10.657156,23.140194,-51.681858,54.73552,9.902581,8.061925,4.066467,-7.292557,-21.178947,47.695393,52.835693,-12.408992,9.730241,-6.434286
115,-0.36836060881614685,1.8080581426620483,78.08855438232422,0.2899822230091968,3.9271789229326033,-86.08031749860878,-5.316641,-3.352611,-2.9376593,9.446436,-9.882556,-0.37781647,-6.1955123,-7.513526,-10.846862,9.353562,-6.126849,5.3361373,-1.1038455,-0.9285694,6.2684436,-10.639311,23.138926,-51.658955,54.735767,9.8959255,8.054551,4.0766635,-7.282117,-21.178265,47.68377,52.84463,-12.403527,9.728292,-6.445633
116,-0.3649370074272156,1.8118394613265991,78.08755493164062,0.28939629317368176,3.9228399478440745,-86.08556152690734,-5.316195,-3.3547683,-2.9314015,9.451964,-9.886418,-0.3743094,-6.1974316,-7.516224,-10.841301,9.358267,-6.123313,5.338683,-1.1085541,-0.92574894,6.267568,-10.623145,23.137005,-51.632442,54.736427,9.900948,8.046016,4.082603,-7.2761,-21.177599,47.673073,52.85537,-12.404915,9.728125,-6.4534497
117,-0.36174091696739197,1.8160251379013062,78.08745574951172,0.29012245012620747,3.9184745591892156,-86.08881150788687,-5.313609,-3.3600283,-2.9292104,9.45081,-9.884836,-0.36924618,-6.1949506,-7.5200977,-10.837662,9.354249,-6.117747,5.351555,-1.1123142,-0.9256973,6.2668653,-10.614459,23.136,-51.62366,54.740707,9.907054,8.036825,4.086236,-7.2709246,-21.177452,47.670048,52.865913,-12.4009,9.73154,-6.4611363
118,-0.3562155067920685,1.8203946352005005,78.08721160888672,0.291809541756745,3.914239969190624,-86.09077632128162,-5.3108835,-3.3670788,-2.929388,9.447374,-9.880898,-0.36294883,-6.1898823,-7.5248675,-10.835223,9.344871,-6.11076,5.3712454,-1.1167743,-0.92664593,6.2661185,-10.604002,23.134811,-51.61467,54.744537,9.924698,8.0252285,4.087528,-7.265579,-21.177588,47.667953,52.876995,-12.398545,9.73698,-6.4683485
119,-0.3501162528991699,1.8247706890106201,78.08612060546875,0.29376878843376414,3.910001331834104,-86.09243187558704,-5.307475,-3.3746731,-2.9300294,9.442082,-9.875625,-0.35646647,-6.1838284,-7.530038,-10.8333235,9.332549,-6.1021953,5.3917403,-1.1247149,-0.926922,6.2650614,-10.587949,23.13274,-51.598957,54.74524,9.951676,8.012575,4.0872226,-7.261204,-21.178406,47.6678,52.888542,-12.400711,9.742632,-6.4728956
120,-0.3455043137073517,1.8279731273651123,78.0848617553711,0.29549367642314095,3.906065760577032,-86.09485353568598,-5.306529,-3.3817139,-2.9282422,9.441889,-9.873076,-0.35078323,-6.1800656,-7.535708,-10.830881,9.324403,-6.0949383,5.407048,-1.1337386,-0.92678714,6.2640467,-10.577022,23.131369,-51.592045,54.746304,9.964014,8.002114,4.0885777,-7.258954,-21.179272,47.668476,52.90075,-12.406139,9.746547,-6.473929
121,-0.3400319516658783,1.8323026895523071,78.0855712890625,0.29671174170379105,3.903036260271437,-86.09915547594328,-5.3055406,-3.387045,-2.922461,9.440738,-9.8704405,-0.34668812,-6.1835213,-7.5423923,-10.827002,9.327126,-6.0909686,5.4141927,-1.1399903,-0.92748404,6.2617936,-10.56509,23.130657,-51.588223,54.74433,9.971034,7.994012,4.0913744,-7.256811,-21.179785,47.66699,52.91408,-12.419488,9.748469,-6.4697337
122,-0.33453506231307983,1.8364217281341553,78.08627319335938,0.29791876219399466,3.900775466856635,-86.10447074321945,-5.30573,-3.391795,-2.914163,9.44102,-9.868665,-0.34338337,-6.1908503,-7.549942,-10.822434,9.335379,-6.088676,5.4168653,-1.1494439,-0.9261496,6.258438,-10.553022,23.129093,-51.584682,54.740513,9.97248,7.9867396,4.0937405,-7.257756,-21.18131,47.664486,52.930115,-12.4434805,9.749081,-6.4590154
123,-0.3296103775501251,1.8400940895080566,78.08554077148438,0.2990876438067753,3.897583030278979,-86.10914759479563,-5.306194,-3.3968613,-2.9063585,9.444178,-9.868303,-0.33998978,-6.1964827,-7.5573974,-10.818166,9.342929,-6.086753,5.418881,-1.1567456,-0.9269624,6.2574744,-10.543007,23.12804,-51.583508,54.736668,9.973791,7.9806323,4.0968604,-7.2563286,-21.182306,47.661587,52.942127,-12.461356,9.748902,-6.4506598
124,-0.3234862685203552,1.843535304069519,78.08496856689453,0.3006003665413832,3.893267723238623,-86.1115734670536,-5.306519,-3.4036224,-2.9012685,9.449471,-9.868711,-0.3354278,-6.1983137,-7.565328,-10.814197,9.347294,-6.085479,5.424283,-1.1683367,-0.92638993,6.257187,-10.534441,23.127186,-51.58626,54.732986,9.967876,7.9747524,4.1019697,-7.257751,-21.183384,47.65919,52.95829,-12.472922,9.745701,-6.4432793
125,-0.31693530082702637,1.84627103805542,78.08258819580078,0.3023041197157869,3.8859273354632813,-86.10989906153273,-5.3021297,-3.412738,-2.9019392,9.451271,-9.866897,-0.33066073,-6.196012,-7.5737033,-10.811151,9.35379,-6.09025,5.4354095,-1.1767846,-0.92727154,6.260199,-10.526005,23.125393,-51.595203,54.729225,9.963178,7.9707723,4.1129856,-7.2543135,-21.185705,47.65341,52.970913,-12.464721,9.738516,-6.442071
126,-0.31004762649536133,1.8492002487182617,78.08147430419922,0.3042300547467185,3.8765339096409606,-86.10551786548791,-5.2975574,-3.4233315,-2.905892,9.456981,-9.866883,-0.32581827,-6.1873026,-7.581857,-10.809074,9.3542795,-6.095139,5.4497724,-1.1906469,-0.9290889,6.267117,-10.522043,23.124414,-51.605564,54.728794,9.953017,7.967271,4.1262593,-7.2520432,-21.187185,47.649708,52.982784,-12.447249,9.728713,-6.4443645
127,-0.30124977231025696,1.854502558708191,78.07916259765625,0.3063233923137954,3.8672464526486054,-86.10117404968906,-5.2936187,-3.4344935,-2.9094071,9.464545,-9.867679,-0.3187606,-6.1794395,-7.5906825,-10.806593,9.356515,-6.100327,5.4638124,-1.1999769,-0.93140477,6.2728763,-10.516975,23.122826,-51.61995,54.725075,9.9424,7.96472,4.1380744,-7.247321,-21.189436,47.643627,52.993893,-12.425356,9.719313,-6.449122
128,-0.29430291056632996,1.8602999448776245,78.0776596069336,0.3085942282697072,3.860207825094769,-86.1003455084764,-5.2955103,-3.4449492,-2.9076393,9.479509,-9.872079,-0.3073624,-6.17608,-7.6001654,-10.802202,9.360433,-6.101871,5.4739423,-1.2051432,-0.9352778,6.27597,-10.513193,23.121431,-51.63082,54.719265,9.930514,7.961813,4.140947,-7.243025,-21.191324,47.63839,53.005795,-12.408152,9.714705,-6.455819
129,-0.2881544828414917,1.8624547719955444,78.07816314697266,0.3117482522304509,3.8566461458489876,-86.10370515670736,-5.3038597,-3.4555056,-2.899134,9.500902,-9.878613,-0.28796667,-6.1837864,-7.6126733,-10.79514,9.376286,-6.102943,5.477423,-1.2054355,-0.9394266,6.2746253,-10.507125,23.119251,-51.63717,54.707226,9.9192915,7.9576507,4.131517,-7.237417,-21.19378,47.63171,53.01777,-12.398482,9.716854,-6.4659295
130,-0.28191325068473816,1.865790843963623,78.07832336425781,0.31564762969754556,3.855761690276465,-86.11005622988638,-5.319088,-3.4661872,-2.8857715,9.531135,-9.888995,-0.26279047,-6.197697,-7.6267724,-10.785925,9.397047,-6.102177,5.4767447,-1.2045714,-0.94328356,6.270633,-10.5055685,23.116835,-51.643127,54.694145,9.901186,7.952713,4.11258,-7.233789,-21.196554,47.62701,53.031208,-12.392172,9.723335,-6.4789557
131,-0.27312394976615906,1.8744628429412842,78.07858276367188,0.3186937754599071,3.8546155051645803,-86.11746199884841,-5.3332734,-3.4756281,-2.871154,9.560484,-9.899856,-0.23831575,-6.2099295,-7.6396523,-10.776636,9.414107,-6.0987988,5.476275,-1.2026063,-0.94798505,6.266222,-10.4987955,23.114279,-51.64197,54.677364,9.888927,7.948996,4.091173,-7.2302527,-21.199112,47.623455,53.04482,-12.387882,9.731178,-6.4918194
132,-0.26181769371032715,1.880493402481079,78.07939147949219,0.3195290500243499,3.8509472760898875,-86.12443990284716,-5.341195,-3.482635,-2.8584712,9.5822935,-9.9088745,-0.22096816,-6.2126803,-7.6482105,-10.768901,9.416834,-6.090873,5.4804854,-1.2046777,-0.9518678,6.2644334,-10.49388,23.113062,-51.640476,54.664066,9.873141,7.947496,4.0729117,-7.226642,-21.200224,47.621056,53.057854,-12.390535,9.737117,-6.4999123
133,-0.2550073266029358,1.880751609802246,78.08037567138672,0.3171302438537184,3.8437490587823424,-86.13073310855594,-5.3389254,-3.4852152,-2.8480792,9.5914135,-9.914833,-0.21517004,-6.2026267,-7.6502237,-10.763679,9.400291,-6.0774775,5.4918747,-1.2051522,-0.95342064,6.264884,-10.484624,23.110558,-51.63597,54.649483,9.862894,7.954238,4.0571413,-7.2190433,-21.202114,47.615692,53.0691,-12.400368,9.740017,-6.501625
134,-0.24497459828853607,1.881969690322876,78.08029174804688,0.31269382616148844,3.8346012949507644,-86.13715479479788,-5.3302865,-3.4851923,-2.8382165,9.592374,-9.918951,-0.21642795,-6.1853585,-7.6484222,-10.759503,9.373069,-6.0611486,5.507733,-1.208549,-0.95483094,6.2680917,-10.482646,23.109423,-51.635162,54.641346,9.844146,7.9644012,4.0413194,-7.213942,-21.202888,47.61292,53.08149,-12.416063,9.741888,-6.4991713
135,-0.23389148712158203,1.8859694004058838,78.07964324951172,0.30707111133960613,3.824460656274883,-86.14347442643339,-5.3204885,-3.4842255,-2.8295853,9.592951,-9.923446,-0.21855982,-6.1631775,-7.644647,-10.755854,9.3375435,-6.0405912,5.5242577,-1.2130042,-0.9552866,6.2721353,-10.481806,23.10831,-51.63613,54.633495,9.821492,7.972389,4.0285807,-7.208327,-21.203505,47.609432,53.09257,-12.434344,9.743098,-6.4943566
136,-0.2270127683877945,1.893129587173462,78.077880859375,0.3028163685288956,3.8156671000532993,-86.1494618452586,-5.3138394,-3.4861195,-2.822126,9.597176,-9.928716,-0.21491982,-6.1451287,-7.6437054,-10.750755,9.3092985,-6.022052,5.537931,-1.2127867,-0.959468,6.2738056,-10.474875,23.1063,-51.634293,54.62377,9.808656,7.9686756,4.0237856,-7.1978354,-21.204138,47.60048,53.09859,-12.448456,9.7444515,-6.4896436
137,-0.21741659939289093,1.89956533908844,78.07533264160156,0.3009237948192332,3.808600048764535,-86.1548023864875,-5.3097153,-3.4924798,-2.8167343,9.603239,-9.933053,-0.20139791,-6.1380835,-7.648352,-10.742794,9.302579,-6.012478,5.546585,-1.2153883,-0.9668255,6.2748075,-10.46883,23.104694,-51.631332,54.61696,9.793198,7.944837,4.030319,-7.1866546,-21.204332,47.590027,53.100403,-12.462982,9.745293,-6.4846253
138,-0.2074931114912033,1.9021788835525513,78.07473754882812,0.3000211018630912,3.8022739546109934,-86.15957033410317,-5.308879,-3.5012012,-2.812909,9.614948,-9.9395485,-0.18227392,-6.1330748,-7.6550965,-10.733743,9.29994,-6.0034566,5.5525117,-1.2193887,-0.97602296,6.275979,-10.464314,23.103186,-51.62892,54.612595,9.774662,7.907277,4.0451727,-7.175746,-21.204227,47.578533,53.099518,-12.477036,9.745657,-6.478426
139,-0.195302814245224,1.9060460329055786,78.07427215576172,0.29929367464448603,3.7967262770900367,-86.16482729079378,-5.3067856,-3.5105906,-2.8089373,9.621544,-9.943131,-0.16354743,-6.1311674,-7.6627283,-10.723478,9.301245,-5.995395,5.55898,-1.2223244,-0.98695886,6.2760477,-10.457395,23.102129,-51.625343,54.60656,9.761314,7.870039,4.0607233,-7.1656494,-21.203932,47.568756,53.09723,-12.483648,9.746868,-6.472076
140,-0.18278443813323975,1.9097685813903809,78.07471466064453,0.2977032202951487,3.791968480504997,-86.1714975839713,-5.3055763,-3.5186372,-2.802426,9.626417,-9.946128,-0.15117934,-6.1263394,-7.6687574,-10.712869,9.290984,-5.98006,5.5693684,-1.2209697,-0.998996,6.2749085,-10.446902,23.09994,-51.6157,54.597042,9.764285,7.844879,4.067666,-7.152202,-21.202997,47.549477,53.090775,-12.488539,9.750622,-6.462805
141,-0.170950248837471,1.9140537977218628,78.07555389404297,0.2947102379327975,3.788426459008152,-86.17964585623068,-5.3042307,-3.5248253,-2.7927399,9.624985,-9.946164,-0.14964718,-6.118426,-7.6725345,-10.702036,9.267064,-5.956235,5.584827,-1.221995,-1.0104773,6.2732425,-10.4445095,23.098345,-51.61109,54.59002,9.763444,7.8379755,4.0616894,-7.1484003,-21.202065,47.53871,53.086033,-12.473532,9.758741,-6.448865
142,-0.1594381183385849,1.9194772243499756,78.07588195800781,0.29125337444161387,3.7859293938062963,-86.18868527207333,-5.3007216,-3.530028,-2.7813032,9.614744,-9.941802,-0.15484688,-6.112122,-7.6761017,-10.690251,9.240678,-5.929828,5.6036267,-1.223748,-1.0226507,6.2693467,-10.442238,23.09718,-51.607098,54.58239,9.765211,7.841218,4.049142,-7.1455517,-21.20115,47.530525,53.078644,-12.446887,9.770025,-6.43194
143,-0.14570321142673492,1.9251072406768799,78.07583618164062,0.28751368193577825,3.7836592528667397,-86.19876780445804,-5.2992244,-3.535498,-2.768672,9.607865,-9.939025,-0.15965907,-6.105388,-7.6796083,-10.677975,9.211754,-5.901077,5.624199,-1.2249655,-1.0357285,6.265517,-10.438872,23.096533,-51.60377,54.573887,9.773027,7.847344,4.0367303,-7.1440883,-21.20061,47.52535,53.072334,-12.4198675,9.779994,-6.420208
144,-0.1302516609430313,1.9301400184631348,78.07489776611328,0.2828147466545137,3.7808545345896145,-86.21183776554356,-5.2999434,-3.5403163,-2.7542756,9.6091795,-9.940691,-0.15724578,-6.0949326,-7.681128,-10.664355,9.175642,-5.867755,5.6447897,-1.2231343,-1.04881,6.2634788,-10.435423,23.094769,-51.59596,54.565285,9.795524,7.8519926,4.0245996,-7.1397486,-21.198778,47.513626,53.061413,-12.406611,9.790044,-6.415267
145,-0.11379168182611465,1.9367578029632568,78.07349395751953,0.2790545276149405,3.7776365167273,-86.2270247668282,-5.3040657,-3.5470936,-2.7388303,9.622156,-9.948534,-0.14454646,-6.0878196,-7.684645,-10.649177,9.148157,-5.8386426,5.6658754,-1.2217982,-1.0615549,6.265024,-10.431032,23.090878,-51.585674,54.55799,9.835674,7.8496456,4.020162,-7.13238,-21.194187,47.499172,53.052418,-12.419057,9.792734,-6.428137
146,-0.09815672039985657,1.9421005249023438,78.07243347167969,0.275557419396633,3.7744081655023325,-86.24452336017039,-5.309525,-3.5547543,-2.7219036,9.63966,-9.9589405,-0.12576729,-6.082408,-7.6890125,-10.632367,9.123588,-5.810175,5.68803,-1.2238394,-1.0739527,6.266351,-10.43085,23.088547,-51.585587,54.55373,9.873469,7.845684,4.020383,-7.1295824,-21.190952,47.497383,53.046772,-12.435016,9.792666,-6.4535003
147,-0.082194983959198,1.9476178884506226,78.07167053222656,0.27160623798734895,3.770765925662901,-86.26298585486191,-5.317068,-3.5624688,-2.7043693,9.663007,-9.97193,-0.1039576,-6.0770035,-7.6930532,-10.614831,9.099586,-5.7810593,5.710518,-1.2250305,-1.0871822,6.268629,-10.430407,23.086803,-51.585846,54.549145,9.9081955,7.841164,4.0227237,-7.12389,-21.188166,47.49611,53.035706,-12.4522295,9.791525,-6.4827743
148,-0.06441228836774826,1.9534403085708618,78.07170104980469,0.26836335039306336,3.76669632038003,-86.28142607684104,-5.323802,-3.5716143,-2.6865807,9.68335,-9.982,-0.0818062,-6.074882,-7.699181,-10.595975,9.082416,-5.7538967,5.7332106,-1.2241218,-1.1045914,6.270261,-10.429347,23.084929,-51.58548,54.54481,9.926269,7.838668,4.0264897,-7.1174417,-21.184835,47.49315,53.022545,-12.462276,9.790938,-6.5070796
149,-0.04646530747413635,1.9615368843078613,78.0709457397461,0.2665326040168285,3.7621037552327117,-86.2986797804437,-5.330199,-3.5830436,-2.6698608,9.701908,-9.989231,-0.058200505,-6.077458,-7.708526,-10.5760975,9.075517,-5.7309904,5.755093,-1.2235839,-1.1262767,6.272995,-10.430279,23.084053,-51.585995,54.53841,9.911004,7.838738,4.032023,-7.1145277,-21.182997,47.491364,53.00499,-12.456769,9.792566,-6.525468
150,-0.02896926924586296,1.9700967073440552,78.0689697265625,0.26518099865169237,3.757025378244832,-86.31576944260921,-5.3369417,-3.5959523,-2.6534693,9.721258,-9.995598,-0.032280464,-6.0823836,-7.7195196,-10.555379,9.075015,-5.710959,5.776471,-1.219006,-1.1534019,6.275048,-10.4357,23.081268,-51.5919,54.536407,9.874841,7.8402295,4.0397406,-7.1079335,-21.174427,47.483467,52.98445,-12.447202,9.7958145,-6.5435395
151,-0.00971374660730362,1.9768784046173096,78.06888580322266,0.263559316285214,3.7515819425133614,-86.33430508075038,-5.343584,-3.6090102,-2.635087,9.740081,-10.001561,-0.0072769215,-6.091042,-7.7313,-10.532647,9.08017,-5.6907606,5.799607,-1.2161702,-1.1800342,6.278741,-10.438687,23.080397,-51.594585,54.53201,9.835798,7.842409,4.048897,-7.1041384,-21.171318,47.479927,52.96279,-12.436674,9.796151,-6.556558
152,0.009336056187748909,1.9840916395187378,78.06842803955078,0.26033811668068757,3.745739096122283,-86.35596388565683,-5.3492503,-3.6204522,-2.612642,9.757675,-10.008428,0.013460512,-6.1053476,-7.7429366,-10.50692,9.093598,-5.6698008,5.826505,-1.2145035,-1.2038591,6.2855663,-10.448699,23.079796,-51.60312,54.533455,9.8017645,7.844623,4.058144,-7.10598,-21.168106,47.479767,52.94647,-12.434741,9.790495,-6.561138
153,0.030483733862638474,1.994003176689148,78.06855773925781,0.2557105494598653,3.7397969821108257,-86.37989757898568,-5.3522673,-3.6303034,-2.5855906,9.769807,-10.014697,0.026156865,-6.1268086,-7.7549324,-10.4790745,9.117477,-5.650245,5.859556,-1.2093105,-1.2273055,6.292307,-10.465672,23.078417,-51.626698,54.545193,9.776769,7.8477015,4.070875,-7.113419,-21.161013,47.48449,52.94386,-12.444768,9.773504,-6.553489
154,0.053587328642606735,2.0052855014801025,78.0679702758789,0.24992971779148893,3.7336768297431595,-86.40582177089377,-5.353591,-3.6393154,-2.5551522,9.778262,-10.020314,0.033527754,-6.154738,-7.767717,-10.449075,9.151378,-5.6325626,5.897105,-1.2070829,-1.2482105,6.301384,-10.484282,23.077068,-51.649693,54.560326,9.7580385,7.850855,4.085012,-7.1263046,-21.15555,47.49382,52.94684,-12.464846,9.747711,-6.5349298
155,0.07615315914154053,2.0156493186950684,78.06761932373047,0.24262658726870348,3.726853607427825,-86.43580960108287,-5.3553243,-3.6466413,-2.5212688,9.789111,-10.027673,0.042039465,-6.186693,-7.7792854,-10.414919,9.191288,-5.611885,5.9349384,-1.2049211,-1.2676414,6.3120055,-10.504104,23.076054,-51.671654,54.577286,9.742652,7.8538446,4.0977545,-7.141791,-21.15194,47.50536,52.95123,-12.483631,9.723646,-6.5167246
156,0.10339023172855377,2.0295767784118652,78.06625366210938,0.23336018255895524,3.7192486856852254,-86.47220052756929,-5.3602433,-3.65163,-2.483854,9.809265,-10.039428,0.058211803,-6.224948,-7.7885814,-10.373665,9.241384,-5.5876822,5.9689684,-1.1945354,-1.2872751,6.322243,-10.519651,23.074438,-51.69133,54.591827,9.733337,7.856316,4.1075315,-7.155409,-21.147436,47.517456,52.952976,-12.482579,9.70999,-6.511749
157,0.13182410597801208,2.043133497238159,78.06497192382812,0.22332735436110468,3.711225340781086,-86.51711444845138,-5.369217,-3.655281,-2.4416296,9.83933,-10.055342,0.08541413,-6.274035,-7.7968946,-10.322017,9.309195,-5.5628467,5.9961114,-1.1761113,-1.307758,6.3339024,-10.526945,23.07251,-51.69555,54.59992,9.741754,7.854648,4.111919,-7.1659822,-21.142626,47.525326,52.94846,-12.458879,9.713714,-6.5259438
158,0.15821081399917603,2.054032802581787,78.06476593017578,0.21249852709526612,3.7027491916122277,-86.56887003554934,-5.379474,-3.6578953,-2.395031,9.87439,-10.073789,0.119757846,-6.3332486,-7.804855,-10.261967,9.394493,-5.5391316,6.019452,-1.1555824,-1.3282062,6.3475122,-10.534578,23.0705,-51.6927,54.609573,9.755581,7.8494315,4.11238,-7.1818156,-21.137257,47.536255,52.94654,-12.418139,9.7276945,-6.5520716
159,0.18640927970409393,2.066265344619751,78.06417083740234,0.1978410875839904,3.692868781429708,-86.62378138051531,-5.3910785,-3.656583,-2.3467915,9.915336,-10.095262,0.15636213,-6.3911324,-7.808323,-10.19994,9.476998,-5.5066276,6.043561,-1.1321095,-1.3457088,6.362373,-10.532986,23.068584,-51.680645,54.61218,9.780229,7.84841,4.1096783,-7.1977024,-21.13246,47.545795,52.943783,-12.376174,9.7420025,-6.5782356
160,0.21371473371982574,2.0774989128112793,78.06548309326172,0.17662212002125566,3.680308099892174,-86.67879567660685,-5.4023466,-3.6488588,-2.2992861,9.961056,-10.119529,0.19055715,-6.437154,-7.8036923,-10.141761,9.5386,-5.456427,6.073192,-1.1178874,-1.3558221,6.38009,-10.53196,23.066252,-51.66633,54.614777,9.794959,7.8572674,4.103007,-7.219384,-21.126371,47.560474,52.943542,-12.351094,9.74708,-6.5926437
161,0.24235662817955017,2.089420795440674,78.0691909790039,0.1483887120471852,3.664319750699355,-86.73323900363324,-5.4100957,-3.6344674,-2.2526362,10.007536,-10.145382,0.22090992,-6.467689,-7.7907233,-10.090573,9.574917,-5.388947,6.111083,-1.1093216,-1.358504,6.3995934,-10.525161,23.062416,-51.645573,54.612198,9.80448,7.884339,4.0871706,-7.2484813,-21.117119,47.581028,52.951004,-12.345368,9.736423,-6.5892653
162,0.2734658718109131,2.104670286178589,78.07384490966797,0.11474343751640943,3.645598113166184,-86.78890913034499,-5.4158382,-3.6147783,-2.2057385,10.055491,-10.172558,0.2500702,-6.490551,-7.7716894,-10.042364,9.598893,-5.309424,6.1542697,-1.0943723,-1.3568794,6.4218483,-10.52705,23.061363,-51.642082,54.608334,9.795999,7.9239564,4.064291,-7.2641535,-21.114986,47.586548,52.943214,-12.36028,9.717393,-6.57411
163,0.30914321541786194,2.1234982013702393,78.0791244506836,0.07492252806404466,3.625743077636274,-86.84556652499336,-5.425118,-3.588919,-2.1591856,10.1132145,-10.204234,0.27912766,-6.508951,-7.7451344,-9.992871,9.613752,-5.2157393,6.198393,-1.0821402,-1.3491361,6.4472575,-10.526867,23.05895,-51.636196,54.60355,9.790587,7.9635262,4.04611,-7.2885337,-21.110834,47.597485,52.94037,-12.373709,9.697213,-6.557333
164,0.34287723898887634,2.141378164291382,78.0858383178711,0.028468351946068487,3.6062751926771965,-86.90204922080407,-5.4385843,-3.5568323,-2.1152534,10.17742,-10.236757,0.30931744,-6.5282288,-7.711008,-9.938514,9.62717,-5.1079926,6.2393236,-1.0806696,-1.3338138,6.4701014,-10.522684,23.054165,-51.63299,54.607044,9.786754,7.987834,4.0455885,-7.3215823,-21.10312,47.62144,52.94513,-12.375449,9.684871,-6.5489445
165,0.37918129563331604,2.1579368114471436,78.09323120117188,-0.025605205802776615,3.586584110412851,-86.9576652639367,-5.4582076,-3.5174654,-2.0745683,10.253684,-10.2716675,0.34063715,-6.546373,-7.667635,-9.877501,9.6373,-4.9836326,6.274313,-1.0809056,-1.3114457,6.4954805,-10.521086,23.051554,-51.646755,54.61677,9.782846,7.9942408,4.0732536,-7.3534284,-21.099138,47.64347,52.94324,-12.370732,9.685041,-6.5481663
166,0.4176090955734253,2.175630569458008,78.10098266601562,-0.0866686859741458,3.566248212574986,-87.01300437998226,-5.481333,-3.4713192,-2.0362673,10.337644,-10.307883,0.37260282,-6.565121,-7.616224,-9.811835,9.64816,-4.8471394,6.3061385,-1.0862888,-1.2817136,6.5210395,-10.51994,23.049236,-51.67273,54.632816,9.774749,7.9897475,4.1211457,-7.3863883,-21.095623,47.670822,52.938927,-12.360845,9.692737,-6.552498
167,0.4565250277519226,2.1927249431610107,78.10912322998047,-0.15307544231041367,3.5472423872370547,-87.06977626823651,-5.5091887,-3.419778,-1.998576,10.427277,-10.346642,0.4054761,-6.5846605,-7.5587907,-9.743703,9.654503,-4.6971965,6.3388834,-1.0909238,-1.248225,6.539956,-10.518402,23.04522,-51.711334,54.653633,9.759811,7.977715,4.172058,-7.4211745,-21.08996,47.70766,52.94044,-12.333957,9.700987,-6.56408
168,0.4945148825645447,2.20827054977417,78.11953735351562,-0.22291435710389598,3.5313765220332485,-87.12960584545829,-5.5419126,-3.36479,-1.9598484,10.518896,-10.388197,0.43953592,-6.6144404,-7.4989505,-9.673989,9.6704445,-4.5428004,6.376657,-1.0900625,-1.2120097,6.5619445,-10.511092,23.043598,-51.724854,54.659035,9.769915,7.960235,4.1987767,-7.4484267,-21.088017,47.71975,52.931263,-12.316784,9.701646,-6.5749154
169,0.5350573658943176,2.227715015411377,78.12896728515625,-0.2952447671457294,3.519235106333335,-87.19283193561748,-5.582223,-3.3075583,-1.920601,10.617087,-10.435729,0.4769011,-6.6528206,-7.437678,-9.604145,9.690914,-4.3822107,6.423988,-1.0892341,-1.1739902,6.5777373,-10.507475,23.041132,-51.738895,54.66274,9.778344,7.9358263,4.197677,-7.475523,-21.084997,47.731125,52.92485,-12.282988,9.6894865,-6.5941095
170,0.5738734602928162,2.2494444847106934,78.14006042480469,-0.3711204866399457,3.509875103725305,-87.25863047034393,-5.6281466,-3.246805,-1.8814118,10.719868,-10.487044,0.5166449,-6.6972685,-7.3731275,-9.532367,9.713528,-4.2131834,6.4768696,-1.0857246,-1.1337998,6.590918,-10.502255,23.039053,-51.744606,54.661674,9.798474,7.904027,4.1782093,-7.501062,-21.082563,47.734188,52.917213,-12.239579,9.669481,-6.61878
171,0.6181634664535522,2.270968437194824,78.15145874023438,-0.45197009790625864,3.5024807050937405,-87.32680552567979,-5.6761603,-3.1808882,-1.8407094,10.821161,-10.538053,0.5549258,-6.7475877,-7.3037267,-9.458321,9.739768,-4.0351973,6.529205,-1.0811284,-1.0889968,6.6024714,-10.492889,23.037617,-51.743435,54.654778,9.819374,7.8685217,4.153531,-7.520639,-21.08094,47.73104,52.90485,-12.206137,9.651684,-6.642224
172,0.6657580137252808,2.293569803237915,78.16411590576172,-0.5401061925333167,3.496787469386938,-87.39742922894192,-5.724216,-3.106516,-1.7971518,10.917319,-10.586313,0.5875381,-6.806458,-7.2265472,-9.381322,9.776231,-3.8503008,6.573882,-1.0742288,-1.0350442,6.6143446,-10.479495,23.035702,-51.735355,54.641342,9.833487,7.8329597,4.135659,-7.542564,-21.079014,47.724354,52.898933,-12.197326,9.644542,-6.656423
173,0.7117791771888733,2.3169379234313965,78.17854309082031,-0.6366363116297153,3.4931238145124537,-87.46878513112034,-5.7709374,-3.0231054,-1.7509305,11.00299,-10.629586,0.6118036,-6.8731203,-7.1408715,-9.302313,9.82176,-3.6566257,6.606247,-1.0670063,-0.97190803,6.6242642,-10.464674,23.034224,-51.725616,54.623486,9.826313,7.7914634,4.126729,-7.561042,-21.077816,47.71937,52.89213,-12.227315,9.656998,-6.6582932
174,0.7611950039863586,2.3375093936920166,78.19344329833984,-0.7408198893191363,3.491759061360961,-87.54153792971243,-5.8190007,-2.9313986,-1.7027771,11.084039,-10.670875,0.63038176,-6.947158,-7.0472417,-9.221658,9.874313,-3.4540553,6.6308823,-1.0605472,-0.8996844,6.6330485,-10.4421835,23.031239,-51.701565,54.597603,9.815109,7.744239,4.120284,-7.579563,-21.075918,47.71163,52.888374,-12.287194,9.681581,-6.6512876
175,0.8112196922302246,2.3598451614379883,78.20716857910156,-0.848269505457762,3.490826229318777,-87.6188251045001,-5.8654795,-2.8353734,-1.6510922,11.160834,-10.709261,0.64780414,-7.026646,-6.949781,-9.136855,9.931875,-3.2433584,6.6555715,-1.054594,-0.8233807,6.641102,-10.418302,23.028778,-51.677097,54.571106,9.799395,7.704658,4.117801,-7.5972786,-21.07476,47.70385,52.885895,-12.346496,9.707015,-6.642914
176,0.861627995967865,2.389328956604004,78.22048950195312,-0.9546846207649586,3.488682957240745,-87.70396481213942,-5.9052963,-2.7389555,-1.5943233,11.22882,-10.7410145,0.66865116,-7.1127586,-6.8530755,-9.044742,9.998727,-3.0291944,6.6882286,-1.0480171,-0.7486132,6.650486,-10.399382,23.027164,-51.661777,54.55135,9.780337,7.685652,4.120959,-7.6125765,-21.074131,47.694817,52.88134,-12.376544,9.722872,-6.640664
177,0.9116674065589905,2.415177822113037,78.23532104492188,-1.0568805963805559,3.484165388479468,-87.80201899622983,-5.9340334,-2.6446738,-1.5293287,11.283969,-10.762621,0.69693536,-7.2048297,-6.759232,-8.941006,10.073439,-2.8097062,6.731152,-1.0390335,-0.67901367,6.6600537,-10.379525,23.02608,-51.652462,54.53688,9.761937,7.6978045,4.1334014,-7.6233797,-21.07376,47.681904,52.875977,-12.371688,9.726004,-6.645122
178,0.964896559715271,2.434763193130493,78.25275421142578,-1.158182528729034,3.4791641254461547,-87.91060118305346,-5.9573426,-2.54929,-1.4569185,11.332649,-10.778629,0.7291608,-7.3046856,-6.6651573,-8.8274,10.156415,-2.5841303,6.7801247,-1.0185994,-0.60787237,6.675506,-10.361075,23.023827,-51.64225,54.518883,9.753111,7.7323065,4.1512613,-7.6316414,-21.073153,47.64065,52.87152,-12.361818,9.720428,-6.6459966
179,1.0172497034072876,2.4586708545684814,78.2687759399414,-1.2626702125298501,3.4738177685929257,-88.01970025933508,-5.980004,-2.4501545,-1.3841809,11.378646,-10.792951,0.75901043,-7.406254,-6.567649,-8.71371,10.240446,-2.351877,6.8330603,-0.99890345,-0.536317,6.689604,-10.35075,23.022284,-51.645382,54.510555,9.737004,7.772386,4.170947,-7.6333055,-21.072979,47.603127,52.86125,-12.331263,9.710639,-6.6549172
180,1.068100094795227,2.4851508140563965,78.28658294677734,-1.3746681457963925,3.46941301670638,-88.12003539967603,-6.010394,-2.3442783,-1.3172671,11.431827,-10.81254,0.7801606,-7.5048323,-6.4631624,-8.608887,10.317302,-2.111008,6.8878994,-0.98825705,-0.4603061,6.703992,-10.340873,23.021732,-51.642807,54.507053,9.732566,7.802082,4.1854987,-7.6387763,-21.073118,47.5808,52.850407,-12.279875,9.69846,-6.673778
181,1.1221492290496826,2.515732765197754,78.30350494384766,-1.4991376282487063,3.466525709229535,-88.20889487276882,-6.0551944,-2.2262034,-1.2578794,11.502089,-10.843876,0.7866917,-7.5998945,-6.346504,-8.517127,10.385865,-1.8604956,6.943164,-0.97956944,-0.37358028,6.725692,-10.337012,23.021475,-51.63035,54.503426,9.757058,7.81873,4.1932654,-7.643483,-21.073534,47.551086,52.8307,-12.215367,9.680651,-6.7030034
182,1.1758776903152466,2.5480902194976807,78.32201385498047,-1.6330844390567196,3.464049601700712,-88.29066726034539,-6.1087976,-2.0988698,-1.2033391,11.583602,-10.882558,0.7833437,-7.6913466,-6.2204385,-8.433838,10.446018,-1.5992267,7.0001354,-0.9741845,-0.27939802,6.758152,-10.338976,23.021963,-51.59977,54.49978,9.811427,7.829385,4.193649,-7.64908,-21.075455,47.506435,52.802704,-12.145272,9.6568,-6.737743
183,1.232019066810608,2.5839009284973145,78.33914184570312,-1.7683339932104516,3.462003977036687,-88.37028944697316,-6.1621294,-1.9704685,-1.1503918,11.661102,-10.919245,0.77953684,-7.783755,-6.0934463,-8.351199,10.506231,-1.3334606,7.0602922,-0.9757837,-0.18435782,6.793052,-10.340077,23.024532,-51.56021,54.496407,9.869082,7.8359547,4.186957,-7.656616,-21.079876,47.467793,52.77287,-12.073961,9.632001,-6.772277
184,1.2824125289916992,2.615290403366089,78.3572769165039,-1.8981493099464333,3.4604097438728894,-88.45281005766788,-6.20946,-1.8480514,-1.0956836,11.726555,-10.948479,0.7844927,-7.88014,-5.972109,-8.261734,10.570651,-1.0672607,7.1250114,-0.98132735,-0.094652064,6.8212047,-10.337258,23.02911,-51.526867,54.495617,9.905259,7.841003,4.1726656,-7.661102,-21.085035,47.44275,52.74861,-12.014404,9.610666,-6.80029
185,1.3368099927902222,2.6447348594665527,78.37385559082031,-2.0193000980346003,3.4599657933970014,-88.54066491238451,-6.2474647,-1.7346089,-1.0370433,11.771913,-10.965532,0.80147606,-7.984056,-5.8595834,-8.161928,10.643022,-0.8004692,7.1956306,-0.98856324,-0.0123066595,6.8444376,-10.334133,23.037878,-51.498775,54.49201,9.914218,7.845668,4.1389375,-7.660883,-21.091757,47.419598,52.7282,-11.981636,9.59306,-6.818139
186,1.3898212909698486,2.6739115715026855,78.39164733886719,-2.1362917282405407,3.4611062900799303,-88.63090333678788,-6.281635,-1.6257168,-0.9764055,11.806024,-10.975865,0.82522124,-8.095169,-5.7516785,-8.05594,10.723881,-0.53341603,7.2710767,-0.9930563,0.064233206,6.8598566,-10.332056,23.04534,-51.47953,54.49587,9.906382,7.847611,4.0928226,-7.6586986,-21.09596,47.402874,52.71868,-11.954536,9.575846,-6.8329825
187,1.4434069395065308,2.7054860591888428,78.40978240966797,-2.251715187899022,3.4603016315175874,-88.72022442614394,-6.311511,-1.5186905,-0.91745996,11.835322,-10.98342,0.8523226,-8.201441,-5.644653,-7.948745,10.798719,-0.26325044,7.3495655,-1.0023162,0.13876684,6.8829517,-10.33096,23.063118,-51.460636,54.492085,9.89236,7.8484488,4.047487,-7.652686,-21.103611,47.380753,52.70104,-11.950039,9.562316,-6.8375955
188,1.4983702898025513,2.737201452255249,78.42958068847656,-2.3689525529580973,3.4561371130625673,-88.8054471048173,-6.3402267,-1.4104637,-0.86364424,11.869604,-10.994218,0.87929064,-8.297772,-5.5354404,-7.8444223,10.863964,0.007232378,7.4289694,-1.0133525,0.21003866,6.9110765,-10.326708,23.09813,-51.45391,54.484978,9.873018,7.8466043,4.024518,-7.637276,-21.115244,47.35978,52.672905,-11.953374,9.552374,-6.8343043
189,1.548811435699463,2.769338607788086,78.45037078857422,-2.48886667476475,3.4454195078017804,-88.88602532383842,-6.3639917,-1.2996224,-0.81592435,11.908094,-11.009644,0.9055255,-8.377298,-5.421646,-7.7431555,10.914054,0.2795386,7.5040874,-1.0290433,0.28030545,6.945893,-10.331014,23.13007,-51.46574,54.502254,9.841473,7.8377066,4.038928,-7.6216183,-21.123007,47.348797,52.64818,-11.967569,9.549757,-6.820826
190,1.6016026735305786,2.8003640174865723,78.4707260131836,-2.6101322375653586,3.4301581918438364,-88.963664022577,-6.382847,-1.1879339,-0.7724349,11.946218,-11.026412,0.93275416,-8.445021,-5.30562,-7.642999,10.953141,0.5541221,7.5772953,-1.0472605,0.3486166,6.9856896,-10.339986,23.162346,-51.489803,54.53379,9.801057,7.8235707,4.0771008,-7.6032724,-21.128532,47.342445,52.62399,-11.994418,9.55261,-6.7981324
191,1.6540629863739014,2.827543258666992,78.49073028564453,-2.7309807218355773,3.4151778552838032,-89.03806630995182,-6.40295,-1.0771885,-0.7324419,11.985458,-11.041647,0.96100754,-8.507959,-5.1901584,-7.545533,10.983114,0.8312506,7.6579967,-1.0680137,0.41530845,7.024173,-10.354014,23.196438,-51.521164,54.57439,9.762467,7.810541,4.116454,-7.5796466,-21.132591,47.33338,52.599697,-12.027778,9.554779,-6.770018
192,1.7078158855438232,2.8552980422973633,78.50898742675781,-2.8502383262084834,3.4056011372955273,-89.10909304359215,-6.4314046,-0.96904594,-0.6949299,12.029339,-11.053555,0.99143785,-8.572698,-5.0783315,-7.452316,11.005614,1.1108797,7.755531,-1.0863677,0.4775172,7.0589013,-10.365979,23.257206,-51.558468,54.591434,9.734338,7.807068,4.13333,-7.549744,-21.138233,47.312836,52.568813,-12.054959,9.550016,-6.739953
193,1.761258602142334,2.8841726779937744,78.52691650390625,-2.96710772290859,3.4028643986425116,-89.17597298211165,-6.470301,-0.86510026,-0.6607223,12.078467,-11.05856,1.0239552,-8.640239,-4.971809,-7.3651004,11.019611,1.3925631,7.8737774,-1.1097293,0.5387618,7.084176,-10.3857355,23.323555,-51.59994,54.610703,9.723033,7.81545,4.116223,-7.518192,-21.142656,47.289047,52.539684,-12.069787,9.53289,-6.7071443
194,1.8113125562667847,2.9140493869781494,78.54483795166016,-3.082711283679009,3.4043009558384196,-89.23907599970174,-6.515913,-0.76355827,-0.62999326,12.131412,-11.059011,1.0582347,-8.707422,-4.868608,-7.2823944,11.024633,1.6764141,8.007388,-1.1364996,0.6009691,7.100772,-10.423421,23.377785,-51.654205,54.655678,9.718065,7.830424,4.0806518,-7.4821577,-21.144707,47.262096,52.514156,-12.080986,9.508322,-6.670577
195,1.864595651626587,2.9422051906585693,78.56256103515625,-3.1979733668154435,3.408337993412407,-89.299766543817,-6.56401,-0.66269475,-0.6018116,12.182833,-11.057827,1.0919744,-8.77325,-4.765774,-7.2013154,11.021567,1.9642415,8.151892,-1.1602992,0.6604584,7.116704,-10.459986,23.446966,-51.709335,54.68898,9.718034,7.847386,4.0420465,-7.442563,-21.14671,47.228,52.485874,-12.09118,9.484546,-6.6335034
196,1.9179456233978271,2.9736289978027344,78.57910919189453,-3.3142477686524012,3.4132594862644994,-89.3594404003744,-6.612298,-0.55992454,-0.5755546,12.230617,-11.059226,1.1215732,-8.837168,-4.6603503,-7.1188703,11.011765,2.2576246,8.303009,-1.1878133,0.7245935,7.1313386,-10.496613,23.497967,-51.743507,54.73893,9.726021,7.857725,4.019083,-7.402993,-21.147312,47.199192,52.45962,-12.103279,9.4714,-6.6008
197,1.9717503786087036,3.0092551708221436,78.59716796875,-3.43308289875503,3.418833794895849,-89.41668942031137,-6.6590304,-0.45309195,-0.55316955,12.27093,-11.0636,1.1441051,-8.897958,-4.5497994,-7.0365143,10.993997,2.5598845,8.455961,-1.2143987,0.788312,7.15265,-10.516638,23.57196,-51.757267,54.75922,9.744443,7.859669,4.0133457,-7.360043,-21.14733,47.163273,52.42267,-12.120206,9.471272,-6.5730515
198,2.023090124130249,3.03749680519104,78.61691284179688,-3.553476268419795,3.425669446222257,-89.47129709943663,-6.7067327,-0.34404513,-0.5344191,12.308181,-11.070032,1.1619873,-8.955562,-4.436386,-6.95501,10.966347,2.8701675,8.614427,-1.2472064,0.85492826,7.174707,-10.537607,23.64497,-51.7601,54.7835,9.765438,7.855482,4.017349,-7.3209343,-21.146511,47.133823,52.386654,-12.134155,9.479595,-6.5488505
199,2.068768262863159,3.0618832111358643,78.63375854492188,-3.672356239115326,3.434330857427213,-89.52674257769408,-6.753636,-0.23616682,-0.5148818,12.34004,-11.074568,1.1798882,-9.013144,-4.323775,-6.8702784,10.934679,3.1805174,8.786013,-1.2784386,0.9202415,7.195597,-10.551528,23.72265,-51.74768,54.800613,9.787473,7.8528275,4.028591,-7.279825,-21.144836,47.105343,52.35157,-12.1507635,9.492785,-6.5259657
200,2.114258289337158,3.0866951942443848,78.6523208618164,-3.787175488644862,3.4449137194195503,-89.58649240841986,-6.800898,-0.13257535,-0.49023035,12.371019,-11.077216,1.2024907,-9.073414,-4.215372,-6.778284,10.903458,3.4840024,8.978431,-1.3037175,0.98218006,7.212372,-10.565906,23.800655,-51.72869,54.81809,9.792665,7.8581433,4.0450544,-7.2435956,-21.14317,47.08829,52.327454,-12.161971,9.507088,-6.5029273
201,2.1650638580322266,3.114584445953369,78.67110443115234,-3.9002599709390013,3.4590023862656936,-89.65288983748884,-6.8502064,-0.030810274,-0.45927513,12.402481,-11.078828,1.230819,-9.140913,-4.1091933,-6.680136,10.878199,3.7837546,9.187993,-1.3203311,1.0436927,7.2221255,-10.5789585,23.87466,-51.69924,54.839916,9.781156,7.8734574,4.070652,-7.206213,-21.141935,47.079655,52.312653,-12.173383,9.526161,-6.480595
202,2.216283082962036,3.1416244506835938,78.6895523071289,-4.012200582650566,3.476030052364692,-89.72363262941175,-6.9027557,0.06991952,-0.42440417,12.436557,-11.08156,1.2624518,-9.214048,-4.0039344,-6.5772567,10.857319,4.080429,9.412404,-1.3307632,1.105004,7.227356,-10.590214,23.94753,-51.658863,54.862755,9.758908,7.895022,4.1050215,-7.1725383,-21.141703,47.08198,52.307144,-12.179159,9.550399,-6.4595275
203,2.267650604248047,3.1672585010528564,78.7059097290039,-4.117405371846005,3.492812354765378,-89.79510399865848,-6.949636,0.16345878,-0.3864482,12.460437,-11.077639,1.2968545,-9.28228,-3.9053268,-6.4657345,10.827892,4.3672795,9.661699,-1.3379611,1.1607326,7.2309775,-10.603334,24.01676,-51.6121,54.888824,9.728943,7.9209623,4.1403656,-7.1383467,-21.142143,47.086296,52.305946,-12.186022,9.571445,-6.436708
204,2.3168740272521973,3.191098690032959,78.72148132324219,-4.209978341275293,3.5065285212671085,-89.86368967246598,-6.983649,0.24356213,-0.34610412,12.464315,-11.060784,1.3335307,-9.334899,-3.8184764,-6.3418446,10.776769,4.6373982,9.945722,-1.3455904,1.2040888,7.23784,-10.612731,24.091894,-51.556007,54.90367,9.699711,7.9501586,4.1679907,-7.1056676,-21.142754,47.08963,52.30628,-12.194089,9.580682,-6.4092345
205,2.3601815700531006,3.218008518218994,78.73462677001953,-4.2878027216485055,3.5175877507030755,-89.92883861061341,-7.007094,0.30773985,-0.30235732,12.450771,-11.029513,1.3733728,-9.373641,-3.7461011,-6.202717,10.705654,4.8901715,10.266811,-1.3437436,1.2356853,7.2414994,-10.639547,24.130806,-51.495403,54.95209,9.675143,7.9882116,4.1886387,-7.0652194,-21.142868,47.078293,52.312332,-12.213707,9.570739,-6.370538
206,2.408834457397461,3.241184711456299,78.743896484375,-4.3540320373544175,3.527156845869266,-89.9924415222228,-7.0202622,0.3595998,-0.2550622,12.419026,-10.984817,1.4163219,-9.404469,-3.6850646,-6.0508995,10.623407,5.126959,10.619542,-1.3477275,1.2550884,7.2503853,-10.657703,24.189615,-51.41689,54.97488,9.641542,8.03546,4.2019033,-7.0296316,-21.143127,47.069416,52.319183,-12.240226,9.54778,-6.3235965
207,2.451828956604004,3.2635271549224854,78.75871276855469,-4.411746454336494,3.53357602699814,-90.05421374576429,-7.0228114,0.40220723,-0.20651594,12.374292,-10.934929,1.4602901,-9.418892,-3.632188,-5.89099,10.519949,5.3484097,11.002328,-1.3545364,1.2642456,7.263718,-10.656527,24.273527,-51.32708,54.96536,9.615557,8.077574,4.2103977,-6.9996805,-21.143206,47.068558,52.32792,-12.256409,9.523879,-6.2815733
208,2.497695207595825,3.285857677459717,78.77198791503906,-4.464387726627171,3.534959765060546,-90.11391527889893,-7.01239,0.43891618,-0.15921213,12.317912,-10.8863,1.5030878,-9.409355,-3.5841248,-5.72778,10.387052,5.554166,11.41372,-1.3593872,1.2696896,7.277398,-10.651043,24.35692,-51.248714,54.95756,9.602974,8.097963,4.2183323,-6.9694815,-21.14285,47.07229,52.340054,-12.25455,9.511059,-6.256743
209,2.5434839725494385,3.306164503097534,78.78350067138672,-4.506727883477288,3.528464399027395,-90.17194672960257,-6.978805,0.4633148,-0.11126337,12.23686,-10.835751,1.5471487,-9.355947,-3.5456045,-5.559227,10.190376,5.7689977,11.910176,-1.3612305,1.2678695,7.29217,-10.6415,24.43492,-51.182793,54.95629,9.60993,8.084963,4.226406,-6.9387116,-21.142193,47.085377,52.3568,-12.223613,9.516404,-6.2555842
210,2.582947254180908,3.3226072788238525,78.79609680175781,-4.539082867235643,3.5158446144502284,-90.22835529588352,-6.929397,0.47604582,-0.06228537,12.140806,-10.784865,1.59252,-9.267544,-3.5167656,-5.384183,9.942529,5.9866357,12.473525,-1.3636265,1.256994,7.3097115,-10.620374,24.522423,-51.11871,54.943645,9.6306305,8.0499735,4.232321,-6.9107285,-21.141253,47.10813,52.377644,-12.171746,9.53238,-6.270384
211,2.6249184608459473,3.334838628768921,78.80754089355469,-4.571925483016692,3.5024365133101014,-90.28224581487878,-6.8773594,0.4897926,-0.0161149,12.042899,-10.73447,1.6340542,-9.183302,-3.4883475,-5.208559,9.713032,6.154657,12.98984,-1.3665389,1.2469642,7.3267784,-10.598659,24.61165,-51.064037,54.930717,9.653355,8.009913,4.2365823,-6.885172,-21.139982,47.13238,52.401318,-12.114475,9.548366,-6.2924457
212,2.6673245429992676,3.349198818206787,78.81745910644531,-4.616445134323564,3.4939135011102582,-90.33265565783256,-6.8421173,0.51838785,0.023073224,11.968778,-10.692106,1.666533,-9.141831,-3.4504828,-5.0389366,9.570675,6.2213373,13.345592,-1.3719431,1.2477549,7.3410587,-10.583274,24.701954,-51.024513,54.920773,9.66558,7.9824133,4.239212,-6.863734,-21.138256,47.152554,52.426037,-12.066135,9.554075,-6.3129454
213,2.70768141746521,3.362823009490967,78.82814025878906,-4.6754898695663485,3.4928256462970433,-90.37992037473526,-6.829103,0.56509036,0.05453694,11.923344,-10.657613,1.6873264,-9.164539,-3.3994699,-4.8712234,9.552316,6.1621537,13.491437,-1.3784225,1.2637641,7.3497853,-10.584722,24.782244,-51.009434,54.929306,9.659016,7.9701867,4.2427244,-6.844647,-21.136402,47.166798,52.453392,-12.027954,9.54376,-6.334317
214,2.7422919273376465,3.3732707500457764,78.8388442993164,-4.7431276097528166,3.4958526521947686,-90.4243509752498,-6.82894,0.6228531,0.080117315,11.895605,-10.62894,1.6995234,-9.227631,-3.3406477,-4.7040534,9.615874,6.007662,13.494541,-1.3868158,1.2871871,7.35688,-10.586889,24.870806,-51.007637,54.93194,9.644622,7.9655447,4.2452445,-6.831289,-21.13432,47.180977,52.483143,-11.990406,9.523898,-6.3595595
215,2.7765722274780273,3.391047477722168,78.8515396118164,-4.817766130276844,3.4995061642172587,-90.46481666055395,-6.8351994,0.6896745,0.10001521,11.881126,-10.606698,1.7068927,-9.298318,-3.2763426,-4.5482926,9.703639,5.7933593,13.415448,-1.3969028,1.3163297,7.363576,-10.586168,24.962315,-51.009476,54.930435,9.634944,7.9669967,4.2436533,-6.8175464,-21.131586,47.187443,52.510616,-11.964052,9.502521,-6.3809175
216,2.810819625854492,3.4028806686401367,78.86571502685547,-4.897980454257363,3.5001403348840934,-90.50025823797658,-6.842547,0.76356643,0.11405803,11.877077,-10.592367,1.7131418,-9.347411,-3.2097208,-4.4146485,9.764746,5.550903,13.315065,-1.4075539,1.3496741,7.3717213,-10.579483,25.052876,-51.005836,54.92492,9.642338,7.973511,4.234856,-6.8061604,-21.127575,47.18721,52.53552,-11.947513,9.487919,-6.390743
217,2.841562271118164,3.412900924682617,78.88114166259766,-4.984474829887186,3.4951059316367488,-90.53162468799752,-6.846082,0.8458198,0.123197146,11.881478,-10.587605,1.7182932,-9.367195,-3.1382172,-4.2979827,9.792426,5.2511606,13.178058,-1.4186372,1.3870409,7.381915,-10.568267,25.143957,-50.999935,54.91573,9.673856,7.9900694,4.2086596,-6.794065,-21.121372,47.176792,52.557854,-11.952708,9.482398,-6.382038
218,2.872169256210327,3.41988468170166,78.89742279052734,-5.077547934112991,3.4869530794332584,-90.55911669009261,-6.8495255,0.93710864,0.1272062,11.895323,-10.590521,1.720679,-9.372996,-3.0611627,-4.1942005,9.811013,4.88963,12.98302,-1.4284811,1.4296293,7.3920803,-10.547413,25.228369,-50.98308,54.904827,9.737665,8.0155115,4.170138,-6.7828555,-21.113163,47.159203,52.579556,-11.971231,9.481544,-6.360504
219,2.8963348865509033,3.427318572998047,78.91436767578125,-5.175129349849123,3.479666356385938,-90.5803611190509,-6.85959,1.0332077,0.12412169,11.920039,-10.597797,1.7215823,-9.36917,-2.9848123,-4.116704,9.815002,4.536045,12.781482,-1.4437677,1.4753159,7.4034123,-10.525158,25.321657,-50.970837,54.886627,9.787354,8.039204,4.137792,-6.776317,-21.101923,47.13634,52.600292,-11.993134,9.48325,-6.338012
220,2.923044443130493,3.4346659183502197,78.93260955810547,-5.274858235830383,3.477431785587599,-90.59289725235234,-6.8804703,1.1303418,0.11223037,11.951236,-10.602528,1.72212,-9.361344,-2.9154956,-4.0799146,9.802699,4.257919,12.624379,-1.4660511,1.5246719,7.4142303,-10.507567,25.414345,-50.96463,54.87241,9.801162,8.050158,4.1316886,-6.7746243,-21.088959,47.108734,52.61799,-12.005068,9.485722,-6.3261175
221,2.952629327774048,3.4473583698272705,78.95146179199219,-5.3775814832438655,3.4820997401831173,-90.59296120001216,-6.9188533,1.2283182,0.08796682,11.996348,-10.604779,1.7239643,-9.345549,-2.8548796,-4.095774,9.76115,4.0866985,12.531814,-1.4998605,1.5797063,7.4244323,-10.50789,25.50665,-50.981792,54.87128,9.737749,8.042455,4.170926,-6.7797556,-21.074766,47.07532,52.63428,-12.002115,9.489664,-6.3308554
222,2.9822299480438232,3.4576311111450195,78.96810913085938,-5.484040584750631,3.4912556965027357,-90.58279423765252,-6.9704814,1.3289043,0.05324896,12.054734,-10.607668,1.7261313,-9.320445,-2.7998319,-4.154553,9.694839,3.9822793,12.474357,-1.541958,1.6453925,7.4306126,-10.530168,25.566557,-51.01226,54.910347,9.631423,8.021231,4.2424755,-6.786921,-21.064606,47.03839,52.647827,-11.989719,9.496421,-6.3450317
223,3.005006790161133,3.4661777019500732,78.98606872558594,-5.59159544211507,3.5027613867477903,-90.56942068436844,-7.0252175,1.4304475,0.014302142,12.113958,-10.610699,1.7256659,-9.292964,-2.749373,-4.238559,9.622969,3.9075868,12.428105,-1.5785508,1.7050083,7.4409876,-10.538795,25.66204,-51.04564,54.910774,9.5266285,7.997524,4.3107014,-6.7966714,-21.047699,46.988987,52.655384,-11.976186,9.501947,-6.3600287
224,3.0240676403045654,3.476091146469116,79.00184631347656,-5.69803358918059,3.514133240699841,-90.55957763604825,-7.073959,1.531439,-0.022963451,12.163101,-10.613942,1.719876,-9.2684145,-2.7022946,-4.33024,9.561016,3.827555,12.369697,-1.6143728,1.7630227,7.450724,-10.539911,25.75355,-51.0644,54.910965,9.472505,7.9757156,4.3466916,-6.8122463,-21.032238,46.948616,52.660156,-11.961385,9.505508,-6.368153
225,3.048424005508423,3.482980728149414,79.0169677734375,-5.803767777533911,3.525831156206481,-90.55308817417472,-7.1164055,1.6315534,-0.05988108,12.202187,-10.619645,1.7074214,-9.245815,-2.6587691,-4.431372,9.508944,3.7356052,12.290081,-1.6431469,1.8198377,7.457917,-10.529509,25.830475,-51.059273,54.91724,9.507855,7.9555783,4.3352156,-6.827086,-21.020718,46.907986,52.655342,-11.933959,9.5056715,-6.366792
226,3.0721940994262695,3.4896459579467773,79.03218841552734,-5.909967863864953,3.538659291115202,-90.54694457265957,-7.156241,1.7317777,-0.098745495,12.235121,-10.626341,1.6900557,-9.223219,-2.6190994,-4.549284,9.459741,3.6500154,12.202819,-1.6698438,1.8815254,7.4600015,-10.534482,25.871954,-51.055553,54.9634,9.584232,7.9323797,4.2973766,-6.842042,-21.015598,46.87106,52.64416,-11.893784,9.50466,-6.360708
227,3.0979552268981934,3.498695135116577,79.04668426513672,-6.014495413155429,3.5513269253981825,-90.54394274636222,-7.1938844,1.8317286,-0.13458721,12.264643,-10.633675,1.6694223,-9.203132,-2.5831306,-4.6743484,9.416321,3.5724726,12.117607,-1.6872271,1.9335754,7.4696207,-10.519008,25.95784,-51.047237,54.955868,9.670343,7.913345,4.2486987,-6.8592215,-21.008179,46.82861,52.62492,-11.873604,9.502024,-6.3504434
228,3.1217620372772217,3.5100038051605225,79.06265258789062,-6.115938382698119,3.5624397875937284,-90.54663905398397,-7.2293725,1.9316323,-0.16280244,12.293494,-10.640997,1.6474117,-9.188551,-2.550254,-4.7974052,9.384134,3.5033,12.044372,-1.7027032,1.9854407,7.48143,-10.504391,26.038912,-51.037167,54.94502,9.7319355,7.8978677,4.214304,-6.886674,-21.003183,46.811607,52.609768,-11.884268,9.5007515,-6.3395114
229,3.143080711364746,3.5183520317077637,79.07843780517578,-6.213629711382917,3.5718601305698945,-90.55752688219984,-7.2624254,2.0318975,-0.18006304,12.321612,-10.648875,1.6222813,-9.180549,-2.520662,-4.9155073,9.362683,3.4431467,11.985797,-1.7109126,2.0367157,7.495112,-10.5087385,26.11104,-51.04839,54.94393,9.740881,7.8837633,4.2017655,-6.9253836,-21.000132,46.82084,52.603477,-11.953415,9.504171,-6.324749
230,3.1621196269989014,3.524519920349121,79.09571838378906,-6.308492164804168,3.5801694624195095,-90.57458721875062,-7.2911396,2.1324377,-0.18967743,12.343805,-10.655221,1.5936545,-9.179651,-2.4946482,-5.0337825,9.355101,3.3885624,11.936559,-1.7122234,2.0853398,7.511505,-10.509637,26.187155,-51.057552,54.929825,9.736659,7.8719316,4.197934,-6.9717913,-20.997688,46.847168,52.599163,-12.064125,9.510154,-6.3060093
231,3.1800601482391357,3.5337460041046143,79.1100082397461,-6.401283543438262,3.5873852899348955,-90.59380136072974,-7.3213587,2.2322137,-0.19646516,12.372329,-10.665023,1.5659429,-9.176631,-2.471725,-5.155232,9.344335,3.350024,11.894386,-1.7064729,2.136322,7.525686,-10.53093,26.230642,-51.077503,54.949154,9.722895,7.8641324,4.198405,-7.0192823,-20.997131,46.87911,52.59807,-12.174209,9.512441,-6.289779
232,3.1963367462158203,3.5402584075927734,79.12487030029297,-6.492457542334799,3.5937568235123707,-90.61125055276412,-7.3528705,2.3298922,-0.20500246,12.407153,-10.676561,1.5433908,-9.1734495,-2.4523075,-5.282316,9.338103,3.3237975,11.857107,-1.7028929,2.181814,7.545585,-10.544895,26.30341,-51.10188,54.93781,9.696603,7.8670697,4.1924987,-7.0737095,-20.997179,46.9166,52.59331,-12.234151,9.504534,-6.283066
233,3.215276002883911,3.5468239784240723,79.1371078491211,-6.583685849697372,3.5987848498470414,-90.62503498129256,-7.387754,2.4267993,-0.2176662,12.45288,-10.691158,1.5266395,-9.164548,-2.4350684,-5.4163733,9.326757,3.3215218,11.825756,-1.6961033,2.2288713,7.566108,-10.564521,26.35755,-51.124893,54.940777,9.680146,7.883392,4.179119,-7.130089,-20.999493,46.95282,52.58923,-12.225789,9.480471,-6.291303
234,3.2304306030273438,3.552475929260254,79.14958190917969,-6.674083414732198,3.6027561114603373,-90.63755493133772,-7.424276,2.523315,-0.23157912,12.50616,-10.708335,1.5135769,-9.154304,-2.420359,-5.555763,9.317845,3.3367507,11.80064,-1.6859897,2.2762167,7.5881543,-10.592094,26.401789,-51.153263,54.951874,9.65951,7.910034,4.1622014,-7.1897,-21.003756,46.992847,52.58512,-12.175739,9.444984,-6.3096604
235,3.245412826538086,3.5613462924957275,79.15982818603516,-6.76078277447675,3.605901769824679,-90.65110192379545,-7.461074,2.6158984,-0.24384727,12.562397,-10.726916,1.5043085,-9.14404,-2.4106202,-5.6991563,9.309563,3.3580656,11.779692,-1.6726907,2.3205035,7.6106224,-10.623974,26.44294,-51.184513,54.96487,9.634502,7.939819,4.146324,-7.248059,-21.009508,47.031685,52.576862,-12.113795,9.408542,-6.328375
236,3.2601540088653564,3.569277048110962,79.1701889038086,-6.840677904256218,3.608865451787813,-90.66809680234147,-7.4950924,2.7011418,-0.25108555,12.614543,-10.745159,1.4989449,-9.138285,-2.408489,-5.8448844,9.306985,3.370411,11.760211,-1.656249,2.3554454,7.6354527,-10.642463,26.506174,-51.20643,54.948475,9.611612,7.967479,4.1347327,-7.3031955,-21.019676,47.067413,52.55674,-12.065174,9.38139,-6.33745
237,3.273690938949585,3.576223611831665,79.17962646484375,-6.913941107285409,3.611227597519914,-90.68939997342181,-7.525848,2.7792456,-0.25291446,12.661952,-10.763253,1.4970398,-9.136303,-2.4148092,-5.9983606,9.310452,3.371621,11.740464,-1.6313838,2.3848374,7.6551204,-10.669976,26.544004,-51.22374,54.958134,9.600022,7.9897747,4.134977,-7.352041,-21.026215,47.09266,52.535877,-12.04087,9.365741,-6.3300495
238,3.2860324382781982,3.580678701400757,79.18916320800781,-6.98195370561634,3.612900008413288,-90.71369332440558,-7.554705,2.8520303,-0.25076842,12.707891,-10.78232,1.4986354,-9.137161,-2.428035,-6.1584253,9.319248,3.368079,11.721911,-1.5996398,2.4080644,7.672222,-10.699838,26.572783,-51.236492,54.97724,9.596373,8.01017,4.142181,-7.397998,-21.031403,47.112007,52.514137,-12.024196,9.355703,-6.3127227
239,3.2980880737304688,3.5861690044403076,79.19734191894531,-7.043289837142822,3.61454877144477,-90.73986732296092,-7.5847063,2.9172344,-0.24504653,12.756358,-10.802757,1.504877,-9.137464,-2.4474204,-6.314228,9.321527,3.3669243,11.708272,-1.5649428,2.4265347,7.690772,-10.71813,26.609568,-51.240017,54.972294,9.596436,8.03162,4.1480923,-7.4412932,-21.03791,47.12968,52.484745,-12.010193,9.351941,-6.2972856
240,3.314337968826294,3.592618227005005,79.20323944091797,-7.096973884812673,3.617038205255859,-90.76689832084003,-7.6135507,2.9736643,-0.23558268,12.800855,-10.8198185,1.5168208,-9.142681,-2.4725254,-6.454489,9.322808,3.3656518,11.70281,-1.525527,2.4436865,7.707202,-10.750267,26.621437,-51.24162,54.98806,9.6002245,8.046581,4.1440563,-7.487282,-21.040379,47.142162,52.465412,-12.000457,9.350444,-6.2922664
