unveil-humanoid-operators/unveil-humanoid-operators.github.io/feature-analysis-animation/data/feature_matrix_extreme/age_climbing_box_shoulder_rom_low.csv
Frame,root_translateX,root_translateY,root_translateZ,root_rotateX,root_rotateY,root_rotateZ,left_hip_pitch_joint_dof,left_hip_roll_joint_dof,left_hip_yaw_joint_dof,left_knee_joint_dof,left_ankle_pitch_joint_dof,left_ankle_roll_joint_dof,right_hip_pitch_joint_dof,right_hip_roll_joint_dof,right_hip_yaw_joint_dof,right_knee_joint_dof,right_ankle_pitch_joint_dof,right_ankle_roll_joint_dof,waist_yaw_joint_dof,waist_roll_joint_dof,waist_pitch_joint_dof,left_shoulder_pitch_joint_dof,left_shoulder_roll_joint_dof,left_shoulder_yaw_joint_dof,left_elbow_joint_dof,left_wrist_roll_joint_dof,left_wrist_pitch_joint_dof,left_wrist_yaw_joint_dof,right_shoulder_pitch_joint_dof,right_shoulder_roll_joint_dof,right_shoulder_yaw_joint_dof,right_elbow_joint_dof,right_wrist_roll_joint_dof,right_wrist_pitch_joint_dof,right_wrist_yaw_joint_dof
0,-0.2322281002998352,3.637953042984009,123.11148834228516,-1.825130825985604,-20.537063837385187,-83.31791675533381,11.346987,11.091328,9.740638,29.853973,-19.816368,-7.024206,16.743078,-6.2441974,-20.295452,25.3471,-19.861795,3.07134,-1.6205775,-2.9751828,10.139818,-16.074991,28.433887,-11.942479,57.473175,-21.353634,17.324335,-13.186842,-13.525038,-20.942629,11.453824,59.281994,31.111383,9.532046,7.0904
1,-0.229552760720253,3.6247189044952393,123.14413452148438,-1.836017223320193,-20.473290759100472,-83.30908584362811,11.370143,11.082169,9.748758,29.6606,-19.71277,-7.0253773,16.804268,-6.187537,-20.317097,25.065376,-19.711906,3.0845728,-1.6442276,-2.959223,10.109111,-16.021029,28.444878,-11.909276,57.421444,-21.30935,17.363934,-13.18779,-13.532177,-20.930866,11.432932,59.334484,31.063723,9.530202,7.1078625
2,-0.2238137423992157,3.6141085624694824,123.17670440673828,-1.8482660219243146,-20.411117847186162,-83.30049828594679,11.394017,11.075493,9.756811,29.470602,-19.611744,-7.0268364,16.868246,-6.128544,-20.337997,24.781536,-19.561527,3.0992105,-1.6633902,-2.938511,10.072005,-15.993735,28.446444,-11.892113,57.403133,-21.268406,17.4009,-13.187356,-13.534942,-20.924736,11.415844,59.391396,31.02278,9.525165,7.1259823
3,-0.22195564210414886,3.6044704914093018,123.21026611328125,-1.859745476275852,-20.34576157418064,-83.29105199861912,11.416049,11.0658,9.764905,29.275312,-19.506573,-7.027713,16.9281,-6.0720677,-20.359848,24.498346,-19.410303,3.1110203,-1.6823515,-2.9211297,10.040277,-15.95911,28.445778,-11.861092,57.37495,-21.21583,17.435474,-13.188351,-13.539233,-20.910686,11.387155,59.44323,30.970276,9.525722,7.1418266
4,-0.21836675703525543,3.5924456119537354,123.24597930908203,-1.866429298595976,-20.2726566206215,-83.280216412009,11.4345665,11.048273,9.773411,29.063549,-19.38939,-7.0273333,16.978558,-6.021824,-20.384134,24.214474,-19.255903,3.1158178,-1.699614,-2.9122882,10.006242,-15.94583,28.442873,-11.837449,57.3748,-21.1616,17.461763,-13.193401,-13.539395,-20.898434,11.365806,59.48529,30.924025,9.539594,7.1498523
5,-0.21737007796764374,3.582143783569336,123.28385162353516,-1.8671921721065776,-20.19106186541062,-83.26571304472193,11.446852,11.022146,9.780801,28.837812,-19.258663,-7.0258794,17.018152,-5.9793105,-20.413734,23.93269,-19.099201,3.1101844,-1.7162431,-2.914852,9.976418,-15.946485,28.434845,-11.803088,57.39134,-21.091003,17.476984,-13.203502,-13.538794,-20.877293,11.337442,59.51283,30.865019,9.576064,7.1465273
6,-0.21136890351772308,3.5777993202209473,123.322998046875,-1.8654107588453266,-20.103214275130075,-83.24878561535094,11.45779,10.989224,9.788139,28.595284,-19.117603,-7.023739,17.05012,-5.942443,-20.446842,23.651016,-18.940062,3.097118,-1.7318877,-2.9262319,9.943501,-15.968913,28.420238,-11.771825,57.4381,-21.014456,17.482647,-13.215815,-13.542305,-20.847843,11.312398,59.541065,30.803991,9.626911,7.1341667
7,-0.20100168883800507,3.5746920108795166,123.36336517333984,-1.8606130765412243,-20.009161201630633,-83.23221715370485,11.464984,10.951014,9.797092,28.343239,-18.970135,-7.0201626,17.073559,-5.909814,-20.478712,23.370445,-18.779581,3.081845,-1.7445463,-2.9401398,9.91109,-15.9997425,28.40799,-11.748434,57.493847,-20.942087,17.486265,-13.231879,-13.533542,-20.828115,11.293157,59.552032,30.75813,9.680324,7.1207843
8,-0.1976543813943863,3.5709228515625,123.4056625366211,-1.8506816752334014,-19.909078648094464,-83.21925698173098,11.468002,10.908245,9.809802,28.084818,-18.819908,-7.01436,17.085678,-5.8813024,-20.504147,23.095373,-18.620836,3.069705,-1.756304,-2.9539366,9.875198,-16.033033,28.393421,-11.728042,57.55936,-20.86713,17.491156,-13.247897,-13.525036,-20.808205,11.277725,59.571335,30.723831,9.715203,7.107967
9,-0.18886004388332367,3.5668704509735107,123.44769287109375,-1.8366331970667809,-19.800772109714764,-83.20865717783336,11.463831,10.859693,9.825755,27.820965,-18.667763,-7.0056443,17.08372,-5.8571353,-20.52161,22.826471,-18.464237,3.0605447,-1.769469,-2.9693086,9.82964,-16.07597,28.372171,-11.713908,57.64866,-20.788445,17.497597,-13.263227,-13.524203,-20.782331,11.271844,59.61485,30.708208,9.722011,7.096662
10,-0.1802404224872589,3.5642201900482178,123.48783111572266,-1.816995178268667,-19.685085617417585,-83.19970698133385,11.45296,10.805764,9.844022,27.55111,-18.512533,-6.994616,17.069073,-5.8376555,-20.533888,22.56287,-18.309189,3.0521388,-1.7823755,-2.9870527,9.783753,-16.117687,28.35713,-11.704066,57.737785,-20.712936,17.506893,-13.282562,-13.513693,-20.765923,11.273174,59.648495,30.713938,9.717088,7.088065
11,-0.17831631004810333,3.5630459785461426,123.52903747558594,-1.796149017093641,-19.565569669567957,-83.1947685755686,11.442834,10.7484255,9.866806,27.271532,-18.351788,-6.982299,17.048912,-5.820963,-20.542656,22.298769,-18.152124,3.046516,-1.7920095,-3.003225,9.741451,-16.1469,28.346758,-11.695902,57.8119,-20.643633,17.5174,-13.303049,-13.4971895,-20.755604,11.276229,59.671856,30.727554,9.70865,7.0810475
12,-0.1754552274942398,3.5639491081237793,123.56947326660156,-1.7730313793937675,-19.44696792956511,-83.1965984254368,11.4398365,10.690463,9.895508,26.982365,-18.185314,-6.9697466,17.033037,-5.804259,-20.550488,22.023743,-17.987621,3.0456495,-1.800321,-3.0158658,9.6986885,-16.18393,28.330069,-11.686866,57.904106,-20.571964,17.522526,-13.319523,-13.486667,-20.741049,11.286318,59.701527,30.734795,9.699783,7.0641747
13,-0.16685838997364044,3.5641510486602783,123.61210632324219,-1.7473402183728417,-19.331919921265104,-83.20716417536148,11.451303,10.629339,9.932579,26.67606,-18.009296,-6.9571576,17.025244,-5.790282,-20.559046,21.736994,-17.815235,3.05312,-1.8039346,-3.022413,9.659957,-16.206753,28.305311,-11.682898,57.986057,-20.507168,17.524366,-13.327147,-13.47988,-20.722454,11.306574,59.731148,30.742575,9.692138,7.0363393
14,-0.15790975093841553,3.56546688079834,123.65478515625,-1.7202188996168746,-19.217434664025795,-83.22412350335955,11.472463,10.564215,9.976668,26.354681,-17.82481,-6.9439178,17.020548,-5.7792563,-20.567057,21.442766,-17.637047,3.0669162,-1.8020034,-3.0266073,9.628549,-16.218626,28.2853,-11.684006,58.05412,-20.450562,17.526016,-13.333046,-13.464421,-20.70995,11.33101,59.74382,30.755695,9.685429,7.003676
15,-0.1461012363433838,3.5634939670562744,123.69842529296875,-1.6930303587264288,-19.099352423922625,-83.24582136874858,11.489832,10.501007,10.0238085,26.032885,-17.63948,-6.9303913,17.012001,-5.7648892,-20.570543,21.141857,-17.453772,3.0805407,-1.7959033,-3.027058,9.601633,-16.219978,28.269697,-11.680832,58.104923,-20.400038,17.52807,-13.340823,-13.444431,-20.70172,11.347584,59.745186,30.760862,9.683821,6.9748282
16,-0.13576743006706238,3.564734697341919,123.74339294433594,-1.6715702020154277,-18.972851223251546,-83.26894748038258,11.491741,10.445458,10.0704565,25.722193,-17.458796,-6.9167333,16.99256,-5.7409873,-20.566242,20.835903,-17.266024,3.0874012,-1.7934378,-3.0191507,9.566201,-16.226059,28.244553,-11.662573,58.167316,-20.34666,17.525703,-13.348271,-13.440589,-20.689909,11.359703,59.76676,30.747074,9.686576,6.950588
17,-0.12644925713539124,3.5713448524475098,123.78590393066406,-1.6574748790465286,-18.833300367516433,-83.29322483740084,11.4680395,10.4019165,10.114592,25.431864,-17.287193,-6.903162,16.956911,-5.7026796,-20.550833,20.522036,-17.07259,3.0850492,-1.7880576,-3.002782,9.5281315,-16.22814,28.21595,-11.623389,58.214737,-20.288834,17.52352,-13.361755,-13.4412365,-20.677338,11.347201,59.79081,30.70194,9.698873,6.940327
18,-0.11723985522985458,3.5786874294281006,123.83203125,-1.6485957230377128,-18.68448289780524,-83.3202446420568,11.428134,10.366294,10.15864,25.151924,-17.11979,-6.8894835,16.909632,-5.654374,-20.52689,20.20148,-16.873966,3.0771384,-1.7797391,-2.9792345,9.488491,-16.22693,28.184021,-11.56926,58.252377,-20.228136,17.520588,-13.377878,-13.443783,-20.663937,11.318069,59.814854,30.634165,9.717661,6.937498
19,-0.10604696720838547,3.585914134979248,123.87442779541016,-1.640347003158314,-18.53414034802557,-83.35001900675928,11.387163,10.3320465,10.205261,24.870953,-16.951632,-6.8753347,16.859394,-5.604727,-20.499695,19.880177,-16.671764,3.066566,-1.7698606,-2.9545844,9.452984,-16.218851,28.15833,-11.516184,58.278954,-20.182722,17.517921,-13.394823,-13.444587,-20.653292,11.283366,59.829586,30.56199,9.743764,6.939882
20,-0.09618932008743286,3.5890235900878906,123.91815185546875,-1.6285710804419453,-18.390762562712855,-83.38330282781646,11.361429,10.292521,10.257087,24.574572,-16.77601,-6.8603516,16.820381,-5.5592456,-20.474888,19.551277,-16.466442,3.0560756,-1.7631238,-2.9292579,9.425114,-16.200895,28.131792,-11.465995,58.301453,-20.152807,17.512836,-13.405434,-13.455027,-20.642757,11.252537,59.846252,30.491692,9.773767,6.9414835
21,-0.08066706359386444,3.596698522567749,123.96446228027344,-1.6110840986137154,-18.258734290685858,-83.42175745743252,11.358069,10.246058,10.317023,24.259497,-16.592348,-6.844149,16.793041,-5.521738,-20.452925,19.2259,-16.259542,3.043573,-1.7581805,-2.9051795,9.408862,-16.173079,28.109056,-11.430384,58.319702,-20.158678,17.506273,-13.410445,-13.470738,-20.63391,11.228965,59.854637,30.434727,9.814639,6.941442
22,-0.06808415055274963,3.6070122718811035,124.00826263427734,-1.592048057724984,-18.13285019515204,-83.46445798926992,11.367568,10.1967745,10.382745,23.933039,-16.403711,-6.8271146,16.771442,-5.4876075,-20.431036,18.902008,-16.050678,3.028487,-1.7559637,-2.8780575,9.399918,-16.135078,28.083965,-11.394445,58.334656,-20.179834,17.496613,-13.409392,-13.501257,-20.624283,11.205345,59.870388,30.373638,9.862674,6.9406357
23,-0.05576668679714203,3.620265007019043,124.0505599975586,-1.5718276907418247,-18.006870043885183,-83.50803827334713,11.379546,10.14469,10.449636,23.600342,-16.211143,-6.80969,16.750095,-5.4558997,-20.409704,18.576557,-15.840516,3.0164907,-1.7547379,-2.850905,9.390511,-16.09658,28.055107,-11.362634,58.35186,-20.207663,17.485228,-13.404129,-13.533972,-20.614014,11.187103,59.888065,30.314919,9.907891,6.9420013
24,-0.047888901084661484,3.627957820892334,124.09243774414062,-1.5499064244649543,-17.874728039215185,-83.54957701274142,11.382918,10.090163,10.513009,23.267746,-16.016808,-6.7924438,16.721746,-5.4261127,-20.389265,18.249983,-15.631536,3.0133479,-1.7522122,-2.8294227,9.377855,-16.058191,28.038046,-11.337409,58.36158,-20.233562,17.475807,-13.400387,-13.554329,-20.608496,11.174432,59.895687,30.261381,9.942129,6.9512563
25,-0.035831253975629807,3.6358888149261475,124.13624572753906,-1.5279185945342733,-17.73370886425137,-83.58775658468072,11.376216,10.031888,10.571882,22.933002,-15.81927,-6.775511,16.68576,-5.3988934,-20.370586,17.91874,-15.423263,3.0258996,-1.7501845,-2.811506,9.356846,-16.016354,28.021935,-11.307635,58.36313,-20.24605,17.465227,-13.3937645,-13.566018,-20.604029,11.168611,59.903698,30.201902,9.956167,6.9724083
26,-0.024330824613571167,3.648129940032959,124.1787109375,-1.5031941182055546,-17.58781980811391,-83.62487143113609,11.365301,9.969642,10.62888,22.593046,-15.617797,-6.7581615,16.646042,-5.3742685,-20.353052,17.582602,-15.214123,3.049291,-1.7558206,-2.7922716,9.330171,-15.960495,27.999254,-11.262593,58.3537,-20.24637,17.452446,-13.381237,-13.585515,-20.599659,11.176315,59.923454,30.137953,9.956025,6.9996104
27,-0.011093759909272194,3.6617014408111572,124.21829986572266,-1.4775631757502237,-17.43913718021796,-83.66092729509874,11.349238,9.906694,10.684183,22.254795,-15.415367,-6.741488,16.601116,-5.3504453,-20.334963,17.24952,-15.006001,3.0715673,-1.7596171,-2.7766387,9.303627,-15.91309,27.983742,-11.229835,58.350002,-20.247517,17.441866,-13.371331,-13.599783,-20.598272,11.186142,59.936977,30.08415,9.954285,7.0264506
28,0.0027450062334537506,3.67323899269104,124.2578353881836,-1.4549289809967878,-17.289944264509025,-83.69602870482652,11.323615,9.846224,10.737945,21.931393,-15.218877,-6.7259164,16.54344,-5.3280897,-20.313908,16.93948,-14.807148,3.0808165,-1.7625563,-2.7613244,9.284022,-15.876659,27.971247,-11.2078285,58.354683,-20.24544,17.436588,-13.367288,-13.610989,-20.598133,11.193517,59.93742,30.049242,9.9624605,7.0420995
29,0.01688329130411148,3.689168691635132,124.2959976196289,-1.435149666254965,-17.13953583424701,-83.72986134413378,11.289839,9.789147,10.790268,21.61854,-15.024855,-6.710208,16.476736,-5.3035,-20.289423,16.64251,-14.611363,3.070288,-1.773274,-2.739443,9.269339,-15.845232,27.952108,-11.186114,58.372154,-20.223833,17.437515,-13.367145,-13.634134,-20.600601,11.207225,59.93546,30.041393,9.984967,7.03635
30,0.030373884364962578,3.708686590194702,124.33306121826172,-1.4142001448673378,-16.984158344477205,-83.76384083577416,11.24276,9.7318325,10.841439,21.317957,-14.833874,-6.694772,16.389225,-5.284024,-20.261215,16.375174,-14.428055,3.0478442,-1.777163,-2.7263606,9.25854,-15.833375,27.948565,-11.186068,58.401154,-20.200884,17.447021,-13.3759985,-13.648158,-20.60168,11.209439,59.91529,30.051174,10.016378,7.02183
31,0.0434793196618557,3.7293479442596436,124.3709716796875,-1.3966097148834,-16.835177345382778,-83.79531066559392,11.200007,9.67963,10.890567,21.020363,-14.645803,-6.6793785,16.314287,-5.257031,-20.235094,16.09412,-14.237328,3.0220773,-1.7833189,-2.706925,9.254324,-15.822313,27.937809,-11.190747,58.43384,-20.180695,17.453264,-13.382772,-13.666232,-20.606289,11.218269,59.90086,30.067158,10.047385,7.004376
32,0.054511044174432755,3.7472598552703857,124.40817260742188,-1.3778726556502845,-16.68508202808156,-83.82754838030722,11.1448145,9.628012,10.9397335,20.745255,-14.469185,-6.6611085,16.226347,-5.2369537,-20.209095,15.8381815,-14.060879,3.0029824,-1.7852472,-2.6925323,9.251931,-15.820315,27.929169,-11.196496,58.469086,-20.174576,17.45191,-13.389896,-13.6776495,-20.610743,11.225258,59.886597,30.070644,10.068486,6.9969044
33,0.06304121017456055,3.7666513919830322,124.44252014160156,-1.357273630532979,-16.53832377000987,-83.86103925676017,11.0872965,9.577107,10.991622,20.482903,-14.303363,-6.637497,16.132685,-5.222185,-20.183323,15.602354,-13.893762,2.993245,-1.7821776,-2.6849322,9.256513,-15.821576,27.924082,-11.199927,58.501263,-20.185448,17.439484,-13.398303,-13.683907,-20.613586,11.2317,59.876945,30.049908,10.076312,7.0054164
34,0.07084015756845474,3.791243314743042,124.47372436523438,-1.3378736119058259,-16.39570890343387,-83.89430806674963,11.027538,9.530101,11.04361,20.233484,-14.145125,-6.610574,16.04259,-5.2058425,-20.158953,15.367375,-13.726928,2.9874668,-1.7780896,-2.6726255,9.263605,-15.834768,27.907022,-11.207318,58.54855,-20.207645,17.41705,-13.4046335,-13.6906395,-20.62268,11.249359,59.87722,30.023878,10.075735,7.021593
35,0.080352284014225,3.8157780170440674,124.50145721435547,-1.316064837865463,-16.25092955601189,-83.92710252262917,10.95394,9.483433,11.092578,20.004713,-13.996841,-6.5843496,15.932917,-5.197889,-20.134478,15.169363,-13.5786085,2.9837227,-1.7744957,-2.667669,9.274056,-15.841551,27.900639,-11.21086,58.57918,-20.237356,17.39461,-13.411035,-13.694553,-20.6264,11.258376,59.872807,29.993969,10.070946,7.038381
36,0.0898657739162445,3.843186140060425,124.52835845947266,-1.2939647626732562,-16.10086520658377,-83.95726834860447,10.863857,9.435955,11.134457,19.793179,-13.854719,-6.563684,15.801539,-5.1979504,-20.111763,15.0058155,-13.447207,2.979607,-1.776682,-2.6629794,9.279137,-15.84342,27.896364,-11.215644,58.597664,-20.275055,17.37639,-13.410162,-13.700463,-20.62944,11.266506,59.86663,29.982038,10.065355,7.045114
37,0.0998031497001648,3.8701672554016113,124.55474090576172,-1.2703965001018862,-15.944485474560196,-83.98449412629321,10.760902,9.385615,11.167623,19.587994,-13.713535,-6.551691,15.6509285,-5.204951,-20.091368,14.8686495,-13.329211,2.9743857,-1.7874819,-2.6534042,9.272565,-15.838129,27.889004,-11.2300005,58.606853,-20.331192,17.362549,-13.394066,-13.711234,-20.636145,11.280563,59.866795,30.002417,10.059778,7.0344896
38,0.10862309485673904,3.894549608230591,124.5802993774414,-1.2453547957645137,-15.781875606068773,-84.00940301248129,10.645046,9.332537,11.194916,19.3913,-13.575012,-6.5451913,15.479769,-5.220101,-20.072323,14.761754,-13.226273,2.969335,-1.8029462,-2.6462622,9.263205,-15.82602,27.885658,-11.243094,58.599598,-20.396833,17.352377,-13.370866,-13.721805,-20.640806,11.287535,59.863552,30.034704,10.052736,7.01404
39,0.11832627654075623,3.9264581203460693,124.60153198242188,-1.220732809197524,-15.618841011900713,-84.03274800423674,10.511095,9.281558,11.217651,19.226843,-13.450176,-6.539878,15.287528,-5.243652,-20.053772,14.698595,-13.144536,2.9649143,-1.8181766,-2.6390111,9.252966,-15.814673,27.883104,-11.259924,58.585957,-20.465801,17.342745,-13.347166,-13.730296,-20.647945,11.293971,59.8553,30.07408,10.043646,6.9953284
40,0.12592794001102448,3.9642646312713623,124.614990234375,-1.1982888247449341,-15.460512095435247,-84.05432442532116,10.354668,9.23856,11.237307,19.116556,-13.349318,-6.531599,15.075388,-5.2744217,-20.035175,14.690011,-13.088953,2.96144,-1.8303909,-2.6340733,9.249786,-15.814213,27.882946,-11.270252,58.575268,-20.522207,17.3315,-13.3341,-13.735205,-20.65263,11.297028,59.834755,30.106714,10.031598,6.989516
41,0.1334426999092102,4.003859996795654,124.62438201904297,-1.1760754181370836,-15.304954103624569,-84.0729151082803,10.165895,9.202863,11.251607,19.072527,-13.276042,-6.5187383,14.83231,-5.3184395,-20.018183,14.755025,-13.067566,2.9606583,-1.8329055,-2.6333086,9.2518425,-15.834989,27.884275,-11.279994,58.576504,-20.560287,17.320618,-13.340802,-13.727171,-20.666027,11.295967,59.79456,30.13595,10.022678,7.0063014
42,0.14231382310390472,4.042736530303955,124.631591796875,-1.1569266827359779,-15.151607644862658,-84.08783919223163,9.951666,9.173954,11.26014,19.080915,-13.224696,-6.5040355,14.565994,-5.37163,-20.003128,14.876296,-13.072499,2.9616091,-1.8348148,-2.6361175,9.260598,-15.865967,27.886118,-11.276532,58.58026,-20.579626,17.310333,-13.360493,-13.716537,-20.677172,11.2901535,59.743217,30.15879,10.013861,7.035086
43,0.1493103951215744,4.0822224617004395,124.63658905029297,-1.1385612286685067,-15.003499357558734,-84.10421247280942,9.726742,9.150492,11.268804,19.123716,-13.190333,-6.488228,14.288781,-5.4287453,-19.984814,15.031705,-13.094934,2.9616838,-1.8378044,-2.6357086,9.271269,-15.890227,27.889297,-11.276295,58.571533,-20.605196,17.29593,-13.374603,-13.710546,-20.688469,11.287835,59.69104,30.181198,9.995546,7.0652113
44,0.15926487743854523,4.1199493408203125,124.63948822021484,-1.1190868844410629,-14.862488397003752,-84.12715919747005,9.506346,9.130881,11.284224,19.181482,-13.166681,-6.4719944,14.008637,-5.486604,-19.957115,15.208004,-13.130564,2.9582825,-1.8395252,-2.6279895,9.283493,-15.896053,27.897978,-11.2977495,58.533447,-20.664215,17.274464,-13.368939,-13.696628,-20.707182,11.291677,59.620766,30.21096,9.962138,7.0880914
45,0.1664472222328186,4.156651973724365,124.64118194580078,-1.1009889479884656,-14.72808999354241,-84.15845497737598,9.2885895,9.116894,11.308364,19.2581,-13.155902,-6.4540014,13.72609,-5.542411,-19.916916,15.398951,-13.175937,2.9500878,-1.8366323,-2.6090178,9.298557,-15.874508,27.923523,-11.367272,58.448807,-20.785458,17.24354,-13.332417,-13.668709,-20.74349,11.302089,59.52828,30.256063,9.903442,7.104788
46,0.1748751997947693,4.195268630981445,124.63838958740234,-1.0820946898680421,-14.599577958144593,-84.19557395704413,9.065453,9.108501,11.337248,19.364191,-13.161681,-6.4344106,13.4322195,-5.600803,-19.86739,15.623776,-13.240335,2.9389195,-1.839812,-2.5839612,9.310413,-15.83155,27.950705,-11.4547,58.340412,-20.936169,17.202707,-13.271816,-13.659559,-20.77099,11.324721,59.454845,30.300459,9.819312,7.1134257
47,0.1814214587211609,4.236095905303955,124.63352966308594,-1.0642897465227639,-14.47988431080939,-84.23465508456628,8.849971,9.10368,11.368641,19.480515,-13.175459,-6.4166927,13.145263,-5.658701,-19.815125,15.857378,-13.311184,2.9262583,-1.838575,-2.5602992,9.323652,-15.787645,27.985565,-11.550667,58.224285,-21.096863,17.15984,-13.208042,-13.642966,-20.800173,11.347243,59.364655,30.348192,9.735502,7.117161
48,0.18938201665878296,4.273364543914795,124.62891387939453,-1.0486305449257514,-14.372495923729199,-84.2719290190059,8.653444,9.100764,11.400173,19.591635,-13.191257,-6.404339,12.878239,-5.715094,-19.766544,16.085806,-13.382507,2.9136305,-1.829939,-2.5440898,9.342542,-15.751909,28.02932,-11.629381,58.10992,-21.238136,17.12258,-13.159978,-13.610516,-20.835009,11.360471,59.239902,30.395494,9.675468,7.11728
49,0.19705046713352203,4.307260513305664,124.6214599609375,-1.0344076011587158,-14.27742644609085,-84.30632498092604,8.475198,9.10107,11.431577,19.698338,-13.209833,-6.400139,12.631775,-5.7695575,-19.723593,16.310217,-13.453726,2.899154,-1.8195764,-2.5334506,9.364213,-15.725024,28.068195,-11.668577,58.00811,-21.339268,17.086847,-13.128266,-13.574274,-20.868591,11.369929,59.088627,30.437767,9.641805,7.1049156
50,0.20704753696918488,4.335928916931152,124.61503601074219,-1.0236241315932342,-14.19307179502281,-84.3395250319229,8.311317,9.105467,11.463853,19.805964,-13.233179,-6.401748,12.404815,-5.820469,-19.68352,16.525595,-13.524959,2.8826976,-1.8081195,-2.5240831,9.389632,-15.698116,28.107687,-11.6839075,57.904694,-21.420702,17.051617,-13.105143,-13.532339,-20.907415,11.379785,58.910755,30.480814,9.624928,7.0840735
51,0.21599021553993225,4.366412162780762,124.60647583007812,-1.013074226403675,-14.120546897480583,-84.37354648569347,8.162293,9.110037,11.49643,19.915245,-13.260724,-6.404373,12.190052,-5.872481,-19.643204,16.747602,-13.601992,2.8686736,-1.7973644,-2.5155056,9.417154,-15.665586,28.146978,-11.684384,57.794647,-21.491808,17.021288,-13.088338,-13.49254,-20.950216,11.3908615,58.728687,30.52228,9.619247,7.0649033
52,0.22167716920375824,4.38975715637207,124.599609375,-0.9990601398852917,-14.06072097116937,-84.41029155946397,8.0318,9.11117,11.528953,20.02137,-13.2891655,-6.4031997,11.991102,-5.926049,-19.600782,16.96925,-13.68069,2.8612921,-1.7877537,-2.508045,9.442438,-15.628034,28.182585,-11.683502,57.68182,-21.562096,16.999855,-13.073152,-13.465338,-20.989494,11.403373,58.571575,30.557753,9.617861,7.055864
53,0.22807617485523224,4.413631439208984,124.590576171875,-0.9799151304096474,-14.013565094476755,-84.45138999788037,7.919555,9.105687,11.56107,20.122942,-13.316521,-6.3956394,11.801286,-5.985137,-19.55445,17.201946,-13.76516,2.8629625,-1.7793131,-2.5037105,9.468642,-15.581247,28.2217,-11.681283,57.556225,-21.636147,16.991175,-13.062742,-13.449354,-21.028946,11.413274,58.435265,30.587135,9.625189,7.0684037
54,0.23085159063339233,4.434501647949219,124.58097839355469,-0.9572955998643187,-13.978561494209998,-84.49529239305258,7.821997,9.096739,11.592686,20.226776,-13.345598,-6.384627,11.621938,-6.0475535,-19.505722,17.442972,-13.855334,2.8709643,-1.770463,-2.5034058,9.491371,-15.538297,28.25709,-11.67786,57.437565,-21.706444,16.990074,-13.0548935,-13.448738,-21.060556,11.421694,58.325058,30.608545,9.639438,7.0919466
55,0.23355741798877716,4.4547295570373535,124.56999969482422,-0.934067305385887,-13.956824255765088,-84.53995241003581,7.746637,9.088108,11.625388,20.322254,-13.376748,-6.3735423,11.464356,-6.1073084,-19.457485,17.675344,-13.944417,2.881926,-1.7593814,-2.5042722,9.509283,-15.499123,28.283842,-11.6779375,57.328724,-21.772152,16.99285,-13.045625,-13.4564495,-21.082058,11.431704,58.237003,30.623333,9.652893,7.109654
56,0.23945888876914978,4.470484733581543,124.5584716796875,-0.9153647253323607,-13.948548118921023,-84.58254944168024,7.6896715,9.085615,11.658961,20.420874,-13.4153595,-6.365783,11.336896,-6.158626,-19.412323,17.886047,-14.028819,2.8924997,-1.7501001,-2.5052822,9.533114,-15.431321,28.332607,-11.672837,57.185394,-21.843655,17.002882,-13.046395,-13.44993,-21.117619,11.450459,58.131676,30.646511,9.6658745,7.117624
57,0.24593299627304077,4.483123779296875,124.54615783691406,-0.9013231792896648,-13.957416779927472,-84.6245276136099,7.6575594,9.090134,11.696846,20.519756,-13.462479,-6.3610716,11.24575,-6.200921,-19.370426,18.072168,-14.107778,2.9022465,-1.7355808,-2.5041044,9.551837,-15.368791,28.370687,-11.675736,57.059223,-21.905186,17.01151,-13.04358,-13.444585,-21.143633,11.478294,58.043552,30.667688,9.668594,7.0930996
58,0.24467740952968597,4.489954948425293,124.53397369384766,-0.8885748846599104,-13.982019941285033,-84.66658953580044,7.6449604,9.100089,11.737555,20.624737,-13.516686,-6.3569856,11.185198,-6.2366123,-19.33075,18.239769,-14.183009,2.9127471,-1.7165229,-2.5011454,9.566469,-15.311108,28.402401,-11.6849165,56.946365,-21.959595,17.02107,-13.03974,-13.441057,-21.164305,11.511756,57.970913,30.687035,9.665751,7.048628
59,0.24399147927761078,4.493648529052734,124.52206420898438,-0.8798647117468857,-14.015507675735648,-84.70549014493884,7.6464896,9.1132965,11.774869,20.727259,-13.574588,-6.3572345,11.144936,-6.2658567,-19.293684,18.393076,-14.255498,2.923809,-1.7040232,-2.4995968,9.581615,-15.225496,28.450037,-11.688441,56.802025,-22.025934,17.038975,-13.045313,-13.433479,-21.193087,11.554152,57.896183,30.71201,9.663922,7.010385
60,0.24564862251281738,4.48977518081665,124.51014709472656,-0.8734163218127454,-14.051491311965096,-84.73861936155816,7.652426,9.129671,11.802708,20.82808,-13.633225,-6.362848,11.117999,-6.287235,-19.260107,18.530432,-14.323372,2.935085,-1.6948934,-2.498523,9.588484,-15.133614,28.49839,-11.692228,56.652245,-22.1015,17.062,-13.055454,-13.430348,-21.218784,11.586371,57.844692,30.724504,9.659416,6.994389
61,0.2429993599653244,4.485892295837402,124.49809265136719,-0.8724117015920825,-14.090264491124424,-84.76450522396789,7.6635785,9.150108,11.818381,20.926794,-13.691838,-6.3766007,11.106564,-6.298209,-19.22854,18.646912,-14.383423,2.947466,-1.6903489,-2.496286,9.580866,-15.041078,28.542244,-11.705819,56.508278,-22.19521,17.091303,-13.075555,-13.437524,-21.238256,11.607528,57.832813,30.71487,9.64974,7.0134273
62,0.2386608123779297,4.477182388305664,124.4864730834961,-0.8745553494628912,-14.134461638373372,-84.78537440267617,7.682272,9.174797,11.825193,21.026188,-13.7530575,-6.396657,11.11155,-6.300788,-19.19912,18.748623,-14.439752,2.9607975,-1.689255,-2.4956324,9.56614,-14.93631,28.59454,-11.72505,56.351795,-22.305908,17.128788,-13.1057825,-13.445369,-21.25632,11.6213255,57.83937,30.69196,9.63746,7.055965
63,0.23579418659210205,4.463876724243164,124.47628021240234,-0.8805719218270608,-14.181663863267493,-84.80164296123434,7.7083716,9.200737,11.827483,21.119247,-13.815609,-6.4187374,11.128191,-6.2993207,-19.174559,18.839087,-14.494439,2.9732814,-1.6849431,-2.4951503,9.541432,-14.847297,28.632025,-11.748336,56.217278,-22.411236,17.163767,-13.128864,-13.459184,-21.266241,11.628873,57.871075,30.66899,9.621781,7.0991836
64,0.2330150455236435,4.4523725509643555,124.46456909179688,-0.8849794699944283,-14.228809291874088,-84.8147715863707,7.7332535,9.226348,11.828023,21.215406,-13.882136,-6.437013,11.146892,-6.3000264,-19.157429,18.932898,-14.555771,2.9831066,-1.6736714,-2.498615,9.513692,-14.767172,28.659634,-11.766689,56.088696,-22.500566,17.192959,-13.131967,-13.466211,-21.272696,11.631834,57.900288,30.665892,9.606882,7.123484
65,0.22827288508415222,4.43784236907959,124.45301818847656,-0.8881076141739486,-14.2730399875321,-84.8264300755271,7.758378,9.250547,11.830341,21.306385,-13.951182,-6.4508076,11.164313,-6.303949,-19.147549,19.02983,-14.624581,2.9899027,-1.6531268,-2.50924,9.484345,-14.690107,28.69017,-11.781406,55.95112,-22.588074,17.217937,-13.108782,-13.462134,-21.278942,11.630927,57.915546,30.702044,9.597203,7.121972
66,0.22310402989387512,4.421492576599121,124.44065856933594,-0.8937122442285578,-14.316711829403445,-84.83555124007484,7.7847333,9.275384,11.831642,21.395565,-14.023683,-6.462756,11.1853,-6.307826,-19.143898,19.125137,-14.69775,2.9944818,-1.627144,-2.520681,9.447539,-14.627686,28.70783,-11.793399,55.828545,-22.667622,17.237288,-13.065438,-13.457378,-21.28195,11.627447,57.938694,30.760815,9.588126,7.10384
67,0.2136153131723404,4.403934478759766,124.42579650878906,-0.8982855871932812,-14.364709767189906,-84.83866840611374,7.8139496,9.299857,11.82702,21.487583,-14.098909,-6.4732785,11.214594,-6.311755,-19.147291,19.220139,-14.774322,2.9972398,-1.5990855,-2.5354254,9.411429,-14.576601,28.716541,-11.798639,55.71907,-22.722717,17.25337,-13.020999,-13.447799,-21.283148,11.619928,57.963146,30.819242,9.577709,7.0844517
68,0.20654283463954926,4.38702917098999,124.4105224609375,-0.9048681088478882,-14.42126872472294,-84.83179509193982,7.8467975,9.324007,11.811517,21.587925,-14.176127,-6.483057,11.257894,-6.314476,-19.158419,19.312946,-14.851501,2.9983275,-1.5722239,-2.5560508,9.385246,-14.517561,28.72938,-11.785049,55.605217,-22.730215,17.267065,-12.995655,-13.430105,-21.283997,11.597751,57.983467,30.845695,9.563983,7.0816574
69,0.19976161420345306,4.3715291023254395,124.39553833007812,-0.9148993306985055,-14.489706519118936,-84.81448656512322,7.8872347,9.346514,11.784402,21.69643,-14.254873,-6.490278,11.319605,-6.3165135,-19.176647,19.4028,-14.928937,2.9966238,-1.5488455,-2.5821939,9.359834,-14.49645,28.731237,-11.7582445,55.554234,-22.670437,17.271055,-13.000101,-13.41559,-21.282928,11.576088,58.02417,30.840368,9.540488,7.0949936
70,0.19107888638973236,4.350949287414551,124.38233947753906,-0.922653158455521,-14.566840966426103,-84.78922661890232,7.9345474,9.367712,11.748299,21.808086,-14.334297,-6.495223,11.394237,-6.31904,-19.201645,19.493927,-15.008464,2.9924836,-1.5340086,-2.610768,9.354067,-14.444864,28.726196,-11.669045,55.47178,-22.533628,17.27304,-13.0238695,-13.39681,-21.276777,11.528668,58.05235,30.789593,9.51417,7.120588
71,0.17846909165382385,4.330502986907959,124.36576843261719,-0.9343868095736063,-14.648643310248856,-84.75443206507319,7.978949,9.391279,11.7024765,21.932024,-14.418689,-6.501812,11.478986,-6.31889,-19.235191,19.580011,-15.088889,2.9880373,-1.5212613,-2.6420085,9.343154,-14.424136,28.715153,-11.5936165,55.43247,-22.386057,17.272154,-13.049841,-13.384807,-21.270222,11.495179,58.10018,30.74116,9.485047,7.1513495
72,0.16840443015098572,4.311018943786621,124.34980773925781,-0.9506783908088127,-14.731133512213448,-84.70980135482644,8.011176,9.420168,11.646395,22.074558,-14.511031,-6.513768,11.562468,-6.316918,-19.277952,19.674265,-15.174245,2.9856865,-1.5144072,-2.670711,9.336867,-14.411606,28.699207,-11.520835,55.397774,-22.243471,17.275856,-13.066029,-13.377424,-21.262568,11.468247,58.149586,30.694977,9.459899,7.1856523
73,0.1501598358154297,4.2922186851501465,124.3305892944336,-0.9721133281928942,-14.812834406639608,-84.65212642202853,8.027124,9.457673,11.577232,22.23898,-14.612098,-6.5337706,11.647999,-6.3085446,-19.333916,19.76724,-15.259221,2.986983,-1.5096775,-2.7000449,9.3301735,-14.426713,28.683296,-11.470586,55.38608,-22.12021,17.287779,-13.068013,-13.369742,-21.256187,11.449218,58.202354,30.654133,9.438376,7.233462
74,0.13667158782482147,4.275571823120117,124.31043243408203,-0.9995102095080581,-14.89587278391737,-84.58270127997604,8.031415,9.501207,11.496062,22.422905,-14.7211485,-6.5592732,11.736525,-6.2965055,-19.401007,19.862627,-15.346438,2.9904635,-1.5087556,-2.727424,9.326956,-14.457054,28.658495,-11.420751,55.388287,-21.98901,17.304163,-13.062718,-13.365273,-21.24769,11.430013,58.26104,30.605011,9.418447,7.2931314
75,0.12156249582767487,4.259991645812988,124.28616333007812,-1.0265254444485032,-14.981984835594236,-84.50800852381471,8.033475,9.544235,11.409473,22.61389,-14.833425,-6.586138,11.823805,-6.2876654,-19.471981,19.971,-15.441152,2.9935315,-1.5035896,-2.7596612,9.326795,-14.497085,28.64594,-11.398528,55.393684,-21.881899,17.321888,-13.054153,-13.3513775,-21.24401,11.420131,58.308388,30.576801,9.403585,7.3452415
76,0.10071557760238647,4.2449469566345215,124.263916015625,-1.0482452209854662,-15.07295936000687,-84.43395023480018,8.039626,9.58244,11.322997,22.806602,-14.947769,-6.610543,11.904038,-6.288064,-19.539825,20.105701,-15.549639,2.9935195,-1.4969109,-2.7920308,9.334124,-14.555762,28.629807,-11.381739,55.419586,-21.775782,17.331,-13.0535755,-13.337411,-21.240494,11.415314,58.34663,30.565733,9.395049,7.3695126
77,0.08048038929700851,4.2324700355529785,124.23981475830078,-1.0653575110973612,-15.169755888748751,-84.36227598909106,8.054884,9.612451,11.239129,22.994293,-15.061449,-6.6307917,11.973546,-6.3016615,-19.601149,20.276226,-15.676828,2.9881625,-1.4853601,-2.826265,9.348324,-14.616187,28.617113,-11.38172,55.448147,-21.683472,17.329592,-13.056666,-13.322229,-21.239214,11.428538,58.37258,30.58882,9.399875,7.3484898
78,0.06097932159900665,4.220610618591309,124.21232604980469,-1.078928795731908,-15.271577446779506,-84.28985253079142,8.073145,9.638455,11.154093,23.185226,-15.177939,-6.6493087,12.038733,-6.3227386,-19.660913,20.467512,-15.81731,2.9793098,-1.4723125,-2.862679,9.368833,-14.685593,28.607182,-11.393993,55.486374,-21.600521,17.32133,-13.064047,-13.307091,-21.240112,11.456592,58.389706,30.636604,9.414998,7.297591
79,0.04542281851172447,4.207772731781006,124.18619537353516,-1.0899939845814637,-15.376185699487294,-84.21527933531688,8.092518,9.661104,11.066779,23.378265,-15.295499,-6.6675615,12.10128,-6.3490343,-19.722027,20.673304,-15.964873,2.9711194,-1.4616063,-2.8973641,9.389954,-14.7550745,28.597479,-11.421527,55.523308,-21.540266,17.312607,-13.066421,-13.293952,-21.243767,11.496018,58.40805,30.704311,9.42565,7.240456
80,0.028357136994600296,4.193493843078613,124.15684509277344,-1.1000842098551253,-15.481506042706584,-84.13703848775565,8.108416,9.682614,10.975424,23.57763,-15.415258,-6.687282,12.166498,-6.376451,-19.788157,20.878698,-16.113327,2.9675856,-1.4556209,-2.931062,9.411655,-14.81235,28.59326,-11.459413,55.54021,-21.510803,17.309753,-13.062108,-13.283222,-21.248976,11.527709,58.432537,30.77696,9.418659,7.2060804
81,0.007403653580695391,4.17881441116333,124.12582397460938,-1.1083616696886522,-15.58874626266111,-84.05470755951859,8.124381,9.699471,10.880466,23.778332,-15.534926,-6.7081385,12.238407,-6.407241,-19.860376,21.079453,-16.260595,2.9715874,-1.4570489,-2.965462,9.437694,-14.848052,28.595644,-11.505544,55.525246,-21.51731,17.313421,-13.048162,-13.27595,-21.254314,11.549416,58.46486,30.859678,9.388374,7.20299
82,-0.013349225744605064,4.166295051574707,124.09546661376953,-1.1144426853275597,-15.698455235578038,-83.96948908267716,8.140211,9.712366,10.78241,23.982607,-15.65594,-6.7294664,12.312596,-6.4428396,-19.936584,21.284513,-16.411116,2.980411,-1.451368,-3.0038998,9.461387,-14.90241,28.608759,-11.5977125,55.52134,-21.574451,17.31956,-13.027032,-13.258653,-21.2641,11.565874,58.498676,30.96803,9.343412,7.2175956
83,-0.034637898206710815,4.153113842010498,124.06512451171875,-1.1221441124050182,-15.80750347175858,-83.8809908798503,8.151529,9.727541,10.680498,24.193033,-15.779137,-6.752448,12.388538,-6.4758263,-20.016281,21.487036,-16.56136,2.9893622,-1.4431002,-3.0425553,9.489733,-14.9437065,28.632736,-11.69568,55.487164,-21.649008,17.333866,-13.003422,-13.226403,-21.27518,11.5641365,58.51114,31.065014,9.291565,7.240707
84,-0.055290766060352325,4.142226219177246,124.03250122070312,-1.136496863976012,-15.913028134688505,-83.78963542374173,8.149974,9.752789,10.573007,24.42054,-15.909687,-6.778399,12.462755,-6.4994965,-20.098536,21.685781,-16.710978,2.993757,-1.4408942,-3.0729778,9.515069,-14.958734,28.6611,-11.7770605,55.416954,-21.723343,17.358404,-12.9786215,-13.197249,-21.283346,11.558315,58.51713,31.133986,9.23713,7.261518
85,-0.07657881081104279,4.125428199768066,123.99945068359375,-1.1604063280066796,-16.012197229105563,-83.69452728479531,8.130471,9.79258,10.458907,24.668377,-16.04765,-6.808988,12.534556,-6.5084805,-20.183775,21.874369,-16.856417,2.9919965,-1.440825,-3.0944102,9.532983,-14.964465,28.693306,-11.854516,55.326122,-21.802664,17.397013,-12.950872,-13.157841,-21.28854,11.543302,58.5044,31.165728,9.174925,7.279084
86,-0.1046551987528801,4.111224174499512,123.96805572509766,-1.1899140687920513,-16.10739041551055,-83.59595055924927,8.096863,9.8421955,10.338749,24.933783,-16.192457,-6.8432045,12.605043,-6.507768,-20.272156,22.057224,-16.999823,2.9866738,-1.4401715,-3.1120548,9.54828,-14.956476,28.74019,-11.937195,55.20508,-21.89859,17.448984,-12.921554,-13.110114,-21.290745,11.514189,58.477318,31.171576,9.104388,7.3009725
87,-0.13486133515834808,4.097513675689697,123.93363952636719,-1.221895689639983,-16.202753576239683,-83.49540149633035,8.063474,9.892971,10.216447,25.200087,-16.338291,-6.8780622,12.677647,-6.5053267,-20.362324,22.239061,-17.144173,2.9793456,-1.4438672,-3.1281476,9.561609,-14.931815,28.78753,-12.007196,55.06499,-21.994202,17.502378,-12.890373,-13.06728,-21.28939,11.4878025,58.44993,31.168613,9.036733,7.31756
88,-0.16257797181606293,4.08243989944458,123.89893341064453,-1.2489133758872146,-16.302890767323277,-83.39468417917887,8.043054,9.936304,10.095244,25.45304,-16.480556,-6.910482,12.754479,-6.5096936,-20.45258,22.427923,-17.29403,2.9715755,-1.4416038,-3.1568143,9.579817,-14.896169,28.852291,-12.074883,54.905884,-22.093578,17.55048,-12.863477,-13.01522,-21.284678,11.45679,58.40734,31.171982,8.98661,7.3251505
89,-0.18769925832748413,4.066231727600098,123.86404418945312,-1.27040661257319,-16.409626228384838,-83.29359236228078,8.040562,9.970166,9.975256,25.687325,-16.617887,-6.939499,12.837843,-6.52291,-20.544437,22.6244,-17.449251,2.9638548,-1.4415617,-3.1882303,9.599044,-14.848767,28.907156,-12.126771,54.74288,-22.187748,17.581522,-12.834869,-12.969693,-21.2805,11.437418,58.36393,31.185286,8.962752,7.311098
90,-0.21237821877002716,4.049479961395264,123.83045196533203,-1.291432891367933,-16.52037599550219,-83.19121217968004,8.047972,9.999394,9.85467,25.912172,-16.753292,-6.9667563,12.926,-6.540702,-20.638058,22.82508,-17.608316,2.9552736,-1.4389225,-3.2217894,9.619497,-14.793944,28.960537,-12.1736555,54.571354,-22.283844,17.603657,-12.805219,-12.919389,-21.277315,11.418085,58.30911,31.200315,8.957082,7.2832384
91,-0.24014031887054443,4.023985385894775,123.79759216308594,-1.3098334367713151,-16.632907752400808,-83.08904689446891,8.061453,10.026301,9.734822,26.131292,-16.886742,-6.993017,13.017151,-6.5600467,-20.730326,23.02679,-17.76969,2.9454575,-1.4333051,-3.2543666,9.636971,-14.737753,29.006248,-12.212225,54.398247,-22.367867,17.62648,-12.775094,-12.871921,-21.275503,11.401897,58.2616,31.220749,8.952097,7.25682
92,-0.26967716217041016,4.001288890838623,123.76323699951172,-1.3273226713336734,-16.745208915242696,-82.98819116317395,8.076849,10.052636,9.617253,26.348677,-17.018131,-7.018975,13.110784,-6.5775146,-20.818434,23.222551,-17.930264,2.9340432,-1.4233294,-3.2858567,9.648369,-14.684481,29.04521,-12.24124,54.226048,-22.428495,17.660938,-12.746333,-12.831829,-21.274666,11.389069,58.236435,31.249002,8.930626,7.247984
93,-0.3011401891708374,3.979994297027588,123.72894287109375,-1.3429329022715226,-16.856149486696985,-82.88998949624683,8.090988,10.079401,9.503165,26.568525,-17.1486,-7.0434937,13.203536,-6.592538,-20.898462,23.41532,-18.092636,2.9182792,-1.4110343,-3.3098507,9.647635,-14.646971,29.058796,-12.255702,54.07193,-22.452145,17.711235,-12.715093,-12.811855,-21.274487,11.385788,58.256252,31.293064,8.880183,7.2637434
94,-0.32857614755630493,3.956326484680176,123.69469451904297,-1.3561931235964777,-16.966483095008844,-82.79332585800053,8.106807,10.104706,9.391492,26.786705,-17.27709,-7.0666122,13.296838,-6.6067305,-20.973211,23.605675,-18.256657,2.8992217,-1.3889992,-3.3439329,9.646549,-14.587224,29.097765,-12.270976,53.875423,-22.472788,17.779343,-12.685824,-12.782341,-21.274593,11.374534,58.275055,31.349487,8.816588,7.299721
95,-0.3558211028575897,3.925463914871216,123.66261291503906,-1.3688963042279454,-17.07881353092023,-82.69655008590723,8.129151,10.128787,9.280175,26.998241,-17.40315,-7.0910077,13.396407,-6.620313,-21.0491,23.790533,-18.418633,2.882429,-1.3658924,-3.3745928,9.641709,-14.539786,29.121435,-12.273835,53.70058,-22.47132,17.84625,-12.660988,-12.760958,-21.274384,11.370482,58.308872,31.403109,8.751642,7.338576
96,-0.38505789637565613,3.895341634750366,123.62960815429688,-1.3808339604120106,-17.194956685103566,-82.59841595963876,8.163633,10.150972,9.167328,27.195377,-17.52429,-7.1194334,13.506366,-6.6345654,-21.132456,23.968508,-18.57544,2.8733034,-1.3435987,-3.4119887,9.645111,-14.473505,29.162434,-12.260841,53.510803,-22.46616,17.907179,-12.649419,-12.733657,-21.27385,11.3699875,58.32453,31.44077,8.7041,7.3714504
97,-0.4159090220928192,3.8629260063171387,123.5970230102539,-1.393261366657266,-17.316282095360407,-82.500514547868,8.214112,10.171691,9.054197,27.375454,-17.640162,-7.155606,13.630093,-6.6497703,-21.225695,24.137537,-18.724615,2.8770127,-1.3111953,-3.444594,9.643725,-14.444753,29.178919,-12.251536,53.384895,-22.444693,17.946156,-12.648332,-12.70541,-21.273441,11.373841,58.345684,31.450977,8.674544,7.3939433
98,-0.44520479440689087,3.831211805343628,123.56350708007812,-1.4047238592918647,-17.441142622749727,-82.40262074536265,8.277362,10.190437,8.941108,27.540707,-17.75071,-7.1970043,13.764772,-6.6659107,-21.325657,24.298145,-18.86797,2.8895154,-1.2785181,-3.479381,9.649246,-14.386475,29.202461,-12.22075,53.23072,-22.413143,17.980415,-12.656387,-12.667374,-21.273666,11.381936,58.346424,31.443745,8.658315,7.412588
99,-0.47913748025894165,3.797750473022461,123.5306625366211,-1.4171451644286306,-17.568076405911626,-82.30119762826438,8.345284,10.207937,8.824982,27.700684,-17.860071,-7.237251,13.90567,-6.68156,-21.42891,24.454756,-19.01006,2.9021204,-1.250326,-3.516806,9.657801,-14.328768,29.230705,-12.178566,53.083378,-22.373419,18.014763,-12.67171,-12.63685,-21.273561,11.397158,58.349926,31.437136,8.650142,7.4268904
100,-0.513444721698761,3.764342784881592,123.49775695800781,-1.4301791223760605,-17.695367119818258,-82.19381220664735,8.40767,10.225557,8.702365,27.868385,-17.973846,-7.270152,14.048528,-6.694886,-21.532324,24.609236,-19.154425,2.9063058,-1.2132232,-3.5516274,9.65966,-14.320468,29.239332,-12.164579,52.99415,-22.331182,18.050491,-12.678106,-12.611735,-21.273243,11.403491,58.373238,31.443405,8.643095,7.432579
101,-0.5439993143081665,3.729254722595215,123.4664535522461,-1.4418521548234104,-17.82392375741504,-82.07915037120718,8.466716,10.240255,8.572214,28.040117,-18.091349,-7.2895865,14.19373,-6.707117,-21.633526,24.761904,-19.301157,2.8979154,-1.1894569,-3.5918725,9.672003,-14.2920065,29.254648,-12.130785,52.87709,-22.281916,18.102182,-12.681198,-12.588615,-21.27245,11.414411,58.38168,31.473001,8.641345,7.4240446
102,-0.5808298587799072,3.6929221153259277,123.4350357055664,-1.4528548340823095,-17.954145501943227,-81.95983448423819,8.526166,10.25294,8.436758,28.211699,-18.210474,-7.3004036,14.342912,-6.7183514,-21.73429,24.911434,-19.448381,2.8820817,-1.1631256,-3.6340296,9.684113,-14.283514,29.266079,-12.106856,52.7826,-22.23055,18.15889,-12.679859,-12.574344,-21.271023,11.423267,58.40215,31.515352,8.644713,7.4060454
103,-0.6184322237968445,3.6565866470336914,123.40211486816406,-1.4672501887920852,-18.083621351665343,-81.83399958832133,8.579494,10.268557,8.295213,28.391094,-18.332508,-7.31239,14.495422,-6.725347,-21.840343,25.056095,-19.596193,2.8645754,-1.135901,-3.6744285,9.694651,-14.293845,29.272017,-12.092564,52.713028,-22.17629,18.215284,-12.678532,-12.559748,-21.269274,11.428807,58.42704,31.560003,8.650475,7.3858466
104,-0.6568686366081238,3.6225993633270264,123.36685943603516,-1.4880244113041163,-18.210386455819158,-81.7009864324062,8.621615,10.292125,8.147292,28.584583,-18.458408,-7.3354425,14.650491,-6.725395,-21.956993,25.19455,-19.744802,2.8511808,-1.1143879,-3.7112732,9.702484,-14.310332,29.27711,-12.07825,52.66012,-22.118065,18.267553,-12.680462,-12.546015,-21.266804,11.435802,58.45792,31.594753,8.655231,7.369639
105,-0.6958783864974976,3.583171844482422,123.33250427246094,-1.519154305613299,-18.332738862160863,-81.56045110865401,8.6510515,10.326974,7.9948597,28.79316,-18.589325,-7.3749714,14.808332,-6.7152286,-22.085379,25.323298,-19.893335,2.8437486,-1.1001906,-3.7418041,9.704848,-14.334014,29.281876,-12.065101,52.630047,-22.054615,18.315416,-12.6903,-12.538773,-21.263258,11.446079,58.502895,31.616985,8.660552,7.360617
106,-0.7362532019615173,3.546492099761963,123.29586791992188,-1.555524076008282,-18.452407690486,-81.41365871122667,8.668464,10.369997,7.837253,29.018541,-18.724672,-7.424805,14.968035,-6.6973515,-22.222515,25.44608,-20.043022,2.8390446,-1.0965868,-3.7702057,9.703025,-14.361471,29.289246,-12.047753,52.618217,-21.98607,18.361765,-12.706139,-12.545156,-21.255127,11.466026,58.566048,31.634033,8.666548,7.3535676
107,-0.7797775864601135,3.507225513458252,123.25767517089844,-1.5955940375695747,-18.571161061869958,-81.25878112268742,8.679025,10.41455,7.6715126,29.251581,-18.861843,-7.4775014,15.132019,-6.676497,-22.368387,25.563854,-20.192722,2.8353417,-1.0929289,-3.7970974,9.701842,-14.394324,29.293444,-12.035754,52.613575,-21.918385,18.404129,-12.717878,-12.542736,-21.248365,11.481186,58.62353,31.647161,8.670231,7.347146
108,-0.8252896070480347,3.471017360687256,123.21868133544922,-1.6366343006176298,-18.690943074564526,-81.09456510029567,8.688701,10.454181,7.494947,29.482199,-18.996428,-7.525531,15.30167,-6.657351,-22.522629,25.679235,-20.34175,2.8306623,-1.0951922,-3.8291857,9.704117,-14.425899,29.29757,-12.017704,52.60686,-21.853048,18.44114,-12.720904,-12.535076,-21.236849,11.501395,58.674076,31.662167,8.665604,7.3365183
109,-0.8707239031791687,3.4359383583068848,123.18036651611328,-1.6755522926628594,-18.812811501221407,-80.91666596624192,8.695405,10.4860525,7.3015256,29.713268,-19.129337,-7.565812,15.480466,-6.6419272,-22.689604,25.790623,-20.490461,2.8259785,-1.0965191,-3.8654032,9.713394,-14.4576845,29.298395,-12.004443,52.59447,-21.798384,18.471897,-12.708296,-12.507414,-21.23029,11.51493,58.702637,31.670362,8.652867,7.320286
110,-0.9158498644828796,3.396899938583374,123.14350891113281,-1.715137569977977,-18.93577727542826,-80.72728695126742,8.69758,10.514076,7.0944195,29.947939,-19.261936,-7.6027303,15.6663885,-6.627132,-22.867992,25.897823,-20.639135,2.8217719,-1.1041473,-3.905616,9.726753,-14.49591,29.297112,-11.987006,52.591396,-21.745989,18.496843,-12.688666,-12.465827,-21.222467,11.532141,58.71403,31.675014,8.633924,7.297592
111,-0.9607897996902466,3.359376907348633,123.1043930053711,-1.753546729912593,-19.057404127621577,-80.53649260655499,8.699967,10.540388,6.886286,30.17802,-19.39174,-7.639582,15.850749,-6.6134295,-23.04749,26.007,-20.788164,2.815899,-1.1038349,-3.9445374,9.740501,-14.522793,29.295858,-11.97736,52.568054,-21.69752,18.517576,-12.661477,-12.428718,-21.219625,11.53968,58.735367,31.686728,8.612202,7.2841034
112,-1.008047342300415,3.3163301944732666,123.0637435913086,-1.7977541489852047,-19.178110949039578,-80.3489360143367,8.703468,10.574557,6.682381,30.406603,-19.52174,-7.6808667,16.035242,-6.5909467,-23.224174,26.109797,-20.931618,2.805457,-1.1038398,-3.9800057,9.755546,-14.558457,29.2922,-11.957376,52.542877,-21.630274,18.537455,-12.637696,-12.377691,-21.2144,11.546492,58.744316,31.721674,8.585762,7.278776
113,-1.0609203577041626,3.2735676765441895,123.02631378173828,-1.8423286472193612,-19.297876308366117,-80.17062962719106,8.712594,10.615907,6.489442,30.627525,-19.649769,-7.7279196,16.213938,-6.5620885,-23.391928,26.214607,-21.07167,2.787403,-1.1042827,-4.011013,9.770334,-14.576197,29.2787,-11.908578,52.493946,-21.531677,18.54879,-12.610069,-12.338264,-21.200478,11.550544,58.770634,31.78246,8.551766,7.288147
114,-1.1149957180023193,3.235419511795044,122.98731994628906,-1.8904370018622476,-19.41700195183493,-79.99521061824582,8.7240095,10.662528,6.300607,30.845055,-19.777155,-7.778645,16.39089,-6.5275536,-23.556528,26.318703,-21.208635,2.763897,-1.0909348,-4.037781,9.785284,-14.588907,29.269384,-11.875664,52.423927,-21.437654,18.55431,-12.576563,-12.303963,-21.192644,11.542317,58.81292,31.871183,8.515119,7.318518
115,-1.1625877618789673,3.1964306831359863,122.94853973388672,-1.9348235541711651,-19.532397226099874,-79.82397298058652,8.735827,10.707028,6.1166887,31.054096,-19.899723,-7.8300157,16.56187,-6.4946427,-23.718233,26.4237,-21.345413,2.740919,-1.0779713,-4.062557,9.799413,-14.58927,29.253654,-11.82621,52.333755,-21.323599,18.564114,-12.546865,-12.273265,-21.181545,11.526477,58.858242,31.951544,8.4768305,7.3495445
116,-1.2126519680023193,3.1564316749572754,122.91252899169922,-1.9699718440436407,-19.640895204625032,-79.6581857075038,8.746136,10.742334,5.9383254,31.249685,-20.013304,-7.879,16.722198,-6.4714184,-23.877453,26.532145,-21.485144,2.7244534,-1.0604008,-4.0909123,9.80475,-14.592974,29.243597,-11.790846,52.237663,-21.21395,18.589615,-12.530661,-12.239494,-21.174479,11.50915,58.900475,32.014854,8.4436245,7.3733525
117,-1.2637852430343628,3.118330717086792,122.87860107421875,-1.9957103113467676,-19.740388035807158,-79.49778001129806,8.754122,10.764071,5.7664742,31.42885,-20.11587,-7.924501,16.869158,-6.4630466,-24.034517,26.64793,-21.631172,2.7172456,-1.0476909,-4.1215906,9.803462,-14.576164,29.227686,-11.733878,52.110752,-21.070637,18.636177,-12.535696,-12.2134495,-21.16173,11.482997,58.945827,32.031544,8.411408,7.3869567
118,-1.3167732954025269,3.0805485248565674,122.84429931640625,-2.011226571955945,-19.833503583880283,-79.34292760193698,8.761082,10.777005,5.6004567,31.594824,-20.209818,-7.968244,17.005226,-6.4644656,-24.18917,26.769136,-21.781227,2.7156365,-1.0313727,-4.156589,9.792326,-14.56056,29.218748,-11.688126,51.974678,-20.922754,18.697348,-12.555812,-12.187517,-21.152643,11.456879,58.994602,32.035606,8.380597,7.398231
119,-1.3722729682922363,3.0432302951812744,122.81034851074219,-2.021223496290034,-19.922127290700367,-79.1931194109716,8.767425,10.786965,5.4391975,31.752144,-20.298164,-8.011296,17.136103,-6.468003,-24.340635,26.88705,-21.930494,2.7163763,-1.010801,-4.1921315,9.770933,-14.559616,29.215908,-11.668704,51.855755,-20.802988,18.761963,-12.57751,-12.164556,-21.149128,11.443268,59.048725,32.047646,8.356367,7.4027505
120,-1.4261784553527832,2.9986412525177,122.77651977539062,-2.0357525334927726,-20.008275865395877,-79.04390129387025,8.771425,10.801098,5.278036,31.909283,-20.385664,-8.054812,17.266205,-6.465617,-24.490574,26.99803,-22.073011,2.716372,-0.99583083,-4.220567,9.772667,-14.505138,29.205454,-11.593412,51.668438,-20.675432,18.833277,-12.591216,-12.137946,-21.130753,11.39707,59.07405,32.02637,8.340089,7.394124
121,-1.4826723337173462,2.955054998397827,122.74356842041016,-2.0517856118787132,-20.093013161325203,-78.89989523333941,8.776444,10.819547,5.1215153,32.063805,-20.471554,-8.098279,17.395815,-6.457288,-24.634642,27.100718,-22.208538,2.7168286,-0.97238857,-4.244846,9.76206,-14.486689,29.203138,-11.572876,51.53073,-20.628202,18.89934,-12.588946,-12.1151285,-21.120377,11.375792,59.105865,32.04482,8.342535,7.365348
122,-1.5390211343765259,2.918308973312378,122.7115478515625,-2.0656964380779703,-20.17530601200146,-78.76045901393354,8.781236,10.839736,4.9687834,32.214256,-20.55465,-8.141383,17.522512,-6.4464784,-24.774607,27.199049,-22.34023,2.7187874,-0.94295764,-4.2657375,9.752919,-14.466878,29.204546,-11.564899,51.387226,-20.615948,18.96874,-12.579084,-12.089062,-21.11134,11.349557,59.127113,32.064945,8.358304,7.3212557
123,-1.597741961479187,2.880472183227539,122.68214416503906,-2.081561812194452,-20.253273952421935,-78.62073691266454,8.782221,10.860947,4.815589,32.361748,-20.635061,-8.185329,17.647022,-6.431791,-24.91466,27.289633,-22.466663,2.7183843,-0.90831834,-4.2880244,9.744778,-14.452352,29.212225,-11.569081,51.249203,-20.624691,19.037424,-12.5649,-12.057749,-21.09972,11.321968,59.141846,32.083817,8.373527,7.278593
124,-1.6546094417572021,2.8428993225097656,122.65460205078125,-2.0986400868132344,-20.32623475792566,-78.47756309970185,8.777354,10.882313,4.658044,32.504963,-20.711695,-8.231376,17.768372,-6.4134808,-25.058634,27.374891,-22.589685,2.712017,-0.8749728,-4.3091407,9.736113,-14.4466505,29.218138,-11.579257,51.12823,-20.63728,19.10168,-12.547285,-12.027959,-21.094885,11.314328,59.160786,32.10393,8.37396,7.2545085
125,-1.7113308906555176,2.8090980052948,122.62590789794922,-2.119414456125211,-20.39293957220149,-78.33017274196817,8.764595,10.904673,4.495179,32.645393,-20.784878,-8.280382,17.887066,-6.389952,-25.207245,27.450958,-22.706165,2.699815,-0.83968914,-4.3320084,9.726822,-14.447608,29.227283,-11.598773,51.021416,-20.661423,19.163336,-12.52503,-11.996283,-21.091707,11.326679,59.18536,32.11609,8.350666,7.25583
126,-1.7689452171325684,2.771563768386841,122.59674072265625,-2.1423605212314834,-20.454523554146665,-78.18051162349295,8.745548,10.927847,4.3290687,32.783253,-20.854916,-8.331509,18.003134,-6.3618364,-25.35862,27.51922,-22.817223,2.6834035,-0.8060924,-4.3540287,9.715749,-14.453648,29.237942,-11.624451,50.9284,-20.701796,19.223286,-12.498473,-11.970754,-21.091663,11.36173,59.2196,32.126797,8.312825,7.272752
127,-1.8342021703720093,2.7284164428710938,122.57097625732422,-2.1668912643371225,-20.51179706924872,-78.02723443391776,8.721828,10.951179,4.1596074,32.91725,-20.921856,-8.383488,18.116613,-6.3310246,-25.512423,27.582872,-22.92619,2.6609921,-0.78145915,-4.3775373,9.702263,-14.457693,29.257309,-11.652105,50.844532,-20.743237,19.276064,-12.471969,-11.951645,-21.095387,11.419225,59.25604,32.15648,8.273148,7.2951922
128,-1.8971028327941895,2.6918718814849854,122.54386138916016,-2.1915390718874264,-20.566022715195786,-77.86877899442193,8.693224,10.973921,3.9859915,33.048584,-20.986284,-8.435076,18.229038,-6.2978177,-25.669024,27.641888,-23.034906,2.6307418,-0.76009196,-4.398411,9.695366,-14.458509,29.266966,-11.665997,50.75996,-20.744877,19.315449,-12.446336,-11.9315815,-21.09876,11.4556265,59.279312,32.194195,8.244908,7.314363
129,-1.9612971544265747,2.65875244140625,122.51465606689453,-2.2154358992668737,-20.61703598856771,-77.70494643910162,8.66115,10.994611,3.8093894,33.174847,-21.047802,-8.486576,18.336317,-6.264747,-25.82513,27.704193,-23.148363,2.5866857,-0.76023865,-4.422784,9.685219,-14.44108,29.288645,-11.672071,50.674797,-20.727026,19.335333,-12.421965,-11.922986,-21.108562,11.52092,59.29574,32.287422,8.233397,7.325036
130,-2.0265026092529297,2.6241390705108643,122.48804473876953,-2.238351153551481,-20.66462723948769,-77.53679408352801,8.625584,11.014252,3.6299486,33.296272,-21.106234,-8.538419,18.440277,-6.2301197,-25.981384,27.76496,-23.262926,2.531529,-0.76262754,-4.4473515,9.681783,-14.423145,29.306366,-11.6697645,50.592247,-20.676434,19.340157,-12.3972225,-11.911342,-21.118607,11.572565,59.296524,32.391987,8.231513,7.334955
131,-2.0913941860198975,2.585404634475708,122.46397399902344,-2.2650049699582233,-20.708452775811477,-77.3627434178646,8.583643,11.034768,3.444965,33.41675,-21.162016,-8.589666,18.546091,-6.191096,-26.144648,27.814383,-23.372227,2.4766886,-0.76706064,-4.4698772,9.678078,-14.410809,29.318237,-11.664634,50.520897,-20.606073,19.340752,-12.375519,-11.897742,-21.12656,11.6128645,59.294556,32.496456,8.231188,7.3450217
132,-2.1572072505950928,2.5466690063476562,122.4447021484375,-2.297410026097969,-20.748086522692212,-77.18152725147324,8.533877,11.058456,3.25222,33.538307,-21.214634,-8.639406,18.659683,-6.1443906,-26.32099,27.841017,-23.468998,2.4334824,-0.77438235,-4.488951,9.671501,-14.408359,29.326597,-11.652483,50.464638,-20.521982,19.348518,-12.364965,-11.8817,-21.132387,11.637966,59.29681,32.581604,8.225189,7.358887
133,-2.2245936393737793,2.5043396949768066,122.42646026611328,-2.3356672264563314,-20.783203838008042,-76.99008895814295,8.474064,11.085863,3.048321,33.66291,-21.264376,-8.686015,18.787254,-6.088302,-26.518095,27.8345,-23.549065,2.4102685,-0.7856314,-4.504268,9.65979,-14.411841,29.32969,-11.632109,50.421234,-20.414265,19.367762,-12.370969,-11.86151,-21.134129,11.6435795,59.304226,32.64731,8.210261,7.374359
134,-2.295175313949585,2.466061592102051,122.40613555908203,-2.378740737635848,-20.81400160967775,-76.79019870387059,8.406586,11.115684,2.8359003,33.78759,-21.310925,-8.730503,18.923918,-6.024809,-26.730312,27.803572,-23.617083,2.3992474,-0.8086385,-4.5166473,9.64838,-14.408111,29.330801,-11.584136,50.378918,-20.27458,19.392878,-12.393526,-11.842205,-21.133032,11.637981,59.31073,32.69905,8.190635,7.391352
135,-2.3626561164855957,2.4296929836273193,122.38672637939453,-2.4251961631955656,-20.841039788813998,-76.58710390665843,8.3332815,11.147109,2.6197395,33.91157,-21.354359,-8.775802,19.060062,-5.955716,-26.94516,27.762754,-23.677666,2.3876028,-0.8276905,-4.526896,9.633524,-14.419983,29.328236,-11.548784,50.35358,-20.144945,19.418158,-12.411439,-11.823009,-21.128723,11.621649,59.325928,32.738297,8.170354,7.4118953
136,-2.4327752590179443,2.39921498298645,122.36455535888672,-2.47245578440382,-20.865138552300547,-76.38588333160189,8.257272,11.178902,2.4047093,34.031727,-21.393738,-8.824747,19.186129,-5.8829074,-27.150522,27.727013,-23.735975,2.3624604,-0.84610856,-4.534302,9.625742,-14.421691,29.322527,-11.506516,50.308304,-20.033792,19.44281,-12.412994,-11.811191,-21.120386,11.594697,59.34566,32.746876,8.154311,7.43725
137,-2.503957986831665,2.370861768722534,122.34425354003906,-2.5206552998867946,-20.884258137591512,-76.18693587560308,8.172984,11.21294,2.1894774,34.152782,-21.43012,-8.879702,19.296316,-5.8038306,-27.342102,27.700117,-23.789728,2.317281,-0.8610983,-4.537929,9.61631,-14.431122,29.318506,-11.482072,50.263794,-19.972404,19.467043,-12.386052,-11.806732,-21.114254,11.565746,59.377502,32.725124,8.146277,7.474754
138,-2.573068857192993,2.338045120239258,122.32891082763672,-2.570910278635155,-20.898441601798506,-75.98763769808245,8.082095,11.248979,1.9723654,34.27237,-21.462376,-8.938623,19.397348,-5.718536,-27.526684,27.673422,-23.836996,2.2600012,-0.8744667,-4.5383143,9.6109,-14.43935,29.313438,-11.456493,50.209526,-19.932426,19.493208,-12.343036,-11.805223,-21.106207,11.520802,59.41203,32.668297,8.143501,7.5215173
139,-2.644777774810791,2.3065104484558105,122.31204223632812,-2.6189563184615197,-20.912720390180475,-75.79040044250132,7.9937677,11.283364,1.757719,34.385853,-21.49156,-8.997962,19.496906,-5.6330223,-27.708492,27.645441,-23.884737,2.199334,-0.88422936,-4.5384927,9.608365,-14.448489,29.309278,-11.438853,50.153084,-19.909082,19.515423,-12.296088,-11.804501,-21.09903,11.478897,59.44922,32.61816,8.140225,7.5653467
140,-2.7177326679229736,2.2734856605529785,122.29803466796875,-2.6617767768689533,-20.931589632860046,-75.59674245669378,7.917397,11.312868,1.549666,34.487495,-21.517975,-9.054161,19.60299,-5.553103,-27.891523,27.614521,-23.939861,2.1440847,-0.8817362,-4.542342,9.615353,-14.45945,29.303638,-11.430461,50.090908,-19.885378,19.529335,-12.25883,-11.799311,-21.087217,11.432165,59.483562,32.59815,8.131637,7.5954986
141,-2.7845194339752197,2.238170862197876,122.28279113769531,-2.695962218524937,-20.958433559356322,-75.41075925745159,7.860998,11.335036,1.3535024,34.571716,-21.541555,-9.10672,19.716915,-5.4837756,-28.074146,27.585308,-24.008919,2.0959759,-0.877193,-4.550376,9.625476,-14.466548,29.302603,-11.43895,50.031597,-19.885088,19.526758,-12.235349,-11.797383,-21.081995,11.424858,59.52291,32.65329,8.117089,7.6039867
142,-2.8572938442230225,2.2047653198242188,122.26649475097656,-2.72682444596346,-20.990805098450718,-75.22882481185229,7.817327,11.355074,1.163653,34.64401,-21.56276,-9.157857,19.83697,-5.41733,-28.256317,27.5534,-24.085068,2.050254,-0.868378,-4.558728,9.642203,-14.469743,29.303873,-11.45813,49.96647,-19.903996,19.513693,-12.216946,-11.802381,-21.079239,11.431641,59.572647,32.747402,8.097828,7.6008673
143,-2.9343771934509277,2.174856185913086,122.25032043457031,-2.7560857283043356,-21.022097290306082,-75.04635271516689,7.7741284,11.371808,0.9746911,34.712708,-21.58125,-9.206344,19.959492,-5.3516726,-28.440702,27.514313,-24.159557,2.0069904,-0.8561914,-4.572083,9.64913,-14.487749,29.312328,-11.505818,49.922134,-19.934477,19.499634,-12.198662,-11.814064,-21.0747,11.46323,59.63891,32.869747,8.07287,7.5898
144,-3.0080647468566895,2.1454482078552246,122.23682403564453,-2.787282680418978,-21.046730831786977,-74.85794731560408,7.7201076,11.387414,0.7796066,34.784588,-21.59649,-9.251583,20.083002,-5.281157,-28.630737,27.459059,-24.220724,1.965945,-0.8467493,-4.584699,9.659125,-14.505994,29.31909,-11.528315,49.870728,-19.919117,19.499811,-12.187106,-11.808964,-21.073606,11.487946,59.67667,32.971897,8.045497,7.5794296
145,-3.07841157913208,2.1140077114105225,122.22148132324219,-2.8204979674391284,-21.064138159423003,-74.66177500957598,7.6571608,11.400019,0.57831484,34.855587,-21.60573,-9.29408,20.211884,-5.2052307,-28.82926,27.37915,-24.263117,1.9298526,-0.8351785,-4.599114,9.667103,-14.533583,29.323267,-11.536417,49.82076,-19.844458,19.520512,-12.18089,-11.791827,-21.07419,11.5087185,59.69919,33.049984,8.009434,7.5665984
146,-3.1488125324249268,2.0774192810058594,122.20946502685547,-2.8549954745804365,-21.077662246458807,-74.46028713089319,7.5898056,11.411097,0.37266237,34.923817,-21.610378,-9.334342,20.347715,-5.1237946,-29.035004,27.276495,-24.29125,1.8978059,-0.8263526,-4.6154623,9.67077,-14.5776005,29.326881,-11.539328,49.788414,-19.735136,19.553102,-12.181295,-11.762009,-21.07656,11.543858,59.70716,33.13159,7.9654865,7.5456185
147,-3.220912456512451,2.0469703674316406,122.1970443725586,-2.89234672863144,-21.08490616704236,-74.25567266996389,7.509398,11.421443,0.16240032,35.002495,-21.616085,-9.370426,20.476763,-5.0404506,-29.241545,27.174294,-24.317158,1.8644522,-0.8167605,-4.6285467,9.674095,-14.614709,29.328394,-11.537111,49.745544,-19.618109,19.587494,-12.179149,-11.734509,-21.079554,11.570624,59.713184,33.20095,7.9246216,7.5310173
148,-3.287504196166992,2.0089030265808105,122.18809509277344,-2.933811288280395,-21.085331622438723,-74.04862361034847,7.407753,11.435576,-0.055583112,35.10467,-21.628902,-9.4012575,20.590036,-4.95292,-29.44482,27.08722,-24.34883,1.8239784,-0.8227279,-4.634137,9.66965,-14.649874,29.329527,-11.5309105,49.71449,-19.529722,19.611744,-12.171725,-11.710469,-21.08685,11.613371,59.71334,33.278957,7.895162,7.5265164
149,-3.3590354919433594,1.9733378887176514,122.17674255371094,-2.984256868247386,-21.073493189946042,-73.83697650611171,7.273159,11.453578,-0.28774482,35.240845,-21.651443,-9.42309,20.678883,-4.8604865,-29.643757,27.021778,-24.387943,1.7715787,-0.8494309,-4.6258864,9.6557,-14.658013,29.329971,-11.512377,49.670937,-19.475616,19.624527,-12.157012,-11.7104,-21.103987,11.666425,59.724026,33.361828,7.8901668,7.5448623
150,-3.429373264312744,1.9412769079208374,122.16673278808594,-3.0406493270854935,-21.052161179336156,-73.62138145614337,7.11407,11.473487,-0.5306645,35.40016,-21.679556,-9.437803,20.750452,-4.763914,-29.84074,26.969585,-24.43107,1.711396,-0.8727607,-4.613656,9.638189,-14.674403,29.329678,-11.503478,49.634666,-19.437384,19.631313,-12.136837,-11.70509,-21.118353,11.695627,59.725876,33.429523,7.9002857,7.57894
151,-3.4977848529815674,1.91095769405365,122.15133666992188,-3.097627084794171,-21.02947911542601,-73.40601660630419,6.9489384,11.494152,-0.7716906,35.569427,-21.711136,-9.452311,20.817019,-4.6678953,-30.03572,26.924635,-24.477535,1.6512563,-0.8914098,-4.6010838,9.6225,-14.690877,29.329687,-11.503354,49.59519,-19.418072,19.63227,-12.107991,-11.696752,-21.127161,11.715669,59.72367,33.490055,7.906599,7.6151004
152,-3.564908981323242,1.8810609579086304,122.13318634033203,-3.150913508344567,-21.013617587356944,-73.19523631770718,6.7959557,11.515125,-0.99814904,35.735336,-21.744452,-9.473658,20.88996,-4.577274,-30.228418,26.883402,-24.528654,1.5992137,-0.9087532,-4.585106,9.614876,-14.696447,29.330442,-11.506601,49.541676,-19.42394,19.626425,-12.070408,-11.682217,-21.150246,11.75637,59.709915,33.56674,7.8947864,7.6435513
153,-3.6289355754852295,1.8509607315063477,122.11273956298828,-3.1991771745895847,-21.009095539295437,-72.99350437919887,6.6633506,11.538525,-1.2020555,35.893013,-21.779613,-9.509998,20.97144,-4.4942527,-30.415207,26.848816,-24.586868,1.5590559,-0.91200566,-4.570349,9.623023,-14.689851,29.333096,-11.520803,49.46453,-19.463898,19.609234,-12.013026,-11.655215,-21.177177,11.801956,59.68074,33.643803,7.852755,7.6624713
154,-3.6926801204681396,1.8157867193222046,122.09114837646484,-3.2443721538804957,-21.010313554458154,-72.79686456033818,6.541291,11.563935,-1.3914268,36.047726,-21.81644,-9.555555,21.056828,-4.4152575,-30.597576,26.818293,-24.64918,1.525971,-0.90780497,-4.552161,9.64257,-14.671164,29.338957,-11.543085,49.36696,-19.536932,19.582726,-11.9418955,-11.6141405,-21.217434,11.856198,59.62952,33.729202,7.794574,7.6791453
155,-3.7545864582061768,1.780448079109192,122.07022094726562,-3.288953190781826,-21.012640676208274,-72.59931812623421,6.417365,11.586809,-1.5781003,36.2104,-21.856623,-9.59633,21.142185,-4.3400483,-30.782093,26.793951,-24.715567,1.4949347,-0.90229994,-4.5358114,9.665673,-14.651066,29.345903,-11.5657,49.261692,-19.611567,19.557644,-11.873708,-11.570499,-21.254099,11.902352,59.575405,33.811916,7.7312784,7.690272
156,-3.8158509731292725,1.7450120449066162,122.05111694335938,-3.3341634726563796,-21.01119476927079,-72.3943191938307,6.2797704,11.601745,-1.7735747,36.389915,-21.900251,-9.618064,21.227123,-4.2662196,-30.975319,26.767847,-24.779955,1.4607368,-0.9030415,-4.525121,9.684675,-14.63922,29.350506,-11.578485,49.160748,-19.655142,19.544992,-11.824882,-11.537709,-21.272615,11.926875,59.538105,33.883224,7.6744523,7.691797
157,-3.878037929534912,1.708189606666565,122.03137969970703,-3.382210583240402,-21.007058612611154,-72.18084062261529,6.127334,11.583396,-2.0430758,36.5881,-21.95124,-9.61159,21.31572,-4.1913404,-31.178225,26.736242,-24.8413,1.4196143,-0.91574264,-4.511569,9.701948,-14.623322,29.359396,-11.580447,49.048813,-19.678726,19.551603,-11.806633,-11.496133,-21.300638,11.9466715,59.485233,33.97602,7.6362877,7.684433
158,-3.9333202838897705,1.672097086906433,122.01173400878906,-3.4305216007752555,-21.002798260683605,-71.96282979894507,5.966393,11.542017,-2.3595529,36.799847,-22.007557,-9.58645,21.408312,-4.1163282,-31.38773,26.700022,-24.900288,1.375081,-0.9345854,-4.497187,9.726796,-14.595616,29.372997,-11.565067,48.911526,-19.684322,19.572033,-11.809728,-11.446546,-21.335028,11.949978,59.41392,34.07228,7.608293,7.670144
159,-3.989572763442993,1.6352043151855469,121.99164581298828,-3.4805419876874804,-20.99196112846829,-71.73827710873788,5.793989,11.52778,-2.5966218,37.026123,-22.062948,-9.556498,21.49233,-4.046493,-31.60374,26.673584,-24.963026,1.3330086,-0.9583665,-4.4840937,9.752389,-14.559968,29.39096,-11.538993,48.756626,-19.674465,19.597658,-11.822615,-11.391687,-21.372341,11.940395,59.33301,34.15962,7.58579,7.657312
160,-4.043537139892578,1.5978823900222778,121.96994018554688,-3.5290352457729717,-20.96983445488836,-71.50634767372043,5.606399,11.592133,-2.6286573,37.26839,-22.111362,-9.535033,21.556797,-3.9861438,-31.82608,26.668457,-25.03357,1.2991228,-0.9851746,-4.478288,9.7606945,-14.543666,29.398785,-11.52256,48.6285,-19.648323,19.615923,-11.826854,-11.355273,-21.386185,11.927369,59.288456,34.22117,7.556792,7.6463227
161,-4.100344181060791,1.5623233318328857,121.94686126708984,-3.5764077437403317,-20.930935992721892,-71.26590434924336,5.4006,11.757041,-2.417947,37.520897,-22.145023,-9.543196,21.593126,-3.9367778,-32.05657,26.689413,-25.11365,1.2740618,-1.0183837,-4.4748783,9.76209,-14.515347,29.40982,-11.493492,48.482506,-19.597864,19.628164,-11.831824,-11.3143835,-21.403465,11.897119,59.2335,34.24634,7.5341215,7.6478496
162,-4.151815414428711,1.530328392982483,121.9222412109375,-3.6243318147320047,-20.879139307963307,-71.01767247158261,5.1795726,11.994418,-2.033735,37.78616,-22.169556,-9.566466,21.609297,-3.8959389,-32.294834,26.729914,-25.200766,1.2549797,-1.0568116,-4.473843,9.75741,-14.4837265,29.420856,-11.457512,48.328094,-19.526808,19.637953,-11.841476,-11.273464,-21.418818,11.852818,59.17607,34.24629,7.5169573,7.6569943
163,-4.197432041168213,1.4960161447525024,121.89863586425781,-3.672674402079478,-20.82310509243537,-70.76369472030848,4.94874,12.280618,-1.5109428,38.078045,-22.200449,-9.564462,21.618332,-3.861977,-32.537136,26.78375,-25.293219,1.2425231,-1.0971574,-4.476337,9.743786,-14.465543,29.426641,-11.431657,48.187397,-19.455317,19.646767,-11.84162,-11.238323,-21.425827,11.8165245,59.139523,34.249336,7.492226,7.664787
164,-4.241429805755615,1.4603489637374878,121.87093353271484,-3.7204108616907496,-20.77098740322421,-70.50524980625119,4.7137566,12.592023,-0.88406175,38.409264,-22.253004,-9.4978,21.63316,-3.832938,-32.77975,26.844757,-25.389025,1.2372469,-1.1330048,-4.4819236,9.736956,-14.45257,29.431229,-11.414516,48.035378,-19.396969,19.660873,-11.828503,-11.193267,-21.43126,11.789141,59.104908,34.27419,7.4553466,7.6716604
165,-4.278064250946045,1.4140907526016235,121.84130859375,-3.764942070466831,-20.726241557784565,-70.24719234719767,4.479999,12.934416,-0.12667714,38.78622,-22.3324,-9.344793,21.656395,-3.8107574,-33.01621,26.91338,-25.4877,1.2400427,-1.1563463,-4.4913616,9.744361,-14.436193,29.442997,-11.405717,47.858696,-19.367977,19.684494,-11.8008585,-11.117689,-21.447266,11.764073,59.04833,34.330353,7.409279,7.682083
166,-4.314535617828369,1.3711799383163452,121.81383514404297,-3.8073130759892435,-20.68420427875949,-69.98694125011316,4.246608,13.318238,0.76764387,39.20275,-22.432072,-9.13015,21.681513,-3.795479,-33.250286,26.992836,-25.590754,1.2503611,-1.1784592,-4.504558,9.746685,-14.437093,29.449654,-11.414071,47.70026,-19.36016,19.710732,-11.7576685,-11.051749,-21.458162,11.764107,59.02176,34.41363,7.350988,7.691772
167,-4.356644153594971,1.3329142332077026,121.78101348876953,-3.8528789830331522,-20.64023196254233,-69.71640904843198,4.009621,13.726261,1.7349021,39.647755,-22.547298,-8.885024,21.706799,-3.7817974,-33.49443,27.07693,-25.69625,1.2666231,-1.2000111,-4.516014,9.754101,-14.446051,29.462097,-11.431649,47.52763,-19.352358,19.737967,-11.712034,-10.969214,-21.481138,11.76313,58.98439,34.5119,7.2861156,7.7061706
168,-4.390875816345215,1.2979490756988525,121.74919891357422,-3.907885595824511,-20.59003579523896,-69.4280333611958,3.763101,14.140924,2.711011,40.111336,-22.673767,-8.640379,21.728508,-3.7663937,-33.76068,27.166634,-25.806274,1.2873964,-1.2275146,-4.5233884,9.769777,-14.464895,29.477087,-11.449349,47.33169,-19.316837,19.76233,-11.669922,-10.863998,-21.509905,11.747284,58.92229,34.609367,7.214094,7.720078
169,-4.426350116729736,1.2638814449310303,121.71561431884766,-3.9747419929003196,-20.527943402775463,-69.11641002454783,3.495886,14.563612,3.6905189,40.598248,-22.812647,-8.393551,21.74451,-3.7453268,-34.05735,27.254618,-25.91661,1.3135934,-1.2830435,-4.5251293,9.774694,-14.497357,29.48072,-11.4539585,47.143036,-19.233534,19.767122,-11.630871,-10.811553,-21.515783,11.741707,58.93121,34.694363,7.1179137,7.7355113
170,-4.458552837371826,1.2250800132751465,121.6801528930664,-4.0521544761122,-20.45645552422732,-68.78696773782976,3.2144408,15.002936,4.703558,41.11212,-22.96641,-8.131498,21.75538,-3.721586,-34.376335,27.344582,-26.028795,1.3456204,-1.3329412,-4.524414,9.792195,-14.537324,29.49854,-11.470443,46.91697,-19.133204,19.765722,-11.595604,-10.692346,-21.540533,11.702622,58.866898,34.778603,7.0160837,7.7560415
171,-4.489322185516357,1.1872724294662476,121.64139556884766,-4.130490214810975,-20.38816891221809,-68.44690828578706,2.94461,15.449352,5.739923,41.637276,-23.12962,-7.869174,21.770514,-3.7012239,-34.70508,27.443825,-26.147566,1.381253,-1.4023107,-4.5216937,9.804611,-14.587301,29.504892,-11.475664,46.702225,-19.011475,19.771557,-11.559612,-10.639651,-21.54728,11.690166,58.890263,34.871326,6.9025764,7.77287
172,-4.517781734466553,1.1493343114852905,121.59963989257812,-4.208125170616876,-20.33011497208075,-68.10351741582376,2.7038138,15.895393,6.788635,42.161026,-23.298063,-7.6221004,21.793293,-3.6871898,-35.030605,27.557863,-26.276674,1.4173664,-1.4378097,-4.526317,9.848123,-14.661492,29.52932,-11.505654,46.450138,-18.894257,19.818642,-11.530267,-10.490337,-21.570059,11.627234,58.80637,34.974533,6.805119,7.780979
173,-4.548190593719482,1.1105029582977295,121.55368041992188,-4.280954895735277,-20.29259444876843,-67.75556845824947,2.505786,16.336084,7.8513165,42.683563,-23.465624,-7.4028764,21.835922,-3.6805458,-35.350952,27.684858,-26.417253,1.4549968,-1.4712484,-4.5327253,9.905814,-14.755744,29.550137,-11.537629,46.202385,-18.77436,19.908546,-11.507225,-10.373304,-21.586655,11.5727415,58.77331,35.09602,6.718595,7.7726183
174,-4.567296981811523,1.0706990957260132,121.50617980957031,-4.354468783051282,-20.267761600381018,-67.40044466941232,2.3360708,16.776731,8.932403,43.21297,-23.637087,-7.2003474,21.89054,-3.6792405,-35.672173,27.824963,-26.568323,1.4949057,-1.5157014,-4.53774,9.970019,-14.85393,29.56034,-11.55605,45.949684,-18.639147,20.028534,-11.4869375,-10.290629,-21.593071,11.539491,58.78885,35.233036,6.6336718,7.7479124
175,-4.58439826965332,1.0299054384231567,121.45555877685547,-4.426064580024711,-20.24418287881415,-67.04190753670801,2.185452,17.218508,10.027953,43.738102,-23.820562,-6.9939885,21.943832,-3.6855605,-35.99513,27.98086,-26.72774,1.5353259,-1.5337483,-4.5506454,10.047975,-14.985966,29.58202,-11.604139,45.687412,-18.50356,20.166735,-11.466191,-10.150971,-21.605162,11.466865,58.748093,35.376072,6.5482144,7.7290664
176,-4.601066589355469,0.991333544254303,121.40413665771484,-4.496602150965275,-20.210268839046055,-66.6833975577354,2.0431757,17.663712,11.132997,44.250828,-24.025873,-6.763626,21.981243,-3.702005,-36.32002,28.159151,-26.895628,1.5738293,-1.544419,-4.5685706,10.12079,-15.122152,29.610647,-11.663855,45.406006,-18.365442,20.30618,-11.4333315,-9.991921,-21.61888,11.389021,58.685734,35.532906,6.4460874,7.729818
177,-4.615182876586914,0.9484922289848328,121.35128784179688,-4.560595174800444,-20.161136119289075,-66.32570137355475,1.9087454,18.112394,12.264772,44.743557,-24.258726,-6.499234,21.98535,-3.7440097,-36.64997,28.392164,-27.085201,1.6106712,-1.5514653,-4.59829,10.187029,-15.259943,29.651428,-11.73043,45.094334,-18.211975,20.447382,-11.389947,-9.809442,-21.635149,11.312602,58.592243,35.711975,6.3242645,7.75779
178,-4.625576496124268,0.9015483856201172,121.297607421875,-4.620070102943158,-20.10348068234067,-65.96655152782604,1.7885847,18.562786,13.419793,45.22171,-24.512842,-6.2133017,21.973173,-3.8008275,-36.982845,28.653294,-27.285494,1.6451027,-1.5623548,-4.6374903,10.251799,-15.38861,29.705368,-11.791262,44.746895,-18.045044,20.598066,-11.340715,-9.618741,-21.652191,11.245492,58.483868,35.911907,6.1885586,7.8029494
179,-4.6367645263671875,0.8546933531761169,121.24016571044922,-4.683116711878569,-20.043740576370276,-65.60697401950735,1.6799924,19.014616,14.563884,45.6984,-24.782007,-5.921339,21.9608,-3.857042,-37.315716,28.9193,-27.489706,1.6810789,-1.5911261,-4.666427,10.305121,-15.495286,29.738874,-11.82457,44.391235,-17.870007,20.748814,-11.278096,-9.459493,-21.658964,11.208366,58.41129,36.118774,6.034507,7.847471
180,-4.6402459144592285,0.8111220598220825,121.18000030517578,-4.756074239852309,-19.987427741788373,-65.24706903311458,1.5793451,19.466513,15.662362,46.186134,-25.059462,-5.6356816,21.967096,-3.8949668,-37.645466,29.158056,-27.68673,1.7218242,-1.6060292,-4.689131,10.366081,-15.5863495,29.793015,-11.869776,44.012253,-17.741297,20.900543,-11.205886,-9.271394,-21.665537,11.144083,58.307663,36.312134,5.8752527,7.8907166
181,-4.640009880065918,0.7562481164932251,121.11845397949219,-4.844861761682213,-19.937971610948484,-64.88587990601454,1.4901161,19.93389,16.737244,46.700104,-25.347965,-5.3554916,22.000677,-3.9051037,-37.97024,29.357525,-27.874868,1.7667823,-1.6216996,-4.6927495,10.428287,-15.647764,29.850552,-11.911557,43.612194,-17.67225,21.051973,-11.1057,-9.0812025,-21.667185,11.084346,58.208794,36.50625,5.69568,7.927241
182,-4.636310577392578,0.6965031623840332,121.05744934082031,-4.945407089003164,-19.891775332088756,-64.52370349030639,1.4123574,20.412077,17.79601,47.229717,-25.649462,-5.075049,22.052631,-3.8954577,-38.291603,29.528904,-28.056086,1.8139671,-1.646707,-4.67425,10.482042,-15.692164,29.88466,-11.940338,43.213295,-17.629827,21.201097,-10.979631,-8.910014,-21.66553,11.04711,58.139256,36.70739,5.4947248,7.95818
183,-4.635061264038086,0.6433266401290894,120.99555969238281,-5.047746088335737,-19.84282913953146,-64.16224581302853,1.3360245,20.86905,18.784748,47.746685,-25.954868,-4.8017387,22.103653,-3.8876543,-38.6136,29.706884,-28.24049,1.8679593,-1.6472163,-4.6783357,10.55449,-15.713828,29.986298,-11.9870405,42.75787,-17.61821,21.356236,-10.87052,-8.685028,-21.653624,10.946715,57.996696,36.873734,5.305669,7.9957075
184,-4.632978916168213,0.5832861065864563,120.9311752319336,-5.146312536748965,-19.78594542794366,-63.80299244142189,1.2495726,21.275337,19.6462,48.220356,-26.252518,-4.5433583,22.146933,-3.8879466,-38.937412,29.892134,-28.420527,1.9286025,-1.6710823,-4.681955,10.612095,-15.704534,30.064697,-11.978905,42.31276,-17.539684,21.502117,-10.796961,-8.517174,-21.629581,10.852806,57.89841,36.991646,5.134951,8.021862
185,-4.619174957275391,0.515917181968689,120.87120819091797,-5.245929122040187,-19.717782675037405,-63.444559281492204,1.1483587,21.647276,20.408175,48.64931,-26.546844,-4.2816396,22.180218,-3.8899248,-39.26803,30.080318,-28.590406,1.9978936,-1.7063639,-4.677812,10.65151,-15.685368,30.110405,-11.932616,41.89359,-17.369408,21.638569,-10.775848,-8.381582,-21.60305,10.732279,57.81457,37.041733,5.0005074,8.032384
186,-4.605522155761719,0.44857627153396606,120.8108901977539,-5.347718194654547,-19.64132646900925,-63.0864847394105,1.0363532,21.991947,21.086113,49.044376,-26.838858,-4.019725,22.209793,-3.8908741,-39.602978,30.267319,-28.752922,2.0743556,-1.7423996,-4.678554,10.686688,-15.644696,30.160643,-11.861685,41.463776,-17.149357,21.771887,-10.793218,-8.254556,-21.561205,10.57129,57.72218,37.031445,4.8897576,8.033526
187,-4.588271141052246,0.38934606313705444,120.74761199951172,-5.438730873913147,-19.563627478379974,-62.733743937803524,0.9076797,22.266891,21.603748,49.402626,-27.11716,-3.7980256,22.232416,-3.911913,-39.93353,30.475496,-28.92349,2.1562088,-1.7756068,-4.692926,10.720063,-15.6024475,30.209946,-11.7779455,41.05117,-16.919933,21.89639,-10.820015,-8.147533,-21.50793,10.4049635,57.650597,36.994312,4.778863,8.0349
188,-4.563832759857178,0.32752010226249695,120.68894958496094,-5.505904435658447,-19.49179865887524,-62.39134043742618,0.75544184,22.429064,21.885094,49.7203,-27.369047,-3.656703,22.245832,-3.9740565,-40.25092,30.72762,-29.118324,2.2415318,-1.797647,-4.7368765,10.759887,-15.573413,30.266865,-11.694754,40.669086,-16.725513,22.008589,-10.829064,-8.063658,-21.43731,10.2542095,57.618652,36.956314,4.643783,8.047654
189,-4.546377658843994,0.2780783176422119,120.62216186523438,-5.5408120749844425,-19.43068829068173,-62.061812218041545,0.5717906,22.437351,21.844864,49.97778,-27.582504,-3.628487,22.24897,-4.0906744,-40.55048,31.035675,-29.345152,2.3300455,-1.8023868,-4.7972116,10.808459,-15.5830965,30.297922,-11.613632,40.347336,-16.575039,22.103115,-10.811627,-7.9934974,-21.387623,10.129307,57.623093,36.937813,4.486908,8.085455
190,-4.516326427459717,0.2192283719778061,120.55686950683594,-5.553240861545817,-19.375175492319023,-61.74147830661366,0.36056975,22.322926,21.546068,50.182636,-27.765873,-3.6848688,22.24459,-4.2481833,-40.837948,31.383955,-29.59347,2.4225788,-1.7916789,-4.8827744,10.866753,-15.608498,30.327736,-11.526403,40.053493,-16.446873,22.186207,-10.784924,-7.9365473,-21.328445,10.001103,57.653522,36.90585,4.31574,8.13813
191,-4.473477363586426,0.1562732607126236,120.49088287353516,-5.5545441788677525,-19.319975796623464,-61.4277546213024,0.13118467,22.154293,21.134926,50.375683,-27.93983,-3.7743368,22.233717,-4.4268255,-41.119183,31.756796,-29.85339,2.5191808,-1.7761557,-4.9889054,10.921899,-15.636676,30.367815,-11.4433565,39.783184,-16.328945,22.259464,-10.750117,-7.903146,-21.243572,9.883768,57.71488,36.86266,4.1262193,8.184702
192,-4.427001476287842,0.08686132729053497,120.4214096069336,-5.561269328450564,-19.25821024640348,-61.11711219430506,-0.10830335,22.002499,20.755795,50.598183,-28.125362,-3.8453605,22.217964,-4.604676,-41.400337,32.1354,-30.113735,2.6199038,-1.7579316,-5.074631,10.968735,-15.666725,30.391615,-11.376222,39.53775,-16.204683,22.32097,-10.708648,-7.858122,-21.18775,9.787687,57.75131,36.83641,3.9328275,8.215255
193,-4.386496067047119,0.0225088968873024,120.35032653808594,-5.574277322170413,-19.184181730323846,-60.80793078059984,-0.36667484,21.872742,20.4179,50.855183,-28.323627,-3.894778,22.193134,-4.7805405,-41.686436,32.51804,-30.37346,2.7249987,-1.7384173,-5.1544757,11.00108,-15.691715,30.417873,-11.329817,39.311703,-16.061064,22.373045,-10.658353,-7.810017,-21.126247,9.703947,57.778008,36.801937,3.7204888,8.214641
194,-4.336641311645508,-0.04065895080566406,120.27810668945312,-5.587467809220267,-19.102097925106268,-60.501937172019765,-0.6445913,21.732409,20.054075,51.12806,-28.5255,-3.9465485,22.160582,-4.963739,-41.973316,32.912357,-30.637386,2.834345,-1.7153765,-5.224083,11.024849,-15.718805,30.434765,-11.297683,39.110703,-15.910211,22.413853,-10.599093,-7.7543383,-21.082045,9.637314,57.790287,36.772526,3.4965277,8.197704
195,-4.286639213562012,-0.09726341813802719,120.20196533203125,-5.600517165103472,-19.02285333046622,-60.20228619546434,-0.9217009,21.592302,19.693468,51.416584,-28.733822,-3.9896157,22.127714,-5.1523957,-42.2522,33.319386,-30.905258,2.947227,-1.6834673,-5.2948723,11.051875,-15.746001,30.453018,-11.274465,38.922157,-15.772426,22.445515,-10.537981,-7.699931,-21.036625,9.575013,57.795044,36.750057,3.272204,8.177772
196,-4.232447624206543,-0.157400980591774,120.12728118896484,-5.613460976542712,-18.957373090762864,-59.9121117044418,-1.1793607,21.464745,19.364313,51.72243,-28.952402,-4.013097,22.102135,-5.343683,-42.514046,33.739452,-31.17622,3.0626957,-1.6438181,-5.3568025,11.0918455,-15.772134,30.4641,-11.251081,38.74071,-15.67073,22.46753,-10.481364,-7.647326,-21.013102,9.52729,57.782707,36.765022,3.0680578,8.1742935
197,-4.17572021484375,-0.22026586532592773,120.04647064208984,-5.6231486177043495,-18.90705865721593,-59.63646750751286,-1.4124773,21.352795,19.082495,52.04589,-29.180178,-4.0098233,22.080914,-5.5410485,-42.75196,34.17627,-31.449816,3.1826715,-1.5853182,-5.4190516,11.152131,-15.792826,30.47661,-11.221174,38.558994,-15.607301,22.481503,-10.433528,-7.5921526,-20.995537,9.473059,57.747383,36.804413,2.8839788,8.193326
198,-4.1119537353515625,-0.27922821044921875,119.9636459350586,-5.63724097816511,-18.86821440053721,-59.371456335854056,-1.6299375,21.254139,18.8281,52.387978,-29.417158,-3.9881456,22.066084,-5.7391896,-42.97193,34.62263,-31.723915,3.3061967,-1.522021,-5.471505,11.210832,-15.826975,30.478788,-11.207076,38.422974,-15.584976,22.480268,-10.382107,-7.569403,-20.993933,9.45742,57.73953,36.887928,2.7119405,8.224338
199,-4.050803184509277,-0.3398173153400421,119.87615966796875,-5.646772967830393,-18.835371200164523,-59.10935895169475,-1.8404219,21.153826,18.583843,52.741085,-29.662045,-3.956012,22.053587,-5.948124,-43.185352,35.087772,-32.006657,3.4302938,-1.4457105,-5.5284185,11.301478,-15.829351,30.489883,-11.168136,38.22027,-15.565119,22.481236,-10.343894,-7.4922876,-20.997152,9.400629,57.64133,36.963737,2.5539804,8.260654
200,-3.985790967941284,-0.40048375725746155,119.7841796875,-5.667804225567572,-18.81677134763505,-58.84007852734744,-2.0400367,21.05897,18.324903,53.106186,-29.920172,-3.9268398,22.066765,-6.1447477,-43.40235,35.543842,-32.28928,3.5496593,-1.3838683,-5.577649,11.391071,-15.836392,30.499153,-11.155579,38.024914,-15.575504,22.47085,-10.299654,-7.4490237,-21.006126,9.380933,57.575733,37.067234,2.406544,8.291627
201,-3.916527032852173,-0.46079570055007935,119.6878890991211,-5.696607460997813,-18.816278873804134,-58.563102261830586,-2.2229548,20.969593,18.04987,53.481895,-30.193373,-3.9005945,22.113268,-6.3276105,-43.624287,35.986046,-32.574623,3.6597903,-1.3279415,-5.6162944,11.517667,-15.786049,30.540806,-11.148048,37.72567,-15.637188,22.4534,-10.261638,-7.3600135,-21.058239,9.364228,57.414104,37.20409,2.2944984,8.320538
202,-3.845221519470215,-0.5234399437904358,119.58910369873047,-5.734732378028502,-18.831161641808553,-58.28239258978541,-2.3901916,20.885908,17.769236,53.868565,-30.479042,-3.8721783,22.185123,-6.5011916,-43.845955,36.42089,-32.862,3.7641678,-1.2856239,-5.6457515,11.660697,-15.70479,30.599215,-11.1454735,37.383766,-15.744705,22.425262,-10.227598,-7.2766705,-21.139322,9.379814,57.229057,37.381866,2.2064297,8.350675
203,-3.7700812816619873,-0.5865939259529114,119.48930358886719,-5.774697207052412,-18.849249066086447,-57.997472000840695,-2.559569,20.800188,17.480476,54.267296,-30.77373,-3.8434803,22.260355,-6.6784854,-44.06867,36.86958,-33.15318,3.8715782,-1.2535404,-5.6744876,11.804487,-15.620685,30.655813,-11.141717,37.033043,-15.850388,22.399763,-10.191372,-7.19766,-21.224527,9.4073,57.045143,37.56662,2.1188946,8.383195
204,-3.693035125732422,-0.6547337174415588,119.38549041748047,-5.81369028768401,-18.857182213891296,-57.70712380734851,-2.7479384,20.70411,17.18178,54.677486,-31.073145,-3.8161733,22.317034,-6.8719125,-44.293373,37.352024,-33.449043,3.9904644,-1.2294279,-5.7098904,11.93105,-15.56692,30.69594,-11.136697,36.71456,-15.914362,22.389868,-10.146983,-7.12602,-21.291828,9.43314,56.892773,37.73221,2.009796,8.422033
205,-3.6150593757629395,-0.7203846573829651,119.27790832519531,-5.851592062896425,-18.851253827935178,-57.407087020388694,-2.9631221,20.593115,16.864925,55.097427,-31.375448,-3.7944157,22.347826,-7.085142,-44.522694,37.877205,-33.74695,4.125459,-1.2216184,-5.749647,12.051494,-15.51748,30.737082,-11.106394,36.38745,-15.929216,22.409346,-10.098922,-7.0398984,-21.377281,9.462386,56.72937,37.88457,1.8860447,8.48286
206,-3.5365190505981445,-0.7784276008605957,119.16537475585938,-5.891401031839704,-18.837872908127448,-57.09861248091822,-3.1952083,20.47205,16.533117,55.529675,-31.68235,-3.7757595,22.365335,-7.312392,-44.754837,38.43327,-34.04727,4.2706428,-1.219907,-5.801235,12.152399,-15.515605,30.756313,-11.086232,36.114513,-15.901475,22.443537,-10.039557,-6.973494,-21.430853,9.495372,56.61483,38.01331,1.7383157,8.546431
207,-3.4509003162384033,-0.8378603458404541,119.04759216308594,-5.930651756148779,-18.821868021278007,-56.79164179031373,-3.4334838,20.349373,16.202541,55.975,-31.99839,-3.7526462,22.378069,-7.5492387,-44.985214,39.008553,-34.355633,4.4193006,-1.2285377,-5.841705,12.257182,-15.4877,30.779795,-11.049099,35.80048,-15.87279,22.481712,-9.983253,-6.884623,-21.514172,9.525688,56.468624,38.156525,1.5953581,8.618904
208,-3.359682083129883,-0.8964375853538513,118.9259262084961,-5.966275025939234,-18.807962376651638,-56.49548626159402,-3.6686916,20.231794,15.88887,56.438442,-32.324615,-3.717248,22.393732,-7.793731,-45.208794,39.593834,-34.67689,4.564813,-1.2305897,-5.880633,12.34963,-15.470477,30.795723,-11.03425,35.498306,-15.859012,22.503817,-9.925944,-6.7979183,-21.573036,9.533052,56.349052,38.300694,1.4459642,8.67958
209,-3.2697200775146484,-0.9527825713157654,118.796630859375,-5.996168941258399,-18.793653451314647,-56.211824261295355,-3.9057236,20.117996,15.596384,56.927544,-32.663456,-3.6624942,22.40932,-8.050691,-45.42703,40.194077,-35.02301,4.7073913,-1.2269381,-5.9033294,12.449409,-15.418919,30.82307,-11.021728,35.133896,-15.88741,22.505453,-9.881969,-6.671539,-21.66378,9.5058155,56.18568,38.478333,1.3088274,8.742362
210,-3.1775097846984863,-1.0095895528793335,118.6635971069336,-6.0210596236782585,-18.77895292093175,-55.93652333791391,-4.1475334,20.003998,15.316548,57.43881,-33.01314,-3.594174,22.422373,-8.320533,-45.64211,40.81341,-35.386948,4.8498526,-1.2215923,-5.930189,12.535018,-15.376779,30.845644,-11.026061,34.777466,-15.928841,22.493288,-9.838808,-6.5565934,-21.72703,9.461872,56.059998,38.659187,1.1601801,8.796312
211,-3.0777721405029297,-1.0723146200180054,118.52963256835938,-6.050315758432742,-18.766508212198644,-55.66765552865007,-4.3815846,19.896873,15.046002,57.956726,-33.369476,-3.5243325,22.441946,-8.58648,-45.84996,41.43068,-35.748592,4.991661,-1.2110012,-5.947315,12.624231,-15.325921,30.87655,-11.040373,34.402786,-15.977714,22.480656,-9.792392,-6.4077754,-21.799616,9.395649,55.898094,38.839977,1.019907,8.849576
212,-2.9748947620391846,-1.1445703506469727,118.39588928222656,-6.08901446885838,-18.7616166517924,-55.40450650903358,-4.596352,19.803413,14.780961,58.468403,-33.72931,-3.4648023,22.476908,-8.834137,-46.04718,42.028027,-36.088795,5.13234,-1.2034663,-5.958332,12.706429,-15.278637,30.904234,-11.063987,34.05257,-16.006483,22.47659,-9.728574,-6.2552705,-21.852875,9.331092,55.737904,38.995335,0.8813221,8.891137
213,-2.8740463256835938,-1.210898756980896,118.26048278808594,-6.145032173833352,-18.768765054014867,-55.14562594287808,-4.785008,19.73359,14.518031,58.97269,-34.09323,-3.422223,22.540443,-9.048325,-46.239067,42.585526,-36.401806,5.2664356,-1.1889728,-5.952178,12.795358,-15.227267,30.94053,-11.109105,33.702473,-16.02191,22.483816,-9.635291,-6.0568,-21.908052,9.25555,55.526867,39.1339,0.7533425,8.924524
214,-2.766967535018921,-1.281636357307434,118.125244140625,-6.2141947788775616,-18.78424312931807,-54.891575043412196,-4.9555507,19.681263,14.259567,59.47706,-34.463203,-3.388984,22.623526,-9.240238,-46.424843,43.118908,-36.698063,5.395217,-1.1794454,-5.9353805,12.877889,-15.171929,30.972181,-11.163509,33.3661,-16.020422,22.49536,-9.519531,-5.854298,-21.943996,9.1861315,55.32011,39.258324,0.62402433,8.94441
215,-2.654796838760376,-1.3557592630386353,117.99308013916016,-6.281458790093095,-18.800009493037958,-54.64550299897952,-5.1162834,19.629606,14.011455,59.974712,-34.834644,-3.355953,22.703299,-9.434739,-46.59468,43.65816,-36.98099,5.531867,-1.1746763,-5.919603,12.952131,-15.119468,31.00178,-11.215386,33.04825,-16.007957,22.513474,-9.408462,-5.6542735,-21.969849,9.109903,55.115974,39.357773,0.49981022,8.959657
216,-2.5456528663635254,-1.428206205368042,117.86160278320312,-6.335882036960604,-18.807468285260235,-54.4099971477945,-5.275511,19.561586,13.778863,60.458755,-35.20263,-3.3135726,22.755579,-9.653359,-46.734745,44.23136,-37.252434,5.6830196,-1.1705126,-5.9168177,13.018874,-15.07932,31.035269,-11.256959,32.751324,-15.992856,22.540583,-9.329391,-5.454932,-21.992682,9.006311,54.903805,39.420036,0.38812813,8.979292
217,-2.431267023086548,-1.4982019662857056,117.73185729980469,-6.3734991446248,-18.802313114764132,-54.185320509415405,-5.4373093,19.469608,13.563224,60.926453,-35.566086,-3.2565606,22.759977,-9.914899,-46.829914,44.87632,-37.50414,5.860974,-1.1763923,-5.93155,13.071362,-15.045315,31.067171,-11.269208,32.47936,-15.959206,22.58077,-9.300734,-5.2730393,-22.007685,8.8833275,54.701527,39.430103,0.2841108,9.000717
218,-2.3151588439941406,-1.5638705492019653,117.60345458984375,-6.399416825557612,-18.78985187975203,-53.96982944365566,-5.5966406,19.364347,13.361157,61.38201,-35.92763,-3.190759,22.73395,-10.203161,-46.890423,45.56743,-37.736298,6.056796,-1.1963403,-5.9554167,13.109198,-15.010933,31.091795,-11.255272,32.230804,-15.904866,22.631369,-9.30415,-5.1132646,-22.011059,8.755844,54.51781,39.39932,0.18453687,9.019003
219,-2.1930696964263916,-1.6373984813690186,117.4729232788086,-6.4209428121462775,-18.775451218749524,-53.76459686524397,-5.748227,19.255901,13.171832,61.82906,-36.288128,-3.1234767,22.711123,-10.490179,-46.94342,46.23814,-37.970417,6.2519345,-1.226077,-5.9843464,13.135645,-14.981599,31.110758,-11.232927,32.008442,-15.852172,22.683128,-9.311144,-4.980849,-22.00622,8.629575,54.35864,39.355145,0.09397198,9.037359
220,-2.0695486068725586,-1.7041549682617188,117.34226989746094,-6.441995123957168,-18.763866494257776,-53.57050173413223,-5.8866105,19.15356,12.994591,62.270496,-36.647808,-3.0620513,22.724112,-10.748527,-47.016163,46.824543,-38.22863,6.428211,-1.2493802,-6.016857,13.165285,-14.958559,31.136103,-11.223938,31.793135,-15.826787,22.729593,-9.295205,-4.85033,-21.993872,8.481864,54.192383,39.31454,0.021180931,9.061405
221,-1.9441674947738647,-1.769946575164795,117.21044921875,-6.457515101059391,-18.758207329452592,-53.39357898367675,-6.008578,19.058422,12.837139,62.711514,-37.009453,-3.0081394,22.7868,-10.973474,-47.11938,47.299953,-38.53655,6.57734,-1.2644093,-6.056934,13.194958,-14.955062,31.176466,-11.248253,31.595558,-15.860716,22.768845,-9.234573,-4.7343326,-21.970541,8.319922,54.031593,39.297882,-0.033666614,9.09841
222,-1.8224658966064453,-1.8384923934936523,117.07691955566406,-6.468788354617963,-18.75545724595039,-53.2315148586899,-6.118013,18.96637,12.697027,63.149685,-37.372025,-2.9578762,22.879892,-11.178262,-47.237743,47.70178,-38.874203,6.7101693,-1.2965711,-6.0952525,13.212708,-14.948877,31.207287,-11.2671175,31.419622,-15.922012,22.802887,-9.148816,-4.6643357,-21.95008,8.180929,53.907932,39.301296,-0.075742066,9.141124
223,-1.6974035501480103,-1.905455231666565,116.95116424560547,-6.484363168240358,-18.751176806002427,-53.07222510747268,-6.2191186,18.87847,12.559142,63.573746,-37.72937,-2.9107237,22.98625,-11.363199,-47.360138,48.06148,-39.201572,6.840516,-1.3168708,-6.142408,13.232636,-14.956902,31.252789,-11.301495,31.260073,-15.986831,22.834337,-9.0675955,-4.5803123,-21.915756,8.011039,53.770676,39.284843,-0.10186003,9.181722
224,-1.5720667839050293,-1.9808741807937622,116.83329010009766,-6.515223166330042,-18.741915888473848,-52.90398170955139,-6.316657,18.796776,12.407633,63.972485,-38.074554,-2.8660514,23.090282,-11.526832,-47.475487,48.40763,-39.476135,6.981286,-1.3536266,-6.1887536,13.242143,-14.951087,31.29419,-11.310369,31.123592,-16.005766,22.860966,-9.020785,-4.5156617,-21.870544,7.856643,53.663765,39.241024,-0.11783008,9.203315
225,-1.4437696933746338,-2.0505669116973877,116.72480010986328,-6.575293451118673,-18.723439675531967,-52.71974390474301,-6.418388,18.731739,12.229319,64.348724,-38.409653,-2.8259792,23.204334,-11.642173,-47.59526,48.701527,-39.696384,7.1358156,-1.4206717,-6.215053,13.231218,-14.920988,31.310623,-11.271911,31.02027,-15.941927,22.878918,-9.02771,-4.4778647,-21.832542,7.7360826,53.59786,39.17125,-0.11371389,9.19784
226,-1.3136144876480103,-2.1294026374816895,116.6195297241211,-6.653633733740748,-18.698634070486513,-52.527161024061094,-6.519232,18.67877,12.035813,64.70553,-38.73654,-2.7900646,23.330927,-11.719187,-47.720505,48.94433,-39.88235,7.2972918,-1.5018454,-6.2305503,13.207657,-14.884398,31.314848,-11.211834,30.947323,-15.828992,22.890215,-9.0684595,-4.451421,-21.794079,7.6248746,53.55279,39.07933,-0.09048982,9.175337
227,-1.1877644062042236,-2.2055766582489014,116.52662658691406,-6.729760702860436,-18.674853409787296,-52.33625211941152,-6.6065865,18.618782,11.847697,65.03671,-39.050213,-2.7540498,23.439909,-11.809277,-47.82345,49.22057,-40.021183,7.4622355,-1.5838224,-6.256696,13.187822,-14.844056,31.31191,-11.139588,30.885069,-15.701146,22.900404,-9.116153,-4.434642,-21.741364,7.504243,53.519333,38.95962,-0.06842118,9.145555
228,-1.0540672540664673,-2.2744431495666504,116.44066619873047,-6.78342190450741,-18.657334423975307,-52.15555359704652,-6.666355,18.533207,11.685589,65.33423,-39.34295,-2.7132761,23.501549,-11.9636755,-47.87612,49.614624,-40.102993,7.626938,-1.6581241,-6.3078213,13.178989,-14.819235,31.303936,-11.081002,30.839857,-15.608165,22.912525,-9.138467,-4.4312563,-21.6799,7.3807344,53.497566,38.83172,-0.064662784,9.119814
229,-0.9248580932617188,-2.3408238887786865,116.36149597167969,-6.804182062997396,-18.650662587193604,-51.985394592066086,-6.6877995,18.408068,11.556422,65.58493,-39.609455,-2.6657455,23.524996,-12.19754,-47.888752,50.127796,-40.125183,7.8009825,-1.7176592,-6.396643,13.184509,-14.82371,31.29096,-11.049839,30.822262,-15.5632105,22.92558,-9.115643,-4.433569,-21.604063,7.2348204,53.483627,38.681915,-0.08587713,9.094883
230,-0.78781658411026,-2.4019775390625,116.28524017333984,-6.803767718962487,-18.65060343708478,-51.82170186752581,-6.680848,18.257208,11.448116,65.79698,-39.852047,-2.6136258,23.520643,-12.480051,-47.868515,50.717102,-40.09406,7.979323,-1.7758536,-6.502677,13.201786,-14.830959,31.276384,-11.024443,30.811893,-15.551836,22.93834,-9.069182,-4.4363184,-21.546131,7.0853634,53.462692,38.528538,-0.11311908,9.073105
231,-0.6505005359649658,-2.466303586959839,116.2145004272461,-6.796911811677815,-18.65302387537149,-51.667650753391804,-6.662726,18.101517,11.354006,65.99514,-40.08724,-2.560837,23.460304,-12.803828,-47.787292,51.414875,-40.00868,8.146159,-1.8222039,-6.6153708,13.229685,-14.851074,31.260244,-11.010483,30.810083,-15.559284,22.953943,-9.026717,-4.4374337,-21.495314,6.938325,53.433506,38.382587,-0.1433668,9.062209
232,-0.5147215723991394,-2.525519847869873,116.14617156982422,-6.795147812882157,-18.65561818126631,-51.527185505836314,-6.6505923,17.961918,11.2673855,66.20383,-40.326473,-2.5104532,23.317469,-13.157798,-47.6176,52.24662,-39.86593,8.285323,-1.8519863,-6.7209673,13.265679,-14.886996,31.24587,-11.011161,30.813496,-15.577764,22.97516,-9.015524,-4.437722,-21.456825,6.8129044,53.394382,38.267475,-0.17056735,9.0725765
233,-0.3792453706264496,-2.580378293991089,116.07435607910156,-6.800375687914628,-18.655317106326635,-51.40598865245902,-6.64978,17.84296,11.192137,66.42815,-40.573086,-2.4651704,23.078602,-13.546353,-47.351864,53.232605,-39.66941,8.388506,-1.874432,-6.8153577,13.306172,-14.92664,31.239805,-11.009625,30.818447,-15.604376,23.00998,-9.054131,-4.453442,-21.445568,6.741956,53.353058,38.205288,-0.19184887,9.114598
234,-0.2450040727853775,-2.627039670944214,115.9958267211914,-6.805152439534178,-18.654041895112965,-51.30040827414815,-6.651291,17.733185,11.12989,66.65485,-40.81933,-2.4223926,22.759672,-13.970129,-47.004513,54.350353,-39.42011,8.466683,-1.8827202,-6.907876,13.355701,-14.973319,31.236656,-11.012001,30.823792,-15.638994,23.055077,-9.1242695,-4.4741855,-21.447197,6.6907477,53.304996,38.16829,-0.2120627,9.180197
235,-0.12844809889793396,-2.663424491882324,115.91496276855469,-6.81182408021811,-18.65652461009697,-51.200751581753806,-6.6508136,17.631433,11.071086,66.88423,-41.066128,-2.378221,22.375376,-14.414053,-46.57776,55.567326,-39.103935,8.530381,-1.8851641,-6.995789,13.41787,-15.012977,31.237383,-11.020681,30.809807,-15.695074,23.095911,-9.201688,-4.4924493,-21.461437,6.6519127,53.243862,38.14977,-0.2300016,9.254256
236,-0.006098505109548569,-2.703655242919922,115.83219909667969,-6.825949342434131,-18.666938104906436,-51.0970636973163,-6.645076,17.536203,11.005385,67.116806,-41.313187,-2.328453,21.939667,-14.861992,-46.074844,56.85298,-38.711647,8.592741,-1.8688157,-7.068941,13.50962,-15.045348,31.246973,-11.060086,30.746866,-15.7996025,23.118387,-9.262075,-4.4497843,-21.51273,6.5795403,53.10387,38.14984,-0.22999994,9.332129
237,0.11533531546592712,-2.749296188354492,115.74835968017578,-6.851633517504303,-18.682691669456762,-50.987790959790374,-6.6406355,17.453518,10.928501,67.36088,-41.56385,-2.2659361,21.460196,-15.3079815,-45.517426,58.206734,-38.238194,8.678116,-1.8675634,-7.1298203,13.609699,-15.020869,31.267641,-11.102903,30.622223,-15.959578,23.101595,-9.3055315,-4.4170675,-21.58202,6.5327005,52.96582,38.182045,-0.22364454,9.402125
238,0.23871593177318573,-2.7877914905548096,115.6683120727539,-6.885734017588493,-18.702606521671342,-50.8783506768631,-6.6367273,17.381998,10.846511,67.612854,-41.817894,-2.1948779,20.925915,-15.755562,-44.895092,59.63972,-37.688896,8.774852,-1.8701949,-7.180818,13.725088,-14.955055,31.303822,-11.149245,30.441557,-16.166412,23.059929,-9.345044,-4.377535,-21.673138,6.500352,52.80536,38.243984,-0.20783707,9.474293
