unveil-humanoid-operators/unveil-humanoid-operators.github.io/feature-analysis-animation/data/feature_matrix_extreme/age_jogging_turning_ankle_rom_low.csv
Frame,root_translateX,root_translateY,root_translateZ,root_rotateX,root_rotateY,root_rotateZ,left_hip_pitch_joint_dof,left_hip_roll_joint_dof,left_hip_yaw_joint_dof,left_knee_joint_dof,left_ankle_pitch_joint_dof,left_ankle_roll_joint_dof,right_hip_pitch_joint_dof,right_hip_roll_joint_dof,right_hip_yaw_joint_dof,right_knee_joint_dof,right_ankle_pitch_joint_dof,right_ankle_roll_joint_dof,waist_yaw_joint_dof,waist_roll_joint_dof,waist_pitch_joint_dof,left_shoulder_pitch_joint_dof,left_shoulder_roll_joint_dof,left_shoulder_yaw_joint_dof,left_elbow_joint_dof,left_wrist_roll_joint_dof,left_wrist_pitch_joint_dof,left_wrist_yaw_joint_dof,right_shoulder_pitch_joint_dof,right_shoulder_roll_joint_dof,right_shoulder_yaw_joint_dof,right_elbow_joint_dof,right_wrist_roll_joint_dof,right_wrist_pitch_joint_dof,right_wrist_yaw_joint_dof
0,2.2384188175201416,-0.14154309034347534,78.15042877197266,-0.5120430903767521,-2.6802748774170255,178.99315780036403,6.05669,5.6770973,15.80022,7.8264318,-11.656397,-4.553912,3.7024837,-5.2422185,-14.117683,9.257999,-10.086886,6.0039964,-2.7677836,1.9293894,10.3950815,-3.729436,16.006945,-34.016594,60.10882,-4.035117,6.933338,2.1158698,-0.54206735,-16.395206,21.025871,57.645954,-4.494552,7.8476033,-9.268718
1,2.24772047996521,-0.14350295066833496,78.15364837646484,-0.5128335087927725,-2.6722703589751036,178.99917977684748,6.0385737,5.6753225,15.787179,7.8448186,-11.65563,-4.5303955,3.7058275,-5.2440677,-14.12915,9.237547,-10.075614,6.0079107,-2.781104,1.9414333,10.391709,-3.7947466,16.054077,-34.228867,60.11028,-4.2013855,6.9623647,2.142391,-0.58190614,-16.417826,21.066116,57.685345,-4.4891653,7.8718243,-9.175005
2,2.2412405014038086,-0.1496945321559906,78.15569305419922,-0.5133089028650449,-2.6636327076762893,179.00545538103373,6.02018,5.67261,15.773216,7.862701,-11.654052,-4.5044456,3.7086763,-5.2465553,-14.141433,9.217419,-10.064905,6.012172,-2.7748313,1.9484202,10.387414,-3.867757,16.119991,-34.484108,60.104774,-4.3889384,6.9941244,2.170851,-0.5987196,-16.438818,21.07713,57.70806,-4.494539,7.8946295,-9.081239
3,2.2345573902130127,-0.15543565154075623,78.15569305419922,-0.5139909739150992,-2.6560324573843954,179.01131181411088,6.002413,5.6712923,15.7610855,7.8813334,-11.654061,-4.4833546,3.7107255,-5.2483034,-14.151819,9.200435,-10.055271,6.015728,-2.7701247,1.952679,10.386066,-3.935492,16.18506,-34.70658,60.098347,-4.556871,7.0217366,2.193654,-0.62444305,-16.453125,21.092453,57.737778,-4.4991164,7.9170794,-8.982896
4,2.2285947799682617,-0.15787889063358307,78.15482330322266,-0.5156319364760269,-2.6511115830862213,179.0163827503329,5.991607,5.6718483,15.753996,7.8903513,-11.652134,-4.474297,3.715096,-5.2468214,-14.158133,9.181649,-10.042909,6.017503,-2.7782526,1.9595686,10.388373,-4.0031533,16.218096,-34.833576,60.12216,-4.665338,7.0361543,2.2029073,-0.67358506,-16.458984,21.12415,57.78746,-4.504155,7.9392443,-8.872289
5,2.229111909866333,-0.16321486234664917,78.15299987792969,-0.5186930175879108,-2.6495433233076073,179.01852343974485,5.9909062,5.6755815,15.756923,7.8842773,-11.646467,-4.484503,3.7168021,-5.2416453,-14.154861,9.170343,-10.030756,6.0170884,-2.7561762,1.963392,10.399776,-4.053384,16.267363,-34.909344,60.122585,-4.7433662,7.039493,2.1973197,-0.6966551,-16.464989,21.13827,57.805813,-4.4900723,7.955668,-8.734919
6,2.2462499141693115,-0.17502550780773163,78.1518325805664,-0.5227950440934434,-2.6507731003710706,179.01918003632466,5.9967537,5.68203,15.766309,7.869984,-11.63975,-4.508324,3.7188213,-5.233282,-14.145621,9.160837,-10.017284,6.015139,-2.7401538,1.9677087,10.420089,-4.0957947,16.305265,-34.899742,60.131535,-4.7718616,7.0299964,2.1760333,-0.73370427,-16.467768,21.160791,57.829052,-4.468277,7.9672914,-8.577916
7,2.2489190101623535,-0.1714116930961609,78.15219116210938,-0.526814022842403,-2.6527845600834317,179.02085301747096,6.0036254,5.6882906,15.774549,7.8541613,-11.632825,-4.533843,3.7215338,-5.2248807,-14.1379795,9.152191,-10.004829,6.0120583,-2.7348502,1.9696809,10.445223,-4.118429,16.349712,-34.84494,60.118877,-4.7731175,7.019972,2.1475968,-0.7812702,-16.46884,21.195547,57.855156,-4.4597526,7.9877634,-8.424501
8,2.2448627948760986,-0.1536901444196701,78.15348815917969,-0.5293682459902819,-2.653726278880679,179.02601702435106,6.0052695,5.691699,15.773867,7.8455653,-11.627878,-4.549132,3.726158,-5.2198005,-14.139378,9.141646,-9.995158,6.0083175,-2.7225544,1.9733009,10.462666,-4.1652346,16.371187,-34.809025,60.134636,-4.765279,7.0133023,2.1225033,-0.8177652,-16.468384,21.214916,57.87994,-4.4982057,8.028966,-8.29478
9,2.2395639419555664,-0.1421000212430954,78.1563949584961,-0.5295801184878481,-2.652294922983585,179.0339941233286,5.998231,5.6906743,15.761846,7.8476634,-11.625538,-4.548572,3.7306461,-5.219883,-14.152476,9.13034,-9.990379,6.002527,-2.7061465,1.9747587,10.473491,-4.2243657,16.387306,-34.78893,60.157925,-4.7458653,7.0156918,2.0955825,-0.8541099,-16.46755,21.224802,57.91055,-4.604416,8.104943,-8.191336
10,2.2394375801086426,-0.14190424978733063,78.15834045410156,-0.5278759470468596,-2.650546171741896,179.04423407374932,5.987531,5.6862574,15.742519,7.854619,-11.624092,-4.539331,3.7351155,-5.2238574,-14.173327,9.1206255,-9.989544,5.9951243,-2.6966407,1.9693799,10.4938,-4.278433,16.412287,-34.747456,60.159626,-4.704672,7.023399,2.0584202,-0.8977051,-16.464638,21.230812,57.937008,-4.7617817,8.204427,-8.101459
11,2.2396228313446045,-0.14654187858104706,78.15916442871094,-0.5262870768278304,-2.649442034718052,179.05885486826233,5.9763074,5.6818233,15.718158,7.863546,-11.623633,-4.5287137,3.7442706,-5.2275176,-14.198971,9.107168,-9.9886465,5.988627,-2.6962504,1.9641546,10.516972,-4.313199,16.450209,-34.701324,60.127872,-4.658561,7.0346165,2.0278375,-0.9501385,-16.458828,21.24346,57.968407,-4.921731,8.304775,-8.029379
12,2.2425057888031006,-0.1480938345193863,78.1617660522461,-0.5270288934477292,-2.6497764331252704,179.07903470008253,5.96782,5.681227,15.6924,7.8695884,-11.622195,-4.5242724,3.7601082,-5.2268395,-14.225833,9.087753,-9.984119,5.9855766,-2.6976852,1.9581022,10.535253,-4.3496475,16.496609,-34.679394,60.0954,-4.634744,7.037327,2.013077,-0.9931092,-16.450912,21.266743,57.994797,-5.0318904,8.381854,-7.97769
13,2.2520012855529785,-0.15525692701339722,78.16449737548828,-0.531693720352947,-2.6530118606723563,179.10885668671082,5.9627094,5.6871376,15.663006,7.87544,-11.62287,-4.529637,3.790003,-5.2186313,-14.255492,9.053855,-9.972594,5.9894075,-2.7045088,1.9598546,10.548406,-4.3945227,16.53601,-34.691772,60.071026,-4.6368027,7.0267673,2.0282326,-1.0318893,-16.445177,21.307928,58.024,-5.076493,8.428683,-7.956967
14,2.245753765106201,-0.14571022987365723,78.16712951660156,-0.5387570443052417,-2.6583541499128422,179.14621525145782,5.960818,5.6966553,15.629593,7.8792086,-11.623954,-4.5402436,3.8302033,-5.2056913,-14.288978,9.010154,-9.957174,5.997858,-2.7187746,1.963162,10.560727,-4.434876,16.584436,-34.72315,60.033302,-4.655009,7.009075,2.0625045,-1.0757301,-16.439854,21.36788,58.058804,-5.0782833,8.458174,-7.9628243
15,2.2326605319976807,-0.1328316479921341,78.16956329345703,-0.5457022792136758,-2.6636948648941767,179.1842031296782,5.9581614,5.7063384,15.595917,7.8842664,-11.624584,-4.55118,3.8681395,-5.1934423,-14.322045,8.971256,-9.942834,6.004998,-2.7299447,1.9708222,10.571114,-4.489597,16.616222,-34.758926,60.014553,-4.6752067,6.9896927,2.0977795,-1.1105006,-16.437311,21.419064,58.08469,-5.0624084,8.477407,-7.973424
16,2.233766794204712,-0.13049523532390594,78.16751861572266,-0.5490105754582117,-2.666981966791981,179.21612232132549,5.953181,5.7111454,15.5662,7.8893743,-11.622251,-4.5574365,3.8910155,-5.1882343,-14.350671,8.952942,-9.935506,6.005083,-2.7379541,1.9708666,10.5835285,-4.527582,16.667715,-34.786495,59.968075,-4.7038436,6.9814444,2.1137416,-1.142717,-16.432137,21.464872,58.097675,-5.031161,8.493065,-7.9712725
17,2.240933418273926,-0.132909893989563,78.16289520263672,-0.5474316333864334,-2.667454226666576,179.23820998366213,5.9451756,5.7090635,15.542159,7.8944297,-11.614996,-4.5571036,3.8898566,-5.1934834,-14.372214,8.967637,-9.937429,5.9931817,-2.7285247,1.9689946,10.598621,-4.586269,16.701231,-34.797424,59.94509,-4.726606,6.9853716,2.1008227,-1.1817476,-16.428215,21.486502,58.107243,-4.9804425,8.505288,-7.9478426
18,2.246330499649048,-0.13351128995418549,78.16007995605469,-0.542840325600342,-2.6661288872949696,179.2548639574972,5.933768,5.7030835,15.52122,7.9020357,-11.605314,-4.5530148,3.872937,-5.205551,-14.389398,9.005762,-9.946486,5.973553,-2.71335,1.9684408,10.610041,-4.65189,16.717806,-34.80122,59.934387,-4.7528443,6.997955,2.072723,-1.2122651,-16.426203,21.494358,58.105305,-4.913032,8.511738,-7.9156246
19,2.246384620666504,-0.13188913464546204,78.16108703613281,-0.5367880347404366,-2.6644988440348634,179.27089918004745,5.922801,5.6956725,15.501326,7.9085507,-11.595469,-4.5474567,3.854083,-5.2193313,-14.405922,9.046363,-9.95851,5.9538903,-2.6995113,1.9499075,10.635389,-4.6846633,16.797163,-34.803055,59.856995,-4.7878165,7.0144715,2.034861,-1.2501544,-16.413073,21.501295,58.0937,-4.839322,8.511886,-7.8788753
20,2.238908052444458,-0.11728347837924957,78.16398620605469,-0.5323814591754124,-2.6639190690129095,179.29127312286704,5.913091,5.6908345,15.479762,7.91517,-11.589314,-4.542434,3.850606,-5.2277207,-14.425736,9.062729,-9.967221,5.941917,-2.689151,1.9479657,10.649714,-4.743713,16.82047,-34.806587,59.842896,-4.797506,7.015613,2.012954,-1.2725669,-16.408117,21.503498,58.08021,-4.788903,8.509808,-7.8434787
21,2.2317659854888916,-0.10796884447336197,78.16728210449219,-0.530212345531088,-2.665090566317785,179.31864806445748,5.906926,5.6899014,15.454836,7.920934,-11.589596,-4.537928,3.8706083,-5.228313,-14.450417,9.043615,-9.973111,5.9414287,-2.6848981,1.9433166,10.667433,-4.784374,16.865263,-34.822067,59.80361,-4.7909317,7.00578,2.005425,-1.2880805,-16.39644,21.502424,58.060192,-4.7644486,8.506524,-7.8141255
22,2.226489305496216,-0.10012397170066833,78.17002868652344,-0.5290569536230769,-2.6670311072577335,179.34999037419303,5.901444,5.6912847,15.42793,7.928798,-11.595116,-4.533014,3.9051268,-5.224135,-14.477966,9.001664,-9.977556,5.9477005,-2.6822584,1.933344,10.687393,-4.813705,16.92816,-34.84409,59.7489,-4.772161,6.988107,2.003448,-1.306631,-16.376333,21.499683,58.041973,-4.7498016,8.50046,-7.786715
23,2.2246651649475098,-0.0945877656340599,78.17159271240234,-0.5271737484739002,-2.6691773435257464,179.38162720923427,5.8967075,5.691619,15.402136,7.9334793,-11.598484,-4.5286145,3.9378483,-5.221018,-14.505757,8.962898,-9.9832945,5.955667,-2.6830301,1.9194647,10.709709,-4.834653,17.000168,-34.861233,59.684914,-4.7555337,6.9676776,2.004485,-1.3205249,-16.348911,21.492037,58.019325,-4.7517657,8.486667,-7.754928
24,2.2277188301086426,-0.0938638225197792,78.17119598388672,-0.5234732035706117,-2.67091736616483,179.4099151818612,5.8899045,5.6886005,15.380112,7.935854,-11.595438,-4.52561,3.9555874,-5.223696,-14.531789,8.945925,-9.988737,5.960348,-2.6857128,1.9217579,10.72749,-4.884769,17.014763,-34.86436,59.679596,-4.7467513,6.943615,2.0113592,-1.3323036,-16.34301,21.489185,57.997795,-4.7559085,8.462031,-7.710901
25,2.232947826385498,-0.09456872195005417,78.17152404785156,-0.5153958301991236,-2.6720760970312702,179.43248813425754,5.8807077,5.6791887,15.365686,7.932671,-11.581488,-4.5247126,3.9467013,-5.2369566,-14.554108,8.969851,-9.997805,5.9597955,-2.6746902,1.908439,10.762479,-4.931435,17.061398,-34.860653,59.645004,-4.769063,6.9216175,2.0173447,-1.3693781,-16.323969,21.470057,57.993793,-4.7687483,8.41084,-7.6425533
26,2.242291212081909,-0.09602676331996918,78.1744384765625,-0.5048398820324483,-2.672638736314449,179.45174631212845,5.8691707,5.6661897,15.356199,7.926813,-11.561085,-4.525297,3.9207358,-5.2566476,-14.574385,9.019841,-10.009724,5.9568777,-2.6675653,1.889807,10.803435,-4.968766,17.117744,-34.839043,59.598385,-4.8063374,6.898084,2.0252144,-1.4118737,-16.301908,21.447836,57.992447,-4.796281,8.340849,-7.5573792
27,2.260143280029297,-0.08611007779836655,78.1724624633789,-0.49443469164298426,-2.6736209798276795,179.4713750065673,5.858086,5.652516,15.345083,7.919831,-11.539271,-4.52641,3.89412,-5.2768316,-14.595268,9.071101,-10.020553,5.953583,-2.6614842,1.8734775,10.846371,-5.007247,17.168158,-34.81618,59.55577,-4.847289,6.8778615,2.0322282,-1.4647444,-16.283348,21.438267,57.9961,-4.814969,8.27594,-7.4773903
28,2.264409065246582,-0.07899484783411026,78.17168426513672,-0.48693269571069,-2.675762369363384,179.4951235964692,5.848728,5.6420608,15.32554,7.916042,-11.522467,-4.5272365,3.8820717,-5.291657,-14.619379,9.101967,-10.028435,5.951706,-2.6584227,1.8627237,10.884085,-5.0471826,17.208689,-34.806377,59.524036,-4.8838124,6.8665977,2.0343943,-1.5038177,-16.26865,21.443869,57.98255,-4.824277,8.239802,-7.4240065
29,2.2672433853149414,-0.07477900385856628,78.1713638305664,-0.4847994082708859,-2.681264194503943,179.52446781299264,5.8425894,5.638252,15.293628,7.9197454,-11.514944,-4.5286317,3.895063,-5.296439,-14.6482315,9.098317,-10.029474,5.9517303,-2.655306,1.8582982,10.918924,-5.0944915,17.239594,-34.81841,59.506653,-4.917557,6.868411,2.0280502,-1.53759,-16.257729,21.474611,57.95567,-4.8113575,8.246717,-7.409382
30,2.271118402481079,-0.07031522691249847,78.17159271240234,-0.485977997662198,-2.6889498705449935,179.55728776427787,5.838918,5.6380944,15.253787,7.9274645,-11.512629,-4.530673,3.9217577,-5.295789,-14.680374,9.076421,-10.026693,5.9528556,-2.653448,1.8596255,10.9524145,-5.141936,17.263014,-34.841682,59.493423,-4.9507785,6.8811536,2.01715,-1.5658377,-16.249475,21.520786,57.917625,-4.788041,8.280935,-7.4196863
31,2.269021511077881,-0.07144258916378021,78.17255401611328,-0.4865572836214542,-2.6947917185334824,179.5918792667681,5.833991,5.636464,15.211191,7.9328246,-11.50883,-4.5313997,3.948034,-5.296017,-14.713154,9.053357,-10.02507,5.954374,-2.657221,1.8581324,10.981388,-5.179407,17.293379,-34.869526,59.474648,-4.9848313,6.896842,2.0055218,-1.5947847,-16.238117,21.580534,57.880024,-4.758416,8.322317,-7.439593
32,2.2712368965148926,-0.06519300490617752,78.174560546875,-0.4831725936416066,-2.6945115116142406,179.6264776591515,5.8211145,5.629354,15.1711,7.9376006,-11.501962,-4.528879,3.9575531,-5.3036556,-14.744006,9.050175,-10.031578,5.955791,-2.6610143,1.8541318,11.006574,-5.219149,17.319519,-34.89557,59.464813,-5.0093575,6.9064007,1.9973794,-1.6269777,-16.227598,21.633686,57.84801,-4.731804,8.3506775,-7.448804
33,2.2766873836517334,-0.06552845239639282,78.17684936523438,-0.472791620722791,-2.684214609455173,179.66149293947456,5.796679,5.611899,15.133856,7.9363875,-11.487065,-4.52041,3.942569,-5.3236556,-14.772535,9.072451,-10.0481205,5.9581785,-2.6661985,1.8543495,11.025816,-5.2620616,17.326788,-34.912735,59.46689,-5.0148716,6.907742,1.9960629,-1.6463966,-16.224428,21.65995,57.807083,-4.7285204,8.360541,-7.439702
34,2.2815427780151367,-0.06500682234764099,78.17858123779297,-0.4575812521008647,-2.666659526502859,179.6972619121062,5.764501,5.5872188,15.097469,7.930936,-11.467112,-4.507801,3.9090433,-5.352799,-14.799344,9.117124,-10.075448,5.9612966,-2.6779923,1.8418638,11.030572,-5.2975235,17.348886,-34.94901,59.472443,-5.0364203,6.904605,2.0014312,-1.6770984,-16.212416,21.718664,57.785107,-4.7012215,8.36303,-7.4338784
35,2.284583568572998,-0.0641012191772461,78.17933654785156,-0.4427486683292035,-2.6490329864893662,179.7332457861462,5.732038,5.563584,15.061944,7.925838,-11.446718,-4.4956183,3.8754892,-5.381108,-14.826129,9.16153,-10.101761,5.96324,-2.6906536,1.8309183,11.038654,-5.325895,17.37245,-34.97847,59.469654,-5.0475793,6.902652,2.005972,-1.7175131,-16.197084,21.769098,57.772293,-4.6792207,8.361133,-7.4240756
36,2.2885851860046387,-0.061982184648513794,78.17957305908203,-0.4334384639291203,-2.6385720782483406,179.76838550483876,5.706911,5.548769,15.0281105,7.9271445,-11.43239,-4.4883695,3.85949,-5.3993106,-14.854185,9.185926,-10.117001,5.9619827,-2.6994004,1.8290223,11.054608,-5.3613486,17.383696,-35.004173,59.477413,-5.0497856,6.9035807,2.0061255,-1.7469777,-16.18914,21.802479,57.747902,-4.667086,8.360158,-7.411249
37,2.2916719913482666,-0.05869130790233612,78.17805480957031,-0.4323787263118229,-2.638692972070619,179.8022287581263,5.693892,5.5476956,14.997138,7.9335203,-11.422791,-4.488671,3.867244,-5.4024415,-14.883938,9.184512,-10.11724,5.95507,-2.7081218,1.8368839,11.078511,-5.395199,17.38972,-35.027023,59.487442,-5.046158,6.9102764,2.0016782,-1.7668413,-16.18468,21.827177,57.714188,-4.664474,8.363649,-7.399861
38,2.291602611541748,-0.05528645217418671,78.17790222167969,-0.4368069134288572,-2.6451267241616185,179.8353715800163,5.6860285,5.556009,14.967985,7.9479413,-11.418821,-4.4937,3.8896315,-5.395607,-14.914665,9.166429,-10.107281,5.9440484,-2.713906,1.8454126,11.103624,-5.4318237,17.400265,-35.067787,59.5043,-5.0531354,6.919866,1.9974949,-1.7954253,-16.17632,21.866203,57.693027,-4.645802,8.36834,-7.393875
39,2.2895612716674805,-0.04990528151392937,78.17889404296875,-0.4417576298632953,-2.65264109955267,179.86852068329978,5.6814194,5.5643888,14.939274,7.959529,-11.415123,-4.499786,3.9159727,-5.387784,-14.945985,9.14392,-10.09577,5.933614,-2.7214441,1.8532014,11.125799,-5.4594903,17.414011,-35.108517,59.516563,-5.063421,6.930728,1.991993,-1.8193055,-16.164307,21.89926,57.674347,-4.629399,8.3678875,-7.384832
40,2.2891008853912354,-0.043037381023168564,78.1815185546875,-0.4425920285534606,-2.6562566034764274,179.90237229339104,5.674924,5.564428,14.908941,7.9646173,-11.410161,-4.5032806,3.9361217,-5.3877864,-14.976994,9.128216,-10.090776,5.9283385,-2.732169,1.8590363,11.143952,-5.4782844,17.424128,-35.138737,59.522102,-5.076143,6.93966,1.9850037,-1.8412946,-16.154501,21.918837,57.66079,-4.613864,8.354798,-7.3664184
41,2.290027141571045,-0.04128261283040047,78.18321228027344,-0.43666913928923196,-2.6547312110413603,179.93706815622514,5.6672645,5.5508847,14.8762455,7.9590807,-11.404146,-4.502772,3.9475088,-5.4002867,-15.007088,9.123998,-10.096674,5.93062,-2.7477303,1.8531026,11.147572,-5.479477,17.443695,-35.1711,59.51862,-5.1108136,6.9465995,1.980084,-1.844945,-16.130943,21.918512,57.651657,-4.610232,8.323806,-7.339592
42,2.290954351425171,-0.04514237493276596,78.1854248046875,-0.42752309874864114,-2.650910636951924,179.97082450394527,5.6584496,5.530799,14.843496,7.9504027,-11.399894,-4.500565,3.9550653,-5.419053,-15.035225,9.12451,-10.108042,5.9375587,-2.7690299,1.8545204,11.154475,-5.4783807,17.44769,-35.179752,59.516148,-5.1376047,6.9502745,1.971979,-1.8567761,-16.125101,21.916975,57.643715,-4.593974,8.285112,-7.302961
43,2.2863094806671143,-0.045873790979385376,78.18751525878906,-0.4181422463362563,-2.6453592774086747,-179.99369051427828,5.648726,5.5096736,14.809417,7.939565,-11.3942,-4.4978113,3.9625354,-5.4383492,-15.065871,9.122861,-10.118657,5.9458942,-2.7944877,1.8554678,11.157343,-5.4737134,17.449867,-35.19032,59.51257,-5.169935,6.953882,1.962588,-1.8661325,-16.12075,21.91312,57.640278,-4.575784,8.238645,-7.261837
44,2.2838797569274902,-0.04865001142024994,78.1868896484375,-0.4123198794644333,-2.6379795654446343,-179.95585199422248,5.633874,5.4956727,14.774427,7.933557,-11.3860035,-4.4962683,3.971974,-5.4507914,-15.101154,9.1114235,-10.120926,5.952115,-2.7974598,1.848795,11.150022,-5.4812527,17.462679,-35.24346,59.517765,-5.209743,6.9595857,1.9523499,-1.8792139,-16.090729,21.893135,57.66048,-4.554502,8.188142,-7.222645
45,2.2838549613952637,-0.04183020815253258,78.18811798095703,-0.41294475060969593,-2.6265763307360595,-179.91677387548629,5.6111917,5.4942713,14.741576,7.9338408,-11.3744135,-4.49757,3.9836957,-5.4506264,-15.1410055,9.082826,-10.10924,5.9554048,-2.8091002,1.8526303,11.146397,-5.488006,17.468653,-35.27408,59.520798,-5.2166524,6.964089,1.9266951,-1.8977131,-16.077093,21.904501,57.66412,-4.5018578,8.148305,-7.189333
46,2.278998374938965,-0.03736737370491028,78.18971252441406,-0.41761914436320074,-2.6116472766107686,-179.8756266035752,5.5815563,5.5003567,14.7087555,7.9392004,-11.36078,-4.500415,3.996577,-5.44311,-15.185098,9.042299,-10.088206,5.957688,-2.8235228,1.8608576,11.141153,-5.491834,17.473171,-35.297874,59.52024,-5.205757,6.968657,1.8914962,-1.9054481,-16.067663,21.919582,57.65167,-4.4421625,8.110383,-7.155999
47,2.276313066482544,-0.03423195332288742,78.191162109375,-0.4217197492221373,-2.598643539588869,-179.83747576031146,5.5557933,5.506333,14.678052,7.9436955,-11.346891,-4.502582,4.008765,-5.4359765,-15.226816,9.006332,-10.06887,5.9587646,-2.8388665,1.8660573,11.130832,-5.4890704,17.479229,-35.324566,59.51914,-5.1969104,6.973224,1.8596582,-1.8978896,-16.05573,21.93694,57.629726,-4.388181,8.074159,-7.123089
48,2.2771217823028564,-0.029667016118764877,78.19056701660156,-0.4244583649545722,-2.5929512339265717,-179.8053481878116,5.53676,5.510371,14.6488285,7.9558754,-11.340902,-4.502387,4.0261197,-5.4314194,-15.262523,8.9752245,-10.053699,5.9579806,-2.847555,1.8693836,11.123452,-5.4864163,17.484148,-35.3557,59.520916,-5.192101,6.976502,1.838125,-1.8895667,-16.045591,21.959866,57.607655,-4.3342113,8.038988,-7.0837336
49,2.2754738330841064,-0.028732171282172203,78.190185546875,-0.42111163496359877,-2.5984998938918373,-179.7832490877818,5.535722,5.5049424,14.62312,7.962797,-11.337132,-4.496716,4.041066,-5.4382343,-15.28732,8.973684,-10.055569,5.954795,-2.839647,1.860479,11.125337,-5.4838204,17.4947,-35.401707,59.518253,-5.1918163,6.980665,1.8378706,-1.9247578,-16.025215,22.009672,57.62523,-4.2565713,8.006193,-7.037802
50,2.2735517024993896,-0.0266408771276474,78.18950653076172,-0.41495496309557856,-2.612066718477689,-179.76776846565156,5.5453506,5.4953847,14.59972,7.9711556,-11.337101,-4.4874673,4.058279,-5.4501944,-15.305649,8.984175,-10.06405,5.9495463,-2.8339038,1.8557217,11.141785,-5.476178,17.497604,-35.422344,59.50685,-5.170187,6.9846697,1.843684,-1.918365,-16.019379,22.034967,57.587433,-4.2184544,7.9761496,-6.974925
51,2.2696032524108887,-0.026133665814995766,78.18938446044922,-0.4082454197436478,-2.627284677261144,-179.75610148992618,5.55868,5.485215,14.579694,7.978603,-11.339339,-4.4792366,4.074303,-5.4627185,-15.319435,8.999786,-10.07652,5.9440947,-2.8211312,1.8477263,11.155401,-5.4691377,17.501926,-35.454273,59.49833,-5.1593895,6.987308,1.8532184,-1.931794,-16.011442,22.080185,57.5713,-4.159598,7.951055,-6.9187045
52,2.2680811882019043,-0.025362838059663773,78.18963623046875,-0.40330606436825056,-2.6380035979972862,-179.7453228850775,5.5690637,5.477751,14.564435,7.9809303,-11.3403845,-4.4765534,4.0844874,-5.472175,-15.329947,9.016327,-10.091477,5.9404073,-2.8171482,1.8434404,11.161994,-5.453054,17.505081,-35.46885,59.48751,-5.154046,6.9866056,1.8520379,-1.9188105,-16.003986,22.104727,57.536198,-4.129238,7.931661,-6.874133
53,2.2670350074768066,-0.02642766572535038,78.19041442871094,-0.4014538129028778,-2.642475517437664,-179.73555941503102,5.5758133,5.474411,14.555296,7.97595,-11.340836,-4.4833903,4.087457,-5.476441,-15.335994,9.032596,-10.110678,5.938861,-2.8026643,1.8460237,11.173601,-5.4470425,17.505697,-35.473694,59.47546,-5.149532,6.9799943,1.8331454,-1.930802,-16.002043,22.112068,57.5173,-4.090612,7.9213233,-6.8424163
54,2.2651593685150146,-0.026155339553952217,78.19293975830078,-0.4014523259433114,-2.6442112175028534,-179.72818540328433,5.582309,5.4738007,14.551543,7.9656377,-11.341187,-4.496502,4.088047,-5.476524,-15.337472,9.045821,-10.131295,5.938337,-2.8017306,1.8532362,11.176844,-5.4338202,17.505783,-35.47193,59.465187,-5.1636314,6.9690766,1.8081664,-1.9166925,-16.00056,22.110506,57.481003,-4.076471,7.915739,-6.8230677
55,2.2627971172332764,-0.021906917914748192,78.19092559814453,-0.4003735045428896,-2.644844088457696,-179.72206418815446,5.5899534,5.4718347,14.5507555,7.9512568,-11.34006,-4.5091457,4.081295,-5.4794846,-15.336704,9.071613,-10.157403,5.9391036,-2.787428,1.8547364,11.179284,-5.419554,17.50633,-35.465355,59.453487,-5.169156,6.958735,1.7787496,-1.9041796,-15.995631,22.103312,57.44649,-4.060413,7.917716,-6.809199
56,2.2594075202941895,-0.02100180648267269,78.18982696533203,-0.3992126722221162,-2.6464508667973146,-179.71571613640876,5.5950165,5.470593,14.549394,7.944605,-11.34046,-4.5152864,4.0771017,-5.482837,-15.338743,9.093784,-10.176401,5.940452,-2.7686722,1.853594,11.189452,-5.414209,17.507668,-35.458103,59.44585,-5.172044,6.955176,1.7571222,-1.9241754,-15.985965,22.105303,57.448902,-4.0453353,7.914916,-6.7987676
57,2.255770683288574,-0.017421068623661995,78.18787384033203,-0.3978607744893509,-2.64969378839276,-179.70839163228044,5.5978904,5.4701357,14.547727,7.9471245,-11.342255,-4.5112014,4.076861,-5.4870253,-15.345069,9.109735,-10.183055,5.9430685,-2.748478,1.8521059,11.201335,-5.411711,17.508163,-35.45521,59.442047,-5.184571,6.959922,1.7489692,-1.9457197,-15.981936,22.121717,57.461143,-4.034883,7.906883,-6.792353
58,2.254713535308838,-0.017907684668898582,78.18437957763672,-0.39663736360925317,-2.6534933396332243,-179.7012401313971,5.5982094,5.4708457,14.547148,7.956386,-11.345369,-4.5009966,4.077586,-5.491546,-15.352909,9.123644,-10.182893,5.946779,-2.7415679,1.8494177,11.204519,-5.3954062,17.508007,-35.440357,59.43911,-5.2042828,6.9700985,1.7482139,-1.9222484,-15.978111,22.133888,57.445972,-4.0650964,7.895986,-6.791685
59,2.2534778118133545,-0.016143452376127243,78.182861328125,-0.39520077865066505,-2.657334874126797,-179.6940491189391,5.5985055,5.4711127,14.54549,7.96555,-11.347937,-4.489827,4.078752,-5.496421,-15.361904,9.137457,-10.182559,5.9505253,-2.7145512,1.8462197,11.22009,-5.39648,17.507908,-35.437073,59.43859,-5.212354,6.9823275,1.7461504,-1.9589299,-15.977591,22.158285,57.480793,-4.060903,7.8891397,-6.7921934
60,2.2536044120788574,-0.014984574168920517,78.1815414428711,-0.39365327444190124,-2.6617860210467237,-179.68754659237,5.60133,5.4706435,14.541344,7.972009,-11.350812,-4.4830813,4.0829086,-5.500541,-15.371077,9.148344,-10.186075,5.953192,-2.71142,1.8452462,11.224011,-5.3813634,17.507433,-35.42915,59.440933,-5.221095,6.992115,1.7373884,-1.9696269,-15.976836,22.181484,57.504623,-4.0865536,7.887619,-6.7939506
61,2.2503597736358643,-0.011864996515214443,78.18103790283203,-0.39200719231143555,-2.665133611143815,-179.68273067627928,5.6053605,5.4685435,14.533742,7.973525,-11.352976,-4.4818745,4.089266,-5.5032268,-15.380814,9.153951,-10.19449,5.95321,-2.7080352,1.84298,11.227573,-5.3707056,17.507244,-35.427864,59.45109,-5.212256,6.9990315,1.7162635,-1.9701453,-15.976603,22.188473,57.519634,-4.1309752,7.8974357,-6.7941413
62,2.2455525398254395,-0.009062258526682854,78.18071746826172,-0.3893784362546734,-2.6693421370423334,-179.67821609733681,5.611406,5.4645915,14.522855,7.9728136,-11.355181,-4.483386,4.096243,-5.5071983,-15.391878,9.163064,-10.209761,5.9519496,-2.7187636,1.8419843,11.21771,-5.342694,17.506134,-35.42425,59.461773,-5.192634,7.006893,1.6828198,-1.98315,-15.974391,22.210062,57.562244,-4.1907797,7.915222,-6.7944784
63,2.2386348247528076,-0.008723197504878044,78.18062591552734,-0.3874104715814677,-2.6745641788019476,-179.67376432257078,5.6195397,5.4613576,14.511783,7.97071,-11.357169,-4.487299,4.1073117,-5.5092597,-15.402072,9.165924,-10.223225,5.951348,-2.7263384,1.8401811,11.211763,-5.3222446,17.505247,-35.426147,59.478214,-5.172653,7.012686,1.6521491,-1.9901477,-15.972014,22.219131,57.599495,-4.250102,7.935124,-6.7970557
64,2.2337920665740967,-0.006856932304799557,78.18067932128906,-0.38644538539042156,-2.6833116745241994,-179.6685680980352,5.6317453,5.460883,14.503083,7.970552,-11.360973,-4.4933243,4.1248283,-5.5086284,-15.409449,9.162919,-10.232759,5.9536495,-2.7251241,1.8385923,11.212961,-5.3120356,17.504213,-35.435642,59.497578,-5.1607037,7.0167274,1.6314131,-2.0105076,-15.968479,22.227423,57.646534,-4.282115,7.9531417,-6.80336
65,2.2302145957946777,-0.003208878915756941,78.18279266357422,-0.3869789701343903,-2.696339724628063,-179.6619001211171,5.6513243,5.4634247,14.498759,7.9669876,-11.363924,-4.503562,4.1521783,-5.5039735,-15.412032,9.149277,-10.236659,5.9621596,-2.7237203,1.8374534,11.217629,-5.304962,17.503614,-35.448143,59.519325,-5.1644993,7.0178003,1.6263084,-2.02665,-15.965582,22.231989,57.69226,-4.2951374,7.969678,-6.8198338
66,2.2248098850250244,0.0006235245964489877,78.18649291992188,-0.38804009120520355,-2.710103633373468,-179.65475294941714,5.6719337,5.4682508,14.497023,7.965684,-11.369223,-4.5172834,4.1806498,-5.4977536,-15.410523,9.134639,-10.2401495,5.9748044,-2.728925,1.8359449,11.222662,-5.296868,17.503416,-35.45499,59.54174,-5.1749015,7.017286,1.6301453,-2.0253952,-15.963573,22.230593,57.722164,-4.306101,7.9860196,-6.842568
67,2.224062442779541,-0.0009571199188940227,78.18634033203125,-0.3906750832804819,-2.7308779228573705,-179.6468131585036,5.7014527,5.474608,14.49427,7.9621987,-11.373541,-4.5305967,4.2228017,-5.488217,-15.410931,9.107611,-10.236819,5.9857955,-2.7336,1.837464,11.225573,-5.2845297,17.50316,-35.47069,59.56658,-5.1928596,7.0145307,1.6366189,-2.0156143,-15.9602785,22.22307,57.753304,-4.3163695,8.000246,-6.863063
68,2.2192623615264893,0.004230913706123829,78.18622589111328,-0.39179508598606644,-2.7495577444021295,-179.63993416106626,5.724526,5.478882,14.488294,7.965141,-11.378728,-4.5383115,4.2527385,-5.483923,-15.414225,9.100476,-10.239869,5.9893284,-2.7356367,1.8353044,11.230299,-5.2785335,17.503096,-35.481876,59.591206,-5.1976137,7.015555,1.6361332,-2.01126,-15.957538,22.216915,57.778595,-4.317335,8.009539,-6.8686175
69,2.216531276702881,0.004487528000026941,78.18119049072266,-0.39322251460503876,-2.77131774353044,-179.63296959843387,5.7452664,5.4826727,14.475089,7.9775963,-11.38605,-4.53814,4.280099,-5.4827375,-15.42539,9.106002,-10.243714,5.9803443,-2.7256753,1.8319316,11.241529,-5.2827783,17.503214,-35.4973,59.61794,-5.1827397,7.019628,1.6228962,-2.0383246,-15.955138,22.216507,57.826653,-4.293491,8.010663,-6.8493624
70,2.2110705375671387,0.0061100320890545845,78.177001953125,-0.39451345018578193,-2.7954107431961384,-179.62583771835395,5.7648053,5.4861865,14.457292,7.996454,-11.394797,-4.532833,4.305238,-5.483966,-15.441291,9.12133,-10.248278,5.963187,-2.7350523,1.8270484,11.237335,-5.274209,17.503065,-35.51276,59.6513,-5.174652,7.0254807,1.6057687,-1.9969366,-15.9476595,22.19389,57.824665,-4.3172994,8.004712,-6.815874
71,2.2056729793548584,0.010509422980248928,78.17414093017578,-0.3946025778170224,-2.8184851255132672,-179.62033249719778,5.783757,5.4878516,14.441281,8.01389,-11.402244,-4.5262165,4.326023,-5.487328,-15.455538,9.142287,-10.256503,5.9458866,-2.733613,1.8216363,11.245276,-5.275002,17.503178,-35.518417,59.67689,-5.1539783,7.031818,1.58829,-2.0042665,-15.945657,22.190308,57.84795,-4.2974124,7.9984927,-6.7816257
72,2.2039785385131836,0.013175725005567074,78.17285919189453,-0.3922669847810416,-2.838810715551667,-179.61785224575212,5.803995,5.4870048,14.432958,8.0248575,-11.407775,-4.522214,4.342663,-5.4924445,-15.461859,9.164733,-10.271666,5.9365697,-2.7273035,1.8131778,11.246587,-5.2758126,17.503344,-35.526905,59.70298,-5.1478114,7.0352325,1.5812403,-2.0119793,-15.940847,22.184605,57.87255,-4.2716517,7.9915667,-6.7620454
73,2.1997005939483643,0.014798982068896294,78.17342376708984,-0.3856044195582124,-2.854054081155377,-179.62012945991634,5.8247457,5.48098,14.435609,8.025878,-11.409016,-4.5212893,4.354445,-5.500516,-15.456033,9.183871,-10.295598,5.9397106,-2.7208369,1.80053,11.240025,-5.2700596,17.503513,-35.528286,59.72223,-5.1611714,7.034914,1.5910965,-1.999792,-15.935319,22.178,57.869698,-4.237953,7.989977,-6.7685394
74,2.193864583969116,0.01736467331647873,78.17599487304688,-0.37592570006602155,-2.8663736964091098,-179.62592565920713,5.845754,5.4716005,14.445472,8.021483,-11.407786,-4.5216064,4.3625536,-5.5108676,-15.442293,9.202305,-10.325958,5.950176,-2.709186,1.7850031,11.22967,-5.26352,17.503656,-35.526527,59.73776,-5.1851635,7.032344,1.6115288,-1.9904767,-15.93044,22.173012,57.86344,-4.188541,7.9893417,-6.789627
75,2.1904919147491455,0.01955130323767662,78.1779556274414,-0.36756012171459695,-2.877415215037983,-179.63158822275628,5.8652024,5.463926,14.456918,8.017441,-11.4080305,-4.523534,4.37016,-5.5193844,-15.4283905,9.218626,-10.354754,5.961517,-2.6939323,1.7719747,11.22178,-5.2621994,17.503723,-35.524815,59.750896,-5.207908,7.0304418,1.6323293,-1.9956044,-15.929323,22.172318,57.8639,-4.134415,7.987418,-6.810781
76,2.189523458480835,0.02288873679935932,78.1776351928711,-0.3613022810643182,-2.891082681857836,-179.6365879809037,5.8885245,5.458904,14.468198,8.010011,-11.40948,-4.5270615,4.372243,-5.5280666,-15.417872,9.252954,-10.385476,5.968018,-2.6923938,1.7610604,11.209471,-5.2524176,17.50367,-35.51763,59.7656,-5.2251887,7.0302634,1.6486628,-1.971297,-15.9277115,22.166378,57.847614,-4.122191,7.977337,-6.8233976
77,2.1877241134643555,0.02579752542078495,78.17570495605469,-0.36157489029906537,-2.9063737215058207,-179.6379871246734,5.9108877,5.4619184,14.477048,8.00649,-11.41831,-4.5344014,4.3732834,-5.5310054,-15.415526,9.294576,-10.409511,5.966515,-2.6797547,1.7541883,11.207457,-5.256438,17.50391,-35.51132,59.782383,-5.214482,7.035884,1.6532702,-1.9757516,-15.926841,22.163054,57.85398,-4.132122,7.962414,-6.819048
78,2.1845645904541016,0.027655379846692085,78.17179107666016,-0.3664320768875975,-2.923418445398733,-179.63742962017724,5.9337926,5.470859,14.485473,8.00422,-11.431612,-4.5448713,4.3747096,-5.529593,-15.417722,9.339539,-10.428996,5.9606624,-2.67266,1.752897,11.207807,-5.2620263,17.50448,-35.502132,59.79913,-5.196294,7.0447626,1.6527044,-1.9824749,-15.926578,22.159088,57.864227,-4.1736846,7.942077,-6.805397
79,2.1841137409210205,0.02723422646522522,78.16777801513672,-0.37222591193770554,-2.939458236762261,-179.63599034519848,5.9537745,5.481054,14.491504,8.004735,-11.445024,-4.554513,4.376206,-5.5267973,-15.422571,9.382053,-10.444688,5.953736,-2.6732712,1.753586,11.204182,-5.264924,17.504839,-35.495472,59.815037,-5.183007,7.053429,1.6519926,-1.9795232,-15.926742,22.154436,57.868965,-4.2161345,7.919173,-6.791472
80,2.1843063831329346,0.02918267250061035,78.1640853881836,-0.37257968009549786,-2.955259927178635,-179.6364786445908,5.9747787,5.4842668,14.495698,8.002993,-11.451842,-4.559175,4.369238,-5.5322313,-15.4248495,9.441688,-10.470913,5.9495997,-2.6814299,1.747855,11.195696,-5.2597833,17.505636,-35.47707,59.829285,-5.165818,7.0594873,1.6480199,-1.9454815,-15.9270115,22.134964,57.850792,-4.249982,7.8869224,-6.7744713
81,2.1829638481140137,0.03438427671790123,78.16346740722656,-0.36970238848799375,-2.969480051506944,-179.6369160069513,5.9892464,5.483599,14.492277,8.010142,-11.452597,-4.556061,4.367078,-5.5393095,-15.429907,9.487395,-10.49168,5.948902,-2.6771748,1.739529,11.197593,-5.2675405,17.507244,-35.471127,59.83885,-5.1510005,7.061312,1.6460634,-1.9543115,-15.92872,22.124907,57.861618,-4.1890235,7.848709,-6.7605257
82,2.1809744834899902,0.03924006223678589,78.16443634033203,-0.36458674984911804,-2.9831325881381447,-179.6373566177943,6.000495,5.4801736,14.483956,8.022089,-11.449096,-4.5478654,4.3652945,-5.548739,-15.436795,9.531427,-10.511336,5.9498763,-2.6790679,1.7294501,11.193673,-5.2721624,17.50942,-35.472866,59.84961,-5.148421,7.0600414,1.6463306,-1.9595814,-15.931103,22.120934,57.87549,-4.0863614,7.8020306,-6.748023
83,2.1792893409729004,0.04381417855620384,78.16683959960938,-0.3594762249869216,-2.995077025583177,-179.63786988798356,6.0105057,5.4764824,14.475257,8.032537,-11.445152,-4.5398335,4.3623414,-5.557803,-15.442714,9.572734,-10.530764,5.9508348,-2.6920815,1.719869,11.181228,-5.2674904,17.510859,-35.470734,59.857307,-5.151333,7.059228,1.6470531,-1.9346725,-15.932327,22.110643,57.86732,-4.0022373,7.7604527,-6.7410045
84,2.177064895629883,0.044719286262989044,78.1673355102539,-0.3565529131222447,-3.0034944890711612,-179.63837848598695,6.018803,5.4753323,14.47039,8.039064,-11.446256,-4.5373054,4.355742,-5.564179,-15.44477,9.612086,-10.551345,5.9498496,-2.688675,1.7128223,11.176261,-5.2766495,17.512896,-35.474796,59.859398,-5.149494,7.062189,1.646433,-1.9506814,-15.934567,22.105618,57.890694,-3.9234931,7.737324,-6.7427874
85,2.177743911743164,0.045097026973962784,78.16349029541016,-0.35598208984156654,-3.0057413402803776,-179.64007934219745,6.0277734,5.4762325,14.472875,8.031185,-11.451487,-4.543954,4.3389807,-5.5682917,-15.439346,9.655322,-10.577665,5.94614,-2.6996508,1.7108457,11.156795,-5.271,17.516096,-35.46925,59.84934,-5.157614,7.0730486,1.6443076,-1.9046202,-15.937034,22.072174,57.86486,-3.9418745,7.7427163,-6.759157
86,2.173677921295166,0.044416606426239014,78.16363525390625,-0.3582306653804377,-3.0038173713438634,-179.64199089414097,6.0345516,5.480408,14.478692,8.019781,-11.462257,-4.556578,4.3201804,-5.5682135,-15.430146,9.691548,-10.603333,5.940508,-2.700594,1.7116461,11.141162,-5.276306,17.517023,-35.46724,59.835827,-5.164548,7.08862,1.6416098,-1.9072741,-15.937846,22.057041,57.879765,-3.9527352,7.768469,-6.7883863
87,2.173616647720337,0.04539865627884865,78.16184997558594,-0.35958120706468216,-3.0019424731679636,-179.64367955810633,6.0419044,5.483247,14.485232,8.006155,-11.471813,-4.5684853,4.2986317,-5.569949,-15.420056,9.733095,-10.63146,5.9348264,-2.695103,1.7135311,11.131127,-5.284929,17.519869,-35.465786,59.815582,-5.1655025,7.103022,1.637483,-1.8906355,-15.939818,22.012115,57.87574,-3.9988532,7.7949886,-6.8137765
88,2.173076629638672,0.05107283219695091,78.16204071044922,-0.3619226772586702,-3.0059928582559716,-179.6424974586209,6.0485206,5.488086,14.486424,8.004659,-11.480545,-4.5742955,4.2942553,-5.5683537,-15.416622,9.753696,-10.645868,5.929853,-2.680419,1.7114551,11.132265,-5.305017,17.5213,-35.47382,59.80531,-5.156989,7.1079917,1.6373849,-1.9237434,-15.941736,22.00943,57.91126,-3.9881766,7.807587,-6.8327136
89,2.1748275756835938,0.05504583194851875,78.16031646728516,-0.3616372059560807,-3.0199743881971712,-179.6395275488032,6.058622,5.49071,14.482928,8.014944,-11.484037,-4.5683084,4.304912,-5.56926,-15.418834,9.767717,-10.651187,5.925761,-2.6802177,1.7105471,11.140259,-5.320385,17.524553,-35.485558,59.797443,-5.1542497,7.1005473,1.6382055,-1.9355354,-15.945846,22.008987,57.936333,-3.9938798,7.7895117,-6.8339243
90,2.1790900230407715,0.06390142440795898,78.15845489501953,-0.36104918900089034,-3.0405403150007992,-179.63448794726142,6.070182,5.4935117,14.475817,8.035553,-11.486379,-4.5551457,4.3281636,-5.5697494,-15.425344,9.772088,-10.648396,5.921815,-2.6910808,1.7074043,11.149575,-5.330041,17.526318,-35.49443,59.79481,-5.150721,7.0840178,1.6409727,-1.9177504,-15.947915,22.009304,57.941364,-4.021427,7.7533784,-6.825822
91,2.1756765842437744,0.0583893284201622,78.15658569335938,-0.36119581485816843,-3.06087202001887,-179.62848787980278,6.0809574,5.496956,14.467151,8.055648,-11.487876,-4.5432343,4.355296,-5.5683503,-15.434369,9.767683,-10.641706,5.919167,-2.688501,1.7018207,11.166066,-5.350393,17.528051,-35.507263,59.795033,-5.1355295,7.064812,1.6463325,-1.9220793,-15.950514,22.017729,57.958153,-4.0210195,7.7191405,-6.8201156
92,2.177530288696289,0.0639706626534462,78.15852355957031,-0.36285818280535087,-3.075076424125244,-179.62340059294056,6.0895047,5.501459,14.459723,8.066991,-11.490613,-4.540916,4.3750005,-5.564901,-15.443064,9.763917,-10.6399355,5.919067,-2.6952016,1.6999987,11.17057,-5.3620186,17.530731,-35.523678,59.790543,-5.134579,7.050013,1.6588843,-1.8986369,-15.954752,22.024426,57.95179,-4.021777,7.6989655,-6.8307557
93,2.179497718811035,0.06687211245298386,78.15901184082031,-0.36651960013979556,-3.0807925333539203,-179.6214388133881,6.0972095,5.5069942,14.455845,8.062399,-11.4940815,-4.5543175,4.3843117,-5.558446,-15.4509735,9.75997,-10.644867,5.923915,-2.6936388,1.7010245,11.174205,-5.374224,17.531864,-35.532394,59.77587,-5.12301,7.0420923,1.6811156,-1.9002322,-15.956823,22.027893,57.95815,-3.9940264,7.703588,-6.8642054
94,2.1774373054504395,0.0691952332854271,78.16057586669922,-0.372212192709435,-3.083426638618749,-179.62113780895578,6.106749,5.5137444,14.4535265,8.047901,-11.497833,-4.5778656,4.3928075,-5.5486145,-15.459548,9.749368,-10.650937,5.9323897,-2.6927707,1.7056245,11.177963,-5.3874154,17.53325,-35.544605,59.757793,-5.116735,7.035743,1.7140172,-1.8968533,-15.959716,22.030985,57.95614,-3.9518359,7.720727,-6.9191527
95,2.176163911819458,0.0735192745923996,78.1611099243164,-0.3769548031044772,-3.0814217572938682,-179.61938935564598,6.1122527,5.5193152,14.450397,8.030983,-11.5013485,-4.601475,4.392131,-5.5408607,-15.46735,9.748118,-10.662621,5.9402094,-2.6885726,1.7096518,11.177113,-5.3996716,17.534363,-35.559074,59.73603,-5.1121836,7.0325904,1.744974,-1.8850418,-15.962889,22.030495,57.94625,-3.9088154,7.7403116,-6.9725857
96,2.1766550540924072,0.07275690883398056,78.16127014160156,-0.3783660343677037,-3.0745659545499002,-179.61309728426514,6.108893,5.521011,14.443785,8.017308,-11.502305,-4.6152024,4.377546,-5.5399485,-15.473333,9.766771,-10.681672,5.9430704,-2.684664,1.709524,11.171881,-5.4125943,17.53462,-35.565376,59.71464,-5.1037674,7.031901,1.7600772,-1.8793685,-15.964282,22.028473,57.946312,-3.8788524,7.7472844,-7.002347
97,2.1795530319213867,0.07297174632549286,78.15986633300781,-0.37424703912634577,-3.0609237615646956,-179.60143896543744,6.0916915,5.5172276,14.433813,8.013,-11.503328,-4.6127114,4.3377786,-5.550482,-15.473337,9.824067,-10.715026,5.9387636,-2.6797724,1.7040025,11.159006,-5.427832,17.53453,-35.567715,59.6928,-5.096457,7.0382056,1.7536175,-1.8727123,-15.966377,22.021269,57.95199,-3.8693712,7.734606,-6.999585
98,2.183380603790283,0.07845473289489746,78.15711975097656,-0.3667217429950424,-3.0415054129686254,-179.58595860453752,6.0647087,5.5098877,14.421281,8.012999,-11.504039,-4.600609,4.280668,-5.5679097,-15.469601,9.905864,-10.758009,5.9297767,-2.6851494,1.6958479,11.135139,-5.432009,17.53274,-35.54926,59.666622,-5.081728,7.0500555,1.7305307,-1.8073162,-15.969127,21.981585,57.909237,-3.9181166,7.7110057,-6.973259
99,2.1826963424682617,0.08345124125480652,78.1544418334961,-0.3584787591423256,-3.0199735370413503,-179.56699084035276,6.0350513,5.5012484,14.405255,8.011935,-11.50234,-4.588049,4.2240934,-5.5862365,-15.469588,9.983811,-10.800099,5.9195895,-2.682124,1.6864089,11.117095,-5.4455595,17.531752,-35.541306,59.6407,-5.068968,7.058457,1.7048403,-1.8050704,-15.9702635,21.970564,57.923157,-3.9259288,7.68531,-6.9434443
100,2.1807899475097656,0.08571001142263412,78.1516342163086,-0.35049694760380623,-2.998317232756137,-179.54537917345627,6.007326,5.4914036,14.385088,8.005533,-11.496342,-4.5836973,4.1764297,-5.603301,-15.479263,10.04758,-10.84032,5.911835,-2.696857,1.6781262,11.094668,-5.443818,17.52991,-35.52422,59.613472,-5.0544286,7.05446,1.6833277,-1.7572535,-15.9706135,21.946657,57.8986,-3.9677095,7.667143,-6.9209576
101,2.1805408000946045,0.09111064672470093,78.14891815185547,-0.3422114983146452,-2.9780827260099803,-179.52571173454967,5.985258,5.4793177,14.364375,7.9899573,-11.482473,-4.592273,4.1412487,-5.618709,-15.497459,10.088633,-10.876024,5.907627,-2.7015498,1.671342,11.083941,-5.4510036,17.52669,-35.520145,59.590576,-5.0339646,7.0287194,1.6667589,-1.7301978,-15.971183,21.92283,57.88665,-4.002143,7.66116,-6.9076242
102,2.176328659057617,0.10197077691555023,78.14682006835938,-0.3334242087240479,-2.957950308497232,-179.5059418016597,5.965003,5.465482,14.341748,7.9698987,-11.463514,-4.608374,4.1146803,-5.633175,-15.522272,10.113727,-10.908714,5.9049325,-2.7053623,1.6640033,11.076894,-5.458052,17.525675,-35.527287,59.56805,-5.016633,6.9882708,1.6530349,-1.7353302,-15.971495,21.922276,57.90324,-4.014515,7.6617436,-6.900509
103,2.1745870113372803,0.10911709070205688,78.14836883544922,-0.32631347089368357,-2.936107486813266,-179.47699777426098,5.9425077,5.452822,14.310423,7.9487467,-11.444503,-4.6256213,4.0950117,-5.6455803,-15.558221,10.128706,-10.937924,5.9026537,-2.7273824,1.6584456,11.059096,-5.4500904,17.523655,-35.532104,59.54359,-5.0083303,6.9487534,1.6444823,-1.6912344,-15.970255,21.909998,57.884914,-4.049117,7.662278,-6.8976097
104,2.174119710922241,0.11219827830791473,78.14240264892578,-0.3254170100395864,-2.9134175752751026,-179.42917065346037,5.9131727,5.448188,14.26189,7.9378695,-11.435323,-4.63834,4.0930896,-5.6490173,-15.612297,10.119789,-10.954414,5.8992763,-2.7573447,1.655591,11.042828,-5.439633,17.522127,-35.530563,59.5117,-4.9996386,6.9272757,1.641609,-1.6385527,-15.968343,21.89655,57.859123,-4.0583453,7.6590714,-6.898508
105,2.17331862449646,0.11725829541683197,78.14321899414062,-0.33488812753855773,-2.888563266477523,-179.35113233094773,5.8709044,5.45704,14.185491,7.9468575,-11.444036,-4.64394,4.118594,-5.638313,-15.696493,10.074015,-10.9510355,5.893876,-2.7925096,1.6559432,11.026913,-5.4289947,17.518787,-35.520866,59.469593,-4.9815373,6.9350743,1.6473098,-1.5836703,-15.963323,21.878263,57.83181,-4.0117598,7.644566,-6.903879
106,2.1648292541503906,0.12647467851638794,78.14661407470703,-0.3512274975894931,-2.8630501618195225,-179.25122135899156,5.82309,5.4741545,14.08885,7.964309,-11.462404,-4.645902,4.1674185,-5.6173153,-15.803887,9.996979,-10.932303,5.887476,-2.8578784,1.6584251,11.002446,-5.400491,17.511917,-35.48552,59.421917,-4.959614,6.960455,1.6597774,-1.4787644,-15.950652,21.844221,57.768536,-3.9727294,7.6214156,-6.914626
107,2.137004852294922,0.13394303619861603,78.1508560180664,-0.36697926229697675,-2.836114972437945,-179.14826056485708,5.774601,5.4901085,13.990082,7.9773593,-11.477556,-4.6470327,4.2134886,-5.5972977,-15.912081,9.9235525,-10.914977,5.8815513,-2.9189136,1.6633195,10.984331,-5.3758645,17.508137,-35.463814,59.369232,-4.9520593,6.986999,1.6749282,-1.4063783,-15.942909,21.831335,57.732998,-3.9088213,7.605003,-6.9277625
108,2.119697332382202,0.14944104850292206,78.15473937988281,-0.3787352999556183,-2.806802723681547,-179.05836971902434,5.722128,5.5025883,13.903443,7.991664,-11.487026,-4.651014,4.244591,-5.5809565,-16.003508,9.859688,-10.901103,5.876731,-2.9657795,1.6659288,10.977703,-5.3618374,17.504314,-35.445595,59.323597,-4.938833,6.999896,1.6830306,-1.3582526,-15.934053,21.82621,57.710308,-3.8810914,7.6159286,-6.9421105
109,2.114621639251709,0.1600227952003479,78.14928436279297,-0.3815022988057965,-2.7774203026705724,-178.98817496468416,5.675074,5.504412,13.836807,7.991964,-11.4804,-4.6590405,4.251388,-5.5755515,-16.067678,9.824758,-10.902073,5.8752275,-3.010438,1.6604369,10.97117,-5.3528967,17.495638,-35.431454,59.30215,-4.9335866,6.990131,1.6844631,-1.2905167,-15.90726,21.812452,57.67733,-3.9585533,7.666391,-6.96522
110,2.1120615005493164,0.17470592260360718,78.14958190917969,-0.379717787497123,-2.747334133623626,-178.92761929099095,5.6296926,5.5007386,13.780445,7.9849167,-11.464388,-4.6692624,4.246088,-5.575444,-16.117249,9.801346,-10.908693,5.875978,-3.0350742,1.6592827,10.982592,-5.3555665,17.492968,-35.442253,59.273315,-4.942066,6.968425,1.6823583,-1.2593985,-15.895813,21.815834,57.66226,-4.0447907,7.7456636,-6.9898176
111,2.110799551010132,0.18526875972747803,78.14642333984375,-0.3757188845063324,-2.712992590161293,-178.8731186256471,5.5813446,5.494526,13.729354,7.9733005,-11.44384,-4.6794186,4.2248855,-5.5790815,-16.159842,9.794454,-10.920967,5.8753777,-3.0551453,1.6572046,10.994524,-5.3600545,17.491734,-35.456673,59.246525,-4.958975,6.9439673,1.6786474,-1.2254096,-15.8881445,21.81887,57.645844,-4.140409,7.825809,-7.008484
112,2.11049747467041,0.1913488656282425,78.14273071289062,-0.3712946578899163,-2.6703642704268917,-178.82089278681633,5.523301,5.4885263,13.678525,7.96149,-11.423274,-4.687189,4.184681,-5.58506,-16.203644,9.807257,-10.938474,5.870035,-3.0585935,1.6475093,10.99459,-5.374904,17.489305,-35.494827,59.231705,-4.994469,6.927403,1.6798458,-1.1887869,-15.863738,21.813877,57.644314,-4.2022805,7.879824,-7.0147176
113,2.1165060997009277,0.19429540634155273,78.13540649414062,-0.36762178225172193,-2.6177162711834856,-178.77384524231852,5.4525995,5.4845505,13.628798,7.9525537,-11.405256,-4.691871,4.1184807,-5.593031,-16.24769,9.847181,-10.960593,5.8570204,-3.0582812,1.6401923,10.999122,-5.387372,17.488684,-35.52211,59.197765,-5.0362124,6.9230933,1.679787,-1.1825585,-15.84504,21.821867,57.664806,-4.202119,7.8990235,-6.9956956
114,2.110280752182007,0.21423234045505524,78.14136505126953,-0.3627761263175358,-2.556851895538436,-178.73283112234674,5.374241,5.4797916,13.582395,7.938864,-11.383681,-4.6946883,4.027472,-5.604837,-16.288113,9.915053,-10.990528,5.8388042,-3.0493586,1.626724,10.995581,-5.4063225,17.489382,-35.560673,59.171715,-5.096491,6.923557,1.6808131,-1.200486,-15.818335,21.84019,57.72181,-4.167981,7.8955216,-6.9637046
115,2.1221208572387695,0.23148296773433685,78.14730072021484,-0.3571165552478259,-2.491639706266978,-178.6907786527708,5.290831,5.474108,13.535788,7.926201,-11.362802,-4.6964254,3.930073,-5.618586,-16.330175,9.987603,-11.023294,5.8200793,-3.052066,1.617431,10.992183,-5.4102116,17.49074,-35.580624,59.132313,-5.1532197,6.9257894,1.6815233,-1.1733563,-15.802704,21.844849,57.730434,-4.145378,7.884068,-6.922044
116,2.1152706146240234,0.23876400291919708,78.15155029296875,-0.3501639563387608,-2.425106464973063,-178.64154072232338,5.207627,5.465915,13.48665,7.910193,-11.33999,-4.697877,3.8406112,-5.6333976,-16.377293,10.046941,-11.056207,5.8053803,-3.050571,1.6086422,10.990078,-5.417035,17.492662,-35.60495,59.100163,-5.206251,6.923232,1.6862558,-1.1590027,-15.787443,21.850811,57.75351,-4.100881,7.869904,-6.8832955
117,2.107266426086426,0.24483436346054077,78.15205383300781,-0.3412501605226435,-2.357309137676634,-178.5825615879719,5.1247854,5.4539137,13.43483,7.8920894,-11.317127,-4.698712,3.760738,-5.651055,-16.430824,10.092946,-11.0933895,5.797785,-3.0583544,1.6035043,10.98943,-5.4153585,17.493452,-35.617268,59.069317,-5.2522388,6.9126616,1.6986878,-1.1300306,-15.779753,21.851076,57.759907,-4.0436654,7.8539033,-6.843925
118,2.1037869453430176,0.25302568078041077,78.15155792236328,-0.33289415629055924,-2.2961590419395574,-178.52136972903756,5.053832,5.4420094,13.385652,7.868651,-11.294227,-4.6998925,3.7017078,-5.6651936,-16.485842,10.113756,-11.1246395,5.7937593,-3.0616162,1.6027099,10.998613,-5.409658,17.493547,-35.623695,59.041363,-5.2894564,6.8961678,1.7135004,-1.1086186,-15.777214,21.851917,57.77354,-3.964574,7.8339653,-6.8036294
119,2.1006100177764893,0.26747503876686096,78.15164184570312,-0.31910803416113187,-2.213945549778307,-178.4491591704074,4.954192,5.422877,13.325954,7.8496637,-11.268268,-4.6985893,3.606528,-5.692143,-16.54932,10.170098,-11.174463,5.7903214,-3.052365,1.5842284,10.979625,-5.425991,17.495886,-35.67446,59.03839,-5.3496976,6.883523,1.7382892,-1.0723156,-15.746986,21.833622,57.79432,-3.8872375,7.807612,-6.7700744
120,2.094761848449707,0.2837075889110565,78.1528091430664,-0.30958972687574515,-2.141937267336493,-178.37926859891132,4.8671784,5.4105864,13.265553,7.831679,-11.242711,-4.699566,3.5373127,-5.7077518,-16.613182,10.196916,-11.207208,5.781549,-3.0419607,1.568698,10.972082,-5.43366,17.499584,-35.70679,59.031483,-5.3794837,6.8765903,1.7470005,-1.0438284,-15.711188,21.819124,57.82576,-3.8429477,7.7887897,-6.7531223
121,2.0907199382781982,0.29394590854644775,78.15081787109375,-0.3025941266638693,-2.0734870396821985,-178.30905980886,4.7827187,5.4026766,13.200182,7.8176208,-11.216453,-4.7015314,3.4798281,-5.7162833,-16.679144,10.209964,-11.227516,5.766138,-3.0505872,1.5676847,10.974233,-5.420781,17.50028,-35.71134,59.002956,-5.378009,6.877846,1.7324704,-0.99461937,-15.705696,21.817606,57.826065,-3.8363638,7.780099,-6.752499
122,2.086515426635742,0.3095010817050934,78.15321350097656,-0.2963494864226189,-2.002309490859162,-178.23608925253197,4.6915693,5.396979,13.129381,7.81046,-11.190723,-4.703815,3.4214668,-5.7229185,-16.748262,10.22276,-11.244838,5.746748,-3.0467005,1.5630904,10.974652,-5.415881,17.503044,-35.72813,58.979446,-5.35951,6.886912,1.7044923,-0.94560707,-15.693848,21.816051,57.830956,-3.8406882,7.778296,-6.770961
123,2.074138641357422,0.32734668254852295,78.15503692626953,-0.29078690905547616,-1.9303099500931138,-178.16109376011403,4.599938,5.3927727,13.055899,7.8034353,-11.164496,-4.7071533,3.3695586,-5.7262764,-16.820744,10.223543,-11.257593,5.7253833,-3.0359263,1.5549084,10.97108,-5.410881,17.508781,-35.74936,58.961044,-5.342733,6.8983045,1.681033,-0.8924646,-15.674651,21.811073,57.840363,-3.860021,7.775381,-6.792126
124,2.0586888790130615,0.3497011363506317,78.15442657470703,-0.2853522445222272,-1.8533583606420343,-178.08304834842448,4.5052495,5.388703,12.98037,7.791836,-11.136547,-4.711902,3.3187523,-5.7283316,-16.898104,10.215381,-11.271602,5.7041845,-3.0134745,1.5418597,10.969129,-5.4128885,17.51848,-35.76623,58.94597,-5.334871,6.9092712,1.6772827,-0.87693864,-15.650397,21.825092,57.87662,-3.8500345,7.7687325,-6.8015323
125,2.041680097579956,0.37067458033561707,78.15434265136719,-0.27963634258168585,-1.7696737662766724,-178.0012158271895,4.404589,5.38474,12.901604,7.7774124,-11.107729,-4.7193823,3.2675374,-5.7294846,-16.981497,10.197722,-11.287185,5.680612,-3.0087726,1.5286494,10.947481,-5.3964233,17.5267,-35.75916,58.935173,-5.33827,6.921539,1.6989694,-0.7973549,-15.630736,21.82862,57.85745,-3.8747354,7.747827,-6.782807
126,2.0239081382751465,0.38858526945114136,78.15703582763672,-0.27405246661123894,-1.681387143997436,-177.91604848281776,4.2994747,5.3815084,12.819604,7.762343,-11.07862,-4.7291584,3.21775,-5.72906,-17.070242,10.172123,-11.30376,5.6545467,-2.97234,1.5159482,10.943024,-5.409369,17.53541,-35.766438,58.928658,-5.3433404,6.935914,1.7386329,-0.841537,-15.61665,21.8834,57.93355,-3.8010871,7.719592,-6.7491097
127,2.008056163787842,0.4053460955619812,78.16194152832031,-0.2680945971782029,-1.591732123000911,-177.8299399212224,4.1959286,5.377907,12.737844,7.742161,-11.047637,-4.738718,3.172578,-5.727101,-17.160538,10.13538,-11.317968,5.6321535,-2.9647489,1.5090278,10.913532,-5.3876977,17.538103,-35.7492,58.923622,-5.370976,6.9460235,1.7871697,-0.74259347,-15.610695,21.888502,57.895077,-3.8424678,7.696347,-6.7173896
128,1.9878261089324951,0.42647048830986023,78.1683578491211,-0.2619004764897901,-1.4971575723570367,-177.74182976493017,4.084864,5.374472,12.656075,7.726353,-11.019478,-4.7452826,3.127122,-5.723906,-17.252474,10.087316,-11.328158,5.619195,-2.9400454,1.4854307,10.902974,-5.3724685,17.553782,-35.691666,58.908062,-5.3816366,6.951018,1.8287965,-0.77955514,-15.59098,21.968605,57.96161,-3.806818,7.6975904,-6.7228284
129,1.9663447141647339,0.4531794786453247,78.17289733886719,-0.2554798389822811,-1.406858770216691,-177.65738113826075,3.9824836,5.3710413,12.581272,7.7080336,-10.995793,-4.748267,3.0937388,-5.717492,-17.339272,10.018593,-11.330307,5.622152,-2.9360938,1.4635789,10.882675,-5.3201547,17.57426,-35.596485,58.879997,-5.4379478,6.9434094,1.8725759,-0.7129204,-15.567754,22.00552,57.949917,-3.907119,7.729639,-6.7694387
130,1.9501484632492065,0.4731994569301605,78.16870880126953,-0.2492769955613206,-1.3169317027812746,-177.57411739773585,3.8821921,5.3682575,12.509824,7.688759,-10.974773,-4.74897,3.0687747,-5.7077475,-17.424427,9.930794,-11.325752,5.636198,-2.8714952,1.4500294,10.875891,-5.3125453,17.580507,-35.548904,58.875546,-5.53636,6.9259996,1.9270291,-0.6948323,-15.562662,22.035538,57.980408,-3.9822183,7.7837124,-6.8412623
131,1.9345276355743408,0.49494603276252747,78.1697006225586,-0.24557000941019208,-1.2206198412656877,-177.48562494427398,3.772417,5.3678975,12.433603,7.6725893,-10.951884,-4.747734,3.0352466,-5.69709,-17.515581,9.850741,-11.326346,5.6509957,-2.8695817,1.4344008,10.859522,-5.245516,17.598553,-35.403297,58.83917,-5.5924067,6.907743,1.9658556,-0.65053654,-15.548345,22.08391,57.98445,-4.103846,7.8386884,-6.9168153
132,1.9150598049163818,0.5136471390724182,78.16815185546875,-0.24157889997684226,-1.1107897019556927,-177.38692116837396,3.6423037,5.3660164,12.346202,7.659541,-10.919438,-4.744873,2.9820952,-5.6913013,-17.618856,9.791379,-11.337101,5.6561365,-2.8423202,1.4210864,10.83922,-5.2012076,17.613033,-35.27916,58.814754,-5.592901,6.894262,1.9842889,-0.6223894,-15.537747,22.101202,58.002743,-4.174292,7.8709764,-6.9617677
133,1.9004368782043457,0.5249512195587158,78.15667724609375,-0.24645216160042213,-0.9808496893386139,-177.27369199936146,3.33761,5.4051228,12.227666,7.9654098,-11.041283,-4.7439413,2.8971355,-5.6826515,-17.739557,9.767461,-11.363972,5.641937,-2.8348598,1.4168761,10.814603,-5.140283,17.636496,-35.109898,58.770115,-5.488585,6.8888493,1.964078,-0.66939056,-15.521776,22.12891,58.083084,-4.168149,7.8692336,-6.965714
134,1.8886091709136963,0.5420253872871399,78.15515899658203,-0.2510946866349734,-0.8380178786494589,-177.1523784160459,3.0051494,5.4444523,12.099331,8.294615,-11.166548,-4.7423224,2.79304,-5.6786003,-17.869534,9.763697,-11.400208,5.616955,-2.8331306,1.413679,10.765382,-5.0701637,17.653538,-34.92666,58.738235,-5.32521,6.886231,1.9181651,-0.5885817,-15.504523,22.066875,58.05927,-4.2290072,7.849002,-6.940852
135,1.8568105697631836,0.5778123140335083,78.15689086914062,-0.2581435004506049,-0.688019312726677,-177.02175004666012,2.6383464,5.489754,11.959089,8.673472,-11.31055,-4.7384014,2.6844108,-5.672749,-18.01145,9.758297,-11.43778,5.5944123,-2.8328419,1.4104494,10.719448,-5.0021133,17.676186,-34.733658,58.69993,-5.137681,6.8862004,1.867561,-0.5414682,-15.481203,22.007652,58.062267,-4.2661643,7.821928,-6.909755
136,1.8302701711654663,0.6028098464012146,78.15406036376953,-0.2704508839357564,-0.536380435692574,-176.88079162243616,2.230194,5.546884,11.805119,9.128461,-11.487614,-4.730332,2.5836873,-5.6597624,-18.167883,9.732311,-11.469565,5.5876966,-2.8067014,1.4136138,10.684313,-4.9696827,17.69555,-34.58642,58.674217,-4.984904,6.885873,1.838878,-0.5539911,-15.464267,21.978783,58.112045,-4.2437983,7.80254,-6.891278
137,1.80147123336792,0.6278626918792725,78.15174102783203,-0.2845442145207403,-0.38249927443926,-176.73770286916036,1.7903984,5.613464,11.649334,9.639881,-11.692644,-4.7166576,2.4841692,-5.641891,-18.328875,9.688468,-11.496576,5.6022043,-2.7980804,1.4071844,10.652875,-4.920926,17.735954,-34.419884,58.623737,-4.856526,6.890294,1.83002,-0.5463964,-15.435916,21.964056,58.13494,-4.236315,7.7890296,-6.8857512
138,1.7777329683303833,0.6534247398376465,78.14469909667969,-0.3004136007110814,-0.2238208816796061,-176.59043080662804,1.3132838,5.6884513,11.488031,10.213937,-11.925811,-4.698454,2.3824222,-5.6204906,-18.496426,9.633689,-11.521339,5.6302624,-2.7650676,1.4080576,10.610034,-4.9061513,17.755886,-34.300236,58.6102,-4.75515,6.8951225,1.8388172,-0.45872483,-15.422398,21.910591,58.089104,-4.2450614,7.7777324,-6.88098
139,1.76615571975708,0.6785793900489807,78.13607788085938,-0.32470624365733297,-0.06495380837301024,-176.4222335216249,0.7994074,5.7720566,11.298063,10.854553,-12.185171,-4.6778965,2.2976024,-5.5901895,-18.691456,9.55666,-11.539782,5.665561,-2.725366,1.4133546,10.60968,-4.901813,17.80732,-34.18192,58.550262,-4.6521306,6.900968,1.8521022,-0.614953,-15.403057,21.963125,58.238472,-4.1134872,7.7715116,-6.8889513
140,1.7590954303741455,0.7010319828987122,78.12291717529297,-0.3643389476566292,0.09043033175408156,-176.2164432077972,0.25148642,5.8638444,11.056211,11.559328,-12.465406,-4.657058,2.250498,-5.544834,-18.934845,9.440908,-11.544835,5.7019978,-2.7346034,1.4361833,10.588635,-4.856503,17.875216,-34.0677,58.46746,-4.569234,6.903917,1.8677075,-0.588501,-15.379254,21.916864,58.24102,-4.173987,7.7814684,-6.907976
141,1.744002103805542,0.7231389284133911,78.10734558105469,-0.4244485031347867,0.24481747060654874,-175.95987307252497,-0.3509093,5.967496,10.742102,12.358595,-12.7781725,-4.6359663,2.247691,-5.478985,-19.245928,9.275976,-11.530275,5.7353234,-2.7706661,1.4967556,10.563268,-4.832593,17.925608,-34.018158,58.407963,-4.530226,6.897074,1.8965012,-0.54746646,-15.363765,21.829462,58.245342,-4.3340507,7.819739,-6.948439
142,1.7105042934417725,0.7339286804199219,78.09166717529297,-0.49939539930984317,0.3993271865437034,-175.66452113699933,-0.9976875,6.07891,10.372915,13.233619,-13.117061,-4.613115,2.2806914,-5.3961763,-19.608898,9.065347,-11.497526,5.769702,-2.8331826,1.5807894,10.536127,-4.8128657,17.9741,-34.004784,58.35147,-4.52145,6.884326,1.9358642,-0.4945063,-15.350397,21.716711,58.246758,-4.56893,7.878875,-7.005822
143,1.6713430881500244,0.7527719736099243,78.07282257080078,-0.580192738665261,0.5481264179224156,-175.35186496352813,-1.6567616,6.188933,9.981071,14.140853,-13.466649,-4.5885673,2.3334084,-5.3077884,-19.990646,8.841322,-11.465435,5.8118806,-2.877041,1.6648396,10.527185,-4.773042,18.066456,-33.99045,58.234123,-4.499687,6.8766007,1.9694083,-0.42509797,-15.329006,21.565325,58.22626,-4.823526,7.9330354,-7.0605583
144,1.6420421600341797,0.7657697200775146,78.05113220214844,-0.6596466356442313,0.685398886532855,-175.0427741623358,-2.3003044,6.2910743,9.5980835,15.046368,-13.815825,-4.5626364,2.3918362,-5.223513,-20.358994,8.63392,-11.452308,5.868582,-2.8976538,1.7538823,10.538605,-4.7208195,18.148472,-33.89212,58.0923,-4.3956327,6.874739,1.9902902,-0.3992415,-15.318525,21.454199,58.231415,-4.982928,7.959441,-7.10238
145,1.6194465160369873,0.7771399617195129,78.02598571777344,-0.7383025729056262,0.8090557810104854,-174.74348793272748,-2.9220622,6.3868184,9.230174,15.941575,-14.1668625,-4.5334167,2.4497178,-5.143183,-20.704332,8.453958,-11.462854,5.9424014,-2.901226,1.8518358,10.55373,-4.6520042,18.198494,-33.672638,57.95021,-4.161024,6.885031,1.9806032,-0.23505571,-15.316478,21.277245,58.105194,-5.1655207,7.947943,-7.1115212
146,1.5935430526733398,0.7775576114654541,77.9992904663086,-0.8193326317333147,0.9227440222742428,-174.44241382464153,-3.54162,6.47938,8.860984,16.854553,-14.526964,-4.5008507,2.5146365,-5.0624623,-21.0445,8.286348,-11.488688,6.029465,-2.865503,1.9610097,10.609293,-4.5930223,18.247059,-33.39127,57.774963,-3.8385956,6.903507,1.9513273,-0.22581743,-15.333804,21.176828,58.089928,-5.1781225,7.9106283,-7.104539
147,1.559496521949768,0.7707496881484985,77.97334289550781,-0.8997918204880938,1.0287968875774562,-174.13418930848425,-4.1489377,6.562178,8.490505,17.763683,-14.880816,-4.471232,2.596724,-4.983286,-21.38802,8.112499,-11.521503,6.1269836,-2.814188,2.0759573,10.6496105,-4.535068,18.265799,-33.09905,57.623352,-3.5153208,6.9161844,1.939075,-0.12106946,-15.350877,21.039793,58.010548,-5.23098,7.863937,-7.1061673
148,1.5136381387710571,0.7655799388885498,77.94520568847656,-0.9759312094778143,1.1290196423173509,-173.8130111126576,-4.73588,6.6290135,8.118975,18.652014,-15.214797,-4.4484887,2.7079823,-4.9075766,-21.744162,7.9129453,-11.553424,6.2323008,-2.7753646,2.194844,10.700487,-4.4358974,18.28735,-32.777405,57.42083,-3.2387977,6.9150014,1.9644946,-0.045953564,-15.389049,20.955366,57.954403,-5.268779,7.8228226,-7.135618
149,1.4588907957077026,0.7643669843673706,77.91402435302734,-1.0480367769808132,1.2198375745538115,-173.4803968840354,-5.2877774,6.675175,7.7278156,19.499464,-15.528725,-4.430907,2.8620973,-4.830091,-22.109148,7.6668596,-11.578454,6.347088,-2.7421002,2.320938,10.753557,-4.2946744,18.31434,-32.459618,57.169155,-3.0474448,6.899545,2.0456896,0.032915514,-15.461396,20.927273,57.895576,-5.2760935,7.7903786,-7.217194
150,1.3958343267440796,0.7459417581558228,77.88154602050781,-1.117608596050503,1.301857726113405,-173.13825612133672,-5.814615,6.7049503,7.323594,20.323618,-15.829673,-4.416672,3.0516245,-4.75022,-22.480824,7.3850083,-11.599568,6.4722896,-2.691801,2.4504426,10.801765,-4.141058,18.332636,-32.1542,56.90585,-2.9071887,6.8747334,2.1679409,0.16177012,-15.541612,20.893478,57.806656,-5.293869,7.758204,-7.333659
151,1.3392080068588257,0.7203311324119568,77.84969329833984,-1.1819378607810347,1.3840871807411324,-172.78244157891967,-6.3405037,6.7248464,6.945807,21.151958,-16.11172,-4.412348,3.137811,-4.728709,-22.858294,7.362001,-11.760985,6.605543,-2.6290383,2.57901,10.84865,-3.9782557,18.344467,-31.850857,56.63049,-2.800125,6.835636,2.3117301,0.25224748,-15.633554,20.901482,57.76356,-5.290603,7.7258544,-7.447935
152,1.270742654800415,0.7083714008331299,77.81748962402344,-1.2385754369987232,1.4752234942634403,-172.40859888586027,-6.889772,6.741698,6.6337767,22.012993,-16.368948,-4.4240847,3.2140481,-4.727213,-23.26152,7.3621826,-11.928341,6.741307,-2.5684452,2.7008252,10.88049,-3.7956994,18.350948,-31.536627,56.348152,-2.7117214,6.777534,2.4566934,0.3692814,-15.734322,20.916048,57.71489,-5.349374,7.693982,-7.5188613
153,1.2023792266845703,0.6745151877403259,77.7885513305664,-1.2843292218943256,1.578620017369879,-172.00746579502038,-7.4751353,6.7380548,6.3531585,22.91649,-16.603024,-4.4141717,3.2868268,-4.7478557,-23.704634,7.368909,-12.0915365,6.8767214,-2.5036767,2.8137426,10.902936,-3.6128006,18.355835,-31.239183,56.057175,-2.662978,6.6913133,2.6083412,0.41763824,-15.848822,20.994884,57.746174,-5.402593,7.655337,-7.528116
154,1.1393574476242065,0.6410146355628967,77.76172637939453,-1.3220529792749283,1.6889139727884108,-171.5838636166552,-8.082413,6.7178354,6.0978746,23.848543,-16.816757,-4.3931856,3.3623104,-4.7851048,-24.178915,7.379493,-12.2539,7.014426,-2.4435241,2.9209533,10.912002,-3.4116752,18.35972,-30.94236,55.75044,-2.6517076,6.5824413,2.7719207,0.4860033,-15.974594,21.093008,57.777298,-5.501997,7.6127186,-7.4975896
155,1.0549746751785278,0.6033875942230225,77.73193359375,-1.3566519353588748,1.8026197338679837,-171.15448763587094,-8.694258,6.7205873,5.949155,24.80038,-17.00643,-4.4393206,3.4394927,-4.8296866,-24.66127,7.393874,-12.415908,7.157997,-2.373899,3.0265167,10.917594,-3.1840608,18.35921,-30.616184,55.430542,-2.637285,6.46696,2.9330392,0.55655956,-16.107494,21.198427,57.81466,-5.631424,7.578861,-7.4557486
156,0.9698935747146606,0.5736473202705383,77.7032470703125,-1.3924960712865602,1.9160788879676074,-170.736227692891,-9.297361,6.7869034,5.987819,25.771675,-17.17324,-4.6304445,3.518289,-4.8728046,-25.12842,7.4096236,-12.576646,7.3110433,-2.2798247,3.1340914,10.931848,-2.9252155,18.348448,-30.230791,55.10175,-2.5785356,6.36083,3.077918,0.5834453,-16.242947,21.315447,57.888752,-5.754491,7.566576,-7.432381
157,0.8737863898277283,0.5061821341514587,77.67427062988281,-1.432299641321404,2.028118873980641,-170.33955233086078,-9.868993,6.9327116,6.264073,26.724041,-17.319233,-5.0181384,3.5955198,-4.9105535,-25.570122,7.427477,-12.733439,7.47404,-2.1563747,3.2451875,10.952391,-2.632813,18.321957,-29.773565,54.76581,-2.4681008,6.2643476,3.206471,0.5748636,-16.377647,21.44462,57.996704,-5.8851285,7.5861163,-7.4340644
158,0.796315610408783,0.44852426648139954,77.63813781738281,-1.4725242216672352,2.140673993496224,-169.95324596263694,-10.43029,7.1375732,6.724536,27.688457,-17.45167,-5.550465,3.6713123,-4.948938,-26.000399,7.4512434,-12.89028,7.6451325,-2.0171785,3.3562646,10.969098,-2.3089666,18.277775,-29.257479,54.427784,-2.3248456,6.1701536,3.3251126,0.5816875,-16.508522,21.566504,58.100304,-6.0631895,7.628764,-7.445379
159,0.7026103138923645,0.4031672179698944,77.60470581054688,-1.5073337718905169,2.255071762228861,-169.56168840323397,-11.020122,7.386611,7.295943,28.741058,-17.573328,-6.1501055,3.7519982,-4.9943457,-26.432026,7.4742756,-13.04823,7.824696,-1.8742051,3.4619188,10.98177,-1.9591693,18.216019,-28.693575,54.099438,-2.150372,6.0829782,3.4304407,0.62180966,-16.63328,21.654108,58.180027,-6.2929378,7.678186,-7.464131
160,0.5835352540016174,0.36379343271255493,77.57286071777344,-1.531561487163737,2.372865206862982,-169.1491853010293,-11.677339,7.665268,7.9042163,29.957146,-17.684576,-6.739807,3.8428056,-5.053531,-26.877487,7.4942255,-13.21121,8.0127535,-1.7265399,3.5592177,11.00304,-1.600764,18.13924,-28.103077,53.787052,-1.9459212,6.0074105,3.5200844,0.6020574,-16.754229,21.741896,58.309124,-6.4894047,7.717311,-7.490165
161,0.44695189595222473,0.30418649315834045,77.55207061767578,-1.541547584870092,2.499705542761365,-168.7209969646181,-12.406155,7.966605,8.53736,31.32454,-17.750374,-7.3740945,3.9345696,-5.131998,-27.330675,7.511668,-13.377867,8.208099,-1.5711697,3.642806,11.030214,-1.2209466,18.042027,-27.439255,53.48626,-1.690559,5.9389915,3.5790777,0.55066395,-16.870289,21.810154,58.464317,-6.6974797,7.738564,-7.523139
162,0.33181360363960266,0.2323753833770752,77.52202606201172,-1.5407193720323173,2.632970053682295,-168.2820616575214,-13.185518,8.30026,9.231079,32.811607,-17.781733,-8.069737,4.0287905,-5.2247114,-27.787622,7.526816,-13.546865,8.410465,-1.4230372,3.7136526,11.046442,-0.80719477,17.920332,-26.697895,53.2013,-1.3898027,5.87709,3.6123323,0.6061469,-16.975334,21.79137,58.5317,-7.025267,7.7527843,-7.5613923
163,0.2333012819290161,0.17101386189460754,77.4894790649414,-1.534529729720705,2.762126312664749,-167.8169539942807,-14.02224,8.681724,9.978522,34.47685,-17.8529,-8.690885,4.145287,-5.32354,-28.266855,7.5381517,-13.720764,8.624165,-1.2729816,3.7845492,11.074607,-0.40676782,17.787233,-25.990088,52.93815,-1.0870525,5.832203,3.6502275,0.5619299,-17.076927,21.802803,58.68278,-7.2603593,7.769104,-7.608084
164,0.11619137227535248,0.09873206913471222,77.45516204833984,-1.5297496795616834,2.8762822058921818,-167.31016767858148,-14.917134,9.129821,10.77267,36.369877,-18.031012,-9.098881,4.3042326,-5.4185,-28.78678,7.5455017,-13.903359,8.853048,-1.1621305,3.862366,11.099646,-0.008097864,17.662584,-25.385368,52.69703,-0.8252119,5.8162622,3.7165267,0.5866367,-17.168743,21.76077,58.766533,-7.4850597,7.7991586,-7.657119
165,-0.01919529400765896,0.015648165717720985,77.41836547851562,-1.535460491793935,2.9731523475470354,-166.73695693131341,-15.881987,9.671486,11.622628,38.549286,-18.37679,-9.218265,4.5203085,-5.496621,-29.373493,7.543279,-14.093378,9.0983,-1.0907034,3.9561346,11.137294,0.3771736,17.568602,-24.939611,52.455975,-0.60436916,5.848808,3.8251238,0.530448,-17.253296,21.73265,58.911205,-7.563638,7.8477435,-7.7092032
166,-0.16122731566429138,-0.06773686408996582,77.38021850585938,-1.546780610027979,3.0587492598416643,-166.11309880632098,-16.897915,10.299326,12.523393,40.95669,-18.83111,-9.128753,4.7803926,-5.5639386,-30.009813,7.531958,-14.288674,9.3579,-1.0653399,4.0509024,11.169638,0.79111063,17.510557,-24.582321,52.20171,-0.4096472,5.920153,3.954851,0.58330446,-17.318306,21.612816,58.954453,-7.6752157,7.9091187,-7.7612324
167,-0.33092695474624634,-0.14456842839717865,77.3455810546875,-1.5506337688631178,3.135084146405929,-165.4842522421769,-17.923178,10.981126,13.446731,43.471012,-19.281519,-8.923774,5.061548,-5.6389265,-30.649143,7.519927,-14.490141,9.630771,-1.0262185,4.128489,11.207668,1.216868,17.486294,-24.287325,51.948864,-0.26581386,5.9971805,4.0911922,0.6619757,-17.359056,21.461569,58.969124,-7.7769275,7.9728675,-7.8209715
168,-0.5234347581863403,-0.248270183801651,77.31126403808594,-1.533577770319164,3.2036037613697435,-164.89557746781864,-18.920975,11.681272,14.366829,45.977604,-19.617935,-8.698649,5.344312,-5.7388167,-31.245955,7.5081472,-14.694323,9.915557,-0.9129576,4.1822023,11.27151,1.6272278,17.477182,-24.02322,51.7169,-0.18992154,6.0448256,4.2202296,0.62309384,-17.395197,21.380873,59.07101,-7.7718525,8.028924,-7.894444
169,-0.6852681040763855,-0.3609524667263031,77.27349090576172,-1.489167695574877,3.26300567464557,-164.36212697296685,-19.889229,12.41904,15.32868,48.50635,-19.8162,-8.438911,5.6159716,-5.8769827,-31.78721,7.512652,-14.9176655,10.22694,-0.75985736,4.212395,11.371298,2.0686917,17.474121,-23.709812,51.46736,-0.19844757,6.0431266,4.33043,0.5404078,-17.457355,21.366362,59.165375,-7.705561,8.08174,-7.9829607
170,-0.8523709774017334,-0.4891219437122345,77.2356185913086,-1.4268086501986428,3.3123365145032655,-163.85902114738963,-20.838858,13.209641,16.326998,51.09723,-19.934029,-8.100008,5.8941145,-6.037871,-32.298397,7.517561,-15.150493,10.560413,-0.5764827,4.228237,11.480256,2.528399,17.477007,-23.40781,51.228764,-0.28768495,6.0130773,4.436507,0.55309135,-17.532022,21.316448,59.151848,-7.6673856,8.135017,-8.081143
171,-1.018938422203064,-0.6147809028625488,77.19489288330078,-1.3571942004747286,3.3524623017538886,-163.3706923879838,-21.764679,14.00356,17.264097,53.663136,-19.98678,-7.737992,6.185892,-6.207749,-32.790997,7.5244594,-15.377755,10.886098,-0.35300148,4.2401648,11.6020565,2.975571,17.486042,-23.152487,51.026165,-0.3906548,5.981811,4.538662,0.5023599,-17.608381,21.305786,59.183777,-7.5699377,8.179453,-8.176958
172,-1.2087697982788086,-0.7392639517784119,77.15093231201172,-1.2911939581365823,3.3842889040042374,-162.881154848473,-22.666101,14.744054,18.044798,56.111748,-19.989752,-7.4182715,6.4994664,-6.3721833,-33.27607,7.532418,-15.583981,11.174081,-0.11164253,4.2538543,11.71753,3.4084144,17.497486,-22.953146,50.88951,-0.43878162,5.9763026,4.636154,0.408617,-17.66553,21.320415,59.26388,-7.468075,8.207516,-8.256845
173,-1.3927114009857178,-0.882397472858429,77.1076889038086,-1.2286495409139717,3.4071948944588466,-162.38708680185118,-23.55726,15.420934,18.658922,58.461517,-19.919329,-7.1416397,6.834784,-6.5326624,-33.75242,7.543696,-15.764236,11.420391,0.112360634,4.2726564,11.827617,3.8592625,17.515749,-22.786243,50.7926,-0.40008992,6.0144315,4.718088,0.34300837,-17.721687,21.342176,59.3202,-7.3995843,8.211048,-8.316986
174,-1.6063172817230225,-1.024177074432373,77.06377410888672,-1.1645807243671273,3.420800796107008,-161.89615002805033,-24.441591,16.053942,19.154781,60.747734,-19.775343,-6.8856397,7.1888394,-6.6946893,-34.215675,7.5571923,-15.927249,11.639498,0.33205786,4.2956395,11.951676,4.3394294,17.553848,-22.641497,50.696934,-0.31516254,6.07883,4.781982,0.25904858,-17.802643,21.405897,59.36799,-7.3037086,8.196691,-8.358758
175,-1.8381072282791138,-1.2017755508422852,77.0174560546875,-1.1016922836263008,3.425809218680229,-161.409049483214,-25.3115,16.625828,19.525814,62.914104,-19.606089,-6.6815457,7.5633864,-6.8540206,-34.671658,7.5724273,-16.079971,11.829503,0.5749278,4.3140745,12.052326,4.799579,17.581041,-22.541695,50.69613,-0.21809053,6.1426024,4.8507304,0.22312307,-17.849073,21.434284,59.390514,-7.2923546,8.18017,-8.385135
176,-2.0775322914123535,-1.3752691745758057,76.96668243408203,-1.0440821870682622,3.4238689156024136,-160.92624817612014,-26.16093,17.119825,19.764442,64.90606,-19.461277,-6.561324,7.9608846,-7.0033455,-35.126064,7.586319,-16.22824,11.988267,0.8070804,4.330733,12.156674,5.308113,17.624815,-22.405226,50.700653,-0.12934603,6.18161,4.9138765,0.13308935,-17.912031,21.537613,59.41794,-7.2974515,8.179672,-8.375737
177,-2.333977460861206,-1.5540030002593994,76.91185760498047,-0.9956551824260788,3.409784086250081,-160.44644908086144,-26.995953,17.519861,19.842108,66.72763,-19.355864,-6.555982,8.38859,-7.1377153,-35.58004,7.5979505,-16.367064,12.096287,1.0365957,4.3482566,12.253449,5.852598,17.673033,-22.242657,50.750435,-0.043996647,6.171302,4.980588,0.019905787,-17.976492,21.6951,59.439915,-7.38406,8.201631,-8.314984
178,-2.6121535301208496,-1.7500247955322266,76.85718536376953,-0.9538237288713368,3.3843453902297838,-159.96899952128885,-27.824076,17.829855,19.77328,68.40546,-19.263842,-6.64796,8.844399,-7.261254,-36.030846,7.606128,-16.494446,12.161225,1.2481227,4.36301,12.326533,6.4382157,17.717669,-22.057028,50.8563,0.05066158,6.1309223,5.047753,0.028602486,-18.030495,21.816374,59.343056,-7.64366,8.236647,-8.212867
179,-2.8987717628479004,-1.9601335525512695,76.79757690429688,-0.9102859806904637,3.358371850251758,-159.49618735367494,-28.641636,18.065311,19.61634,69.9205,-19.173594,-6.7941027,9.308105,-7.3896623,-36.477863,7.6276536,-16.63034,12.222653,1.4806457,4.374274,12.406566,7.014609,17.765642,-21.882803,50.99515,0.1271058,6.099397,5.112175,-0.13792229,-18.085299,22.04873,59.3746,-7.7834835,8.275072,-8.108624
180,-3.1888558864593506,-2.172893762588501,76.73429107666016,-0.8565359088506614,3.3423475651012375,-159.03066117801896,-29.44148,18.244366,19.429758,71.24944,-19.07116,-6.9489007,9.773002,-7.529181,-36.92246,7.6445155,-16.774939,12.320038,1.6931444,4.3655224,12.448232,7.606315,17.805145,-21.693447,51.173313,0.16254787,6.116647,5.1660943,-0.118110985,-18.121462,22.16848,59.229267,-8.030479,8.311406,-8.031724
181,-3.4928905963897705,-2.404613733291626,76.66461181640625,-0.7885578239053964,3.337227946699312,-158.57626129191672,-30.226744,18.364494,19.218,72.38674,-18.94406,-7.1189976,10.229112,-7.68853,-37.35869,7.673112,-16.936127,12.4600315,1.9204243,4.337739,12.490898,8.194328,17.85322,-21.496376,51.35352,0.150892,6.2047853,5.201852,-0.22088699,-18.156998,22.356411,59.165802,-8.119935,8.348005,-8.005052
182,-3.805596113204956,-2.6455891132354736,76.58837127685547,-0.71178255540317,3.3374909437146636,-158.13052585818238,-30.998737,18.417791,18.955448,73.34449,-18.801607,-7.322881,10.687228,-7.8595715,-37.788998,7.704546,-17.103924,12.623206,2.1885946,4.3033905,12.523443,8.738655,17.889418,-21.334293,51.59746,0.099732615,6.3377028,5.2344613,-0.40263167,-18.180164,22.564747,59.16658,-8.120658,8.386727,-8.008555
183,-4.118088722229004,-2.8880693912506104,76.50406646728516,-0.6301638079165943,3.3453721783119494,-157.68730041525563,-31.751745,18.41866,18.655272,74.13108,-18.665623,-7.5305505,11.150875,-8.037213,-38.22458,7.737049,-17.283344,12.808729,2.3927205,4.245799,12.532229,9.354267,17.937674,-21.115465,51.827858,0.02473314,6.4863787,5.2553997,-0.45715976,-18.198277,22.738138,59.01064,-8.214428,8.420149,-8.009155
184,-4.451279163360596,-3.1302285194396973,76.41104888916016,-0.5481338606894578,3.363227621030317,-157.24055527279697,-32.47911,18.382677,18.330276,74.75367,-18.556868,-7.711415,11.62582,-8.213016,-38.67713,7.761685,-17.47554,13.016141,2.6157827,4.1840353,12.553817,9.941385,18.0048,-20.952261,52.07691,-0.0847585,6.618652,5.288295,-0.7330904,-18.217012,23.025066,58.991173,-8.140593,8.43544,-7.9849534
185,-4.79435396194458,-3.379542350769043,76.31194305419922,-0.4673977938319166,3.3893491743393964,-156.7873192727219,-33.179512,18.304443,17.967892,75.20445,-18.487343,-7.8581777,12.114486,-8.387343,-39.15157,7.787567,-17.692474,13.246149,2.8044372,4.113872,12.5377865,10.538261,18.07268,-20.814793,52.395798,-0.2594574,6.717288,5.334862,-0.81437165,-18.222359,23.190212,58.76241,-8.223488,8.422547,-7.9135714
186,-5.144437789916992,-3.651848077774048,76.20556640625,-0.38551484133366826,3.4233659938949432,-156.33143165529185,-33.854942,18.180264,17.567932,75.4831,-18.443382,-7.985692,12.616825,-8.560058,-39.64198,7.8065395,-17.924458,13.498874,2.9862099,4.036474,12.506899,11.128545,18.146692,-20.707937,52.764137,-0.48965198,6.801528,5.3907566,-0.8958322,-18.221052,23.346281,58.494705,-8.303438,8.389038,-7.816061
187,-5.507246017456055,-3.951826572418213,76.09919738769531,-0.3001350191753796,3.4698678723218865,-155.8781826308187,-34.50328,18.028717,17.162601,75.606384,-18.406174,-8.095807,13.123356,-8.732698,-40.140545,7.8156943,-18.156967,13.773657,3.1920261,3.9487433,12.497361,11.70253,18.247154,-20.641104,53.1032,-0.7099423,6.8960037,5.450902,-1.2581055,-18.221571,23.657217,58.410606,-8.17289,8.354467,-7.719492
188,-5.874140739440918,-4.249515533447266,75.98583984375,-0.208887372491362,3.5328739211793154,-155.43253261124536,-35.12156,17.868185,16.784319,75.589935,-18.356623,-8.19025,13.619924,-8.912141,-40.63832,7.8256044,-18.382341,14.069693,3.3752928,3.8412488,12.453871,12.302948,18.345993,-20.578773,53.403877,-0.85044366,7.025186,5.511294,-1.4282506,-18.211018,23.850925,58.114014,-8.21789,8.342575,-7.640425
189,-6.247269153594971,-4.550386428833008,75.86885833740234,-0.11202494351739226,3.612482945102113,-154.9925616436927,-35.716816,17.701405,16.42848,75.432274,-18.285347,-8.269902,14.106078,-9.097267,-41.137543,7.8371754,-18.602882,14.383723,3.5580113,3.7095494,12.401154,12.91606,18.463785,-20.53446,53.66441,-0.90630555,7.207669,5.577407,-1.6013683,-18.190395,24.044819,57.75583,-8.287424,8.368562,-7.5881586
190,-6.632223129272461,-4.861277103424072,75.74498748779297,-0.010574962081549963,3.7069599249081224,-154.5569161744839,-36.286423,17.520185,16.083042,75.12524,-18.20343,-8.332945,14.590704,-9.283218,-41.641857,7.8380933,-18.816498,14.717144,3.740199,3.5604165,12.336663,13.5315895,18.590797,-20.512417,53.911358,-0.90801215,7.425927,5.6509676,-1.7773129,-18.161762,24.234818,57.344696,-8.375647,8.417683,-7.5505133
191,-7.030241012573242,-5.189975261688232,75.61437225341797,0.09714223069180461,3.8183789971701274,-154.13192102425884,-36.817894,17.328953,15.766669,74.678566,-18.123175,-8.378285,15.0638685,-9.463447,-42.12756,7.8228655,-19.013,15.000033,3.9228234,3.3959,12.260479,14.161693,18.729551,-20.507172,54.079594,-0.85063773,7.65268,5.7159967,-1.952537,-18.124979,24.40509,56.894634,-8.486717,8.463801,-7.5226445
192,-7.430786609649658,-5.5172858238220215,75.47696685791016,0.21118533030748976,3.9495929604839004,-153.724897147064,-37.301113,17.135056,15.496476,74.10112,-18.055248,-8.405912,15.508642,-9.6030035,-42.537563,7.7572393,-19.16928,15.000033,4.1098394,3.2178335,12.172294,14.816515,18.883427,-20.516983,54.105553,-0.72969705,7.860382,5.756803,-2.1223276,-18.079832,24.536638,56.420254,-8.626129,8.480691,-7.499852
193,-7.8321428298950195,-5.853706359863281,75.34138488769531,0.3178796478499087,4.1120478505671905,-153.34761306003568,-37.755653,16.958334,15.262643,73.39127,-18.001347,-8.40824,15.920294,-9.724606,-42.907475,7.6667657,-19.291952,15.000033,4.3153396,3.0422785,12.059507,15.49771,19.058605,-20.568632,53.973206,-0.5333887,8.068412,5.7683554,-2.2972977,-18.026434,24.633387,55.93511,-8.815335,8.455392,-7.483467
194,-8.23847770690918,-6.207370281219482,75.2027359008789,0.40009799347221053,4.320956873118314,-153.0167415944542,-38.206947,16.826056,15.053593,72.557076,-17.95951,-8.394784,16.266384,-9.816559,-43.212185,7.5726805,-19.39532,15.000033,4.559381,2.879401,11.905964,16.20336,19.257088,-20.653982,53.710632,-0.26853785,8.282982,5.7576838,-2.4750714,-17.965176,24.700552,55.42627,-9.045199,8.403831,-7.4750457
195,-8.666535377502441,-6.568113803863525,75.05219268798828,0.4897508681698788,4.551895954043237,-152.70614351697182,-38.6043,16.69267,14.899022,71.60567,-17.938337,-8.376886,16.599154,-9.912877,-43.49198,7.454567,-19.469387,15.000033,4.820052,2.6994843,11.74253,16.932346,19.47332,-20.720757,53.32046,0.04214755,8.456595,5.7282405,-2.6660945,-17.896147,24.739765,54.896744,-9.247641,8.342658,-7.4707212
196,-9.101658821105957,-6.942146301269531,74.90187072753906,0.5925901663077067,4.805746453646883,-152.42139856389028,-38.930634,16.558575,14.821771,70.55592,-17.947681,-8.375249,16.919918,-10.023988,-43.742023,7.310392,-19.51094,15.000033,5.085251,2.4911966,11.551898,17.706047,19.69222,-20.699547,52.812096,0.3778857,8.541743,5.68275,-2.7045202,-17.813776,24.664204,54.205105,-9.490518,8.289512,-7.4641933
197,-9.552082061767578,-7.336800575256348,74.74932098388672,0.7106376838526588,5.083243454787998,-152.16405748054612,-39.173023,16.425331,14.829594,69.36806,-18.010315,-8.399542,17.230957,-10.148125,-43.968513,7.1313086,-19.52287,15.000033,5.3752346,2.2589822,11.351575,18.510038,19.917229,-20.621302,52.168858,0.7504041,8.497357,5.63688,-2.794335,-17.722437,24.569624,53.51589,-9.594113,8.2442875,-7.4559536
198,-9.98861312866211,-7.74740743637085,74.59134674072266,0.8404508899523508,5.384333161207984,-151.9314207463102,-39.342503,16.291656,14.910821,68.0433,-18.112864,-8.43892,17.531796,-10.278879,-44.17054,6.912748,-19.499474,15.000033,5.6731377,2.004236,11.132101,19.356045,20.14653,-20.492332,51.39272,1.1667095,8.358067,5.5844765,-2.8434145,-17.619844,24.415733,52.75493,-9.6641035,8.200312,-7.447365
199,-10.437732696533203,-8.176645278930664,74.43488311767578,0.9783149028594929,5.70812222273715,-151.7216998983083,-39.460434,16.15335,15.057964,66.66569,-18.212208,-8.483223,17.814186,-10.424638,-44.33225,6.6786647,-19.43702,15.000033,5.9874477,1.7276777,10.90351,20.215734,20.366613,-20.26794,50.521057,1.5953652,8.188419,5.5063314,-2.855502,-17.50926,24.214802,51.934235,-9.735821,8.161733,-7.44394
200,-10.906414031982422,-8.61168384552002,74.27827453613281,1.1206705744345837,6.0533719674934,-151.5325720673577,-39.547905,16.00642,15.262661,65.32021,-18.265936,-8.522124,18.07797,-10.586672,-44.440746,6.433563,-19.322685,15.000033,6.321932,1.4325981,10.674635,21.057884,20.554789,-19.900791,49.598995,2.0070956,8.051878,5.3831224,-2.8331501,-17.395878,23.983614,51.064774,-9.845115,8.133306,-7.451238
201,-11.363433837890625,-9.06997299194336,74.12358856201172,1.2796774702182976,6.432256344658604,-151.3680491917705,-39.603683,15.85597,15.564313,63.970585,-18.264872,-8.544666,18.311626,-10.776995,-44.48554,6.1655087,-19.165106,15.000033,6.6826267,1.117357,10.436934,21.870367,20.67372,-19.349855,48.650085,2.4416852,7.9406385,5.1814284,-2.746055,-17.291885,23.689888,50.100403,-9.995286,8.128994,-7.466052
202,-11.820048332214355,-9.550678253173828,73.96904754638672,1.4520583827262148,6.840643374959693,-151.2261891220257,-39.618816,15.699631,15.953028,62.590233,-18.230612,-8.561081,18.506195,-11.003699,-44.474346,5.914903,-18.988214,15.000033,7.055107,0.77152634,10.191542,22.685944,20.749445,-18.631418,47.6315,2.9020152,7.8280673,4.9178567,-2.6275647,-17.173607,23.352552,49.073128,-10.163733,8.142085,-7.4898124
203,-12.291674613952637,-10.048099517822266,73.8061752319336,1.6094952567965497,7.252588590947427,-151.09648282935794,-39.605705,15.525185,16.343071,61.28369,-18.168442,-8.5903425,18.708435,-11.220351,-44.430527,5.6484294,-18.742466,15.000033,7.4235544,0.43808934,9.946906,23.453165,20.76778,-17.844276,46.600296,3.3046358,7.7459197,4.6680956,-2.4780884,-17.059322,23.018116,48.026176,-10.381955,8.1492815,-7.526548
204,-12.769359588623047,-10.571673393249512,73.64021301269531,1.724910532948584,7.642298189414281,-150.96941841800978,-39.578445,15.323556,16.648842,60.15878,-18.084166,-8.648837,18.94251,-11.4050255,-44.374203,5.3954144,-18.410261,15.000033,7.7824273,0.15766482,9.715294,24.129135,20.738768,-17.093868,45.592384,3.5610287,7.729032,4.5031533,-2.2745395,-16.977749,22.7205,46.97495,-10.682088,8.126905,-7.5769615
205,-13.249481201171875,-11.105339050292969,73.47708129882812,1.7940744567913707,7.9995696036871395,-150.84875719785938,-39.529995,15.080028,16.830551,59.18929,-17.916378,-8.865548,19.222368,-11.552858,-44.313305,5.1520553,-17.981842,15.000033,8.097537,-0.08360635,9.510418,24.765625,20.658792,-16.30265,44.566387,3.6209803,7.8046,4.4292593,-2.07054,-16.894348,22.512255,45.94802,-11.118594,8.069054,-7.624041
206,-13.736063003540039,-11.671748161315918,73.30892181396484,1.82976863342441,8.339252710634675,-150.7377020659722,-39.45855,14.806816,16.93646,58.339935,-17.683718,-9.187729,19.532814,-11.678392,-44.23867,4.914208,-17.474546,15.000033,8.417418,-0.28311557,9.320408,25.321934,20.532286,-15.50655,43.5471,3.5227327,7.9498568,4.419162,-1.8084935,-16.838316,22.32179,44.88366,-11.6594305,7.9890003,-7.668452
207,-14.237977981567383,-12.253129005432129,73.1438217163086,1.8329214876644608,8.672743431432869,-150.6260475485719,-39.385746,14.534717,17.014812,57.705395,-17.514326,-9.358518,19.850138,-11.789142,-44.146923,4.7143154,-16.910694,15.000033,8.704586,-0.44575125,9.128236,25.805279,20.362848,-14.728374,42.53794,3.394188,8.124267,4.4619513,-1.5088813,-16.807724,22.16848,43.844616,-12.20265,7.889557,-7.758407
208,-14.756144523620605,-12.870027542114258,72.97425079345703,1.8050234208829068,9.01102609460977,-150.5032121056293,-39.33445,14.294103,17.11493,57.383423,-17.537592,-9.121481,20.154062,-11.889973,-44.036213,4.5785127,-16.310017,15.000033,8.925509,-0.5743015,8.912727,26.212788,20.149828,-14.002206,41.556473,3.361081,8.286979,4.5500755,-1.1944375,-16.799314,22.069439,42.90396,-12.647341,7.7742376,-7.9438877
209,-15.287034034729004,-13.494427680969238,72.80176544189453,1.745381049815996,9.362383348282988,-150.3711992288789,-39.350773,14.093605,17.255669,57.495934,-17.713947,-8.239093,20.444962,-11.973725,-43.906494,4.481358,-15.665926,15.000033,9.091735,-0.6746601,8.659407,26.559982,19.905714,-13.321895,40.59597,3.4185553,8.431729,4.6754284,-0.8620192,-16.816166,22.064232,42.04821,-12.999547,7.6356235,-8.270137
210,-15.822555541992188,-14.141670227050781,72.62332916259766,1.6548572311959506,9.718688929265712,-150.23407195391064,-39.411922,13.914392,17.40839,57.962616,-18.000605,-6.9028187,20.732697,-12.041346,-43.76292,4.4196253,-14.971776,15.000033,9.211584,-0.745624,8.382648,26.84782,19.630678,-12.670107,39.646553,3.513422,8.579085,4.84295,-0.50464433,-16.85777,22.135567,41.25268,-13.30185,7.475412,-8.700392
211,-16.353168487548828,-14.822903633117676,72.43659210205078,1.5353966330159459,10.065910351366176,-150.0827548829791,-39.43589,13.742994,17.543392,58.575138,-18.52218,-5.5023108,21.016626,-12.108575,-43.613796,4.4431443,-14.23939,15.000033,9.266615,-0.77791643,8.106614,27.042328,19.327265,-12.089242,38.721104,3.6860151,8.729461,5.063698,-0.11604916,-16.91497,22.187986,40.55461,-13.514417,7.308652,-9.158262
212,-16.88758659362793,-15.526461601257324,72.24214935302734,1.3886407675356607,10.38908969607826,-149.90657007268626,-39.33701,13.562921,17.62443,59.1237,-19.405624,-4.4300385,21.299784,-12.18683,-43.472412,4.5942593,-13.476134,15.000033,9.241748,-0.761644,7.8556247,27.108082,19.002062,-11.626386,37.833565,3.9746919,8.883824,5.348743,0.3150152,-16.973253,22.118443,39.987926,-13.602252,7.148958,-9.566895
213,-17.434513092041016,-16.235872268676758,72.04067993164062,1.2130834631106981,10.716913315565833,-149.74665154191032,-39.08224,13.403388,17.684248,59.57861,-20.842985,-3.8084612,21.564762,-12.270411,-43.284103,4.794443,-12.682372,15.000033,9.179975,-0.71016437,7.590557,27.064812,18.658838,-11.291294,36.99531,4.412558,9.0387745,5.7120724,0.7977528,-17.023506,21.911371,39.577656,-13.531964,6.956949,-9.93305
214,-17.991239547729492,-16.98069953918457,71.83792877197266,1.0032259531905647,11.04213713359078,-149.58906627693602,-38.717594,13.263513,17.714434,60.044407,-22.715496,-3.4274893,21.83235,-12.344346,-43.078423,5.0227165,-11.837792,15.000033,9.074337,-0.61782104,7.315414,26.92239,18.301228,-11.063173,36.197132,4.968812,9.197788,6.1434174,1.3225778,-17.063663,21.611525,39.30669,-13.334412,6.736746,-10.288181
215,-18.552682876586914,-17.74547576904297,71.6460952758789,0.7542413892723165,11.292204077943154,-149.33735323933388,-38.27129,13.087084,17.615553,60.515514,-24.687326,-3.1807191,22.205065,-12.37963,-42.994442,5.313878,-10.8720045,15.000033,8.832547,-0.44575724,7.122364,26.633776,17.93891,-10.9426,35.419525,5.5847654,9.373042,6.6168313,1.8641163,-17.092403,21.207838,39.15437,-13.06808,6.5670137,-10.593103
216,-19.122455596923828,-18.523757934570312,71.47178649902344,0.46864620242595595,11.394782344597127,-148.89478192289744,-37.765724,12.8120985,17.294113,60.982174,-26.421799,-2.9577522,22.77949,-12.362329,-43.152054,5.7199206,-9.72905,15.000033,8.36753,-0.16409907,7.1073194,26.15205,17.586311,-10.933047,34.640106,6.200063,9.57522,7.1057205,2.402456,-17.109598,20.68354,39.09604,-12.791908,6.52736,-10.8087435
217,-19.68787384033203,-19.327392578125,71.31387329101562,0.1617458088465755,11.354192228943276,-148.2662585224028,-37.21385,12.427455,16.761833,61.446762,-27.83899,-2.7442653,23.574621,-12.338378,-43.54765,6.251149,-8.396367,15.000033,7.6811876,0.20555928,7.28259,25.477741,17.245075,-11.058361,33.836395,6.7973704,9.843525,7.644091,2.9445765,-17.102575,19.978535,39.1265,-12.51335,6.6668906,-10.881337
218,-20.255661010742188,-20.12421226501465,71.17230224609375,-0.0711312276460534,11.24878963627954,-147.5412777531481,-36.589504,11.913675,16.19323,61.860165,-29.09296,-2.5761306,23.156559,-13.725575,-43.736137,10.661619,-8.882681,15.000033,6.8620696,0.5243278,7.5788083,24.642393,16.920204,-11.301055,33.009777,7.4053993,10.162156,8.227524,3.4963534,-17.061928,19.120214,39.25823,-12.203185,6.935595,-10.846631
219,-20.814414978027344,-20.918304443359375,71.03060150146484,-0.04972434753657624,11.13943805811503,-146.77252566159336,-35.860996,11.151609,15.800779,62.12035,-30.19508,-2.4045172,22.117453,-16.07058,-43.702343,16.941116,-10.175596,15.000033,5.978261,0.58313537,7.9494023,23.649517,16.63926,-11.599389,32.166084,8.033404,10.457622,8.769591,4.0462885,-16.99431,18.224848,39.47696,-11.862249,7.2657275,-10.800648
220,-21.357460021972656,-21.68853759765625,70.88187408447266,0.3024768716589747,11.02787112479151,-145.95213054921444,-34.99638,10.071379,15.642288,62.16701,-31.170353,-2.1983402,20.906061,-18.912966,-43.415115,23.630255,-11.557718,15.000033,5.044839,0.29890695,8.380526,22.496666,16.434452,-11.905442,31.31564,8.687949,10.65462,9.184408,4.5939093,-16.918072,17.399553,39.759327,-11.487988,7.587017,-10.838015
221,-21.907854080200195,-22.480520248413086,70.7249984741211,1.0554839801321978,10.806510198607096,-144.95180494755522,-33.875034,8.509284,15.665605,61.927376,-32.008945,-1.9307921,19.692276,-22.405222,-43.042515,30.958132,-13.024304,15.000033,3.9541266,-0.36519045,8.973903,21.16485,16.314283,-12.229869,30.46804,9.388921,10.699696,9.435407,5.147565,-16.842218,16.620792,40.119762,-11.023579,7.9046707,-10.9966
222,-22.44268035888672,-23.269121170043945,70.5604476928711,2.0800701429557242,10.494747459022424,-143.81133839959443,-32.584225,6.597362,15.749773,61.453163,-32.685772,-1.6396053,18.463234,-26.185915,-42.339466,38.510303,-14.45106,14.48137,2.7199664,-1.3052137,9.67805,19.683016,16.273407,-12.586407,29.59232,10.120499,10.640797,9.566687,5.7182727,-16.770626,15.861595,40.54607,-10.475034,8.246129,-11.222252
223,-22.981773376464844,-23.94820213317871,70.44324493408203,2.0836756169423056,10.622829392069715,-143.1034147070564,-32.110817,5.991301,15.266519,61.538082,-33.4554,-1.6378417,16.212994,-28.051727,-40.883667,44.91786,-15.515377,9.37336,1.9152603,-1.375309,9.919208,18.009132,16.287098,-13.041808,28.748014,10.826069,10.553875,9.644505,6.3355994,-16.716068,15.120843,40.993538,-9.974494,8.566278,-11.463533
224,-23.51028823852539,-24.607879638671875,70.32903289794922,2.1093829139064804,10.763131727820278,-142.40581167791842,-31.648579,5.4036307,14.772915,61.596706,-34.121788,-1.6694204,13.758186,-29.22359,-38.572365,50.346798,-16.32963,5.79427,1.1277616,-1.4715465,10.123469,16.202805,16.379705,-13.555357,27.88145,11.463613,10.516858,9.695757,7.023342,-16.692009,14.489332,41.363953,-9.610305,8.834747,-11.671698
225,-24.04660987854004,-25.234708786010742,70.22301483154297,2.165854721303071,10.922279929222725,-141.71667774872353,-31.240498,4.8299894,14.267415,61.676933,-34.685635,-1.7395606,10.977117,-29.41578,-35.051945,54.793037,-16.86979,4.475106,0.3400097,-1.604529,10.288928,14.25161,16.554197,-14.114612,26.964144,12.027229,10.552273,9.672362,7.7607627,-16.709795,14.020281,41.671013,-9.408936,9.072525,-11.861356
226,-24.593164443969727,-25.830259323120117,70.13509368896484,2.2243208047353678,11.088530574448338,-141.01687871283178,-30.873352,4.281149,13.721356,61.774242,-35.16032,-1.8503007,7.910148,-28.739109,-30.708471,58.776855,-17.28881,4.696038,-0.45213556,-1.740577,10.4361105,12.138542,16.800201,-14.748567,26.018549,12.533619,10.615136,9.57085,8.557068,-16.766432,13.657989,41.93362,-9.313443,9.28909,-12.045219
227,-25.15974998474121,-26.429800033569336,70.07959747314453,2.2402534194451733,11.246732214449908,-140.3239702801809,-30.479744,3.8014064,13.128541,61.83177,-35.55288,-1.9923383,4.797352,-27.414803,-26.2471,62.44683,-17.624496,5.696579,-1.2354985,-1.8358276,10.556841,9.936961,17.104736,-15.456623,25.059069,12.978714,10.684936,9.485361,9.433143,-16.856297,13.362677,42.118008,-9.288558,9.4342985,-12.178792
228,-25.762033462524414,-27.044981002807617,70.06105041503906,2.1795844916599014,11.383381997493093,-139.65480391728636,-29.989351,3.4260108,12.48969,61.78398,-35.866962,-2.1539426,1.8191965,-25.784113,-22.279837,65.88229,-17.811703,6.6545806,-2.002017,-1.8573868,10.64531,7.723218,17.456833,-16.22742,24.098768,13.361729,10.741001,9.511091,10.40635,-16.972519,13.0998955,42.1917,-9.300147,9.45767,-12.218218
229,-26.38382911682129,-27.64720916748047,70.0858383178711,2.018491035652455,11.498727198443918,-139.00601700180124,-29.40315,3.1809595,11.784024,61.648514,-36.121235,-2.3338203,-1.0466465,-23.823326,-18.755207,69.070625,-17.718365,7.496206,-2.7581804,-1.7782329,10.692955,5.4400773,17.868061,-17.123323,23.194672,13.678376,10.773225,9.721418,11.498758,-17.118383,12.87845,42.152367,-9.382925,9.303238,-12.14321
230,-27.029705047607422,-28.253551483154297,70.14620208740234,1.7799203318834695,11.60033498139114,-138.37388481179312,-28.750587,3.0440516,11.023096,61.449085,-36.311596,-2.5362594,-3.8163202,-21.421747,-15.463803,71.99057,-17.455647,8.618054,-3.499082,-1.6248709,10.711388,3.0697956,18.336237,-18.139946,22.314415,13.9269,10.796153,10.050321,12.697041,-17.293997,12.706679,42.014896,-9.541457,9.011502,-11.97955
231,-27.719894409179688,-28.883398056030273,70.24482727050781,1.5148430842397362,11.686379096856573,-137.77454657783716,-28.003832,2.9656043,10.263327,61.123928,-36.398983,-2.7548587,-6.4214296,-18.91815,-12.631757,74.65273,-17.204313,9.829411,-4.213901,-1.4571562,10.721598,0.7469557,18.82718,-19.14564,21.351954,14.12079,10.822705,10.386759,13.948809,-17.487343,12.562745,41.787205,-9.6978445,8.678363,-11.756064
232,-28.410131454467773,-29.504146575927734,70.38825988769531,1.2746646194201403,11.754107051668175,-137.22159587477213,-27.135086,2.89366,9.558176,60.608772,-36.343704,-2.9825609,-8.842162,-16.6936,-10.433532,77.05315,-17.108059,10.892612,-4.902151,-1.3305305,10.737042,-1.3980033,19.298067,-19.995882,20.223343,14.28645,10.865092,10.620851,15.192904,-17.685051,12.432097,41.48998,-9.776982,8.40119,-11.504242
233,-29.104700088500977,-30.13214111328125,70.57705688476562,1.0721470635157284,11.79678455364625,-136.70965937676806,-26.133678,2.8159337,8.906603,59.88955,-36.149868,-3.232215,-11.13566,-14.912678,-8.890951,79.21489,-17.163115,11.705669,-5.5745006,-1.2568147,10.753661,-3.3752668,19.727816,-20.643309,18.936314,14.502855,10.948506,10.703956,16.42013,-17.887943,12.321832,41.14636,-9.74559,8.197178,-11.207691
234,-29.8281307220459,-30.77621078491211,70.80745697021484,0.887704699241309,11.817371496209876,-136.23213992911144,-25.014488,2.752584,8.287282,58.995113,-35.831493,-3.4995556,-13.360993,-13.453117,-7.8319693,81.11935,-17.270918,12.335511,-6.234152,-1.2066791,10.757853,-5.258833,20.122122,-21.163815,17.565641,14.748426,11.05707,10.702692,17.656319,-18.103683,12.239612,40.75046,-9.648667,8.019377,-10.86104
235,-30.554771423339844,-31.430971145629883,71.07406616210938,0.7202016519579985,11.827581252224734,-135.79935024178664,-23.791143,2.702353,7.716505,57.92644,-35.36288,-3.7524858,-15.514496,-12.277581,-7.126952,82.69368,-17.410444,12.77338,-6.868743,-1.1700393,10.748073,-7.016024,20.486094,-21.597157,16.132425,14.897188,11.142297,10.68244,18.891464,-18.329424,12.168198,40.280403,-9.530236,7.868719,-10.512668
236,-31.308725357055664,-32.108402252197266,71.38508605957031,0.5707612428118994,11.838712090090977,-135.42024389624189,-22.47861,2.6626682,7.2106395,56.685596,-34.719296,-3.9605806,-17.581955,-11.336294,-6.6562624,83.86417,-17.564777,13.022351,-7.467915,-1.139758,10.723564,-8.610148,20.825214,-21.979668,14.652375,14.82333,11.156615,10.709039,20.113754,-18.55693,12.091514,39.715504,-9.4377,7.745669,-10.212392
237,-32.086326599121094,-32.78649139404297,71.72486114501953,0.4486751032812616,11.852919774043098,-135.0915253456085,-21.068789,2.6252105,6.7735996,55.2481,-33.91873,-4.1133423,-19.593853,-10.700415,-6.437841,84.63203,-17.75096,13.001429,-8.030147,-1.1304802,10.685177,-10.0379925,21.144384,-22.292074,13.0946,14.498899,11.115862,10.78185,21.337238,-18.782778,12.001157,39.02361,-9.382034,7.660777,-9.965853
238,-32.8677864074707,-33.481483459472656,72.1063461303711,0.3524088236668042,11.863900178519955,-134.809391543701,-19.558834,2.590623,6.3957825,53.621162,-32.96457,-4.2288184,-21.55826,-10.391941,-6.48902,85.0213,-17.9605,12.717612,-8.557937,-1.1442329,10.633706,-11.320141,21.44741,-22.526304,11.462912,13.987565,11.0362015,10.87347,22.566141,-19.00698,11.902327,38.220375,-9.341465,7.610183,-9.749376
239,-33.668540954589844,-34.19281768798828,72.51888275146484,0.26586448108590777,11.86996897711029,-134.5828370834642,-17.97459,2.5700102,6.073406,51.856777,-31.81489,-4.32048,-23.416763,-10.273594,-6.70375,84.99485,-18.147675,12.317918,-9.044231,-1.1553364,10.569875,-12.455887,21.738104,-22.734034,9.82313,13.301264,10.871045,11.00867,23.76553,-19.226694,11.799666,37.365925,-9.313054,7.5715613,-9.570248
240,-34.50022506713867,-34.91776657104492,72.96431732177734,0.17298045207902146,11.869501010018656,-134.42105951390604,-16.339884,2.5733976,5.8037186,50.004093,-30.427504,-4.402035,-25.108788,-10.203374,-6.9823885,84.515594,-18.266308,11.952631,-9.479098,-1.1392186,10.495482,-13.446281,22.019691,-22.968323,8.242515,12.453563,10.572981,11.210633,24.900728,-19.43753,11.693864,36.522007,-9.296375,7.5225453,-9.436362
