unveil-humanoid-operators/unveil-humanoid-operators.github.io/feature-analysis-animation/data/feature_matrix_extreme/gender_jumping_elbow_mean_vel_high.csv
Frame,root_translateX,root_translateY,root_translateZ,root_rotateX,root_rotateY,root_rotateZ,left_hip_pitch_joint_dof,left_hip_roll_joint_dof,left_hip_yaw_joint_dof,left_knee_joint_dof,left_ankle_pitch_joint_dof,left_ankle_roll_joint_dof,right_hip_pitch_joint_dof,right_hip_roll_joint_dof,right_hip_yaw_joint_dof,right_knee_joint_dof,right_ankle_pitch_joint_dof,right_ankle_roll_joint_dof,waist_yaw_joint_dof,waist_roll_joint_dof,waist_pitch_joint_dof,left_shoulder_pitch_joint_dof,left_shoulder_roll_joint_dof,left_shoulder_yaw_joint_dof,left_elbow_joint_dof,left_wrist_roll_joint_dof,left_wrist_pitch_joint_dof,left_wrist_yaw_joint_dof,right_shoulder_pitch_joint_dof,right_shoulder_roll_joint_dof,right_shoulder_yaw_joint_dof,right_elbow_joint_dof,right_wrist_roll_joint_dof,right_wrist_pitch_joint_dof,right_wrist_yaw_joint_dof
0,-0.16275064647197723,3.063169240951538,78.31523895263672,1.973800468800642,-2.7550579250010903,-94.40419872282979,6.693493,3.6660373,14.270796,9.071379,-11.430544,-2.4434857,0.2592939,-9.738453,-18.695223,19.62567,-18.143465,3.2494943,-0.6784123,-1.0498924,11.710704,3.1799815,20.561735,-36.814053,42.263386,3.7068946,5.6879964,0.49569443,-9.226451,-17.620613,48.72463,47.507484,5.284288,7.6624885,0.22688316
1,-0.1652323454618454,3.0935819149017334,78.31800842285156,1.994533267352975,-2.6590018567080835,-94.37379104879531,6.4311028,3.6622815,14.219681,9.292981,-11.473945,-2.4021256,0.07423605,-9.783642,-18.71516,19.723326,-18.149595,3.2557726,-0.63180125,-1.0543498,11.796745,3.082726,20.606607,-36.738995,42.18737,3.4726477,5.736748,0.4098951,-9.411957,-17.63942,48.79906,47.39436,5.4938927,7.680892,0.17849278
2,-0.16832168400287628,3.1366944313049316,78.3169937133789,2.018109714020276,-2.5682325107428974,-94.34749974633162,6.1881056,3.6548166,14.17288,9.49311,-11.511175,-2.3604388,-0.1024287,-9.828933,-18.731445,19.817959,-18.156702,3.2631657,-0.61634105,-1.0661008,11.890873,3.0424914,20.68858,-36.609882,42.040257,3.2597435,5.7938933,0.30659136,-9.604542,-17.671425,48.908817,47.2724,5.726464,7.6986356,0.12489482
3,-0.1705092340707779,3.1893301010131836,78.31441497802734,2.0377364845400368,-2.467497194211946,-94.31361088382606,5.9154086,3.6511981,14.118314,9.721057,-11.556953,-2.3169181,-0.29671213,-9.8755245,-18.753748,19.921745,-18.163342,3.268847,-0.59990036,-1.079018,11.9934435,3.012076,20.796597,-36.49327,41.867428,3.0133305,5.839929,0.22201315,-9.806193,-17.709711,49.022865,47.118362,5.9389453,7.7195015,0.07680978
4,-0.17287984490394592,3.2488207817077637,78.31277465820312,2.0549491135164213,-2.341248533259615,-94.26048210823464,5.566828,3.658697,14.043887,10.019241,-11.623401,-2.2699666,-0.53370047,-9.92395,-18.791763,20.04583,-18.167982,3.2700682,-0.5793127,-1.0880895,12.1083145,2.979287,20.931976,-36.41589,41.6801,2.6868212,5.8551946,0.18760322,-10.0355,-17.750942,49.14832,46.907406,6.100881,7.7482567,0.04181457
5,-0.17244181036949158,3.3210463523864746,78.30831909179688,2.0699706242613924,-2.1808796516519475,-94.1853823356152,5.130986,3.6730816,13.946883,10.388765,-11.709178,-2.2152524,-0.82441795,-9.978412,-18.846462,20.191994,-18.171824,3.265847,-0.5550653,-1.0942501,12.223955,2.9247537,21.079897,-36.39004,41.51634,2.2508256,5.815343,0.22473484,-10.296916,-17.787481,49.28926,46.64857,6.161362,7.7975945,0.027850587
6,-0.1710648387670517,3.3951685428619385,78.30667114257812,2.0834951245967166,-1.9963221499529133,-94.09449453461114,4.6331735,3.691446,13.833477,10.809589,-11.808809,-2.154092,-1.156655,-10.0388975,-18.912338,20.3612,-18.175749,3.2579288,-0.52986175,-1.0993809,12.341155,2.8593967,21.240778,-36.398712,41.362846,1.7366573,5.736235,0.31199557,-10.585061,-17.818693,49.44469,46.357372,6.152032,7.861107,0.028658342
7,-0.17324136197566986,3.4756178855895996,78.30465698242188,2.0905884914474973,-1.800821863809255,-93.99021363310338,4.081963,3.723574,13.704842,11.2948885,-11.9310875,-2.092982,-1.5101625,-10.094953,-18.991188,20.540457,-18.176243,3.2471786,-0.4989015,-1.0954493,12.477834,2.7948885,21.414217,-36.433495,41.189568,1.190867,5.6567855,0.4189743,-10.900223,-17.84356,49.605427,46.029667,6.160382,7.9140806,0.03081351
8,-0.17655664682388306,3.5582520961761475,78.30156707763672,2.08131841327763,-1.6075338529691872,-93.87467534926948,3.4873297,3.778567,13.561815,11.854327,-12.082975,-2.0386908,-1.8673376,-10.137487,-19.08472,20.722464,-18.17119,3.2344775,-0.45690563,-1.0742786,12.651528,2.7414985,21.599346,-36.487465,40.967636,0.65891206,5.6168447,0.5164067,-11.2436075,-17.861082,49.762688,45.66201,6.274592,7.9317393,0.020874992
9,-0.17635191977024078,3.6591432094573975,78.29533386230469,2.058481555201567,-1.4148770400256885,-93.74881205853289,2.8485324,3.8565142,13.404585,12.48505,-12.26415,-1.9934994,-2.2289848,-10.165951,-19.193205,20.903955,-18.156813,3.2211838,-0.40315655,-1.03512,12.860815,2.690929,21.796108,-36.56329,40.698547,0.13168156,5.6303234,0.6096008,-11.616629,-17.870834,49.92136,45.24922,6.516395,7.910972,-0.0045450903
10,-0.18025676906108856,3.775129795074463,78.28384399414062,2.026305777337789,-1.2176931276927572,-93.61160381522303,2.1629574,3.951763,13.232173,13.179849,-12.469497,-1.9533525,-2.6032565,-10.185578,-19.315487,21.090912,-18.136234,3.2065396,-0.3404991,-0.98196346,13.098328,2.6419144,22.004692,-36.663013,40.394917,-0.40812933,5.6747227,0.71062684,-12.018336,-17.872341,50.08384,44.79532,6.838798,7.863809,-0.038061127
11,-0.1816931813955307,3.890864610671997,78.26941680908203,1.9779331614339497,-1.0235728058497502,-93.46265671248857,1.4349035,4.066527,13.043231,13.949064,-12.702924,-1.9159414,-2.981879,-10.194699,-19.45156,21.286306,-18.115656,3.1881132,-0.26926503,-0.91353744,13.37226,2.6148574,22.224113,-36.77807,40.043648,-0.92725223,5.736193,0.800569,-12.44823,-17.864674,50.239185,44.31183,7.2299676,7.787614,-0.07735704
12,-0.17923201620578766,4.021827697753906,78.24942779541016,1.9132694028885986,-0.8394783076813341,-93.3012838512851,0.6673347,4.2038045,12.835715,14.805107,-12.969245,-1.8788189,-3.3571658,-10.191324,-19.601223,21.494148,-18.102093,3.1633215,-0.1899165,-0.8281227,13.69054,2.6298048,22.452948,-36.899002,39.632782,-1.3913664,5.801161,0.86019033,-12.906991,-17.846697,50.377197,43.81172,7.6785955,7.679923,-0.11994568
13,-0.17762479186058044,4.161556243896484,78.22615814208984,1.8284894789786468,-0.6724338686071667,-93.12499345980824,-0.13530011,4.366521,12.605887,15.75478,-13.27644,-1.8423203,-3.713651,-10.171084,-19.76931,21.70166,-18.094513,3.1290176,-0.10448928,-0.71989864,14.061533,2.681543,22.692411,-37.035015,39.147823,-1.7673737,5.8862653,0.8699459,-13.39425,-17.815413,50.4982,43.301884,8.240368,7.520073,-0.16827449
14,-0.17148151993751526,4.305570125579834,78.19898223876953,1.726440178463202,-0.5167699213396868,-92.93505039923308,-0.97233725,4.5506434,12.354805,16.781813,-13.616953,-1.8068471,-4.0606523,-10.136778,-19.954195,21.913212,-18.091255,3.0871103,-0.0127699515,-0.591687,14.478201,2.7632887,22.943174,-37.186214,38.598743,-2.0811021,5.9926314,0.84502643,-13.912644,-17.769411,50.608494,42.778893,8.902907,7.31546,-0.22133555
15,-0.15978404879570007,4.460379123687744,78.16539764404297,1.6124657385227898,-0.3607830826421028,-92.73671758397889,-1.8559164,4.749926,12.087405,17.88357,-13.977146,-1.7698097,-4.425793,-10.096937,-20.146336,22.154482,-18.096043,3.0423274,0.0875418,-0.453697,14.925474,2.8922923,23.201653,-37.3308,38.011,-2.3878307,6.083803,0.81794924,-14.46032,-17.710585,50.70231,42.233627,9.547218,7.107004,-0.27243602
16,-0.14972369372844696,4.627309799194336,78.12541961669922,1.4889848608676437,-0.1930181023995489,-92.53560747603768,-2.793643,4.9576216,11.809284,19.050013,-14.341229,-1.7307712,-4.837533,-10.060346,-20.336227,22.453468,-18.114058,2.999262,0.19948483,-0.31513935,15.388796,3.0838113,23.461424,-37.446674,37.41286,-2.7421997,6.122522,0.82120603,-15.034895,-17.642921,50.775074,41.65299,10.057523,6.9358606,-0.31648508
17,-0.14135956764221191,4.7982330322265625,78.07931518554688,1.349409912099316,-0.015252140448985044,-92.32378027185328,-3.7976243,5.1823206,11.511975,20.302605,-14.717701,-1.688238,-5.2877874,-10.016442,-20.532278,22.798445,-18.136831,2.958084,0.32041454,-0.16205893,15.873879,3.3260195,23.718037,-37.5426,36.81279,-3.178017,6.0935054,0.8571092,-15.643854,-17.568073,50.82826,41.042088,10.412776,6.815899,-0.34477273
18,-0.1216350793838501,4.968221187591553,78.02489471435547,1.1932373303753114,0.1681833263977635,-92.10156418888364,-4.860013,5.4223013,11.194139,21.636677,-15.108627,-1.644446,-5.7668405,-9.965246,-20.735846,23.183556,-18.166306,2.9157114,0.45003003,0.007639531,16.384464,3.611991,23.969744,-37.626312,36.202465,-3.6589372,6.0174932,0.9101902,-16.283112,-17.48605,50.86272,40.4011,10.672055,6.724776,-0.3634071
19,-0.11007266491651535,5.15969181060791,77.95878601074219,1.0420257031279623,0.3645792519236497,-91.88656409657835,-5.95912,5.655715,10.874187,23.00508,-15.49491,-1.5997711,-6.3004932,-9.931509,-20.926605,23.643229,-18.222336,2.8719852,0.5936073,0.16561691,16.902569,3.964748,24.213972,-37.671677,35.58662,-4.1330457,5.910937,0.9859205,-16.93867,-17.402235,50.87687,39.716965,10.83961,6.649613,-0.39009875
20,-0.0976814553141594,5.359546661376953,77.88166046142578,0.9102571062538388,0.5811218508921727,-91.6961992019347,-7.0744357,5.861616,10.571526,24.363237,-15.858292,-1.5546422,-6.9143224,-9.939519,-21.083643,24.210606,-18.323637,2.8269079,0.7563683,0.28363666,17.411165,4.408819,24.447992,-37.650864,34.967983,-4.5478125,5.790488,1.0900563,-17.594233,-17.325968,50.869564,38.970806,10.919688,6.577425,-0.44229028
21,-0.08325230330228806,5.555243015289307,77.79916381835938,0.8007584223449996,0.815761088211813,-91.53044120847701,-8.214396,6.0429792,10.282997,25.730312,-16.195963,-1.5100218,-7.611722,-9.99016,-21.208315,24.897144,-18.477348,2.7764742,0.9430114,0.36620602,17.9202,4.937636,24.668604,-37.567997,34.34355,-4.8887367,5.6870337,1.2220858,-18.251513,-17.263058,50.840405,38.13915,10.90159,6.505605,-0.5099875
22,-0.06201593205332756,5.750751495361328,77.7051010131836,0.7029728281837081,1.0658216253803803,-91.38146522954513,-9.387373,6.20864,10.001626,27.124374,-16.518976,-1.466636,-8.379844,-10.07193,-21.308407,25.684069,-18.672777,2.7213116,1.1510509,0.4268766,18.434856,5.5405693,24.87412,-37.434074,33.715435,-5.1828356,5.5824833,1.379716,-18.912464,-17.216452,50.789463,37.226933,10.787451,6.4417105,-0.58893317
23,-0.04200630262494087,5.951008319854736,77.60202026367188,0.6256154813929885,1.3372978042390309,-91.25444072559407,-10.568874,6.3471513,9.741201,28.493475,-16.829836,-1.4240078,-9.220426,-10.190476,-21.373028,26.55853,-18.903563,2.6691318,1.3748646,0.4503321,18.932144,6.235263,25.065437,-37.23154,33.09331,-5.4413676,5.419204,1.5650349,-19.562618,-17.193861,50.718754,36.256676,10.602473,6.3884892,-0.7053032
24,-0.01983330212533474,6.14867639541626,77.48772430419922,0.5765201099703001,1.636175239260638,-91.15485295818362,-11.740153,6.4489536,9.515794,29.797703,-17.130793,-1.3810902,-10.139998,-10.352375,-21.39007,27.518309,-19.164001,2.62796,1.6089218,0.42107508,19.390347,7.0426607,25.24589,-36.940777,32.482063,-5.674626,5.139864,1.7793095,-20.181765,-17.205626,50.628643,35.24197,10.369262,6.349342,-0.8854541
25,0.011850468814373016,6.3368306159973145,77.36347198486328,0.5649788544442077,1.9708631842177473,-91.08209995958815,-12.909703,6.5039015,9.332227,31.032354,-17.407663,-1.3322855,-11.155285,-10.569783,-21.353094,28.57328,-19.455448,2.6096,1.8528852,0.32680452,19.808126,7.9847717,25.417095,-36.566357,31.864805,-5.8545938,4.715247,2.0548267,-20.794998,-17.260847,50.554066,34.15021,10.026519,6.340846,-1.161871
26,0.040442321449518204,6.526576042175293,77.22856140136719,0.5836556072543059,2.335779028421878,-91.03364229035117,-14.085788,6.522433,9.1831455,32.223484,-17.666405,-1.2803701,-12.260248,-10.833653,-21.267118,29.724186,-19.78084,2.6068335,2.111207,0.17865741,20.198608,9.04919,25.578697,-36.11383,31.237684,-5.9840503,4.180901,2.3789027,-21.395592,-17.364407,50.484116,32.968884,9.585207,6.3587933,-1.5117086
27,0.0789482519030571,6.713608741760254,77.07872009277344,0.6163224164927369,2.715838338702092,-91.01121058902228,-15.2432995,6.524371,9.062303,33.36448,-17.938337,-1.2361982,-13.417079,-11.11615,-21.139359,30.931124,-20.12869,2.5993185,2.3867154,-0.0052844062,20.561342,10.2054405,25.731594,-35.568607,30.622932,-6.121393,3.576099,2.6847475,-21.922462,-17.521881,50.351433,31.746178,9.180352,6.3745136,-1.8786198
28,0.12178768217563629,6.901602268218994,76.91342163085938,0.6463760327771491,3.096184721513204,-91.01688497362528,-16.35807,6.5293593,8.962425,34.450985,-18.256306,-1.2104589,-14.589926,-11.390833,-20.977615,32.159138,-20.490461,2.566265,2.6841874,-0.20634928,20.896189,11.423049,25.87774,-34.9186,30.041725,-6.327692,2.9401278,2.9048371,-22.31247,-17.739641,50.083603,30.531422,8.944623,6.3545613,-2.2066202
29,0.17649294435977936,7.074263095855713,76.73595428466797,0.6731201491705323,3.474909118295537,-91.05472687737232,-17.422342,6.535793,8.871927,35.47166,-18.62756,-1.2207887,-15.784881,-11.656992,-20.77636,33.42337,-20.873745,2.4927742,3.0120845,-0.42374536,21.198652,12.728632,26.02017,-34.16558,29.472815,-6.5550914,2.2313745,2.9994605,-22.566315,-18.025745,49.656555,29.278656,8.784788,6.3042355,-2.4666603
30,0.234951913356781,7.240780353546143,76.54495239257812,0.7038252662774548,3.8594085344712754,-91.12237236202697,-18.44992,6.536433,8.798389,36.43352,-19.035875,-1.2563365,-17.016567,-11.9245825,-20.532892,34.733807,-21.280054,2.3922553,3.3725026,-0.6658774,21.472363,14.131117,26.158072,-33.32205,28.90565,-6.7965345,1.4475595,3.0103776,-22.702805,-18.386354,49.100037,27.966942,8.67164,6.234994,-2.693264
31,0.29528623819351196,7.410808563232422,76.33763885498047,0.7342930211518167,4.248975793825033,-91.21253568394356,-19.449713,6.5432606,8.762709,37.358448,-19.477345,-1.2847399,-18.26007,-12.182854,-20.261108,36.045017,-21.688787,2.2865646,3.7589474,-0.92891264,21.726955,15.571806,26.284822,-32.391834,28.383928,-7.1744876,0.68594474,2.9894805,-22.6938,-18.825539,48.425777,26.684746,8.838153,6.126846,-2.9269674
32,0.352762371301651,7.5665106773376465,76.1220932006836,0.7600770846192898,4.642634989742498,-91.31791674123008,-20.429018,6.568371,8.784941,38.264423,-19.94611,-1.2737985,-19.491766,-12.422257,-19.97598,37.31463,-22.080566,2.1987915,4.1659365,-1.2073925,21.971096,16.986511,26.3896,-31.38217,27.959919,-7.809165,0.04291484,2.987695,-22.507725,-19.345665,47.642956,25.523874,9.515672,5.956306,-3.2068112
33,0.42112284898757935,7.718139171600342,75.89924621582031,0.7698116694852789,5.046114616192719,-91.44277373153348,-21.394354,6.6308465,8.881839,39.155323,-20.46774,-1.2050036,-20.714998,-12.627993,-19.679003,38.53012,-22.455378,2.1339066,4.602966,-1.48719,22.198252,18.381514,26.462765,-30.291584,27.648973,-8.708078,-0.48597625,3.0216444,-22.125036,-19.954708,46.715893,24.457798,10.963496,5.681646,-3.5126114
34,0.5011129975318909,7.86190128326416,75.67484283447266,0.7682870036681254,5.457903515716046,-91.58906869998047,-22.339783,6.721258,9.037018,40.02013,-21.035551,-1.0990853,-21.940386,-12.808552,-19.364819,39.717476,-22.823132,2.0821404,5.0760894,-1.7702376,22.405552,19.771091,26.499037,-29.132555,27.441286,-9.813914,-0.9433535,3.0602067,-21.548937,-20.657486,45.639214,23.442873,12.991975,5.3196244,-3.8254309
35,0.5846903324127197,7.988331317901611,75.45278930664062,0.7757927511606301,5.866365838881507,-91.7460679089273,-23.255337,6.8087626,9.221195,40.857796,-21.596275,-0.9824707,-23.150953,-12.987335,-19.03764,40.880013,-23.17237,2.043216,5.5706697,-2.0761874,22.606354,21.099665,26.495335,-27.928017,27.35601,-11.149236,-1.29049,3.0847516,-20.78834,-21.446018,44.474392,22.559834,15.157154,4.9327536,-4.188506
36,0.6753095388412476,8.104452133178711,75.23909759521484,0.812808540920252,6.259919113180118,-91.90272189375585,-24.129509,6.8612585,9.406939,41.665127,-22.096346,-0.8813048,-24.330223,-13.189131,-18.700994,42.023453,-23.493664,2.0151083,6.067813,-2.4250956,22.81547,22.312952,26.449608,-26.694056,27.410965,-12.736901,-1.488181,3.0783987,-19.856583,-22.29933,43.28632,21.899797,17.017048,4.5835295,-4.6534133
37,0.7585586309432983,8.209993362426758,75.03096771240234,0.8948968635969013,6.655687593147469,-92.06026650454672,-24.979387,6.8618684,9.597841,42.43714,-22.513367,-0.80023456,-25.485085,-13.423455,-18.343407,43.11396,-23.796175,2.0057738,6.5750237,-2.8353932,23.024462,23.413773,26.35525,-25.400846,27.622995,-14.523406,-1.4945353,3.0380096,-18.716705,-23.19823,42.009766,21.493635,18.63064,4.245602,-5.279018
38,0.8468917608261108,8.304786682128906,74.83055114746094,1.0076984620173486,7.053135365704768,-92.22270935840814,-25.803629,6.8308306,9.806585,43.175842,-22.87803,-0.72559613,-26.62045,-13.67546,-17.966444,44.158432,-24.079962,2.0113778,7.0928645,-3.2898724,23.229424,24.422176,26.210543,-24.049927,27.98858,-16.514248,-1.3397912,2.9814422,-17.369898,-24.130747,40.634697,21.310007,20.172876,3.8913558,-6.0222673
39,0.9320164918899536,8.387348175048828,74.63751983642578,1.1288208058527662,7.414660685973677,-92.38308491816755,-26.565592,6.7908216,10.019107,43.893604,-23.21912,-0.6559832,-27.720896,-13.936325,-17.592258,45.230854,-24.325962,2.0107782,7.5839972,-3.7588105,23.450306,25.317068,26.026316,-22.692125,28.488182,-18.823572,-1.0923686,2.9237974,-15.91186,-25.08163,39.322704,21.3677,21.381176,3.5925932,-6.793223
40,1.009667158126831,8.458501815795898,74.45532989501953,1.2360711255573045,7.702248730003111,-92.53477795969737,-27.228659,6.7641535,10.220758,44.601734,-23.56474,-0.5903486,-28.76867,-14.198829,-17.243162,46.40225,-24.514244,1.9819976,8.00554,-4.2168937,23.704933,26.088202,25.818354,-21.36826,29.091486,-21.57077,-0.8202667,2.876531,-14.45773,-26.031076,38.24484,21.698954,21.9932,3.431987,-7.507694
41,1.094415545463562,8.511948585510254,74.28196716308594,1.3382564250923785,7.917352581729231,-92.6607170262856,-27.791779,6.7349086,10.404706,45.286568,-23.905664,-0.5287209,-29.73491,-14.472993,-16.925022,47.63229,-24.681684,1.9189025,8.340275,-4.682156,23.990736,26.774328,25.592478,-20.031416,29.800547,-24.976746,-0.61561173,2.7850792,-13.028408,-26.962004,37.435993,22.371351,21.825089,3.4841263,-8.237941
42,1.1738685369491577,8.55160903930664,74.11149597167969,1.4434982489422328,8.076025247489774,-92.7696468911897,-28.270632,6.697111,10.580302,45.945473,-24.231277,-0.47150484,-30.637974,-14.76316,-16.623648,48.9037,-24.826279,1.8292264,8.598384,-5.16935,24.292696,27.385963,25.346863,-18.661034,30.617567,-28.919655,-0.41035426,2.6654813,-11.603485,-27.86021,36.829384,23.388485,21.056992,3.7059453,-9.001129
43,1.244017243385315,8.577198028564453,73.94688415527344,1.529332170320903,8.162947254549868,-92.89416510247287,-28.654472,6.6872196,10.756637,46.60759,-24.567919,-0.41853434,-31.527338,-15.0571,-16.333918,50.320236,-24.867964,1.7109209,8.776991,-5.6536584,24.605635,27.873686,25.090015,-17.333063,31.510216,-33.008015,-0.045324624,2.648565,-10.260993,-28.715937,36.45445,24.705257,19.968454,4.0024605,-9.630351
44,1.3211424350738525,8.597439765930176,73.78467559814453,1.573489902895859,8.162164145498044,-93.06654288181507,-28.931765,6.741572,10.942256,47.30031,-24.941235,-0.3697963,-32.451588,-15.342508,-16.050938,51.98697,-24.727531,1.5610421,8.874744,-6.111369,24.925983,28.189898,24.837318,-16.121494,32.441776,-36.857506,0.61903566,2.8840976,-9.075507,-29.522324,36.3384,26.27182,18.836079,4.2652764,-9.96256
45,1.4049427509307861,8.610021591186523,73.62620544433594,1.5696583899530077,8.06387664212252,-93.30351972646201,-29.091734,6.8728533,11.147429,48.034508,-25.357828,-0.32040197,-33.40055,-15.595779,-15.740085,53.92085,-24.40534,1.4261361,8.9005375,-6.551409,25.257454,28.374247,24.59465,-15.035069,33.439583,-40.711155,1.5895714,3.4242086,-8.091553,-30.280224,36.616615,28.19209,17.531443,4.4955482,-9.908257
46,1.4971085786819458,8.615110397338867,73.46495056152344,1.531394543127907,7.877573824264615,-93.58475168931362,-29.140486,7.0588846,11.365304,48.790268,-25.801823,-0.2723498,-34.35152,-15.83425,-15.415567,56.065258,-23.93762,1.2871351,8.846479,-6.9925284,25.591728,28.447067,24.363121,-14.024875,34.504063,-44.67899,2.7641137,4.233772,-7.286921,-30.990965,37.25199,30.470339,15.967066,4.7276983,-9.570928
47,1.5962382555007935,8.614493370056152,73.30821228027344,1.4660514299077265,7.616621381716262,-93.88693768036684,-29.092821,7.2820773,11.579606,49.55314,-26.268333,-0.23571977,-35.334457,-16.110844,-15.147453,58.416786,-23.29045,1.042244,8.696777,-7.422269,25.914715,28.33179,24.162695,-13.085695,35.545864,-48.185932,4.1132736,5.321861,-6.6113443,-31.650658,37.98944,32.89216,14.478554,4.894752,-9.081068
48,1.6956515312194824,8.604092597961426,73.15436553955078,1.3822285245152748,7.294498218225049,-94.18641211343349,-28.964062,7.5245533,11.774402,50.30859,-26.752487,-0.22049694,-36.376347,-16.482353,-15.00773,60.96802,-22.429035,0.5879932,8.451184,-7.825648,26.21997,27.946854,24.03046,-12.225735,36.467293,-50.663612,5.632019,6.6662436,-5.99018,-32.25586,38.547367,35.228848,13.403346,4.9419775,-8.569199
49,1.7965471744537354,8.584160804748535,73.00675201416016,1.2940073043888989,6.907726505267859,-94.48996640971518,-28.740185,7.773799,11.968145,51.049397,-27.259188,-0.23292997,-37.509815,-16.996399,-15.0009985,63.81744,-21.189758,-0.19671878,8.135707,-8.207858,26.522192,27.282648,24.011375,-11.515259,37.18541,-51.69611,7.710694,8.350214,-5.3732677,-32.80647,39.0311,37.55739,12.7096195,4.8477864,-8.034665
50,1.8919514417648315,8.553274154663086,72.86406707763672,1.1968750568737105,6.449674607190791,-94.80315517707292,-28.415636,8.03619,12.164265,51.781124,-27.786192,-0.26600447,-38.698677,-17.638458,-15.10826,66.91989,-19.633926,-1.2378947,7.7677927,-8.580002,26.827765,26.374937,24.116045,-10.943908,37.75246,-51.74367,10.276292,10.311563,-4.7792144,-33.305954,39.49638,39.932663,12.257855,4.646638,-7.421867
51,1.976602554321289,8.518280029296875,72.72260284423828,1.0681742775591416,5.930428058556429,-95.1015062043391,-28.018856,8.3245735,12.324257,52.508858,-28.323286,-0.30992457,-39.871143,-18.36839,-15.35416,70.06462,-18.071964,-2.3480394,7.3386893,-8.926715,27.125778,25.206959,24.32581,-10.404167,38.269745,-51.505463,12.626349,12.298392,-4.2141643,-33.758015,39.57457,42.07497,12.227419,4.380721,-6.77348
52,2.0554215908050537,8.474100112915039,72.5898666381836,0.8830480682396722,5.360747928681879,-95.36099422674475,-27.582466,8.655347,12.408181,53.244335,-28.858374,-0.35533434,-40.961514,-19.132795,-15.74882,73.06139,-16.831163,-3.3376331,6.8471107,-9.22128,27.409506,23.761248,24.6201,-9.796432,38.837017,-51.621105,14.008746,14.100852,-3.6541352,-34.17481,38.875595,43.682587,12.792859,4.0971117,-6.1261754
53,2.135941743850708,8.4262056350708,72.46517944335938,0.6234119946522395,4.740308795813324,-95.59524569234654,-27.10727,9.0584755,12.416084,54.004436,-29.400667,-0.4052864,-41.897686,-20.013498,-16.44246,75.89703,-15.933943,-4.1973534,6.3169456,-9.432199,27.673838,22.014847,24.98394,-9.122635,39.576626,-52.158527,14.040547,15.642964,-2.9156773,-34.549206,37.08129,44.64398,14.159247,3.8217065,-5.356304
54,2.2088735103607178,8.378555297851562,72.34574127197266,0.3055980443777561,4.063152281380222,-95.80692336874294,-26.576342,9.516005,12.366899,54.776493,-29.951122,-0.463248,-42.714508,-21.023697,-17.371658,78.683395,-15.253123,-5.0359006,5.754503,-9.564541,27.933985,19.965008,25.434784,-8.446611,40.41415,-52.743248,13.177146,17.018738,-2.0023322,-34.887554,34.432755,45.09544,16.178255,3.5507026,-4.4779806
55,2.281630754470825,8.327155113220215,72.23303985595703,-0.047955562299106365,3.335067121056256,-95.95969173650218,-26.001709,9.980653,12.247833,55.532734,-30.489134,-0.52172375,-43.533546,-21.958326,-18.216192,81.41903,-14.8779545,-5.7991123,5.125907,-9.65162,28.209112,17.640646,26.006174,-7.751,41.143723,-53.331577,11.898902,18.29829,-1.1832793,-35.23791,31.39708,45.106586,18.499578,3.270226,-3.7370512
56,2.3409829139709473,8.288532257080078,72.12672424316406,-0.4178527530372782,2.5652198383609774,-96.02176801272152,-25.400223,10.410462,12.045804,56.247505,-30.994759,-0.5736511,-44.511345,-22.576307,-18.652872,84.0924,-14.875183,-6.3937683,4.398986,-9.7304125,28.513447,15.063488,26.734417,-7.028017,41.564526,-53.90002,10.689412,19.564884,-0.7273994,-35.685417,28.438858,44.727905,20.774586,2.9366288,-3.3803525
57,2.3993303775787354,8.251742362976074,72.02645111083984,-0.811984076157207,1.7538177676059539,-95.97849250558585,-24.784914,10.801656,11.74193,56.934456,-31.473478,-0.6120152,-45.745037,-22.629396,-18.485426,86.70085,-15.364049,-6.657295,3.556983,-9.805336,28.837425,12.198924,27.607243,-6.281428,41.585945,-54.57962,9.642802,21.109537,-0.5655993,-36.301094,25.524778,43.803017,23.111715,2.444887,-3.5494537
58,2.4548110961914062,8.226045608520508,71.9323501586914,-1.2430591754666938,0.9011864557399908,-95.85270835182324,-24.14968,11.185191,11.348086,57.60341,-31.933907,-0.6438557,-47.162373,-22.24069,-17.942728,89.25425,-16.259315,-6.6292214,2.6154706,-9.848287,29.171164,9.020229,28.616608,-5.552567,41.359333,-55.320843,8.510353,22.788004,-0.50406075,-37.114006,22.442373,42.271255,25.637913,1.8180343,-4.0712714
59,2.51293683052063,8.208389282226562,71.85218048095703,-1.6982947669797754,0.01725555762049249,-95.66968175809394,-23.482866,11.569406,10.898372,58.22438,-32.36057,-0.68293506,-48.675747,-21.730171,-17.329254,91.75109,-17.310326,-6.5190206,1.6149052,-9.847266,29.525953,5.5214806,29.812098,-4.9421983,41.06516,-55.870655,7.2858152,24.048014,-0.6237323,-38.150925,19.35962,40.32824,28.034986,1.2004914,-4.7311826
60,2.569622278213501,8.208296775817871,71.78221130371094,-2.162207074356946,-0.8617232941832462,-95.45500876862415,-22.802834,11.95757,10.429297,58.767212,-32.733917,-0.74122995,-50.232784,-21.44698,-16.916355,94.1818,-18.255339,-6.553984,0.5844147,-9.805245,29.793802,1.7127069,31.249592,-4.578488,40.929348,-56.009346,6.0056324,24.33893,-1.0521312,-39.411304,16.503687,38.258034,29.993155,0.77439356,-5.3167377
61,2.6180193424224854,8.212102890014648,71.73066711425781,-2.609619950483975,-1.7200910848098834,-95.18905955389553,-22.134466,12.308911,9.942671,59.243126,-33.05365,-0.8150665,-51.8611,-21.534973,-16.740526,96.56427,-19.069092,-6.8190885,-0.49981576,-9.779008,29.793802,-2.5629566,32.918003,-4.6537933,41.139977,-55.880165,4.5654936,23.090883,-1.9515939,-40.877472,14.081032,36.227295,31.473166,0.5950973,-5.866688
62,2.6468560695648193,8.210654258728027,71.69720458984375,-3.0525466533883057,-2.619490671994116,-94.86488956590388,-21.407084,12.628735,9.428846,59.655605,-33.332375,-0.9011495,-53.529392,-21.802065,-16.644949,98.89841,-19.883575,-7.1885405,-1.6216104,-9.794996,29.793802,-7.3753285,34.766754,-5.134548,41.494114,-55.607082,2.9696836,20.755945,-3.3462849,-42.524174,11.94841,34.09185,32.624115,0.5450968,-6.495723
63,2.670156717300415,8.21003532409668,71.69488525390625,-3.5354957992367524,-3.5325098694667516,-94.53059751834155,-20.629059,12.9871855,8.904321,59.977207,-33.559055,-1.007145,-55.229267,-22.117834,-16.592833,101.14526,-20.649734,-7.590001,-2.7210972,-9.791926,29.793802,-12.6433325,36.781796,-6.1108136,42.044163,-54.998238,1.4230173,18.321264,-5.163253,-44.337914,10.106629,31.982044,33.488228,0.59719074,-7.0904603
64,2.684351921081543,8.221475601196289,71.71685028076172,-4.097526458583392,-4.45448558440522,-94.23279708758751,-19.779585,13.459306,8.385773,60.175186,-33.723434,-1.1420615,-56.922153,-22.345652,-16.566648,103.26192,-21.321526,-7.952376,-3.8303652,-9.718295,29.793802,-18.156761,38.68068,-7.4446554,42.823093,-53.536583,0.03763599,16.825874,-7.787902,-46.036457,8.841983,30.420685,33.906525,0.65142655,-7.6062965
65,2.6939098834991455,8.232902526855469,71.77479553222656,-4.743802735522817,-5.369710670080324,-93.99308454311596,-18.887836,14.073579,7.8819637,60.283813,-33.840694,-1.3102179,-58.655216,-22.48178,-16.590834,105.22834,-21.873724,-8.31478,-4.785861,-9.588831,29.793802,-24.337591,40.83547,-9.671529,43.90955,-51.143433,-0.91349965,16.50107,-10.716335,-47.953007,7.862939,28.825493,34.395615,0.7928123,-7.884933
66,2.69697904586792,8.238187789916992,71.87507629394531,-5.4477292057401785,-6.255138904221458,-93.78249516558232,-17.98482,14.780269,7.389377,60.30786,-33.90644,-1.5032439,-60.472157,-22.600536,-16.66195,107.07176,-22.326622,-8.704043,-5.6489053,-9.499363,29.793802,-31.227749,43.383217,-12.955128,45.11258,-48.32491,-1.4667202,16.762964,-13.828825,-50.27909,7.1405153,26.934607,35.066727,1.0878665,-7.9452367
67,2.6986029148101807,8.240190505981445,72.02271270751953,-6.209888780279944,-7.100228771126731,-93.57108793166667,-17.052647,15.545248,6.900745,60.176147,-33.88611,-1.71148,-62.321526,-22.676743,-16.729239,108.82325,-22.703838,-9.021183,-6.6640253,-9.389587,29.793802,-37.956158,45.74132,-16.414427,46.066177,-45.275734,-1.898306,17.415691,-17.796064,-52.528725,7.1760063,25.46812,35.04213,1.4510436,-7.976137
68,2.6947834491729736,8.23111343383789,72.22077941894531,-7.0183711717742,-7.867840688815249,-93.33183443441733,-16.111486,16.332937,6.4052424,59.824703,-33.742207,-1.923661,-64.19145,-22.686193,-16.739164,110.51355,-23.023731,-9.167449,-7.7826204,-9.208673,29.793802,-44.627663,47.99563,-20.233091,47.050877,-43.008396,-2.3666701,18.152088,-22.448393,-54.79321,8.004391,24.524769,34.051056,1.9189426,-8.017655
69,2.6937787532806396,8.209691047668457,72.4795913696289,-7.894509421745995,-8.541561660083762,-93.02564404198897,-15.2286825,17.143772,5.8354087,59.304714,-33.49741,-2.144004,-66.14872,-22.557323,-16.641285,112.12804,-23.250673,-9.032469,-9.034701,-8.906092,29.793802,-51.2997,50.171013,-24.498257,48.048443,-41.811966,-2.9377499,19.034313,-27.87029,-57.07505,9.661206,23.986912,31.661705,2.6020312,-8.000597
70,2.694455146789551,8.175333976745605,72.79841613769531,-8.829598490324594,-9.130455541722414,-92.68026341750486,-14.39157,17.99424,5.215247,58.63166,-33.160427,-2.3743458,-68.19483,-22.321396,-16.47923,113.65593,-23.390057,-8.689939,-10.391284,-8.46581,29.793802,-57.970474,52.24975,-29.190205,48.871597,-41.2423,-3.5054197,20.158497,-34.100285,-59.323345,12.193377,23.699009,28.221695,3.4572306,-7.8816323
71,2.689069986343384,8.134209632873535,73.17959594726562,-9.780393999283245,-9.628575881628016,-92.37192672214307,-13.514767,18.873285,4.667109,57.691048,-32.672848,-2.599537,-70.23385,-22.108114,-16.334938,115.142,-23.512209,-8.318679,-11.743179,-7.880226,29.793802,-64.444695,54.19155,-34.04164,49.42122,-41.00148,-4.015856,21.292189,-40.876534,-61.48363,15.558972,23.683666,24.531355,4.304802,-7.763952
72,2.6917147636413574,8.080263137817383,73.63153076171875,-10.706239190538968,-10.040820652101948,-92.17590981953182,-12.504527,19.771784,4.31372,56.37438,-31.980755,-2.805729,-72.15722,-22.05209,-16.287193,116.63304,-23.685047,-8.105855,-12.951843,-7.1382117,29.793802,-70.57495,55.98581,-38.829502,49.669865,-40.803204,-4.4181876,22.207321,-47.90287,-63.527954,19.653038,23.993206,21.388132,4.985011,-7.7904196
73,2.7033345699310303,8.011310577392578,74.15837860107422,-11.600132261881877,-10.377669715310027,-92.09017231079464,-11.364472,20.678555,4.137712,54.70142,-31.133783,-2.9931297,-73.93043,-22.264946,-16.388226,118.12265,-23.9295,-8.156389,-13.966327,-6.25134,29.793802,-76.57321,57.66041,-43.656025,49.681274,-40.73768,-4.612693,22.8351,-55.17104,-65.4614,24.485134,24.577856,18.777555,5.4889793,-8.162792
74,2.738042116165161,7.931885242462158,74.7610092163086,-12.481940423269444,-10.636559631854954,-92.08573758856046,-10.144735,21.594812,4.090028,52.73217,-30.145878,-3.1713758,-75.61156,-22.656006,-16.577229,119.591385,-24.206816,-8.362213,-14.804776,-5.2076597,29.793802,-82.57896,59.2156,-48.654957,49.49276,-40.90556,-4.668878,23.30791,-62.728817,-67.23914,29.992989,25.308718,16.36063,5.9232597,-8.774589
75,2.7781217098236084,7.834108352661133,75.44189453125,-13.347403942350276,-10.813952340752127,-92.19862296280773,-8.803028,22.529871,4.2510433,50.411297,-28.919514,-3.3431156,-77.21382,-23.0545,-16.770473,121.068924,-24.496387,-8.591756,-15.431665,-3.9923487,29.793802,-88.406166,60.61257,-53.679928,49.17942,-41.007168,-4.778668,23.697855,-70.34544,-68.77779,35.90059,26.19167,14.417311,6.288797,-9.327064
76,2.8501105308532715,7.70572566986084,76.20252990722656,-14.199445819062104,-10.912866129186897,-92.46413793261345,-7.289823,23.49197,4.703525,47.689476,-27.36137,-3.5117638,-78.74513,-23.283464,-16.893904,122.58286,-24.77915,-8.708084,-15.80924,-2.5916593,29.793802,-93.88035,61.817955,-58.586613,48.88859,-40.741226,-5.1304817,24.073502,-77.770004,-70.0163,41.898582,27.304073,13.2077055,6.556972,-9.517163
77,2.948164463043213,7.55863618850708,77.03605651855469,-15.07527464114894,-10.977709102446802,-92.92119126263496,-5.4083323,24.537071,5.559525,44.350014,-25.539629,-3.6981544,-80.16135,-23.220135,-16.975067,124.138695,-25.010609,-8.586519,-15.885101,-0.9786906,29.793802,-99.11608,62.82043,-63.37569,48.76157,-39.855637,-5.7861495,24.479498,-84.99217,-70.94626,47.948982,28.822939,13.05147,6.6926723,-9.215752
78,3.0693390369415283,7.394242286682129,77.9161148071289,-15.966600311121601,-11.019551410793223,-93.5422687241951,-3.241243,25.610134,6.7559814,40.561443,-23.522322,-3.9108064,-81.44387,-22.973621,-17.056366,125.72424,-25.22531,-8.323745,-15.6816,0.8107094,29.793802,-104.2806,63.62545,-68.18072,48.839058,-38.564545,-6.631543,24.879072,-92.118965,-71.5747,54.11606,30.747686,13.706758,6.7144413,-8.61297
79,3.196429491043091,7.217185974121094,78.83075714111328,-16.79950426491367,-10.98913662839908,-94.26288141678565,-1.1706172,26.577477,8.091798,36.859253,-21.21535,-4.1203475,-82.63878,-22.714188,-17.082354,127.33864,-25.520458,-8.115734,-15.27932,2.6947901,29.793802,-109.266426,64.24666,-73.047295,49.16734,-37.264534,-7.5937314,25.20424,-99.0425,-71.89713,60.225216,32.94634,14.581962,6.6616445,-7.8715124
80,3.325042963027954,7.030730724334717,79.78128051757812,-17.503062080155686,-10.827846354280632,-95.01751474065183,0.41941893,27.35015,9.345383,33.73568,-18.493093,-4.2770934,-83.794,-22.616112,-16.985228,128.98314,-25.989782,-8.164651,-14.770351,4.5755014,29.793802,-113.98297,64.71647,-78.06399,49.809605,-36.36814,-8.608669,25.363306,-105.61694,-71.92941,66.08062,35.28767,15.084752,6.5577645,-7.144063
81,3.4587972164154053,6.83735466003418,80.77558898925781,-18.13579485963324,-10.455456773548514,-95.8072241665676,1.4072615,28.012257,10.398861,31.203444,-15.191837,-4.1548595,-84.98639,-22.687334,-16.736467,130.72374,-26.667227,-8.466612,-14.182296,6.547537,29.793802,-118.525085,65.08407,-83.49436,50.88577,-36.11424,-9.77234,25.366383,-111.89306,-71.70616,71.62102,37.825596,14.86593,6.4014125,-6.272807
82,3.5949761867523193,6.645418167114258,81.80443572998047,-18.70825831193869,-9.93292230918393,-96.6579214670364,1.9418194,28.633247,11.3622675,29.15954,-11.48373,-3.8388019,-86.15319,-22.836658,-16.353367,132.54372,-27.515408,-8.9326725,-13.504876,8.5662365,29.793802,-122.99076,65.38588,-89.338715,52.400036,-36.28196,-11.083881,25.205725,-117.84816,-71.2571,76.86392,40.619644,14.309362,6.174858,-5.22762
83,3.726585626602173,6.475337028503418,82.87060546875,-19.089749118561546,-9.393575395270636,-97.5366656405994,2.137947,29.102192,12.353985,27.690638,-7.619721,-3.7395608,-87.15418,-23.10246,-15.829962,134.30946,-28.511738,-9.641388,-12.778617,10.348418,29.793802,-127.2122,65.65136,-95.241714,54.2279,-36.585197,-12.337165,24.75743,-123.275635,-70.616,81.81161,43.580235,13.934475,5.8759966,-4.349629
84,3.829409122467041,6.343328952789307,83.97931671142578,-19.14634888027404,-8.959178574732793,-98.4108237055238,2.218604,29.252666,13.491989,26.654297,-3.7132893,-4.277229,-87.87086,-23.533648,-15.160613,135.8917,-29.628447,-10.672018,-12.021665,11.656659,29.793802,-130.93419,65.91636,-100.75765,56.21956,-36.718166,-13.32599,23.921684,-128.01715,-69.83052,86.540306,46.65257,14.26068,5.517406,-3.9786217
85,3.91357684135437,6.239904403686523,85.12522888183594,-18.781857623396885,-8.608265954601881,-99.30399008588613,2.3924663,29.057596,15.378109,25.658335,0.75729454,-5.878932,-88.337975,-24.30244,-14.270799,137.32605,-30.980032,-12.222701,-11.154942,12.478131,29.793802,-134.03082,66.237946,-105.8118,58.350147,-36.291176,-13.910428,22.529411,-132.17393,-68.95375,91.439095,49.912758,15.652011,5.0063305,-4.384621
86,3.9877614974975586,6.149736404418945,86.26277923583984,-18.084409900953133,-8.286634371775932,-100.21744031266509,2.583277,28.500933,17.660755,24.619955,5.811079,-8.27515,-88.6363,-25.315308,-13.155524,138.6536,-32.579906,-14.164635,-10.137589,13.065701,29.793802,-136.28206,66.673355,-110.15658,60.713707,-35.41706,-14.273693,20.709068,-135.97685,-68.021866,96.65447,53.424923,17.754263,4.3423953,-5.2956815
87,4.042774200439453,6.110623359680176,87.38525390625,-17.212185949006756,-8.059660241596866,-101.07941009362031,2.6248822,27.436018,19.09771,23.75937,10.598934,-10.853839,-88.800735,-25.84236,-11.498792,139.73996,-34.190605,-15.000033,-9.030862,13.598417,29.793802,-137.32903,67.25141,-113.137115,63.34651,-34.58428,-14.673368,18.832445,-139.38286,-67.067184,101.81696,57.100285,20.000843,3.6992846,-6.2485266
88,4.096144199371338,6.1280837059021,88.52761840820312,-16.211443090353658,-7.98865814368793,-101.65483883027561,2.3904414,25.60725,18.504677,23.26331,14.297315,-12.928755,-88.72317,-25.903605,-9.442326,140.5536,-35.614395,-15.000033,-8.175238,13.920944,29.793802,-137.27243,67.97767,-114.83916,66.20611,-34.558147,-15.279768,17.224848,-142.02687,-66.13708,106.15315,60.790745,21.827765,3.2921755,-6.829162
89,4.1119256019592285,6.223047733306885,89.60353088378906,-15.144831485424511,-7.972951669805048,-102.13241846952572,1.6407843,22.93698,15.109861,23.490498,16.402407,-14.299506,-88.423134,-25.781582,-7.5650234,140.9998,-36.75717,-15.000033,-7.4158936,13.950291,29.433,-136.26831,68.83653,-115.65849,69.2216,-35.922195,-16.14708,15.83317,-143.41147,-65.29269,109.10079,64.519135,22.808989,3.4100943,-6.759949
90,4.09351921081543,6.377590656280518,90.60140228271484,-13.963692482529815,-8.078434136686065,-102.56434174010056,0.6692081,19.564957,10.018277,24.541204,17.27186,-15.000033,-87.82399,-25.532759,-5.7982535,141.13182,-37.732014,-15.000033,-6.7379746,13.631155,29.070824,-134.77829,69.86817,-116.01888,72.42023,-38.34884,-17.094986,14.422078,-143.9532,-64.59902,111.02151,68.29658,23.316406,3.883224,-6.3279524
91,4.059276580810547,6.559202194213867,91.56942749023438,-12.749884442973396,-8.312209531178063,-103.00876166538723,-0.34833318,16.084637,5.071117,26.528326,17.314278,-15.000033,-86.92988,-25.070713,-4.2992287,140.94058,-38.3549,-15.000033,-6.1334066,13.124622,28.91219,-132.98264,71.12184,-116.10195,75.66004,-41.279484,-17.917784,13.104663,-144.01883,-64.116585,112.28402,71.96989,23.94745,4.257231,-6.0293493
92,4.012936592102051,6.756567001342773,92.52019500732422,-11.40189701029707,-8.534991304574707,-103.4815018144913,-1.4730097,12.910651,1.8388537,29.167885,17.190912,-15.000033,-86.08827,-24.35044,-2.9145806,140.4698,-38.366203,-15.000033,-5.599178,12.403099,28.799458,-130.78249,72.62624,-115.98335,78.74438,-44.127335,-18.447903,12.069462,-143.68042,-63.893055,113.152435,75.39562,25.294813,4.0647135,-6.376759
93,3.9458513259887695,6.977351665496826,93.44760131835938,-10.078219457337768,-8.786708382985854,-104.05107406569849,-2.8655374,10.393933,0.60532475,32.656033,16.90335,-15.000033,-85.106705,-23.106169,-1.9421883,139.64153,-37.60581,-15.000033,-5.064452,11.653303,28.785643,-128.09708,74.42428,-115.59241,81.770905,-46.814587,-18.590017,11.490727,-143.15256,-63.987846,113.56119,78.50554,28.068,2.8753202,-7.7772455
94,3.8322486877441406,7.234409332275391,94.3433609008789,-8.795420432980366,-9.103129754261571,-104.66396321807957,-4.6070733,8.371727,0.44065404,37.20476,16.157404,-15.000033,-83.81664,-21.47672,-1.3618424,138.46979,-36.295803,-15.000033,-4.5537767,10.853154,28.921495,-124.92703,76.551605,-114.807594,84.68502,-49.606514,-18.456553,11.250333,-142.50114,-64.43643,113.597496,81.32755,31.743303,0.92962307,-9.782724
95,3.682986259460449,7.486899375915527,95.18988037109375,-7.610277644403551,-9.404607565610428,-105.22612962001018,-6.7251854,7.0153813,1.0371025,42.552174,15.183209,-15.000033,-82.23169,-19.934898,-1.1111196,137.02806,-34.788513,-15.000033,-4.160928,10.01317,29.117289,-121.210075,79.000694,-113.57469,87.11596,-52.424057,-18.216661,11.112446,-141.43901,-65.22041,113.59952,83.88191,35.072346,-1.1469178,-11.685653
96,3.527233839035034,7.698503017425537,95.97903442382812,-6.402710499630949,-9.666775957982018,-105.51128349161769,-9.074691,6.0945253,2.0084803,48.16037,14.307586,-15.000033,-80.43688,-18.90339,-0.7633895,135.46555,-33.454437,-14.855309,-4.115042,8.9302635,29.318043,-116.80986,81.72724,-111.78037,88.74213,-55.193142,-18.033127,10.831207,-139.57436,-66.2912,113.823456,86.24054,36.91189,-2.59553,-12.911096
97,3.3577840328216553,7.8858795166015625,96.7127914428711,-5.346143227031843,-9.82139978235257,-105.74745001625882,-11.7828045,6.001446,3.4710114,54.18405,13.590361,-15.000033,-78.47845,-18.035896,-0.4354476,133.67525,-32.185486,-13.753028,-4.180265,7.765411,29.342478,-111.351524,84.66558,-109.10835,89.519485,-58.00111,-17.959307,10.377128,-136.58267,-67.62389,114.285576,88.5753,36.615322,-3.1543212,-13.44525
98,3.1487486362457275,8.074149131774902,97.3897705078125,-4.436802534289172,-9.916743131271227,-105.97652682606738,-14.753783,6.706115,5.300935,60.62262,12.928061,-15.000033,-76.33514,-17.476103,-0.5682947,131.62354,-30.837654,-12.840231,-4.251113,6.546076,29.231186,-104.28387,87.63929,-104.94348,89.70371,-60.816944,-17.888119,9.865653,-132.50623,-69.23323,114.70256,90.90173,34.98419,-3.193083,-13.605491
99,2.9066505432128906,8.256515502929688,98.02225494384766,-3.6492483186902107,-9.953848712860689,-106.15892706257762,-17.812574,7.8590407,7.0232134,67.0359,12.15479,-15.000033,-74.065506,-17.216236,-1.0200224,129.33485,-29.430525,-12.083464,-4.2140126,5.3415513,29.062551,-95.17396,90.23596,-98.70747,89.54195,-63.410305,-17.699287,9.243178,-127.39563,-71.160835,114.80508,93.0848,33.11989,-2.8569822,-13.349489
100,2.649080514907837,8.424554824829102,98.6119613647461,-2.9429758303083884,-9.916872002420789,-106.22955600382016,-20.86293,9.087991,8.314228,73.01278,11.136901,-15.000033,-71.73948,-17.286406,-1.6314813,126.83865,-27.987383,-11.437077,-3.9953048,4.2148523,28.905428,-84.01331,91.98664,-90.27308,89.31285,-65.556526,-17.274315,8.467585,-121.29218,-73.478874,114.290695,94.91469,32.10213,-2.2925942,-12.633418
101,2.3738832473754883,8.577215194702148,99.15894317626953,-2.326651673569547,-9.772024802511263,-106.15697742489287,-23.956251,10.430178,9.2328005,78.52888,9.857364,-15.000033,-69.34503,-17.873444,-2.4894693,124.12031,-26.584808,-10.995401,-3.6446395,3.1745024,28.765541,-70.92134,92.839584,-79.815315,88.860466,-67.1499,-16.643276,7.483712,-113.665054,-76.294876,112.836586,96.2575,32.213493,-1.4275963,-11.252514
102,2.0794734954833984,8.715300559997559,99.66666412353516,-1.7491686397590054,-9.520501508745982,-105.94399606538043,-27.147776,11.952028,9.965091,83.76636,8.401958,-15.000033,-66.893845,-18.906504,-3.5622475,121.200264,-25.181469,-10.691736,-3.267549,2.1196563,28.693134,-56.1608,93.03977,-67.568954,87.85442,-68.317406,-15.956839,6.401041,-104.02584,-79.654785,109.829765,96.91299,32.810867,-0.21495357,-9.33667
103,1.7833034992218018,8.836217880249023,100.13224792480469,-1.0511065671823765,-9.16374882486332,-105.51927030308177,-30.366617,13.721818,10.960948,88.65671,6.8301463,-14.019113,-64.56855,-20.137096,-4.4441605,118.160446,-23.622175,-10.221463,-3.0007603,0.90190756,28.826586,-40.33706,92.76466,-53.935314,86.17119,-69.17207,-15.325535,5.443296,-92.19499,-83.44636,104.201675,96.50965,33.549397,1.1514982,-7.3998632
104,1.480150818824768,8.949583053588867,100.54457092285156,-0.35769553152333633,-8.80940752824906,-105.00532563047058,-33.502777,15.805037,12.141499,93.24411,5.0449586,-11.605461,-62.27974,-21.103731,-5.163839,114.97414,-21.744736,-9.458074,-2.8126726,-0.2648562,29.349068,-24.112415,92.052734,-39.482666,83.79714,-69.86104,-14.717602,4.7788963,-77.99161,-87.283844,95.10396,94.836296,34.170918,2.554859,-5.8044753
105,1.1657533645629883,9.04153060913086,100.89927673339844,0.31922312053572555,-8.332437485173715,-104.36190676849283,-36.91635,17.405918,12.767787,97.48984,3.012015,-9.36977,-60.185314,-21.714128,-5.6241045,111.61036,-19.487955,-8.332474,-2.9763618,-1.3993495,29.793802,-7.4852014,90.73469,-24.717548,80.617966,-70.45738,-13.917135,4.384732,-60.80001,-90.28021,82.25077,91.98804,34.737354,4.198341,-4.4168653
106,0.8360459208488464,9.115922927856445,101.1915054321289,0.9834568492597308,-7.660550706077026,-103.58135684177478,-40.715286,18.630133,13.005608,101.4217,0.8067741,-7.262871,-58.324184,-22.167395,-5.906747,108.07225,-16.948685,-6.9686584,-3.591008,-2.6639855,29.793802,8.737633,88.58153,-10.828956,76.60035,-70.87134,-12.961888,4.195169,-40.891922,-91.43913,66.4926,88.57819,35.29833,6.10751,-3.1206882
107,0.49320492148399353,9.175768852233887,101.4148941040039,1.6620015476645678,-6.958404984303343,-102.74314521976972,-44.651707,19.47593,12.983215,105.05978,-1.4222275,-5.456428,-56.523502,-22.550278,-6.0829268,104.429535,-14.241705,-5.478163,-4.294697,-4.0554705,29.793802,22.373714,85.640335,0.4987573,72.030334,-70.99218,-12.137505,4.2652025,-20.2412,-90.898346,49.52052,84.70068,35.64191,7.9258337,-2.221734
108,0.13929598033428192,9.214302062988281,101.56671905517578,2.37305341275012,-6.256600690026232,-101.92745140201504,-48.62316,20.020504,12.866375,108.4391,-3.5183818,-4.039459,-54.776566,-22.944777,-6.2593303,100.74271,-11.420623,-3.9867666,-4.8489814,-5.3373494,29.793802,32.023506,82.18237,8.070613,67.37859,-70.75093,-11.638474,4.6463375,-0.7068223,-89.22749,33.260265,80.10481,35.562122,9.511469,-1.7695239
109,-0.22384445369243622,9.23499584197998,101.6387710571289,3.0829194327776577,-5.596102005969686,-101.14749633388435,-52.637127,20.33617,12.660041,111.57661,-5.465244,-2.9318423,-53.018414,-23.30997,-6.4859505,96.97133,-8.382393,-2.483496,-5.353901,-6.3359127,29.793802,37.508495,78.4994,11.759418,63.333042,-70.19218,-11.548659,5.520884,15.822146,-86.67472,19.525482,74.83213,34.943123,10.950542,-1.7246503
110,-0.5878657102584839,9.237537384033203,101.63694763183594,3.7850881421034663,-4.996549120371832,-100.36699483362649,-56.694214,20.373716,12.332186,114.45386,-7.322683,-2.1201518,-51.21186,-23.598665,-6.684911,93.095276,-5.144641,-0.8892604,-5.9404054,-7.098356,29.793802,39.712467,74.83909,12.395774,60.250183,-69.35361,-11.787192,6.736707,28.058468,-83.35539,9.7115345,69.34222,33.963486,12.291789,-1.9541962
111,-0.9508131146430969,9.225038528442383,101.55065155029297,4.526123421350831,-4.4699562926736425,-99.5923931500908,-60.65526,20.064116,11.996774,117.06942,-9.083022,-1.7834916,-49.369465,-23.906128,-6.829944,89.19567,-1.9353255,0.7339145,-6.5651355,-7.8145666,29.793802,39.992676,71.423935,11.394046,57.98454,-68.19557,-12.213483,7.834759,35.857193,-79.5206,4.1979795,64.41484,32.842587,13.410021,-2.2505121
112,-1.3070322275161743,9.191871643066406,101.38628387451172,5.357573336207542,-4.010003457155734,-98.82734196458142,-64.401405,19.353798,11.754309,119.42492,-10.752471,-2.1146274,-47.533577,-24.341866,-6.9147825,85.35766,1.0364032,2.3130047,-7.147687,-8.652713,29.793802,39.546436,68.38103,9.983785,56.0741,-66.69939,-12.645184,8.369965,40.26937,-75.46489,2.1580079,60.473118,31.784153,14.214032,-2.423719
113,-1.6669424772262573,9.137611389160156,101.15690612792969,6.309802083558345,-3.5910620924910073,-98.07442464593899,-67.987,18.131062,11.635891,121.479225,-12.394939,-3.2953207,-45.76909,-24.997032,-6.987083,81.59966,3.8397229,3.8591437,-7.6494036,-9.664878,29.793802,38.834133,65.72457,8.789418,54.223408,-64.70509,-12.990916,8.035633,42.63074,-71.35688,2.3378396,57.349323,30.91006,14.628823,-2.5602808
114,-2.01693058013916,9.072062492370605,100.84908294677734,7.344057209870644,-3.2027900736261827,-97.34085419895683,-71.48632,16.54033,11.626854,123.26219,-14.047632,-5.1482515,-44.069923,-25.783403,-7.0572367,77.87101,6.57346,5.3996615,-8.069913,-10.792863,29.793802,37.999855,63.41586,7.900918,52.293232,-62.286446,-13.304353,7.1569858,43.79284,-67.25556,3.7225986,54.758076,30.092234,14.75622,-2.7062683
115,-2.3590874671936035,8.984444618225098,100.48491668701172,8.409023078461036,-2.8556635240659882,-96.6313709513426,-74.819664,14.903072,11.748102,124.876366,-15.666464,-7.3226213,-42.37537,-26.577557,-7.0822573,74.14883,9.075207,6.861534,-8.412281,-11.957489,29.793802,37.307995,61.437023,7.2525744,50.059628,-59.77049,-13.633859,6.238738,44.35481,-63.215836,5.5676994,52.62537,29.143463,14.798582,-2.5931754
116,-2.697028875350952,8.881864547729492,100.05213928222656,9.462279091094203,-2.5628960305005215,-95.94083501389422,-77.89829,13.492829,12.004712,126.41853,-17.164404,-9.487728,-40.61641,-27.288166,-7.024415,70.41162,11.170858,8.153086,-8.702226,-13.095224,29.793802,36.97306,59.776295,6.7311115,47.36008,-57.485794,-13.981757,5.77398,44.625454,-59.27912,7.3870482,50.924164,27.87592,14.947551,-1.935093
117,-3.0335090160369873,8.762227058410645,99.54316711425781,10.533076468423939,-2.3174264137587106,-95.27656969895908,-80.7452,12.128155,12.359744,127.83247,-18.500671,-11.923723,-38.806065,-27.915596,-6.807993,66.622444,12.709823,9.231785,-8.928257,-14.190326,29.793802,36.9386,58.40663,6.2894845,44.129715,-55.44049,-14.355134,5.9416795,44.70623,-55.43704,8.944546,49.60533,26.083635,15.324464,-0.40279546
118,-3.369494915008545,8.626219749450684,98.95638275146484,11.629556331343784,-2.109962648470583,-94.63760040174525,-83.422455,10.766574,12.833743,129.09926,-19.751963,-14.656006,-36.97531,-28.546906,-6.5067196,62.80041,13.8228855,10.113226,-9.091413,-15.23651,29.793802,37.07992,57.307915,5.934022,40.441742,-53.473625,-14.724756,6.4685707,44.71791,-51.668537,10.221859,48.51044,23.891275,15.765151,1.801384
119,-3.684352397918701,8.484586715698242,98.28575897216797,12.698344605619928,-1.9457772503758215,-93.98111948582537,-85.684006,10.711948,14.197222,130.37247,-20.851177,-15.000033,-35.10945,-29.26067,-6.271656,59.0158,14.766094,10.823144,-9.242636,-16.190802,29.793802,37.48733,56.493347,5.6152835,36.35962,-51.661797,-15.015907,7.153823,44.73028,-48.011395,11.314787,47.578636,21.688387,16.05673,4.148811
120,-4.003505229949951,8.336467742919922,97.53067779541016,13.68741661428443,-1.832540935822943,-93.24225694550488,-87.69139,11.151179,15.574549,131.73546,-21.763115,-15.000033,-33.169434,-30.106525,-6.3084955,55.354446,15.758456,11.374868,-9.482826,-17.035654,29.793802,38.244408,55.98518,5.2935624,31.946081,-50.098618,-15.165743,7.784793,44.781796,-44.534187,12.335486,46.7686,19.899813,16.054897,6.0974836
121,-4.33258581161499,8.182544708251953,96.69471740722656,14.533563065430528,-1.7799148923672163,-92.47829823650625,-89.46457,12.051265,16.657501,133.28505,-22.478779,-15.000033,-31.082441,-31.085695,-6.8924522,51.709427,16.914762,11.692608,-9.810958,-17.734955,29.793802,39.57854,55.80821,4.968269,26.961988,-49.05209,-15.141824,8.342235,44.85247,-41.281742,13.273406,46.113308,18.652908,15.738348,7.5866756
122,-4.680663108825684,8.013175964355469,95.78749084472656,15.253188983368524,-1.7861649808504572,-91.75315081876221,-90.9799,13.279335,17.45978,134.96153,-23.051096,-15.000033,-28.88464,-32.0607,-7.859933,48.096256,18.080845,11.792339,-10.144444,-18.294188,29.793802,41.44394,55.951214,4.710921,21.446789,-48.407608,-14.984184,8.911573,44.919773,-38.24639,14.111201,45.592525,17.755424,15.225017,8.878006
123,-5.015927314758301,7.83445930480957,94.80951690673828,15.927844591847634,-1.8398633728623466,-90.93786538537987,-92.20935,14.592249,18.217846,136.59953,-23.474716,-15.000033,-26.720394,-32.962547,-8.757652,44.78993,19.089693,11.854933,-10.532669,-18.755796,29.793802,43.496212,56.367146,4.596752,15.876043,-47.684875,-14.751621,9.440114,44.99047,-35.4186,14.94197,45.11571,17.14753,14.616822,9.912297
124,-5.328829288482666,7.65166711807251,93.76283264160156,16.5457442527479,-1.9426838824490869,-90.08738486313437,-93.126015,15.726542,18.94852,138.11414,-23.853811,-15.000033,-24.680754,-33.550007,-9.138846,41.987137,19.807886,11.958117,-10.8540125,-19.09333,29.793802,45.391644,56.997974,4.6641307,10.784469,-46.401527,-14.497517,9.873054,45.042686,-32.80083,15.920118,44.674152,16.758802,14.016029,10.629991
125,-5.629347801208496,7.462821006774902,92.65794372558594,17.107698084906946,-2.0999818108436745,-89.16656199005455,-93.695946,16.769512,19.738966,139.53383,-24.19762,-14.953792,-22.79595,-33.685196,-8.580649,39.59349,20.6732,12.174872,-11.15131,-19.312176,29.793802,47.17477,57.81365,5.0479727,6.109039,-44.2377,-14.171149,10.114152,45.122192,-30.40697,17.02068,44.24294,16.716356,13.407152,10.876461
126,-5.912634372711182,7.270551681518555,91.50748443603516,17.608481599553766,-2.3136976348330367,-88.18387380734573,-93.8154,18.101446,20.797281,140.91283,-24.474785,-14.217764,-21.014738,-33.543488,-7.400261,37.527683,21.60816,12.418578,-11.4673605,-19.42467,29.793802,49.06385,58.791218,5.7735605,1.6087469,-41.514534,-13.774787,10.207935,45.188847,-28.243757,18.194422,43.862057,17.00048,12.757156,10.740353
127,-6.1722846031188965,7.0805182456970215,90.31512451171875,18.05200287069989,-2.5743570849073953,-87.2031813169416,-93.69455,19.089815,21.691832,142.1349,-24.666346,-13.728514,-19.278683,-33.402634,-6.308913,35.93127,21.752167,12.534188,-11.754045,-19.443342,29.793802,50.886772,59.882244,6.6500826,-2.416252,-38.708405,-13.443495,10.322778,45.104134,-26.306377,19.5132,43.616344,17.322243,12.1357155,10.517787
128,-6.388513088226318,6.901347637176514,89.08769989013672,18.45215074949722,-2.8324224061033476,-86.27699377082442,-93.53223,19.416561,22.24744,143.0858,-24.698778,-13.773512,-17.565384,-33.526535,-6.0154,34.88889,20.290161,12.400382,-12.034429,-19.393694,29.607027,52.399815,61.043533,7.3263054,-5.5308022,-36.285984,-13.301908,10.648831,44.718853,-24.61765,21.102816,43.707264,17.403202,11.6234,10.4869375
129,-6.553317546844482,6.749624252319336,87.90902709960938,18.83940096095989,-3.0312241460595897,-85.35658742396642,-93.549355,18.808363,22.388134,143.72363,-24.397665,-14.697061,-15.789229,-34.002888,-6.8708982,34.47088,16.589785,11.968043,-12.448121,-19.302023,28.95906,53.61266,62.277245,7.686399,-7.5768523,-34.401352,-13.400116,11.2979,44.043736,-23.193954,22.980091,44.243233,17.107471,11.242128,10.71197
130,-6.676133155822754,6.598265647888184,86.65911865234375,19.169136679583417,-3.267747157123355,-84.45484814285658,-93.313095,18.114851,22.728405,144.1636,-23.861984,-15.000033,-13.840239,-34.614815,-8.411189,34.50292,11.261137,11.474486,-12.8437805,-19.084309,28.355068,54.400604,63.585136,7.881858,-8.834198,-32.761337,-13.679568,12.179577,43.19811,-22.004627,24.94083,44.85824,16.641565,10.938515,11.034834
131,-6.754239082336426,6.459564208984375,85.33454895019531,19.413640819878793,-3.5295688270592196,-83.60663787691323,-92.80811,17.434029,23.06928,144.39001,-23.295128,-15.000033,-11.946299,-35.269104,-10.150842,34.787083,5.347438,11.139027,-13.175425,-18.713041,27.84872,54.616455,64.92274,7.772045,-9.33377,-31.194893,-14.043676,13.147415,42.12915,-21.022661,26.986364,45.60959,16.133354,10.7215605,11.430895
132,-6.806845188140869,6.342812538146973,84.01792907714844,19.54730820406557,-3.822894092893122,-82.93738890290751,-91.99951,16.795137,23.11035,144.40544,-22.957464,-15.000033,-10.3613615,-35.846455,-11.642959,35.152718,-0.13875122,10.971724,-13.312372,-18.166204,27.53351,54.045254,66.223495,7.150278,-9.063576,-29.521366,-14.404255,14.049717,40.781918,-20.222952,29.126335,46.556168,15.711347,10.602353,11.8734045
133,-6.848934173583984,6.260021686553955,82.72101593017578,19.59894564945208,-4.180788718946809,-82.5569571575964,-90.84856,16.014473,22.665844,144.2484,-23.058176,-15.000033,-9.161406,-36.393333,-12.87259,35.601162,-5.315606,10.83906,-13.174761,-17.47902,27.461357,52.609444,67.46038,5.916718,-7.895728,-27.635056,-14.879255,15.016992,39.12369,-19.560034,31.302134,47.636387,15.458599,10.610501,12.43198
134,-6.86722469329834,6.20652437210083,81.4698257446289,19.583728189641292,-4.593142160979349,-82.38958799990935,-89.36735,15.044126,21.862684,143.90146,-23.44109,-15.000033,-8.265075,-36.940113,-14.049479,36.303406,-10.663214,10.6269245,-12.834634,-16.658655,27.588081,50.32728,68.626335,4.09507,-5.887089,-25.62295,-15.46004,16.090456,37.160435,-19.01389,33.521236,48.838364,15.278461,10.727727,13.091081
135,-6.872659206390381,6.176804065704346,80.30380249023438,19.40756494362251,-5.017833350338709,-82.42848169559116,-87.534225,14.206381,20.828566,143.3372,-23.914534,-15.000033,-7.6894264,-37.240234,-14.98493,37.27821,-15.711277,10.305568,-12.258353,-15.632701,27.917383,47.187233,69.65107,1.706448,-3.307678,-23.619741,-15.889447,16.958736,34.88628,-18.597591,35.93727,50.268787,15.049076,10.900279,13.702929
136,-6.880830764770508,6.160141944885254,79.2354736328125,18.970933562428275,-5.412847261556049,-82.66765165881031,-85.3569,13.833608,19.681952,142.53462,-24.28259,-15.000033,-7.4140964,-37.068096,-15.49185,38.47868,-19.950588,9.939194,-11.446775,-14.32292,28.433746,43.246643,70.40468,-1.170916,-0.42774045,-21.768604,-15.935794,17.27973,32.27776,-18.33862,38.732582,52.010605,14.662488,11.078511,14.124745
137,-6.877608776092529,6.155879497528076,78.26485443115234,18.14903993202673,-5.786149697856098,-83.20779934354883,-82.70812,14.222195,18.335686,141.55844,-24.600742,-15.000033,-7.4583144,-36.24658,-15.433309,39.932693,-23.223505,9.5413265,-10.384402,-12.624718,29.22297,38.723774,70.74499,-4.257442,2.7541966,-19.986555,-15.486734,16.641687,29.101238,-18.265501,42.39283,54.127422,14.379044,11.319882,14.364121
138,-6.8441481590271,6.174013614654541,77.44499206542969,17.02837028171663,-6.095550521534928,-84.0142878796639,-79.71868,15.206389,16.810835,140.39133,-24.939163,-15.000033,-7.875883,-34.951912,-14.917914,41.626015,-25.80849,9.114309,-9.236144,-10.568757,29.793802,33.331284,70.580894,-8.096613,6.719502,-18.263151,-14.73914,15.298628,25.500113,-18.274212,46.892174,56.596497,14.241087,11.664546,14.521
139,-6.755945682525635,6.225314617156982,76.72866821289062,15.870197774404406,-6.270415778100494,-84.75992527074268,-76.754074,16.352833,15.511668,138.84718,-25.056393,-15.000033,-8.572216,-33.650288,-14.27196,43.425114,-27.835083,8.786618,-8.339233,-8.466406,29.793802,28.107702,69.80104,-11.861785,10.850295,-16.73528,-13.87044,13.827461,21.89166,-18.304384,51.430305,59.07414,13.629948,12.019229,14.626814
140,-6.626758098602295,6.275918483734131,76.10150909423828,14.77895020301518,-6.4338031301620315,-85.41882370618056,-73.843864,17.224579,14.535308,136.87177,-24.962536,-14.836505,-9.230142,-32.454723,-13.694084,45.093765,-29.412315,8.602877,-7.56294,-6.45136,29.793802,23.467815,68.40811,-14.870571,14.5877905,-15.485561,-13.060052,12.895328,18.394794,-18.348839,55.04641,61.26148,11.977119,12.21164,14.533066
141,-6.448085784912109,6.351628303527832,75.58052825927734,13.705337327236231,-6.57688654386779,-85.94345808556385,-70.93402,17.833668,14.033143,134.36598,-24.560337,-14.09625,-9.84252,-31.319284,-13.260747,46.59269,-30.357853,8.634202,-6.9065657,-4.50476,29.793802,19.518005,66.35842,-16.855097,18.011475,-14.433431,-12.190885,12.726577,14.814331,-18.493227,58.260002,63.84859,8.338624,12.188962,14.673961
142,-6.218223571777344,6.414073944091797,75.17327880859375,12.581640990839157,-6.690724162725031,-86.40890262643504,-67.987045,18.083908,13.670345,131.40346,-23.968578,-13.470142,-10.474809,-30.141376,-12.880262,48.006798,-30.679146,8.810774,-6.406492,-2.5591104,29.793802,16.197502,63.657223,-17.853142,21.332815,-13.488849,-11.203019,12.94334,11.037987,-18.78582,61.40705,66.76717,3.2925246,12.011334,14.913037
143,-5.957286357879639,6.454800605773926,74.84447479248047,11.576302900959746,-6.769374449314789,-86.80793766616921,-65.06089,18.018274,13.501976,128.13335,-23.339792,-12.961231,-11.12421,-29.128494,-12.516655,49.338936,-30.756681,9.022138,-6.2193446,-0.79253554,29.793802,13.568015,60.51442,-18.106743,24.314701,-12.826734,-10.326068,13.3299265,7.3374662,-19.201303,63.40741,69.12984,-1.4677521,11.809108,14.302472
144,-5.698400497436523,6.486266136169434,74.5529556274414,10.860542372771661,-6.810235941223261,-87.13849356325457,-62.222298,17.680918,13.57191,124.70162,-22.80892,-12.58677,-11.793694,-28.483381,-12.121083,50.592934,-30.974749,9.164965,-6.3846583,0.6104054,29.793802,11.546386,57.291813,-18.09274,26.654432,-12.722394,-9.795572,13.7088785,3.9870498,-19.682808,63.05301,70.16593,-4.3053885,11.806186,11.912467
145,-5.457092761993408,6.52017879486084,74.26532745361328,10.591129347767213,-6.835159406666739,-87.36693375990855,-59.398117,16.880411,14.01392,120.95132,-22.391783,-12.470413,-12.475609,-28.411024,-11.653968,51.781143,-31.44327,9.215799,-6.8465,1.4115969,29.793802,10.176605,54.23119,-17.960443,28.081276,-14.191987,-9.794069,14.21728,1.1150669,-20.226622,58.989616,69.73065,-5.3357587,12.173931,6.53341
146,-5.241364002227783,6.55885648727417,73.97074890136719,10.64613969870022,-6.841195800196757,-87.50268769715817,-56.56371,15.6137295,14.725725,116.84796,-22.014626,-12.566832,-13.171933,-28.751194,-11.140957,52.88983,-31.95382,9.235142,-7.456554,1.7120706,29.793802,9.304724,51.40823,-17.763449,28.696474,-16.929304,-10.167134,14.90021,-1.4728978,-20.909897,52.076744,68.37069,-5.2237887,12.706241,-1.0647857
147,-5.033237457275391,6.618967533111572,73.68440246582031,10.780462190393663,-6.7900238973281235,-87.61525971176964,-53.87371,14.2340145,15.41239,112.7208,-21.66247,-12.661314,-13.901599,-29.167717,-10.62284,53.886024,-32.414776,9.245493,-8.133235,1.8205204,29.793802,8.5684185,48.946808,-17.831314,28.795074,-19.306059,-10.605128,15.446099,-3.906032,-21.802155,44.447674,66.26546,-3.278729,12.783046,-8.843015
148,-4.801384449005127,6.696232318878174,73.42755126953125,10.751214969978662,-6.639841371687802,-87.77710092728947,-51.484272,13.140893,15.82788,108.91395,-21.311527,-12.534208,-14.691248,-29.329134,-10.141466,54.745667,-32.737587,9.265184,-8.759482,2.083985,29.793802,7.616362,46.975685,-18.481306,28.673504,-19.710697,-10.741104,15.573245,-6.180091,-22.912292,38.196396,63.53096,1.0604503,11.6836,-14.7373705
149,-4.559932708740234,6.782215118408203,73.20533752441406,10.474821416856113,-6.323376178777151,-88.0348003821386,-49.523354,12.526144,15.935334,105.50665,-20.948647,-12.17575,-15.624996,-29.105835,-9.681911,55.453785,-32.881046,9.281277,-9.321968,2.6183176,29.793802,6.4881935,45.593483,-19.86097,28.19536,-17.250526,-10.385423,15.019478,-8.285983,-24.179459,33.647076,59.88245,9.692379,8.513082,-17.97908
150,-4.318714141845703,6.840089797973633,73.01953125,10.089672880482789,-5.8853904607877,-88.34749915645114,-47.88081,12.174789,15.8962145,102.320404,-20.578032,-11.698169,-16.649956,-28.686144,-9.236708,56.026905,-32.900513,9.281809,-9.865843,3.2093718,29.793802,5.4159,44.772827,-21.756168,27.191566,-12.967817,-9.775578,13.946524,-10.057564,-25.518366,29.7111,55.25625,21.799253,3.6800954,-19.005392
151,-4.074269771575928,6.896015167236328,72.85929107666016,9.678866184030147,-5.441532148976272,-88.65584451482208,-46.371765,11.886601,15.770334,99.331314,-20.214144,-11.067988,-17.613028,-28.226912,-8.850831,56.506668,-32.85177,9.288295,-10.3102865,3.776723,29.793802,4.233726,44.39402,-24.01231,25.957945,-8.159619,-9.15942,12.747917,-11.450617,-26.815924,26.284964,50.284542,33.815704,-0.9582357,-18.14132
152,-3.83764386177063,6.9438347816467285,72.71923828125,9.327839049600467,-5.107859235641198,-88.89862469713623,-44.804493,11.464012,15.597826,96.51755,-19.873499,-10.243422,-18.374933,-27.894594,-8.551302,56.932888,-32.792274,9.329469,-10.6558485,4.2087913,29.793802,2.8842869,44.28419,-26.340948,24.773739,-4.090381,-8.706557,11.867727,-12.61524,-27.98976,23.380098,45.72307,42.03943,-3.8224237,-16.875683
153,-3.5890326499938965,6.985868453979492,72.59503936767578,9.05423033142225,-4.918539966883965,-89.06231271209026,-43.133587,10.940089,15.385378,93.961555,-19.677996,-9.071805,-18.89452,-27.730032,-8.343814,57.298386,-32.710785,9.426426,-10.981922,4.488566,29.793802,1.3436372,44.349037,-28.707243,23.669502,-0.5053415,-8.37624,11.485976,-13.788722,-29.000896,21.233074,41.761353,45.555523,-4.4999967,-15.9159775
154,-3.332801580429077,7.025410175323486,72.48316192626953,8.81624629148457,-4.816141451229784,-89.18075686218938,-41.457905,10.405521,15.097233,91.6515,-19.592033,-7.6222115,-19.246716,-27.652853,-8.20421,57.584927,-32.585342,9.56546,-11.327608,4.654358,29.793802,-0.37514496,44.564762,-31.219225,22.579918,3.129699,-8.080202,11.360404,-15.079153,-29.831488,19.860922,38.180416,46.39844,-3.8356802,-14.921905
155,-3.079648733139038,7.03714656829834,72.39547729492188,8.618213996840206,-4.7788721666224285,-89.26266752691747,-39.79283,9.761866,14.718237,89.42882,-19.38562,-6.1453123,-19.473602,-27.641624,-8.108169,57.8113,-32.45519,9.723899,-11.670778,4.6812916,29.793802,-2.1902013,44.871655,-33.727615,21.603104,5.984487,-7.8566766,11.336496,-16.369614,-30.488846,18.962797,35.060432,45.303696,-2.7652326,-14.155209
156,-2.8350749015808105,7.04219913482666,72.32469177246094,8.457352070931593,-4.783384186971609,-89.31729516229863,-38.14628,8.921492,14.243908,87.134895,-18.813839,-4.869239,-19.615765,-27.67439,-8.033439,57.994793,-32.357716,9.876611,-11.990198,4.565147,29.793802,-4.0253143,45.204163,-36.079273,20.856205,7.2365465,-7.7629333,11.269847,-17.541403,-31.000103,18.232237,32.502293,43.013126,-2.1699793,-13.863921
157,-2.6110947132110596,7.039648056030273,72.26138305664062,8.379977352872668,-4.858930209896033,-89.30685530072124,-36.56326,7.7272606,13.557915,84.81035,-17.40626,-3.767074,-19.64482,-27.828377,-7.993867,58.15795,-32.30764,10.029975,-12.302563,4.282537,29.793802,-5.992309,45.531796,-38.3748,20.48381,6.1692467,-7.9145684,11.236014,-18.51768,-31.381535,17.611732,30.5841,38.686962,-2.1799037,-14.2119
158,-2.405155897140503,7.043984413146973,72.20457458496094,8.368229442775114,-5.004606644860885,-89.24142539468794,-35.00819,6.3128867,12.699297,82.520905,-15.415408,-2.7133374,-19.551046,-28.084215,-7.995769,58.282253,-32.28171,10.191995,-12.595911,3.874227,29.793802,-8.14981,45.841675,-40.701633,20.435163,3.3945177,-8.248742,11.276008,-19.338448,-31.639378,17.215387,29.198368,32.239582,-2.2882113,-15.023639
159,-2.2134177684783936,7.049203872680664,72.15841674804688,8.331771752338934,-5.152971522463741,-89.20140528499547,-33.372555,4.9990907,11.887859,80.13658,-13.677108,-1.8018808,-19.409048,-28.277044,-8.002946,58.3323,-32.263283,10.338829,-12.82681,3.431794,29.793802,-10.323397,46.10658,-42.849815,20.551617,0.099528685,-8.555011,11.203658,-20.07468,-31.80247,17.014578,28.189302,25.612268,-2.4096856,-16.109352
160,-2.0263679027557373,7.051799297332764,72.12065124511719,8.186077231614062,-5.235835317323138,-89.26641492049019,-31.564651,4.0724163,11.332424,77.51525,-13.029463,-1.1442896,-19.293215,-28.246246,-7.978015,58.2709,-32.235035,10.447393,-12.962706,3.05065,29.793802,-12.339186,46.304474,-44.589195,20.68509,-2.5177422,-8.60824,10.858501,-20.776058,-31.914457,16.98795,27.377064,20.750923,-2.550006,-17.278994
161,-1.845292568206787,7.0460662841796875,72.08765411376953,7.889252187645595,-5.227290040847396,-89.48582459857685,-29.498663,3.6427865,11.146467,74.53225,-13.843624,-0.8303687,-19.226276,-27.899796,-7.892862,58.05782,-32.19854,10.497002,-12.954477,2.7801766,29.793802,-14.238153,46.42723,-45.862957,20.889889,-4.2247057,-8.306108,10.104727,-21.438692,-32.022556,17.221596,26.749983,18.175964,-2.8545697,-18.74577
162,-1.679317831993103,7.020603179931641,72.0692367553711,7.495080369645194,-5.1662710971542385,-89.80837125660693,-27.253658,3.522382,11.205221,71.26761,-15.60297,-0.7920078,-19.165287,-27.33886,-7.774843,57.72028,-32.158825,10.506658,-12.840854,2.5785513,29.793802,-16.093643,46.47673,-46.778324,21.237934,-5.6126585,-7.7681327,9.069003,-22.013378,-32.13839,17.700367,26.357279,16.845371,-3.2945695,-20.538565
163,-1.5166012048721313,6.9603271484375,72.04771423339844,7.049126957644747,-5.081699526559468,-90.16277464754184,-24.996851,3.5490193,11.357748,67.89891,-17.82029,-0.902226,-19.093153,-26.686497,-7.667529,57.336,-32.11084,10.511692,-12.709503,2.404417,29.793802,-17.807102,46.45486,-47.366,21.623934,-6.7279506,-7.111302,7.998087,-22.469519,-32.24389,18.23615,26.108326,16.32122,-3.7186105,-22.186834
164,-1.374565601348877,6.872115135192871,72.02666473388672,6.604299979938787,-5.002207745374624,-90.47818888326533,-22.88706,3.5649421,11.441822,64.59891,-20.015085,-1.0223635,-18.990442,-26.074411,-7.611827,56.96849,-32.042236,10.544904,-12.646328,2.2067325,29.793802,-19.276075,46.368427,-47.652657,21.93808,-7.6245337,-6.46223,7.1342525,-22.784452,-32.30548,18.63908,25.922174,16.183027,-3.9617226,-23.210121
165,-1.226883888244629,6.761875629425049,72.009765625,6.124158654219856,-4.927163661162438,-90.80999746143326,-20.801222,3.6092298,11.452729,61.121605,-22.413336,-1.1612965,-18.871067,-25.443367,-7.582217,56.632187,-31.946264,10.607546,-12.630038,2.014096,29.793802,-20.472479,46.225544,-47.602455,22.164503,-8.166903,-5.7843447,6.482018,-22.959564,-32.294666,18.876106,25.836119,16.582188,-4.035026,-23.44612
166,-1.0666323900222778,6.6415252685546875,72.00361633300781,5.596060722220155,-4.8462029040126176,-91.1726971962133,-18.702301,3.7648406,11.476977,57.462795,-25.151033,-1.3331406,-18.734903,-24.75208,-7.569454,56.284748,-31.826183,10.682566,-12.623853,1.830173,29.793802,-21.463137,46.034218,-47.22039,22.366955,-8.3825445,-5.0459886,5.9252424,-23.011374,-32.209705,19.036997,25.886879,17.646973,-4.028793,-23.158195
167,-0.9082688689231873,6.52925443649292,72.01488494873047,5.108108825930765,-4.768505657766977,-91.4317079276436,-16.887674,3.9229333,11.455875,54.182755,-27.630962,-1.4408779,-18.551325,-24.159784,-7.6352468,55.915436,-31.690426,10.773965,-12.687744,1.5715389,29.793802,-22.290014,45.799812,-46.601463,22.552572,-8.5797,-4.383611,5.5273395,-22.949022,-32.063774,19.117338,26.000666,18.938946,-3.868584,-22.505568
168,-0.7621685862541199,6.4258880615234375,72.04045104980469,4.744351086284862,-4.699615850232396,-91.45107155820335,-15.661081,3.9492164,11.318182,51.844925,-29.25912,-1.4364748,-18.29338,-23.825846,-7.841114,55.51691,-31.550076,10.886646,-12.869475,1.16227,29.793802,-23.02085,45.521492,-45.86644,22.733799,-9.073245,-3.9292784,5.3589525,-22.751749,-31.882338,19.088243,26.08071,20.01797,-3.4881449,-21.646402
169,-0.6389912962913513,6.353158473968506,72.1015396118164,4.5623734961060896,-4.6293831324109265,-91.11290123569171,-15.322091,3.754897,10.996031,50.906925,-29.70849,-1.3180811,-17.969534,-23.879362,-8.241368,55.136127,-31.421415,11.070507,-13.24653,0.53609866,29.793802,-23.715939,45.196857,-45.021133,22.92809,-9.945469,-3.7699564,5.5000362,-22.36826,-31.674686,18.849731,26.050856,20.889992,-2.719003,-20.435692
170,-0.5445996522903442,6.2993316650390625,72.17086791992188,4.503182726548367,-4.555926886273222,-90.51601589046196,-15.640685,3.4125595,10.542285,50.9723,-29.360363,-1.1369148,-17.589571,-24.206047,-8.793253,54.76626,-31.297676,11.306923,-13.747614,-0.23469953,29.793802,-24.365446,44.819897,-44.047894,23.125948,-11.036842,-3.825102,5.890947,-21.783142,-31.4407,18.413387,25.934612,21.733728,-1.6295707,-18.85898
171,-0.4742562174797058,6.288845062255859,72.2564926147461,4.489423385964664,-4.497387125989467,-89.85000334745142,-16.130577,3.024769,10.063207,51.326057,-28.678778,-0.94026756,-17.131002,-24.601288,-9.410247,54.32426,-31.156794,11.498643,-14.205432,-1.0220231,29.793802,-24.92391,44.374714,-43.02417,23.305582,-12.295178,-3.9736822,6.397236,-21.020758,-31.198015,17.921421,25.778654,22.379509,-0.53489804,-17.25866
172,-0.41074585914611816,6.300579071044922,72.38201141357422,4.442599341309541,-4.469419121214521,-89.30390256963364,-16.307203,2.6982512,9.655531,51.24814,-28.125586,-0.77917093,-16.578524,-24.863214,-10.001382,53.72653,-30.97646,11.548307,-14.462761,-1.7027439,29.793802,-25.341839,43.83543,-42.024323,23.459017,-13.670989,-4.091154,6.8880157,-20.107021,-30.977287,17.526098,25.64094,22.686811,0.233425,-15.963608
173,-0.3379267454147339,6.2930779457092285,72.54586791992188,4.364386152083951,-4.49248336699625,-88.84306748665774,-16.059456,2.399451,9.27622,50.552773,-27.757975,-0.6589565,-15.874765,-25.010183,-10.620502,52.950478,-30.764366,11.400685,-14.522767,-2.2856128,29.793802,-25.623758,43.160107,-41.052975,23.602922,-15.31228,-4.180026,7.3901677,-18.954279,-30.809029,17.20593,25.464523,22.581905,0.5484502,-14.984437
174,-0.26723161339759827,6.24217414855957,72.74954223632812,4.289360740635103,-4.55282752854719,-88.3948163712793,-15.640024,2.096837,8.892682,49.624004,-27.352556,-0.5525568,-15.04816,-25.12411,-11.290345,52.045937,-30.528072,11.117851,-14.450414,-2.812551,29.793802,-25.829796,42.324333,-40.096794,23.786203,-17.185684,-4.305647,7.9514456,-17.555079,-30.702618,16.899452,25.228777,22.177908,0.5862862,-14.1611
175,-0.195701465010643,6.143494129180908,72.98204803466797,4.182999505382545,-4.613113935894639,-88.09097107730554,-15.112834,1.9012818,8.611461,48.591385,-26.949266,-0.4663004,-14.218323,-25.099989,-11.867151,51.0298,-30.250849,10.77899,-14.193313,-3.2181716,29.793802,-25.963652,41.34104,-39.18271,24.03006,-18.969542,-4.426253,8.476599,-16.073673,-30.651606,16.706614,25.067043,21.62472,0.4661549,-13.567078
176,-0.1228366419672966,6.005873680114746,73.23342895507812,4.015471351600336,-4.635837251646319,-88.06369889075461,-14.544788,1.9182159,8.543747,47.58481,-26.588245,-0.409592,-13.507754,-24.836103,-12.202128,49.91529,-29.911692,10.462067,-13.71275,-3.4469726,29.793802,-25.988977,40.255253,-38.312458,24.315233,-20.344883,-4.488526,8.871834,-14.705678,-30.635084,16.741339,25.132006,21.064402,0.31044966,-13.278181
177,-0.031040562316775322,5.862551689147949,73.49213409423828,3.7285157466689793,-4.610906650655791,-88.47332885294676,-13.923964,2.2883162,8.807247,46.66595,-26.326614,-0.39875162,-12.977971,-24.184523,-12.156711,48.660408,-29.50839,10.13719,-12.915368,-3.440615,29.793802,-25.766993,39.094147,-37.388687,24.562088,-21.292206,-4.4539285,9.127429,-13.545599,-30.650667,17.149729,25.528423,20.472954,0.048380386,-13.478056
178,0.08265972882509232,5.722593307495117,73.75536346435547,3.361087276716869,-4.54609980760622,-89.20699150559133,-13.240739,2.9056208,9.32365,45.75624,-26.123987,-0.42588744,-12.571552,-23.252262,-11.835618,47.27584,-29.049667,9.77963,-11.886895,-3.268929,29.724943,-25.262407,37.87206,-36.406487,24.74001,-21.969717,-4.345636,9.281726,-12.519545,-30.700954,17.88929,26.21675,19.793953,-0.34058857,-14.071411
179,0.19703063368797302,5.602970123291016,74.013916015625,3.027106037728258,-4.401812138193723,-89.98633904682868,-12.596468,3.5010264,9.909958,44.771564,-25.868938,-0.4631841,-12.269402,-22.325342,-11.449684,45.85856,-28.5295,9.473428,-10.87649,-3.0827599,29.355145,-24.540812,36.60363,-35.54276,24.961184,-22.348186,-4.200608,9.316331,-11.58688,-30.727896,18.877901,27.234804,19.138847,-0.6675734,-14.713748
180,0.28449729084968567,5.509176731109619,74.27415466308594,2.820841333779222,-4.22949518623232,-90.53724780279988,-11.987005,3.829602,10.366248,43.626938,-25.46613,-0.48564735,-11.934108,-21.67016,-11.224662,44.480858,-27.94535,9.303112,-10.055964,-3.0212216,28.88766,-23.873167,35.342445,-34.911015,25.260387,-22.338259,-4.0610046,9.239263,-10.67996,-30.675488,19.790709,28.368643,18.548618,-0.7607557,-15.073708
181,0.33762019872665405,5.411887168884277,74.54429626464844,2.8168320591854297,-4.012806095858476,-90.77084698589087,-11.425095,3.7700658,10.64074,42.242077,-24.847925,-0.47170576,-11.569858,-21.414986,-11.202019,43.164326,-27.274439,9.335758,-9.472364,-3.1680849,28.305094,-23.248434,34.14418,-34.545002,25.596191,-21.86266,-3.929324,8.996562,-9.749122,-30.502121,20.570538,29.615097,18.016525,-0.5462926,-15.0739565
182,0.38622844219207764,5.297989368438721,74.82392120361328,2.942789404564551,-3.7556686659664376,-90.83910602800621,-10.881381,3.4795911,10.830208,40.674862,-24.08089,-0.43909004,-11.208158,-21.39465,-11.269611,41.86662,-26.528841,9.510364,-9.015702,-3.4552367,27.633787,-22.55778,33.03488,-34.36233,25.902882,-20.986725,-3.786953,8.613908,-8.853157,-30.202477,21.330072,31.030493,17.491325,-0.13487548,-14.884448
183,0.4368015229701996,5.166801452636719,75.10601043701172,3.0935248796085877,-3.4836934862500537,-90.82643223235816,-10.35384,3.1244392,10.959465,39.05005,-23.264671,-0.4164831,-10.83133,-21.444683,-11.412316,40.578625,-25.757227,9.719524,-8.637209,-3.7815804,26.930487,-21.813725,32.031998,-34.3402,26.195665,-19.87658,-3.6401317,8.204056,-8.027033,-29.796244,22.0631,32.548622,16.985205,0.37294453,-14.520935
184,0.4904414415359497,5.030829429626465,75.37965393066406,3.161761464986514,-3.2222822442037073,-90.81817219278598,-9.844421,2.8696418,11.0559225,37.501263,-22.50382,-0.43232006,-10.4243965,-21.405033,-11.615275,39.294167,-25.009565,9.8576565,-8.273571,-4.038292,26.255781,-21.051239,31.141064,-34.47351,26.49761,-18.700274,-3.4912338,7.8811107,-7.2770658,-29.321833,22.734282,34.077785,16.518711,0.87968636,-13.99894
185,0.5420041084289551,4.885408401489258,75.6420669555664,3.109709598587666,-2.975078680143244,-90.80735954398585,-9.36011,2.7567618,11.0952425,36.05758,-21.820135,-0.5015486,-9.969292,-21.240423,-11.910624,38.008778,-24.283398,9.877594,-7.9330006,-4.1734033,25.619387,-20.264648,30.37079,-34.78595,26.777115,-17.430437,-3.345218,7.6716585,-6.5606136,-28.797535,23.267237,35.573425,16.110939,1.4155568,-13.230323
186,0.5887867212295532,4.749948978424072,75.88987731933594,2.9981049395016246,-2.7292249905969292,-90.75892454506914,-8.899469,2.7020555,11.072676,34.655636,-21.163721,-0.6048723,-9.481277,-21.03198,-12.295132,36.727955,-23.558083,9.843137,-7.6348996,-4.243856,24.997896,-19.43866,29.726217,-35.275406,27.021025,-16.007711,-3.1968567,7.515647,-5.8591046,-28.225601,23.685352,37.05027,15.749302,2.0137353,-12.23386
187,0.6262572407722473,4.622952461242676,76.13037109375,2.86331726511273,-2.4861800085763988,-90.71682155641092,-8.447954,2.6815019,11.047606,33.28506,-20.526388,-0.7196243,-8.993126,-20.79159,-12.700624,35.45111,-22.84807,9.8139,-7.332831,-4.2992997,24.402311,-18.599388,29.19503,-35.892773,27.286371,-14.54853,-3.0302122,7.395316,-5.2043176,-27.624304,24.095898,38.499725,15.41549,2.584483,-11.190194
188,0.6580138802528381,4.502208709716797,76.35572814941406,2.74257898904121,-2.247319793228579,-90.72456894856381,-7.991615,2.6709156,11.079316,31.936596,-19.90095,-0.82280713,-8.536106,-20.535011,-13.05813,34.176914,-22.167894,9.849864,-6.9827995,-4.385499,23.84368,-17.771898,28.753586,-36.58192,27.63473,-13.162965,-2.8309772,7.291462,-4.626884,-27.022171,24.608103,39.91309,15.103053,3.0407548,-10.282373
189,0.689400315284729,4.387556552886963,76.56758117675781,2.629204170129718,-2.0117013282323124,-90.81803764396027,-7.519716,2.6936102,11.203278,30.602585,-19.286772,-0.9064906,-8.110967,-20.244709,-13.372793,32.87594,-21.509724,9.964979,-6.546035,-4.4772315,23.330492,-16.987442,28.389704,-37.393497,28.111658,-11.914596,-2.639518,7.261586,-4.1222568,-26.440544,25.226786,41.303104,14.907995,3.3407657,-9.533479
190,0.710250735282898,4.263764381408691,76.77191162109375,2.5078354077302576,-1.7794336865968614,-90.96580105705262,-7.043449,2.7550948,11.380596,29.296719,-18.690928,-0.9804827,-7.70015,-19.918556,-13.673667,31.550499,-20.865587,10.129234,-6.050895,-4.5538692,22.855856,-16.238707,28.09766,-38.335175,28.694788,-10.728528,-2.4477782,7.2942286,-3.6559474,-25.883028,25.89151,42.647285,14.814671,3.5434885,-8.855832
191,0.7298265099525452,4.150733947753906,76.95732116699219,2.4086421469963213,-1.5528317135252336,-91.11040262665914,-6.577636,2.8007677,11.559518,28.027334,-18.109528,-1.0506175,-7.3076396,-19.594212,-13.92767,30.248226,-20.249603,10.334792,-5.557671,-4.6660504,22.406641,-15.489984,27.861292,-39.28278,29.344711,-9.505239,-2.173639,7.262557,-3.2257082,-25.353088,26.619905,43.89919,14.652915,3.7104325,-8.267387
192,0.743869960308075,4.0316948890686035,77.12671661376953,2.3619635968599915,-1.3343454733572702,-91.19410581054493,-6.138204,2.7739148,11.688569,26.798597,-17.536873,-1.1257938,-6.9377327,-19.310501,-14.102391,29.019331,-19.678131,10.571853,-5.136802,-4.8595533,21.969194,-14.693927,27.661238,-40.09906,30.01619,-8.139326,-1.7403433,7.0334744,-2.8388507,-24.85158,27.442244,45.017513,14.252516,3.8995745,-7.7864594
193,0.7476054430007935,3.910562038421631,77.27833557128906,2.393412947956152,-1.1216554084768553,-91.19091067758882,-5.7178893,2.6305487,11.753169,25.5689,-16.939734,-1.2250402,-6.58302,-19.075665,-14.156934,27.844837,-19.153948,10.894678,-4.812587,-5.1592712,21.538635,-13.833194,27.484121,-40.758133,30.744547,-6.4387126,-1.1319673,6.532538,-2.5211084,-24.380703,28.419096,46.030872,13.5631485,4.1275115,-7.4246764
194,0.7410125732421875,3.7971839904785156,77.40534210205078,2.4788105274296277,-0.9144374983698984,-91.13463221951507,-5.307456,2.4073625,11.780947,24.333773,-16.326466,-1.3413415,-6.242617,-18.872438,-14.11912,26.709745,-18.67039,11.285931,-4.5522647,-5.5267057,21.120058,-12.930363,27.327644,-41.318157,31.548061,-4.499556,-0.40607336,5.828078,-2.267559,-23.939098,29.525146,46.956078,12.681725,4.362024,-7.1695657
195,0.7263655066490173,3.6868977546691895,77.51114654541016,2.576034575640803,-0.717747651510104,-91.0575394695103,-4.9283066,2.1700053,11.784931,23.171099,-15.75289,-1.4465873,-5.928956,-18.70054,-14.061818,25.667807,-18.232334,11.630395,-4.336974,-5.914756,20.71475,-12.000261,27.19141,-41.773243,32.353077,-2.6494575,0.4071045,5.003877,-2.048386,-23.524757,30.66097,47.742954,11.656189,4.586461,-7.002399
196,0.7192195057868958,3.589667797088623,77.59626770019531,2.6456234151187608,-0.5361831744894797,-90.99215176251856,-4.602826,1.9833363,11.780554,22.161928,-15.278349,-1.5122378,-5.66125,-18.558397,-14.058014,24.783878,-17.841415,11.816058,-4.146985,-6.278477,20.32565,-11.062353,27.076725,-42.11999,33.083275,-1.2197562,1.2927835,4.1537094,-1.8305341,-23.1371,31.724646,48.33442,10.531991,4.784709,-6.904798
197,0.7096207141876221,3.490070343017578,77.66212463378906,2.678999465967161,-0.36336249310612595,-90.94320729070282,-4.349884,1.857976,11.770125,21.335068,-14.925021,-1.5300117,-5.465132,-18.450167,-14.130214,24.105494,-17.500416,11.767842,-3.9803348,-6.611807,19.945847,-10.10294,26.980581,-42.325863,33.696262,-0.32810605,2.3596437,3.245871,-1.6035163,-22.776424,32.708584,48.68804,9.1416235,4.973788,-6.900818
198,0.7004466652870178,3.406714677810669,77.70679473876953,2.695676744845525,-0.19933376832590385,-90.89490563840674,-4.1544213,1.7600989,11.748487,20.646492,-14.659767,-1.517429,-5.3275476,-18.371376,-14.242083,23.595346,-17.209358,11.5635,-3.84347,-6.9345098,19.578009,-9.124615,26.900616,-42.406574,34.23881,0.22083534,3.5885706,2.2558665,-1.3865916,-22.444715,33.657112,48.840027,7.5186915,5.1602535,-6.988955
199,0.6935795545578003,3.323150157928467,77.74232482910156,2.6994334674882396,-0.05789755123768328,-90.84891530467745,-3.992645,1.6868567,11.720371,20.07813,-14.463178,-1.4841237,-5.211857,-18.309826,-14.376395,23.193367,-16.966515,11.321407,-3.7260938,-7.241142,19.241499,-8.175744,26.83981,-42.437305,34.766487,0.5536577,4.784807,1.2985486,-1.1848886,-22.143892,34.544857,48.842213,6.013697,5.3097873,-7.1153483
200,0.6980260014533997,3.2497785091400146,77.76847076416016,2.69150823833769,0.04690763786767708,-90.80696292872314,-3.8406801,1.6356632,11.69052,19.611996,-14.316153,-1.4390591,-5.0793657,-18.252663,-14.514299,22.834282,-16.76627,11.158705,-3.6122367,-7.5272274,18.956865,-7.3089943,26.803692,-42.501816,35.336147,0.78278613,5.7507386,0.4890216,-0.9972034,-21.877302,35.338207,48.740513,4.9748297,5.383917,-7.228812
201,0.7045117616653442,3.1804189682006836,77.7861328125,2.6607320811206705,0.10447639627457755,-90.76679181967809,-3.7121453,1.6219734,11.653409,19.297712,-14.241924,-1.3741229,-4.9216156,-18.195265,-14.665344,22.525398,-16.617441,11.090626,-3.5017133,-7.7832794,18.73928,-6.5483527,26.798212,-42.636917,35.95391,0.7830319,6.44659,-0.13086127,-0.8163644,-21.649412,36.01548,48.48906,4.4857826,5.37239,-7.326105
202,0.7173634767532349,3.1212844848632812,77.79817199707031,2.6115909603160694,0.12456146466550189,-90.72846704958202,-3.6141188,1.6406316,11.6097355,19.128033,-14.242123,-1.2886153,-4.7578855,-18.145342,-14.834012,22.29103,-16.51817,11.059402,-3.3947167,-8.0146885,18.577541,-5.8677683,26.82239,-42.803192,36.588577,0.53172904,6.9820275,-0.61638707,-0.6372237,-21.462954,36.590107,48.06874,4.3614116,5.2944736,-7.432305
203,0.7310502529144287,3.072000503540039,77.80561828613281,2.565445022745225,0.12390847989567767,-90.69704654984933,-3.508922,1.657064,11.5716715,18.99311,-14.261618,-1.2020628,-4.5927525,-18.11172,-14.992045,22.095842,-16.447645,11.072805,-3.2777774,-8.238126,18.45188,-5.24128,26.869503,-42.96533,37.241062,0.2925353,7.3761077,-1.005051,-0.45679587,-21.314524,37.082405,47.56165,4.5492034,5.1532464,-7.5398555
204,0.7434695959091187,3.014418601989746,77.8144302368164,2.5476278273671737,0.11947306235251792,-90.67742270031839,-3.3604481,1.6373023,11.551436,18.786938,-14.246695,-1.1338302,-4.430173,-18.105556,-15.110829,21.905094,-16.385395,11.138973,-3.1375551,-8.471383,18.339888,-4.6443715,26.928696,-43.088833,37.91984,0.33270216,7.6442294,-1.3376206,-0.27917063,-21.198092,37.514065,47.0635,4.9955754,4.951384,-7.6410894
205,0.7569355964660645,2.9542014598846436,77.8213119506836,2.5647125811942635,0.10869546175148945,-90.66407811171477,-3.1629763,1.569992,11.544234,18.500626,-14.191599,-1.0880258,-4.260256,-18.135962,-15.193717,21.710472,-16.337496,11.282396,-2.9721,-8.721687,18.24554,-4.088064,26.993296,-43.18009,38.65612,0.7901521,7.7295413,-1.6121446,-0.09656702,-21.109314,37.86381,46.574974,5.833926,4.648035,-7.73767
206,0.7700256705284119,2.887643575668335,77.82513427734375,2.603762988740783,0.08477080591170653,-90.65664764094929,-2.93456,1.4740483,11.545724,18.184425,-14.122168,-1.0543218,-4.084516,-18.19496,-15.252508,21.53124,-16.31233,11.491226,-2.7875082,-8.97903,18.173782,-3.585062,27.060678,-43.2546,39.449974,1.4990766,7.6418004,-1.8101189,0.08506712,-21.047981,38.13063,46.06535,7.042278,4.2533073,-7.826604
207,0.7843803763389587,2.8248257637023926,77.82984924316406,2.656746932576642,0.05847204059513451,-90.66812882740932,-2.6728294,1.3615313,11.569226,17.81741,-14.030123,-1.0303159,-3.9202049,-18.265379,-15.273288,21.365625,-16.288034,11.718956,-2.5823755,-9.230965,18.105284,-3.1155558,27.120283,-43.29145,40.266247,2.2741132,7.49403,-1.9500167,0.25074372,-21.012,38.364506,45.569874,8.336248,3.8487806,-7.8973026
208,0.8014763593673706,2.7532801628112793,77.83769226074219,2.7136678737701363,0.040424693429767886,-90.71140629690511,-2.3753047,1.244163,11.627798,17.3784,-13.906818,-1.0134891,-3.7861915,-18.32942,-15.241159,21.213642,-16.243547,11.919067,-2.3637059,-9.469937,18.018412,-2.646822,27.169006,-43.258987,41.060177,2.932504,7.400338,-2.0543582,0.36937326,-20.989458,38.62671,45.142082,9.43328,3.515957,-7.947957
209,0.8176097869873047,2.6757118701934814,77.85054016113281,2.7835025777663107,0.0362979283889493,-90.79586926079271,-2.0297391,1.115918,11.733509,16.835262,-13.740996,-1.0052464,-3.6966608,-18.387403,-15.128451,21.079128,-16.171553,12.093855,-2.1149747,-9.701003,17.9058,-2.182964,27.194729,-43.142082,41.845062,3.4758103,7.3840165,-2.1276524,0.44262075,-20.97631,38.911293,44.796143,10.33289,3.2536702,-7.9794807
210,0.8337100744247437,2.593832015991211,77.86791229248047,2.8647192196564553,0.03973267748618071,-90.91253967221391,-1.6436226,0.97398025,11.875661,16.212252,-13.540736,-1.0058804,-3.6388335,-18.446823,-14.950785,20.960922,-16.084158,12.263389,-1.8997953,-9.938656,17.765701,-1.6680722,27.214659,-42.878174,42.59919,4.004777,7.3873906,-2.1641986,0.41774857,-20.957655,39.2754,44.559364,11.180259,3.024407,-8.004239
211,0.8482866287231445,2.517998695373535,77.8873062133789,2.9438819677229375,0.04280551609130066,-91.04701464743202,-1.2330744,0.83309865,12.034028,15.550829,-13.322625,-1.0116038,-3.5904949,-18.500505,-14.758341,20.851301,-15.987121,12.40788,-1.6603731,-10.153991,17.620026,-1.1937487,27.215883,-42.618084,43.362965,4.4283085,7.4036064,-2.158123,0.3617538,-20.938536,39.62637,44.374695,11.850549,2.8607774,-8.019483
212,0.8634490966796875,2.433276414871216,77.9081802368164,3.0082542363494245,0.03781828961823878,-91.18478820413381,-0.81599176,0.7080085,12.188755,14.89613,-13.104161,-1.0193617,-3.5312376,-18.541357,-14.601075,20.746124,-15.888597,12.507488,-1.4017525,-10.328557,17.480436,-0.7802956,27.204828,-42.42538,44.12872,4.6747556,7.4249854,-2.108901,0.28619432,-20.92178,39.956013,44.217854,12.242021,2.7944086,-8.0315
213,0.8791241645812988,2.3411481380462646,77.9302749633789,3.0542473018799434,0.023182643470458057,-91.33025663169647,-0.3877866,0.6033123,12.343832,14.245496,-12.884339,-1.0293741,-3.464739,-18.565968,-14.476962,20.652834,-15.78014,12.548664,-1.1861948,-10.467751,17.328766,-0.3696771,27.176376,-42.209465,44.88848,4.6933665,7.441524,-1.9931235,0.11747682,-20.889317,40.357548,44.151203,12.285931,2.8511553,-8.051419
214,0.8968002200126648,2.2523748874664307,77.95030975341797,3.0873230289756086,0.0028394820719193784,-91.48845045216706,0.057616733,0.509983,12.506492,13.58029,-12.65556,-1.0442182,-3.3999991,-18.576859,-14.364718,20.572208,-15.6616125,12.544586,-0.9448532,-10.573437,17.175766,-0.013810846,27.135052,-42.032913,45.662495,4.5158157,7.4607143,-1.8156018,-0.08609657,-20.848642,40.742867,44.138935,12.034511,3.0092845,-8.068517
215,0.9109732508659363,2.1657776832580566,77.96681213378906,3.1138269323016163,-0.023036557037404027,-91.6457162914915,0.50478405,0.4245261,12.664704,12.924529,-12.428386,-1.0591323,-3.3216972,-18.583,-14.284317,20.48677,-15.551056,12.516306,-0.70675737,-10.651408,17.02443,0.30095342,27.08341,-41.895737,46.416553,4.2751136,7.4954243,-1.6330401,-0.32350776,-20.798958,41.12659,44.16702,11.63966,3.2227004,-8.083862
216,0.9206097722053528,2.0847764015197754,77.9842300415039,3.1381583903152426,-0.054319218487148914,-91.78858174878195,0.9407209,0.34201583,12.806384,12.296958,-12.212972,-1.069978,-3.215468,-18.592455,-14.255608,20.380901,-15.467706,12.4847355,-0.483008,-10.7055855,16.88181,0.571998,27.026989,-41.821007,47.12201,4.0977817,7.560359,-1.5008296,-0.57888955,-20.73953,41.4996,44.21338,11.246069,3.4454226,-8.097112
217,0.928481936454773,2.0055935382843018,78.00100708007812,3.1567472163600634,-0.09391407439402655,-91.91772712329308,1.3596696,0.270109,12.931153,11.717506,-12.015356,-1.07634,-3.0696082,-18.600784,-14.296848,20.241823,-15.412055,12.452802,-0.26049808,-10.727034,16.759304,0.7897062,26.981228,-41.831184,47.7771,3.9640238,7.648462,-1.4192885,-0.83365935,-20.682682,41.845314,44.262566,10.840007,3.678511,-8.111355
218,0.9352675676345825,1.9196780920028687,78.01553344726562,3.169283212423626,-0.14107593428116208,-92.03897533239241,1.7724714,0.20708637,13.044757,11.164586,-11.826906,-1.0805988,-2.8940806,-18.60518,-14.393061,20.08011,-15.3751545,12.410356,-0.06435501,-10.7224865,16.637608,0.9712855,26.923838,-41.878086,48.409527,3.8336565,7.75418,-1.3632077,-1.1398504,-20.595411,42.211945,44.380642,10.368013,3.9394288,-8.129203
219,0.937809407711029,1.8298755884170532,78.02680969238281,3.1863167206178535,-0.189866351767941,-92.14615757252243,2.1714232,0.14036626,13.144821,10.636811,-11.6480055,-1.0828807,-2.7087855,-18.61815,-14.514522,19.917952,-15.36348,12.358932,0.124008216,-10.704789,16.521338,1.1160346,26.870901,-41.97552,48.97205,3.768535,7.9006133,-1.3512981,-1.4596444,-20.498106,42.557384,44.50126,9.891818,4.214956,-8.135012
220,0.9365983009338379,1.7433160543441772,78.0331039428711,3.2172360579731563,-0.23420446435875023,-92.23300637453686,2.5538216,0.056059226,13.227897,10.1214075,-11.472826,-1.0830214,-2.5344503,-18.651293,-14.631277,19.778564,-15.383441,12.299692,0.28978282,-10.691208,16.403069,1.2460188,26.823444,-42.09757,49.42341,3.8423736,8.10928,-1.4027321,-1.7942854,-20.396236,42.888344,44.597813,9.485168,4.4900904,-8.11973
221,0.9330403208732605,1.660475730895996,78.03544616699219,3.2698222622701443,-0.2721898586733036,-92.3026967799618,2.9245675,-0.05320706,13.300077,9.60444,-11.294762,-1.0809795,-2.378509,-18.711731,-14.741773,19.670475,-15.451825,12.2183075,0.4372647,-10.686828,16.281904,1.3706428,26.784174,-42.232323,49.723022,4.162409,8.421305,-1.5484911,-2.1458633,-20.294142,43.210857,44.67052,9.182267,4.770649,-8.085448
222,0.9278690218925476,1.5792912244796753,78.03321838378906,3.336634829224268,-0.3070703558910522,-92.35688343694515,3.2833734,-0.17847769,13.36035,9.095469,-11.118154,-1.0768995,-2.2283528,-18.7923,-14.860157,19.57901,-15.559316,12.118989,0.5667895,-10.682125,16.161753,1.484435,26.75524,-42.38716,49.895317,4.6636615,8.811831,-1.772947,-2.5140128,-20.193508,43.52562,44.72677,8.94042,5.061603,-8.036327
223,0.9194029569625854,1.4988168478012085,78.02574157714844,3.4074480513830716,-0.3402213715536068,-92.38674366297973,3.6180415,-0.30772436,13.395618,8.620837,-10.955733,-1.070902,-2.0768063,-18.881117,-14.979968,19.497694,-15.675172,12.029883,0.6644764,-10.67016,16.044426,1.5776186,26.735483,-42.577507,50.002064,5.1569924,9.204916,-2.0238268,-2.888953,-20.094988,43.821285,44.743908,8.718506,5.3469057,-7.966137
224,0.9108016490936279,1.4172906875610352,78.0157241821289,3.4727954202653053,-0.3731963784524267,-92.38333088524125,3.9127035,-0.4289147,13.393704,8.213195,-10.823104,-1.0628867,-1.9115685,-18.965088,-15.096505,19.40772,-15.765805,11.979782,0.7175781,-10.64456,15.931277,1.6373639,26.721094,-42.819717,50.10944,5.4519,9.526387,-2.2447913,-3.2618713,-19.99955,44.086147,44.701805,8.474535,5.6103473,-7.868315
225,0.9010483622550964,1.3393113613128662,78.00323486328125,3.5363799211306612,-0.41070231697419624,-92.34574614264783,4.178785,-0.5470009,13.351779,7.861119,-10.717527,-1.0534362,-1.7273043,-19.046705,-15.193844,19.308355,-15.823607,11.980031,0.7216925,-10.606341,15.826932,1.6492931,26.71216,-43.15351,50.23086,5.4375157,9.740462,-2.4079075,-3.635485,-19.912476,44.323887,44.590744,8.181844,5.852955,-7.720712
226,0.8919978737831116,1.262586236000061,77.98983764648438,3.6011301699649567,-0.4506344761514631,-92.2783389697883,4.419952,-0.6657542,13.276435,7.552138,-10.631517,-1.0422522,-1.5302712,-19.13062,-15.279778,19.205069,-15.8646555,12.014289,0.68534595,-10.556744,15.730085,1.6211767,26.707893,-43.559967,50.33544,5.2344394,9.893241,-2.5449963,-4.009237,-19.837097,44.536522,44.416557,7.868176,6.081538,-7.533396
227,0.8805835843086243,1.1871360540390015,77.97502136230469,3.6596409878858975,-0.48427400644132285,-92.18012185579708,4.611014,-0.77221006,13.169948,7.3187165,-10.576695,-1.0277393,-1.331163,-19.212866,-15.382201,19.104115,-15.895253,12.069588,0.6210606,-10.491755,15.630191,1.5647045,26.698572,-43.979015,50.434338,4.995319,10.034649,-2.687044,-4.3754277,-19.756393,44.704662,44.20404,7.5681148,6.287327,-7.348513
228,0.8691534399986267,1.1116864681243896,77.9610595703125,3.70554789483313,-0.5030103743985624,-92.05027548742892,4.7279334,-0.85427123,13.035085,7.1896334,-10.562181,-1.0083283,-1.1395009,-19.28872,-15.529172,19.00888,-15.919248,12.132857,0.52616537,-10.404016,15.520569,1.5054327,26.675375,-44.325462,50.524403,4.881864,10.213331,-2.867377,-4.7193093,-19.682184,44.8237,43.944405,7.3245015,6.46463,-7.208319
229,0.8576720952987671,1.0401722192764282,77.9472427368164,3.736179196475803,-0.506368120094255,-91.87346654583901,4.756038,-0.90921444,12.857635,7.1878943,-10.597911,-0.98255384,-0.9512357,-19.361938,-15.73932,18.923332,-15.938028,12.21082,0.38659924,-10.290167,15.399771,1.4381336,26.629837,-44.584908,50.610916,4.9441953,10.453335,-3.118143,-5.046183,-19.614641,44.89448,43.62938,7.1282043,6.6271973,-7.110293
230,0.8448686599731445,0.9711454510688782,77.93539428710938,3.757127546429112,-0.4983878880547491,-91.65530648905133,4.711787,-0.9443836,12.641731,7.290741,-10.675418,-0.95152205,-0.7634738,-19.432486,-15.993847,18.844072,-15.948979,12.306932,0.20373966,-10.152742,15.27045,1.3514578,26.55913,-44.794956,50.70216,5.097523,10.7232685,-3.4145749,-5.3622875,-19.554493,44.92571,43.263737,6.966664,6.7738895,-7.0371037
231,0.832806408405304,0.9001741409301758,77.92681121826172,3.768742262499067,-0.4768519847810493,-91.42592807146085,4.615616,-0.96074724,12.4163065,7.464487,-10.779182,-0.9180758,-0.5860414,-19.49178,-16.265324,18.763624,-15.951404,12.4034,0.009572621,-9.993732,15.130777,1.2518686,26.461014,-44.965816,50.80754,5.2967806,10.989076,-3.7034044,-5.651338,-19.500116,44.9097,42.87036,6.870162,6.876191,-7.009665
232,0.8226831555366516,0.8224759101867676,77.92100524902344,3.769922040630324,-0.439640090324661,-91.21550205895464,4.488212,-0.96018976,12.210084,7.674134,-10.893128,-0.8848778,-0.42698988,-19.529327,-16.52683,18.668243,-15.942817,12.482419,-0.16455726,-9.816581,14.978669,1.1462568,26.334415,-45.107555,50.935753,5.495549,11.217764,-3.9306967,-5.899617,-19.448261,44.84019,42.474743,6.8703775,6.9054065,-7.048963
233,0.811529815196991,0.74692302942276,77.91593170166016,3.760997589061811,-0.37612373558609413,-91.02105684453718,4.3029246,-0.93888354,12.019857,7.9468317,-11.024478,-0.84917885,-0.30185395,-19.546911,-16.782616,18.568178,-15.9218445,12.5448,-0.3223946,-9.618959,14.802462,1.0250052,26.176237,-45.22469,51.103058,5.7037325,11.417566,-4.088581,-6.1035852,-19.39574,44.705097,42.07202,6.978701,6.845683,-7.1724377
234,0.7926098108291626,0.6826431751251221,77.91213989257812,3.7404950595984556,-0.2905734011021766,-90.83008112664983,4.058425,-0.89751256,11.833562,8.291156,-11.179325,-0.8103338,-0.20174485,-19.54783,-17.04329,18.464287,-15.890224,12.598148,-0.47580877,-9.399965,14.606357,0.88437617,25.984137,-45.31365,51.305252,5.9380574,11.600643,-4.203314,-6.27131,-19.34137,44.509884,41.656464,7.1760345,6.7143064,-7.36478
235,0.7723531126976013,0.6181389093399048,77.90974426269531,3.7119008253862398,-0.20326288337777643,-90.65859601723339,3.8158212,-0.8428909,11.667043,8.63785,-11.335865,-0.7748855,-0.10550603,-19.529562,-17.288532,18.348032,-15.851667,12.634546,-0.6066675,-9.163897,14.411452,0.7408661,25.761059,-45.370457,51.51986,6.1608777,11.739809,-4.2714076,-6.4101806,-19.285248,44.279324,41.25491,7.4504614,6.5319304,-7.597881
236,0.7546747922897339,0.551106333732605,77.91010284423828,3.678740660771366,-0.1340842634504796,-90.52251408561222,3.63735,-0.78182846,11.536699,8.916498,-11.47202,-0.74974436,0.00625596,-19.491194,-17.497232,18.21509,-15.811998,12.646399,-0.6972838,-8.915734,14.239431,0.6152183,25.514025,-45.389202,51.71669,6.334296,11.808388,-4.28928,-6.526131,-19.227245,44.03808,40.889877,7.7911196,6.319611,-7.84381
237,0.7386401295661926,0.4820806086063385,77.9128646850586,3.637605379298936,-0.08697581054955705,-90.42435467744775,3.5320346,-0.71016395,11.446501,9.119753,-11.5881195,-0.73527235,0.14254646,-19.426113,-17.667435,18.054247,-15.769028,12.625131,-0.7403102,-8.652367,14.0960245,0.5130548,25.248337,-45.3646,51.88271,6.5156913,11.795773,-4.250589,-6.609379,-19.166842,43.772243,40.554745,8.216896,6.0602455,-8.108951
238,0.722022294998169,0.4023436903953552,77.91844177246094,3.587165530182815,-0.0517687938340099,-90.35622097225104,3.4671488,-0.62515104,11.387993,9.286887,-11.69733,-0.7286158,0.29044232,-19.336588,-17.808731,17.873676,-15.722583,12.577113,-0.7469248,-8.3739605,13.969978,0.42856866,24.966383,-45.298573,52.025684,6.7019773,11.7183075,-4.1590247,-6.662265,-19.103588,43.476913,40.24125,8.726088,5.748748,-8.401982
239,0.6993337869644165,0.31877845525741577,77.92418670654297,3.537205562985468,-0.02797714099902849,-90.31846999637781,3.4504497,-0.539562,11.359297,9.397265,-11.784501,-0.7314376,0.44127122,-19.238398,-17.9181,17.69044,-15.675869,12.517478,-0.7280545,-8.092087,13.857243,0.36770827,24.672321,-45.193367,52.146492,6.7662754,11.5894785,-4.026144,-6.708371,-19.037283,43.189735,39.97028,9.275551,5.4247127,-8.699371
