unveil-humanoid-operators/unveil-humanoid-operators.github.io/feature-analysis-animation/data/feature_matrix_extreme/gender_climbing_box_knee_rom_low.csv
Frame,root_translateX,root_translateY,root_translateZ,root_rotateX,root_rotateY,root_rotateZ,left_hip_pitch_joint_dof,left_hip_roll_joint_dof,left_hip_yaw_joint_dof,left_knee_joint_dof,left_ankle_pitch_joint_dof,left_ankle_roll_joint_dof,right_hip_pitch_joint_dof,right_hip_roll_joint_dof,right_hip_yaw_joint_dof,right_knee_joint_dof,right_ankle_pitch_joint_dof,right_ankle_roll_joint_dof,waist_yaw_joint_dof,waist_roll_joint_dof,waist_pitch_joint_dof,left_shoulder_pitch_joint_dof,left_shoulder_roll_joint_dof,left_shoulder_yaw_joint_dof,left_elbow_joint_dof,left_wrist_roll_joint_dof,left_wrist_pitch_joint_dof,left_wrist_yaw_joint_dof,right_shoulder_pitch_joint_dof,right_shoulder_roll_joint_dof,right_shoulder_yaw_joint_dof,right_elbow_joint_dof,right_wrist_roll_joint_dof,right_wrist_pitch_joint_dof,right_wrist_yaw_joint_dof
0,-0.5509859919548035,2.1037240028381348,78.24455261230469,-0.12048297858164896,-7.978118740562656,-85.51564168133206,6.534517,6.7038074,6.456635,10.71236,-9.394852,-7.9901667,9.191316,-7.847844,-18.324467,13.285862,-12.980989,4.3663116,-4.294313,-1.565062,9.474684,-22.319653,20.194773,-35.170044,72.75336,-37.01117,0.7093278,5.733144,-21.01457,-20.18141,38.543446,72.66302,37.77799,4.6958747,-10.26905
1,-0.5625149011611938,2.088977575302124,78.23709869384766,-0.1365239165301844,-7.997809596033071,-85.47933221586783,6.4399714,6.7425,6.39738,10.963463,-9.519179,-7.9894733,9.240181,-7.819079,-18.368118,13.2827835,-13.017537,4.373982,-4.252008,-1.5692734,9.474785,-22.333893,20.201597,-35.167095,72.70085,-36.96738,0.6950925,5.7106743,-20.99428,-20.188854,38.552837,72.67108,37.83125,4.7068,-10.297594
2,-0.5822082161903381,2.069368839263916,78.22743225097656,-0.15701726678856034,-8.01649995582001,-85.44216930284392,6.3422637,6.784303,6.336032,11.217617,-9.6472,-7.9905534,9.291077,-7.7853403,-18.412737,13.271455,-13.049658,4.382845,-4.220295,-1.5684232,9.477209,-22.323578,20.220314,-35.124763,72.6219,-36.89539,0.6846998,5.683769,-20.969997,-20.207125,38.564594,72.66451,37.886284,4.717451,-10.322745
3,-0.5987803339958191,2.0527851581573486,78.2201919555664,-0.17369138780606044,-8.03581581840724,-85.40564695578306,6.250492,6.8223634,6.277625,11.462563,-9.769147,-7.989096,9.3382,-7.7573214,-18.456472,13.272301,-13.088175,4.3886313,-4.178355,-1.5735664,9.475956,-22.330454,20.232433,-35.11078,72.561935,-36.84212,0.6698612,5.6619334,-20.9537,-20.216932,38.588806,72.67588,37.94679,4.729591,-10.352148
4,-0.6211808919906616,2.030122756958008,78.21282958984375,-0.18546222333433465,-8.055362466995643,-85.36715554999996,6.1636367,6.857026,6.2221723,11.700998,-9.8842945,-7.9819603,9.380958,-7.7361927,-18.50234,13.29072,-13.136448,4.38579,-4.125505,-1.5849742,9.46821,-22.327972,20.244118,-35.10673,72.487785,-36.789333,0.64985985,5.6546335,-20.93775,-20.22488,38.64364,72.69052,38.01567,4.7516546,-10.395307
5,-0.6410369873046875,2.006211042404175,78.2032699584961,-0.19031402020848953,-8.074370965540243,-85.3278949162625,6.0857816,6.8844624,6.173791,11.925018,-9.987664,-7.9656,9.412426,-7.728631,-18.548487,13.341168,-13.201114,4.3691344,-4.065447,-1.6055198,9.448919,-22.311857,20.26222,-35.12424,72.39481,-36.74729,0.6247251,5.670682,-20.931475,-20.234539,38.770767,72.718,38.12497,4.789834,-10.457062
6,-0.6631921529769897,1.9770125150680542,78.19511413574219,-0.1907060194210711,-8.093083985778962,-85.28831303607856,6.014492,6.906927,6.1304917,12.139051,-10.082982,-7.942882,9.436213,-7.7303452,-18.595041,13.413916,-13.277347,4.342762,-4.0037227,-1.6303573,9.421357,-22.285524,20.28548,-35.158,72.28825,-36.717983,0.5956398,5.7031803,-20.920513,-20.241177,38.915787,72.74614,38.22374,4.840485,-10.532538
7,-0.6872345209121704,1.9508202075958252,78.18798828125,-0.18922904265714072,-8.112639529541141,-85.24641121402009,5.943644,6.929739,6.0860524,12.354504,-10.177036,-7.919444,9.463135,-7.7313623,-18.644182,13.486315,-13.354559,4.3153024,-3.931043,-1.6620021,9.391416,-22.253992,20.312689,-35.1876,72.1761,-36.683544,0.5615583,5.7331266,-20.922392,-20.245045,39.10133,72.78751,38.34981,4.888103,-10.610767
8,-0.7128590941429138,1.9282909631729126,78.1793212890625,-0.1925864349426947,-8.134064221699818,-85.2007291267655,5.8655963,6.9583216,6.034197,12.586885,-10.279369,-7.9007926,9.503746,-7.7222447,-18.698387,13.536952,-13.423406,4.295722,-3.8386626,-1.694248,9.368093,-22.253925,20.32849,-35.229076,72.09774,-36.665592,0.517138,5.740711,-20.919853,-20.246464,39.24995,72.82465,38.43791,4.921755,-10.681332
9,-0.7378271818161011,1.9058687686920166,78.16954040527344,-0.20385097713761183,-8.160351889279033,-85.15210570865783,5.787877,6.993949,5.976472,12.829672,-10.3889065,-7.8916087,9.564224,-7.7004514,-18.756472,13.560105,-13.481724,4.2875094,-3.7765868,-1.7166219,9.338495,-22.217682,20.360264,-35.232742,72.01037,-36.674137,0.4575247,5.7057066,-20.947548,-20.245056,39.485176,72.8775,38.554863,4.937815,-10.743264
10,-0.7678475975990295,1.8802597522735596,78.16065979003906,-0.21646851539474152,-8.190721511648313,-85.10173826655183,5.712461,7.033894,5.91545,13.077656,-10.5014715,-7.887823,9.639733,-7.6708837,-18.8177,13.564699,-13.533522,4.285566,-3.6874785,-1.7450229,9.31899,-22.217154,20.384844,-35.25256,71.95743,-36.698036,0.385556,5.6415753,-20.968906,-20.242868,39.69045,72.92332,38.642483,4.942577,-10.798791
11,-0.7948297262191772,1.853704810142517,78.15184020996094,-0.2317366346435227,-8.217440637082191,-85.04529069326564,5.619187,7.0775695,5.8449354,13.349028,-10.622786,-7.8814507,9.716028,-7.6359634,-18.885204,13.561162,-13.582045,4.285724,-3.6165776,-1.7659332,9.292937,-22.186916,20.419317,-35.248596,71.87701,-36.725914,0.31420547,5.5871897,-21.015816,-20.237516,39.947952,72.984825,38.75339,4.9404736,-10.854206
12,-0.8225628137588501,1.8274115324020386,78.14598846435547,-0.2524849717983601,-8.234040078194273,-84.97995628198089,5.4927783,7.123724,5.7608843,13.656737,-10.756003,-7.864694,9.781881,-7.597877,-18.960691,13.556611,-13.629024,4.283797,-3.5515778,-1.789023,9.2633915,-22.138372,20.465517,-35.219467,71.762215,-36.72787,0.25736207,5.574436,-21.074692,-20.22742,40.218517,73.046906,38.87572,4.934558,-10.913768
13,-0.8437445163726807,1.801270842552185,78.13907623291016,-0.2754040573916807,-8.238144397592245,-84.90402726368066,5.3252554,7.1698985,5.6589246,14.008392,-10.9041395,-7.8319254,9.832562,-7.5596685,-19.045393,13.556008,-13.677049,4.280982,-3.4530354,-1.8194041,9.226922,-22.132574,20.49121,-35.25188,71.6621,-36.737743,0.22307567,5.624876,-21.118172,-20.224464,40.46581,73.09615,39.018772,4.9250665,-10.984851
14,-0.8680667877197266,1.7791774272918701,78.12934875488281,-0.3007780364167701,-8.233630078240143,-84.81941226060984,5.1272044,7.216872,5.5427027,14.394534,-11.064325,-7.7885575,9.874592,-7.51947,-19.137554,13.555358,-13.724887,4.27873,-3.3427436,-1.8519304,9.187174,-22.135242,20.508177,-35.286495,71.55455,-36.730618,0.2036148,5.7159696,-21.158884,-20.225069,40.702454,73.13812,39.164036,4.9110675,-11.062912
15,-0.8983029723167419,1.7532074451446533,78.11957550048828,-0.3322964064766627,-8.222329312345872,-84.72882145383586,4.907007,7.269573,5.4182963,14.805816,-11.231892,-7.7437787,9.914101,-7.472207,-19.236284,13.545872,-13.767813,4.273511,-3.271544,-1.8664291,9.132787,-22.088688,20.536543,-35.277565,71.41474,-36.728058,0.17736147,5.8209915,-21.235636,-20.226152,41.03756,73.19849,39.36012,4.893012,-11.135441
16,-0.9305684566497803,1.7296634912490845,78.10891723632812,-0.3710918644751157,-8.20758413991718,-84.6348980441241,4.6739326,7.3319387,5.291864,15.23399,-11.402676,-7.7065644,9.957262,-7.4130883,-19.340694,13.520648,-13.802145,4.2617006,-3.1950889,-1.8709928,9.08388,-22.029,20.570078,-35.238827,71.264984,-36.718487,0.12554124,5.913796,-21.313417,-20.227009,41.329292,73.25215,39.505505,4.871472,-11.184543
17,-0.9617530703544617,1.7081419229507446,78.0967788696289,-0.4226014663479565,-8.187830091545798,-84.53757959846504,4.421628,7.40804,5.16159,15.689601,-11.580419,-7.679983,10.003749,-7.338319,-19.45203,13.476226,-13.825768,4.2401237,-3.0963871,-1.8645643,9.035138,-21.972576,20.596706,-35.20191,71.13115,-36.719837,0.0331852,5.9913263,-21.384428,-20.230236,41.57644,73.30296,39.610092,4.851142,-11.201443
18,-0.9939671754837036,1.6849292516708374,78.08648681640625,-0.481420315381213,-8.162536761477236,-84.43611574258415,4.148891,7.4941573,5.0253725,16.171524,-11.765208,-7.6588306,10.051352,-7.251058,-19.570248,13.416092,-13.840716,4.2114735,-2.9955397,-1.8451666,8.983709,-21.905664,20.62083,-35.148857,70.997986,-36.725643,-0.08617664,6.0657926,-21.459507,-20.235813,41.812275,73.353615,39.691223,4.83103,-11.19668
19,-1.018354892730713,1.660054326057434,78.073974609375,-0.5452972450320718,-8.13457877723449,-84.33070961997613,3.8695874,7.583914,4.8884583,16.658955,-11.949861,-7.639777,10.1006365,-7.1583486,-19.69193,13.347434,-13.85114,4.18082,-2.8994994,-1.8177085,8.931642,-21.81615,20.648436,-35.058273,70.844,-36.716053,-0.2122005,6.137659,-21.538607,-20.244139,42.040916,73.39554,39.753647,4.8002043,-11.182755
20,-1.0482563972473145,1.6355243921279907,78.06204223632812,-0.6072583350864201,-8.10742310064535,-84.22251830135434,3.5970361,7.670881,4.7560654,17.132528,-12.126816,-7.619575,10.151932,-7.066709,-19.813547,13.278344,-13.8621025,4.1531353,-2.7843027,-1.7965156,8.881487,-21.728891,20.674025,-34.95463,70.678635,-36.68461,-0.32552877,6.207518,-21.600267,-20.254515,42.222515,73.41197,39.788982,4.7459683,-11.171668
21,-1.0760033130645752,1.6145259141921997,78.04962158203125,-0.6687465318550954,-8.079655464340721,-84.11302449495136,3.3380668,7.756312,4.6283846,17.575697,-12.293365,-7.6017475,10.202894,-6.9739547,-19.93223,13.209244,-13.872759,4.1266565,-2.6595347,-1.7769845,8.831869,-21.636833,20.702412,-34.830196,70.491165,-36.63308,-0.4180572,6.2777853,-21.65281,-20.269524,42.374138,73.40432,39.81233,4.6534452,-11.163142
22,-1.1065126657485962,1.5941622257232666,78.03831481933594,-0.7334387488717704,-8.05009845249646,-84.00137496778697,3.0824797,7.842715,4.5028515,18.006916,-12.454328,-7.5867834,10.254481,-6.877493,-20.050533,13.135428,-13.880496,4.0996737,-2.5254786,-1.7570748,8.783725,-21.533646,20.735294,-34.677757,70.27938,-36.557865,-0.5003817,6.3473997,-21.686775,-20.290436,42.47117,73.3649,39.79346,4.534164,-11.152063
23,-1.1344690322875977,1.5710701942443848,78.02629089355469,-0.7949102955455903,-8.022677353456935,-83.88423725751846,2.8303382,7.924098,4.382573,18.433489,-12.609901,-7.5675216,10.311403,-6.784706,-20.173222,13.059249,-13.88925,4.0776505,-2.3779325,-1.7423633,8.738902,-21.433512,20.768417,-34.526165,70.06298,-36.48298,-0.5830527,6.411641,-21.718689,-20.316908,42.561115,73.31313,39.770992,4.4127293,-11.142914
24,-1.160409927368164,1.5453349351882935,78.01411437988281,-0.8493450541191261,-8.00076011358112,-83.75845149540112,2.5825982,7.9942417,4.271079,18.860773,-12.759801,-7.5364532,10.3781805,-6.7033563,-20.304817,12.983084,-13.902295,4.066111,-2.2179897,-1.7364336,8.695792,-21.3442,20.791838,-34.386383,69.863655,-36.41884,-0.67789394,6.4655113,-21.740019,-20.339231,42.622314,73.25405,39.706585,4.315961,-11.141389
25,-1.185081124305725,1.5204640626907349,78.00303649902344,-0.8942739140369921,-7.989604572364527,-83.62492478365543,2.3480718,8.049956,4.1652107,19.282845,-12.903367,-7.4935207,10.465232,-6.6339297,-20.445099,12.898173,-13.918303,4.0702286,-2.0759428,-1.7297758,8.66644,-21.224033,20.827477,-34.209045,69.63969,-36.35953,-0.79246265,6.492399,-21.782503,-20.375004,42.748283,73.186005,39.650627,4.2563252,-11.161328
26,-1.2117880582809448,1.494442343711853,77.99346160888672,-0.9320941684227461,-7.985602410743041,-83.48488694055476,2.1241708,8.094951,4.065002,19.698023,-13.040646,-7.441957,10.566461,-6.573233,-20.591866,12.807493,-13.936674,4.085951,-1.9176395,-1.7332999,8.639819,-21.111895,20.85712,-34.039677,69.43055,-36.30835,-0.9213608,6.500309,-21.81295,-20.406115,42.84793,73.11013,39.55338,4.215043,-11.195374
27,-1.2335667610168457,1.47013521194458,77.98180389404297,-0.9672271850594282,-7.980200556910966,-83.33461611712823,1.8899809,8.135066,3.9764686,20.126127,-13.174858,-7.379318,10.66501,-6.520661,-20.748402,12.725445,-13.959757,4.104577,-1.7777209,-1.7340164,8.618697,-20.9786,20.89792,-33.843094,69.188774,-36.255257,-1.0439117,6.5181284,-21.85863,-20.447441,42.96254,73.02154,39.455563,4.1860256,-11.218475
28,-1.2537846565246582,1.449605107307434,77.97225952148438,-1.0014505100868227,-7.9649953747250715,-83.17050114615674,1.6257555,8.1757555,3.905777,20.584894,-13.307354,-7.303178,10.743307,-6.4765825,-20.918085,12.668015,-13.990828,4.11747,-1.6317389,-1.7413323,8.591399,-20.851908,20.933111,-33.654137,68.93325,-36.188873,-1.1434009,6.579152,-21.912209,-20.48431,43.04292,72.93712,39.3599,4.1559386,-11.20502
29,-1.2774380445480347,1.4381752014160156,77.964599609375,-1.0351608690139757,-7.934191999500489,-82.98911177169128,1.3204137,8.215665,3.8450258,21.079142,-13.440281,-7.2039332,10.789984,-6.4436636,-21.104479,12.64579,-14.033023,4.1229844,-1.5183852,-1.7443488,8.563118,-20.68813,20.986786,-33.416107,68.60533,-36.091324,-1.1983029,6.6961527,-21.984196,-20.538313,43.09909,72.83089,39.25371,4.136579,-11.138144
30,-1.2960978746414185,1.4175573587417603,77.95182800292969,-1.0675186717054954,-7.893548977534222,-82.79331289252292,0.9846616,8.25281,3.7936854,21.603,-13.5721855,-7.0860505,10.816172,-6.421323,-21.304985,12.649393,-14.084628,4.1254454,-1.4065956,-1.7527562,8.5330925,-20.52101,21.0474,-33.179886,68.24603,-35.987804,-1.2245783,6.8521767,-22.06019,-20.598686,43.118637,72.71038,39.136585,4.126734,-11.034458
31,-1.3167051076889038,1.3980594873428345,77.9412841796875,-1.098142489308525,-7.851843216845122,-82.5884214259658,0.6405467,8.292017,3.7705734,22.139961,-13.698559,-6.968463,10.840341,-6.402617,-21.513731,12.659035,-14.138013,4.1251197,-1.2900492,-1.763461,8.504544,-20.358011,21.103626,-32.945995,67.88208,-35.881203,-1.252763,7.025639,-22.13905,-20.656588,43.12026,72.58991,39.017277,4.1090713,-10.920198
32,-1.3419673442840576,1.3791810274124146,77.92789459228516,-1.1301750030186564,-7.817569301015,-82.37954346011354,0.30893672,8.337477,3.7944367,22.676212,-13.816173,-6.869435,10.881553,-6.381851,-21.724564,12.655603,-14.186701,4.1224566,-1.1502357,-1.7784504,8.479711,-20.217552,21.141989,-32.731583,67.54926,-35.77711,-1.3137735,7.1958942,-22.225454,-20.700527,43.14252,72.4934,38.93611,4.064334,-10.820929
33,-1.370092511177063,1.3685002326965332,77.91683959960938,-1.1648020198088669,-7.794745875777609,-82.16688728274826,-0.007704338,8.390123,3.8538141,23.21507,-13.924649,-6.8052187,10.950633,-6.3539567,-21.938175,12.625607,-14.226489,4.1211367,-1.0284722,-1.7830534,8.479569,-20.032656,21.199627,-32.456055,67.16861,-35.65443,-1.4196981,7.350112,-22.316847,-20.765852,43.20299,72.36811,38.876385,3.9913776,-10.734168
34,-1.3871484994888306,1.3523427248001099,77.90618133544922,-1.2005867870254794,-7.777929486497101,-81.94804401589936,-0.32004404,8.447735,3.9441736,23.763138,-14.026773,-6.7613745,11.034662,-6.3245273,-22.15676,12.584638,-14.263205,4.1199975,-0.90363705,-1.7883391,8.496121,-19.830095,21.274221,-32.16726,66.753876,-35.53033,-1.5508975,7.5034056,-22.4127,-20.849716,43.296616,72.22207,38.86074,3.8975213,-10.648557
35,-1.396851658821106,1.3297959566116333,77.89592742919922,-1.2344812465707735,-7.762554029113803,-81.72489479074031,-0.6265416,8.513717,4.093932,24.310495,-14.122921,-6.7101345,11.121058,-6.2985578,-22.37723,12.544886,-14.297789,4.11142,-0.7644669,-1.798888,8.517408,-19.638102,21.345785,-31.881617,66.343704,-35.396847,-1.6849397,7.663838,-22.507349,-20.932808,43.383556,72.07487,38.853024,3.795358,-10.57892
36,-1.4088670015335083,1.3030405044555664,77.88514709472656,-1.2634658190337609,-7.743553648204657,-81.499163245497,-0.92481416,8.591198,4.3316355,24.845018,-14.212177,-6.623891,11.192633,-6.283548,-22.596,12.528726,-14.336257,4.0880547,-0.61132896,-1.8155149,8.538802,-19.46052,21.413485,-31.594114,65.93504,-35.242126,-1.7913581,7.840491,-22.609974,-21.015097,43.482807,71.93296,38.86956,3.6993926,-10.539417
37,-1.4182759523391724,1.2778124809265137,77.87787628173828,-1.2865972453112917,-7.7212953129911694,-81.26761826126263,-1.2142771,8.678675,4.655676,25.36382,-14.291531,-6.492972,11.243168,-6.283387,-22.81374,12.552164,-14.382583,4.033333,-0.43867302,-1.8436551,8.558834,-19.30168,21.472404,-31.288815,65.52736,-35.039,-1.8482245,8.035794,-22.721165,-21.09421,43.599335,71.80339,38.924416,3.6129808,-10.535465
38,-1.424883246421814,1.2608908414840698,77.87400817871094,-1.3068825080354767,-7.69769982415981,-81.03024298836402,-1.4950843,8.776593,5.0536637,25.87194,-14.36199,-6.3322663,11.281697,-6.293948,-23.031982,12.601502,-14.43355,3.9560006,-0.24270967,-1.8815889,8.574781,-19.176403,21.514889,-30.994888,65.14487,-34.814568,-1.8781679,8.247028,-22.841772,-21.159632,43.727493,71.69922,39.01247,3.526115,-10.55886
39,-1.4303377866744995,1.239666223526001,77.86782836914062,-1.3255081613855226,-7.670820309119056,-80.79458415602127,-1.7678074,8.891867,5.537616,26.374596,-14.431798,-6.151466,11.319016,-6.306934,-23.248327,12.643587,-14.479007,3.8863075,-0.04272771,-1.9165365,8.590635,-19.050581,21.552181,-30.697826,64.764404,-34.58352,-1.912132,8.470309,-22.977703,-21.22173,43.87091,71.60419,39.11142,3.4385793,-10.603427
40,-1.4321988821029663,1.2267876863479614,77.863037109375,-1.3435820982993072,-7.638541052604062,-80.56797874859942,-2.0313342,9.031249,6.119689,26.873638,-14.507355,-5.960283,11.365464,-6.314322,-23.460783,12.645477,-14.508911,3.854642,0.12870552,-1.9312527,8.618266,-18.87525,21.611656,-30.373789,64.33773,-34.370914,-1.9790906,8.699725,-23.13791,-21.310371,44.060074,71.478836,39.21645,3.3531985,-10.662846
41,-1.4292917251586914,1.2135474681854248,77.85490417480469,-1.3590184722648673,-7.599226276826984,-80.35538703234016,-2.2845027,9.196,6.8156657,27.371063,-14.591194,-5.753819,11.422966,-6.316848,-23.666037,12.594292,-14.518608,3.879749,0.34178203,-1.9490098,8.633057,-18.740644,21.648046,-30.147501,63.974083,-34.20628,-2.1064105,8.952037,-23.302359,-21.365376,44.214855,71.391106,39.306,3.251645,-10.75044
42,-1.4290095567703247,1.194764256477356,77.8485336303711,-1.3700469921716805,-7.5541277945365755,-80.15194293620984,-2.5271804,9.384094,7.6147323,27.86702,-14.68075,-5.529154,11.487128,-6.316558,-23.866259,12.505946,-14.512408,3.941895,0.5218489,-1.947875,8.658299,-18.551645,21.705587,-29.881134,63.55892,-34.045437,-2.2639844,9.215628,-23.505802,-21.441715,44.45166,71.28906,39.437134,3.1482005,-10.865021
43,-1.4261677265167236,1.1790666580200195,77.84629821777344,-1.3848536620706051,-7.506461733345574,-79.95032971423727,-2.7577064,9.594904,8.489868,28.357271,-14.77365,-5.29936,11.554518,-6.3125057,-24.066994,12.403677,-14.500361,4.0136194,0.71511674,-1.9464458,8.68344,-18.36736,21.76349,-29.640577,63.1539,-33.90706,-2.4313223,9.482243,-23.713482,-21.510332,44.659714,71.18763,39.536182,3.0486534,-10.976204
44,-1.4204087257385254,1.157947301864624,77.8417739868164,-1.4059289836210258,-7.459726997386343,-79.74312783524081,-2.974015,9.827811,9.414041,28.837381,-14.867228,-5.077238,11.621713,-6.3033915,-24.273876,12.310353,-14.492497,4.0675554,0.9579659,-1.9548457,8.691404,-18.246902,21.784443,-29.478039,62.83533,-33.80248,-2.5911736,9.744917,-23.896967,-21.536472,44.738564,71.11652,39.52529,2.9585338,-11.054291
45,-1.4178905487060547,1.1376274824142456,77.83490753173828,-1.436452081493524,-7.4153431500245555,-79.53188814988322,-3.1720207,10.091569,10.403648,29.309214,-14.958243,-4.873619,11.690337,-6.286118,-24.485876,12.2240925,-14.486308,4.0949535,1.1178102,-1.929392,8.719344,-18.026945,21.832682,-29.169329,62.43316,-33.67107,-2.7138581,9.980867,-24.140463,-21.58554,44.872185,71.02202,39.46052,2.9080293,-11.085835
46,-1.406815528869629,1.1169921159744263,77.82992553710938,-1.4727753726733432,-7.371484539442966,-79.31955927965573,-3.3505268,10.38308,11.465781,29.7725,-15.0501585,-4.6785703,11.761468,-6.2623916,-24.70105,12.136007,-14.479114,4.110856,1.2847717,-1.9024544,8.749889,-17.804806,21.89059,-28.875546,62.033142,-33.56501,-2.8218532,10.207964,-24.377808,-21.633036,44.939297,70.910995,39.311222,2.8794324,-11.08811
47,-1.393491506576538,1.0933114290237427,77.82110595703125,-1.5146106661790464,-7.325558279744639,-79.10032064143698,-3.5183969,10.687314,12.557796,30.230415,-15.150568,-4.473761,11.833945,-6.2350254,-24.922997,12.0479765,-14.472806,4.123734,1.4408638,-1.8769438,8.791955,-17.536829,21.978369,-28.544498,61.571987,-33.464153,-2.929987,10.427242,-24.61775,-21.692598,44.988632,70.76708,39.13605,2.8496637,-11.080312
48,-1.3785253763198853,1.0664411783218384,77.81253051757812,-1.5594183453741046,-7.275397113898727,-78.86873614619581,-3.6822464,10.988102,13.6381,30.678158,-15.267892,-4.2415547,11.905121,-6.207734,-25.155258,11.965817,-14.471522,4.142067,1.6219839,-1.860914,8.826605,-17.279402,22.049568,-28.226679,61.118538,-33.373795,-3.0695477,10.649205,-24.843983,-21.736933,45.00007,70.62761,38.96346,2.787267,-11.082137
49,-1.3703535795211792,1.0447330474853516,77.80147552490234,-1.6093242299378512,-7.217654998032902,-78.61945481885209,-3.8523912,11.284999,14.701688,31.122465,-15.404188,-3.972033,11.975745,-6.177392,-25.40297,11.882947,-14.472357,4.1656914,1.7869508,-1.8479564,8.866579,-16.966158,22.140476,-27.8397,60.586617,-33.26605,-3.237056,10.85423,-25.081423,-21.788658,45.03807,70.46929,38.838837,2.682767,-11.095131
50,-1.3583260774612427,1.017982006072998,77.78983306884766,-1.664294709732297,-7.154271619262221,-78.35677687134842,-4.0220175,11.584495,15.769311,31.562521,-15.555719,-3.6769407,12.044545,-6.1447544,-25.662287,11.803231,-14.476481,4.1910114,1.9629884,-1.8383409,8.900645,-16.650097,22.21823,-27.439594,60.04928,-33.156445,-3.42865,11.049964,-25.320179,-21.831482,45.061146,70.31756,38.72549,2.5485287,-11.110259
51,-1.3311917781829834,0.9855778217315674,77.77629852294922,-1.7187764136084676,-7.091252326639778,-78.08990243002621,-4.171918,11.882237,16.836857,31.979698,-15.719058,-3.371927,12.113466,-6.113903,-25.9253,11.732991,-14.487129,4.22086,2.1613665,-1.8318266,8.927825,-16.348938,22.271658,-27.06501,59.536747,-33.070217,-3.6427813,11.268034,-25.54872,-21.860535,45.049442,70.17391,38.592518,2.4038796,-11.131895
52,-1.2983378171920776,0.9618684649467468,77.7578353881836,-1.771045920136462,-7.03401008130532,-77.82726405792235,-4.2829123,12.173038,17.900564,32.355232,-15.890919,-3.0727623,12.188009,-6.087174,-26.18408,11.67006,-14.503073,4.2580304,2.3156023,-1.8235197,8.983713,-15.949837,22.37213,-26.613358,58.91654,-33.00188,-3.8582494,11.522539,-25.8064,-21.902819,45.08799,69.990074,38.456646,2.2772422,-11.1631565
53,-1.2640869617462158,0.9314509034156799,77.73987579345703,-1.8183040072828467,-6.987476773399317,-77.5700655868484,-4.3444114,12.461488,18.991453,32.69018,-16.071869,-2.7764657,12.267492,-6.068414,-26.43525,11.628567,-14.533221,4.304636,2.5019524,-1.8285692,9.045537,-15.560569,22.471848,-26.224669,58.309834,-33.011093,-4.10306,11.84733,-26.04976,-21.934528,45.09735,69.80115,38.30361,2.1625745,-11.210732
54,-1.2336039543151855,0.8917734026908875,77.72228240966797,-1.8647545419256466,-6.947523694990677,-77.3137308422125,-4.367097,12.7466755,20.101513,32.99036,-16.262348,-2.4777787,12.356483,-6.0516105,-26.684282,11.5900545,-14.567275,4.3586383,2.6942775,-1.839135,9.115711,-15.148515,22.576406,-25.841557,57.682632,-33.06349,-4.371931,12.218856,-26.287376,-21.957857,45.08473,69.59961,38.124435,2.0528316,-11.27104
55,-1.2213099002838135,0.85189288854599,77.70472717285156,-1.9097344590456022,-6.906620996823008,-77.05949609610202,-4.368758,13.014542,21.167555,33.250824,-16.461287,-2.1891618,12.43877,-6.040652,-26.933315,11.570203,-14.610691,4.417019,2.9071443,-1.8509984,9.182658,-14.748923,22.661386,-25.488045,57.080826,-33.123363,-4.639399,12.609467,-26.529808,-21.971981,45.064873,69.409195,37.933937,1.9478104,-11.33167
56,-1.1923470497131348,0.813809871673584,77.68696594238281,-1.9584303961891902,-6.856578341413015,-76.80849774915927,-4.3685884,13.251656,22.12606,33.465847,-16.666874,-1.9230502,12.4996605,-6.037895,-27.18481,11.58016,-14.66635,4.4766445,3.1023824,-1.8637799,9.257472,-14.3015175,22.768375,-25.101252,56.431385,-33.145535,-4.864397,12.980542,-26.799765,-21.983938,45.067093,69.210785,37.722733,1.8530844,-11.380057
57,-1.1534239053726196,0.7762859463691711,77.66747283935547,-2.0155007336579955,-6.79703123445955,-76.56252665581295,-4.36656,13.475053,23.00792,33.63957,-16.884014,-1.6688356,12.54979,-6.03013,-27.443008,11.591817,-14.720433,4.5377083,3.294063,-1.8747822,9.337058,-13.817409,22.894901,-24.704985,55.746704,-33.10707,-5.03153,13.331788,-27.08986,-21.990795,45.07725,69.00854,37.49367,1.7706172,-11.41291
58,-1.1140493154525757,0.7349860668182373,77.64659881591797,-2.0777184364930155,-6.731791790389068,-76.32040811300922,-4.357294,13.685133,23.83071,33.77496,-17.111948,-1.4251187,12.591113,-6.0205936,-27.705395,11.610339,-14.776728,4.6016417,3.496879,-1.882402,9.415289,-13.328057,23.013884,-24.323372,55.06729,-33.03565,-5.165296,13.681434,-27.381655,-21.990479,45.065964,68.803856,37.2295,1.6989015,-11.438044
59,-1.0708760023117065,0.6828239560127258,77.62606811523438,-2.134382732966218,-6.658808393576403,-76.07902505837059,-4.350968,13.842041,24.510414,33.855064,-17.33435,-1.2180042,12.597808,-6.036152,-27.965101,11.6958685,-14.865178,4.667079,3.707802,-1.8990922,9.491017,-12.840862,23.122574,-23.949081,54.397537,-32.976788,-5.2880545,14.024182,-27.687265,-21.986206,45.057842,68.605705,36.941437,1.6291265,-11.455691
60,-1.0352826118469238,0.6342272162437439,77.60265350341797,-2.1719258369084775,-6.5764882243130245,-75.83489719058737,-4.3605514,13.907693,24.963024,33.866776,-17.53629,-1.0715021,12.545103,-6.1036124,-28.214823,11.906887,-15.01451,4.7327285,3.9364145,-1.9361937,9.559186,-12.384596,23.206713,-23.596535,53.76571,-32.978992,-5.4257,14.356873,-28.000486,-21.98227,45.049656,68.41163,36.62305,1.5560591,-11.469183
61,-0.9889529347419739,0.5881789326667786,77.5741958618164,-2.198976645849394,-6.486574555657654,-75.58155413124426,-4.4049163,13.872432,25.103357,33.816116,-17.719412,-0.9869372,12.457109,-6.2017703,-28.457066,12.198322,-15.214131,4.8020067,4.1573496,-1.9875375,9.626826,-11.911898,23.294704,-23.220846,53.114857,-33.05358,-5.5840454,14.660281,-28.328426,-21.978468,45.068695,68.21016,36.273994,1.4673169,-11.484671
62,-0.9429216384887695,0.5411783456802368,77.5438003540039,-2.2187377029284123,-6.389791424917218,-75.32269065751204,-4.4747906,13.757717,24.996883,33.70851,-17.889927,-0.9500973,12.339328,-6.3255677,-28.694159,12.555822,-15.453145,4.8740435,4.3823338,-2.050557,9.692729,-11.435799,23.380716,-22.843388,52.460693,-33.178734,-5.7514424,14.943319,-28.66647,-21.97505,45.102863,68.004135,35.899834,1.369534,-11.499225
63,-0.8884912133216858,0.49635744094848633,77.5081787109375,-2.2105148055306487,-6.2817437691638185,-75.06991889745385,-4.53861,13.57205,24.784037,33.52534,-18.037592,-0.9698234,12.129967,-6.5316405,-28.917585,13.105567,-15.770392,4.9411697,4.5881214,-2.154421,9.773427,-10.914924,23.499264,-22.427872,51.752228,-33.334286,-5.903504,15.225083,-29.048018,-21.968063,45.168716,67.78803,35.51582,1.2897364,-11.500828
64,-0.8353586196899414,0.4480149745941162,77.46981048583984,-2.150616404092461,-6.1591648995981245,-74.8354201043732,-4.566597,13.32305,24.605732,33.24967,-18.15392,-1.0545144,11.766346,-6.878766,-29.117567,13.976716,-16.20543,4.996191,4.849707,-2.3134785,9.848523,-10.492105,23.574858,-22.104313,51.152267,-33.51938,-6.043475,15.547321,-29.434732,-21.964085,45.175694,67.58075,35.100643,1.250574,-11.477761
65,-0.7914616465568542,0.40957126021385193,77.42404174804688,-2.026620837329149,-6.011320967330108,-74.6298211934057,-4.538798,12.99428,24.471327,32.823055,-18.230318,-1.2511649,11.229886,-7.3798704,-29.281996,15.181046,-16.784021,5.0333285,5.1074553,-2.5486615,9.931729,-10.036099,23.67197,-21.747051,50.503258,-33.69924,-6.1363697,15.930741,-29.880941,-21.960451,45.198753,67.35882,34.691,1.2571534,-11.422857
66,-0.7554653286933899,0.3836682140827179,77.37518310546875,-1.8502309887780966,-5.842924190725819,-74.44437668912435,-4.4725685,12.584757,24.317122,32.26655,-18.273008,-1.5386345,10.557067,-8.007459,-29.41349,16.650995,-17.474676,5.0584574,5.3752193,-2.854916,10.021998,-9.563617,23.79614,-21.385937,49.820602,-33.89974,-6.196855,16.354946,-30.36528,-21.955692,45.22134,67.12245,34.27579,1.2955734,-11.342981
67,-0.6985138058662415,0.34410685300827026,77.3284912109375,-1.6321741438983086,-5.674378581835622,-74.26197933159231,-4.395526,12.12238,24.17295,31.679958,-18.292774,-1.8211452,9.795237,-8.743382,-29.527494,18.33033,-18.2066,5.082684,5.6612434,-3.2084355,10.135113,-9.1461315,23.910599,-21.07668,49.20811,-34.14839,-6.263474,16.762915,-30.878294,-21.951284,45.240993,66.90174,33.84819,1.3697723,-11.246532
68,-0.645020067691803,0.30455538630485535,77.2813491821289,-1.3798139650792964,-5.526208435902543,-74.06616638396737,-4.3359723,11.633045,24.069487,31.163485,-18.297413,-2.0071208,8.987365,-9.572167,-29.640274,20.173367,-18.915077,5.118198,5.940143,-3.5910413,10.297948,-8.790053,24.01539,-20.818192,48.69627,-34.467148,-6.3651886,17.089382,-31.436739,-21.945993,45.29635,66.72083,33.41612,1.4848664,-11.141611
69,-0.5969530940055847,0.2861490249633789,77.22627258300781,-1.051000658540229,-5.385189966231169,-73.86231514944947,-4.3051515,11.064893,24.049358,30.714706,-18.272148,-2.068861,8.122715,-10.535954,-29.748842,22.174168,-19.669031,5.15529,6.196777,-4.0582695,10.514184,-8.471241,24.140509,-20.586966,48.259212,-34.87397,-6.4984837,17.2978,-32.062603,-21.9316,45.394066,66.57076,32.94615,1.6721549,-11.021098
70,-0.5531063079833984,0.27561718225479126,77.16680145263672,-0.653870206031461,-5.24803458920113,-73.65563308608925,-4.2879415,10.421408,24.083866,30.288633,-18.215845,-2.058612,7.1962876,-11.618762,-29.842192,24.330025,-20.461727,5.195349,6.4507346,-4.599088,10.769333,-8.200086,24.272837,-20.39583,47.900223,-35.352936,-6.6525345,17.429573,-32.73757,-21.90481,45.504963,66.44905,32.435596,1.9179565,-10.882381
71,-0.5201533436775208,0.26715344190597534,77.10774230957031,-0.2815863069999371,-5.146120819982834,-73.42868078597276,-4.27029,9.809737,24.098452,29.918613,-18.154314,-2.005593,6.253997,-12.721369,-29.929047,26.61374,-21.1192,5.2695174,6.696358,-5.1081085,11.076296,-7.9679728,24.39974,-20.24846,47.610355,-35.880108,-6.8332434,17.528244,-33.44971,-21.870358,45.665165,66.37813,31.97288,2.1612878,-10.740381
72,-0.47568556666374207,0.24893565475940704,77.0700912475586,-0.02864295790604712,-5.11111934540821,-73.16545311920616,-4.239236,9.33863,24.019705,29.646318,-18.11788,-1.9382236,5.3374257,-13.746467,-30.022371,29.008366,-21.474947,5.4105105,6.9313807,-5.4758368,11.445438,-7.7776847,24.499304,-20.155663,47.39341,-36.43003,-7.0488925,17.63716,-34.15759,-21.839165,45.863163,66.35828,31.601307,2.3439026,-10.611982
73,-0.4324600100517273,0.2282024770975113,77.05264282226562,0.07478279204315583,-5.172238084264652,-72.84454851700826,-4.1897917,9.042501,23.809053,29.521137,-18.122934,-1.8433386,4.4751163,-14.66299,-30.14792,31.554575,-21.512705,5.6172657,7.104924,-5.6831203,11.91574,-7.5539703,24.625256,-20.077814,47.173393,-37.02624,-7.2924423,17.749897,-34.89091,-21.788925,46.143463,66.39483,31.353716,2.436224,-10.507688
74,-0.3868960440158844,0.2278985232114792,77.03714752197266,0.07759681638165179,-5.3043929012734505,-72.48075141444623,-4.1297636,8.863669,23.512777,29.513607,-18.153229,-1.7133254,3.6358712,-15.515889,-30.29508,34.2484,-21.316265,5.8857794,7.256168,-5.7746754,12.460653,-7.3700786,24.738552,-20.061316,47.03052,-37.67086,-7.5703483,17.85223,-35.628994,-21.732677,46.455444,66.47739,31.174665,2.4758275,-10.417582
75,-0.34551313519477844,0.23284906148910522,77.03116607666016,0.009023985999250646,-5.45741929664507,-72.11239721206313,-4.065081,8.772099,23.18474,29.54348,-18.188723,-1.5845914,2.7586348,-16.32942,-30.41927,37.03218,-20.873728,6.2440977,7.407526,-5.7828145,13.021603,-7.2098355,24.837002,-20.070786,46.927967,-38.315105,-7.8738904,17.954914,-36.365433,-21.671263,46.786335,66.60344,31.045132,2.500814,-10.329227
76,-0.29606544971466064,0.23051439225673676,77.04308319091797,-0.10314710923237945,-5.58123697451049,-71.77786779593764,-4.0024557,8.738036,22.878487,29.53248,-18.210215,-1.4934402,1.7793857,-17.129925,-30.470224,39.855724,-20.176838,6.718658,7.6031785,-5.7324944,13.540095,-7.096995,24.897612,-20.101847,46.867275,-38.90996,-8.199185,18.072023,-37.06243,-21.624495,47.081486,66.74637,30.923359,2.5511143,-10.229668
77,-0.2533891797065735,0.223067969083786,77.07367706298828,-0.26828767517783303,-5.655070684650184,-71.48257704372467,-3.952956,8.769929,22.598637,29.457348,-18.210558,-1.4549795,0.6466355,-17.892859,-30.387066,42.75473,-19.152222,7.307726,7.8175764,-5.622041,13.99716,-6.9896407,24.945152,-20.126097,46.820026,-39.459206,-8.559106,18.1999,-37.73169,-21.56778,47.329994,66.90685,30.784399,2.6514053,-10.113838
78,-0.20898489654064178,0.2166624367237091,77.11027526855469,-0.49662218792130103,-5.7070735055228745,-71.20824327861712,-3.911025,8.881024,22.31957,29.360977,-18.200964,-1.4483728,-0.6074842,-18.599083,-30.19911,45.745987,-17.835564,8.016852,8.052984,-5.4387417,14.423529,-6.915599,24.975077,-20.175714,46.816204,-39.98373,-8.9534025,18.335052,-38.392326,-21.510311,47.575104,67.10031,30.686045,2.7753117,-9.988191
79,-0.15476825833320618,0.20507556200027466,77.15962219238281,-0.7622797807197604,-5.760582317982503,-70.95776568027993,-3.8557231,9.046769,22.050154,29.260939,-18.18809,-1.4553881,-1.9171259,-19.289349,-29.98667,48.752296,-16.382133,8.871529,8.295165,-5.2093396,14.835956,-6.8287635,24.994764,-20.199656,46.783066,-40.464127,-9.339364,18.47934,-39.05917,-21.419373,47.844997,67.363144,30.62028,2.8814108,-9.862588
80,-0.09908038377761841,0.19363340735435486,77.2179183959961,-1.0403287095971288,-5.84006794599457,-70.73313438500003,-3.7655761,9.24182,21.798851,29.17421,-18.178013,-1.4576482,-3.2150657,-20.017473,-29.830074,51.7097,-14.950471,9.881747,8.568952,-4.9564633,15.259025,-6.741157,24.994616,-20.192024,46.69101,-40.8791,-9.678323,18.638092,-39.696255,-21.32149,48.1099,67.67173,30.559174,2.9342153,-9.7439995
81,-0.043833740055561066,0.17337141931056976,77.27972412109375,-1.3194293319822912,-5.955523240768338,-70.53504514117118,-3.6292913,9.455835,21.570919,29.102055,-18.169552,-1.4461303,-4.5123835,-20.792768,-29.688877,54.616882,-13.304612,11.230408,8.874619,-4.687939,15.707009,-6.6493144,24.973291,-20.12449,46.5107,-41.197033,-9.943784,18.821396,-40.316387,-21.217781,48.41153,68.05555,30.544184,2.9043741,-9.636133
82,0.0007300580036826432,0.1525716632604599,77.34722900390625,-1.618635154883889,-6.0925526768169265,-70.36249924489533,-3.4584527,9.705263,21.361341,29.032366,-18.158049,-1.4321595,-5.850673,-21.57332,-29.511295,57.520287,-11.464582,12.854651,9.259175,-4.397582,16.17507,-6.605605,24.953571,-20.078579,46.28608,-41.452118,-10.1617985,19.029581,-40.871296,-21.175505,48.68786,68.43201,30.576914,2.8231225,-9.531013
83,0.04391320422291756,0.12610922753810883,77.41815185546875,-1.9391420376937694,-6.239739722540085,-70.21537527032127,-3.2748327,9.996254,21.165329,28.98353,-18.15619,-1.426867,-7.19253,-22.389381,-29.392492,60.445995,-9.973164,14.360087,9.585118,-4.0518746,16.62363,-6.4716554,24.888393,-19.923813,45.990078,-41.660336,-10.368098,19.23203,-41.475243,-21.074455,49.0702,68.88387,30.63594,2.7301202,-9.433044
84,0.07679055631160736,0.09339570254087448,77.48494720458984,-2.310692571222332,-6.36877415616952,-70.11993347955178,-3.1385353,10.389621,20.98823,29.02267,-18.197163,-1.4525214,-8.4808445,-23.30385,-29.565933,63.405975,-9.344755,15.000033,9.971152,-3.65268,17.01883,-6.3439026,24.817816,-19.834457,45.71316,-41.90913,-10.605025,19.423197,-42.038685,-20.97843,49.38711,69.30188,30.643293,2.6719928,-9.331457
85,0.11394019424915314,0.04997905343770981,77.55025482177734,-2.699243379431911,-6.490168504465443,-70.05418136544937,-3.021461,10.823861,20.824347,29.107212,-18.264679,-1.5033977,-9.6295595,-24.429409,-30.059732,66.41226,-9.891981,15.000033,10.383476,-3.2234251,17.374454,-6.184738,24.750624,-19.802961,45.42205,-42.228542,-10.88353,19.58372,-42.55523,-20.897137,49.637276,69.65876,30.569603,2.6752427,-9.234295
86,0.15902219712734222,0.008151791989803314,77.60965728759766,-3.0260550226432477,-6.657427069111364,-69.9474917860366,-2.818835,11.151557,20.648396,29.114756,-18.303406,-1.5454987,-10.631925,-25.801092,-30.629425,69.49024,-11.302431,15.000033,10.756744,-2.8356361,17.760967,-6.000204,24.679184,-19.80022,45.10843,-42.581226,-11.182161,19.72545,-43.043114,-20.820246,49.85715,69.994286,30.453985,2.7109537,-9.140873
87,0.20310257375240326,-0.04537731036543846,77.66444396972656,-3.372585017159257,-6.833819129760837,-69.86176996226084,-2.6106138,11.519859,20.480894,29.152298,-18.35902,-1.5981685,-11.595072,-27.271471,-31.256884,72.619865,-13.108611,14.599168,11.153371,-2.4316895,18.141253,-5.794638,24.628225,-19.80714,44.760757,-42.928658,-11.479708,19.87337,-43.503304,-20.777597,50.07242,70.27433,30.365862,2.7457912,-9.035936
88,0.2220487743616104,-0.09834921360015869,77.72264099121094,-3.76113506828673,-7.014686695956471,-69.81263916383564,-2.4098344,11.968271,20.327637,29.242098,-18.438879,-1.66023,-12.622519,-28.731585,-31.807373,75.804565,-14.860799,13.763418,11.532339,-1.9755472,18.497623,-5.554326,24.539986,-19.736761,44.409687,-43.199566,-11.763977,20.047796,-43.95305,-20.711645,50.2721,70.53991,30.253956,2.7451894,-8.909385
89,0.2466447949409485,-0.1606227159500122,77.77991485595703,-4.160531642833722,-7.215810097903446,-69.78481720110125,-2.1783307,12.443188,20.188196,29.337461,-18.525312,-1.7164912,-13.73167,-30.226608,-32.19941,79.11173,-16.576496,12.618293,11.905841,-1.5104896,18.859358,-5.279864,24.441183,-19.600086,44.03167,-43.378487,-12.030432,20.261292,-44.381866,-20.644476,50.43766,70.766426,30.151209,2.6927285,-8.736444
90,0.27310752868652344,-0.22626598179340363,77.8410873413086,-4.57093028911776,-7.433537815621556,-69.77791209242473,-1.9238181,12.945418,20.062447,29.443766,-18.619175,-1.7727524,-14.881381,-31.772009,-32.49147,82.51395,-18.465351,11.139186,12.306083,-1.0492045,19.225372,-4.978413,24.376461,-19.453693,43.60655,-43.516712,-12.283443,20.503702,-44.77934,-20.61092,50.583782,70.92439,30.094921,2.610867,-8.531122
91,0.297316312789917,-0.2990761697292328,77.90580749511719,-4.991880054662296,-7.674339331027055,-69.76447625504977,-1.6394713,13.462209,19.930988,29.551826,-18.71807,-1.8335814,-16.086,-33.25846,-32.593914,85.89958,-20.370213,9.624391,12.629585,-0.5538086,19.59083,-4.6428466,24.249336,-19.218218,43.198036,-43.598724,-12.526269,20.753204,-45.20344,-20.540243,50.787415,71.104675,30.034857,2.5179863,-8.334586
92,0.31718531250953674,-0.38107970356941223,77.97120666503906,-5.417965684249046,-7.944855077319069,-69.71705632668287,-1.3177114,13.975882,19.775885,29.647217,-18.816488,-1.9032502,-17.366978,-34.590027,-32.435196,89.167915,-22.116854,8.369367,12.947404,-0.063474655,19.962515,-4.3677216,24.143742,-19.054342,42.858612,-43.71707,-12.758195,21.013466,-45.600136,-20.480751,50.986736,71.27672,29.97831,2.4294662,-8.183079
93,0.34578248858451843,-0.46861380338668823,78.03601837158203,-5.84874628095014,-8.253505436340628,-69.6341023708435,-0.9413851,14.479961,19.600903,29.71713,-18.912855,-1.9822879,-18.73596,-35.742004,-31.991802,92.31863,-23.632887,7.440118,13.237734,0.41988984,20.34971,-4.1197863,24.049675,-18.906319,42.566326,-43.848927,-12.963571,21.287048,-45.931175,-20.429882,51.105797,71.40991,29.803047,2.3528044,-8.099013
94,0.35407957434654236,-0.5574361681938171,78.09557342529297,-6.285775968980075,-8.594291382690479,-69.52862933867819,-0.5219908,14.985931,19.413715,29.77334,-19.010622,-2.068978,-20.195137,-36.75533,-31.315811,95.40209,-25.008364,6.6886992,13.483232,0.92047906,20.739798,-3.8980827,23.907312,-18.738117,42.346573,-43.955082,-13.155012,21.574913,-46.295074,-20.350895,51.33025,71.59518,29.682457,2.2744472,-8.057395
95,0.3498820960521698,-0.6520569324493408,78.15499114990234,-6.7335417175132655,-8.949974501117154,-69.39314369323418,-0.092962615,15.503821,19.201387,29.834251,-19.10949,-2.1643252,-21.74473,-37.639328,-30.467737,98.39135,-26.306122,6.086761,13.698938,1.4321553,21.130615,-3.7151778,23.778273,-18.625257,42.178646,-44.098576,-13.351076,21.860567,-46.65768,-20.271854,51.57534,71.779945,29.59614,2.1941268,-8.029163
96,0.3679468035697937,-0.7563075423240662,78.21437072753906,-7.199406315800241,-9.302926938404822,-69.2202635027918,0.31307286,16.04357,18.950294,29.9187,-19.209953,-2.268899,-23.38159,-38.40594,-29.499743,101.25847,-27.589548,5.6128435,13.858139,1.9675624,21.517733,-3.564742,23.674685,-18.588211,42.052334,-44.315357,-13.572535,22.120943,-47.008102,-20.188656,51.77841,71.9425,29.498999,2.1126695,-7.9863896
97,0.38818979263305664,-0.8705798387527466,78.27468872070312,-7.687837304172521,-9.65510385121621,-68.99972269568357,0.69031096,16.610619,18.648867,30.03889,-19.315008,-2.3842475,-25.115324,-39.020737,-28.387459,104.01111,-28.887419,5.3013473,13.961619,2.5237226,21.912037,-3.4521365,23.633682,-18.665838,41.960197,-44.645714,-13.829017,22.345852,-47.351337,-20.132679,51.976055,72.05428,29.469873,2.0313194,-7.9183755
98,0.37417173385620117,-0.9867962598800659,78.33080291748047,-8.197665719079009,-10.012004467178775,-68.73858066738508,1.0564265,17.19947,18.307798,30.179678,-19.422625,-2.5097299,-26.938932,-39.479652,-27.139828,106.665306,-30.162636,5.1500874,14.008695,3.0912032,22.326788,-3.364109,23.628271,-18.788319,41.893917,-45.032078,-14.101676,22.540024,-47.673504,-20.107122,52.121807,72.097305,29.432684,1.9547755,-7.837919
99,0.3429737389087677,-1.1056296825408936,78.38703918457031,-8.715813115703416,-10.363772873638382,-68.4559928388125,1.410744,17.801794,17.946335,30.32469,-19.52734,-2.642417,-28.829168,-39.84933,-25.852411,109.20434,-31.379564,5.0737543,14.019165,3.684366,22.70736,-3.3048317,23.633413,-19.008308,41.881428,-45.492977,-14.395165,22.734379,-48.03867,-20.02822,52.395058,72.22736,29.507359,1.865386,-7.765435
100,0.3135354518890381,-1.2294948101043701,78.44255828857422,-9.235130551127371,-10.700743733573432,-68.17062385034056,1.7549449,18.407011,17.58382,30.45546,-19.622921,-2.7789543,-30.766945,-40.20534,-24.608757,111.61,-32.49968,4.983567,14.019904,4.25333,23.0916,-3.2334285,23.65763,-19.184645,41.834236,-45.911522,-14.665957,22.926346,-48.40149,-19.935349,52.608646,72.33927,29.508184,1.7743832,-7.698393
101,0.28342801332473755,-1.3572536706924438,78.49747467041016,-9.758418810537213,-11.023247371486194,-67.88087631542683,2.086657,19.019873,17.215681,30.572096,-19.708454,-2.9220202,-32.74094,-40.581905,-23.43047,113.89803,-33.509186,4.8659015,14.020488,4.8162284,23.475107,-3.1721816,23.691488,-19.345198,41.775776,-46.29169,-14.913607,23.121624,-48.76692,-19.86764,52.831585,72.41463,29.500507,1.674858,-7.641376
102,0.2398349791765213,-1.491370439529419,78.55294799804688,-10.285478851891236,-11.335848551291816,-67.57880146791638,2.4073281,19.640892,16.834906,30.680162,-19.785982,-3.071846,-34.76276,-40.944065,-22.271677,116.071724,-34.428642,4.7596636,13.983712,5.365802,23.853306,-3.0822325,23.766659,-19.497833,41.684578,-46.680794,-15.147291,23.31533,-49.137005,-19.738161,52.998905,72.51248,29.40736,1.5625575,-7.594125
103,0.1988697350025177,-1.6300456523895264,78.60586547851562,-10.808641946472246,-11.634555220385618,-67.2717506557472,2.7195148,20.257292,16.453796,30.77789,-19.856897,-3.2216723,-36.86131,-41.258034,-21.104908,118.095985,-35.257645,4.6522107,13.944897,5.8997025,24.227076,-3.0003705,23.848173,-19.650675,41.581406,-47.05673,-15.375651,23.508154,-49.524033,-19.626364,53.225033,72.60845,29.376293,1.4583071,-7.5490365
104,0.15397301316261292,-1.7729846239089966,78.65948486328125,-11.312075751626566,-11.917376073352816,-66.96756605376868,3.0265355,20.856232,16.08489,30.861864,-19.922258,-3.3649282,-39.066444,-41.48993,-19.90468,119.93109,-35.992382,4.532034,13.903155,6.40543,24.587639,-2.8984659,23.93561,-19.7917,41.4361,-47.42637,-15.60345,23.701492,-49.862034,-19.506779,53.338524,72.69357,29.226767,1.3779175,-7.507056
105,0.10792183130979538,-1.9216322898864746,78.7086181640625,-11.791915138930316,-12.178450107929727,-66.67350486335704,3.3252125,21.432364,15.736632,30.929567,-19.981966,-3.4991386,-41.437828,-41.62233,-18.62744,121.5939,-36.634712,4.335969,13.881256,6.8772736,24.925026,-2.8004587,24.017918,-19.945059,41.267056,-47.79614,-15.843678,23.902456,-50.22322,-19.403229,53.561092,72.808205,29.189163,1.3266604,-7.4668384
106,0.050287019461393356,-2.074387550354004,78.75750732421875,-12.25441632441309,-12.422805802663126,-66.38285665355346,3.6149251,21.994184,15.398174,30.984425,-20.035908,-3.6284516,-43.94289,-41.674538,-17.303425,123.09398,-37.173977,4.087824,13.861984,7.328446,25.245802,-2.7035112,24.091488,-20.100817,41.080696,-48.16028,-16.089748,24.106798,-50.550472,-19.31036,53.7303,72.90959,29.087029,1.2984602,-7.431295
107,-0.01517409086227417,-2.234360694885254,78.81232452392578,-12.709762492213,-12.66223184860646,-66.0807180582841,3.9016092,22.547897,15.052968,31.03222,-20.085318,-3.755955,-46.47284,-41.673058,-16.01814,124.38697,-37.590637,3.9070451,13.835559,7.7694745,25.567024,-2.6113915,24.162643,-20.252645,40.882626,-48.50274,-16.326519,24.307262,-50.89652,-19.223387,53.95833,73.03549,29.059015,1.2800602,-7.3938417
108,-0.06186647340655327,-2.4039580821990967,78.85670471191406,-13.171214669565355,-12.909285037140313,-65.75151223047628,4.1923633,23.100794,14.683973,31.078938,-20.131392,-3.8848836,-48.91966,-41.654366,-14.854219,125.42452,-37.867554,3.9128196,13.774991,8.220225,25.906212,-2.5172498,24.220175,-20.374489,40.677994,-48.799377,-16.537212,24.492907,-51.18195,-19.139555,54.0212,73.135376,28.88132,1.2657642,-7.3528366
109,-0.12199169397354126,-2.577056646347046,78.90234375,-13.642374307981,-13.169928763882751,-65.38895046727134,4.4933095,23.655994,14.28454,31.121704,-20.170229,-4.0174956,-51.27621,-41.621147,-13.819786,126.18298,-37.992043,4.2275195,13.699767,8.685608,26.271502,-2.4606917,24.257175,-20.491917,40.50093,-49.045094,-16.72334,24.661173,-51.522755,-19.092583,54.25567,73.27478,28.922113,1.2467781,-7.300315
110,-0.19284330308437347,-2.7487905025482178,78.94596099853516,-14.11875913350684,-13.436974976614604,-64.99882220631221,4.8002086,24.21108,13.861891,31.159082,-20.203085,-4.1520085,-53.588974,-41.569588,-12.8758745,126.69225,-37.97642,4.75639,13.576331,9.160767,26.6589,-2.3843846,24.27813,-20.565504,40.302143,-49.25082,-16.885382,24.81247,-51.775246,-19.051153,54.266766,73.36598,28.732159,1.2349707,-7.247077
111,-0.2549574375152588,-2.9297401905059814,78.9870376586914,-14.597046764495314,-13.70342012378575,-64.58557624276943,5.1037393,24.762037,13.420572,31.195747,-20.236776,-4.2850485,-55.83928,-41.532677,-12.02563,126.98172,-37.839794,5.2931066,13.442538,9.633952,27.049877,-2.3250532,24.296885,-20.644642,40.10543,-49.424145,-17.02976,24.964376,-52.050938,-19.00829,54.3223,73.49036,28.624983,1.2291571,-7.189833
112,-0.31960564851760864,-3.116098403930664,79.02923583984375,-15.072849143114688,-13.961581707766838,-64.15378225933271,5.3944044,25.306307,12.965568,31.237654,-20.279388,-4.4134135,-58.007645,-41.542187,-11.271867,127.08193,-37.599174,5.6327066,13.293045,10.102845,27.437422,-2.2676632,24.314991,-20.719772,39.893353,-49.562447,-17.156267,25.126165,-52.38726,-18.9636,54.51459,73.65474,28.69274,1.2354382,-7.13053
113,-0.38447996973991394,-3.3043317794799805,79.06842803955078,-15.55548085329853,-14.21357796184877,-63.69976158948846,5.6760097,25.851482,12.49307,31.281353,-20.330227,-4.538885,-60.094242,-41.6347,-10.640379,126.99038,-37.235672,5.683936,13.095201,10.585706,27.832405,-2.1801257,24.315142,-20.746712,39.636055,-49.65043,-17.247822,25.29269,-52.636845,-18.9477,54.482395,73.72607,28.551805,1.2667193,-7.0824404
114,-0.4470440149307251,-3.4934334754943848,79.09928894042969,-16.04443109880751,-14.460633274777686,-63.22191306550432,5.9511304,26.396725,12.001727,31.323467,-20.385084,-4.6624722,-62.107735,-41.792343,-10.118328,126.692665,-36.749466,5.56982,12.872867,11.076563,28.230743,-2.0847208,24.30665,-20.766396,39.352913,-49.699528,-17.3174,25.470526,-52.85678,-18.91719,54.295483,73.80369,28.286427,1.3115281,-7.0345974
115,-0.5127533078193665,-3.684316635131836,79.12399291992188,-16.52626785286424,-14.696944155034501,-62.73124572706273,6.207972,26.931824,11.49959,31.3733,-20.447912,-4.7804155,-64.03308,-41.961517,-9.659826,126.20305,-36.18577,5.4073205,12.6511755,11.55508,28.617323,-2.019522,24.295448,-20.799576,39.091892,-49.721325,-17.380531,25.650396,-53.100643,-18.895926,54.199154,73.89747,28.139475,1.3650578,-6.9781685
116,-0.5801721215248108,-3.8764543533325195,79.14964294433594,-16.98964030912185,-14.915891612901564,-62.23801727029389,6.4366426,27.445652,10.995388,31.43915,-20.52271,-4.888556,-65.85247,-42.085304,-9.220362,125.53905,-35.590515,5.314005,12.415773,12.014275,28.98537,-1.9550627,24.278791,-20.83176,38.840614,-49.727455,-17.4554,25.827627,-53.31202,-18.87858,54.080593,73.96802,27.944696,1.4279807,-6.9061837
117,-0.6456525325775146,-4.06899356842041,79.1706314086914,-17.434483216453746,-15.119140190743675,-61.73967508916922,6.6357846,27.937532,10.48578,31.5277,-20.611979,-4.9770784,-67.56564,-42.169174,-8.807163,124.682144,-35.01334,5.2683187,12.163057,12.451256,29.342716,-1.8741347,24.268934,-20.860258,38.57583,-49.71935,-17.554893,26.010578,-53.510895,-18.874487,54.010597,74.00952,27.754728,1.5083148,-6.813577
118,-0.7043750286102295,-4.262881278991699,79.18624114990234,-17.86544342780064,-15.308020096752305,-61.23459312782401,6.8106737,28.41178,9.969695,31.633139,-20.713507,-5.0507584,-69.17181,-42.237637,-8.44342,123.63385,-34.42514,5.22748,11.9210825,12.871961,29.68069,-1.8253099,24.24571,-20.912851,38.34437,-49.679634,-17.673355,26.203276,-53.687504,-18.874876,53.901257,74.04561,27.522974,1.6034944,-6.7012157
119,-0.7584827542304993,-4.465107440948486,79.19761657714844,-18.280061314935406,-15.437420871455974,-60.74629249848276,6.902588,28.875757,9.447739,31.766043,-20.828548,-5.128408,-70.695206,-42.264343,-8.122197,122.42618,-33.739494,5.2671843,11.735939,13.280434,29.793802,-1.8057147,24.210798,-21.06796,38.250614,-49.648552,-17.762495,26.37499,-53.70412,-18.884516,53.793602,74.07087,27.324139,1.7020638,-6.5730643
120,-0.8188971281051636,-4.6681108474731445,79.20230865478516,-18.66601443154695,-15.527349121772449,-60.28031223084861,6.9537168,29.315895,8.941083,31.89817,-20.946966,-5.2272186,-72.09606,-42.217735,-7.8071074,121.10169,-32.88378,5.4784727,11.588981,13.665977,29.793802,-1.8274883,24.167353,-21.270994,38.241043,-49.624176,-17.809656,26.514153,-53.64095,-18.903254,53.675034,74.09074,27.173176,1.7854197,-6.4439697
121,-0.879045307636261,-4.877604007720947,79.20005798339844,-19.01906287624508,-15.601501892223846,-59.82873759651895,7.004475,29.722752,8.459775,32.011017,-21.063217,-5.351362,-73.343254,-42.083004,-7.4760466,119.63891,-31.892145,5.896451,11.457852,14.034123,29.793802,-1.9231634,24.09958,-21.48466,38.283455,-49.59955,-17.81855,26.605164,-53.569656,-18.955204,53.554222,74.10258,27.086994,1.843697,-6.3024836
122,-0.9358285665512085,-5.092562675476074,79.18951416015625,-19.340190702495036,-15.654209199924242,-59.39103898290599,7.0381503,30.099604,7.9953694,32.11971,-21.183031,-5.491022,-74.45216,-41.876163,-7.145168,118.02983,-30.79321,6.472433,11.289259,14.349699,29.793802,-1.9495,24.072416,-21.613014,38.2455,-49.56847,-17.77643,26.6515,-53.516373,-18.983564,53.48217,74.11271,27.064793,1.8866751,-6.148853
123,-0.9758763313293457,-5.309900760650635,79.17596435546875,-19.62720418792707,-15.694441112839229,-58.97295360671958,7.0684834,30.445843,7.5543914,32.220173,-21.305101,-5.6421237,-75.420166,-41.60771,-6.822515,116.3323,-29.508932,7.1812253,11.146796,14.641208,29.793802,-2.0301468,24.039186,-21.766844,38.24286,-49.53424,-17.728645,26.703909,-53.445717,-19.033535,53.36656,74.08885,27.040997,1.9260765,-6.023021
124,-1.025313377380371,-5.530449867248535,79.15400695800781,-19.8818693086286,-15.721139556200953,-58.58526095843609,7.0917053,30.769163,7.1397276,32.323692,-21.436192,-5.8037825,-76.259384,-41.282898,-6.520318,114.61184,-27.960897,7.9978404,11.028227,14.9073715,29.793802,-2.1336472,24.004097,-21.924,38.25156,-49.484272,-17.6847,26.793173,-53.338596,-19.126547,53.19427,73.96857,26.982454,1.9786404,-5.9623866
125,-1.078648328781128,-5.754091739654541,79.12964630126953,-20.09487661948773,-15.725319348332546,-58.235988603543525,7.0973334,31.059313,6.753945,32.425476,-21.57035,-5.973502,-76.98721,-40.87268,-6.2208476,112.82662,-25.960125,8.994236,10.879926,15.114694,29.793802,-2.1699226,23.998228,-22.008217,38.19574,-49.41443,-17.626738,26.93579,-53.25014,-19.165564,53.022324,73.81132,26.918852,2.0519266,-5.9909005
126,-1.1323293447494507,-5.977431774139404,79.09941864013672,-20.267776397580796,-15.716029435326934,-57.91774241994969,7.0992813,31.314978,6.398604,32.520363,-21.70583,-6.152269,-77.590485,-40.36188,-5.9117193,110.9613,-23.60825,10.173231,10.795359,15.283102,29.793802,-2.2765775,24.016243,-22.145737,38.16619,-49.343193,-17.568924,27.124464,-53.111908,-19.26524,52.73275,73.54726,26.816357,2.1407192,-6.0823426
127,-1.1889406442642212,-6.210942268371582,79.05999755859375,-20.41335403798731,-15.696241982982343,-57.62034973311894,7.0918193,31.551245,6.0638847,32.619747,-21.8498,-6.3386993,-78.06623,-39.795002,-5.6162777,109.10782,-21.241732,11.3965845,10.695577,15.4182005,29.793802,-2.3284607,24.056862,-22.232403,38.08956,-49.264084,-17.505114,27.307747,-52.96359,-19.355885,52.443066,73.24259,26.68997,2.2210734,-6.204091
128,-1.2460882663726807,-6.445672512054443,79.01544952392578,-20.546690307337116,-15.674557953022596,-57.32774279154825,7.081569,31.780203,5.7405953,32.732616,-22.009876,-6.531151,-78.40483,-39.24019,-5.3619814,107.35693,-19.19371,12.513372,10.593542,15.536639,29.793802,-2.3403552,24.113806,-22.293009,37.991524,-49.18497,-17.45219,27.452785,-52.787766,-19.441967,52.12768,72.912636,26.49535,2.2726266,-6.3238654
129,-1.2980842590332031,-6.682306289672852,78.96520233154297,-20.66880031110582,-15.654897569952873,-57.04091070501834,7.0745525,32.006344,5.4348645,32.86069,-22.19114,-6.726857,-78.58907,-38.733154,-5.172535,105.70648,-17.514881,13.490754,10.491281,15.640458,29.793802,-2.304357,24.183025,-22.316553,37.872837,-49.101974,-17.4131,27.536339,-52.57621,-19.527893,51.770756,72.55062,26.185078,2.2840626,-6.444065
130,-1.3524701595306396,-6.923160076141357,78.91211700439453,-20.77378220793332,-15.633750992230292,-56.76475416508958,7.066931,32.221863,5.1475887,33.001442,-22.389896,-6.9273257,-78.63445,-38.246346,-5.0279803,104.11661,-16.03439,14.398446,10.387281,15.724845,29.793802,-2.2340188,24.260052,-22.306738,37.739735,-49.011154,-17.38318,27.582392,-52.339676,-19.609108,51.378937,72.15786,25.789043,2.268853,-6.5785108
131,-1.4093577861785889,-7.171229362487793,78.85478973388672,-20.862364491123778,-15.607601248520007,-56.49117571409275,7.0483994,32.423225,4.8622947,33.153206,-22.596521,-7.1392474,-78.58305,-37.840935,-4.9757643,102.625656,-14.741136,15.000033,10.258113,15.799727,29.793802,-2.1512985,24.318865,-22.279718,37.621758,-48.914673,-17.364988,27.624346,-52.10807,-19.65966,51.010223,71.78131,25.397293,2.242767,-6.713147
132,-1.4692614078521729,-7.418612957000732,78.78968048095703,-20.93783500204335,-15.567875704604072,-56.262354880799045,7.015231,32.635754,4.6098638,33.31051,-22.798964,-7.3791714,-78.48095,-37.57109,-5.1353917,101.25518,-13.608227,15.000033,10.179817,15.86218,29.793802,-2.0693405,24.42555,-22.276386,37.467243,-48.837334,-17.353178,27.703344,-51.869705,-19.735743,50.63472,71.361084,25.074371,2.22511,-6.831204
133,-1.5359852313995361,-7.665367603302002,78.72166442871094,-21.00470851661338,-15.519915299452107,-56.06439017052342,6.9783726,32.852665,4.3828197,33.470932,-23.003628,-7.644429,-78.324554,-37.230553,-5.2836323,99.99942,-12.685589,15.000033,10.119277,15.924083,29.793802,-1.9826375,24.549072,-22.284266,37.293564,-48.778057,-17.346766,27.828203,-51.63938,-19.81084,50.288635,70.93035,24.85188,2.215346,-6.9274683
134,-1.5995768308639526,-7.917479515075684,78.64826965332031,-21.05587312101097,-15.472028441529126,-55.83504669220541,6.9345155,33.036377,4.127158,33.632683,-23.21159,-7.919538,-78.09419,-36.873928,-5.3694453,98.86484,-11.978468,15.000033,10.032398,15.964908,29.793802,-1.8932257,24.691877,-22.321264,37.124146,-48.73669,-17.343868,27.979391,-51.379425,-19.887873,49.94118,70.48157,24.682262,2.205812,-7.008244
135,-1.6600393056869507,-8.174004554748535,78.56809997558594,-21.085460565463855,-15.413535679208092,-55.58738497550764,6.8610916,33.18925,3.8454633,33.81587,-23.428402,-8.203143,-77.834496,-36.544224,-5.4132667,97.86552,-11.390896,15.000033,9.913275,15.987151,29.793802,-1.7874098,24.841297,-22.357409,36.952377,-48.69611,-17.349756,28.14066,-51.047333,-19.962711,49.505833,69.97738,24.423378,2.2012072,-7.0849857
136,-1.712201714515686,-8.434941291809082,78.48149871826172,-21.087044362741864,-15.33253951048974,-55.33582001883415,6.743632,33.312782,3.5473166,34.02222,-23.642385,-8.494019,-77.59148,-36.28637,-5.4398746,97.013336,-10.820838,15.000033,9.801746,15.988642,29.793802,-1.6892564,25.004639,-22.400333,36.77824,-48.64036,-17.371525,28.300978,-50.87401,-20.046967,49.40972,69.561264,24.507656,2.2044847,-7.1585183
137,-1.7732362747192383,-8.698762893676758,78.38617706298828,-21.05870716371067,-15.228695259405658,-55.08228206123282,6.577809,33.406536,3.2333663,34.259544,-23.858643,-8.792107,-77.37222,-36.096123,-5.4465275,96.310814,-10.247352,15.000033,9.659732,15.970588,29.793802,-1.564627,25.169474,-22.424883,36.59775,-48.578026,-17.411024,28.45232,-50.629833,-20.129559,49.234077,69.076225,24.435219,2.2357671,-7.244841
138,-1.8368204832077026,-8.966482162475586,78.28462982177734,-21.002728160081347,-15.107220767739388,-54.82110781377846,6.3713355,33.469433,2.9009469,34.52337,-24.078865,-9.098502,-77.15685,-35.95509,-5.4266996,95.75168,-9.719333,15.000033,9.509803,15.9325,29.793802,-1.4424146,25.342554,-22.46057,36.423885,-48.512974,-17.467329,28.606041,-50.44899,-20.216944,49.22234,68.62106,24.510166,2.2842593,-7.3319063
139,-1.8920742273330688,-9.23634147644043,78.17516326904297,-20.924307740863682,-14.967111137432784,-54.553125788938615,6.1270084,33.50224,2.550616,34.808395,-24.30092,-9.41392,-76.94856,-35.884747,-5.398703,95.33827,-9.243413,15.000033,9.33886,15.878237,29.793802,-1.2994709,25.515747,-22.464394,36.23248,-48.419777,-17.530506,28.760532,-50.25212,-20.307665,49.223866,68.13719,24.609186,2.3180842,-7.412932
140,-1.9506384134292603,-9.51295280456543,78.06002807617188,-20.82543456756532,-14.808266396066774,-54.280188925261044,5.851123,33.50517,2.1852553,35.10252,-24.518612,-9.739073,-76.74995,-35.906013,-5.3811603,95.07125,-8.826392,15.000033,9.154583,15.810919,29.793802,-1.1359907,25.685146,-22.414583,36.010315,-48.27356,-17.592836,28.917624,-50.092316,-20.408533,49.32707,67.65725,24.877665,2.3018894,-7.47517
141,-1.9919008016586304,-9.789128303527832,77.9449234008789,-20.707412012526195,-14.615041057903808,-54.01205138573539,5.5280166,33.475815,1.8068866,35.39944,-24.730547,-10.090739,-76.49112,-36.111935,-5.502642,94.95296,-8.645222,15.000033,8.953667,15.730539,29.793802,-0.94313186,25.845266,-22.281132,35.738922,-48.053196,-17.651098,29.073204,-49.939922,-20.520815,49.457874,67.14434,25.268806,2.221743,-7.5169387
142,-2.042001962661743,-10.068041801452637,77.8304672241211,-20.565942194744327,-14.393846923232966,-53.744654431920196,5.161704,33.414265,1.4150517,35.705082,-24.939974,-10.463645,-76.19267,-36.46199,-5.713508,94.98233,-8.638582,15.000033,8.73688,15.637311,29.793802,-0.7304465,25.996,-22.087961,35.43667,-47.775955,-17.710335,29.22829,-49.795307,-20.645891,49.63155,66.6059,25.768055,2.0979965,-7.543049
143,-2.0876624584198,-10.351027488708496,77.71479797363281,-20.407057403655987,-14.174178835660644,-53.45630891799153,4.7815895,33.322258,1.0047001,36.037983,-25.154545,-10.824763,-75.99473,-36.778454,-5.7604294,95.155396,-8.456278,15.000033,8.500873,15.536478,29.793802,-0.5099326,26.134996,-21.878155,35.139915,-47.47244,-17.773886,29.389965,-49.633183,-20.78402,49.852108,66.05583,26.32572,1.9493155,-7.5554285
144,-2.127854824066162,-10.631118774414062,77.59144592285156,-20.23316555583679,-13.985889088441517,-53.125106020336574,4.4185896,33.200066,0.5711281,36.41365,-25.379097,-11.140776,-76.045364,-36.878075,-5.382579,95.46897,-7.744699,15.000033,8.242132,15.432235,29.793802,-0.29575327,26.259094,-21.695375,34.887394,-47.17286,-17.845705,29.565203,-49.439747,-20.936823,50.14163,65.51696,26.908606,1.7940699,-7.55572
145,-2.1567838191986084,-10.91851806640625,77.47105407714844,-20.030882072690446,-13.832754962352977,-52.716893663893494,4.074869,33.01319,0.09071251,36.82839,-25.61515,-11.396441,-76.44683,-36.60036,-4.3397207,95.94827,-6.056409,15.000033,7.936969,15.3065605,29.793802,-0.09453816,26.362387,-21.553608,34.703495,-46.878002,-17.931812,29.76532,-49.1862,-21.106949,50.504128,64.99172,27.504362,1.615862,-7.535467
146,-2.1798253059387207,-11.226227760314941,77.34607696533203,-19.83540738844498,-13.678321219539457,-52.43849655340668,3.7608724,32.898685,-0.25297886,37.267574,-25.856342,-11.650192,-77.11305,-35.96271,-3.0516772,96.52073,-3.6070693,14.929305,7.748681,15.219262,29.793802,0.11669409,26.453974,-21.360624,34.49014,-46.561108,-18.037243,29.987156,-48.9663,-21.299284,50.941902,64.45458,28.132797,1.4113023,-7.503536
147,-2.247767448425293,-11.532394409179688,77.2190933227539,-19.664800619301715,-13.530652939090135,-52.29897373613312,3.4607944,32.89617,-0.4740675,37.743595,-26.089207,-11.92045,-77.87236,-35.920773,-2.4965646,97.15784,-1.1489954,13.084808,7.6684136,15.186454,29.793802,0.33910322,26.543318,-21.128206,34.23844,-46.234165,-18.147505,30.209003,-48.78728,-21.511768,51.429882,63.897583,28.79007,1.2210898,-7.4750037
148,-2.3098020553588867,-11.825691223144531,77.07881164550781,-19.504141731572375,-13.418096776651858,-52.1534463464133,3.1690068,32.91033,-0.70309657,38.28634,-26.331577,-12.1709175,-78.58208,-35.990242,-2.0119417,97.854485,0.44534644,11.64403,7.5912333,15.1865015,29.793802,0.5516263,26.630192,-20.92,33.998383,-45.91736,-18.24515,30.407608,-48.607937,-21.738636,51.93457,63.327496,29.473843,1.0861967,-7.4611683
149,-2.375483512878418,-12.121419906616211,76.92935180664062,-19.344041559795652,-13.349128243011142,-51.999302314361586,2.8812296,32.928757,-0.94023514,38.921265,-26.591671,-12.388363,-79.24339,-36.119976,-1.5399795,98.64217,0.82866085,10.825912,7.5180154,15.21833,29.793802,0.7413626,26.715136,-20.750418,33.78204,-45.61021,-18.319382,30.580732,-48.415768,-21.975895,52.43591,62.74946,30.177755,1.0267195,-7.43862
150,-2.438977003097534,-12.432761192321777,76.76456451416016,-19.183347253274754,-13.314674926278023,-51.847035539316934,2.6007771,32.954063,-1.1729394,39.629208,-26.863804,-12.577847,-79.92166,-36.24634,-1.0251827,99.53012,0.46300963,10.388555,7.4572506,15.275907,29.793802,0.9141326,26.798517,-20.607353,33.58395,-45.30841,-18.38001,30.739128,-48.214455,-22.223354,52.953754,62.165928,30.908175,1.0179563,-7.40987
151,-2.5143771171569824,-12.754142761230469,76.59414672851562,-19.046701277770136,-13.302369533239919,-51.703073647869836,2.3352983,33.01593,-1.404032,40.36875,-27.132755,-12.767491,-80.55484,-36.358242,-0.5343315,100.461555,-0.26067448,10.17268,7.408387,15.367804,29.793802,1.0905274,26.880018,-20.468292,33.38094,-45.015347,-18.44628,30.881065,-48.02384,-22.480886,53.503323,61.56379,31.656334,1.0318267,-7.43042
152,-2.5923702716827393,-13.081974029541016,76.42694091796875,-18.954037451610997,-13.30114362983536,-51.57293170208524,2.0935392,33.14368,-1.6366167,41.096336,-27.38268,-12.985258,-81.082085,-36.455757,-0.138567,101.37922,-0.94858,10.010428,7.369181,15.503168,29.793802,1.2916875,26.958828,-20.310562,33.15017,-44.735096,-18.536982,31.005188,-47.85833,-22.747755,54.09279,60.927204,32.405033,1.03852,-7.554964
153,-2.6701982021331787,-13.415397644042969,76.25733947753906,-18.926258826003338,-13.316934856517332,-51.45370517987177,1.8855997,33.363815,-1.8739265,41.80582,-27.623737,-13.238327,-81.45746,-36.505943,0.14606519,102.27588,-1.58715,9.968264,7.3384113,15.704445,29.793802,1.5222611,27.03808,-20.132597,32.87553,-44.467785,-18.664513,31.097282,-47.7262,-23.02628,54.765575,60.254402,33.206207,1.0228249,-7.825366
154,-2.750861644744873,-13.752367973327637,76.09056854248047,-18.944796530014294,-13.352730829943967,-51.3440037395603,1.7048745,33.654556,-2.1135144,42.517338,-27.859009,-13.511899,-81.72112,-36.526093,0.35323665,103.18096,-2.356787,10.0971155,7.3161244,15.960441,29.793802,1.7727557,27.118164,-19.944,32.570206,-44.21155,-18.816093,31.162859,-47.609142,-23.315502,55.494514,59.546284,34.03946,0.9988671,-8.203705
155,-2.8318326473236084,-14.091667175292969,75.9250259399414,-18.979395943236387,-13.391740884355066,-51.25164565629456,1.5350792,33.97213,-2.3490632,43.22769,-28.063385,-13.800497,-81.943085,-36.589035,0.4911141,104.08878,-3.1522,10.206493,7.2999096,16.228102,29.793802,2.0433187,27.19325,-19.736904,32.257202,-43.967056,-18.973974,31.230171,-47.515385,-23.611418,56.230217,58.813553,34.82586,0.98115206,-8.623058
156,-2.9090144634246826,-14.436056137084961,75.77519989013672,-18.99815684891143,-13.418214099818417,-51.18486145903403,1.3581944,34.273445,-2.5761735,43.936115,-28.21281,-14.098739,-82.19338,-36.761833,0.5723778,104.99397,-3.8695204,10.10945,7.286354,16.46519,29.793802,2.3335009,27.25374,-19.502226,31.961842,-43.733746,-19.120817,31.327282,-47.460255,-23.907333,56.93089,58.07192,35.492653,0.9870419,-9.016763
157,-2.980719804763794,-14.787454605102539,75.6348876953125,-19.001083294845415,-13.425970211389776,-51.14987894352245,1.175394,34.55576,-2.7971015,44.627888,-28.30181,-14.406586,-82.47599,-37.091663,0.57604915,105.89053,-4.480177,9.734909,7.2782006,16.668648,29.793802,2.655528,27.286272,-19.209604,31.678354,-43.489586,-19.239775,31.461779,-47.448563,-24.196524,57.588955,57.329533,35.992115,1.025064,-9.394273
158,-3.0605504512786865,-15.135147094726562,75.49606323242188,-19.002020431013612,-13.42515158270145,-51.14059477614471,0.9947759,34.839638,-3.014777,45.30758,-28.342361,-14.726304,-82.75627,-37.532528,0.5090752,106.78272,-5.044595,9.190966,7.271045,16.861584,29.793802,3.0002022,27.287975,-18.871624,31.407753,-43.238796,-19.345512,31.618477,-47.480766,-24.475096,58.234585,56.590538,36.373337,1.0856678,-9.78193
159,-3.140162706375122,-15.481212615966797,75.36346435546875,-18.932402280773573,-13.413517354075358,-51.13335813432984,0.79483783,35.02681,-3.227743,46.006035,-28.333605,-15.000033,-83.12761,-38.017467,0.5376317,107.6856,-5.5775666,8.575696,7.2364674,16.97777,29.793802,3.3341973,27.269669,-18.543661,31.187761,-43.023098,-19.467556,31.790304,-47.55405,-24.73863,58.86642,55.856556,36.69556,1.1610683,-10.139284
160,-3.2149248123168945,-15.830430030822754,75.23515319824219,-18.823420248375783,-13.405753619488245,-51.12642563140113,0.57260597,35.13513,-3.4326806,46.76235,-28.284298,-15.000033,-83.55329,-38.464752,0.64459807,108.59841,-6.107955,7.9627175,7.1781774,17.059284,29.793802,3.6317365,27.250723,-18.282965,31.039858,-42.88567,-19.634499,31.971922,-47.653397,-24.983595,59.458755,55.121086,36.997505,1.2430682,-10.42612
161,-3.3017542362213135,-16.185216903686523,75.10191345214844,-18.68532794238586,-13.400894083806005,-51.12212837559274,0.30561522,35.217968,-3.6296968,47.605953,-28.180025,-15.000033,-84.03242,-38.856968,0.81456006,109.52301,-6.6243377,7.357634,7.097627,17.101702,29.793802,3.8990977,27.24594,-18.100718,30.963827,-42.845,-19.85173,32.164272,-47.785423,-25.208122,59.98084,54.36592,37.2489,1.3441807,-10.602826
162,-3.377779483795166,-16.549715042114258,74.95718383789062,-18.52461874746915,-13.396201168728144,-51.12518103493298,0.006514186,35.282566,-3.8174942,48.51091,-28.023624,-15.000033,-84.554,-39.23213,1.0191983,110.456535,-7.1224146,6.7188606,7.001472,17.107317,29.793802,4.158055,27.258417,-17.966015,30.932808,-42.880966,-20.103191,32.369633,-47.9577,-25.412495,60.451828,53.59943,37.444008,1.4647938,-10.699572
163,-3.461341142654419,-16.9213809967041,74.81971740722656,-18.35332211904935,-13.401091674258083,-51.13570559183527,-0.27291572,35.347847,-3.97878,49.416843,-27.844458,-15.000033,-85.084145,-39.59345,1.2381904,111.40151,-7.643608,6.048777,6.8951054,17.103598,29.793802,4.404838,27.289835,-17.872679,30.930418,-42.979267,-20.385197,32.584667,-48.154526,-25.597672,60.922375,52.85394,37.659176,1.5776316,-10.781152
164,-3.536548376083374,-17.30239486694336,74.6731185913086,-18.18257021332127,-13.425026233559905,-51.153973703330514,-0.48089966,35.43206,-4.0979357,50.26266,-27.671228,-15.000033,-85.591545,-39.943222,1.4523039,112.36146,-8.228256,5.350742,6.7839437,17.118011,29.793802,4.6337314,27.340431,-17.814312,30.94221,-43.12511,-20.694857,32.805233,-48.366997,-25.766582,61.453968,52.164433,37.980976,1.6548467,-10.912169
165,-3.620763063430786,-17.688995361328125,74.5282974243164,-18.029290649718497,-13.47442987389495,-51.1759943198485,-0.6125765,35.568024,-4.16689,51.049152,-27.508665,-15.000033,-86.05423,-40.246708,1.6458484,113.3382,-8.8989725,4.6363406,6.668619,17.164148,29.793802,4.831189,27.413418,-17.782713,30.960703,-43.306755,-21.048206,33.034653,-48.588707,-25.919512,62.057175,51.542603,38.46248,1.6769493,-11.11609
166,-3.70487117767334,-18.082691192626953,74.38733673095703,-17.88124597791962,-13.542941735135647,-51.2037993307066,-0.69193333,35.73746,-4.196736,51.80174,-27.340855,-15.000033,-86.492676,-40.51038,1.8297869,114.330536,-9.629019,3.9027994,6.546907,17.224705,29.793802,5.005773,27.509268,-17.782743,30.99259,-43.53452,-21.441425,33.272438,-48.822823,-26.055212,62.698765,50.96755,39.04201,1.66136,-11.356105
167,-3.7862069606781006,-18.480754852294922,74.25381469726562,-17.71176250134962,-13.6205310759215,-51.2470069987259,-0.70947695,35.883633,-4.199876,52.495586,-27.165321,-15.000033,-86.93909,-40.79912,2.0259755,115.335236,-10.385261,3.1317031,6.420913,17.282293,29.793802,5.1804056,27.62135,-17.829323,31.049294,-43.826717,-21.841522,33.509907,-49.089462,-26.177618,63.39926,50.425766,39.66923,1.634937,-11.606879
168,-3.846911668777466,-18.880084991455078,74.11752319335938,-17.493461110215705,-13.698319842332205,-51.3154360677579,-0.6555802,35.949734,-4.187903,53.10602,-26.979626,-15.000033,-87.426384,-41.179646,2.259848,116.34832,-11.137216,2.3033798,6.2927265,17.321846,29.793802,5.3747215,27.737335,-17.937262,31.147137,-44.20023,-22.216053,33.73846,-49.401894,-26.293314,64.17294,49.89879,40.285873,1.6259367,-11.843996
169,-3.9045844078063965,-19.279624938964844,73.9814682006836,-17.216943439568283,-13.787015720213999,-51.38393744857126,-0.55731493,35.90913,-4.2154574,53.682106,-26.77852,-15.000033,-87.9741,-41.785786,2.5481012,117.408775,-11.927989,1.3409175,6.1513705,17.338865,29.793802,5.5556045,27.85488,-18.14115,31.33933,-44.66819,-22.538792,33.964233,-49.743534,-26.410074,65.05031,49.36552,40.932354,1.6078756,-12.099231
170,-3.9552156925201416,-19.681474685668945,73.85108184814453,-16.89848914114797,-13.88748567211398,-51.45640775913091,-0.4074517,35.798786,-4.2567706,54.214954,-26.560585,-15.000033,-88.565636,-42.540794,2.8843122,118.50298,-12.765078,0.27983683,6.001061,17.344616,29.793802,5.7198153,27.973131,-18.425236,31.608591,-45.217426,-22.834612,34.188362,-50.11694,-26.533686,66.026375,48.83168,41.635326,1.5768294,-12.372706
171,-4.007697105407715,-20.081836700439453,73.73397064208984,-16.545758667767387,-13.977885042615048,-51.586360665155446,-0.1534595,35.651955,-4.216664,54.60741,-26.346956,-15.000033,-89.17705,-43.202,3.25082,119.553276,-13.559603,-0.73671377,5.8680544,17.352726,29.793802,5.9311852,28.07732,-18.728748,31.86519,-45.82252,-23.147879,34.39377,-50.537525,-26.662687,67.0245,48.31426,42.274986,1.5984162,-12.595943
172,-4.041499137878418,-20.48246192932129,73.63175964355469,-16.163837803633047,-14.033810431070926,-51.82732463134091,0.26079816,35.506702,-3.9911644,54.750355,-26.138563,-15.000033,-89.77602,-43.524647,3.6160257,120.481606,-14.209083,-1.5635464,5.775599,17.37806,29.793802,6.2505865,28.147139,-18.988844,32.02624,-46.45502,-23.523817,34.56366,-51.02937,-26.790058,67.97537,47.842308,42.733253,1.740201,-12.700883
173,-4.062755107879639,-20.886253356933594,73.54956817626953,-15.736385036737582,-14.069258977561695,-52.177337138925225,0.852861,35.32778,-3.599168,54.65659,-25.975742,-15.000033,-90.39442,-43.409634,4.0390396,121.282364,-14.619993,-2.1492443,5.717696,17.399164,29.793802,6.692029,28.170925,-19.211655,32.09017,-47.094234,-24.00948,34.716045,-51.619072,-26.91266,68.89989,47.43461,42.974106,2.0544496,-12.655707
174,-4.078736305236816,-21.29485321044922,73.4925308227539,-15.264415548894219,-14.088315303301835,-52.61294174506688,1.5914478,35.105026,-3.0847454,54.36627,-25.839579,-15.000033,-91.02595,-42.998627,4.4951496,121.99285,-14.857122,-2.576931,5.681193,17.42047,29.793802,7.220848,28.148508,-19.419786,32.10649,-47.75396,-24.57207,34.851048,-52.301117,-27.029701,69.83897,47.08238,43.073376,2.4955773,-12.500586
175,-4.0709028244018555,-21.713008880615234,73.47923278808594,-14.788925540041854,-14.052587833514611,-53.15591652699681,2.4578447,34.905304,-2.3884783,53.820152,-25.656462,-15.000033,-91.57823,-42.42347,4.8232346,122.601585,-15.055276,-2.9056134,5.681239,17.496632,29.793802,7.821484,28.077763,-19.578894,32.06739,-48.45957,-25.135096,34.92355,-53.03745,-27.130613,70.72936,46.778267,43.053745,2.9846134,-12.275841
176,-4.043601036071777,-22.136943817138672,73.51630401611328,-14.348337367090693,-13.92414002866739,-53.82725338625567,3.4376552,34.790974,-1.4447904,52.958378,-25.352962,-15.000033,-91.97107,-41.815426,4.876385,123.09564,-15.3517,-3.1951785,5.7256937,17.673811,29.793802,8.486652,27.957745,-19.649145,31.960848,-49.23823,-25.621485,34.88843,-53.829872,-27.203188,71.556244,46.52368,42.993847,3.4416695,-12.019532
177,-3.9970033168792725,-22.569580078125,73.62129211425781,-13.949485279290409,-13.706116593407039,-54.66731360158877,4.6249547,34.781433,-0.1181892,51.713173,-25.006508,-15.000033,-92.2049,-41.168163,4.621376,123.47928,-15.772706,-3.4398239,5.839916,17.974575,29.793802,9.255242,27.782705,-19.588745,31.727104,-50.083103,-25.984543,34.725456,-54.63822,-27.223202,72.2251,46.336452,42.843548,3.8601205,-11.713016
178,-3.933358907699585,-23.00358772277832,73.79751586914062,-13.571674551814306,-13.411949704688112,-55.650878734185625,6.0081406,34.807625,1.5308903,50.130585,-24.624279,-15.000033,-92.32909,-40.425846,4.1507745,123.75835,-16.247139,-3.6136117,5.9938993,18.349352,29.793802,10.136571,27.55166,-19.41568,31.382109,-50.987473,-26.271194,34.46034,-55.539543,-27.185184,72.85122,46.23185,42.6653,4.2752123,-11.338189
179,-3.879072427749634,-23.43597412109375,74.05168151855469,-13.222001195502672,-13.02360456307991,-56.69964871435639,7.4118733,34.814148,3.2763546,48.33124,-24.03445,-15.000033,-92.332245,-39.64775,3.507719,123.91133,-16.767538,-3.7423372,6.1611614,18.775131,29.793802,11.016814,27.265734,-19.233763,31.051756,-51.9793,-26.541422,34.112686,-56.45621,-27.076645,73.39827,46.196033,42.33858,4.6762905,-10.952272
180,-3.8254127502441406,-23.87094497680664,74.38043212890625,-12.907453723836017,-12.522654952630942,-57.73583368076747,8.649374,34.766544,4.8873096,46.44061,-23.067774,-15.000033,-92.20171,-38.896317,2.724565,123.92121,-17.32884,-3.8609993,6.293514,19.21883,29.793802,11.806149,26.932356,-19.125217,30.857676,-53.08886,-26.856941,33.702175,-57.42827,-26.906012,73.98298,46.21714,41.909805,5.049772,-10.603614
181,-3.778787612915039,-24.303077697753906,74.79907989501953,-12.664439527927644,-11.908130142262223,-58.792565257014886,9.747112,34.69909,6.3993526,44.442917,-21.742235,-15.000033,-91.8813,-38.150414,1.7203282,123.77187,-17.94234,-3.9863894,6.417924,19.727552,29.793802,12.517285,26.548674,-19.13991,30.809164,-54.37445,-27.250956,33.195652,-58.49505,-26.682127,74.69727,46.31071,41.411816,5.3846784,-10.320453
182,-3.7457752227783203,-24.727340698242188,75.30535888671875,-12.483989307112935,-11.189984126950584,-59.891906482232045,10.776216,34.603275,7.917517,42.301117,-20.141224,-15.000033,-91.402466,-37.383266,0.5130757,123.47466,-18.60641,-4.099604,6.5439115,20.299212,29.793802,13.178037,26.109373,-19.230913,30.86028,-55.807896,-27.679552,32.588108,-59.64588,-26.406103,75.48057,46.472404,40.839073,5.691294,-10.07007
183,-3.7192230224609375,-25.15620231628418,75.89374542236328,-12.307759631437875,-10.368207310244827,-60.94175856985519,11.601367,34.418385,9.300779,40.117092,-18.192846,-15.000033,-90.871376,-36.648724,-0.7328232,123.05201,-19.298687,-4.1824193,6.614284,20.846186,29.793802,13.70788,25.625496,-19.347569,31.051394,-57.28885,-28.090279,31.942348,-60.77242,-26.072355,76.129486,46.6628,40.077274,5.9890523,-9.812909
184,-3.7076830863952637,-25.592350006103516,76.5646743774414,-12.079499506116367,-9.438848332963056,-61.84935044792293,12.081238,34.10842,10.398498,37.991062,-15.817133,-15.000033,-90.38354,-36.005833,-1.864614,122.52595,-19.998137,-4.2175627,6.571338,21.281694,29.793802,14.038973,25.119968,-19.432945,31.409466,-58.718212,-28.432718,31.32788,-61.769073,-25.67624,76.45146,46.841667,39.02953,6.293111,-9.505732
185,-3.7257556915283203,-26.040733337402344,77.3087387084961,-11.83262972712127,-8.371902863765628,-62.60398866264141,12.143339,33.730453,11.065364,35.941486,-12.948819,-15.000033,-89.88136,-35.475677,-2.9525492,121.87566,-20.731197,-4.1878653,6.3963213,21.63025,29.793802,14.169401,24.595892,-19.476807,31.93326,-60.115273,-28.73903,30.825687,-62.569763,-25.208004,76.290794,46.98848,37.48589,6.5845685,-9.123936
186,-3.7760045528411865,-26.491525650024414,78.1194076538086,-11.581956128444421,-7.177893061784692,-63.24944958672045,11.843833,33.303394,11.402134,33.970535,-9.673521,-15.000033,-89.334305,-35.025578,-4.0502596,121.097595,-21.499977,-4.109578,6.122088,21.926168,29.793802,14.136377,24.058695,-19.504553,32.600445,-61.52284,-29.02081,30.381165,-63.244514,-24.666464,75.78942,47.138973,35.564613,6.853174,-8.688076
187,-3.860239028930664,-26.948240280151367,78.98405456542969,-11.24101239837928,-5.911277550083077,-63.77415333197597,11.245738,32.757603,11.626665,32.13103,-6.103571,-15.000033,-88.87063,-34.645214,-4.9896855,120.24027,-22.248693,-4.0161085,5.778534,22.099735,29.793802,13.939255,23.54516,-19.509735,33.386406,-62.87242,-29.195833,29.87074,-63.869396,-24.063517,75.16735,47.334366,33.62933,7.129196,-8.227111
188,-3.9649412631988525,-27.411178588867188,79.89827728271484,-10.718313754506863,-4.627363875810346,-64.16441118361568,10.4503145,32.034664,11.982591,30.407076,-2.3023224,-15.000033,-88.61237,-34.32865,-5.6073794,119.35856,-22.924633,-3.938791,5.412731,22.080416,29.793802,13.583742,23.111881,-19.489948,34.24428,-64.0937,-29.176067,29.179045,-64.49606,-23.414465,74.59439,47.610832,32.002007,7.452009,-7.776309
189,-4.0938591957092285,-27.86324691772461,80.84551239013672,-9.934295581331096,-3.2729276921043304,-64.38879425134988,9.416876,31.108557,12.616799,28.674536,2.1198552,-15.000033,-88.676865,-34.107002,-5.7964163,118.452675,-23.51728,-3.8848927,5.021556,21.780693,29.793802,13.059072,22.804567,-19.330975,35.135887,-65.127464,-28.811003,28.209492,-65.1771,-22.734663,74.048996,47.96849,30.74662,7.830252,-7.308896
190,-4.248733997344971,-28.316652297973633,81.82071685791016,-8.951405101527389,-1.835116461763591,-64.44897389341101,8.132562,30.068407,13.430511,26.936337,7.114547,-15.000033,-88.96304,-33.990883,-5.679582,117.499626,-24.05817,-3.839678,4.5919,21.256367,29.793802,12.4113,22.63654,-19.055515,36.018917,-66.01377,-28.178242,27.071024,-65.87871,-22.034563,73.440636,48.368896,29.693335,8.245381,-6.824093
191,-4.4258928298950195,-28.758174896240234,82.80262756347656,-7.893371723523197,-0.431333234016921,-64.38501886594403,6.7642627,29.01888,14.293754,25.319872,11.9843025,-15.000033,-89.26564,-33.950714,-5.441875,116.520096,-24.562477,-3.8063555,4.146041,20.648338,29.793802,11.73648,22.607244,-18.86377,36.849823,-66.842445,-27.534708,25.947552,-66.54309,-21.33216,72.87504,48.7818,28.85366,8.702037,-6.393971
192,-4.6370391845703125,-29.1785888671875,83.77864074707031,-6.886502359671928,0.8160752136213715,-64.24757509084142,5.4753075,28.023207,15.022502,23.959898,16.013235,-15.000033,-89.37818,-33.94947,-5.2632203,115.532455,-25.040527,-3.7881384,3.7056339,20.094978,29.793802,11.115301,22.697731,-18.962677,37.61615,-67.72287,-27.141327,25.006012,-67.10767,-20.654577,72.47587,49.167267,28.256096,9.207052,-6.0898066
193,-4.86663293838501,-29.583587646484375,84.74596405029297,-5.905995999423489,1.8982674110344946,-64.00577771804944,4.336919,27.046965,15.735982,22.708645,19.110044,-15.000033,-89.33064,-34.008595,-5.0824027,114.548676,-25.476936,-3.767603,3.232578,19.595333,29.793802,10.450348,22.928377,-19.628046,38.474358,-68.86516,-27.147753,24.248344,-67.58017,-20.025736,72.35229,49.461422,28.014725,9.842006,-5.9378643
194,-5.109992027282715,-29.977554321289062,85.71086120605469,-4.913640361763532,2.901083830676883,-63.64945249696344,3.2033107,26.07798,16.46157,21.563759,21.630487,-15.000033,-89.22985,-34.14248,-4.862285,113.54786,-25.863571,-3.7573867,2.8146574,19.11518,29.62538,9.665719,23.290766,-20.790098,39.516376,-70.18074,-27.375895,23.58216,-67.85082,-19.46667,72.374214,49.69162,28.073439,10.580168,-5.8991117
195,-5.36545991897583,-30.363182067871094,86.65298461914062,-3.995159197306961,3.726375018180943,-63.27719218179012,2.1598744,25.12679,16.866522,20.689861,23.579676,-15.000033,-88.8811,-34.27504,-4.764638,112.53141,-26.251236,-3.7730079,2.4332113,18.675945,29.571898,9.022016,23.701988,-21.841648,40.273613,-71.303734,-27.651093,23.028156,-68.05381,-19.004618,72.421295,49.863785,28.23967,11.278738,-5.9608016
196,-5.626922607421875,-30.756319046020508,87.5909652709961,-3.2318980326360034,4.318390665273397,-62.997934015448166,1.1770486,24.218231,16.585716,20.3973,24.874304,-15.000033,-88.14514,-34.322933,-4.9375625,111.49511,-26.676172,-3.8352487,2.1405578,18.31775,29.724846,8.724373,24.051245,-22.256048,40.44947,-71.83477,-27.793886,22.620157,-68.18587,-18.65441,72.35714,50.02553,28.306376,11.7902975,-6.1000066
197,-5.90590763092041,-31.153942108154297,88.5153579711914,-2.6601140236268384,4.665664600106098,-62.8706938848065,0.11632189,23.230867,14.980516,20.960972,25.294645,-15.000033,-86.974495,-34.222366,-5.4438767,110.42384,-27.1419,-3.9620845,2.1253924,18.098717,29.793802,8.7548275,24.226597,-21.978275,40.21258,-71.570145,-27.719183,22.37602,-67.97331,-18.43548,72.1361,50.26337,28.196718,12.075222,-6.324112
198,-6.20361328125,-31.55150032043457,89.42203521728516,-2.2186361661496097,4.802249551330777,-62.84107280749826,-0.9979654,22.115635,12.402317,22.253633,24.89825,-15.000033,-85.47336,-34.00253,-6.1586533,109.32294,-27.626484,-4.1329594,2.325166,18.00372,29.793802,8.892615,24.206842,-21.32375,39.8377,-70.73417,-27.567778,22.264124,-67.46472,-18.368073,71.850006,50.521317,28.027233,12.216082,-6.640138
199,-6.5033488273620605,-31.95847511291504,90.31405639648438,-1.8454529780603972,4.849657777915721,-62.846594505096846,-2.051192,21.035685,9.964363,23.880621,24.088808,-15.000033,-83.84466,-33.73144,-6.9594803,108.19972,-28.096638,-4.320765,2.5778773,17.979637,29.793802,9.020024,24.042656,-20.511995,39.434174,-69.57144,-27.436419,22.260077,-66.84493,-18.403202,71.52675,50.751835,27.888548,12.230757,-6.998501
200,-6.816400051116943,-32.36867904663086,91.1932373046875,-1.483262474345859,4.9369759785367515,-62.822950861204994,-3.0197036,20.256958,8.729168,25.525906,23.20201,-15.000033,-82.28978,-33.489956,-7.742404,107.06386,-28.523046,-4.501891,2.7720413,17.984158,29.793802,9.033773,23.83024,-19.846958,39.099026,-68.36106,-27.414408,22.356997,-66.26348,-18.523434,71.19712,50.910095,27.910673,12.130109,-7.3470597
201,-7.12119197845459,-32.7745475769043,92.05851745605469,-1.1288244563953032,5.08902096799199,-62.75458155674634,-3.8937676,19.946869,9.11611,27.128712,22.26505,-15.000033,-80.83259,-33.303127,-8.508354,105.90495,-28.892326,-4.674784,2.8853679,18.00141,29.793802,9.0045395,23.635456,-19.348993,38.71761,-67.08631,-27.518024,22.568642,-65.723465,-18.700565,70.84456,51.04053,28.18973,11.839398,-7.662921
202,-7.426991939544678,-33.16797637939453,92.90097045898438,-0.8155650552809361,5.239816994243584,-62.67733552215221,-4.712425,19.994795,10.477906,28.886225,21.092031,-15.000033,-79.367744,-33.121365,-9.31776,104.72316,-29.22452,-4.8535,2.985966,18.043081,29.793802,9.021161,23.466793,-18.87267,38.193333,-65.64824,-27.681831,22.90615,-65.15414,-18.921732,70.43096,51.170166,28.621758,11.372823,-7.974279
203,-7.713932037353516,-33.57135772705078,93.72642517089844,-0.5430474982092715,5.3818310752670095,-62.605864052254994,-5.5239425,20.29563,12.264314,30.843042,19.696487,-15.000033,-77.89871,-32.92014,-10.162604,103.538506,-29.536274,-5.0379376,3.0894916,18.093328,29.793802,9.062883,23.33473,-18.431025,37.602234,-64.18157,-27.856915,23.361656,-64.57921,-19.170822,69.93262,51.22619,29.00535,10.876756,-8.308342
204,-8.001311302185059,-33.994720458984375,94.52887725830078,-0.3059455284384318,5.505855157958849,-62.55575732291123,-6.376617,20.714663,13.923136,33.021523,18.088177,-15.000033,-76.43501,-32.67526,-11.022664,102.37561,-29.843172,-5.2271357,3.2280495,18.138542,29.793802,9.08653,23.248552,-18.053568,37.03298,-62.822464,-27.997746,23.923422,-63.98848,-19.421886,69.2695,51.14272,29.08196,10.501884,-8.701348
205,-8.297066688537598,-34.38444900512695,95.26337432861328,-0.0827009717490992,5.6191256927009245,-62.531994410580886,-7.2450852,21.266727,15.528511,35.415276,16.233164,-15.000033,-75.013535,-32.381954,-11.858741,101.24013,-30.141052,-5.4165115,3.3810437,18.147078,29.793802,9.079866,23.231102,-17.81817,36.528507,-61.658623,-28.14631,24.645924,-63.435165,-19.658882,68.487564,50.914574,28.856495,10.266767,-9.20222
206,-8.598668098449707,-34.8206672668457,96.0030746459961,0.1175637061360129,5.715835091246686,-62.536977844924586,-8.068852,22.020502,17.297691,37.99976,14.128586,-15.000033,-73.61448,-32.04058,-12.68407,100.11829,-30.42276,-5.6093893,3.5634208,18.132462,29.793802,9.068486,23.285872,-17.69737,36.024574,-60.60528,-28.29947,25.517933,-62.87605,-19.864584,67.55292,50.596798,28.391045,10.102712,-9.7830105
207,-8.89664077758789,-35.279239654541016,96.71515655517578,0.2610941336922082,5.775164081060288,-62.5770328340954,-8.875867,22.890127,18.900967,40.735264,11.870023,-15.000033,-72.18145,-31.64058,-13.543661,99.00542,-30.696436,-5.816285,3.7756097,18.113203,29.793802,9.14014,23.380787,-17.487892,35.42449,-59.548832,-28.349787,26.41915,-62.36039,-20.049988,66.58083,50.204826,27.844585,10.021315,-10.346359
208,-9.185846328735352,-35.72380065917969,97.40516662597656,0.3104723913558631,5.780435949989228,-62.650836878447976,-9.731115,23.778816,19.996462,43.58889,9.560635,-15.000033,-70.658295,-31.175585,-14.489559,97.89358,-30.96943,-6.047762,4.040921,18.134796,29.793802,9.330868,23.462242,-17.01664,34.66709,-58.369644,-28.196106,27.223484,-61.84003,-20.221092,65.5466,49.741714,27.221022,10.035596,-10.803948
209,-9.467100143432617,-36.17915725708008,98.06196594238281,0.22249923093215712,5.723990726281469,-62.761197050603506,-10.70743,24.680273,20.390991,46.61429,7.1903925,-15.000033,-68.99927,-30.628242,-15.582738,96.769684,-31.24183,-6.3283277,4.348393,18.232565,29.793802,9.673225,23.47564,-16.140602,33.72546,-56.97647,-27.764793,27.901123,-61.342007,-20.393932,64.4731,49.1664,26.519503,10.179866,-11.108582
210,-9.741921424865723,-36.61619567871094,98.69241333007812,0.02380789959332256,5.617494576431615,-62.90453592832213,-11.775168,25.616547,20.277117,49.789257,4.733493,-15.000033,-67.24903,-29.99933,-16.773046,95.63325,-31.505917,-6.641976,4.6857495,18.398705,29.793802,10.089583,23.40954,-14.992861,32.694897,-55.449493,-27.135506,28.49695,-60.86458,-20.569014,63.355206,48.48576,25.714949,10.438757,-11.314148
211,-10.006482124328613,-37.05824279785156,99.29818725585938,-0.2178927953281776,5.4791300011464985,-63.06537532280484,-12.861044,26.5282,19.899529,52.963192,2.2813468,-15.000033,-65.49277,-29.315403,-17.95552,94.498375,-31.758284,-6.9458756,5.0352206,18.591423,29.793802,10.506053,23.290648,-13.777212,31.659666,-53.93135,-26.4388,29.001877,-60.424698,-20.741043,62.27707,47.787155,24.93454,10.742834,-11.475097
212,-10.258651733398438,-37.49375534057617,99.8846435546875,-0.41439330949745196,5.332663836490431,-63.21936374751945,-13.879145,27.374508,19.587145,55.995415,-0.084301,-14.813773,-63.831066,-28.631716,-19.003702,93.38609,-31.993889,-7.19029,5.3714037,18.742632,29.793802,10.88155,23.1688,-12.6877575,30.666437,-52.561146,-25.802519,29.420544,-60.04432,-20.899906,61.319496,47.15827,24.30547,11.022322,-11.648623
213,-10.477882385253906,-37.899356842041016,100.45706176757812,-0.20347951814146323,5.297044808591989,-63.15567361501587,-14.852276,27.940548,20.031033,58.781857,-2.288535,-12.828819,-62.663006,-28.339293,-19.46778,92.41922,-32.192215,-7.2723665,5.4784856,18.489698,29.793802,11.283142,23.08474,-11.702953,29.618038,-51.39088,-25.26338,29.736801,-59.791267,-21.031063,60.514366,46.595345,23.899395,11.236006,-11.844417
214,-10.676353454589844,-38.299739837646484,100.99458312988281,-0.003460248157223878,5.246924817193926,-63.09826134081338,-15.822506,28.43909,20.29308,61.530746,-4.4770055,-10.982202,-61.51826,-28.044483,-19.905262,91.47713,-32.389233,-7.3160825,5.5946426,18.220425,29.793802,11.717216,23.038277,-10.786281,28.529463,-50.35115,-24.747467,29.963888,-59.595062,-21.131847,59.788338,46.088276,23.632477,11.423273,-12.031991
215,-10.87674617767334,-38.70789337158203,101.52055358886719,0.1918482845644299,5.177421609394495,-63.04974232898611,-16.7453,28.885046,20.454346,64.18664,-6.64868,-9.236421,-60.383423,-27.748146,-20.31563,90.55167,-32.580994,-7.334261,5.7195354,17.924053,29.793802,12.174846,23.016699,-9.8956585,27.389397,-49.392216,-24.227278,30.148296,-59.446877,-21.20686,59.117996,45.61662,23.405333,11.643984,-12.226595
216,-11.070423126220703,-39.10609436035156,102.02981567382812,0.38885783612671204,5.083405463414481,-63.01269230940673,-17.571543,29.292519,20.595339,66.686325,-8.801314,-7.5575433,-59.24604,-27.450851,-20.696747,89.63637,-32.758858,-7.3385262,5.852202,17.594053,29.793802,12.639295,22.999271,-8.991658,26.195696,-48.462715,-23.674948,30.334457,-59.334793,-21.265043,58.482243,45.156616,23.1195,11.9597025,-12.442341
217,-11.246548652648926,-39.521812438964844,102.53588104248047,0.5929555208920735,4.960862154457527,-62.99828880038628,-18.27755,29.67755,20.764915,69.03907,-10.98675,-5.906081,-58.10941,-27.149395,-21.03891,88.73378,-32.925255,-7.3357415,6.002207,17.230808,29.793802,13.094382,22.977026,-8.082904,24.953604,-47.562786,-23.087519,30.532549,-59.26957,-21.308416,57.903294,44.699673,22.706686,12.464817,-12.713932
218,-11.409529685974121,-39.93354034423828,103.03067016601562,0.7989707085507913,4.815293861451906,-63.00169251453796,-18.896286,30.026,20.920397,71.26916,-13.183335,-4.3094244,-56.97874,-26.846487,-21.347677,87.84626,-33.081593,-7.3198023,6.161514,16.835402,29.793802,13.563755,22.950724,-7.16814,23.655828,-46.70549,-22.474777,30.715557,-59.245346,-21.347052,57.38555,44.237694,22.235558,13.10355,-13.0198345
219,-11.579413414001465,-40.319644927978516,103.50205993652344,0.9964187530576399,4.64763783173048,-63.00170869421855,-19.455833,30.31263,21.00948,73.341515,-15.278665,-2.8335757,-55.8336,-26.549809,-21.645716,86.964966,-33.229176,-7.284779,6.3329287,16.437443,29.793802,13.996829,22.910763,-6.2830224,22.360472,-45.87705,-21.852514,30.887428,-59.200954,-21.374384,56.836357,43.800976,21.75773,13.708567,-13.298322
220,-11.733448028564453,-40.71918487548828,103.96344757080078,1.1752430382013341,4.466644089545783,-62.977603328014766,-19.992128,30.519196,20.990019,75.2203,-17.157068,-1.5385658,-54.66223,-26.266888,-21.95681,86.07951,-33.36862,-7.2260904,6.461661,16.022705,29.793802,14.449073,22.835955,-5.3522153,21.052263,-45.045185,-21.214336,31.033718,-59.2056,-21.419285,56.332085,43.40437,21.513783,14.110445,-13.478294
221,-11.873632431030273,-41.13383483886719,104.42094421386719,1.3263362715475815,4.2666836123744085,-62.92193681967202,-20.493668,30.683264,20.892225,76.90272,-18.806396,-0.39373538,-53.453888,-25.99719,-22.288906,85.19549,-33.501484,-7.1357956,6.5739336,15.63306,29.793802,14.840045,22.716988,-4.426524,19.781607,-44.20339,-20.570091,31.160465,-59.185684,-21.483622,55.760227,43.045113,21.47775,14.233815,-13.517421
222,-12.01648235321045,-41.53741455078125,104.8797607421875,1.4557578876507475,4.04667175526657,-62.8469984738556,-20.947645,30.813478,20.745756,78.40664,-20.27609,0.62635756,-52.21714,-25.736002,-22.631727,84.31489,-33.62719,-7.0204873,6.67833,15.258129,29.793802,15.1839285,22.559513,-3.5063636,18.528957,-43.359013,-19.915644,31.26907,-59.14112,-21.569006,55.14265,42.700512,21.570131,14.178823,-13.461747
223,-12.149046897888184,-41.94778060913086,105.33438110351562,1.573655693305239,3.8090355173852757,-62.76171515229468,-21.373775,30.85246,20.510109,79.7285,-21.537163,1.4504887,-50.954044,-25.48099,-22.9807,83.42362,-33.743393,-6.893869,6.7718873,14.879599,29.793802,15.501905,22.363628,-2.6097434,17.309671,-42.522243,-19.26436,31.363926,-59.098946,-21.68311,54.563736,42.376396,21.730255,14.039796,-13.393656
224,-12.256204605102539,-42.34465789794922,105.78622436523438,1.6894303149314776,3.5553729918806996,-62.675396599771304,-21.789103,30.742836,20.148222,80.861946,-22.556108,2.0071084,-49.665604,-25.229061,-23.331495,82.507034,-33.847416,-6.7690105,6.868092,14.491577,29.793802,15.791661,22.127356,-1.7748244,16.152021,-41.69925,-18.631313,31.450697,-59.012436,-21.82237,54.026188,42.058735,21.797863,13.912584,-13.399842
225,-12.36152172088623,-42.746341705322266,106.23832702636719,1.8009126770223876,3.2856391321837193,-62.58013219895806,-22.207659,30.457537,19.625319,81.798195,-23.274988,2.2239854,-48.34491,-24.984787,-23.692732,81.564384,-33.946136,-6.643119,6.961055,14.088716,29.793802,16.057034,21.844944,-1.0090181,15.050735,-40.878498,-18.028051,31.53729,-58.923378,-21.994291,53.585922,41.77387,21.786179,13.813194,-13.518668
226,-12.457043647766113,-43.15202713012695,106.69258880615234,1.8977203219992618,3.042618211315262,-62.47244814054863,-22.668821,30.04609,18.98042,82.55232,-23.72198,2.1636238,-47.038406,-24.742256,-24.073256,80.59616,-34.027985,-6.5167274,7.1304064,13.732193,29.57243,16.178741,21.53152,-0.44449,14.218753,-40.046474,-17.443186,31.625303,-58.6625,-22.192554,53.175728,41.565723,21.71323,13.691334,-13.689705
227,-12.538162231445312,-43.55902862548828,107.14945983886719,1.9836642569696024,2.847371853231145,-62.37090986812957,-23.169886,29.556221,18.291237,83.149475,-23.994848,1.9506714,-45.77909,-24.487587,-24.458618,79.59348,-34.076958,-6.4021626,7.3924403,13.428765,29.043663,16.148542,21.210669,-0.0884576,13.73949,-39.224903,-16.853722,31.696274,-58.178802,-22.410053,52.792213,41.425133,21.63691,13.543484,-13.854751
228,-12.615076065063477,-43.965450286865234,107.60314178466797,2.07408983054644,2.6334765964739155,-62.29879559822092,-23.594004,29.02245,17.646378,83.598526,-24.198885,1.7040462,-44.512394,-24.2169,-24.815556,78.56822,-34.093273,-6.300683,7.638988,13.106867,28.535336,16.114807,20.887922,0.26661444,13.31948,-38.46265,-16.25163,31.739101,-57.690945,-22.647635,52.449844,41.260754,21.620684,13.370443,-13.977594
229,-12.68571949005127,-44.37797927856445,108.05608367919922,2.1712466475514316,2.4051931964956,-62.268242108341006,-23.943535,28.421038,17.03611,83.88515,-24.305378,1.4044448,-43.249264,-23.92538,-25.131702,77.521614,-34.0724,-6.209795,7.87287,12.756961,28.046001,16.096985,20.55749,0.6364869,12.958254,-37.78188,-15.638253,31.74236,-57.186523,-22.898415,52.158466,41.07102,21.67524,13.138145,-14.052697
230,-12.735639572143555,-44.78575134277344,108.50899505615234,2.2716176278540123,2.162565331327651,-62.26652733422284,-24.229284,27.742674,16.43082,84.00438,-24.283106,1.0040431,-41.979416,-23.619366,-25.42064,76.45068,-34.025257,-6.126161,8.092065,12.383875,27.567564,16.086441,20.213797,1.006617,12.655142,-37.161385,-15.0205,31.716125,-56.676,-23.159836,51.92817,40.878834,21.78555,12.858495,-14.103766
231,-12.76603889465332,-45.192726135253906,108.9654541015625,2.3725590165956985,1.8961356420966955,-62.2765503209616,-24.437143,27.053064,15.86923,83.98707,-24.221333,0.58289456,-40.68663,-23.30641,-25.697124,75.35586,-33.95149,-6.0556345,8.2865505,12.004987,27.114658,16.058645,19.869766,1.3641046,12.397459,-36.562523,-14.388551,31.678328,-56.152496,-23.425598,51.69836,40.668377,21.890467,12.598755,-14.126157
232,-12.799131393432617,-45.59613037109375,109.42143249511719,2.471504508577727,1.5962346923052273,-62.28100895935108,-24.556244,26.42059,15.389361,83.866974,-24.204588,0.22375299,-39.351795,-22.993082,-25.977953,74.2329,-33.85644,-6.004402,8.450359,11.6335535,26.699223,15.990005,19.550228,1.6950952,12.171835,-35.95389,-13.731827,31.64628,-55.612213,-23.689402,51.408978,40.426205,21.936905,12.426095,-14.115528
233,-12.8283052444458,-45.99546432495117,109.8785400390625,2.572167253494272,1.2462248101448115,-62.28933840122712,-24.549759,25.868027,15.01848,83.63288,-24.258017,-0.040584747,-37.95968,-22.674952,-26.252811,73.08188,-33.739838,-5.9821405,8.593627,11.262788,26.332144,15.870859,19.2665,2.0132492,11.977385,-35.331562,-13.007516,31.630768,-55.047493,-23.947344,51.03253,40.14352,21.90123,12.364837,-14.044762
234,-12.871649742126465,-46.39725875854492,110.3306884765625,2.67437779936864,0.8560388960143058,-62.30618310126893,-24.436964,25.359737,14.726435,83.27052,-24.334652,-0.25613037,-36.524117,-22.350376,-26.51664,71.90502,-33.600544,-5.981521,8.722048,10.885208,26.000858,15.713988,19.019575,2.317559,11.821599,-34.71868,-12.233801,31.620714,-54.45606,-24.197771,50.59451,39.830772,21.809881,12.37628,-13.92485
235,-12.8969087600708,-46.7917594909668,110.78985595703125,2.770281412467661,0.4558832500327952,-62.307493254880306,-24.295744,24.876595,14.463685,82.8156,-24.407497,-0.45918638,-35.069633,-22.02816,-26.794516,70.69972,-33.440067,-5.9831758,8.826802,10.513371,25.68168,15.527133,18.82224,2.5690005,11.704697,-34.12672,-11.491389,31.602388,-53.831238,-24.437458,50.103546,39.49685,21.675674,12.432905,-13.809531
236,-12.91823959350586,-47.18145751953125,111.2471923828125,2.851833233391205,0.07580332855486338,-62.2689262413972,-24.201347,24.398993,14.183225,82.302536,-24.451431,-0.68589365,-33.621002,-21.71604,-27.111496,69.46389,-33.259483,-5.967174,8.898084,10.155113,25.348434,15.318177,18.694557,2.7289615,11.627871,-33.571175,-10.861236,31.564781,-53.19035,-24.667595,49.589714,39.162025,21.539558,12.506635,-13.751324
237,-12.943440437316895,-47.56206130981445,111.69603729248047,2.9151987367224885,-0.2741524774134596,-62.177816003277414,-24.177618,23.93154,13.877031,81.73222,-24.495493,-0.91376644,-32.18358,-21.418863,-27.480738,68.19442,-33.057735,-5.9337344,8.943812,9.816793,24.985165,15.066864,18.652208,2.7695909,11.596466,-33.044277,-10.362318,31.527561,-52.496838,-24.884325,48.99628,38.799385,21.345953,12.62107,-13.766236
238,-12.975142478942871,-47.93474197387695,112.14353942871094,2.965102681982578,-0.6106631317873783,-62.04889030231188,-24.182693,23.480581,13.569674,81.08966,-24.541729,-1.1343584,-30.74502,-21.130138,-27.887178,66.89381,-32.83488,-5.889822,8.971305,9.486776,24.604153,14.768371,18.697947,2.7116146,11.615648,-32.551003,-9.952063,31.49385,-51.76673,-25.0903,48.33782,38.414516,21.118141,12.780128,-13.824072
239,-12.993049621582031,-48.29826354980469,112.58633422851562,3.0054538764692844,-0.9439110889062731,-61.89904040540584,-24.19086,23.028727,13.262116,80.38095,-24.521557,-1.4055982,-29.30147,-20.837807,-28.314096,65.56374,-32.591892,-5.8311796,8.9836,9.157899,24.223888,14.43914,18.826006,2.5758617,11.690352,-32.119144,-9.619916,31.428595,-50.994648,-25.287567,47.657467,38.02667,20.900845,12.92867,-13.913565
