unveil-humanoid-operators/unveil-humanoid-operators.github.io/feature-analysis-animation/data/feature_matrix_extreme/height_jogging_ankle_rom_low.csv
Frame,root_translateX,root_translateY,root_translateZ,root_rotateX,root_rotateY,root_rotateZ,left_hip_pitch_joint_dof,left_hip_roll_joint_dof,left_hip_yaw_joint_dof,left_knee_joint_dof,left_ankle_pitch_joint_dof,left_ankle_roll_joint_dof,right_hip_pitch_joint_dof,right_hip_roll_joint_dof,right_hip_yaw_joint_dof,right_knee_joint_dof,right_ankle_pitch_joint_dof,right_ankle_roll_joint_dof,waist_yaw_joint_dof,waist_roll_joint_dof,waist_pitch_joint_dof,left_shoulder_pitch_joint_dof,left_shoulder_roll_joint_dof,left_shoulder_yaw_joint_dof,left_elbow_joint_dof,left_wrist_roll_joint_dof,left_wrist_pitch_joint_dof,left_wrist_yaw_joint_dof,right_shoulder_pitch_joint_dof,right_shoulder_roll_joint_dof,right_shoulder_yaw_joint_dof,right_elbow_joint_dof,right_wrist_roll_joint_dof,right_wrist_pitch_joint_dof,right_wrist_yaw_joint_dof
0,1.0700395107269287,1.5198190212249756,63.17649459838867,18.78916731520703,-2.321147008157132,-140.28231526271202,-32.80431,5.286585,-12.888939,7.447591,0.9777015,-15.000033,28.053097,7.2466397,-7.8682775,46.838306,-16.612658,-11.988673,24.916609,-6.4521203,24.77233,82.11841,38.626472,9.551039,-21.848654,30.345463,-34.742695,36.462914,-33.992153,-34.984734,29.44907,-42.572735,-6.6753535,-23.916061,-18.937893
1,-0.7408285140991211,-0.17735503613948822,63.14712905883789,18.142383611612775,-2.9916642539228975,-140.30170224362357,-31.754507,5.849712,-11.541827,7.3508244,0.05607405,-15.000033,26.98846,6.4727087,-9.113389,53.409184,-17.700535,-11.967875,24.38612,-5.6638117,25.33334,80.31661,38.56252,8.486141,-23.78968,30.005924,-34.811466,36.154472,-27.855938,-34.943695,29.375406,-44.994717,-8.528142,-24.05654,-19.440125
2,-2.5109739303588867,-1.853266954421997,63.07870864868164,17.434536401167808,-3.705972825770376,-140.29988971481163,-30.706545,6.510194,-10.015284,7.256344,-1.236033,-15.000033,26.118013,5.741302,-10.256661,60.025974,-18.79976,-11.972062,23.86559,-4.7622395,25.901745,78.670815,38.41674,7.440456,-25.805893,29.685398,-34.895935,35.835728,-21.907393,-34.83662,29.711372,-47.580524,-10.482148,-24.210312,-19.91557
3,-4.240466117858887,-3.5111944675445557,62.985496520996094,16.87274315078748,-4.387765776336897,-140.30866047732255,-29.552393,6.955213,-8.754959,7.211214,-1.9654771,-15.000033,25.14674,4.6326003,-11.448793,66.79439,-20.190155,-12.133608,23.076035,-3.979232,26.511759,76.63671,38.142914,6.091322,-27.553389,29.407507,-34.950832,35.576714,-16.491137,-34.62298,30.313648,-49.425713,-12.337917,-24.385094,-20.43535
4,-5.833453178405762,-5.106103420257568,62.96440887451172,16.647355555090485,-4.9548338427119685,-140.36315835632936,-28.213062,6.888854,-8.277888,7.239761,-1.121122,-15.000033,23.824738,2.7409372,-12.778341,73.76869,-22.128752,-12.58005,21.884264,-3.5613856,27.200977,73.84348,37.847553,4.3100605,-28.860048,29.07792,-34.93847,35.422604,-11.637003,-34.261745,30.823143,-49.849155,-13.907018,-24.579609,-21.09575
5,-7.3317060470581055,-6.70904541015625,62.971370697021484,16.897725881679545,-5.375738200080898,-140.45005169274836,-27.656185,5.8042517,-9.121408,9.485044,1.4151455,-15.000033,22.252577,-0.35954654,-14.329867,81.14416,-24.879473,-13.3913,20.285057,-3.5937192,27.960089,69.91383,37.533573,1.8037337,-29.546984,28.660343,-34.82659,35.35276,-7.085049,-33.693634,31.117975,-48.6764,-15.097144,-24.727835,-21.93248
6,-8.873617172241211,-8.384297370910645,62.88688278198242,17.548608322749708,-5.708735109068941,-140.59692463847833,-27.1432,4.05926,-10.379905,12.369675,5.5714245,-15.000033,20.684254,-4.407529,-15.788953,88.80324,-28.261946,-14.421387,18.454062,-3.9912064,28.727531,65.13399,37.160156,-1.236239,-29.723413,28.145678,-34.624844,35.3865,-2.778271,-32.88573,31.36167,-46.263943,-16.02801,-24.844376,-22.90974
7,-10.435945510864258,-10.068217277526855,62.74375915527344,18.41910873598432,-5.9982306968631,-140.88977429013093,-26.740988,2.2801945,-11.00427,15.944377,9.16115,-15.000033,18.995523,-8.643636,-16.601786,96.30721,-31.818714,-15.000033,16.480118,-4.6472135,29.441614,59.876713,36.703182,-4.395355,-29.465471,27.563696,-34.35308,35.65557,0.9953619,-31.835533,31.576925,-42.729065,-16.829733,-25.045431,-23.996853
8,-11.971471786499023,-11.70249080657959,62.5694694519043,19.263988405536566,-6.249127713159519,-141.36665717325315,-26.545864,1.0318809,-10.620233,20.12523,10.174337,-15.000033,16.88263,-12.26175,-16.484142,103.24302,-35.073326,-15.000033,14.354796,-5.388291,29.793802,54.495567,36.184498,-7.39013,-28.68638,26.931114,-34.02715,36.25961,3.9799147,-30.551971,31.814842,-38.00443,-17.61182,-25.436356,-25.158115
9,-13.450257301330566,-13.243037223815918,62.36195373535156,19.88477392508713,-6.464366332729763,-142.0920135310024,-26.848192,0.5487534,-9.455984,25.600395,7.377183,-15.000033,14.167108,-14.942382,-15.498697,109.71157,-37.95698,-15.000033,12.097883,-6.0304523,29.793802,48.905865,35.614117,-10.236024,-27.330309,26.14375,-33.667507,37.284378,6.3298817,-29.08171,31.758413,-31.947184,-18.3906,-26.182724,-26.500698
10,-14.886313438415527,-14.719724655151367,62.10624694824219,20.314163438075195,-6.678194490824141,-143.1234176199038,-27.362997,0.61703235,-7.9155936,32.123623,2.072403,-15.000033,11.011482,-16.92168,-13.818052,115.89197,-40.675446,-15.000033,9.880944,-6.561075,29.793802,42.94754,34.97433,-12.922356,-25.599648,25.247032,-33.276432,38.67996,8.389298,-27.50261,31.179556,-24.947048,-19.188852,-27.188183,-28.005146
11,-16.318077087402344,-16.135643005371094,61.894927978515625,20.64058360995477,-6.873627193257712,-144.3583833385066,-27.491226,0.98078203,-6.322927,38.26162,-3.8972008,-15.000033,7.4713874,-18.361893,-11.794536,121.4791,-43.121647,-15.000033,7.785403,-7.0695863,29.793802,36.79665,34.29282,-15.204426,-23.634726,24.449345,-32.866646,40.245857,10.274919,-25.924215,30.181087,-17.7144,-20.037447,-28.17622,-29.39122
12,-17.754369735717773,-17.533979415893555,61.7874870300293,21.040448593105655,-7.008869673627974,-145.66620079942152,-26.806078,1.2770178,-4.900527,42.76612,-8.758839,-15.000033,3.5014725,-19.590687,-9.761906,126.18785,-45.169636,-15.000033,5.860895,-7.7366786,29.793802,30.569159,33.646687,-16.89597,-21.542639,23.968609,-32.44443,41.767036,12.042757,-24.462349,28.89622,-10.941416,-20.932922,-28.863506,-30.378714
13,-19.244680404663086,-18.846113204956055,61.76210021972656,21.723671899347494,-7.036073414945941,-147.09616505497956,-25.165888,1.3068306,-3.5851545,45.27456,-12.15665,-15.000033,-1.2927387,-20.833586,-7.5681505,130.02655,-46.662777,-15.000033,4.1239696,-8.732279,29.793802,23.90165,33.180027,-18.239067,-18.884256,24.007673,-31.984415,43.43492,13.639079,-23.166834,27.11994,-4.5058312,-21.944168,-29.058622,-30.841305
14,-20.806413650512695,-20.082231521606445,61.75889205932617,22.602820936529476,-6.938962570659681,-148.67378453174658,-22.935497,1.1995506,-2.2345018,46.586346,-15.025993,-15.000033,-6.9642587,-21.916712,-5.158183,133.1471,-47.59573,-15.000033,2.6308396,-9.931674,29.793802,16.72135,32.974346,-19.449389,-15.754727,24.389141,-31.465277,45.29673,15.229665,-22.082462,24.709448,1.6878667,-23.0258,-28.94873,-30.95745
15,-22.42048454284668,-21.263439178466797,61.739097595214844,23.56394434241445,-6.784587021113648,-150.17864853097672,-20.394722,0.871482,-0.9643053,47.125214,-17.524277,-15.000033,-13.053416,-22.796387,-2.8864233,135.46683,-48.035336,-15.000033,1.3509864,-11.226411,29.793802,9.525415,32.99331,-20.368383,-12.948631,24.770014,-30.91785,46.88501,17.135027,-21.305035,22.003016,6.9493504,-23.958002,-28.806189,-30.916412
16,-24.06616973876953,-22.441936492919922,61.716896057128906,24.325936796257817,-6.642573446226978,-151.42296001568735,-17.874077,0.46942997,0.02911671,47.45461,-19.889492,-15.000033,-19.0871,-23.213537,-0.8766233,136.88663,-48.05254,-14.18052,0.20198812,-12.320945,29.793802,2.7983987,33.122,-20.758802,-11.193821,24.830446,-30.410582,47.68876,19.6005,-20.943521,19.439533,10.596538,-24.498102,-28.891367,-30.925568
17,-25.761720657348633,-23.627273559570312,61.6986198425293,24.593761229952737,-6.515559541319821,-152.4211288668939,-15.438981,0.3348402,0.57564193,47.7756,-22.35062,-15.000033,-25.171087,-23.173859,0.18604225,137.32256,-47.539715,-13.720251,-0.82819384,-12.893036,29.793802,-3.5107715,33.286808,-20.512157,-10.626978,24.628847,-30.000473,47.340668,22.706593,-21.096033,17.099255,12.333385,-24.368404,-29.338417,-30.993109
18,-27.50625991821289,-24.798542022705078,61.6694450378418,24.559133761667105,-6.434350860318789,-153.2379186134194,-12.887966,0.34196457,0.7547397,47.822018,-24.767962,-15.000033,-31.390448,-22.870792,0.53634983,136.80573,-46.500904,-13.469448,-1.8244444,-13.095483,29.793802,-9.768211,33.46523,-19.8882,-10.697981,24.30613,-29.661676,46.172707,26.381231,-21.741753,14.792362,12.523674,-23.653168,-29.987555,-30.983492
19,-29.317913055419922,-25.941696166992188,61.63566207885742,24.35288332561902,-6.417087266624083,-153.86605850538717,-10.266316,0.4126731,0.63060915,47.642704,-26.925495,-15.000033,-37.304073,-22.575705,0.2510905,135.42702,-45.16901,-13.393845,-2.8926127,-13.062557,29.793802,-15.96293,33.595474,-19.084059,-11.084798,23.700191,-29.344099,44.71643,30.472832,-22.737028,12.573114,11.621237,-22.694319,-30.662798,-30.904654
20,-31.192123413085938,-27.024394989013672,61.60686111450195,24.101039179587275,-6.452522327146019,-154.30630421506072,-7.6367316,0.47612333,0.28243595,47.277927,-28.611166,-15.000033,-42.520874,-22.526115,-0.5351301,133.30638,-43.787094,-13.466635,-4.118955,-12.949026,29.793802,-22.010918,33.623264,-18.210587,-11.510795,22.666111,-28.991116,43.485134,34.707565,-23.896631,10.529758,10.181708,-21.906088,-31.182676,-30.815128
21,-33.121395111083984,-28.05350112915039,61.60161590576172,23.750543531394808,-6.343140498894274,-154.41164049300087,-5.2691646,0.6122788,-0.30833524,46.72258,-29.859072,-15.000033,-47.25848,-22.666601,-1.8632247,130.41566,-42.341774,-13.607267,-5.6587324,-12.861785,28.90866,-27.978258,33.489536,-17.454142,-11.329555,20.954075,-28.606417,42.5685,38.867634,-25.19574,9.052064,8.835797,-21.538239,-31.461239,-30.697355
22,-35.107723236083984,-29.04203224182129,61.64191818237305,23.245436572450426,-6.151229031090112,-154.25385616993634,-3.0371609,0.89425576,-1.1566631,45.97165,-30.766743,-15.000033,-51.477764,-22.94965,-3.7667928,126.71905,-40.87591,-13.796739,-7.3211827,-12.639249,27.615246,-34.05552,33.204735,-16.734179,-10.872357,18.793623,-28.20367,41.71897,43.14619,-26.652313,7.855605,7.066993,-21.402536,-31.61368,-30.55987
23,-37.157840728759766,-29.99799919128418,61.74262237548828,22.731035490969116,-5.9380365308414405,-154.0333925930257,-0.82372415,1.2117704,-2.1277006,45.090595,-31.145855,-15.000033,-54.961018,-23.559017,-6.0454054,122.39286,-39.577183,-14.15401,-8.996347,-12.368468,26.302792,-39.951725,32.8089,-15.991685,-10.404917,16.631107,-27.774231,40.94541,47.407364,-28.172693,6.800728,5.080793,-21.214403,-31.719994,-30.407618
24,-39.244544982910156,-30.91788673400879,61.90581512451172,22.35460140356899,-5.737913264460925,-153.9311646017057,1.4445285,1.4392699,-3.0922942,44.146015,-30.802242,-15.000033,-57.558212,-24.612474,-8.562737,117.612015,-38.579483,-14.8034315,-10.598777,-12.2023735,25.123362,-45.31456,32.34919,-15.224235,-10.062789,14.882814,-27.314154,40.24706,51.42398,-29.622755,5.8425894,3.3061354,-20.702045,-31.852104,-30.236273
25,-41.38124465942383,-31.8114070892334,62.1258544921875,22.228554813057496,-5.604311789382254,-153.90764275806305,3.877374,1.4476863,-4.0793033,43.011566,-29.627668,-15.000033,-59.154816,-26.351675,-11.259429,112.34638,-38.067707,-15.000033,-12.1268015,-12.277428,24.096783,-50.249607,31.878263,-14.402003,-9.770157,13.673734,-26.809431,39.585167,55.15006,-30.926805,4.953459,1.8701177,-19.843266,-32.036922,-30.104153
26,-43.57440948486328,-32.67610549926758,62.395172119140625,22.299752859029628,-5.594515131819067,-153.82241807366248,6.454423,1.282015,-5.234805,41.67155,-27.714268,-15.000033,-59.713795,-28.66485,-14.482302,106.60523,-37.974094,-15.000033,-13.675944,-12.564021,23.19045,-54.83696,31.420084,-13.521444,-9.563969,12.736972,-26.261353,38.973804,58.708157,-32.07772,4.1065125,0.55243933,-18.812819,-32.23866,-29.993824
27,-45.81321334838867,-33.48090744018555,62.697879791259766,22.352623493105234,-5.555290741348646,-153.85789538679126,8.938288,1.2183603,-6.4024997,40.427094,-25.218977,-15.000033,-59.421947,-30.626972,-18.284943,100.46524,-37.886295,-15.000033,-15.081495,-12.8171835,22.35366,-58.725697,30.953363,-12.667998,-9.680862,11.882684,-25.690866,38.476574,62.10156,-33.05063,3.2849233,-0.7177641,-17.636929,-32.430046,-29.78337
28,-48.07742691040039,-34.22822189331055,63.02125549316406,22.321629808128566,-5.439458831791076,-154.10114614389465,11.174544,1.291966,-7.4945145,39.49924,-22.241959,-15.000033,-58.647736,-31.491285,-22.085707,93.99626,-37.376446,-15.000033,-16.26422,-12.945171,21.576551,-61.68573,30.423265,-11.979417,-10.251584,10.885702,-25.121208,38.152115,65.32623,-33.813362,2.4809067,-2.0056138,-16.344467,-32.580074,-29.347736
29,-50.379554748535156,-34.93852996826172,63.360321044921875,22.240616986030165,-5.264298198225044,-154.53717407542828,13.18417,1.4476732,-8.514671,38.874542,-18.510838,-15.000033,-57.531857,-31.113798,-25.54028,86.92578,-36.383385,-15.000033,-17.200377,-12.979784,20.884853,-63.767925,29.756384,-11.490411,-11.245322,9.553362,-24.523073,38.150406,68.42409,-34.33169,1.6769954,-3.3103254,-14.92544,-32.66191,-28.628784
30,-52.740962982177734,-35.62782287597656,63.718605041503906,22.172823885218822,-5.072096793079715,-155.11341464293042,15.039016,1.600554,-9.51729,38.461502,-14.057801,-15.000033,-56.0597,-29.895508,-28.650337,79.24125,-35.07875,-15.000033,-17.888361,-12.992945,20.282995,-65.19641,28.913465,-11.195223,-12.478887,8.027632,-23.907406,38.393436,71.40565,-34.591763,0.8774063,-4.6164713,-13.386943,-32.68804,-27.703238
31,-55.15745162963867,-36.29694747924805,64.0699691772461,22.130187337314375,-4.897970695131473,-155.8258560451468,16.708858,1.6774246,-10.534991,38.32552,-9.402653,-15.000033,-54.422382,-28.022472,-31.19577,71.39867,-33.440582,-15.000033,-18.328434,-12.995799,19.75708,-65.93802,27.875723,-11.167447,-13.898417,6.630892,-23.34478,38.601925,74.18099,-34.613094,0.13982724,-5.9494805,-11.783361,-32.68416,-26.646147
32,-57.61372375488281,-36.94221115112305,64.3877944946289,22.121333143439582,-4.772107132353383,-156.6696838115958,18.170166,1.6124635,-11.594445,38.511723,-5.018364,-15.000033,-52.760433,-25.696495,-33.030605,63.856228,-31.437178,-15.000033,-18.53026,-12.99075,19.287659,-65.94016,26.652552,-11.468211,-15.469123,5.671911,-22.89313,38.484604,76.6695,-34.437645,-0.46795133,-7.337951,-10.161046,-32.67847,-25.530304
33,-60.106258392333984,-37.579986572265625,64.66073608398438,22.15773135195627,-4.794798357404716,-157.66667362401898,19.595116,1.3384849,-12.855378,38.861984,-0.50858,-15.000033,-50.918583,-22.865635,-33.85926,56.38136,-28.762962,-13.970725,-18.52904,-13.001502,18.927118,-65.00598,25.242683,-12.124206,-17.390343,5.132189,-22.55307,37.8841,78.952095,-34.103306,-0.96574694,-8.851486,-8.5014925,-32.658684,-24.25576
34,-62.650108337402344,-38.235660552978516,64.89990234375,22.30681033696605,-5.062413017140801,-158.6989533065353,21.041227,0.7990943,-14.430282,39.363644,4.27759,-15.000033,-48.704956,-19.867533,-33.742947,48.90148,-25.659374,-11.684768,-18.445436,-13.112223,18.733482,-63.161694,23.662634,-13.127107,-19.664236,4.901947,-22.297096,36.973057,81.040634,-33.615192,-1.363135,-10.463564,-6.7802844,-32.60293,-22.83098
35,-65.21568298339844,-38.887123107910156,65.0886459350586,22.548351722851038,-5.369419978579314,-159.72832207171777,22.214039,0.06251223,-16.022139,40.268612,8.468493,-15.000033,-46.336132,-17.025087,-33.206463,41.933216,-22.696432,-9.529209,-18.21087,-13.259835,18.591673,-60.66942,21.973345,-14.48509,-21.987677,5.1473684,-22.137907,35.943707,82.75801,-32.97886,-1.5466555,-12.063475,-5.0416923,-32.53624,-21.481314
36,-67.78003692626953,-39.52157974243164,65.21444702148438,22.905674837417713,-5.642394406941112,-160.61486908239436,22.914228,-0.85060215,-17.452843,41.781414,11.193991,-15.000033,-44.02206,-14.902876,-32.8255,36.272907,-20.457106,-7.967722,-17.896944,-13.459306,18.454214,-57.815395,20.253798,-16.190575,-24.040634,6.014056,-22.091618,34.99175,83.90063,-32.21676,-1.402246,-13.516999,-3.3299148,-32.49591,-20.421896
37,-70.32675170898438,-40.12080764770508,65.28456115722656,23.42121171727986,-5.855583596401858,-161.37479088077902,23.177927,-2.1675205,-18.925903,44.00151,11.996653,-15.000033,-41.836903,-13.690671,-32.98086,32.33748,-19.151064,-6.983693,-17.531626,-13.750831,18.286158,-54.475487,18.556156,-18.420288,-25.972912,7.71232,-22.239527,34.170654,84.44705,-31.360918,-0.88664895,-14.841886,-1.6182475,-32.510113,-19.740469
38,-72.82073211669922,-40.68754196166992,65.29219055175781,24.058922964681702,-6.028916745136618,-162.07498715784757,23.0984,-3.8397696,-20.407747,46.809322,11.423249,-15.000033,-39.754627,-13.031258,-33.406185,29.748074,-18.425182,-6.290564,-17.092613,-14.101243,18.125263,-50.595978,16.931828,-21.190683,-27.864817,10.114459,-22.570515,33.377457,84.48798,-30.432657,-0.07161791,-16.07798,0.11139455,-32.56804,-19.305994
39,-75.2513427734375,-41.22776794433594,65.23399353027344,24.70042623256713,-6.1543383429382725,-162.65890557787668,22.526522,-5.3724046,-21.36405,50.08848,10.062028,-15.000033,-37.894146,-12.650292,-33.7536,28.221594,-18.043482,-5.941396,-16.587957,-14.408826,18.020607,-46.594444,15.446733,-24.176897,-29.266382,12.812247,-22.953339,32.58264,83.96319,-29.451498,0.99425703,-17.104252,1.8078308,-32.650776,-18.992043
40,-77.62263488769531,-41.76003646850586,65.13719177246094,25.220160346929504,-6.2355073928543545,-163.06712935208256,21.28315,-6.204292,-21.29213,53.706566,8.52363,-15.000033,-36.341793,-12.283386,-33.660336,27.461792,-17.785223,-6.0251737,-16.041574,-14.583829,18.01681,-42.830143,14.147342,-26.980257,-29.775925,15.358325,-23.243614,31.761446,82.79311,-28.444319,2.2668743,-17.793497,3.421965,-32.73228,-18.669989
41,-79.95162963867188,-42.26111602783203,65.01171112060547,25.65359641296004,-6.31173712804576,-163.20771802293916,19.211168,-6.003102,-19.837364,57.81764,6.7526817,-15.000033,-35.051975,-11.905179,-32.853516,27.379725,-17.392597,-6.2345166,-15.607925,-14.690966,18.103106,-38.983463,13.024799,-29.674849,-29.579834,17.8632,-23.327253,30.79252,80.849815,-27.437946,3.8057714,-18.070375,5.074634,-32.809273,-18.224133
42,-82.2543716430664,-42.732906341552734,64.85285186767578,26.00429198465392,-6.3823071078773514,-163.1395281511059,16.455153,-4.9047894,-17.466528,62.466805,4.4255157,-15.000033,-33.95116,-11.566152,-31.65271,28.082806,-17.027,-6.6314387,-15.201309,-14.74049,18.219395,-35.436344,12.152018,-32.174915,-28.423368,20.056341,-23.331337,29.704638,78.24116,-26.396929,5.608064,-17.983158,6.7945304,-32.891632,-17.764664
43,-84.4798812866211,-43.12693405151367,64.6733627319336,26.11283124635535,-6.394280823814131,-163.02495025685565,13.301984,-3.1006775,-14.9447,67.33117,1.7430912,-15.000033,-33.09223,-11.1209755,-30.56658,29.553936,-17.047323,-7.8761816,-14.752062,-14.591585,18.443218,-31.89732,11.47364,-34.414547,-26.684505,22.344717,-23.372839,28.862404,75.02217,-25.34959,7.50434,-17.611572,8.319499,-32.976627,-17.4643
44,-86.70280456542969,-43.545833587646484,64.45067596435547,25.838726898617885,-6.29236941808939,-163.024423908733,9.995668,-0.93728554,-12.950197,72.05145,-1.0390196,-15.000033,-32.566093,-10.483565,-30.056946,31.81152,-17.7956,-10.6690445,-14.072967,-14.0920515,18.787403,-28.782536,10.973565,-35.990543,-24.136131,24.456778,-23.580864,28.550695,71.35211,-24.30702,9.331078,-17.041344,9.423941,-33.07114,-17.519384
45,-88.94190979003906,-43.994384765625,64.20883178710938,25.21176987849721,-6.136167232949241,-162.9474242173595,6.4046464,1.4256297,-11.646758,76.68423,-3.863454,-15.000033,-32.679768,-10.221949,-30.279627,35.722023,-19.773285,-15.000033,-13.354913,-13.270918,19.194891,-26.012949,10.642732,-36.70566,-20.73957,26.559345,-23.96306,28.931232,67.146736,-23.252272,11.093877,-16.17509,10.074294,-33.19941,-18.043348
46,-91.14180755615234,-44.4525146484375,64.01910400390625,24.726048674693885,-6.542065863623084,-162.3455447855292,2.7502885,3.4214792,-11.145645,81.24963,-6.680444,-15.000033,-32.779133,-11.815627,-30.929382,41.749557,-23.054796,-15.000033,-13.204555,-12.684145,19.903252,-23.374971,10.4756155,-36.702427,-16.673447,28.6616,-24.42213,29.8449,62.365643,-22.169107,12.785356,-15.017951,10.397016,-33.36215,-18.922081
47,-93.24185943603516,-44.818843841552734,63.80699920654297,23.985288400893335,-7.063462891132778,-161.88702788396336,-0.81957465,5.4623327,-11.066444,85.54992,-9.602745,-15.000033,-32.37818,-12.942952,-31.794178,47.224617,-26.325405,-15.000033,-12.934518,-11.877435,20.902634,-20.839428,10.457114,-36.195927,-12.222804,30.448153,-24.915487,31.092928,57.234898,-21.10863,14.263575,-13.846339,10.378648,-33.52681,-20.005745
48,-95.31602478027344,-45.17535400390625,63.518516540527344,22.92483132587151,-7.529484220541275,-161.99752586383198,-4.08418,7.5814686,-11.239466,89.311905,-12.546341,-15.000033,-31.171919,-12.698549,-32.719807,50.913437,-29.01497,-15.000033,-12.183763,-10.751271,22.19687,-18.423315,10.563829,-35.379044,-7.5921383,31.601412,-25.430326,32.4575,51.90824,-20.17096,15.451385,-12.88579,10.018428,-33.655014,-21.14668
49,-97.35203552246094,-45.554603576660156,63.20565414428711,21.699511379327493,-7.8880796827337125,-162.9250122120989,-7.1199656,10.224013,-10.763224,92.49493,-15.548959,-12.912146,-29.315895,-11.082508,-33.444405,52.969437,-31.27315,-15.000033,-10.764454,-9.402151,23.7643,-16.165121,10.767078,-34.030834,-2.4937522,31.663382,-25.99916,34.01707,46.225708,-19.453049,16.456099,-12.073761,9.181335,-33.756256,-22.474533
50,-99.36947631835938,-45.90461730957031,62.94624710083008,20.329680068989298,-8.199413423618363,-164.40758857344125,-10.02078,12.911128,-10.308502,95.25527,-18.616705,-10.523376,-27.03793,-8.700273,-33.990032,54.206818,-33.52159,-15.000033,-8.979918,-7.845618,25.46471,-13.966035,11.076326,-32.045166,3.054364,30.937002,-26.662077,35.810555,40.1465,-18.98275,17.358791,-11.359484,7.9380045,-33.818707,-24.033882
51,-101.42158508300781,-46.198768615722656,62.7270622253418,18.947259448337277,-8.455878712595103,-166.15229334817352,-12.879819,15.285763,-10.106195,97.48837,-21.42208,-8.479037,-24.475971,-6.035318,-34.27707,54.83866,-35.700985,-15.000033,-7.1381464,-6.212015,27.069342,-11.667285,11.550318,-29.800817,8.407265,30.237967,-27.396742,37.560627,33.954018,-18.75272,18.122646,-10.929573,6.588526,-33.780285,-25.531525
52,-103.51134490966797,-46.44588088989258,62.55023956298828,17.877629773984264,-8.646081293722313,-167.8707247559195,-15.783745,16.960552,-10.039453,99.02744,-23.577276,-6.953538,-21.872097,-3.7254543,-34.21592,55.209866,-37.820396,-15.000033,-5.490887,-4.872641,28.40223,-9.126522,12.274506,-27.702654,12.920628,30.374659,-28.125977,39.02014,27.885662,-18.729218,18.73661,-10.9080305,5.4226832,-33.60023,-26.654522
53,-105.61497497558594,-46.66586685180664,62.421043395996094,17.164964525096167,-8.75293205862184,-169.5995439264916,-18.749311,17.9228,-9.966345,99.823524,-24.917795,-5.9748507,-19.231323,-1.7397591,-33.84956,55.272957,-39.8632,-15.000033,-4.0230236,-3.933413,29.538443,-6.3308167,13.308058,-25.643473,16.698278,31.851604,-28.848427,40.144108,21.773474,-18.906706,19.37388,-11.231253,4.4670615,-33.276417,-27.29218
54,-107.69524383544922,-46.892372131347656,62.36122131347656,16.64682353572365,-8.622495256270321,-171.4229506584398,-21.938885,18.389261,-9.886046,99.98617,-25.61231,-5.419609,-16.666494,0.22945389,-33.22732,54.90043,-41.75693,-15.000033,-2.7338898,-3.3185856,29.793802,-3.0134137,14.5905485,-23.427076,20.275272,33.99317,-29.577805,41.03713,15.348971,-19.211678,20.482933,-11.156053,3.7156343,-32.828667,-27.597858
55,-109.79000091552734,-47.08403778076172,62.32753372192383,16.31321903751534,-8.403375103577433,-173.23199839261744,-25.115583,18.36666,-9.848973,99.50402,-25.825058,-5.2296996,-14.089482,2.0643551,-32.40787,54.245262,-43.48949,-15.000033,-1.6100544,-2.9491904,29.793802,0.75810033,16.12125,-21.28089,22.798418,36.13921,-30.215397,41.763664,8.833146,-19.544992,21.78207,-11.140453,3.1108558,-32.30992,-27.685928
56,-111.91427612304688,-47.1962890625,62.290931701660156,16.165374475277005,-8.158097864703466,-174.89063290315974,-28.143875,17.834713,-9.907279,98.382706,-25.723492,-5.345563,-11.514283,3.6043725,-31.429924,53.47443,-45.056107,-15.000033,-0.6149314,-2.8181667,29.793802,4.9783106,17.921638,-19.493227,23.6196,37.55212,-30.686457,42.358032,2.4946997,-19.826944,22.959267,-11.429336,2.618509,-31.748613,-27.619928
57,-114.08218383789062,-47.2391357421875,62.26535415649414,16.231036079660143,-7.86485028450017,-176.39215728081933,-31.03323,16.625553,-10.139696,96.60475,-25.305376,-5.8462677,-8.952962,4.788241,-30.252644,52.599716,-46.502373,-15.000033,0.28462133,-3.0043962,29.793802,9.653319,20.049526,-18.270864,22.434658,38.008884,-30.976208,42.790024,-3.7522926,-20.006102,23.960163,-12.012202,2.2116425,-31.136972,-27.295252
58,-116.2703857421875,-47.22318649291992,62.25916290283203,16.488551812138226,-7.506929783701037,-177.80544894535052,-33.770832,14.846994,-10.503098,94.14807,-24.524214,-6.7378087,-6.3693233,5.693759,-28.887314,51.54107,-47.81246,-15.000033,1.1393284,-3.5107865,29.793802,14.706718,22.50925,-17.40467,19.671501,37.902996,-31.1491,43.038708,-10.009822,-20.057783,24.87666,-12.811454,1.87359,-30.476606,-26.697388
59,-118.48001098632812,-47.148258209228516,62.26441192626953,16.866094393931018,-7.110638992319391,-179.09458109729889,-36.251656,12.8736,-10.875454,91.01818,-23.476881,-7.8468513,-3.7672074,6.3583093,-27.461908,50.332737,-48.881836,-15.000033,2.0199761,-4.2304864,29.793802,19.960106,25.184584,-16.594671,16.036987,37.420033,-31.257738,43.152485,-16.036636,-19.98299,25.593184,-13.779149,1.5859958,-29.791563,-26.021269
60,-120.71550750732422,-47.022804260253906,62.284706115722656,17.303532471144866,-6.712122964759022,179.7782948570433,-38.377316,11.048705,-11.119172,87.214455,-22.238327,-9.004973,-1.1447872,6.826531,-26.112427,49.011597,-49.61109,-15.000033,3.0069482,-5.0269375,29.793802,25.18875,27.892658,-15.562345,12.300968,36.7734,-31.336294,43.20523,-21.585587,-19.834229,25.952091,-14.863614,1.3208102,-29.097324,-25.455477
61,-122.98219299316406,-46.86196517944336,62.32190704345703,17.841315442234176,-6.292968673395875,178.865360556755,-40.16112,9.32477,-11.188562,82.57406,-20.715837,-10.356593,1.5596167,7.064314,-24.909687,47.3901,-50.000305,-15.000033,4.072561,-5.9014115,29.793802,30.347092,30.540216,-14.2757635,8.500511,35.94292,-31.325813,43.26327,-26.735113,-19.696295,25.806255,-16.05978,0.99744844,-28.324596,-24.998245
62,-125.28824615478516,-46.67950439453125,62.38777542114258,18.48804456375162,-5.850878509376421,178.13239681550726,-41.58693,7.553196,-11.171179,77.09894,-18.89784,-11.939726,4.339628,7.1064906,-23.779736,45.445557,-50.000305,-15.000033,5.183249,-6.86478,29.793802,35.438602,33.109737,-12.883876,4.4599338,34.893272,-31.228283,43.292526,-31.640903,-19.627996,25.269331,-17.34342,0.63843584,-27.477736,-24.56861
63,-127.62135314941406,-46.49098587036133,62.46341323852539,19.126208553855747,-5.333941947924334,177.52365381172405,-42.690037,5.908159,-11.119306,71.04721,-16.945595,-13.428478,6.8860927,7.0108447,-22.730036,43.81138,-50.000305,-15.000033,6.349968,-7.687562,29.251509,40.219704,35.51015,-11.6811695,0.98471224,33.741528,-31.144302,43.197674,-36.093525,-19.617773,24.732225,-18.29101,0.4209634,-26.69576,-24.24775
64,-129.98638916015625,-46.30284881591797,62.56096267700195,19.65262818404615,-4.878201500944003,176.92858211746474,-43.287674,4.580047,-11.076293,64.641716,-15.031654,-14.486074,9.305224,6.976114,-21.663212,42.470516,-49.387287,-15.000033,7.5710344,-8.308765,28.523024,44.709007,37.646187,-10.400508,-1.879091,32.767967,-31.190659,42.920223,-40.005764,-19.719786,24.41227,-19.09088,0.448497,-26.084509,-24.098516
65,-132.38743591308594,-46.087528228759766,62.66850662231445,20.139849917465966,-4.60874925409872,176.33975786978328,-43.161602,3.5312653,-11.00336,57.545284,-13.11109,-14.820682,11.894248,6.9969997,-20.60822,41.131702,-47.9265,-15.000033,8.826537,-8.810289,27.961113,49.004086,39.444084,-8.790542,-4.2688227,32.164673,-31.430151,42.41354,-43.609234,-20.05724,24.342405,-19.87691,1.0147417,-25.672367,-24.257582
66,-134.8348388671875,-45.82126998901367,62.76537322998047,20.501227998689288,-4.450133191163608,175.7698782637536,-42.424965,2.7868865,-10.997171,49.727974,-11.111318,-14.718278,14.630363,7.1574264,-19.591518,39.706783,-45.842205,-15.000033,10.09538,-9.076206,27.451113,53.084522,40.88475,-6.9609814,-6.306874,31.806324,-31.800611,41.719845,-46.896877,-20.673836,24.46623,-20.7231,1.9829161,-25.390423,-24.672546
67,-137.3137969970703,-45.518985748291016,62.847782135009766,20.73322201759839,-4.3672472017342,175.1620836390917,-41.191036,2.3805194,-10.918239,41.69467,-9.074309,-14.583805,17.237728,7.370407,-18.543884,38.63689,-43.258465,-15.000033,11.3793,-9.132314,27.00637,56.775738,41.983482,-5.087133,-8.045859,31.522455,-32.22345,40.958702,-49.47025,-21.496784,24.73332,-21.819197,2.777756,-25.177355,-25.119305
68,-139.81124877929688,-45.19961166381836,62.91041946411133,20.779584422578623,-4.31987771999796,174.44430868308766,-39.61755,2.3673613,-10.704757,34.011723,-7.05253,-14.8497305,19.455706,7.6208405,-17.414778,38.3188,-40.266796,-15.000033,12.679983,-8.9887295,26.626028,59.96672,42.784824,-3.312825,-9.580649,31.145462,-32.613304,40.249386,-50.937843,-22.377047,25.052477,-23.28271,2.7878675,-24.961037,-25.354874
69,-142.32937622070312,-44.88187026977539,62.96147155761719,20.676823614130726,-4.367340273060083,173.5712491587757,-37.459774,2.704326,-10.13575,26.303137,-4.822022,-15.000033,21.315521,7.821672,-16.282328,38.948673,-36.70158,-15.000033,14.013665,-8.712126,26.319527,62.798626,43.298332,-1.5577409,-10.953696,30.576471,-32.962246,39.60477,-51.272137,-23.206514,25.355488,-25.01968,1.6017593,-24.660673,-25.22868
70,-144.85995483398438,-44.56951141357422,62.98170852661133,20.314688236480787,-4.547003626482269,172.49374718755143,-34.614067,3.4761863,-9.392344,18.287073,-2.3447778,-15.000033,23.0592,8.167763,-15.124928,40.15756,-32.515617,-15.000033,15.400979,-8.164103,26.06979,65.350334,43.51312,0.21428753,-12.177494,29.912928,-33.30659,38.96791,-50.75142,-23.96236,25.68343,-26.849628,-0.3924034,-24.338713,-24.85424
71,-147.3836669921875,-44.25529479980469,62.9697265625,19.614652841546857,-4.786829636519104,171.24305336244575,-31.492395,4.7113304,-8.666605,10.677031,0.05797156,-15.000033,24.594929,8.773122,-13.88695,41.784103,-28.142029,-15.000033,16.753164,-7.284557,25.853125,67.45205,43.470757,1.8275466,-13.322593,29.289766,-33.62491,38.355373,-49.430454,-24.621021,26.082386,-28.775524,-2.6206787,-24.13239,-24.396227
72,-149.86305236816406,-43.90231704711914,62.93860626220703,18.741829312669694,-4.94027587295686,170.04786790665008,-30.006607,5.932733,-8.136111,7.087509,0.5555173,-15.000033,25.565691,9.439256,-12.76032,43.961273,-24.178278,-15.000033,17.84285,-6.3178163,25.618803,68.883934,43.259903,3.1067336,-14.414897,28.83247,-33.8954,37.788128,-47.37955,-25.163857,26.58582,-30.806437,-4.5191913,-24.165806,-24.043537
73,-152.25650024414062,-43.49309539794922,62.898277282714844,17.712146725644534,-4.8692755807119825,169.10681873709447,-30.135128,7.251642,-7.6546617,7.0016766,-0.86238116,-15.000033,25.609602,10.165985,-11.930401,46.95782,-20.426802,-15.000033,18.565195,-5.386395,25.251663,69.5417,42.941883,4.0315895,-15.447205,28.526348,-34.10148,37.251488,-44.43491,-25.572176,27.269201,-33.149376,-5.9807115,-24.570868,-23.78019
74,-154.56434631347656,-43.05714797973633,62.844722747802734,16.584762259376955,-4.653765233921406,168.3933211225061,-30.217049,8.8151,-7.038556,7.015787,-2.3504066,-15.000033,24.836546,10.689827,-11.712507,50.939606,-16.871592,-15.000033,18.950193,-4.515489,24.811476,69.50393,42.537373,4.658598,-16.376972,28.302603,-34.25601,36.750248,-40.70189,-25.851599,28.131428,-35.68547,-7.323159,-25.254454,-23.5367
75,-156.8544158935547,-42.69673156738281,62.80084228515625,15.984436208791209,-4.611628804314474,167.83682929297274,-29.77921,9.716879,-6.3666515,7.036905,-3.2967992,-15.000033,23.68729,10.195042,-11.720146,56.006176,-14.479577,-12.310159,18.936577,-4.112669,24.774168,68.8403,42.095448,4.9284244,-17.18079,28.196087,-34.38264,36.32996,-36.62555,-26.028305,29.106354,-37.94928,-8.633385,-25.991455,-23.425936
76,-159.14840698242188,-42.37968063354492,62.74958419799805,15.80747824301472,-4.63081350435665,167.30587218646133,-28.974323,9.949435,-6.1957693,7.0742145,-3.0004158,-15.000033,22.263882,8.994414,-11.924566,61.729305,-13.81572,-9.767851,18.60725,-4.076074,25.032757,67.576355,41.691555,4.7797585,-17.796667,28.227943,-34.504368,36.032818,-32.64022,-26.126606,30.075554,-39.466293,-9.967965,-26.547943,-23.569761
77,-161.3372344970703,-42.11030197143555,62.75638961791992,16.097123605469932,-4.622009027246779,166.80038425753955,-27.866823,9.367489,-6.9195104,7.159501,-0.6773299,-15.000033,20.577538,6.8684216,-12.624339,68.225716,-15.450607,-9.278376,18.01693,-4.444339,25.562157,65.545166,41.38682,4.083918,-18.194231,28.44851,-34.626934,35.86325,-28.648014,-26.152374,31.106943,-40.281536,-11.361209,-26.783808,-24.058016
78,-163.48123168945312,-41.862754821777344,62.75776672363281,16.77314718221324,-4.57304379968622,166.3298079502205,-27.195246,8.132626,-8.159936,8.856136,2.260711,-15.000033,18.67332,3.9576747,-13.521143,75.39904,-18.7964,-10.104532,17.215866,-5.1281276,26.27425,62.696556,41.196167,2.8270676,-18.32039,28.78973,-34.731075,35.81229,-24.57753,-26.096527,32.309906,-40.480278,-12.763967,-26.840948,-24.813564
79,-165.68072509765625,-41.604042053222656,62.67646026611328,17.62875290510402,-4.548817962546557,165.79977293756428,-27.20226,6.651416,-9.164507,12.619392,4.233934,-15.000033,16.74073,0.7347763,-14.234344,82.6153,-22.70704,-11.37726,16.254423,-5.927345,27.045086,59.26626,41.111065,1.1589851,-18.117922,29.097544,-34.801983,35.897907,-20.735699,-25.944471,33.52296,-39.75465,-14.106153,-26.904167,-25.713655
80,-167.88916015625,-41.34907913208008,62.52810287475586,18.39666314604533,-4.614046204075303,165.1362211207833,-27.153887,5.5374746,-9.361841,16.719786,4.8652945,-15.000033,14.867031,-2.3009746,-14.581919,89.31378,-26.038979,-12.286303,15.163602,-6.607529,27.758879,55.54684,41.11302,-0.7134619,-17.5949,29.23053,-34.827423,36.131386,-17.275486,-25.683147,34.489914,-37.92291,-15.326593,-27.158234,-26.638618
81,-170.0775909423828,-41.12309646606445,62.33214569091797,18.947673980185225,-4.82440490508971,164.29046906051397,-27.250381,4.9366617,-8.719032,21.718052,3.59779,-15.000033,13.145346,-5.123064,-14.658393,95.54497,-28.568632,-12.711105,13.931415,-7.0460157,28.416046,51.62122,41.18357,-2.8009748,-16.80583,29.096407,-34.81741,36.462162,-13.993198,-25.295822,35.11205,-34.948914,-16.270481,-27.744081,-27.575151
82,-172.20404052734375,-40.91488265991211,62.10676574707031,19.37024691379547,-5.149177444409555,163.27825840113385,-27.412731,4.693724,-7.5260887,27.528364,1.1447707,-15.000033,11.498846,-7.8729625,-14.499681,101.5911,-30.903025,-13.065442,12.594696,-7.3281713,29.062054,47.369408,41.290733,-5.158666,-15.785462,28.775719,-34.771362,36.90933,-10.706501,-24.777758,35.482265,-31.03857,-17.034512,-28.534582,-28.594213
83,-174.29257202148438,-40.677921295166016,61.83070373535156,19.734701298955546,-5.504919986810573,162.17564555944332,-27.340536,4.710518,-6.1254306,33.195576,-1.8933136,-15.000033,9.662843,-10.370976,-14.024851,107.26014,-33.106606,-13.355967,11.202841,-7.5665994,29.662905,42.793137,41.39408,-7.61678,-14.530337,28.408792,-34.66866,37.57768,-7.535615,-24.14353,35.56737,-26.437122,-17.939262,-29.307732,-29.704111
84,-176.31478881835938,-40.41510772705078,61.537193298339844,20.145279888204502,-5.702911133608027,161.08416274066295,-26.889662,4.779087,-4.85997,37.836838,-4.9247675,-15.000033,7.21089,-12.46398,-13.194822,112.390045,-35.226948,-13.5933075,9.742537,-7.901448,29.793802,37.906624,41.451035,-10.151496,-12.821764,28.085293,-34.49005,38.537205,-4.5656633,-23.392706,35.445473,-21.168932,-19.235203,-29.828419,-30.92258
85,-178.29083251953125,-40.11065673828125,61.259437561035156,20.744505906460777,-5.773581976756927,159.942648932611,-25.936293,4.7035494,-3.775316,41.38228,-8.104661,-15.000033,3.9762328,-14.119262,-11.822457,117.06378,-37.261745,-13.7792225,8.256929,-8.507939,29.793802,32.53889,41.489285,-12.759597,-10.4987955,27.91,-34.23956,40.06591,-1.8799828,-22.533297,34.89097,-15.067158,-21.239328,-29.93519,-32.41423
86,-180.2461700439453,-39.734561920166016,61.07320785522461,21.46580142298353,-5.771783051897759,158.72324364019332,-24.619658,4.5069985,-2.7311862,44.2962,-11.635274,-15.000033,0.14739794,-15.382661,-10.049633,121.34732,-39.137127,-13.893139,6.7782245,-9.315361,29.793802,26.751987,41.50998,-15.401322,-7.7810016,27.803423,-33.922165,42.048935,0.67779016,-21.597982,33.85414,-8.2887335,-23.727602,-29.746098,-34.093834
87,-182.17498779296875,-39.30826950073242,60.98178482055664,22.141155291160235,-5.697131258874868,157.52904970826597,-23.036379,4.2632823,-1.7828379,46.566364,-15.107641,-15.000033,-4.0270576,-16.315619,-8.313376,125.01407,-40.748478,-13.908992,5.3483596,-10.1804,29.793802,20.999329,41.448483,-17.59438,-5.436747,27.718304,-33.557755,43.949547,3.219152,-20.69504,32.445187,-1.7243277,-26.222143,-29.484186,-35.579838
88,-184.09767150878906,-38.83963394165039,60.95241165161133,22.61344086934457,-5.56300125138185,156.47004895866505,-21.258764,4.072133,-1.0056223,48.162518,-18.130796,-15.000033,-8.351925,-17.073853,-7.025985,127.83123,-41.986458,-13.834893,3.9375777,-10.949432,29.793802,15.725642,41.23933,-18.84976,-4.168873,27.650286,-33.182964,45.20313,5.830639,-19.97939,30.841742,3.7250173,-28.266806,-29.40579,-36.55802
89,-186.00914001464844,-38.292442321777344,60.96149826049805,22.837692339085347,-5.358357403281486,155.58450030359404,-19.266506,3.9790869,-0.46747103,48.99724,-20.680326,-15.000033,-13.039271,-17.747898,-6.2634225,129.73,-42.725388,-13.653045,2.462306,-11.544767,29.793802,10.909766,40.88481,-19.011251,-4.091047,27.828632,-32.83191,45.614967,8.594808,-19.570099,28.932133,7.8341913,-29.785614,-29.604952,-36.844486
90,-187.9251708984375,-37.680397033691406,60.98085021972656,22.911436139519868,-5.099441085127029,154.82224332350853,-17.042828,3.9306414,-0.13299513,49.157227,-22.974043,-15.000033,-18.192642,-18.345968,-5.8274856,130.83215,-42.988003,-13.434404,0.9214642,-12.000663,29.793802,6.2029047,40.436764,-18.468134,-4.7166057,28.211643,-32.491768,45.47327,11.619372,-19.504692,26.659025,10.8949585,-30.964262,-29.951536,-36.674454
91,-189.85415649414062,-36.998512268066406,61.005592346191406,22.899026195407444,-4.85361351647052,154.16459176869978,-14.6251335,3.8806546,0.035929393,48.830265,-24.973036,-15.000033,-23.449888,-18.941963,-5.705987,131.18182,-42.90117,-13.31034,-0.5870122,-12.318835,29.793802,1.4724405,39.901455,-17.612843,-5.767789,28.394667,-32.12797,44.95413,15.004385,-19.786966,24.279066,12.846052,-31.74276,-30.382097,-36.371136
92,-191.7816162109375,-36.23970031738281,61.03691864013672,22.85559928825122,-4.654775522991561,153.60096266068712,-12.094623,3.8028455,0.0949416,48.214546,-26.631302,-15.000033,-28.449474,-19.59802,-5.89754,130.84338,-42.632244,-13.403995,-2.0404274,-12.543212,29.650778,-3.3182561,39.22388,-16.767342,-6.9049096,27.978783,-31.703957,44.23766,18.70348,-20.388649,22.157856,13.836675,-32.060146,-30.826979,-36.24877
93,-193.71690368652344,-35.41547775268555,61.0941162109375,22.751960939130026,-4.416979784923676,153.20439118381358,-9.567389,3.7382772,0.030312344,47.30684,-28.018137,-15.000033,-33.28529,-20.374918,-6.5075793,129.80247,-42.245487,-13.791976,-3.588704,-12.7315,28.737268,-8.177476,38.28967,-16.026768,-7.772853,26.65117,-31.173183,43.27616,22.637941,-21.317293,20.61773,14.141956,-31.667767,-31.339375,-36.349262
94,-195.65487670898438,-34.52815246582031,61.17404556274414,22.555496702633278,-4.226129287635934,152.93517548394075,-6.8801646,3.733789,-0.20635553,46.02525,-29.14352,-15.000033,-37.869064,-21.245306,-7.572398,128.00937,-41.741764,-14.367167,-5.1028123,-12.774849,27.670153,-13.396976,37.102417,-15.230411,-8.589413,24.809479,-30.554419,42.04386,26.882265,-22.595493,19.217213,13.420838,-30.715454,-31.94078,-36.51075
95,-197.59228515625,-33.57318878173828,61.28953170776367,22.32332142127887,-4.049140006030318,152.72833671649943,-4.101039,3.7680175,-0.56084424,44.474636,-29.824867,-15.000033,-42.050278,-22.131641,-8.937522,125.551956,-41.145638,-14.991671,-6.58058,-12.706178,26.519596,-18.919653,35.722145,-14.483723,-9.106521,22.92594,-29.927607,40.74357,31.32564,-24.144638,17.881174,12.130086,-29.530005,-32.513306,-36.61236
96,-199.53799438476562,-32.550899505615234,61.4520263671875,22.126728881538753,-3.852518197168103,152.52248695282032,-1.2938026,3.7925904,-0.9713809,42.74199,-29.868713,-15.000033,-45.735542,-22.86008,-10.248195,122.521904,-40.45079,-15.000033,-8.025469,-12.58815,25.345413,-24.503422,34.25004,-13.82639,-9.236343,21.432392,-29.385517,39.54767,35.802273,-25.812141,16.51544,10.79539,-28.471235,-32.932625,-36.566128
97,-201.48907470703125,-31.453033447265625,61.65843200683594,22.018812166154532,-3.6533243095963406,152.366904356811,1.5901933,3.7640219,-1.4628031,40.710938,-29.224005,-15.000033,-48.9365,-23.528343,-11.632937,118.91588,-39.68877,-15.000033,-9.49329,-12.538679,24.142248,-30.06133,32.754112,-13.159346,-9.06052,20.422953,-28.963268,38.401863,40.241856,-27.491594,15.056263,9.585904,-27.781586,-33.129295,-36.36217
98,-203.43141174316406,-30.27823829650879,61.90049743652344,21.895016972904006,-3.399789574352424,152.23669576371105,4.5177646,3.8170109,-2.0189888,38.402,-28.010124,-15.000033,-51.701767,-24.080086,-13.243003,114.68932,-38.87019,-15.000033,-10.91609,-12.463619,22.886272,-35.543804,31.262163,-12.400605,-8.801314,19.647154,-28.60465,37.24608,44.705166,-29.142698,13.501334,8.277204,-27.267315,-33.188023,-36.066105
99,-205.36862182617188,-29.049747467041016,62.17051696777344,21.783102307324235,-3.1074938511047745,152.084797467126,7.398606,3.9125054,-2.617227,36.01435,-26.20177,-15.000033,-53.899937,-24.59392,-15.103012,109.935776,-38.033268,-15.000033,-12.28443,-12.344422,21.656216,-40.675404,29.828535,-11.623906,-8.660012,18.976154,-28.266182,36.218052,49.174976,-30.700407,11.858902,6.8571477,-26.645674,-33.212093,-35.71706
100,-207.3004913330078,-27.75391960144043,62.46794509887695,21.709287214800952,-2.797331216396478,151.8653317921394,10.143822,4.007041,-3.243013,33.75629,-23.775461,-15.000033,-55.404285,-25.136433,-17.265371,104.73559,-37.196663,-15.000033,-13.564682,-12.186545,20.524174,-45.2318,28.516203,-10.967749,-8.790352,18.259125,-27.899137,35.455654,53.579353,-32.090565,10.173291,5.357352,-25.640167,-33.302383,-35.34636
101,-209.23130798339844,-26.406024932861328,62.793785095214844,21.69639588656806,-2.445909258398231,151.59417660923268,12.747126,4.0768695,-3.9469855,31.590582,-20.537481,-15.000033,-56.125328,-25.879486,-19.946875,98.97784,-36.435886,-15.000033,-14.738643,-12.028006,19.48435,-49.286587,27.372309,-10.522759,-9.193735,17.483864,-27.477201,35.067154,57.851112,-33.2748,8.468126,3.853164,-24.11403,-33.4767,-35.020798
102,-211.17083740234375,-25.009063720703125,63.13241195678711,21.71947915111898,-2.0346817585441483,151.2738653760545,15.220867,4.1583333,-4.7025533,29.477554,-16.585724,-15.000033,-56.14624,-26.61498,-23.157227,92.64117,-35.679005,-15.000033,-15.80565,-11.889796,18.492746,-52.899982,26.389315,-10.265703,-9.831092,16.677921,-27.025171,34.95684,61.965496,-34.248596,6.756802,2.3738303,-22.264154,-33.682045,-34.70216
103,-213.08975219726562,-23.56694221496582,63.47828674316406,21.75410991848368,-1.6102203804707305,150.84676648346925,17.499521,4.253756,-5.402552,27.65911,-12.343654,-15.000033,-55.66056,-26.8705,-26.53152,85.914604,-34.718983,-15.000033,-16.724142,-11.771222,17.568958,-55.992573,25.540606,-10.221908,-10.6388445,15.685933,-26.57475,34.94658,65.889305,-35.005787,5.0862956,0.90051365,-20.30389,-33.90754,-34.25915
104,-215.0157012939453,-22.084487915039062,63.82453918457031,21.795460103512873,-1.2354414810443926,150.26287698266182,19.570992,4.3486967,-5.9358935,26.288792,-8.166746,-15.000033,-54.93724,-26.286572,-29.494272,78.95526,-33.334343,-15.000033,-17.472847,-11.695036,16.742228,-58.410915,24.758476,-10.415994,-11.616499,14.4314375,-26.14712,34.871105,69.57608,-35.55034,3.5213509,-0.5938035,-18.465996,-34.138477,-33.560497
105,-216.9492950439453,-20.558658599853516,64.14909362792969,21.847988237607456,-0.9312383399998606,149.50029422420118,21.577877,4.471522,-6.1980205,25.089436,-3.76257,-15.000033,-54.024452,-24.71229,-31.77206,71.43886,-31.30613,-15.000033,-18.013762,-11.654607,16.040953,-60.160698,23.96794,-10.9326315,-12.748209,12.612034,-25.740868,34.779152,73.10283,-35.90927,2.02691,-2.1450758,-16.839481,-34.37259,-32.43903
106,-218.89842224121094,-18.997941970825195,64.44271850585938,21.959859475074335,-0.7467101286940184,148.63986255923803,23.538828,4.561788,-6.344245,24.055023,0.9746109,-15.000033,-52.795567,-22.545399,-33.405727,63.363087,-28.829124,-14.47845,-18.383665,-11.681082,15.4759035,-61.430138,23.165884,-11.765696,-13.898705,10.323551,-25.35439,34.723385,76.51323,-36.07875,0.572081,-3.7678087,-15.290066,-34.602524,-31.011393
107,-220.86724853515625,-17.399566650390625,64.69855499267578,22.17674362131299,-0.7696058086307292,147.77793703604326,25.250599,4.4868627,-6.6680226,23.731596,5.417468,-15.000033,-51.25418,-20.31762,-34.4056,55.388145,-26.30952,-13.089915,-18.69715,-11.851927,15.072323,-62.102978,22.326086,-12.818475,-15.134724,8.283485,-24.979706,34.570667,79.59009,-36.061623,-0.7328636,-5.3947496,-13.723077,-34.812763,-29.562572
108,-222.82962036132812,-15.755335807800293,64.896240234375,22.460753744378433,-0.899530674520848,146.87961843164814,26.403963,4.1628337,-7.314456,24.710272,8.877434,-15.000033,-49.545124,-18.156065,-34.99719,48.015327,-24.027813,-11.776352,-18.872684,-12.116457,14.761737,-62.19902,21.45352,-13.996914,-16.403496,7.114576,-24.611572,34.156525,82.17314,-35.85605,-1.7727002,-6.987053,-12.049923,-34.99419,-28.382046
109,-224.78041076660156,-14.072935104370117,65.02594757080078,22.804522763134326,-1.153554302890519,145.91504066779248,26.97527,3.430494,-8.608036,27.154116,11.453542,-15.000033,-47.555164,-15.939551,-35.189213,41.01156,-21.877697,-10.392503,-18.885086,-12.459833,14.556788,-61.67905,20.546309,-15.309101,-17.799572,7.1143847,-24.206244,33.299892,84.34476,-35.48275,-2.5761414,-8.627505,-10.304369,-35.156895,-27.533775
110,-226.72164916992188,-12.385588645935059,65.09054565429688,23.22746681168348,-1.5233266650342807,144.91963664491672,27.1607,2.2681668,-10.432011,30.600285,13.527282,-15.000033,-45.235077,-13.636917,-34.942604,34.08298,-19.706234,-8.933224,-18.761112,-12.871334,14.458501,-60.578686,19.609985,-16.805285,-19.299942,7.8998594,-23.79776,32.110416,86.19606,-34.964676,-3.190291,-10.343971,-8.523166,-35.309273,-26.867079
111,-228.64901733398438,-10.702553749084473,65.12335205078125,23.756216426426825,-1.9625631778224584,144.01410937448853,27.08211,0.8246018,-12.294917,34.60381,14.873572,-15.000033,-42.827606,-11.662924,-34.38973,27.901613,-17.776001,-7.7072945,-18.585386,-13.355929,14.4387045,-59.00445,18.667942,-18.45677,-20.730265,9.085812,-23.490036,30.867193,87.56036,-34.314278,-3.5233815,-12.0039,-6.635077,-35.44599,-26.345943
112,-230.53182983398438,-9.0550537109375,65.11512756347656,24.374430274125135,-2.4032579246832673,143.27723554715877,26.769213,-0.5817738,-13.602499,38.870415,15.127282,-15.000033,-40.66999,-10.3682,-33.729958,23.33406,-16.406937,-6.985987,-18.394115,-13.881176,14.473452,-57.07145,17.754715,-20.23604,-21.914026,10.272107,-23.365377,29.86248,88.25202,-33.542168,-3.4767764,-13.45622,-4.5706463,-35.559994,-25.93444
113,-232.3536376953125,-7.445369720458984,65.05852508544922,25.1251857746698,-2.8570209232104453,142.68882191410637,26.220243,-1.9157467,-14.187622,43.628887,13.650638,-15.000033,-38.815384,-9.910355,-33.058918,20.762598,-15.814076,-6.3241615,-18.185118,-14.507738,14.574957,-54.713642,16.897928,-22.209112,-22.938875,11.58896,-23.508568,29.155094,88.207184,-32.641987,-2.9782789,-14.685338,-2.0253038,-35.631756,-25.691843
114,-234.12547302246094,-5.864297389984131,64.96585845947266,25.952026643828688,-3.3088577769666805,142.17130740575914,25.33148,-3.188353,-14.241695,49.105377,10.686797,-15.000033,-37.22603,-10.037244,-32.32549,19.854536,-15.845176,-5.7017155,-17.892513,-15.173269,14.755943,-51.947308,16.120384,-24.392015,-23.847754,13.163017,-23.857912,28.608156,87.53143,-31.618567,-2.106055,-15.7477665,0.8655046,-35.682774,-25.618477
115,-235.862060546875,-4.297684192657471,64.84529113769531,26.627430676473015,-3.6320191292391137,141.70917362946906,23.931532,-3.9951482,-13.713602,55.029205,7.1493034,-15.000033,-36.17107,-10.425109,-31.531355,20.56921,-16.379797,-6.048424,-17.46737,-15.611442,14.98823,-48.91379,15.433099,-26.687048,-24.458206,14.654961,-24.245827,28.230326,86.262535,-30.517126,-0.99564934,-16.587324,3.5190983,-35.75861,-25.578245
116,-237.5771942138672,-2.7374825477600098,64.70550537109375,26.94994366283896,-3.7337047079194,141.31231286811442,21.931051,-3.9624636,-12.66221,61.03719,4.0050635,-15.000033,-35.847775,-10.719504,-30.68339,22.808222,-17.286224,-8.313624,-16.885721,-15.599009,15.229429,-45.833565,14.857708,-28.95448,-24.498945,15.6307335,-24.502993,28.008667,84.43085,-29.400446,0.2396117,-17.131523,5.374841,-35.892776,-25.432386
117,-239.20884704589844,-1.1724853515625,64.56346130371094,26.90578989302638,-3.593509081377825,141.10454569869876,19.215023,-2.7669966,-10.941303,67.20929,1.5458124,-15.000033,-36.577477,-10.899922,-29.647745,27.08366,-18.299458,-13.802281,-16.300371,-15.117284,15.351972,-42.538742,14.420116,-31.295181,-24.005827,15.671947,-24.485653,27.92717,81.9694,-28.286615,1.5961396,-17.301115,6.207963,-36.13388,-25.052664
118,-240.96255493164062,0.3495532274246216,64.44434356689453,27.239621772535727,-4.0815402678027,141.6060378702157,16.317211,-1.3067133,-9.516323,73.55066,-0.5226551,-15.000033,-37.674023,-13.257801,-28.70224,34.337963,-19.785957,-15.000033,-16.469343,-15.052937,15.635962,-39.122013,14.153142,-33.693237,-22.961473,15.018828,-24.31545,28.00425,78.850716,-27.156296,3.1113636,-17.097708,6.3835974,-36.45216,-24.549074
119,-242.70370483398438,1.8562339544296265,64.28267669677734,27.461605210591898,-4.785975106314997,142.2089082407686,13.364046,0.41681322,-8.518392,79.84114,-2.7103553,-15.000033,-38.31781,-15.370778,-27.733198,41.075996,-20.760176,-15.000033,-16.724659,-14.954738,16.18116,-35.72993,14.028907,-35.92849,-21.358818,14.532241,-24.202171,28.286486,75.215225,-26.052254,4.7492013,-16.664248,6.2056623,-36.758083,-24.137712
120,-244.37705993652344,3.344933271408081,64.05189514160156,27.19662509093272,-5.331067159251436,142.44040650553734,10.416505,2.2613225,-8.104675,85.80116,-5.349425,-15.000033,-38.157017,-16.15275,-27.327692,45.912727,-21.717894,-15.000033,-16.522047,-14.447507,17.026285,-32.642834,14.012792,-37.68484,-19.063076,14.916588,-24.36447,28.791138,71.12561,-25.043247,6.4864645,-16.074728,6.00221,-36.95582,-24.045671
121,-245.90594482421875,4.819848537445068,63.764732360839844,26.227532854320074,-5.5132296507513425,142.23491201018177,7.3019714,4.2854424,-8.31641,91.53748,-8.627325,-15.000033,-37.27412,-15.753624,-28.092796,49.295296,-23.694378,-15.000033,-15.759083,-13.279852,18.083677,-29.85874,14.088206,-38.838474,-15.88474,16.71781,-24.922373,29.553947,66.46144,-24.155563,8.394878,-15.271897,5.948341,-36.99928,-24.361322
122,-247.3639678955078,6.3006744384765625,63.449459075927734,24.68653449942454,-5.4369208789031855,141.76893791944397,3.967439,6.590531,-9.003974,97.14874,-12.314702,-15.000033,-36.011284,-14.688915,-29.68257,52.19985,-26.641281,-15.000033,-14.705505,-11.559374,19.223457,-27.159117,14.259033,-39.478256,-11.977492,19.455372,-25.711763,30.593252,61.194584,-23.364664,10.457299,-14.228752,5.8769326,-36.94639,-24.984192
123,-248.8189697265625,7.8225998878479,63.121395111083984,22.8375868194692,-5.272502523687092,140.9896023165491,0.65801746,8.990217,-9.979603,102.3002,-16.000715,-15.000033,-34.352776,-13.056931,-31.490538,54.54591,-29.942278,-15.000033,-13.446779,-9.556295,20.438808,-24.420656,14.514308,-39.631657,-7.788301,22.330418,-26.519182,31.87749,55.483337,-22.674236,12.539983,-13.061107,5.592465,-36.850224,-25.848492
124,-250.25904846191406,9.367140769958496,62.860774993896484,20.998447338395085,-5.216964866370474,139.85323022680052,-2.4465227,11.474393,-10.823414,106.65117,-19.267408,-14.334309,-32.25241,-10.922633,-32.911,56.079178,-32.843105,-15.000033,-12.063053,-7.5996113,21.754406,-21.552046,14.829849,-39.334026,-3.7131553,24.50702,-27.163744,33.315716,49.465626,-22.119188,14.546856,-11.887074,4.8979826,-36.756405,-26.887945
125,-251.70664978027344,10.931994438171387,62.6901969909668,19.50422799368699,-5.412181141526889,138.21607928234886,-5.286784,13.996977,-11.034198,110.10464,-21.955297,-12.385531,-29.63563,-8.473311,-33.556774,56.797714,-35.25846,-15.000033,-10.518851,-6.0434914,23.27706,-18.471012,15.152543,-38.39827,0.5105077,25.71129,-27.623432,34.9866,42.830853,-21.765337,16.667961,-10.507256,3.5623395,-36.688232,-28.331257
126,-253.15652465820312,12.499675750732422,62.58165740966797,17.81233043542575,-5.744942722208576,136.15470775034066,-7.9534507,16.536497,-11.441267,112.93055,-24.371998,-10.64488,-26.38743,-5.2608705,-34.004597,56.46312,-37.374763,-15.000033,-8.865831,-4.3082767,24.971773,-15.139889,15.462554,-36.794987,4.9277124,26.388159,-28.0057,36.870304,35.615997,-21.600187,18.94214,-9.035438,1.7851514,-36.58174,-30.156406
127,-254.5896759033203,14.02907943725586,62.52643966674805,16.26724059851531,-6.1221464305932,133.98231067327586,-10.724367,18.698792,-11.971116,115.11267,-26.418364,-9.143492,-22.95358,-1.9696798,-34.07436,55.63328,-39.284584,-15.000033,-7.2850666,-2.6764772,26.55397,-11.607359,15.812545,-34.86719,8.8574095,26.759995,-28.361073,38.693134,28.430721,-21.526907,21.097363,-7.9638815,-0.028022967,-36.36967,-31.8895
128,-256.00146484375,15.576749801635742,62.527992248535156,15.194178216791013,-6.4052668517435665,131.99951628101581,-13.860494,20.0954,-12.506463,116.632675,-27.99654,-7.898724,-19.771168,0.6854791,-33.72458,54.931576,-41.144196,-15.000033,-5.851821,-1.4658105,27.7821,-7.991587,16.302898,-33.020542,11.652825,27.054459,-28.7263,40.196644,21.816252,-21.433964,22.86248,-7.6316857,-1.5094348,-36.02752,-33.012913
129,-257.35577392578125,17.208112716674805,62.511741638183594,14.690439113925505,-6.550770976240246,130.24490716868348,-17.469875,20.57617,-12.958885,117.48006,-29.039995,-6.880113,-16.917831,2.525199,-32.982212,54.526497,-43.024567,-15.000033,-4.545033,-0.8492932,28.68614,-4.2646346,17.021536,-31.269157,13.111411,27.151035,-29.128113,41.359676,15.728035,-21.257307,24.313425,-8.005185,-2.6490166,-35.554253,-33.277077
130,-258.662353515625,18.880735397338867,62.47710418701172,14.572393992111216,-6.603032935651939,128.54941211100112,-21.355215,20.392511,-13.2659445,117.64452,-29.574749,-6.068335,-14.158746,3.8838422,-31.914886,54.125572,-44.84563,-15.000033,-3.2725513,-0.6941742,29.42195,-0.29473397,17.991514,-29.409216,13.493298,26.958923,-29.551031,42.29081,9.778252,-20.993319,25.689781,-8.741694,-3.6458054,-34.99589,-32.95639
131,-259.94158935546875,20.590909957885742,62.45452117919922,14.72888003603885,-6.505259162718573,126.90361724980797,-25.324512,19.77697,-13.344696,117.12002,-29.660898,-5.5079784,-11.533981,4.8513274,-30.611565,53.6958,-46.561413,-15.000033,-1.9922605,-0.8724078,29.793802,3.9292228,19.19912,-27.535332,12.996052,26.737444,-29.95383,42.924202,3.9663217,-20.64509,27.016712,-9.553302,-4.436833,-34.419262,-32.31874
132,-261.18646240234375,22.33510971069336,62.42510223388672,15.045659248840737,-6.251206147020737,125.29452509683979,-29.144535,18.972355,-13.162401,115.89757,-29.377499,-5.248701,-9.041198,5.5515113,-29.135458,53.188587,-48.101704,-15.000033,-0.6264068,-1.2260594,29.793802,8.271606,20.596785,-25.775896,11.821338,26.796831,-30.277578,43.230312,-1.6873013,-20.223444,28.192734,-10.285281,-5.004709,-33.88564,-31.64136
133,-262.41436767578125,24.12044906616211,62.40742111206055,15.551609954535426,-5.873999211601898,123.65371922315435,-32.695145,17.956808,-12.662564,113.92406,-28.707624,-5.393977,-6.619532,5.9981375,-27.413609,52.589657,-49.541843,-15.000033,0.8983395,-1.7968769,29.793802,12.678699,22.204002,-24.046856,9.553603,27.436354,-30.487583,43.11902,-7.309938,-19.773489,29.128832,-11.169975,-5.3400497,-33.435715,-30.903477
134,-263.61199951171875,25.94631004333496,62.41209030151367,16.2464376322951,-5.293976004626039,122.03067057945385,-36.137062,16.703075,-11.905106,111.185036,-27.635773,-5.9221845,-4.270545,6.2967005,-25.39237,51.44129,-50.000305,-15.000033,2.5318253,-2.6248755,29.449205,17.278412,23.975,-22.370348,6.3969755,28.35639,-30.627247,42.620792,-12.811001,-19.260975,29.98189,-12.069938,-5.416153,-33.03395,-30.01116
135,-264.7952880859375,27.809598922729492,62.454097747802734,16.803168878055544,-4.592400158896663,120.53706529807248,-39.400555,15.545382,-11.269475,107.774925,-26.352907,-6.754988,-1.8744768,6.6684895,-23.438343,49.81904,-50.000305,-15.000033,4.172264,-3.346766,28.80486,21.92757,25.819937,-20.755009,2.9534352,29.229242,-30.74828,41.96607,-18.105377,-18.697119,30.699831,-12.8603945,-5.3877864,-32.622215,-29.095903
136,-265.9827575683594,29.704710006713867,62.52116012573242,17.298608419894993,-3.9606029915732863,119.28261149501209,-42.218075,14.488041,-10.6794,103.733086,-24.99802,-7.664666,0.60266286,6.847517,-21.796886,48.22054,-50.000305,-15.000033,5.6878834,-3.9894292,28.162691,26.417152,27.654194,-19.165155,-0.25672194,29.790688,-30.881195,41.41826,-23.151665,-18.153175,31.201956,-13.560622,-5.458253,-32.125935,-28.299747
137,-267.1772766113281,31.62922477722168,62.60222625732422,17.939678238477676,-3.394688171910309,118.3368025343022,-44.549164,13.425903,-9.838769,98.89027,-23.502575,-8.652085,3.1782374,6.582573,-20.540228,46.605877,-50.000305,-15.000033,7.0152063,-4.698489,27.483631,30.625235,29.436897,-17.635136,-3.0744233,29.968458,-31.002148,41.038548,-28.071793,-17.709476,31.434605,-14.140714,-5.758097,-31.461414,-27.614914
138,-268.3965759277344,33.600799560546875,62.710018157958984,18.748160628456567,-2.828721601571851,117.6290264337368,-46.41452,12.2585335,-8.677865,93.23568,-21.822369,-9.7873535,5.753168,5.9284005,-19.550262,45.00859,-50.000305,-15.000033,8.2086115,-5.4930525,26.708677,34.58292,31.169556,-16.18182,-5.7178545,29.950119,-31.099977,40.697765,-32.894814,-17.409134,31.48885,-14.676179,-6.1730795,-30.683031,-26.991543
139,-269.6257629394531,35.62394714355469,62.827579498291016,19.693038037022596,-2.312181348335081,117.03324524022274,-47.68123,10.94624,-7.3349295,86.9802,-20.082035,-10.937918,8.1855,4.959469,-18.728565,43.857723,-50.000305,-15.000033,9.34608,-6.3811374,25.963923,38.34353,32.841568,-14.7501135,-8.176437,29.833605,-31.218447,40.352192,-37.41979,-17.261606,31.517992,-15.252711,-6.502115,-29.915096,-26.49698
140,-270.8604431152344,37.68518829345703,62.93065643310547,20.730291131697992,-1.8809979583649106,116.41154718356968,-48.27867,9.509124,-5.9918084,80.325096,-18.417427,-11.911631,10.306004,3.756506,-17.946436,43.613163,-50.000305,-15.000033,10.524445,-7.366885,25.364885,41.96622,34.432457,-13.2717085,-10.4365835,29.719973,-31.403511,39.95845,-41.4212,-17.253626,31.651194,-15.94107,-6.54742,-29.275791,-26.196363
141,-272.0805358886719,39.77616882324219,63.0050048828125,21.74804670057114,-1.5584743666996361,115.75430629007616,-48.226887,7.9937267,-4.9410253,73.0645,-16.904459,-12.524552,12.250716,2.5073936,-17.220606,44.086025,-50.000305,-15.000033,11.729574,-8.322349,24.911331,45.515457,35.940754,-11.690521,-12.475816,29.637812,-31.689972,39.514442,-45.120415,-17.423805,31.963696,-16.619871,-6.0016713,-28.789116,-26.213364
142,-273.2630920410156,41.93412780761719,63.08796310424805,22.31118603312916,-1.4220546340493316,115.18137818379623,-47.622036,6.650147,-4.643764,65.199844,-15.477755,-12.964185,14.731109,1.9600383,-16.614119,43.459248,-48.262497,-15.000033,12.817456,-8.7890835,24.518188,48.880375,37.35636,-10.082557,-14.257715,29.547892,-32.045536,39.048004,-48.55318,-17.810156,32.41204,-17.338388,-5.0566998,-28.393808,-26.479698
143,-274.4284973144531,44.14042282104492,63.156883239746094,22.70621924678962,-1.3911702152125993,114.61572157495726,-46.48769,5.4995103,-4.6091714,57.095924,-13.991249,-13.420975,17.22569,1.5942445,-16.087324,42.82243,-45.60932,-15.000033,13.878217,-9.089591,24.19494,51.985874,38.660843,-8.488673,-15.840304,29.44268,-32.41867,38.540382,-51.27749,-18.358406,32.882484,-18.290932,-4.226322,-28.06552,-26.759613
144,-275.5804138183594,46.38203048706055,63.1983757019043,22.851966742655986,-1.4466572178894443,114.0263971366139,-44.950058,4.6823373,-4.768594,49.220436,-12.318113,-14.198249,19.434898,1.3919196,-15.654501,42.775066,-42.62689,-15.000033,14.908587,-9.186551,23.90939,54.7346,39.81553,-6.9739976,-17.244013,29.321505,-32.75567,37.985355,-52.86297,-18.970755,33.233414,-19.566753,-4.0479355,-27.778591,-26.79165
145,-276.7335510253906,48.64772415161133,63.22090148925781,22.858721135673477,-1.6647162642385058,113.41690915236275,-42.719067,4.0362115,-4.9804006,41.04305,-10.087203,-15.000033,21.402754,1.1450638,-15.467095,43.49882,-39.114067,-15.000033,15.864768,-9.200169,23.694773,57.2582,40.78181,-5.447312,-18.457558,29.209179,-33.048317,37.321106,-53.292225,-19.57371,33.382084,-21.064138,-4.8307858,-27.508398,-26.387033
146,-277.9045715332031,50.925575256347656,63.21833801269531,22.713638322783652,-2.0590192110047916,112.74219037853427,-39.695538,3.5744343,-5.296721,32.26476,-7.357108,-15.000033,23.254923,0.89825064,-15.440873,44.798737,-35.058453,-15.000033,16.753536,-9.077972,23.560493,59.610104,41.547207,-3.8941643,-19.504856,29.1052,-33.327652,36.56777,-52.85805,-20.146112,33.412918,-22.615927,-6.2418184,-27.284754,-25.691788
147,-279.0678405761719,53.21532440185547,63.17409133911133,22.253780952106055,-2.5348895465078294,111.95417382738049,-36.342354,3.6381397,-5.842662,23.812727,-4.6743455,-15.000033,24.871677,0.9297327,-15.270575,46.53373,-30.953285,-15.000033,17.578766,-8.645512,23.459818,61.54892,42.122295,-2.5210855,-20.445366,28.981274,-33.597748,35.8452,-51.602856,-20.670324,33.431946,-24.198006,-7.8494415,-27.154873,-24.949547
148,-280.20050048828125,55.50201416015625,63.09192657470703,21.46606855054941,-2.979270303249548,111.12479956606762,-33.357384,4.3180714,-6.3632503,16.989061,-2.7222052,-15.000033,26.021814,1.3285849,-14.808933,48.738564,-27.403082,-15.000033,18.244347,-7.8963556,23.336802,62.79285,42.546795,-1.5564406,-21.309734,28.811642,-33.858723,35.27682,-49.581005,-21.135324,33.551632,-25.79659,-9.218985,-27.14933,-24.416824
149,-281.27685546875,57.76071548461914,62.9723014831543,20.32338302076877,-3.285688716084543,110.44738867474612,-31.322805,5.642438,-6.505919,12.636214,-2.3395374,-15.000033,26.419441,2.2407362,-14.09842,51.638454,-24.407581,-15.000033,18.634638,-6.8894114,23.055037,63.24301,42.852882,-1.066818,-22.110361,28.574942,-34.129284,34.91184,-46.57614,-21.518465,33.870396,-27.624628,-10.236598,-27.339108,-24.117641
150,-282.3084716796875,59.949363708496094,62.817848205566406,19.00455796515987,-3.5014369433353334,109.98822094449346,-30.079254,7.2480984,-6.2991867,10.336387,-3.153527,-15.000033,26.103138,3.3187857,-13.530404,55.42054,-21.879683,-15.000033,18.702188,-5.8056197,22.682816,62.968323,43.058273,-0.98659366,-22.788181,28.289516,-34.4009,34.684654,-42.685577,-21.805592,34.359745,-29.610743,-11.1656885,-27.688911,-23.943666
151,-283.315673828125,62.07855224609375,62.652523040771484,17.871678747746067,-3.692949488907722,109.68120999552733,-29.344751,8.524859,-6.1417513,9.667707,-4.074021,-15.000033,25.250856,3.9127839,-13.411402,60.060677,-20.271833,-15.000033,18.42483,-4.9155045,22.441175,61.95252,43.198166,-1.3332176,-23.267763,27.987635,-34.632874,34.543476,-38.42652,-22.005949,34.94247,-31.308514,-12.140499,-28.054777,-23.956146
152,-284.350830078125,64.12812805175781,62.5094108581543,17.364446062506996,-3.981620208967061,109.44681236517854,-28.526186,8.814446,-6.422508,9.731394,-3.7045715,-15.000033,24.140106,3.4200046,-13.727388,65.45085,-19.992474,-14.720527,17.78993,-4.536992,22.603138,60.17759,43.317616,-2.138295,-23.468008,27.695154,-34.78034,34.440414,-34.258038,-22.138374,35.504322,-32.285797,-13.287888,-28.283836,-24.215044
153,-285.3845520019531,66.01348876953125,62.46428680419922,17.517270260154895,-4.304798207333187,109.33505714706568,-27.774982,7.852769,-7.6275244,10.815921,-0.9777554,-15.000033,22.748554,1.8422221,-14.316762,71.735405,-21.416126,-14.278447,16.803726,-4.693667,23.128023,57.467255,43.427452,-3.5428193,-23.369217,27.35886,-34.801937,34.298615,-30.048306,-22.204601,36.069263,-32.588673,-14.5962925,-28.278345,-24.758057
154,-286.44720458984375,67.92237091064453,62.359703063964844,18.103262641089156,-4.608200347440804,109.31538493187213,-27.332151,6.1250052,-9.125905,13.343458,3.0511262,-15.000033,21.077435,-0.45874354,-15.071177,78.78505,-24.176481,-14.516972,15.559653,-5.209572,23.850721,53.82776,43.505955,-5.55822,-22.973282,26.955692,-34.72183,34.187454,-25.657621,-22.18602,36.73246,-32.349274,-16.007397,-28.132391,-25.558784
155,-287.52099609375,69.859619140625,62.196285247802734,18.904531205178266,-4.924889837585735,109.19810814148855,-27.048708,4.335618,-9.980635,16.863178,6.5266633,-15.000033,19.286682,-3.1262445,-15.676033,85.9868,-27.438885,-15.000033,14.184366,-5.8965406,24.663122,49.55029,43.53913,-7.9668593,-22.257898,26.554775,-34.596745,34.27079,-21.436743,-22.07169,37.38477,-31.305084,-17.559341,-27.966768,-26.577671
156,-288.5771789550781,71.7652816772461,61.97342300415039,19.62471527065016,-5.279503841549728,108.83478677823435,-26.848307,3.1336343,-9.864721,20.950758,7.629887,-15.000033,17.43734,-5.7174315,-15.881038,92.77089,-30.37192,-15.000033,12.764444,-6.5051556,25.455908,44.960117,43.532986,-10.501066,-21.241058,26.229954,-34.48778,34.6978,-17.63457,-21.867027,37.83953,-29.267721,-19.299782,-27.894958,-27.771805
157,-289.5862121582031,73.59381866455078,61.71564483642578,20.174776603665485,-5.737298282798792,108.15217885045249,-26.825033,2.6323214,-8.8652115,26.038235,5.308592,-15.000033,15.666883,-8.281601,-15.836742,99.22218,-32.91522,-15.000033,11.295582,-6.96129,26.295872,40.07528,43.492508,-13.188396,-19.913177,25.888721,-34.413315,35.53654,-14.153233,-21.573687,38.021774,-26.054169,-21.205477,-27.97086,-29.353323
158,-290.5495910644531,75.36722564697266,61.42335510253906,20.651192212810322,-6.283840220832333,107.20807917428836,-26.862562,2.5209994,-7.330242,32.03794,0.75828433,-15.000033,13.925356,-10.910555,-15.471158,105.59493,-35.48187,-15.000033,9.791719,-7.360588,27.222672,34.84047,43.379795,-16.041069,-18.375895,25.50983,-34.33738,36.710033,-10.756567,-21.197788,37.97201,-21.91463,-23.27555,-28.092018,-31.283443
159,-291.4727478027344,77.09090423583984,61.17724609375,21.143401094634523,-6.82318319359881,106.1072067506354,-26.53012,2.5570347,-5.6470075,37.670834,-4.4427843,-15.000033,11.976321,-13.433966,-14.750174,111.58544,-37.980824,-15.000033,8.290093,-7.8296375,28.142202,29.419357,43.16575,-18.769823,-16.760944,25.2939,-34.246365,38.115875,-7.46138,-20.777975,37.63415,-17.338856,-25.592026,-28.146132,-33.139057
160,-292.3847351074219,78.81322479248047,61.0257682800293,21.793678076825948,-7.2313525607625,104.96801347764419,-25.533829,2.4353678,-4.116556,41.774437,-8.701873,-15.000033,9.484203,-15.769462,-13.67665,116.909225,-40.27782,-15.000033,6.8190126,-8.545594,28.94429,23.932514,42.863937,-21.117807,-15.153115,25.447552,-34.126675,39.631607,-4.3027716,-20.373096,36.943485,-12.806394,-28.227182,-28.042295,-34.495377
161,-293.1965026855469,80.54975128173828,60.9489860534668,22.823919225480648,-7.4631832724740965,103.7339420738265,-23.724234,1.929092,-2.7067327,43.981922,-11.707565,-15.000033,6.1501155,-18.088028,-12.056529,121.63013,-42.321533,-15.000033,5.4314632,-9.7188425,29.690178,18.052935,42.564156,-23.27626,-13.188768,26.266323,-33.993877,41.492138,-1.2221526,-20.006006,35.652164,-8.203213,-31.622175,-27.675453,-35.195976
162,-293.9173278808594,82.30573272705078,60.92814254760742,24.10004731638131,-7.4146892387069405,102.42574856541827,-21.558937,1.1796672,-1.2941104,45.023438,-14.251387,-15.000033,1.8985487,-20.352776,-9.948892,125.91505,-44.111805,-15.000033,4.0414004,-11.214387,29.793802,11.864681,42.24675,-25.539848,-10.679938,27.452,-33.80866,43.66778,1.9773042,-19.638681,33.947273,-3.1605082,-35.48233,-27.14625,-35.44054
163,-294.5247802734375,84.09567260742188,60.91670227050781,25.275731726344336,-7.223497958527448,101.15620433464089,-19.246387,0.4292238,-0.051315736,45.429802,-16.527544,-15.000033,-2.8646953,-22.245607,-7.8135448,129.51813,-45.53033,-15.000033,2.715168,-12.672642,29.793802,5.7289495,41.89001,-27.373507,-8.551674,28.61525,-33.52864,45.61609,5.1620154,-19.390566,31.929863,1.4594159,-39.082443,-26.689144,-35.41501
164,-295.1048583984375,85.89512634277344,60.92436218261719,26.00378615644456,-6.959838760788026,100.06960545305589,-17.052881,-0.04468145,0.8600474,45.721306,-18.734001,-15.000033,-7.8518825,-23.53466,-6.1507316,132.23146,-46.46568,-15.000033,1.431621,-13.713072,29.793802,0.056073047,41.460655,-28.40407,-7.493788,29.292606,-33.15945,46.758614,8.372738,-19.430483,29.880962,4.902063,-41.6145,-26.49288,-35.38024
165,-295.6788330078125,87.72461700439453,60.96355438232422,26.15264057424381,-6.621905474703813,99.20546567985953,-15.033201,-0.097910754,1.374103,46.028973,-21.015121,-15.000033,-13.259877,-24.183037,-5.1356683,134.00494,-46.765266,-15.000033,0.17519522,-14.15545,29.793802,-5.17683,40.95323,-28.518053,-7.735267,29.414923,-32.72335,46.770874,11.774539,-19.918797,27.759233,6.766049,-42.79013,-26.65734,-35.33838
166,-296.2165832519531,89.61054992675781,61.004756927490234,25.94816543917861,-6.140461984784221,98.5312084147012,-13.109812,0.09876599,1.596336,46.09632,-23.241274,-15.000033,-19.317709,-24.41404,-4.5506988,134.95515,-46.433365,-15.000033,-1.1987623,-14.232916,29.353794,-10.140766,40.34125,-28.071314,-8.605182,29.178255,-32.24936,46.013092,15.512692,-20.859602,25.605547,7.5426135,-42.934586,-27.06024,-35.16234
167,-296.71783447265625,91.55265808105469,61.05213928222656,25.58707498674907,-5.590038427593103,98.04013328863458,-11.206764,0.36627868,1.598931,45.855133,-25.222569,-15.000033,-25.587309,-24.44365,-4.3482885,135.10806,-45.65043,-15.000033,-2.7396617,-14.1285305,28.378374,-14.887291,39.58844,-27.394451,-9.532213,28.583834,-31.764145,44.942364,19.574331,-22.168522,23.594267,7.628351,-42.24881,-27.549232,-34.929165
168,-297.1461181640625,93.5326919555664,61.10804748535156,25.243352236406054,-5.1424854555287896,97.67562984179331,-9.111025,0.54977876,1.4377061,45.216194,-26.772099,-15.000033,-31.438025,-24.463266,-4.4655313,134.48131,-44.670307,-15.000033,-4.3246045,-13.957496,27.376057,-19.606403,38.701595,-26.694443,-10.259583,27.695507,-31.284157,43.99383,23.919542,-23.73145,21.640831,7.103769,-41.059296,-27.960789,-34.792698
169,-297.5135192871094,95.54080200195312,61.18467330932617,24.87134332858397,-4.78889817248858,97.49872805294478,-6.827882,0.6964724,1.0456506,44.114887,-27.954441,-15.000033,-36.843384,-24.41268,-4.959699,133.01363,-43.56224,-15.000033,-6.000004,-13.705732,26.277344,-24.34274,37.65716,-25.960072,-10.72998,26.311306,-30.807293,43.22426,28.510103,-25.48203,19.7529,6.006167,-39.0856,-28.311678,-34.83422
170,-297.8232727050781,97.61051177978516,61.324520111083984,24.387087019188737,-4.480635152819526,97.49673018329185,-4.4083247,0.9230238,0.40356424,42.61837,-28.847815,-15.000033,-41.916866,-24.271257,-5.865121,130.6997,-42.323215,-15.000033,-7.7391043,-13.29744,25.057856,-29.163643,36.44582,-25.113873,-11.042502,24.524345,-30.315449,42.436413,33.341408,-27.39603,17.851957,4.300985,-36.320587,-28.680557,-34.95022
171,-298.0748291015625,99.73394775390625,61.52610778808594,23.89521767843072,-4.226651279903983,97.54230608664248,-1.8370467,1.1866505,-0.33591914,40.833897,-29.245014,-15.000033,-46.420834,-24.243223,-7.021646,127.69811,-41.09347,-15.000033,-9.466393,-12.81896,23.846409,-33.97837,35.10339,-24.186737,-11.156219,22.762835,-29.810318,41.664288,38.292732,-29.3855,15.906695,2.3000844,-33.464184,-28.998098,-35.02713
172,-298.2710266113281,101.90806579589844,61.778648376464844,23.499294331099048,-4.03834517231104,97.51077781095084,0.9011768,1.434364,-1.0276438,38.858013,-28.93962,-15.000033,-50.15006,-24.492844,-8.303035,124.17668,-39.9702,-15.000033,-11.106925,-12.37644,22.7514,-38.62588,33.706215,-23.19933,-11.090835,21.441456,-29.297443,40.92959,43.193787,-31.315575,13.880752,0.36874798,-31.240282,-29.184834,-34.980057
173,-298.404296875,104.12025451660156,62.07378005981445,23.20450863782642,-3.922629233738288,97.38959126563273,3.8919492,1.6885053,-1.6600608,36.565525,-27.874945,-15.000033,-53.076466,-25.024025,-9.74673,120.11202,-38.963707,-15.000033,-12.648628,-12.029024,21.782618,-43.081753,32.32067,-22.068064,-10.889599,20.843369,-28.767868,40.20946,47.964336,-33.095093,11.683152,-1.3317872,-30.149843,-29.149387,-34.830925
174,-298.4903259277344,106.36969757080078,62.405364990234375,22.946894056273457,-3.8432222745063545,97.23523900174241,7.0733323,1.9969709,-2.2910287,33.95095,-26.17678,-15.000033,-55.295593,-25.706102,-11.462348,115.46223,-38.05829,-15.000033,-14.103096,-11.718405,20.868542,-47.4241,31.009367,-20.798326,-10.591151,20.613516,-28.225315,39.491436,52.681995,-34.68172,9.309764,-2.9472833,-29.742119,-28.961695,-34.637047
175,-298.53912353515625,108.64131164550781,62.77802658081055,22.72629353894999,-3.7547617977440453,97.0262724565563,10.227588,2.3462148,-2.8583875,31.302547,-23.856056,-15.000033,-56.811665,-26.47676,-13.484118,110.35291,-37.257942,-15.000033,-15.470485,-11.430457,19.997541,-51.3256,29.801409,-19.52558,-10.452494,20.40802,-27.668041,38.83063,57.241714,-36.028095,6.9683294,-4.48766,-29.34035,-28.781189,-34.369743
176,-298.5357666015625,110.9242172241211,63.183326721191406,22.54984286950824,-3.618746643124105,96.73581156275425,13.1419,2.7043123,-3.3157592,28.94046,-20.966455,-15.000033,-57.633446,-27.267494,-15.853184,104.88713,-36.54924,-15.000033,-16.690775,-11.146784,19.167372,-54.62966,28.71486,-18.459763,-10.596517,19.769876,-27.092506,38.275852,61.51565,-37.10656,4.889032,-5.951795,-28.281038,-28.761177,-33.997185
177,-298.4824523925781,113.23704528808594,63.61689758300781,22.437097189898836,-3.4263594101135015,96.39306782046911,15.820637,3.054493,-3.7095613,26.826498,-17.296375,-15.000033,-57.63188,-28.324978,-18.846453,98.967636,-36.062378,-15.000033,-17.738623,-10.89242,18.398365,-57.39254,27.731272,-17.674278,-11.047833,18.449438,-26.481361,37.941833,65.46906,-37.941162,3.1658335,-7.3370895,-26.226116,-28.976566,-33.488895
178,-298.3919982910156,115.57893371582031,64.05801391601562,22.367467969009816,-3.1829024054572046,95.9741231476428,18.321516,3.4189327,-4.037177,24.912703,-12.949846,-15.000033,-56.804623,-29.450237,-22.556458,92.56512,-35.726364,-15.000033,-18.587059,-10.664702,17.69352,-59.7049,26.822193,-17.11114,-11.725343,16.692244,-25.834597,37.782562,69.14138,-38.56843,1.7000595,-8.654827,-23.604528,-29.319456,-32.851215
179,-298.2497863769531,117.96500396728516,64.5001449584961,22.313380927242722,-2.889482218923913,95.38022616751101,20.539927,3.76753,-4.1919093,23.476145,-8.408496,-15.000033,-55.47081,-29.956785,-26.490524,85.83757,-35.197723,-15.000033,-19.17059,-10.441451,17.040298,-61.4528,25.965479,-16.795317,-12.605467,14.799593,-25.164446,37.607224,72.50951,-39.002087,0.44570935,-9.940643,-20.925201,-29.670614,-32.1082
180,-298.0679931640625,120.38999938964844,64.93122100830078,22.274935494658756,-2.5711874616065638,94.53573281136983,22.408848,4.040195,-4.09101,22.735464,-4.0999227,-15.000033,-54.08778,-29.31826,-29.817709,78.90312,-34.110886,-15.000033,-19.44186,-10.229508,16.4372,-62.511314,25.138988,-16.762287,-13.678575,13.088903,-24.47191,37.22295,75.50129,-39.24723,-0.6192207,-11.192069,-18.702625,-29.92431,-31.299696
181,-297.85235595703125,122.83841705322266,65.3353271484375,22.252693908348558,-2.2265075073432983,93.38811534361334,24.051409,4.2934837,-3.4922721,22.449104,0.29903662,-15.000033,-52.79897,-27.288952,-32.05866,71.38515,-32.2007,-15.000033,-19.357002,-10.013835,15.886194,-62.779003,24.306295,-17.045141,-15.024868,11.325395,-23.695034,36.57485,78.19016,-39.320625,-1.5263958,-12.472408,-17.12129,-30.047485,-30.348492
182,-297.6112365722656,125.29496002197266,65.68914794921875,22.263767823296018,-1.9009161536951702,92.01646735584939,25.507696,4.506361,-2.5860333,22.584686,4.8962464,-15.000033,-51.39134,-24.3281,-33.402676,63.24972,-29.734838,-15.000033,-18.96137,-9.812188,15.421383,-62.355328,23.445862,-17.64001,-16.601696,9.467495,-22.842487,35.775814,80.615265,-39.24231,-2.2600484,-13.795341,-15.895547,-30.101189,-29.26802
183,-297.334228515625,127.76648712158203,65.98210144042969,22.32730308827503,-1.6830579940041734,90.56970714116721,26.609985,4.529222,-1.96073,23.560564,9.014626,-15.000033,-49.793945,-21.08118,-34.031216,55.15047,-27.13555,-15.000033,-18.376696,-9.669044,15.080095,-61.40736,22.57517,-18.520906,-18.226671,8.115318,-22.025555,34.857544,82.65313,-39.015022,-2.7500496,-15.094518,-14.861596,-30.134666,-28.242296
184,-297.0288391113281,130.2659912109375,66.22736358642578,22.482309712375546,-1.6631471061745735,89.23894559644033,27.214243,4.1747713,-2.2395432,25.677988,12.050867,-15.000033,-47.958057,-18.289389,-34.248276,47.876343,-24.807007,-14.275936,-17.770584,-9.637702,14.892274,-60.114834,21.733147,-19.650494,-19.72436,7.8327656,-21.372244,33.825798,84.16072,-38.641518,-2.9196815,-16.290648,-13.858049,-30.199556,-27.44805
185,-296.71539306640625,132.75900268554688,66.40519714355469,22.770098620078283,-1.869812262799061,88.02851394975914,27.265884,3.1474216,-3.9282222,29.146646,13.99717,-15.000033,-45.844807,-15.988885,-34.178898,41.44096,-22.676306,-12.961658,-17.171114,-9.740611,14.870422,-58.418953,20.95259,-21.072828,-21.16047,9.092542,-20.946278,32.523773,85.14287,-38.125996,-2.7577221,-17.406404,-12.953612,-30.31682,-26.971825
186,-296.38372802734375,135.23617553710938,66.54330444335938,23.160966766401202,-2.166904205380924,86.83735448333725,26.917704,1.4423877,-6.52046,33.556427,15.312525,-15.000033,-43.52808,-13.787523,-33.72558,35.39508,-20.524843,-11.642806,-16.472334,-9.912144,14.95285,-56.261684,20.249197,-22.796495,-22.607777,11.470804,-20.727354,30.972267,85.6791,-37.48693,-2.3056903,-18.482405,-12.204496,-30.467335,-26.701984
187,-296.041259765625,137.6728973388672,66.63077545166016,23.664695320689876,-2.504074636615919,85.76939936383286,26.344952,-0.6564746,-9.18125,38.356796,16.024157,-15.000033,-41.213642,-11.964186,-33.01396,30.199785,-18.643612,-10.5092745,-15.762576,-10.161457,15.105716,-53.80017,19.631205,-24.721178,-23.921047,14.196925,-20.700346,29.451097,85.712685,-36.761,-1.5625365,-19.445827,-11.425159,-30.638407,-26.512823
188,-295.708251953125,140.06190490722656,66.6745376586914,24.234002743440374,-2.8310651309828008,84.90218127490135,25.605745,-2.6089764,-11.048251,43.160126,15.991567,-15.000033,-39.142487,-10.740136,-32.241096,26.425644,-17.356934,-9.73675,-15.099037,-10.460405,15.300815,-51.21671,19.107086,-26.74373,-24.92353,16.482195,-20.792622,28.24314,85.16622,-35.992573,-0.5143475,-20.201555,-10.416563,-30.811495,-26.28062
189,-295.38226318359375,142.39035034179688,66.67039489746094,24.932030975676838,-3.192811768352294,84.25110553424425,24.68341,-4.308633,-11.943049,48.147194,14.725946,-15.000033,-37.298153,-10.294176,-31.516195,24.34383,-16.842932,-8.868173,-14.522587,-10.898389,15.548163,-48.46532,18.694492,-28.992577,-25.64547,18.263891,-21.032543,27.458315,83.9812,-35.200344,0.90742934,-20.73967,-8.9648905,-30.979473,-25.978054
190,-295.0471496582031,144.6719207763672,66.62068176269531,25.722593800899013,-3.587203412401205,83.74171157470583,23.461985,-5.865758,-12.204198,53.625782,12.292395,-15.000033,-35.66044,-10.448281,-30.786915,23.744802,-16.934694,-7.9366736,-13.990643,-11.4437275,15.855404,-45.500664,18.409634,-31.494263,-26.116117,19.959902,-21.417282,26.949226,82.175255,-34.3803,2.6827106,-21.061554,-7.2059116,-31.146252,-25.677532
191,-294.70709228515625,146.92462158203125,66.53236389160156,26.371018155475454,-3.8938499894505902,83.33170398731542,21.78182,-6.887625,-11.831955,59.39416,9.371008,-15.000033,-34.45183,-10.8267565,-30.035746,24.479567,-17.479834,-7.8753905,-13.409189,-11.852584,16.163418,-42.680294,18.284367,-33.91095,-26.036013,21.287676,-21.799473,26.585072,79.802864,-33.520447,4.691994,-21.085924,-5.4487753,-31.308834,-25.406096
192,-294.3511962890625,149.1393280029297,66.42516326904297,26.661747046935172,-4.006338160938589,82.99621040831539,19.542555,-7.012389,-10.930096,65.16801,6.706077,-15.000033,-33.849934,-11.0080595,-29.241955,26.35184,-18.314888,-9.634587,-12.811006,-11.894323,16.45025,-39.745686,18.26282,-36.02389,-25.58457,22.471102,-22.013405,26.273584,76.86319,-32.655933,6.7804246,-20.759161,-4.029381,-31.469732,-25.172407
193,-293.9598388671875,151.28988647460938,66.30089569091797,26.543686451516376,-3.858327735322044,82.86046359794877,16.582666,-5.8768477,-9.372679,71.02292,4.5258656,-15.000033,-34.19406,-10.899521,-28.278355,29.769423,-19.231558,-14.416218,-12.272328,-11.504231,16.552383,-36.831158,18.34977,-37.763195,-24.60148,23.162836,-21.941788,25.902369,73.34799,-31.756706,8.952803,-20.029772,-2.974542,-31.603428,-24.922323
194,-293.65716552734375,153.50486755371094,66.20187377929688,26.758370850602613,-4.24583475330213,83.42167293348679,13.444682,-4.4174323,-8.006912,76.88842,2.694691,-15.000033,-34.91142,-12.751631,-27.390564,35.795467,-20.644133,-15.000033,-12.516911,-11.506647,16.77784,-33.83266,18.536734,-39.250618,-23.192703,23.505165,-21.684917,25.570654,69.24834,-30.790194,11.221921,-18.941664,-2.1123948,-31.721739,-24.671959
195,-293.3462829589844,155.7194061279297,66.04558563232422,26.765336834630467,-4.738330568836617,84.00379434708336,10.247132,-2.5621607,-6.912166,82.623,0.7208013,-15.000033,-35.328114,-14.190947,-26.573885,41.417587,-21.634226,-15.000033,-12.791806,-11.367059,17.193169,-30.882761,18.795664,-40.362896,-21.312937,23.712328,-21.436543,25.407848,64.73894,-29.768309,13.504785,-17.639761,-1.4387159,-31.882393,-24.570312
196,-293.0021057128906,157.86114501953125,65.82239532470703,26.315873631098796,-5.152850140935436,84.1836321823687,7.1626635,-0.57542694,-6.3480673,87.97719,-1.6406428,-15.000033,-34.994987,-14.482961,-26.311699,45.51951,-22.632195,-15.000033,-12.673091,-10.846299,17.90679,-28.082287,19.086798,-40.946304,-18.923405,24.012426,-21.397118,25.53956,59.898643,-28.743227,15.734711,-16.206995,-0.937697,-32.142628,-24.768856
197,-292.6084899902344,159.89764404296875,65.54576873779297,25.203481166536243,-5.3929622501500685,83.89285692403385,4.084751,1.651049,-6.3745737,93.0362,-4.5383363,-15.000033,-33.86586,-13.719134,-27.104532,48.384914,-24.495949,-15.000033,-12.081533,-9.720022,18.892834,-25.373985,19.3805,-40.85177,-16.001236,24.46481,-21.553501,25.916946,54.613205,-27.741465,17.969912,-14.5064125,-0.5462295,-32.6287,-25.3638
198,-292.2050476074219,161.88999938964844,65.23796844482422,23.556028299387346,-5.515606584530804,83.32405099441023,0.90400517,4.22589,-6.8523316,97.88576,-7.784409,-15.000033,-32.279236,-12.343114,-28.597654,50.804398,-27.170086,-15.000033,-11.257873,-8.080722,20.028992,-22.632399,19.664434,-40.137302,-12.623395,24.952675,-21.819653,26.498213,48.88993,-26.748585,20.189152,-12.585657,-0.27731314,-33.27579,-26.277826
199,-291.7662048339844,163.9045867919922,64.92172241210938,21.67234610231538,-5.592600392615808,82.45743477109963,-2.2404163,6.8313394,-7.605778,102.25286,-11.0340395,-15.000033,-30.324512,-10.507362,-30.1756,52.717175,-30.127584,-15.000033,-10.251851,-6.2156157,21.268679,-19.865103,19.92479,-38.973927,-8.874528,25.450861,-22.286932,27.416718,42.93842,-25.774405,22.257738,-10.770574,-0.2348051,-33.84922,-27.39902
200,-291.29132080078125,165.9205780029297,64.64698028564453,19.880220728705115,-5.7068856078376236,81.27254877031949,-5.2228503,9.160354,-8.474829,105.870834,-13.941432,-15.000033,-28.078121,-8.306225,-31.275345,53.92813,-32.724277,-15.000033,-9.090198,-4.451669,22.581047,-17.107985,20.146875,-37.545532,-4.780891,25.942518,-23.045208,28.807056,36.94389,-24.852604,24.090183,-9.368095,-0.5114355,-34.107456,-28.608015
201,-290.77203369140625,167.94935607910156,64.44239807128906,18.136038271219384,-5.924231382697457,79.59249493259286,-7.924678,11.2189865,-9.416103,108.67619,-16.444307,-15.000033,-25.368547,-5.4567337,-31.79974,54.117477,-34.74327,-15.000033,-7.671266,-2.7603977,24.09293,-14.352017,20.274424,-35.69932,0.06468587,26.309992,-24.217806,30.962065,30.692055,-24.0439,25.856815,-8.303776,-1.2340485,-33.92701,-30.09324
202,-290.26959228515625,169.9668426513672,64.29414367675781,16.354667479008945,-6.222374725603824,77.47890567993677,-10.51745,13.250006,-10.359082,110.82119,-18.662994,-14.630584,-22.218813,-2.0456274,-31.906015,53.438763,-36.467007,-15.000033,-6.036451,-1.0130348,25.727465,-11.532592,20.28195,-33.37881,5.5441575,26.652502,-25.724232,33.73429,24.187456,-23.353348,27.598413,-7.5420575,-2.2761078,-33.429317,-31.839558
203,-289.81103515625,171.97674560546875,64.21235656738281,15.071736458424361,-6.5427633615547025,75.29395454318532,-13.322883,15.077626,-10.789153,112.305,-20.462723,-13.246768,-19.063961,0.909315,-31.430866,52.69767,-38.165302,-15.000033,-4.3927746,0.29475883,27.186676,-8.645912,20.239637,-30.94036,10.865287,27.281973,-27.333242,36.61839,17.85303,-22.724855,29.081411,-7.314607,-3.3772488,-32.753902,-33.39966
204,-289.3293151855469,173.9854736328125,64.18133544921875,14.227040467600576,-6.751565141063165,73.33919281466298,-16.481699,16.432999,-11.122763,113.21817,-21.89959,-11.922464,-16.126524,3.1865103,-30.666107,52.10838,-39.871483,-15.000033,-2.8481877,1.2079602,28.247494,-5.7064724,20.282303,-28.757,15.233782,28.468777,-28.785595,39.130993,12.022104,-22.098545,30.083044,-7.7018003,-4.3256764,-32.06744,-34.312164
205,-288.7583312988281,175.9873809814453,64.1279067993164,13.868904539808188,-6.803734955256918,71.64423767300634,-20.083372,17.26769,-11.292517,113.567635,-22.968864,-10.648043,-13.489273,4.6653523,-29.669739,51.8206,-41.660343,-15.000033,-1.414847,1.6034334,28.935818,-2.6860948,20.528059,-26.750607,18.617035,30.527628,-30.119026,41.225407,6.6360135,-21.440983,30.660994,-8.69624,-5.1603827,-31.430056,-34.30275
206,-288.12164306640625,177.9981689453125,64.08169555664062,13.870607437907532,-6.735501840601364,70.03824321662907,-23.933626,17.671865,-11.263149,113.31373,-23.69461,-9.437055,-10.969949,5.6304526,-28.457983,51.585686,-43.46268,-15.000033,-0.035099283,1.5633025,29.408737,0.55180234,21.017456,-24.699009,21.233088,33.211914,-31.384628,43.180904,1.3637799,-20.752708,31.079556,-10.051515,-5.9877577,-30.774126,-33.651535
207,-287.4328918457031,179.9969482421875,64.04402160644531,14.1015369305727,-6.539988000379126,68.53539745441068,-27.81826,17.773705,-11.026619,112.42635,-24.104277,-8.371116,-8.532907,6.2473764,-27.112225,51.2317,-45.14522,-15.000033,1.2565814,1.2206895,29.628761,4.1320543,21.768705,-22.738985,22.734524,35.88979,-32.37922,44.9482,-3.912403,-20.040106,31.448515,-11.438133,-6.717442,-30.084034,-32.747047
208,-286.69207763671875,181.9979705810547,64.02127075195312,14.430891834144667,-6.217264977368465,67.15757083141786,-31.543655,17.703554,-10.619023,110.88275,-24.225618,-7.532104,-6.130913,6.684605,-25.71777,50.581207,-46.576942,-15.000033,2.4544032,0.7251989,29.545273,8.109198,22.774658,-21.070183,22.84431,37.89044,-32.9429,46.422432,-9.240957,-19.315073,31.787313,-12.588268,-7.2561955,-29.33423,-31.969576
209,-285.9041748046875,184.00909423828125,64.02400970458984,14.858153507993809,-5.716144509120708,65.93284606738438,-35.185955,17.415443,-10.0519705,108.66119,-24.028015,-6.966347,-3.8074863,6.962825,-24.263681,49.586185,-47.813705,-15.000033,3.5432756,0.06587734,29.075106,12.519768,24.060144,-19.859756,21.201046,38.904102,-32.967285,47.456165,-14.673192,-18.567003,32.096333,-13.502025,-7.579493,-28.506502,-31.356997
210,-285.05218505859375,186.03128051757812,64.05113220214844,15.425024609600657,-5.049597777232645,64.8544412707644,-38.735382,16.895048,-9.267578,105.75312,-23.532537,-6.646756,-1.5794095,7.02559,-22.740881,48.332245,-48.889595,-15.000033,4.5280175,-0.8152749,28.298933,17.289055,25.62564,-18.99302,18.097689,39.270554,-32.622498,48.07464,-20.167742,-17.77729,32.376614,-14.314294,-7.746053,-27.625586,-30.739279
211,-284.1567687988281,188.07618713378906,64.12413024902344,16.071470449116028,-4.319144405896725,63.89680384241667,-41.913612,16.304699,-8.252132,102.18023,-22.838572,-6.5379314,0.6520289,6.9203324,-21.23782,46.848057,-49.655334,-15.000033,5.4523344,-1.8209924,27.379375,22.223108,27.38493,-18.27665,14.334485,39.31432,-32.16991,48.43877,-25.59474,-16.97195,32.588566,-14.990531,-7.7875996,-26.715408,-30.175104
212,-283.2313537597656,190.12454223632812,64.22122192382812,16.74437572671677,-3.6258243713614546,63.03164547517748,-44.46533,15.786332,-7.0064106,97.962776,-22.037207,-6.6047525,2.9929438,6.6880293,-19.84611,45.162163,-49.968163,-15.000033,6.369782,-2.8352768,26.461157,27.0995,29.197458,-17.49879,10.76333,39.3863,-31.84927,48.735912,-30.801775,-16.222433,32.687984,-15.525253,-7.735388,-25.792429,-29.721163
213,-282.2771911621094,192.212158203125,64.35066986083984,17.460000261482694,-2.9536604246206792,62.320919289611474,-46.416927,15.4397135,-5.375262,93.00267,-21.129286,-6.8017344,5.5542116,6.3221817,-18.647215,43.00883,-49.862385,-15.000033,7.246984,-3.8007977,25.4902,31.808985,30.973568,-16.70356,7.577368,39.571133,-31.698063,48.989742,-35.8894,-15.611976,32.631977,-15.9143915,-7.6219573,-24.785534,-29.435999
214,-281.28753662109375,194.3410186767578,64.51104736328125,18.23193247083511,-2.2653584028862834,61.76883645823269,-47.843323,15.1020155,-3.4152255,87.29822,-20.05345,-7.22811,8.2519,5.812842,-17.588509,40.47532,-49.421185,-15.000033,8.051662,-4.7288184,24.412708,36.349712,32.70107,-16.015957,4.483343,39.73943,-31.594494,49.129322,-40.904762,-15.187553,32.50224,-16.228,-7.404837,-23.702478,-29.288744
215,-280.2591552734375,196.5174560546875,64.69850158691406,18.99653120691438,-1.6287006219511577,61.250551293979605,-48.62169,14.552701,-1.4341147,81.0139,-18.818514,-7.933185,10.913317,5.2112627,-16.572243,38.105583,-48.571827,-15.000033,8.86966,-5.599133,23.367622,40.691036,34.355762,-15.310633,1.586923,39.92071,-31.529781,49.206253,-45.517654,-14.963935,32.435158,-16.63345,-7.0728908,-22.668615,-29.203747
216,-279.1866760253906,198.71292114257812,64.8844985961914,19.69323895894291,-1.1072295445215636,60.63007480059598,-48.69164,13.654826,0.17717062,74.29134,-17.443748,-8.901985,13.381878,4.585462,-15.502027,36.399437,-47.206192,-15.000033,9.779548,-6.4121513,22.483957,44.86169,35.901653,-14.408756,-1.0369259,40.143314,-31.496572,49.269497,-49.43722,-14.938205,32.546562,-17.22668,-6.582072,-21.80647,-29.096226
217,-278.0696716308594,200.92282104492188,65.06263732910156,20.39296973993975,-0.7060079353328201,59.82715621905894,-47.951443,12.36357,1.2736833,66.80246,-15.88706,-10.040124,15.751505,3.892595,-14.330327,35.287415,-45.195255,-15.000033,10.848484,-7.2408514,21.78545,48.990383,37.31534,-13.160472,-3.405932,40.56518,-31.493526,49.366302,-52.839176,-15.145121,32.889774,-17.890316,-5.6172214,-21.14315,-28.998762
218,-276.8954162597656,203.1423797607422,65.22978210449219,21.08530049749313,-0.3958033590955091,58.91162606576391,-46.493988,10.904135,1.9347888,58.50095,-14.160716,-11.251067,18.100471,3.1402879,-13.143528,34.51166,-42.60339,-15.000033,12.013476,-8.051452,21.204437,53.07444,38.585155,-11.641527,-5.570688,41.12918,-31.525976,49.458344,-55.86745,-15.607413,33.40968,-18.59908,-4.2514286,-20.607119,-28.942608
219,-275.68011474609375,205.36456298828125,65.38072204589844,21.604498264496357,-0.1860376506479336,57.959178504666156,-44.55256,9.577057,2.134342,49.936947,-12.354417,-12.503028,20.26408,2.469775,-12.060517,34.245453,-39.582363,-15.000033,13.183883,-8.702165,20.723425,56.930557,39.70314,-10.017317,-7.493064,41.549984,-31.593817,49.467228,-58.054214,-16.260605,34.037716,-19.599468,-3.147257,-20.168262,-28.825207
220,-274.4341125488281,207.59095764160156,65.50804138183594,21.79192668019602,-0.08862680947011653,57.03982374982625,-42.349545,8.612512,1.9186052,41.6665,-10.529855,-13.841829,22.061659,2.0262768,-11.187324,34.692154,-36.280155,-15.000033,14.225152,-9.069179,20.296364,60.414856,40.658173,-8.438136,-9.15004,41.537212,-31.697622,49.31597,-59.085854,-17.006838,34.65615,-20.954742,-2.8733125,-19.80119,-28.514315
221,-273.1910705566406,209.82766723632812,65.6130142211914,21.6750835725033,-0.15569358300136787,56.17215072562723,-39.630352,7.817823,1.2771013,33.166557,-8.417141,-15.000033,23.428656,1.7449697,-10.612199,36.103535,-32.468616,-15.000033,15.078724,-9.18315,19.884945,63.64816,41.407093,-6.85104,-10.532114,40.828064,-31.837778,48.936466,-58.932453,-17.778036,35.155407,-22.552711,-3.8498282,-19.48384,-27.833797
222,-271.9757385253906,212.0823211669922,65.68572998046875,21.2950315197854,-0.4207652486419449,55.239900419102334,-36.112377,7.2214828,0.26106045,23.977491,-5.9309573,-15.000033,24.553844,1.5825855,-10.242553,38.301064,-28.144062,-15.000033,15.84968,-9.031862,19.552717,66.687805,41.933582,-5.2069893,-11.683107,39.647854,-32.008724,48.383785,-57.76482,-18.543823,35.623394,-24.293869,-5.759701,-19.25718,-26.866549
223,-270.756103515625,214.32888793945312,65.71873474121094,20.472023775118537,-0.8550817561208722,54.14993870254529,-32.19746,7.428094,-1.0175893,15.133592,-3.5000021,-15.000033,25.571003,1.7620984,-9.922009,40.922318,-23.837095,-15.000033,16.556747,-8.417982,19.33868,69.33753,42.27663,-3.6665585,-12.678314,38.429214,-32.202892,47.770706,-55.858566,-19.295149,36.15815,-26.060194,-7.807728,-19.186474,-25.8602
224,-269.5165100097656,216.54534912109375,65.73057556152344,19.38423839671138,-1.3646254394519197,53.085128124665,-28.29908,8.384484,-1.9091729,7.3012147,-1.2489933,-15.000033,26.327145,2.0979981,-9.761736,43.969376,-20.289404,-15.000033,17.02918,-7.5497293,19.266111,71.35039,42.536083,-2.3865838,-13.561142,37.607117,-32.419018,47.21135,-53.316612,-20.022984,36.893936,-27.882715,-9.358173,-19.300892,-25.09048
225,-268.28411865234375,218.67807006835938,65.72054290771484,18.194390437260335,-1.8549257182839585,52.33002393864516,-27.76385,9.633616,-2.4734135,7.1122403,-2.6872494,-15.000033,26.509441,2.4439816,-9.986906,47.831413,-17.629112,-15.000033,17.058897,-6.685696,19.274273,72.62107,42.79417,-1.3903745,-14.289943,37.304028,-32.69408,46.709343,-50.02397,-20.727875,37.980087,-29.94643,-10.167973,-19.656239,-24.616276
226,-267.0677490234375,220.71852111816406,65.69190979003906,16.9791811826658,-2.338139672060201,51.89116661470378,-27.074175,11.046409,-2.4667478,7.034605,-3.8980403,-15.000033,26.06542,2.5889022,-10.706251,52.734486,-15.68325,-15.000033,16.684517,-5.887928,19.37182,73.205246,43.082592,-0.6460665,-14.817637,37.263653,-33.016315,46.216446,-45.97515,-21.414286,39.364,-32.183704,-10.705439,-20.215313,-24.305155
227,-265.8793640136719,222.70533752441406,65.65084075927734,16.031849871219375,-2.8219577397808417,51.662580063740315,-26.178741,12.167392,-2.1713634,7.0005465,-4.6667614,-15.000033,25.154902,2.1044173,-11.839842,58.45654,-14.763122,-15.000033,15.971911,-5.356013,19.66407,73.099556,43.434937,-0.22086236,-15.149413,37.334858,-33.31725,45.770897,-41.657204,-22.09184,40.8197,-34.093628,-11.200509,-20.853094,-24.14271
228,-264.72412109375,224.6921844482422,65.57794952392578,15.545715502468255,-3.28526861822079,51.54253761530551,-25.08413,12.63638,-1.9810683,6.975212,-4.719332,-15.000033,23.96158,0.852991,-13.095931,64.593285,-15.06962,-14.723541,14.990742,-5.2070117,20.175255,72.29647,43.89094,-0.1852136,-15.289815,37.365517,-33.524273,45.40943,-37.45447,-22.753637,42.08441,-35.23655,-11.888151,-21.439,-24.127663
229,-263.587890625,226.67025756835938,65.46781921386719,15.438409636846332,-3.601019240087301,51.57388991768451,-23.929886,12.517106,-2.0897443,6.996092,-3.7679203,-15.000033,22.416061,-1.0481158,-14.545792,71.18911,-16.98565,-15.000033,13.729,-5.394528,20.788097,70.629456,44.499573,-0.6469327,-15.224891,37.405712,-33.616047,45.103535,-33.24593,-23.367132,43.212917,-35.641575,-12.928286,-21.870733,-24.283115
230,-262.5321044921875,228.58038330078125,65.40221405029297,15.785174852898725,-3.8853686299265178,51.786406053688445,-22.556564,11.818671,-2.1978648,7.033313,-2.0091076,-15.000033,20.671522,-3.5136127,-15.87793,78.3156,-20.30124,-15.000033,12.169782,-5.960859,21.555079,68.07168,45.276264,-1.655193,-14.910747,37.47204,-33.624954,44.855217,-28.954134,-23.89864,44.38046,-35.40246,-14.152647,-22.236921,-24.619638
231,-261.5548400878906,230.44175720214844,65.33966827392578,16.465639006513445,-4.233548492013057,52.02466650258616,-20.965523,10.7446575,-2.266733,7.1168475,0.12836698,-15.000033,18.96444,-6.343517,-16.989075,85.46391,-24.117027,-15.000033,10.448194,-6.759289,22.417479,64.81915,46.185463,-3.145281,-14.313088,37.375435,-33.559803,44.743053,-24.825111,-24.325388,45.417896,-34.313747,-15.355728,-22.685673,-25.132399
232,-260.574951171875,232.3343963623047,65.17473602294922,17.21560228347191,-4.662312010452534,52.105672754038935,-20.072275,9.613341,-2.4258187,9.038837,1.2871945,-15.000033,17.363413,-9.247778,-17.81161,92.13513,-27.485584,-15.000033,8.735647,-7.53992,23.269821,61.12235,47.16697,-4.9804726,-13.442119,36.94322,-33.434986,44.83784,-20.995125,-24.642052,46.076244,-32.275402,-16.337656,-23.365564,-25.815838
233,-259.6248779296875,234.25289916992188,64.94255065917969,18.004313310375046,-5.195635449496737,51.95831078332513,-19.882689,8.36713,-2.607454,12.931756,1.6985403,-15.000033,15.989453,-12.375181,-18.462692,98.36743,-30.237028,-15.000033,7.0386133,-8.299248,24.132313,57.09994,48.16934,-7.150054,-12.390597,35.94215,-33.262806,45.176987,-17.302588,-24.84914,46.274128,-29.251606,-16.941996,-24.422747,-26.691315
234,-258.6964111328125,236.17654418945312,64.66707611083984,18.90769288288135,-5.801277736598711,51.655740106621195,-19.680122,6.947685,-2.4978392,17.331953,2.1726453,-15.000033,14.749415,-15.767228,-18.899773,104.38975,-32.824482,-15.000033,5.3045607,-9.144424,25.012146,52.650036,49.155495,-9.681393,-11.193969,34.527855,-33.04534,45.718166,-13.583828,-24.940922,46.117973,-25.424362,-17.330404,-25.741089,-27.771502
235,-257.7685241699219,238.0594482421875,64.35376739501953,19.833959904788973,-6.421328236129638,51.24251539261557,-19.396103,5.606999,-2.0130818,21.893042,2.0971153,-15.000033,13.304874,-18.99257,-18.935568,110.00127,-35.22954,-15.000033,3.6025724,-10.0016575,25.857191,47.741302,50.083252,-12.44356,-9.808375,33.127357,-32.784664,46.404266,-9.922677,-24.921955,45.5791,-21.048214,-17.776619,-27.07193,-29.030573
236,-256.8475341796875,239.8784637451172,63.98976516723633,20.69972936064684,-6.991994051079002,50.76519604377439,-18.89282,4.560427,-1.3328301,26.096125,0.99830115,-15.000033,11.266941,-21.619234,-18.455364,114.99213,-37.431503,-15.000033,2.004016,-10.801064,26.639618,42.36098,50.917145,-15.27668,-8.199779,32.170223,-32.476986,47.16877,-6.4162536,-24.807608,44.610363,-16.371483,-18.542776,-28.157639,-30.442547
237,-255.91046142578125,241.63522338867188,63.64425277709961,21.582776689465444,-7.522045058036139,50.19184580305207,-18.178911,3.747669,-0.60665536,30.061417,-1.6369898,-15.000033,8.344041,-23.571781,-17.27359,119.435196,-39.39902,-15.000033,0.50878394,-11.607873,27.454117,36.32722,51.674393,-18.269758,-6.1471977,31.894085,-32.1092,48.108574,-3.061366,-24.591679,43.030365,-11.168822,-19.883976,-28.897665,-32.20541
