unveil-humanoid-operators/unveil-humanoid-operators.github.io/feature-analysis-animation/data/feature_matrix_extreme/weight_kneeling_shoulder_peak_vel_low.csv
Frame,root_translateX,root_translateY,root_translateZ,root_rotateX,root_rotateY,root_rotateZ,left_hip_pitch_joint_dof,left_hip_roll_joint_dof,left_hip_yaw_joint_dof,left_knee_joint_dof,left_ankle_pitch_joint_dof,left_ankle_roll_joint_dof,right_hip_pitch_joint_dof,right_hip_roll_joint_dof,right_hip_yaw_joint_dof,right_knee_joint_dof,right_ankle_pitch_joint_dof,right_ankle_roll_joint_dof,waist_yaw_joint_dof,waist_roll_joint_dof,waist_pitch_joint_dof,left_shoulder_pitch_joint_dof,left_shoulder_roll_joint_dof,left_shoulder_yaw_joint_dof,left_elbow_joint_dof,left_wrist_roll_joint_dof,left_wrist_pitch_joint_dof,left_wrist_yaw_joint_dof,right_shoulder_pitch_joint_dof,right_shoulder_roll_joint_dof,right_shoulder_yaw_joint_dof,right_elbow_joint_dof,right_wrist_roll_joint_dof,right_wrist_pitch_joint_dof,right_wrist_yaw_joint_dof
0,1.0736956596374512,1.7102046012878418,78.97051239013672,0.13887038993864528,0.9006070225453396,-91.2726902226372,3.1660767,4.4135323,13.781781,6.9016843,-9.365439,-4.9057455,2.8592327,-4.273956,-16.440187,6.9933634,-10.878518,3.2948487,0.7601129,-0.849666,4.992063,-2.0339398,15.382227,-46.71502,62.36027,18.695974,4.351978,7.541563,-6.171301,-7.0085483,24.2279,71.84901,-27.064524,8.55051,-7.6956234
1,1.1077791452407837,1.6997065544128418,78.97479248046875,0.14809848829562608,0.9677242984878037,-91.32536946057017,3.122116,4.3880134,13.905927,6.898086,-9.375237,-4.926033,2.7819371,-4.313931,-16.399477,6.9914002,-10.869027,3.3408844,0.77400935,-0.8594488,4.9184184,-2.0323412,15.391541,-46.70558,62.384808,18.666685,4.342163,7.514596,-6.1348624,-7.0062547,24.234613,71.87472,-27.082287,8.560735,-7.68732
2,1.1462430953979492,1.6874473094940186,78.9798355102539,0.15768008964405675,1.0334629738975853,-91.3760669994764,3.0782492,4.362492,14.028334,6.8943796,-9.383904,-4.9480553,2.7068598,-4.3530617,-16.36095,6.988832,-10.8596325,3.3837993,0.77283394,-0.8747465,4.8474135,-2.0092196,15.427216,-46.67854,62.37909,18.63658,4.330359,7.487602,-6.102821,-6.997006,24.257328,71.90133,-27.099316,8.573602,-7.6803484
3,1.1851674318313599,1.6723480224609375,78.98429107666016,0.16802019533750348,1.1021711763472584,-91.43108591446557,3.0326955,4.333121,14.155036,6.8897357,-9.393685,-4.968738,2.627815,-4.395127,-16.317469,6.9867783,-10.850265,3.4327466,0.77979594,-0.8875613,4.772779,-1.994574,15.451006,-46.658955,62.384525,18.613102,4.3240695,7.4564977,-6.070921,-6.9913387,24.274866,71.92975,-27.111698,8.584141,-7.6734633
4,1.2278133630752563,1.6527079343795776,78.98627471923828,0.17957359326199995,1.1785741193739274,-91.49682287480447,2.982217,4.296993,14.291858,6.886025,-9.408251,-4.9849133,2.5387692,-4.444001,-16.26172,6.9846354,-10.83958,3.4969788,0.7888706,-0.8969138,4.6909895,-1.972596,15.474005,-46.634457,62.37832,18.612202,4.3330483,7.4119725,-6.0435247,-6.9882307,24.3002,71.961685,-27.108541,8.591223,-7.668509
5,1.2824993133544922,1.6411545276641846,78.98807525634766,0.1936375348164391,1.2643441504274753,-91.57589468361857,2.9272437,4.252859,14.44402,6.880871,-9.42556,-4.9906754,2.4383838,-4.5018773,-16.189774,6.981688,-10.827618,3.5820062,0.80903655,-0.90282494,4.5984817,-1.9490652,15.4890785,-46.606552,62.359486,18.657541,4.374269,7.3381057,-6.0190983,-6.989713,24.336428,71.9977,-27.079075,8.593274,-7.662587
6,1.342034935951233,1.6193609237670898,78.99014282226562,0.2093101401564348,1.3569362597853156,-91.66453090303581,2.8680503,4.2036467,14.606943,6.8758893,-9.445514,-4.989089,2.3305924,-4.5661364,-16.106153,6.9774756,-10.815106,3.6819563,0.8127871,-0.9047511,4.5018,-1.8975583,15.519456,-46.54479,62.297375,18.74257,4.4376264,7.2409196,-6.0023804,-7.0020323,24.412493,72.031815,-27.021257,8.592646,-7.654559
7,1.4020406007766724,1.5992658138275146,78.99141693115234,0.22342361976228445,1.4542257786487414,-91.7596641318124,2.80505,4.152731,14.771822,6.871596,-9.470495,-4.9901257,2.2158985,-4.6328897,-16.016235,6.9744997,-10.802245,3.7885077,0.8258204,-0.90048087,4.4028563,-1.85185,15.542521,-46.49974,62.24773,18.812681,4.4924397,7.1541333,-5.9798055,-7.019347,24.468983,72.058525,-26.968573,8.589464,-7.650621
8,1.4683164358139038,1.5768954753875732,78.9908676147461,0.233191528130095,1.5541584869721536,-91.85843554532201,2.7396142,4.102722,14.930115,6.8672104,-9.50248,-5.004008,2.0973213,-4.697842,-15.925434,6.970364,-10.787227,3.893541,0.84606993,-0.89136606,4.301431,-1.8246918,15.548327,-46.488415,62.251366,18.819742,4.507219,7.1100063,-5.961601,-7.026516,24.48165,72.09697,-26.944712,8.585425,-7.6606407
9,1.5436451435089111,1.5517127513885498,78.9894027709961,0.23715923974800276,1.664673618945104,-91.96308052144616,2.6644597,4.0548644,15.081918,6.86243,-9.54401,-5.0408435,1.9649051,-4.759324,-15.833792,6.965887,-10.7694645,3.9948199,0.8455199,-0.866774,4.197614,-1.7792648,15.561045,-46.481415,62.26444,18.747713,4.464651,7.127855,-5.933151,-7.047399,24.477905,72.11005,-26.945702,8.580407,-7.6861286
10,1.615709662437439,1.5322256088256836,78.98711395263672,0.23751479823096708,1.7838012051248187,-92.07443651103569,2.5819626,4.0073133,15.231447,6.8571687,-9.592904,-5.0927067,1.8210626,-4.820361,-15.738452,6.961252,-10.749859,4.096716,0.8477976,-0.8362701,4.087844,-1.7396634,15.569201,-46.49895,62.30842,18.61768,4.3834434,7.1875706,-5.904744,-7.0648723,24.438396,72.12437,-26.970713,8.572585,-7.726106
11,1.6961405277252197,1.5109388828277588,78.98419189453125,0.23584054796936202,1.895600126352499,-92.18631452890556,2.5078473,3.9582481,15.375107,6.852338,-9.645892,-5.142627,1.6852418,-4.882501,-15.642227,6.957083,-10.73016,4.200931,0.86539936,-0.79911774,3.9928946,-1.7089821,15.57901,-46.54476,62.356167,18.463387,4.2928185,7.2540627,-5.8603916,-7.0981183,24.368334,72.115524,-27.009102,8.564702,-7.762314
12,1.7789002656936646,1.488707423210144,78.98168182373047,0.2337149705314736,1.9840583852994236,-92.29273350277107,2.4571157,3.9052079,15.509096,6.8492007,-9.699351,-5.1735845,1.5779232,-4.946977,-15.547823,6.952812,-10.712343,4.309202,0.8756907,-0.7578746,3.9256237,-1.6791749,15.58309,-46.581005,62.401615,18.329401,4.2171917,7.2952366,-5.81865,-7.1382165,24.314655,72.104675,-27.03992,8.562066,-7.7841244
13,1.8704833984375,1.4537687301635742,78.98054504394531,0.22980861750145617,2.041897925652803,-92.3921078258178,2.4388862,3.8494773,15.631039,6.847162,-9.756823,-5.1864595,1.5071144,-5.0119042,-15.455863,6.9495616,-10.698557,4.425888,0.8727233,-0.71128905,3.8905323,-1.6447042,15.579952,-46.595676,62.44212,18.222086,4.162444,7.300493,-5.7856903,-7.1802874,24.286053,72.0965,-27.071625,8.569321,-7.781074
14,1.9637664556503296,1.4300203323364258,78.97531127929688,0.22391217006097336,2.078848195512116,-92.48785329027152,2.4432952,3.7909293,15.743537,6.846388,-9.819056,-5.189013,1.462029,-5.0767975,-15.365321,6.946199,-10.687377,4.548784,0.86060387,-0.65890926,3.8788762,-1.6074202,15.570612,-46.59924,62.48402,18.12287,4.1148987,7.2882376,-5.757745,-7.2259984,24.269037,72.08764,-27.107416,8.583252,-7.7623405
15,2.0526938438415527,1.41524338722229,78.97332763671875,0.21881150206075192,2.104013681415253,-92.58035210468515,2.459327,3.7262557,15.849974,6.845452,-9.876484,-5.17427,1.4297717,-5.1454625,-15.275939,6.942983,-10.674177,4.669635,0.8436632,-0.60455066,3.8837786,-1.5765039,15.556143,-46.60592,62.530315,18.03153,4.074697,7.2681227,-5.7356167,-7.275097,24.258415,72.08673,-27.126747,8.596504,-7.7478905
16,2.1417624950408936,1.3918389081954956,78.9682388305664,0.2173052410172855,2.126675159444109,-92.67050723346782,2.4738774,3.6527867,15.953864,6.845195,-9.920424,-5.134778,1.3988047,-5.2217655,-15.187262,6.9404697,-10.655987,4.7803555,0.83026296,-0.54726505,3.9005642,-1.5657198,15.530585,-46.63267,62.586994,17.949001,4.0415707,7.2500706,-5.707004,-7.3429523,24.246666,72.08338,-27.10806,8.601189,-7.753748
17,2.248058795928955,1.3685226440429688,78.96602630615234,0.22092296744373144,2.1487070318539883,-92.7634696193932,2.4859672,3.568105,16.063494,6.8453374,-9.946685,-5.060815,1.3641865,-5.3081226,-15.094283,6.940593,-10.631312,4.873907,0.8219594,-0.49527144,3.9264073,-1.5705206,15.49916,-46.66688,62.648308,17.888754,4.019927,7.2286716,-5.6899495,-7.41064,24.235098,72.103165,-27.025068,8.596575,-7.8019495
18,2.3546481132507324,1.3452426195144653,78.96441650390625,0.22816211743582576,2.1654167725126587,-92.85732490425073,2.5011363,3.474919,16.174482,6.845535,-9.960112,-4.9593105,1.3337816,-5.4018006,-14.998849,6.93996,-10.60051,4.9563103,0.81412697,-0.44681987,3.9641058,-1.5853165,15.464829,-46.705486,62.71174,17.845207,4.008584,7.201074,-5.6851745,-7.47428,24.226442,72.14422,-26.896608,8.586555,-7.8786063
19,2.455303430557251,1.325075626373291,78.96424865722656,0.23607030330132536,2.1759675612506393,-92.94165330562251,2.518415,3.3763027,16.270555,6.845878,-9.966803,-4.8460903,1.3112707,-5.499308,-14.911303,6.9399743,-10.568574,5.0386467,0.80089176,-0.3957911,4.0119624,-1.6178597,15.422887,-46.77461,62.79285,17.792414,3.999263,7.1818395,-5.6801224,-7.5444155,24.216516,72.193756,-26.76995,8.571216,-7.9531493
20,2.5588295459747314,1.3101290464401245,78.96355438232422,0.24310319037075476,2.1795617503600213,-93.00613018674863,2.537458,3.2748096,16.336529,6.846783,-9.974219,-4.7345996,1.3016932,-5.597955,-14.841889,6.939226,-10.538538,5.132212,0.7720392,-0.34253964,4.0659676,-1.668888,15.379355,-46.897038,62.899563,17.703566,3.984394,7.184546,-5.6768203,-7.6135225,24.203058,72.25947,-26.693583,8.552367,-7.999667
21,2.6552486419677734,1.2930736541748047,78.96178436279297,0.2489151292576413,2.173284932062937,-93.04517160836535,2.5593386,3.1697063,16.360891,6.8465486,-9.979254,-4.6273947,1.3090271,-5.697249,-14.795022,6.93753,-10.510695,5.2439013,0.72105044,-0.28710222,4.131527,-1.739052,15.336387,-47.084618,63.02828,17.539263,3.9636767,7.2239065,-5.677028,-7.6805787,24.182253,72.34257,-26.69509,8.523968,-8.002423
22,2.7607619762420654,1.2681090831756592,78.96331024169922,0.2546466630604915,2.1584570513289094,-93.06520560740975,2.582726,3.0602045,16.354301,6.848979,-9.982009,-4.5170727,1.3292638,-5.799075,-14.764744,6.937029,-10.484371,5.3663945,0.6546738,-0.23097406,4.208572,-1.8252515,15.294615,-47.323513,63.172306,17.324448,3.9407945,7.28848,-5.6814404,-7.745522,24.154621,72.442375,-26.74524,8.487534,-7.9790497
23,2.8783812522888184,1.2505379915237427,78.96122741699219,0.25871878390830083,2.1406273998764256,-93.07399361244245,2.6084616,2.949587,16.33391,6.849703,-9.985497,-4.406013,1.3568854,-5.9018097,-14.74624,6.935372,-10.4589405,5.489437,0.58431625,-0.17351744,4.2858386,-1.9269481,15.254316,-47.6013,63.340294,17.126432,3.9127321,7.3532457,-5.6847553,-7.8094797,24.12606,72.55575,-26.803888,8.455349,-7.9516206
24,2.992464542388916,1.23688542842865,78.95696258544922,0.2595296514263992,2.1254428428240524,-93.07952864891575,2.6339762,2.8414109,16.316898,6.8509994,-9.996081,-4.296717,1.3853662,-6.004426,-14.734307,6.9339952,-10.436535,5.602753,0.52171004,-0.113085665,4.352182,-2.0421839,15.215449,-47.904594,63.536774,17.014032,3.8792274,7.3926163,-5.6789618,-7.8733816,24.098564,72.67649,-26.834759,8.439503,-7.9417806
25,3.112334966659546,1.2129043340682983,78.95201110839844,0.25532879575895734,2.1143589247349652,-93.08472367019199,2.6590953,2.7372646,16.308384,6.852858,-10.016086,-4.1901073,1.4124871,-6.1060076,-14.728249,6.933517,-10.4177,5.701792,0.47023895,-0.047097966,4.404538,-2.1738822,15.177571,-48.23242,63.76801,17.017372,3.8393273,7.3907075,-5.6623178,-7.9387965,24.074572,72.802414,-26.822378,8.449524,-7.954641
26,3.2316689491271973,1.1843827962875366,78.94793701171875,0.24747778738407275,2.104303300944772,-93.08496206317939,2.684797,2.6349418,16.299208,6.8547363,-10.042264,-4.08483,1.4420646,-6.207352,-14.730658,6.9330993,-10.401251,5.7927885,0.4233095,0.023628855,4.4492908,-2.3211749,15.140504,-48.590443,64.02825,17.096296,3.7939322,7.3640757,-5.6375165,-8.005912,24.052408,72.93461,-26.788372,8.476703,-7.9786296
27,3.343076229095459,1.1558207273483276,78.94229888916016,0.23880582190434746,2.094408028763649,-93.07718762053754,2.7110379,2.5324767,16.284918,6.8566813,-10.071726,-3.9797533,1.4758773,-6.3096185,-14.741272,6.932993,-10.387811,5.881282,0.37758866,0.09428443,4.488718,-2.4782846,15.104945,-48.97599,64.3088,17.212471,3.743644,7.336352,-5.606807,-8.073705,24.031399,73.07658,-26.748373,8.506226,-8.0101385
28,3.465040445327759,1.1154462099075317,78.93466186523438,0.2322114260541799,2.0835362327541977,-93.05815499614378,2.737347,2.4277833,16.261116,6.858277,-10.100685,-3.8736963,1.5151376,-6.414356,-14.759787,6.9326367,-10.376222,5.9728355,0.32924026,0.1598951,4.5254803,-2.6383307,15.072222,-49.385864,64.59978,17.328072,3.6889906,7.331159,-5.572534,-8.139897,24.011274,73.23198,-26.718521,8.5238905,-8.045763
29,3.576909303665161,1.083546757698059,78.92730712890625,0.22707300426356763,2.074425577593821,-93.02285643318965,2.7599218,2.3221018,16.223612,6.860484,-10.131019,-3.7701247,1.5569215,-6.5212607,-14.789982,6.932867,-10.367245,6.069058,0.2730926,0.22011317,4.558685,-2.802012,15.0439005,-49.813602,64.896935,17.410862,3.6206303,7.358088,-5.5377955,-8.20328,23.992666,73.40488,-26.699266,8.522128,-8.089903
30,3.6891958713531494,1.0462801456451416,78.92251586914062,0.22219375566770685,2.066543395375674,-92.97419492592006,2.7799857,2.2160952,16.175804,6.861791,-10.162047,-3.6683536,1.6016765,-6.629728,-14.831028,6.9334073,-10.360659,6.166928,0.21186982,0.27718464,4.587629,-2.9703531,15.020651,-50.261776,65.20344,17.488783,3.541637,7.4032774,-5.5009522,-8.263027,23.975718,73.592896,-26.683548,8.510125,-8.142826
31,3.8137495517730713,1.0140858888626099,78.91325378417969,0.21911111769619862,2.05432662404374,-92.921424669593,2.80542,2.1074367,16.12409,6.863994,-10.193375,-3.5607677,1.655319,-6.740199,-14.874777,6.932799,-10.354963,6.264907,0.15095857,0.32805946,4.6134906,-3.1375542,15.003621,-50.739407,65.5223,17.613092,3.4713275,7.455027,-5.4654274,-8.317421,23.964172,73.7998,-26.67386,8.497665,-8.196225
32,3.9274468421936035,0.9760785102844238,78.90404510498047,0.2185254310375615,2.0321879391442095,-92.87362102027618,2.8457668,1.9940977,16.075006,6.866987,-10.224591,-3.4399824,1.7218378,-6.8533382,-14.9131365,6.9340644,-10.3509865,6.361558,0.10518729,0.37189206,4.6384063,-3.3047872,14.990494,-51.267845,65.86031,17.830902,3.429301,7.5019917,-5.4232106,-8.37162,23.949656,74.016655,-26.67603,8.494096,-8.240138
33,4.048229694366455,0.9241362810134888,78.89506530761719,0.22104334384609095,1.9951564448681238,-92.83606328662869,2.9079466,1.8749074,16.032864,6.8695993,-10.253862,-3.299323,1.8061256,-6.9699264,-14.941214,6.9352446,-10.34507,6.4571066,0.07325666,0.40760323,4.663968,-3.4679809,14.98114,-51.846245,66.22096,18.171999,3.4246674,7.5438113,-5.3792553,-8.422896,23.946194,74.25186,-26.688791,8.505341,-8.270555
34,4.1578826904296875,0.8754175901412964,78.88772583007812,0.22622077890454767,1.9473553481279995,-92.80300731426175,2.9856806,1.7511901,15.993206,6.8729224,-10.283003,-3.1443684,1.9045241,-7.0893555,-14.964285,6.9379187,-10.34021,6.55202,0.051909834,0.43613848,4.688796,-3.6303067,14.974978,-52.469307,66.60179,18.604235,3.4459095,7.5854735,-5.3327155,-8.471391,23.949682,74.5041,-26.710726,8.525018,-8.29285
35,4.275045871734619,0.8301001787185669,78.88155364990234,0.23303379462216123,1.8966964304329232,-92.76675034286492,3.0676413,1.6247762,15.9494095,6.8778563,-10.313431,-2.9863844,2.0099287,-7.210551,-14.989628,6.9395847,-10.337313,6.645552,0.035513874,0.45938495,4.7094474,-3.7909875,14.972837,-53.128273,66.99383,19.089508,3.4812677,7.622962,-5.2825356,-8.517249,23.943754,74.764786,-26.743065,8.545148,-8.312891
36,4.392520904541016,0.7839159965515137,78.8704833984375,0.24144407418518626,1.8510633474245743,-92.71959503037921,3.14372,1.4966252,15.89497,6.881556,-10.344173,-2.8366048,2.1129296,-7.3337383,-15.024189,6.943152,-10.340354,6.7370453,0.018839521,0.4784719,4.722431,-3.950118,14.976885,-53.816887,67.38745,19.587612,3.5186932,7.6524234,-5.227028,-8.560481,23.91265,75.02498,-26.786703,8.557714,-8.336244
37,4.5047407150268555,0.7250576019287109,78.86319732666016,0.25043412430624407,1.8143920506490376,-92.65682609013781,3.2083032,1.368115,15.825411,6.88456,-10.374112,-2.7004058,2.2120686,-7.457178,-15.0723505,6.945867,-10.351422,6.823983,0.00010076967,0.4944283,4.7249556,-4.111504,14.989146,-54.541084,67.78132,20.10781,3.56375,7.662333,-5.159393,-8.600066,23.835377,75.28048,-26.853992,8.555355,-8.36409
38,4.616292953491211,0.6775820851325989,78.85401153564453,0.2604419146057784,1.7818770468110814,-92.58345989095857,3.2679355,1.2386906,15.744864,6.8880296,-10.404227,-2.5710611,2.311371,-7.581601,-15.129438,6.9484606,-10.368407,6.9075036,-0.01674109,0.50590855,4.7196374,-4.2728834,15.010557,-55.30402,68.17442,20.663866,3.622304,7.656796,-5.0829406,-8.63605,23.725912,75.53717,-26.93933,8.544039,-8.393609
39,4.730234146118164,0.6197745203971863,78.84413146972656,0.27199009757913345,1.7483274992328328,-92.50607491393122,3.3291776,1.1071174,15.660076,6.8913145,-10.436128,-2.4414253,2.4133449,-7.708243,-15.189973,6.9523563,-10.386663,6.9920645,-0.030864429,0.51201046,4.7119403,-4.425489,15.040825,-56.088795,68.56682,21.225128,3.674239,7.658771,-5.0100107,-8.670033,23.617655,75.79815,-27.022394,8.535574,-8.42416
40,4.837224960327148,0.5621317625045776,78.83109283447266,0.2863597034700716,1.7088179346347832,-92.43198860035503,3.3986695,0.9718933,15.578165,6.8950157,-10.472784,-2.3044047,2.5154414,-7.840021,-15.247362,6.9682164,-10.405874,7.082351,-0.04228903,0.51199424,4.707224,-4.5598626,15.079269,-56.876034,68.95772,21.762854,3.7011757,7.691309,-4.953936,-8.704814,23.546753,76.067314,-27.08087,8.541602,-8.455248
41,4.947541236877441,0.5092499852180481,78.81756591796875,0.30798884321842424,1.662592079301908,-92.36385424572937,3.476871,0.8289072,15.503772,6.898222,-10.514134,-2.1576188,2.6081269,-7.9840536,-15.297441,7.017211,-10.435848,7.180728,-0.05111539,0.5010427,4.70633,-4.675186,15.125922,-57.655003,69.347305,22.248549,3.6905487,7.768567,-4.917984,-8.742703,23.528479,76.344185,-27.096712,8.575607,-8.498064
42,5.066890239715576,0.45393118262290955,78.80237579345703,0.3331926300463939,1.6119151199495603,-92.2973291382176,3.5613027,0.68138415,15.431429,6.901278,-10.559557,-2.004878,2.7078109,-8.131687,-15.346611,7.0609875,-10.459087,7.2840934,-0.059676733,0.48373857,4.707395,-4.774953,15.18129,-58.434464,69.734344,22.706354,3.6553729,7.876135,-4.893953,-8.783179,23.545341,76.62444,-27.08381,8.627545,-8.548474
43,5.177121639251709,0.39387163519859314,78.78759765625,0.36192102284583877,1.5573415634023873,-92.23033762479872,3.6503158,0.5292107,15.356527,6.9052997,-10.607308,-1.8482836,2.759713,-8.298619,-15.389187,7.2204666,-10.5411625,7.390535,-0.06883763,0.460845,4.709515,-4.858,15.245263,-59.227955,70.11985,23.182116,3.6150293,7.994352,-4.882817,-8.8276005,23.580957,76.91263,-27.071724,8.67504,-8.583683
44,5.286496162414551,0.34489747881889343,78.77197265625,0.39328958672333153,1.499366658512138,-92.16075300957148,3.743151,0.37201762,15.274452,6.9088287,-10.654008,-1.6900325,2.7013938,-8.502574,-15.417664,7.6327496,-10.754796,7.498027,-0.07901069,0.43427643,4.7118273,-4.9238997,15.317089,-60.0506,70.50381,23.720335,3.588831,8.103361,-4.882897,-8.877234,23.61912,77.21012,-27.088932,8.69539,-8.580008
45,5.403515815734863,0.2921282947063446,78.75347137451172,0.42783034021990096,1.4367895350158735,-92.08789381320166,3.8406045,0.20880818,15.181166,6.912914,-10.698741,-1.5288277,2.6476145,-8.714195,-15.44959,8.051422,-10.974475,7.6029916,-0.08985184,0.4038482,4.71363,-4.971722,15.395969,-60.914986,70.887115,24.353525,3.5864925,8.200918,-4.891554,-8.933171,23.666784,77.52134,-27.140823,8.671701,-8.524855
46,5.513253211975098,0.23002393543720245,78.73389434814453,0.465460273656333,1.3698603862219403,-92.01315145882573,3.943278,0.040010594,15.08,6.9167128,-10.742623,-1.364111,2.5916524,-8.934289,-15.482754,8.48936,-11.204027,7.7073035,-0.09970746,0.369668,4.71618,-5.0041738,15.4813385,-61.8123,71.270325,25.050179,3.596407,8.296383,-4.9099994,-8.995332,23.727009,77.84655,-27.213018,8.61625,-8.434028
47,5.6297430992126465,0.1658787727355957,78.71674346923828,0.5065898277044828,1.3009701888434255,-91.936839970749,4.0490694,-0.13343993,14.977296,6.9197874,-10.788066,-1.1987542,2.528194,-9.162677,-15.514207,8.950917,-11.44273,7.8165827,-0.108213395,0.33040458,4.719999,-5.0246406,15.572636,-62.722206,71.65458,25.761675,3.6059277,8.386868,-4.940068,-9.065391,23.78003,78.16843,-27.304462,8.560848,-8.322439
48,5.744636535644531,0.11091475933790207,78.6962890625,0.5518412493284648,1.2326202080546775,-91.85959687041468,4.1553373,-0.31030685,14.879433,6.923578,-10.839003,-1.0359159,2.4520276,-9.398527,-15.541437,9.440347,-11.690211,7.936499,-0.11343244,0.28638455,4.727529,-5.036848,15.669356,-63.62501,72.039986,26.44029,3.6021242,8.470036,-4.985724,-9.144534,23.806383,78.47903,-27.411108,8.529166,-8.208274
49,5.857525825500488,0.05376443266868591,78.67173767089844,0.6004372953620309,1.164762747091778,-91.7838908007338,4.264007,-0.48964092,14.79106,6.9261956,-10.895919,-0.8733666,2.3686547,-9.639986,-15.561226,9.946291,-11.943503,8.075006,-0.112239614,0.23781379,4.7394705,-5.041477,15.771341,-64.516624,72.43538,27.06005,3.5702622,8.564727,-5.044723,-9.233199,23.811062,78.772736,-27.5588,8.534415,-8.098277
50,5.968726634979248,-0.0026306859217584133,78.6453628540039,0.6523213208213189,1.096302323914448,-91.70873834854171,4.374271,-0.6718656,14.707659,6.929752,-10.957605,-0.7104212,2.2773728,-9.888502,-15.5756,10.473125,-12.20497,8.226696,-0.106501654,0.18526256,4.7551546,-5.036746,15.878567,-65.40629,72.83826,27.65211,3.5210025,8.666286,-5.1160216,-9.331547,23.802317,79.05576,-27.739365,8.560203,-7.982249
51,6.087837219238281,-0.06278882175683975,78.62295532226562,0.7084529772544697,1.0279945325590159,-91.62890674444157,4.4847555,-0.8592887,14.621887,6.931367,-11.0204935,-0.55254513,2.1663384,-10.148196,-15.590058,11.042899,-12.479276,8.376645,-0.1020932,0.12857911,4.7726355,-5.02392,15.990913,-66.29779,73.23264,28.249344,3.4785526,8.737103,-5.2041674,-9.440928,23.759573,79.33458,-27.905256,8.589512,-7.85219
52,6.200809955596924,-0.1204969733953476,78.5975341796875,0.769901323372083,0.9606590181814643,-91.53934589382757,4.5904202,-1.0534694,14.526562,6.9342556,-11.083283,-0.4051799,2.0244765,-10.422993,-15.609994,11.677243,-12.77149,8.509638,-0.10381666,0.06805985,4.790437,-5.004756,16.108099,-67.195435,73.60171,28.88533,3.4666922,8.739034,-5.311732,-9.563058,23.661818,79.61306,-28.008366,8.605331,-7.6996965
53,6.319242000579834,-0.17268390953540802,78.56672668457031,0.8393038601271893,0.8981497223210836,-91.4367116290506,4.6868553,-1.2586617,14.418913,6.9358053,-11.144066,-0.27050036,1.8467381,-10.719322,-15.63694,12.378493,-13.088614,8.623678,-0.115234986,0.0020494852,4.803792,-4.982177,16.229294,-68.120224,73.94434,29.583525,3.4951632,8.647658,-5.435906,-9.700095,23.486212,79.89133,-28.027422,8.59515,-7.5294585
54,6.426148891448975,-0.2228516787290573,78.53913116455078,0.9152236369575978,0.8388170776924935,-91.32445161480643,4.777563,-1.4729091,14.303071,6.93626,-11.204598,-0.14532658,1.6398216,-11.034346,-15.667162,13.135117,-13.425323,8.725188,-0.13045953,-0.06835565,4.8152184,-4.95622,16.353756,-69.06649,74.26926,30.320404,3.5479257,8.487314,-5.572601,-9.852653,23.246178,80.16337,-27.992334,8.57078,-7.3430624
55,6.539548873901367,-0.2797969877719879,78.50711822509766,0.9942283757848854,0.775239229683928,-91.20739981217486,4.871716,-1.6902487,14.182482,6.9357824,-11.264171,-0.02671468,1.4088515,-11.360413,-15.697135,13.951347,-13.770374,8.811605,-0.1429006,-0.14099224,4.833826,-4.9216814,16.482119,-69.99438,74.573906,31.061226,3.6102657,8.292677,-5.728433,-10.020877,22.981607,80.43101,-27.928057,8.5518675,-7.1284275
56,6.660499572753906,-0.32567450404167175,78.4755859375,1.0711612950419809,0.7000758218062586,-91.09061071796188,4.977654,-1.9039322,14.060569,6.937002,-11.323669,0.088193595,1.156887,-11.690337,-15.722897,14.835035,-14.113185,8.880019,-0.1483551,-0.21408226,4.8681912,-4.871027,16.61659,-70.85984,74.854706,31.772911,3.6688068,8.098823,-5.911986,-10.204664,22.733656,80.69777,-27.860996,8.558728,-6.873688
57,6.7764716148376465,-0.37179499864578247,78.4401626586914,1.1477609380632012,0.6099709399554913,-90.97680393147124,5.1011715,-2.1148143,13.938826,6.9380207,-11.38178,0.1986746,0.8971053,-12.022382,-15.740013,15.766632,-14.457624,8.929121,-0.14694439,-0.28898716,4.919366,-4.7962527,16.760199,-71.64806,75.10897,32.49272,3.7345326,7.884435,-6.1260757,-10.403322,22.514156,80.96831,-27.781845,8.598269,-6.562925
58,6.888420104980469,-0.42693862318992615,78.40936279296875,1.2261833685826273,0.5093633454174815,-90.86284620317974,5.2365346,-2.326019,13.815342,6.9383483,-11.438529,0.30376196,0.6218897,-12.362725,-15.750209,16.753119,-14.808404,8.959184,-0.14395086,-0.366629,4.983012,-4.7006574,16.915205,-72.37956,75.33569,33.223522,3.8090973,7.6408987,-6.368533,-10.616074,22.305937,81.24223,-27.68076,8.659615,-6.2068014
59,6.9938764572143555,-0.4686911702156067,78.37499237060547,1.3015108504797104,0.40248658777793833,-90.74483941748859,5.3769813,-2.5344098,13.6878605,6.9392037,-11.495402,0.40596285,0.3156505,-12.712178,-15.761118,17.814327,-15.147883,8.969211,-0.14215857,-0.44366586,5.0595603,-4.5939646,17.082434,-73.0617,75.53327,33.883434,3.8671868,7.4233303,-6.6400404,-10.842857,22.1043,81.514626,-27.585129,8.735651,-5.8337045
60,7.106367588043213,-0.5102676153182983,78.34088897705078,1.3736781451088622,0.29371558372628703,-90.61847945522483,5.516327,-2.7372558,13.554269,6.9395604,-11.552319,0.5078476,-0.03628686,-13.071917,-15.780483,18.969044,-15.457482,8.957489,-0.14494431,-0.51587075,5.149747,-4.4858227,17.261618,-73.7003,75.70032,34.39085,3.885276,7.287761,-6.939106,-11.082736,21.90194,81.77848,-27.524914,8.818575,-5.471507
61,7.214745044708252,-0.5445922017097473,78.30577850341797,1.4401751897844466,0.18686366580397276,-90.48040291105848,5.64915,-2.9349349,13.411587,6.9402676,-11.61118,0.608531,-0.43844426,-13.446295,-15.816286,20.223288,-15.742247,8.911903,-0.15467097,-0.5836893,5.2525206,-4.3777924,17.45264,-74.286285,75.83543,34.66824,3.8497763,7.251046,-7.267466,-11.335628,21.699804,82.0342,-27.512583,8.908576,-5.1142535
62,7.326886177062988,-0.5748588442802429,78.2756118774414,1.503811592301265,0.07869368336920039,-90.33355768452962,5.7798543,-3.128836,13.261678,6.940864,-11.6707945,0.707185,-0.884013,-13.836586,-15.8601675,21.569744,-16.009476,8.833278,-0.16902122,-0.6489659,5.367587,-4.2646856,17.65577,-74.81809,75.939575,34.779716,3.777549,7.283288,-7.624848,-11.601764,21.501001,82.284966,-27.531033,9.008668,-4.7514434
63,7.4334540367126465,-0.6093136668205261,78.24703216552734,1.5648127161426348,-0.037001911875150624,-90.1830212731627,5.917283,-3.3181186,13.109598,6.942302,-11.729812,0.80668956,-1.3590868,-14.236462,-15.898345,22.98489,-16.241388,8.739592,-0.18388774,-0.71104234,5.4970965,-4.1488814,17.870546,-75.32169,76.0176,34.847813,3.6908424,7.370795,-8.009742,-11.880802,21.307499,82.53107,-27.5587,9.114922,-4.4045935
64,7.537505626678467,-0.6451578736305237,78.2197265625,1.623236830284535,-0.16648648414362693,-90.03397192379862,6.0715265,-3.502278,12.960245,6.9423585,-11.785108,0.9098358,-1.8522072,-14.639125,-15.917178,24.449625,-16.420914,8.649537,-0.19433008,-0.7696571,5.642827,-4.0324016,18.095552,-75.82301,76.07532,34.99588,3.612036,7.4999094,-8.422009,-12.173292,21.121124,82.77432,-27.574078,9.224063,-4.0954127
65,7.647772312164307,-0.6842640042304993,78.18830871582031,1.6762783224628455,-0.3173672942695769,-89.88694517775633,6.2512636,-3.6788392,12.815358,6.943536,-11.837594,1.0180867,-2.3512394,-15.042116,-15.915236,25.958834,-16.544928,8.573242,-0.20175731,-0.8224313,5.810964,-3.9140413,18.329876,-76.33011,76.117226,35.235374,3.5274396,7.710968,-8.86061,-12.479971,20.940922,83.01257,-27.571144,9.340269,-3.8202736
66,7.756706237792969,-0.7132604718208313,78.16089630126953,1.7255650758516003,-0.48465713677719724,-89.73935895937753,6.4496117,-3.849114,12.67208,6.944778,-11.887494,1.1297656,-2.8658924,-15.450734,-15.898294,27.52444,-16.62322,8.49614,-0.20712927,-0.8702141,5.998801,-3.7938476,18.57268,-76.82936,76.140656,35.508263,3.43257,7.996769,-9.325028,-12.801128,20.76227,83.24464,-27.566227,9.463916,-3.5704918
67,7.850958347320557,-0.7380110025405884,78.13542938232422,1.7729010837522992,-0.6545690970576266,-89.5916080391741,6.649996,-4.0154886,12.528121,6.9456487,-11.934804,1.2426502,-3.4135191,-15.866177,-15.865755,29.145407,-16.655987,8.400697,-0.20419842,-0.9154853,6.194737,-3.677634,18.822077,-77.317245,76.14223,35.831547,3.3636,8.272446,-9.816098,-13.136056,20.59862,83.47396,-27.551186,9.58539,-3.3603282
68,7.948002815246582,-0.7669790983200073,78.11003112792969,1.8209507730622667,-0.8136899687988078,-89.44409587383036,6.8359585,-4.18112,12.381368,6.9460344,-11.979804,1.3546888,-4.014949,-16.290676,-15.815911,30.826984,-16.641644,8.269282,-0.18689485,-0.96013725,6.3878655,-3.5718088,19.075306,-77.79062,76.11796,36.22072,3.3557165,8.453087,-10.33357,-13.479894,20.441332,83.70966,-27.53935,9.688107,-3.206328
69,8.044532775878906,-0.7866560220718384,78.08580017089844,1.8700162280965047,-0.959237365578237,-89.29827066192586,7.003113,-4.3470807,12.231539,6.94587,-12.023746,1.4674101,-4.677011,-16.726477,-15.743918,32.577778,-16.57287,8.130457,-0.15198225,-1.006335,6.5749073,-3.479292,19.330067,-78.25396,76.06619,36.715,3.4325428,8.501016,-10.880169,-13.8331175,20.313059,83.96082,-27.523338,9.784706,-3.117988
70,8.139365196228027,-0.7997801303863525,78.06005859375,1.9190560169871356,-1.0984176500771798,-89.15320471445413,7.1593313,-4.5113835,12.079601,6.9472666,-12.067118,1.581224,-5.389367,-17.17312,-15.651829,34.394634,-16.453869,7.9789624,-0.10393062,-1.0520066,6.7615213,-3.396273,19.585001,-78.70609,75.992424,37.29515,3.5694182,8.465399,-11.457677,-14.195387,20.207598,84.22873,-27.50256,9.87354,-3.0869963
71,8.232665061950684,-0.8187078237533569,78.03443908691406,1.9665522871072685,-1.23189335268254,-89.00586047430853,7.3097157,-4.673155,11.924874,6.9461765,-12.105329,1.6922643,-6.1416254,-17.626532,-15.550689,36.255985,-16.300888,7.748045,-0.049558304,-1.0977571,6.947216,-3.3175797,19.838882,-79.13955,75.90921,37.88467,3.7278607,8.391753,-12.057789,-14.564001,20.099916,84.47346,-27.47873,9.948909,-3.0916433
72,8.327476501464844,-0.8474909663200378,78.01207733154297,2.0132530021475765,-1.3606940737303852,-88.85307750447687,7.454233,-4.8310432,11.767344,6.946507,-12.136764,1.796699,-6.9211407,-18.081438,-15.453832,38.13555,-16.128078,7.3743415,0.0047744033,-1.1447299,7.131088,-3.2375798,20.090527,-79.54514,75.82873,38.408276,3.870793,8.326435,-12.671509,-14.935079,19.965649,84.65384,-27.452795,10.006822,-3.1097164
73,8.414375305175781,-0.8706010580062866,77.9885025024414,2.062125452669746,-1.489513259861907,-88.6972868970149,7.599461,-4.9858594,11.609936,6.945321,-12.158008,1.8897722,-7.738802,-18.533829,-15.348655,40.06053,-15.917779,6.845534,0.059949514,-1.1969339,7.317301,-3.1591794,20.339409,-79.924,75.75793,38.83338,3.9918056,8.269482,-13.3013735,-15.307372,19.798973,84.7527,-27.420721,10.035499,-3.1429517
74,8.499526977539062,-0.8893697261810303,77.96734619140625,2.109818234956545,-1.616288282823235,-88.53886454469684,7.7427125,-5.138286,11.451662,6.942378,-12.170964,1.9747062,-8.592597,-18.986551,-15.238674,42.025917,-15.666435,6.19529,0.11822449,-1.2530185,7.5041833,-3.083208,20.584934,-80.278595,75.69083,39.20553,4.109391,8.200708,-13.950824,-15.680971,19.606834,84.79443,-27.39027,10.042177,-3.2004492
75,8.590843200683594,-0.91685551404953,77.9471435546875,2.1558608369121486,-1.7320874845736014,-88.37182703317555,7.872286,-5.288275,11.286782,6.941462,-12.18032,2.0599608,-9.451479,-19.444042,-15.160741,43.96096,-15.4113035,5.43269,0.17557746,-1.3083435,7.6812015,-3.0023074,20.825912,-80.60882,75.62244,39.56011,4.2242613,8.136556,-14.6168375,-16.0549,19.407951,84.802956,-27.355015,10.051633,-3.2718077
76,8.666851043701172,-0.9374832510948181,77.92676544189453,2.2009471672888186,-1.828114096853003,-88.19043809454706,7.981898,-5.436633,11.109217,6.939052,-12.18809,2.1540885,-10.285328,-19.910334,-15.150447,45.797707,-15.190336,4.5686655,0.22703983,-1.3582218,7.83833,-2.908323,21.060555,-80.91213,75.54781,39.933624,4.3374405,8.09331,-15.294678,-16.426182,19.2057,84.801956,-27.32489,10.088271,-3.346851
77,8.748138427734375,-0.9569370150566101,77.91012573242188,2.2430494176061,-1.896857183441505,-87.99279757759321,8.059975,-5.585535,10.917957,6.9387093,-12.193552,2.2654254,-11.115454,-20.40897,-15.223342,47.60055,-14.993146,3.4824424,0.26824722,-1.4044214,7.9673443,-2.7995741,21.286749,-81.19344,75.48039,40.3362,4.442177,8.095064,-15.996285,-16.79571,19.036543,84.79672,-27.298134,10.171025,-3.42733
78,8.829925537109375,-0.9862381815910339,77.89501190185547,2.284033446244656,-1.9447700590319856,-87.78211092489867,8.115929,-5.7343874,10.715809,6.9368362,-12.194538,2.387471,-11.944824,-20.929958,-15.363382,49.37679,-14.804124,2.2118285,0.3009076,-1.448177,8.075379,-2.6792195,21.503286,-81.44996,75.42034,40.748707,4.540709,8.126775,-16.71866,-17.162113,18.876524,84.77366,-27.282528,10.283318,-3.5169506
79,8.91165828704834,-1.0248488187789917,77.87810516357422,2.3212487976113674,-1.9840181432482655,-87.56025724441862,8.162787,-5.8765693,10.50397,6.9373107,-12.197486,2.5063808,-12.718307,-21.428438,-15.55179,50.976086,-14.653687,1.010606,0.33231965,-1.4876592,8.172992,-2.5470374,21.710161,-81.67043,75.34694,41.163754,4.64676,8.145867,-17.447975,-17.523031,18.685316,84.745674,-27.254688,10.394177,-3.6119523
80,8.990421295166016,-1.062717318534851,77.8587875366211,2.3506711894223176,-2.026422711834931,-87.32963917346034,8.218488,-6.005801,10.283554,6.936512,-12.206404,2.6080098,-13.384681,-21.852964,-15.765036,52.25436,-14.573855,0.13588463,0.3710052,-1.5208305,8.270366,-2.4029326,21.90857,-81.844154,75.23815,41.57439,4.7736387,8.109385,-18.170118,-17.87635,18.438257,84.72545,-27.17397,10.473297,-3.7088797
81,9.057615280151367,-1.1135802268981934,77.84141540527344,2.3752769553771675,-2.076100418558257,-87.08359867654704,8.286247,-6.120738,10.04879,6.937297,-12.226294,2.682883,-13.916041,-22.207027,-16.023703,53.184128,-14.612687,-0.29491353,0.41231352,-1.5495107,8.368375,-2.2442138,22.100342,-81.96545,75.09147,41.9833,4.9298687,7.9986854,-18.880323,-18.220253,18.099812,84.71557,-27.054487,10.512194,-3.8085017
82,9.124573707580566,-1.164193868637085,77.83162689208984,2.3917001513444447,-2.125938914672899,-86.82396368919197,8.358243,-6.2244887,9.8017025,6.9377794,-12.2527275,2.7402956,-14.348668,-22.503403,-16.327951,53.84727,-14.740289,-0.4284136,0.4561369,-1.5752095,8.461519,-2.071733,22.286537,-82.0436,74.91626,42.39174,5.1057267,7.83841,-19.589037,-18.55715,17.714073,84.713554,-26.886787,10.527539,-3.9131
83,9.190973281860352,-1.2027274370193481,77.81778717041016,2.400510091478888,-2.1714425866564606,-86.56590932119965,8.428111,-6.315366,9.555837,6.939607,-12.280584,2.794339,-14.733426,-22.714415,-16.619614,54.27089,-14.87505,-0.4016871,0.5105179,-1.589925,8.550825,-1.8870713,22.466719,-82.08011,74.703926,42.794613,5.28749,7.650956,-20.297644,-18.884048,17.25374,84.715805,-26.723038,10.526037,-4.0189724
84,9.254603385925293,-1.2617675065994263,77.81056213378906,2.3989605082701573,-2.2078255626613466,-86.32455393311476,8.491274,-6.3920565,9.324279,6.9414716,-12.3035345,2.859032,-15.120402,-22.811783,-16.840836,54.47844,-14.934437,-0.3526939,0.58863527,-1.5881917,8.637611,-1.6949123,22.639534,-82.083305,74.44968,43.18442,5.461323,7.458695,-21.010132,-19.199419,16.762905,84.72293,-26.537012,10.514086,-4.1244173
85,9.318472862243652,-1.3092820644378662,77.80763244628906,2.3846084231618785,-2.23666078879139,-86.10528357595668,8.549631,-6.4541507,9.111348,6.944255,-12.319617,2.9444401,-15.518946,-22.77073,-16.95966,54.449368,-14.89998,-0.2869036,0.69092155,-1.5653074,8.723652,-1.4947124,22.803085,-82.03994,74.15298,43.58246,5.627165,7.252782,-21.730492,-19.500483,16.177736,84.7549,-26.416306,10.487609,-4.227244
86,9.377957344055176,-1.3633960485458374,77.8056411743164,2.3614200524955358,-2.2594692869350754,-85.89958773597466,8.604505,-6.502567,8.909842,6.947026,-12.331554,3.0408337,-15.905237,-22.611053,-17.012608,54.179634,-14.814854,-0.14150426,0.81495845,-1.5271481,8.807211,-1.2859043,22.956594,-81.95491,73.820076,43.984543,5.79044,7.02597,-22.460054,-19.790926,15.56047,84.81177,-26.277891,10.444416,-4.3312907
87,9.437808990478516,-1.4284894466400146,77.80875396728516,2.3286905884132896,-2.2711810991768697,-85.70161648288425,8.649387,-6.538071,8.715873,6.9512463,-12.3440275,3.132754,-16.276768,-22.376299,-17.043278,53.71117,-14.685801,0.04832119,0.9501657,-1.4777896,8.883611,-1.0630578,23.099962,-81.84477,73.44827,44.345932,5.9472146,6.805017,-23.19211,-20.064657,14.8752,84.85002,-26.132711,10.398404,-4.437115
88,9.487744331359863,-1.4961086511611938,77.81114196777344,2.292639683334177,-2.2668233712511294,-85.50538623818375,8.678705,-6.5615234,8.525417,6.9546046,-12.358949,3.2048323,-16.631403,-22.106365,-17.095873,53.08746,-14.519916,0.24757598,1.0920025,-1.4255409,8.947253,-0.8243559,23.233994,-81.73459,73.038826,44.618084,6.0943117,6.6165633,-23.926987,-20.3188,14.185625,84.835915,-25.88554,10.362539,-4.548964
89,9.534822463989258,-1.565996766090393,77.8138427734375,2.2495252940201547,-2.2429181849660473,-85.31374769667029,8.688655,-6.5691404,8.341979,6.9574547,-12.376462,3.2511911,-16.966768,-21.801384,-17.186977,52.291565,-14.321255,0.45204803,1.2416321,-1.3674182,8.994004,-0.5685461,23.359531,-81.62364,72.586494,44.77803,6.236115,6.466867,-24.669907,-20.55115,13.505586,84.76815,-25.504213,10.341819,-4.676482
90,9.580770492553711,-1.6255968809127808,77.8159408569336,2.1991354727884724,-2.202635673485904,-85.12839902132401,8.682371,-6.5617337,8.166111,6.9619265,-12.39611,3.2806811,-17.28217,-21.443209,-17.291264,51.306595,-14.084753,0.67807287,1.3985896,-1.3022763,9.026497,-0.29483387,23.476797,-81.498314,72.09262,44.855625,6.3735323,6.342572,-25.42619,-20.761261,12.805746,84.670074,-25.040018,10.327905,-4.816857
91,9.619205474853516,-1.6880992650985718,77.81836700439453,2.1464131699536795,-2.151885665094992,-84.94131924359918,8.666529,-6.5482802,7.9892335,6.965288,-12.417727,3.3003588,-17.580034,-21.046059,-17.38932,50.17753,-13.802914,0.92204314,1.5563805,-1.2397723,9.051401,-0.0038911395,23.585684,-81.36568,71.56633,44.880753,6.4981885,6.2412834,-26.192257,-20.94776,12.096836,84.54084,-24.507847,10.313234,-4.9538503
92,9.655271530151367,-1.7647594213485718,77.82035064697266,2.09948776490469,-2.096391903271513,-84.74471002502169,8.645951,-6.5372605,7.8029947,6.968677,-12.443068,3.317363,-17.86349,-20.62533,-17.461071,48.95125,-13.469688,1.1800526,1.7034802,-1.1879841,9.074261,0.30723912,23.685238,-81.226006,71.01546,44.88532,6.6013985,6.1607504,-26.965721,-21.103485,11.298879,84.380424,-24.020803,10.29078,-5.0706043
93,9.679850578308105,-1.836730718612671,77.8223876953125,2.059185505242429,-2.036537425065189,-84.54171574953565,8.619896,-6.5288076,7.6110773,6.972492,-12.473786,3.3300695,-18.135767,-20.170446,-17.488033,47.610928,-13.085918,1.4576269,1.8464624,-1.1513176,9.095615,0.63756144,23.775713,-81.0662,70.44396,44.83624,6.6770887,6.1114144,-27.753029,-21.233868,10.506986,84.191025,-23.461624,10.254229,-5.166843
94,9.708484649658203,-1.9135456085205078,77.82250213623047,2.021736476273435,-1.9696936508343594,-84.33474239456378,8.586963,-6.5196276,7.415833,6.9761467,-12.508629,3.3360255,-18.391508,-19.67975,-17.483677,46.137997,-12.653714,1.7532343,1.981867,-1.123571,9.111927,0.99014837,23.856943,-80.882965,69.8448,44.731834,6.73129,6.091129,-28.55514,-21.337303,9.662106,83.96811,-22.889202,10.213104,-5.248329
95,9.728555679321289,-1.9901272058486938,77.82026672363281,1.9866663694095956,-1.8973396010722754,-84.11440839167935,8.548703,-6.512005,7.20699,6.9800744,-12.545126,3.3406544,-18.62376,-19.1814,-17.47553,44.58024,-12.171098,2.052772,2.1103039,-1.1094351,9.126474,1.3565062,23.928677,-80.723564,69.226234,44.643353,6.7735395,6.077815,-29.367846,-21.41867,8.875951,83.73322,-22.218729,10.166196,-5.3218617
96,9.752241134643555,-2.068852424621582,77.81787109375,1.957441848344714,-1.8212094739393365,-83.87165048636705,8.5075445,-6.5085936,6.974429,6.9836774,-12.579659,3.3495007,-18.826359,-18.702415,-17.49157,42.98471,-11.634607,2.342701,2.2204015,-1.1048325,9.14032,1.7359241,23.988804,-80.62337,68.58834,44.64445,6.8135934,6.048953,-30.173456,-21.465658,8.010188,83.47259,-21.631887,10.132055,-5.382598
97,9.771524429321289,-2.1458775997161865,77.81866455078125,1.9337966976786487,-1.7407392188072792,-83.60195809384552,8.463019,-6.5102034,6.7123337,6.987857,-12.612556,3.3669877,-18.994112,-18.248312,-17.538658,41.33772,-11.043294,2.6256063,2.3001006,-1.1132934,9.151541,2.1363473,24.028336,-80.578094,67.9461,44.77945,6.8480406,6.0115066,-30.992569,-21.476145,7.13566,83.212135,-21.06577,10.115576,-5.433598
98,9.787487030029297,-2.2407937049865723,77.81819915771484,1.9128085008670006,-1.6555157773768496,-83.31095595344432,8.41382,-6.515433,6.427324,6.9928265,-12.644814,3.3892474,-19.131874,-17.80534,-17.600368,39.622322,-10.398975,2.9065623,2.3760715,-1.1209748,9.163339,2.544428,24.06186,-80.59487,67.27241,44.99762,6.873371,5.969718,-31.77534,-21.409782,5.603486,82.90192,-21.135946,10.110302,-5.465489
99,9.791679382324219,-2.3295843601226807,77.81523132324219,1.8973691402032842,-1.56590343786106,-83.00442104194907,8.360901,-6.523715,6.127422,6.9969616,-12.675946,3.4087625,-19.249622,-17.372398,-17.669735,37.878975,-9.701836,3.176181,2.448593,-1.1907918,9.171557,2.9532478,24.074162,-80.67151,66.6449,45.229652,6.9002466,5.9133835,-32.587807,-21.40885,5.3893023,82.58744,-19.84777,10.115277,-5.5152493
100,9.788712501525879,-2.416179656982422,77.81227111816406,1.8869347851481901,-1.4748038081429478,-82.6892110947154,8.306492,-6.532592,5.8215523,7.0011086,-12.706909,3.418925,-19.356321,-16.94753,-17.739178,36.1508,-8.953659,3.425823,2.5006633,-1.2222782,9.18054,3.3735018,24.078653,-80.78506,65.950035,45.434425,6.9274793,5.8216643,-33.381016,-21.362938,4.578203,82.21054,-19.198273,10.11215,-5.531842
101,9.793610572814941,-2.512916088104248,77.80462646484375,1.8793677782865341,-1.381329266430375,-82.36245201427471,8.248911,-6.543296,5.5070987,7.004903,-12.736422,3.4175024,-19.451853,-16.539564,-17.818985,34.43419,-8.155581,3.634092,2.5600543,-1.2759107,9.190216,3.7765467,24.0686,-81.008415,65.2556,45.580772,6.9697113,5.6876607,-34.137363,-21.30669,3.9775767,81.75671,-18.300468,10.098857,-5.542045
102,9.78576946258545,-2.6150596141815186,77.8005599975586,1.8767417414740164,-1.2852942788205284,-82.02258642391182,8.188654,-6.555542,5.181345,7.007694,-12.764446,3.4084046,-19.534428,-16.148579,-17.90736,32.71527,-7.3086348,3.8118384,2.6318583,-1.3264769,9.19771,4.16364,24.027504,-81.34272,64.56045,45.69716,7.0180025,5.521219,-34.833862,-21.14327,2.68996,81.218414,-18.066446,10.080414,-5.5382223
103,9.787071228027344,-2.7145705223083496,77.79708099365234,1.8781585606327393,-1.1860063208691887,-81.67654920433064,8.126368,-6.5680056,4.851754,7.0109763,-12.793438,3.3928063,-19.609282,-15.762766,-17.979113,31.01109,-6.409973,3.9977002,2.6915927,-1.418303,9.199721,4.5664124,23.966946,-81.675545,63.89352,45.794785,7.058781,5.3390856,-35.535755,-21.01457,2.2050362,80.64541,-17.042889,10.081472,-5.548881
104,9.781672477722168,-2.818570852279663,77.79414367675781,1.878776625723924,-1.0840415608447465,-81.3314599724032,8.066273,-6.577957,4.525732,7.01335,-12.824466,3.3724418,-19.676996,-15.368734,-18.009335,29.334093,-5.4544373,4.231016,2.7592494,-1.4889687,9.198349,4.986382,23.88135,-81.95297,63.216923,45.8862,7.0643783,5.153067,-36.22351,-20.862963,1.5379795,80.03026,-16.280811,10.111307,-5.550439
105,9.777985572814941,-2.9348342418670654,77.78443908691406,1.8830693954160314,-0.982069573415133,-80.98816899310648,8.011106,-6.5867963,4.2056603,7.0163074,-12.860156,3.346065,-19.73375,-14.967046,-17.99795,27.675463,-4.398832,4.5510287,2.8513603,-1.5662359,9.195644,5.4173484,23.773361,-82.174904,62.553238,45.961685,7.0284715,4.963462,-36.871384,-20.700174,0.93918097,79.3442,-15.525928,10.19065,-5.550426
106,9.769083976745605,-3.0527775287628174,77.7771224975586,1.8895009958356066,-0.8795284553620238,-80.64296886422993,7.9593606,-6.5958104,3.8873332,7.019041,-12.898527,3.3135872,-19.776207,-14.565413,-17.95305,26.02385,-3.260134,4.928924,2.9574518,-1.6451147,9.192005,5.857594,23.64295,-82.37062,61.893093,46.021587,6.9619536,4.7643685,-37.492863,-20.51751,0.33922967,78.60264,-14.830042,10.300664,-5.546387
107,9.755268096923828,-3.1692943572998047,77.77025604248047,1.8982542319545777,-0.7713481082400923,-80.29565815807311,7.904292,-6.6028337,3.5674725,7.0211816,-12.936513,3.2778137,-19.813093,-14.163823,-17.861906,24.403212,-2.1230738,5.3008585,3.0740495,-1.7263913,9.182313,6.306102,23.490383,-82.554794,61.239597,46.066193,6.881261,4.5583963,-38.08962,-20.314995,-0.23158374,77.81516,-14.122055,10.423184,-5.5509887
108,9.738846778869629,-3.2950527667999268,77.76485443115234,1.9066254507213494,-0.6521831538883303,-79.94582682404531,7.8392415,-6.605435,3.2427661,7.023431,-12.972483,3.24152,-19.85328,-13.762522,-17.716007,22.839077,-1.0730305,5.601024,3.1969852,-1.8080357,9.161877,6.761753,23.315775,-82.741196,60.594456,46.096706,6.802185,4.3482924,-38.666084,-20.095741,-0.73619884,76.99795,-13.324239,10.535667,-5.57667
109,9.720690727233887,-3.4263577461242676,77.76080322265625,1.9187711013540192,-0.5198924721916349,-79.59515706182542,7.7612624,-6.6081614,2.913512,7.0258994,-13.005363,3.2118015,-19.915457,-13.357725,-17.477074,21.352505,-0.1360848,5.7967215,3.3259819,-1.893511,9.1277485,7.226559,23.11866,-82.938705,59.95227,46.096577,6.7220855,4.1257653,-39.221214,-19.861446,-1.1631745,76.155556,-12.4263935,10.6144285,-5.5842366
110,9.705026626586914,-3.562868118286133,77.75506591796875,1.9343919759336978,-0.37767363176816776,-79.24310985833108,7.6752105,-6.6108346,2.5807686,7.0277643,-13.036439,3.185037,-19.988853,-12.955095,-17.165134,19.928614,0.7341328,5.926399,3.465116,-1.979757,9.083477,7.698848,22.898441,-83.141754,59.31277,46.07058,6.634536,3.8920572,-39.751053,-19.606705,-1.5565004,75.27824,-11.488265,10.676968,-5.5791764
111,9.676894187927246,-3.6981050968170166,77.75161743164062,1.9462749738411942,-0.2281762672096832,-78.88622124172493,7.583202,-6.6041307,2.2432203,7.029918,-13.066377,3.1480417,-20.046577,-12.568072,-16.858042,18.552114,1.5577573,6.0305123,3.611404,-2.0623498,9.03333,8.175844,22.655712,-83.3348,58.688725,46.05176,6.5508265,3.6649806,-40.259846,-19.335737,-1.8831055,74.36069,-10.460613,10.762125,-5.6439652
112,9.650922775268555,-3.8414406776428223,77.74945831298828,1.9472984475459405,-0.07431938440321258,-78.52094509817528,7.488798,-6.5796666,1.8991805,7.031657,-13.09551,3.0879495,-20.057552,-12.205397,-16.634565,17.19553,2.356405,6.1515026,3.764577,-2.1318073,8.982007,8.652722,22.391338,-83.50651,58.08831,46.072994,6.4811654,3.4618745,-40.750443,-19.048452,-2.160133,73.39776,-9.343777,10.904332,-5.8595176
113,9.62170696258545,-3.9952993392944336,77.74893951416016,1.9339727614644147,0.08026857826731933,-78.15051210223983,7.3975587,-6.532722,1.5519105,7.0331745,-13.126669,2.9969568,-20.020355,-11.856986,-16.495113,15.858396,3.1231632,6.2808414,3.929867,-2.1839354,8.932246,9.13026,22.105753,-83.64976,57.50915,46.165833,6.4341545,3.2979088,-41.21647,-18.744808,-2.3762362,72.37884,-8.116491,11.116087,-6.251885
114,9.595349311828613,-4.1526336669921875,77.74852752685547,1.9117579080576834,0.23793334344768616,-77.775025823386,7.3068256,-6.4701476,1.2004827,7.0339165,-13.158702,2.8836572,-19.950405,-11.517999,-16.406366,14.550935,3.8518414,6.403973,4.1047864,-2.2241635,8.880852,9.610953,21.799076,-83.77232,56.946175,46.305492,6.4018927,3.1602416,-41.65672,-18.423262,-2.5326376,71.309555,-6.7882395,11.368613,-6.779109
115,9.561200141906738,-4.307013988494873,77.75007629394531,1.888069594953148,0.4045621881763968,-77.38548935371823,7.206654,-6.4010553,0.8366129,7.034271,-13.186297,2.7599242,-19.845694,-11.203983,-16.39392,13.270972,4.5684114,6.5562997,4.276664,-2.261982,8.824308,10.092181,21.472462,-83.883965,56.40576,46.440628,6.3705473,3.0242698,-42.076416,-18.084179,-2.6325767,70.19954,-5.3665967,11.637723,-7.421934
116,9.524389266967773,-4.472733497619629,77.75667572021484,1.8707787112871075,0.5858572908564776,-76.97276630035384,7.087748,-6.3347864,0.45167798,7.033877,-13.203535,2.6375403,-19.700596,-10.928612,-16.48303,12.007165,5.3004174,6.773394,4.4331107,-2.30685,8.7591915,10.571044,21.127972,-83.99477,55.893784,46.51968,6.326492,2.8655324,-42.486126,-17.729408,-2.6831832,69.06832,-3.8663018,11.894418,-8.160357
117,9.478382110595703,-4.644253253936768,77.76372528076172,1.866955625428369,0.7820188892464919,-76.53216825962811,6.950286,-6.2789764,0.039477162,7.03095,-13.207323,2.5209136,-19.486261,-10.689138,-16.698812,10.699186,6.0633044,7.1316075,4.572709,-2.3649533,8.685879,11.045335,20.767328,-84.11243,55.41237,46.530525,6.266781,2.6740625,-42.87721,-17.358313,-2.6759868,67.90635,-2.2684305,12.120431,-8.995817
118,9.428547859191895,-4.811017036437988,77.77172088623047,1.8745660302504839,0.9896356773891637,-76.06819701136659,6.799124,-6.230673,-0.39528015,7.0276113,-13.202238,2.4037507,-19.207996,-10.473853,-17.02147,9.353834,6.848311,7.5923963,4.700301,-2.432895,8.606638,11.517201,20.391552,-84.23044,54.95542,46.499794,6.198954,2.4638834,-43.244934,-16.970963,-2.6051376,66.707466,-0.56425285,12.323346,-9.937314
119,9.386016845703125,-4.9982380867004395,77.77671813964844,1.8819481011670862,1.2108291131181668,-75.58752968573707,6.6320863,-6.176542,-0.8425555,7.024048,-13.190965,2.2804337,-18.930937,-10.282616,-17.409605,8.101161,7.634277,8.018949,4.8197093,-2.49743,8.520416,11.988912,20.001621,-84.34122,54.514545,46.43482,6.1245804,2.2458112,-43.59919,-16.565973,-2.511577,65.48027,1.1862427,12.523092,-10.973379
120,9.335891723632812,-5.17429256439209,77.78652954101562,1.873566467884811,1.4497840924648284,-75.10054426585098,6.444481,-6.0979433,-1.2896281,7.021776,-13.1774025,2.1446693,-18.729654,-10.115632,-17.821257,7.0892406,8.391426,8.273339,4.9374757,-2.5427241,8.423986,12.461736,19.59852,-84.43723,54.082462,46.34185,6.045118,2.0308673,-43.94883,-16.143148,-2.4328218,64.23194,2.928599,12.742289,-12.094492
121,9.282243728637695,-5.3541259765625,77.8033676147461,1.8338752875938633,1.716507504087816,-74.61338400377782,6.2254148,-5.976082,-1.7273937,7.021026,-13.162514,1.9915817,-18.640196,-9.964008,-18.285084,6.3908095,9.191242,8.352295,5.0590434,-2.5530977,8.30672,12.939016,19.181768,-84.5055,53.65879,46.183567,5.9538264,1.8342813,-44.29519,-15.702416,-2.371318,62.95917,4.6740246,12.999104,-13.323389
122,9.226953506469727,-5.546581745147705,77.82357788085938,1.76954114995481,2.0086057910765627,-74.12340517052478,5.977328,-5.818529,-2.161743,7.0228224,-13.145719,1.8242551,-18.756254,-9.86964,-18.789183,6.217316,9.865467,8.319167,5.1831145,-2.5359638,8.170639,13.418187,18.75128,-84.55428,53.24656,45.968983,5.852723,1.6457957,-44.62948,-15.243146,-2.3107433,61.65504,6.446391,13.268942,-14.660508
123,9.16362190246582,-5.739547252655029,77.8474349975586,1.6959292692716363,2.311378285128521,-73.62589347494095,5.7162056,-5.6431336,-2.6030767,7.0253005,-13.125754,1.6478149,-18.89725,-9.796117,-19.297108,6.1741796,10.421993,8.131458,5.3072734,-2.50558,8.031176,13.893221,18.309288,-84.607155,52.84193,45.776295,5.7562933,1.4379743,-44.94633,-14.764759,-2.265339,60.32132,8.206574,13.514908,-16.06222
124,9.103708267211914,-5.935317039489746,77.86449432373047,1.6281385318909571,2.609718721665295,-73.1156527645491,5.457171,-5.4692025,-3.062077,7.029026,-13.102461,1.4677719,-19.01136,-9.747567,-19.74869,6.153236,10.716285,7.7462864,5.429299,-2.4774702,7.904323,14.357229,17.8604,-84.68828,52.43947,45.683514,5.6787615,1.183655,-45.239944,-14.267994,-2.2483275,58.95935,9.914817,13.70446,-17.481462
125,9.033963203430176,-6.128798484802246,77.87763214111328,1.5689628813466472,2.8929126525015927,-72.59504248057718,5.213872,-5.299848,-3.5424907,7.035983,-13.080512,1.285838,-19.08067,-9.72165,-20.076067,6.166231,10.622093,7.0386777,5.5561066,-2.4518661,7.794566,14.8148365,17.409332,-84.8034,52.034878,45.731094,5.618647,0.8499033,-45.50546,-13.752798,-2.2737873,57.571068,11.57168,13.831131,-18.960653
126,8.961642265319824,-6.340734004974365,77.89547729492188,1.5102090427653703,3.170995426965774,-72.06504799657951,4.9752245,-5.1256104,-4.038922,7.043815,-13.05773,1.0991892,-19.27981,-9.767951,-20.298943,6.5822854,10.074461,6.0697927,5.68727,-2.4222245,7.6932883,15.267837,16.958912,-84.93975,51.62589,45.87088,5.56913,0.45959562,-45.745354,-13.220175,-2.3321292,56.153202,13.191907,13.90996,-20.50417
127,8.886336326599121,-6.550223350524902,77.91754913330078,1.4516194842110681,3.4598334330742255,-71.51876993070282,4.7170353,-4.946381,-4.5478067,7.052976,-13.026805,0.9059206,-19.54523,-9.858414,-20.542088,7.1612935,9.372836,5.072988,5.8110423,-2.3924007,7.5970807,15.705331,16.510824,-85.09418,51.20941,46.0484,5.5364985,0.069115475,-45.966827,-12.672635,-2.4016495,54.700165,14.758426,13.949472,-22.006039
128,8.80144214630127,-6.752995491027832,77.93917083740234,1.3919256696725244,3.7764925742788065,-70.95081835271095,4.4172196,-4.7595305,-5.0647807,7.058235,-12.977962,0.70348686,-19.74048,-9.938103,-20.951416,7.500851,8.901544,4.2799807,5.916898,-2.3642917,7.501763,16.115604,16.065594,-85.264244,50.78347,46.208508,5.5279,-0.26526934,-46.17828,-12.1147175,-2.4585853,53.207455,16.25484,13.964786,-23.360483
129,8.71186351776123,-6.953615188598633,77.96643829345703,1.327343667686131,4.135764022629064,-70.35797523062473,4.0562644,-4.5573673,-5.597829,7.0614166,-12.908195,0.48638618,-19.841093,-10.001733,-21.61943,7.5036616,8.769519,3.7671757,6.00453,-2.3371203,7.3980193,16.488495,15.622812,-85.461784,50.350605,46.31709,5.5529447,-0.5213629,-46.377304,-11.546994,-2.5213065,51.65963,17.688328,13.969949,-24.528652
130,8.612569808959961,-7.150706768035889,77.99803924560547,1.2603313395010223,4.525671277378215,-69.74416180016891,3.6529481,-4.342395,-6.146722,7.061535,-12.822816,0.2566714,-19.886522,-10.063352,-22.4581,7.3166895,8.802738,3.406334,6.0805173,-2.3090985,7.291155,16.831917,15.182772,-85.68538,49.910324,46.409904,5.6056123,-0.7318688,-46.562233,-10.969682,-2.5938535,50.06334,19.065235,13.965465,-25.569675
131,8.5065336227417,-7.349688529968262,78.03280639648438,1.1991831127795582,4.92279372695745,-69.11525209428717,3.2365098,-4.1268063,-6.6939263,7.0574694,-12.726358,0.022713382,-19.907492,-10.125615,-23.336048,7.0647345,8.876005,3.122005,6.145521,-2.2785935,7.199475,17.161722,14.746886,-85.91351,49.45516,46.538094,5.669443,-0.92326915,-46.74351,-10.386693,-2.6329286,48.4499,20.362844,13.94916,-26.524164
132,8.400485038757324,-7.541224479675293,78.06517028808594,1.1504770141227076,5.303884072938862,-68.4772293751622,2.8298385,-3.922956,-7.2208576,7.059431,-12.628978,-0.20663033,-19.932734,-10.190131,-24.120798,6.8654175,8.866785,2.838345,6.201389,-2.242784,7.1411695,17.493093,14.317241,-86.1251,48.976517,46.752533,5.727707,-1.1221985,-46.930344,-9.802245,-2.5964754,46.850327,21.559145,13.917298,-27.431726
133,8.286602020263672,-7.722805976867676,78.09632873535156,1.1176140341136558,5.659194477314376,-67.82544588914654,2.4490368,-3.735514,-7.739085,7.0577397,-12.529716,-0.43087474,-19.975555,-10.26706,-24.76211,6.780253,8.717959,2.5526686,6.2456164,-2.1994755,7.124154,17.830496,13.895741,-86.302635,48.4733,47.07443,5.7821016,-1.345264,-47.120705,-9.216627,-2.48119,45.265244,22.652355,13.868835,-28.283796
134,8.177247047424316,-7.915833473205566,78.12654876708984,1.096866447809238,6.00183304100869,-67.15838355903337,2.0770018,-3.558186,-8.252925,7.053368,-12.424838,-0.6536914,-20.015274,-10.350315,-25.335106,6.7272887,8.507311,2.2994928,6.2786884,-2.1500185,7.1381903,18.165253,13.48341,-86.46112,47.945778,47.474617,5.8387256,-1.5756615,-47.310543,-8.627625,-2.307712,43.681366,23.654924,13.812972,-29.065796
135,8.063220977783203,-8.113096237182617,78.15689086914062,1.083536941665682,6.342886885309774,-66.48732159369054,1.6975999,-3.385467,-8.732908,7.0519805,-12.310487,-0.8717913,-20.060982,-10.434409,-25.89008,6.6835957,8.283325,2.0590768,6.3070655,-2.0970864,7.173831,18.49282,13.080776,-86.62814,47.387524,47.927807,5.887018,-1.7900413,-47.508278,-8.037161,-2.0676112,42.11278,24.561863,13.76051,-29.807367
136,7.948688507080078,-8.299396514892578,78.18960571289062,1.0735340665802702,6.693421350360611,-65.82315010111475,1.3006623,-3.2112167,-9.150553,7.047213,-12.176308,-1.0845709,-20.113724,-10.5102625,-26.479042,6.609126,8.102791,1.8117447,6.339294,-2.0420525,7.221497,18.808367,12.687901,-86.83354,46.79227,48.409164,5.916712,-1.964989,-47.72041,-7.448838,-1.7546358,40.57199,25.371166,13.721433,-30.538034
137,7.82073974609375,-8.476907730102539,78.22534942626953,1.0623534556534533,7.059100555375644,-65.16575175766714,0.87559885,-3.0324879,-9.519636,7.047573,-12.0261755,-1.2899112,-20.174393,-10.571866,-27.120863,6.4913826,7.9807897,1.5552152,6.380059,-1.982033,7.2756467,19.107716,12.304734,-87.096825,46.161274,48.94297,5.9263864,-2.082291,-47.946747,-6.8662972,-1.3592162,39.064167,26.06231,13.706468,-31.27143
138,7.690267086029053,-8.650897026062012,78.26374816894531,1.0534519820993578,7.432659754203126,-64.51046188407685,0.4293806,-2.852666,-9.848031,7.0563107,-11.865059,-1.4896755,-20.239473,-10.622965,-27.786789,6.3459673,7.8897943,1.299304,6.4281406,-1.9148932,7.343017,19.394236,11.931373,-87.40199,45.49599,49.5318,5.9213104,-2.158556,-48.182655,-6.289808,-0.88990575,37.582375,26.64533,13.7124605,-31.989435
139,7.5516557693481445,-8.815397262573242,78.29885864257812,1.0477281120468351,7.805851802351931,-63.86065649700976,-0.025745776,-2.6685607,-10.098889,7.0667067,-11.687293,-1.6873919,-20.359276,-10.693865,-28.450308,6.3082414,7.7528954,1.0431505,6.479753,-1.8385062,7.4326825,19.674013,11.568142,-87.72332,44.79128,50.11718,5.9020844,-2.2221956,-48.431305,-5.718055,-0.36197722,36.123478,27.16435,13.727213,-32.673862
140,7.420154094696045,-8.978339195251465,78.33073425292969,1.0547771566978383,8.170420812596818,-63.220534994292905,-0.48025465,-2.486738,-10.233229,7.0771694,-11.490257,-1.8857635,-20.495852,-10.776735,-29.096895,6.30622,7.6012607,0.78474677,6.532119,-1.7598672,7.5541306,19.952803,11.21568,-88.034935,44.041847,50.64092,5.8687057,-2.3013964,-48.69565,-5.147616,0.20794602,34.68432,27.659853,13.737528,-33.306404
141,7.2765069007873535,-9.133955955505371,78.36572265625,1.0778383077836733,8.524270657953426,-62.59425915445525,-0.9327285,-2.3082523,-10.251997,7.0853,-11.266173,-2.087724,-20.632355,-10.862199,-29.724943,6.300796,7.456335,0.5157509,6.5874257,-1.6846412,7.71303,20.231478,10.875411,-88.32802,43.23963,51.099655,5.8265295,-2.4148936,-48.97972,-4.575524,0.83565867,33.26731,28.138502,13.73104,-33.89712
142,7.122328758239746,-9.274381637573242,78.4005126953125,1.1142472524205433,8.871525289216166,-61.97850824742992,-1.3897201,-2.1332934,-10.171454,7.0951324,-11.019038,-2.2899725,-20.770226,-10.949069,-30.343864,6.2880564,7.3228827,0.23944946,6.6447597,-1.611763,7.903186,20.507647,10.548185,-88.61484,42.388042,51.520668,5.77376,-2.543906,-49.279655,-3.999929,1.5248219,31.872854,28.579573,13.719571,-34.451385
143,6.972209930419922,-9.428389549255371,78.43701934814453,1.1637549891172916,9.214039989687656,-61.36761386557614,-1.8477556,-1.9634483,-9.974048,7.101749,-10.756005,-2.4849255,-20.924242,-11.051868,-30.95039,6.3029513,7.178497,-0.028949058,6.6994886,-1.5367202,8.116412,20.781538,10.233302,-88.903435,41.499027,51.890945,5.699893,-2.66034,-49.585537,-3.418027,2.2360084,30.49404,28.981977,13.724668,-34.943108
144,6.823437690734863,-9.570518493652344,78.47229766845703,1.2269122494673759,9.552066963180394,-60.754462340848235,-2.3060074,-1.802423,-9.643213,7.1083207,-10.492353,-2.6645916,-21.079561,-11.170104,-31.547207,6.316317,7.0347657,-0.27411294,6.7435517,-1.4567869,8.345493,21.054243,9.928881,-89.199936,40.586273,52.19719,5.595431,-2.7360833,-49.89183,-2.8291001,2.933562,29.127415,29.346111,13.767852,-35.346428
145,6.672090530395508,-9.69684886932373,78.50394439697266,1.309641689387581,9.886534958032934,-60.13102545362178,-2.766292,-1.653769,-9.15879,7.1148753,-10.221367,-2.830651,-21.235334,-11.31299,-32.140636,6.3268394,6.8907905,-0.49084297,6.7700176,-1.3775661,8.588637,21.329498,9.633326,-89.50628,39.6483,52.415264,5.4605427,-2.7513757,-50.201736,-2.2329862,3.6066566,27.77553,29.643805,13.875725,-35.63811
146,6.513539791107178,-9.825839042663574,78.53597259521484,1.4105638066834296,10.216408686700223,-59.5028000282221,-3.2421944,-1.5176709,-8.534264,7.150407,-9.954203,-2.9838686,-21.393696,-11.475867,-32.727634,6.338597,6.74638,-0.6875582,6.784889,-1.2997282,8.849771,21.60552,9.346019,-89.81933,38.681725,52.559006,5.300028,-2.7251866,-50.516945,-1.6294857,4.273479,26.43841,29.885757,14.031868,-35.83736
147,6.354215145111084,-9.949511528015137,78.56525421142578,1.5198652548852898,10.539087141479975,-58.8832805754847,-3.7619476,-1.394121,-7.8021145,7.288821,-9.742284,-3.114791,-21.554354,-11.643244,-33.29489,6.3477087,6.6066513,-0.8690391,6.8002725,-1.2135342,9.131254,21.874517,9.066248,-90.13845,37.697613,52.67238,5.1110168,-2.6875315,-50.83073,-1.017175,4.9417415,25.110773,30.12477,14.193251,-35.983284
148,6.209224224090576,-10.054581642150879,78.59220886230469,1.627288097639163,10.852363303844106,-58.286570848567614,-4.2655725,-1.2685746,-6.997509,7.412336,-9.5351515,-3.2155178,-21.720009,-11.801115,-33.82898,6.358101,6.4716344,-1.0401117,6.828323,-1.1085,9.43507,22.127886,8.793075,-90.46283,36.70684,52.799618,4.890271,-2.6678486,-51.134808,-0.39412966,5.618191,23.785566,30.414509,14.315815,-36.11453
149,6.050127983093262,-10.162617683410645,78.61763763427734,1.7309952107455477,11.153751605217908,-57.71289419234927,-4.749856,-1.137685,-6.090893,7.5235877,-9.334841,-3.2767482,-21.886372,-11.94613,-34.32202,6.364779,6.343571,-1.1934806,6.8694324,-0.98192906,9.764294,22.36432,8.5256815,-90.800606,35.705544,52.972027,4.6157484,-2.6742623,-51.427597,0.24167615,6.290347,22.455147,30.80728,14.388848,-36.23659
150,5.891448020935059,-10.257970809936523,78.63582611083984,1.8353973925593434,11.445623993801506,-57.156212491363895,-5.221037,-1.0050622,-5.0768294,7.6297565,-9.139709,-3.3040252,-22.055166,-12.085768,-34.782997,6.3704405,6.219874,-1.329508,6.9168653,-0.83944875,10.1165695,22.588076,8.2634325,-91.148445,34.691277,53.159584,4.296031,-2.6902404,-51.714073,0.89025474,6.9598737,21.12597,31.260292,14.435211,-36.33026
151,5.730626583099365,-10.338356018066406,78.6537857055664,1.940042155281401,11.732618015530996,-56.61930148210899,-5.6772094,-0.87579,-4.025379,7.717752,-8.947121,-3.3119116,-22.233206,-12.219848,-35.223972,6.3766937,6.1022625,-1.4644016,6.970009,-0.68306434,10.485929,22.800009,8.005584,-91.48905,33.677162,53.312927,3.9742837,-2.7088988,-51.99619,1.5501435,7.654713,19.812435,31.685652,14.46164,-36.39787
152,5.5773162841796875,-10.420633316040039,78.67019653320312,2.0437871333013216,12.019240802760462,-56.1051228689485,-6.1176376,-0.7548747,-3.0069196,7.7749233,-8.754443,-3.3159976,-22.424463,-12.346156,-35.658516,6.3816285,5.993286,-1.6145686,7.02872,-0.513769,10.866909,23.000471,7.7512364,-91.80553,32.67639,53.383602,3.6935432,-2.724238,-52.27784,2.2197084,8.404881,18.533718,31.994446,14.473631,-36.44028
153,5.416504859924316,-10.486988067626953,78.68217468261719,2.1436556071916697,12.304991627921682,-55.6183355566942,-6.530368,-0.63818616,-1.989885,7.78056,-8.555272,-3.3278654,-22.63065,-12.461626,-36.09198,6.3886423,5.892359,-1.7909399,7.0948896,-0.32573214,11.260529,23.193968,7.4993067,-92.10139,31.680925,53.33156,3.4809043,-2.7485137,-52.56069,2.900659,9.217671,17.295471,32.14167,14.462686,-36.4421
154,5.261448860168457,-10.555543899536133,78.69378662109375,2.240630233508785,12.587817597651961,-55.155917939619016,-6.917898,-0.5262973,-0.9532665,7.743841,-8.35133,-3.3373477,-22.847084,-12.56723,-36.517727,6.392255,5.8012347,-1.9827919,7.1670504,-0.11977835,11.66908,23.37791,7.248876,-92.38307,30.690378,53.192047,3.307452,-2.780129,-52.841526,3.5944774,10.078265,16.088379,32.18154,14.428886,-36.407303
155,5.1054911613464355,-10.616280555725098,78.69940185546875,2.337993035220105,12.870605637825893,-54.71060255861017,-7.303771,-0.42890286,0.017379811,7.7009873,-8.154634,-3.3286421,-23.074648,-12.668757,-36.928333,6.3936305,5.716652,-2.1739545,7.241921,0.09438447,12.087869,23.543118,6.9997916,-92.6382,29.724298,53.02893,3.1349747,-2.7954626,-53.1095,4.2986007,10.9839525,14.89907,32.176838,14.394491,-36.368477
156,4.9416584968566895,-10.667961120605469,78.7044906616211,2.43901952477657,13.156098217696309,-54.274901492767285,-7.713954,-0.35423982,0.8362236,7.6901026,-7.9785247,-3.2862294,-23.315945,-12.773329,-37.31629,6.3964453,5.6351743,-2.3483033,7.3174043,0.3078622,12.512673,23.679955,6.7522492,-92.85571,28.80352,52.90639,2.924198,-2.7695909,-53.352657,5.008512,11.93034,13.71186,32.191532,14.381582,-36.358616
157,4.783258438110352,-10.719433784484863,78.7042236328125,2.5446616560323716,13.444916064332483,-53.851313688498145,-8.153119,-0.30568364,1.5056145,7.7221,-7.832696,-3.1916182,-23.570848,-12.878716,-37.67668,6.3978767,5.5552964,-2.50212,7.397995,0.51806235,12.942992,23.786415,6.5057707,-93.03604,27.938261,52.873,2.6430507,-2.689074,-53.56776,5.722413,12.913915,12.512407,32.225426,14.4248295,-36.394314
158,4.629002571105957,-10.7561616897583,78.70484161376953,2.652555954215396,13.735821097592954,-53.441957798090215,-8.606684,-0.27763844,2.0630364,7.7700467,-7.7054296,-3.0590844,-23.839796,-12.98275,-38.01445,6.399249,5.478653,-2.6438327,7.48401,0.73095524,13.38131,23.866404,6.26005,-93.18518,27.115858,52.88443,2.3201444,-2.5695395,-53.759373,6.439918,13.939278,11.310835,32.251163,14.503049,-36.4553
159,4.46420431137085,-10.792336463928223,78.7032470703125,2.7620778911614137,14.027778199669534,-53.03919762867705,-9.075862,-0.26528475,2.4748511,7.825905,-7.583877,-2.9221115,-24.118282,-13.087457,-38.3391,6.399142,5.408731,-2.7755778,7.56793,0.95038265,13.827434,23.917664,6.0158253,-93.30126,26.325994,52.865135,2.0043695,-2.4274137,-53.927647,7.1574774,15.0146055,10.129595,32.292774,14.554687,-36.519646
160,4.302265644073486,-10.819328308105469,78.70085906982422,2.872554151957383,14.31960756204322,-52.63545940263377,-9.562049,-0.2647388,2.707379,7.8811574,-7.45427,-2.8138542,-24.40302,-13.196732,-38.659286,6.397218,5.349913,-2.8995233,7.6431074,1.1799878,14.281898,23.936903,5.7749867,-93.38324,25.557346,52.73905,1.744359,-2.2803402,-54.072533,7.869612,16.149815,8.991748,32.375206,14.518336,-36.565083
161,4.144697666168213,-10.834037780761719,78.69762420654297,2.9831400557177656,14.61411226004544,-52.23044387194168,-10.074427,-0.28084815,2.71803,7.941437,-7.3173018,-2.7279766,-24.69801,-13.3114,-38.973324,6.396806,5.302307,-3.0131028,7.709362,1.4195262,14.742148,23.923748,5.5399227,-93.42887,24.797,52.467926,1.5869942,-2.1380367,-54.1933,8.569355,17.360899,7.908935,32.48578,14.365108,-36.558846
162,3.9804883003234863,-10.849854469299316,78.68949890136719,3.09456062089768,14.910312980377217,-51.827406955437105,-10.609683,-0.31661254,2.535955,8.008867,-7.178549,-2.6524935,-25.001541,-13.429937,-39.278053,6.392271,5.267849,-3.1164763,7.7730513,1.6684065,15.210166,23.877077,5.31216,-93.44258,24.052107,52.098114,1.4942875,-1.9900227,-54.284832,9.254693,18.640366,6.862284,32.62058,14.13205,-36.522003
163,3.814199209213257,-10.851147651672363,78.6812973022461,3.2054659542869106,15.203148449260741,-51.42566692215422,-11.144498,-0.36288148,2.2354019,8.057819,-7.02553,-2.612321,-25.308084,-13.55226,-39.57895,6.389931,5.2382975,-3.2161603,7.8376484,1.930853,15.690627,23.795263,5.092244,-93.43155,23.34182,51.68038,1.3875967,-1.824327,-54.34469,9.928607,19.963806,5.8333364,32.815853,13.857444,-36.5121
164,3.6506664752960205,-10.848884582519531,78.6678695678711,3.3162939507857345,15.48631706030952,-51.02374740776295,-11.6547785,-0.411337,1.8901973,8.063568,-6.8470016,-2.6317735,-25.607573,-13.677054,-39.88212,6.384307,5.2126503,-3.3183544,7.903943,2.2086937,16.18889,23.677397,4.879693,-93.40206,22.685951,51.266197,1.1884947,-1.6297146,-54.3726,10.597341,21.30539,4.805666,33.106033,13.578628,-36.58643
165,3.494497776031494,-10.840790748596191,78.6554183959961,3.4245793494186496,15.761252568611857,-50.61307942999593,-12.141691,-0.45803872,1.4689826,8.017777,-6.634613,-2.742619,-25.900858,-13.805717,-40.19718,6.3822985,5.183414,-3.423043,7.966412,2.5051184,16.703451,23.513231,4.673909,-93.34753,22.09278,50.885544,0.8399255,-1.4174067,-54.369324,11.26641,22.681904,3.7778807,33.51357,13.290245,-36.805527
166,3.32531476020813,-10.82589054107666,78.64082336425781,3.5310909876117753,16.02923946778535,-50.1970831799271,-12.61311,-0.5094477,0.948905,7.9320006,-6.3949466,-2.923895,-26.18893,-13.936625,-40.518524,6.3773255,5.15738,-3.5275095,8.022789,2.8158944,17.232864,23.308073,4.474512,-93.26437,21.551537,50.50696,0.3955579,-1.1899252,-54.337837,11.936286,24.101316,2.7633579,34.01163,12.976001,-37.122345
167,3.1675591468811035,-10.802849769592285,78.6262435913086,3.64015963791922,16.286567854773047,-49.79428530890685,-13.061901,-0.5683861,0.41766828,7.8216085,-6.143659,-3.120855,-26.47387,-14.068509,-40.826992,6.370795,5.138256,-3.6337829,8.082695,3.1334674,17.779472,23.083216,4.2808433,-93.16327,21.05438,50.08934,-0.05729558,-0.9229929,-54.28351,12.605022,25.51964,1.7691795,34.559856,12.654985,-37.431328
168,3.009695291519165,-10.780622482299805,78.61055755615234,3.752482792270819,16.530817219743913,-49.42387427508029,-13.476618,-0.633772,-0.037127398,7.687387,-5.8919263,-3.2790463,-26.760725,-14.199331,-41.104046,6.3693104,5.127865,-3.7446775,8.15738,3.4536757,18.344006,22.860601,4.0922637,-93.05625,20.593782,49.591522,-0.43224043,-0.59153396,-54.21438,13.269265,26.893248,0.8032262,35.120747,12.3508625,-37.62779
169,2.8516042232513428,-10.751957893371582,78.59488677978516,3.8711984150858,16.753033423739332,-49.08473524971595,-13.853193,-0.7084936,-0.4044139,7.5428815,-5.640469,-3.3915126,-27.03699,-14.330265,-41.350918,6.36412,5.132642,-3.8630292,8.248524,3.7787318,18.938953,22.64066,3.9090486,-92.944725,20.174004,48.95443,-0.6845157,-0.18004535,-54.13198,13.927104,28.201056,-0.14299123,35.747463,12.059733,-37.683426
170,2.7040133476257324,-10.710772514343262,78.58146667480469,3.9927939443425493,16.95849093735423,-48.76965967534883,-14.19762,-0.78896314,-0.7268397,7.3776636,-5.3809996,-3.485083,-27.309021,-14.462722,-41.57537,6.362796,5.146138,-3.9872293,8.35265,4.1119957,19.55813,22.412924,3.7315307,-92.82455,19.79746,48.215553,-0.87066483,0.29578128,-54.036037,14.578526,29.467852,-1.0686989,36.44053,11.774973,-37.653324
171,2.558734178543091,-10.666266441345215,78.56416320800781,4.1151877851854834,17.162418970300312,-48.484680870614916,-14.520127,-0.87196463,-0.9973895,7.185284,-5.1241097,-3.554137,-27.593493,-14.591745,-41.7693,6.3647537,5.165735,-4.111513,8.469058,4.4460073,20.178713,22.183184,3.5590026,-92.69878,19.454792,47.478256,-1.0554855,0.8143394,-53.931694,15.222984,30.714853,-1.959799,37.085663,11.516671,-37.560524
172,2.4053421020507812,-10.61610221862793,78.5427474975586,4.236955498921338,17.379467557925896,-48.2351967197113,-14.85604,-0.9556355,-1.2089529,7.013137,-4.908993,-3.5929756,-27.902697,-14.709972,-41.926105,6.3581867,5.195589,-4.23034,8.597173,4.7729373,20.778673,21.956976,3.389958,-92.57089,19.13738,46.84654,-1.301403,1.353278,-53.82405,15.859591,31.963705,-2.800733,37.568336,11.304234,-37.429226
173,2.2637670040130615,-10.560912132263184,78.5152816772461,4.358862010319402,17.617155006804538,-48.02880086575946,-15.276166,-1.0424874,-1.3392649,6.9976597,-4.8161273,-3.5868676,-28.253084,-14.82007,-42.03395,6.356465,5.22786,-4.342982,8.746099,5.0911083,21.351341,21.734608,3.2222226,-92.43155,18.851849,46.476532,-1.6385756,1.9594059,-53.710926,16.487322,33.227104,-3.5917957,37.844,11.154876,-37.26707
174,2.1273326873779297,-10.501264572143555,78.48798370361328,4.481872142755738,17.865736809806705,-47.85993128026661,-15.6979475,-1.1314919,-1.3996581,6.9818163,-4.753791,-3.5432372,-28.62904,-14.921885,-42.100582,6.3491774,5.2699795,-4.4520316,8.912143,5.404585,21.909607,21.513624,3.0545843,-92.28172,18.602564,46.271908,-2.0267622,2.6282308,-53.590145,17.105532,34.49263,-4.344687,37.97912,11.053722,-37.062725
175,2.0035617351531982,-10.437751770019531,78.45710754394531,4.600032253274979,18.11731379908162,-47.71726563227696,-16.115847,-1.216167,-1.4290673,6.9666233,-4.7090707,-3.4896922,-29.016558,-15.014471,-42.144882,6.3415713,5.318347,-4.5574093,9.079203,5.717257,22.457085,21.295027,2.887134,-92.140945,18.377441,45.95744,-2.4243634,3.2580152,-53.467705,17.713545,35.743507,-5.0538697,38.026257,10.972215,-36.81212
176,1.8761370182037354,-10.377623558044434,78.42143249511719,4.708129700140924,18.364121857324037,-47.589306230858774,-16.523298,-1.2914296,-1.4663795,6.9518876,-4.6691713,-3.4536366,-29.401173,-15.096678,-42.185467,6.3353906,5.372063,-4.659163,9.231888,6.032041,22.99733,21.080065,2.7212403,-92.029274,18.163527,45.255665,-2.7944694,3.7440176,-53.350258,18.310694,36.96202,-5.7158136,38.037415,10.882111,-36.510822
177,1.7490299940109253,-10.30096435546875,78.3799057006836,4.802130553040296,18.613104969584317,-47.47947562661363,-16.926508,-1.3544192,-1.515535,6.938176,-4.637988,-3.4391227,-29.787949,-15.161783,-42.224613,6.324501,5.435464,-4.7576194,9.373894,6.351485,23.5184,20.865578,2.5581107,-91.946945,17.946718,44.03588,-3.125302,4.018615,-53.238274,18.898066,38.14313,-6.326899,38.03131,10.775091,-36.1543
178,1.6362707614898682,-10.231366157531738,78.3422622680664,4.885381263005897,18.865283262065745,-47.39184922897907,-17.325512,-1.4089905,-1.5580184,6.925289,-4.620244,-3.432548,-30.182154,-15.213404,-42.25366,6.311966,5.507004,-4.8526993,9.511186,6.6736784,24.022497,20.652266,2.3983426,-91.88558,17.735905,42.462128,-3.436468,4.1464424,-53.132515,19.476164,39.29452,-6.8890514,37.978565,10.666194,-35.74572
179,1.5236728191375732,-10.168407440185547,78.30667114257812,4.964392115619489,19.103912892023384,-47.315845328063034,-17.706835,-1.4623691,-1.5990638,6.9129825,-4.6028137,-3.4348762,-30.563072,-15.261671,-42.275154,6.2984595,5.583498,-4.943202,9.631176,6.9936805,24.53494,20.447803,2.242951,-91.852776,17.551697,40.697815,-3.7409272,4.21988,-53.03882,20.042416,40.415195,-7.4069085,37.861103,10.561709,-35.29247
180,1.4142613410949707,-10.093955993652344,78.27529907226562,5.044517297193284,19.312437816324714,-47.241323958845136,-18.05655,-1.5211154,-1.6440239,6.9015846,-4.572738,-3.447089,-30.91354,-15.318352,-42.291214,6.292929,5.6580205,-5.028201,9.722783,7.3071594,25.08113,20.259731,2.0932944,-91.85724,17.414488,38.906433,-4.05582,4.332117,-52.962627,20.5917,41.504757,-7.8871956,37.66104,10.468029,-34.802177
181,1.3212251663208008,-10.026268005371094,78.24823760986328,5.126783644003201,19.477004394668615,-47.1664118746941,-18.35961,-1.5874108,-1.6980252,6.890092,-4.5295362,-3.4727068,-31.211832,-15.382564,-42.303585,6.2822075,5.7364073,-5.102494,9.783084,7.6175866,25.6785,20.081608,1.9500345,-91.899864,17.311066,36.919132,-4.376859,4.421721,-52.90791,21.118868,42.568058,-8.325765,37.362816,10.365122,-34.272694
182,1.2196369171142578,-9.947823524475098,78.21855163574219,5.206457693928572,19.611220478757133,-47.09723640861818,-18.628572,-1.6560416,-1.7568495,6.8790164,-4.478787,-3.510295,-31.478678,-15.450672,-42.30986,6.2782836,5.8134427,-5.1685667,9.820502,7.9263906,26.30858,19.912502,1.8135654,-91.978065,17.235296,34.71739,-4.6960335,4.464783,-52.86883,21.621292,43.60555,-8.728939,36.980705,10.254597,-33.70202
183,1.1107068061828613,-9.855853080749512,78.18733215332031,5.289981968422286,19.734305313019345,-47.03127657903331,-18.886675,-1.7318029,-1.8123355,6.8698177,-4.4168563,-3.55147,-31.736526,-15.525622,-42.309246,6.275988,5.894241,-5.235236,9.836641,8.218898,26.950205,19.767986,1.6854594,-92.09662,17.219448,32.6933,-5.036938,4.614204,-52.835125,22.098225,44.6063,-9.115982,36.541687,10.174589,-33.09817
184,1.007522463798523,-9.761144638061523,78.15852355957031,5.382836002509039,19.865816574129006,-46.96615316750169,-19.156792,-1.8180465,-1.8562404,6.8627505,-4.339575,-3.5880156,-32.008965,-15.609384,-42.300716,6.272776,5.982129,-5.3115044,9.83411,8.481064,27.58135,19.664562,1.5682365,-92.26018,17.295368,31.241861,-5.4313545,5.026036,-52.797962,22.5504,45.55898,-9.505258,36.07148,10.164283,-32.467987
185,0.9033231139183044,-9.669721603393555,78.12853240966797,5.492554911333772,20.013498591568965,-46.894016333388116,-19.452438,-1.920924,-1.8914711,6.8583636,-4.2363763,-3.6192172,-32.305893,-15.710102,-42.288296,6.2670054,6.079313,-5.405704,9.809944,8.700155,28.196617,19.61005,1.4641621,-92.51005,17.498926,30.544996,-5.927955,5.892212,-52.767742,22.978024,46.455673,-9.904776,35.52739,10.247778,-31.814678
186,0.8063443899154663,-9.579072952270508,78.09954071044922,5.6131709476484755,20.167458859161155,-46.81920135271944,-19.760206,-2.0347269,-1.9206301,6.8563213,-4.112434,-3.6492026,-32.618065,-15.82586,-42.269882,6.269553,6.1787167,-5.511203,9.767103,8.886426,28.806807,19.595442,1.3744907,-92.8316,17.80056,30.374498,-6.495295,7.088114,-52.7483,23.38068,47.30113,-10.301876,34.909855,10.39746,-31.13154
187,0.7157671451568604,-9.488410949707031,78.0704574584961,5.734669517667125,20.317320014564366,-46.75525891071874,-20.060894,-2.1488094,-1.9353669,6.8548713,-3.987638,-3.6763487,-32.929234,-15.940192,-42.237267,6.2718425,6.2827797,-5.6139684,9.711344,9.057331,29.416813,19.61026,1.3004556,-93.14301,18.13402,30.506468,-7.0433464,8.296125,-52.71876,23.759596,48.108242,-10.69124,34.30826,10.576369,-30.411331
188,0.6233221888542175,-9.393009185791016,78.03468322753906,5.848414124608245,20.50112343981692,-46.702061294799854,-20.393026,-2.2543097,-1.9356629,6.8550186,-3.8750296,-3.6995509,-33.276604,-16.04169,-42.190296,6.2684503,6.3965616,-5.7035594,9.697145,9.233221,29.793802,19.78194,1.2463452,-93.41275,18.46581,30.670027,-7.499018,9.156371,-52.492676,24.115168,48.852577,-11.057893,33.826862,10.745311,-29.628187
189,0.5432491898536682,-9.305573463439941,77.99844360351562,5.951288308071105,20.742511550563062,-46.65625608178546,-20.781963,-2.3467193,-1.9233303,6.854775,-3.7737515,-3.7194173,-33.684284,-16.125835,-42.12961,6.259486,6.5215006,-5.7752438,9.756163,9.422878,29.793802,20.205473,1.2200971,-93.634384,18.800764,30.86635,-7.8280144,9.505088,-51.95818,24.445436,49.51402,-11.398538,33.544186,10.903368,-28.77406
190,0.46139898896217346,-9.215986251831055,77.96378326416016,6.045844371853218,20.971163711465223,-46.63171630128135,-21.149664,-2.4292138,-1.8906575,6.856891,-3.6869636,-3.736277,-34.07751,-16.194632,-42.04843,6.243783,6.653576,-5.832312,9.806476,9.612533,29.793802,20.658136,1.2222785,-93.7722,19.115114,31.245142,-8.064016,9.59151,-51.39049,24.751335,50.14819,-11.731842,33.372124,11.073688,-27.883392
191,0.37772104144096375,-9.121663093566895,77.92510986328125,6.13506990697957,21.19284102811495,-46.62322794445164,-21.502644,-2.5062163,-1.8423852,6.8576717,-3.6107733,-3.7496011,-34.46853,-16.257301,-41.952675,6.236832,6.7830524,-5.883728,9.85256,9.801184,29.793802,21.112751,1.2509581,-93.878006,19.411596,31.6669,-8.263866,9.588482,-50.812134,25.032534,50.74313,-12.05605,33.200603,11.24699,-26.947496
192,0.30709320306777954,-9.028646469116211,77.8864517211914,6.225775108460218,21.410888548667888,-46.622357513732894,-21.847567,-2.586057,-1.7840496,6.8585544,-3.5440884,-3.7582145,-34.855183,-16.318424,-41.851772,6.2231674,6.9167433,-5.9377646,9.899241,9.986225,29.793802,21.54391,1.3023514,-94.007576,19.695763,31.992386,-8.482004,9.668702,-50.246277,25.286945,51.282574,-12.364242,32.920925,11.411394,-25.956175
193,0.2400510311126709,-8.937164306640625,77.85043334960938,6.31599784130625,21.625015405206074,-46.63305593238555,-22.181702,-2.6666555,-1.7111279,6.857,-3.4881072,-3.7622366,-35.24218,-16.378271,-41.743286,6.2134986,7.049827,-5.9968505,9.954337,10.171651,29.793802,21.94689,1.3739215,-94.16728,19.980791,32.20438,-8.726911,9.8536415,-49.695557,25.51139,51.76044,-12.649635,32.48724,11.561996,-24.880987
194,0.17738690972328186,-8.845213890075684,77.81233978271484,6.402747962289206,21.833042009726704,-46.657915932402716,-22.503168,-2.7443695,-1.6230234,6.8548026,-3.44374,-3.7621481,-35.626324,-16.433237,-41.62505,6.2070503,7.1831765,-6.0565157,10.033441,10.360824,29.793802,22.330128,1.4436171,-94.34633,20.298077,32.368187,-8.97136,10.060103,-49.144543,25.66365,52.167732,-12.9546385,31.973387,11.703331,-23.733284
195,0.1070927232503891,-8.746909141540527,77.77227020263672,6.491416866511311,22.039275418754972,-46.6871485887662,-22.819126,-2.8255877,-1.5297142,6.852518,-3.4051275,-3.7572436,-36.007164,-16.488115,-41.501823,6.1958823,7.3178854,-6.1144595,10.077415,10.537575,29.793802,22.704815,1.5487273,-94.51811,20.55778,32.477886,-9.21531,10.300885,-48.58756,25.828667,52.566906,-13.23287,31.4099,11.825267,-22.571297
196,0.049048494547605515,-8.650382995605469,77.73149871826172,6.58366495808066,22.24632609347386,-46.713534274631314,-23.134829,-2.9124026,-1.4413568,6.850255,-3.3664076,-3.7472456,-36.387096,-16.548656,-41.378662,6.1854177,7.4481945,-6.168939,10.126399,10.7047615,29.793802,23.061182,1.6365442,-94.72823,20.82348,32.517433,-9.458336,10.591291,-48.06132,25.93821,52.883728,-13.538461,30.881842,11.94,-21.436712
197,-0.011483400128781796,-8.543058395385742,77.6888427734375,6.680733253242616,22.455171111768436,-46.738339922896856,-23.450474,-3.007128,-1.3588836,6.8481646,-3.3300369,-3.7316463,-36.767277,-16.615139,-41.2537,6.17469,7.5722613,-6.219454,10.155508,10.84943,29.793802,23.40048,1.7054439,-94.9596,21.079857,32.452232,-9.715699,10.941308,-47.558136,26.012014,53.147007,-13.876004,30.38557,12.058067,-20.353025
198,-0.0635899156332016,-8.449339866638184,77.64826965332031,6.780955508918082,22.66541133768515,-46.765053196486576,-23.764393,-3.1077068,-1.2767757,6.846392,-3.2978826,-3.71069,-37.149384,-16.685448,-41.12426,6.165573,7.6917853,-6.267242,10.143295,10.980926,29.793802,23.728647,1.7975962,-95.20836,21.270948,32.2995,-9.97665,11.350306,-47.05059,26.093332,53.41053,-14.200765,29.86883,12.166781,-19.299616
199,-0.10810817778110504,-8.36220932006836,77.60923767089844,6.885309002694294,22.875671022409687,-46.7871302488022,-24.076864,-3.2143452,-1.1961901,6.843781,-3.2628706,-3.684629,-37.52761,-16.759636,-40.99624,6.1506877,7.813555,-6.312344,10.109074,11.10493,29.793802,24.049751,1.9473695,-95.46376,21.376019,32.132618,-10.220401,11.785628,-46.573723,26.19801,53.621025,-14.471454,29.357323,12.248454,-18.244179
200,-0.1517254114151001,-8.27586841583252,77.56956481933594,6.989858484683897,23.087315820498436,-46.800065749821535,-24.39168,-3.3222132,-1.118527,6.8421535,-3.2193825,-3.6543174,-37.904488,-16.838125,-40.874672,6.1411824,7.9337997,-6.355257,10.083337,11.230599,29.793802,24.37062,2.0963473,-95.73363,21.4789,32.020565,-10.422598,12.227358,-46.1176,26.284163,53.75723,-14.716565,28.8784,12.281452,-17.161684
201,-0.1937333196401596,-8.18491268157959,77.53248596191406,7.0966299979993215,23.30324170552099,-46.79517313431578,-24.714685,-3.433968,-1.0494825,6.8415823,-3.1627746,-3.6169593,-38.280552,-16.925184,-40.766476,6.1344795,8.054753,-6.3937745,10.051253,11.353134,29.793802,24.693838,2.2152333,-96.021935,21.601143,31.964529,-10.563841,12.689538,-45.649506,26.342388,53.84203,-14.952649,28.446617,12.23613,-16.01842
202,-0.23747070133686066,-8.095925331115723,77.4932632446289,7.207899179984091,23.52145501593074,-46.77653809618153,-25.042263,-3.5520194,-0.98663944,6.8423715,-3.0978348,-3.5727234,-38.652275,-17.019001,-40.667343,6.122079,8.179292,-6.428149,10.004283,11.467011,29.793802,25.018284,2.3177125,-96.32394,21.723473,31.932486,-10.661718,13.177319,-45.17599,26.384352,53.88241,-15.173654,28.049671,12.132615,-14.838418
203,-0.27723991870880127,-8.012415885925293,77.45726013183594,7.3075908648342125,23.745744578126626,-46.76780324259623,-25.373108,-3.656309,-0.9172677,6.843342,-3.0302918,-3.5294592,-39.04915,-17.11575,-40.56003,6.165296,8.275326,-6.464859,9.968591,11.591978,29.793802,25.336935,2.4539518,-96.630226,21.799896,31.944895,-10.739256,13.666435,-44.723717,26.425505,53.887756,-15.364825,27.650282,12.015829,-13.6936245
204,-0.3178132474422455,-7.921934127807617,77.42095184326172,7.407024975760368,23.961804355294937,-46.77281440409289,-25.690313,-3.758506,-0.83353245,6.8450384,-2.9667602,-3.4904027,-39.435394,-17.204113,-40.438538,6.1972513,8.379755,-6.5052276,9.939436,11.701679,29.793802,25.673847,2.5537398,-96.89192,21.924946,32.023243,-10.832601,14.118153,-44.261242,26.44926,53.895348,-15.577094,27.221748,11.92786,-12.653854
205,-0.35770806670188904,-7.8424177169799805,77.38552856445312,7.504794424267907,24.16505094013056,-46.798300576800465,-25.9872,-3.856117,-0.73157465,6.8460474,-2.9098997,-3.4573135,-39.80752,-17.280762,-40.296234,6.216714,8.494311,-6.5459757,9.928586,11.816169,29.793802,26.029558,2.7042334,-97.13092,22.006573,32.199265,-10.940839,14.532492,-43.808296,26.469215,53.88874,-15.777854,26.72617,11.879206,-11.752846
206,-0.3841497302055359,-7.763277530670166,77.35172271728516,7.600979091941437,24.360467682985355,-46.836830362588984,-26.271297,-3.9504216,-0.61728144,6.846633,-2.855846,-3.4273834,-40.170635,-17.350176,-40.140392,6.230372,8.614188,-6.586638,9.923237,11.921159,29.793802,26.402758,2.863006,-97.33446,22.08529,32.45573,-11.054354,14.918111,-43.350426,26.477184,53.873085,-15.985246,26.192926,11.847411,-10.947185
207,-0.4114507734775543,-7.67034387588501,77.31554412841797,7.69656842720908,24.55321403043394,-46.880549231025434,-26.550283,-4.0428576,-0.49472684,6.8484077,-2.8007655,-3.39929,-40.530308,-17.416327,-39.979782,6.2420645,8.738561,-6.635305,9.920817,12.021561,29.793802,26.775345,3.0029836,-97.51948,22.1831,32.728798,-11.163878,15.285935,-42.88836,26.475101,53.855003,-16.195742,25.665668,11.826851,-10.194113
208,-0.4434821307659149,-7.583238124847412,77.27978515625,7.79389869419426,24.746692420139503,-46.92100707197896,-26.82871,-4.1376343,-0.36813748,6.8507385,-2.7403874,-3.3713517,-40.88896,-17.483763,-39.822887,6.2508,8.86505,-6.700054,9.920645,12.125817,29.793802,27.123674,3.1518886,-97.705055,22.264082,32.956,-11.25966,15.642934,-42.427616,26.464396,53.83774,-16.394573,25.1889,11.812846,-9.450101
209,-0.46427616477012634,-7.499744892120361,77.24304962158203,7.892366390341007,24.94358751586542,-46.95825002381586,-27.109852,-4.233211,-0.23398626,6.8543663,-2.6730208,-3.345595,-41.25088,-17.552212,-39.670933,6.2579775,8.996571,-6.790117,9.9207945,12.2333975,29.793802,27.441051,3.2943397,-97.89116,22.33791,33.129284,-11.335414,15.982085,-41.966034,26.447662,53.818787,-16.579422,24.766191,11.801219,-8.694564
210,-0.48984494805336,-7.4191460609436035,77.20874786376953,7.991926722259755,25.141678574784123,-46.99575904746974,-27.391472,-4.329018,-0.091288835,6.8595552,-2.599655,-3.3222444,-41.614613,-17.620586,-39.519234,6.2650876,9.131877,-6.8990774,9.921382,12.3406315,29.793802,27.739698,3.4235494,-98.06972,22.415949,33.278698,-11.397791,16.302685,-41.505676,26.427416,53.795925,-16.751009,24.375713,11.79723,-7.9527817
211,-0.5072560906410217,-7.340751647949219,77.17329406738281,8.092252466501527,25.337717593370012,-47.03196784975507,-27.669273,-4.425743,0.051324457,6.8648667,-2.5266094,-3.2973864,-41.97388,-17.68932,-39.36864,6.2709475,9.26655,-7.011232,9.927841,12.453536,29.793802,28.024778,3.5819721,-98.247025,22.465084,33.399536,-11.458279,16.619934,-41.051098,26.396442,53.773567,-16.91838,24.025053,11.8106365,-7.2516694
212,-0.5261794924736023,-7.261843204498291,77.1361312866211,8.195004434637932,25.530250645242955,-47.064733147751596,-27.941864,-4.5260167,0.18631627,6.8696055,-2.4536386,-3.2664442,-42.325886,-17.761066,-39.218597,6.2771034,9.395554,-7.1109166,9.931321,12.559581,29.793802,28.314579,3.7268653,-98.40705,22.53927,33.488014,-11.533068,16.9483,-40.602493,26.365814,53.76912,-17.09251,23.721802,11.851329,-6.617185
213,-0.5370450019836426,-7.193817138671875,77.10169219970703,8.30177201988919,25.71866971092952,-47.09369139558285,-28.208216,-4.6317835,0.31190377,6.874437,-2.3812206,-3.2279918,-42.669735,-17.837435,-39.06716,6.2828875,9.5181875,-7.1957817,9.933387,12.660782,29.793802,28.611084,3.8886151,-98.548874,22.617231,33.49825,-11.629628,17.306316,-40.163776,26.33019,53.782475,-17.27469,23.490822,11.941167,-6.080028
214,-0.5508531332015991,-7.119337558746338,77.06816864013672,8.411615604854239,25.90437770162512,-47.1198746455494,-28.469357,-4.741679,0.4322515,6.8782244,-2.307494,-3.1842914,-43.00796,-17.917397,-38.914795,6.28868,9.63659,-7.2736244,9.931731,12.755414,29.793802,28.910864,4.045476,-98.67118,22.713438,33.44804,-11.740995,17.680923,-39.73399,26.296125,53.8096,-17.456818,23.319704,12.07103,-5.6173983
215,-0.5652122497558594,-7.041919231414795,77.03498077392578,8.521259601875212,26.08736307174513,-47.143020734270586,-28.725306,-4.852571,0.5479643,6.8809586,-2.2348177,-3.1362524,-43.33993,-17.998339,-38.765545,6.2947917,9.751733,-7.343298,9.927452,12.843234,29.793802,29.210955,4.153823,-98.78288,22.856384,33.42655,-11.855531,18.041586,-39.314617,26.274689,53.842983,-17.630032,23.160488,12.203708,-5.1752615
216,-0.5770540833473206,-6.97023868560791,77.00186920166016,8.627234925416909,26.26671317592467,-47.163686924373316,-28.977072,-4.960612,0.66018355,6.8848805,-2.1686354,-3.085111,-43.662926,-18.076813,-38.623405,6.298613,9.86593,-7.403642,9.932403,12.946148,29.793802,29.483728,4.3271775,-98.91588,22.905558,33.523952,-11.951628,18.357985,-38.88128,26.238192,53.89539,-17.809395,22.957375,12.298173,-4.7068353
217,-0.5801572203636169,-6.899482727050781,76.97084045410156,8.729636964674734,26.44487072974749,-47.17763619694311,-29.227938,-5.066703,0.76495266,6.889708,-2.1042147,-3.028488,-43.979095,-18.155054,-38.491833,6.300948,9.979563,-7.4546976,9.94534,13.058289,29.793802,29.731258,4.4991317,-99.067894,22.923325,33.822617,-12.027712,18.612474,-38.440857,26.20187,53.95818,-17.98774,22.691381,12.335777,-4.1858225
218,-0.596316933631897,-6.828795433044434,76.93789672851562,8.830039460354845,26.621223248836063,-47.18616126280381,-29.476011,-5.172246,0.8629858,6.893817,-2.0413752,-2.9665368,-44.28839,-18.233814,-38.36795,6.302683,10.091317,-7.496853,9.961065,13.174171,29.793802,29.964312,4.647319,-99.22894,22.943327,34.25458,-12.0914345,18.826223,-37.99791,26.171276,54.03212,-18.162346,22.392563,12.339519,-3.6433396
219,-0.6028989553451538,-6.762102127075195,76.90503692626953,8.927616843727717,26.792350596515668,-47.19708801385506,-29.715723,-5.27563,0.96260893,6.8981977,-1.9842008,-2.903855,-44.589237,-18.310131,-38.245655,6.3032312,10.20142,-7.529764,9.97931,13.289806,29.793802,30.191685,4.7887444,-99.38715,22.963684,34.68484,-12.149911,19.02112,-37.567375,26.141745,54.10537,-18.329153,22.09499,12.335682,-3.107224
220,-0.6030588746070862,-6.695023059844971,76.87345123291016,9.021776131167316,26.954397625925054,-47.21798709956208,-29.940586,-5.3751993,1.0716956,6.903382,-1.9371566,-2.845286,-44.87931,-18.380974,-38.11857,6.303121,10.309119,-7.552613,9.998895,13.398511,29.793802,30.426556,4.9166083,-99.52819,23.00832,34.978252,-12.211895,19.21812,-37.16826,26.114779,54.158356,-18.482887,21.833603,12.351921,-2.6034596
221,-0.5974809527397156,-6.628067970275879,76.8430404663086,9.112882142138638,27.105108917264808,-47.253959162359195,-30.146025,-5.4711,1.1960642,6.9060373,-1.8988014,-2.7910292,-45.157703,-18.445988,-37.983402,6.3020263,10.414859,-7.561738,10.0202265,13.480148,29.793802,30.686197,4.9905014,-99.62007,23.14778,35.078125,-12.297761,19.414337,-36.826576,26.10045,54.16793,-18.620731,21.63249,12.402687,-2.1302621
222,-0.5967997312545776,-6.566339015960693,76.81338500976562,9.199748175592084,27.24561299398098,-47.301090342038414,-30.335447,-5.5624576,1.3302113,6.9090323,-1.8693781,-2.739224,-45.42393,-18.505413,-37.84441,6.3004093,10.518069,-7.5586004,10.050258,13.60024,29.793802,30.922762,5.1853824,-99.75927,23.135096,35.04657,-12.352662,19.613716,-36.48355,26.05665,54.18865,-18.74914,21.433046,12.471405,-1.6834224
223,-0.5983641147613525,-6.50316858291626,76.7840805053711,9.28320432265572,27.381579533199417,-47.35033484882421,-30.516956,-5.6503253,1.4649239,6.911452,-1.8468976,-2.6911356,-45.682457,-18.561787,-37.70584,6.2983437,10.619219,-7.550493,10.076458,13.688943,29.793802,31.175322,5.279908,-99.85029,23.24486,34.984844,-12.428186,19.803705,-36.175083,26.037098,54.184525,-18.864658,21.265932,12.540878,-1.2603313
224,-0.5920740962028503,-6.435166835784912,76.755859375,9.362383888579096,27.515472252963765,-47.39494147813013,-30.695429,-5.733254,1.5915941,6.9131236,-1.8303102,-2.6482472,-45.934284,-18.614973,-37.5724,6.2955976,10.718739,-7.5451283,10.11048,13.797035,29.793802,31.396069,5.438444,-99.965065,23.25808,34.962452,-12.487536,19.996126,-35.863197,26.0048,54.180824,-18.975727,21.097399,12.592561,-0.8757631
225,-0.5873164534568787,-6.374310493469238,76.72779846191406,9.435671980161423,27.647863931070496,-47.43576520309097,-30.871819,-5.808341,1.709095,6.9156933,-1.8240824,-2.613619,-46.179325,-18.662333,-37.442978,6.2914104,10.816916,-7.542405,10.151023,13.911754,29.793802,31.590473,5.647862,-100.084305,23.19336,35.00156,-12.538117,20.191166,-35.539707,25.966187,54.181347,-19.083122,20.925215,12.615954,-0.53634053
226,-0.5897783041000366,-6.314699172973633,76.69941711425781,9.504001445852252,27.777938241488744,-47.47559802307135,-31.04346,-5.8768287,1.8216244,6.916542,-1.8257394,-2.58561,-46.417934,-18.704618,-37.315994,6.2862387,10.913974,-7.5391803,10.186586,14.018974,29.793802,31.78251,5.8039174,-100.19314,23.164448,35.05858,-12.584941,20.38886,-35.216095,25.942938,54.18736,-19.177528,20.757574,12.623386,-0.23454298
227,-0.5842483639717102,-6.2546610832214355,76.67412567138672,9.57013612818584,27.904871404510367,-47.51055586473084,-31.21219,-5.94368,1.9285021,6.9183073,-1.8298374,-2.559038,-46.649582,-18.747183,-37.19503,6.281062,11.0084095,-7.5379305,10.225575,14.135957,29.793802,31.949707,6.010075,-100.30943,23.072449,35.126205,-12.625246,20.581234,-34.909496,25.915989,54.183533,-19.264326,20.604347,12.628968,0.04211042
228,-0.5822407603263855,-6.194420337677002,76.64822387695312,9.637663125216626,28.029273231118122,-47.53546292073346,-31.378397,-6.014535,2.0283694,6.917259,-1.8268875,-2.5285437,-46.875294,-18.796278,-37.0839,6.2773094,11.09912,-7.541133,10.2578535,14.252012,29.793802,32.104824,6.1792135,-100.421555,23.01897,35.19606,-12.6661825,20.762453,-34.636898,25.896069,54.16589,-19.346941,20.480543,12.647848,0.31007212
229,-0.5789695978164673,-6.132496356964111,76.62188720703125,9.70849049363573,28.15266512327261,-47.54757482961293,-31.545788,-6.0912585,2.1210825,6.9160275,-1.8178458,-2.4915771,-47.09706,-18.853834,-36.98441,6.2751713,11.18588,-7.54988,10.291542,14.377331,29.793802,32.226665,6.3781314,-100.546135,22.933392,35.27405,-12.707891,20.92795,-34.416332,25.87058,54.115395,-19.427158,20.397104,12.688474,0.5628008
230,-0.5709593296051025,-6.080226421356201,76.59912872314453,9.780287795165277,28.274743882605957,-47.54993833409733,-31.712708,-6.170758,2.2070372,6.9134116,-1.8053824,-2.451322,-47.314205,-18.916372,-36.894474,6.27361,11.269595,-7.5625906,10.319705,14.500315,29.793802,32.33296,6.540422,-100.66919,22.880688,35.36145,-12.751364,21.082592,-34.228233,25.847595,54.050808,-19.506767,20.345451,12.741978,0.7961086
231,-0.5611546039581299,-6.024133205413818,76.57588195800781,9.850365722295782,28.391331837768774,-47.54730830530373,-31.874039,-6.2504783,2.2871408,6.9110665,-1.7895204,-2.4111798,-47.52176,-18.98117,-36.8115,6.2725115,11.34981,-7.5785146,10.35121,14.632158,29.793802,32.427364,6.716405,-100.79443,22.815386,35.444344,-12.787651,21.232279,-34.053936,25.820143,53.98048,-19.584332,20.305725,12.796699,1.0259417
232,-0.5505549907684326,-5.96415901184082,76.55467224121094,9.915957006458825,28.498989144073917,-47.54427773374909,-32.025707,-6.328242,2.362339,6.910107,-1.769308,-2.3744452,-47.715527,-19.045248,-36.732487,6.271156,11.426341,-7.5964823,10.381719,14.768504,29.793802,32.52968,6.889648,-100.90681,22.759426,35.50988,-12.811537,21.382294,-33.861694,25.792439,53.9343,-19.662228,20.25767,12.839926,1.2676057
233,-0.5373193621635437,-5.910013675689697,76.53563690185547,9.97638116691081,28.59554230367769,-47.53984189567926,-32.16525,-6.4066725,2.431324,6.9099207,-1.7442478,-2.3416452,-47.8919,-19.110245,-36.659954,6.2695527,11.497189,-7.614583,10.407443,14.910905,29.793802,32.648537,7.0532665,-100.99965,22.723822,35.562424,-12.812621,21.532085,-33.63577,25.767303,53.924236,-19.743582,20.187576,12.861656,1.5255345
234,-0.5196367502212524,-5.846534729003906,76.51355743408203,10.033445902352298,28.684471794416268,-47.53159859607013,-32.29639,-6.483976,2.4937341,6.910303,-1.7147914,-2.3111348,-48.055237,-19.176981,-36.594322,6.267789,11.563335,-7.6338935,10.420717,15.037787,29.793802,32.797474,7.1015925,-101.05189,22.819613,35.607857,-12.806211,21.675053,-33.401318,25.761934,53.932114,-19.823376,20.117771,12.871908,1.7956287
235,-0.5003451108932495,-5.791234970092773,76.49408721923828,10.087090527727865,28.766637065589755,-47.525152774482706,-32.420498,-6.5596547,2.5535672,6.913083,-1.6826457,-2.282869,-48.2098,-19.241598,-36.529644,6.266802,11.628099,-7.658472,10.443365,15.193246,29.793802,32.91401,7.2885575,-101.138855,22.761742,35.62825,-12.78768,21.829008,-33.15244,25.734901,53.967728,-19.905668,20.041574,12.881907,2.0610945
236,-0.4840964078903198,-5.744701862335205,76.4761962890625,10.137484127439132,28.845452554400904,-47.52347367650967,-32.539505,-6.6316557,2.6123712,6.9151144,-1.6464968,-2.2567387,-48.36059,-19.299961,-36.46245,6.2657423,11.695377,-7.6923056,10.471698,15.332901,29.793802,33.028114,7.432643,-101.207695,22.749874,35.616047,-12.798922,21.981316,-32.94028,25.713278,53.98072,-19.989407,20.005423,12.911407,2.3296268
237,-0.4660819172859192,-5.6947784423828125,76.45762634277344,10.184661171951381,28.921990399943365,-47.52756677398235,-32.656044,-6.697885,2.6697714,6.919637,-1.6056155,-2.234743,-48.509987,-19.351286,-36.390823,6.2656946,11.766647,-7.7409406,10.497047,15.441092,29.793802,33.15408,7.465891,-101.242386,22.85802,35.53416,-12.859044,22.153957,-32.775093,25.708965,53.977646,-20.072575,20.018316,12.972283,2.6091988
238,-0.4469316005706787,-5.638453960418701,76.44027709960938,10.225881368277385,28.991578182128492,-47.53739959578667,-32.765247,-6.7585216,2.724361,6.9274774,-1.5617315,-2.216708,-48.65082,-19.395233,-36.31872,6.2662396,11.839049,-7.8010225,10.546548,15.587182,29.793802,33.236675,7.641595,-101.33607,22.811693,35.392643,-12.925156,22.358397,-32.629547,25.676514,53.965965,-20.152037,20.041136,13.052842,2.8918478
239,-0.4344639778137207,-5.588483810424805,76.4227294921875,10.266321442846104,29.058310695713395,-47.54953574514774,-32.869766,-6.8176785,2.7794867,6.9335127,-1.515826,-2.1981928,-48.788433,-19.43689,-36.244785,6.2666483,11.911815,-7.862536,10.600734,15.7207775,29.793802,33.312035,7.813276,-101.41018,22.765322,35.271217,-12.99852,22.529236,-32.495426,25.64252,53.947117,-20.237574,20.091255,13.134235,3.1639757
240,-0.42596250772476196,-5.542120933532715,76.40535736083984,10.307436352597952,29.123773910955645,-47.56240042862766,-32.97197,-6.877477,2.837762,6.939994,-1.4741879,-2.175072,-48.924282,-19.478632,-36.17006,6.266648,11.983353,-7.9156456,10.655313,15.85008,29.793802,33.38101,7.9736776,-101.48381,22.710917,35.236954,-13.049322,22.633596,-32.344074,25.611752,53.939743,-20.321644,20.150894,13.196255,3.405482
241,-0.41263365745544434,-5.494871616363525,76.38902282714844,10.349994694963328,29.187827673168393,-47.57787214010481,-33.072372,-6.9376006,2.9026835,6.9476786,-1.4358844,-2.1461957,-49.05987,-19.520235,-36.09129,6.266645,12.05514,-7.960703,10.714874,15.976912,29.793802,33.439552,8.146849,-101.56015,22.615442,35.32878,-13.062946,22.640463,-32.16642,25.58303,53.95185,-20.407137,20.235014,13.232852,3.600501
