unveil-humanoid-operators/unveil-humanoid-operators.github.io/feature-analysis-animation/data/feature_matrix_instances/age_waist_mean_vel_jogging_A256_jog_ff_stop_315_R_002__A256.csv
Frame,root_translateX,root_translateY,root_translateZ,root_rotateX,root_rotateY,root_rotateZ,left_hip_pitch_joint_dof,left_hip_roll_joint_dof,left_hip_yaw_joint_dof,left_knee_joint_dof,left_ankle_pitch_joint_dof,left_ankle_roll_joint_dof,right_hip_pitch_joint_dof,right_hip_roll_joint_dof,right_hip_yaw_joint_dof,right_knee_joint_dof,right_ankle_pitch_joint_dof,right_ankle_roll_joint_dof,waist_yaw_joint_dof,waist_roll_joint_dof,waist_pitch_joint_dof,left_shoulder_pitch_joint_dof,left_shoulder_roll_joint_dof,left_shoulder_yaw_joint_dof,left_elbow_joint_dof,left_wrist_roll_joint_dof,left_wrist_pitch_joint_dof,left_wrist_yaw_joint_dof,right_shoulder_pitch_joint_dof,right_shoulder_roll_joint_dof,right_shoulder_yaw_joint_dof,right_elbow_joint_dof,right_wrist_roll_joint_dof,right_wrist_pitch_joint_dof,right_wrist_yaw_joint_dof
0,1.6246432065963745,-0.47481226921081543,75.65142822265625,2.427732732478273,6.5590512400168315,175.60832494251127,-19.420464,22.551832,4.2742915,20.690855,-0.4057716,-15.000033,-10.571091,-17.301714,-7.988469,30.591333,-21.91142,13.276082,1.7370573,-0.96949804,9.989519,5.8412623,30.185633,-31.87314,55.13097,4.883666,-1.7442282,3.047693,-20.737381,-36.8855,30.54204,35.39579,3.5060413,-5.925921,-7.8515873
1,2.173328399658203,0.11692367494106293,75.3929672241211,2.5092471459299515,6.44791390722396,175.4828424225591,-19.641724,23.032742,4.4648623,22.346367,-2.367421,-15.000033,-11.649638,-17.00379,-8.147855,32.287003,-23.35202,12.2392,1.8695099,-1.105081,10.394566,5.453701,30.227106,-31.78096,55.044266,5.457283,-1.6016517,3.0319617,-20.866436,-36.977955,30.55879,35.691467,3.4607365,-5.78516,-7.673443
2,2.718010663986206,0.7017983198165894,75.12222290039062,2.593314426781207,6.333192320214226,175.35628792739303,-19.853481,23.532303,4.6197214,23.938435,-4.341709,-15.000033,-12.7148,-16.71593,-8.318864,33.99359,-24.8649,11.150001,2.0122743,-1.247259,10.802113,5.046557,30.253126,-31.690283,54.99379,6.054208,-1.4573903,3.0161052,-21.040888,-37.039024,30.589838,36.02072,3.3913686,-5.645096,-7.497821
3,3.2647244930267334,1.2839398384094238,74.85926055908203,2.665604140006283,6.218627497037441,175.22183841783902,-20.016672,24.05398,4.8617024,25.567663,-6.2751,-15.000033,-13.771806,-16.404446,-8.414562,35.68765,-26.298918,10.143349,2.1305234,-1.3614812,11.204155,4.689384,30.292307,-31.581772,54.88055,6.6125636,-1.3176163,2.9959185,-21.164757,-37.14714,30.635254,36.3195,3.3721292,-5.5050597,-7.3189826
4,3.7926812171936035,1.8304494619369507,74.6078109741211,2.8223850001929893,6.129732300299954,175.12417051998136,-20.082054,24.411602,5.4093556,27.257896,-8.069439,-14.291617,-14.889057,-16.189642,-8.336493,37.418526,-27.52282,9.392078,2.1734324,-1.527496,11.536949,4.343929,30.321516,-31.534258,54.756542,7.045817,-1.1909198,2.9856956,-21.232224,-37.255642,30.709322,36.70469,3.4499538,-5.3723245,-7.1365404
5,4.318718433380127,2.3587286472320557,74.3599853515625,2.918342729948831,6.035642880519452,174.96735108380307,-20.04129,24.877058,6.208677,29.18136,-9.775269,-13.70282,-16.045082,-15.83894,-8.0145855,39.154163,-28.412563,8.966256,2.2033458,-1.6121286,11.821607,4.0136437,30.337994,-31.553505,54.620514,7.3211265,-1.0783179,2.9680684,-21.267937,-37.35595,30.842335,37.19568,3.6557877,-5.238862,-6.9413652
6,4.823676109313965,2.8855302333831787,74.11851501464844,2.9680664157687158,5.937122521727369,174.76885663448684,-19.90968,25.437738,7.1857247,31.262812,-11.416553,-13.205335,-17.227245,-15.381641,-7.535031,40.894955,-29.060352,8.777096,2.2204273,-1.6273563,12.0759535,3.7097433,30.342752,-31.604877,54.45656,7.4928246,-0.9760727,2.9445922,-21.243824,-37.486538,31.006315,37.713577,3.957306,-5.1025777,-6.7372913
7,5.325710296630859,3.404836654663086,73.8912582397461,2.9609561707196392,5.838619843969958,174.5850635702846,-19.715391,26.052965,8.206378,33.42587,-13.011928,-12.722672,-18.331223,-14.847871,-7.0952463,42.51332,-29.55721,8.64239,2.1923623,-1.5696176,12.28756,3.4317174,30.32838,-31.67902,54.283173,7.5953927,-0.88410133,2.9575336,-21.155695,-37.621788,31.181885,38.29994,4.3025823,-4.982165,-6.5435553
8,5.804481506347656,3.909475326538086,73.68585205078125,2.8872381304243753,5.744326796628269,174.472469175259,-19.49252,26.673128,9.13429,35.59405,-14.581092,-12.182084,-19.256048,-14.278305,-6.8805203,43.881096,-29.994118,8.371939,2.076603,-1.4327124,12.439882,3.2200272,30.284681,-31.727938,54.089424,7.690313,-0.8020648,3.0458305,-20.954393,-37.754147,31.339413,38.94924,4.6294093,-4.89662,-6.380211
9,6.265110015869141,4.393042087554932,73.50732421875,2.7126076080762167,5.662161854089691,174.45008276840352,-19.285854,27.335894,9.940248,37.825706,-16.16306,-11.54302,-19.967554,-13.660409,-6.9654098,44.946194,-30.376923,7.9017453,1.8413575,-1.1777455,12.516751,3.0805395,30.202606,-31.75116,53.89017,7.778979,-0.7247459,3.242342,-20.659414,-37.882217,31.518957,39.691208,4.9896255,-4.8791275,-6.2481327
10,6.702633380889893,4.867413520812988,73.35842895507812,2.4527340943154146,5.58755912809128,174.48676324946362,-19.061451,28.048807,10.693647,40.13051,-17.736874,-10.848426,-20.526505,-12.986143,-7.239749,45.775764,-30.657274,7.3375487,1.5128872,-0.81762004,12.529086,2.996715,30.079401,-31.763147,53.69192,7.8404055,-0.65422744,3.5200083,-20.29693,-38.00462,31.731804,40.529587,5.395481,-4.9101977,-6.138622
11,7.11874532699585,5.332113265991211,73.23631286621094,2.1739557147775366,5.506595574864468,174.5636712198311,-18.745104,28.705282,11.406726,42.36475,-19.231922,-10.155388,-20.974981,-12.309988,-7.602348,46.425087,-30.849989,6.736184,1.1352643,-0.42729,12.502181,2.9426072,29.919775,-31.773666,53.49426,7.868041,-0.60173607,3.8290296,-19.831276,-38.11172,31.904003,41.42348,5.723993,-4.9310937,-6.056995
12,7.526569843292236,5.797952651977539,73.13993072509766,1.9429421996041296,5.405502432362881,174.6621128025824,-18.268805,29.196058,12.095636,44.39281,-20.5788,-9.522989,-21.349232,-11.686255,-7.9531717,46.954082,-30.975927,6.1531987,0.7562289,-0.08636825,12.460356,2.8995245,29.734732,-31.787245,53.286247,7.8629484,-0.57805306,4.118889,-19.225712,-38.191288,31.955976,42.335773,5.8523726,-4.8835797,-6.0082645
13,7.92832612991333,6.267268180847168,73.06639862060547,1.7747086849973412,5.278162221068944,174.7919764487407,-17.618633,29.498575,12.771835,46.21586,-21.756296,-8.955264,-21.639397,-11.131743,-8.28624,47.374104,-31.048243,5.592352,0.3790692,0.18092196,12.405711,2.871717,29.534006,-31.78846,53.053295,7.824464,-0.5909641,4.3943434,-18.444311,-38.229816,31.853918,43.265106,5.7214746,-4.7531347,-6.0038724
14,8.320544242858887,6.72374153137207,73.02448272705078,1.634912868311385,5.13302719712692,174.95816071656046,-16.836647,29.66116,13.428664,47.899914,-22.801733,-8.424847,-21.82869,-10.617952,-8.645605,47.658577,-31.060703,5.0250487,-0.016382812,0.41166067,12.325773,2.8733964,29.322252,-31.779854,52.794388,7.751052,-0.63268244,4.6750274,-17.522497,-38.223232,31.645987,44.23971,5.4054475,-4.5711145,-6.036297
15,8.694183349609375,7.1666998863220215,73.01670837402344,1.5167958525973813,4.9774908875485995,175.13411263971247,-15.940807,29.675343,14.057427,49.401657,-23.726686,-7.946024,-21.936628,-10.130441,-9.00721,47.802567,-30.999918,4.4578333,-0.4230349,0.61865175,12.222171,2.8916907,29.10339,-31.802586,52.52501,7.628709,-0.69060206,4.932137,-16.508392,-38.175423,31.366089,45.244038,4.9747925,-4.3482194,-6.082604
16,9.067680358886719,7.596636772155762,73.04036712646484,1.4136816346843193,4.81909179980205,175.29324169784297,-14.949391,29.530853,14.650459,50.67523,-24.540709,-7.5343986,-21.984205,-9.654344,-9.348784,47.801144,-30.851034,3.89867,-0.82747823,0.8161432,12.098265,2.9149108,28.87953,-31.896408,52.25795,7.4504886,-0.75235873,5.136985,-15.439908,-38.096706,31.037956,46.254078,4.5004463,-4.0948405,-6.119895
17,9.434042930603027,8.015859603881836,73.09400939941406,1.3274767976528614,4.653206948025283,175.4420525304952,-13.8591795,29.217915,15.210829,51.71855,-25.250248,-7.182029,-21.966532,-9.193868,-9.676236,47.65332,-30.612482,3.3412237,-1.2331243,1.0054257,11.958479,2.934324,28.650566,-32.08331,51.9962,7.1741056,-0.81535476,5.28246,-14.300566,-37.99168,30.642195,47.267666,3.9138608,-3.7898972,-6.1559362
18,9.78848934173584,8.419628143310547,73.18187713623047,1.260535145900047,4.477977883882588,175.58979289670071,-12.674388,28.735714,15.738073,52.553043,-25.844427,-6.8863006,-21.875036,-8.751993,-9.999062,47.362183,-30.293005,2.7852905,-1.641109,1.1805485,11.799903,2.9597871,28.415695,-32.338654,51.731087,6.8192983,-0.8860601,5.383215,-13.062007,-37.860443,30.164394,48.278763,3.204612,-3.4349015,-6.194434
19,10.14081859588623,8.821760177612305,73.29560852050781,1.2059642365404053,4.304791810546091,175.71452008967532,-11.429336,28.08693,16.216782,53.17149,-26.307835,-6.6707454,-21.729803,-8.312279,-10.299531,46.931053,-29.890406,2.2475357,-2.03456,1.3469948,11.62042,2.9888144,28.177273,-32.647953,51.466145,6.455214,-0.96564835,5.4435797,-11.767492,-37.708645,29.649065,49.27344,2.5429425,-3.0746408,-6.209362
20,10.490467071533203,9.20663070678711,73.43746185302734,1.1569657762367238,4.145158315013418,175.794363286533,-10.159047,27.27709,16.631533,53.57061,-26.627441,-6.5593596,-21.553366,-7.859133,-10.560064,46.36724,-29.403048,1.7447336,-2.4003863,1.5096269,11.416193,3.029281,27.937822,-32.98712,51.198788,6.1571403,-1.0551133,5.467628,-10.453412,-37.545986,29.13859,50.231632,2.0930533,-2.7549753,-6.1784215
21,10.829445838928223,9.585658073425293,73.60356140136719,1.1058030426058985,4.00094397111177,175.82213157925423,-8.848066,26.33077,17.025066,53.75077,-26.789808,-6.527664,-21.342257,-7.380283,-10.777909,45.650463,-28.81841,1.2856821,-2.741269,1.6785237,11.18691,3.0855386,27.698196,-33.357742,50.924355,5.9122376,-1.1590178,5.431704,-9.118918,-37.378582,28.620817,51.141148,1.8719009,-2.47528,-6.1030602
22,11.176445960998535,9.945086479187012,73.7913818359375,1.0576819213609177,3.86625795339672,175.81001856624601,-7.495654,25.234446,17.381838,53.71204,-26.803204,-6.572708,-21.088211,-6.885239,-10.962602,44.785065,-28.14007,0.8608565,-3.0622807,1.849895,10.936068,3.157411,27.458134,-33.765465,50.638947,5.694245,-1.274859,5.341154,-7.739888,-37.20695,28.076822,52.003014,1.8003696,-2.2150795,-5.994328
23,11.515076637268066,10.299412727355957,73.99966430664062,1.0251768436047728,3.7420654581067727,175.76543563318288,-6.15472,23.938322,17.600462,53.446156,-26.685457,-6.74995,-20.805746,-6.392165,-11.114027,43.808853,-27.386744,0.4584944,-3.356063,2.0072105,10.665835,3.2366831,27.219906,-34.20041,50.34812,5.5472064,-1.3933849,5.2441974,-6.332741,-37.034153,27.547907,52.829556,1.9039017,-1.9907252,-5.846811
24,11.855539321899414,10.63875961303711,74.22631072998047,1.0202579600796522,3.6293017273861636,175.69569260448145,-4.874414,22.394836,17.579807,52.944366,-26.455261,-7.113872,-20.510248,-5.918984,-11.2315645,42.760586,-26.577406,0.064208716,-3.620077,2.133247,10.377121,3.3230977,26.986698,-34.644417,50.053356,5.518591,-1.5059249,5.1887884,-4.9156294,-36.86408,27.078873,53.63348,2.2054856,-1.8184388,-5.655493
25,12.199907302856445,10.974002838134766,74.4654312133789,1.0455446789050447,3.5351702969003465,175.59265696916862,-3.6289334,20.590939,17.335974,52.16433,-26.090113,-7.7344437,-20.204195,-5.4704227,-11.316938,41.624634,-25.706026,-0.3270612,-3.8529027,2.2262836,10.059301,3.4240162,26.76154,-35.10591,49.74553,5.66314,-1.6074125,5.1946273,-3.48437,-36.69952,26.666348,54.41993,2.7727332,-1.7083575,-5.418116
26,12.546544075012207,11.301069259643555,74.71814727783203,1.0925857502586784,3.4575979345891645,175.45612897746526,-2.3979301,18.559864,16.898355,51.115875,-25.595234,-8.559779,-19.880772,-5.037679,-11.369802,40.38834,-24.764631,-0.70934504,-4.0579605,2.296684,9.7160225,3.5412984,26.544935,-35.586647,49.420723,5.9421644,-1.70333,5.2338157,-2.0302823,-36.54051,26.28959,55.177864,3.5731463,-1.6470605,-5.1379156
27,12.88143253326416,11.628070831298828,74.98072814941406,1.1571656089520554,3.3842445166923736,175.305517108278,-1.231112,16.333511,16.192354,49.88084,-25.036867,-9.461659,-19.544334,-4.6210823,-11.387534,39.099537,-23.770906,-1.0780115,-4.2425346,2.34466,9.368276,3.6675842,26.335903,-36.056713,49.089443,6.2628756,-1.8007861,5.2830877,-0.5743833,-36.387753,25.973526,55.90448,4.481202,-1.6157904,-4.8181643
28,13.2293119430542,11.948097229003906,75.2475357055664,1.235301553064001,3.302355141216485,175.16017186069783,-0.16737574,13.945826,15.150949,48.542282,-24.475101,-10.31258,-19.196753,-4.2184224,-11.367045,37.80214,-22.741379,-1.428603,-4.4220834,2.3706486,9.034593,3.8001492,26.132181,-36.480854,48.762596,6.531005,-1.9072455,5.3184476,0.8776005,-36.23948,25.736393,56.583652,5.358743,-1.597076,-4.462247
29,13.573326110839844,12.265571594238281,75.52084350585938,1.3443456250463064,3.2047640063391634,175.01428318220874,0.8171342,11.301739,13.65277,47.061543,-23.916193,-11.103679,-18.818563,-3.8414853,-11.287494,36.473633,-21.681664,-1.760629,-4.5942225,2.3556788,8.716132,3.9445455,25.931805,-36.851772,48.441322,6.7500877,-2.0223475,5.3380785,2.3260565,-36.096737,25.590946,57.226105,6.227027,-1.6081823,-4.0561457
30,13.923285484313965,12.575028419494629,75.79660034179688,1.4763068054237278,3.100341280903012,174.8616463791668,1.7781718,8.444063,11.764758,45.417427,-23.337051,-11.885111,-18.413118,-3.48491,-11.158611,35.097515,-20.580082,-2.078026,-4.7559714,2.309651,8.403836,4.0986037,25.734892,-37.186462,48.12301,6.960529,-2.143007,5.3535647,3.7604108,-35.962055,25.534628,57.847862,7.1464114,-1.648968,-3.6024883
31,14.287710189819336,12.884113311767578,76.0644760131836,1.5916267397048283,2.9998215689777816,174.72121877210478,2.7107491,5.6060743,9.709374,43.73225,-22.750994,-12.6259365,-18.023224,-3.1221716,-11.023789,33.739025,-19.433239,-2.3803847,-4.9229584,2.274284,8.099451,4.254592,25.541924,-37.47955,47.808537,7.1293807,-2.2729592,5.3605433,5.1768646,-35.832493,25.548666,58.425907,8.023064,-1.6787698,-3.1305246
32,14.6544771194458,13.186409950256348,76.32840728759766,1.6532351994080736,2.913102431789519,174.6115254160737,3.5864296,3.0041432,7.71697,42.12482,-22.163511,-13.305264,-17.688057,-2.725962,-10.925463,32.456047,-18.233587,-2.666131,-5.108373,2.2871842,7.806289,4.4032974,25.354507,-37.727238,47.499207,7.223057,-2.4159012,5.3545976,6.554689,-35.702972,25.626343,58.95241,8.7714615,-1.6593283,-2.6713266
33,15.034933090209961,13.489500045776367,76.58170318603516,1.6601800599326018,2.8384275552040785,174.53491630504007,4.3820863,0.58538926,5.7165694,40.606884,-21.580431,-13.96123,-17.411514,-2.2922828,-10.859251,31.25744,-16.96498,-2.9279509,-5.314591,2.3512394,7.5278816,4.541828,25.173708,-37.92628,47.192123,7.219665,-2.5767348,5.325612,7.876835,-35.573284,25.781975,59.436554,9.419207,-1.5704943,-2.2321174
34,15.420137405395508,13.796512603759766,76.82305908203125,1.6300554681889607,2.771504484950392,174.48303090237982,5.124243,-1.7315179,3.6321445,39.127113,-20.993517,-14.598459,-17.172602,-1.8318425,-10.809138,30.109215,-15.633793,-3.1687086,-5.536204,2.4464412,7.2619677,4.674573,25.000143,-38.080017,46.887634,7.1400275,-2.7520044,5.2784176,9.155369,-35.444855,26.01483,59.883373,9.992443,-1.4382857,-1.7984436
35,15.822000503540039,14.098366737365723,77.05250549316406,1.5970509761837475,2.7212798069073867,174.46638838983762,5.832257,-3.86049,1.697961,37.660145,-20.351494,-15.000033,-17.00943,-1.39703,-10.782996,29.073017,-14.299748,-3.3891802,-5.778294,2.5368311,6.997804,4.8044066,24.834946,-38.19284,46.58816,7.019042,-2.9328327,5.2307343,10.400086,-35.31186,26.310251,60.28897,10.416781,-1.2958162,-1.36858
36,16.23919105529785,14.401106834411621,77.26266479492188,1.5403131458915058,2.688733794864406,174.4798765755629,6.4982624,-5.6469812,0.1591903,36.22834,-19.634329,-15.000033,-16.914417,-0.9650276,-10.807578,28.130096,-12.982521,-3.6051629,-6.031709,2.6367428,6.735949,4.9298897,24.680618,-38.273693,46.301674,6.8869104,-3.1104872,5.2011676,11.620361,-35.165882,26.650251,60.653156,10.61221,-1.1781881,-0.94086254
37,16.663238525390625,14.70925521850586,77.45076751708984,1.3909701040616256,2.6771557043548855,174.51501925263494,7.056129,-6.910682,-0.8665727,34.94024,-18.939814,-15.000033,-16.850021,-0.44899133,-10.9232855,27.190819,-11.616659,-3.8369286,-6.2846646,2.8121586,6.479567,5.053635,24.538507,-38.32237,46.022087,6.7261987,-3.288456,5.1893377,12.809693,-35.004646,27.061703,60.986866,10.525251,-1.1012162,-0.5263588
38,17.092567443847656,15.032577514648438,77.62201690673828,1.1709756071607809,2.6834257435165934,174.57338617037948,7.494633,-7.785791,-1.4998274,33.762054,-18.248993,-15.000033,-16.819494,0.128953,-11.109606,26.268105,-10.2009,-4.075658,-6.5423098,3.04204,6.2295485,5.174925,24.409601,-38.336254,45.749413,6.527652,-3.4694278,5.186933,13.960322,-34.828506,27.548315,61.295486,10.2091675,-1.04935,-0.12212086
39,17.528339385986328,15.357409477233887,77.77232360839844,0.9272911500162241,2.6963620131755004,174.65235341118873,7.858137,-8.418073,-1.8565557,32.576393,-17.420624,-15.000033,-16.820412,0.72451943,-11.331198,25.383076,-8.80061,-4.31685,-6.805851,3.2687218,5.993176,5.2921257,24.296383,-38.317276,45.49407,6.3408337,-3.643066,5.200559,15.079285,-34.630527,28.05672,61.5712,9.745349,-1.009437,0.29467377
40,17.971248626708984,15.692011833190918,77.8998794555664,0.7024598053779932,2.7047882476921443,174.7484504051785,8.198966,-8.937631,-2.0613616,31.262058,-16.311157,-15.000033,-16.85288,1.2957597,-11.553175,24.561476,-7.477503,-4.554922,-7.0646873,3.4390018,5.7820716,5.3898864,24.203371,-38.281864,45.269615,6.2107854,-3.7988422,5.23793,16.129778,-34.40274,28.579607,61.84361,9.2645445,-0.9681485,0.7452124
41,18.422754287719727,16.031814575195312,78.00028228759766,0.5193373846035801,2.715808355806933,174.87348430801205,8.623929,-9.429119,-2.1650522,29.499336,-14.612931,-15.000033,-16.96118,1.7965033,-11.762651,23.880558,-6.2727833,-4.77329,-7.326421,3.530384,5.5775347,5.4748235,24.134172,-38.229183,45.072266,6.160703,-3.9319112,5.308368,17.136637,-34.137238,29.121828,62.106205,8.800128,-0.94301826,1.1972555
42,18.889131546020508,16.36149787902832,78.07916259765625,0.3436535239429972,2.7341084658207357,175.02640279777904,9.073593,-9.794771,-2.0937684,27.435364,-12.489488,-15.000033,-17.13107,2.2650776,-11.983811,23.293905,-5.138028,-4.9788156,-7.590505,3.5790346,5.379443,5.549367,24.09058,-38.156788,44.89528,6.1618543,-4.048005,5.4057817,18.092299,-33.83294,29.699017,62.366024,8.294164,-0.9365847,1.6502751
43,19.369142532348633,16.717424392700195,78.1360092163086,0.1485817007960428,2.74161873366676,175.18219537231366,9.340636,-9.912182,-1.7805289,25.677649,-10.51047,-15.000033,-17.289078,2.765263,-12.225708,22.678007,-4.0228662,-5.196728,-7.840677,3.6032717,5.224708,5.6036606,24.073643,-38.068123,44.744305,6.183413,-4.1528525,5.5140905,18.946976,-33.48862,30.289213,62.639008,7.7075453,-0.91235185,2.1751626
44,19.874818801879883,17.10773277282715,78.17232513427734,-0.0722843877182097,2.711882294134932,175.30784981721047,9.200317,-9.687877,-1.145298,24.889292,-9.2662735,-15.000033,-17.356012,3.3443086,-12.477937,21.918777,-2.8821244,-5.449097,-8.059905,3.5964978,5.150069,5.6346326,24.083897,-37.9596,44.627544,6.1961718,-4.252611,5.617037,19.701843,-33.100735,30.803604,62.902172,6.9338264,-0.83669704,2.8450828
45,20.385196685791016,17.513246536254883,78.21324157714844,-0.17568004079560706,2.6221390853322335,175.40664356647656,8.523719,-9.250627,0.049760565,25.369308,-8.851612,-13.760933,-17.415884,3.8134203,-12.69821,21.267395,-1.8471955,-5.7367473,-8.231746,3.4172819,5.1665826,5.6222916,24.120771,-37.845585,44.551414,6.2133594,-4.3498087,5.721183,20.300411,-32.662632,31.306446,63.196274,5.975187,-0.70461476,3.6922941
46,20.90841293334961,17.887514114379883,78.24291229248047,0.053149475950319804,2.5240142823138987,175.54824018302057,7.557254,-9.052968,1.843357,26.411497,-8.776964,-9.333676,-17.800705,3.8136644,-12.811163,21.331806,-1.2099428,-5.9592123,-8.447941,2.8819182,5.17,5.6022167,24.181372,-37.696655,44.5098,6.2457423,-4.439976,5.8308554,20.920132,-32.164818,31.594439,63.400177,4.645822,-0.5449121,4.681271
47,21.46200942993164,18.264692306518555,78.22602081298828,0.2940437177667813,2.4372938543013354,175.69413443205113,6.4687138,-8.704782,3.7590725,27.788162,-9.182003,-4.685241,-18.256578,3.7991176,-12.893587,21.486948,-0.6556517,-6.135063,-8.636463,2.3052785,5.1960125,5.5420027,24.26765,-37.561466,44.500416,6.248916,-4.5204263,5.9301877,21.38954,-31.628275,31.901121,63.64932,3.3354607,-0.3765084,5.767596
48,22.038902282714844,18.64975929260254,78.15278625488281,0.42181618343055705,2.393563925977933,175.8365014887719,5.5666704,-8.250086,5.326697,28.879871,-9.94058,-1.0851618,-18.764135,3.929425,-12.944082,21.591618,-0.109625004,-6.2155633,-8.83732,1.8212165,5.2182384,5.4919353,24.380001,-37.40144,44.50154,6.19002,-4.5882897,5.9994817,21.851177,-31.069403,32.027042,63.825554,1.9622208,-0.20712289,6.917465
49,22.637908935546875,19.031911849975586,78.02117919921875,0.3599708253476667,2.4108082473088297,175.99675255046503,4.902133,-7.664837,6.3962564,29.585571,-11.1407385,1.1400753,-19.333017,4.267664,-13.073016,21.612514,0.43353683,-6.279857,-8.99594,1.5234516,5.2736416,5.3803663,24.52109,-37.275135,44.51082,6.040157,-4.6400576,6.0327506,22.01113,-30.52044,32.390816,64.1383,0.97449684,-0.02120754,8.165563
50,23.24433708190918,19.40216827392578,77.85185241699219,0.18830574203008982,2.466223821148191,176.16944566396833,4.343998,-6.9784617,7.167898,30.14818,-12.772331,2.6371784,-19.968145,4.724379,-13.244717,21.62315,0.93798953,-6.322035,-9.199523,1.3155297,5.3396826,5.295084,24.690212,-37.088093,44.51605,5.8356595,-4.678486,6.036378,22.22262,-29.967924,32.501045,64.30749,-0.22561258,0.17853211,9.5302725
51,23.856786727905273,19.764408111572266,77.65596008300781,0.024925085995386707,2.5245387506328005,176.29976810258293,3.9078784,-6.347984,7.7225146,30.478226,-14.52426,3.6061835,-20.656124,5.220904,-13.226311,21.683144,1.3935598,-6.1606746,-9.34989,1.0896186,5.4367437,5.1936035,24.882067,-36.92621,44.530045,5.589902,-4.7100887,6.0230436,22.293846,-29.431324,32.6471,64.49345,-1.230915,0.36155057,10.906378
52,24.468050003051758,20.12075424194336,77.44274139404297,-0.013849927674498394,2.549932130707597,176.3329473926841,3.606983,-5.9195123,8.151966,30.509933,-16.09396,4.2631702,-21.37861,5.6861763,-12.783053,21.849709,1.7853715,-5.610225,-9.42782,0.7310903,5.5602474,5.1085644,25.086508,-36.78782,44.55239,5.332422,-4.7418966,6.002404,22.245083,-28.92392,32.81506,64.686806,-1.9909242,0.50998276,12.196359
53,25.077857971191406,20.47573471069336,77.21170806884766,0.08305364435402396,2.529738690478819,176.2616841740316,3.4813902,-5.718471,8.396494,30.150988,-17.425495,4.521579,-22.151781,6.123709,-11.865407,22.19064,2.0764012,-4.6704,-9.42143,0.23016079,5.730058,5.0315986,25.295273,-36.671715,44.581665,5.0765696,-4.7781577,5.9743576,22.049204,-28.458893,33.041336,64.90266,-2.3849177,0.640493,13.445781
54,25.687889099121094,20.822555541992188,76.96476745605469,0.2528270936523791,2.483669442145142,176.11141703003372,3.5037425,-5.650191,8.461694,29.47078,-18.65729,4.3253813,-22.970247,6.5865254,-10.601644,22.666079,2.2521331,-3.4121778,-9.3550415,-0.34634802,5.943482,4.9595804,25.504354,-36.563023,44.62144,4.8097177,-4.815028,5.934964,21.729837,-28.039242,33.293686,65.112404,-2.505112,0.7732407,14.685211
55,26.29896354675293,21.159833908081055,76.70703887939453,0.49995400642261184,2.4247673548905118,175.87615041650523,3.587294,-5.681369,8.525641,28.660555,-19.794117,3.9458141,-23.777327,7.082552,-9.023222,23.173143,2.3140366,-1.7564898,-9.230512,-0.9943087,6.171097,4.8974304,25.710585,-36.47927,44.6909,4.5126047,-4.8476796,5.890018,21.310677,-27.666512,33.556923,65.30496,-2.4910622,0.8960109,15.788478
56,26.905410766601562,21.48652458190918,76.43778228759766,0.8312781525426611,2.3666219152613155,175.54951050005104,3.6452043,-5.7900314,8.755876,27.913334,-20.84356,3.6490812,-24.52097,7.6098557,-7.160527,23.624428,2.25309,0.37071136,-9.0459385,-1.712626,6.384336,4.846683,25.91115,-36.44255,44.810886,4.165445,-4.8713117,5.8454666,20.80138,-27.341864,33.83591,65.48174,-2.4601243,0.99052477,16.62899
57,27.49231719970703,21.82107162475586,76.15937805175781,1.3098072837987902,2.3151527550206157,175.10925781662118,3.6898046,-6.056789,9.185218,27.185226,-21.76792,3.4738111,-25.143425,8.235362,-4.7162614,23.855726,2.1161654,3.449372,-8.7835,-2.5696063,6.5675874,4.8088593,26.10654,-36.456257,44.977833,3.714532,-4.8947926,5.814308,20.196999,-27.066246,34.146873,65.64935,-2.3885121,1.0608984,17.206915
58,28.07013702392578,22.145334243774414,75.8747329711914,1.900277050206936,2.2666342972551465,174.56306622762597,3.7487593,-6.4520726,9.725289,26.410484,-22.581022,3.2901495,-25.672096,8.938044,-1.8246586,24.01907,1.7439682,7.2725163,-8.450812,-3.5308313,6.745517,4.782215,26.295866,-36.50953,45.185535,3.1850739,-4.917408,5.790245,19.505201,-26.838717,34.467106,65.79498,-2.2453818,1.1164027,17.578564
59,28.641643524169922,22.462766647338867,75.59308624267578,2.4724194982616727,2.2207528696977787,173.94841615561657,3.753964,-6.804922,10.361917,25.757608,-23.371096,3.1065927,-26.211245,9.579036,0.85155296,24.472143,0.9463856,10.872169,-8.073278,-4.450857,6.9463267,4.7602367,26.471909,-36.605156,45.45043,2.683614,-4.9197683,5.750632,18.716856,-26.659037,34.797596,65.92249,-2.0772233,1.1398329,17.700554
60,29.215938568115234,22.761064529418945,75.32886505126953,2.9117782373709074,2.173552467439205,173.30520222737493,3.6431923,-6.9611382,11.084665,25.394245,-24.22417,2.9314814,-26.879505,10.03155,2.7097814,25.49543,-0.27454162,13.30333,-7.689494,-5.200204,7.1844435,4.741682,26.623323,-36.73705,45.79577,2.3153338,-4.88255,5.672866,17.882416,-26.52283,35.058086,65.9901,-2.0250149,1.1145959,17.530972
61,29.778549194335938,23.061506271362305,75.07841491699219,3.2305590153181103,2.1152723033112335,172.60738872113257,3.4389114,-6.9276376,11.95652,25.317385,-25.15476,2.7810037,-27.738142,10.318496,3.8136542,27.146832,-1.864091,14.263545,-7.2806926,-5.785938,7.462802,4.7097077,26.743393,-36.940895,46.255836,2.0682025,-4.8209605,5.5694165,16.956617,-26.430243,35.28757,66.04157,-2.0394797,1.0367309,17.000473
62,30.343517303466797,23.353548049926758,74.833984375,3.5010018987126195,2.0471572584948667,171.85135892684545,3.1766348,-6.7993226,12.959135,25.43609,-26.10933,2.6463053,-28.70596,10.478134,4.4768696,29.206676,-3.697591,14.290477,-6.8446455,-6.2884073,7.765502,4.666633,26.829908,-37.206154,46.82359,1.900903,-4.7386756,5.4471254,15.964582,-26.380186,35.468018,66.06074,-2.1266167,0.91617775,16.150826
63,30.908649444580078,23.64627456665039,74.60144805908203,3.7091780018489886,1.9743761969797335,171.11372947144946,2.823799,-6.5639176,13.957835,25.782177,-27.070044,2.5047772,-29.687239,10.387066,4.5306106,31.492487,-5.590921,13.7249565,-6.4188538,-6.688175,8.09151,4.6078634,26.864567,-37.479557,47.474323,1.8799591,-4.6005864,5.2755313,14.931358,-26.378994,35.629444,66.011986,-2.2894602,0.7572373,15.105372
64,31.467634201049805,23.93868064880371,74.3863525390625,3.832636544318303,1.9016243242328361,170.46912462173978,2.3428125,-6.196817,14.819063,26.39473,-28.023348,2.332406,-30.591364,9.900067,3.7929559,33.842594,-7.3938503,12.898951,-6.0378385,-6.9756384,8.433256,4.5516605,26.873028,-37.71506,48.149124,2.057272,-4.36863,5.022895,13.89169,-26.40024,35.764816,65.87075,-2.5758197,0.5631093,13.982324
65,32.00979995727539,24.2314510345459,74.19281768798828,3.8300173500989274,1.8130624122906573,169.9341175153459,1.7285496,-5.643182,15.508186,27.322628,-29.014315,2.1319196,-31.372454,8.827256,1.929647,36.283703,-9.135469,11.722149,-5.724408,-7.1021996,8.800805,4.4936976,26.832756,-37.904793,48.8929,2.4712644,-4.03382,4.667113,12.849781,-26.471937,35.91165,65.60665,-3.0635128,0.32101908,12.7282295
66,32.56109619140625,24.5197811126709,74.01348876953125,3.7287379190880823,1.7038585247892928,169.47553831066438,1.0177003,-4.9356413,16.083654,28.512188,-30.024414,1.915484,-32.010876,7.206897,-0.79454917,38.859444,-10.932232,10.065149,-5.469251,-7.094597,9.198551,4.440161,26.740112,-38.04452,49.705544,3.1063414,-3.6196623,4.2208943,11.773587,-26.585922,36.054844,65.25656,-3.7275794,0.042588856,11.304925
67,33.104469299316406,24.792863845825195,73.85665893554688,3.5985758921346407,1.6015048341308282,169.08962325402427,0.2209858,-4.1695905,16.554348,29.86314,-30.952835,1.6722503,-32.48745,5.2712164,-3.7050154,41.45221,-12.753218,8.201582,-5.2455463,-7.0251055,9.583841,4.369836,26.602413,-38.178974,50.542004,3.8804667,-3.1425967,3.7235973,10.687016,-26.739119,36.17501,64.83115,-4.361151,-0.230187,9.864157
68,33.653202056884766,25.07600212097168,73.70882415771484,3.5086529766962435,1.5372087737009779,168.76934817479798,-0.6594767,-3.4391627,16.935772,31.283825,-31.702875,1.3921865,-32.856102,3.3066304,-6.175612,43.94314,-14.498189,6.410424,-5.0229588,-6.9659357,9.918729,4.269819,26.432331,-38.338005,51.34336,4.7205434,-2.6166885,3.2125587,9.614376,-26.925262,36.23528,64.34016,-4.768923,-0.47085,8.5594015
69,34.19093322753906,25.35923957824707,73.58141326904297,3.4733693821422214,1.5289234248372456,168.5266333761481,-1.6750566,-2.7600646,17.213573,32.82679,-32.241264,1.0512801,-33.193314,1.3199561,-8.2050905,46.386765,-16.131088,4.5927653,-4.796045,-6.9352446,10.195254,4.1203995,26.238482,-38.523384,52.107533,5.7019224,-2.000503,2.6526642,8.550552,-27.140278,36.22066,63.769894,-4.903884,-0.6843744,7.408522
70,34.71725082397461,25.63548469543457,73.47271728515625,3.4551708867107953,1.5580505753949148,168.3597584522119,-2.8108938,-2.0898204,17.38045,34.509167,-32.61846,0.66383594,-33.456615,-0.79530096,-10.09075,48.812973,-17.704132,2.6520479,-4.575457,-6.897753,10.432943,3.9411616,26.023409,-38.72164,52.849644,6.8352222,-1.3061022,2.03122,7.4853277,-27.38463,36.147137,63.1236,-4.8687143,-0.8921879,6.3380527
71,35.23750305175781,25.922456741333008,73.37647247314453,3.44291077750095,1.6041883497943479,168.23871458227785,-3.9726155,-1.4279218,17.47151,36.19673,-32.875763,0.2654251,-33.603172,-2.8839867,-11.702283,51.080803,-19.175718,0.87634414,-4.3549333,-6.8414426,10.635481,3.7670002,25.793188,-38.948605,53.541954,7.934153,-0.62122244,1.4263573,6.430581,-27.658392,36.033592,62.437126,-4.6813045,-1.1000084,5.3656125
72,35.74712371826172,26.21564483642578,73.29707336425781,3.4232071024066726,1.64772751537126,168.13246677224433,-5.069154,-0.76963335,17.524416,37.761646,-33.05192,-0.10910878,-33.609493,-4.783921,-12.920688,53.054207,-20.485348,-0.4387345,-4.1234646,-6.752225,10.8076105,3.63179,25.556084,-39.22284,54.15484,8.809385,-0.026430037,0.923851,5.385671,-27.96199,35.914997,61.75582,-4.3416524,-1.3124498,4.508838
73,36.24598693847656,26.514476776123047,73.2275390625,3.3869478241909454,1.6933409264489745,168.047687787301,-6.1277657,-0.09873143,17.531351,39.24951,-33.13897,-0.44855046,-33.509274,-6.400685,-13.675631,54.69677,-21.546854,-1.1194022,-3.8822358,-6.621402,10.946393,3.5336635,25.317839,-39.559513,54.674442,9.406107,0.49905965,0.55250365,4.344586,-28.297594,35.799736,61.08707,-3.7745638,-1.5426105,3.789177
74,36.72568130493164,26.811677932739258,73.173583984375,3.3390858508564705,1.749844777146641,167.9942604185533,-7.1839814,0.57880384,17.478518,40.70466,-33.12311,-0.7788004,-33.34308,-7.817662,-14.081975,56.09681,-22.381653,-1.3515567,-3.635709,-6.4560084,11.049387,3.464569,25.080162,-39.942104,55.10962,9.824162,0.99105334,0.26959884,3.3167357,-28.665049,35.663334,60.400917,-3.0117915,-1.7887809,3.194264
75,37.185813903808594,27.116701126098633,73.12913513183594,3.287944233364268,1.8036084458280255,167.94593147311494,-8.161818,1.2376359,17.400223,42.0058,-33.045475,-1.117401,-33.100243,-9.14275,-14.29479,57.31031,-23.086136,-1.3749788,-3.375631,-6.2660346,11.124249,3.4399252,24.84603,-40.348038,55.468525,10.097896,1.3944339,0.058341138,2.300146,-29.060493,35.516796,59.70397,-2.188243,-2.029869,2.6894894
76,37.62907791137695,27.4267578125,73.09477996826172,3.2432680229743784,1.840350220131861,167.8764070928935,-8.9855385,1.8547561,17.333593,43.035446,-32.94987,-1.4797119,-32.762024,-10.488954,-14.46022,58.388237,-23.761616,-1.4297113,-3.09861,-6.063499,11.177473,3.4787292,24.619497,-40.750713,55.757378,10.262016,1.6531347,-0.098812126,1.3033926,-29.475182,35.356777,58.99607,-1.4572955,-2.2422266,2.237972
77,38.06156539916992,27.738492965698242,73.0728530883789,3.209958770127911,1.8538192682569241,167.77988599064932,-9.623707,2.4202251,17.291224,43.746403,-32.846203,-1.868979,-32.3293,-11.843301,-14.538091,59.33875,-24.411016,-1.5059409,-2.801758,-5.8531423,11.207057,3.596135,24.403557,-41.154293,55.965122,10.2800865,1.7412943,-0.1884957,0.32404613,-29.904476,35.17999,58.285545,-0.796954,-2.4200602,1.8513634
78,38.48134994506836,28.05891990661621,73.06221771240234,3.182517105553612,1.852259916294459,167.66965437279208,-10.12273,2.9513204,17.257391,44.21474,-32.716537,-2.2753246,-31.8167,-13.158341,-14.483416,60.139423,-24.98762,-1.4983361,-2.4832506,-5.6302867,11.213433,3.7755563,24.200628,-41.573044,56.089947,10.146452,1.6937405,-0.2058102,-0.68030626,-30.348274,35.026947,57.603127,-0.107990846,-2.5737264,1.5398636
79,38.89101028442383,28.388647079467773,73.06169891357422,3.1556148871882788,1.8433506398114121,167.54874282024366,-10.526503,3.4659507,17.226553,44.512115,-32.561703,-2.6861129,-31.21958,-14.50165,-14.429698,60.79338,-25.520592,-1.5040406,-2.159335,-5.3964095,11.194425,4.008083,24.013094,-41.97817,56.149956,9.945382,1.5443971,-0.18334095,-1.6433793,-30.796562,34.8366,56.891674,0.43720302,-2.7013435,1.2636529
80,39.293701171875,28.729633331298828,73.06898498535156,3.124353069451847,1.834670092379522,167.42000156414724,-10.879717,3.9801364,17.192017,44.709335,-32.38112,-3.0887082,-30.531858,-15.942614,-14.509519,61.30391,-26.039299,-1.6198964,-1.8228743,-5.1514344,11.163291,4.2644725,23.845861,-42.36004,56.16259,9.761369,1.3276545,-0.1522749,-2.6356318,-31.240242,34.68295,56.202835,0.8169712,-2.8025475,0.9804956
81,39.686954498291016,29.0863094329834,73.09159088134766,3.0936043018867876,1.8260572934512262,167.27652093687638,-11.170425,4.487386,17.16467,44.783092,-32.179512,-3.4741178,-29.732187,-17.551785,-14.793393,61.68133,-26.583458,-1.9044293,-1.4832376,-4.9041176,11.107986,4.564963,23.703646,-42.7084,56.117126,9.599288,1.0057945,-0.10987909,-3.608527,-31.667566,34.510277,55.504192,0.88684237,-2.875333,0.68252206
82,40.081451416015625,29.454378128051758,73.12525177001953,3.0645387631735796,1.813807179003683,167.11979467264464,-11.383766,4.9824996,17.144547,44.7115,-31.9544,-3.847074,-28.82788,-19.276903,-15.207483,61.923126,-27.130898,-2.290163,-1.1340889,-4.6555386,11.029863,4.9129133,23.589441,-43.035873,56.00519,9.419609,0.5762942,-0.04442886,-4.5882034,-32.075764,34.33695,54.822845,0.7391682,-2.9190555,0.38774028
83,40.4776611328125,29.827484130859375,73.1741714477539,3.0256254984807205,1.8004834450197165,166.96355401253302,-11.559872,5.4857845,17.111391,44.56621,-31.694084,-4.2204657,-27.85811,-20.998371,-15.662816,62.016323,-27.616167,-2.6859517,-0.78495747,-4.3964043,10.938453,5.2900295,23.501461,-43.330692,55.84483,9.241857,0.12641592,0.024942666,-5.5630684,-32.461025,34.163475,54.146835,0.49382794,-2.9343238,0.094682775
84,40.8715705871582,30.214353561401367,73.228515625,2.9647791420760625,1.7885822187092848,166.82222957528924,-11.738277,6.0150876,17.041983,44.413567,-31.383492,-4.6060696,-26.863592,-22.59756,-16.068636,61.94799,-27.9711,-3.0052564,-0.4441701,-4.115529,10.843521,5.6750836,23.43474,-43.582264,55.65753,9.085458,-0.2568009,0.08053511,-6.5264835,-32.81888,33.99526,53.467762,0.27710712,-2.92274,-0.19784561
85,41.258323669433594,30.608808517456055,73.29768371582031,2.875101672852492,1.7820191446394746,166.70401489567132,-11.93758,6.576191,16.927551,44.271206,-31.024275,-5.00065,-25.839119,-24.08724,-16.44368,61.711895,-28.210754,-3.2741325,-0.113941394,-3.8032813,10.742922,6.0641894,23.386202,-43.77813,55.43244,8.965863,-0.5591036,0.10770996,-7.514783,-33.146095,33.850925,52.816814,0.122565724,-2.8697803,-0.47994846
86,41.646026611328125,31.026336669921875,73.37655639648438,2.764693376098989,1.7783004906819428,166.59955639777934,-12.137955,7.1569858,16.7814,44.104008,-30.620522,-5.399358,-24.771107,-25.514093,-16.824564,61.323566,-28.362925,-3.5230937,0.20191948,-3.4697006,10.625067,6.474035,23.354416,-43.921024,55.168705,8.868624,-0.82398325,0.11957569,-8.478292,-33.439896,33.689064,52.15881,-0.0765076,-2.779835,-0.7550023
87,42.03563690185547,31.449848175048828,73.46782684326172,2.6421066431525904,1.7706380394367616,166.49664764634338,-12.322741,7.7506576,16.611902,43.902584,-30.163624,-5.8121605,-23.690544,-26.814074,-17.14096,60.80085,-28.374514,-3.6775951,0.5207777,-3.1272213,10.506254,6.8871527,23.337751,-44.043674,54.903553,8.770562,-1.0507625,0.14300148,-9.448465,-33.701443,33.55331,51.51816,-0.26077813,-2.683575,-1.0437491
88,42.424224853515625,31.887399673461914,73.56878662109375,2.515554751593542,1.7522848870007268,166.3833372695753,-12.472428,8.3510475,16.427387,43.655704,-29.644758,-6.249633,-22.629251,-27.920319,-17.317968,60.15716,-28.189123,-3.6661222,0.8493759,-2.788342,10.39642,7.2920732,23.332497,-44.17342,54.67677,8.645395,-1.2389793,0.2039762,-10.406851,-33.930378,33.450317,50.87803,-0.4140711,-2.61168,-1.3673259
89,42.80615234375,32.33467483520508,73.68653106689453,2.384200587486816,1.717213813121608,166.26013885696608,-12.589793,8.9591055,16.216377,43.38233,-29.057888,-6.71673,-21.586708,-28.815535,-17.31924,59.38216,-27.798847,-3.4474952,1.1880709,-2.45132,10.298215,7.6886477,23.334778,-44.32355,54.496456,8.47553,-1.3825603,0.33040735,-11.325517,-34.12742,33.365566,50.222507,-0.5449277,-2.5761397,-1.7586635
90,43.18741226196289,32.799781799316406,73.81277465820312,2.243447357926766,1.6706642194116106,166.13231108238028,-12.684395,9.576864,15.976754,43.08051,-28.40833,-7.2065716,-20.550303,-29.53543,-17.180847,58.47395,-27.234169,-3.0722468,1.5367314,-2.1088748,10.2063675,8.077645,23.342703,-44.479298,54.347965,8.280232,-1.484323,0.5023194,-12.22922,-34.293644,33.304214,49.570484,-0.65180665,-2.559161,-2.1974518
91,43.582763671875,33.27002716064453,73.94197845458984,2.0976053110786466,1.6223531139775735,165.9945251015149,-12.747903,10.202745,15.733332,42.715965,-27.708748,-7.712925,-19.539547,-30.095556,-16.92703,57.46199,-26.499754,-2.6066484,1.8840085,-1.7751415,10.1038265,8.45916,23.35167,-44.615578,54.24946,8.085124,-1.5572377,0.6740203,-13.147327,-34.389084,33.27626,48.954517,-0.7564639,-2.5496588,-2.6290984
92,43.97362518310547,33.76227569580078,74.07968139648438,1.9502602170864987,1.5820932383601156,165.841792846465,-12.772262,10.835542,15.509947,42.255825,-26.972359,-8.228871,-18.576159,-30.511189,-16.584175,56.381638,-25.598839,-2.1151798,2.2382753,-1.439585,9.993443,8.829885,23.367867,-44.72417,54.181473,7.913928,-1.6135164,0.7967542,-14.009327,-34.491077,33.241524,48.265705,-0.86251277,-2.5293763,-2.9878004
93,44.36518859863281,34.26812744140625,74.22412109375,1.7986256022425309,1.5441844741992259,165.66995643146018,-12.7504635,11.479656,15.307178,41.70504,-26.209948,-8.759524,-17.679993,-30.768023,-16.100325,55.25774,-24.518097,-1.7360361,2.5988786,-1.1077263,9.867627,9.191778,23.38514,-44.79195,54.163727,7.7668953,-1.6515524,0.8516071,-14.852302,-34.554752,33.210426,47.561935,-1.0024571,-2.4920416,-3.2630599
94,44.76839065551758,34.779388427734375,74.37480163574219,1.6416557125435374,1.5063373887119633,165.48216251634847,-12.688695,12.135373,15.114905,41.07767,-25.412462,-9.306876,-16.835787,-30.862453,-15.470102,54.07258,-23.267588,-1.3946077,2.9676461,-0.7778845,9.728517,9.540207,23.39617,-44.831585,54.202927,7.6347055,-1.6664692,0.8672063,-15.676532,-34.57585,33.184406,46.851795,-1.1643789,-2.44725,-3.4859781
95,45.1639518737793,35.304962158203125,74.53392791748047,1.4859836260508068,1.48368663807389,165.28433332479926,-12.596303,12.792198,14.940634,40.3507,-24.561995,-9.858961,-16.006294,-30.836739,-14.790084,52.784065,-21.884163,-0.83479285,3.3370013,-0.45774388,9.578193,9.867216,23.405996,-44.854305,54.28686,7.5265007,-1.6651345,0.86767846,-16.462055,-34.579426,33.16233,46.093426,-1.3005197,-2.407095,-3.6639028
96,45.56780242919922,35.849178314208984,74.69514465332031,1.339025143658396,1.4913404544679214,165.08218874731958,-12.482057,13.439487,14.793801,39.500076,-23.639837,-10.405133,-15.159058,-30.71984,-14.144122,51.344067,-20.402016,0.20293692,3.6881921,-0.16072623,9.41667,10.179833,23.424881,-44.85704,54.39318,7.455525,-1.6534035,0.87688464,-17.230772,-34.56085,33.16726,45.29119,-1.361033,-2.3864245,-3.807021
97,45.98755645751953,36.411434173583984,74.86357879638672,1.1993204231920083,1.5356455739244252,164.86602376272282,-12.342163,14.078284,14.683919,38.507305,-22.651619,-10.942626,-14.25088,-30.522451,-13.594765,49.661476,-18.71094,1.9594026,4.0166183,0.10289127,9.23095,10.492595,23.463205,-44.83767,54.52645,7.436045,-1.6295564,0.9062023,-17.989195,-34.478664,33.202038,44.463093,-1.3258089,-2.4028156,-3.9213705
98,46.40747833251953,36.987892150878906,75.03894805908203,1.0633828954647886,1.6079697757944211,164.6360322050049,-12.172335,14.712312,14.604812,37.38698,-21.602657,-11.477759,-13.310742,-30.203539,-13.050479,47.773952,-16.834492,4.242076,4.345033,0.34377065,9.027325,10.780009,23.503168,-44.814144,54.711914,7.4558854,-1.5915551,0.94356185,-18.731184,-34.3516,33.24807,43.610703,-1.2168291,-2.4439049,-3.9992557
99,46.84016799926758,37.57242202758789,75.22061157226562,0.9375524045890684,1.7015462967544943,164.41289706086022,-11.985476,15.332546,14.542044,36.172695,-20.477423,-12.012097,-12.409308,-29.734123,-12.380941,45.827354,-15.0134,6.655335,4.6509166,0.549913,8.814783,11.050098,23.550087,-44.755016,54.92512,7.495881,-1.5448685,0.97056097,-19.463873,-34.168667,33.309963,42.750828,-1.1069858,-2.485882,-4.041411
100,47.28409194946289,38.16550827026367,75.40849304199219,0.8284890664911537,1.8092763729415768,164.2172451212521,-11.792368,15.92821,14.481708,34.892376,-19.256971,-12.5472975,-11.608542,-29.107286,-11.486992,43.96913,-13.489289,8.800736,4.927112,0.71375346,8.610486,11.288313,23.603916,-44.648743,55.153244,7.5317516,-1.4955829,0.9703077,-20.17876,-33.94845,33.376984,41.87547,-1.0584263,-2.503012,-4.0449843
101,47.7255859375,38.77703094482422,75.59928131103516,0.74461913340605,1.93030656759181,164.04436803872582,-11.564896,16.484568,14.439095,33.50263,-17.924862,-13.079922,-10.91645,-28.315075,-10.299427,42.20615,-12.323053,10.6148615,5.1732416,0.8278875,8.413407,11.502388,23.667107,-44.49579,55.39379,7.5538745,-1.4393691,0.94043857,-20.863804,-33.69316,33.450073,40.96256,-1.0904304,-2.4708385,-3.985701
102,48.18519592285156,39.409637451171875,75.79177856445312,0.6819126509496859,2.0678012852490317,163.88734507958208,-11.308977,17.004608,14.416326,32.004944,-16.493565,-13.610577,-10.28352,-27.393103,-8.907885,40.47029,-11.396239,12.287103,5.3914266,0.8979659,8.218616,11.699542,23.740606,-44.29973,55.64886,7.577088,-1.3749238,0.8887688,-21.508713,-33.404133,33.52425,40.002975,-1.173395,-2.4087338,-3.8720493
103,48.654884338378906,40.05112075805664,75.97765350341797,0.6286319866710174,2.2203672985715834,163.76321991551404,-11.087365,17.506042,14.375531,30.495926,-14.989153,-14.145924,-9.689519,-26.407097,-7.4699273,38.799786,-10.671665,13.798631,5.581474,0.9357806,8.041924,11.861961,23.82808,-44.05606,55.90728,7.612085,-1.3125784,0.81389266,-22.154917,-33.08519,33.60178,39.051277,-1.2756191,-2.3562822,-3.751138
104,49.13966369628906,40.711524963378906,76.1555404663086,0.5423376112830772,2.3927854544344456,163.6771847868831,-10.980431,18.056885,14.26777,29.098284,-13.4497385,-14.701714,-9.128981,-25.365267,-6.1629734,37.21738,-10.092697,15.000033,5.7351007,0.9809913,7.8763065,11.990004,23.932396,-43.750664,56.156143,7.6633983,-1.2626407,0.7123401,-22.73054,-32.7451,33.634872,38.06859,-1.4299129,-2.3547325,-3.6712136
105,49.64680480957031,41.38466262817383,76.32628631591797,0.3033200453586202,2.6388410202917973,163.58965893342977,-11.0923,18.813093,14.06849,27.890831,-11.891121,-15.000033,-8.65093,-24.046917,-5.059945,35.67731,-9.589326,15.000033,5.9026465,1.1403977,7.6748323,12.076864,24.056063,-43.37481,56.39513,7.753701,-1.2298927,0.5775935,-23.276957,-32.386993,33.63039,37.060455,-1.6442708,-2.397841,-3.6286564
106,50.166011810302734,42.06508255004883,76.47755432128906,0.16011243795713842,2.903431302563586,163.58709694371942,-11.241513,19.421574,13.861939,26.637522,-10.225147,-15.000033,-8.223888,-22.798029,-3.913507,34.260094,-9.2449255,15.000033,6.008167,1.1875306,7.514882,12.114294,24.20508,-42.944935,56.628365,7.8715725,-1.2088683,0.41334286,-23.869028,-32.009357,33.63126,36.081738,-1.863643,-2.4675899,-3.6024914
107,50.70646286010742,42.76410675048828,76.61341857910156,0.05081083264362486,3.1638612101891384,163.65937440595528,-11.460304,19.982302,13.591209,25.44311,-8.517389,-15.000033,-7.8223743,-21.61336,-2.927856,32.930637,-9.054617,15.000033,6.0347433,1.1868429,7.3828835,12.13221,24.378437,-42.463276,56.83322,7.983035,-1.1923333,0.23012385,-24.331644,-31.623085,33.577637,35.050137,-2.1195974,-2.5904186,-3.6162
108,51.248748779296875,43.469749450683594,76.72728729248047,-0.03686824682606051,3.4144172978398384,163.82099389202114,-11.770858,20.494617,13.220654,24.32914,-6.7877345,-15.000033,-7.4464717,-20.550755,-2.3042107,31.649862,-9.003115,15.000033,5.9980774,1.1555244,7.2939835,12.089794,24.58026,-41.982586,57.003708,8.046847,-1.1733856,0.0450799,-24.823784,-31.24756,33.553097,34.145897,-2.2416275,-2.7883022,-3.6892154
109,51.795989990234375,44.16959762573242,76.8226089477539,-0.12376191609659379,3.667822447481845,164.07682735801697,-12.215986,20.98198,12.687752,23.31395,-4.9641895,-15.000033,-7.0939355,-19.571785,-2.1125727,30.3063,-9.060269,15.000033,5.8950067,1.115522,7.2469797,11.98112,24.812115,-41.485065,57.129543,8.059236,-1.1466353,-0.15868656,-25.304045,-30.89431,33.535275,33.312508,-2.235358,-3.0887897,-3.8433485
110,52.358055114746094,44.87250518798828,76.90046691894531,-0.19531656318971355,3.927434248087874,164.41448754660178,-12.761412,21.446756,12.034819,22.372923,-3.0627267,-15.000033,-6.783574,-18.648321,-2.2386823,28.940626,-9.225124,15.000033,5.7374206,1.0528759,7.2408504,11.815299,25.075039,-40.9621,57.213943,8.042414,-1.11664,-0.38292977,-25.754553,-30.568079,33.50942,32.51105,-2.1420758,-3.471704,-4.05982
111,52.92494201660156,45.5742073059082,76.95933532714844,-0.21554101974984627,4.173769525042939,164.82127647731625,-13.331151,21.859243,11.376288,21.488518,-1.2422178,-15.000033,-6.5591006,-17.857231,-2.6098857,27.765917,-9.542038,15.000033,5.535438,0.9367828,7.2721763,11.601109,25.367634,-40.462196,57.26799,7.9885497,-1.0915128,-0.5906126,-26.218563,-30.276314,33.50751,31.82656,-1.9330083,-3.889994,-4.2989087
112,53.4907341003418,46.27467727661133,76.98526763916016,-0.15450817511863513,4.384840462426453,165.2844837499384,-13.857465,22.187716,10.824943,20.646523,0.34311154,-15.000033,-6.4666586,-17.271244,-3.1623342,27.011843,-10.065377,15.000033,5.2738533,0.7465129,7.3145976,11.38714,25.678606,-40.004105,57.29556,7.9021373,-1.079349,-0.74856895,-26.473764,-30.02494,33.448845,31.135101,-1.737752,-4.2974477,-4.52153
113,54.055023193359375,46.94987106323242,76.97940826416016,0.01414238570354142,4.557420417580747,165.83793927406143,-14.336013,22.360489,10.3650255,19.73566,1.8472489,-15.000033,-6.5484624,-16.963823,-3.9885588,26.829481,-10.885167,15.000033,4.9706955,0.4542462,7.397472,11.109934,26.012259,-39.638462,57.32047,7.7732806,-1.0861992,-0.8423586,-26.856852,-29.829197,33.48838,30.70413,-1.2557719,-4.726884,-4.739695
114,54.62110137939453,47.61725616455078,76.93635559082031,0.2588956617864385,4.697693900461975,166.47692378992758,-14.797175,22.419245,9.951509,18.795645,3.2936828,-15.000033,-6.7708883,-16.874397,-5.104631,27.088686,-11.960299,15.000033,4.612396,0.09306815,7.5124784,10.785007,26.364368,-39.32942,57.331654,7.6059003,-1.1066154,-0.89401186,-27.203318,-29.690079,33.549007,30.374508,-0.61441326,-5.1897087,-4.964143
115,55.18130111694336,48.267086029052734,76.87496185302734,0.5209328042863288,4.800171548919677,167.13081970404255,-15.241681,22.49072,9.643557,18.04563,4.334594,-15.000033,-7.0741024,-16.879063,-6.327678,27.611362,-13.156543,15.000033,4.248042,-0.28122222,7.6572733,10.434154,26.72432,-39.059254,57.320168,7.4178777,-1.1321504,-0.9075939,-27.519066,-29.608253,33.60754,30.162632,0.0058619333,-5.6026173,-5.151119
116,55.734962463378906,48.91427230834961,76.80615234375,0.7452075498287687,4.864437624515756,167.72826245384414,-15.690984,22.695688,9.4917555,17.730091,4.608441,-15.000033,-7.40315,-16.856014,-7.4697294,28.21087,-14.333064,15.000033,3.9148743,-0.615236,7.817687,10.088375,27.073576,-38.80325,57.283955,7.2249346,-1.1546137,-0.887802,-27.706291,-29.579857,33.59988,30.003893,0.36043617,-5.8802185,-5.262239
117,56.28533935546875,49.54094696044922,76.71212768554688,0.9101807791648114,4.877562560080838,168.27238637118518,-16.181849,23.080864,9.465107,17.963554,3.8040671,-15.000033,-7.748475,-16.778381,-8.52511,28.894411,-15.4846325,15.000033,3.621177,-0.89048463,8.012509,9.720687,27.400839,-38.577347,57.250637,7.0108733,-1.1798645,-0.8253201,-27.893246,-29.610546,33.58327,30.004696,0.4524313,-5.988268,-5.276846
118,56.834678649902344,50.152671813964844,76.59600830078125,1.0498598574193767,4.843397479954074,168.7961637516259,-16.695,23.574272,9.554212,18.598368,2.172832,-15.000033,-8.128533,-16.719183,-9.580199,29.736464,-16.67478,15.000033,3.3438652,-1.1371367,8.240712,9.313032,27.701372,-38.393707,57.233852,6.770971,-1.2108865,-0.7190431,-28.080364,-29.70249,33.571598,30.15874,0.38858023,-5.9745545,-5.2222023
119,57.39284133911133,50.77772903442383,76.47981262207031,1.1233126315391164,4.808391803866525,169.2421034157438,-17.205643,24.220581,9.821743,19.51469,0.19195859,-15.000033,-8.547541,-16.544184,-10.584475,30.583437,-17.821548,14.627261,3.1249793,-1.3148562,8.450203,8.898622,27.969246,-38.220398,57.20571,6.5578895,-1.2349296,-0.5824631,-28.174076,-29.846914,33.510868,30.392715,0.19823605,-5.8768115,-5.131992
120,57.963199615478516,51.402671813964844,76.37037658691406,1.1243753485223735,4.811035062794533,169.56055170632456,-17.659065,25.015253,10.3383665,20.566929,-1.6385872,-15.000033,-9.016692,-16.176239,-11.470001,31.312973,-18.85957,13.6589,2.9997356,-1.417003,8.599715,8.508628,28.200918,-38.02712,57.139782,6.4219503,-1.2388229,-0.42874068,-28.11937,-30.030254,33.36318,30.66712,-0.07121259,-5.732915,-5.0391207
121,58.510772705078125,52.02021026611328,76.2606430053711,1.1710919808451687,4.839876802509438,169.77260758110964,-17.967093,25.830051,11.215061,21.697788,-3.2466402,-15.000033,-9.555203,-15.842983,-12.220124,32.02194,-19.841747,12.72525,2.9493444,-1.5561014,8.702743,8.142065,28.395445,-37.818733,57.04192,6.380686,-1.2081066,-0.23992537,-27.947168,-30.237648,33.12051,31.032238,-0.4413914,-5.5227814,-4.933598
122,59.05304718017578,52.62279510498047,76.14976501464844,1.2422384900810033,4.873689612594497,169.8929399461826,-18.141138,26.704365,12.400967,22.972475,-4.8756166,-15.000033,-10.149211,-15.528403,-12.86034,32.745975,-20.78679,11.798311,2.9650314,-1.7128336,8.783449,7.779549,28.554039,-37.610542,56.927998,6.4024806,-1.1532329,-0.014710573,-27.741568,-30.464373,32.833138,31.553738,-0.89560926,-5.2377467,-4.802602
123,59.58020782470703,53.217918395996094,76.02842712402344,1.3319381542875857,4.882695497267432,169.94671490500997,-18.139706,27.585846,13.790414,24.309807,-6.444767,-15.000033,-10.752244,-15.222534,-13.3872175,33.480896,-21.701061,10.899885,3.0058365,-1.869295,8.865521,7.444898,28.67651,-37.372654,56.78073,6.4686146,-1.0983664,0.20607692,-27.38451,-30.71233,32.486446,32.099228,-1.4064924,-4.9315667,-4.6768928
124,60.103458404541016,53.78108215332031,75.90864562988281,1.580790364854198,4.8900616629778835,170.04746017097094,-17.958347,28.142927,15.360188,25.499327,-7.794902,-14.230837,-11.422936,-15.132715,-13.796055,34.334652,-22.636667,10.097962,2.987578,-2.1447775,8.960273,7.115872,28.771862,-37.10287,56.58564,6.5633903,-1.0681492,0.38611248,-27.120268,-30.993095,32.2196,32.823505,-1.7301413,-4.6559124,-4.5888104
125,60.62723922729492,54.34123229980469,75.78102111816406,1.8451299495463063,4.822761262914084,170.08690590727582,-17.52951,28.649012,17.053429,26.66626,-8.943432,-13.605193,-12.032199,-15.032569,-14.065184,35.17437,-23.56555,9.348181,2.9931011,-2.4047053,9.118128,6.8312874,28.840176,-36.75633,56.315998,6.7342205,-1.0698149,0.4933971,-26.768442,-31.311613,31.958347,33.575027,-1.9300411,-4.4003944,-4.543272
126,61.15894317626953,54.891632080078125,75.64562225341797,2.1213977057226145,4.700977407566934,170.05833186760532,-16.877466,29.128569,18.907917,27.853918,-9.942241,-13.110589,-12.6074,-14.919753,-14.206767,36.004837,-24.475655,8.637743,3.035985,-2.651474,9.322999,6.5751476,28.883806,-36.358963,55.98465,6.9689374,-1.089841,0.5553518,-26.369467,-31.669939,31.702076,34.401405,-2.0352905,-4.144177,-4.524869
127,61.68153762817383,55.42976760864258,75.50496673583984,2.352666699800527,4.559410757851277,170.0003022431002,-16.119783,29.60878,20.75078,29.103233,-10.893081,-12.6890335,-13.167942,-14.7365265,-14.283537,36.81905,-25.308367,7.9526296,3.0742183,-2.8303869,9.541165,6.3397217,28.903973,-35.945477,55.609135,7.17647,-1.1209548,0.6164151,-25.9416,-32.067593,31.470781,35.307312,-2.0799692,-3.923908,-4.5377307
128,62.199886322021484,55.959075927734375,75.35674285888672,2.4817132194543454,4.432700530174007,169.95215903629455,-15.385227,30.125257,22.39961,30.465746,-11.899936,-12.284825,-13.731856,-14.427543,-14.360284,37.607197,-26.004356,7.279412,3.0637126,-2.8875308,9.736543,6.1240335,28.900244,-35.543346,55.203735,7.272563,-1.1552914,0.7207382,-25.506317,-32.50262,31.287766,36.302002,-2.0983133,-3.7766316,-4.5858235
129,62.72257995605469,56.4776496887207,75.21598815917969,2.4816752587699855,4.320240472453351,169.90106021849186,-14.683306,30.720673,23.833807,31.95105,-12.987272,-11.906525,-14.3154745,-13.957386,-14.416859,38.39934,-26.544437,6.6238194,3.0010726,-2.794748,9.912034,5.92798,28.86986,-35.144142,54.76301,7.204705,-1.193019,0.8703242,-25.082735,-32.979897,31.18753,37.39643,-2.0814452,-3.7409205,-4.668687
130,63.24934387207031,56.985260009765625,75.0804214477539,2.386879449440662,4.206790079810076,169.8345164130043,-13.955002,31.364107,25.14381,33.530865,-14.095447,-11.574322,-14.901699,-13.363934,-14.438184,39.18835,-26.962126,5.9899855,2.9062035,-2.5843925,10.08264,5.7574167,28.810593,-34.730934,54.27993,7.035623,-1.2381608,1.0448678,-24.665133,-33.49998,31.15472,38.590164,-2.0096004,-3.7869654,-4.785306
131,63.77251052856445,57.490604400634766,74.95128631591797,2.2311914349343422,4.105380154595937,169.79245859204624,-13.230213,31.986208,26.30946,35.196007,-15.207759,-11.251882,-15.462465,-12.705003,-14.495609,39.91571,-27.281403,5.362331,2.7678263,-2.2938511,10.231758,5.5910015,28.726213,-34.351276,53.786354,6.81956,-1.2893828,1.2561363,-24.249187,-34.04797,31.143475,39.88747,-1.9033947,-3.8489065,-4.938274
132,64.28443908691406,57.99021911621094,74.8347396850586,2.049148153823293,4.028854521103569,169.8149559630942,-12.540456,32.518078,27.306232,36.932766,-16.306267,-10.902513,-15.970216,-12.03842,-14.657998,40.518948,-27.524502,4.7254143,2.5563748,-1.9666927,10.322938,5.4340806,28.621101,-34.036533,53.313496,6.612944,-1.34449,1.5144744,-23.686996,-34.605007,31.04337,41.180824,-1.8540708,-3.8632436,-5.1316805
133,64.77488708496094,58.488792419433594,74.73050689697266,1.8329725854726604,3.987519750144577,169.90682617987062,-11.928253,32.97564,28.082422,38.796967,-17.416166,-10.513905,-16.438988,-11.3615675,-14.943008,41.012226,-27.694118,4.07599,2.268096,-1.596559,10.346524,5.2962823,28.499037,-33.793056,52.854534,6.389516,-1.4060297,1.8453046,-23.013887,-35.161797,30.889235,42.525997,-1.8645707,-3.8158724,-5.3948736
134,65.27009582519531,58.97380065917969,74.6326675415039,1.57049548568247,3.9730444908636,170.048919243125,-11.375886,33.3864,28.658394,40.777523,-18.538086,-10.105999,-16.876165,-10.652073,-15.315417,41.417576,-27.780693,3.4215388,1.9129558,-1.169765,10.317973,5.1775227,28.361383,-33.604523,52.397522,6.12772,-1.4746448,2.2351062,-22.267412,-35.714844,30.710533,43.946873,-1.9067652,-3.7402136,-5.716941
135,65.75660705566406,59.44696807861328,74.54939270019531,1.2899944890304194,3.9708207218117004,170.24470827927502,-10.829835,33.700153,29.115028,42.76918,-19.623625,-9.690126,-17.248398,-9.938029,-15.761296,41.687893,-27.790668,2.7641876,1.5062975,-0.71784335,10.253424,5.05966,28.2119,-33.47175,51.95443,5.907382,-1.5436181,2.6371467,-21.412458,-36.254135,30.428984,45.384483,-1.9658173,-3.6422613,-6.0388694
136,66.22787475585938,59.91199493408203,74.49498748779297,1.0196383237474207,3.9662634732632687,170.4977739323705,-10.235221,33.86538,29.535185,44.666332,-20.62327,-9.277461,-17.521385,-9.245603,-16.266094,41.77111,-27.726807,2.106864,1.0696993,-0.27365437,10.17099,4.9164624,28.057697,-33.405567,51.537983,5.8041205,-1.6048491,3.0052958,-20.411364,-36.767258,29.957878,46.78139,-2.0255773,-3.528406,-6.300276
137,66.6993408203125,60.392147064208984,74.45833587646484,0.7594382070799183,3.964645462839448,170.82038578671552,-9.607973,33.890594,29.92166,46.510323,-21.54272,-8.844555,-17.689028,-8.575697,-16.846838,41.65183,-27.595171,1.4484892,0.59626704,0.16038734,10.064944,4.7417545,27.90705,-33.42182,51.143353,5.877497,-1.64862,3.336059,-19.233147,-37.241634,29.249184,48.13786,-2.116814,-3.4083755,-6.499703
138,67.15320587158203,60.86031723022461,74.45333862304688,0.49739319348257244,3.971396569314536,171.2067921476251,-8.972282,33.795464,30.233458,48.33481,-22.402071,-8.393856,-17.769709,-7.914372,-17.503483,41.35515,-27.39132,0.78992516,0.08292856,0.59652054,9.929998,4.5539494,27.763638,-33.51347,50.75741,6.0710177,-1.6792972,3.6507444,-17.892979,-37.671318,28.346443,49.477905,-2.2390957,-3.2764955,-6.6628304
139,67.6099624633789,61.321651458740234,74.47859954833984,0.24298674807451248,3.9721206203747026,171.63348931474835,-8.290584,33.54388,30.486551,50.026897,-23.17347,-7.9768095,-17.76319,-7.2623177,-18.195932,40.88817,-27.102028,0.13727497,-0.44970828,1.0232667,9.782032,4.3630786,27.626347,-33.656242,50.38467,6.28317,-1.710503,3.9403675,-16.423449,-38.056534,27.30691,50.77777,-2.3314085,-3.1171877,-6.7708197
140,68.07080078125,61.78564453125,74.52742004394531,0.00552246616604001,3.9516167214383096,172.07730024479625,-7.526424,33.09615,30.698734,51.470726,-23.826242,-7.6464467,-17.667316,-6.618892,-18.885689,40.257015,-26.714571,-0.50437284,-0.9804252,1.4308488,9.638551,4.1726213,27.49116,-33.82925,50.0343,6.4107447,-1.7570239,4.196188,-14.8610325,-38.400616,26.189075,52.01464,-2.3301651,-2.9148445,-6.8053994
141,68.51644897460938,62.24250030517578,74.61164855957031,-0.22566718895515317,3.904578942854962,172.5526321560003,-6.6541,32.487774,30.939194,52.679493,-24.400839,-7.3743653,-17.459358,-5.9724984,-19.593374,39.43511,-26.219883,-1.1371226,-1.5261534,1.8333313,9.504019,3.9812777,27.353333,-34.032578,49.716118,6.4271393,-1.8291235,4.413217,-13.200865,-38.69988,24.947542,53.203815,-2.2325807,-2.6399662,-6.7549176
142,68.95751953125,62.693458557128906,74.71835327148438,-0.4525139493156747,3.839496164295796,173.06537012394142,-5.70835,31.722698,31.170742,53.70061,-24.894564,-7.1474676,-17.144934,-5.3192253,-20.331497,38.424866,-25.627352,-1.7603986,-2.0917773,2.2336311,9.369717,3.785321,27.211912,-34.277412,49.427155,6.3860273,-1.9176956,4.597258,-11.426936,-38.946903,23.573526,54.347816,-2.0669386,-2.309352,-6.6307173
143,69.3952407836914,63.13657760620117,74.85099792480469,-0.6530170855591663,3.76214568547465,173.57903731540455,-4.746952,30.711678,31.254705,54.469902,-25.210867,-7.043607,-16.766665,-4.6741776,-21.048134,37.281643,-24.952755,-2.364343,-2.6440244,2.601062,9.229729,3.5972922,27.067877,-34.544373,49.151623,6.316606,-2.0092056,4.755577,-9.5723,-39.144985,22.190525,55.415516,-1.8184359,-1.9770769,-6.452189
144,69.83082580566406,63.57052993774414,75.00572967529297,-0.804048974238264,3.67764468981063,174.05703415999537,-3.8244843,29.364044,31.059727,54.920624,-25.251947,-7.1421275,-16.36647,-4.0557194,-21.692335,36.05859,-24.209805,-2.9404306,-3.1570475,2.9053342,9.077103,3.4336052,26.922548,-34.807705,48.87139,6.24541,-2.0900414,4.89511,-7.686255,-39.302444,20.93788,56.3844,-1.4681958,-1.6969906,-6.2398887
145,70.26521301269531,64.00379943847656,75.17877197265625,-0.904547878896336,3.5820901198168134,174.49423023658963,-2.9098985,27.668814,30.617899,55.05692,-24.972845,-7.4355903,-15.923564,-3.4572692,-22.27099,34.71282,-23.389097,-3.4982836,-3.6369877,3.141076,8.905002,3.310493,26.77571,-35.05101,48.57824,6.1773677,-2.1483004,5.005186,-5.784527,-39.424446,19.825846,57.261513,-0.93978775,-1.4668347,-5.9997435
146,70.70185089111328,64.42752075195312,75.37250518798828,-0.9657411074006343,3.4741590206531816,174.9090846784533,-1.9874775,25.664925,29.978123,54.898785,-24.43285,-7.895702,-15.424574,-2.869014,-22.807495,33.230907,-22.485664,-4.037182,-4.1017914,3.323651,8.716283,3.2199883,26.627268,-35.283398,48.281387,6.098547,-2.1942031,5.085847,-3.86093,-39.510464,18.809334,58.0662,-0.2637571,-1.2615091,-5.722517
147,71.12995147705078,64.85010528564453,75.57544708251953,-0.9836815255462458,3.3623810123909905,175.30068739120594,-1.1231046,23.34213,29.03757,54.410366,-23.698273,-8.570093,-14.930031,-2.313194,-23.274372,31.72415,-21.522871,-4.5368924,-4.5429115,3.4532006,8.516052,3.1521103,26.477468,-35.507442,47.982784,6.0185785,-2.2465324,5.159645,-1.9278629,-39.56234,17.941973,58.791767,0.4173258,-1.1005886,-5.406557
148,71.56413269042969,65.26731872558594,75.77742004394531,-0.9553230337771309,3.255366195169049,175.66803441718204,-0.36326185,20.695572,27.697195,53.557167,-22.838524,-9.502879,-14.497552,-1.8145711,-23.643723,30.29898,-20.519476,-4.9807467,-4.9598274,3.529354,8.307263,3.1026032,26.326233,-35.71819,47.68458,5.9472203,-2.3242142,5.2489467,-0.008267507,-39.58423,17.289228,59.43887,0.961194,-1.0057007,-5.050278
149,72.0082015991211,65.66828918457031,75.9936294555664,-0.8636964330110892,3.1502617290332933,176.00950206960266,0.34327164,17.620003,25.874762,52.26731,-21.825016,-10.847736,-14.120851,-1.395184,-23.892572,28.942389,-19.464802,-5.364868,-5.356516,3.5324252,8.085792,3.075983,26.17301,-35.912308,47.388557,5.876866,-2.435242,5.3619566,1.8918073,-39.585686,16.884811,60.015476,1.3242544,-1.0131425,-4.633798
150,72.45366668701172,66.05814361572266,76.21000671386719,-0.7218017856135608,3.04398061325654,176.3266097230923,1.0717992,14.17312,23.63718,50.576256,-20.675102,-12.526033,-13.776777,-1.0372825,-24.043423,27.612217,-18.351124,-5.702566,-5.736372,3.474163,7.8495398,3.0761526,26.017242,-36.08681,47.09261,5.8087926,-2.5684643,5.4858356,3.7741673,-39.5737,16.69705,60.524536,1.5867317,-1.1021855,-4.163648
151,72.90103149414062,66.44214630126953,76.42328643798828,-0.5715509103060967,2.944475132464485,176.6223956704158,1.8190069,10.603434,21.112041,48.619747,-19.509151,-14.228127,-13.496397,-0.70846707,-24.135656,26.367716,-17.20003,-6.003756,-6.095559,3.4032793,7.6089797,3.0890207,25.859262,-36.244778,46.79513,5.758945,-2.714536,5.611754,5.622125,-39.54446,16.693352,60.963512,1.7939427,-1.2095711,-3.678127
152,73.3646011352539,66.80904388427734,76.62846374511719,-0.3532394235638299,2.8955175901925627,176.94644253648937,2.5198898,6.9878497,18.478378,46.46839,-18.35689,-15.000033,-13.431835,-0.5521359,-24.202152,25.462471,-16.121248,-6.2493267,-6.4710164,3.2779806,7.330905,3.1038516,25.700039,-36.38643,46.494797,5.7469606,-2.864143,5.731315,7.4125075,-39.487404,16.844336,61.338673,1.9887849,-1.2722918,-3.21801
153,73.83642578125,67.16468811035156,76.8265380859375,-0.08324339821252626,2.880807672488336,177.27689895879558,3.2077181,3.2786987,15.556398,44.07884,-17.169271,-15.000033,-13.569957,-0.5417734,-24.20865,24.89921,-15.100689,-6.4339232,-6.838945,3.110124,7.0286994,3.1118805,25.542618,-36.52623,46.192837,5.7793813,-3.0194085,5.838157,9.156679,-39.402294,17.167507,61.639385,2.168503,-1.2711462,-2.8157637
154,74.30924987792969,67.50977325439453,77.01191711425781,0.13170603600220704,2.85123861704057,177.55497971503462,4.007202,-0.3759633,12.264821,41.487972,-15.96369,-15.000033,-13.7419195,-0.4742165,-24.15192,24.404774,-14.023332,-6.5915103,-7.149307,2.9862852,6.755619,3.1196945,25.388414,-36.661045,45.888107,5.845654,-3.1829915,5.9384785,10.862849,-39.29681,17.66516,61.869797,2.3118305,-1.2423741,-2.4447832
155,74.79045104980469,67.856689453125,77.17893981933594,0.2617468951777175,2.810815747877276,177.78980702484102,4.9273963,-3.6814234,8.938992,38.846844,-14.799674,-15.000033,-13.930907,-0.3122319,-24.105171,23.946154,-12.902076,-6.749462,-7.414972,2.9333735,6.521661,3.1361434,25.235369,-36.7669,45.578667,5.936667,-3.3465674,6.042855,12.505201,-39.16916,18.285666,62.05648,2.4324589,-1.2052488,-2.0579264
156,75.27184295654297,68.2098617553711,77.32854461669922,0.28756735721657456,2.7689341295869063,177.99673188280644,5.905092,-6.3820195,5.943897,36.305206,-13.73136,-15.000033,-14.131163,-0.034845106,-24.143383,23.500776,-11.755246,-6.93337,-7.6523094,2.9676876,6.329277,3.166482,25.080042,-36.822624,45.2676,6.043651,-3.501652,6.1623507,14.063446,-39.01237,18.973047,62.223408,2.5401897,-1.1789546,-1.609068
157,75.76319885253906,68.56431579589844,77.46049499511719,0.21666275473588692,2.7419161179792675,178.19366680721663,6.890504,-8.529529,3.250512,33.760742,-12.747678,-15.000033,-14.3614645,0.3223303,-24.337034,23.092152,-10.600715,-7.1739755,-7.866625,3.0946946,6.166399,3.1991067,24.917522,-36.839775,44.95905,6.197136,-3.6450465,6.3051195,15.560263,-38.824715,19.769686,62.3525,2.6681058,-1.162556,-1.1392647
158,76.2693099975586,68.9148941040039,77.56260681152344,0.06595409601120292,2.731148357443336,178.381221798613,7.8590765,-10.271124,0.7296823,31.163605,-11.807099,-15.000033,-14.631521,0.7424926,-24.639181,22.72399,-9.423447,-7.446587,-8.059997,3.2956321,6.0244527,3.2312226,24.746784,-36.825127,44.65862,6.3933816,-3.7814999,6.4644685,17.004717,-38.610313,20.682938,62.44112,2.7975385,-1.1484143,-0.65791714
159,76.78359985351562,69.28230285644531,77.64332580566406,-0.15251917438222004,2.7273579715645377,178.55332588856788,8.712328,-11.543955,-1.3508945,28.753202,-10.928736,-15.000033,-14.934059,1.2490609,-24.9433,22.362837,-8.1994095,-7.688789,-8.243339,3.5357635,5.9081364,3.2732334,24.573467,-36.75994,44.371807,6.563894,-3.914896,6.6290355,18.349422,-38.366386,21.608215,62.536346,2.8679361,-1.1451185,-0.070064254
160,77.3113784790039,69.69673919677734,77.69921112060547,-0.4111683354976428,2.72035596396647,178.70175817171418,9.325113,-12.301568,-2.7006814,26.80162,-10.157159,-15.000033,-15.284986,1.8390979,-25.131971,22.030642,-6.933823,-7.833139,-8.4209795,3.7648172,5.82151,3.33849,24.408361,-36.627285,44.096996,6.641644,-4.049611,6.7865787,19.555983,-38.083324,22.42955,62.673477,2.8121393,-1.1620637,0.7207342
161,77.85384368896484,70.12815856933594,77.737060546875,-0.6909049123328052,2.703004580153802,178.80480424489187,9.568146,-12.504963,-3.0973217,25.460709,-9.436591,-15.000033,-15.683355,2.4888043,-25.235605,21.758312,-5.6249313,-7.9393473,-8.567122,3.9586728,5.766016,3.4353194,24.256298,-36.41078,43.8194,6.597995,-4.1811614,6.9337773,20.630142,-37.74598,23.113718,62.853638,2.5705686,-1.2277964,1.7815211
162,78.40966796875,70.56749725341797,77.75227355957031,-0.8260506841486894,2.6845417520370174,178.88813738737463,9.592141,-12.560558,-2.6100667,24.354706,-8.666131,-13.478396,-16.344332,2.874678,-25.213717,22.041052,-4.5171,-7.954523,-8.692482,3.9785187,5.711576,3.5530593,24.117998,-36.13186,43.537033,6.4693804,-4.308524,7.0763483,21.587461,-37.352238,23.718449,63.06159,2.1927168,-1.334991,3.046826
163,78.9749526977539,70.97804260253906,77.76559448242188,-0.8246562607004372,2.6639169616471716,178.97078770790282,9.504942,-12.577455,-1.4654046,23.427696,-8.105346,-10.48988,-17.246035,3.0499713,-24.9271,22.783161,-3.5909786,-7.722881,-8.821848,3.8270884,5.6653247,3.6811101,24.002687,-35.825928,43.26523,6.2850113,-4.4424744,7.214875,22.39984,-36.909966,24.268055,63.309902,1.7722532,-1.4420367,4.415633
164,79.54743957519531,71.39058685302734,77.75517272949219,-0.8133047974666062,2.63449148569281,179.05689161481612,9.336565,-12.423557,0.015324778,22.811808,-8.10669,-7.368295,-18.215574,3.2931526,-24.281939,23.548788,-2.6716757,-7.121446,-8.968849,3.6104195,5.6583633,3.8140104,23.926964,-35.526497,43.012123,6.0718756,-4.5939674,7.349126,23.048592,-36.42957,24.781301,63.5935,1.3989532,-1.495778,5.7885933
165,80.15579223632812,71.82610321044922,77.70221710205078,-0.8125581184601797,2.612128605705401,179.14031855909286,9.0139065,-11.977861,2.0575247,22.696186,-8.844702,-3.7655032,-19.303988,3.6406636,-23.277575,24.401226,-1.7894453,-6.1992207,-9.136544,3.3386092,5.688226,3.9697053,23.905128,-35.206264,42.75101,5.8450794,-4.766448,7.487602,23.511583,-35.908367,25.244984,63.925655,1.1021507,-1.4869483,7.2413135
166,80.77399444580078,72.2735366821289,77.60889434814453,-0.8068887736993507,2.5928724804911405,179.21485642862373,8.533097,-11.226033,4.6519413,23.097725,-10.210727,0.32850304,-20.510462,4.070406,-21.967907,25.386398,-0.97071314,-4.989813,-9.3172035,3.0009499,5.75173,4.1610303,23.94212,-34.850872,42.46312,5.585125,-4.9534235,7.624944,23.81119,-35.340843,25.645706,64.29134,0.8222984,-1.4405539,8.795589
167,81.40180969238281,72.73601531982422,77.46871948242188,-0.7802579085990945,2.547643460007644,179.30274478477745,8.103182,-10.412768,7.1384087,23.621723,-11.904552,4.1127343,-21.708067,4.599497,-20.308916,26.334314,-0.19913204,-3.3074517,-9.514418,2.6021957,5.8656483,4.366872,24.03705,-34.52327,42.168373,5.265625,-5.1505785,7.7409124,23.96579,-34.74191,26.037283,64.66962,0.5557565,-1.3522385,10.270922
168,82.0331039428711,73.20271301269531,77.29591369628906,-0.7148185336731443,2.443222602603061,179.42050671739207,7.897898,-9.810278,8.905813,23.825562,-13.550998,6.7881823,-22.76935,5.2380652,-18.249908,27.096083,0.51090544,-0.9625335,-9.732275,2.1469805,6.0481753,4.5687857,24.183054,-34.281544,41.89022,4.861181,-5.353987,7.8151217,24.015839,-34.1373,26.450928,65.017044,0.2776483,-1.215763,11.489501
169,82.6681137084961,73.6564712524414,77.08863067626953,-0.618598311266768,2.245426764519018,179.59202245814393,8.036341,-9.491857,9.751779,23.424053,-15.030108,7.964236,-23.592546,6.1390395,-15.519482,27.477125,1.1986006,2.576329,-10.01143,1.6387738,6.3382807,4.783034,24.37827,-34.114624,41.604053,4.3283806,-5.576592,7.8479705,23.981071,-33.541714,26.851742,65.28844,-0.020736417,-0.97454244,12.427837
170,83.31502532958984,74.10848999023438,76.85499572753906,-0.5167941920043617,1.9803370960448898,179.79951203511584,8.384186,-9.2898855,10.044604,22.66708,-16.481932,8.141118,-24.234285,7.269638,-12.265039,27.67262,1.6503966,7.060608,-10.326483,1.1009623,6.7229366,5.004586,24.620865,-34.006966,41.3062,3.6911936,-5.81602,7.847572,23.806557,-32.96175,27.28969,65.5342,-0.2636153,-0.64647466,13.176098
171,83.95297241210938,74.54796600341797,76.59962463378906,-0.4070485760148585,1.7046023046522796,179.99378430595823,8.716212,-9.135309,10.06346,21.896374,-17.907393,7.859079,-24.837553,8.337284,-9.0729065,28.105747,1.5928967,11.476294,-10.619934,0.55418855,7.1251373,5.219043,24.89724,-33.971546,41.05378,3.0310352,-6.045865,7.804667,23.579922,-32.40065,27.705627,65.7224,-0.5781772,-0.33561644,13.733712
172,84.58393859863281,74.98638916015625,76.3394546508789,-0.26823822268204583,1.4721987120029396,-179.8750987992637,8.812577,-8.991406,10.065963,21.459158,-19.309423,7.6522765,-25.575623,9.05416,-6.488373,29.118649,0.99485785,14.813542,-10.804414,0.008676168,7.4791317,5.3780627,25.184832,-34.053562,40.920063,2.428262,-6.2401686,7.7134457,23.298492,-31.86765,28.170353,65.89867,-0.94497615,-0.14724179,14.095269
173,85.20917510986328,75.45137786865234,76.07477569580078,-0.18971344575971139,1.2532675078314977,-179.88056237231302,8.534126,-8.696886,10.062085,21.727674,-20.869715,7.502412,-26.386148,9.61742,-4.7834263,30.488317,0.19510274,15.000033,-10.819893,-0.4655309,7.8248477,5.452385,25.474995,-34.29004,40.94896,1.8193634,-6.4385185,7.579237,22.987862,-31.367304,28.682585,66.03882,-1.4394047,-0.11514592,14.237302
174,85.82999420166016,75.9090576171875,75.80005645751953,-0.04182609494626587,1.0322350890578287,-179.91569389241448,8.127985,-8.49249,9.878425,22.182444,-22.39103,7.2267847,-27.30759,9.951087,-3.1984622,32.279217,-0.87112373,15.000033,-10.795036,-0.98413616,8.15609,5.4752793,25.761236,-34.639156,41.109585,1.1938307,-6.6385727,7.4042215,22.733904,-30.894842,29.073788,66.05687,-2.1804988,-0.17714362,14.172583
175,86.4479751586914,76.3275375366211,75.52371978759766,0.20406768778973408,0.8688590797846866,-179.9589167744541,7.631138,-8.421666,9.678807,22.643126,-23.774157,6.942128,-28.343433,9.823298,-2.0631952,34.43614,-2.2266865,15.000033,-10.698125,-1.5494816,8.4226465,5.43639,26.024237,-35.07423,41.38545,0.7060917,-6.754154,7.181812,22.382679,-30.45659,29.549662,66.09863,-2.8158662,-0.29528195,13.9393215
176,87.0550537109375,76.70567321777344,75.24583435058594,0.5221351627306758,0.8183719691015221,179.98340162937257,7.0329595,-8.442292,9.654775,23.054016,-24.988554,6.742264,-29.463406,9.025798,-1.7553327,36.812443,-3.8408918,15.000033,-10.504457,-2.1198487,8.576629,5.358694,26.23884,-35.52755,41.76049,0.5233122,-6.701006,6.9056263,21.837202,-30.05609,30.235577,66.25989,-3.0968013,-0.4322654,13.578635
177,87.64677429199219,77.05760192871094,74.98538970947266,0.9820267784274748,0.9434808353680431,179.91258833018244,6.305083,-8.642745,9.878732,23.326889,-25.970915,6.6610045,-30.757164,7.2027116,-2.5267396,39.53629,-5.8925257,15.000033,-10.28295,-2.7642925,8.499257,5.2943006,26.388798,-35.947247,42.267498,0.7394033,-6.44317,6.547612,21.431135,-29.671804,30.654953,66.29467,-3.5110939,-0.60042655,13.064441
178,88.21253204345703,77.39701843261719,74.74253845214844,1.596336677093063,1.1748645988230035,179.85649564630984,5.5058584,-9.047127,10.2190895,23.483404,-26.740404,6.6457515,-32.12024,4.4348106,-4.015839,42.559093,-8.365683,15.000033,-10.011553,-3.4990256,8.281624,5.1663237,26.46913,-36.422977,42.936356,1.2504145,-6.0354667,6.1215544,20.99903,-29.310993,31.061455,66.32851,-3.8317542,-0.81155556,12.380595
179,88.76183319091797,77.76268768310547,74.5163345336914,1.974498465246276,1.3927510565329626,179.69511830289258,4.495159,-9.07783,10.705124,24.196997,-27.714579,6.554193,-33.15201,1.5491309,-6.2784696,45.196526,-10.76669,12.680843,-9.60076,-3.9934351,8.115539,5.0233192,26.475775,-36.871384,43.718643,1.9516494,-5.5302076,5.672167,20.528587,-28.974115,31.43637,66.33923,-4.107681,-1.0192006,11.615664
180,89.29886627197266,78.13634490966797,74.30327606201172,2.2490076548021194,1.507871378139364,179.5492128589902,3.5411565,-8.974608,11.124348,25.051903,-28.665648,6.452833,-33.841618,-1.1928807,-8.317868,47.482624,-12.931719,10.189462,-9.176546,-4.3677278,8.083485,4.895459,26.400484,-37.231876,44.562366,2.7323265,-4.975763,5.247682,19.962814,-28.673637,31.812092,66.3398,-4.3155727,-1.1801773,10.859051
181,89.83238983154297,78.47544860839844,74.11897277832031,2.3698155081851837,1.4799361847408632,179.4287902965868,2.6686673,-8.6852045,11.445485,26.090149,-29.631462,6.3548756,-34.14701,-3.7778645,-10.220504,49.42161,-14.775391,7.702567,-8.749374,-4.5602064,8.237191,4.795771,26.226864,-37.452324,45.479855,3.6661303,-4.352106,4.8223586,19.31069,-28.418444,32.159748,66.3142,-4.4930787,-1.2803245,10.091796
182,90.36740112304688,78.81108093261719,73.95450592041016,2.3814497572932085,1.3704757787918906,179.31818578953406,1.8235955,-8.258161,11.7243185,27.282251,-30.582167,6.264213,-34.140564,-6.4076567,-12.245462,51.150654,-16.51994,5.0220814,-8.302355,-4.6031113,8.495123,4.70234,25.949032,-37.577393,46.501484,4.78171,-3.648952,4.375725,18.58912,-28.21395,32.48665,66.262596,-4.6264615,-1.3449467,9.282809
183,90.91202545166016,79.1518325805664,73.80998992919922,2.3479636186277126,1.2283796479663545,179.20347475967287,0.9941531,-7.7668023,11.977466,28.534878,-31.449236,6.1548843,-33.92905,-8.895968,-14.087995,52.62573,-18.14554,2.5379882,-7.834387,-4.5687876,8.785497,4.61404,25.582819,-37.67251,47.591164,5.9049044,-2.923968,3.9684596,17.799152,-28.06427,32.817474,66.17941,-4.6856685,-1.389076,8.506421
184,91.42256927490234,79.47074890136719,73.69775390625,2.3356059423542646,1.103131735242372,179.06939529380995,0.16502997,-7.2866683,12.225788,29.758945,-32.165813,6.000858,-33.661034,-11.061168,-15.434851,53.80234,-19.563925,0.6374063,-7.348254,-4.5367813,9.03744,4.540562,25.160604,-37.79824,48.697765,6.8518534,-2.2283716,3.6676116,16.964762,-27.968536,33.142464,66.036934,-4.679313,-1.4281892,7.8377705
185,91.92219543457031,79.79354095458984,73.60059356689453,2.347510876095754,1.0031385654428837,178.90901682502962,-0.69128036,-6.8178453,12.47486,30.989765,-32.71822,5.7910194,-33.397533,-12.837529,-16.210861,54.645866,-20.646112,-0.55135113,-6.825961,-4.516908,9.255639,4.4958377,24.703703,-37.954693,49.79189,7.632773,-1.5251365,3.5384421,16.067913,-27.92691,33.478645,65.82788,-4.5733495,-1.45277,7.315781
186,92.42962646484375,80.117431640625,73.52029418945312,2.350897992158401,0.9047771459173639,178.73070036994255,-1.5599049,-6.325481,12.71285,32.25432,-33.141434,5.5396953,-33.095917,-14.328016,-16.61655,55.20128,-21.405582,-1.26073,-6.2744007,-4.4740224,9.471372,4.488674,24.218588,-38.11231,50.87539,8.316312,-0.79636115,3.5298648,15.111855,-27.93826,33.81209,65.55362,-4.3912716,-1.4610579,6.8954406
187,92.92583465576172,80.45137023925781,73.45738220214844,2.360722797330058,0.8105736581027051,178.5412960134575,-2.3997457,-5.833427,12.938766,33.465816,-33.446903,5.2586117,-32.767895,-15.610847,-16.732914,55.54216,-21.95059,-1.6438174,-5.718421,-4.4239187,9.662224,4.522541,23.719563,-38.28692,51.93403,8.8148155,-0.120741926,3.5430586,14.110022,-27.996635,34.15278,65.23253,-4.151188,-1.480319,6.525368
188,93.41559600830078,80.79107666015625,73.40357971191406,2.392820532640861,0.7227744671501216,178.34763754777165,-3.1708035,-5.366323,13.1535015,34.540035,-33.650265,4.960837,-32.41868,-16.76232,-16.63375,55.736965,-22.3995,-1.8481195,-5.1853075,-4.3874564,9.804405,4.60443,23.226593,-38.492344,52.95107,9.0393305,0.421142,3.4821055,13.099619,-28.091976,34.469936,64.86758,-3.914971,-1.5371965,6.1536574
189,93.86884307861328,81.12016296386719,73.37690734863281,2.471240934122031,0.6412907886258586,178.14377830788195,-3.8633814,-4.9523826,13.366033,35.459972,-33.72717,4.644144,-32.078804,-17.72715,-16.181522,55.7639,-22.716064,-1.770249,-4.6622143,-4.3950243,9.892917,4.7518835,22.754377,-38.72149,53.912685,8.871134,0.8125501,3.3530433,12.059759,-28.218012,34.787567,64.47962,-3.6362734,-1.6467783,5.793738
190,94.31260681152344,81.46963500976562,73.36473083496094,2.5810192862831403,0.5653369171494255,177.92837895546495,-4.501179,-4.572286,13.574612,36.27237,-33.680534,4.3034987,-31.73831,-18.491816,-15.390439,55.60389,-22.858198,-1.384773,-4.147749,-4.4369855,9.938829,4.97344,22.309584,-38.96129,54.811653,8.3871355,1.0968205,3.2009013,11.015047,-28.370085,35.05731,64.03202,-3.3659961,-1.7901013,5.464472
191,94.74442291259766,81.8203125,73.36714935302734,2.679507914676315,0.49666599257385474,177.71515621606028,-5.0928087,-4.1796336,13.764795,36.98475,-33.56515,3.9478803,-31.338911,-19.194546,-14.5596285,55.323013,-22.936281,-0.9503161,-3.6502693,-4.4654775,9.962549,5.232964,21.900625,-39.249573,55.640137,7.791366,1.2834284,2.9881709,9.906849,-28.544771,35.36886,63.576954,-3.0549295,-1.9545635,5.118645
192,95.16873931884766,82.17524719238281,73.39032745361328,2.7239239253414693,0.43636171293604975,177.51804082981977,-5.6455574,-3.7284007,13.921303,37.60264,-33.43455,3.585686,-30.829472,-19.974096,-13.988771,54.988132,-23.054277,-0.7218775,-3.2034833,-4.4382577,9.96807,5.5170293,21.535183,-39.599586,56.389725,7.290645,1.381502,2.6739028,8.797871,-28.731756,35.644135,63.07517,-2.8426259,-2.1246643,4.710611
193,95.60040283203125,82.53314208984375,73.4241714477539,2.698907944617223,0.3827444723205374,177.3373394761847,-6.148999,-3.200908,14.041547,38.112892,-33.301632,3.2130923,-30.184284,-20.869987,-13.770402,54.5947,-23.241632,-0.778984,-2.812494,-4.3429675,9.948588,5.835629,21.219692,-40.013367,57.067078,6.8345914,1.3586258,2.2171793,7.7203913,-28.9261,35.852837,62.51471,-2.7955348,-2.3203764,4.2154584
194,96.00515747070312,82.90010070800781,73.47917175292969,2.628946880574763,0.33581995981695123,177.1665452060684,-6.6026464,-2.6240883,14.132832,38.5179,-33.139713,2.82671,-29.438625,-21.806427,-13.743698,54.1222,-23.443531,-0.97636557,-2.43058,-4.2011585,9.923619,6.1665406,20.959642,-40.51146,57.66823,6.341694,1.2247303,1.6480585,6.4595575,-29.13388,36.252293,62.052834,-2.599656,-2.5438416,3.658255
195,96.40518951416016,83.27938079833984,73.54569244384766,2.5298866137395404,0.2978317902740809,177.0097039037829,-7.0281053,-2.017839,14.194254,38.844086,-32.942043,2.4348729,-28.628994,-22.746729,-13.831564,53.60095,-23.637163,-1.2304188,-2.10393,-4.0378933,9.873644,6.536311,20.753256,-41.0468,58.16843,5.987522,1.048752,1.0275657,5.2464495,-29.339178,36.53578,61.498425,-2.5484538,-2.746175,3.0755556
196,96.808837890625,83.67552185058594,73.62571716308594,2.417614836132949,0.27147268141493747,176.87101925293737,-7.4468455,-1.4027679,14.223875,39.11613,-32.70038,2.0476687,-27.791174,-23.656725,-13.955691,53.060345,-23.795977,-1.4607093,-1.8057158,-3.867042,9.8151045,6.9042473,20.599808,-41.64767,58.557198,5.9370112,0.89535034,0.42310023,4.0399036,-29.535208,36.731503,60.875732,-2.5391903,-2.8822021,2.4983556
197,97.21566009521484,84.0592269897461,73.71656036376953,2.2922328455735594,0.25521695610988726,176.75391830160382,-7.855431,-0.78121126,14.217369,39.326874,-32.415215,1.6721722,-26.905437,-24.577488,-14.180739,52.502754,-23.933126,-1.6940993,-1.5647606,-3.693245,9.735095,7.291063,20.499502,-42.313396,58.82042,6.304492,0.7609276,-0.17241222,2.9425838,-29.712828,36.692818,60.11146,-2.7265396,-2.9275663,1.933524
198,97.61238861083984,84.46533966064453,73.81967163085938,2.14623323743694,0.24837483326640195,176.65572322834856,-8.245097,-0.14433749,14.174581,39.46598,-32.08769,1.3034121,-25.957777,-25.507544,-14.526154,51.915306,-24.058128,-1.9551818,-1.3092972,-3.4994872,9.67614,7.6359677,20.459476,-43.10136,58.97732,6.9693847,0.6103353,-0.7796163,1.5508589,-29.884392,36.884056,59.52077,-2.6214027,-2.9131074,1.3592126
199,98.01184844970703,84.87104797363281,73.93573760986328,1.985028457917485,0.25460663916660076,176.5703188207521,-8.633024,0.50786215,14.106286,39.561413,-31.720722,0.927171,-24.998983,-26.352442,-14.832221,51.30737,-24.134056,-2.1670775,-1.120129,-3.309069,9.571396,8.024405,20.468357,-43.87982,59.04738,7.778586,0.46087906,-1.3681194,0.4044727,-30.032696,36.765316,58.695625,-2.8389606,-2.865711,0.77802694
200,98.41104125976562,85.28431701660156,74.05520629882812,1.8134510906634504,0.27859211767289027,176.49194568663722,-9.0369425,1.1737541,14.020775,39.63968,-31.314873,0.53124475,-24.082367,-27.01814,-14.935882,50.68553,-24.122257,-2.25756,-0.8981311,-3.1179008,9.462142,8.369881,20.521809,-44.689133,59.073265,8.560039,0.33412364,-1.8967838,-0.80359703,-30.171146,36.70892,57.871513,-2.9388502,-2.8188574,0.18423666
201,98.80625915527344,85.71163177490234,74.18547058105469,1.6328236344862759,0.3272030486391934,176.42092327638917,-9.466203,1.8529344,13.921524,39.701782,-30.86641,0.11400488,-23.22557,-27.478777,-14.769118,50.03957,-24.019365,-2.201675,-0.6850823,-2.9313173,9.318992,8.702446,20.612146,-45.50917,59.04546,9.369129,0.23748076,-2.3702562,-1.9283079,-30.293097,36.562244,56.934414,-3.1213973,-2.7720068,-0.44584993
202,99.20490264892578,86.14582061767578,74.31392669677734,1.4403536616589538,0.39640856415701453,176.35963175293767,-9.911172,2.54537,13.80172,39.73592,-30.37594,-0.3180583,-22.398478,-27.787647,-14.420976,49.369728,-23.844152,-2.0464087,-0.47565633,-2.744272,9.151936,9.0126,20.738148,-46.363087,58.96196,10.261645,0.15848848,-2.8024266,-3.0395434,-30.400965,36.372692,55.941635,-3.3250299,-2.7102053,-1.1033041
203,99.5942611694336,86.58719635009766,74.45140075683594,1.2351063661111927,0.4729806855340446,176.30535393329245,-10.358827,3.2495806,13.655279,39.745235,-29.849325,-0.7653011,-21.58235,-27.976503,-13.960191,48.69829,-23.590448,-1.8285205,-0.27302477,-2.55487,8.967185,9.316396,20.892864,-47.190186,58.847282,11.085319,0.09302151,-3.1787941,-4.0622864,-30.498035,36.09981,54.838696,-3.5713594,-2.6409802,-1.7384304
204,99.99178314208984,87.02360534667969,74.58584594726562,1.015690701890322,0.5438980650049506,176.25562435363554,-10.797239,3.9644158,13.475998,39.734344,-29.293034,-1.2282642,-20.760248,-28.076061,-13.456255,48.04821,-23.251926,-1.5829419,-0.05567632,-2.3566394,8.789257,9.606739,21.068785,-47.946453,58.72746,11.69197,0.03918714,-3.4826057,-5.074431,-30.59451,35.84476,53.684845,-3.7208176,-2.5734358,-2.3020813
205,100.37615203857422,87.4813461303711,74.73049926757812,0.7736602515953321,0.6073883873930134,176.20987483561422,-11.229848,4.7006774,13.2575445,39.71572,-28.708588,-1.7155824,-19.930956,-28.058752,-12.874169,47.421856,-22.821777,-1.3172369,0.1632012,-2.1379073,8.6065035,9.888601,21.258862,-48.637077,58.60238,12.025923,0.008787248,-3.7158685,-6.0118337,-30.694427,35.556602,52.417942,-3.8248408,-2.5069726,-2.7832203
206,100.77440643310547,87.94061279296875,74.87267303466797,0.5114694361534973,0.6700543526188549,176.16924845510758,-11.662438,5.4554534,13.002847,39.685368,-28.094236,-2.224583,-19.099283,-27.918459,-12.192038,46.808662,-22.307896,-1.0136827,0.39059106,-1.899841,8.419935,10.150379,21.460363,-49.287952,58.466137,12.175374,0.00188832,-3.884506,-6.9312463,-30.801044,35.269848,51.080986,-3.8542283,-2.4380488,-3.2068827
207,101.16661834716797,88.40684509277344,75.0177001953125,0.24635057418098688,0.7310744592377616,176.13384424188482,-12.083221,6.2054605,12.721333,39.61568,-27.447334,-2.7387807,-18.25814,-27.720812,-11.498758,46.210514,-21.723293,-0.6683519,0.6125991,-1.6628922,8.231062,10.415762,21.667515,-49.839138,58.33317,12.200257,-0.0008061576,-3.982354,-7.7613554,-30.915358,34.942154,49.638016,-3.8765774,-2.3725185,-3.5770438
208,101.56584930419922,88.87611389160156,75.16227722167969,-0.004921126455564458,0.7897209011791282,176.10393895620714,-12.481579,6.9287896,12.4235,39.482246,-26.766582,-3.2412922,-17.403357,-27.532196,-10.882471,45.629196,-21.079544,-0.27602166,0.8368397,-1.444633,8.059326,10.684396,21.876276,-50.2488,58.21973,12.159293,-0.019152313,-4.0008607,-8.579337,-31.040472,34.64362,48.165985,-3.8288503,-2.3159614,-3.8980742
209,101.96734619140625,89.34931945800781,75.30946350097656,-0.2400131751609942,0.846894513450676,176.07810697819124,-12.85856,7.620826,12.111697,39.28164,-26.05043,-3.7240822,-16.526209,-27.36654,-10.374717,45.05686,-20.367435,0.19736156,1.0579547,-1.2448621,7.9012523,10.969442,22.081358,-50.489326,58.134167,12.03993,-0.065911435,-3.9081688,-9.353876,-31.175634,34.35246,46.630325,-3.7184927,-2.2630427,-4.1658397
210,102.36498260498047,89.8365707397461,75.45724487304688,-0.4671055820437961,0.9028759964034726,176.05668177858135,-13.219641,8.292769,11.781556,39.026516,-25.299616,-4.1969566,-15.632911,-27.189186,-9.92063,44.494118,-19.583828,0.7410332,1.2785177,-1.0541105,7.7535033,11.258636,22.28067,-50.59377,58.072323,11.818965,-0.1287331,-3.7176514,-10.106867,-31.32132,34.07762,45.04293,-3.5357423,-2.2130806,-4.3799796
211,102.77581024169922,90.33421325683594,75.60698699951172,-0.6850169024203399,0.9555232370596137,176.04248955023763,-13.56137,8.945704,11.434337,38.71666,-24.516321,-4.669118,-14.741591,-26.982101,-9.484653,43.952,-18.74899,1.2879277,1.4850379,-0.8771253,7.613072,11.555221,22.473007,-50.57395,58.02156,11.55059,-0.19062285,-3.492339,-10.788937,-31.475744,33.79945,43.388664,-3.352314,-2.1789262,-4.550635
212,103.1931381225586,90.8261947631836,75.75566864013672,-0.8926400664111032,1.0032142859025412,176.03837125862105,-13.88093,9.580232,11.071465,38.35168,-23.701685,-5.1496286,-13.870987,-26.732931,-9.0311165,43.443676,-17.88287,1.7721685,1.680181,-0.71704036,7.4907455,11.844454,22.660158,-50.454597,57.968933,11.287788,-0.23371135,-3.293469,-11.469397,-31.636587,33.568333,41.746193,-3.1569695,-2.1730556,-4.68802
213,103.60774993896484,91.33628845214844,75.90272521972656,-1.0929294033469525,1.044949548669499,176.04489142612198,-14.178742,10.196621,10.688448,37.928577,-22.85557,-5.64126,-13.022816,-26.450844,-8.580416,42.985332,-16.976595,2.1491969,1.8579719,-0.57318777,7.3842154,12.139249,22.84212,-50.18945,57.909584,11.011247,-0.25110456,-3.1351566,-12.116976,-31.802902,33.37431,40.08345,-2.9640415,-2.2164977,-4.7967043
214,104.03486633300781,91.85667419433594,76.04856872558594,-1.2857022498345918,1.0821176220364432,176.0606639557038,-14.458147,10.79338,10.287017,37.448936,-21.976835,-6.138242,-12.188795,-26.13821,-8.141262,42.566093,-16.023127,2.46463,2.0245328,-0.44293526,7.295544,12.438106,23.018757,-49.784813,57.847603,10.705639,-0.2531388,-2.9850154,-12.756986,-31.973093,33.2234,38.41165,-2.743508,-2.296425,-4.870718
215,104.47142028808594,92.37577056884766,76.18875122070312,-1.4648122415549147,1.115481198760038,176.08537926688498,-14.721118,11.368569,9.878133,36.92074,-21.065287,-6.637161,-11.371515,-25.770323,-7.661853,42.15768,-15.045181,2.786683,2.1727762,-0.33150133,7.2200756,12.731047,23.190287,-49.32707,57.785877,10.424784,-0.24675162,-2.836556,-13.36973,-32.141342,33.096157,36.739155,-2.5397198,-2.3754184,-4.905688
216,104.9031753540039,92.90499877929688,76.32395935058594,-1.6241745665703133,1.1462955857944834,176.1187947486379,-14.9676895,11.920783,9.472541,36.349396,-20.120619,-7.1347303,-10.571053,-25.321814,-7.0898767,41.731327,-14.067231,3.1837394,2.3036318,-0.24384703,7.1565375,12.999712,23.357546,-48.91016,57.730614,10.222606,-0.23864517,-2.6826212,-13.966148,-32.300144,32.984615,35.101467,-2.3775318,-2.4160635,-4.89742
217,105.34123229980469,93.44265747070312,76.45638275146484,-1.7653889504114284,1.1729022803839888,176.16027812098272,-15.196585,12.4521055,9.068195,35.73823,-19.143179,-7.6303315,-9.803661,-24.796701,-6.4082985,41.318478,-13.058816,3.5644825,2.4189513,-0.18027194,7.106462,13.241497,23.52025,-48.539852,57.68845,10.124608,-0.22554657,-2.5116363,-14.555648,-32.44315,32.883587,33.501812,-2.2626436,-2.3950183,-4.8269987
218,105.78791046142578,93.99164581298828,76.57830810546875,-1.890843399904597,1.1954165764405555,176.21007489863572,-15.408608,12.962507,8.661816,35.083218,-18.132267,-8.125562,-9.059949,-24.203337,-5.646626,40.919453,-12.018893,3.930749,2.5205867,-0.13917264,7.0698533,13.463134,23.677784,-48.17511,57.65729,10.098712,-0.20492798,-2.330331,-15.136607,-32.568436,32.797195,31.933031,-2.181745,-2.337101,-4.7033663
219,106.23577880859375,94.54953002929688,76.70357513427734,-1.9951715469679323,1.217522825368696,176.26914598370988,-15.607085,13.44682,8.261799,34.3831,-17.08825,-8.620872,-8.302814,-23.532988,-4.8128963,40.462723,-11.022811,4.4912415,2.6104558,-0.12304066,7.0440145,13.657351,23.831646,-47.84212,57.630928,10.110576,-0.1847008,-2.1583133,-15.713169,-32.67564,32.73614,30.423119,-2.1266644,-2.2772207,-4.5644426
220,106.69752502441406,95.11602783203125,76.81499481201172,-2.0723435441459492,1.2428420239763216,176.33827755751918,-15.795807,13.899944,7.876297,33.637928,-16.012451,-9.116731,-7.492783,-22.773256,-3.91215,39.872726,-10.149396,5.4525285,2.6910012,-0.13468198,7.025366,13.813596,23.984316,-47.57309,57.60538,10.120139,-0.17311011,-2.0153692,-16.271221,-32.76557,32.70232,28.984138,-2.0952249,-2.249866,-4.447653
221,107.15571594238281,95.69261932373047,76.91793823242188,-2.1157398335420914,1.2681467075012924,176.42231704639568,-15.964045,14.3141775,7.513667,32.83772,-14.904446,-9.609807,-6.5714426,-21.891212,-2.8942556,39.062813,-9.391945,7.073455,2.7624626,-0.17819035,7.0179005,13.92734,24.13913,-47.391582,57.575417,10.147416,-0.17152455,-1.909296,-16.824469,-32.8375,32.705425,27.629744,-2.094478,-2.2561297,-4.367913
222,107.62354278564453,96.27548217773438,77.00889587402344,-2.1279006120564383,1.29338527392621,176.5187885598685,-16.111368,14.692633,7.169982,31.983524,-13.76286,-10.100764,-5.569268,-20.914898,-1.7671705,38.095062,-8.741148,9.170712,2.823311,-0.25378063,7.0208817,14.003624,24.297314,-47.27885,57.544415,10.199388,-0.1755218,-1.8289329,-17.362263,-32.89093,32.73561,26.3378,-2.1287966,-2.2793775,-4.303484
223,108.10790252685547,96.86491394042969,77.0805892944336,-2.1168818966237235,1.3268328632850046,176.6178905210176,-16.255642,15.04728,6.834797,31.091536,-12.58766,-10.59666,-4.582222,-19.920834,-0.630761,37.112404,-8.261194,11.284029,2.8855243,-0.35591042,7.031962,14.050127,24.457546,-47.19314,57.511192,10.238099,-0.184999,-1.7650374,-17.892124,-32.926613,32.782238,25.122417,-2.1624844,-2.3329835,-4.236758
224,108.59180450439453,97.46536254882812,77.14942932128906,-2.0921701211592256,1.3763754271086301,176.71042226502797,-16.414993,15.3914995,6.4955974,30.178297,-11.378423,-11.105172,-3.7114077,-18.980698,0.41139182,36.256077,-7.9926705,12.95726,2.9595807,-0.47744098,7.050331,14.068746,24.617088,-47.09807,57.47854,10.218767,-0.1997294,-1.7081015,-18.432636,-32.94603,32.8401,24.007715,-2.1565025,-2.4312842,-4.150108
225,109.09205627441406,98.07413482666016,77.20600128173828,-2.05564767169684,1.4402541175543302,176.78946710637942,-16.583006,15.731282,6.1500316,29.238403,-10.132087,-11.631272,-2.9937317,-18.054512,1.433605,35.61378,-7.967447,14.033194,3.0492628,-0.617842,7.0784144,14.055119,24.774738,-47.006676,57.45412,10.1217,-0.2194928,-1.6543095,-18.984688,-32.94736,32.909924,22.989296,-2.0820014,-2.6025736,-4.0298405
226,109.59402465820312,98.70040130615234,77.25081634521484,-2.00235057216663,1.5151351588115143,176.86182173711234,-16.752245,16.058947,5.8032084,28.265917,-8.849965,-12.170685,-2.3758905,-17.12375,2.4489431,35.096035,-8.141846,14.764089,3.1483421,-0.7803959,7.1170425,14.007536,24.930408,-46.931694,57.43664,9.972865,-0.24459693,-1.6089607,-19.545944,-32.929462,32.99607,22.06432,-1.964147,-2.8316705,-3.8880622
227,110.10504913330078,99.33007049560547,77.28276062011719,-1.9863281151779997,1.608036683930865,176.92899521857345,-16.969927,16.438257,5.4214187,27.320097,-7.5584774,-12.734582,-1.8224092,-16.199747,3.2086556,34.54234,-8.404368,15.000033,3.2579389,-0.9107249,7.1535125,13.935608,25.075449,-46.833485,57.42059,9.798894,-0.27621412,-1.5758288,-20.094927,-32.898853,33.088272,21.22487,-1.8574384,-3.063418,-3.7459126
228,110.62077331542969,99.97612762451172,77.30378723144531,-2.009299937786679,1.7231062379938196,177.00348045498248,-17.260118,16.864258,4.9968457,26.430227,-6.2690597,-13.316914,-1.3044592,-15.367897,3.5395103,33.806812,-8.659585,15.000033,3.372074,-1.0020509,7.1865797,13.850949,25.213032,-46.670986,57.385975,9.625767,-0.31508014,-1.5599791,-20.645685,-32.86152,33.188515,20.488056,-1.7991734,-3.242377,-3.6257358
229,111.14601135253906,100.62442016601562,77.30787658691406,-2.0168510947226235,1.8626235053642253,177.0916127150942,-17.595072,17.272276,4.5633845,25.548592,-4.9585805,-13.903734,-0.8120983,-14.749229,3.3449311,32.82406,-8.858338,15.000033,3.48193,-1.1077347,7.217772,13.763156,25.345444,-46.43919,57.32596,9.453371,-0.362544,-1.5498453,-21.183983,-32.817898,33.295345,19.82483,-1.8541745,-3.3234534,-3.5300536
230,111.6774673461914,101.28209686279297,77.29063415527344,-1.993539885795066,2.02395444086073,177.19024369793098,-17.957481,17.645395,4.1312327,24.655067,-3.6177206,-14.493063,-0.3678353,-14.2980175,2.7727046,31.681637,-9.054886,15.000033,3.5905104,-1.2419627,7.2494445,13.657642,25.465588,-46.16298,57.258907,9.267208,-0.41818574,-1.5467135,-21.70129,-32.7707,33.405617,19.228758,-1.9847722,-3.3462336,-3.4478881
231,112.21586608886719,101.93807220458984,77.25648498535156,-1.9429044744550725,2.202143332589436,177.30722887259768,-18.34748,17.973671,3.7039247,23.753342,-2.25396,-15.000033,-0.007065089,-13.926814,2.042452,30.501162,-9.340593,15.000033,3.69112,-1.3963302,7.283477,13.528486,25.572735,-45.831074,57.188046,9.0769,-0.4798689,-1.5762619,-22.193161,-32.727264,33.51537,18.727623,-2.0884547,-3.3823397,-3.382476
232,112.75647735595703,102.57978820800781,77.20755004882812,-1.8202873503240058,2.4003097706482377,177.4728873355578,-18.750341,18.17144,3.357149,22.797215,-0.8433372,-15.000033,0.21209997,-13.627923,1.3708224,29.44269,-9.832898,15.000033,3.761563,-1.6053479,7.3229237,13.365132,25.666523,-45.433437,57.11479,8.895539,-0.54531676,-1.6640095,-22.687859,-32.698124,33.6283,18.373064,-2.0453746,-3.5026972,-3.3369677
233,113.30082702636719,103.2130355834961,77.14662170410156,-1.6220968612489994,2.6236346785027385,177.6795229446689,-19.171732,18.261751,3.0026293,21.770748,0.70123553,-15.000033,0.25623783,-13.397026,0.7972011,28.500053,-10.607197,15.000033,3.8179657,-1.8776622,7.3611617,13.155277,25.73738,-44.96102,57.052624,8.727543,-0.6197283,-1.8343793,-23.137493,-32.694138,33.719296,18.1165,-1.840011,-3.7317975,-3.312212
234,113.85250091552734,103.84260559082031,77.07521057128906,-1.3911395206275683,2.8621360103260507,177.9070088555423,-19.616978,18.309692,2.6359887,20.722956,2.32587,-15.000033,0.1609883,-13.226223,0.2075231,27.606348,-11.58409,15.000033,3.862184,-2.1708426,7.4108872,12.924137,25.803764,-44.40485,56.969273,8.563789,-0.7015541,-2.0707834,-23.559492,-32.714863,33.8119,17.945597,-1.5211139,-4.029261,-3.3080916
235,114.40802764892578,104.4658432006836,76.98313903808594,-1.157757814386843,3.093810320997927,178.16663664200158,-20.049099,18.350332,2.3145943,19.672443,3.8517141,-15.000033,-0.0429169,-13.095788,-0.413773,26.869812,-12.6740885,15.000033,3.8841615,-2.4489589,7.4825454,12.673183,25.857683,-43.803345,56.878494,8.403782,-0.7798726,-2.328828,-23.939491,-32.76887,33.89623,17.886396,-1.1217155,-4.3697615,-3.315476
236,114.97334289550781,105.07572937011719,76.86712646484375,-0.9559023118609011,3.29711914813504,178.46806317277418,-20.43492,18.417364,2.092762,18.639751,5.1012754,-15.000033,-0.31766668,-12.969203,-1.0826163,26.388742,-13.783695,15.000033,3.8707204,-2.670638,7.5939884,12.396263,25.893114,-43.19538,56.790936,8.240117,-0.8444928,-2.5646007,-24.324636,-32.860237,33.990448,18.00762,-0.64718497,-4.727266,-3.328342
237,115.53723907470703,105.66741180419922,76.73534393310547,-0.7991511925834793,3.4712931568077563,178.82549860562378,-20.72857,18.504059,1.9859523,17.454502,6.198387,-15.000033,-0.6521398,-12.824031,-1.8051877,26.188576,-14.918569,15.000033,3.79782,-2.8127108,7.737534,12.107246,25.902876,-42.54339,56.70448,8.052175,-0.90139616,-2.7993853,-24.656786,-33.00302,34.09541,18.266796,-0.049092676,-5.1531887,-3.348368
238,116.1005630493164,106.22836303710938,76.5825424194336,-0.676422487957756,3.6225268114770826,179.22709236706976,-20.951687,18.599646,1.9632332,16.149664,7.1929708,-15.000033,-1.0657762,-12.673246,-2.5759163,26.223213,-16.120064,15.000033,3.688839,-2.8881202,7.91792,11.78789,25.884491,-41.851765,56.624657,7.848261,-0.9534771,-3.044603,-24.963667,-33.20192,34.210133,18.664385,0.6798904,-5.641635,-3.3743565
239,116.66439819335938,106.79085540771484,76.4247055053711,-0.5792396096677493,3.7445327654519995,179.6468283170389,-21.196945,18.720179,1.9994223,15.085172,7.779263,-15.000033,-1.5469377,-12.528269,-3.3977313,26.450542,-17.348288,15.000033,3.5600984,-2.9240792,8.136954,11.432148,25.841425,-41.184975,56.562195,7.6719155,-0.98612183,-3.2455428,-25.209185,-33.447952,34.300533,19.1631,1.3636396,-6.082031,-3.4003925
240,117.23876953125,107.35037231445312,76.27287292480469,-0.4975147318883778,3.838543782199187,-179.93708754782796,-21.584473,18.883944,2.060137,14.655893,7.6306295,-15.000033,-2.085135,-12.382742,-4.274275,26.825436,-18.560368,14.896898,3.4264085,-2.9543345,8.388305,11.032475,25.781986,-40.610214,56.52665,7.5663004,-0.98469496,-3.3475358,-25.358932,-33.723034,34.3274,19.732767,1.8242368,-6.363978,-3.4256215
