unveil-humanoid-operators/unveil-humanoid-operators.github.io/feature-analysis-animation/data/feature_matrix_instances/age_ankle_rom_walking_A160_lift_crate_walk_ff_stop_360_003__A160.csv
Frame,root_translateX,root_translateY,root_translateZ,root_rotateX,root_rotateY,root_rotateZ,left_hip_pitch_joint_dof,left_hip_roll_joint_dof,left_hip_yaw_joint_dof,left_knee_joint_dof,left_ankle_pitch_joint_dof,left_ankle_roll_joint_dof,right_hip_pitch_joint_dof,right_hip_roll_joint_dof,right_hip_yaw_joint_dof,right_knee_joint_dof,right_ankle_pitch_joint_dof,right_ankle_roll_joint_dof,waist_yaw_joint_dof,waist_roll_joint_dof,waist_pitch_joint_dof,left_shoulder_pitch_joint_dof,left_shoulder_roll_joint_dof,left_shoulder_yaw_joint_dof,left_elbow_joint_dof,left_wrist_roll_joint_dof,left_wrist_pitch_joint_dof,left_wrist_yaw_joint_dof,right_shoulder_pitch_joint_dof,right_shoulder_roll_joint_dof,right_shoulder_yaw_joint_dof,right_elbow_joint_dof,right_wrist_roll_joint_dof,right_wrist_pitch_joint_dof,right_wrist_yaw_joint_dof
0,-0.15176843106746674,3.470412254333496,73.97054290771484,0.9035694477327552,-17.164513514280678,-87.21391118974915,-3.8472724,16.158165,6.8917265,45.712265,-20.122402,-9.353139,0.82098186,-6.937934,-17.810732,42.67632,-28.657269,-2.6039279,-3.7117474,-3.0813322,17.112259,-36.48984,29.240099,-42.690933,77.61366,-29.059454,-2.0427535,2.0395432,-30.16751,-17.014425,26.471945,80.63591,42.682304,-0.99599767,-2.1472273
1,-0.05511980876326561,3.5992066860198975,73.94023132324219,0.8669698336655336,-17.10381415214248,-87.39022478623396,-3.1221042,16.415089,7.40749,46.21406,-20.954384,-9.462337,0.49199104,-6.931974,-17.621265,42.87304,-28.58363,-2.5469556,-3.8210788,-3.0143325,17.0851,-36.373142,29.28667,-42.675198,77.66862,-29.32505,-2.052289,2.0354538,-30.248573,-17.024803,26.361483,80.73107,42.463875,-1.0393519,-2.1823263
2,0.0509234257042408,3.7357449531555176,73.9017562866211,0.831585762581152,-17.043484709641792,-87.56877062139394,-2.3962793,16.669554,7.9185715,46.732357,-21.794107,-9.580736,0.16399118,-6.9237876,-17.429033,43.06737,-28.508904,-2.489748,-3.913917,-2.9480052,17.078154,-36.245132,29.364918,-42.616215,77.66851,-29.541164,-2.0510716,2.0266733,-30.287342,-17.065168,26.182693,80.77571,42.20399,-1.0774373,-2.212466
3,0.16228653490543365,3.8628199100494385,73.8667221069336,0.7935967741944475,-16.982771953687465,-87.74237958258458,-1.6569865,16.921648,8.445886,47.21087,-22.613861,-9.685571,-0.16419779,-6.9176044,-17.242468,43.262947,-28.434912,-2.4303687,-4.0084157,-2.880216,17.060862,-36.11302,29.416817,-42.54026,77.69148,-29.745852,-2.0578249,2.022244,-30.337414,-17.107183,26.042212,80.81154,41.968716,-1.1095724,-2.246303
4,0.27219119668006897,3.998307943344116,73.82904815673828,0.7476697496581808,-16.921034920996867,-87.90379713184868,-0.8905837,17.169231,9.010555,47.5921,-23.385294,-9.754266,-0.49377504,-6.918019,-17.069696,43.463287,-28.363598,-2.3669322,-4.103643,-2.8116148,17.041866,-35.95915,29.489655,-42.547848,77.68793,-30.062502,-2.0783787,2.0247838,-30.384962,-17.179953,25.91066,80.76167,41.71865,-1.116912,-2.2837658
5,0.37738484144210815,4.120554447174072,73.7860336303711,0.6948722611116227,-16.854403765022926,-88.05727709701037,-0.098994255,17.417166,9.615683,47.8771,-24.112978,-9.773686,-0.8276677,-6.9200025,-16.912697,43.66169,-28.291735,-2.2992005,-4.201192,-2.7437708,17.001787,-35.77752,29.554808,-42.628345,77.6921,-30.48272,-2.1185186,2.0456305,-30.456823,-17.258762,25.838875,80.65413,41.489365,-1.103487,-2.3298032
6,0.49603191018104553,4.256254196166992,73.74018859863281,0.6349223611585125,-16.7844393489473,-88.20426648403479,0.71326905,17.661835,10.251199,48.08976,-24.807362,-9.758478,-1.1638923,-6.9232483,-16.767025,43.85786,-28.219229,-2.2278569,-4.2990437,-2.6756768,16.94902,-35.571236,29.614668,-42.73416,77.69508,-30.95115,-2.1719587,2.0787573,-30.53471,-17.343916,25.763067,80.49146,41.22968,-1.0724171,-2.3819537
7,0.627798318862915,4.392640113830566,73.69100952148438,0.5740029204633326,-16.718950937062438,-88.33539356529396,1.554975,17.887037,10.918454,48.20846,-25.450047,-9.728037,-1.49788,-6.9398437,-16.631094,44.067738,-28.153788,-2.152278,-4.3949404,-2.6169252,16.895832,-35.361935,29.667707,-42.819733,77.701546,-31.401632,-2.234092,2.1050112,-30.617859,-17.437859,25.712961,80.29466,40.988335,-1.0287007,-2.436251
8,0.7526895999908447,4.509176731109619,73.64263916015625,0.5206348471282272,-16.66569138532317,-88.44186593708609,2.4339871,18.076897,11.618441,48.212135,-26.0226,-9.701711,-1.8241526,-6.9812655,-16.503237,44.30503,-28.101702,-2.0719466,-4.4931464,-2.5839636,16.8451,-35.161873,29.691555,-42.756897,77.736496,-31.685093,-2.300442,2.106235,-30.717049,-17.505558,25.666433,80.11458,40.754307,-0.98320407,-2.492483
9,0.886745274066925,4.640983581542969,73.58936309814453,0.4777838845580266,-16.6294311184773,-88.52090519468813,3.3628733,18.231792,12.366517,48.100483,-26.534424,-9.682799,-2.1410418,-7.051505,-16.37964,44.580936,-28.067698,-1.991219,-4.59184,-2.568249,16.818611,-34.96181,29.705341,-42.517902,77.77393,-31.786793,-2.3710651,2.0664632,-30.804575,-17.595505,25.599892,79.88002,40.49932,-0.91826105,-2.5444782
10,1.0266063213348389,4.772005081176758,73.53639221191406,0.4398946935719237,-16.605317223487823,-88.57763730214151,4.332564,18.35557,13.156606,47.884003,-26.990896,-9.662251,-2.4514718,-7.144032,-16.262058,44.885372,-28.047235,-1.908449,-4.693263,-2.5700772,16.802473,-34.741844,29.694143,-42.05553,77.816536,-31.665272,-2.4458764,1.999284,-30.88739,-17.6871,25.498804,79.59889,40.20114,-0.8337849,-2.5997276
11,1.1669706106185913,4.912580490112305,73.4731674194336,0.4042452390167934,-16.58533735582805,-88.61388220393216,5.3216963,18.438889,13.958276,47.55031,-27.363733,-9.640376,-2.7555215,-7.2530456,-16.157684,45.197876,-28.031944,-1.8144768,-4.796562,-2.579498,16.784286,-34.54047,29.66538,-41.598694,77.86128,-31.536167,-2.5251632,1.9299151,-30.98128,-17.774696,25.430191,79.34249,39.950474,-0.75581735,-2.6518052
12,1.311596155166626,5.025061130523682,73.41486358642578,0.3655563915986646,-16.561611707712483,-88.63199592311936,6.3072505,18.473316,14.740615,47.088722,-27.62565,-9.61668,-3.0548437,-7.374155,-16.073465,45.500397,-28.015022,-1.7003845,-4.8999877,-2.5919397,16.754375,-34.366848,29.633327,-41.24934,77.87606,-31.492395,-2.6020167,1.8823838,-31.058258,-17.84464,25.299957,79.11844,39.67882,-0.6902188,-2.7081344
13,1.459892749786377,5.155652046203613,73.3523178100586,0.3204026849288296,-16.52772015553622,-88.63923681226233,7.268838,18.462166,15.491768,46.54757,-27.700228,-9.510165,-3.3530366,-7.4984794,-16.009304,45.781425,-27.989641,-1.5597914,-4.998643,-2.5794625,16.71486,-34.225903,29.596226,-41.078617,77.84476,-31.624075,-2.6838417,1.8618687,-31.103703,-17.936758,25.141863,78.90353,39.428413,-0.6295509,-2.7712264
14,1.6154193878173828,5.290796756744385,73.28717041015625,0.27255941745972906,-16.489415164641546,-88.6331187559268,8.220858,18.408253,16.22828,45.917732,-27.62689,-9.346741,-3.6487808,-7.632106,-15.961757,46.054295,-27.96255,-1.3989567,-5.081415,-2.5629566,16.67002,-34.127586,29.558079,-41.064156,77.78993,-31.890104,-2.7690704,1.8543792,-31.111244,-18.03649,24.913685,78.68113,39.15776,-0.57065535,-2.8388073
15,1.7646596431732178,5.429117679595947,73.2231216430664,0.22732257490872565,-16.457065298723947,-88.59782683325966,9.192732,18.302773,16.96082,45.099186,-27.549767,-9.285998,-3.9335723,-7.789124,-15.933187,46.33326,-27.94263,-1.2287027,-5.15855,-2.5597105,16.629353,-34.05888,29.51272,-41.083015,77.71037,-32.14716,-2.8445952,1.8594085,-31.100163,-18.148033,24.676596,78.462364,38.91885,-0.5207011,-2.8992867
16,1.917449951171875,5.561624050140381,73.15834045410156,0.1878609173920484,-16.440815716947913,-88.5180122738588,10.21475,18.135813,17.699816,43.98805,-27.610386,-9.489011,-4.1992817,-7.983073,-15.926419,46.632515,-27.93937,-1.0596468,-5.2472677,-2.5828738,16.598858,-34.02166,29.460814,-41.11918,77.61793,-32.362854,-2.9017923,1.8773453,-31.102121,-18.27182,24.515594,78.27317,38.779297,-0.48828074,-2.9419491
17,2.075774669647217,5.7009124755859375,73.08863830566406,0.14276972188357398,-16.434860257204893,-88.38425047609404,11.405978,17.904356,18.542423,42.31721,-27.871655,-10.159853,-4.4540462,-8.205295,-15.949203,46.963295,-27.963015,-0.8911493,-5.358049,-2.6184595,16.565235,-34.005787,29.401337,-41.16302,77.50018,-32.51585,-2.9302275,1.915567,-31.112995,-18.410257,24.426882,78.11118,38.735672,-0.48773924,-2.9630182
18,2.2410709857940674,5.832180976867676,73.01318359375,0.09146584875072188,-16.43518073128389,-88.20502994334379,12.717037,17.608053,19.45892,40.19963,-28.23392,-11.164434,-4.698734,-8.451267,-15.999222,47.313286,-28.004732,-0.71887547,-5.484648,-2.662052,16.527374,-34.01759,29.336422,-41.25973,77.36056,-32.66548,-2.939136,1.9719031,-31.135473,-18.565893,24.424862,77.9803,38.805515,-0.5124506,-2.968401
19,2.412205934524536,5.969593524932861,72.93756103515625,0.0608466280374117,-16.454816075500457,-87.99433561081564,13.923402,17.25085,20.26281,38.111744,-28.60384,-12.151742,-4.9147167,-8.741027,-16.064043,47.664963,-28.047104,-0.5480978,-5.613733,-2.7399967,16.516724,-34.058395,29.265085,-41.336292,77.208405,-32.764126,-2.9435883,2.0320938,-31.149015,-18.7334,24.410614,77.85066,38.882164,-0.5291974,-2.9619973
20,2.5862014293670654,6.094485759735107,72.87405395507812,0.07974747336970078,-16.508855257602416,-87.76645044889042,14.792648,16.850273,20.753584,36.564064,-28.913992,-12.761441,-5.0821776,-9.096741,-16.128584,48.002083,-28.073036,-0.3840924,-5.7328634,-2.8826418,16.562565,-34.14333,29.19052,-41.392597,77.06695,-32.835114,-2.9618065,2.0820165,-31.15579,-18.908737,24.356344,77.718025,38.92698,-0.509087,-2.9479573
21,2.762763500213623,6.2333502769470215,72.84384155273438,0.15338831213649712,-16.632945233202786,-87.51765698474114,15.254299,16.409294,20.80092,35.747417,-29.225851,-12.811825,-5.1557646,-9.530743,-16.196625,48.32567,-28.082792,-0.23157059,-5.8506317,-3.1014783,16.696394,-34.27066,29.116053,-41.420586,76.93916,-32.893272,-3.0049713,2.1113584,-31.157969,-19.092022,24.228266,77.56538,38.898994,-0.43094987,-2.913847
22,2.9289445877075195,6.352383613586426,72.8174057006836,0.26813261474782624,-16.81016168899132,-87.2439258162763,15.432129,15.930152,20.531082,35.393837,-29.56258,-12.515833,-5.1577034,-10.0303545,-16.272448,48.64247,-28.083347,-0.08689501,-5.969063,-3.381666,16.895288,-34.435482,29.043869,-41.440437,76.81209,-32.941944,-3.0615046,2.1298215,-31.148754,-19.282993,24.036314,77.39638,38.815235,-0.3143629,-2.8619125
23,3.089006185531616,6.523065090179443,72.76392364501953,0.42853009078582316,-16.978251084037662,-86.96081200342599,15.383737,15.431297,20.126265,35.336277,-29.807726,-12.105431,-5.1711993,-10.582348,-16.339506,48.94811,-28.068865,0.057494108,-6.0654607,-3.7172525,17.10771,-34.648487,28.975443,-41.49184,76.68788,-32.983414,-3.115754,2.152966,-31.128609,-19.476316,23.842148,77.24948,38.747063,-0.19297521,-2.8187628
24,3.2493252754211426,6.718471527099609,72.73564147949219,0.6339725543927018,-17.074194680008546,-86.68241947586223,15.167324,14.932934,19.771664,35.40154,-29.845484,-11.8159685,-5.2815275,-11.173322,-16.380205,49.239307,-28.033901,0.20866124,-6.1211653,-4.0984654,17.28232,-34.92265,28.913616,-41.63941,76.56932,-33.048195,-3.1527307,2.1974053,-31.086437,-19.657541,23.651844,77.15134,38.706955,-0.09790647,-2.8123195
25,3.394388437271118,6.927837371826172,72.73467254638672,0.9490306002134581,-17.058551495797435,-86.39684742339021,14.6891165,14.381468,19.480774,35.630375,-29.54771,-11.705656,-5.5579863,-11.880864,-16.375229,49.542435,-27.982725,0.38726386,-6.12292,-4.6054015,17.401657,-35.293625,28.857374,-41.863552,76.453094,-33.087875,-3.1575172,2.28332,-31.057121,-19.819809,23.53242,77.132225,38.755028,-0.024206039,-2.8799353
26,3.5225822925567627,7.160933971405029,72.73767852783203,1.3504396208087195,-16.973688225024105,-86.10108555892619,13.957029,13.785051,19.177172,36.089714,-29.01053,-11.653881,-5.943935,-12.685398,-16.3345,49.852154,-27.91665,0.58240664,-6.092544,-5.2148824,17.49143,-35.76231,28.813507,-42.251656,76.3553,-33.2191,-3.1463146,2.397746,-31.04737,-19.959623,23.46475,77.186615,38.86094,0.03805611,-2.998896
27,3.638977289199829,7.380506992340088,72.7545166015625,1.7213079396567241,-16.878511855969244,-85.82428252884358,13.186515,13.251605,18.900919,36.622055,-28.446226,-11.622772,-6.3290253,-13.426159,-16.286749,50.105164,-27.819023,0.7533895,-6.041819,-5.7808313,17.573751,-36.214737,28.771778,-42.609383,76.25466,-33.28699,-3.1333973,2.5035703,-31.010164,-20.071968,23.38134,77.29101,38.98587,0.060975824,-3.1048117
28,3.766775608062744,7.585566520690918,72.77040100097656,1.939546740733176,-16.830183894310384,-85.59670564500199,12.583194,12.894207,18.684412,37.077824,-28.070751,-11.580146,-6.602493,-13.943887,-16.266914,50.244602,-27.677238,0.8600061,-5.990134,-6.1499124,17.661753,-36.581654,28.730356,-42.964222,76.17026,-33.358498,-3.143011,2.5652907,-30.934591,-20.156101,23.327785,77.460976,39.191494,0.012655989,-3.13357
29,3.8886122703552246,7.763511657714844,72.78697204589844,1.9444438316512584,-16.849634295485856,-85.42477309895463,12.1985655,12.784053,18.526325,37.43739,-27.954905,-11.525726,-6.7159758,-14.157609,-16.301556,50.23759,-27.477533,0.86714464,-5.9522233,-6.2582903,17.767717,-36.795364,28.70164,-43.185513,76.07503,-33.304592,-3.1701984,2.5501785,-30.82434,-20.189072,23.344152,77.74795,39.526424,-0.14107421,-3.0605392
30,4.013469219207764,7.948144435882568,72.79451751708984,1.8105663477328175,-16.902752893240432,-85.29335907606925,11.920332,12.848839,18.407162,37.775814,-27.979975,-11.475327,-6.732827,-14.164539,-16.371151,50.12108,-27.231771,0.8044839,-5.8927565,-6.1879525,17.880127,-36.97755,28.662552,-43.501556,76.02461,-33.3062,-3.2129862,2.485525,-30.63851,-20.198824,23.322435,78.091125,39.89345,-0.36747953,-2.9194508
31,4.140916347503662,8.1077241897583,72.79821014404297,1.6182779747557325,-16.964235861886227,-85.19820057602988,11.710677,12.9833,18.328945,38.074905,-28.073212,-11.420584,-6.71134,-14.0752945,-16.44149,49.95017,-26.968946,0.7292394,-5.832944,-6.03307,17.973133,-37.09405,28.622381,-43.74498,75.97546,-33.259003,-3.2737498,2.4245248,-30.456173,-20.187407,23.362225,78.47425,40.338436,-0.61999524,-2.7431922
32,4.273558139801025,8.24227523803711,72.8038101196289,1.449984972374424,-17.00876795817368,-85.13569521153087,11.530797,13.083335,18.294691,38.317142,-28.162056,-11.353251,-6.7109027,-13.99999,-16.47757,49.778538,-26.716402,0.69865984,-5.782483,-5.874613,18.027672,-37.13578,28.585157,-43.827377,75.89058,-33.13139,-3.3570855,2.4200954,-30.287851,-20.170954,23.351982,78.81569,40.70719,-0.8448411,-2.5573223
33,4.413408279418945,8.384873390197754,72.80193328857422,1.2982911840130775,-17.029325348677443,-85.12307983968057,11.383684,13.166291,18.324865,38.5056,-28.26358,-11.2813635,-6.7396784,-13.9200535,-16.470005,49.599583,-26.47682,0.7346086,-5.716661,-5.6911125,18.021759,-37.113323,28.49147,-43.69214,75.82681,-32.86489,-3.491311,2.4963837,-30.113216,-20.145226,23.252697,79.11664,40.993362,-1.0419395,-2.3535395
34,4.565169334411621,8.513745307922363,72.80320739746094,1.1296564515778198,-17.03947424218241,-85.15643848194108,11.285398,13.274209,18.411125,38.64881,-28.404808,-11.204176,-6.767997,-13.79154,-16.43767,49.3911,-26.236073,0.8047246,-5.6485753,-5.4369116,17.979582,-37.021015,28.379507,-43.43823,75.75292,-32.55319,-3.6655054,2.622647,-29.922674,-20.13023,23.096704,79.38599,41.2316,-1.2298611,-2.1175709
35,4.725124835968018,8.628302574157715,72.8154296875,0.98715334496147,-17.046032266386536,-85.20046441337715,11.214289,13.33982,18.512947,38.737804,-28.529694,-11.101367,-6.798833,-13.688451,-16.38655,49.18159,-25.995426,0.8846701,-5.58398,-5.194375,17.921043,-36.922085,28.255095,-43.157326,75.684746,-32.237007,-3.8310072,2.7692008,-29.733618,-20.130724,22.919863,79.58178,41.416542,-1.3820959,-1.8959206
36,4.889742851257324,8.74785041809082,72.83185577392578,0.9078584809176194,-17.054856555602914,-85.2185636583636,11.147928,13.295548,18.589981,38.76296,-28.581938,-10.953445,-6.8368115,-13.6857395,-16.322264,49.001175,-25.75752,0.94998056,-5.532477,-5.0465307,17.868301,-36.846478,28.122034,-42.820633,75.615036,-31.845694,-3.9360209,2.9048388,-29.569717,-20.153902,22.78538,79.66563,41.565536,-1.4736885,-1.7341356
37,5.053131103515625,8.873322486877441,72.86193084716797,0.9359570870851311,-17.063221413217278,-85.19827316853531,11.087928,13.077663,18.633701,38.684357,-28.525785,-10.740865,-6.895842,-13.842353,-16.23272,48.872734,-25.527979,0.9869595,-5.505392,-5.0368137,17.817833,-36.822647,27.99348,-42.54297,75.53862,-31.48782,-3.9662735,3.0445046,-29.424683,-20.204584,22.659592,79.587364,41.623528,-1.481712,-1.6600527
38,5.21968412399292,9.002386093139648,72.90782928466797,1.0385646784150693,-17.06936093892391,-85.15930579291054,11.045764,12.736127,18.666275,38.51717,-28.398302,-10.478927,-6.970597,-14.106143,-16.118113,48.775875,-25.304247,1.0111892,-5.4880548,-5.1179013,17.76523,-36.81491,27.867786,-42.245,75.44264,-31.101978,-3.9452968,3.1954827,-29.291021,-20.28727,22.573147,79.37881,41.655575,-1.4266257,-1.6427846
39,5.387384414672852,9.140007972717285,72.9595718383789,1.1475239949909297,-17.080639751966267,-85.11665858977395,11.010598,12.376891,18.692263,38.340973,-28.25666,-10.201374,-7.034385,-14.383932,-16.004742,48.671543,-25.075117,1.0420213,-5.478683,-5.21198,17.72171,-36.824165,27.750572,-41.988827,75.358055,-30.766487,-3.8971114,3.3189836,-29.173761,-20.395021,22.52898,79.10539,41.66933,-1.335536,-1.6456547
40,5.557215690612793,9.257879257202148,73.00740814208984,1.2010918843337286,-17.10495311976896,-85.0858476404619,10.970424,12.106064,18.715559,38.234455,-28.156183,-9.941524,-7.0605984,-14.582962,-15.919104,48.521286,-24.82968,1.0988148,-5.4716625,-5.246152,17.701593,-36.837494,27.644224,-41.76509,75.304436,-30.48552,-3.842815,3.3759673,-29.07653,-20.510595,22.486454,78.84631,41.635166,-1.2458177,-1.6227864
41,5.728954315185547,9.387545585632324,73.04402923583984,1.1798111799777231,-17.149869999434518,-85.0679550020576,10.921938,11.94949,18.731707,38.22739,-28.112392,-9.7020645,-7.032642,-14.683133,-15.871823,48.310608,-24.56237,1.1968291,-5.478169,-5.203519,17.707623,-36.87708,27.563114,-41.69319,75.30745,-30.384218,-3.7837098,3.3476803,-29.028862,-20.623947,22.485113,78.63009,41.55474,-1.1575383,-1.5579007
42,5.888986110687256,9.51280403137207,73.0727767944336,1.1192460166084646,-17.20951613350075,-85.05582956611048,10.871648,11.851633,18.740288,38.27432,-28.095861,-9.466974,-6.966998,-14.732504,-15.847573,48.060467,-24.279297,1.322433,-5.4940743,-5.12601,17.735685,-36.920456,27.497162,-41.64252,75.33349,-30.323378,-3.7063265,3.2567773,-29.015862,-20.741772,22.516495,78.40983,41.432568,-1.0560709,-1.474796
43,6.033607006072998,9.617735862731934,73.1006851196289,1.033329581467577,-17.27073250815272,-85.05147775362644,10.818388,11.797008,18.749392,38.346516,-28.095892,-9.24106,-6.887079,-14.740434,-15.834866,47.788868,-23.98947,1.45154,-5.520173,-5.031605,17.765175,-36.97072,27.458052,-41.68751,75.3864,-30.378012,-3.627993,3.131576,-29.025988,-20.842888,22.559706,78.20102,41.29267,-0.95285404,-1.4081084
44,6.174232006072998,9.721192359924316,73.12464141845703,0.9358287572604621,-17.320415553887862,-85.0562286909618,10.76073,11.770452,18.767467,38.415592,-28.101822,-9.029487,-6.81701,-14.715953,-15.822317,47.514572,-23.702135,1.5600278,-5.5437503,-4.9319634,17.7828,-37.02918,27.439901,-41.84375,75.46451,-30.556612,-3.5638757,2.9995806,-29.013355,-20.92725,22.544497,77.97819,41.12739,-0.852316,-1.3895004
45,6.3009843826293945,9.827183723449707,73.15200805664062,0.8177782842649487,-17.353714915800065,-85.06196420679153,10.690114,11.782286,18.785841,38.48118,-28.114513,-8.832412,-6.7540936,-14.648967,-15.822383,47.22917,-23.412296,1.6426351,-5.5744424,-4.8285847,17.781334,-37.085045,27.442799,-42.079212,75.5694,-30.840818,-3.5223944,2.8486388,-28.980576,-20.975632,22.449434,77.7504,40.928955,-0.7564258,-1.4421663
46,6.427057266235352,9.941642761230469,73.17877960205078,0.6750718477857403,-17.37817309913387,-85.07064162284408,10.607575,11.837245,18.803698,38.560352,-28.140745,-8.648242,-6.68895,-14.538994,-15.836896,46.928955,-23.118841,1.7120006,-5.634461,-4.706349,17.761177,-37.15204,27.469131,-42.478306,75.72353,-31.330595,-3.4999998,2.672267,-28.96415,-20.984756,22.313889,77.546104,40.679855,-0.6628228,-1.5461168
47,6.540168762207031,10.045788764953613,73.20886993408203,0.5345044599600275,-17.399090176016237,-85.09986518001304,10.534542,11.905402,18.840727,38.632652,-28.1666,-8.477288,-6.6324444,-14.409323,-15.836116,46.631138,-22.830782,1.7704891,-5.653765,-4.6073155,17.741112,-37.23013,27.513706,-42.911575,75.89215,-31.815798,-3.4666314,2.500517,-28.914696,-20.96715,22.108118,77.32531,40.399025,-0.5761884,-1.6653049
48,6.648515701293945,10.136881828308105,73.23656463623047,0.4151902688692717,-17.421739030074185,-85.16659076079127,10.489304,11.961656,18.916735,38.686447,-28.183329,-8.321099,-6.595936,-14.281836,-15.792218,46.35516,-22.558496,1.8205053,-5.66076,-4.5194983,17.715183,-37.28391,27.559912,-43.29878,76.0686,-32.23698,-3.414752,2.3688753,-28.89634,-20.936148,21.976383,77.148155,40.161373,-0.50348985,-1.7699152
49,6.751598358154297,10.227045059204102,73.26317596435547,0.32682940852075915,-17.444076587557895,-85.28034763421695,10.476404,12.000743,19.041883,38.715,-28.18612,-8.181324,-6.587699,-14.158243,-15.693501,46.106995,-22.307688,1.8599056,-5.609332,-4.470843,17.688925,-37.344067,27.61451,-43.67186,76.25762,-32.556534,-3.3243194,2.2886758,-28.886108,-20.889914,21.921896,77.0058,40.02025,-0.45736843,-1.8582101
50,6.852816104888916,10.319336891174316,73.28749084472656,0.25542560679570453,-17.46443064561702,-85.42989336010457,10.48648,12.036417,19.204132,38.725754,-28.180037,-8.05705,-6.599144,-14.027546,-15.557046,45.874958,-22.071224,1.8882993,-5.5325828,-4.445432,17.658218,-37.37872,27.68543,-43.975666,76.442665,-32.76743,-3.2071884,2.24138,-28.877209,-20.809746,21.853666,76.884895,39.8645,-0.4295478,-1.9465262
51,6.950317859649658,10.403433799743652,73.30694580078125,0.19764185875653675,-17.48918791655068,-85.60365818962923,10.517065,12.0676775,19.390022,38.727665,-28.17118,-7.945026,-6.6193323,-13.896864,-15.395857,45.65842,-21.844091,1.9110476,-5.4523835,-4.434821,17.62231,-37.38432,27.766886,-44.237682,76.63097,-32.950886,-3.092575,2.2134109,-28.911568,-20.70959,21.878218,76.81119,39.768864,-0.40602368,-2.024865
52,7.0534186363220215,10.47752857208252,73.3268814086914,0.14831868158847283,-17.524378251535527,-85.78942616700942,10.566887,12.092593,19.585869,38.726345,-28.163132,-7.841706,-6.6368933,-13.773673,-15.2224655,45.455658,-21.620174,1.9334109,-5.3714747,-4.4316163,17.589956,-37.3343,27.844183,-44.34323,76.79839,-33.034355,-3.000604,2.1895916,-28.950174,-20.603323,21.89002,76.73039,39.620823,-0.36245593,-2.0802968
53,7.1577606201171875,10.560681343078613,73.34590911865234,0.10794163081027519,-17.57932607518047,-85.99402160389893,10.648015,12.113629,19.795681,38.72444,-28.156588,-7.7500873,-6.6441402,-13.656464,-15.033054,45.26916,-21.398888,1.9475133,-5.2771773,-4.4374166,17.567871,-37.241993,27.917585,-44.342663,76.95416,-33.073353,-2.9416642,2.1669035,-28.992931,-20.494234,21.90461,76.63875,39.425697,-0.28582048,-2.107435
54,7.263790607452393,10.642178535461426,73.35820007324219,0.07947468893516765,-17.648275188767926,-86.22064780737284,10.757161,12.129698,20.023294,38.717007,-28.147974,-7.670016,-6.6484604,-13.542219,-14.822552,45.098,-21.182312,1.9535398,-5.163927,-4.454052,17.552929,-37.113655,27.98486,-44.23415,77.1033,-33.039135,-2.9015338,2.1524308,-29.04361,-20.384735,21.948845,76.54678,39.22707,-0.18930335,-2.112334
55,7.366569519042969,10.712601661682129,73.36503601074219,0.06001447412424388,-17.714363837282068,-86.45144434584569,10.86844,12.137561,20.258663,38.7049,-28.140617,-7.5966735,-6.6625214,-13.437994,-14.604678,44.940254,-20.972986,1.9692392,-5.05315,-4.473983,17.532173,-36.96062,28.048183,-44.084007,77.25067,-32.992245,-2.87321,2.1471472,-29.091751,-20.274813,21.980766,76.44995,39.004646,-0.092182375,-2.100972
56,7.473992347717285,10.777412414550781,73.37661743164062,0.044798743437354564,-17.760543879092666,-86.66845560336219,10.954828,12.134231,20.491182,38.691147,-28.138773,-7.5248394,-6.698228,-13.350798,-14.392786,44.791546,-20.771788,2.0124125,-4.956468,-4.4985948,17.495085,-36.780567,28.10301,-43.8543,77.39148,-32.87916,-2.8445537,2.1514754,-29.1514,-20.171412,22.052809,76.36643,38.84438,-0.018364761,-2.0793478
57,7.5841383934021,10.858186721801758,73.3841323852539,0.039216840710066744,-17.780529871081278,-86.87415617232949,11.0136385,12.11618,20.73013,38.67023,-28.145454,-7.455459,-6.764904,-13.284663,-14.181575,44.653,-20.579865,2.1007357,-4.876172,-4.51978,17.434765,-36.588,28.1475,-43.62398,77.54005,-32.779396,-2.8170018,2.1679537,-29.206911,-20.082901,22.128527,76.27946,38.720276,0.024926106,-2.040384
58,7.6973700523376465,10.92859935760498,73.38774871826172,0.0421690120512288,-17.783837061727716,-87.07593675358494,11.058486,12.084935,20.977318,38.64074,-28.156843,-7.390161,-6.8538256,-13.2349,-13.966271,44.524982,-20.395704,2.2204018,-4.808714,-4.5460773,17.35833,-36.355812,28.184519,-43.282505,77.6784,-32.59223,-2.7915428,2.1950922,-29.270914,-19.995201,22.221745,76.20039,38.626385,0.04758185,-1.9847552
59,7.807712078094482,10.995194435119629,73.392822265625,0.047748326618658014,-17.777677500675324,-87.26275943452386,11.083408,12.0500765,21.209707,38.620487,-28.171556,-7.326408,-6.951749,-13.196019,-13.762627,44.407364,-20.220102,2.3421483,-4.751479,-4.571459,17.276693,-36.10899,28.211563,-42.909775,77.811325,-32.39022,-2.7716956,2.228696,-29.321632,-19.914825,22.28833,76.10969,38.508163,0.0681825,-1.9261389
60,7.918990612030029,11.05546760559082,73.40141296386719,0.043506852485565524,-17.769288481252907,-87.42323833033777,11.086753,12.017512,21.403976,38.617157,-28.182592,-7.2596755,-7.0437984,-13.161248,-13.584904,44.295418,-20.050133,2.4366012,-4.6940274,-4.5954943,17.199434,-35.89805,28.2294,-42.683296,77.96283,-32.329773,-2.7639756,2.264438,-29.370573,-19.858435,22.397316,76.02169,38.432804,0.099730745,-1.8779333
61,8.020733833312988,11.119826316833496,73.40465545654297,0.03215446750251666,-17.756260798836152,-87.55593551651565,11.062602,11.987588,21.550806,38.63653,-28.189144,-7.192188,-7.1353064,-13.129911,-13.434334,44.198406,-19.889715,2.487427,-4.6615214,-4.6200013,17.120228,-35.662872,28.241962,-42.4027,78.10497,-32.246582,-2.765346,2.302075,-29.429682,-19.798172,22.518105,75.944725,38.334557,0.15426265,-1.8492486
62,8.117425918579102,11.186650276184082,73.4101791381836,0.015844588825709202,-17.736393405436274,-87.66626924732596,11.014443,11.957155,21.663683,38.671734,-28.194038,-7.1248603,-7.231348,-13.10551,-13.303863,44.11577,-19.738705,2.5131757,-4.641726,-4.6441703,17.036942,-35.431873,28.249641,-42.181496,78.25599,-32.23931,-2.7776394,2.3436482,-29.485697,-19.744768,22.639893,75.86705,38.223576,0.22231407,-1.8301094
63,8.212316513061523,11.256237030029297,73.41715240478516,-0.004305479227652702,-17.716432950745443,-87.75448577561255,10.951896,11.929095,21.753895,38.71834,-28.198683,-7.0526233,-7.3174725,-13.087983,-13.196741,44.029045,-19.58992,2.5365436,-4.622402,-4.6707363,16.961195,-35.22447,28.253351,-42.046066,78.40589,-32.30643,-2.7967715,2.388531,-29.533163,-19.702913,22.764355,75.791756,38.127872,0.28145316,-1.8124638
64,8.304915428161621,11.3285551071167,73.42121887207031,-0.02791511692238515,-17.70307528282294,-87.82132704060234,10.884204,11.906138,21.833,38.77306,-28.205708,-6.970627,-7.381523,-13.077879,-13.115548,43.924564,-19.438189,2.580126,-4.592024,-4.7040043,16.90654,-35.037834,28.250645,-41.906277,78.52776,-32.333237,-2.8147802,2.4351547,-29.554863,-19.671041,22.850342,75.70976,38.033123,0.31036597,-1.7885121
65,8.393025398254395,11.405555725097656,73.42361450195312,-0.054552061443526464,-17.695275410145133,-87.86326210267244,10.808728,11.889344,21.9036,38.836983,-28.216341,-6.8745184,-7.4188104,-13.078732,-13.066731,43.792313,-19.283447,2.6603339,-4.553988,-4.746072,16.873096,-34.89665,28.248981,-41.903862,78.64644,-32.45845,-2.8496215,2.4853911,-29.5554,-19.65436,22.924286,75.62846,37.964794,0.2937973,-1.7482497
66,8.473488807678223,11.476774215698242,73.42737579345703,-0.08302548694965514,-17.690316592012504,-87.88109568385707,10.722143,11.876999,21.959665,38.91142,-28.229137,-6.767936,-7.4361963,-13.089042,-13.046969,43.641018,-19.127651,2.761544,-4.509743,-4.799177,16.855291,-34.771965,28.246202,-41.921364,78.73872,-32.57518,-2.8865314,2.5436869,-29.54161,-19.64362,22.985487,75.55293,37.913895,0.2448536,-1.6985879
67,8.547469139099121,11.55108642578125,73.42921447753906,-0.11766753520201007,-17.69268751814654,-87.88237295621275,10.632661,11.868596,21.999544,38.992905,-28.24209,-6.657904,-7.4391737,-13.102191,-13.044127,43.487038,-18.969948,2.858616,-4.477757,-4.844559,16.849422,-34.658363,28.243101,-41.97539,78.80654,-32.72235,-2.9170218,2.600374,-29.53684,-19.633762,23.049305,75.497665,37.872005,0.18625896,-1.6595443
68,8.620949745178223,11.62376880645752,73.43920135498047,-0.16045167563577056,-17.706988818450906,-87.87392634274849,10.54967,11.863323,22.021967,39.07531,-28.251816,-6.5516167,-7.4315186,-13.111065,-13.046406,43.3432,-18.80788,2.9264352,-4.447297,-4.877,16.85766,-34.553623,28.236824,-42.00305,78.83695,-32.830242,-2.9201071,2.6460772,-29.525564,-19.622612,23.073565,75.44316,37.805897,0.14184554,-1.6495285
69,8.697731018066406,11.706048011779785,73.4460678100586,-0.21224027679961113,-17.73862540343238,-87.85471709946906,10.475411,11.859732,22.021248,39.160496,-28.25715,-6.4478807,-7.414513,-13.116209,-13.051008,43.221634,-18.63874,2.9462585,-4.4013577,-4.900874,16.898699,-34.470654,28.23253,-41.97229,78.813,-32.848972,-2.8784978,2.6787817,-29.516787,-19.620903,23.069687,75.388016,37.757732,0.11798193,-1.6804898
70,8.777241706848145,11.792519569396973,73.45008850097656,-0.27437805009243016,-17.783518232523157,-87.82114400359819,10.404339,11.860593,21.99965,39.251392,-28.260471,-6.344227,-7.3852577,-13.118673,-13.065248,43.111145,-18.46381,2.9353254,-4.397346,-4.886574,16.961203,-34.356007,28.218102,-41.851524,78.72731,-32.811394,-2.817711,2.713099,-29.530355,-19.622015,23.039597,75.346466,37.660336,0.104839005,-1.7463096
71,8.856121063232422,11.86667251586914,73.45265197753906,-0.34066505223346094,-17.832731912653035,-87.77988226068858,10.334966,11.86528,21.967941,39.343803,-28.262907,-6.245088,-7.344168,-13.118691,-13.089318,42.99482,-18.28898,2.9230912,-4.3808417,-4.8707585,17.032345,-34.263634,28.201843,-41.7311,78.622246,-32.75105,-2.746006,2.7326815,-29.548717,-19.634605,23.038435,75.31993,37.61376,0.09267601,-1.8144386
72,8.932605743408203,11.94927978515625,73.45655822753906,-0.41002298268214876,-17.87655203748556,-87.73621178804997,10.2659,11.874945,21.936975,39.431526,-28.26453,-6.1550074,-7.2921023,-13.114923,-13.124026,42.856308,-18.12042,2.9388347,-4.3545055,-4.854566,17.09299,-34.18341,28.187487,-41.639034,78.51011,-32.707123,-2.6842108,2.732981,-29.548517,-19.653831,23.033117,75.29561,37.56281,0.07695575,-1.85913
73,9.00913143157959,12.018607139587402,73.4648666381836,-0.48141202259689314,-17.912565635202068,-87.6918617264886,10.196228,11.893234,21.909615,39.515865,-28.266687,-6.0792212,-7.224313,-13.104497,-13.172961,42.68267,-17.959433,2.9972303,-4.307487,-4.847064,17.137808,-34.130383,28.180279,-41.622166,78.39084,-32.713783,-2.631578,2.707903,-29.541998,-19.67013,23.053474,75.29981,37.54626,0.04466216,-1.8751256
74,9.070403099060059,12.102258682250977,73.46819305419922,-0.5591687710540305,-17.945484895556767,-87.64315434074051,10.1265,11.920201,21.880045,39.599545,-28.269083,-6.0141654,-7.1413884,-13.087283,-13.2351265,42.48373,-17.802027,3.080131,-4.2523236,-4.823744,17.18132,-34.08415,28.164402,-41.583126,78.253235,-32.691208,-2.5891936,2.657146,-29.527067,-19.71895,23.129515,75.30352,37.59326,0.0100231,-1.8737772
75,9.137322425842285,12.176546096801758,73.47429656982422,-0.636152922914833,-17.977954839263614,-87.59057080997941,10.05767,11.946305,21.845387,39.6802,-28.270851,-5.9503937,-7.05399,-13.071185,-13.302088,42.282467,-17.649487,3.1681094,-4.191619,-4.804322,17.221811,-34.047062,28.149174,-41.548954,78.11338,-32.66088,-2.5486555,2.6002197,-29.502913,-19.769842,23.186989,75.31001,37.620125,-0.01846728,-1.860358
76,9.210112571716309,12.244983673095703,73.48089599609375,-0.7101829340838108,-18.012447344883693,-87.53325021891985,9.989999,11.964434,21.802565,39.75736,-28.27203,-5.8786144,-6.972043,-13.061972,-13.3665695,42.1001,-17.501736,3.2414737,-4.1483426,-4.78825,17.256847,-34.014267,28.139156,-41.57741,77.99418,-32.697784,-2.5136774,2.555932,-29.493172,-19.8131,23.243235,75.33025,37.616047,-0.027657092,-1.8403717
77,9.278386116027832,12.317770004272461,73.4837646484375,-0.781809173133563,-18.05530299848584,-87.47020614731444,9.930092,11.971806,21.749655,39.829773,-28.273634,-5.793048,-6.890639,-13.061329,-13.426933,41.94081,-17.360207,3.2980072,-4.1064386,-4.765402,17.301306,-33.970524,28.115612,-41.54796,77.874565,-32.675213,-2.48089,2.524992,-29.465574,-19.896585,23.289621,75.31213,37.583652,-0.0010581382,-1.798653
78,9.3475341796875,12.372114181518555,73.49029541015625,-0.8485358140158543,-18.103396655096315,-87.40253398457416,9.876333,11.97125,21.688848,39.896637,-28.274647,-5.6995573,-6.8076596,-13.067226,-13.486631,41.795494,-17.225203,3.3472955,-4.0777698,-4.764515,17.336525,-33.931732,28.103996,-41.566936,77.77725,-32.69398,-2.453102,2.5008895,-29.486877,-19.939875,23.37512,75.358505,37.558792,0.033377584,-1.7457602
79,9.40710163116455,12.435835838317871,73.4998779296875,-0.9155203366873628,-18.14479588012992,-87.33124531490634,9.814167,11.968686,21.622475,39.962746,-28.274439,-5.607029,-6.7338805,-13.075188,-13.548022,41.657455,-17.090944,3.3871064,-4.0620804,-4.7564244,17.363155,-33.891514,28.090748,-41.593216,77.686554,-32.727493,-2.4263637,2.4833846,-29.500826,-19.991207,23.453918,75.39719,37.516445,0.08015198,-1.6974185
80,9.465012550354004,12.502391815185547,73.50770568847656,-0.9816209365674883,-18.167728984639744,-87.25890331737716,9.730515,11.966955,21.55323,40.029224,-28.270533,-5.524059,-6.6809397,-13.083248,-13.612337,41.523045,-16.95352,3.4154713,-4.0447764,-4.7504106,17.375113,-33.864033,28.078814,-41.623295,77.608925,-32.756615,-2.3931918,2.4712584,-29.500235,-20.033686,23.49215,75.43611,37.454605,0.12481314,-1.6729084
81,9.524367332458496,12.567935943603516,73.513427734375,-1.0517397260098211,-18.162563087038308,-87.17999428377087,9.611581,11.968468,21.474775,40.09902,-28.26263,-5.4573774,-6.657934,-13.091778,-13.686846,41.393204,-16.809584,3.4248402,-4.026488,-4.7464905,17.364153,-33.864006,28.06822,-41.698387,77.55346,-32.815212,-2.3473926,2.4694953,-29.507074,-20.070158,23.55227,75.50222,37.429604,0.17155176,-1.686896
82,9.582242012023926,12.627643585205078,73.52189636230469,-1.121805469138902,-18.137690378912026,-87.09611659527069,9.467862,11.970635,21.387812,40.169876,-28.251404,-5.400842,-6.6565723,-13.101763,-13.768624,41.269115,-16.662176,3.4186733,-4.016192,-4.7413754,17.334162,-33.877655,28.058771,-41.805035,77.51406,-32.90124,-2.2942348,2.4773192,-29.509605,-20.099125,23.590384,75.57933,37.381256,0.22559898,-1.7259401
83,9.634622573852539,12.689190864562988,73.53034973144531,-1.1885806259960836,-18.108588946940905,-87.01732533016937,9.322902,11.969857,21.306547,40.237152,-28.237286,-5.3439655,-6.6627994,-13.111862,-13.843532,41.147705,-16.515917,3.411238,-3.9949749,-4.748179,17.30196,-33.896015,28.051077,-41.876656,77.485016,-32.941246,-2.2431874,2.4839594,-29.511183,-20.116907,23.632084,75.6611,37.37523,0.2670301,-1.7693079
84,9.689157485961914,12.755293846130371,73.53608703613281,-1.242973947446254,-18.090737488809292,-86.95490032882752,9.199443,11.963973,21.244394,40.296722,-28.220787,-5.2763925,-6.662197,-13.119458,-13.898306,41.024773,-16.375212,3.4167466,-3.9678385,-4.7527423,17.274103,-33.916805,28.039948,-41.978344,77.47568,-33.01857,-2.212609,2.4811437,-29.493246,-20.137188,23.64887,75.719055,37.39263,0.2847459,-1.7931159
85,9.737874984741211,12.816688537597656,73.541748046875,-1.2857333644542908,-18.08824650630851,-86.91196532398457,9.104954,11.951778,21.207045,40.345497,-28.20176,-5.1911263,-6.64992,-13.122363,-13.926963,40.895737,-16.24087,3.443066,-3.9238043,-4.7669992,17.261538,-33.922825,28.028522,-41.99812,77.46994,-33.017548,-2.2033563,2.4595783,-29.450424,-20.147911,23.61202,75.74298,37.45217,0.26422244,-1.7928907
86,9.787193298339844,12.870903015136719,73.54914093017578,-1.3175312220840396,-18.093382547378887,-86.88336879367066,9.027867,11.934066,21.186674,40.384735,-28.179077,-5.0947266,-6.6334724,-13.122149,-13.936758,40.763596,-16.110207,3.4813745,-3.8965707,-4.7793136,17.252607,-33.91178,28.026794,-42.003754,77.47103,-33.032993,-2.2133493,2.4268203,-29.4275,-20.148458,23.596138,75.77529,37.57143,0.21682954,-1.7816159
87,9.838102340698242,12.934918403625488,73.55470275878906,-1.3441505942710226,-18.101680640429898,-86.86382234219353,8.958683,11.914414,21.176468,40.422295,-28.155052,-4.998815,-6.6192346,-13.122577,-13.937148,40.637077,-15.984221,3.5202634,-3.832124,-4.8054805,17.247383,-33.9191,28.020142,-42.01757,77.48387,-33.0209,-2.227642,2.3971922,-29.35667,-20.144484,23.515152,75.77242,37.66466,0.15979949,-1.7601774
88,9.889093399047852,13.003134727478027,73.56269836425781,-1.3634530423356004,-18.111459513997584,-86.85132074790069,8.895949,11.888623,21.171618,40.45485,-28.126738,-4.912473,-6.6114497,-13.129064,-13.932079,40.523396,-15.861324,3.5493474,-3.7779453,-4.827995,17.241537,-33.915974,28.017834,-42.020897,77.48987,-33.011868,-2.2417667,2.3836353,-29.309355,-20.140867,23.48906,75.79174,37.739117,0.11441276,-1.7321233
89,9.937667846679688,13.064376831054688,73.56702423095703,-1.3777645719441591,-18.122386056572513,-86.84414450868783,8.8378105,11.860366,21.169073,40.487404,-28.09398,-4.8428273,-6.6115036,-13.142992,-13.927203,40.430042,-15.746225,3.5612473,-3.715546,-4.8524847,17.234957,-33.91943,28.015406,-42.05636,77.495476,-33.0273,-2.255115,2.3970942,-29.249762,-20.131287,23.462461,75.81338,37.719315,0.080244936,-1.690375
90,9.981073379516602,13.123139381408691,73.57516479492188,-1.385225589652029,-18.136022755238802,-86.84451809370752,8.788063,11.827509,21.171942,40.514664,-28.05542,-4.782285,-6.614931,-13.16072,-13.917342,40.346783,-15.6344595,3.5632508,-3.642987,-4.880559,17.229338,-33.92044,28.01359,-42.071358,77.496704,-33.017838,-2.2682533,2.4251862,-29.184717,-20.122149,23.450539,75.838066,37.66298,0.04926607,-1.6331762
91,10.02168083190918,13.17735481262207,73.58296203613281,-1.386020396660921,-18.150237664088543,-86.85333551377026,8.742278,11.789339,21.18493,40.53983,-28.017403,-4.7233334,-6.6277905,-13.183712,-13.897003,40.275734,-15.527364,3.5658138,-3.564225,-4.9167614,17.220913,-33.926796,28.009865,-42.09141,77.51067,-33.00124,-2.2827532,2.4579835,-29.11774,-20.100399,23.437128,75.8621,37.60857,0.023361078,-1.5843449
92,10.070508003234863,13.245561599731445,73.58525085449219,-1.377441225523927,-18.163564101628477,-86.87249578993772,8.698861,11.743135,21.2117,40.559868,-27.982317,-4.6568604,-6.652307,-13.210846,-13.859429,40.21101,-15.419908,3.5795252,-3.4918127,-4.953626,17.214382,-33.9305,28.00448,-42.081215,77.53386,-32.95331,-2.2983913,2.4810903,-29.073122,-20.073544,23.442156,75.88694,37.624954,0.0088746995,-1.5606318
93,10.1270751953125,13.309086799621582,73.58828735351562,-1.3570149691103337,-18.17681080991429,-86.90583046620898,8.661168,11.685392,21.259369,40.57222,-27.951843,-4.579177,-6.691531,-13.244499,-13.797438,40.155655,-15.312853,3.612056,-3.4347486,-4.984335,17.208797,-33.92799,27.999691,-42.06978,77.56627,-32.910084,-2.3205936,2.492596,-29.064697,-20.041388,23.472126,75.92097,37.74995,0.015813211,-1.5778805
94,10.177614212036133,13.371081352233887,73.58824920654297,-1.3259754534238708,-18.190510366623943,-86.95200696824517,8.628377,11.618586,21.323612,40.58034,-27.92513,-4.495522,-6.7441063,-13.284314,-13.715848,40.112236,-15.208507,3.656135,-3.370216,-5.014875,17.211515,-33.91175,27.99402,-41.97403,77.58494,-32.77415,-2.3412864,2.497785,-29.038876,-20.017296,23.463858,75.91399,37.907207,0.043961037,-1.6213746
95,10.224449157714844,13.439066886901855,73.58216857910156,-1.2912693496877967,-18.202019562981505,-87.00178433093983,8.593508,11.549681,21.392069,40.58704,-27.899252,-4.410388,-6.803633,-13.324273,-13.628343,40.070538,-15.103236,3.6996999,-3.3151443,-5.0419965,17.214838,-33.89963,27.989985,-41.899925,77.61321,-32.66612,-2.3618407,2.500235,-29.033087,-19.997177,23.494846,75.91008,38.089832,0.070795916,-1.6661187
96,10.272688865661621,13.512773513793945,73.57725524902344,-1.2627007886283992,-18.208621538795548,-87.04589679145364,8.548166,11.486805,21.452116,40.598354,-27.873425,-4.3286567,-6.8662033,-13.359383,-13.548177,40.02607,-14.9970045,3.730785,-3.2544188,-5.0677447,17.218113,-33.9005,27.988356,-41.858654,77.64566,-32.586792,-2.372951,2.499946,-28.999714,-19.989353,23.499283,75.86973,38.18633,0.08458319,-1.6820261
97,10.32141399383545,13.583937644958496,73.57295989990234,-1.2394384036442363,-18.206104215838167,-87.08443304852803,8.489525,11.430893,21.50323,40.610172,-27.84558,-4.250847,-6.9354744,-13.387152,-13.476356,39.97585,-14.887573,3.7439988,-3.239582,-5.085164,17.212221,-33.883045,27.986311,-41.772724,77.689964,-32.50516,-2.3777251,2.498702,-29.006279,-19.966415,23.582632,75.856606,38.21765,0.060474638,-1.6614829
98,10.366572380065918,13.653579711914062,73.57408905029297,-1.2193398310634247,-18.197151868757437,-87.12144341745756,8.422304,11.377912,21.55116,40.62114,-27.8165,-4.174486,-7.0119605,-13.410765,-13.40643,39.92316,-14.77571,3.746493,-3.2270415,-5.1049824,17.199564,-33.88412,27.990381,-41.758183,77.75206,-32.49193,-2.3746524,2.4930613,-29.023706,-19.945314,23.722645,75.84829,38.245853,0.01575907,-1.6139294
99,10.408075332641602,13.726478576660156,73.57096099853516,-1.1999630695584909,-18.189338874198093,-87.15440291542083,8.350291,11.328179,21.59339,40.640114,-27.789833,-4.100452,-7.087623,-13.433974,-13.341181,39.873104,-14.666677,3.7450595,-3.210485,-5.127646,17.194,-33.876526,27.994179,-41.68154,77.80387,-32.41668,-2.3668373,2.4878063,-29.020903,-19.92823,23.815683,75.80458,38.209785,-0.02312701,-1.5674226
100,10.449690818786621,13.805400848388672,73.56874084472656,-1.1843798524956828,-18.19043063710712,-87.18023399426842,8.278717,11.281236,21.62689,40.67325,-27.767159,-4.028407,-7.1517534,-13.458549,-13.282898,39.825146,-14.56132,3.7467098,-3.205605,-5.140101,17.198542,-33.869312,27.999239,-41.664013,77.85622,-32.41964,-2.3705595,2.4906986,-29.019587,-19.917974,23.861414,75.73996,38.124176,-0.03223216,-1.5500083
101,10.492985725402832,13.878558158874512,73.56655883789062,-1.1732718370414972,-18.20644785784166,-87.19318820011875,8.211008,11.238109,21.64449,40.72448,-27.749794,-3.9638455,-7.193797,-13.485351,-13.236496,39.777534,-14.464098,3.752761,-3.2322266,-5.136667,17.213732,-33.847153,28.005287,-41.69764,77.90799,-32.51087,-2.3918886,2.506146,-29.033606,-19.910543,23.866995,75.66108,37.963608,0.0038639216,-1.5795883
102,10.531888008117676,13.956324577331543,73.56211853027344,-1.1653837652976928,-18.23196627279569,-87.19660440238803,8.143436,11.197262,21.64979,40.790104,-27.736597,-3.9047728,-7.222494,-13.514606,-13.198594,39.73191,-14.373632,3.7598789,-3.245033,-5.1517687,17.237152,-33.832882,28.023743,-41.763374,77.95975,-32.617195,-2.4146307,2.5266836,-29.032667,-19.888365,23.80587,75.55963,37.74026,0.06449135,-1.6368862
103,10.566054344177246,14.03244400024414,73.55850982666016,-1.1563565269291325,-18.25755415983803,-87.20138567655323,8.072031,11.158681,21.656496,40.86199,-27.724176,-3.8408926,-7.2549043,-13.54407,-13.161347,39.690914,-14.281021,3.7673,-3.264846,-5.1600556,17.266104,-33.81096,28.04188,-41.80981,78.004074,-32.722656,-2.4402363,2.5493267,-29.02723,-19.867115,23.699123,75.43776,37.485046,0.13092142,-1.6997375
104,10.606147766113281,14.107402801513672,73.54914093017578,-1.1431827944167974,-18.273847959653693,-87.2181498997156,7.9930105,11.120307,21.678316,40.93033,-27.708101,-3.761613,-7.30863,-13.5734215,-13.11585,39.657814,-14.17784,3.7745934,-3.2642772,-5.176619,17.294855,-33.803062,28.061342,-41.84424,78.048294,-32.807774,-2.460383,2.567674,-29.04268,-19.848883,23.655167,75.332436,37.368176,0.17289637,-1.7457544
105,10.645691871643066,14.19355297088623,73.5403823852539,-1.124256810838197,-18.275336610907356,-87.25075745283561,7.8973927,11.087266,21.720013,41.00398,-27.691437,-3.6585796,-7.3961,-13.601555,-13.061699,39.64205,-14.061865,3.780293,-3.2472317,-5.188394,17.31685,-33.80148,28.067596,-41.803852,78.09134,-32.82198,-2.4671223,2.5745933,-29.050463,-19.841843,23.628428,75.209816,37.377228,0.1823457,-1.7696819
106,10.681891441345215,14.28519058227539,73.52957916259766,-1.1042782959138866,-18.268194391035337,-87.29289397742987,7.791578,11.057743,21.773369,41.080116,-27.67268,-3.5385118,-7.502304,-13.62763,-13.00247,39.632668,-13.933249,3.7852547,-3.2340927,-5.194595,17.342789,-33.810448,28.080025,-41.785324,78.13407,-32.87831,-2.472068,2.5772946,-29.089317,-19.833387,23.639448,75.098755,37.48399,0.17021215,-1.7853435
107,10.71872329711914,14.369169235229492,73.519287109375,-1.0778067396589934,-18.260052545152707,-87.3412467128048,7.6862035,11.025468,21.834898,41.153435,-27.653347,-3.4169974,-7.6159167,-13.656431,-12.93822,39.628223,-13.805291,3.7913997,-3.2239513,-5.2047276,17.366514,-33.792213,28.098614,-41.706467,78.154144,-32.88477,-2.4805732,2.5854127,-29.134201,-19.821568,23.652065,74.99628,37.588676,0.15769497,-1.7933881
108,10.755385398864746,14.457453727722168,73.51304626464844,-1.0452157883762667,-18.258607706867576,-87.39321819673073,7.596246,10.9825945,21.900858,41.208885,-27.629168,-3.3080056,-7.7212434,-13.688925,-12.866905,39.61622,-13.682493,3.8009758,-3.2073185,-5.2246175,17.395098,-33.762596,28.117683,-41.619923,78.171684,-32.87541,-2.509351,2.610746,-29.192698,-19.812582,23.69785,74.92148,37.666283,0.16241126,-1.7960839
109,10.78974437713623,14.548249244689941,73.51010131835938,-1.0041563382726102,-18.27000313423814,-87.44807958829215,7.53151,10.92553,21.971489,41.24239,-27.602398,-3.2199893,-7.809982,-13.72768,-12.787919,39.596348,-13.571375,3.81358,-3.1961005,-5.2512903,17.43223,-33.702732,28.140154,-41.50914,78.17667,-32.84522,-2.5727718,2.659897,-29.250055,-19.802828,23.71959,74.860695,37.615135,0.20240702,-1.7926434
110,10.826072692871094,14.633734703063965,73.50090789794922,-0.9543427015315152,-18.288977922018663,-87.50808184439248,7.482943,10.858199,22.04857,41.260113,-27.573038,-3.1436298,-7.891801,-13.7713,-12.701645,39.573303,-13.466823,3.82853,-3.1661766,-5.292414,17.477459,-33.640457,28.157297,-41.377228,78.18429,-32.77415,-2.6576996,2.7244906,-29.311134,-19.797691,23.755854,74.81639,37.53961,0.2608546,-1.7815278
111,10.860100746154785,14.716889381408691,73.49286651611328,-0.9022651657203851,-18.305459295409527,-87.57162244467378,7.4326277,10.787689,22.129646,41.27294,-27.539879,-3.0677328,-7.9777093,-13.815198,-12.610678,39.545296,-13.359932,3.8472626,-3.1497326,-5.327388,17.517994,-33.564613,28.179491,-41.281307,78.18397,-32.755993,-2.746961,2.7984185,-29.388903,-19.793577,23.818254,74.79467,37.4577,0.31669334,-1.7664914
112,10.89754581451416,14.813444137573242,73.48512268066406,-0.8491569712366835,-18.309303924026803,-87.63759535600684,7.3639355,10.719243,22.212702,41.289173,-27.500463,-2.98089,-8.078917,-13.855593,-12.516615,39.50919,-13.240923,3.871427,-3.124433,-5.363284,17.547668,-33.491844,28.199387,-41.18014,78.17881,-32.72776,-2.8118513,2.8699234,-29.451029,-19.789324,23.873053,74.768616,37.401703,0.34654996,-1.7497613
113,10.933897972106934,14.909783363342285,73.47848510742188,-0.7978257457087682,-18.296623699144185,-87.70734774372892,7.267951,10.657373,22.300259,41.319714,-27.458008,-2.8828099,-8.20346,-13.891337,-12.417435,39.469887,-13.112863,3.9035964,-3.095053,-5.395115,17.560093,-33.438892,28.216879,-41.158276,78.18245,-32.777355,-2.8438516,2.9383082,-29.51478,-19.78603,23.960648,74.75984,37.41769,0.33485973,-1.7266357
114,10.96564769744873,15.015095710754395,73.47199249267578,-0.7436013197751439,-18.27322079642871,-87.7812106252616,7.1559544,10.596996,22.391655,41.354122,-27.410736,-2.7779582,-8.341936,-13.923757,-12.312704,39.422844,-12.97612,3.942519,-3.072483,-5.4247165,17.55863,-33.365814,28.240164,-41.108505,78.16577,-32.811604,-2.8534005,3.007981,-29.585918,-19.77855,24.074278,74.7716,37.465675,0.2969815,-1.697463
115,10.998868942260742,15.112844467163086,73.46805572509766,-0.6879380447286655,-18.243669363178444,-87.85572277087753,7.03693,10.534794,22.48359,41.383457,-27.357475,-2.6650243,-8.486685,-13.955748,-12.208165,39.36939,-12.82995,3.9827185,-3.052745,-5.4553523,17.552563,-33.2861,28.26584,-41.05858,78.1453,-32.850544,-2.8613987,3.0798416,-29.657227,-19.767475,24.187494,74.78574,37.513783,0.25409287,-1.6747428
116,11.028948783874512,15.211284637451172,73.4644546508789,-0.6335188775347725,-18.21283091764031,-87.92735820725586,6.9193473,10.467555,22.571917,41.399227,-27.297022,-2.5424232,-8.628646,-13.989821,-12.109755,39.308258,-12.672009,4.018925,-3.0292804,-5.4883842,17.54889,-33.21416,28.286594,-41.041695,78.139755,-32.916817,-2.8888893,3.1553695,-29.729202,-19.758842,24.302309,74.79365,37.56025,0.22685319,-1.6697366
117,11.062361717224121,15.313583374023438,73.46368408203125,-0.5751592574746175,-18.181996422749577,-87.99653482872935,6.807154,10.390681,22.65714,41.39811,-27.22956,-2.406089,-8.768855,-14.030609,-12.016367,39.247078,-12.505596,4.049298,-3.0288181,-5.522308,17.543995,-33.09875,28.319296,-40.969666,78.11214,-32.950108,-2.941098,3.2412028,-29.823322,-19.743996,24.445887,74.80365,37.600742,0.21772361,-1.6947876
118,11.098489761352539,15.413774490356445,73.46688842773438,-0.5135996382920597,-18.148672898761085,-88.06463664557961,6.6954937,10.307098,22.741163,41.384933,-27.155571,-2.258105,-8.910715,-14.075285,-11.925614,39.183475,-12.330218,4.076814,-3.0127523,-5.5618057,17.541155,-32.995747,28.340118,-40.914806,78.100426,-32.981045,-3.00753,3.3338563,-29.905104,-19.73665,24.578854,74.79553,37.642197,0.21750444,-1.7386086
119,11.130431175231934,15.527634620666504,73.47313690185547,-0.4575340275190666,-18.111622609096838,-88.12997489229218,6.5786085,10.224606,22.82156,41.363956,-27.07501,-2.1060781,-9.050541,-14.116498,-11.841492,39.10397,-12.140235,4.1036186,-3.0023868,-5.5960393,17.539053,-32.88477,28.35771,-40.833584,78.08678,-32.998165,-3.0795736,3.421787,-29.98822,-19.730705,24.706158,74.7896,37.671455,0.22821958,-1.7840321
120,11.166353225708008,15.640643119812012,73.48133087158203,-0.4082064884791605,-18.069918736679377,-88.19196526638757,6.451968,10.1500635,22.896225,41.3367,-26.986408,-1.9574593,-9.183705,-14.14689,-11.767975,38.99384,-11.929073,4.1317444,-2.9861042,-5.626718,17.541376,-32.7972,28.371828,-40.78068,78.089066,-33.04852,-3.1491408,3.4920044,-30.075739,-19.727116,24.841005,74.80141,37.718987,0.24938034,-1.8129876
121,11.198373794555664,15.754076957702637,73.49197387695312,-0.3655854341993831,-18.022335215894557,-88.2525674357002,6.313577,10.082215,22.967209,41.303707,-26.89007,-1.8130839,-9.314522,-14.167148,-11.701904,38.85534,-11.696338,4.163143,-2.9717917,-5.649323,17.544558,-32.712395,28.385727,-40.728962,78.0922,-33.126038,-3.216999,3.5454478,-30.180285,-19.723454,24.993992,74.84478,37.792137,0.29281712,-1.8196995
122,11.226127624511719,15.88250732421875,73.50585174560547,-0.3293536008625383,-17.96997858301832,-88.3118553759717,6.1675043,10.017542,23.035122,41.26116,-26.785015,-1.6690598,-9.442587,-14.179796,-11.64217,38.691936,-11.443536,4.196368,-2.97508,-5.666663,17.547459,-32.606457,28.408218,-40.624847,78.0823,-33.188644,-3.2858832,3.586119,-30.307829,-19.713852,25.176708,74.91463,37.88234,0.3539473,-1.8162557
123,11.253904342651367,16.013254165649414,73.52759552001953,-0.302002076568104,-17.91430703745117,-88.36397117178387,6.0125594,9.962583,23.094772,41.21617,-26.67394,-1.5271833,-9.561186,-14.183103,-11.597186,38.50217,-11.174509,4.227931,-2.9404564,-5.69081,17.56136,-32.55975,28.417799,-40.589317,78.10574,-33.272694,-3.3489673,3.6110687,-30.406706,-19.711119,25.309052,74.97679,37.9599,0.4095036,-1.8027822
124,11.284736633300781,16.13994598388672,73.54986572265625,-0.2918170624409586,-17.856469084984603,-88.40237289837522,5.8502445,9.922483,23.13879,41.166862,-26.554663,-1.3875991,-9.659002,-14.171441,-11.5755,38.27268,-10.884862,4.2552476,-2.9377115,-5.694461,17.575918,-32.510117,28.430614,-40.565395,78.12669,-33.378635,-3.406189,3.6210992,-30.527573,-19.706787,25.466524,75.070854,38.016647,0.4377002,-1.7870196
125,11.312222480773926,16.263280868530273,73.57611083984375,-0.30116656925718344,-17.80214667194669,-88.42197788345852,5.6857915,9.8992,23.163631,41.114098,-26.4286,-1.2499067,-9.7273655,-14.146257,-11.584694,38.003204,-10.57355,4.2687387,-2.9440324,-5.6928334,17.606653,-32.458015,28.446238,-40.44409,78.13317,-33.36692,-3.450878,3.6098678,-30.643953,-19.69606,25.598341,75.17804,38.020855,0.41988,-1.769401
126,11.335495948791504,16.395503997802734,73.61018371582031,-0.325911975206264,-17.74895062130147,-88.42782705247127,5.5170703,9.889408,23.173265,41.057102,-26.295689,-1.1140468,-9.774505,-14.109968,-11.6179,37.70008,-10.242678,4.2728953,-2.9313128,-5.6932797,17.652288,-32.452644,28.455538,-40.366497,78.16345,-33.354927,-3.4882267,3.579935,-30.752438,-19.690508,25.72277,75.29769,38.025642,0.37065795,-1.7462299
127,11.360210418701172,16.544713973999023,73.64131164550781,-0.36206660229574766,-17.68597587467818,-88.42750548956047,5.332688,9.891044,23.17384,40.99771,-26.153809,-0.9814742,-9.815897,-14.060289,-11.66257,37.363995,-9.896714,4.2854257,-2.9387028,-5.677808,17.691278,-32.437458,28.466219,-40.268124,78.183365,-33.336334,-3.5156467,3.5399177,-30.880917,-19.682486,25.859484,75.44299,38.02141,0.31963882,-1.7170622
128,11.384174346923828,16.702608108520508,73.67723083496094,-0.4043090558867319,-17.602918566844878,-88.42861647526409,5.122446,9.900631,23.1725,40.93626,-26.000675,-0.85377693,-9.868037,-13.996168,-11.704663,36.99876,-9.541819,4.3241577,-2.9343243,-5.6564693,17.714071,-32.450493,28.475212,-40.25288,78.215096,-33.390167,-3.5280135,3.4947705,-31.012415,-19.678171,25.993889,75.59487,38.040485,0.29312477,-1.67887
129,11.405535697937012,16.85634422302246,73.71391296386719,-0.4524533067324604,-17.489939736477073,-88.43275363372017,4.8719277,9.920445,23.16704,40.876194,-25.833246,-0.72847635,-9.94499,-13.916013,-11.749169,36.60167,-9.158994,4.3808455,-2.932774,-5.623364,17.70928,-32.460033,28.48319,-40.212627,78.238976,-33.434162,-3.5186121,3.4404736,-31.165117,-19.6742,26.15807,75.77141,38.099205,0.30236995,-1.6247582
130,11.425457000732422,17.000961303710938,73.7559585571289,-0.5092794588244955,-17.3550397470407,-88.4357156062953,4.590735,9.950837,23.155067,40.815598,-25.653025,-0.60566956,-10.034773,-13.821506,-11.79997,36.17229,-8.752161,4.450431,-2.9219604,-5.5833473,17.689844,-32.490303,28.488438,-40.196896,78.268715,-33.495785,-3.491858,3.3755565,-31.329355,-19.674122,26.340286,75.96649,38.19365,0.33075428,-1.5574262
131,11.445788383483887,17.16266632080078,73.79876708984375,-0.5710432401180477,-17.21375775053945,-88.43844180130482,4.3026133,9.987244,23.142225,40.75042,-25.466599,-0.49085698,-10.114667,-13.714605,-11.842067,35.715096,-8.360631,4.5549974,-2.928587,-5.530412,17.660913,-32.50926,28.495094,-40.20271,78.28825,-33.58971,-3.456925,3.31135,-31.510899,-19.673853,26.533564,76.17416,38.29161,0.36709672,-1.4925592
132,11.462512969970703,17.318859100341797,73.84646606445312,-0.6306465068018242,-17.08222979648714,-88.44280328198433,4.031121,10.02377,23.134417,40.676384,-25.280117,-0.38942784,-10.163651,-13.598481,-11.860193,35.2388,-8.02597,4.716833,-2.9224746,-5.4839406,17.64305,-32.535492,28.501097,-40.241684,78.2995,-33.68385,-3.4166346,3.2567487,-31.682251,-19.674839,26.678888,76.36228,38.371822,0.39676055,-1.4434298
133,11.4764986038208,17.47618865966797,73.89413452148438,-0.6917879402278527,-16.96175129507365,-88.4490695044534,3.7807639,10.063825,23.134464,40.590225,-25.094202,-0.30713254,-10.180821,-13.480285,-11.872849,34.73189,-7.743427,4.883208,-2.9260137,-5.43369,17.628967,-32.540054,28.509636,-40.29291,78.283134,-33.75539,-3.3734283,3.2197635,-31.859955,-19.675339,26.816357,76.55069,38.477634,0.40999857,-1.4191568
134,11.491774559020996,17.6348934173584,73.9376449584961,-0.7549291616370769,-16.844933794265263,-88.45657310100233,3.5397034,10.108016,23.138622,40.49416,-24.905472,-0.23955476,-10.176273,-13.356829,-11.880736,34.195644,-7.4970465,5.0614257,-2.9258778,-5.382114,17.61982,-32.54077,28.519632,-40.366238,78.24718,-33.814877,-3.3236914,3.193995,-32.042118,-19.676424,26.935392,76.73953,38.60345,0.41536793,-1.4094743
135,11.500207901000977,17.790157318115234,73.98627471923828,-0.8127257258889489,-16.734026113822733,-88.46410888774679,3.306649,10.149309,23.142477,40.395065,-24.71517,-0.17724891,-10.140498,-13.213992,-11.841729,33.647312,-7.306254,5.3633204,-2.9223723,-5.33886,17.614069,-32.546284,28.532085,-40.461624,78.215324,-33.90715,-3.2658877,3.1654418,-32.22703,-19.67848,27.048079,76.91547,38.70365,0.42823958,-1.4039857
136,11.509879112243652,17.947895050048828,74.02154541015625,-0.8589648102940428,-16.63097381825063,-88.47034652659755,3.0799394,10.179169,23.140902,40.298958,-24.523952,-0.1106493,-10.065858,-13.039714,-11.713608,33.108086,-7.1940937,5.9002733,-2.890346,-5.325615,17.616186,-32.55916,28.540197,-40.46143,78.197586,-33.93766,-3.1907368,3.118425,-32.391632,-19.68202,27.127705,77.049065,38.7257,0.46303844,-1.3902892
137,11.509726524353027,18.101613998413086,74.05562591552734,-0.8849466691105192,-16.53265441175386,-88.47417934494699,2.8562565,10.190079,23.13208,40.202206,-24.329378,-0.033857103,-9.938259,-12.821265,-11.4633665,32.511967,-7.1513944,6.807069,-2.8661897,-5.3324327,17.62237,-32.56376,28.549013,-40.359734,78.18828,-33.970806,-3.0918524,3.039476,-32.564453,-19.688765,27.203295,77.147316,38.61918,0.5325781,-1.3585767
138,11.507577896118164,18.256681442260742,74.08414459228516,-0.8957494954451476,-16.439290036402607,-88.4762664127134,2.6382236,10.186225,23.119474,40.101444,-24.130846,0.04716997,-9.76564,-12.57377,-11.1247835,31.873974,-7.1786447,7.986028,-2.8281274,-5.36489,17.637705,-32.56387,28.55263,-40.117783,78.17929,-33.91454,-2.9698856,2.9384618,-32.73679,-19.700544,27.273703,77.21359,38.44428,0.62402767,-1.3162222
139,11.49374771118164,18.414316177368164,74.11262512207031,-0.9019851516061836,-16.35810226992406,-88.47916077335059,2.4312162,10.181692,23.10503,40.00923,-23.935608,0.12393216,-9.570644,-12.320572,-10.758946,31.332514,-7.310364,9.200677,-2.7982047,-5.394612,17.658985,-32.54852,28.557737,-39.89144,78.1738,-33.900925,-2.8565798,2.8442674,-32.905743,-19.714828,27.325418,77.25652,38.22408,0.726668,-1.2827089
140,11.482686996459961,18.57052230834961,74.13957977294922,-0.911127356047694,-16.295865525837698,-88.48534417650497,2.241159,10.189716,23.090563,39.93586,-23.749817,0.18793488,-9.380178,-12.081352,-10.422934,31.030876,-7.577916,10.217661,-2.7444935,-5.426503,17.688963,-32.523563,28.5594,-39.699726,78.1789,-33.86463,-2.770278,2.7819936,-33.069855,-19.730606,27.422136,77.29896,38.119102,0.81958544,-1.2760328
141,11.46950912475586,18.710691452026367,74.15786743164062,-0.9296712418211308,-16.257420595792148,-88.49591887934949,2.070098,10.219186,23.075653,39.89152,-23.577013,0.23227178,-9.200773,-11.831656,-10.09598,30.989838,-7.9876394,11.033518,-2.6877909,-5.441407,17.730085,-32.468876,28.559864,-39.554226,78.1836,-33.822243,-2.7212687,2.7568948,-33.223503,-19.744162,27.501785,77.33196,38.07684,0.9095943,-1.3114946
142,11.448391914367676,18.869422912597656,74.1781234741211,-0.9534995797567085,-16.2378576483923,-88.50943791782466,1.9151495,10.260998,23.058504,39.865646,-23.411552,0.26357332,-9.021727,-11.566205,-9.761878,31.144073,-8.524865,11.754163,-2.6162822,-5.455121,17.779785,-32.409428,28.559563,-39.469887,78.20275,-33.79954,-2.6957986,2.7554789,-33.385128,-19.75788,27.63046,77.37025,38.137833,0.99784696,-1.3760986
143,11.42164421081543,19.024097442626953,74.19600677490234,-0.9779667483965206,-16.22953421697595,-88.5247912275625,1.768142,10.311942,23.042055,39.85627,-23.2565,0.29022026,-8.849371,-11.328008,-9.480601,31.516602,-9.189871,12.312628,-2.5416763,-5.463985,17.831442,-32.329117,28.557611,-39.394875,78.226654,-33.78756,-2.6888735,2.7788973,-33.537796,-19.771341,27.771967,77.39496,38.207428,1.0790415,-1.447181
144,11.393119812011719,19.173322677612305,74.21664428710938,-1.0009478676189116,-16.22518964807432,-88.54015178981186,1.6221467,10.367457,23.028658,39.85866,-23.113731,0.32116085,-8.688778,-11.161008,-9.309469,32.127415,-9.977795,12.64261,-2.4602835,-5.4742823,17.880228,-32.232765,28.552782,-39.308548,78.26452,-33.788357,-2.698991,2.824229,-33.65558,-19.780323,27.870836,77.38356,38.188496,1.1462867,-1.5023351
145,11.357375144958496,19.30937385559082,74.2322998046875,-1.024693029643254,-16.226971793185903,-88.56005230912294,1.4791356,10.4349375,23.024687,39.877975,-22.988527,0.3585977,-8.547864,-11.065902,-9.25072,33.013783,-10.908578,12.696145,-2.3753715,-5.48074,17.928942,-32.105675,28.542145,-39.174694,78.30028,-33.784363,-2.7178373,2.9159212,-33.776394,-19.790264,28.036354,77.3548,38.162556,1.1941174,-1.5460693
146,11.320514678955078,19.462055206298828,74.23470306396484,-1.0503693085834653,-16.237910905758223,-88.58361140836931,1.3426658,10.512121,23.025757,39.911587,-22.876488,0.3986144,-8.416406,-11.01921,-9.271083,34.14251,-11.966654,12.52146,-2.288646,-5.4828744,17.978771,-31.95073,28.52434,-39.00357,78.342224,-33.770016,-2.7527952,3.0442915,-33.89203,-19.796854,28.225195,77.30722,38.112495,1.2279735,-1.5872844
147,11.290054321289062,19.608678817749023,74.23257446289062,-1.0706555506535964,-16.25099728426428,-88.60028139968756,1.2037094,10.585241,23.02277,39.957726,-22.773638,0.43801662,-8.277254,-11.032706,-9.371618,35.440804,-13.103818,12.195913,-2.18848,-5.497609,18.01882,-31.796183,28.50515,-38.8688,78.39896,-33.782513,-2.7982993,3.1754928,-33.982727,-19.800335,28.433706,77.25919,38.08058,1.2477516,-1.6084876
148,11.251220703125,19.75653839111328,74.22996520996094,-1.0799308543305737,-16.2593798156881,-88.59960413936697,1.0535313,10.640259,23.006077,40.01245,-22.674744,0.4740657,-8.111797,-11.11941,-9.555577,36.83414,-14.271309,11.796383,-2.0923712,-5.5242176,18.038351,-31.61927,28.481512,-38.682686,78.447464,-33.73754,-2.8484738,3.2758727,-34.01672,-19.799349,28.581942,77.20738,38.000683,1.2600961,-1.5931469
149,11.213096618652344,19.888132095336914,74.22554779052734,-1.0746685454869283,-16.266097954123726,-88.57973028358133,0.89895743,10.670484,22.976894,40.069695,-22.578743,0.50631136,-7.9121933,-11.301177,-9.833297,38.344902,-15.496552,11.309811,-2.0146713,-5.5623546,18.031065,-31.412174,28.448885,-38.460133,78.49891,-33.68175,-2.907704,3.3278854,-34.02496,-19.796425,28.770544,77.18648,37.946777,1.2547537,-1.5326241
150,11.162673950195312,20.021562576293945,74.21173095703125,-1.055865339208322,-16.27345271884102,-88.54591983140534,0.742939,10.68304,22.939627,40.13072,-22.487253,0.53636146,-7.6817203,-11.569151,-10.191653,39.98937,-16.791508,10.705756,-1.952703,-5.6071186,18.002785,-31.169806,28.399178,-38.158165,78.55361,-33.572197,-2.977007,3.3526666,-34.008625,-19.78849,28.980122,77.1825,37.891205,1.234013,-1.4379114
151,11.113642692565918,20.1562557220459,74.19139099121094,-1.0320838479643613,-16.273650260820595,-88.49812188800593,0.5684555,10.6863785,22.888012,40.20969,-22.401907,0.5640956,-7.420008,-11.892533,-10.603068,41.68965,-18.086592,10.0347395,-1.8929551,-5.6559534,17.954508,-30.932705,28.34133,-37.906395,78.619446,-33.47648,-3.0554245,3.376998,-33.96018,-19.774899,29.174469,77.19143,37.843155,1.2121296,-1.3216383
152,11.068666458129883,20.279064178466797,74.17192077636719,-1.005831647528337,-16.25885188204176,-88.43766891207132,0.3601944,10.688714,22.816515,40.316185,-22.321688,0.58934873,-7.1285615,-12.239589,-11.043647,43.369205,-19.311626,9.347025,-1.8275512,-5.705516,17.889603,-30.705685,28.27544,-37.653088,78.67916,-33.291843,-3.1363022,3.4266725,-33.87786,-19.757088,29.330257,77.20815,37.819775,1.2043407,-1.1963065
153,11.009994506835938,20.405065536499023,74.14678192138672,-0.9811525049313724,-16.226540320384146,-88.36320301324697,0.11051796,10.691691,22.718887,40.45869,-22.247179,0.6112697,-6.811501,-12.623539,-11.534675,45.048744,-20.458899,8.621534,-1.7675846,-5.748218,17.803991,-30.493105,28.213072,-37.540447,78.74733,-33.141674,-3.2262914,3.5055668,-33.75501,-19.731878,29.4052,77.22943,37.781002,1.2244729,-1.0470841
154,10.9562349319458,20.51984977722168,74.11985778808594,-0.9524461510409168,-16.181021573296523,-88.27489103565975,-0.17030972,10.689632,22.599855,40.62814,-22.1776,0.6299302,-6.4631095,-13.058379,-12.077413,46.75452,-21.565977,7.840677,-1.6997689,-5.7993927,17.706598,-30.27496,28.16917,-37.465435,78.79224,-32.94436,-3.317376,3.5980444,-33.586216,-19.711618,29.436396,77.24027,37.76377,1.2617344,-0.8711873
155,10.889839172363281,20.650667190551758,74.0883560180664,-0.9219307729851444,-16.125142178391656,-88.17436593742369,-0.47347417,10.683994,22.468971,40.813942,-22.113052,0.6466165,-6.0729938,-13.506884,-12.624599,48.42086,-22.626978,7.06044,-1.6429002,-5.8426585,17.585936,-30.081865,28.098902,-37.411934,78.851845,-32.73587,-3.4170537,3.712891,-33.40673,-19.67596,29.463945,77.285965,37.761158,1.2940809,-0.7074721
156,10.82386302947998,20.76743507385254,74.0473403930664,-0.887572639829794,-16.06161618642251,-88.06397509404268,-0.79070336,10.676699,22.337576,41.00795,-22.05585,0.6617451,-5.637196,-13.93218,-13.130812,49.990917,-23.638199,6.338421,-1.5719712,-5.890171,17.459997,-29.925232,28.034534,-37.32979,78.86778,-32.492054,-3.5116868,3.8502777,-33.20103,-19.648954,29.51028,77.32944,37.809654,1.3053439,-0.5876281
157,10.753363609313965,20.880435943603516,73.99964141845703,-0.851921051677511,-15.996959716522822,-87.95089610967179,-1.1106235,10.6759815,22.211466,41.21249,-22.014727,0.6717152,-5.1458073,-14.327525,-13.595317,51.46271,-24.604593,5.681038,-1.4969438,-5.9242187,17.31585,-29.799198,27.943869,-37.236828,78.85938,-32.271416,-3.6263535,4.0313754,-32.974094,-19.62126,29.619854,77.395546,37.918392,1.2804697,-0.5311993
158,10.678755760192871,20.997310638427734,73.95842742919922,-0.8158548994677267,-15.927834776762634,-87.8317241314023,-1.440694,10.678427,22.084288,41.43058,-21.985998,0.6771324,-4.6063795,-14.711709,-14.041515,52.866314,-25.527075,5.060704,-1.4110001,-5.9519434,17.159304,-29.69181,27.838076,-37.095966,78.817245,-32.00311,-3.7512572,4.246587,-32.710186,-19.600727,29.750341,77.461945,38.070854,1.2342923,-0.51516604
159,10.600979804992676,21.11698341369629,73.91127014160156,-0.7735542233388589,-15.841779741231456,-87.692691475428,-1.8012981,10.668385,21.944738,41.65339,-21.951183,0.6861565,-4.040438,-15.080442,-14.46264,54.186234,-26.388474,4.485604,-1.328842,-5.979756,16.994238,-29.653719,27.729382,-37.013973,78.781845,-31.747162,-3.855067,4.4633994,-32.45031,-19.588736,29.888927,77.54604,38.26963,1.1869375,-0.51664084
160,10.514287948608398,21.234031677246094,73.86430358886719,-0.719650234011546,-15.726603084191627,-87.51983797137804,-2.2126658,10.629587,21.782063,41.870647,-21.890472,0.7068962,-3.4706717,-15.428572,-14.85296,55.408127,-27.169664,3.9642258,-1.2542844,-6.0220366,16.830662,-29.707994,27.622654,-36.897003,78.766594,-31.358128,-3.8975255,4.64562,-32.221092,-19.585636,29.993128,77.648796,38.50191,1.158799,-0.51209986
161,10.424697875976562,21.371551513671875,73.81600952148438,-0.6486471747323439,-15.572137802913218,-87.30895861978122,-2.6913054,10.553082,21.59289,42.083817,-21.797478,0.75335705,-2.9175792,-15.753352,-15.193334,56.550465,-27.87176,3.4871042,-1.2004467,-6.0755606,16.659473,-29.882807,27.521124,-36.86838,78.8077,-30.946745,-3.861832,4.797086,-32.031002,-19.590073,30.026098,77.74916,38.7209,1.1581398,-0.51197267
162,10.325531959533691,21.51041030883789,73.76358795166016,-0.5635661803120513,-15.387648481986508,-87.06801664847218,-3.2221344,10.4481945,21.38393,42.294884,-21.681532,0.8169544,-2.367803,-16.057198,-15.496532,57.61751,-28.5003,3.0543387,-1.1538825,-6.1427236,16.484503,-30.144587,27.43115,-36.85669,78.86448,-30.465914,-3.7654002,4.9296627,-31.861107,-19.60409,30.022545,77.84509,38.962204,1.1728151,-0.5226299
163,10.2258939743042,21.64276123046875,73.71440887451172,-0.4749723436700268,-15.18911872794782,-86.80007508265939,-3.7793014,10.329049,21.158613,42.500603,-21.550388,0.86913,-1.7874451,-16.339296,-15.807517,58.56262,-29.046976,2.6892655,-1.1124859,-6.218608,16.31734,-30.480818,27.356369,-36.87429,78.91181,-29.954117,-3.6450386,5.0271425,-31.7134,-19.624458,30.025766,77.9946,39.268513,1.1947249,-0.5168803
164,10.118840217590332,21.793380737304688,73.66564178466797,-0.3906873711857831,-14.99246090504451,-86.50930280826057,-4.3364534,10.208743,20.919575,42.695686,-21.41101,0.8826971,-1.1418113,-16.59826,-16.171463,59.338516,-29.50298,2.4153407,-1.0684397,-6.297679,16.169231,-30.885307,27.289389,-36.9185,78.93205,-29.427052,-3.537057,5.0747447,-31.578527,-19.64767,30.047466,78.24839,39.656696,1.2164143,-0.46748427
165,10.000771522521973,21.946550369262695,73.60952758789062,-0.309033032841122,-14.801207045564814,-86.1932530217,-4.88705,10.088012,20.66891,42.877308,-21.268703,0.84606624,-0.42574978,-16.82909,-16.585033,59.949535,-29.87805,2.2529325,-1.0190864,-6.386079,16.045118,-31.373055,27.246418,-37.032883,78.91447,-28.933483,-3.4562595,5.0520387,-31.48411,-19.671198,30.17533,78.711784,40.233852,1.246986,-0.34358704
166,9.87906551361084,22.084178924560547,73.5567855834961,-0.2278692596143607,-14.6073948845228,-85.85136628300756,-5.4444027,9.9605,20.404036,43.047188,-21.11833,0.7738523,0.34230298,-17.03158,-17.032179,60.416676,-30.171267,2.1854112,-0.9767459,-6.479141,15.936512,-31.939987,27.223278,-37.21838,78.87306,-28.472864,-3.3849974,4.97347,-31.419617,-19.692621,30.325806,79.3243,40.898003,1.2890786,-0.16796593
167,9.751317977905273,22.243040084838867,73.50680541992188,-0.14994806025786162,-14.409252602228195,-85.48901671388877,-6.013837,9.830115,20.122337,43.212784,-20.955818,0.68234634,1.1626692,-17.212444,-17.538616,60.717976,-30.358799,2.180817,-0.94372386,-6.574294,15.837128,-32.550583,27.209393,-37.43298,78.80847,-27.995983,-3.3040717,4.87428,-31.365925,-19.70919,30.466839,79.929375,41.583935,1.3166033,0.007993724
168,9.614313125610352,22.40439224243164,73.45348358154297,-0.08340031374192117,-14.205187843906353,-85.11160780180721,-6.5995064,9.69954,19.82138,43.37963,-20.775574,0.5882193,2.0343146,-17.377682,-18.129414,60.834755,-30.418375,2.2069318,-0.9347248,-6.660996,15.737978,-33.172398,27.198637,-37.708893,78.72689,-27.540571,-3.1984131,4.791446,-31.307625,-19.711977,30.54008,80.381134,42.18451,1.2989898,0.13679282
169,9.475348472595215,22.554935455322266,73.40479278564453,-0.0246274002835754,-13.996496692349359,-84.71188661067787,-7.1977673,9.561365,19.49354,43.538254,-20.56262,0.4855245,2.9523063,-17.539446,-18.816498,60.807205,-30.255709,2.1792333,-0.9460393,-6.7489223,15.64415,-33.837013,27.185503,-38.07947,78.61995,-27.07467,-3.0373178,4.736902,-31.224585,-19.678854,30.421627,80.60894,42.58628,1.2317432,0.21127637
170,9.341452598571777,22.719646453857422,73.3582763671875,0.028190205260834336,-13.783551323935287,-84.2897814397011,-7.8070517,9.415298,19.142633,43.688747,-20.324343,0.36869526,3.9176788,-17.687063,-19.585176,60.632877,-29.912651,2.139899,-0.9675483,-6.8495417,15.550426,-34.57778,27.16852,-38.621258,78.52261,-26.678368,-2.8414192,4.6909456,-31.154154,-19.589363,30.214258,80.74815,42.91206,1.1183,0.25629792
171,9.204789161682129,22.875988006591797,73.30571746826172,0.07146338746081807,-13.563618003862226,-83.86252242942628,-8.435309,9.2762165,18.783108,43.851757,-20.088423,0.2553815,4.940708,-17.79044,-20.42072,60.221592,-29.56717,2.2489245,-1.0256264,-6.938071,15.441113,-35.290226,27.150902,-39.156605,78.43539,-26.32301,-2.662603,4.641731,-31.103662,-19.469814,29.979488,80.84512,43.171135,0.97524166,0.25390133
172,9.06190013885498,23.022123336791992,73.25173950195312,0.10249931271626067,-13.3333625244491,-83.44808687678265,-9.089997,9.157105,18.429897,44.045387,-19.879597,0.16393088,6.0279,-17.817291,-21.303802,59.484245,-29.395613,2.6670616,-1.1031002,-7.0124335,15.299125,-35.93435,27.123274,-39.63961,78.41263,-26.053814,-2.553233,4.5783153,-31.054249,-19.33152,29.732922,80.94563,43.372154,0.81264716,0.1854595
173,8.922074317932129,23.17673683166504,73.19010162353516,0.12095962870974059,-13.085328825683431,-83.04072818904633,-9.785525,9.055449,18.083914,44.280636,-19.709913,0.103820994,7.232802,-17.786379,-22.303808,58.36643,-29.394335,3.5482595,-1.2084895,-7.0616536,15.116102,-36.51734,27.086348,-40.14927,78.494896,-25.996252,-2.551021,4.485241,-30.997818,-19.196362,29.523468,81.02077,43.555237,0.62233156,0.0073606963
174,8.781590461730957,23.334718704223633,73.11933135986328,0.12905658897040836,-12.822513520089572,-82.6353582970881,-10.514473,8.965597,17.739012,44.54548,-19.56335,0.06475016,8.532288,-17.69589,-23.409737,56.91758,-29.473047,4.7748337,-1.333201,-7.090123,14.907358,-37.050423,27.033373,-40.60222,78.63845,-26.000984,-2.6166594,4.3720284,-30.916456,-19.066027,29.253183,81.023605,43.642567,0.40826324,-0.25927985
175,8.636453628540039,23.501052856445312,73.05198669433594,0.1229542590042849,-12.557023936789168,-82.25007316114338,-11.251968,8.896517,17.399326,44.823673,-19.423346,0.035784967,9.819378,-17.492218,-24.484562,55.199436,-29.681477,6.0997233,-1.460504,-7.0963526,14.685664,-37.525288,26.963837,-40.96723,78.79327,-25.986479,-2.7014747,4.2687902,-30.827261,-18.94961,28.984634,81.011,43.70362,0.19598101,-0.5325783
176,8.497550010681152,23.673015594482422,72.97174072265625,0.1024668419717456,-12.30147585380669,-81.90231028839312,-11.974062,8.858631,17.06821,45.10148,-19.27561,0.0055432906,10.989942,-17.134113,-25.388783,53.272194,-30.081743,7.2726145,-1.5802203,-7.076811,14.465882,-37.92007,26.885359,-41.18494,78.892685,-25.852863,-2.7551596,4.205966,-30.74194,-18.859356,28.736439,81.031166,43.75788,0.012785288,-0.7294975
177,8.361233711242676,23.84383773803711,72.89759826660156,0.06540487570425452,-12.050527151078267,-81.5852688402298,-12.692509,8.8469,16.732666,45.381783,-19.113583,-0.020755582,12.02621,-16.584389,-26.056602,51.025196,-30.76429,8.324279,-1.7086127,-7.0288177,14.234496,-38.241253,26.814419,-41.396873,78.93039,-25.718437,-2.7648618,4.195542,-30.659212,-18.803331,28.530422,81.103065,43.825733,-0.13319373,-0.8283604
178,8.2129487991333,24.016132354736328,72.8336181640625,0.014322270288392999,-11.799568092696822,-81.29297703298377,-13.412999,8.854944,16.396437,45.666073,-18.944456,-0.03882368,12.987884,-15.895193,-26.57449,48.454174,-31.675888,9.345034,-1.8444784,-6.9599085,13.9964285,-38.466377,26.756552,-41.46121,78.89941,-25.473627,-2.750376,4.2181363,-30.56684,-18.781507,28.350397,81.18132,43.895348,-0.25470978,-0.8721886
179,8.06279468536377,24.18572998046875,72.77569580078125,-0.044688342039831415,-11.56378130330204,-81.04614186637363,-14.102418,8.893264,16.085499,45.93937,-18.77293,-0.061727237,13.879699,-15.156209,-27.016459,45.79772,-32.66708,10.1729355,-1.9387199,-6.873263,13.774159,-38.659412,26.666067,-41.419315,78.86981,-25.166447,-2.732668,4.264253,-30.469069,-18.784977,28.173452,81.26049,43.955143,-0.36032727,-0.8775206
180,7.917766094207764,24.363927841186523,72.72370910644531,-0.11210520754814769,-11.358601408969813,-80.86534337091948,-14.73123,8.976097,15.823882,46.192467,-18.606384,-0.10284648,14.69885,-14.441592,-27.44956,43.303436,-33.588036,10.656926,-2.0115073,-6.7542553,13.59452,-38.801308,26.627993,-41.44262,78.78773,-25.06308,-2.7321823,4.3218317,-30.426466,-18.802523,28.111885,81.35195,44.065155,-0.45405725,-0.8597034
181,7.774971961975098,24.543991088867188,72.67562866210938,-0.19034097702441152,-11.164743221388049,-80.75487849533594,-15.323404,9.111127,15.615699,46.42888,-18.446333,-0.17150836,15.442169,-13.735483,-27.917944,40.93,-34.468655,10.675239,-2.001828,-6.6102824,13.4544525,-38.898247,26.548733,-41.16775,78.67451,-24.77534,-2.7341719,4.3995404,-30.375465,-18.86667,28.049181,81.40165,44.15087,-0.52401555,-0.80220383
182,7.63339900970459,24.733732223510742,72.63225555419922,-0.2798589338288882,-10.982713795105013,-80.70368505096226,-15.885038,9.291633,15.446831,46.652794,-18.289766,-0.2581546,16.108332,-13.001828,-28.361462,38.588947,-35.371254,10.333595,-1.9672976,-6.4401135,13.335839,-38.936016,26.492096,-40.828075,78.526306,-24.548641,-2.7497206,4.49533,-30.363546,-18.943058,28.05897,81.469345,44.249496,-0.575437,-0.7054736
183,7.491641998291016,24.93341636657715,72.57901000976562,-0.37928277488633566,-10.85670980315185,-80.70837900595694,-16.359781,9.513223,15.312508,46.857708,-18.137564,-0.34832686,16.695932,-12.276456,-28.697092,36.458454,-36.193123,9.832581,-1.9001201,-6.231839,13.281108,-38.942577,26.446785,-40.508682,78.35298,-24.41548,-2.7802129,4.594925,-30.369621,-19.05305,28.113401,81.51135,44.369484,-0.6200182,-0.6032887
184,7.355181694030762,25.144546508789062,72.52412414550781,-0.4889362980351858,-10.830871278797396,-80.76538256354051,-16.68976,9.769725,15.210233,47.0353,-17.989565,-0.42771283,17.203342,-11.60489,-28.851797,34.725285,-36.8304,9.378872,-1.7852465,-6.014015,13.328251,-38.931904,26.421665,-40.199245,78.15985,-24.290339,-2.8237371,4.677078,-30.40392,-19.15914,28.232958,81.537476,44.58265,-0.68569523,-0.53033906
185,7.220871925354004,25.352981567382812,72.48517608642578,-0.6066067155570407,-10.951380309117859,-80.87827007798963,-16.822752,10.066985,15.139738,47.19304,-17.854258,-0.49506435,17.670328,-10.987174,-28.78846,33.44345,-37.25849,8.995334,-1.6269293,-5.7641993,13.520897,-38.916058,26.422033,-40.010906,77.95139,-24.302658,-2.903918,4.729002,-30.463865,-19.281973,28.402441,81.520905,44.887424,-0.77106905,-0.47682893
186,7.090460300445557,25.54380226135254,72.48023986816406,-0.7353447521242804,-11.183908820595397,-81.04611289308019,-16.802095,10.408237,15.102241,47.334972,-17.730116,-0.5576227,18.082438,-10.410333,-28.557686,32.530537,-37.53758,8.585825,-1.4218436,-5.495644,13.825496,-38.88755,26.44901,-39.886036,77.72644,-24.40292,-3.010337,4.762179,-30.55641,-19.403824,28.632633,81.48943,45.2808,-0.87243277,-0.43047798
187,6.962337970733643,25.746673583984375,72.46607208251953,-0.8746800646670221,-11.452961342053788,-81.26043687562981,-16.71368,10.784898,15.095709,47.445026,-17.601128,-0.61408955,18.361433,-9.89491,-28.227282,31.952719,-37.6943,8.185044,-1.1944823,-5.207136,14.169529,-38.8013,26.48711,-39.619255,77.461006,-24.380962,-3.1058233,4.7984376,-30.679203,-19.520882,28.921759,81.45502,45.706367,-0.98385805,-0.42281103
188,6.835240364074707,25.952350616455078,72.45664978027344,-1.0260387841527112,-11.682564900437571,-81.5131415483919,-16.64613,11.189383,15.116946,47.511974,-17.453854,-0.6629476,18.428938,-9.458457,-27.865385,31.674557,-37.749046,7.8266144,-0.98018056,-4.8804226,14.462836,-38.74784,26.560848,-39.746143,77.24036,-24.766092,-3.1829157,4.866042,-30.825144,-19.623438,29.195795,81.442795,46.01294,-1.0963925,-0.48891762
189,6.717074871063232,26.161882400512695,72.46826171875,-1.2105988592042327,-11.860675446537584,-81.83302921112539,-16.613968,11.66591,15.1742325,47.539394,-17.291527,-0.70774955,18.18529,-9.107138,-27.443727,31.827618,-37.652554,7.518105,-0.74277073,-4.5001087,14.714675,-38.64271,26.640337,-39.784733,76.967354,-25.051481,-3.1888547,5.0006123,-30.98134,-19.705868,29.4133,81.43447,46.161507,-1.212788,-0.6806929
190,6.598484516143799,26.388410568237305,72.48600006103516,-1.4223293034412126,-12.026202167093427,-82.21374408440185,-16.573185,12.204169,15.2654295,47.5332,-17.119938,-0.74811715,17.698023,-8.830704,-26.946278,32.390453,-37.416485,7.2356205,-0.4892633,-4.0677876,14.947834,-38.54512,26.736105,-40.02902,76.70457,-25.542921,-3.1630979,5.182075,-31.184921,-19.771559,29.725788,81.46715,46.319252,-1.3404697,-0.9651344
191,6.489796161651611,26.632768630981445,72.51209259033203,-1.6124096971705995,-12.178319562856299,-82.59527815929705,-16.522432,12.710783,15.373891,47.479652,-16.926216,-0.77653235,17.13804,-8.622907,-26.458866,33.092743,-37.152233,6.9714503,-0.25775144,-3.6601014,15.145737,-38.447617,26.810495,-40.301376,76.51817,-26.07669,-3.153237,5.3395524,-31.396944,-19.805265,29.963676,81.51615,46.351727,-1.4730494,-1.2524728
192,6.378963470458984,26.873865127563477,72.54624938964844,-1.7345217584644403,-12.31511263294619,-82.91759642142421,-16.460663,13.092262,15.483315,47.36371,-16.69731,-0.7853146,16.675064,-8.476881,-26.06729,33.65764,-36.965023,6.7306805,-0.09246831,-3.3577275,15.306204,-38.330177,26.92986,-40.626892,76.395134,-26.712418,-3.2010608,5.396032,-31.596115,-19.837217,30.175873,81.53879,46.344444,-1.6004637,-1.4457893
193,6.274240493774414,27.10076332092285,72.58464813232422,-1.7664002476248897,-12.422719497959832,-83.17787252083946,-16.395437,13.316479,15.603922,47.16815,-16.420599,-0.76175034,16.313564,-8.411716,-25.784184,34.0506,-36.878963,6.5165176,0.0006808681,-3.1902137,15.4239,-38.110363,27.022598,-40.49492,76.34725,-26.968102,-3.3277307,5.321679,-31.791346,-19.85287,30.31457,81.54089,46.252758,-1.7481118,-1.5192039
194,6.18435001373291,27.315765380859375,72.6131820678711,-1.7381451720552539,-12.505537015998161,-83.40406298514672,-16.325222,13.435846,15.74,46.90641,-16.106977,-0.71334964,15.9747925,-8.423119,-25.565784,34.402645,-36.833797,6.331313,0.04608421,-3.099956,15.490957,-37.903934,27.08527,-40.414497,76.44776,-27.31974,-3.522529,5.1629095,-31.991985,-19.854635,30.420448,81.55368,46.09469,-1.9112871,-1.5243564
195,6.095200538635254,27.510053634643555,72.64486694335938,-1.6752409887838848,-12.588633538035474,-83.58328780087703,-16.237707,13.482147,15.86698,46.610023,-15.779073,-0.66272473,15.702011,-8.472979,-25.413448,34.68767,-36.80943,6.184055,0.03708831,-3.0726163,15.536026,-37.654438,27.166666,-40.25007,76.550285,-27.607498,-3.7125454,4.9510026,-32.18623,-19.842932,30.501343,81.560585,45.885555,-2.0421698,-1.4860591
196,6.011723041534424,27.678722381591797,72.67459106445312,-1.6038552507494834,-12.697812999142691,-83.70252140430723,-16.121458,13.4885,15.958875,46.313343,-15.460262,-0.63268113,15.537937,-8.522368,-25.328873,34.882015,-36.78931,6.082016,0.008084998,-3.0869458,15.566567,-37.46179,27.246075,-40.290073,76.67767,-28.029274,-3.849089,4.72381,-32.348873,-19.825916,30.615593,81.57283,45.721313,-2.0996487,-1.4276123
197,5.920577049255371,27.83431053161621,72.69981384277344,-1.5077147672393363,-12.849369091488185,-83.73199942778585,-15.954479,13.416053,16.00594,46.006306,-15.149881,-0.6254664,15.530043,-8.59751,-25.348078,34.96522,-36.78611,6.05469,-0.05815207,-3.1790419,15.590735,-37.267887,27.32331,-40.31152,76.77627,-28.362041,-3.9015076,4.4500484,-32.44757,-19.80388,30.678623,81.5604,45.516705,-2.0484138,-1.3335227
198,5.816460132598877,27.978139877319336,72.72132873535156,-1.3796326530511924,-13.027020754499427,-83.68770232574444,-15.748241,13.26313,16.02219,45.675625,-14.836927,-0.6303919,15.645278,-8.706355,-25.458115,34.95371,-36.806202,6.086529,-0.16477542,-3.3428671,15.598167,-37.08653,27.403152,-40.405365,76.88947,-28.726381,-3.9079945,4.12523,-32.504227,-19.779085,30.717276,81.53485,45.285267,-1.9200083,-1.1971852
199,5.713046550750732,28.119680404663086,72.7366943359375,-1.264716392872528,-13.206277760658129,-83.62395852046701,-15.542697,13.117049,16.017782,45.352036,-14.529997,-0.6503649,15.799987,-8.785104,-25.586971,34.88803,-36.819996,6.116547,-0.2728129,-3.515856,15.597911,-36.90745,27.48057,-40.43253,76.984116,-28.979416,-3.880828,3.819461,-32.5551,-19.755178,30.80807,81.5082,45.123043,-1.7650856,-1.0578904
200,5.603222370147705,28.241905212402344,72.76166534423828,-1.2080001421141613,-13.362519501982907,-83.59524832794591,-15.379528,13.066763,16.002764,45.06864,-14.239438,-0.688349,15.9097805,-8.769496,-25.662283,34.80411,-36.79613,6.0866666,-0.35320207,-3.610384,15.589691,-36.788303,27.536867,-40.560867,77.09871,-29.289858,-3.852489,3.6069744,-32.617043,-19.739157,30.90241,81.48304,44.983288,-1.6273979,-0.95726013
201,5.49894380569458,28.370126724243164,72.78714752197266,-1.2336739566196748,-13.489522217788297,-83.61065925634509,-15.273776,13.151307,15.967882,44.83844,-13.9692335,-0.7533089,15.966211,-8.61892,-25.670965,34.681175,-36.716274,5.975019,-0.4032378,-3.6212358,15.580816,-36.688694,27.621084,-40.685524,77.1576,-29.554012,-3.8040671,3.4995613,-32.71297,-19.715115,31.049665,81.464745,44.918255,-1.516531,-0.9093023
202,5.380098342895508,28.49733543395996,72.8152847290039,-1.3147649001389037,-13.60039119403278,-83.6431509730371,-15.202236,13.31884,15.911586,44.64263,-13.71368,-0.8409927,16.009157,-8.375191,-25.649446,34.508842,-36.599056,5.8149447,-0.44401008,-3.5778842,15.568949,-36.595844,27.710718,-40.755127,77.177795,-29.728653,-3.7322009,3.4618669,-32.82352,-19.688192,31.209438,81.44443,44.876637,-1.4066,-0.8917963
203,5.261880397796631,28.632568359375,72.8399887084961,-1.4136309784304146,-13.698770934534911,-83.69143237558391,-15.148339,13.519662,15.856432,44.46395,-13.4665575,-0.93466383,16.026417,-8.1023035,-25.59913,34.340107,-36.47019,5.6327796,-0.46933952,-3.5103812,15.551475,-36.52391,27.79535,-40.84045,77.19669,-29.883718,-3.6615822,3.4867203,-32.940456,-19.662302,31.40407,81.431854,44.89418,-1.3024865,-0.88926506
204,5.138815879821777,28.776042938232422,72.86734771728516,-1.4909638402484966,-13.78843438810572,-83.75539724015114,-15.095665,13.704035,15.826515,44.28664,-13.223128,-1.0170449,16.003078,-7.866909,-25.52323,34.23516,-36.36058,5.457676,-0.4763968,-3.4529564,15.532116,-36.440514,27.868044,-40.823784,77.208374,-29.9112,-3.60861,3.5653386,-33.05171,-19.634966,31.611546,81.42728,44.962082,-1.2084435,-0.88633937
205,5.0210723876953125,28.911479949951172,72.89337921142578,-1.5447814732469047,-13.860351434458074,-83.85393047236616,-15.050707,13.882001,15.836328,44.11138,-12.981001,-1.0868692,15.912723,-7.668756,-25.396961,34.21081,-36.267467,5.287575,-0.45208618,-3.396556,15.50543,-36.345947,27.91409,-40.663616,77.22295,-29.761728,-3.5804598,3.7298312,-33.143955,-19.60631,31.730099,81.41766,44.99558,-1.1213723,-0.89098775
206,4.923201560974121,29.043230056762695,72.91397857666016,-1.5918465518811966,-13.916073556887435,-83.98131564433204,-15.018851,14.072419,15.870849,43.94666,-12.744322,-1.1519114,15.770228,-7.479452,-25.228329,34.240032,-36.182087,5.110891,-0.39728484,-3.3323617,15.470649,-36.25888,27.938475,-40.42845,77.2447,-29.496065,-3.56632,3.9729228,-33.239754,-19.578968,31.887512,81.42163,45.115917,-1.0440279,-0.9060519
207,4.827192306518555,29.174577713012695,72.9314956665039,-1.6269481741701384,-13.97451943545234,-84.09866914546548,-14.9794035,14.237903,15.907313,43.779343,-12.511337,-1.2100025,15.631805,-7.312809,-25.066065,34.2901,-36.111465,4.934821,-0.36373344,-3.2716482,15.436387,-36.14984,27.954578,-40.126568,77.257095,-29.171446,-3.5617306,4.2289085,-33.329407,-19.53383,31.98879,81.43599,45.16669,-0.97315687,-0.9166824
208,4.736752986907959,29.290809631347656,72.95211791992188,-1.638741191718788,-14.054960300455688,-84.16833360822734,-14.91244,14.34102,15.923462,43.598347,-12.281127,-1.2588396,15.551391,-7.185828,-24.958426,34.33199,-36.061504,4.7679696,-0.3343789,-3.2525096,15.416856,-36.061924,27.952093,-39.84977,77.28567,-28.848757,-3.557645,4.4295983,-33.382,-19.490234,32.139725,81.443344,45.26844,-0.9142341,-0.90136176
209,4.648735523223877,29.405799865722656,72.96878814697266,-1.6175058675116596,-14.166842054202672,-84.18379373315233,-14.7977085,14.360469,15.923082,43.390106,-12.050464,-1.2979345,15.548215,-7.115587,-24.91193,34.360672,-36.042007,4.6109796,-0.32999793,-3.282429,15.419154,-35.955814,27.925095,-39.450974,77.31714,-28.408014,-3.5561926,4.5689216,-33.397324,-19.436018,32.28868,81.44107,45.33124,-0.8641994,-0.8412131
210,4.565558910369873,29.502227783203125,72.98612976074219,-1.5690083237018244,-14.29879630891291,-84.16470833399941,-14.652584,14.320328,15.91517,43.168133,-11.823566,-1.3279909,15.588608,-7.092442,-24.90388,34.397274,-36.04754,4.4624443,-0.32684284,-3.3522143,15.439826,-35.839497,27.873142,-38.917297,77.34584,-27.815084,-3.5562344,4.67734,-33.364784,-19.381287,32.392883,81.41272,45.346603,-0.82137597,-0.7504535
211,4.485184192657471,29.59917449951172,72.99397277832031,-1.5174598915486532,-14.437328220604353,-84.1100286377377,-14.506531,14.250491,15.884325,42.94539,-11.600265,-1.3500854,15.655305,-7.082801,-24.933535,34.427906,-36.058308,4.3211665,-0.3587432,-3.4208028,15.453305,-35.75561,27.810673,-38.587166,77.405235,-27.42873,-3.5664997,4.750941,-33.332005,-19.312294,32.5233,81.41868,45.372295,-0.7901016,-0.6660059
212,4.404913902282715,29.694875717163086,73.00077056884766,-1.4861593227303675,-14.568904646189099,-84.01876832740653,-14.390788,14.179889,15.816639,42.738556,-11.383368,-1.3645873,15.728251,-7.058455,-25.002834,34.447926,-36.05672,4.1894703,-0.39882725,-3.4877353,15.464181,-35.678272,27.748648,-38.29438,77.426,-27.0575,-3.5627608,4.774507,-33.260746,-19.250265,32.58945,81.41084,45.38488,-0.7693779,-0.6210289
213,4.325252532958984,29.78343963623047,73.0074462890625,-1.4798125408219167,-14.698497459167202,-83.8805344845437,-14.303506,14.107405,15.7051325,42.548855,-11.176884,-1.3648047,15.818786,-7.01405,-25.12185,34.448654,-36.03312,4.0686207,-0.48345074,-3.5252457,15.459111,-35.667553,27.71289,-38.5156,77.45563,-27.197363,-3.5605714,4.740242,-33.171757,-19.182611,32.603596,81.42554,45.354813,-0.75758725,-0.63592255
214,4.239584922790527,29.876750946044922,73.01146697998047,-1.4866889375855605,-14.830170579210945,-83.69888035308432,-14.230512,14.019204,15.559258,42.36734,-10.97773,-1.3526537,15.931029,-6.965873,-25.286564,34.437523,-36.00034,3.9580283,-0.5771522,-3.5716715,15.46072,-35.653374,27.69149,-38.781776,77.42788,-27.360163,-3.5414038,4.6490192,-33.04788,-19.130028,32.638397,81.42451,45.387836,-0.7563978,-0.6849843
215,4.152867794036865,29.973539352416992,73.01422119140625,-1.5048299098006817,-14.950097372406212,-83.49444965153977,-14.186947,13.930446,15.386834,42.19903,-10.779792,-1.3418032,16.03852,-6.909017,-25.477615,34.423782,-35.96483,3.854406,-0.6866168,-3.6150837,15.448937,-35.683384,27.6835,-39.270588,77.41957,-27.737217,-3.5300636,4.5321646,-32.908752,-19.065073,32.590683,81.435814,45.36651,-0.76723826,-0.7473097
216,4.066385746002197,30.066865921020508,73.01427459716797,-1.5353375772139939,-15.044116135288172,-83.28752134220947,-14.187545,13.855075,15.195983,42.04836,-10.576587,-1.3458921,16.113352,-6.8409753,-25.675503,34.42049,-35.936256,3.7547572,-0.804614,-3.6531346,15.430011,-35.69747,27.681993,-39.620274,77.38937,-27.98967,-3.5256345,4.413536,-32.763897,-19.01167,32.480278,81.434326,45.322227,-0.78743106,-0.797417
217,3.97178053855896,30.158233642578125,73.0138168334961,-1.5815542344275824,-15.102380215642789,-83.06710138116188,-14.2512455,13.789807,14.970705,41.919872,-10.363245,-1.3695492,16.147114,-6.7595606,-25.892797,34.429916,-35.916092,3.660791,-0.9519452,-3.6776106,15.393096,-35.70185,27.687187,-39.87164,77.35239,-28.172356,-3.538672,4.282398,-32.623104,-18.97386,32.338383,81.42981,45.296043,-0.825987,-0.83274573
218,3.8754794597625732,30.25386619567871,73.01103973388672,-1.6408151059593368,-15.13465685307119,-82.82799931592113,-14.36452,13.728035,14.713381,41.80908,-10.144021,-1.4051784,16.154087,-6.6681266,-26.133715,34.447613,-35.900333,3.5734534,-1.1039399,-3.710074,15.340247,-35.7315,27.701462,-40.14716,77.32417,-28.366743,-3.5605805,4.129838,-32.468826,-18.930338,32.127777,81.42894,45.26652,-0.88496387,-0.8651909
219,3.7826578617095947,30.357254028320312,73.00142669677734,-1.7059229957999507,-15.154978747792477,-82.5988549099744,-14.495141,13.683231,14.456945,41.709244,-9.926509,-1.4482584,16.143204,-6.566071,-26.367155,34.46649,-35.885105,3.4880166,-1.2710745,-3.7174635,15.287575,-35.746685,27.72112,-40.383778,77.2751,-28.552786,-3.5881164,3.9910965,-32.3214,-18.901196,31.899086,81.42334,45.203995,-0.93825674,-0.8916589
220,3.683889627456665,30.45366096496582,72.99980926513672,-1.7712671050086097,-15.178311924699797,-82.4082266726073,-14.6099615,13.666273,14.235688,41.6126,-9.717964,-1.4941062,16.12209,-6.456771,-26.562006,34.484104,-35.870403,3.4004722,-1.3817058,-3.730855,15.2503395,-35.796764,27.749739,-40.67282,77.224724,-28.756235,-3.6081114,3.896644,-32.175423,-18.876003,31.71572,81.41908,45.183216,-0.9770379,-0.9063731
221,3.5835771560668945,30.551015853881836,72.99959564208984,-1.838371002939096,-15.205287320976131,-82.26559072020177,-14.70755,13.691837,14.056778,41.52402,-9.523122,-1.5434498,16.091402,-6.3307433,-26.709646,34.491753,-35.85219,3.3115563,-1.4432886,-3.73393,15.229873,-35.832623,27.769455,-40.81165,77.14018,-28.800495,-3.6185908,3.8628018,-32.048866,-18.865469,31.668997,81.43166,45.26947,-0.9961094,-0.9072034
222,3.4851231575012207,30.645612716674805,72.99581146240234,-1.910796210818227,-15.229116630619796,-82.15509357455953,-14.803056,13.750525,13.902477,41.44526,-9.337166,-1.5981745,16.047054,-6.189881,-26.826704,34.49399,-35.832672,3.223079,-1.490114,-3.7150857,15.214572,-35.872135,27.788708,-40.94915,77.046074,-28.855581,-3.6319795,3.8719392,-31.931423,-18.861252,31.620089,81.45378,45.319542,-0.9994313,-0.89925313
223,3.387845039367676,30.747953414916992,72.9880142211914,-1.9766183687195187,-15.253693098403108,-82.06742481861403,-14.890263,13.818604,13.768348,41.36595,-9.154244,-1.6554192,15.990814,-6.053351,-26.920382,34.505768,-35.81601,3.1314683,-1.4991121,-3.7042847,15.21449,-35.933468,27.805214,-41.062164,76.95543,-28.855358,-3.6370952,3.9012344,-31.8302,-18.862867,31.651058,81.479355,45.457916,-0.9977792,-0.88128453
224,3.2936956882476807,30.861082077026367,72.97805786132812,-2.027898646611204,-15.282339325249199,-81.99314557094677,-14.963156,13.873676,13.649894,41.275528,-8.968329,-1.7122413,15.922564,-5.9396987,-26.997892,34.545612,-35.809334,3.0335493,-1.4916786,-3.7077765,15.230896,-36.00329,27.831717,-41.16253,76.86438,-28.823694,-3.6277637,3.929616,-31.729,-18.865608,31.65595,81.468605,45.571957,-0.98695964,-0.8569544
225,3.200150728225708,30.959081649780273,72.974853515625,-2.0630064670991444,-15.317802344801375,-81.93578955045507,-15.018204,13.915762,13.546219,41.17309,-8.778893,-1.7725611,15.844573,-5.8467693,-27.053389,34.610764,-35.81062,2.9233463,-1.4682599,-3.7172449,15.272865,-36.073574,27.84626,-41.144333,76.77521,-28.649107,-3.5997276,3.959413,-31.655972,-18.863653,31.649029,81.43668,45.66148,-0.96105814,-0.8204941
226,3.1094961166381836,31.068193435668945,72.96855163574219,-2.0872716899323795,-15.35753427240865,-81.89790029251634,-15.060028,13.954948,13.459787,41.06521,-8.5905,-1.83592,15.754626,-5.7693877,-27.087225,34.69917,-35.819656,2.8064568,-1.4235039,-3.732487,15.334288,-36.15615,27.861708,-41.103012,76.686,-28.42796,-3.5573123,4.000492,-31.615957,-18.857828,31.702618,81.404205,45.801636,-0.9247019,-0.7726204
227,3.021632671356201,31.177919387817383,72.95954132080078,-2.096961344759955,-15.39831666247214,-81.87091827767827,-15.092164,13.984851,13.390725,40.948868,-8.399424,-1.8944618,15.65351,-5.7119613,-27.110046,34.809566,-35.83648,2.688938,-1.3838408,-3.7532856,15.401352,-36.243378,27.877373,-41.052418,76.6182,-28.207064,-3.5151467,4.0418253,-31.582048,-18.845335,31.729338,81.363335,45.90595,-0.89140016,-0.7282839
228,2.9397449493408203,31.285276412963867,72.95214080810547,-2.092895821485527,-15.436455169165546,-81.84405887105187,-15.119774,13.997555,13.338577,40.823715,-8.204513,-1.9394487,15.539226,-5.683432,-27.135538,34.950027,-35.862507,2.5797963,-1.3597292,-3.7839284,15.464762,-36.3212,27.896404,-41.005386,76.567665,-28.016058,-3.4822328,4.0778,-31.554434,-18.82547,31.754507,81.33877,46.01822,-0.8815952,-0.6979832
229,2.8608970642089844,31.398101806640625,72.94364166259766,-2.066682976661713,-15.471552471202594,-81.81926950344639,-15.141727,13.986777,13.310907,40.688095,-8.00186,-1.9661292,15.404419,-5.696218,-27.162989,35.136215,-35.903233,2.4797606,-1.3498518,-3.8432436,15.527472,-36.377083,27.923058,-40.86505,76.52956,-27.757246,-3.456592,4.1037126,-31.519838,-18.786537,31.73905,81.31947,46.121765,-0.90931475,-0.6918767
230,2.783982515335083,31.510478973388672,72.92980194091797,-2.0224270009487966,-15.505153726030596,-81.80024800323665,-15.157831,13.958675,13.305537,40.54593,-7.7956624,-1.9792591,15.2511425,-5.744445,-27.188677,35.363857,-35.95689,2.387831,-1.340936,-3.9123979,15.591132,-36.465298,27.944311,-40.818573,76.54185,-27.59899,-3.44214,4.1263456,-31.469477,-18.753925,31.690048,81.284775,46.214252,-0.95752704,-0.7012677
231,2.705477476119995,31.614091873168945,72.92083740234375,-1.9705439276654837,-15.537756702638479,-81.78204241205395,-15.168516,13.922428,13.308669,40.394936,-7.5890465,-1.9865745,15.095661,-5.8031774,-27.213364,35.59685,-36.013016,2.2995899,-1.3410325,-3.9969826,15.650369,-36.546204,27.980337,-40.784748,76.56421,-27.46814,-3.4300375,4.143018,-31.439192,-18.697388,31.658606,81.2801,46.314407,-1.015447,-0.7122352
232,2.628753423690796,31.719356536865234,72.91394805908203,-1.9278791454508604,-15.568688215164373,-81.75878971464122,-15.176049,13.888915,13.306168,40.236935,-7.3882375,-1.995128,14.952443,-5.8490295,-27.240633,35.803658,-36.06068,2.2150505,-1.347248,-4.0668726,15.703488,-36.62085,28.0011,-40.75427,76.59943,-27.360476,-3.4211514,4.1531334,-31.400038,-18.663176,31.635279,81.26131,46.38709,-1.0535598,-0.71169025
233,2.5595898628234863,31.820589065551758,72.90975952148438,-1.890521401863048,-15.60020449156642,-81.72959380043905,-15.177278,13.856885,13.299078,40.070343,-7.197657,-2.004835,14.823692,-5.8830795,-27.270212,35.9855,-36.10008,2.1350427,-1.3789362,-4.124071,15.748118,-36.68881,28.02995,-40.80853,76.64813,-27.38626,-3.419532,4.153038,-31.376865,-18.622911,31.591604,81.26206,46.368668,-1.0713564,-0.69752854
234,2.486213207244873,31.921300888061523,72.90623474121094,-1.8530836624230818,-15.631660218988358,-81.6972442271916,-15.171165,13.821583,13.2937155,39.892597,-7.011979,-2.0124254,14.702647,-5.915025,-27.300999,36.15483,-36.13652,2.0601645,-1.4110919,-4.1831574,15.79113,-36.750057,28.050724,-40.83776,76.708084,-27.406008,-3.4195335,4.143083,-31.353794,-18.59546,31.58582,81.26068,46.362747,-1.079472,-0.6749371
235,2.416985034942627,32.02292251586914,72.8976821899414,-1.8230388493467822,-15.659217367669108,-81.66218276149915,-15.16821,13.789421,13.282794,39.71477,-6.828077,-2.0203524,14.587784,-5.9373116,-27.334702,36.30442,-36.164726,1.9875017,-1.4609234,-4.240297,15.819431,-36.81142,28.098864,-40.999153,76.77477,-27.566261,-3.4232607,4.1325035,-31.349497,-18.542978,31.574596,81.28916,46.325813,-1.0832345,-0.6471686
236,2.3439905643463135,32.11993408203125,72.89260864257812,-1.8038987422172896,-15.678992909662075,-81.62506123536158,-15.1785,13.767633,13.258524,39.545685,-6.641561,-2.0312266,14.478754,-5.9406176,-27.373436,36.424225,-36.18021,1.9143196,-1.504104,-4.283641,15.837894,-36.839424,28.120565,-41.005898,76.82565,-27.540823,-3.4200988,4.1286936,-31.324404,-18.51674,31.566872,81.28798,46.311497,-1.076527,-0.61551905
237,2.273237466812134,32.2069091796875,72.89083099365234,-1.801661059981908,-15.689195626026569,-81.58472724204546,-15.207704,13.76048,13.215894,39.391285,-6.451844,-2.0453897,14.376936,-5.917736,-27.419918,36.506126,-36.179222,1.8399009,-1.5608327,-4.307239,15.833991,-36.866047,28.148834,-41.11882,76.88686,-27.585897,-3.4192395,4.139036,-31.30247,-18.487373,31.539719,81.292,46.279194,-1.0542171,-0.57734084
238,2.200803279876709,32.299686431884766,72.89142608642578,-1.8100185863530316,-15.692127205658117,-81.5413862788932,-15.249235,13.763163,13.159917,39.24473,-6.260335,-2.0616412,14.282619,-5.8752356,-27.472523,36.55644,-36.165318,1.7657542,-1.6156819,-4.3239846,15.814747,-36.891636,28.176628,-41.27255,76.95564,-27.636812,-3.4169703,4.156403,-31.276493,-18.461153,31.518225,81.29399,46.261604,-1.0198468,-0.53195244
