unveil-humanoid-operators/unveil-humanoid-operators.github.io/feature-analysis-animation/data/feature_matrix_instances/age_waist_rom_jogging_A093_jog_ff_loop_315_004__A093.csv
Frame,root_translateX,root_translateY,root_translateZ,root_rotateX,root_rotateY,root_rotateZ,left_hip_pitch_joint_dof,left_hip_roll_joint_dof,left_hip_yaw_joint_dof,left_knee_joint_dof,left_ankle_pitch_joint_dof,left_ankle_roll_joint_dof,right_hip_pitch_joint_dof,right_hip_roll_joint_dof,right_hip_yaw_joint_dof,right_knee_joint_dof,right_ankle_pitch_joint_dof,right_ankle_roll_joint_dof,waist_yaw_joint_dof,waist_roll_joint_dof,waist_pitch_joint_dof,left_shoulder_pitch_joint_dof,left_shoulder_roll_joint_dof,left_shoulder_yaw_joint_dof,left_elbow_joint_dof,left_wrist_roll_joint_dof,left_wrist_pitch_joint_dof,left_wrist_yaw_joint_dof,right_shoulder_pitch_joint_dof,right_shoulder_roll_joint_dof,right_shoulder_yaw_joint_dof,right_elbow_joint_dof,right_wrist_roll_joint_dof,right_wrist_pitch_joint_dof,right_wrist_yaw_joint_dof
0,-0.4386270344257355,-2.125643253326416,71.49987030029297,-0.6871243907534165,0.026213965959899572,87.07606704209395,-38.828873,-9.460785,-14.605083,82.83701,-20.371752,-6.8553705,-14.473406,-6.7189264,-20.872513,55.31918,-37.256897,0.10467191,-2.1245654,5.9656887,14.721198,-32.489193,13.243962,-32.310596,-37.32627,-7.3609967,0.18027097,-1.2908206,0.80608934,-23.156422,19.866392,37.56917,4.9425707,-0.29454526,-9.8308115
1,-1.0755213499069214,-2.7400283813476562,71.29793548583984,-0.603123009840066,-0.11335015913866706,87.36330999476954,-37.621277,-9.251961,-15.9987135,84.82962,-21.12435,-7.0352736,-15.250199,-7.673866,-20.825401,56.257114,-37.41001,0.4736307,-2.4498806,5.9144344,14.5260935,-33.599686,13.249414,-32.109737,-37.739468,-7.1981654,0.13380004,-1.4789973,2.6164098,-23.254238,19.23671,38.7751,5.3740606,-0.7489692,-9.973304
2,-1.7119516134262085,-3.342909336090088,71.1212387084961,-0.5155229668019368,-0.26293166600715373,87.64800947081922,-36.37867,-9.058465,-17.400454,86.86565,-21.8992,-7.273369,-16.031775,-8.63492,-20.763868,57.226288,-37.59637,0.84058815,-2.7472732,5.8860726,14.359249,-34.69674,13.268083,-31.928715,-38.22289,-7.054764,0.08523019,-1.662797,4.542006,-23.40286,18.541275,39.900517,5.868909,-1.1971958,-10.090445
3,-2.347555637359619,-3.9392669200897217,70.97244262695312,-0.4327908191925123,-0.3969285561385132,87.9301925788747,-35.10612,-8.758856,-18.729961,88.7469,-22.652916,-7.427466,-16.801306,-9.577302,-20.681341,58.11296,-37.704887,1.2082605,-3.0531244,5.8639693,14.1824875,-35.77304,13.298825,-31.74826,-38.698635,-6.880244,0.03037552,-1.8359913,6.488622,-23.57633,17.867048,40.870564,6.2804666,-1.6413875,-10.208832
4,-2.9857306480407715,-4.52199649810791,70.86154174804688,-0.3678778404670435,-0.4896348586555159,88.21004625108081,-33.825954,-8.230192,-19.915133,90.276955,-23.335207,-7.351538,-17.54249,-10.474597,-20.572168,58.802525,-37.622616,1.5795138,-3.3876097,5.836402,13.965415,-36.822765,13.345984,-31.567554,-39.10436,-6.6234646,-0.036341142,-1.9860462,8.391004,-23.759449,17.272673,41.575806,6.458355,-2.08254,-10.352961
5,-3.63236665725708,-5.103883743286133,70.79086303710938,-0.3258901100696978,-0.5315406587672745,88.4938586665521,-32.56225,-7.3881454,-20.932613,91.43433,-23.95856,-6.9675303,-18.268284,-11.317924,-20.437265,59.294556,-37.32807,1.9484992,-3.7552314,5.8015866,13.693901,-37.873226,13.416993,-31.381733,-39.41944,-6.2215304,-0.11877565,-2.11387,10.246949,-23.945318,16.7827,41.98828,6.239918,-2.5201824,-10.568527
6,-4.290428638458252,-5.67524528503418,70.76456451416016,-0.3031449820278812,-0.5370730056565994,88.78000889793199,-31.322487,-6.314488,-21.830505,92.31542,-24.53663,-6.363039,-18.983242,-12.1186285,-20.280685,59.640083,-36.87753,2.3150635,-4.152319,5.762926,13.38504,-38.91171,13.515918,-31.190222,-39.680553,-5.7179685,-0.21307565,-2.2241538,12.05847,-24.128275,16.374647,42.19774,5.740719,-2.9535615,-10.83828
7,-4.962750434875488,-6.247044563293457,70.77888488769531,-0.28931755825335975,-0.5162253914669475,89.05708384737811,-30.112629,-5.1397247,-22.643887,92.910095,-25.021063,-5.6373754,-19.661127,-12.879045,-20.102972,59.807716,-36.281944,2.6901472,-4.580122,5.718483,13.056571,-39.8779,13.642085,-31.000353,-39.918423,-5.22559,-0.31295505,-2.3097055,13.774438,-24.304693,16.027206,42.262367,5.2263694,-3.3849964,-11.090346
8,-5.6444830894470215,-6.812893390655518,70.83707427978516,-0.2763590912841524,-0.47891271866115814,89.31382731517402,-28.929562,-3.9974067,-23.403814,93.20662,-25.360136,-4.889051,-20.274902,-13.602971,-19.904833,59.763973,-35.554386,3.0850916,-5.0382276,5.663515,12.724573,-40.716316,13.791231,-30.820045,-40.15354,-4.8571973,-0.4114239,-2.364142,15.346669,-24.4738,15.717382,42.238293,4.9629426,-3.8201113,-11.2487335
9,-6.341684818267822,-7.37686824798584,70.9405746459961,-0.2627313187855392,-0.4243847893503086,89.5502287055635,-27.77576,-2.8287184,-24.074425,93.19013,-25.571026,-4.119582,-20.827276,-14.283563,-19.674767,59.51297,-34.702072,3.5022,-5.531658,5.590052,12.381537,-41.438435,13.960844,-30.645332,-40.377243,-4.6709523,-0.50392026,-2.3711548,16.779114,-24.63725,15.461932,42.115967,5.0637283,-4.2838116,-11.27131
10,-7.048585414886475,-7.9252400398254395,71.09122467041016,-0.25435599469791487,-0.34825701660904196,89.77178197645175,-26.656555,-1.6028974,-24.649843,92.87894,-25.675217,-3.2843742,-21.33085,-14.919347,-19.417418,59.068485,-33.71736,3.9355829,-6.0568585,5.503711,12.021717,-42.069782,14.150335,-30.475353,-40.579357,-4.5970154,-0.5942774,-2.339658,18.090807,-24.797934,15.26368,41.876003,5.373245,-4.7666984,-11.202482
11,-7.767514705657959,-8.469562530517578,71.29216766357422,-0.24308838723626722,-0.2545169331554354,89.9760098958971,-25.562857,-0.4932155,-25.202787,92.30956,-25.620531,-2.407605,-21.772058,-15.523882,-19.157345,58.411537,-32.58766,4.3848085,-6.600218,5.420444,11.663904,-42.57751,14.355201,-30.321087,-40.773678,-4.5564528,-0.68774396,-2.3011715,19.2643,-24.95692,15.075129,41.551666,5.75492,-5.223846,-11.093919
12,-8.50921630859375,-9.011927604675293,71.53749084472656,-0.22441577851856845,-0.14681101564716037,90.16049792273103,-24.483086,0.3309386,-25.807253,91.521904,-25.35189,-1.5084245,-22.135914,-16.112274,-18.917778,57.52257,-31.300808,4.850052,-7.1458354,5.3566923,11.327053,-42.93204,14.567258,-30.19315,-40.97217,-4.4711046,-0.7897194,-2.286932,20.285826,-25.112919,14.845231,41.17365,6.071182,-5.6112027,-10.999736
13,-9.266243934631348,-9.567824363708496,71.82564544677734,-0.20220203881241555,-0.031485597398209206,90.32955131663216,-23.409548,0.8532517,-26.480154,90.514,-24.79932,-0.48319033,-22.415787,-16.692795,-18.70299,56.419186,-29.864174,5.330528,-7.6981626,5.315024,11.0178,-43.14,14.777784,-30.09915,-41.174576,-4.3741503,-0.8984269,-2.3028927,21.166357,-25.266012,14.560634,40.7182,6.315671,-5.910339,-10.927151
14,-10.060578346252441,-10.123844146728516,72.15389251708984,-0.17802764382731717,0.0960745783305542,90.48351086228642,-22.347094,1.1603098,-27.180347,89.28029,-24.00788,0.654605,-22.61854,-17.259674,-18.496912,55.1046,-28.283115,5.8278427,-8.257118,5.287742,10.724588,-43.224052,14.98101,-30.03345,-41.36308,-4.2888713,-1.0117561,-2.3340874,21.917093,-25.417063,14.239976,40.173805,6.55081,-6.147015,-10.850376
15,-10.888251304626465,-10.681968688964844,72.5162124633789,-0.13904178567650446,0.249433717440271,90.61335074673302,-21.300674,1.2407452,-27.90754,87.858086,-23.097458,1.7075869,-22.752718,-17.804644,-18.291796,53.54555,-26.546633,6.345438,-8.801073,5.278082,10.439384,-43.178246,15.172807,-29.988022,-41.524414,-4.119056,-1.1348687,-2.3798409,22.522305,-25.563845,13.882112,39.590343,6.740981,-6.3439145,-10.776035
16,-11.747441291809082,-11.24994945526123,72.91595458984375,-0.07427780294745917,0.4419046316735104,90.71006216932855,-20.270761,1.0772119,-28.671452,86.27733,-22.188139,2.4724727,-22.82497,-18.318264,-18.080276,51.70325,-24.64298,6.88675,-9.307592,5.2880015,10.154125,-42.99701,15.3503,-29.955433,-41.64428,-3.7696257,-1.2729286,-2.438446,22.964775,-25.70249,13.485826,39.019264,6.849494,-6.5240684,-10.710955
17,-12.631095886230469,-11.828165054321289,73.34440612792969,0.02271830656960282,0.676264047198446,90.79632110669611,-19.223732,0.56549233,-29.566658,84.50727,-21.30287,2.8990576,-22.820408,-18.811848,-17.889618,49.552353,-22.579939,7.449021,-9.799208,5.3164177,9.865297,-42.666695,15.5099,-29.945917,-41.727657,-3.1454322,-1.4328551,-2.5228693,23.240915,-25.829712,13.018912,38.470055,6.836138,-6.6885734,-10.670107
18,-13.53603458404541,-12.410243034362793,73.79657745361328,0.14327435651531242,0.946152059485436,90.8686839599541,-18.161102,-0.24353975,-30.586296,82.54684,-20.382683,3.0973437,-22.736795,-19.292978,-17.704731,47.122013,-20.367752,8.030837,-10.2741995,5.3625326,9.576971,-42.20398,15.648073,-29.964325,-41.76898,-2.320566,-1.6109769,-2.6279387,23.360245,-25.94472,12.489996,37.917675,6.7288294,-6.82735,-10.646435
19,-14.45645809173584,-13.00503921508789,74.26876068115234,0.27686934147554654,1.2512446819823784,90.87895260390277,-17.134386,-1.1446322,-31.58582,80.45465,-19.433765,3.0965626,-22.608097,-19.736803,-17.45633,44.456085,-17.985682,8.638905,-10.676605,5.425852,9.292541,-41.645027,15.763854,-29.995327,-41.73997,-1.4526336,-1.7964886,-2.7252958,23.322006,-26.048876,11.964491,37.366123,6.594746,-6.946877,-10.614165
20,-15.394279479980469,-13.60962963104248,74.75222778320312,0.4135713835876721,1.5909336172529212,90.77978278899744,-16.203121,-1.9448843,-32.405277,78.28561,-18.459705,2.92115,-22.475574,-20.103817,-17.079718,41.593105,-15.404929,9.283429,-10.952973,5.502296,9.01493,-41.021965,15.859801,-30.020851,-41.615246,-0.700285,-1.9771678,-2.788131,23.122131,-26.14667,11.510889,36.821136,6.5017824,-7.053848,-10.547723
21,-16.34436798095703,-14.233083724975586,75.23590087890625,0.5404839985097929,1.9867543819535423,90.57511182110736,-15.381004,-2.6694207,-33.07054,76.00541,-17.449978,2.4324462,-22.29563,-20.348799,-16.623074,38.303196,-12.316623,10.007153,-11.105414,5.613214,8.736287,-40.31108,15.936626,-30.044603,-41.398727,-0.060305476,-2.1628525,-2.796593,22.737215,-26.240896,11.122321,36.31216,6.4958754,-7.1541133,-10.446018
22,-17.295255661010742,-14.86800765991211,75.71047973632812,0.6665275018128779,2.432034519046159,90.28542938240987,-14.63593,-3.4042258,-33.65013,73.587746,-16.40853,1.662266,-22.075111,-20.467228,-16.092916,34.635674,-8.82226,10.797728,-11.160064,5.7482357,8.457561,-39.504314,15.994536,-30.073496,-41.1003,0.5368274,-2.3549876,-2.7693436,22.174685,-26.332825,10.77509,35.827133,6.532875,-7.2426963,-10.320805
23,-18.25373077392578,-15.51661205291748,76.15897369384766,0.8121761997599444,2.883855732856464,89.88938001851507,-13.965823,-4.0629573,-34.0274,71.102066,-15.354115,0.886285,-21.9212,-20.489006,-15.378365,31.029646,-5.50109,11.582249,-11.102021,5.8520784,8.194457,-38.650414,16.039173,-30.090143,-40.716457,1.0310212,-2.5285754,-2.7390673,21.477526,-26.427702,10.5115595,35.30825,6.544195,-7.3095236,-10.165743
24,-19.212303161621094,-16.17974853515625,76.55937194824219,1.0005711195126827,3.2984776669505043,89.36631480720348,-13.370044,-4.565277,-34.073837,68.62268,-14.3015585,0.37829787,-21.922365,-20.476372,-14.387224,27.910265,-2.930208,12.284554,-10.923404,5.869366,7.9632897,-37.78711,16.082129,-30.068623,-40.25214,1.3615047,-2.6589596,-2.7393398,20.684118,-26.532211,10.381807,34.699818,6.464018,-7.344665,-9.974889
25,-20.16185760498047,-16.846370697021484,76.8910140991211,1.275522773867795,3.6759463060656046,88.68412083936336,-12.867091,-4.9135437,-33.669888,66.14279,-13.09235,0.2541104,-22.063364,-20.439259,-12.931692,25.11661,-1.1684289,12.995359,-10.610356,5.7456594,7.757007,-36.878883,16.132025,-30.00265,-39.723476,1.4904143,-2.7243567,-2.7918327,19.775446,-26.65352,10.421191,34.01619,6.234748,-7.345475,-9.726208
26,-21.108654022216797,-17.525554656982422,77.16487884521484,1.6211155683623941,4.032961538383452,87.86778788073597,-12.439451,-5.1635895,-32.892082,63.62952,-11.7715645,0.34549773,-22.263275,-20.364992,-11.145536,22.446745,0.093132205,13.720866,-10.187355,5.5139194,7.577008,-35.899757,16.195879,-29.890907,-39.143753,1.4553822,-2.742867,-2.8752198,18.734102,-26.791931,10.608745,33.27761,5.9094896,-7.317591,-9.42879
27,-22.046903610229492,-18.203292846679688,77.37316131591797,1.9580169461731973,4.35237523930408,86.97841444369308,-12.035401,-5.312139,-31.907373,61.12413,-10.65965,0.49647474,-22.551353,-20.301882,-9.423378,20.333464,0.7975266,14.251143,-9.70056,5.2545896,7.451235,-34.898186,16.284843,-29.718967,-38.517284,1.3114144,-2.7499814,-2.9563177,17.598242,-26.944042,10.908063,32.437885,5.5846515,-7.2631116,-9.123781
28,-22.98956298828125,-18.87880516052246,77.50120544433594,2.2015158744234054,4.623064848627836,86.06806615453323,-11.61215,-5.3433843,-30.894693,58.66458,-10.0736885,0.5484447,-23.014154,-20.281334,-8.143452,19.290255,0.8443767,14.370845,-9.188566,5.0630474,7.401411,-33.916233,16.410048,-29.475822,-37.85932,1.1173668,-2.7820647,-2.9997256,16.404009,-27.105888,11.282915,31.450363,5.355214,-7.1830177,-8.852693
29,-23.928192138671875,-19.574665069580078,77.57193756103516,2.3171371246751464,4.8406159214828905,85.09606095883903,-11.098075,-5.1936083,-29.867777,56.101425,-10.088916,0.42791298,-23.766808,-20.254349,-7.248524,19.587164,-0.045171753,13.968107,-8.620374,4.9728575,7.434932,-32.959484,16.582495,-29.147718,-37.186447,0.8081746,-2.8218133,-2.9967778,15.153889,-27.276371,11.743709,30.291706,5.232864,-7.0712476,-8.635323
30,-24.871055603027344,-20.287826538085938,77.585693359375,2.3482599692514814,5.014984138005088,84.04412849265591,-10.528014,-4.8894534,-28.740953,53.45522,-10.532326,0.22000952,-24.77754,-20.214323,-6.5604324,20.972536,-1.7732322,13.172863,-7.9889464,4.9436617,7.5368886,-31.980553,16.807346,-28.7358,-36.517014,0.3770561,-2.8596704,-2.9624796,13.827423,-27.45301,12.312237,28.986458,5.1721163,-6.9280148,-8.446433
31,-25.812091827392578,-21.0145263671875,77.54427337646484,2.3176131829710998,5.157272603677012,82.99601994531895,-10.031703,-4.542174,-27.549397,51.02134,-11.336412,0.00604732,-25.915813,-20.268663,-6.269039,23.17225,-3.8781369,12.129557,-7.3612404,4.960763,7.6901917,-30.952507,17.081371,-28.257896,-35.845238,-0.030342216,-2.9446867,-2.8971379,12.425109,-27.630653,12.963169,27.561323,5.180598,-6.7632074,-8.26091
32,-26.747407913208008,-21.74895477294922,77.45314025878906,2.2523669447363694,5.27688109091053,82.03891417113518,-9.744009,-4.260977,-26.331541,49.102036,-12.438403,-0.1310149,-27.031088,-20.55528,-6.5829525,25.889147,-5.8971367,10.974931,-6.800642,5.0052876,7.8790426,-29.864735,17.39411,-27.736683,-35.15094,-0.27095026,-3.1254632,-2.802924,10.956816,-27.801445,13.661398,26.037605,5.264564,-6.5865984,-8.053466
33,-27.686664581298828,-22.497844696044922,77.31831359863281,2.1358486078863965,5.373766171533589,81.18457035479605,-9.710989,-4.0212936,-25.059425,47.809063,-13.988155,-0.14620739,-28.063953,-21.231106,-7.8371096,29.171364,-7.7769938,9.649013,-6.3082037,5.0911717,8.107224,-28.737213,17.732592,-27.181025,-34.40726,-0.2592236,-3.4548044,-2.661679,9.43023,-27.96495,14.400227,24.3928,5.467122,-6.390656,-7.8165226
34,-28.624317169189453,-23.267881393432617,77.1342544555664,1.974619819271796,5.433843773630562,80.39697187247825,-9.851597,-3.7909758,-23.72792,46.969753,-15.961452,-0.09616848,-29.00735,-22.284855,-9.809178,33.065395,-9.75921,8.072966,-5.8560996,5.2081704,8.382611,-27.5768,18.089203,-26.587618,-33.6149,-0.08028561,-3.8929586,-2.4783378,7.8509946,-28.119675,15.187865,22.615803,5.770319,-6.17262,-7.5646586
35,-29.563304901123047,-24.04846954345703,76.90373992919922,1.827328657913462,5.450467657732799,79.6909288073326,-10.122414,-3.6539,-22.412476,46.465405,-18.039991,-0.043162055,-29.814266,-23.572838,-11.895226,37.293346,-11.808833,6.3598404,-5.4562864,5.303932,8.693458,-26.371592,18.463522,-25.963087,-32.78226,0.14219616,-4.349446,-2.2909613,6.2304006,-28.253698,16.002575,20.742159,6.084649,-5.948689,-7.306685
36,-30.488067626953125,-24.840007781982422,76.63079833984375,1.7469984110358792,5.422698983554844,79.07846669185908,-10.489036,-3.6867268,-21.183691,46.178894,-19.906631,-0.0423451,-30.509916,-24.874744,-13.500313,41.604694,-13.853906,4.655827,-5.128303,5.3237414,9.032719,-25.07221,18.84794,-25.335106,-31.946411,0.3315284,-4.734829,-2.131941,4.5593367,-28.35223,16.833073,18.819223,6.3170066,-5.7381744,-7.0501647
37,-31.40581512451172,-25.63970375061035,76.31804656982422,1.733192465148331,5.354582942960495,78.57636835082977,-10.986497,-3.884364,-20.017908,46.146915,-21.528584,-0.11515051,-31.172117,-26.161816,-14.583911,46.119804,-15.911189,2.8624918,-4.8732967,5.2642126,9.393777,-23.716005,19.243282,-24.697702,-31.085445,0.487082,-5.019126,-2.0181532,2.836366,-28.407757,17.669977,16.839842,6.4130936,-5.5450897,-6.797319
38,-32.319114685058594,-26.44153594970703,75.97134399414062,1.7624542598908974,5.247261381337439,78.17384754878195,-11.634783,-4.203637,-18.886793,46.425377,-23.066587,-0.21903726,-31.767057,-27.492535,-15.427442,50.896828,-17.976492,0.96028507,-4.683599,5.144031,9.782552,-22.298084,19.644478,-24.056232,-30.19455,0.66939807,-5.2518997,-1.9263766,1.059004,-28.419533,18.518856,14.792775,6.427541,-5.3616967,-6.543664
39,-33.227169036865234,-27.229759216308594,75.5969467163086,1.84589788408022,5.100241623054645,77.83823345166917,-12.379073,-4.660424,-17.853016,46.921955,-24.49324,-0.31075498,-32.236794,-28.712963,-15.942415,55.639828,-19.917063,-0.7533588,-4.526126,4.959225,10.190776,-20.82125,20.050962,-23.42155,-29.247923,0.78080094,-5.463113,-1.846612,-0.7485852,-28.380358,19.359007,12.715133,6.4308743,-5.1897697,-6.288436
40,-34.13398742675781,-28.006053924560547,75.19363403320312,1.9939286804676526,4.914247336827304,77.53545489706319,-13.162422,-5.2728167,-16.980478,47.539917,-25.779137,-0.34939757,-32.544983,-29.675941,-16.055355,60.08173,-21.606003,-1.9748238,-4.3700404,4.704398,10.613135,-19.267277,20.458601,-22.813171,-28.238754,0.7458368,-5.6829305,-1.7656376,-2.5655005,-28.278685,20.173073,10.644043,6.491717,-5.0308795,-6.0311713
41,-35.0264892578125,-28.785184860229492,74.77595520019531,2.2525747411339903,4.6569178658718275,77.30773530956039,-13.972299,-6.1524005,-16.375153,48.310356,-26.918926,-0.329954,-32.726982,-30.358189,-15.635631,64.26941,-23.005907,-2.5182986,-4.238411,4.335215,11.075331,-17.667366,20.866405,-22.24622,-27.126806,0.4917926,-5.9126124,-1.7029755,-4.3943353,-28.106014,20.945778,8.586084,6.6558423,-4.8980517,-5.785488
42,-35.90781784057617,-29.553979873657227,74.35311889648438,2.5966849073842324,4.342049089190547,77.15185815158773,-14.843894,-7.249128,-15.96851,49.274532,-27.933475,-0.26695746,-32.812748,-30.778715,-14.818061,68.343506,-24.182764,-2.537139,-4.1264067,3.8695278,11.564685,-16.026453,21.273853,-21.71516,-25.918367,0.08392717,-6.138441,-1.6592354,-6.2447286,-27.86176,21.683382,6.534223,6.872019,-4.786866,-5.5473323
43,-36.77424621582031,-30.30794334411621,73.93263244628906,2.9332603465340257,4.039183022784302,76.96783275449373,-15.786672,-8.340145,-15.568475,50.34007,-28.828167,-0.15079337,-32.75836,-30.892387,-13.923923,72.18344,-25.183828,-2.2551389,-3.9589524,3.3999639,12.015737,-14.313643,21.680971,-21.201454,-24.651144,-0.37312683,-6.3694496,-1.5962361,-8.104862,-27.54738,22.398315,4.5080924,7.067756,-4.6730485,-5.2902827
44,-37.62530517578125,-31.0366153717041,73.53466796875,3.1702537095000682,3.817211073634682,76.65873727105028,-16.812012,-9.204125,-14.986364,51.410614,-29.607117,0.02783179,-32.52892,-30.690313,-13.241521,75.66274,-26.049706,-1.9258456,-3.6674452,3.0173798,12.367258,-12.492919,22.086536,-20.685295,-23.369425,-0.7771113,-6.615316,-1.4741049,-9.955605,-27.162745,23.098955,2.5167015,7.1717377,-4.532865,-4.9881606
45,-38.45768737792969,-31.742027282714844,73.17045593261719,3.281942059175715,3.723291835121622,76.21399003487967,-18.006525,-9.796329,-14.1707115,52.54748,-30.228012,0.29481524,-32.161045,-30.152288,-12.797751,78.76416,-26.77108,-1.5864625,-3.242631,2.744107,12.5776615,-10.536005,22.488495,-20.170523,-22.070797,-1.131942,-6.887491,-1.242509,-11.780132,-26.69919,23.766558,0.5361384,7.1293864,-4.353821,-4.608305
46,-39.25812530517578,-32.431251525878906,72.84395599365234,3.316816230443205,3.710328585869289,75.68210961760924,-19.33745,-10.223919,-13.226019,53.771633,-30.703352,0.64324087,-31.671503,-29.310354,-12.447797,81.5646,-27.34197,-1.1251819,-2.7199588,2.5275362,12.685099,-8.471189,22.884731,-19.669771,-20.729153,-1.48098,-7.179971,-0.93523407,-13.584495,-26.15215,24.390383,-1.4318635,6.9887676,-4.153098,-4.1725388
47,-40.03135681152344,-33.10487747192383,72.54747009277344,3.29955777763241,3.704814843758488,75.05608804668506,-20.627306,-10.496689,-12.204448,54.906757,-31.115267,1.0278975,-31.008842,-28.253283,-12.189361,84.07095,-27.79328,-0.5876458,-2.101109,2.3457332,12.751169,-6.3443303,23.271692,-19.172363,-19.35803,-1.7855111,-7.4752088,-0.63752747,-15.38485,-25.530188,24.993404,-3.3435013,6.8379946,-3.9509351,-3.736448
48,-40.78778839111328,-33.75849151611328,72.2757797241211,3.2564140155769707,3.633329448802383,74.32851720845228,-21.699772,-10.632996,-11.159128,55.782005,-31.541826,1.3981744,-30.120388,-27.066444,-12.019721,86.28248,-28.151892,-0.018116677,-1.3901788,2.1834316,12.84217,-4.1909876,23.643528,-18.65934,-17.98222,-2.0070953,-7.7540264,-0.4349315,-17.194342,-24.849426,25.60622,-5.1641574,6.7667737,-3.7652817,-3.3573506
49,-41.53971862792969,-34.405914306640625,72.02962493896484,3.16598828488862,3.4630331279886337,73.444407988741,-22.449903,-10.578118,-10.076393,56.292343,-32.06706,1.7401149,-28.96415,-25.719368,-11.955735,88.18924,-28.393904,0.5530046,-0.5458753,2.07387,12.998999,-1.9965829,23.988657,-18.118233,-16.593824,-2.189245,-8.010653,-0.35388884,-19.015568,-24.119274,26.244131,-6.9147067,6.8421955,-3.601754,-3.0519042
50,-42.28445053100586,-35.03448486328125,71.81319427490234,3.0267682289255147,3.2345873934267115,72.4270315627247,-22.983742,-10.351606,-8.944491,56.547035,-32.625256,2.075006,-27.593884,-24.193546,-11.966234,89.79289,-28.509005,1.1452093,0.42386493,2.0210247,13.178455,0.2420335,24.298063,-17.564608,-15.178816,-2.3371274,-8.254995,-0.34881383,-20.823387,-23.338383,26.880255,-8.6228485,7.007579,-3.4495306,-2.7924328
51,-43.028411865234375,-35.641178131103516,71.62069702148438,2.8948164204581355,2.98670401623018,71.38622335004423,-23.442804,-10.085512,-7.8159146,56.69597,-33.07005,2.4046612,-26.094913,-22.575586,-11.989184,91.101814,-28.542583,1.7926584,1.4398656,1.9706705,13.326235,2.481925,24.572672,-17.017096,-13.771329,-2.3525593,-8.488751,-0.3953385,-22.59199,-22.50617,27.484346,-10.264086,7.1688824,-3.3010838,-2.5696092
52,-43.75313186645508,-36.23458480834961,71.45281982421875,2.8237592303047085,2.760668552914815,70.43082363960536,-23.973318,-9.906651,-6.7399096,56.889656,-33.25715,2.7335303,-24.545444,-20.948769,-11.978054,92.12431,-28.545568,2.5335274,2.4155502,1.8636873,13.392041,4.6924543,24.82302,-16.48444,-12.413683,-2.1370733,-8.715225,-0.46709517,-24.320017,-21.628086,28.037302,-11.795181,7.23937,-3.1491232,-2.370894
53,-44.46165084838867,-36.81647491455078,71.3096694946289,2.853752940980603,2.5506227365334118,69.5568776209468,-24.601511,-9.859658,-5.676509,57.18327,-33.13487,3.0850368,-22.94293,-19.344507,-11.884582,92.88802,-28.548779,3.3694878,3.3520143,1.6613017,13.385656,6.8832307,25.059755,-15.966408,-11.1065235,-1.5374179,-8.964753,-0.5670635,-26.015985,-20.70767,28.551554,-13.220903,7.1987295,-2.9898126,-2.2042706
54,-45.165679931640625,-37.402313232421875,71.19588470458984,2.948155057097065,2.342362583159175,68.71694625806049,-25.254736,-9.872048,-4.611949,57.4914,-32.785122,3.4545999,-21.25243,-17.714973,-11.747734,93.377846,-28.523478,4.278635,4.28049,1.3979523,13.332889,9.08064,25.284796,-15.449382,-9.846886,-0.65054613,-9.226651,-0.6999737,-27.701462,-19.751701,29.036081,-14.544121,7.1080556,-2.8286564,-2.0690234
55,-45.8650016784668,-37.99006271362305,71.115966796875,3.0420760421175963,2.164854668170292,67.954755757964,-25.935509,-9.892124,-3.633167,57.75454,-32.266205,3.8057334,-19.506413,-16.022045,-11.654873,93.538994,-28.434565,5.2630415,5.1749806,1.1316811,13.219762,11.265156,25.497763,-14.931986,-8.679534,0.24701354,-9.441435,-0.8461591,-29.308292,-18.75539,29.470766,-15.791966,6.9252014,-2.6685605,-1.9485741
56,-46.55149459838867,-38.586326599121094,71.0750961303711,3.0714716697344078,2.045437336199767,67.31392784968503,-26.64709,-9.872347,-2.8276494,57.911396,-31.63474,4.098605,-17.74651,-14.228923,-11.68222,93.31644,-28.245716,6.3238654,5.9810886,0.90713155,13.015701,13.441986,25.698166,-14.38643,-7.6491156,0.87956256,-9.547867,-0.98984677,-30.87426,-17.736292,29.831974,-16.913815,6.702948,-2.5130877,-1.8136262
57,-47.215599060058594,-39.17726135253906,71.07647705078125,3.018892544922581,2.0087116851034064,66.83774908404277,-27.442017,-9.814253,-2.2423644,57.98713,-30.88582,4.312121,-15.988371,-12.28483,-11.837576,92.68212,-27.95354,7.4795384,6.6848764,0.7396085,12.695735,15.594219,25.89274,-13.829988,-6.7584686,1.1637828,-9.503664,-1.1440879,-32.34818,-16.685865,30.11475,-17.954937,6.34486,-2.3571408,-1.6662405
58,-47.84978103637695,-39.77102279663086,71.11820983886719,2.919608735852468,2.03356032063479,66.49161442660657,-28.303608,-9.745938,-1.8190596,57.996723,-29.992073,4.472207,-14.226811,-10.228851,-12.057324,91.66667,-27.584126,8.710939,7.306862,0.59516126,12.28227,17.737026,26.086174,-13.25172,-5.99887,1.2496567,-9.348785,-1.3141476,-33.764412,-15.602277,30.339306,-18.901228,5.87332,-2.2009137,-1.5149382
59,-48.46057891845703,-40.38221740722656,71.2016372680664,2.787748478438563,2.077671349961991,66.20374655567848,-29.130636,-9.658364,-1.4902595,57.861965,-28.972517,4.60355,-12.469935,-8.158623,-12.302854,90.299446,-27.133587,9.966629,7.8857665,0.4647857,11.834199,19.87961,26.26807,-12.620484,-5.392802,1.2114787,-9.144953,-1.4770957,-35.140682,-14.502552,30.520258,-19.728716,5.399141,-2.0550044,-1.3591343
60,-49.056541442871094,-40.99915313720703,71.33802795410156,2.63669025953111,2.099089481625729,65.90184099108747,-29.821114,-9.537345,-1.1915245,57.50528,-27.847435,4.727219,-10.71299,-6.171753,-12.540359,88.612175,-26.58977,11.19968,8.471337,0.34829393,11.41165,22.010918,26.417105,-11.923938,-4.9478903,1.1249617,-8.95477,-1.6114777,-36.467136,-13.412916,30.672134,-20.440348,5.020168,-1.9292381,-1.2025595
61,-49.65107727050781,-41.6254768371582,71.521728515625,2.4429349117798065,2.0775831078728455,65.582223395616,-30.336834,-9.353595,-0.9470364,56.912357,-26.645512,4.839486,-8.883106,-4.227051,-12.789041,86.51462,-25.918846,12.503885,9.07737,0.27394375,11.031212,24.128916,26.513062,-11.157257,-4.6667404,1.0117505,-8.779576,-1.7207148,-37.745094,-12.353502,30.79852,-21.059744,4.7958093,-1.8364764,-1.0488322
62,-50.2518424987793,-42.25236129760742,71.75439453125,2.211667531396565,2.0391887812032055,65.27647678457518,-30.737616,-9.119965,-0.780999,56.123653,-25.347435,4.9270716,-6.996372,-2.3021696,-13.032609,84.021774,-25.138306,13.863459,9.683254,0.2389338,10.66196,26.217663,26.548584,-10.33968,-4.528376,0.83698595,-8.591614,-1.8151839,-38.968742,-11.334204,30.896479,-21.600786,4.670882,-1.7669299,-0.8987965
63,-50.86048126220703,-42.88193130493164,72.02554321289062,1.9922278903143953,2.0107548065080656,64.96682902827726,-31.06934,-8.877397,-0.6325943,55.149952,-23.90494,4.9957075,-5.1617837,-0.5234922,-13.224322,81.32191,-24.29796,15.000033,10.294598,0.20413066,10.293382,28.234161,26.523165,-9.511889,-4.497201,0.59217805,-8.410422,-1.8836809,-40.107094,-10.364511,30.975203,-22.04974,4.5588484,-1.6956612,-0.75374603
64,-51.459266662597656,-43.53056716918945,72.33079528808594,1.7118296219274192,2.048380826625023,64.58761383397402,-31.447971,-8.52017,-0.49841082,54.111217,-22.33284,5.0147905,-3.502471,1.0751495,-13.503844,78.55404,-23.379866,15.000033,10.961073,0.23724794,9.86877,30.138485,26.442535,-8.715763,-4.5390806,0.2687623,-8.255659,-1.9147389,-41.1271,-9.454235,31.04242,-22.39643,4.376658,-1.5983742,-0.6146202
65,-52.080238342285156,-44.188072204589844,72.66869354248047,1.5184509941782955,2.1182738594103636,64.16952272380657,-31.767868,-8.222645,-0.27861506,52.839962,-20.561556,5.034396,-1.9746962,2.3819034,-13.609732,75.75144,-22.44739,15.000033,11.660279,0.21624286,9.438674,31.93798,26.31597,-7.948681,-4.684637,-0.14195688,-8.13518,-1.8940363,-42.026066,-8.612541,31.109703,-22.639494,4.0923753,-1.4819533,-0.48311424
66,-52.711753845214844,-44.86221694946289,73.03327178955078,1.4030248413508069,2.203482567321218,63.73823675425077,-32.002,-7.986147,-0.0055039776,51.325302,-18.60387,5.0544615,-0.5126944,3.439314,-13.604643,72.84511,-21.48289,15.000033,12.375073,0.14249845,9.02097,33.6433,26.14784,-7.2049236,-4.938235,-0.6333581,-8.038074,-1.8304412,-42.810146,-7.844323,31.1739,-22.797892,3.7561953,-1.3551263,-0.35987693
67,-53.35887145996094,-45.54949188232422,73.41883850097656,1.3681167900181332,2.307759316169873,63.354480223089915,-32.199894,-7.8497353,0.28103843,49.62805,-16.422228,5.0780263,0.8324929,4.2739387,-13.479772,69.94983,-20.487211,15.000033,13.033054,0.006953987,8.62762,35.221664,25.940111,-6.51763,-5.225233,-1.1905832,-7.955879,-1.7480925,-43.467346,-7.1521077,31.224392,-22.89031,3.4090848,-1.1963894,-0.24316865
68,-54.02357482910156,-46.25148010253906,73.82727813720703,1.416352658627066,2.434301635412268,63.07849619265914,-32.407352,-7.8532224,0.54158384,47.80073,-13.97831,5.107931,2.0038338,4.904945,-13.228797,67.18456,-19.463932,15.000033,13.562565,-0.19742502,8.270516,36.640533,25.694155,-5.918978,-5.471586,-1.7968191,-7.879645,-1.6706574,-43.988277,-6.5377407,31.250242,-22.93122,3.0911796,-0.98394686,-0.13071246
69,-54.707984924316406,-46.96479797363281,74.24467468261719,1.5617169215000812,2.5963196045330315,62.917141475770485,-32.652348,-7.9994907,0.82024455,45.85905,-11.219381,5.217641,2.956609,5.3145037,-12.864566,64.58347,-18.40226,15.000033,13.953834,-0.48801652,7.941663,37.90369,25.417707,-5.413259,-5.684298,-2.5221088,-7.807495,-1.5768822,-44.367672,-6.0017166,31.247871,-22.917942,2.7568455,-0.6924253,-0.0241446
70,-55.408836364746094,-47.70126724243164,74.67073059082031,1.709460585361291,2.8098804861009268,62.803867694131185,-32.960457,-8.161588,1.0854237,43.857075,-8.225869,5.357819,3.7049966,5.5850005,-12.495764,62.05512,-17.279875,14.715929,14.27913,-0.7773973,7.6005263,39.02929,25.11808,-4.9846163,-5.8975797,-3.3498867,-7.7447066,-1.4628587,-44.61273,-5.545639,31.22602,-22.847881,2.4025097,-0.339796,0.07695183
71,-56.1136589050293,-48.467411041259766,75.09315490722656,1.7733978700636792,3.063250336586183,62.71726022990873,-33.32611,-8.271452,1.2042594,41.83599,-5.1179996,5.3576045,4.3028345,5.8085637,-12.309287,59.554276,-16.119612,13.350054,14.555563,-0.98334193,7.2449527,40.005363,24.79352,-4.630255,-6.07667,-4.132707,-7.691864,-1.3789964,-44.734985,-5.1752095,31.191826,-22.733921,2.1343396,0.030933985,0.1766367
72,-56.837127685546875,-49.25053787231445,75.50851440429688,1.8338842061681877,3.3023150792158917,62.70051348829705,-33.60327,-8.472642,1.1150792,39.61412,-1.9013177,5.097504,4.823299,5.9323215,-12.143817,57.125675,-15.026603,11.833427,14.742034,-1.1534362,6.946136,40.817398,24.43729,-4.345952,-6.18498,-4.71899,-7.648081,-1.3766054,-44.74268,-4.898751,31.152245,-22.596684,2.059677,0.3771569,0.2759564
73,-57.57851028442383,-50.05167770385742,75.91107940673828,1.8913492541464205,3.5426244517098975,62.775810483643234,-33.784016,-8.76838,0.8535796,37.04028,1.7412227,4.54257,5.237653,5.9452157,-12.029977,54.761795,-14.007206,10.117283,14.82305,-1.2873182,6.6990404,41.44825,24.04209,-4.1182704,-6.1919475,-5.0566363,-7.6106505,-1.5137516,-44.628773,-4.726826,31.106535,-22.457218,2.2744472,0.70493454,0.3875815
74,-58.322505950927734,-50.86138916015625,76.29317474365234,1.9462964698651595,3.7880757468399398,62.930398045526864,-33.882084,-9.146804,0.41359597,34.165417,5.7462974,3.7525697,5.5231943,5.8651643,-11.979093,52.4683,-13.063929,8.176176,14.808766,-1.3877769,6.4960527,41.91177,23.610401,-3.9468608,-6.1259227,-5.224005,-7.5799327,-1.7502651,-44.38549,-4.6633186,31.056866,-22.315226,2.7018962,1.0325371,0.50098026
75,-59.08110046386719,-51.66796875,76.6446304321289,1.98181403992469,3.990957054766899,63.11524814860941,-33.85631,-9.600106,-0.39057323,31.23406,9.467415,2.714347,5.7519326,5.7620115,-11.9474535,50.257656,-12.231847,6.1510215,14.734606,-1.4293944,6.361659,42.237896,23.152805,-3.8453267,-6.0364757,-5.270371,-7.55917,-1.9894086,-44.024464,-4.7038198,31.014156,-22.14005,3.191363,1.3348786,0.58456004
76,-59.837806701660156,-52.4832649230957,76.9443130493164,1.9814171077545364,4.1051785772371545,63.281850575589935,-33.672077,-10.106499,-1.7224407,28.511263,12.24286,1.4326415,5.995169,5.692716,-11.876935,48.145565,-11.524938,4.178563,14.635937,-1.3906153,6.318013,42.459812,22.682894,-3.8284388,-5.9757395,-5.2466793,-7.551348,-2.1332886,-43.55987,-4.838462,30.983791,-21.898144,3.5915954,1.5855173,0.609973
77,-60.6029167175293,-53.29561996459961,77.19261169433594,1.9056671895676616,4.099007916932698,63.4186751737163,-33.19176,-10.687472,-3.9282184,25.789074,13.9767475,-0.3181726,6.2956815,5.6906962,-11.69423,46.069195,-10.842343,2.1484497,14.528603,-1.2283009,6.386093,42.579346,22.206438,-3.9073966,-5.926802,-5.1038356,-7.5665326,-2.132585,-42.969437,-5.0617085,30.962452,-21.599752,3.9068096,1.7714145,0.56038976
78,-61.37700653076172,-54.099853515625,77.38279724121094,1.7550117702186598,3.997317122601739,63.542413448965256,-32.440247,-11.249512,-6.8141317,23.02146,14.955688,-2.4228854,6.6124635,5.7497997,-11.444475,44.03165,-10.21316,0.03408612,14.402689,-0.95038563,6.549292,42.587807,21.723429,-4.070516,-5.875679,-4.839717,-7.599555,-2.0450373,-42.256565,-5.373547,30.941366,-21.247288,4.2005258,1.9076856,0.4569886
79,-62.163394927978516,-54.911251068115234,77.51768493652344,1.5977128470619708,3.8508468219140313,63.661386665682656,-31.685,-11.677335,-9.664183,20.751287,15.117847,-4.356256,6.8809586,5.8202047,-11.2253475,42.152275,-9.817866,-1.8988112,14.238499,-0.6412077,6.7680407,42.496326,21.24024,-4.2974315,-5.8722916,-4.578956,-7.6308885,-1.933874,-41.476715,-5.7702513,30.91977,-20.803278,4.409605,2.0097468,0.33024132
80,-62.96384811401367,-55.723846435546875,77.57727813720703,1.5386484816173027,3.723284045021597,63.79881180750787,-31.249296,-11.994856,-11.746752,19.539835,14.448835,-5.6364417,7.0181093,5.7945886,-11.121678,40.569485,-9.818708,-3.3795412,14.003594,-0.42446795,6.9981503,42.31017,20.767664,-4.5668893,-5.9629784,-4.4477177,-7.6420703,-1.862755,-40.683456,-6.2437043,30.893204,-20.226995,4.469739,2.0930703,0.21047641
81,-63.763938903808594,-56.54777145385742,77.5768051147461,1.6541122129164436,3.6419948105540163,63.97141570225664,-31.268906,-12.313118,-12.823479,19.59255,12.668845,-6.066924,7.0089364,5.5618033,-11.150064,39.284702,-10.230714,-4.2922735,13.677201,-0.38677418,7.220267,42.044483,20.308527,-4.8781266,-6.1667976,-4.5602694,-7.6285224,-1.8588201,-39.885475,-6.7903566,30.857363,-19.49925,4.2780714,2.1504188,0.10613164
82,-64.59355926513672,-57.393699645996094,77.5206298828125,1.902939274698492,3.5801764164394796,64.17661518912318,-31.60632,-12.678482,-13.275784,20.627901,9.895455,-5.9573274,6.875675,5.1421356,-11.249492,38.250767,-10.945825,-4.800792,13.270477,-0.4802729,7.4534607,41.689545,19.86267,-5.240037,-6.4542303,-4.8255715,-7.599887,-1.8842824,-39.053818,-7.4077096,30.808235,-18.641031,3.8941596,2.1771464,0.001261094
83,-65.45806884765625,-58.258270263671875,77.4078369140625,2.220237979428721,3.521837070428711,64.40958151651253,-32.163734,-13.056644,-13.32866,22.439392,6.73273,-5.6112165,6.5930653,4.6074605,-11.383726,37.536934,-11.935413,-5.0613456,12.797725,-0.6337694,7.71073,41.210075,19.439497,-5.6455855,-6.796835,-5.064068,-7.5597672,-1.9054537,-38.185986,-8.085124,30.741625,-17.672,3.4954963,2.1929946,-0.11047855
84,-66.34266662597656,-59.129905700683594,77.24559020996094,2.532328236883211,3.449937156002296,64.66229284734617,-32.840996,-13.395905,-13.183573,24.821693,3.7872064,-5.2997203,6.1398435,4.043909,-11.514371,37.21186,-13.177515,-5.233189,12.274274,-0.7696475,8.00388,40.575233,19.052074,-6.0857506,-7.168527,-5.0998397,-7.5118194,-1.8880273,-37.290035,-8.809064,30.648952,-16.599167,3.2661052,2.2176468,-0.23250854
85,-67.22975158691406,-60.025489807128906,77.04070281982422,2.822549705011317,3.360876075723178,64.93377875779268,-33.65595,-13.677355,-12.806014,27.844143,1.1092938,-5.039973,5.503416,3.4562342,-11.635635,37.330997,-14.729372,-5.343919,11.696954,-0.8648963,8.333601,39.775047,18.702341,-6.566193,-7.5693836,-4.9022636,-7.451644,-1.8492467,-36.37678,-9.572406,30.52117,-15.397585,3.2870157,2.2815855,-0.32978597
86,-68.12522888183594,-60.92892837524414,76.79341125488281,3.1008212546003553,3.2514817842725776,65.21366981029105,-34.610844,-13.870873,-12.139494,31.526888,-1.5716016,-4.6994596,4.7236814,2.824952,-11.752215,37.826904,-16.567146,-5.3394666,11.068877,-0.9357344,8.69474,38.83699,18.386236,-7.0853796,-8.01677,-4.565352,-7.378432,-1.7973347,-35.458305,-10.377146,30.3591,-14.048705,3.4609864,2.365693,-0.40892303
87,-69.02093505859375,-61.845523834228516,76.50460815429688,3.338706792491005,3.110034903486789,65.48452072395791,-35.58691,-13.925397,-11.32767,35.59919,-4.1259594,-4.302689,3.85251,2.2041428,-11.845945,38.5819,-18.552622,-5.2474537,10.43786,-0.96171576,9.100919,37.75545,18.116846,-7.6439347,-8.5002575,-4.097571,-7.3007784,-1.68639,-34.4518,-11.199494,30.183216,-12.636819,3.6163917,2.4153488,-0.54395825
88,-69.90660095214844,-62.766109466552734,76.19013214111328,3.5207491271188265,2.930193915177952,65.73484619628057,-36.475765,-13.814719,-10.508242,39.8092,-6.428241,-3.8745265,2.927248,1.6345683,-11.904206,39.491886,-20.556086,-5.0846024,9.80267,-0.9500528,9.541995,36.570934,17.904617,-8.21084,-9.0242195,-3.5192947,-7.2263174,-1.4666516,-33.430862,-12.040034,29.988302,-11.1312065,3.721139,2.375379,-0.79205304
89,-70.78932189941406,-63.696067810058594,75.84224700927734,3.6437143892196984,2.6933020149511906,65.94264788342278,-37.285557,-13.459181,-9.565266,44.251804,-8.400911,-3.3870106,1.9327093,1.1263293,-11.888843,40.611713,-22.640417,-4.8017178,9.179842,-0.89227784,10.0464325,35.26323,17.758701,-8.810046,-9.588748,-2.7134469,-7.1610684,-1.0691762,-32.380924,-12.88967,29.789429,-9.535276,3.82611,2.2419615,-1.1802595
90,-71.66084289550781,-64.62677764892578,75.46214294433594,3.7115965467840897,2.407686452276352,66.1191049217713,-38.02333,-12.872231,-8.499691,48.963074,-10.107983,-2.824285,0.8551025,0.6644549,-11.826939,41.9755,-24.84995,-4.406369,8.5559225,-0.78977716,10.603348,33.834312,17.67713,-9.44252,-10.198746,-1.718441,-7.0928674,-0.5371643,-31.311758,-13.747794,29.576443,-7.8248034,3.9574327,2.039888,-1.6685896
91,-72.51618194580078,-65.5548324584961,75.05906677246094,3.7317891206621314,2.112582106729519,66.30884660139698,-38.619633,-12.216759,-7.599834,53.66117,-11.657022,-2.2390144,-0.27630746,0.23316586,-11.802313,43.45484,-27.030321,-3.9894557,7.926604,-0.66058767,11.161679,32.303154,17.659311,-10.080249,-10.846141,-0.7777111,-7.006407,0.0068188477,-30.164242,-14.610276,29.329435,-6.0550194,3.9045646,1.7605975,-2.231528
92,-73.33895874023438,-66.4618148803711,74.6482925415039,3.7191370694534114,1.8493937595362322,66.55852926643212,-39.032158,-11.690298,-7.131025,58.090427,-13.165878,-1.6994948,-1.4336326,-0.19352317,-11.891071,44.92095,-29.024542,-3.6398284,7.2816267,-0.532,11.666062,30.694267,17.704184,-10.692415,-11.524434,-0.13608816,-6.894304,0.44154024,-28.90424,-15.47632,29.025366,-4.2582846,3.4803855,1.3988388,-2.8450534
93,-74.13805389404297,-67.36162567138672,74.22909545898438,3.675593743246532,1.6381203582079316,66.8779414416126,-39.30786,-11.358465,-7.142157,62.31714,-14.695438,-1.1726876,-2.6376586,-0.61820567,-12.113774,46.37314,-30.819838,-3.3788986,6.60789,-0.4143012,12.0986185,29.012142,17.811567,-11.275961,-12.245887,0.0492706,-6.760192,0.7375365,-27.522161,-16.344067,28.680202,-2.4263468,2.4588928,0.90218866,-3.5372455
94,-74.91558837890625,-68.23689270019531,73.82758331298828,3.602776296346028,1.4572208499839499,67.24634990098906,-39.465252,-11.150966,-7.4758396,66.45933,-16.182798,-0.6526555,-3.8980203,-1.0436348,-12.42461,47.87466,-32.49399,-3.1547787,5.911973,-0.29821095,12.484868,27.244284,17.978455,-11.851542,-13.009827,-0.062855616,-6.6113505,0.96105015,-26.032137,-17.211363,28.298689,-0.5431766,0.99781835,0.3050724,-4.3229804
95,-75.68074798583984,-69.10169219970703,73.43354034423828,3.5173573569110816,1.2869092111921263,67.66490528711974,-39.440483,-11.078213,-8.068499,70.368645,-17.56846,-0.2606209,-5.1684175,-1.4988269,-12.795801,49.386875,-34.020115,-2.9464078,5.219767,-0.18126188,12.836491,25.38148,18.198353,-12.432899,-13.786831,-0.24111544,-6.448639,1.1335183,-24.403963,-18.074062,27.832718,1.3376962,-0.5236302,-0.26719618,-5.153994
96,-76.44828033447266,-69.9337387084961,73.05841064453125,3.4304480434937985,1.1071831491268718,68.13532958877342,-39.1746,-11.140456,-8.856215,73.90836,-18.800415,-0.11407744,-6.4027047,-2.005652,-13.202384,50.872746,-35.372234,-2.7336318,4.5577826,-0.056472734,13.165333,23.410929,18.464535,-13.036835,-14.543318,-0.2538773,-6.271634,1.2748554,-22.606031,-18.92746,27.231869,3.162301,-1.7240826,-0.70315206,-5.9667068
97,-77.19601440429688,-70.74449920654297,72.7046127319336,3.365411204935196,0.9214405449286452,68.6717143972184,-38.64032,-11.435507,-9.875246,77.049644,-19.829342,-0.30600497,-7.6192718,-2.6048534,-13.64626,52.369423,-36.539234,-2.5026462,3.9303553,0.06309398,13.467016,21.289024,18.778545,-13.691031,-15.250266,0.0034972639,-6.067588,1.3879566,-20.606363,-19.768805,26.474045,4.940361,-2.4386497,-0.9622527,-6.7384214
98,-77.93276977539062,-71.54509735107422,72.36981964111328,3.3125186949327112,0.7381382759061428,69.26922614522164,-37.865505,-11.938463,-11.119652,79.889694,-20.713299,-0.7651953,-8.830421,-3.2789118,-14.133409,53.882256,-37.53582,-2.2663238,3.3319893,0.17773162,13.736315,19.023722,19.136915,-14.399485,-15.924646,0.38978547,-5.84113,1.4636421,-18.408056,-20.594976,25.574299,6.6804643,-2.8864083,-1.1174213,-7.4947696
99,-78.65287017822266,-72.33460235595703,72.05958557128906,3.2465303110241797,0.5450623829960414,69.90106501244244,-36.872448,-12.460021,-12.457946,82.44719,-21.543417,-1.353318,-9.980835,-3.9740877,-14.642996,55.315174,-38.37154,-2.0432184,2.7674103,0.30195817,13.988186,16.68135,19.520742,-15.135806,-16.603474,0.7708028,-5.617869,1.5011303,-16.039463,-21.39404,24.541462,8.330672,-3.2577016,-1.2344266,-8.239067
100,-79.37055206298828,-73.11139678955078,71.7798080444336,3.142064675615329,0.3303733937482844,70.54057415387288,-35.694954,-12.804126,-13.768309,84.72833,-22.399588,-1.926998,-11.0176,-4.6361103,-15.159097,56.57344,-39.05269,-1.8501494,2.2288384,0.45165524,14.236111,14.33795,19.904192,-15.858815,-17.324133,1.0187433,-5.42395,1.4987328,-13.556083,-22.146902,23.402212,9.863732,-3.7428803,-1.3730884,-8.97697
101,-80.07249450683594,-73.8770751953125,71.53130340576172,2.982447220434429,0.0713524725759727,71.19540888980343,-34.291668,-12.9451475,-15.076578,86.723076,-23.31664,-2.5288136,-11.918215,-5.2503757,-15.696265,57.663174,-39.556824,-1.7068818,1.6947881,0.6517867,14.500472,11.991245,20.273472,-16.562866,-18.081596,1.0948275,-5.2857385,1.4699242,-10.96849,-22.829466,22.166058,11.328941,-4.421451,-1.5529511,-9.758319
102,-80.76558685302734,-74.62345886230469,71.3212890625,2.782854466377715,-0.21827944363138815,71.87531943485219,-32.669067,-12.956436,-16.42824,88.434296,-24.250671,-3.202876,-12.713473,-5.8440228,-16.260498,58.621666,-39.88609,-1.5975287,1.1536659,0.8897895,14.76206,9.619119,20.623219,-17.25448,-18.853155,1.0757431,-5.1854143,1.4093456,-8.289035,-23.422735,20.847609,12.768078,-5.181554,-1.7375555,-10.563801
103,-81.44932556152344,-75.34320068359375,71.1479263305664,2.564040797793417,-0.4951879932331156,72.55613942265381,-30.953985,-12.784267,-17.72963,89.87854,-25.138098,-3.7919288,-13.434599,-6.4173903,-16.821459,59.403236,-40.082317,-1.4913951,0.604023,1.1311282,14.97446,7.275846,20.941532,-17.895351,-19.657812,1.0121034,-5.079521,1.2845434,-5.5785127,-23.912292,19.489435,14.142765,-5.9365597,-1.9019881,-11.296998
104,-82.1287841796875,-76.0461654663086,71.01171112060547,2.3477215836010688,-0.7168875323632778,73.21402164803868,-29.277826,-12.389363,-18.898565,91.07233,-25.913887,-4.1459227,-14.111687,-6.97305,-17.350574,59.961967,-40.189816,-1.3576603,0.042276353,1.3416625,15.090602,5.0152164,21.215214,-18.438822,-20.507504,0.9593571,-4.925271,1.0598598,-2.9120543,-24.289875,18.141829,15.42453,-6.5987077,-2.0265694,-11.861875
105,-82.79662322998047,-76.73328399658203,70.9135513305664,2.1312977410740266,-0.8771001376148201,73.8514625049723,-27.658657,-11.7063055,-19.911438,92.013824,-26.57985,-4.236796,-14.722453,-7.4969277,-17.86048,60.24132,-40.245346,-1.1924272,-0.5395154,1.523896,15.089395,2.8257163,21.443653,-18.853912,-21.399864,0.90566605,-4.6938705,0.6694214,-0.2938214,-24.54093,16.794601,16.63118,-7.167798,-2.1110084,-12.206532
106,-83.46021270751953,-77.41730499267578,70.85770416259766,1.9057420931923996,-0.9973021053246609,74.47838515686506,-26.05501,-10.775801,-20.81822,92.695595,-27.15542,-4.142116,-15.26058,-7.9888816,-18.364433,60.279095,-40.216354,-1.0117743,-1.1444685,1.6911162,14.991272,0.68457574,21.634212,-19.157444,-22.312584,0.8405815,-4.4140463,0.14645001,2.2719057,-24.657654,15.454986,17.806206,-7.687804,-2.1707928,-12.391549
107,-84.12705993652344,-78.09394073486328,70.84588623046875,1.6841534519199133,-1.077304571008262,75.08067277015577,-24.510668,-9.725673,-21.64464,93.12898,-27.592503,-3.8641741,-15.7831545,-8.471726,-18.829895,60.17257,-40.041126,-0.8174128,-1.7626208,1.8268813,14.813808,-1.3830419,21.786821,-19.378344,-23.217869,0.82095414,-4.1300197,-0.398212,4.7225738,-24.65643,14.189099,18.944054,-8.137581,-2.2113597,-12.491038
108,-84.7915267944336,-78.7652359008789,70.88521575927734,1.4805695935781369,-1.1169277312675148,75.64458819282193,-23.061895,-8.687064,-22.417013,93.32556,-27.849699,-3.403142,-16.347681,-8.968541,-19.222002,60.018585,-39.65468,-0.61190975,-2.383008,1.917482,14.579059,-3.3551302,21.89442,-19.546944,-24.091446,0.90237457,-3.8868444,-0.8556939,7.0104475,-24.573818,13.05541,20.021212,-8.494259,-2.2352638,-12.581469
109,-85.47338104248047,-79.42708587646484,70.9718017578125,1.2951744593810395,-1.1068981190784977,76.15952538288873,-21.721794,-7.655508,-23.138578,93.28939,-27.921377,-2.7117605,-16.99987,-9.477218,-19.519165,59.869766,-39.023907,-0.40187827,-2.9885206,1.9696121,14.280916,-5.2569494,21.952192,-19.664463,-24.931326,1.16258,-3.6974425,-1.201956,9.159537,-24.438452,12.032806,21.013527,-8.685155,-2.235029,-12.664754
110,-86.16407775878906,-80.08445739746094,71.1005630493164,1.123064904387229,-1.050810291284518,76.63544733997311,-20.476183,-6.5825195,-23.794725,93.02214,-27.832644,-1.8017387,-17.70121,-9.982199,-19.744116,59.66292,-38.183765,-0.18729705,-3.5804467,1.9971415,13.918872,-7.107368,21.960476,-19.725086,-25.74083,1.5537915,-3.5390635,-1.4965248,11.208664,-24.261505,11.087249,21.903774,-8.736733,-2.2118866,-12.7069645
111,-86.86707305908203,-80.73560333251953,71.26893615722656,0.9686994648151847,-0.9674845336528569,77.09028156984526,-19.31715,-5.5358324,-24.38508,92.54343,-27.577326,-0.7586498,-18.386475,-10.488721,-19.926281,59.326473,-37.18672,0.041384935,-4.1734734,1.9987047,13.523987,-8.885073,21.918375,-19.749407,-26.500023,1.9347364,-3.402406,-1.7557542,13.142332,-24.06186,10.2506895,22.671291,-8.776626,-2.179378,-12.731708
112,-87.59025573730469,-81.38115692138672,71.48206329345703,0.8383586690288702,-0.8754566264434551,77.54248192306672,-18.233526,-4.5830274,-24.910492,91.869995,-27.146112,0.33228353,-18.986773,-11.006221,-20.093977,58.785107,-36.0819,0.29804912,-4.7863464,1.9718891,13.127966,-10.559645,21.82263,-19.7538,-27.19869,2.1660676,-3.2772806,-1.995671,14.940092,-23.864046,9.559238,23.300032,-8.93048,-2.1514335,-12.763551
113,-88.32844543457031,-82.02166748046875,71.72926330566406,0.7376766817222353,-0.7807110085594345,77.99332159604114,-17.220245,-3.7312143,-25.36491,90.99512,-26.490782,1.5469224,-19.489342,-11.541536,-20.233156,58.031162,-34.8862,0.5910246,-5.4248104,1.9053744,12.732347,-12.117573,21.669085,-19.722637,-27.846066,2.1864083,-3.1554866,-2.2312782,16.615438,-23.69342,9.044233,23.75506,-9.282603,-2.1315296,-12.814813
114,-89.08665466308594,-82.65287780761719,72.01872253417969,0.6629314186651493,-0.6726069007696832,78.4351668725685,-16.285166,-2.9462059,-25.745237,89.92489,-25.636818,2.9052954,-19.930443,-12.088921,-20.332567,57.100754,-33.573006,0.91366494,-6.0818443,1.8116415,12.32619,-13.576133,21.456217,-19.64682,-28.450975,2.0781794,-3.0431416,-2.4507308,18.181576,-23.563332,8.673971,24.04367,-9.741721,-2.111386,-12.870806
115,-89.8624038696289,-83.28336334228516,72.35084533691406,0.6054327299684663,-0.544691738736753,78.87177127685177,-15.43399,-2.2356396,-26.061747,88.688156,-24.67847,4.237418,-20.31378,-12.640338,-20.42388,55.98529,-32.1283,1.2576435,-6.7548676,1.7227454,11.922421,-14.951126,21.183874,-19.554039,-28.99611,1.9178412,-2.9510286,-2.6283214,19.622532,-23.474855,8.387327,24.207542,-10.173818,-2.085918,-12.914003
116,-90.65081024169922,-83.92159271240234,72.72187805175781,0.5567049264136461,-0.3904691774151804,79.30692194274371,-14.667718,-1.6143748,-26.333609,87.309135,-23.71129,5.3651752,-20.64204,-13.188006,-20.539398,54.675934,-30.538286,1.6147704,-7.436084,1.6684151,11.533796,-16.264378,20.853996,-19.47446,-29.458834,1.7773503,-2.8901525,-2.7390366,20.922567,-23.420565,8.119728,24.290562,-10.448279,-2.0507596,-12.926748
117,-91.47504425048828,-84.56101989746094,73.1253662109375,0.5127315494026964,-0.21039138692018283,79.7676558097782,-13.995025,-1.061767,-26.562807,85.751595,-22.810429,6.305118,-20.899187,-13.74658,-20.711817,53.163136,-28.799635,1.981278,-8.147426,1.6476041,11.162631,-17.507946,20.463602,-19.414995,-29.840408,1.6393328,-2.8558137,-2.759625,22.0852,-23.398827,7.877733,24.27116,-10.526129,-2.004951,-12.904794
118,-92.32893371582031,-85.20874786376953,73.55120086669922,0.47870688308174497,-0.006999332287550312,80.2429166819282,-13.406749,-0.58646405,-26.746576,84.01994,-21.914795,7.1236677,-21.088692,-14.318714,-20.9091,51.458828,-26.926249,2.3631394,-8.881625,1.6474395,10.80587,-18.66832,20.007309,-19.363209,-30.157299,1.4880153,-2.8441215,-2.7077322,23.116516,-23.413134,7.682249,24.137705,-10.482001,-1.9512402,-12.857187
119,-93.21358489990234,-85.86994171142578,73.99225616455078,0.46094602970429127,0.2226908327881679,80.67993300986086,-12.873515,-0.24926291,-26.903517,82.1881,-20.90926,7.716949,-21.245625,-14.87609,-21.068304,49.585197,-24.921003,2.7665906,-9.581078,1.6794406,10.465779,-19.780052,19.492748,-19.315783,-30.391428,1.3756244,-2.8676097,-2.6239054,24.014267,-23.458174,7.483795,23.94393,-10.357858,-1.8908436,-12.786565
120,-94.12629699707031,-86.53974151611328,74.44779968261719,0.4660888409861291,0.48142559310754107,81.02603719956129,-12.370913,-0.10901023,-27.056458,80.33279,-19.66571,7.985803,-21.405754,-15.383842,-21.128805,47.55484,-22.785173,3.1977525,-10.184589,1.7504934,10.144558,-20.883707,18.936724,-19.271145,-30.524862,1.3451897,-2.938422,-2.5472958,24.77815,-23.52012,7.2299213,23.741758,-10.197414,-1.8253906,-12.694929
121,-95.05790710449219,-87.22383117675781,74.90428161621094,0.49687231304697094,0.7822956569602796,81.27742573558618,-11.885304,-0.26245692,-27.296684,78.43021,-18.012625,7.8057384,-21.58289,-15.821536,-21.09854,45.318947,-20.432228,3.635243,-10.68841,1.8598378,9.837941,-21.97251,18.348745,-19.227781,-30.552668,1.428636,-3.0847642,-2.4694116,25.39964,-23.585072,6.8858027,23.52839,-9.97831,-1.7483915,-12.567234
122,-96.00367736816406,-87.91709899902344,75.35567474365234,0.5495510010700055,1.1194237681011974,81.45816508808966,-11.424092,-0.6538726,-27.60779,76.44632,-16.05705,7.257954,-21.759377,-16.20343,-20.996284,42.885303,-17.888695,4.084237,-11.107705,2.0004783,9.545557,-23.054876,17.739866,-19.180779,-30.473824,1.563041,-3.2911227,-2.3772755,25.889006,-23.649817,6.474824,23.280771,-9.695065,-1.6611116,-12.408268
123,-96.97574615478516,-88.61809539794922,75.79222106933594,0.6201303830380217,1.466429004436835,81.55992650363817,-10.993584,-1.1165063,-27.852629,74.43924,-14.1003475,6.5476794,-21.92477,-16.538937,-20.787323,40.347088,-15.321391,4.5907598,-11.430677,2.1563716,9.285448,-24.127296,17.118166,-19.14682,-30.322453,1.7144926,-3.5033948,-2.2906995,26.250944,-23.720646,6.051714,23.026623,-9.41577,-1.5774204,-12.250315
124,-97.95452117919922,-89.34312438964844,76.20577239990234,0.7053130609120856,1.7971266114438642,81.5748013258842,-10.608101,-1.4818463,-27.871347,72.46736,-12.434377,5.8914633,-22.06696,-16.831682,-20.440037,37.786144,-12.888781,5.2012377,-11.664996,2.303726,9.081709,-25.135025,16.470186,-19.165028,-30.175652,1.9096379,-3.6670835,-2.2209098,26.472122,-23.811216,5.6886444,22.797298,-9.206767,-1.5121024,-12.124511
125,-98.94102478027344,-90.0809097290039,76.58211517333984,0.8194725551589037,2.117778564515646,81.49068867371923,-10.268337,-1.7439011,-27.609594,70.53518,-10.993772,5.2264247,-22.127172,-17.053154,-19.938034,34.924057,-10.341846,6.0811334,-11.765383,2.4517105,8.912651,-26.20088,15.829221,-19.180662,-29.914642,1.9865911,-3.7769015,-2.1996672,26.587309,-23.928238,5.3451786,22.599138,-9.102606,-1.4729656,-12.0574465
126,-99.93687438964844,-90.81591796875,76.91232299804688,0.9630399732923559,2.436455999844695,81.3172379327532,-9.961409,-1.9923737,-27.150703,68.60486,-9.6607895,4.4771233,-22.123966,-17.183043,-19.293474,31.780527,-7.6642566,7.161255,-11.791671,2.5811815,8.793839,-27.17895,15.171036,-19.237547,-29.654068,2.109141,-3.856862,-2.1864758,26.538366,-24.076738,5.048798,22.430882,-9.059857,-1.451817,-12.025246
127,-100.94488525390625,-91.55602264404297,77.17572784423828,1.1041974447388443,2.730311470151162,81.07962417093708,-9.691627,-2.1875956,-26.525908,66.686,-8.654518,3.8469927,-22.153732,-17.254644,-18.550024,28.892563,-5.372238,8.131538,-11.682509,2.7399998,8.697826,-28.311,14.567552,-19.239748,-29.243368,2.049395,-3.9082668,-2.220819,26.430565,-24.249369,4.75692,22.24078,-9.018882,-1.4355438,-11.985859
128,-101.95740509033203,-92.30480194091797,77.39288330078125,1.21102071349896,2.977983681996933,80.79986418092727,-9.467358,-2.2825186,-25.759491,64.788475,-8.195362,3.5407326,-22.32699,-17.33899,-17.772978,26.84253,-4.0151606,8.675265,-11.539049,2.9019315,8.672738,-29.35153,13.992265,-19.281345,-28.938536,2.0808063,-3.9239712,-2.2461188,26.183655,-24.450066,4.5843453,22.030931,-8.928369,-1.4135176,-11.896547
129,-102.96878814697266,-93.06755828857422,77.54861450195312,1.2744460137725726,3.1695480353216885,80.45325489383842,-9.288483,-2.206114,-24.758587,62.849777,-8.436196,3.7861059,-22.692717,-17.42339,-16.830767,25.734177,-3.9336069,8.658356,-11.312972,3.0891595,8.716728,-30.400524,13.460394,-19.331268,-28.682453,2.0874112,-3.8727746,-2.2884598,25.832304,-24.683792,4.517655,21.790573,-8.76511,-1.3892562,-11.731157
130,-103.97754669189453,-93.82588195800781,77.63504028320312,1.309222152881494,3.318124376300543,80.03501160870937,-9.139784,-2.0080476,-23.54192,60.890163,-9.236257,4.4023614,-23.19148,-17.496378,-15.749215,25.291677,-4.7888856,8.268729,-11.004661,3.2956653,8.820511,-31.45121,12.9829855,-19.377747,-28.456507,2.0504324,-3.7669241,-2.3475873,25.361105,-24.950605,4.54624,21.538528,-8.558357,-1.3670361,-11.517045
131,-104.98481750488281,-94.59600830078125,77.6688003540039,1.3156425234153042,3.44002997092807,79.59540580506962,-9.01877,-1.8011861,-22.30327,59.035275,-10.368299,4.990025,-23.797194,-17.639523,-14.830735,25.572311,-6.1338353,7.6646285,-10.664118,3.5197701,8.962452,-32.452854,12.559681,-19.422754,-28.265804,2.063611,-3.6705332,-2.400688,24.7579,-25.239435,4.6714563,21.277075,-8.3300905,-1.3329257,-11.293513
132,-105.98890686035156,-95.38357543945312,77.65099334716797,1.2940631921166215,3.5519338929322846,79.18653144917629,-8.942869,-1.6812049,-21.225529,57.4083,-11.587783,5.1702666,-24.474894,-17.944242,-14.388307,26.617025,-7.515327,6.997502,-10.326993,3.7646527,9.116276,-33.388992,12.193284,-19.459757,-28.088116,2.1909988,-3.6483889,-2.432118,24.02896,-25.531511,4.8769274,21.003168,-8.105199,-1.2750964,-11.10082
133,-106.99418640136719,-96.18336486816406,77.5790023803711,1.234737788776476,3.6640943954356473,78.8072421528828,-8.882599,-1.6185275,-20.31828,55.937984,-12.915473,4.7886662,-25.238674,-18.47986,-14.578504,28.557533,-8.9334755,6.263851,-9.984062,4.0369015,9.27843,-34.291378,11.887699,-19.50905,-27.924934,2.4919937,-3.7342005,-2.424415,23.175253,-25.819939,5.16127,20.70773,-7.8970966,-1.183809,-10.94441
134,-107.99774169921875,-96.9937515258789,77.45925903320312,1.1453364036373543,3.763746661693446,78.43678934359049,-8.850214,-1.5670466,-19.481773,54.579823,-14.437196,4.0820904,-26.069677,-19.216215,-15.191735,31.303818,-10.591432,5.3814063,-9.617411,4.3303037,9.461353,-35.16501,11.647268,-19.569231,-27.784086,2.9111114,-3.887627,-2.390377,22.203579,-26.103195,5.5236607,20.38883,-7.695193,-1.0680858,-10.805355
135,-109.00548553466797,-97.81390380859375,77.29963684082031,1.047719191528155,3.8329362257797244,78.10000376494656,-8.935553,-1.5887552,-18.731386,53.497486,-16.009842,3.27003,-26.880848,-20.105503,-16.008617,34.57251,-12.334873,4.3769455,-9.260485,4.6210794,9.669672,-35.92377,11.465438,-19.620356,-27.669132,3.37674,-4.0617385,-2.3534937,21.119879,-26.370863,5.954191,20.054386,-7.4912257,-0.9443786,-10.686923
136,-110.00787353515625,-98.63780975341797,77.08911895751953,0.9622078205015232,3.8548891095255255,77.82046172106031,-9.228202,-1.7507684,-18.09587,52.863674,-17.499643,2.5656328,-27.60102,-21.082535,-16.817368,38.09532,-14.0078125,3.282307,-8.940468,4.8866134,9.9064455,-36.493492,11.329337,-19.645018,-27.575726,3.812492,-4.210163,-2.3398862,19.932972,-26.607819,6.4376545,19.71374,-7.278795,-0.82920146,-10.592935
137,-110.99647521972656,-99.47212982177734,76.83504486083984,0.8837159326367884,3.8321438684287936,77.60980604352198,-9.794049,-2.0798187,-17.605059,52.80437,-18.946762,2.0022016,-28.233307,-22.218811,-17.721085,41.98028,-15.57906,2.0152595,-8.658303,5.1335697,10.166448,-36.90202,11.225966,-19.645617,-27.484007,4.2718644,-4.3272223,-2.3607812,18.637707,-26.808474,6.9672327,19.386639,-7.0464964,-0.7332237,-10.545896
138,-111.97245025634766,-100.32418060302734,76.54276275634766,0.8100083534238918,3.7689344202307398,77.45634815728855,-10.57969,-2.5411952,-17.23395,53.219334,-20.411766,1.4764851,-28.762642,-23.535727,-18.777897,46.281578,-17.127108,0.57122505,-8.394854,5.36641,10.45017,-37.19167,11.151308,-19.63685,-27.382633,4.7721233,-4.4359393,-2.403333,17.243595,-26.972036,7.536425,19.056335,-6.8043995,-0.6459477,-10.537265
139,-112.93873596191406,-101.17704772949219,76.216064453125,0.7608139544320629,3.653651937782933,77.34656607445784,-11.496079,-3.1136093,-16.938202,53.94983,-21.796642,0.9898009,-29.134409,-24.856113,-19.722187,50.67753,-18.649897,-0.87959725,-8.149198,5.561137,10.770955,-37.29905,11.103027,-19.625568,-27.287071,5.1920724,-4.5329504,-2.4563859,15.775668,-27.086594,8.135726,18.680859,-6.5786667,-0.5522322,-10.523908
140,-113.89336395263672,-102.04027557373047,75.8562240600586,0.7533575012493515,3.4767734466505105,77.2649803197076,-12.452951,-3.7723827,-16.676804,54.83196,-22.998198,0.54116035,-29.338362,-25.976225,-20.29256,54.873993,-20.136429,-2.1450543,-7.916432,5.692777,11.141294,-37.16276,11.079382,-19.624384,-27.212002,5.4120526,-4.614582,-2.507908,14.255768,-27.136545,8.756124,18.221598,-6.3989825,-0.43680808,-10.462875
141,-114.82414245605469,-102.90563201904297,75.47254943847656,0.7897898166580815,3.207611774110774,77.23570985366854,-13.460382,-4.560395,-16.516945,55.94695,-23.98202,0.09749765,-29.409018,-26.821117,-20.373737,58.918137,-21.608667,-3.182991,-7.6999717,5.750151,11.603968,-36.785267,11.070654,-19.649673,-27.157213,5.3487535,-4.663298,-2.5621934,12.7116,-27.11004,9.355948,17.665459,-6.2809196,-0.30538866,-10.352486
142,-115.73831176757812,-103.77332305908203,75.07696533203125,0.8591414611697972,2.862201948766625,77.25537325626796,-14.554825,-5.4770722,-16.450193,57.344913,-24.812063,-0.335392,-29.368805,-27.459978,-20.138306,62.942028,-23.048717,-4.0618315,-7.522772,5.73521,12.122843,-36.197933,11.0798855,-19.671822,-27.081404,5.0897303,-4.6864023,-2.634094,11.046343,-26.994543,10.009324,17.119242,-6.210421,-0.16220412,-10.2301
143,-116.64000701904297,-104.6233901977539,74.67847442626953,0.9591111733090608,2.502960618889858,77.26569803336946,-15.68718,-6.426238,-16.32945,58.81127,-25.517843,-0.6979537,-29.214897,-27.904812,-19.762774,66.802925,-24.384516,-4.7535524,-7.2964354,5.681706,12.63787,-35.40927,11.115292,-19.727604,-27.010176,4.751871,-4.7162747,-2.6933372,9.372649,-26.803959,10.6434,16.443718,-6.181262,0.0070815235,-10.053672
144,-117.53012084960938,-105.4475326538086,74.28726196289062,1.087764824752201,2.1918255563190567,77.20920593226569,-16.80907,-7.306875,-16.013783,60.12643,-26.127361,-0.92790556,-28.938417,-28.191515,-19.417055,70.35854,-25.554913,-5.2403774,-6.9880404,5.6121855,13.0718565,-34.40215,11.195088,-19.808735,-26.95521,4.4566946,-4.7861586,-2.7229817,7.6892014,-26.550694,11.2935915,15.609528,-6.178017,0.21864486,-9.803859
145,-118.40876007080078,-106.24829864501953,73.91511535644531,1.2700440851711639,1.9521263223990781,77.1006814822239,-17.965315,-8.138343,-15.463638,61.297466,-26.564827,-0.983957,-28.562462,-28.334507,-19.092442,73.59588,-26.539726,-5.478117,-6.6233935,5.515148,13.408469,-33.1207,11.33382,-19.90879,-26.945978,4.22136,-4.903959,-2.708816,5.994148,-26.230722,11.9479065,14.638343,-6.1042814,0.4579704,-9.515585
146,-119.26761627197266,-107.02886962890625,73.56890869140625,1.4971929202537522,1.7492253568569323,76.96018396820106,-19.163774,-8.95162,-14.758734,62.414204,-26.839514,-0.9058702,-28.086706,-28.315254,-18.730854,76.59991,-27.381165,-5.4848986,-6.2221594,5.3804708,13.688682,-31.577188,11.538177,-20.02211,-26.979471,3.980116,-5.052824,-2.6624486,4.2744126,-25.842062,12.608916,13.546327,-5.9973736,0.72320706,-9.188328
147,-120.1070785522461,-107.78677368164062,73.24937438964844,1.719671731862417,1.558280507262338,76.73981090535358,-20.294218,-9.6623335,-13.946153,63.364155,-27.095665,-0.75191903,-27.46573,-28.139318,-18.41923,79.365875,-28.111456,-5.354578,-5.751958,5.2368174,13.9271345,-29.83487,11.813634,-20.141363,-27.046148,3.7380602,-5.2296777,-2.601319,2.5229366,-25.40606,13.335242,12.274726,-6.0382137,1.0482662,-8.742795
148,-120.93310546875,-108.5199203491211,72.94844055175781,1.8880369472259235,1.3542349997959053,76.39206131782976,-21.243204,-10.191965,-13.078019,64.03592,-27.477835,-0.5817713,-26.655764,-27.813276,-18.237772,81.881775,-28.757698,-5.1840625,-5.186458,5.12293,14.13738,-27.94789,12.168232,-20.242773,-27.146957,3.488079,-5.4315243,-2.5457332,0.7389332,-24.952969,14.191682,10.75538,-6.4007635,1.4645964,-8.097242
149,-121.75032043457031,-109.22283935546875,72.66532135009766,1.9838003963276192,1.1293798372972212,75.87959383995918,-21.971684,-10.5005665,-12.142216,64.40433,-28.00501,-0.41261575,-25.636984,-27.314037,-18.215887,84.139885,-29.299318,-5.0193796,-4.542303,5.0557904,14.341018,-25.803308,12.585821,-20.322908,-27.355877,3.3191135,-5.679667,-2.4983933,-1.0724837,-24.493568,15.220197,8.907004,-7.1861362,1.9918101,-7.1742306
150,-122.564697265625,-109.90106201171875,72.39352416992188,2.0350542304514194,0.8967991702312347,75.23712132454827,-22.53477,-10.641188,-11.130653,64.52538,-28.606321,-0.21418081,-24.442898,-26.650242,-18.298677,86.146904,-29.731276,-4.810466,-3.8059738,5.0357466,14.5079975,-23.492598,13.095963,-20.331762,-27.586254,3.0877862,-5.9707966,-2.468673,-2.8640108,-24.022482,16.356705,6.7606397,-8.279064,2.5943737,-6.027713
151,-123.36262512207031,-110.55355072021484,72.13874053955078,2.067452840914186,0.6629102584814295,74.5252770818275,-22.959986,-10.684088,-10.100234,64.41161,-29.291565,0.023336176,-23.117365,-25.878216,-18.431835,87.91737,-30.096107,-4.5068154,-3.0284486,5.0252724,14.635237,-21.038649,13.700663,-20.284163,-27.880333,2.7760584,-6.2614746,-2.4272943,-4.6909776,-23.539444,17.624949,4.4259057,-9.517935,3.2210433,-4.769756
152,-124.14627075195312,-111.19609069824219,71.89305877685547,2.1051978348401787,0.4347115946223314,73.80417421765121,-23.275488,-10.698972,-9.106514,64.07295,-30.070446,0.30827242,-21.698273,-25.050325,-18.571533,89.46044,-30.441277,-4.057113,-2.2646835,4.9865136,14.724492,-18.42394,14.3702135,-20.213188,-28.311304,2.4206505,-6.5085244,-2.3430123,-6.6127787,-23.044024,19.054852,2.0095565,-10.734896,3.8314214,-3.5188613
153,-124.91873168945312,-111.82000732421875,71.65972137451172,2.145086068686982,0.1749578559006585,73.0484941465865,-23.321371,-10.667086,-8.1585045,63.324413,-31.134817,0.64648885,-20.12622,-24.1488,-18.71234,90.77273,-30.791151,-3.4228246,-1.4706591,4.9329033,14.778011,-15.70659,15.100813,-20.123104,-28.826935,1.9756228,-6.6990128,-2.1901553,-8.618961,-22.542322,20.690525,-0.5202404,-12.0465555,4.4634943,-2.232288
154,-125.68331909179688,-112.44928741455078,71.42927551269531,2.1789445777956717,-0.10764194991907004,72.24009973863643,-23.129725,-10.579076,-7.23189,62.216503,-32.4149,1.0238482,-18.409946,-23.15353,-18.872343,91.84895,-31.117609,-2.6437135,-0.6430601,4.877399,14.798277,-12.848068,15.885505,-19.996109,-29.43238,1.4635041,-6.858168,-1.9889674,-10.666347,-22.027317,22.511934,-3.2249222,-13.485864,5.111944,-0.8678647
155,-126.43975830078125,-113.07356262207031,71.21247863769531,2.2210007147221296,-0.3365390865029028,71.44943027429993,-23.022045,-10.508349,-6.326028,61.121124,-33.533504,1.4214107,-16.688725,-22.113552,-19.050028,92.69782,-31.390066,-1.7814081,0.1648711,4.804744,14.753012,-9.878877,16.712727,-19.788736,-30.111069,0.86771166,-6.9993486,-1.8069155,-12.733089,-21.481646,24.400597,-6.0160885,-14.763668,5.6954255,0.4424312
156,-127.18904876708984,-113.68746948242188,71.0155029296875,2.2826723003013996,-0.4345798337768887,70.74709196763958,-23.322742,-10.514718,-5.434352,60.412495,-34.115726,1.8267893,-15.100975,-21.079012,-19.247122,93.32901,-31.577118,-0.8956305,0.90485436,4.6924486,14.608751,-6.827987,17.564798,-19.467499,-30.840328,0.18249175,-7.1341815,-1.7099859,-14.807049,-20.886953,26.233732,-8.791721,-15.5892725,6.1511693,1.5574404
157,-127.93329620361328,-114.30363464355469,70.85177612304688,2.40929630171365,-0.33918211166670637,70.14579395854918,-24.234682,-10.647954,-4.47801,60.294952,-33.99926,2.293075,-13.723758,-20.15201,-19.46097,93.79929,-31.707434,0.0118354475,1.5758183,4.48726,14.299448,-3.681623,18.431751,-19.017292,-31.630003,-0.6623809,-7.2676034,-1.75319,-16.915634,-20.233097,28.033525,-11.552127,-15.823026,6.496219,2.41459
158,-128.67709350585938,-114.94574737548828,70.7258071899414,2.5767872247069934,-0.10418860427086292,69.61021730869953,-25.54828,-10.848474,-3.4692452,60.540443,-33.413063,2.8304834,-12.473082,-19.28014,-19.694992,94.08823,-31.7869,0.9661982,2.2028942,4.207624,13.858662,-0.42807677,19.305906,-18.454319,-32.475815,-1.6375098,-7.3888187,-1.8890281,-19.047016,-19.520287,29.851692,-14.328532,-15.643846,6.7736373,3.0849776
159,-129.43426513671875,-115.61976623535156,70.64392852783203,2.6927002697639297,0.171349032486878,69.13781029308416,-26.974886,-11.01159,-2.5405,60.876812,-32.5702,3.362908,-11.248846,-18.282806,-19.955557,94.08757,-31.749949,1.9482958,2.789627,3.9423575,13.395129,2.8726676,20.170143,-17.800076,-33.312904,-2.605273,-7.486692,-2.0305734,-21.14649,-18.754177,31.595242,-17.055807,-15.229501,6.967006,3.629126
160,-130.18927001953125,-116.3150634765625,70.61611938476562,2.6674398157475325,0.3868919376618425,68.72538777832548,-28.226717,-11.04881,-1.8360956,61.02557,-31.67247,3.792889,-9.959275,-16.978893,-20.236204,93.68817,-31.530972,2.9387064,3.3563914,3.7873547,13.011117,6.1300197,21.001482,-17.098083,-34.04662,-3.4233596,-7.5539184,-2.0899324,-23.159151,-17.945126,33.15288,-19.667059,-14.762793,7.0552297,4.1133966
161,-130.91123962402344,-117.01500701904297,70.63910675048828,2.4348967016410272,0.5359037124502921,68.41666155748958,-29.316673,-10.936292,-1.4746138,61.01114,-30.73794,4.0687423,-8.579622,-15.250048,-20.570126,92.82559,-31.122072,3.913787,3.8966446,3.820555,12.712484,9.312167,21.787437,-16.378372,-34.63572,-4.0699697,-7.5859056,-2.0292475,-25.067802,-17.091457,34.49124,-22.207253,-14.2372055,7.004389,4.5383234
162,-131.6135711669922,-117.71007537841797,70.71802520751953,2.0649252442678665,0.6638689365320471,68.19546518096155,-30.378887,-10.738258,-1.3504786,60.94721,-29.661957,4.251475,-7.1820126,-13.226533,-20.91332,91.57019,-30.562168,4.8844924,4.4021134,3.9714541,12.431192,12.459281,22.522743,-15.611766,-35.10488,-4.608932,-7.5893197,-1.9005096,-27.00487,-16.216257,35.63976,-24.6185,-13.4846945,6.836041,4.886646
163,-132.29324340820312,-118.40406799316406,70.85968780517578,1.6623560627394323,0.7478416052907931,67.97238110084906,-31.299995,-10.494016,-1.291663,60.683502,-28.455761,4.3901935,-5.7985864,-11.090844,-21.152706,90.00001,-29.848747,5.883263,4.943527,4.145825,12.18014,15.521899,23.193758,-14.810356,-35.43877,-5.02512,-7.5751567,-1.7525746,-28.90831,-15.34269,36.61453,-26.85352,-12.657967,6.6150923,5.1798015
164,-132.95770263671875,-119.09059143066406,71.06124877929688,1.3301364871719759,0.7645652517855588,67.65873959133862,-31.963743,-10.232774,-1.1260902,60.077793,-27.136574,4.528887,-4.441683,-9.024989,-21.187683,88.199776,-28.982038,6.945757,5.623807,4.259486,11.980723,18.404789,23.784657,-14.026908,-35.598415,-5.298097,-7.5527773,-1.6364645,-30.637608,-14.473544,37.46452,-28.900038,-12.009757,6.406474,5.4277163
165,-133.6259765625,-119.77745056152344,71.31084442138672,1.0921390326684943,0.6599890929856325,67.21576198849688,-32.26651,-9.93298,-0.8020963,59.076836,-25.726162,4.665527,-3.026001,-7.009233,-20.94418,86.10782,-27.96005,8.132983,6.4669724,4.2997565,11.871169,21.113327,24.282087,-13.263802,-35.542553,-5.3715587,-7.510484,-1.5681813,-32.285896,-13.63415,38.166374,-30.695227,-11.545272,6.2069383,5.6352024
166,-134.30931091308594,-120.47718811035156,71.61174774169922,0.8950548339506154,0.46256110553363755,66.69760350410625,-32.294254,-9.580394,-0.42192587,57.766716,-24.210976,4.7732096,-1.5385935,-4.9775386,-20.47794,83.706276,-26.796371,9.403364,7.4323254,4.3282566,11.834256,23.654568,24.685814,-12.525556,-35.28044,-5.265836,-7.4463716,-1.5267575,-33.86219,-12.835471,38.722233,-32.292465,-11.186021,5.989092,5.791796
167,-134.98764038085938,-121.1771469116211,71.9535903930664,0.7276546820246516,0.27301708525580315,66.15316763679547,-32.2126,-9.214314,-0.03785162,56.214207,-22.556929,4.859802,-0.09959675,-3.0429168,-19.897936,81.15469,-25.508406,10.648027,8.450366,4.346557,11.784446,26.017233,24.999231,-11.804965,-34.883617,-5.080474,-7.3848753,-1.5042269,-35.338577,-12.0831,39.164886,-33.69065,-10.826621,5.7785316,5.913827
168,-135.6643829345703,-121.89047241210938,72.33435821533203,0.5750515800525601,0.19174521940182973,65.63158633064621,-32.18778,-8.877136,0.2996955,54.481255,-20.726967,4.934505,1.1551391,-1.3090159,-19.327175,78.61351,-24.098637,11.769207,9.450611,4.3512774,11.637953,28.191992,25.227015,-11.093779,-34.422325,-4.9153214,-7.3507876,-1.4912708,-36.67945,-11.376298,39.532944,-34.88862,-10.370005,5.6011696,6.0169487
169,-136.34078979492188,-122.62380981445312,72.73808288574219,0.42814056822368,0.2340168956045944,65.09864943124683,-32.21935,-8.548294,0.604149,52.542248,-18.746914,5.0189924,2.2205496,0.20273332,-18.795015,76.05863,-22.547523,12.816215,10.462511,4.346174,11.377248,30.183216,25.373404,-10.389772,-33.907017,-4.7505455,-7.3549094,-1.4841408,-37.87951,-10.713049,39.83834,-35.852757,-9.744753,5.468005,6.087577
170,-137.03665161132812,-123.3742446899414,73.16582489013672,0.2928323864824273,0.35012135576615866,64.54271221872263,-32.232048,-8.217378,0.8950144,50.3761,-16.627079,5.1018715,3.1622372,1.5571603,-18.246265,73.42532,-20.846891,13.829764,11.501122,4.3262887,11.05087,32.00388,25.440765,-9.697117,-33.317707,-4.548992,-7.3825727,-1.4880316,-38.96868,-10.094981,40.071384,-36.58987,-9.0178995,5.3635373,6.124001
171,-137.7467803955078,-124.15157318115234,73.60521697998047,0.1757517710182158,0.543064476918394,64.04488340850445,-32.27402,-7.9433117,1.1307085,48.043274,-14.297824,5.1428285,3.939484,2.7812636,-17.690466,70.81009,-19.00571,14.702828,12.474622,4.2724295,10.676195,33.658455,25.431849,-9.0154,-32.676865,-4.383415,-7.420382,-1.5073704,-39.963097,-9.524621,40.241104,-37.15326,-8.301743,5.27483,6.1588607
172,-138.4635772705078,-124.95538330078125,74.052978515625,0.06256175055994156,0.8221781861380176,63.67635317370494,-32.409588,-7.754064,1.2531451,45.622395,-11.701224,5.09311,4.5088596,3.8986602,-17.214363,68.30458,-17.026928,15.000033,13.298921,4.184252,10.262936,35.15366,25.350016,-8.341591,-32.010433,-4.3259077,-7.454789,-1.5475674,-40.880383,-9.005529,40.36018,-37.594887,-7.709643,5.189729,6.2249
173,-139.18565368652344,-125.78205108642578,74.50273895263672,-0.028628615033170688,1.2450384280142754,63.46235976629879,-32.747528,-7.667617,1.296477,43.1464,-8.679278,5.1920376,4.7655544,4.885813,-16.787966,65.966576,-14.878533,15.000033,13.945921,4.0320144,9.7692,36.486237,25.195875,-7.6524777,-31.324543,-4.420421,-7.4840803,-1.6169974,-41.73434,-8.540972,40.432823,-37.895123,-7.2430506,5.1058054,6.3378944
174,-139.91744995117188,-126.62641906738281,74.94217681884766,-0.04472275845993974,1.7706361427697819,63.388634938987366,-33.173218,-7.7269173,1.3039749,40.498405,-5.274166,5.399143,4.771318,5.694124,-16.364822,63.764103,-12.590252,15.000033,14.429414,3.7805765,9.241261,37.66114,24.972397,-6.9543877,-30.615526,-4.6189756,-7.5145626,-1.7122359,-42.517773,-8.132173,40.46069,-38.038563,-6.8524466,5.0296087,6.477291
175,-140.654541015625,-127.49349975585938,75.36737060546875,-0.04441523649983086,2.2893212906571496,63.41934340100105,-33.48018,-7.8903065,1.147086,37.618103,-1.7721479,5.212108,4.700685,6.4216223,-15.917808,61.61194,-10.212558,15.000033,14.781852,3.5171936,8.762921,38.70411,24.689877,-6.283107,-29.896507,-4.856073,-7.5451064,-1.8200978,-43.220272,-7.781629,40.44594,-38.082714,-6.565087,4.9622293,6.622399
176,-141.40354919433594,-128.36802673339844,75.77044677734375,-0.09192562067727358,2.688403717379916,63.51461061990283,-33.443295,-8.124712,0.6389131,34.41593,1.5534858,4.1126413,4.7370033,7.1720037,-15.408971,59.41814,-7.793133,15.000033,15.043738,3.3356814,8.417308,39.6395,24.365131,-5.671344,-29.181364,-5.0673575,-7.574551,-1.9265369,-43.825764,-7.4919043,40.388443,-38.08943,-6.411214,4.904408,6.7513213
177,-142.15618896484375,-129.2461700439453,76.12935638427734,-0.30416492541756385,2.9564062811561427,63.6613686068938,-32.90809,-8.306891,-0.37472162,30.559525,4.88497,1.6383522,4.9258723,8.0595045,-14.889282,57.068207,-5.0354276,15.000033,15.24261,3.3454416,8.18431,40.488686,24.010792,-5.1032815,-28.471014,-5.2552266,-7.6046133,-2.0317433,-44.33493,-7.267787,40.27657,-38.092915,-6.4757137,4.872907,6.8809223
178,-142.88812255859375,-130.12588500976562,76.43952178955078,-0.6632018425685601,3.1297642126685568,63.85751177115457,-31.947542,-8.422259,-1.8995218,26.097734,8.286739,-1.8646448,5.2167616,9.005297,-14.491803,54.60295,-1.9888252,14.508806,15.378392,3.5174081,8.037363,41.246326,23.632782,-4.56242,-27.776184,-5.4503965,-7.634521,-2.1383572,-44.751057,-7.1130843,40.110874,-38.063175,-6.7155447,4.8612027,7.015083
179,-143.60911560058594,-131.0033416748047,76.69213104248047,-1.103331271102261,3.196447170091982,64.04741014547402,-30.776278,-8.481017,-3.8731887,21.673752,11.217189,-5.6902275,5.6034403,9.971686,-14.070975,52.135853,0.80762964,13.662548,15.489793,3.8031662,7.999388,41.89846,23.238968,-4.080404,-27.127754,-5.630393,-7.6602087,-2.235286,-45.061382,-7.027532,39.906746,-37.964066,-6.968575,4.835297,7.1129785
180,-144.31039428710938,-131.88092041015625,76.88619232177734,-1.5213373746536563,3.1716146473651015,64.1927506320384,-29.71835,-8.530367,-6.106407,18.084532,13.091908,-9.098477,6.034998,10.866654,-13.532026,49.819447,2.795498,12.429201,15.59884,4.1063952,8.078134,42.42239,22.839159,-3.6904175,-26.548344,-5.7730436,-7.6782413,-2.3110566,-45.253,-7.0083528,39.674572,-37.75919,-7.071694,4.7616134,7.1332545
181,-145.0212860107422,-132.77195739746094,77.0361099243164,-1.882902955909415,3.047266322162205,64.29233450761514,-28.787703,-8.667673,-8.722832,15.40045,13.669902,-12.160223,6.505646,11.699961,-12.771317,47.648853,3.800149,10.652895,15.714204,4.385341,8.291849,42.80933,22.445456,-3.3955238,-26.011915,-5.8001595,-7.7019234,-2.3524094,-45.302273,-7.05353,39.411335,-37.461338,-6.9327474,4.6215124,7.041322
182,-145.75503540039062,-133.6768341064453,77.1303939819336,-2.2073611464489775,2.840004405995278,64.38510166993701,-27.900066,-8.838202,-11.583388,13.342643,13.200372,-15.000033,6.987105,12.481939,-11.853654,45.612362,4.1009154,8.443882,15.807541,4.649143,8.619947,43.06887,22.063326,-3.1795354,-25.51208,-5.7502346,-7.728776,-2.3657584,-45.221317,-7.164687,39.106144,-37.083908,-6.656111,4.435104,6.8683395
183,-146.54710388183594,-134.55409240722656,77.15711212158203,-2.2244744152200795,2.540153808217469,64.50387486139795,-27.052513,-9.215616,-13.447754,11.909832,12.106253,-15.000033,7.3778563,12.82475,-10.884721,44.108418,3.6322296,6.2068276,15.825301,4.671836,9.131356,43.199696,21.689829,-3.0485828,-25.09064,-5.7742205,-7.7320375,-2.3702667,-45.04595,-7.343289,38.764935,-36.594284,-6.380754,4.2275815,6.670659
184,-147.34840393066406,-135.47105407714844,77.13727569580078,-2.0613882628887765,2.3397545545668845,64.71004367283828,-26.824558,-9.708725,-14.845072,11.863123,10.474587,-15.000033,7.4821167,12.856782,-10.154872,43.05717,2.6580994,4.181777,15.7006235,4.507294,9.624041,43.17076,21.319845,-3.001171,-24.76889,-6.0201836,-7.6860967,-2.3890204,-44.812244,-7.588958,38.38918,-35.962166,-6.245777,4.022868,6.5010395
185,-148.16177368164062,-136.42494201660156,77.08712005615234,-1.7009444813706736,2.3181245050462143,65.03610910846929,-27.492376,-10.422141,-15.794251,13.598941,8.147498,-15.000033,7.193111,12.549341,-9.735343,42.48988,1.0453248,2.4017172,15.393245,4.1111717,10.035378,42.96796,20.947517,-3.0348399,-24.563162,-6.6133595,-7.562787,-2.4404013,-44.54257,-7.904888,37.97645,-35.189148,-6.313056,3.8245723,6.3767676
186,-148.98617553710938,-137.4053955078125,76.98932647705078,-1.204418837757279,2.4113483641087314,65.45524305940536,-28.81935,-11.327568,-16.441338,16.74911,5.153098,-15.000033,6.6065755,12.029002,-9.477637,42.290348,-1.197264,0.7434375,14.940375,3.5579822,10.401244,42.608555,20.572659,-3.147124,-24.45757,-7.4435835,-7.382226,-2.5081859,-44.20647,-8.291642,37.52708,-34.294636,-6.499687,3.620734,6.265485
187,-149.82608032226562,-138.39877319335938,76.83495330810547,-0.7061101596088027,2.5315303176452675,65.93008893151972,-30.459787,-12.1778,-16.620403,20.719631,1.9468849,-15.000033,5.889778,11.4832325,-9.299273,42.268444,-3.673291,-0.7428846,14.396055,3.0160854,10.747329,42.11988,20.199585,-3.3384356,-24.43095,-8.309284,-7.190991,-2.5622914,-43.765266,-8.740268,37.050713,-33.265728,-6.726753,3.4137661,6.1461515
188,-150.6851043701172,-139.39385986328125,76.63414764404297,-0.2796458315390602,2.583337645091773,66.42052245889447,-32.071526,-12.749321,-16.153084,24.942661,-1.0434227,-15.000033,5.1988297,11.007766,-9.13596,42.3069,-6.0222864,-2.0189052,13.813095,2.5936427,11.128585,41.52041,19.834454,-3.6095772,-24.448444,-9.010122,-7.0378103,-2.5745265,-43.184006,-9.234589,36.552376,-32.084274,-6.916287,3.2056613,5.999677
189,-151.562255859375,-140.37911987304688,76.38014221191406,0.16397800594800696,2.5061598522478064,66.93404665462108,-33.57061,-12.982476,-14.515415,29.395737,-3.7493715,-13.800739,4.5963364,10.46961,-8.961696,42.4644,-8.171592,-3.0866995,13.175419,2.235432,11.616229,40.81557,19.476954,-3.9715695,-24.533043,-9.521604,-6.9353976,-2.5228121,-42.459682,-9.762957,36.03414,-30.74039,-7.0530114,2.9822798,5.8467216
190,-152.44480895996094,-141.35801696777344,76.08609771728516,0.5421489375047691,2.3688883513054932,67.4711618831228,-35.12782,-12.7603245,-12.177808,34.3256,-6.4246383,-12.245782,4.022682,9.959064,-8.8327875,42.68026,-10.238131,-4.0046105,12.477348,1.9863019,12.136707,40.001465,19.123276,-4.4180856,-24.692953,-9.944927,-6.859143,-2.4263656,-41.612835,-10.319785,35.49248,-29.230236,-7.180721,2.7476723,5.690505
191,-153.3348846435547,-142.3317413330078,75.75042724609375,0.8228857189832736,2.190460136662026,67.97698694191541,-36.594048,-12.15389,-9.7784815,39.37609,-8.999096,-10.59229,3.4427764,9.514444,-8.743424,42.989212,-12.364648,-4.7334414,11.781337,1.8544774,12.670288,39.07711,18.773907,-4.924614,-24.878794,-10.26794,-6.8016505,-2.3198524,-40.649853,-10.896658,34.92214,-27.541521,-7.30589,2.5304804,5.4870405
192,-154.2242889404297,-143.29574584960938,75.37897491455078,0.9948581498864574,1.998530579689809,68.40699860937293,-37.870564,-11.371559,-7.8760777,44.236305,-11.386529,-9.011177,2.8061485,9.149826,-8.693144,43.44088,-14.702541,-5.228546,11.142152,1.8301628,13.194278,38.036133,18.432747,-5.468072,-25.032616,-10.479447,-6.755164,-2.2375782,-39.574173,-11.481668,34.317764,-25.664598,-7.4385195,2.3592498,5.192068
193,-155.1160888671875,-144.25294494628906,74.97698974609375,1.0640254407816776,1.7877859602151813,68.75857359134713,-39.001408,-10.45384,-6.4220767,48.99679,-13.565401,-7.4279156,2.1157753,8.841348,-8.703255,44.080624,-17.445658,-5.3847594,10.558449,1.9096643,13.714749,36.878452,18.10011,-6.049889,-25.161325,-10.517479,-6.7189903,-2.1876588,-38.354618,-12.062422,33.69396,-23.608156,-7.504987,2.295933,4.7621136
194,-156.0006561279297,-145.20021057128906,74.54971313476562,1.0496243760996051,1.556388451251434,69.06181593337553,-40.01903,-9.349831,-5.177294,53.771297,-15.581572,-5.7823253,1.3759112,8.552662,-8.7963705,44.89411,-20.47328,-5.2658863,10.0008,2.0854304,14.242029,35.599815,17.773985,-6.681837,-25.283487,-10.409488,-6.696782,-2.1521997,-36.978607,-12.624576,33.055904,-21.379179,-7.550298,2.3063836,4.2294106
195,-156.86155700683594,-146.1472930908203,74.10939025878906,0.9716503596840063,1.3409568573661919,69.32566393564565,-40.87862,-8.238074,-4.3332524,58.34048,-17.422651,-4.3126693,0.5255401,8.272969,-8.96597,45.860188,-23.474327,-5.0705347,9.442272,2.3210511,14.743419,34.22279,17.447197,-7.329509,-25.377241,-10.28456,-6.687922,-2.1217573,-35.605217,-13.182309,32.35252,-18.872168,-7.634412,2.2757964,3.6757104
196,-157.71258544921875,-147.08290100097656,73.6698989868164,0.8521144352605922,1.1787772060347563,69.55977318863562,-41.555126,-7.322864,-4.0492196,62.49816,-19.068121,-3.2736602,-0.49019122,8.000096,-9.184111,46.94372,-26.131357,-4.988015,8.924279,2.600199,15.20936,32.702946,17.127144,-8.008832,-25.400427,-10.261107,-6.690557,-2.0932064,-34.156857,-13.714499,31.59255,-16.142115,-8.047908,2.0951445,3.158286
197,-158.54696655273438,-148.01321411132812,73.23736572265625,0.6718354752068281,1.103631866822535,69.74333655646375,-42.104492,-6.7054257,-4.416739,66.251755,-20.487097,-2.833543,-1.7359214,7.755882,-9.451048,48.168587,-28.387268,-5.0778813,8.457523,2.9323583,15.611276,31.03871,16.80494,-8.716189,-25.3411,-10.472248,-6.7132726,-2.0662234,-32.643314,-14.211706,30.751242,-13.104865,-8.935631,1.741881,2.7565691
198,-159.37464904785156,-148.91986083984375,72.83042907714844,0.43643540787001145,1.0911035956153314,69.88265311770586,-42.547043,-6.3280325,-5.262145,69.73489,-21.699512,-2.8561513,-3.1694381,7.5239363,-9.772455,49.54875,-30.411484,-5.231801,8.017899,3.3185246,15.963433,29.25194,16.472078,-9.439822,-25.226904,-10.821851,-6.754333,-2.0419507,-31.064314,-14.673015,29.849335,-9.779816,-10.148292,1.2771122,2.4075718
199,-160.21551513671875,-149.80970764160156,72.44096374511719,0.20689282000869355,1.0910714828259422,70.02777944603484,-42.809483,-6.1474395,-6.345262,72.93738,-22.76438,-3.1441004,-4.681256,7.2486243,-10.116878,51.029343,-32.22353,-5.384487,7.5601482,3.7123575,16.301054,27.368822,16.137398,-10.159447,-25.083103,-11.095729,-6.797028,-2.0121343,-29.44481,-15.099722,28.91528,-6.2823114,-11.42032,0.71901214,1.9707419
200,-161.03866577148438,-150.70529174804688,72.0561752319336,0.0492480997968245,1.0531181904802764,70.22812355071646,-42.81892,-6.1028657,-7.43997,75.830284,-23.729315,-3.486887,-6.1629477,6.868966,-10.452219,52.55581,-33.837337,-5.470825,7.041324,4.055794,16.655867,25.413307,15.821386,-10.861423,-24.929775,-11.082515,-6.824507,-1.9656259,-27.833897,-15.500851,27.96987,-2.7035408,-12.470779,0.08604787,1.3141949
201,-161.854736328125,-151.5548553466797,71.69791412353516,-0.003910813111796695,0.9697237917254666,70.47779772971795,-42.541187,-6.2687044,-8.56735,78.38861,-24.569237,-3.9418342,-7.636215,6.3481584,-10.761589,54.197598,-35.245247,-5.4795585,6.4799714,4.3280063,17.037233,23.358896,15.533794,-11.570163,-24.736946,-10.63738,-6.830773,-1.8933321,-26.229118,-15.879258,26.980124,1.0632552,-13.219435,-0.7262461,0.28545406
202,-162.6503143310547,-152.387451171875,71.35459899902344,0.012312107877271388,0.8657070100549737,70.75653007930079,-42.012165,-6.647183,-9.802864,80.6473,-25.284143,-4.58712,-9.1401615,5.7179804,-11.057501,55.95489,-36.4422,-5.447166,5.8958154,4.5527596,17.422138,21.203108,15.273045,-12.292295,-24.506548,-9.908613,-6.824769,-1.7985731,-24.58959,-16.237988,25.939133,5.0117435,-13.827906,-1.6877464,-1.0047355
203,-163.42922973632812,-153.21420288085938,71.0381088256836,0.05481607362296509,0.7393866645514505,71.09251370873253,-41.283985,-7.043223,-11.031583,82.66453,-25.945887,-5.2298403,-10.591267,5.027528,-11.357258,57.664997,-37.45006,-5.378875,5.2608867,4.745444,17.79328,18.988272,15.047985,-13.004209,-24.294111,-9.123235,-6.811509,-1.6901742,-22.883242,-16.587555,24.89472,8.861211,-14.384422,-2.5798264,-2.2875662
204,-164.18907165527344,-154.03309631347656,70.75286865234375,0.07924539003856358,0.5896545082182446,71.51435874831547,-40.421257,-7.2567,-12.147032,84.49018,-26.61299,-5.6672783,-11.906737,4.3277326,-11.684075,59.164207,-38.2904,-5.278721,4.5534906,4.921287,18.135397,16.749954,14.8740015,-13.688369,-24.15368,-8.509272,-6.7972364,-1.5760609,-21.090984,-16.943039,23.888645,12.339765,-14.951227,-3.1868348,-3.2934957
205,-164.92579650878906,-154.82447814941406,70.51029968261719,0.08059116442695195,0.4160087769620962,72.03570634516988,-39.43514,-7.2230372,-13.127748,86.12269,-27.301373,-5.856344,-13.095409,3.6263552,-12.048063,60.458496,-38.935627,-5.141297,3.772717,5.0769725,18.45485,14.459178,14.766634,-14.365733,-24.08487,-8.134866,-6.7884617,-1.4374628,-19.216028,-17.313702,22.890564,15.420791,-15.655698,-3.3883507,-3.9342537
206,-165.64199829101562,-155.6065673828125,70.30337524414062,0.07789392132289331,0.21932577333485023,72.63924845771298,-38.30959,-7.0352015,-14.0424185,87.54087,-27.972515,-5.8926487,-14.192452,2.8996599,-12.438985,61.620445,-39.384,-4.970806,2.9492567,5.205022,18.756058,12.095673,14.726685,-15.066333,-24.061705,-7.88314,-6.7813306,-1.271893,-17.247915,-17.699478,21.869522,18.22407,-16.405546,-3.3258038,-4.350956
207,-166.34033203125,-156.37896728515625,70.14210510253906,0.06307185152376205,0.0012629593311955288,73.3073250548834,-37.07953,-6.7293153,-14.924023,88.76177,-28.594044,-5.781376,-15.156524,2.1543036,-12.855783,62.58672,-39.695545,-4.780392,2.1078396,5.3187037,19.024261,9.703066,14.742827,-15.787375,-24.095207,-7.7023115,-6.7676377,-1.1146256,-15.152217,-18.096018,20.863852,20.698185,-16.935343,-3.1818867,-4.61897
208,-167.02346801757812,-157.11557006835938,70.02313995361328,0.02755953637683539,-0.23648271621817332,74.02261568846896,-35.774677,-6.3460646,-15.804758,89.80159,-29.136314,-5.530609,-15.944951,1.3978457,-13.300396,63.292423,-39.930576,-4.5784802,1.2618343,5.432512,19.24579,7.3299356,14.796385,-16.514118,-24.19343,-7.536413,-6.738671,-1.0048059,-12.910733,-18.495766,19.92047,22.79902,-16.986866,-3.1404817,-4.8189197
209,-167.70565795898438,-157.82974243164062,69.94890594482422,-0.03609808622832435,-0.5188809137240407,74.81330869607403,-34.377552,-5.8499146,-16.679712,90.68902,-29.603035,-5.0731664,-16.499401,0.62967867,-13.80614,63.694523,-40.110405,-4.3706274,0.38003787,5.5559855,19.44229,4.965752,14.881298,-17.255163,-24.367403,-7.3863735,-6.6863303,-0.9633631,-10.499913,-18.890602,19.010336,24.495201,-16.303522,-3.2645679,-4.919198
210,-168.38735961914062,-158.52871704101562,69.91748809814453,-0.12429361001977957,-0.8378858468202739,75.67778439281567,-32.891575,-5.2273307,-17.53857,91.40695,-30.009079,-4.427968,-16.857487,-0.1486866,-14.369492,63.835983,-40.20014,-4.146198,-0.53524965,5.6777973,19.613762,2.5843413,14.995337,-18.02419,-24.599709,-7.2745667,-6.6181235,-0.9682035,-7.9546037,-19.276758,18.118004,25.83777,-15.089111,-3.4569082,-4.890666
211,-169.0684814453125,-159.20753479003906,69.93526458740234,-0.22732200367286723,-1.1422662731401034,76.55446546378944,-31.372812,-4.558806,-18.397753,91.90697,-30.33858,-3.7311041,-17.120691,-0.92606866,-14.936284,63.780815,-40.17241,-3.8875625,-1.4320419,5.787424,19.715368,0.2199645,15.120037,-18.798622,-24.857643,-7.1698856,-6.548594,-0.9982928,-5.35412,-19.650494,17.32018,26.907219,-13.780151,-3.659401,-4.8232417
212,-169.73817443847656,-159.8616943359375,69.99992370605469,-0.3319189458444766,-1.381056953696744,77.38185349305924,-29.872265,-3.9321961,-19.269138,92.14559,-30.572338,-3.1188366,-17.392717,-1.6922059,-15.449513,63.594227,-40.001713,-3.5785823,-2.2702396,5.8774605,19.697897,-2.092141,15.23038,-19.53694,-25.101385,-7.035522,-6.490932,-1.0388615,-2.8015718,-20.012613,16.712868,27.80935,-12.818071,-3.8162742,-4.8153095
213,-170.4210205078125,-160.50967407226562,70.103759765625,-0.44257965815629446,-1.5491709935546794,78.16869378403348,-28.391031,-3.3225646,-20.149021,92.12219,-30.686594,-2.5724661,-17.673594,-2.4415512,-15.916932,63.266563,-39.686066,-3.2053945,-3.0491881,5.957042,19.530268,-4.3926935,15.318623,-20.243301,-25.288034,-6.8324943,-6.4564586,-1.1057708,-0.30213302,-20.374672,16.35431,28.555273,-12.389193,-3.9098122,-4.9172335
214,-171.1046905517578,-161.1410369873047,70.25330352783203,-0.5624485851514923,-1.6708880397256982,78.939825388013,-26.905924,-2.7037463,-21.024803,91.86157,-30.695944,-2.0364113,-17.91976,-3.1753054,-16.363619,62.771408,-39.23566,-2.779532,-3.792573,6.032993,19.245106,-6.694554,15.385689,-20.929335,-25.43072,-6.582532,-6.4352508,-1.208168,2.172896,-20.744263,16.188528,29.114893,-12.238528,-3.9712422,-5.0760036
215,-171.79200744628906,-161.76402282714844,70.44540405273438,-0.6729946713693473,-1.7401723517054817,79.65748627209445,-25.420675,-2.1657312,-21.895359,91.357,-30.63088,-1.5895771,-18.1701,-3.896722,-16.753813,62.144314,-38.6403,-2.325228,-4.4994955,6.094153,18.882431,-8.924657,15.42164,-21.554482,-25.567263,-6.3359847,-6.4077225,-1.3233757,4.5624065,-21.120165,16.148338,29.537209,-12.149244,-4.0152693,-5.237026
216,-172.4859619140625,-162.37770080566406,70.67803955078125,-0.7515634759528408,-1.7506731191637,80.2844256602163,-23.936,-1.8000941,-22.765669,90.603264,-30.523676,-1.3105527,-18.46475,-4.6127706,-17.049938,61.422787,-37.895313,-1.8658644,-5.1746893,6.129437,18.478128,-11.009112,15.411939,-22.070984,-25.728683,-6.138058,-6.353427,-1.4312013,6.795199,-21.495737,16.175148,29.88666,-11.905955,-4.058966,-5.3465366
217,-173.19921875,-162.99256896972656,70.9427719116211,-0.8014093633179991,-1.6931639124526765,80.80526171019056,-22.426262,-1.6284473,-23.670187,89.55665,-30.416712,-1.2521675,-18.81937,-5.3182473,-17.226168,60.608765,-36.99992,-1.4098183,-5.8039346,6.137017,18.01179,-12.962859,15.347897,-22.469797,-25.884295,-5.99169,-6.256116,-1.5310396,8.855717,-21.875183,16.314959,30.185066,-11.427283,-4.109753,-5.405298
218,-173.93557739257812,-163.60809326171875,71.24313354492188,-0.8282272398040257,-1.573446135141251,81.24246969063053,-20.893782,-1.599305,-24.605284,88.24144,-30.286482,-1.3502802,-19.213345,-6.01119,-17.302027,59.683323,-35.95934,-0.9443284,-6.385939,6.1283355,17.470184,-14.837489,15.2328,-22.776514,-26.002285,-5.8702297,-6.1294656,-1.6366805,10.782993,-22.268732,16.572475,30.400948,-10.839519,-4.1571984,-5.4390807
219,-174.68463134765625,-164.2153778076172,71.5841064453125,-0.8247024119786073,-1.4099599071180666,81.61467393732003,-19.379787,-1.6963025,-25.522839,86.75184,-30.065218,-1.5081354,-19.632593,-6.703333,-17.303331,58.65355,-34.77326,-0.46329534,-6.9431596,6.1110168,16.898039,-16.613516,15.07264,-22.996172,-26.113565,-5.7705436,-5.9972596,-1.7471277,12.5863495,-22.67482,16.826849,30.517069,-10.238691,-4.1910257,-5.4292927
220,-175.47264099121094,-164.82118225097656,71.9588851928711,-0.7810502865269734,-1.2206647902346164,81.94041390722319,-17.929003,-1.9075985,-26.372583,85.17952,-29.679848,-1.6345092,-20.063585,-7.408376,-17.251394,57.528923,-33.44205,0.04015405,-7.492968,6.091133,16.338356,-18.27661,14.876987,-23.136377,-26.247524,-5.694337,-5.883073,-1.860127,14.278979,-23.083492,16.952837,30.51548,-9.724117,-4.2005506,-5.3563347
221,-176.26930236816406,-165.4351043701172,72.35995483398438,-0.6900323647108921,-1.0177255466775548,82.22378144748579,-16.499592,-2.3031435,-27.205904,83.49329,-29.11901,-1.7476865,-20.493093,-8.148519,-17.13587,56.32275,-31.966711,0.57150537,-8.044418,6.0563927,15.801394,-19.81491,14.650068,-23.187105,-26.406153,-5.6631155,-5.797298,-1.9736779,15.868321,-23.48473,16.936827,30.367508,-9.319974,-4.181983,-5.2085567
222,-177.09303283691406,-166.05836486816406,72.78411102294922,-0.5576242970417064,-0.7888434678876658,82.45559376464976,-15.086962,-2.8607602,-28.047464,81.665886,-28.42091,-1.8766428,-20.93084,-8.915002,-16.936653,55.027615,-30.351295,1.1273636,-8.578692,6.0074344,15.26271,-21.25156,14.395451,-23.153532,-26.570879,-5.670153,-5.725289,-2.0874796,17.3526,-23.877264,16.831545,30.088915,-8.97805,-4.140465,-4.998148
223,-177.92884826660156,-166.68844604492188,73.22306823730469,-0.3983685507824215,-0.5164020087402307,82.63445108058104,-13.794537,-3.4468753,-28.796944,79.79027,-27.587782,-1.9614614,-21.395424,-9.675741,-16.664637,53.623154,-28.602753,1.7017118,-9.098735,5.955716,14.729852,-22.53415,14.095145,-23.093784,-26.804747,-5.5837927,-5.6542826,-2.1871705,18.69948,-24.259422,16.6415,29.733393,-8.684139,-4.079559,-4.74062
224,-178.78709411621094,-167.33358764648438,73.67394256591797,-0.22819878632579,-0.1830792815344317,82.75898664733272,-12.729925,-3.9365408,-29.339777,77.96333,-26.610924,-1.9508832,-21.905018,-10.391415,-16.335918,52.082554,-26.723175,2.2872136,-9.505316,5.9649954,14.155418,-23.925035,13.824081,-22.955748,-26.929764,-5.617968,-5.568718,-2.3120337,19.988543,-24.62473,16.26967,29.329569,-8.4274845,-4.0015416,-4.4519544
225,-179.66387939453125,-167.9886932373047,74.13304138183594,-0.042158288210097185,0.23851444635319158,82.84605439788508,-11.946584,-4.349994,-29.65651,76.19676,-25.438728,-1.8580049,-22.49824,-11.069451,-15.969304,50.404892,-24.665352,2.8817775,-9.904201,5.9907217,13.574124,-25.144964,13.54065,-22.821074,-27.197626,-5.439534,-5.4650016,-2.4173243,21.115044,-24.971188,15.773236,28.893345,-8.225836,-3.9042025,-4.105811
226,-180.55503845214844,-168.65611267089844,74.59761047363281,0.1617537669225009,0.731407893080057,82.89079802173717,-11.381891,-4.7428927,-29.795275,74.44284,-24.091091,-1.7136402,-23.151701,-11.722774,-15.5419035,48.60108,-22.44672,3.4911623,-10.261886,6.041921,12.972824,-26.297707,13.249794,-22.646852,-27.49882,-5.187429,-5.3499694,-2.5225823,22.118605,-25.29496,15.139571,28.402586,-8.079577,-3.78664,-3.70449
227,-181.4568328857422,-169.3392333984375,75.05955505371094,0.37850609537313445,1.2472397049032524,82.86027283123462,-10.965594,-5.0636888,-29.725767,72.69132,-22.659792,-1.4951594,-23.799631,-12.326103,-15.010669,46.66686,-20.156132,4.1190867,-10.542977,6.1045794,12.391475,-27.349688,12.954756,-22.46334,-27.841827,-4.947269,-5.2321773,-2.609673,22.993477,-25.595098,14.430616,27.888113,-7.9495835,-3.6589468,-3.3016908
228,-182.3780059814453,-170.0436248779297,75.51248168945312,0.6012673849119151,1.7378545499094127,82.72163988466114,-10.626568,-5.260153,-29.41657,70.935776,-21.240448,-1.178133,-24.37811,-12.842405,-14.344515,44.593662,-17.877228,4.7661138,-10.706279,6.166742,11.8662615,-28.28577,12.667443,-22.289768,-28.216091,-4.830863,-5.1194882,-2.6639497,23.741266,-25.87054,13.703702,27.378208,-7.7962804,-3.5304146,-2.9515676
229,-183.3044891357422,-170.75794982910156,75.94766998291016,0.8418215518086087,2.2178968584813537,82.45464985827019,-10.400091,-5.3132496,-28.789488,69.189926,-19.726004,-0.74300456,-24.87246,-13.264259,-13.564442,42.195686,-15.437273,5.4578915,-10.730843,6.2194843,11.398502,-29.098772,12.395059,-22.123083,-28.641476,-4.8476443,-5.015001,-2.6517966,24.344389,-26.121046,12.940186,26.893642,-7.586302,-3.399983,-2.6785681
230,-184.22396850585938,-171.47674560546875,76.35382080078125,1.0993515043580224,2.704338414145483,82.08244674286759,-10.295795,-5.257699,-27.86508,67.45109,-18.11634,-0.20760812,-25.31496,-13.585854,-12.687616,39.52021,-12.840516,6.1861453,-10.647078,6.2618313,10.97318,-29.785337,12.138469,-21.956556,-29.129301,-4.9437346,-4.913674,-2.5881748,24.795162,-26.347652,12.129695,26.422861,-7.349138,-3.2637439,-2.451304
231,-185.14283752441406,-172.1940155029297,76.72750854492188,1.3481742998674393,3.1520644830599744,81.63437445566477,-10.201151,-5.127917,-26.768711,65.68949,-16.66626,0.39493,-25.71424,-13.781322,-11.687032,36.91982,-10.44147,6.8991933,-10.492327,6.2904778,10.603452,-30.330208,11.903631,-21.800943,-29.666918,-5.136187,-4.811323,-2.5305996,25.109913,-26.553461,11.34336,25.944925,-7.140074,-3.1267598,-2.2404256
232,-186.05201721191406,-172.9066925048828,77.04739379882812,1.5644339336785513,3.515468347458402,81.13868734770642,-10.007482,-4.963555,-25.638702,63.87566,-15.627353,1.0249238,-26.078274,-13.846824,-10.538698,34.75866,-8.60378,7.543824,-10.318988,6.2987323,10.30938,-30.681984,11.689651,-21.678505,-30.270481,-5.4046674,-4.703716,-2.53037,25.287914,-26.744797,10.668839,25.447084,-7.0141444,-2.9962268,-2.0173008
233,-186.9523468017578,-173.62347412109375,77.31653594970703,1.7529911732341146,3.7663334152065273,80.56211635443364,-9.652639,-4.768713,-24.481459,61.979477,-15.107267,1.7356193,-26.352707,-13.753843,-9.12534,32.934017,-7.441384,8.131546,-10.115934,6.2742906,10.115249,-30.812597,11.501623,-21.591526,-30.969835,-5.816794,-4.5706787,-2.6092453,25.313284,-26.932951,10.117562,24.939774,-7.0150642,-2.8816426,-1.7661189
234,-187.85195922851562,-174.34458923339844,77.53152465820312,1.925594218566518,3.9332940493802555,79.9018543891758,-9.193861,-4.5403285,-23.242266,60.022156,-14.960306,2.515307,-26.53903,-13.528632,-7.513432,31.313871,-6.7502737,8.684312,-9.863829,6.2257967,10.004196,-30.761429,11.353305,-21.511011,-31.74692,-6.3849792,-4.4193006,-2.7396772,25.195915,-27.12155,9.649046,24.421669,-7.1010966,-2.77756,-1.504455
235,-188.74172973632812,-175.06072998046875,77.68311309814453,2.0673657499928013,4.057170177856689,79.22955432390593,-8.712075,-4.3030095,-21.97736,58.048943,-15.051718,3.2243118,-26.753275,-13.259902,-5.9509544,30.256409,-6.4396286,9.158566,-9.633654,6.1684003,9.949158,-30.48062,11.219561,-21.475613,-32.618835,-6.8774195,-4.288012,-2.8817875,24.935741,-27.309889,9.304784,23.873314,-7.2027807,-2.6661055,-1.2535102
236,-189.6310272216797,-175.76661682128906,77.77066802978516,2.1590008047451814,4.1802973694556345,78.61600379956138,-8.295315,-4.067099,-20.740263,56.10481,-15.237884,3.727534,-27.12634,-13.025926,-4.682821,30.13337,-6.427208,9.505714,-9.410329,6.151654,9.881287,-30.152391,11.121382,-21.411495,-33.419296,-7.311826,-4.2124624,-3.039081,24.625528,-27.482489,9.047343,23.251019,-7.248334,-2.5282652,-1.0356077
237,-190.51283264160156,-176.48089599609375,77.8009033203125,2.17698003585528,4.308802457973356,78.04761868564168,-7.924197,-3.7800796,-19.491428,54.068966,-15.416819,3.9893386,-27.72136,-12.763433,-3.6740947,31.110632,-6.763822,9.746178,-9.203222,6.1842923,9.800309,-29.725193,11.0534315,-21.349426,-34.199062,-7.580828,-4.2177424,-3.220463,24.240694,-27.63822,8.904324,22.556826,-7.217962,-2.3471692,-0.86397076
