unveil-humanoid-operators/unveil-humanoid-operators.github.io/feature-analysis-animation/data/feature_matrix_instances/age_waist_rom_jogging_A072_jog_ff_start_270_001__A072.csv
Frame,root_translateX,root_translateY,root_translateZ,root_rotateX,root_rotateY,root_rotateZ,left_hip_pitch_joint_dof,left_hip_roll_joint_dof,left_hip_yaw_joint_dof,left_knee_joint_dof,left_ankle_pitch_joint_dof,left_ankle_roll_joint_dof,right_hip_pitch_joint_dof,right_hip_roll_joint_dof,right_hip_yaw_joint_dof,right_knee_joint_dof,right_ankle_pitch_joint_dof,right_ankle_roll_joint_dof,waist_yaw_joint_dof,waist_roll_joint_dof,waist_pitch_joint_dof,left_shoulder_pitch_joint_dof,left_shoulder_roll_joint_dof,left_shoulder_yaw_joint_dof,left_elbow_joint_dof,left_wrist_roll_joint_dof,left_wrist_pitch_joint_dof,left_wrist_yaw_joint_dof,right_shoulder_pitch_joint_dof,right_shoulder_roll_joint_dof,right_shoulder_yaw_joint_dof,right_elbow_joint_dof,right_wrist_roll_joint_dof,right_wrist_pitch_joint_dof,right_wrist_yaw_joint_dof
0,-2.003892660140991,0.26876404881477356,78.50830841064453,0.6075643799512612,-4.358231649926984,-3.671386520062238,4.3680625,6.9409366,14.038583,9.900998,-9.925636,-5.860516,4.4674535,-7.339117,-8.455333,8.520082,-7.813591,9.397906,-1.2937449,-0.3374372,13.074114,-3.8207219,17.591597,-37.52179,60.386196,4.065239,3.4100084,-6.2741528,-6.7223563,-15.071459,26.766493,66.73648,19.980883,6.3436723,1.3858886
1,-1.993523359298706,0.26636385917663574,78.50130462646484,0.5950616289653888,-4.319820636240295,-3.678745797310033,4.2714906,6.9745173,14.007415,10.034175,-10.008394,-5.9025836,4.284591,-7.340375,-8.423474,8.826265,-7.964842,9.366319,-1.287901,-0.31450948,13.087092,-3.8027956,17.609423,-37.50587,60.36079,4.074363,3.413533,-6.272171,-6.7309885,-15.076296,26.7615,66.72761,20.01457,6.324819,1.3732723
2,-1.9869751930236816,0.26382219791412354,78.49427795410156,0.5825776013222735,-4.283507992534416,-3.685737231805946,4.1797624,7.0064945,13.974927,10.162308,-10.088731,-5.9434447,4.1065774,-7.342939,-8.39232,9.128634,-8.113618,9.33559,-1.2912494,-0.29281476,13.108077,-3.7647386,17.644741,-37.47261,60.30231,4.089646,3.4190412,-6.27464,-6.7434025,-15.085032,26.76219,66.71255,20.05047,6.3058968,1.3608867
3,-1.9784268140792847,0.2577446699142456,78.48723602294922,0.5705005209051325,-4.243783424135491,-3.693375919104999,4.0777507,7.041619,13.944931,10.303162,-10.175216,-5.9866734,3.9180636,-7.3440804,-8.359308,9.442213,-8.268339,9.302425,-1.2910764,-0.2725244,13.124645,-3.7404103,17.670555,-37.445942,60.26647,4.1014776,3.4219618,-6.2744784,-6.7569103,-15.089376,26.76149,66.701256,20.081419,6.2886844,1.3507665
4,-1.9772135019302368,0.25041866302490234,78.48241424560547,0.5593392862838705,-4.195089058666237,-3.702772677778123,3.9517667,7.083903,13.921769,10.47108,-10.274221,-6.035839,3.6875618,-7.3441043,-8.319801,9.817146,-8.451128,9.263192,-1.2858232,-0.2561829,13.136758,-3.7344463,17.686094,-37.426144,60.25734,4.1085987,3.4213247,-6.2694554,-6.7718854,-15.08971,26.75479,66.688774,20.095106,6.277239,1.3473313
5,-1.9716265201568604,0.23394660651683807,78.4687728881836,0.5463089678586094,-4.136306099664127,-3.711363726585695,3.7974975,7.1375475,13.905642,10.672644,-10.390691,-6.097056,3.4155052,-7.3399744,-8.275999,10.252013,-8.664679,9.216021,-1.2850183,-0.24488327,13.154093,-3.7250195,17.711727,-37.392506,60.236897,4.119859,3.4159307,-6.2641916,-6.7918553,-15.085061,26.742676,66.6645,20.074144,6.2726254,1.3581318
6,-1.97427499294281,0.21736882627010345,78.45408630371094,0.5317248297712842,-4.070508272830067,-3.7195212542085545,3.6235826,7.199474,13.8947935,10.897368,-10.519144,-6.166666,3.1136968,-7.332669,-8.228852,10.729819,-8.899756,9.16266,-1.2790043,-0.23298228,13.164584,-3.7324438,17.726896,-37.370857,60.24417,4.1241264,3.4059613,-6.2526755,-6.807774,-15.079006,26.730228,66.63723,20.038548,6.272111,1.3759432
7,-1.975587010383606,0.19834020733833313,78.4378433227539,0.5225005263679845,-3.99851884175172,-3.732620942434389,3.4320176,7.262783,13.8892565,11.143161,-10.655187,-6.233246,2.771466,-7.330355,-8.171905,11.271303,-9.160717,9.105002,-1.2707642,-0.23042557,13.178536,-3.7476122,17.74222,-37.345848,60.2563,4.1267166,3.3959014,-6.242211,-6.828958,-15.070033,26.710674,66.604546,19.999905,6.277703,1.3962531
8,-1.9806935787200928,0.17127737402915955,78.41853332519531,0.5260490666073135,-3.921095953769219,-3.7559762541595254,3.2272937,7.3194427,13.889848,11.402798,-10.791677,-6.2853703,2.3780105,-7.341197,-8.098506,11.896365,-9.45076,9.044992,-1.2622072,-0.268395,13.208773,-3.7379472,17.817635,-37.29713,60.211323,4.1306453,3.3928897,-6.244526,-6.889282,-15.017862,26.673214,66.59594,19.963444,6.2861066,1.4115399
9,-1.9928717613220215,0.14239051938056946,78.39688873291016,0.5460779772511544,-3.8385890556382405,-3.7897820776913362,3.0059583,7.363619,13.894123,11.681805,-10.929277,-6.3080316,1.9255654,-7.3711314,-8.004767,12.621525,-9.77864,8.980936,-1.2477748,-0.32966012,13.241321,-3.7392979,17.895876,-37.249695,60.176075,4.1226335,3.3943481,-6.2506504,-6.959212,-14.957205,26.623222,66.58533,19.960115,6.3134284,1.4150728
10,-2.0047218799591064,0.10880076140165329,78.3747787475586,0.5778761507357575,-3.7506235210422245,-3.831489158371487,2.7667444,7.401452,13.901904,11.983419,-11.071914,-6.3107977,1.4232323,-7.414242,-7.8946543,13.428967,-10.138475,8.9119425,-1.2286435,-0.41022587,13.2798395,-3.7479393,17.980347,-37.19649,60.141945,4.1108117,3.3988261,-6.260954,-7.0409465,-14.886813,26.557308,66.573524,19.97035,6.355136,1.4132485
11,-2.0190131664276123,0.0679074227809906,78.34850311279297,0.6154209548541866,-3.6567210865014186,-3.882405497633903,2.5173116,7.4430633,13.918506,12.295587,-11.217124,-6.319202,0.8823622,-7.4596786,-7.7733703,14.292773,-10.513837,8.841815,-1.2011682,-0.5043225,13.322149,-3.7665205,18.071177,-37.147434,60.11269,4.0952535,3.4042084,-6.2731376,-7.128411,-14.809892,26.493874,66.56019,19.986055,6.38695,1.4141495
12,-2.0416224002838135,0.009224535897374153,78.32037353515625,0.6525674831761762,-3.5565206957705984,-3.943916972786438,2.2619553,7.4992313,13.948596,12.612694,-11.365428,-6.359307,0.31406155,-7.496629,-7.646503,15.187813,-10.888318,8.775023,-1.1626846,-0.60983866,13.367044,-3.7887719,18.179089,-37.109142,60.07927,4.0765796,3.4091284,-6.285798,-7.2189326,-14.720314,26.449877,66.548805,19.996109,6.384392,1.4252381
13,-2.0646228790283203,-0.05009285360574722,78.2875747680664,0.6889255332434272,-3.449788831568874,-4.019399883388034,2.0026581,7.572758,13.998828,12.932268,-11.517592,-6.445919,-0.2887967,-7.518897,-7.5087576,16.123041,-11.26544,8.698036,-1.1102732,-0.7256734,13.414503,-3.8149133,18.301697,-37.083584,60.04222,4.0523415,3.4150257,-6.2954655,-7.3074465,-14.621877,26.433893,66.53689,20.005257,6.3339977,1.4563241
14,-2.0820610523223877,-0.11526501923799515,78.24980926513672,0.7272397058705651,-3.336844769535228,-4.107054027116294,1.7367314,7.6576056,14.06506,13.258195,-11.673524,-6.5630593,-0.9314667,-7.532902,-7.359199,17.112494,-11.652617,8.613844,-1.0468771,-0.8546673,13.466054,-3.8421805,18.4401,-37.063797,59.997807,4.0250483,3.422479,-6.3045936,-7.398132,-14.514325,26.43588,66.52454,20.016537,6.251018,1.5007497
15,-2.1032755374908447,-0.19195498526096344,78.210205078125,0.7662134246560002,-3.2182872573202177,-4.200666396607417,1.4616823,7.751767,14.1357565,13.592626,-11.831874,-6.6909184,-1.5863111,-7.5431848,-7.2135077,18.110844,-12.031941,8.554066,-0.97776556,-0.99382406,13.522319,-3.876532,18.596222,-37.053738,59.951374,3.9936497,3.4272635,-6.3190265,-7.495342,-14.398277,26.4473,66.51055,20.019922,6.1546965,1.5423504
16,-2.1260154247283936,-0.27897530794143677,78.17162322998047,0.8041468931837182,-3.094569166881006,-4.293927273384397,1.1767935,7.853475,14.198857,13.933784,-11.988854,-6.809276,-2.2242959,-7.55294,-7.088332,19.06874,-12.383574,8.552212,-0.9074005,-1.1396554,13.584272,-3.9202018,18.771772,-37.05309,59.904568,3.9627428,3.4254596,-6.3448033,-7.602927,-14.274538,26.460096,66.4919,20.007483,6.064615,1.5651283
17,-2.1482632160186768,-0.37565648555755615,78.13163757324219,0.8395826002613034,-2.9624035063035223,-4.385277012525817,0.8725504,7.9645967,14.248174,14.290153,-12.146562,-6.9115705,-2.8594851,-7.552751,-6.9784436,20.00375,-12.687633,8.598523,-0.83723676,-1.2935534,13.651494,-3.9802904,18.970358,-37.07166,59.858284,3.930433,3.4113033,-6.3934937,-7.722384,-14.143021,26.475197,66.4661,19.96313,5.9763594,1.5613009
18,-2.166630983352661,-0.4703024923801422,78.0925064086914,0.8735305157485405,-2.8227250003800144,-4.478025193955787,0.5513287,8.085748,14.290703,14.662003,-12.306274,-7.0087857,-3.4997957,-7.5405154,-6.8805833,20.929321,-12.959414,8.687776,-0.76419455,-1.4571465,13.724529,-4.050152,19.193176,-37.104748,59.806396,3.897242,3.388794,-6.459035,-7.851127,-14.003579,26.495317,66.43358,19.896282,5.8828855,1.5406919
19,-2.194080352783203,-0.5728315114974976,78.0528335571289,0.9075834012048803,-2.682235540316707,-4.572930117194255,0.23455061,8.212854,14.334434,15.026699,-12.461954,-7.107019,-4.1090693,-7.531296,-6.8140736,21.795261,-13.233657,8.858105,-0.6882788,-1.6259488,13.805057,-4.1198297,19.437317,-37.139603,59.747562,3.8600552,3.3679168,-6.5207133,-7.986246,-13.858157,26.51328,66.39792,19.832178,5.799172,1.5137693
20,-2.2226996421813965,-0.6840147376060486,78.01187133789062,0.942634688573993,-2.547639944681618,-4.670575614135929,-0.06390438,8.344657,14.386442,15.377481,-12.612333,-7.21243,-4.6545997,-7.5426893,-6.797478,22.559618,-13.550777,9.14236,-0.609306,-1.7941728,13.894282,-4.1796236,19.696627,-37.161762,59.682888,3.818678,3.3585463,-6.5573764,-8.124386,-13.710534,26.52184,66.36211,19.796934,5.7403164,1.4912335
21,-2.2473831176757812,-0.8028293251991272,77.97100830078125,0.9885344229464849,-2.4175759255535554,-4.7759765240914405,-0.33329588,8.469433,14.459619,15.693681,-12.74877,-7.3244667,-5.120343,-7.532027,-6.73666,23.164062,-13.891682,9.65646,-0.52437663,-1.9704401,13.991396,-4.2341404,19.966919,-37.176147,59.619053,3.7659621,3.3658297,-6.5576854,-8.266207,-13.562445,26.52274,66.32407,19.816137,5.720842,1.4787681
22,-2.264401435852051,-0.9269194602966309,77.92741394042969,1.0403629478845897,-2.289592482321423,-4.887044285322269,-0.58644617,8.593662,14.545789,15.991815,-12.877997,-7.440752,-5.531657,-7.5061135,-6.6585507,23.658127,-14.258664,10.344387,-0.43430907,-2.1516714,14.095569,-4.289836,20.246809,-37.188236,59.559677,3.7054095,3.3831813,-6.534176,-8.412225,-13.415056,26.519062,66.28272,19.870546,5.729509,1.4699876
23,-2.27774715423584,-1.0582619905471802,77.87924194335938,1.0778244809438222,-2.168318837456887,-4.99415461391869,-0.83835006,8.741449,14.62215,16.306873,-13.013994,-7.5648856,-5.914427,-7.561937,-6.7589974,24.155357,-14.709348,10.97587,-0.34349704,-2.3133993,14.20852,-4.3410945,20.533445,-37.18665,59.500713,3.6496022,3.4030983,-6.501737,-8.553999,-13.270349,26.503113,66.23622,19.917545,5.7429113,1.457534
24,-2.2903642654418945,-1.1934007406234741,77.83342742919922,1.0815371303216157,-2.0582182789272934,-5.088025783995017,-1.1025431,8.934527,14.665677,16.669928,-13.169115,-7.699911,-6.2880244,-7.800057,-7.2273088,24.75808,-15.285251,11.320536,-0.25626737,-2.432371,14.331461,-4.381824,20.823057,-37.15823,59.438038,3.6133974,3.4180622,-6.4753017,-8.6837015,-13.131401,26.469036,66.18365,19.915897,5.737333,1.4342705
25,-2.302114486694336,-1.3299201726913452,77.79505920410156,1.056609220953713,-1.9618530608011666,-5.172247543871578,-1.3732215,9.166097,14.67827,17.07443,-13.336565,-7.842263,-6.6476793,-8.295156,-8.214812,25.509995,-16.052122,11.29248,-0.1687927,-2.511808,14.468852,-4.416171,21.113539,-37.101887,59.37733,3.606119,3.4255178,-6.4560604,-8.794738,-12.999185,26.40254,66.11852,19.841948,5.7042165,1.3924705
26,-2.305736780166626,-1.4754199981689453,77.7547607421875,1.0115529170446358,-1.87590040817924,-5.250414923566052,-1.6419203,9.425536,14.670566,17.49764,-13.510547,-7.9914823,-6.96991,-8.9884,-9.577107,26.343346,-16.96349,11.022784,-0.07902878,-2.5616577,14.617601,-4.447668,21.403929,-37.024784,59.322025,3.6186233,3.4294517,-6.4366617,-8.890839,-12.874339,26.309807,66.04177,19.721272,5.6570344,1.3380249
27,-2.3068089485168457,-1.6324056386947632,77.7166976928711,0.9332129027490436,-1.7964398838881235,-5.313057217590824,-1.9308056,9.732013,14.63034,17.973005,-13.70673,-8.15453,-7.250598,-9.778453,-11.057172,27.198957,-17.886633,10.605309,0.0054886737,-2.5682042,14.76743,-4.471035,21.692307,-36.927395,59.267044,3.63523,3.4320529,-6.4194984,-8.980495,-12.760033,26.217924,65.96216,19.588589,5.6065226,1.2841625
28,-2.311985731124878,-1.7926493883132935,77.67778015136719,0.8080275877631222,-1.7195402333926855,-5.350354532109527,-2.2500412,10.10106,14.547033,18.507324,-13.9359255,-8.338923,-7.4980106,-10.559113,-12.401684,28.020271,-18.68642,10.13052,0.07540943,-2.5176384,14.907941,-4.4798565,21.976147,-36.80868,59.207172,3.6409748,3.4352303,-6.4068604,-9.07336,-12.662117,26.156223,65.88986,19.479643,5.562954,1.2442243
29,-2.313371181488037,-1.9648700952529907,77.64594268798828,0.6132657462920139,-1.645047942824948,-5.352958828654527,-2.6171374,10.559961,14.403129,19.128187,-14.209064,-8.5492,-7.7028775,-11.33435,-13.674122,28.807161,-19.338896,9.53243,0.1252652,-2.3864386,15.040524,-4.476666,22.252562,-36.661053,59.145985,3.6357884,3.4379478,-6.402366,-9.170343,-12.585609,26.136877,65.82211,19.411598,5.5346427,1.2282233
30,-2.304185390472412,-2.14042329788208,77.61165618896484,0.36283785605818974,-1.5746424119559514,-5.328539935131097,-3.017217,11.090004,14.208183,19.810192,-14.512813,-8.780709,-7.861503,-12.149295,-14.966979,29.581987,-19.920315,8.790681,0.16029651,-2.186931,15.169491,-4.46466,22.52028,-36.48677,59.08653,3.626702,3.4393957,-6.403491,-9.263572,-12.531554,26.14365,65.750336,19.363338,5.514951,1.2274681
31,-2.283802032470703,-2.323068380355835,77.57060241699219,0.09777327773593102,-1.5079261533255852,-5.292400894057226,-3.4268916,11.64241,13.9894905,20.515932,-14.830184,-9.02711,-8.005028,-12.955551,-16.074516,30.318222,-20.43182,8.061743,0.18764672,-1.9588426,15.289743,-4.437521,22.779478,-36.29825,59.021286,3.6113753,3.4422345,-6.4040637,-9.34921,-12.49885,26.16305,65.674866,19.314268,5.491768,1.2276045
32,-2.264059066772461,-2.507659912109375,77.52169036865234,-0.14061232246826103,-1.4443929027292397,-5.259670301015514,-3.8223786,12.169175,13.775871,21.209866,-15.145317,-9.282201,-8.17434,-13.70312,-16.789656,30.989601,-20.863173,7.502832,0.2148348,-1.7427597,15.395959,-4.3885574,23.031475,-36.107735,58.941742,3.5873945,3.4494627,-6.397845,-9.424744,-12.485379,26.181412,65.597946,19.24279,5.452914,1.2139194
33,-2.2356820106506348,-2.7056941986083984,77.46340942382812,-0.33958667776061013,-1.3842666123376526,-5.236353252336641,-4.193555,12.654424,13.579719,21.880138,-15.454272,-9.546359,-8.39649,-14.3829975,-17.034632,31.597023,-21.223711,7.146244,0.24553917,-1.5490474,15.485013,-4.3121967,23.27606,-35.91445,58.842922,3.5497963,3.4658003,-6.380074,-9.487611,-12.489835,26.200907,65.522575,19.13806,5.386782,1.1822188
34,-2.2052743434906006,-2.9091546535491943,77.39480590820312,-0.5215100413557102,-1.3278104357319185,-5.213483241813699,-4.55447,13.124675,13.385107,22.548538,-15.766978,-9.822712,-8.658089,-15.015482,-16.927017,32.14921,-21.505215,6.9112577,0.2754969,-1.3570279,15.560195,-4.2140365,23.512974,-35.714443,58.73126,3.500206,3.4884186,-6.3550735,-9.540876,-12.512298,26.226116,65.44885,19.012503,5.3025327,1.1401179
35,-2.1703672409057617,-3.119772434234619,77.32054901123047,-0.698507841482155,-1.2749569858479743,-5.183363983132661,-4.9198112,13.596097,13.1774435,23.235422,-16.091267,-10.109393,-8.94226,-15.594761,-16.551983,32.636013,-21.66878,6.786373,0.30032238,-1.1602733,15.626424,-4.102461,23.74463,-35.513924,58.613033,3.4477816,3.508774,-6.3299932,-9.589579,-12.551964,26.246395,65.372406,18.879879,5.218826,1.0907564
36,-2.133958578109741,-3.3352677822113037,77.23551940917969,-0.8822522909416118,-1.225691029410955,-5.138852466276349,-5.306146,14.084966,12.941333,23.963955,-16.43669,-10.404549,-9.228162,-16.115484,-15.995145,33.047604,-21.675993,6.760326,0.31738394,-0.95226747,15.6890545,-3.9845195,23.974998,-35.319786,58.491756,3.4016342,3.5187128,-6.312474,-9.637422,-12.606746,26.2508,65.287735,18.754992,5.1543055,1.0375975
37,-2.0898914337158203,-3.563591480255127,77.1438217163086,-1.0707861729477122,-1.1765206360265836,-5.076682357767159,-5.7130203,14.586935,12.678251,24.724928,-16.802431,-10.708764,-9.522016,-16.538395,-15.167687,33.357723,-21.48432,6.907526,0.32587376,-0.7377498,15.743766,-3.8601832,24.207968,-35.13338,58.36743,3.360014,3.512878,-6.307536,-9.687913,-12.676499,26.246798,65.197395,18.634508,5.1157002,0.9809381
38,-2.039700984954834,-3.8040611743927,77.04474639892578,-1.260277652746532,-1.1283368712929087,-5.001357005726912,-6.1336083,15.096061,12.3944435,25.511839,-17.185795,-11.023672,-9.82616,-16.87174,-14.0614805,33.577938,-21.125807,7.212363,0.32719514,-0.5180052,15.790782,-3.7236724,24.44487,-34.95115,58.233166,3.31819,3.4969761,-6.310739,-9.737896,-12.76044,26.235254,65.10302,18.511562,5.091212,0.91978323
39,-1.988500714302063,-4.0536789894104,76.93390655517578,-1.459383515354324,-1.0879791206133325,-4.916753584827212,-6.5746493,15.625268,12.081563,26.350252,-17.591743,-11.348746,-10.117314,-17.187798,-12.883677,33.76396,-20.678314,7.5271916,0.3217814,-0.28406483,15.83994,-3.5741508,24.685652,-34.771732,58.085693,3.2811863,3.4792962,-6.314667,-9.786272,-12.85776,26.20088,65.00107,18.399837,5.075467,0.85353804
40,-1.9384926557540894,-4.314574241638184,76.81095123291016,-1.6764043669410165,-1.062056459730628,-4.826438617413127,-7.0394244,16.186085,11.731347,27.257137,-18.02259,-11.683345,-10.376726,-17.561209,-11.841506,33.968033,-20.212778,7.700892,0.310277,-0.0264478,15.901853,-3.4143894,24.929298,-34.59828,57.924126,3.250748,3.4676468,-6.311604,-9.829327,-12.966323,26.123207,64.88685,18.309423,5.061539,0.7823062
41,-1.8823612928390503,-4.583056926727295,76.67745971679688,-1.9206732270240883,-1.052118953616501,-4.722102429182498,-7.5413465,16.786846,11.327394,28.252125,-18.479837,-12.026123,-10.607209,-17.997,-10.948578,34.209675,-19.721363,7.674002,0.2857752,0.26461437,15.978055,-3.2452552,25.174295,-34.43156,57.750824,3.2302935,3.4643474,-6.293181,-9.86856,-13.084941,25.99336,64.76808,18.253624,5.053018,0.7008073
42,-1.8267515897750854,-4.859454154968262,76.5285873413086,-2.184961123887535,-1.054499658503913,-4.604794304548224,-8.073057,17.416973,10.878125,29.315163,-18.960674,-12.378223,-10.818144,-18.46185,-10.108895,34.45949,-19.17259,7.53329,0.25075218,0.58115876,16.063148,-3.0662286,25.420095,-34.270393,57.567043,3.2186935,3.465222,-6.265282,-9.904138,-13.2135,25.82094,64.64519,18.22182,5.05141,0.6106457
43,-1.7653800249099731,-5.145622253417969,76.36748504638672,-2.4523682387947283,-1.0684951352205192,-4.491997824084508,-8.616636,18.061468,10.410198,30.42457,-19.461382,-12.741648,-11.007643,-18.983063,-9.363972,34.70176,-18.602,7.3433766,0.21952085,0.9045432,16.15609,-2.880929,25.668083,-34.117855,57.374596,3.2068613,3.4679508,-6.2417026,-9.936168,-13.3532505,25.620104,64.5078,18.19336,5.0467906,0.5219018
44,-1.7084076404571533,-5.442352771759033,76.18948364257812,-2.7058248157120923,-1.0936686119048882,-4.401237196422457,-9.154564,18.706411,9.951074,31.56135,-19.979752,-13.11804,-11.174345,-19.588858,-8.753482,34.919437,-18.045574,7.1675267,0.20685492,1.2162824,16.256319,-2.688554,25.920258,-33.972492,57.170033,3.1910243,3.4709032,-6.23658,-9.963603,-13.505641,25.40354,64.344894,18.146788,5.0281916,0.44529098
45,-1.6478220224380493,-5.7465667724609375,75.99253845214844,-2.9450920254010646,-1.1359315841970679,-4.330606668140693,-9.6804695,19.35274,9.506011,32.726303,-20.524364,-13.507987,-11.306449,-20.303251,-8.325343,35.118526,-17.466814,6.996859,0.21195337,1.5171473,16.368074,-2.4835422,26.17763,-33.830395,56.94784,3.1758513,3.4747028,-6.254227,-9.980449,-13.672252,25.166555,64.151306,18.074347,4.987957,0.38154256
46,-1.5876038074493408,-6.055240154266357,75.7764663696289,-3.1772352131734363,-1.1937044585138945,-4.272629362519239,-10.20514,20.0061,9.06136,33.92866,-21.093939,-13.910087,-11.412161,-21.110113,-8.045012,35.306904,-16.863434,6.8027754,0.2282762,1.8146853,16.49116,-2.2659848,26.44049,-33.69162,56.707355,3.1628008,3.4801028,-6.287299,-9.987583,-13.852774,24.905174,63.93122,17.988937,4.9332294,0.3262104
47,-1.5237798690795898,-6.375400543212891,75.54183959960938,-3.3952468647704226,-1.2557296659013273,-4.236371773867282,-10.7372265,20.659956,8.61641,35.165535,-21.672813,-14.32301,-11.5195055,-21.971357,-7.827796,35.467926,-16.322817,6.619192,0.2602185,2.0992062,16.616076,-2.045029,26.710876,-33.56313,56.457127,3.13759,3.4850824,-6.33195,-9.996035,-14.047704,24.635124,63.68583,17.89866,4.87974,0.2799689
48,-1.4572008848190308,-6.704057693481445,75.29090118408203,-3.5929110790313854,-1.31044075517171,-4.231232323440282,-11.285058,21.308376,8.170445,36.434982,-22.246376,-14.745879,-11.65593,-22.845253,-7.5885353,35.5825,-15.930724,6.4820566,0.3124876,2.3612366,16.733292,-1.8280859,26.991781,-33.45046,56.203392,3.0871997,3.4878204,-6.3846545,-10.018221,-14.258086,24.375244,63.41746,17.814367,4.843348,0.24351832
49,-1.394263505935669,-7.038956165313721,75.02185821533203,-3.717678460426527,-1.3429005219101784,-4.246629640839002,-11.857545,21.857899,7.733326,37.718266,-22.798603,-15.000033,-11.847802,-23.81895,-7.339481,35.664627,-15.746951,6.41435,0.37661818,2.5472913,16.829456,-1.6171476,27.286674,-33.357685,55.94412,3.0072849,3.4864452,-6.4487634,-10.055796,-14.484267,24.131695,63.12475,17.751274,4.8386917,0.22085592
50,-1.3340133428573608,-7.379751682281494,74.7364730834961,-3.783358512225606,-1.3615996591560182,-4.279294844335464,-12.45224,22.31577,7.303842,39.02546,-23.342241,-15.000033,-12.073973,-24.890055,-7.1122265,35.709175,-15.707478,6.3968596,0.45126912,2.6741514,16.913132,-1.4050032,27.596695,-33.27885,55.672302,2.905427,3.4827611,-6.525315,-10.101997,-14.725538,23.894617,62.805546,17.699617,4.853954,0.2105335
51,-1.2749994993209839,-7.728269577026367,74.43243408203125,-3.8287944292664355,-1.377674066872108,-4.327269403848115,-13.060975,22.76141,6.869602,40.36103,-23.883993,-15.000033,-12.324216,-25.960384,-6.8343725,35.71155,-15.731781,6.4194913,0.5288294,2.7800295,16.995768,-1.1885937,27.921059,-33.20719,55.390156,2.7847993,3.4798293,-6.606783,-10.155995,-14.981124,23.658974,62.460915,17.632868,4.864934,0.20487118
52,-1.2180726528167725,-8.088946342468262,74.11116027832031,-3.855784926423008,-1.3930283708858464,-4.373713213202695,-13.6778145,23.18932,6.4184284,41.700924,-24.41224,-15.000033,-12.603492,-26.98241,-6.42435,35.67993,-15.744014,6.4842095,0.5876666,2.8681529,17.08161,-0.9667998,28.25785,-33.137493,55.102768,2.647761,3.480449,-6.685516,-10.217511,-15.249851,23.420267,62.091892,17.525425,4.8474545,0.1956667
53,-1.1557215452194214,-8.463074684143066,73.77442169189453,-3.8665132832192484,-1.4077480643771518,-4.418049334799974,-14.321861,23.603102,5.9341154,43.077297,-24.921701,-15.000033,-12.909749,-27.944767,-5.8577404,35.599506,-15.734294,6.6126757,0.62677366,2.9426897,17.16857,-0.7431263,28.60735,-33.07878,54.810543,2.4829264,3.4850945,-6.7630806,-10.286934,-15.52999,23.181423,61.709015,17.377993,4.78218,0.1769788
54,-1.107994794845581,-8.846579551696777,73.4164810180664,-3.860018092616585,-1.4208706306437975,-4.467665121527174,-14.991749,24.004026,5.426739,44.494232,-25.423225,-15.000033,-13.241467,-28.870686,-5.17937,35.470623,-15.740448,6.7967706,0.6559691,3.000683,17.254984,-0.516703,28.969618,-33.029686,54.51235,2.2942986,3.492316,-6.842222,-10.365287,-15.821296,22.943813,61.310432,17.201422,4.686096,0.15392193
55,-1.061819076538086,-9.238386154174805,73.04490661621094,-3.8329199721041967,-1.4334369902168582,-4.518027319400274,-15.647527,24.38793,4.928436,45.879993,-25.919582,-15.000033,-13.601943,-29.768019,-4.40913,35.318394,-15.753041,6.9929,0.66956764,3.0354953,17.345673,-0.28297588,29.341473,-32.971912,54.21298,2.104276,3.5022905,-6.9167013,-10.452102,-16.125633,22.700603,60.87881,16.98503,4.5895386,0.13502297
56,-1.0072325468063354,-9.644644737243652,72.66522979736328,-3.782343025846952,-1.446177290483936,-4.564588874081176,-16.25249,24.75076,4.466038,47.169518,-26.4202,-15.000033,-13.997228,-30.6457,-3.565432,35.173565,-15.766874,7.1579328,0.66170955,3.041622,17.445713,-0.039817825,29.717861,-32.88864,53.91995,1.9342233,3.514728,-6.980114,-10.546054,-16.446125,22.446716,60.395584,16.719809,4.523266,0.1289993
57,-0.9606772065162659,-10.057263374328613,72.27510070800781,-3.708616250696888,-1.4622573284202258,-4.606655590964439,-16.803017,25.097235,4.0415645,48.36577,-26.937775,-15.000033,-14.427346,-31.500237,-2.6222765,35.032955,-15.77198,7.2868295,0.63593185,3.0186381,17.556423,0.20559996,30.096684,-32.78588,53.6353,1.7969232,3.5276408,-7.0431995,-10.637581,-16.785547,22.184038,59.85505,16.388205,4.4907575,0.1031115
58,-0.9137944579124451,-10.48123550415039,71.88078308105469,-3.6138977191128583,-1.4805013654136152,-4.6464942464736225,-17.316525,25.430088,3.6400363,49.497032,-27.463545,-15.000033,-14.889023,-32.32725,-1.5791906,34.88411,-15.775279,7.399905,0.5944126,2.9716446,17.67511,0.45188785,30.47707,-32.670624,53.35871,1.6791439,3.5412602,-7.1049824,-10.726778,-17.144186,21.915413,59.26396,16.00208,4.477964,0.064799584
59,-0.8654195070266724,-10.918144226074219,71.48538208007812,-3.4973407902533244,-1.4950480798303654,-4.684579570837557,-17.787106,25.744358,3.2646227,50.53384,-27.97035,-15.000033,-15.383778,-33.13176,-0.49283302,34.739365,-15.792867,7.4917927,0.5287387,2.9014773,17.798346,0.7120201,30.85466,-32.525623,53.096226,1.5645376,3.5592844,-7.1409364,-10.827878,-17.523945,21.634619,58.627384,15.589776,4.4876604,0.083021306
60,-0.8147774934768677,-11.361604690551758,71.08946228027344,-3.358574845956896,-1.5000252786549022,-4.721617624933325,-18.208065,26.035212,2.9188511,51.445858,-28.430838,-15.000033,-15.914552,-33.9179,0.5801564,34.61097,-15.840545,7.5571623,0.43029177,2.8098223,17.922834,1.0024297,31.222305,-32.32843,52.851677,1.4421773,3.5852091,-7.1267185,-10.954418,-17.927221,21.336868,57.949078,15.1824,4.521715,0.2269106
61,-0.7711719274520874,-11.819183349609375,70.69830322265625,-3.1941487276105387,-1.497168034291131,-4.752042003120916,-18.583063,26.296303,2.5983138,52.240753,-28.86634,-15.000033,-16.485355,-34.70221,1.6453406,34.50428,-15.923977,7.596614,0.29422283,2.6948316,18.047125,1.3083076,31.578012,-32.08999,52.63466,1.3156265,3.6164124,-7.082262,-11.104218,-18.356905,21.030533,57.236275,14.779599,4.5783186,0.51865643
62,-0.7335005402565002,-12.298222541809082,70.32308197021484,-3.0060720807745316,-1.4886345577393993,-4.777661682997862,-18.913067,26.533895,2.3010314,52.9281,-29.28243,-15.000033,-17.096449,-35.475006,2.7279553,34.410843,-16.033539,7.6123233,0.12639427,2.5578704,18.171783,1.6248785,31.921003,-31.818558,52.445835,1.1890297,3.6518018,-7.011198,-11.269318,-18.814913,20.716862,56.484615,14.368591,4.65556,0.92059064
63,-0.6992206573486328,-12.792102813720703,69.9705810546875,-2.8022275668259597,-1.469821786009781,-4.810512986852993,-19.188992,26.76405,2.0364134,53.481464,-29.617619,-15.000033,-17.74809,-36.199364,3.8020458,34.330647,-16.165806,7.6013947,-0.06534523,2.4070263,18.297195,1.9842719,32.24308,-31.484425,52.27585,1.053847,3.6965268,-6.8650703,-11.449037,-19.299257,20.375166,55.673782,13.956241,4.755636,1.412876
64,-0.6713339686393738,-13.303512573242188,69.64723205566406,-2.5899402542192074,-1.4359296706572398,-4.862007450645656,-19.402502,26.99807,1.8093759,53.878067,-29.821413,-15.000033,-18.434898,-36.8427,4.838036,34.259964,-16.315746,7.561813,-0.2755855,2.2494395,18.421825,2.4150674,32.532528,-31.060081,52.123077,0.89834666,3.7550952,-6.5947227,-11.651645,-19.807981,19.99058,54.793278,13.551235,4.880364,1.9747874
65,-0.653793215751648,-13.83813762664795,69.35884094238281,-2.3694190821397885,-1.3743403551731157,-4.931817796768251,-19.580496,27.23286,1.6061438,54.13668,-29.882717,-15.000033,-19.182386,-37.40685,5.8580847,34.215046,-16.487583,7.4830685,-0.51789564,2.0852327,18.544266,2.9249878,32.77581,-30.511358,52.007412,0.7189326,3.8113568,-6.170949,-11.875586,-20.332092,19.499174,53.824787,13.143002,5.058345,2.6875715
66,-0.6305286884307861,-14.399247169494629,69.10845184326172,-2.137518792518882,-1.2915982685171374,-5.014945143390776,-19.71778,27.463259,1.4277953,54.26222,-29.82988,-15.000033,-19.983232,-37.902767,6.8667083,34.19567,-16.684484,7.3696814,-0.7900668,1.911235,18.660706,3.4925542,32.96851,-29.86267,51.937687,0.5260538,3.867069,-5.624249,-12.12251,-20.871826,18.93184,52.790855,12.730002,5.2765236,3.5329053
67,-0.6124054789543152,-14.991485595703125,68.89551544189453,-1.8972878450773154,-1.2104517748192292,-5.116896667029371,-19.749565,27.70454,1.3142864,54.1974,-29.65311,-15.000033,-20.787128,-38.3121,7.810106,34.18706,-16.905384,7.2417955,-1.0651423,1.7324581,18.7695,4.0976853,33.11505,-29.179853,51.89373,0.3194917,3.953437,-4.9949036,-12.391474,-21.44126,18.407812,51.720787,12.327418,5.4778624,4.341615
68,-0.5931150317192078,-15.604376792907715,68.7259292602539,-1.651410639246636,-1.1536324668135625,-5.243173783963083,-19.61189,27.972044,1.3055058,53.887455,-29.34246,-15.000033,-21.541714,-38.620106,8.632263,34.175423,-17.149103,7.1196856,-1.3153315,1.5554237,18.872644,4.7295165,33.224094,-28.519142,51.84197,0.10514289,4.1024084,-4.3238716,-12.69035,-22.061525,18.053764,50.642715,11.964257,5.6088533,4.9446735
69,-0.5736314058303833,-16.24547576904297,68.59797668457031,-1.412576672690382,-1.136296642147454,-5.39408056892978,-19.296844,28.284235,1.3950262,53.35293,-28.918995,-15.000033,-22.237852,-38.822525,9.333738,34.18687,-17.43567,6.964584,-1.5476301,1.3925719,18.988516,5.4129376,33.293606,-27.841858,51.762535,-0.12214359,4.3475327,-3.564964,-13.013482,-22.749142,17.898815,49.510418,11.631723,5.652626,5.2952676
70,-0.5553972721099854,-16.917943954467773,68.51514434814453,-1.175067205857356,-1.1430632701650343,-5.567526628306141,-18.831327,28.626274,1.5679111,52.61164,-28.381659,-15.000033,-22.897717,-38.93159,9.935685,34.22515,-17.761974,6.78127,-1.7735443,1.2415252,19.114765,6.148579,33.318348,-27.129898,51.66495,-0.36389697,4.662636,-2.7157214,-13.360208,-23.503323,17.883127,48.311787,11.330966,5.6437974,5.4864793
71,-0.5356263518333435,-17.62220001220703,68.47611999511719,-0.9141622091952601,-1.1504241508972586,-5.765851120044624,-18.198957,28.961798,1.8518256,51.59961,-27.686192,-15.000033,-23.513191,-38.956684,10.410038,34.244232,-18.091564,6.6548357,-1.9713212,1.0853335,19.22017,6.8848863,33.30897,-26.478771,51.566418,-0.6149869,4.990178,-1.8816772,-13.71982,-24.315195,17.981386,47.10507,11.081653,5.60726,5.559395
72,-0.5092726945877075,-18.362627029418945,68.48346710205078,-0.6051318650763688,-1.1347545221789257,-5.991381652447937,-17.382565,29.252487,2.2721329,50.25233,-26.792978,-15.000033,-24.07718,-38.907967,10.729111,34.19742,-18.386074,6.669386,-2.111155,0.9049586,19.278038,7.566723,33.287773,-25.991777,51.480556,-0.8707235,5.273628,-1.1681691,-14.14688,-25.175583,18.19344,46.01019,10.934189,5.5659485,5.5534024
73,-0.47895264625549316,-19.14041519165039,68.53795623779297,-0.2355485800859245,-1.1019971298608298,-6.259492437014575,-16.356277,29.496784,2.8661094,48.56623,-25.726896,-15.000033,-24.605537,-38.803555,10.881075,34.07901,-18.64872,6.848444,-2.1823149,0.68378145,19.282724,8.202778,33.274006,-25.70697,51.390892,-1.162605,5.5296884,-0.5728093,-14.553643,-26.080929,18.502869,44.915092,10.791382,5.540815,5.4363365
74,-0.4355807900428772,-19.9565486907959,68.63358306884766,0.17988677163468936,-1.0602945730658948,-6.564494787566704,-15.127849,29.70402,3.6070526,46.56769,-24.500603,-15.000033,-25.09903,-38.637604,10.882893,33.91183,-18.896265,7.144949,-2.1882565,0.43195727,19.256159,8.810228,33.274864,-25.579067,51.28486,-1.4892956,5.779006,-0.050094076,-15.002781,-27.033539,18.932497,43.850792,10.691069,5.5141473,5.2020664
75,-0.3931654095649719,-20.8110294342041,68.7725830078125,0.6250532654908911,-0.9893839434349763,-6.87658224564319,-13.738967,29.855486,4.422731,44.244236,-23.044184,-15.000033,-25.538713,-38.392323,10.758733,33.697453,-19.11363,7.5364647,-2.1450484,0.16843732,19.193256,9.388077,33.28642,-25.554482,51.17584,-1.7827255,5.9732466,0.3539857,-15.477691,-28.013178,19.413923,42.88638,10.736788,5.4523106,4.9315987
76,-0.34986773133277893,-21.69732093811035,68.94747924804688,1.0840561205173656,-0.8697419871222212,-7.165671366774047,-12.233917,29.93461,5.240112,41.578632,-21.28408,-15.000033,-25.903713,-38.048717,10.532112,33.433475,-19.285055,8.001015,-2.07318,-0.09335792,19.080599,9.927587,33.300232,-25.585897,51.095093,-1.9788003,6.0651493,0.5943827,-15.921857,-28.991426,19.862421,42.066578,11.012439,5.318948,4.7039433
77,-0.2972950041294098,-22.62054443359375,69.15266418457031,1.5848574959812454,-0.7006295701286128,-7.440438806974081,-10.522747,29.869743,6.08818,38.408104,-19.204645,-15.000033,-26.1665,-37.68931,9.978946,33.049366,-19.44921,8.572836,-1.9643557,-0.38340542,18.90796,10.41858,33.322346,-25.71791,51.075386,-2.0782952,6.0063457,0.6370533,-16.450842,-29.946503,20.320723,41.533943,11.587832,5.0880513,4.543734
78,-0.24223439395427704,-23.576190948486328,69.3820571899414,2.124710982164338,-0.4918777753819294,-7.711680556041474,-8.608094,29.68838,6.974148,34.77492,-16.83755,-15.000033,-26.362265,-37.296017,9.173954,32.564747,-19.604048,9.245218,-1.822977,-0.7103248,18.67418,10.879275,33.35664,-25.94816,51.100773,-2.1086113,5.83604,0.51333386,-16.996485,-30.874598,20.79733,41.184746,12.367423,4.780224,4.4065676
79,-0.18546855449676514,-24.564449310302734,69.62254333496094,2.643038507158802,-0.2383492247238811,-7.950735055698431,-6.683213,29.523283,7.8139324,30.977987,-14.176701,-15.000033,-26.561111,-36.70285,8.588923,32.11406,-19.676105,9.9403925,-1.6557937,-1.0116444,18.413965,11.299898,33.39163,-26.187202,51.120758,-2.0480936,5.63722,0.27927873,-17.571993,-31.77921,21.27365,41.00155,13.322342,4.4304476,4.2682557
80,-0.13026492297649384,-25.58926010131836,69.87512969970703,3.0815990427204345,0.06567841591983041,-8.126968909850008,-4.9636183,29.501545,8.54736,27.348372,-11.221971,-15.000033,-26.817549,-35.745346,8.686956,31.832603,-19.593046,10.5898485,-1.4790651,-1.2255828,18.155212,11.676723,33.406273,-26.337193,51.08889,-1.8687471,5.4914002,-0.008376884,-18.161552,-32.669212,21.724806,40.939976,14.413178,4.072996,4.1031766
81,-0.09004227817058563,-26.61812973022461,70.16175842285156,3.4532791370698637,0.46018064793081503,-8.219769348382734,-3.4671912,29.573023,9.217426,23.772646,-7.75822,-15.000033,-27.090942,-34.240517,9.883295,31.648298,-19.214155,11.30138,-1.3074167,-1.3473003,17.863974,11.995454,33.379787,-26.387856,51.016285,-1.5103781,5.4140277,-0.3694546,-18.795979,-33.55449,22.18609,41.041836,15.773117,3.6851203,3.8697855
82,-0.07603428512811661,-27.65674591064453,70.45853424072266,3.7763159042832353,0.9294209272350219,-8.24900501260677,-2.140883,29.672602,9.853899,20.183773,-3.8654842,-15.000033,-27.323711,-32.315754,11.809402,31.522537,-18.639334,12.09726,-1.1370772,-1.3974217,17.533428,12.262213,33.30594,-26.378242,50.93244,-0.9932437,5.358837,-0.8200051,-19.46682,-34.436657,22.666569,41.308918,17.374195,3.2558386,3.5980551
83,-0.06056410074234009,-28.753599166870117,70.72907257080078,4.009506984765279,1.393781554720101,-8.243261884419814,-1.1289256,29.91133,10.367799,17.08148,-0.071175955,-15.000033,-27.543446,-30.276663,13.740371,31.634136,-18.119745,12.774606,-0.9522473,-1.3585504,17.241636,12.46732,33.195328,-26.320639,50.838497,-0.44214332,5.3156486,-1.2971219,-20.14651,-35.30863,23.114574,41.673264,18.952122,2.8409836,3.3642461
84,-0.0552179217338562,-29.906797409057617,70.99208068847656,4.125098427340678,1.7715297550295548,-8.230708255962353,-0.6058688,30.426327,10.643951,15.063339,3.0375643,-15.000033,-27.819786,-28.429892,14.968683,32.15419,-17.86196,13.101212,-0.73089373,-1.2320844,17.071564,12.616126,33.07119,-26.213766,50.71681,0.027243534,5.27866,-1.7402589,-20.798883,-36.15829,23.465199,42.059834,20.239622,2.5011704,3.237782
85,-0.06899649649858475,-31.130054473876953,71.25060272216797,4.032222822137736,2.0366799865490166,-8.253074070108141,-0.846674,31.535032,10.511823,14.651949,5.2962656,-15.000033,-28.19436,-26.783262,15.213047,33.228416,-17.941475,12.855057,-0.40937316,-0.9469076,17.071098,12.697222,32.95554,-26.043774,50.53632,0.4043521,5.285644,-2.1343548,-21.42609,-36.96823,23.675787,42.46022,21.176012,2.277181,3.2448733
86,-0.08331528306007385,-32.429054260253906,71.51210021972656,3.741337472993047,2.23936317690375,-8.279685039256417,-1.8864106,33.11144,9.904834,15.702271,6.783697,-15.000033,-28.602825,-25.194382,14.833901,34.69628,-18.211874,12.159064,-0.020171281,-0.5030048,17.176914,12.733312,32.855724,-25.805393,50.288696,0.74326336,5.329781,-2.5153048,-22.026306,-37.736217,23.771011,42.900852,21.889072,2.131311,3.3403194
87,-0.12109491229057312,-33.735286712646484,71.75041961669922,3.4025309808214916,2.412419245806637,-8.232714965163307,-3.2728577,34.632736,9.027681,17.39816,7.5639024,-15.000033,-29.007904,-23.759796,14.135746,36.29035,-18.541615,11.307709,0.3222291,-0.024731964,17.318026,12.759431,32.773376,-25.529264,49.99595,1.0094471,5.340276,-2.897897,-22.62713,-38.47813,23.818686,43.412197,22.423399,2.0097678,3.486106
88,-0.17734698951244354,-34.985145568847656,71.92044830322266,3.20658371471539,2.5712363280155985,-8.043571691281352,-4.5748773,35.61591,8.153025,19.142477,7.6955986,-15.000033,-29.404957,-22.579689,13.485357,37.80547,-18.798815,10.65659,0.5174386,0.32814538,17.450453,12.809397,32.70372,-25.245647,49.67951,1.174943,5.245927,-3.2959857,-23.25553,-39.218914,23.886412,44.02019,22.830982,1.8594822,3.6463518
89,-0.26395127177238464,-36.18734359741211,72.0551986694336,3.3952749043391877,2.70893361139112,-7.689594645258774,-5.0159206,35.666695,7.8923764,19.754889,7.6109176,-15.000033,-29.867254,-21.82672,13.113118,39.234753,-18.888508,10.317406,0.53999525,0.3151662,17.600258,12.874757,32.648834,-24.94728,49.332317,1.2209271,5.0112033,-3.7168543,-23.943874,-39.974144,24.007505,44.719,23.04726,1.6719197,3.8390489
90,-0.3572452664375305,-37.38713836669922,72.18528747558594,3.841931058978319,2.810290472208142,-7.213750541072613,-4.8408465,35.103798,8.077443,19.594856,7.3532405,-15.000033,-30.391266,-21.413683,12.827151,40.694546,-18.907707,10.119961,0.4535339,0.05244652,17.795828,12.941172,32.60819,-24.618927,48.943317,1.1717057,4.680728,-4.153266,-24.665825,-40.741756,24.137205,45.487267,23.07923,1.4741911,4.072902
91,-0.45343396067619324,-38.57194900512695,72.29059600830078,4.28290656346937,2.8509576298684425,-6.668717062617775,-4.815747,34.397423,8.072695,19.990454,6.6277785,-15.000033,-30.84823,-21.0814,12.431955,42.15335,-18.98492,10.018294,0.3142639,-0.19407903,18.034235,12.976897,32.57351,-24.313887,48.582832,1.0359683,4.3001466,-4.594857,-25.320219,-41.5146,24.200533,46.291855,23.076729,1.2648889,4.29274
92,-0.5485798716545105,-39.781578063964844,72.3785400390625,4.611481245855446,2.791102068147059,-6.122900986227243,-4.900096,33.782413,7.7542486,21.005375,5.8423944,-15.000033,-31.097683,-20.69904,11.833056,43.52208,-19.227278,9.947764,0.21442439,-0.32958487,18.346926,12.902958,32.538544,-24.095312,48.358253,0.83251274,3.9110332,-5.029779,-25.803854,-42.27217,24.100975,47.105606,23.193768,1.0418893,4.4333134
93,-0.6332119703292847,-41.01182556152344,72.44462585449219,4.809179649760586,2.5909935550888497,-5.574100015568764,-5.1751056,33.26988,6.8101196,22.919971,4.992826,-15.000033,-31.073555,-20.275345,10.975605,44.798557,-19.722132,9.93068,0.16159794,-0.33817184,18.775856,12.667173,32.511597,-24.018494,48.332016,0.4773666,3.469074,-5.4833765,-26.097712,-43.006664,23.807531,47.93607,23.472523,0.77559,4.4706416
94,-0.7115224599838257,-42.24945831298828,72.49060821533203,4.960243889601862,2.2823985465164176,-4.99233341854466,-5.53606,32.67792,5.4525237,25.481115,3.972396,-15.000033,-30.86132,-19.891321,9.94276,46.01071,-20.387259,9.98658,0.119086914,-0.3070495,19.29289,12.297871,32.49709,-24.053917,48.455727,-0.020882221,2.9724028,-5.9539413,-26.233473,-43.722183,23.347284,48.79197,23.825268,0.47554928,4.4395638
95,-0.780913770198822,-43.49112319946289,72.53459167480469,5.052231693998996,1.9378599914838157,-4.402560341542876,-5.9585238,32.100246,4.1438165,28.483511,2.78629,-15.000033,-30.553152,-19.49043,8.813143,47.14616,-21.091856,10.0442915,0.10083021,-0.2262429,19.812338,11.892698,32.471825,-24.101328,48.630417,-0.47408587,2.5256095,-6.386564,-26.203148,-44.415462,22.729704,49.671368,24.210293,0.19926877,4.3687935
96,-0.8398557901382446,-44.72365188598633,72.5595474243164,5.066664770591917,1.6262712618826114,-3.834288374358929,-6.4146013,31.675978,3.346791,31.715218,1.4371926,-15.000033,-30.235418,-19.003073,7.6618524,48.18718,-21.703669,10.031398,0.115937226,-0.07235604,20.253023,11.517415,32.40106,-24.082897,48.793777,-0.7108465,2.228192,-6.718933,-26.024607,-45.076763,21.985674,50.58798,24.586378,0.0050096535,4.2857347
97,-0.8845466375350952,-45.937339782714844,72.57637023925781,5.0784476514586805,1.37464258109977,-3.253952489864587,-6.9444323,31.40844,3.2546952,35.21386,-0.12581502,-14.820027,-29.963146,-18.508553,6.5513597,49.147305,-22.191166,9.995085,0.1361086,0.09157967,20.578167,11.15705,32.25256,-23.97164,48.978504,-0.6472991,2.1246822,-6.954671,-25.70364,-45.689964,21.111153,51.604443,24.999426,-0.1092321,4.1735644
98,-0.9246066212654114,-47.123626708984375,72.59304809570312,5.072300751315447,1.1433498508414328,-2.6594133445435895,-7.553478,31.329369,3.6783366,39.113426,-1.9317825,-13.981285,-29.67615,-18.009804,5.431412,50.01754,-22.61598,9.9565935,0.1518865,0.2878699,20.830935,10.777909,32.020016,-23.805578,49.234478,-0.37670624,2.1504526,-7.1137743,-25.26687,-46.24808,20.129984,52.728912,25.451279,-0.1704823,4.0233827
99,-0.9462494254112244,-48.29763412475586,72.5950927734375,5.006202300899644,0.916124757163838,-2.0896933539569007,-8.139777,31.457384,4.3373775,43.24332,-3.890926,-13.069073,-29.35774,-17.448946,4.281269,50.80949,-23.021889,9.831282,0.1624198,0.5416282,21.031393,10.420662,31.71426,-23.602774,49.521053,0.010772575,2.2411509,-7.158526,-24.757215,-46.75745,19.112799,53.88533,25.837484,-0.15772861,3.8718834
100,-0.950366735458374,-49.4595947265625,72.5820083618164,4.912159428254953,0.6863623789592349,-1.5569315936195887,-8.611462,31.674765,5.1260467,47.39862,-5.8767514,-12.079167,-29.021418,-16.857086,3.1259816,51.54383,-23.45592,9.560064,0.14901882,0.8102932,21.192245,10.143618,31.35528,-23.367968,49.773182,0.43464136,2.334548,-7.0533614,-24.210487,-47.228596,18.1206,54.989704,26.055859,-0.04874672,3.7557206
101,-0.950851559638977,-50.60294723510742,72.56056213378906,4.7742508192118445,0.4484430624527088,-1.0787115177882756,-8.93702,32.028202,6.1414876,51.61706,-7.932431,-10.963863,-28.663086,-16.213333,1.959283,52.22119,-23.938145,9.110223,0.1271543,1.107358,21.322397,9.985034,30.944101,-23.053366,49.94345,0.94636524,2.4456868,-6.729976,-23.628416,-47.670094,17.167221,56.033066,26.03246,0.20647253,3.6726036
102,-0.9516964554786682,-51.733882904052734,72.5382080078125,4.582983555254125,0.20758115413279885,-0.6433299527489371,-9.128378,32.548683,7.3978767,55.95321,-10.0975275,-9.7427845,-28.281475,-15.5044565,0.77471787,52.827663,-24.43862,8.520373,0.09822294,1.4490353,21.416798,9.908654,30.477217,-22.672121,50.06626,1.5609378,2.6021802,-6.2306895,-22.995722,-48.078438,16.224054,57.05096,25.842981,0.58263427,3.6091712
103,-0.9417217969894409,-52.86653137207031,72.5165786743164,4.380166212011281,-0.026132166727814946,-0.21869005469869518,-9.179636,33.043953,8.6926985,60.22269,-12.214214,-8.5370245,-27.89573,-14.770807,-0.40411678,53.36896,-24.932173,7.8378115,0.029303968,1.7925608,21.466461,9.873234,29.976616,-22.315252,50.18644,2.1482184,2.7600372,-5.6839557,-22.317438,-48.44596,15.277321,58.023785,25.604141,0.98881423,3.5848238
104,-0.9283993244171143,-53.9967041015625,72.49991607666016,4.207125995696664,-0.24278836465665413,0.22662987211226096,-9.103902,33.312435,9.839149,64.23155,-14.107891,-7.4728065,-27.517788,-14.061515,-1.5551615,53.847786,-25.398033,7.110371,-0.110287935,2.0911434,21.464174,9.83889,29.48183,-22.082474,50.34293,2.562844,2.8709543,-5.217656,-21.591349,-48.76194,14.308901,58.9252,25.434578,1.3329049,3.6168158
105,-0.9028909802436829,-55.121646881103516,72.47893524169922,4.071255426358158,-0.4367760487109436,0.6869672548737098,-8.910906,33.340225,10.869333,67.98927,-15.731952,-6.533292,-27.159512,-13.379451,-2.6681035,54.285286,-25.850605,6.3271976,-0.3119203,2.3258207,21.408329,9.831584,29.0235,-21.986385,50.50534,2.746179,2.9149768,-4.8300705,-20.823038,-49.017338,13.302997,59.75758,25.348648,1.603878,3.7405908
106,-0.8650267720222473,-56.25153732299805,72.4614486694336,3.9518689803716276,-0.6145845302311322,1.1497130091353776,-8.597455,33.195896,11.880248,71.57305,-17.160313,-5.676012,-26.80904,-12.703862,-3.7553551,54.674053,-26.29696,5.471236,-0.55485255,2.5136561,21.307507,9.875706,28.60836,-21.981466,50.637806,2.7686083,2.9191518,-4.4686866,-19.999348,-49.207077,12.253711,60.522125,25.284613,1.8447919,3.936222
107,-0.8283158540725708,-57.36314010620117,72.44094848632812,3.848303254962747,-0.7841604458904732,1.6361914747916455,-8.191314,32.795925,12.790509,74.89465,-18.384361,-4.9942527,-26.445456,-12.044135,-4.8311553,54.985218,-26.706945,4.5803266,-0.8494874,2.6590495,21.16624,9.957213,28.236528,-22.054573,50.75297,2.704893,2.9033706,-4.1851935,-19.09377,-49.331676,11.160551,61.196724,25.245117,2.0447428,4.136442
108,-0.7902008295059204,-58.48118209838867,72.42850494384766,3.7594675957384807,-0.9531026915487352,2.168132129817835,-7.7316236,32.05297,13.520645,77.86133,-19.390821,-4.587254,-26.04733,-11.409865,-5.9104705,55.18837,-27.049522,3.6925154,-1.2060452,2.7705917,20.989798,10.047821,27.90384,-22.203588,50.875492,2.622585,2.888384,-4.030223,-18.074884,-49.39346,10.017841,61.75406,25.234491,2.193834,4.2747808
109,-0.7457319498062134,-59.58116149902344,72.4312973022461,3.684502396742513,-1.1143021916298523,2.746803386720831,-7.265681,30.900324,14.033074,80.47022,-20.177477,-4.4732127,-25.624603,-10.801089,-6.995333,55.293613,-27.332485,2.8149107,-1.6270788,2.8559427,20.775696,10.140189,27.60755,-22.435501,51.013348,2.5037665,2.8707776,-4.052614,-16.973219,-49.389565,8.782943,62.2392,25.235893,2.2594836,4.3640256
110,-0.6872754693031311,-60.67352294921875,72.44913482666016,3.6238554585170846,-1.2660776053894438,3.361744714797119,-6.792742,29.378227,14.394048,82.76258,-20.73767,-4.6199455,-25.182322,-10.213621,-8.079295,55.316364,-27.572594,1.9292756,-2.1032274,2.911195,20.522709,10.243643,27.348988,-22.754234,51.15785,2.3227887,2.8427196,-4.213037,-15.791977,-49.31789,7.46512,62.643814,25.251534,2.2576063,4.429711
111,-0.6208721995353699,-61.760807037353516,72.4851303100586,3.578987669808608,-1.424773746103925,4.018821295588087,-6.284767,27.562263,14.676614,84.7016,-21.049925,-5.0492268,-24.69195,-9.6513195,-9.167146,55.232067,-27.750448,1.0357661,-2.6310453,2.9253352,20.236347,10.363818,27.12763,-23.143242,51.304028,2.1436007,2.8184092,-4.42944,-14.46745,-49.187675,6.148711,62.864464,25.318161,2.2512152,4.4244924
112,-0.5497922897338867,-62.83934020996094,72.53585815429688,3.5499208106983766,-1.6066700709373256,4.723911020954493,-5.7120504,25.530207,14.944417,86.24484,-21.093464,-5.7808385,-24.124735,-9.115622,-10.264172,55.011578,-27.842396,0.13448851,-3.211332,2.891385,19.921988,10.512481,26.938345,-23.580183,51.44247,2.0336173,2.8109143,-4.620352,-12.942762,-49.01038,4.925558,62.803116,25.47486,2.3044066,4.3025565
113,-0.4717913866043091,-63.9124755859375,72.60839080810547,3.5239374302928708,-1.8126100477252958,5.482195569216308,-5.104322,23.240536,15.159233,87.39897,-20.821617,-6.8573976,-23.471596,-8.60162,-11.395426,54.64897,-27.859722,-0.79484016,-3.8591552,2.8253496,19.577578,10.695915,26.779922,-24.0757,51.56965,2.00944,2.8200002,-4.7756686,-11.2325535,-48.799683,3.8560882,62.45974,25.78373,2.4508438,4.046216
114,-0.3754778206348419,-64.97154998779297,72.70291137695312,3.502766242173916,-2.034606791440876,6.290234805844559,-4.487013,20.661276,15.294654,88.17454,-20.27585,-8.270775,-22.74781,-8.105917,-12.554504,54.159203,-27.81006,-1.7444085,-4.578525,2.7324276,19.200167,10.914664,26.648252,-24.62915,51.687508,2.036837,2.839189,-4.935795,-9.378193,-48.55333,2.8983371,61.886894,26.215061,2.651246,3.683572
115,-0.28134626150131226,-66.03520202636719,72.8249282836914,3.506413947014103,-2.2767213944548566,7.140967666800863,-3.8235457,17.895548,15.416324,88.53443,-19.567871,-9.95304,-21.963305,-7.630883,-13.7035,53.548157,-27.66632,-2.6753836,-5.3526597,2.589755,18.792952,11.163619,26.532091,-25.20439,51.80336,2.1068718,2.871329,-5.0935264,-7.350981,-48.25126,1.9863704,61.056343,26.669596,2.8596988,3.2359104
116,-0.17980821430683136,-67.0972671508789,72.9754638671875,3.5521250003019875,-2.543970273155685,8.027305928095842,-3.0753818,15.058893,15.578235,88.444664,-18.802364,-11.8259945,-21.131289,-7.1785398,-14.806585,52.826527,-27.396547,-3.5506039,-6.166199,2.3727567,18.356396,11.433049,26.418987,-25.765324,51.932552,2.2103179,2.919249,-5.2396374,-5.13069,-47.86403,1.0630144,59.9436,27.043917,3.0304296,2.7231097
117,-0.07049985975027084,-68.16903686523438,73.154541015625,3.661173013774565,-2.8506677817857016,8.966636472668673,-2.200914,12.118881,15.784324,87.85302,-17.97898,-13.932733,-20.215046,-6.766422,-15.850302,51.951946,-27.034422,-4.3658266,-7.0320625,2.0543954,17.884014,11.712857,26.305779,-26.320934,52.093,2.3768644,2.992323,-5.3747935,-2.6660535,-47.368046,0.14533159,58.459538,27.33899,3.165943,2.077718
118,0.03275110945105553,-69.22630310058594,73.36878967285156,3.9523752585656875,-3.1559656778558374,10.022614349093656,-1.2320203,9.131245,16.385077,86.75499,-17.013199,-15.000033,-19.3252,-6.5999327,-16.811975,51.0659,-26.634155,-5.091401,-8.01011,1.5288193,17.317469,12.000942,26.197212,-26.88235,52.287724,2.6026554,3.0852287,-5.4993715,0.008271,-46.75541,-0.73360616,56.638813,27.597372,3.2830193,1.3065258
119,0.12329568713903427,-70.27135467529297,73.61237335205078,4.53671881807117,-3.391136125667564,11.241278036094837,-0.29977098,6.0640244,17.328386,85.18193,-15.854644,-15.000033,-18.662682,-6.8862634,-17.685246,50.424953,-26.19758,-5.685327,-9.152435,0.6863969,16.576324,12.307677,26.092499,-27.41332,52.501465,2.8318865,3.179627,-5.6046004,2.780797,-46.01863,-1.5978374,54.64292,27.778322,3.362003,0.54412305
120,0.22495579719543457,-71.32142639160156,73.88042449951172,5.03495438654707,-3.6160169326370912,12.427089724022368,0.6136245,3.1668718,18.134045,83.30183,-14.651196,-15.000033,-18.065886,-7.085328,-18.60801,49.806305,-25.505257,-6.253944,-10.288971,-0.10805947,15.802823,12.641838,25.986454,-27.882137,52.716415,3.0075722,3.2586522,-5.6803203,5.5453525,-45.158302,-2.4789557,52.631336,27.836775,3.3843853,-0.0723137
121,0.3255530595779419,-72.37715148925781,74.16878509521484,5.460828567195778,-3.832664170940034,13.607507581025347,1.5567467,0.40650055,18.806932,81.05022,-13.347531,-15.000033,-17.512392,-7.2331886,-19.627262,49.1966,-24.546888,-6.815695,-11.442731,-0.8696514,14.9785185,12.999913,25.873487,-28.299042,52.958466,3.120601,3.3215725,-5.718231,8.347248,-44.163387,-3.3647404,50.553055,27.695175,3.3194122,-0.53652084
122,0.4184538424015045,-73.43486785888672,74.4691162109375,5.8351311413538856,-4.048932741138377,14.793840212562184,2.564665,-2.2706187,19.346275,78.40125,-11.950142,-15.000033,-16.98343,-7.3469906,-20.716179,48.57299,-23.364735,-7.3634515,-12.622497,-1.6183676,14.105704,13.372473,25.753979,-28.67578,53.23264,3.2011323,3.3766458,-5.72303,11.21189,-43.028957,-4.226665,48.34533,27.396156,3.1881468,-0.9139182
123,0.5072768330574036,-74.49174499511719,74.78202819824219,6.123446409323274,-4.252202442744021,15.91037861200345,3.5715926,-4.795275,19.699175,75.504326,-10.593917,-15.000033,-16.545214,-7.3463445,-21.775156,47.977757,-21.944036,-7.8653126,-13.757145,-2.3117461,13.243789,13.747842,25.63394,-28.992113,53.4954,3.2478247,3.4193113,-5.7051497,14.010074,-41.776302,-5.084994,46.15297,27.075783,3.0492585,-1.1717257
124,0.5785381197929382,-75.56766510009766,75.10100555419922,6.304018370904556,-4.4297940041041155,16.882779119642358,4.5080256,-7.102312,19.839874,72.504486,-9.403302,-15.000033,-16.264433,-7.1665096,-22.695435,47.44927,-20.265957,-8.285162,-14.775937,-2.9166827,12.453077,14.120573,25.520758,-29.227552,53.694237,3.2588296,3.4450078,-5.67778,16.630226,-40.4405,-5.975493,44.11234,26.87263,2.962146,-1.270468
125,0.6381449103355408,-76.66088104248047,75.42003631591797,6.394674429321638,-4.577582647091561,17.695663849572444,5.36203,-9.259481,19.721424,69.360016,-8.386928,-15.000033,-16.135782,-6.8480587,-23.544628,46.999573,-18.281221,-8.646368,-15.675999,-3.451482,11.722662,14.506305,25.411186,-29.36599,53.822594,3.2237458,3.45861,-5.653549,19.101938,-39.03864,-6.931467,42.193775,26.833168,2.957516,-1.0729456
126,0.6849806904792786,-77.76628875732422,75.73873901367188,6.421407809628343,-4.702394491986366,18.386041089136484,6.1933155,-11.277329,19.388931,66.00525,-7.4677196,-15.000033,-16.129995,-6.431956,-24.333433,46.59627,-16.005322,-8.947949,-16.487053,-3.9395962,11.034649,14.903107,25.301304,-29.424135,53.898613,3.1455941,3.4601874,-5.6242347,21.459452,-37.568626,-7.9198995,40.35207,26.885954,3.0013704,-0.6354459
127,0.7071793079376221,-78.8796157836914,76.05146026611328,6.38359243322196,-4.806001979869925,18.962188724725838,7.02221,-13.009518,18.993626,62.55994,-6.6276183,-15.000033,-16.280743,-5.8622646,-24.859436,46.20775,-13.51252,-9.108521,-17.184076,-4.364241,10.439144,15.276856,25.201206,-29.436666,53.90353,3.040026,3.438375,-5.57357,23.582584,-36.046223,-8.889652,38.726715,26.994776,3.0547454,-0.20808677
128,0.7036409378051758,-80.00398254394531,76.34864807128906,6.280675273064945,-4.888098243071664,19.434186479978013,7.854012,-14.325672,18.708317,59.145187,-5.841156,-15.000033,-16.62615,-5.079417,-24.915405,45.806576,-10.8783865,-9.038541,-17.761152,-4.712166,9.973937,15.621057,25.126886,-29.423647,53.803356,2.9199746,3.3822505,-5.488487,25.421019,-34.491936,-9.810583,37.39384,27.12375,3.078956,-0.037843693
129,0.6771439909934998,-81.13385772705078,76.63038635253906,6.124734846044432,-4.9400962503551185,19.793736947057276,8.720106,-15.158733,18.737654,55.707687,-5.118161,-15.000033,-17.219156,-4.1208158,-24.526146,45.499557,-8.055138,-8.93925,-18.241764,-4.991488,9.629516,15.986525,25.077505,-29.315784,53.546562,2.8114603,3.3058622,-5.389969,26.971258,-32.90002,-10.738384,36.39969,27.302622,3.0505435,-0.16790546
130,0.6295977234840393,-82.27995300292969,76.88566589355469,5.92380139131296,-4.962085519557828,20.04411898291085,9.601998,-15.633775,19.003437,52.201946,-4.476209,-15.000033,-18.02037,-3.0022485,-23.770098,45.257267,-5.021599,-8.7442255,-18.625109,-5.2198195,9.388367,16.368832,25.0526,-29.124325,53.153877,2.6990988,3.2098265,-5.2791095,28.264315,-31.273714,-11.690009,35.696014,27.536415,2.9922361,-0.4736039
131,0.5607218146324158,-83.44071960449219,77.10659790039062,5.666669404425667,-4.965955120407474,20.21343066674391,10.411528,-15.877675,19.27668,48.770878,-3.8395398,-15.000033,-18.916727,-1.5951761,-22.485065,44.83785,-1.9025015,-7.948184,-18.877775,-5.3915997,9.272248,16.6981,25.072826,-28.982565,52.684364,2.532803,3.063837,-5.1170397,29.33262,-29.657827,-12.580646,35.193493,27.75656,2.935977,-0.9461865
132,0.465908408164978,-84.60724639892578,77.29005432128906,5.340188359301599,-4.96505637025654,20.328724370127304,11.05785,-15.992076,19.29326,45.588814,-3.193171,-15.000033,-19.777136,0.25326508,-20.467325,44.006413,1.1399019,-6.0360675,-18.97581,-5.4965196,9.298939,16.927513,25.16714,-29.016254,52.17779,2.258972,2.8373742,-4.869858,30.200302,-28.120155,-13.307642,34.81876,27.904726,2.916819,-1.572811
133,0.3593888282775879,-85.78607940673828,77.42713928222656,4.951789135453026,-4.93993756945234,20.401588019206294,11.521693,-16.021654,18.97738,42.513477,-2.4460073,-15.000033,-20.545027,2.8010373,-17.257397,42.531094,4.220319,-2.2427282,-18.962961,-5.529706,9.448415,17.10139,25.355667,-29.259378,51.575607,1.7932801,2.4918015,-4.4772296,30.821213,-26.704988,-13.84744,34.66262,27.982801,2.9481437,-2.4883223
134,0.24057310819625854,-86.96437072753906,77.52210235595703,4.508119812242782,-4.898443593871378,20.42587573016893,11.843768,-15.895854,18.483839,39.53486,-1.6598408,-15.000033,-21.135891,5.9353786,-12.977302,40.61312,7.14143,3.0361724,-18.869165,-5.502222,9.710859,17.274582,25.63606,-29.624527,50.8397,1.1840786,2.0509617,-3.9855552,31.173645,-25.421572,-14.236909,34.775505,28.035786,3.0125668,-3.647448
135,0.10785643011331558,-88.15264892578125,77.5702896118164,4.001358836649326,-4.892192552231814,20.401631567496615,11.97747,-15.497319,17.921728,37.105957,-1.0154765,-15.000033,-21.448015,9.165027,-8.383759,38.693893,9.372846,8.463144,-18.650854,-5.4322305,10.112066,17.41041,25.99703,-30.054678,50.049698,0.5753949,1.5794908,-3.5192046,31.316538,-24.285149,-14.453939,35.029133,28.069904,3.1002872,-4.7666545
136,-0.021941689774394035,-89.36332702636719,77.5701675415039,3.4249872424684726,-4.965455685747629,20.319213019256924,11.842609,-14.699854,17.421202,35.73386,-0.7299614,-15.000033,-21.553595,11.979399,-4.3531733,37.18825,10.672918,12.61789,-18.254402,-5.3323293,10.669969,17.465818,26.4206,-30.494099,49.29365,0.10976592,1.1468011,-3.197354,31.30238,-23.316528,-14.474147,35.301643,28.090763,3.2028575,-5.5614524
137,-0.15748348832130432,-90.60287475585938,77.5285415649414,2.737054250607002,-5.163058807612464,20.125178882277794,11.250645,-13.362034,16.876844,35.905613,-0.7834148,-15.000033,-21.506126,14.444724,-0.95461386,36.047405,11.145475,15.000033,-17.61931,-5.173945,11.445835,17.402744,26.901896,-30.973585,48.596622,-0.20088655,0.73196137,-3.04098,31.092146,-22.541553,-14.249638,35.64629,28.136515,3.361017,-5.9461603
138,-0.3105340301990509,-91.86174011230469,77.47869873046875,2.1052562956431826,-5.365411627662155,19.97506527857189,10.209734,-11.745763,16.449083,37.172466,-1.022976,-13.766994,-21.581625,16.349724,1.6284829,35.38579,10.904649,15.000033,-16.941908,-5.079061,12.263109,17.256508,27.43761,-31.497196,47.918762,-0.42425305,0.3134741,-2.9863553,30.644318,-21.973654,-13.798571,36.140068,28.199759,3.567475,-6.0749836
139,-0.5199506282806396,-93.06753540039062,77.36659240722656,1.7911886833702144,-5.4155005726095835,20.08453963766918,9.057579,-10.257513,17.025484,38.5534,-1.5346061,-8.2660475,-22.233791,17.349302,3.702932,35.774857,9.86988,15.000033,-16.453636,-5.223425,12.878036,17.090023,28.005188,-31.969553,47.258568,-0.53863525,-0.037885368,-3.021243,30.00521,-21.60482,-13.190537,36.695118,28.213257,3.7424965,-6.0227766
140,-0.7587490677833557,-94.28411102294922,77.18994903564453,1.4317703085823354,-5.41727987115521,20.202045123332056,8.099063,-8.710113,17.754381,39.809593,-2.9189134,-3.789017,-23.02989,17.837894,4.914805,36.511272,8.664818,15.000033,-15.925765,-5.301955,13.465272,16.952665,28.573162,-32.29558,46.63671,-0.5173391,-0.25367296,-3.1313066,29.229992,-21.413515,-12.493024,37.210884,28.104246,3.8038247,-5.8667445
141,-1.0092169046401978,-95.50389862060547,76.94802856445312,0.9788127205833371,-5.367081436347619,20.33502271125673,7.4676666,-7.0584726,18.646276,40.85886,-5.3997135,-0.62007475,-24.053238,17.660019,4.907103,37.674927,7.3144817,15.000033,-15.331269,-5.265397,14.035695,16.813215,29.123907,-32.465218,46.08782,-0.28782114,-0.29803765,-3.3531656,28.350227,-21.394014,-11.685976,37.65015,27.792912,3.6979604,-5.548882
142,-1.2772676944732666,-96.70606231689453,76.66265106201172,0.4878757828642488,-5.274890776874908,20.479909654365095,7.021332,-5.3285775,19.610035,41.886517,-8.685888,1.7740545,-25.291878,16.885529,4.035627,39.255505,5.6908517,15.000033,-14.673035,-5.1681085,14.595264,16.639914,29.653727,-32.527164,45.624966,0.119439855,-0.21736799,-3.6769855,27.325508,-21.5501,-10.746523,38.068016,27.334385,3.4765298,-5.0575843
143,-1.5324739217758179,-97.90479278564453,76.35149383544922,-0.03686704846385568,-5.157888178188431,20.589828083773142,6.6277,-3.5815,20.482008,42.876972,-12.272412,3.4284914,-26.54554,15.778575,2.7854257,40.9144,3.9143376,14.923756,-13.972344,-5.0120387,15.142388,16.481195,30.152664,-32.48051,45.23417,0.5777748,-0.06635169,-4.01899,26.134527,-21.861881,-9.74551,38.470104,26.857449,3.216848,-4.5384126
144,-1.7888659238815308,-99.10726165771484,76.01847839355469,-0.47918347405312733,-4.988559400095685,20.621812256960727,6.1361012,-2.0043674,21.1532,43.718426,-15.572871,4.4573793,-27.749054,14.476732,1.3663286,42.473114,2.0538309,13.364934,-13.248323,-4.9055243,15.607249,16.363916,30.6067,-32.33709,44.913708,0.9590684,0.10312276,-4.293165,24.774956,-22.295206,-8.770089,38.83973,26.482214,2.9981787,-4.1360073
145,-2.041738510131836,-100.30220794677734,75.6706314086914,-0.7322896529644295,-4.727763767570928,20.532895422962657,5.545425,-0.72853416,21.72064,44.253803,-18.445572,4.825639,-29.001476,13.032351,0.30917367,44.03355,0.0024911559,11.654123,-12.434294,-4.9359803,15.947768,16.248451,31.007824,-32.120285,44.69408,1.2435857,0.29209274,-4.490953,23.267464,-22.834215,-7.823252,39.115044,26.238142,2.8245108,-3.90297
146,-2.2901875972747803,-101.48135375976562,75.31330871582031,-0.8661201002482447,-4.397431415105146,20.354994251098372,4.9265146,0.40491146,22.282703,44.596523,-21.149412,4.549123,-30.304049,11.353526,-0.67606455,45.655636,-2.2636178,9.690486,-11.527451,-5.0473847,16.209023,16.10859,31.354118,-31.834038,44.590546,1.4962999,0.5232736,-4.6511903,21.62767,-23.473171,-6.880479,39.29185,26.052557,2.6594872,-3.758929
147,-2.527787208557129,-102.64888763427734,74.94401550292969,-0.9587097111991928,-4.041087521311106,20.163915964138965,4.235118,1.5056969,22.747847,44.94262,-23.657597,3.8962457,-31.537697,9.626771,-1.456485,47.211998,-4.5800247,7.8083043,-10.642682,-5.1695113,16.43327,15.985451,31.638103,-31.465515,44.580772,1.7182513,0.779203,-4.7579436,19.865574,-24.182981,-5.994071,39.426792,25.889214,2.5225034,-3.648251
148,-2.769226312637329,-103.8050765991211,74.56692504882812,-1.0889698769280922,-3.701955667141185,20.035223897851107,3.4222286,2.668571,22.994421,45.481197,-25.94667,3.125659,-32.596992,8.029645,-1.9414587,48.58226,-6.762088,6.326822,-9.8828,-5.227109,16.661068,15.902985,31.850727,-31.014273,44.653484,1.9114982,1.0422535,-4.7944,18.011179,-24.923584,-5.228028,39.563374,25.704834,2.4317808,-3.517377
149,-2.994110584259033,-104.95021057128906,74.19598388671875,-1.291784991884644,-3.36777121182616,19.99833836715377,2.445547,3.9127557,22.923395,46.225674,-28.040104,2.1908174,-33.475307,6.5915165,-2.1655319,49.682404,-8.794724,5.3334794,-9.26692,-5.182976,16.894512,15.837601,31.983496,-30.475924,44.845963,2.0224645,1.3072652,-4.7582226,16.068958,-25.67343,-4.6331296,39.697533,25.49128,2.4054549,-3.3663259
150,-3.19600510597229,-106.07893371582031,73.826416015625,-1.5206394460541819,-3.0235681936093983,20.00789772053707,1.3346543,5.1946793,22.6265,47.094276,-29.953114,1.0008312,-34.23837,5.220639,-2.1968868,50.603783,-10.742448,4.640481,-8.722238,-5.0848475,17.115622,15.756346,32.03716,-29.87224,45.17702,2.0704443,1.5840561,-4.6545663,14.056622,-26.432707,-4.178756,39.78753,25.255047,2.4266117,-3.2223744
151,-3.389634847640991,-107.19384765625,73.45931243896484,-1.7326553147866985,-2.708517592372951,20.029058083353004,0.15130983,6.496358,22.238655,48.11523,-31.639614,-0.25836146,-34.88979,3.9029894,-2.0173292,51.479702,-12.533288,4.144386,-8.214722,-4.980259,17.33417,15.66345,32.021103,-29.24934,45.606796,2.1593559,1.8774537,-4.4797187,12.014373,-27.19511,-3.802215,39.832188,24.97849,2.4596875,-3.0728133
152,-3.5783190727233887,-108.29450225830078,73.1014404296875,-1.885322729888398,-2.4614620027661966,20.02833461384354,-1.0405191,7.7958655,21.884565,49.31627,-33.049725,-1.4016403,-35.43597,2.625804,-1.6012189,52.44422,-14.095567,3.743421,-7.7110586,-4.9170523,17.561344,15.570317,31.950459,-28.651318,46.0859,2.3932738,2.193692,-4.231497,9.996092,-27.947283,-3.448285,39.816082,24.640953,2.4687936,-2.905156
153,-3.7530834674835205,-109.39131164550781,72.75267028808594,-1.964595422917049,-2.295740150681714,19.998255597228816,-2.2538624,9.087105,21.577219,50.771023,-34.157494,-2.3895333,-35.882458,1.4223653,-0.8633713,53.5244,-15.34921,3.464266,-7.208236,-4.9209237,17.809465,15.498475,31.829977,-28.042458,46.609486,2.8456604,2.5366354,-3.877361,7.992799,-28.679293,-3.144039,39.72134,24.192472,2.4571612,-2.6884606
154,-3.911102294921875,-110.48094177246094,72.42198944091797,-1.9939746988268707,-2.1895648648869215,19.957453169744472,-3.511204,10.365555,21.238073,52.437126,-34.998558,-3.3226845,-36.230007,0.28438294,0.14237556,54.64969,-16.348612,3.3352735,-6.71977,-4.967029,18.070223,15.441228,31.662582,-27.414621,47.190777,3.4433384,2.9066844,-3.4323106,5.996765,-29.392477,-2.908712,39.55103,23.652458,2.4367125,-2.4398892
155,-4.052121162414551,-111.57469940185547,72.11144256591797,-1.9863012128788569,-2.129132447278311,19.912653484052584,-4.756328,11.61085,20.854445,54.15379,-35.607883,-4.225073,-36.476974,-0.8648402,1.2428465,55.80148,-17.22512,3.2616963,-6.2339153,-5.024342,18.328163,15.365447,31.465973,-26.857302,47.80113,4.0685577,3.3035436,-2.9655793,4.03902,-30.088644,-2.6733334,39.341747,23.112188,2.3864777,-2.21942
156,-4.175534248352051,-112.6646728515625,71.81885528564453,-1.9554621272182644,-2.1007989274843593,19.87092172687134,-5.9381022,12.809768,20.417446,55.768562,-36.014256,-5.1169558,-36.621365,-2.106005,2.2679572,56.952984,-18.105764,3.1494567,-5.7352376,-5.062326,18.5721,15.241978,31.267313,-26.45899,48.401604,4.6031694,3.7243714,-2.5446272,2.1194918,-30.772148,-2.3642566,39.157883,22.666664,2.2875073,-2.0875814
157,-4.277354717254639,-113.75707244873047,71.54886627197266,-1.888394503710087,-2.1084473512495054,19.829161691451795,-7.0743856,13.958237,19.921211,57.323177,-36.159607,-5.991006,-36.664715,-3.4831371,3.1923423,58.134598,-19.031696,2.9821084,-5.215836,-5.094104,18.799297,15.071606,31.08632,-26.248411,48.98191,5.0183606,4.194801,-2.1558716,0.34046832,-31.431597,-2.015701,38.89267,22.30852,2.1311598,-2.0826807
158,-4.357038974761963,-114.85792541503906,71.30109405517578,-1.7824734150766732,-2.1568505052350604,19.78622906502451,-8.183567,15.052178,19.366306,58.867207,-36.049484,-6.8481946,-36.6134,-4.9576173,4.1014414,59.34034,-19.9308,2.8078842,-4.6719007,-5.1336594,19.025139,14.869154,30.929935,-26.183285,49.54188,5.3685465,4.707681,-1.7745408,-1.3765477,-32.06629,-1.6503398,38.595654,22.00242,1.9300781,-2.1658244
159,-4.415217399597168,-115.94978332519531,71.07244110107422,-1.6709907558854782,-2.233954399438776,19.75285640565058,-9.217951,16.091503,18.757305,60.272522,-35.812695,-7.7109604,-36.47582,-6.4855747,4.9906106,60.4996,-20.764328,2.630459,-4.137462,-5.149833,19.22814,14.682759,30.793879,-26.21058,50.04795,5.665778,5.2084875,-1.4569836,-2.9480336,-32.674145,-1.2459564,38.22866,21.767908,1.7018722,-2.271157
160,-4.450901031494141,-117.03512573242188,70.86296844482422,-1.584413374904026,-2.327456306173233,19.73841187086564,-10.128488,17.080555,18.104713,61.409443,-35.57425,-8.590589,-36.255993,-8.021834,5.8553615,61.543274,-21.493942,2.454019,-3.629558,-5.110564,19.40735,14.534271,30.673077,-26.288837,50.470753,5.9246006,5.6415696,-1.2548875,-4.557063,-33.26958,-0.71313787,37.998253,21.64223,1.4621071,-2.3378508
161,-4.471597671508789,-118.10182189941406,70.67158508300781,-1.5328776917582174,-2.441940735353199,19.74147735159883,-10.90442,18.029396,17.405983,62.262615,-35.35126,-9.48095,-35.938377,-9.57714,6.680069,62.484604,-22.135256,2.2699444,-3.1739042,-5.002378,19.53868,14.455963,30.557451,-26.405926,50.802937,6.150925,6.013371,-1.2183926,-6.0556173,-33.857746,-0.048596885,37.778385,21.674124,1.1907244,-2.3670177
162,-4.477339744567871,-119.16756439208984,70.4967041015625,-1.4991348570599308,-2.5816459148863333,19.758342955486743,-11.574318,18.938002,16.660883,62.898273,-35.078613,-10.370609,-35.525314,-11.174896,7.4684033,63.35004,-22.700483,2.07956,-2.7540066,-4.840449,19.635004,14.419094,30.444826,-26.584572,51.064217,6.341189,6.3442435,-1.3055148,-7.512156,-34.43931,0.7400491,37.608063,21.83999,0.8872784,-2.3855107
163,-4.467462539672852,-120.22760772705078,70.346923828125,-1.4743287957761146,-2.7349634428075236,19.79409870701773,-12.14942,19.802921,15.886225,63.3131,-34.75649,-11.258114,-35.04192,-12.77756,8.238739,64.09425,-23.146976,1.9011813,-2.3741221,-4.640601,19.701632,14.421291,30.33182,-26.797615,51.26012,6.496515,6.6002254,-1.4388883,-8.90358,-34.99993,1.6163763,37.447582,22.042707,0.59817505,-2.3624103
164,-4.443084239959717,-121.28797912597656,70.21602630615234,-1.4494294521202746,-2.8900023631095197,19.85371488573493,-12.640474,20.620897,15.098515,63.50331,-34.38493,-12.143182,-34.51255,-14.347394,9.008465,64.675385,-23.432253,1.7520385,-2.0373483,-4.4228354,19.744532,14.460705,30.217173,-27.014956,51.396263,6.61887,6.7481837,-1.5402287,-10.199608,-35.519604,2.5365038,37.252068,22.180103,0.36891422,-2.26993
165,-4.408404350280762,-122.36029052734375,70.1048355102539,-1.4198471169066387,-3.0502822585034712,19.945864919243075,-13.04129,21.377182,14.293909,63.453,-33.985466,-13.020181,-33.92347,-15.879337,9.8054085,65.099174,-23.520144,1.6559296,-1.7519629,-4.1979213,19.762426,14.539775,30.107407,-27.248844,51.470234,6.700803,6.750113,-1.5955919,-11.42325,-35.995384,3.5311842,37.032997,22.2265,0.22246344,-2.114306
166,-4.355620384216309,-123.44576263427734,70.0194091796875,-1.3912629798003924,-3.2201098972676823,20.06519888653914,-13.351907,22.08164,13.470733,63.170345,-33.546925,-13.88906,-33.262184,-17.393612,10.604761,65.38522,-23.441542,1.5965558,-1.5144002,-3.9582157,19.753292,14.661207,30.00535,-27.505585,51.478325,6.743924,6.6338115,-1.6436491,-12.569398,-36.42992,4.60231,36.79714,22.230993,0.12954208,-1.9079546
167,-4.291826248168945,-124.53598022460938,69.96566772460938,-1.370915206544864,-3.388230150594103,20.196260845333633,-13.591879,22.764807,12.647364,62.687023,-33.021553,-14.758633,-32.553722,-18.878325,11.344227,65.51946,-23.257252,1.53194,-1.3018701,-3.6956806,19.728786,14.810619,29.90467,-27.753595,51.429535,6.7635417,6.46516,-1.6829927,-13.61421,-36.810127,5.6638045,36.541103,22.201439,0.056973394,-1.6340603
168,-4.222911357879639,-125.64449310302734,69.94632720947266,-1.2220337729517,-3.5003020845151207,20.396097794082436,-13.834064,23.17746,11.891853,61.97809,-32.319874,-15.000033,-31.897556,-20.514456,12.059523,65.50526,-23.037504,1.4755297,-1.1584396,-3.545906,19.659683,14.960062,29.79823,-27.967249,51.346725,6.7738094,6.309377,-1.7104809,-14.5320015,-37.114517,6.621886,36.263165,22.140442,-0.029399924,-1.2779647
169,-4.148205757141113,-126.7584228515625,69.9574203491211,-1.0506546657989924,-3.5872776654988945,20.61279398972694,-14.042975,23.52035,11.174037,61.095963,-31.48512,-15.000033,-31.234997,-22.174723,12.665319,65.33211,-22.781858,1.3525393,-1.0303578,-3.406688,19.575579,15.112803,29.68147,-28.134192,51.226795,6.7700233,6.1617475,-1.7251378,-15.2841015,-37.337696,7.437979,35.915154,22.015438,-0.13970178,-0.7869861
170,-4.060024738311768,-127.88935852050781,69.99928283691406,-0.8920293423319503,-3.667019345906524,20.831646287959867,-14.192225,23.863487,10.471834,60.041252,-30.546822,-15.000033,-30.528288,-23.805418,13.159639,65.00613,-22.461185,1.17704,-0.90731853,-3.246405,19.483252,15.272595,29.556934,-28.273003,51.069874,6.747379,5.9948483,-1.7265787,-15.898319,-37.486534,8.158084,35.52418,21.828444,-0.25798345,-0.18661714
171,-3.9667282104492188,-129.04019165039062,70.07073974609375,-0.7379388843451222,-3.739442298935211,21.04462568146869,-14.268627,24.20564,9.800042,58.804203,-29.469484,-15.000033,-29.778008,-25.384995,13.54441,64.50593,-22.075407,1.0070986,-0.7822876,-3.0780487,19.38604,15.430505,29.427626,-28.394602,50.895004,6.7223706,5.841189,-1.7125002,-16.400553,-37.561157,8.80774,35.158276,21.630657,-0.38001275,0.42126632
172,-3.860140323638916,-130.22071838378906,70.16827392578125,-0.5804863013107028,-3.8044016253998745,21.243435383228373,-14.258507,24.547962,9.173803,57.37715,-28.219746,-15.000033,-28.986368,-26.888443,13.82208,63.81339,-21.625555,0.9005841,-0.6485769,-2.916185,19.286188,15.578721,29.297535,-28.509048,50.72136,6.711549,5.7335215,-1.6803067,-16.801174,-37.55738,9.407563,34.872475,21.470932,-0.5001351,0.9346785
173,-3.7443742752075195,-131.41993713378906,70.29017639160156,-0.4210916934995167,-3.8661355355112113,21.430590485606444,-14.170036,24.891256,8.571787,55.785984,-26.81209,-15.000033,-28.136889,-28.318491,13.976452,62.9253,-21.158457,0.8528003,-0.5102533,-2.7593775,19.188581,15.7230625,29.167755,-28.60624,50.54062,6.7372327,5.694643,-1.6285081,-17.078932,-37.466206,9.936409,34.663044,21.355345,-0.63622856,1.343953
174,-3.6156442165374756,-132.634765625,70.44412231445312,-0.2632361213168732,-3.9228220882560656,21.607974338711458,-14.002975,25.23997,7.9958,54.02502,-25.255184,-15.000033,-27.22841,-29.67882,14.005767,61.86227,-20.662838,0.83934176,-0.36864716,-2.6036277,19.09083,15.868091,29.039518,-28.682514,50.34359,6.7843037,5.702665,-1.5586605,-17.254494,-37.286335,10.398183,34.52668,21.257992,-0.78474563,1.6969972
175,-3.474881410598755,-133.87252807617188,70.61807250976562,-0.10135183060260752,-3.964467089491381,21.76692200784656,-13.7301655,25.59497,7.487351,52.041904,-23.523106,-15.000033,-26.285233,-30.95166,13.9370985,60.633553,-20.050373,0.8887615,-0.22107503,-2.4627724,18.977549,16.014257,28.915932,-28.75046,50.147327,6.812978,5.723368,-1.4734168,-17.344412,-37.03054,10.840309,34.46711,21.177258,-0.9076397,1.9784987
176,-3.328016757965088,-135.13607788085938,70.81851959228516,0.06979671308961825,-3.9809178836608545,21.898969105999285,-13.325323,25.957201,7.089138,49.784233,-21.583849,-15.000033,-25.334517,-32.115814,13.801448,59.250645,-19.234049,1.0287422,-0.0634398,-2.346285,18.83533,16.159746,28.799402,-28.825565,49.966225,6.7837996,5.7222137,-1.3764334,-17.37532,-36.717102,11.31271,34.49565,21.11538,-0.965404,2.173902
177,-3.172121524810791,-136.4147186279297,71.04166412353516,0.26126960396208043,-3.976537889821738,22.000409489445925,-12.756076,26.307133,6.812985,47.208294,-19.460518,-15.000033,-24.369799,-33.19502,13.581222,57.685574,-18.198898,1.273994,0.1061554,-2.2601314,18.670115,16.296507,28.690676,-28.933483,49.800373,6.6587067,5.69863,-1.2567571,-17.34486,-36.349262,11.816533,34.619835,21.109665,-0.9306922,2.2567828
178,-3.0027291774749756,-137.71817016601562,71.28370666503906,0.46688416097772917,-3.9535897240008087,22.075528981534053,-12.041693,26.652285,6.6349545,44.35671,-17.163055,-15.000033,-23.383503,-34.182064,13.275956,55.956398,-16.99401,1.6069279,0.2823985,-2.1956863,18.48238,16.433262,28.586859,-29.05744,49.640717,6.4680996,5.667613,-1.1178094,-17.19605,-35.924965,12.313714,34.792324,21.139336,-0.8287155,2.2434182
179,-2.8286964893341064,-139.04649353027344,71.54027557373047,0.6669678123686616,-3.8978478640896963,22.129659064197657,-11.235603,27.029793,6.5469456,41.296574,-14.637481,-15.000033,-22.401188,-35.022305,12.948318,54.125984,-15.630364,2.007308,0.48427436,-2.133288,18.27451,16.559631,28.49,-29.1716,49.48886,6.2738957,5.6180696,-0.9818069,-17.142876,-35.463215,12.887351,35.18413,21.187044,-0.6972773,2.184686
180,-2.640690803527832,-140.38958740234375,71.8082504272461,0.8415658709012613,-3.7950829789244773,22.168735575651844,-10.398414,27.476124,6.5442176,38.099617,-11.8298855,-15.000033,-21.4527,-35.662235,12.665573,52.25747,-14.117617,2.454927,0.68184197,-2.0585625,18.010778,16.724386,28.38925,-29.212078,49.33861,6.1389294,5.5392437,-0.87743783,-16.981472,-34.98051,13.485366,35.58586,21.138134,-0.57659596,2.1304128
181,-2.45017409324646,-141.75755310058594,72.07823944091797,1.0034256074031553,-3.6395746236060362,22.201969746761346,-9.468273,27.961727,6.72136,34.632835,-8.686271,-15.000033,-20.533518,-36.1704,12.357002,50.292976,-12.401274,2.9529557,0.8739735,-1.9681981,17.681812,16.906271,28.279955,-29.206242,49.211597,6.0706973,5.4133244,-0.8228399,-16.739908,-34.485268,14.127452,36.04634,20.961626,-0.46939704,2.0564241
182,-2.253122091293335,-143.1399383544922,72.34163665771484,1.1578816244600525,-3.437841233997825,22.224207444294453,-8.452113,28.473484,7.050003,30.933214,-5.26036,-15.000033,-19.64466,-36.544933,12.037395,48.234333,-10.503806,3.5114174,1.0732045,-1.8683858,17.305052,17.087484,28.16209,-29.17422,49.10809,6.0402923,5.2509904,-0.7987822,-16.51059,-33.98487,14.845192,36.653652,20.741499,-0.35595334,1.9492766
183,-2.0543980598449707,-144.54336547851562,72.5923843383789,1.2736192838325002,-3.193681335278432,22.22198372253866,-7.5478015,29.077623,7.339701,27.36857,-1.6756196,-15.000033,-18.828426,-36.636055,11.909125,46.22675,-8.548876,4.1197014,1.285456,-1.7470167,16.895826,17.297052,28.030218,-29.062433,48.99433,6.0543685,5.0836353,-0.7766525,-16.22494,-33.48487,15.5808525,37.295376,20.50462,-0.23913172,1.878328
184,-1.8427256345748901,-145.96022033691406,72.8219985961914,1.3187895398820972,-2.910454673242015,22.183746147103584,-6.9914327,29.845726,7.388019,24.354174,1.9222443,-15.000033,-18.12467,-36.30561,12.1763735,44.406525,-6.6567035,4.7665462,1.5271255,-1.59176,16.47883,17.54851,27.88246,-28.825432,48.840088,6.1201534,4.9427896,-0.7263519,-15.92672,-32.998734,16.320023,37.95646,20.315361,-0.12228937,1.912865
185,-1.6289840936660767,-147.42051696777344,73.02961730957031,1.2543062965961853,-2.5718682616436745,22.09082295444749,-6.975646,30.862984,6.9772053,22.076468,5.888211,-15.000033,-17.607714,-35.3951,13.046884,42.86591,-4.6863747,5.168547,1.830932,-1.3596658,16.043842,17.84366,27.709366,-28.431545,48.641235,6.2961307,4.8450036,-0.61202157,-15.62931,-32.535797,17.072092,38.662346,20.19594,-0.015549552,2.0703833
186,-1.4008091688156128,-148.9040985107422,73.2278060913086,1.0948083144128613,-2.173752338090183,21.96121284496966,-7.564276,32.058876,6.128495,20.603077,9.994816,-15.000033,-17.228437,-34.022373,14.348748,41.512356,-2.6271098,5.4250407,2.1719093,-1.0581275,15.574556,18.165028,27.506844,-27.914324,48.422462,6.560303,4.7704525,-0.4587588,-15.301332,-32.094566,17.83798,39.401066,20.108107,0.08635094,2.313579
187,-1.1669037342071533,-150.43048095703125,73.40808868408203,0.8895166000683942,-1.7387059985349516,21.838311740035426,-8.6634655,33.27453,5.0675464,19.94584,13.32741,-15.000033,-16.826824,-32.456753,15.731444,40.174007,-0.79239744,6.0996747,2.4861357,-0.75007266,15.092881,18.503223,27.29,-27.325516,48.1827,6.8002024,4.6959157,-0.32794374,-14.988062,-31.679867,18.624928,40.159515,20.065325,0.20218532,2.630012
188,-0.9305177927017212,-151.98497009277344,73.5582504272461,0.7090551808641974,-1.3015649928308266,21.759161175155818,-9.89826,34.37215,4.2163105,19.739752,15.19023,-15.000033,-16.244898,-30.9815,16.892248,38.655823,0.49009928,7.7547812,2.7179875,-0.51589036,14.638537,18.861303,27.086704,-26.714455,47.901028,6.9011326,4.598195,-0.28309673,-14.731635,-31.300526,19.43666,40.918556,20.083597,0.352023,3.0088136
189,-0.7110300064086914,-153.52688598632812,73.61705017089844,0.5496792701933051,-0.8490731325717497,21.712711871319957,-11.190999,35.458225,3.861373,19.902151,15.072888,-15.000033,-15.301515,-29.608175,17.921997,36.63968,1.2589209,11.133566,2.8729014,-0.35612047,14.180469,19.321165,26.914856,-26.043917,47.498775,6.8069224,4.480752,-0.33645964,-14.528947,-30.966513,20.300499,41.662872,20.191025,0.5673264,3.4828126
190,-0.5079291462898254,-155.08258056640625,73.58090209960938,0.31087580515104607,-0.39558960073275035,21.651589636562022,-12.468987,36.6965,3.8830442,20.243229,13.659691,-15.000033,-14.120765,-28.160143,18.71783,34.275536,1.6414835,15.000033,3.009547,-0.16732217,13.739907,19.876411,26.774689,-25.29901,46.9712,6.5826874,4.3550434,-0.4603535,-14.361063,-30.68104,21.201773,42.396503,20.375744,0.83142745,4.0485106
191,-0.2900019884109497,-156.73809814453125,73.51669311523438,-0.7249562377063019,-0.04269341923567793,21.49333074744733,-13.515559,38.844986,3.7814307,20.280825,12.077583,-15.000033,-12.897414,-25.910578,17.883844,32.0169,1.603801,15.000033,3.21787,0.76491785,13.424087,20.387226,26.65636,-24.583305,46.418747,6.288867,4.211344,-0.6547392,-14.227129,-30.448624,22.06165,43.117695,20.57759,1.0891458,4.644391
192,-0.11395247280597687,-158.39126586914062,73.43255615234375,-1.4107664102192066,0.17199058940133125,21.423123264251327,-14.269733,40.360332,3.5495224,20.460587,10.882775,-15.000033,-12.039327,-24.061773,17.088865,30.437313,0.8156283,15.000033,3.3383336,1.3560529,13.366978,20.729465,26.581568,-23.98561,45.94285,5.9927893,4.0363326,-0.9256449,-14.109137,-30.257334,22.796524,43.796986,20.745913,1.2972136,5.208053
193,0.0011386366095393896,-160.0443115234375,73.35147094726562,-1.5602614559447952,0.2821556965389613,21.503356643604626,-14.804277,40.990166,3.2410967,20.970678,10.215639,-14.507987,-11.733931,-22.879934,16.242847,29.805838,-1.1681969,15.000033,3.3302727,1.4196892,13.583819,20.853985,26.581444,-23.546144,45.543888,5.640352,3.8043263,-1.3126433,-14.009024,-30.099245,23.349323,44.383514,20.791727,1.460978,5.7682157
194,0.04910731688141823,-161.6817169189453,73.2542953491211,-1.2843825428477447,0.34248284236755033,21.71823354036957,-15.142395,40.920326,3.10527,21.689072,9.720432,-13.229118,-11.855741,-22.231632,15.229399,29.878822,-4.1454787,15.000033,3.2199368,1.0507294,13.991906,20.824299,26.666195,-23.22443,45.172993,5.213048,3.5319319,-1.8043144,-13.90905,-29.977774,23.746778,44.88021,20.764671,1.5990509,6.3433933
195,0.045465338975191116,-163.28433227539062,73.10369873046875,-0.9284486127624682,0.3069114267041758,21.9169067212268,-15.76031,40.584576,2.5776274,23.415136,8.795266,-11.976853,-12.285246,-21.69628,14.137151,30.560802,-7.502404,15.000033,3.1247826,0.5955955,14.56033,20.74405,26.818361,-22.970594,44.808918,4.8281603,3.2726548,-2.3264115,-13.825041,-29.89474,24.0785,45.4095,20.824083,1.6795145,6.8604727
196,0.028559010475873947,-164.87425231933594,72.94432830810547,-0.5853561715968238,0.23069531907282426,22.078989727901913,-16.388752,40.08031,1.9105293,25.497835,7.626189,-10.702128,-12.9005165,-21.163897,13.035315,31.586184,-10.541495,15.000033,3.0566342,0.1506504,15.19244,20.61367,26.994781,-22.76173,44.529358,4.6098375,3.0696802,-2.7978504,-13.739897,-29.860842,24.409203,46.05752,21.1389,1.6732136,7.2365184
197,-0.02346091903746128,-166.46734619140625,72.77571868896484,-0.21521957049658477,0.10144870652799129,22.205935065418245,-17.101479,39.29107,0.831102,28.095835,6.092742,-9.263705,-13.718079,-20.726095,11.809236,33.009468,-13.249895,15.000033,3.0054467,-0.31837124,15.936376,20.380053,27.165344,-22.579718,44.401447,4.5945077,2.9069319,-3.2261693,-13.697165,-29.88267,24.779486,46.863667,21.867855,1.5286169,7.435018
198,-0.09409629553556442,-168.0443115234375,72.58972930908203,0.2190022795891449,-0.09379697116707146,22.32775456035409,-17.902418,38.186974,-0.6396621,31.305542,4.227223,-7.7324185,-14.758942,-20.444809,10.426327,34.890854,-15.926577,15.000033,2.9377503,-0.85013044,16.813412,20.044167,27.335636,-22.435127,44.394543,4.7234483,2.765094,-3.6422305,-13.695285,-29.959063,25.163313,47.772938,22.891996,1.276002,7.50551
199,-0.164605051279068,-169.59983825683594,72.3997802734375,0.6029802791910045,-0.31823463507329397,22.43359481576715,-18.693304,37.082172,-1.9921385,34.892376,2.1495662,-6.3572125,-15.9050665,-20.105808,9.143752,36.991272,-18.363106,15.000033,2.850631,-1.322788,17.689081,19.678595,27.481762,-22.362831,44.472164,4.981998,2.6808577,-3.988847,-13.662939,-30.08005,25.527958,48.76224,23.941021,1.0083469,7.4948573
200,-0.22588922083377838,-171.11935424804688,72.19888305664062,0.8240438916815552,-0.5268882253523907,22.501650111139902,-19.366547,36.31592,-2.6901343,38.560314,0.005348532,-5.3747435,-17.057653,-19.467335,8.223602,39.075302,-20.341944,15.000033,2.7425127,-1.617798,18.422728,19.375841,27.58273,-22.380981,44.580765,5.360206,2.6922796,-4.211511,-13.545554,-30.23315,25.85681,49.821083,24.754625,0.81925315,7.443423
201,-0.25452920794487,-172.5997772216797,72.00945281982422,0.8151818111757015,-0.7025297682182339,22.488501530501463,-19.901327,36.077785,-2.5259311,42.287003,-2.2247665,-4.9973288,-18.269234,-18.342154,7.861874,41.191917,-21.720787,15.000033,2.64664,-1.6594003,18.975296,19.152683,27.615782,-22.487873,44.734184,5.9301553,2.8363404,-4.253208,-13.355274,-30.416426,26.203516,51.00826,25.291838,0.7263215,7.328611
202,-0.2716839909553528,-174.06356811523438,71.81980895996094,0.6510817153876283,-0.8652202308644437,22.41338764026695,-20.370007,36.21467,-1.8035911,46.243996,-4.623215,-5.0160103,-19.557535,-16.882118,7.861053,43.421482,-22.636765,15.000033,2.5424895,-1.5231385,19.412182,18.958687,27.574701,-22.671455,44.97189,6.680479,3.0844986,-4.1561217,-13.132289,-30.631573,26.575558,52.33076,25.68292,0.67966664,7.135613
203,-0.2926577031612396,-175.47589111328125,71.64334869384766,0.43123376148661097,-1.024220654834538,22.34283706337862,-20.771854,36.547535,-0.7408918,50.360085,-7.1014056,-5.0408483,-20.790125,-15.344477,7.9049625,45.58145,-23.289402,15.000033,2.3588173,-1.3182664,19.74903,18.782408,27.472502,-22.938797,45.27667,7.468966,3.3768256,-4.0142503,-12.839585,-30.867744,26.862251,53.68305,25.904568,0.6753381,6.9142723
204,-0.32224518060684204,-176.85443115234375,71.48439025878906,0.25304301662859063,-1.1902572178925248,22.343062219815938,-21.069998,36.864914,0.44888476,54.49985,-9.547002,-4.702261,-21.849518,-13.990493,7.705556,47.480614,-23.875248,15.000033,2.0354986,-1.1577003,20.005142,18.613415,27.337963,-23.302866,45.621353,8.14833,3.651536,-3.9199085,-12.43443,-31.108458,26.944729,54.958027,25.936922,0.7099163,6.716036
205,-0.34044647216796875,-178.2052001953125,71.35352325439453,0.12594048806384825,-1.3626749859033584,22.40671408744714,-21.224125,37.27706,1.9343921,58.692467,-12.032128,-3.7458518,-22.734407,-12.860075,7.2187276,49.083393,-24.404932,15.000033,1.5622417,-1.0578603,20.17373,18.474386,27.190163,-23.792234,45.99693,8.670714,3.9086258,-3.8516326,-11.909875,-31.339638,26.804155,56.155407,25.636946,0.7968083,6.581736
206,-0.3458538353443146,-179.52719116210938,71.2524185180664,0.0016464641711386497,-1.539576383636568,22.50605420555002,-21.176805,37.835125,3.7590568,62.92791,-14.576994,-2.423181,-23.506632,-11.820205,6.6014566,50.478813,-24.78017,15.000033,0.9816018,-0.96981263,20.25151,18.372934,27.035315,-24.394495,46.39831,9.109574,4.1769223,-3.777534,-11.285221,-31.558887,26.495895,57.329586,25.067032,0.93376964,6.4759173
207,-0.3269968330860138,-180.82763671875,71.17497253417969,-0.10915421423627492,-1.7284748554571554,22.67772514679286,-20.908075,38.197693,5.5360346,66.99388,-16.96479,-1.1415596,-24.154512,-10.877938,5.8892455,51.673576,-25.045515,15.000033,0.30961278,-0.9087659,20.261368,18.285927,26.884357,-25.054424,46.795128,9.501539,4.435343,-3.774005,-10.513685,-31.763899,25.972206,58.421513,24.47563,1.095155,6.33713
208,-0.2868862450122833,-182.1150360107422,71.1192398071289,-0.23063583112119965,-1.934670079055816,22.94849950457127,-20.479473,38.056786,6.8663106,70.68688,-18.94006,-0.325069,-24.650331,-9.98582,5.085513,52.652122,-25.238056,14.821948,-0.4236392,-0.85644335,20.227146,18.188234,26.75386,-25.72266,47.154144,9.881018,4.661809,-3.9181519,-9.537925,-31.954086,25.174475,59.35986,24.110785,1.2553915,6.103723
209,-0.21505504846572876,-183.40042114257812,71.09374237060547,-0.49005672281015356,-2.160786538749892,23.343417602258487,-20.041786,37.429832,7.509393,74.03441,-20.379925,-0.08709978,-24.923412,-8.976265,4.032605,53.355125,-25.353645,13.824366,-1.2238421,-0.6917956,20.149185,18.069965,26.659737,-26.41849,47.473656,10.24473,4.861808,-4.299496,-8.311667,-32.120064,24.00141,60.13486,24.04379,1.4278626,5.741605
210,-0.15030251443386078,-184.66632080078125,71.09357452392578,-0.7448542986758028,-2.404185506340768,23.86635147370664,-19.529295,36.309063,7.825609,77.11672,-21.420305,-0.18177132,-25.036272,-8.073556,2.861497,53.856445,-25.412724,12.732977,-2.1128573,-0.5502886,20.024195,17.953579,26.609875,-27.163366,47.74967,10.574797,5.0413613,-4.8568425,-6.850239,-32.25255,22.495342,60.758545,24.144058,1.6196222,5.291699
211,-0.0993862971663475,-185.92041015625,71.12433624267578,-0.9861317748030792,-2.6515112363606015,24.405592297062924,-18.861284,34.80437,8.03144,79.82574,-22.150282,-0.64516616,-25.054813,-7.2120748,1.6838623,54.142574,-25.35155,11.596757,-2.9956913,-0.44240177,19.863735,17.865831,26.601355,-27.903742,47.94507,10.883343,5.179934,-5.4407525,-5.205648,-32.353912,20.819675,61.201496,24.351103,1.7931356,4.803891
212,-0.0623062364757061,-187.15740966796875,71.18896484375,-1.204077519585624,-2.89063306486854,24.84904777102232,-17.965513,33.02481,8.327234,82.04633,-22.662888,-1.5073366,-25.042826,-6.328914,0.6063671,54.200066,-25.106524,10.464294,-3.7854967,-0.38036332,19.678192,17.836006,26.623442,-28.5752,48.026215,11.187781,5.257964,-5.900351,-3.4584243,-32.438198,19.161907,61.455853,24.615488,1.9104203,4.3266873
213,-0.02554100565612316,-188.36976623535156,71.29161834716797,-1.401814516053283,-3.126828403424887,25.1650043933904,-16.804646,30.924995,8.748297,83.73405,-22.947226,-2.900756,-25.007479,-5.4077454,-0.37042674,54.039616,-24.673862,9.330241,-4.46287,-0.35832515,19.469374,17.87413,26.664541,-29.14878,47.97181,11.534063,5.253507,-6.2500696,-1.6372752,-32.51588,17.517277,61.55093,25.010466,1.9503955,3.8771532
214,-0.0011857536155730486,-189.56610107421875,71.43526458740234,-1.5810098512014648,-3.364892708347834,25.413248642869327,-15.471919,28.441963,9.174805,84.944405,-22.988771,-4.7737217,-24.90995,-4.482764,-1.3003019,53.669426,-24.093828,8.173182,-5.083018,-0.369897,19.232906,17.96415,26.720867,-29.652548,47.8085,11.902971,5.182337,-6.549865,0.28098232,-32.58141,15.821077,61.4876,25.545073,1.9362903,3.4295335
215,0.022623993456363678,-190.7490997314453,71.62712860107422,-1.73212911998702,-3.5935639485219224,25.617339320249858,-14.085719,25.67762,9.566256,85.702194,-22.872854,-6.8668194,-24.746408,-3.562782,-2.1609733,53.07208,-23.366026,7.017122,-5.6750793,-0.4243862,18.967152,18.09957,26.790157,-30.101288,47.573536,12.215265,5.084346,-6.717783,2.3145204,-32.61916,14.143693,61.197823,26.044268,1.8980399,2.9673722
216,0.040928807109594345,-191.91282653808594,71.86153411865234,-1.8491541586203435,-3.801827796068362,25.801480320249716,-12.745494,22.750513,9.883976,86.02763,-22.661837,-8.919779,-24.5141,-2.6548336,-2.9325395,52.222355,-22.480862,5.886365,-6.2731547,-0.53303057,18.669102,18.277712,26.87034,-30.50351,47.3041,12.393976,5.0007277,-6.671934,4.4268713,-32.60979,12.608793,60.665115,26.36577,1.8644377,2.4698532
217,0.0473785400390625,-193.06524658203125,72.13165283203125,-1.917586823971292,-3.9953460373723955,25.969438131753986,-11.438722,19.565931,10.070213,85.886955,-22.334013,-10.898226,-24.19404,-1.7854773,-3.6505268,51.116257,-21.46996,4.7512016,-6.8974004,-0.7214766,18.322113,18.51783,26.959925,-30.85423,46.997707,12.427294,4.942144,-6.335067,6.6536655,-32.5437,11.276093,59.809143,26.338095,1.826084,1.8379316
218,0.0498335175216198,-194.2107696533203,72.44198608398438,-1.9518168425857525,-4.17814090329064,26.10825380556211,-10.134563,16.121496,10.126757,85.26926,-21.880222,-12.920873,-23.79126,-0.9337643,-4.3224916,49.766987,-20.324331,3.6095276,-7.531675,-0.97676885,17.930986,18.81633,27.058765,-31.140501,46.64267,12.357556,4.887697,-5.7673507,8.967079,-32.422466,10.089071,58.68971,26.087236,1.7741281,1.1076152
219,0.04240276664495468,-195.36778259277344,72.78639221191406,-1.9876956911160615,-4.335071619390822,26.21686967591714,-8.877635,12.691503,10.112395,84.241,-21.357622,-14.957215,-23.337248,-0.037643448,-4.884029,48.16274,-18.971432,2.5269117,-8.161454,-1.2528882,17.52122,19.142584,27.165895,-31.355478,46.2612,12.18777,4.8307304,-5.0948114,11.258682,-32.24025,8.981598,57.482254,25.89111,1.734994,0.461729
220,0.001098289038054645,-196.49142456054688,73.172607421875,-1.782386249372824,-4.381097664934987,26.411548233930947,-7.7423596,9.472057,10.704835,82.78992,-20.684324,-15.000033,-23.04951,0.56941617,-5.153684,46.5583,-17.4724,1.6648229,-8.885507,-1.7604023,17.013708,19.46526,27.28014,-31.491207,45.882233,11.921432,4.7635894,-4.444066,13.412358,-31.982956,7.8993797,56.374416,26.024813,1.7276245,0.08244187
221,-0.06606868654489517,-197.6138916015625,73.58663940429688,-1.5316724492619878,-4.352359867101785,26.620762013293476,-6.6559777,6.5182657,11.399906,80.8947,-19.930862,-15.000033,-22.790533,1.1805487,-5.1985793,44.732597,-15.740802,0.9498496,-9.645299,-2.327678,16.44683,19.77872,27.40198,-31.55526,45.517105,11.50968,4.6812377,-3.800437,15.456548,-31.643478,6.8195066,55.33183,26.610382,1.7622777,0.07615485
222,-0.14432482421398163,-198.7513427734375,74.02101135253906,-1.3290741757265059,-4.283860328938737,26.798080016577423,-5.5625954,3.7989957,12.062003,78.57715,-19.09794,-15.000033,-22.480669,1.9123856,-5.103347,42.613342,-13.757724,0.3210956,-10.389717,-2.8643,15.859545,20.090273,27.533508,-31.556305,45.15386,10.96762,4.584961,-3.1121302,17.434362,-31.227926,5.7748656,54.285152,27.481623,1.8277372,0.3234952
223,-0.24099001288414001,-199.90689086914062,74.46915435791016,-1.1849759633642862,-4.194851547633518,26.92297637704239,-4.51462,1.2654705,12.519335,75.99694,-18.148853,-15.000033,-22.167624,2.7537353,-4.8973913,40.344223,-11.518354,-0.2047867,-11.078714,-3.3562615,15.304008,20.398882,27.674183,-31.486713,44.780132,10.392897,4.4809313,-2.4497726,19.256578,-30.74672,4.7945366,53.36823,28.470558,1.9065838,0.6694971
224,-0.34796857833862305,-201.07571411132812,74.92086029052734,-1.1029098066721295,-4.1067785843684455,26.973897092914974,-3.5579567,-1.1174538,12.627472,73.31657,-17.044336,-15.000033,-21.898159,3.6865642,-4.6002,38.064945,-9.0121155,-0.6109833,-11.67022,-3.7983892,14.833929,20.70176,27.821722,-31.339226,44.386154,9.882623,4.378842,-1.8834342,20.823599,-30.216003,3.9140456,52.726765,29.415348,1.9745184,0.959838
225,-0.47005802392959595,-202.25546264648438,75.36589050292969,-1.0833976970096162,-4.0202658191405956,26.940683371387397,-2.6821442,-3.3863986,12.361097,70.4947,-15.717021,-15.000033,-21.708092,4.6964335,-4.278509,35.828022,-6.1031637,-1.1159062,-12.158777,-4.194547,14.461495,21.012106,27.968134,-31.060072,43.959553,9.457299,4.2789736,-1.4422997,22.121738,-29.64819,3.1370797,52.40723,30.388527,2.0382035,1.248976
226,-0.6113803386688232,-203.44830322265625,75.78780364990234,-1.1145042217365682,-3.926866361369989,26.83507906878018,-1.8309331,-5.5055485,11.8146105,67.47364,-14.200781,-15.000033,-21.561968,5.7859874,-3.9002278,33.555805,-2.839331,-1.6575782,-12.567573,-4.55646,14.159249,21.327402,28.110022,-30.667124,43.512486,9.067215,4.1788325,-1.0859599,23.196707,-29.051758,2.454127,52.335106,31.441097,2.1090434,1.5881734
227,-0.7664020657539368,-204.6416473388672,76.18744659423828,-1.166714220950001,-3.8350702655577416,26.672498653835575,-0.9838888,-7.4053836,11.05341,64.380585,-12.60408,-15.000033,-21.382378,6.954916,-3.2803824,31.156464,0.5416888,-1.78118,-12.90081,-4.903902,13.917465,21.625395,28.2537,-30.260826,43.06769,8.704467,4.0861244,-0.78022796,24.054129,-28.435587,1.8687792,52.461826,32.373573,2.1593914,1.8207985
228,-0.9383013248443604,-205.8453826904297,76.5572738647461,-1.1974608462282728,-3.7528942311972693,26.476313444304406,-0.13494188,-9.037002,10.154942,61.344433,-11.031569,-15.000033,-21.064993,8.190658,-2.1646032,28.495226,3.8279982,-1.0081645,-13.168464,-5.270289,13.723523,21.886936,28.41182,-29.943026,42.64225,8.359436,4.0079594,-0.49154088,24.704563,-27.805311,1.3811666,52.733433,32.9855,2.1559858,1.791541
229,-1.1152079105377197,-207.07449340820312,76.88836669921875,-1.1185703677737362,-3.6817238094188585,26.242162550151125,0.72222555,-10.490146,9.133174,58.297375,-9.375323,-15.000033,-20.43336,9.469738,-0.21822798,25.191887,7.29442,1.2600565,-13.375214,-5.7419715,13.557977,22.12977,28.593338,-29.739868,42.22291,8.014789,3.953375,-0.19005468,25.145544,-27.164122,1.02072,53.16384,33.122707,2.0581462,1.3618939
230,-1.2933796644210815,-208.3055419921875,77.17179107666016,-0.9113575472346221,-3.6237492930535793,25.98560927161709,1.6000601,-11.832049,7.9888945,55.16965,-7.5887256,-15.000033,-19.484325,10.688415,2.5300577,21.31337,10.9407425,4.674934,-13.537255,-6.3479238,13.423974,22.368053,28.80179,-29.595242,41.792595,7.6780477,3.9167035,0.09811513,25.38874,-26.511303,0.77239555,53.7623,32.923977,1.8947018,0.6477307
231,-1.4695332050323486,-209.53717041015625,77.39877319335938,-0.6392559241996788,-3.58538227225687,25.759714315104603,2.4863262,-12.973564,6.7992096,52.098824,-5.8628373,-15.000033,-18.415895,11.69634,5.6964536,17.442957,14.133338,8.259389,-13.67765,-7.0317583,13.341812,22.57323,29.045063,-29.49197,41.364147,7.3768935,3.8831246,0.32265776,25.462902,-25.846079,0.5658802,54.47019,32.63116,1.7332773,-0.12438194
232,-1.64601731300354,-210.78160095214844,77.5589599609375,-0.4303712847392638,-3.5596881702027607,25.600726101800166,3.3203914,-13.748887,5.647143,49.28985,-4.4306927,-15.000033,-17.540642,12.4628105,8.704212,14.270009,16.288004,10.972677,-13.796837,-7.66553,13.336595,22.706722,29.329588,-29.422415,40.954765,7.1369066,3.838955,0.43310112,25.393559,-25.164518,0.32463926,55.23288,32.487762,1.6343366,-0.7253092
233,-1.8452088832855225,-212.04953002929688,77.68498229980469,-0.34423023419471954,-3.5389176434571663,25.514368113023153,4.032481,-14.04686,4.587893,46.84137,-3.2311385,-15.000033,-17.01418,13.117629,11.561469,12.027149,17.126648,12.524596,-13.90038,-8.185673,13.417611,22.745193,29.664354,-29.427717,40.566463,6.9720764,3.7860646,0.39521432,25.156406,-24.452188,-0.005136389,56.09548,32.557404,1.6179516,-1.1222458
234,-2.0599403381347656,-213.3625030517578,77.78244018554688,-0.3535192885780139,-3.516505347051002,25.476498436232664,4.5946846,-13.923058,3.6188607,44.72521,-2.2418187,-15.000033,-16.727262,13.703938,14.373644,10.411813,17.014452,13.424335,-13.964759,-8.618208,13.577715,22.698416,30.051912,-29.513088,40.19394,6.861771,3.7317677,0.24291508,24.755861,-23.704607,-0.39069298,57.064518,32.70725,1.6472898,-1.4289063
235,-2.2884023189544678,-214.70680236816406,77.84696197509766,-0.5150680609544652,-3.477206208580046,25.464283539226624,4.972818,-13.383945,2.7514138,43.017723,-1.7856162,-15.000033,-16.624834,14.20568,16.652962,9.265613,16.432867,13.824697,-13.941878,-8.905605,13.820493,22.580206,30.478666,-29.610132,39.84651,6.7814364,3.670021,0.027565928,24.244184,-22.940434,-0.7691878,58.040123,32.891426,1.6939065,-1.6335384
236,-2.5333893299102783,-216.0790252685547,77.86128234863281,-0.8751625319232286,-3.4069253592619155,25.45619424089312,5.146633,-12.433379,2.0084064,41.77607,-2.175158,-15.000033,-16.68538,14.604773,17.925213,8.4946165,15.820807,13.890758,-13.798616,-8.997434,14.143731,22.411823,30.919561,-29.64028,39.536087,6.7087007,3.5937567,-0.19921857,23.665125,-22.193615,-1.0640821,58.927624,33.070766,1.732446,-1.7220557
237,-2.8212697505950928,-217.42808532714844,77.82828521728516,-1.3333194081477824,-3.2287425658008724,25.51108070374466,5.091672,-11.021367,2.0114925,40.867317,-3.53768,-12.601114,-17.403315,14.820593,17.914724,8.977138,14.756302,13.635036,-13.608673,-8.955952,14.460988,22.181698,31.346035,-29.574366,39.278107,6.665303,3.4829116,-0.44863397,22.987242,-21.491613,-1.2636896,59.75739,33.311306,1.7751048,-1.6315786
238,-3.1427865028381348,-218.75967407226562,77.7413101196289,-1.944429479612545,-2.9906286985440613,25.585399350879175,4.808588,-9.215254,2.5767822,40.39984,-5.8810506,-7.931924,-18.532295,14.94188,16.959827,10.280391,13.292165,12.985221,-13.35244,-8.729982,14.818824,21.888052,31.746471,-29.441566,39.082226,6.660741,3.3445344,-0.7381276,22.190065,-20.839777,-1.3886113,60.56965,33.618885,1.835566,-1.3852075
239,-3.4645605087280273,-220.08204650878906,77.61502075195312,-2.6417093744352034,-2.726481497189078,25.635886833538066,4.3304076,-7.3437805,3.0547807,40.30992,-8.834885,-3.6169808,-19.856262,14.957822,15.413939,12.047949,11.631166,12.102834,-13.010468,-8.38878,15.208426,21.53786,32.113808,-29.274439,38.955124,6.6476808,3.2159564,-1.0241481,21.309702,-20.250504,-1.4364179,61.305683,33.85934,1.8885707,-1.0947279
