unveil-humanoid-operators/unveil-humanoid-operators.github.io/feature-analysis-animation/data/feature_matrix_instances/age_waist_rom_jogging_A264_jog_ff_start_180_R_002__A264.csv
Frame,root_translateX,root_translateY,root_translateZ,root_rotateX,root_rotateY,root_rotateZ,left_hip_pitch_joint_dof,left_hip_roll_joint_dof,left_hip_yaw_joint_dof,left_knee_joint_dof,left_ankle_pitch_joint_dof,left_ankle_roll_joint_dof,right_hip_pitch_joint_dof,right_hip_roll_joint_dof,right_hip_yaw_joint_dof,right_knee_joint_dof,right_ankle_pitch_joint_dof,right_ankle_roll_joint_dof,waist_yaw_joint_dof,waist_roll_joint_dof,waist_pitch_joint_dof,left_shoulder_pitch_joint_dof,left_shoulder_roll_joint_dof,left_shoulder_yaw_joint_dof,left_elbow_joint_dof,left_wrist_roll_joint_dof,left_wrist_pitch_joint_dof,left_wrist_yaw_joint_dof,right_shoulder_pitch_joint_dof,right_shoulder_roll_joint_dof,right_shoulder_yaw_joint_dof,right_elbow_joint_dof,right_wrist_roll_joint_dof,right_wrist_pitch_joint_dof,right_wrist_yaw_joint_dof
0,-0.06185150146484375,-1.6364197731018066,77.18407440185547,0.12959638422527733,0.26417939093124454,93.11525205139819,0.19354668,2.224005,12.96076,17.986277,-19.421055,-1.5184021,1.8122461,-3.4203289,-12.431269,16.927473,-20.30054,3.0048418,-3.121653,0.21624173,7.397376,0.083544776,21.700727,-51.6836,52.04693,14.172625,-2.9147286,7.287593,3.9766362,-19.461855,37.20239,51.80646,-2.2702239,-5.149555,-8.452594
1,-0.07754382491111755,-1.5909559726715088,77.16510009765625,0.1415861729854868,0.3971116487532106,93.12490520847415,0.03243184,2.2086022,12.955614,18.106634,-19.528578,-1.5396298,1.6356193,-3.46552,-12.425795,17.093622,-20.451855,3.0450106,-3.0983098,0.21460757,7.3159904,0.113961,21.72546,-51.708145,52.01548,14.174058,-2.9103963,7.2452493,3.9835467,-19.47859,37.223736,51.797127,-2.260267,-5.1355414,-8.415461
2,-0.09021303802728653,-1.5623383522033691,77.14354705810547,0.153557895739701,0.5297269943376657,93.13470583881401,-0.1314081,2.1960084,12.9503565,18.23269,-19.638397,-1.5642991,1.4581244,-3.508824,-12.420199,17.260647,-20.603388,3.084458,-3.0744479,0.21439694,7.232642,0.14519775,21.749184,-51.73343,51.98465,14.180306,-2.9078717,7.2023306,3.9982483,-19.497616,37.24144,51.782234,-2.2515402,-5.121128,-8.376634
3,-0.11391673237085342,-1.4972003698349,77.12600708007812,0.16734852364676372,0.6624775016919885,93.14436106597033,-0.29089913,2.1784272,12.945357,18.351124,-19.745678,-1.5822,1.2828388,-3.555885,-12.414887,17.425894,-20.755802,3.1252205,-3.050209,0.21286337,7.152451,0.17239723,21.768745,-51.759644,51.95896,14.177277,-2.9020922,7.1614017,4.0070434,-19.516588,37.26109,51.76991,-2.2445529,-5.1072783,-8.340878
4,-0.12949149310588837,-1.4344844818115234,77.10548400878906,0.18646276591300476,0.7957101630981415,93.15406634006074,-0.43952903,2.1492028,12.940434,18.45163,-19.847677,-1.5834734,1.102618,-3.6142457,-12.409472,17.608295,-20.913565,3.1692636,-3.0251439,0.20823151,7.0810947,0.20495218,21.789019,-51.778347,51.92624,14.160526,-2.8869596,7.124946,4.007977,-19.541904,37.2841,51.752903,-2.2424562,-5.093837,-8.312739
5,-0.1431378424167633,-1.3836747407913208,77.08509826660156,0.21410475003675716,0.9335045579193464,93.16407380441017,-0.5810251,2.1020577,12.935001,18.52994,-19.940592,-1.554921,0.90844715,-3.689981,-12.403605,17.817982,-21.081545,3.21829,-3.0020363,0.20022252,7.0169587,0.24219522,21.80877,-51.784557,51.88017,14.123116,-2.8467789,7.091417,3.9974163,-19.577255,37.316273,51.73226,-2.2456095,-5.0822225,-8.294809
6,-0.16714812815189362,-1.3276255130767822,77.06710052490234,0.24768031985352137,1.0743033738001864,93.17440421597124,-0.7176168,2.0423648,12.929334,18.594181,-20.02806,-1.5053895,0.70515245,-3.7780366,-12.3972025,18.045963,-21.256136,3.2708528,-2.9777744,0.18737331,6.9540467,0.27702427,21.817225,-51.78542,51.841663,14.07243,-2.7894518,7.0610447,3.9733377,-19.603497,37.35006,51.727,-2.2597036,-5.072888,-8.285579
7,-0.20275495946407318,-1.2560738325119019,77.04932403564453,0.2819240740475953,1.210252768867472,93.18415912343889,-0.8383822,1.9796523,12.924447,18.643642,-20.11373,-1.4579096,0.5135013,-3.8672295,-12.391705,18.267529,-21.42874,3.3244987,-2.958385,0.17689504,6.9048176,0.31428435,21.825567,-51.781685,51.80581,14.011546,-2.7458248,7.036323,3.9474146,-19.647057,37.391994,51.701694,-2.2692027,-5.061264,-8.27848
8,-0.23399537801742554,-1.183876633644104,77.03099060058594,0.3116881669775319,1.3332852966809634,93.19247782376601,-0.93157417,1.9225988,12.921736,18.67679,-20.200296,-1.4353099,0.35512182,-3.9466894,-12.388717,18.455757,-21.589264,3.3766425,-2.933508,0.1639599,6.8715024,0.34108704,21.829699,-51.794807,51.804184,13.942608,-2.7462893,7.021199,3.9097583,-19.674282,37.427166,51.684155,-2.279095,-5.047261,-8.270959
9,-0.2604893743991852,-1.1103001832962036,77.01306915283203,0.3359752905221109,1.4327893037802713,93.19526198822268,-0.9803248,1.8736057,12.925159,18.686129,-20.288664,-1.4520274,0.24272816,-4.013531,-12.385531,18.607763,-21.736187,3.4255066,-2.9062312,0.15039301,6.8662243,0.36168772,21.835493,-51.818516,51.834576,13.852726,-2.8253155,7.018115,3.8673117,-19.701015,37.464558,51.656887,-2.2879884,-5.0243673,-8.260973
10,-0.28645026683807373,-1.0288636684417725,76.99382019042969,0.3575601360220938,1.5159411029027126,93.19426212844435,-0.9952955,1.8279105,12.932932,18.674112,-20.376598,-1.4930419,0.16242537,-4.0735598,-12.38268,18.735815,-21.874193,3.4727829,-2.8764405,0.1366918,6.884507,0.3803553,21.84716,-51.849747,51.87944,13.743898,-2.9571936,7.0245466,3.8242495,-19.73675,37.504887,51.610886,-2.2933643,-4.994493,-8.2503605
11,-0.30509012937545776,-0.9520453214645386,76.97379302978516,0.3764948500349487,1.601416198984448,93.19717609877097,-1.0080932,1.7847037,12.937077,18.659264,-20.466238,-1.5373338,0.095047,-4.128832,-12.385596,18.840427,-22.004807,3.5212095,-2.8503833,0.12614569,6.9092865,0.3966305,21.865267,-51.892593,51.92782,13.638442,-3.0843477,7.034654,3.7823153,-19.77724,37.53559,51.546215,-2.2962859,-4.9683185,-8.239238
12,-0.3336293399333954,-0.8632504343986511,76.95751190185547,0.39132806540559856,1.7077619729265343,93.2116443255838,-1.0506837,1.7426277,12.929768,18.660902,-20.560253,-1.5636777,0.020674054,-4.181914,-12.399846,18.923288,-22.130014,3.573468,-2.8350506,0.12051045,6.920148,0.4153844,21.88273,-51.944656,51.974888,13.568089,-3.1486833,7.0439568,3.7376828,-19.810534,37.549,51.473167,-2.29598,-4.956108,-8.229596
13,-0.362093061208725,-0.7566296458244324,76.94184112548828,0.40301478131331797,1.835558290884097,93.24250202786199,-1.1246153,1.6998429,12.905918,18.680792,-20.65887,-1.5646036,-0.05869159,-4.2347116,-12.430175,18.983181,-22.252037,3.6291704,-2.835197,0.122515775,6.91594,0.4364394,21.899418,-52.009415,52.012684,13.539055,-3.1108918,7.0508795,3.6940863,-19.842665,37.544598,51.391865,-2.289566,-4.966549,-8.217718
14,-0.39174896478652954,-0.6690832376480103,76.9227523803711,0.41261220671556886,1.9764122296553754,93.28495768609254,-1.21573,1.6573558,12.870748,18.711084,-20.761538,-1.5520408,-0.13376246,-4.285421,-12.472691,19.01686,-22.367651,3.687253,-2.839211,0.13277218,6.9084973,0.45768726,21.921673,-52.091877,52.03881,13.536457,-3.009409,7.058136,3.6679065,-19.888935,37.51483,51.276363,-2.279738,-4.991297,-8.202105
15,-0.42478418350219727,-0.5762514472007751,76.90343475341797,0.4180904155336211,2.1352591008722213,93.33131890448382,-1.3303918,1.6192414,12.831385,18.752554,-20.867617,-1.5338032,-0.21730717,-4.3308005,-12.519332,19.032913,-22.476166,3.7493937,-2.849008,0.14655408,6.8922615,0.47399962,21.942507,-52.1844,52.078392,13.548264,-2.904446,7.0681615,3.6374555,-19.933144,37.47289,51.14226,-2.2671928,-5.016603,-8.192145
16,-0.46471381187438965,-0.46908295154571533,76.88506317138672,0.420166350104894,2.3171991022937393,93.37421603297932,-1.4761772,1.5892398,12.79532,18.808697,-20.977747,-1.5177169,-0.32287437,-4.36806,-12.5619755,19.04056,-22.577318,3.8172755,-2.8557177,0.16104199,6.864992,0.4820958,21.963419,-52.286648,52.142895,13.564779,-2.8553936,7.083447,3.5951707,-19.971733,37.421124,50.983997,-2.2486537,-5.028106,-8.194979
17,-0.4856072962284088,-0.35335588455200195,76.86921691894531,0.41697684648714944,2.5331693107072613,93.41303000346025,-1.6715143,1.5729982,12.762916,18.890099,-21.094332,-1.5047686,-0.46091682,-4.3916245,-12.599923,19.03232,-22.665129,3.895738,-2.8545074,0.17786328,6.8190727,0.4795896,21.992023,-52.40654,52.23522,13.578273,-2.898894,7.1178994,3.5534003,-20.011217,37.34668,50.785404,-2.2303746,-5.0172276,-8.214544
18,-0.5227957367897034,-0.24840648472309113,76.85112762451172,0.40795141728308965,2.777173636210472,93.45120867596012,-1.9071194,1.5667962,12.730857,18.992392,-21.216658,-1.4911581,-0.6225094,-4.4050117,-12.637072,19.007854,-22.742344,3.9824932,-2.8528354,0.19641733,6.7579513,0.4703211,22.027893,-52.53993,52.347507,13.594912,-2.9963183,7.165564,3.5043197,-20.047298,37.258442,50.561687,-2.2083304,-4.9934797,-8.24689
19,-0.5556403994560242,-0.1323467344045639,76.83343505859375,0.3994100783563573,3.029040057112086,93.48764122185335,-2.1475477,1.560831,12.7002125,19.093344,-21.339203,-1.477439,-0.788465,-4.417105,-12.672106,18.979658,-22.817673,4.0684385,-2.8469355,0.21410353,6.7007723,0.4590049,22.073557,-52.683075,52.45578,13.621546,-3.0928578,7.1987176,3.4558964,-20.083305,37.153576,50.302673,-2.1853936,-4.9681334,-8.283463
20,-0.584416389465332,-0.03173816576600075,76.81197357177734,0.3936582892203938,3.2684302332709776,93.52089838238676,-2.3570724,1.5458947,12.6725855,19.170221,-21.456509,-1.4643798,-0.93904424,-4.4368606,-12.703785,18.958334,-22.898895,4.1444182,-2.8404593,0.22812144,6.663945,0.45134425,22.122952,-52.823975,52.546474,13.667564,-3.1345453,7.1896853,3.4056294,-20.117876,37.03911,50.01115,-2.1640065,-4.952575,-8.31692
21,-0.616496205329895,0.10921327769756317,76.79533386230469,0.3930735693696828,3.4820868179475513,93.55182881274789,-2.514098,1.5158786,12.647425,19.209808,-21.564613,-1.453475,-1.0596703,-4.469772,-12.733256,18.947235,-22.991333,4.2128735,-2.832823,0.23619263,6.6591043,0.44070598,22.171179,-52.96827,52.621593,13.7494545,-3.0832348,7.10775,3.3576493,-20.152174,36.913013,49.684086,-2.146245,-4.94804,-8.347968
22,-0.6594161987304688,0.22346128523349762,76.77676391601562,0.39702011680134,3.683529299339237,93.58077629402116,-2.6428673,1.47768,12.624148,19.22929,-21.66867,-1.4440033,-1.163653,-4.5097365,-12.760731,18.939856,-23.089546,4.277041,-2.8208895,0.24157302,6.6751885,0.42648593,22.21908,-53.11866,52.68866,13.860886,-2.9759037,6.9756002,3.3091872,-20.188854,36.77487,49.321915,-2.125443,-4.9488754,-8.379314
23,-0.7103231549263,0.34858983755111694,76.75584411621094,0.3986681935260156,3.892609090205109,93.60577324323258,-2.771928,1.4389956,12.604509,19.240585,-21.770794,-1.4330372,-1.273741,-4.5490704,-12.783239,18.932823,-23.185299,4.3288193,-2.8094933,0.24894801,6.6929846,0.4106178,22.266163,-53.27119,52.75488,13.957872,-2.8718424,6.8460407,3.2608416,-20.226086,36.626022,48.924675,-2.1071327,-4.9561005,-8.407248
24,-0.7498444318771362,0.48160770535469055,76.73490142822266,0.39573428227830154,4.129178094520606,93.62502787586735,-2.9322724,1.4082527,12.589677,19.261637,-21.876223,-1.4177178,-1.4128096,-4.5804214,-12.797935,18.924183,-23.270956,4.360251,-2.7943778,0.26255375,6.696258,0.3972928,22.321625,-53.426495,52.814983,13.998706,-2.8291767,6.771921,3.210662,-20.26901,36.464546,48.491318,-2.087795,-4.9708467,-8.4263735
25,-0.7955620288848877,0.6180291175842285,76.71411895751953,0.3860732467393103,4.405100622251014,93.63654321795072,-3.1411164,1.39003,12.581124,19.298737,-21.98593,-1.3953382,-1.5976745,-4.598998,-12.801229,18.917257,-23.342821,4.3574543,-2.7829702,0.2843143,6.6741295,0.3898291,22.38585,-53.581394,52.8724,13.939428,-2.8861868,6.787291,3.1494906,-20.312305,36.296444,48.02463,-2.0580451,-4.9991045,-8.427053
26,-0.84172523021698,0.7608595490455627,76.69324493408203,0.3722269419596648,4.7075278443823,93.64181786951445,-3.3792446,1.3792378,12.577509,19.343163,-22.097958,-1.3680764,-1.8135011,-4.609996,-12.795523,18.914612,-23.40692,4.328645,-2.7726326,0.31041518,6.637947,0.38928017,22.46092,-53.735764,52.920593,13.815462,-3.0038905,6.8568187,3.0855236,-20.355703,36.115128,47.520897,-2.026526,-5.0384297,-8.414442
27,-0.8850841522216797,0.9085342288017273,76.67202758789062,0.35618395784699236,5.019307738965877,93.64388172007872,-3.6205144,1.3687325,12.577149,19.382597,-22.208906,-1.3402469,-2.0306268,-4.6185703,-12.787161,18.899324,-23.463629,4.2988863,-2.7626812,0.33820993,6.6024604,0.39312148,22.545187,-53.884174,52.95595,13.697813,-3.1255128,6.9297543,3.0150616,-20.400427,35.933777,46.992958,-2.001685,-5.077243,-8.408866
28,-0.9264501929283142,1.0639618635177612,76.65248107910156,0.34226794877789485,5.323260345977306,93.6459452734874,-3.8379028,1.3514894,12.578229,19.403622,-22.31494,-1.3161248,-2.2219026,-4.6304526,-12.782119,18.860378,-23.516071,4.2931623,-2.7539265,0.36588806,6.5812454,0.40388933,22.633713,-54.013954,52.974773,13.664411,-3.1938515,6.955807,2.9466448,-20.447636,35.75806,46.444183,-2.0028753,-5.103773,-8.430441
29,-0.9799239039421082,1.2193206548690796,76.63314056396484,0.33253491922396483,5.6083316767256,93.65159494182176,-4.0129476,1.3213718,12.578365,19.394852,-22.412754,-1.298276,-2.3703835,-4.6511865,-12.784931,18.792791,-23.565845,4.3232574,-2.7489326,0.3923036,6.581864,0.41940528,22.721214,-54.126556,52.97964,13.774867,-3.1706984,6.9006767,2.8817155,-20.499392,35.59175,45.87229,-2.0395782,-5.1136255,-8.493156
30,-1.0360063314437866,1.3999091386795044,76.61136627197266,0.323500122836943,5.885714677436852,93.65810247997862,-4.1632867,1.2836074,12.579229,19.365053,-22.504604,-1.2839597,-2.493772,-4.6762586,-12.7913685,18.703115,-23.611189,4.374034,-2.7462509,0.41979283,6.595006,0.4410679,22.805386,-54.222233,52.975388,13.981486,-3.094529,6.7983384,2.8172019,-20.556894,35.430897,45.275356,-2.0996616,-5.1132426,-8.583135
31,-1.0889835357666016,1.5738863945007324,76.58848571777344,0.3127128006246865,6.1721512374509295,93.65960404264858,-4.3182197,1.248174,12.5849495,19.335072,-22.597088,-1.2696196,-2.6162877,-4.6979275,-12.794514,18.596199,-23.648794,4.430286,-2.74288,0.45139113,6.6096067,0.459701,22.886976,-54.30668,52.970806,14.176014,-3.0237257,6.701779,2.7539093,-20.618681,35.271774,44.657486,-2.170456,-5.107072,-8.679639
32,-1.1565251350402832,1.7491215467453003,76.56285858154297,0.2946420493523781,6.4841987168179065,93.64999205038976,-4.50884,1.2255381,12.599499,19.329193,-22.697908,-1.2516773,-2.7630897,-4.7080646,-12.787474,18.479446,-23.677603,4.476931,-2.7352004,0.4887712,6.6142235,0.4707629,22.96886,-54.381413,52.97132,14.255325,-3.0157619,6.6642656,2.68747,-20.683134,35.111423,44.02901,-2.2383766,-5.0997944,-8.76206
33,-1.217646837234497,1.9235607385635376,76.5386734008789,0.2690396177946563,6.831097039528971,93.62874150973138,-4.745844,1.2189059,12.622752,19.347366,-22.806274,-1.2283143,-2.9409971,-4.7020583,-12.7705965,18.343977,-23.690598,4.5092835,-2.7238636,0.53140336,6.6000633,0.47317538,23.054655,-54.45037,52.981503,14.162177,-3.103035,6.7121706,2.6196883,-20.747812,34.949078,43.384026,-2.304256,-5.088923,-8.827281
34,-1.2753560543060303,2.115734577178955,76.515869140625,0.23700709109503781,7.20222497535526,93.59858345555125,-5.011507,1.2222996,12.652974,19.378534,-22.919125,-1.2016445,-3.1366122,-4.684777,-12.746892,18.190075,-23.691233,4.5357237,-2.7094166,0.5774947,6.5754185,0.47325018,23.145441,-54.508743,52.992496,13.965188,-3.2490075,6.8124356,2.5466392,-20.811821,34.788227,42.725147,-2.3707519,-5.073334,-8.885618
35,-1.331215500831604,2.3098604679107666,76.49066162109375,0.20031208593708616,7.584460233563462,93.55823829530019,-5.2941027,1.2322868,12.691808,19.429455,-23.039635,-1.1739928,-3.3423567,-4.662435,-12.713867,18.032345,-23.688995,4.5610986,-2.6914754,0.62681127,6.5537357,0.47014394,23.24066,-54.553303,52.99376,13.736984,-3.4077156,6.929786,2.4710083,-20.875921,34.62485,42.062107,-2.4405463,-5.0599413,-8.93678
36,-1.3928914070129395,2.498858690261841,76.46063232421875,0.1624509988442243,7.964469465683776,93.50645117987636,-5.5805545,1.245281,12.7410345,19.504366,-23.169662,-1.1476554,-3.5507994,-4.641237,-12.668972,17.885633,-23.69382,4.5900817,-2.668514,0.679666,6.5485635,0.46721473,23.337954,-54.575264,52.97314,13.557489,-3.532702,7.029618,2.3968527,-20.942072,34.453598,41.40314,-2.516063,-5.0554934,-8.979936
37,-1.462443232536316,2.686777353286743,76.4292221069336,0.11906637929935292,8.339694593068453,93.43637986700124,-5.8637857,1.2624725,12.805219,19.595325,-23.308401,-1.1264912,-3.7615912,-4.618901,-12.60471,17.749874,-23.705,4.6206484,-2.635008,0.73934925,6.5652084,0.46281338,23.434908,-54.5774,52.93023,13.456263,-3.6040704,7.1084957,2.3191571,-21.011744,34.274715,40.748413,-2.5940282,-5.0609217,-9.011671
38,-1.5288022756576538,2.8845791816711426,76.39815521240234,0.07160287048043273,8.716823366763768,93.35078955430329,-6.1515236,1.2850401,12.881807,19.702356,-23.45461,-1.1081624,-3.9782088,-4.5934305,-12.52475,17.618727,-23.718248,4.6514044,-2.5936666,0.8050362,6.595497,0.4543036,23.530663,-54.563473,52.87368,13.387364,-3.649113,7.18336,2.2403665,-21.085733,34.08893,40.09171,-2.6761968,-5.072895,-9.033237
39,-1.6020854711532593,3.087636709213257,76.36126708984375,0.023344140436618463,9.096756593954444,93.2627274705445,-6.4542866,1.3095059,12.962695,19.844133,-23.612257,-1.085728,-4.199689,-4.571569,-12.443045,17.49826,-23.739344,4.68787,-2.5547605,0.8726271,6.6341248,0.44159114,23.625126,-54.528717,52.804813,13.314755,-3.6918354,7.2505894,2.170846,-21.163733,33.896404,39.43289,-2.7645319,-5.0912037,-9.051357
40,-1.6781922578811646,3.297847032546997,76.32205200195312,-0.020531540112342563,9.480911494597368,93.18557358085268,-6.783209,1.3322965,13.039408,20.041037,-23.785856,-1.0521624,-4.4245615,-4.560216,-12.373317,17.39354,-23.772928,4.735514,-2.5290232,0.9376164,6.6756396,0.4232707,23.719093,-54.469727,52.725163,13.200273,-3.7561288,7.306253,2.1186244,-21.245316,33.69816,38.774494,-2.8611374,-5.115751,-9.072759
41,-1.75096595287323,3.5104355812072754,76.2789077758789,-0.06652891069914495,9.875034646130706,93.12739152041758,-7.1507096,1.359957,13.099519,20.300837,-23.983885,-1.0044754,-4.6476793,-4.551416,-12.327181,17.283575,-23.810326,4.795999,-2.5242634,1.0082403,6.713717,0.40328112,23.813856,-54.381565,52.63515,13.061896,-3.8601243,7.3482456,2.0873322,-21.329695,33.486443,38.115986,-2.9743605,-5.155532,-9.095264
42,-1.8287479877471924,3.7310383319854736,76.236328125,-0.1128852810272229,10.27684541726842,93.07969792070739,-7.5478187,1.3918475,13.150848,20.612186,-24.201689,-0.946655,-4.8725486,-4.5449367,-12.294438,17.175432,-23.853605,4.8663087,-2.5330849,1.0837481,6.753323,0.38054827,23.90993,-54.26786,52.532364,12.909699,-3.986998,7.3787603,2.0696592,-21.416414,33.264606,37.458107,-3.0984213,-5.207656,-9.116642
43,-1.9074761867523193,3.9475693702697754,76.18971252441406,-0.14844726812488931,10.674773820101219,93.03066313534748,-7.9524965,1.4142051,13.214877,20.96404,-24.422823,-0.8822307,-5.1071806,-4.558858,-12.25727,17.10848,-23.919424,4.9448633,-2.5442696,1.1451839,6.804556,0.35141048,24.006575,-54.133488,52.414616,12.699007,-4.1085277,7.3999877,2.0678973,-21.506668,33.043446,36.79823,-3.2256594,-5.2541127,-9.143895
44,-1.9963165521621704,4.176699161529541,76.1374740600586,-0.16006634305658374,11.057433807240441,92.96874947843662,-8.343941,1.4138384,13.313832,21.346983,-24.63141,-0.8148765,-5.360015,-4.610731,-12.197572,17.12126,-24.023726,5.0300403,-2.546516,1.1744331,6.8778954,0.3108456,24.101976,-53.983852,52.28026,12.384441,-4.196658,7.414467,2.0851579,-21.602264,32.834526,36.13192,-3.347069,-5.276926,-9.1837015
45,-2.078202247619629,4.4206390380859375,76.08995056152344,-0.14765274666405936,11.427294356441266,92.8871964034021,-8.71589,1.3926438,13.467761,21.746716,-24.82751,-0.73660815,-5.6298704,-4.69743,-12.107515,17.199745,-24.160383,5.12082,-2.5316837,1.1721599,6.9742336,0.25479707,24.194517,-53.82754,52.127518,11.955005,-4.224993,7.4124146,2.1193662,-21.705128,32.636417,35.45014,-3.4592414,-5.2552657,-9.237065
46,-2.1629562377929688,4.6521220207214355,76.03471374511719,-0.1189439872492735,11.788780600960427,92.7936138439705,-9.080046,1.356792,13.660253,22.17244,-25.018215,-0.64856845,-5.914161,-4.811953,-11.997261,17.331656,-24.324402,5.21826,-2.5070624,1.147091,7.0885468,0.18431813,24.28341,-53.661327,51.960762,11.432967,-4.2148237,7.3965874,2.1733694,-21.816048,32.442635,34.75403,-3.5682704,-5.2039337,-9.300312
47,-2.2541542053222656,4.885412693023682,75.97921752929688,-0.0656279327648661,12.133430390840461,92.69840472550277,-9.440482,1.2993057,13.858776,22.646088,-25.198483,-0.5678863,-6.2182627,-4.9647927,-11.876523,17.558176,-24.53349,5.3233423,-2.4838767,1.0934402,7.222699,0.10580289,24.367672,-53.46786,51.78471,10.828736,-4.209391,7.387596,2.2508101,-21.93504,32.260807,34.06054,-3.674418,-5.1581993,-9.373407
48,-2.3463544845581055,5.137338638305664,75.91950225830078,0.01805596850018994,12.453095649428619,92.6120630140018,-9.8055725,1.2133611,14.031018,23.199415,-25.362524,-0.5115938,-6.549038,-5.1675286,-11.7541065,17.923391,-24.807146,5.4370923,-2.4750195,1.0037934,7.3777695,0.023826059,24.446741,-53.23124,51.60642,10.148905,-4.2524924,7.405159,2.3537204,-22.062847,32.099007,33.389427,-3.780521,-5.1534953,-9.456747
49,-2.4384970664978027,5.411992073059082,75.86216735839844,0.14650943125525495,12.749645892783878,92.5436500018279,-10.170423,1.079675,14.171249,23.813822,-25.490883,-0.48269498,-6.895935,-5.438917,-11.63771,18.404327,-25.148096,5.566248,-2.4865527,0.8659243,7.5506277,-0.06109664,24.519886,-52.946907,51.43768,9.369729,-4.3702636,7.4554524,2.4836626,-22.20043,31.961445,32.732853,-3.8971417,-5.1939144,-9.55752
50,-2.5375664234161377,5.6772990226745605,75.79693603515625,0.31185200743707925,13.026339698810133,92.48596634444412,-10.534273,0.9069173,14.296457,24.483723,-25.592684,-0.47238478,-7.261449,-5.76935,-11.519114,18.990303,-25.547148,5.7077456,-2.510841,0.6864235,7.7417383,-0.15036751,24.5866,-52.621273,51.271477,8.498123,-4.5353765,7.525845,2.6376736,-22.347996,31.844666,32.085712,-4.0181217,-5.2622423,-9.673599
51,-2.6271533966064453,5.932281017303467,75.72632598876953,0.4919442032617918,13.276868565842467,92.42464679088656,-10.903887,0.72916424,14.409104,25.244259,-25.703335,-0.48003116,-7.6668196,-6.127423,-11.383194,19.73177,-25.998516,5.8471985,-2.5401373,0.48695558,7.958004,-0.2448659,24.647383,-52.258442,51.087658,7.5820217,-4.711733,7.6080203,2.8150496,-22.503965,31.743547,31.467575,-4.1236196,-5.362242,-9.790914
52,-2.71445894241333,6.190082550048828,75.64439392089844,0.6631055269733803,13.49503556264432,92.34499504371226,-11.284737,0.5795889,14.511332,26.12711,-25.856064,-0.50511,-8.132993,-6.4823008,-11.214342,20.680351,-26.497536,5.969493,-2.5665066,0.2889686,8.206216,-0.34152654,24.703234,-51.858032,50.862297,6.6745067,-4.8624034,7.694842,3.0145607,-22.664803,31.653318,30.898886,-4.1926856,-5.49779,-9.895715
53,-2.7997872829437256,6.458126068115234,75.55371856689453,0.8378340738520816,13.681337647164543,92.24137300911254,-11.675697,0.44521293,14.606511,27.132412,-26.051018,-0.55061847,-8.652633,-6.8438873,-10.988726,21.80972,-27.057766,6.0933213,-2.5827737,0.077294305,8.484099,-0.43529654,24.755093,-51.409634,50.597923,5.730751,-4.981046,7.775585,3.238783,-22.826921,31.574781,30.377735,-4.2390866,-5.681246,-9.987158
54,-2.880298137664795,6.734898090362549,75.45219421386719,1.025050025483018,13.838480982901125,92.12202894487592,-12.072369,0.3133858,14.693408,28.241776,-26.271439,-0.6158155,-9.215732,-7.225479,-10.718224,23.096252,-27.673977,6.2167926,-2.5945525,-0.15542644,8.788923,-0.52915376,24.803543,-50.915783,50.303818,4.742471,-5.0859265,7.8572373,3.483226,-22.989609,31.51041,29.901497,-4.267801,-5.9071603,-10.072127
55,-2.962136745452881,7.012090682983398,75.3423080444336,1.1926332088893472,13.963234624164059,91.99251729366573,-12.474991,0.21619822,14.766754,29.457983,-26.524523,-0.69451475,-9.845759,-7.6024246,-10.43859,24.61325,-28.316929,6.292727,-2.6132677,-0.37514248,9.127883,-0.6332912,24.849123,-50.39828,49.966248,3.814841,-5.177974,7.96041,3.7411668,-23.152435,31.457582,29.483295,-4.245336,-6.152061,-10.147989
56,-3.038750410079956,7.289663791656494,75.22550201416016,1.3137439145611058,14.05182058735251,91.8583978110834,-12.882092,0.18378183,14.821429,30.780752,-26.816162,-0.78069305,-10.556574,-7.9496984,-10.186284,26.420675,-28.956083,6.2742968,-2.6493614,-0.5486585,9.508499,-0.75777256,24.892145,-49.879066,49.57122,3.0540786,-5.2586136,8.105949,4.001924,-23.314465,31.414852,29.141247,-4.133595,-6.3945045,-10.2117
57,-3.112427234649658,7.567773818969727,75.10025024414062,1.3803607481532412,14.104073956009586,91.71847340145794,-13.315705,0.22711983,14.856006,32.251366,-27.152481,-0.8753119,-11.342824,-8.256715,-9.962291,28.520702,-29.607021,6.1588125,-2.702251,-0.669169,9.936791,-0.89845425,24.933107,-49.339687,49.114777,2.4660196,-5.3373184,8.299571,4.2689614,-23.474844,31.368942,28.864231,-3.9253094,-6.6383657,-10.251782
58,-3.1843106746673584,7.844135284423828,74.96419525146484,1.4100093657363835,14.120853886292936,91.57047933794472,-13.763103,0.32446954,14.873281,33.845276,-27.523312,-0.98312074,-12.189116,-8.538127,-9.749293,30.869015,-30.27147,5.967889,-2.7674866,-0.7565085,10.407835,-1.0528941,24.972616,-48.777054,48.604073,2.001151,-5.4105816,8.530671,4.5454345,-23.632833,31.32498,28.648907,-3.6382613,-6.89227,-10.272559
59,-3.2568204402923584,8.118561744689941,74.81843566894531,1.4122458212394833,14.099978097751883,91.41848714145434,-14.171864,0.4545727,14.876233,35.468,-27.914026,-1.0955693,-13.090109,-8.807317,-9.557004,33.45078,-30.893791,5.691208,-2.8505645,-0.82194895,10.910384,-1.2329996,25.010624,-48.237568,48.044685,1.6825325,-5.459134,8.795966,4.824847,-23.790316,31.305593,28.522507,-3.280089,-7.1397057,-10.294366
60,-3.323861598968506,8.402969360351562,74.66395568847656,1.3964533361415112,14.039325872253173,91.2666409886873,-14.49183,0.5961879,14.868826,37.029713,-28.311878,-1.2069913,-14.04446,-9.080623,-9.393599,36.260063,-31.42256,5.3169417,-2.9557724,-0.8760461,11.433732,-1.4526864,25.04591,-47.770576,47.443268,1.5314107,-5.463596,9.092405,5.1033077,-23.949753,31.332186,28.509222,-2.8579504,-7.3642335,-10.337459
61,-3.385455846786499,8.683854103088379,74.50390625,1.3522713414121794,13.923260760984515,91.11934581385627,-14.721398,0.7658138,14.847186,38.56093,-28.712687,-1.3269672,-15.039733,-9.350182,-9.262642,39.351913,-31.81871,4.863954,-3.0901046,-0.9053686,11.997971,-1.7110627,25.07601,-47.38208,46.814068,1.5958198,-5.419834,9.425602,5.3712935,-24.113064,31.411634,28.623735,-2.3316457,-7.572223,-10.417161
62,-3.4542348384857178,8.996307373046875,74.33412170410156,1.2787000523818743,13.757072983844488,90.97369117865034,-14.880435,0.9637247,14.812512,40.087067,-29.12194,-1.4565438,-16.071264,-9.6127205,-9.16171,42.69745,-32.111935,4.330934,-3.249826,-0.910774,12.601123,-2.0046065,25.099592,-47.05108,46.15349,1.8481737,-5.3357463,9.795071,5.6336,-24.281387,31.53184,28.851763,-1.7111721,-7.7702765,-10.518578
63,-3.5271663665771484,9.327159881591797,74.15670013427734,1.2040736980219344,13.570807154574899,90.82292257977822,-14.954463,1.1449952,14.776918,41.51566,-29.542595,-1.5756407,-17.149992,-9.895134,-9.087767,46.16913,-32.355244,3.6726928,-3.421625,-0.9229709,13.19886,-2.3372157,25.117218,-46.782112,45.43616,2.202217,-5.210015,10.188274,5.91545,-24.454227,31.683842,29.164326,-1.0794358,-7.9399586,-10.617448
64,-3.5950355529785156,9.669768333435059,73.97145080566406,1.157883893561245,13.394940782123305,90.65977457887982,-14.931826,1.2669497,14.75217,42.757904,-29.97929,-1.6628209,-18.29151,-10.224817,-9.03289,49.64727,-32.605244,2.8400187,-3.5900164,-0.97268033,13.74627,-2.716432,25.131071,-46.584335,44.637886,2.567213,-5.042314,10.592938,6.238802,-24.63082,31.857958,29.538197,-0.5193942,-8.063604,-10.690245
65,-3.659107208251953,10.039112091064453,73.77127838134766,1.1486830866409947,13.228704508009727,90.47373317020435,-14.805363,1.317389,14.741361,43.80642,-30.434532,-1.6935467,-19.523838,-10.63606,-8.991799,53.256336,-32.8682,1.689349,-3.7479804,-1.0753373,14.235867,-3.1324623,25.141544,-46.46364,43.778725,2.9649043,-4.81178,11.03163,6.6079497,-24.80768,32.04277,29.975216,-0.024114484,-8.121514,-10.700392
66,-3.7218337059020996,10.417356491088867,73.56050872802734,1.1624144001392818,13.059110478011817,90.27157945994219,-14.58532,1.3189387,14.738587,44.706787,-30.906303,-1.6841507,-20.82781,-11.113176,-8.964212,57.005043,-33.12399,0.27969605,-3.9028387,-1.2127668,14.688606,-3.5855756,25.148773,-46.41717,42.862614,3.4245622,-4.52383,11.500878,7.0088997,-24.984001,32.246063,30.489792,0.4412622,-8.12744,-10.671595
67,-3.7844338417053223,10.815522193908691,73.34294891357422,1.1890780992968615,12.898566924876235,90.07146621120043,-14.288416,1.2848308,14.740656,45.45484,-31.394775,-1.6734866,-22.161987,-11.604165,-8.949006,60.62974,-33.389164,-1.1270694,-4.06054,-1.3630729,15.101742,-4.0871744,25.155157,-46.431396,41.830368,3.8768566,-4.219223,11.950511,7.44387,-25.164743,32.483437,31.069067,0.83211493,-8.11391,-10.670815
68,-3.84299373626709,11.230752944946289,73.1175308227539,1.213984022427087,12.759986183455212,89.89113993604224,-13.932558,1.2322354,14.743514,46.049183,-31.902012,-1.7007045,-23.490742,-12.04638,-8.950143,63.876965,-33.68081,-2.2572725,-4.2273736,-1.5024852,15.473509,-4.6518583,25.165836,-46.4962,40.621983,4.2485595,-3.9405293,12.33131,7.915505,-25.359175,32.771816,31.69716,1.1067888,-8.114103,-10.764416
69,-3.8928449153900146,11.68246841430664,72.88713073730469,1.2411523407589795,12.652647849712178,89.72789789284889,-13.521687,1.1581537,14.75287,46.478806,-32.44041,-1.7863177,-24.813492,-12.452948,-8.997735,66.73761,-34.053764,-3.0380626,-4.402648,-1.633814,15.789598,-5.272509,25.18537,-46.61673,39.215714,4.5108175,-3.6852236,12.629123,8.427195,-25.572323,33.100185,32.385143,1.2404104,-8.116995,-10.961806
70,-3.9480361938476562,12.117671012878418,72.65760040283203,1.2740795052220468,12.56828688750064,89.57433982155158,-13.04891,1.0615052,14.76664,46.75274,-33.007095,-1.905711,-26.154493,-12.83971,-9.083149,69.34994,-34.487053,-3.604741,-4.5836234,-1.763194,16.05588,-5.9382586,25.21596,-46.794376,37.63284,4.705873,-3.4362905,12.870716,8.981622,-25.805418,33.463646,33.12759,1.2616191,-8.110915,-11.230076
71,-3.993847608566284,12.566489219665527,72.43457794189453,1.2964028304577047,12.4928398698641,89.44130977655273,-12.516834,0.96414006,14.76853,46.900845,-33.58118,-2.0310585,-27.517866,-13.142635,-9.160841,71.67967,-34.876102,-3.9888191,-4.773858,-1.8712775,16.301357,-6.6550565,25.259129,-47.010956,35.872448,4.8714323,-3.2146428,13.069232,9.576438,-26.065456,33.88737,33.8867,1.209922,-8.128352,-11.571926
72,-4.032995223999023,13.041111946105957,72.22176361083984,1.293520366156621,12.412166733746961,89.3398995994014,-11.927129,0.8870349,14.742114,46.95226,-34.139988,-2.1344573,-28.908897,-13.298672,-9.189043,73.68847,-35.115078,-4.219115,-4.979309,-1.9382644,16.556078,-7.4252152,25.316065,-47.2446,33.929867,5.0474515,-3.0404932,13.237072,10.215913,-26.362024,34.39537,34.616924,1.1236465,-8.201956,-11.990356
73,-4.068507194519043,13.541353225708008,72.01712799072266,1.2636887309538816,12.3183137877046,89.27002858547355,-11.2773285,0.83091974,14.683965,46.921974,-34.698364,-2.1998184,-30.341799,-13.262708,-9.135147,75.365166,-35.163204,-4.2456665,-5.2015266,-1.9598352,16.832045,-8.247494,25.388023,-47.50953,31.760517,5.1792397,-2.930245,13.407893,10.889497,-26.705915,35.023457,35.356167,1.0056547,-8.343722,-12.539381
74,-4.095740795135498,14.049484252929688,71.81575775146484,1.2134954754789853,12.21985083611538,89.22713525377283,-10.56724,0.7881472,14.601265,46.79176,-35.25927,-2.2459676,-31.81314,-13.075672,-9.038657,76.73433,-35.080585,-4.0640593,-5.4395504,-1.9438715,17.11349,-9.115308,25.476425,-47.809654,29.369247,5.2657647,-2.868605,13.564613,11.605511,-27.100286,35.746517,36.10104,0.8398291,-8.533336,-13.200141
75,-4.119746208190918,14.583337783813477,71.63224029541016,1.1414929244651397,12.127109101165571,89.21555019268676,-9.80192,0.7665761,14.494902,46.541332,-35.79146,-2.2967844,-33.30119,-12.804373,-8.962174,77.80551,-34.91,-3.778411,-5.6925755,-1.8914614,17.388878,-10.024992,25.582401,-48.111565,26.826195,5.4301906,-2.8275585,13.643805,12.390825,-27.543566,36.49405,36.75286,0.63515955,-8.756226,-13.866251
76,-4.1346659660339355,15.123687744140625,71.46334838867188,1.04736473821437,12.050508888778348,89.23969348724492,-8.98629,0.7726523,14.366587,46.149902,-36.26351,-2.3748631,-34.784595,-12.51987,-8.964986,78.58729,-34.69216,-3.4972975,-5.959251,-1.8043787,17.647047,-10.978032,25.70696,-48.38467,24.205296,5.7930455,-2.781095,13.5818815,13.273029,-28.03199,37.194576,37.213238,0.40029758,-8.99853,-14.431353
77,-4.150769233703613,15.68569564819336,71.31082153320312,0.9318712344555165,11.981366788470497,89.30000402189933,-8.11157,0.8068513,14.222281,45.62602,-36.693024,-2.479063,-36.269592,-12.2248125,-9.049998,79.06726,-34.42159,-3.219021,-6.230547,-1.6884176,17.897522,-11.986644,25.850986,-48.62955,21.455305,6.4471116,-2.7130563,13.326782,14.265766,-28.566706,37.85727,37.47283,0.09975064,-9.255404,-14.897258
78,-4.148571968078613,16.27490997314453,71.18230438232422,0.7968060235262501,11.917684048980338,89.39495066263866,-7.17786,0.86623675,14.060122,44.97628,-37.087334,-2.5985053,-37.763462,-11.892342,-9.187982,79.24468,-34.080402,-2.898162,-6.5076904,-1.5421736,18.143145,-13.048612,26.015396,-48.867783,18.555733,7.304104,-2.6451142,12.923572,15.361354,-29.150385,38.498367,37.5738,-0.26248053,-9.534127,-15.311416
79,-4.128625392913818,16.89499282836914,71.07601165771484,0.6360051976132215,11.880294754995608,89.52592994366577,-6.2013154,0.95204836,13.870394,44.173035,-37.401405,-2.7398021,-39.240513,-11.549957,-9.3899765,79.13411,-33.691563,-2.5815196,-6.803784,-1.3555404,18.364733,-14.139976,26.199593,-49.09799,15.624192,8.220786,-2.608127,12.454613,16.543823,-29.778605,39.065826,37.502304,-0.60492843,-9.841834,-15.63438
80,-4.111234664916992,17.54741668701172,70.99800109863281,0.44721892948450076,11.89041498993951,89.6941165833741,-5.1979313,1.0662928,13.643531,43.188824,-37.590485,-2.9093728,-40.67619,-11.22461,-9.6663885,78.752106,-33.278126,-2.3158717,-7.131456,-1.1184438,18.542828,-15.24457,26.4015,-49.321255,12.786612,9.049558,-2.628184,12.004824,17.803276,-30.443012,39.503242,37.242126,-0.8527918,-10.186935,-15.825761
81,-4.092399597167969,18.21385383605957,70.9453353881836,0.2236629277442779,11.95215464900997,89.90592083963102,-4.173465,1.2147968,13.366042,42.02037,-37.675205,-3.1102815,-42.07985,-10.936793,-10.050538,78.08374,-32.851845,-2.132825,-7.493768,-0.8258393,18.677225,-16.400602,26.619099,-49.55401,10.038264,9.798755,-2.719525,11.558572,19.15888,-31.141184,39.789543,36.755585,-0.9514502,-10.592565,-15.835402
82,-4.06959342956543,18.917572021484375,70.92462921142578,-0.028425948368384944,12.05537314160617,90.15887612599614,-3.117431,1.3976067,13.045999,40.681675,-37.66969,-3.3353221,-43.45428,-10.670295,-10.526433,77.12089,-32.39685,-2.0016706,-7.8818913,-0.48362085,18.779224,-17.610645,26.849285,-49.79892,7.3291078,10.527154,-2.86696,11.087631,20.623213,-31.87267,39.940956,36.053963,-0.95714575,-11.048487,-15.695856
83,-4.043670177459717,19.650693893432617,70.92864227294922,-0.301137525830036,12.199304073457238,90.44036690303204,-2.022175,1.6077223,12.704778,39.171738,-37.519985,-3.5755916,-44.765015,-10.396888,-11.031047,75.890594,-31.898798,-1.8762181,-8.292158,-0.09754277,18.84681,-18.796911,27.086214,-50.028416,4.716843,11.172932,-3.0469933,10.656777,22.14431,-32.628822,39.98186,35.219246,-0.9404606,-11.513494,-15.49198
84,-4.008796691894531,20.420133590698242,70.96493530273438,-0.5850665596122561,12.382946953757806,90.73754899934029,-0.8797926,1.8369823,12.364618,37.486702,-37.171173,-3.8244886,-45.980324,-10.085573,-11.4987955,74.4231,-31.340109,-1.7101678,-8.723906,0.3250493,18.8752,-19.882122,27.323885,-50.209545,2.2675185,11.67558,-3.233441,10.329474,23.6759,-33.39442,39.93438,34.33487,-0.98656625,-11.94735,-15.3109665
85,-3.9741411209106445,21.221471786499023,71.03434753417969,-0.8814186661822971,12.61841636275833,91.04994389059743,0.3214701,2.0859327,12.025401,35.573845,-36.623894,-4.076765,-47.11386,-9.725704,-11.921133,72.686455,-30.723528,-1.5207427,-9.183791,0.79342145,18.852236,-20.877636,27.557238,-50.327408,0.012402892,12.020116,-3.4429061,10.116811,25.208002,-34.158817,39.811428,33.42219,-1.1158929,-12.353102,-15.166221
86,-3.940690040588379,22.067100524902344,71.12957763671875,-1.1948055784113176,12.902427999211064,91.38333761640372,1.575143,2.3595328,11.675548,33.452324,-35.902527,-4.3358393,-48.16936,-9.332149,-12.329122,70.669754,-30.054111,-1.3231688,-9.672938,1.3071277,18.783035,-21.819391,27.78398,-50.399117,-2.0740244,12.239594,-3.678364,9.986625,26.76599,-34.91612,39.598213,32.447666,-1.2925466,-12.748542,-15.016724
87,-3.9057366847991943,22.944622039794922,71.25251007080078,-1.509711714625076,13.210657541392461,91.7351633998331,2.8625138,2.6540413,11.319133,31.222075,-34.9865,-4.6107197,-49.09998,-8.912843,-12.7159605,68.433304,-29.31976,-1.0702488,-10.180917,1.8446126,18.688883,-22.658926,28.002657,-50.436543,-4.0147457,12.354344,-3.8917851,9.936782,28.31003,-35.65589,39.30998,31.444984,-1.4860885,-13.116816,-14.869287
88,-3.8618526458740234,23.844749450683594,71.39186096191406,-1.8106388522906864,13.518421684934793,92.1023056720961,4.1627626,2.962049,10.959959,28.987556,-33.856884,-4.9076576,-49.863373,-8.476528,-13.070395,66.04308,-28.511072,-0.7138946,-10.698733,2.3795447,18.588507,-23.346771,28.214598,-50.447887,-5.8313994,12.383956,-4.0357327,9.963882,29.800615,-36.363464,38.964275,30.45055,-1.6733043,-13.441155,-14.731016
89,-3.8175272941589355,24.771278381347656,71.5476303100586,-2.1059515402198494,13.836702974981307,92.48861012053605,5.498341,3.2840753,10.583566,26.673271,-32.486904,-5.233341,-50.456623,-8.014104,-13.393849,63.441723,-27.595688,-0.22387333,-11.2339,2.9211216,18.472198,-23.861553,28.420723,-50.40715,-7.513632,12.312925,-4.079773,10.082943,31.245317,-37.02503,38.54925,29.47116,-1.9120518,-13.715727,-14.5967655
90,-3.761009454727173,25.732173919677734,71.71746826171875,-2.3945737158330354,14.171940678531847,92.89589213295325,6.870611,3.622122,10.187846,24.259829,-30.89491,-5.581091,-50.893177,-7.52365,-13.6833725,60.605003,-26.582935,0.36683232,-11.788798,3.473209,18.334835,-24.233545,28.621778,-50.3165,-9.050671,12.139697,-4.054938,10.289112,32.641575,-37.633514,38.07643,28.511057,-2.1932511,-13.951321,-14.466166
91,-3.695112466812134,26.717010498046875,71.8924560546875,-2.655913911889311,14.492107066834471,93.31534904131942,8.225525,3.9699242,9.797119,21.943037,-29.136019,-5.9419675,-51.160645,-7.0218515,-13.920841,57.656525,-25.528057,1.0066838,-12.348019,4.000701,18.19957,-24.48821,28.822113,-50.22268,-10.463558,11.902834,-4.006336,10.548193,33.962032,-38.182137,37.583466,27.581926,-2.4190152,-14.154708,-14.35405
92,-3.626227378845215,27.729135513305664,72.07534790039062,-2.8690948745093157,14.764927549828442,93.73759552587083,9.512882,4.3156123,9.437534,19.91065,-27.262869,-6.309409,-51.250053,-6.5266337,-14.08866,54.726227,-24.48807,1.645048,-12.89254,4.4662757,18.08854,-24.653397,29.028559,-50.175285,-11.775044,11.638953,-3.9789116,10.825696,35.15116,-38.665123,37.126347,26.716728,-2.4733067,-14.332645,-14.275418
93,-3.555351972579956,28.763282775878906,72.26258087158203,-3.038429238260833,14.983902494746458,94.16830437588477,10.760893,4.6641817,9.135764,18.130997,-25.22105,-6.713369,-51.132294,-6.0226655,-14.178458,51.750813,-23.44477,2.2993143,-13.433802,4.8696766,18.004713,-24.720251,29.24901,-50.180492,-12.972716,11.276397,-3.9878774,11.144181,36.22618,-39.075657,36.711205,25.90856,-2.3371031,-14.479474,-14.250956
94,-3.469290256500244,29.818693161010742,72.4533462524414,-3.165755757278711,15.161873201094018,94.60948651527583,11.9843,5.0060616,8.866719,16.534485,-23.008556,-7.149742,-50.817276,-5.510225,-14.190631,48.68935,-22.375881,2.9848826,-13.970997,5.217542,17.938517,-24.67857,29.487377,-50.21515,-14.059066,10.82353,-4.0090327,11.510325,37.155296,-39.41137,36.34589,25.186901,-2.0476809,-14.596452,-14.2683
95,-3.3854336738586426,30.8990478515625,72.64330291748047,-3.2266066365216526,15.295877782428905,95.04453421038322,13.109626,5.30802,8.583343,15.252636,-20.746845,-7.564586,-50.36223,-5.0279484,-14.127412,45.716675,-21.335127,3.650292,-14.482316,5.480858,17.885717,-24.546352,29.746737,-50.268986,-15.070282,10.434446,-4.028872,11.864238,37.961544,-39.665737,35.997456,24.522865,-1.685232,-14.692892,-14.290891
96,-3.2970049381256104,32.000091552734375,72.8259506225586,-3.2019630934303005,15.38424209564661,95.45518794044294,14.059301,5.542416,8.244165,14.419567,-18.556171,-7.907005,-49.83164,-4.611636,-13.998257,43.019005,-20.382872,4.2458134,-14.936347,5.636416,17.84185,-24.346926,30.027227,-50.34086,-16.047165,10.26334,-4.029669,12.14625,38.622936,-39.83374,35.65695,23.922827,-1.2964485,-14.779893,-14.28261
97,-3.202765464782715,33.108238220214844,73.00419616699219,-3.0791630608640714,15.413283570170455,95.8404843995011,14.864389,5.6982455,7.856684,13.989323,-16.344776,-8.189754,-49.21933,-4.2715883,-13.7967005,40.615337,-19.543018,4.75099,-15.332015,5.6671686,17.808401,-24.08685,30.331263,-50.451225,-17.001408,10.407381,-3.945355,12.363251,39.173897,-39.907516,35.32164,23.365131,-0.8938159,-14.855194,-14.2481165
98,-3.109874963760376,34.235191345214844,73.1717529296875,-2.880106383658796,15.38987056757177,96.20696822921356,15.5491705,5.792804,7.4415684,13.906726,-14.080303,-8.445108,-48.509655,-3.986243,-13.531401,38.43268,-18.788237,5.1965647,-15.672961,5.596154,17.783995,-23.762772,30.659355,-50.601795,-17.91381,10.763925,-3.8033283,12.53839,39.567673,-39.886276,35.024006,22.890856,-0.4273923,-14.915726,-14.202672
99,-3.014474630355835,35.362823486328125,73.32215118408203,-2.6394185587010726,15.349381863294848,96.54950871214334,16.024132,5.85163,6.982145,14.279705,-11.965346,-8.648214,-47.766613,-3.7384706,-13.245216,36.537437,-18.099968,5.609528,-15.959141,5.4655714,17.753456,-23.365574,31.00752,-50.74229,-18.765745,11.191625,-3.726778,12.63512,39.83008,-39.769043,34.707676,22.476334,0.030404301,-14.967944,-14.124492
100,-2.923140048980713,36.48987579345703,73.45184326171875,-2.394462056139272,15.33030711338131,96.86608471828433,16.176102,5.910663,6.4600244,15.256468,-10.215507,-8.763513,-47.055122,-3.5070274,-12.985394,34.993103,-17.458601,6.015611,-16.186323,5.328094,17.70414,-22.888878,31.366613,-50.82822,-19.54093,11.551981,-3.8401814,12.620558,39.938828,-39.56048,34.34351,22.12985,0.4475348,-15.018796,-13.990854
101,-2.8315467834472656,37.61784744262695,73.54579162597656,-2.143094137410638,15.336642747686275,97.16816271970322,15.985308,5.975223,5.8182445,16.865759,-8.912515,-8.73292,-46.336662,-3.3110566,-12.828946,33.75698,-16.9226,6.5983586,-16.363008,5.1853743,17.632957,-22.33677,31.730175,-50.86047,-20.255411,11.875435,-4.194892,12.438282,39.930138,-39.262703,33.90274,21.821404,0.8319169,-15.071839,-13.768889
102,-2.7385382652282715,38.745819091796875,73.60594940185547,-1.8828516785117617,15.357293600172877,97.45573502436966,15.5075,6.04464,5.0886836,19.012354,-7.9155073,-8.578483,-45.606316,-3.1420147,-12.745627,32.820198,-16.483377,7.284785,-16.489248,5.032948,17.544086,-21.716982,32.09373,-50.861336,-20.902426,12.21216,-4.720618,12.123683,39.814934,-38.876762,33.39833,21.546227,1.1936082,-15.121741,-13.478684
103,-2.638540029525757,39.855552673339844,73.6287841796875,-1.6528008278222304,15.406705656096328,97.70572550595723,14.789105,6.141934,4.3903985,21.570501,-7.077338,-8.376398,-44.9808,-2.9388113,-12.614459,32.30561,-16.027178,7.7154136,-16.544256,4.910238,17.436691,-21.033806,32.448505,-50.818348,-21.429134,12.449305,-5.3582273,11.779848,39.531845,-38.409824,32.85992,21.353437,1.5029902,-15.163009,-13.177852
104,-2.539320945739746,40.95950698852539,73.62116241455078,-1.4910111405687734,15.49759511838205,97.89384622274439,13.866876,6.290665,3.836911,24.443743,-6.2666807,-8.203065,-44.573906,-2.6433964,-12.313928,32.33584,-15.439625,7.5328746,-16.511936,4.8520737,17.30917,-20.28562,32.7837,-50.714584,-21.780249,12.47843,-6.046707,11.506237,39.046944,-37.871452,32.302963,21.269894,1.7130693,-15.190413,-12.92398
105,-2.441516876220703,42.04690933227539,73.59388732910156,-1.3996740426794032,15.681935229066955,98.00605856330706,12.668117,6.5260363,3.4958982,27.697153,-5.5657387,-8.030902,-44.49308,-2.1937401,-11.709696,33.03065,-14.387909,6.4277124,-16.377167,4.873062,17.115124,-19.44522,33.088146,-50.52098,-21.956436,12.244117,-6.8564105,11.293765,38.361988,-37.26092,31.693937,21.298977,1.8227069,-15.214231,-12.660518
106,-2.346609115600586,43.15472412109375,73.5211181640625,-1.3524813713893815,15.927739277061304,98.05700074712965,11.214633,6.836109,3.2815146,31.353146,-5.0103664,-7.80057,-44.641006,-1.6417183,-10.938619,34.283726,-12.99385,4.6848664,-16.151953,4.93761,16.872547,-18.525152,33.35468,-50.26064,-21.970005,11.813609,-7.78932,11.092732,37.516857,-36.577488,31.019457,21.41086,1.8426158,-15.23405,-12.38102
107,-2.249627113342285,44.2706298828125,73.40623474121094,-1.3352039033263392,16.124279065049443,98.06708906719471,9.667974,7.168005,3.077306,35.28843,-4.410882,-7.5536294,-44.824383,-1.0968268,-10.257105,35.87625,-11.847611,2.821399,-15.85478,5.0088043,16.677183,-17.593025,33.579617,-50.000744,-21.780355,11.26334,-8.681752,10.942541,36.479485,-35.840572,30.351337,21.622084,1.7848324,-15.229605,-12.218687
108,-2.155304431915283,45.39315414428711,73.25690460205078,-1.341628006482421,16.16656612910166,98.05388375622513,8.185508,7.4563036,2.7790332,39.380436,-3.5742426,-7.352414,-44.85702,-0.65716726,-9.850647,37.602116,-11.591559,1.3219849,-15.509465,5.0578685,16.621815,-16.708721,33.762867,-49.79643,-21.350906,10.673449,-9.37178,10.888137,35.224457,-35.081417,29.762207,21.935616,1.6628447,-15.178758,-12.306324
109,-2.060251474380493,46.51018524169922,73.07563781738281,-1.349381283283062,16.003625569058766,98.02957515964118,6.786622,7.6839933,2.4118876,43.735584,-2.2357697,-7.184346,-44.730194,-0.40683925,-9.743689,39.612774,-12.663533,0.27495503,-15.129109,5.059902,16.745043,-15.867278,33.907364,-49.65468,-20.685108,9.91141,-9.853405,10.940756,33.77981,-34.31785,29.225742,22.340496,1.4856199,-15.069478,-12.686575
110,-1.9664613008499146,47.60240936279297,72.8675308227539,-1.3651360898656513,15.699207755270466,97.98341209738508,5.3922153,7.887833,2.0182996,48.38783,-0.5739058,-7.01806,-44.51923,-0.2775219,-9.791622,41.940914,-14.655235,-0.5760966,-14.707719,5.03886,16.993645,-15.034999,34.01321,-49.540337,-19.801506,8.989402,-10.203656,11.078069,32.167126,-33.55563,28.705057,22.81156,1.2495424,-14.911724,-13.28405
111,-1.8760031461715698,48.6920280456543,72.6449966430664,-1.4368420431799924,15.326226810427624,97.8937493320146,4.001114,8.052395,1.5263505,53.132042,0.92903286,-6.9366817,-44.188614,-0.132232,-9.903251,44.24372,-16.973307,-1.2762439,-14.238433,5.0463724,17.317467,-14.228883,34.077774,-49.439667,-18.687874,8.2044325,-10.385814,11.303122,30.349207,-32.815968,28.256037,23.330679,0.95281595,-14.71578,-14.054594
112,-1.7993606328964233,49.7647705078125,72.39592742919922,-1.6023064606674546,14.958581079050331,97.73714334589683,2.6126292,8.123343,0.86422026,57.77881,1.7803935,-7.063261,-43.714565,0.1733744,-10.002433,46.19187,-19.0213,-1.8734151,-13.7212715,5.127954,17.66166,-13.458834,34.096714,-49.329216,-17.330828,7.853118,-10.361665,11.620743,28.30044,-32.127003,27.936205,23.864414,0.5928741,-14.490728,-14.95525
113,-1.7346214056015015,50.83027648925781,72.13487243652344,-1.9088794052071225,14.592265250531346,97.49477690473371,1.2583526,8.022093,-0.034311093,62.395447,1.7535794,-7.5882673,-43.0773,0.7104028,-10.115556,47.723454,-20.708754,-2.3469808,-13.161462,5.3242106,18.038506,-12.688269,34.06378,-49.171753,-15.725145,8.067004,-10.119661,12.094749,25.98509,-31.510498,27.760836,24.413557,0.19973359,-14.219284,-16.030907
114,-1.6794841289520264,51.877689361572266,71.87659454345703,-2.3164109501495282,14.196364083306328,97.18346182579025,-0.06499985,7.728478,-1.083025,67.09571,1.0983313,-8.460134,-42.309566,1.3863778,-10.2653885,49.03059,-22.338215,-2.6814864,-12.574705,5.6024175,18.462454,-11.908459,33.978683,-48.9698,-13.88151,8.667435,-9.675731,12.699468,23.45011,-30.970955,27.69678,24.953924,-0.22197798,-13.896611,-17.283916
115,-1.624833583831787,52.91619873046875,71.62405395507812,-2.7379652656142555,13.805196822521864,96.83257972183851,-1.4012276,7.285916,-2.1230996,71.729546,0.056670964,-9.426505,-41.46514,2.1097405,-10.384206,50.15584,-23.900593,-2.937949,-11.971104,5.8959904,18.882421,-11.172353,33.849358,-48.764107,-11.810167,9.485712,-9.027654,13.303998,20.77408,-30.506075,27.73615,25.43111,-0.705691,-13.552416,-18.606499
116,-1.5749636888504028,53.95924377441406,71.38751983642578,-3.091271525148227,13.45472066798525,96.47055969144073,-2.8043501,6.7680817,-3.0270104,76.12571,-1.0983478,-10.215421,-40.59722,2.7911716,-10.410271,51.141266,-25.381475,-3.178243,-11.35643,6.1385355,19.251001,-10.532459,33.689243,-48.597588,-9.523391,10.357679,-8.178775,13.780142,18.019304,-30.11001,27.877096,25.805954,-1.2874607,-13.215569,-19.890947
117,-1.5302940607070923,55.01189422607422,71.17152404785156,-3.3848683235526935,13.154299354699502,96.09078859395642,-4.2822976,6.164968,-3.8331149,80.28449,-2.3632276,-10.790262,-39.71409,3.4423058,-10.349867,51.981503,-26.77494,-3.417604,-10.73434,6.3354697,19.570585,-10.02008,33.500835,-48.47104,-6.917632,11.304388,-7.1472073,14.137329,15.108578,-29.77869,28.189995,26.135231,-2.0215085,-12.878957,-21.236805
118,-1.4993950128555298,56.04988479614258,70.97650146484375,-3.6565623910481753,12.88559084690285,95.68223008618618,-5.804752,5.458639,-4.5759974,84.284386,-3.8550708,-11.276072,-38.790382,4.100853,-10.235336,52.66088,-28.088491,-3.6254804,-10.103061,6.5156064,19.864714,-9.591806,33.285686,-48.356583,-4.0288844,12.389526,-5.9246173,14.420301,12.027361,-29.502085,28.660706,26.416386,-2.8655872,-12.522716,-22.65598
119,-1.4798049926757812,57.09408950805664,70.81597137451172,-3.8698097180172386,12.644672518637623,95.26517973930703,-7.391876,4.738279,-5.1642942,88.06478,-5.4479933,-11.627313,-37.82751,4.719788,-10.049827,53.20046,-29.32641,-3.795864,-9.456096,6.647049,20.11776,-9.192336,33.063408,-48.260494,-1.0770413,13.514521,-4.481585,14.561998,8.94157,-29.264305,29.163158,26.525862,-3.7350388,-12.165233,-23.908554
120,-1.466878890991211,58.14095687866211,70.69281768798828,-3.994252025328309,12.428480098438357,94.85713414922981,-9.075262,4.1055303,-5.5232987,91.55778,-7.012133,-11.793912,-36.83054,5.2537603,-9.777925,53.62307,-30.491217,-3.923268,-8.778792,6.6974835,20.314337,-8.766512,32.865944,-48.198982,1.7085682,14.584731,-2.7908263,14.501025,5.9979916,-29.054043,29.584276,26.366081,-4.548328,-11.836155,-24.754335
121,-1.4463239908218384,59.17845916748047,70.59402465820312,-3.996222584577252,12.253386092409013,94.48141328477953,-10.897185,3.5666192,-5.6586013,94.75499,-8.517898,-11.754877,-35.813377,5.6664968,-9.4151,53.94552,-31.597675,-3.9993913,-8.081753,6.630421,20.443768,-8.298619,32.705383,-48.147476,4.374802,15.841737,-0.52520037,14.073386,3.2048316,-28.862438,29.940983,25.910088,-5.337576,-11.542297,-25.113195
122,-1.4314494132995605,60.233436584472656,70.5314712524414,-3.9049497744527377,12.117535892306316,94.12151046956251,-12.844653,3.0975513,-5.628575,97.69,-10.015416,-11.527849,-34.768856,5.989879,-8.97859,54.150604,-32.639614,-4.0318713,-7.3672805,6.4658623,20.518349,-7.808841,32.587475,-48.107277,6.9962153,17.272703,2.1821232,13.332978,0.4497841,-28.688364,30.322077,25.255016,-6.125548,-11.281675,-25.117447
123,-1.4147142171859741,61.29835891723633,70.50054168701172,-3.77342174471722,11.990994094262586,93.74572042508841,-14.863743,2.7515156,-5.448861,100.323875,-11.473374,-11.111966,-33.656082,6.272616,-8.485742,54.198284,-33.587654,-4.0389824,-6.632705,6.252219,20.551718,-7.276465,32.547764,-48.117355,9.365916,18.378977,4.6807423,12.601139,-2.2281587,-28.538847,30.706053,24.429491,-6.868641,-11.07554,-24.84791
124,-1.3981609344482422,62.344993591308594,70.49589538574219,-3.6554762167544714,11.84301142808505,93.32199877891053,-16.89863,2.5768993,-5.1451483,102.612686,-12.863202,-10.519201,-32.433094,6.564318,-7.9510713,54.04812,-34.41459,-4.040287,-5.872519,6.0466814,20.564644,-6.671306,32.64673,-48.21297,11.237347,18.610836,6.3454757,12.266026,-4.804999,-28.429052,31.068941,23.466206,-7.5083847,-10.943546,-24.384562
125,-1.392555832862854,63.392425537109375,70.52730560302734,-3.561306739684561,11.651379029437708,92.8327890809964,-18.955484,2.5998318,-4.7186956,104.57387,-14.17974,-9.720055,-31.078571,6.8848677,-7.3682046,53.701847,-35.136192,-4.047134,-5.084594,5.8690023,20.58932,-5.947647,32.95445,-48.390095,12.459719,17.544271,6.8995175,12.5747595,-7.283598,-28.371063,31.399826,22.303982,-8.015327,-10.942006,-23.604345
126,-1.4000321626663208,64.43635559082031,70.59230041503906,-3.4645880918207435,11.43658502789972,92.2966257836407,-21.057844,2.7892592,-4.1782346,106.217705,-15.433933,-8.730353,-29.61571,7.2057204,-6.7311344,53.17793,-35.759262,-4.0533247,-4.2868433,5.6925015,20.623672,-5.070054,33.507057,-48.58906,13.078598,15.540469,6.700217,13.289726,-9.680354,-28.364742,31.744429,20.927214,-8.417538,-11.048126,-22.513325
127,-1.4043374061584473,65.50806427001953,70.69502258300781,-3.3579354663483185,11.230933916195646,91.73541583341932,-23.175009,3.1037362,-3.561739,107.48358,-16.622103,-7.6378255,-28.071291,7.503112,-6.0525503,52.467026,-36.246044,-4.0516615,-3.5063968,5.504694,20.636984,-4.0249767,34.303944,-48.76058,13.149227,13.213092,6.0929284,14.085657,-12.001048,-28.4065,32.158974,19.438826,-8.741694,-11.153097,-21.38619
128,-1.4076439142227173,66.58549499511719,70.83782196044922,-3.2350720313709123,11.066837964822863,91.17096204281603,-25.275496,3.5006554,-2.899181,108.309074,-17.739208,-6.52989,-26.471449,7.7514653,-5.34476,51.559177,-36.558586,-4.0325527,-2.7639046,5.291648,20.596674,-2.816356,35.313805,-48.86935,12.759882,11.167952,5.4597473,14.668347,-14.232665,-28.490702,32.677006,17.929796,-9.027097,-11.144922,-20.497374
129,-1.422909140586853,67.6822280883789,71.02510833740234,-3.0976545456423956,10.947632263860324,90.58729670122906,-27.377405,4.00259,-2.1601822,108.6813,-18.831316,-5.39126,-24.814043,7.9480395,-4.59364,50.44589,-36.7137,-3.9904943,-2.0543365,5.0553937,20.491167,-1.4387661,36.5211,-48.935173,11.853668,9.261021,4.763793,14.999315,-16.41426,-28.62158,33.33145,16.405294,-9.286017,-10.963367,-19.94896
130,-1.435155987739563,68.81452941894531,71.2520751953125,-2.9471060727067693,10.856765421514389,89.97816992219889,-29.472626,4.6080933,-1.3258743,108.626015,-19.894464,-4.202858,-23.08547,8.097237,-3.791495,49.139687,-36.728313,-3.935721,-1.3706424,4.80052,20.346025,0.119229816,37.922348,-48.9505,10.417044,7.281216,3.857422,15.197548,-18.531374,-28.795727,34.092342,14.805194,-9.498271,-10.673049,-19.586843
131,-1.4442919492721558,69.96480560302734,71.5260238647461,-2.7715827971801303,10.79761721550611,89.38060670049303,-31.493885,5.245241,-0.4281084,108.135796,-20.841333,-3.0315604,-21.300226,8.180862,-2.9643593,47.66942,-36.559574,-3.8745775,-0.7201891,4.5084224,20.17652,1.8306607,39.48486,-48.86048,8.646564,5.709177,2.9877174,15.266003,-20.494936,-28.997578,34.87801,13.141848,-9.666233,-10.351413,-19.30043
132,-1.443094253540039,71.15132141113281,71.84313201904297,-2.564290306008733,10.773701001695116,88.83226462065447,-33.376568,5.843375,0.49322495,107.20671,-21.58453,-1.9495758,-19.47207,8.183428,-2.1404853,46.056213,-36.167923,-3.8095822,-0.1046677,4.1595054,19.988466,3.6513681,41.15313,-48.618355,6.7741327,5.028587,2.3990462,15.237907,-22.22133,-29.208345,35.59662,11.449051,-9.796049,-10.078,-18.980614
133,-1.434836506843567,72.36812591552734,72.20167541503906,-2.319795363683565,10.79807440029728,88.32693336518835,-35.128998,6.437908,1.474739,105.81088,-22.108166,-0.9503991,-17.581776,8.097964,-1.2964593,44.228455,-35.554478,-3.7326465,0.49652982,3.7424598,19.74772,5.542121,42.883358,-48.249977,4.8889146,5.719023,2.2179487,15.099467,-23.724895,-29.425833,36.22666,9.766164,-9.88056,-9.862222,-18.607418
134,-1.4252300262451172,73.62635803222656,72.60043334960938,-2.0419363683366245,10.865960912891536,87.8510597747213,-36.7546,7.0365367,2.5463185,103.95289,-22.469309,-0.018131053,-15.635881,7.9233675,-0.42946097,42.20817,-34.743362,-3.640142,1.0884227,3.2654967,19.450417,7.5076785,44.651196,-47.78135,2.938778,7.412148,2.2863882,14.856073,-25.039139,-29.657196,36.792027,8.08692,-9.928583,-9.665759,-18.236086
135,-1.4098962545394897,74.91231536865234,73.02922821044922,-1.738841561591625,10.954265280304739,87.43193462772798,-38.197018,7.5349526,3.6424053,101.6779,-22.679815,0.7924769,-13.687987,7.6606593,0.3951969,40.150135,-33.721054,-3.5347998,1.6480856,2.7405686,19.14088,9.532309,46.425465,-47.18625,0.9682344,9.298469,2.4245033,14.581053,-26.11342,-29.899685,37.265263,6.392376,-9.972326,-9.497878,-17.871075
136,-1.3901891708374023,76.21714782714844,73.48282623291016,-1.4164121255739466,11.039544690673026,87.0972580018963,-39.412342,7.836146,4.683684,99.03037,-22.744034,1.4343877,-11.790623,7.3203387,1.1088984,38.205322,-32.470608,-3.4174912,2.1542466,2.1838825,18.860392,11.612881,48.169987,-46.433258,-0.9830461,10.577572,2.4643939,14.359594,-26.898495,-30.144464,37.61789,4.6726775,-10.045022,-9.36853,-17.517166
137,-1.3670332431793213,77.5518798828125,73.95779418945312,-1.063574712847258,11.119100455469665,86.8588547345547,-40.40199,7.937579,5.6704745,95.98687,-22.637495,1.932279,-9.914931,6.888698,1.7023772,36.33192,-30.966333,-3.2947025,2.6073985,1.5858036,18.601135,13.728739,49.854465,-45.535763,-2.8631992,11.113874,2.4016752,14.212834,-27.369644,-30.384962,37.814007,2.944021,-10.184902,-9.283885,-17.164919
138,-1.3469401597976685,78.90101623535156,74.44631958007812,-0.6843424567242955,11.204031433908815,86.70269161447867,-41.183384,7.8797464,6.6354923,92.52956,-22.366236,2.301004,-8.054823,6.377247,2.1980271,34.480934,-29.226381,-3.1580858,3.0208614,0.9514092,18.335104,15.8477545,51.459274,-44.53407,-4.646295,11.304053,2.3159559,14.100346,-27.565525,-30.624897,37.871426,1.2347002,-10.368078,-9.238307,-16.813269
139,-1.327983021736145,80.26374816894531,74.93914031982422,-0.3126439484462903,11.290245417979998,86.61684802649383,-41.752846,7.645867,7.531977,88.704155,-21.968597,2.496678,-6.2905917,5.843682,2.579399,32.787907,-27.301407,-2.9892385,3.3947668,0.3242137,18.073769,17.958513,52.964787,-43.43363,-6.344487,11.152694,2.1749492,14.022658,-27.52202,-30.869148,37.840534,-0.4554732,-10.534616,-9.223398,-16.481295
140,-1.3182413578033447,81.6315689086914,75.42887878417969,0.015108751556540886,11.373503241370871,86.58811258436796,-42.111954,7.231023,8.303688,84.548584,-21.47867,2.486592,-4.693625,5.347135,2.8368187,31.379164,-25.234522,-2.7708237,3.7260485,-0.25292775,17.829565,20.0439,54.352932,-42.24175,-7.9689374,10.659877,1.9453989,13.978252,-27.281973,-31.12194,37.779408,-2.1243072,-10.622652,-9.2299795,-16.188513
141,-1.3145203590393066,83.0136489868164,75.9109115600586,0.31012055543293254,11.472433823910249,86.62645163051182,-42.28631,6.592349,8.881277,79.98962,-20.87047,2.2638054,-3.290667,4.877219,2.9464083,30.266222,-22.932507,-2.5042996,4.006693,-0.78577733,17.588394,22.086796,55.60399,-40.975548,-9.488218,9.641566,1.5916133,14.003963,-26.833372,-31.385445,37.705753,-3.7696836,-10.59584,-9.248359,-15.97936
142,-1.3106952905654907,84.41796875,76.38152313232422,0.5807308553835673,11.580016336286006,86.732955742446,-42.264233,5.778788,9.276618,75.01483,-20.133646,1.8776157,-2.0283713,4.4259057,2.9286497,29.37469,-20.397396,-2.1950266,4.2410173,-1.2795445,17.34602,24.046234,56.70326,-39.67475,-10.869292,8.157575,1.1394209,14.081043,-26.167627,-31.659609,37.594273,-5.3841634,-10.492173,-9.284623,-15.829912
143,-1.3098070621490479,85.82318878173828,76.8326644897461,0.7914615393589999,11.654545442951774,86.87956475023026,-42.00085,4.9249563,9.557644,69.74769,-19.318602,1.3821777,-0.85284525,4.0533404,2.8501072,28.692284,-17.808672,-1.8320837,4.4477286,-1.6926645,17.12951,25.89054,57.644848,-38.373116,-12.138752,6.587114,0.6496284,14.12712,-25.328697,-31.943693,37.437157,-6.9611044,-10.3615265,-9.352745,-15.657482
144,-1.3010443449020386,87.23857116699219,77.26093292236328,0.9008547871008364,11.65484267763651,87.03982969446886,-41.4622,4.153269,9.797859,64.31296,-18.475517,0.8181471,0.29128945,3.8202825,2.7733624,28.20372,-15.344431,-1.4054679,4.6401668,-1.9819919,16.967442,27.585283,58.43111,-37.100952,-13.325902,5.3002005,0.18687938,14.067338,-24.365202,-32.234737,37.230934,-8.494925,-10.252205,-9.466082,-15.379341
145,-1.298306941986084,88.65460968017578,77.64942169189453,0.893600128728708,11.57711613292388,87.21389081944908,-40.590214,3.4559944,9.97304,58.50535,-17.558392,0.1396519,1.4205699,3.749453,2.7160132,27.860964,-12.9733515,-0.95427835,4.819484,-2.1304185,16.866926,29.115124,59.061092,-35.86165,-14.435852,4.343953,-0.23370875,13.873839,-23.288496,-32.52986,36.980392,-9.989132,-10.153571,-9.6328,-14.937708
146,-1.2951936721801758,90.08074951171875,77.98870849609375,0.7892152211526202,11.438473347418967,87.40879955023867,-39.401196,2.803479,10.043215,52.280937,-16.536581,-0.63411963,2.5222852,3.8130019,2.656453,27.65419,-10.606081,-0.46502668,4.9787035,-2.1567042,16.8157,30.471107,59.533005,-34.67264,-15.448557,3.5390954,-0.6433852,13.591877,-22.079865,-32.82458,36.695255,-11.442265,-10.045893,-9.843199,-14.387214
147,-1.283635139465332,91.51679229736328,78.27352905273438,0.6110140107814209,11.230418917039026,87.60253606515388,-37.97748,2.25659,10.093051,45.990025,-15.465112,-1.3880882,3.6117249,3.9869194,2.611816,27.602825,-8.324371,0.14421906,5.123409,-2.0818896,16.812057,31.64048,59.855785,-33.574917,-16.361341,2.91442,-1.0465977,13.262317,-20.764894,-33.113434,36.387268,-12.822132,-9.958958,-10.087657,-13.81375
148,-1.2733690738677979,92.96441650390625,78.49052429199219,0.381169458044166,10.945490482140867,87.77456786811143,-36.42401,1.8531365,10.224119,40.016968,-14.402189,-2.028676,4.693732,4.2429495,2.601026,27.748468,-6.220499,0.9458984,5.260054,-1.9298764,16.853434,32.617172,60.045837,-32.603924,-17.178352,2.4984634,-1.4489776,12.926764,-19.362541,-33.390587,36.063026,-14.098491,-9.925589,-10.357489,-13.3039875
149,-1.2584500312805176,94.41187286376953,78.63430786132812,0.07340207019434543,10.545445436060138,87.91482600671299,-34.67004,1.5968636,10.483309,34.238235,-13.2788925,-2.6014376,5.8478394,4.599124,2.635507,28.043358,-4.2850857,2.0238764,5.4013,-1.6719822,16.963963,33.42461,60.11952,-31.747677,-17.924131,2.3701496,-1.8581574,12.578044,-17.853024,-33.651672,35.72226,-15.285541,-9.998017,-10.674418,-12.850366
150,-1.2475428581237793,95.85973358154297,78.71721649169922,-0.3406609097935887,10.039693519559796,88.02634308899124,-32.68548,1.474034,10.818311,28.48564,-12.0692625,-3.1533265,7.047837,5.078256,2.7256894,28.503164,-2.4756765,3.294608,5.5475235,-1.2844234,17.14076,34.075493,60.0856,-30.984966,-18.61162,2.490114,-2.2718608,12.2047415,-16.24022,-33.893856,35.36712,-16.386955,-10.143583,-11.036918,-12.416518
151,-1.2415283918380737,97.2997817993164,78.74272155761719,-0.8261064250604685,9.497285114945981,88.11748222189807,-30.678923,1.471424,11.196497,23.156261,-10.930784,-3.610532,8.126005,5.647693,2.8690162,29.282661,-0.8511357,4.580597,5.6767898,-0.8056417,17.337282,34.536087,59.949146,-30.340801,-19.21878,2.7039144,-2.6805348,11.841374,-14.574078,-34.11335,35.006824,-17.36365,-10.271885,-11.400778,-12.04692
152,-1.2418757677078247,98.72257995605469,78.7126693725586,-1.321863481423954,8.997981858048496,88.20971341172465,-28.900604,1.5507276,11.592902,18.728407,-10.055875,-3.9010863,8.892065,6.2523584,3.0353262,30.555761,0.5115469,5.719981,5.7570314,-0.30137482,17.49902,34.758636,59.70966,-29.854462,-19.711426,2.8598185,-3.072569,11.52188,-12.905217,-34.305054,34.648712,-18.166256,-10.294376,-11.7207575,-11.7853155
153,-1.253084659576416,100.13078308105469,78.63510131835938,-1.7935752347647604,8.570260605784842,88.33166017440615,-27.428999,1.7099547,12.176113,15.362514,-9.620903,-3.9692903,9.279799,6.8809457,3.1890764,32.40942,1.6483848,6.7668767,5.7641664,0.1977839,17.60413,34.736374,59.360836,-29.519693,-20.08755,2.9378805,-3.4625754,11.227768,-11.220375,-34.461723,34.287476,-18.794466,-10.162552,-12.002166,-11.655286
154,-1.2706660032272339,101.50946044921875,78.51394653320312,-2.2321656221058848,8.190255067551014,88.49135514045354,-26.182608,1.89204,12.920713,12.85039,-9.513173,-3.880403,9.345912,7.5056877,3.3103595,34.80382,2.540984,7.783648,5.690749,0.6814242,17.6694,34.491894,58.901,-29.320187,-20.352251,3.0147603,-3.8512673,10.950294,-9.514907,-34.5779,33.932533,-19.25484,-9.934826,-12.263459,-11.629697
155,-1.2928496599197388,102.8731460571289,78.35404205322266,-2.573499685548294,7.870370728670173,88.68930849584791,-25.224886,1.9744742,13.506495,11.226275,-9.540739,-3.7144933,9.087791,8.019556,3.3723252,37.692574,3.0276384,8.642031,5.5201583,1.0772038,17.692863,34.000084,58.336876,-29.288977,-20.468494,3.0752938,-4.204286,10.736809,-7.851568,-34.64965,33.611973,-19.514496,-9.684064,-12.479249,-11.677593
156,-1.320427656173706,104.22282409667969,78.154052734375,-2.7651016626895832,7.617791599858163,88.91771821658698,-24.623154,1.8717185,13.607028,10.553697,-9.524983,-3.5360575,8.523856,8.329528,3.3574305,40.99767,2.9638805,9.218234,5.250331,1.3231368,17.672443,33.239662,57.678173,-29.462633,-20.403248,3.108898,-4.486471,10.636915,-6.2880692,-34.675007,33.347027,-19.5406,-9.483159,-12.623406,-11.767478
157,-1.3464831113815308,105.56256866455078,77.90336608886719,-2.798327306303476,7.449571473527498,89.17522887595133,-24.420918,1.5432693,12.955076,10.905325,-9.285776,-3.5657005,7.625715,8.472504,3.2924745,44.783955,2.1686502,9.404441,4.8844576,1.4077122,17.594969,32.206875,56.926586,-29.846573,-20.155586,3.0664234,-4.701072,10.699598,-4.8256745,-34.648575,33.13793,-19.327185,-9.339336,-12.660274,-11.920094
158,-1.3819708824157715,106.89480590820312,77.61161804199219,-2.691839433677211,7.355777363348558,89.46194271410234,-24.567476,1.0282757,11.79314,12.226592,-8.96318,-3.703964,6.425538,8.48288,3.1826487,49.015343,0.78353286,9.311641,4.4296103,1.3514689,17.461653,30.92971,56.07932,-30.401478,-19.741787,2.9646714,-4.862252,10.888189,-3.4415698,-34.56609,32.97813,-18.883404,-9.218841,-12.613667,-12.142396
159,-1.4400701522827148,108.1502456665039,77.32315826416016,-2.4465112057137177,7.295048900088874,89.7629717903635,-24.981302,0.38456327,10.56618,14.380969,-8.841638,-3.533545,5.0485663,8.277699,2.9979007,53.45483,-0.84340876,9.135915,3.9008007,1.1590668,17.296095,29.45044,55.141285,-31.085838,-19.167461,2.8957207,-4.9503427,11.1240635,-2.1525314,-34.432922,32.871674,-18.203209,-9.131223,-12.546024,-12.38218
160,-1.4975467920303345,109.41969299316406,76.9910659790039,-2.0819179254423523,7.21993947641027,90.05764840665611,-25.598623,-0.28526816,9.712317,17.268929,-9.212197,-2.6186059,3.6233542,7.7702713,2.7150068,57.87452,-2.3630853,9.055685,3.322822,0.85134834,17.126871,27.824047,54.12212,-31.854572,-18.452217,2.9578917,-4.944861,11.329266,-0.95910364,-34.262486,32.81126,-17.292414,-9.088615,-12.519314,-12.587255
161,-1.5452039241790771,110.70835876464844,76.58932495117188,-1.6053149060041267,7.133570727364926,90.34338582972042,-26.60154,-0.916271,9.304879,21.32158,-10.17059,-0.4091729,2.1763349,6.8931103,2.2780838,62.28197,-3.6939142,9.165459,2.6950839,0.4379494,16.933792,26.073488,53.02236,-32.67146,-17.603872,3.1393435,-4.8601213,11.4546,0.16246226,-34.067574,32.77594,-16.18763,-9.075099,-12.527303,-12.686555
162,-1.6090704202651978,111.9800796508789,76.14276885986328,-1.1110373965032752,7.01730608933839,90.58868206778484,-27.849411,-1.4761834,9.107606,26.265953,-11.442608,2.7078063,0.7096417,5.8025274,1.756554,66.733215,-4.984031,9.319502,2.0540779,0.013344578,16.737583,24.242645,51.840015,-33.51811,-16.663475,3.4195256,-4.6990232,11.551481,1.2307805,-33.85893,32.756954,-14.899138,-9.087914,-12.542856,-12.725508
163,-1.6883771419525146,113.24138641357422,75.65484619140625,-0.6503873182664929,6.8248089892485835,90.7651953934475,-28.88956,-1.9719989,9.076324,31.09078,-12.869122,5.803194,-0.74161375,4.635956,1.297668,71.12668,-6.2686267,9.34833,1.4321233,-0.3748078,16.61407,22.271126,50.592533,-34.422318,-15.610108,3.8007226,-4.424407,11.689257,2.2334511,-33.64697,32.77114,-13.408469,-9.162835,-12.598071,-12.832345
164,-1.7725447416305542,114.49652862548828,75.12762451171875,-0.19375437358550762,6.538597422293784,90.87324096287693,-29.390766,-2.4740832,9.171979,35.01061,-14.431677,7.959717,-2.1877892,3.4534988,1.0453928,75.39015,-7.6079936,9.112383,0.8462932,-0.76639086,16.6145,20.117008,49.305855,-35.410706,-14.439048,4.2983146,-3.9982076,11.940124,3.167798,-33.438698,32.820797,-11.698032,-9.336195,-12.723468,-13.136231
165,-1.8584625720977783,115.74581909179688,74.5857162475586,0.34572555458519844,6.120108618333781,90.89735741852573,-29.311253,-3.023657,9.473333,38.057373,-16.394379,8.821591,-3.6302862,2.1621714,1.0802808,79.64132,-9.074937,8.517308,0.33458072,-1.2542193,16.78282,17.930458,47.97891,-36.44866,-13.231364,4.9512897,-3.338127,12.34835,4.0710135,-33.23449,32.84219,-9.7487955,-9.632992,-12.987062,-13.637183
166,-1.9415861368179321,116.97895812988281,74.04415893554688,0.9789399001058225,5.612333301780998,90.86058356434525,-28.892948,-3.5889683,9.962029,40.73157,-18.779089,8.930695,-5.0963235,0.7265293,1.3280717,83.89409,-10.638264,7.6769214,-0.17194837,-1.8535535,17.07641,15.357111,46.626144,-37.600437,-11.755266,5.5094943,-2.4862518,12.85808,4.9051366,-33.04059,32.873928,-7.580165,-10.032976,-13.348907,-14.2829275
167,-2.017580032348633,118.18820190429688,73.53128814697266,1.628229063591929,5.121339752071697,90.82568369628709,-28.266403,-4.1402087,10.468729,43.028896,-21.247265,8.710848,-6.6463966,-0.7090081,1.6895483,87.91719,-12.194193,6.7627625,-0.6657505,-2.4753425,17.370182,12.731671,45.252045,-38.765865,-10.300681,6.29644,-1.5839348,13.418553,5.741438,-32.860382,32.911247,-5.2872887,-10.506233,-13.683854,-15.118962
168,-2.0925650596618652,119.39381408691406,73.06832122802734,2.2099811243849454,4.747570081593829,90.85516714936062,-27.544834,-4.678295,10.8208,44.885868,-23.435951,8.58512,-8.344009,-2.00402,2.05203,91.483826,-13.63375,5.9352617,-1.1884304,-3.0261037,17.556095,10.121901,43.88069,-39.910416,-8.9837885,7.4576526,-0.7718368,13.966399,6.5957665,-32.69927,33.004272,-2.9453616,-11.0185585,-13.864512,-16.192917
169,-2.147692918777466,120.60491943359375,72.66983795166016,2.7479041566133002,4.54742736146616,90.97086619291835,-26.746675,-5.2749434,11.023089,46.18943,-25.2589,8.625263,-10.27581,-3.1674497,2.4342318,94.600044,-14.946208,5.2378244,-1.7469734,-3.5327601,17.596254,7.420718,42.541004,-41.144253,-7.7487535,9.214376,0.019125035,14.603509,7.453773,-32.553097,33.20764,-0.4448916,-11.735154,-13.797916,-17.771358
170,-2.1750776767730713,121.85645294189453,72.35004425048828,3.273263705994569,4.456208339839999,91.14077364581301,-25.821726,-5.9263425,11.166916,46.99732,-26.898647,8.622234,-12.408033,-4.2575703,2.8749266,97.38139,-16.17619,4.5757413,-2.3222983,-4.032006,17.553148,4.6291876,41.234337,-42.451153,-6.5896034,11.395835,0.8465451,15.312291,8.319439,-32.417305,33.475346,2.2069936,-12.605094,-13.553403,-19.73991
171,-2.181309938430786,123.14518737792969,72.10920715332031,3.705261557813021,4.389869661217737,91.34557598933662,-24.770021,-6.5359674,11.201572,47.481678,-28.3932,8.580057,-14.616251,-5.2089324,3.2825198,99.76441,-17.300608,3.9129882,-2.9213884,-4.4392166,17.475853,1.9546366,39.948193,-43.630356,-5.674435,13.576695,1.5326332,15.861059,9.223827,-32.3039,33.717552,4.766928,-13.270417,-13.273693,-21.579193
172,-2.1781463623046875,124.4454116821289,71.92601013183594,3.9662087664308574,4.264923796733671,91.56543209656755,-23.58376,-6.9965916,11.073824,47.817112,-29.783121,8.497805,-16.767637,-5.964188,3.5571241,101.68302,-18.295874,3.217425,-3.5597498,-4.667734,17.419912,-0.4327676,38.677628,-44.494656,-5.1374717,15.335259,1.8726066,16.03435,10.191624,-32.240063,33.857098,6.9827933,-13.386312,-13.132546,-22.78371
173,-2.185228109359741,125.72398376464844,71.77884674072266,4.000805478583338,4.048701697923102,91.80482260841178,-22.2477,-7.2467594,10.73748,48.07725,-31.114365,8.363196,-18.85263,-6.471582,3.6468577,103.13355,-19.143463,2.4579396,-4.259489,-4.6628175,17.42199,-2.4886281,37.425365,-44.976105,-5.0745864,16.632286,1.6878133,15.662733,11.244675,-32.252728,33.85825,8.794032,-12.666338,-13.198797,-23.095257
174,-2.205909013748169,126.98798370361328,71.6874771118164,3.861254520518191,3.788746399893223,92.07350372658632,-20.76355,-7.341619,10.236641,48.16324,-32.357586,8.181866,-20.928146,-6.782483,3.5848498,104.14786,-19.853182,1.6626858,-5.0138826,-4.4801426,17.461689,-4.3422728,36.204353,-45.217915,-5.379712,17.66955,1.1028867,14.918642,12.383251,-32.354935,33.76415,10.294686,-11.353379,-13.378289,-22.826687
175,-2.234151601791382,128.23793029785156,71.6535415649414,3.630589034355834,3.521801463948205,92.35829903724397,-19.143497,-7.345824,9.649662,47.986786,-33.43741,7.9736314,-22.957367,-6.9996,3.3940883,104.71147,-20.448006,0.8869677,-5.783535,-4.1986012,17.510529,-6.0850616,35.03276,-45.363052,-5.885138,18.401714,0.37023965,14.103408,13.605539,-32.549725,33.607094,11.46263,-9.904216,-13.611494,-22.332779
176,-2.247040033340454,129.4927215576172,71.68150329589844,3.3899096865969893,3.284156994785467,92.64493153441533,-17.401464,-7.3230815,9.049099,47.460876,-34.277737,7.7567253,-24.902328,-7.2222323,3.1039553,104.80734,-20.952139,0.18926443,-6.5272555,-3.8940947,17.535725,-7.790289,33.931984,-45.543373,-6.4365296,18.793983,-0.24540696,13.507399,14.9026575,-32.8332,33.422478,12.286588,-8.779813,-13.858612,-21.972797
177,-2.2513391971588135,130.74905395507812,71.77079010009766,3.1478220273835285,3.0596956881996213,92.9397784593004,-15.492415,-7.2830987,8.421663,46.520786,-34.8929,7.5380516,-26.751064,-7.4659076,2.6924481,104.412224,-21.386206,-0.395955,-7.2396345,-3.5802083,17.558298,-9.505663,32.918564,-45.79141,-7.056315,18.733223,-0.70613736,13.155563,16.283812,-33.20758,33.225803,12.698995,-8.021464,-14.157353,-21.812458
178,-2.246046304702759,132.03866577148438,71.92733001708984,2.864402155341702,2.837577750136087,93.24832501187046,-13.428235,-7.178729,7.735753,45.232056,-35.31399,7.301989,-28.506626,-7.6830807,2.1351125,103.5346,-21.737808,-0.89655256,-7.9377694,-3.2197425,17.593729,-11.181201,31.997406,-46.055763,-7.828817,18.26885,-1.1309773,12.90492,17.763607,-33.670094,32.984154,12.715092,-7.410924,-14.514655,-21.66654
179,-2.2382352352142334,133.34597778320312,72.14268493652344,2.5452748384987234,2.661768568839794,93.55436626487119,-11.307256,-6.9956665,7.034272,43.702587,-35.490456,7.0340657,-30.154932,-7.8732758,1.4574758,102.20872,-21.98267,-1.353583,-8.614799,-2.809074,17.595297,-12.721187,31.169758,-46.327396,-8.700106,17.629215,-1.4899243,12.79198,19.324486,-34.201138,32.668324,12.466867,-7.026008,-14.861622,-21.526068
180,-2.2268993854522705,134.68003845214844,72.4077377319336,2.194872993515966,2.5761535325044917,93.84054636328976,-9.225969,-6.72625,6.3606987,42.03989,-35.373478,6.7241735,-31.68233,-8.032765,0.68588364,100.46702,-22.098013,-1.8074563,-9.263169,-2.3429775,17.513348,-14.036869,30.435085,-46.594303,-9.6060915,17.041273,-1.7563914,12.856452,20.93347,-34.76823,32.25702,12.106854,-6.946725,-15.130121,-21.385118
181,-2.209519386291504,136.0449676513672,72.71800994873047,1.8006886210985278,2.6062473054587647,94.10433584938022,-7.1776414,-6.3576365,5.698471,40.18845,-34.959034,6.3705387,-33.111404,-8.141517,-0.20173258,98.29211,-22.077913,-2.2717054,-9.884097,-1.7965599,17.3192,-15.098493,29.79546,-46.837517,-10.553147,16.55197,-1.8773214,13.144123,22.579603,-35.348503,31.740679,11.664984,-7.3780236,-15.295812,-21.244356
182,-2.1886017322540283,137.42308044433594,73.06990051269531,1.363041775772508,2.7248067876352504,94.35192705989009,-5.1267796,-5.89563,5.035459,38.129253,-34.27877,5.980405,-34.416317,-8.193788,-1.2268761,95.66661,-21.946657,-2.7046485,-10.479514,-1.1786598,17.044119,-15.954069,29.255987,-47.06916,-11.567301,16.048195,-1.8850024,13.624072,24.256176,-35.933174,31.144268,11.101092,-8.223136,-15.400512,-21.109459
183,-2.170994520187378,138.83892822265625,73.46326446533203,0.9146839336808207,2.8962362575422853,94.57849326678354,-3.1238203,-5.3699155,4.4203796,36.02466,-33.33409,5.5601554,-35.519444,-8.206835,-2.354777,92.62335,-21.722168,-3.0684845,-11.046975,-0.53401095,16.724482,-16.627003,28.821556,-47.31531,-12.61322,15.517853,-1.8819448,14.220559,25.929771,-36.505295,30.506868,10.468947,-9.111878,-15.474271,-20.981651
184,-2.145280599594116,140.26812744140625,73.87505340576172,0.4909333362705503,3.0845656406967583,94.77985938522708,-1.2140625,-4.8169866,3.8993487,34.03089,-32.12551,5.1162767,-36.35083,-8.201035,-3.535922,89.18769,-21.421082,-3.326548,-11.584613,0.08649062,16.392557,-17.141735,28.496855,-47.6028,-13.6516075,14.950266,-1.9701761,14.855741,27.559738,-37.04309,29.87041,9.8312,-9.678586,-15.545558,-20.862741
185,-2.108626365661621,141.7106475830078,74.30683135986328,0.07210658849108882,3.3006432623938364,94.95097398119043,0.6229189,-4.2160277,3.4672127,32.09347,-30.608053,4.621327,-36.909416,-8.208989,-4.8197513,85.3255,-21.034756,-3.515397,-12.095616,0.69579077,16.03405,-17.49847,28.294203,-47.959408,-14.668423,14.275493,-2.1470306,15.610953,29.110525,-37.52901,29.257816,9.23365,-9.801153,-15.612695,-20.756472
186,-2.067152500152588,143.17271423339844,74.75569152832031,-0.34712809323462324,3.5560703656886914,95.09257887192796,2.4043112,-3.5676043,3.0994785,30.169712,-28.805338,4.082459,-37.21858,-8.188538,-6.2118754,81.024956,-20.557549,-3.624242,-12.579016,1.3045529,15.635996,-17.68294,28.222612,-48.358536,-15.6916485,13.522483,-2.3725998,16.491056,30.592764,-37.953175,28.658243,8.657807,-9.697331,-15.662977,-20.661518
187,-2.030754327774048,144.64190673828125,75.20475769042969,-0.7125226639437713,3.815508724712656,95.21004326257166,4.0800996,-2.9496014,2.8121834,28.427904,-26.813272,3.553681,-37.272263,-8.069232,-7.5741844,76.34874,-19.993801,-3.5681932,-13.0256195,1.8539844,15.230179,-17.704319,28.27563,-48.750156,-16.736624,12.832953,-2.6889374,17.302834,32.00091,-38.311665,28.074589,8.096843,-9.493517,-15.708359,-20.572262
188,-1.991566777229309,146.11656188964844,75.64984893798828,-0.9694085876150506,4.043589579291595,95.31097223145126,5.6009617,-2.4424834,2.6233423,27.02526,-24.714203,3.0831163,-37.079174,-7.8074503,-8.748152,71.351906,-19.343264,-3.2843487,-13.428492,2.288075,14.84596,-17.580101,28.434496,-49.0865,-17.807924,12.347328,-3.1287518,17.85193,33.31547,-38.604294,27.51748,7.5530643,-9.303249,-15.76066,-20.483192
189,-1.9578953981399536,147.5983123779297,76.0858383178711,-1.1065826361627955,4.248723954056133,95.39912523868928,6.975218,-2.0718353,2.557917,25.904356,-22.39956,2.673841,-36.625015,-7.4366193,-9.693556,65.88865,-18.560783,-2.8158975,-13.808023,2.5966067,14.46565,-17.31089,28.688856,-49.360207,-18.90827,12.111835,-3.6861198,18.071749,34.705288,-38.820103,26.92039,6.8937874,-9.198499,-15.825564,-20.410034
190,-1.9262869358062744,149.09019470214844,76.4984359741211,-1.1458261252102588,4.4418581786904285,95.47289312723316,8.230233,-1.8077732,2.592933,24.995981,-19.852623,2.2903357,-35.917095,-7.0064454,-10.455551,59.95705,-17.653944,-2.219306,-14.101985,2.812046,14.093926,-16.957607,29.028841,-49.654667,-20.012344,12.04275,-4.341771,18.074617,35.550312,-38.996872,26.516916,6.6214886,-8.792459,-15.902052,-20.35
191,-1.9073731899261475,150.58485412597656,76.88082122802734,-1.0935092508132656,4.592814253391562,95.53535749514896,9.354133,-1.647627,2.6765382,24.405836,-17.281878,1.9356179,-34.99958,-6.52214,-10.997137,53.812355,-16.697851,-1.4688933,-14.38749,2.9158633,13.733206,-16.45241,29.445702,-49.863216,-21.080595,12.10072,-5.111326,17.916851,36.543285,-39.107708,26.067297,6.1699305,-8.552913,-15.969552,-20.273483
192,-1.8994499444961548,152.08909606933594,77.2281265258789,-0.9576212216329318,4.670809104367759,95.59026643602468,10.340868,-1.5822883,2.75742,24.228838,-14.891512,1.6107346,-33.91186,-5.9853687,-11.29144,47.691467,-15.7618475,-0.5393541,-14.623691,2.911337,13.419092,-15.82939,29.918413,-49.996872,-22.066252,12.238018,-6.008798,17.667204,37.498924,-39.161198,25.631754,5.6863494,-8.455657,-16.020267,-20.142897
193,-1.8858392238616943,153.61146545410156,77.52225494384766,-0.6997092373515665,4.637475588492226,95.65359764740847,11.240746,-1.6549312,2.8273604,24.43876,-12.663499,1.3613684,-32.539707,-5.366055,-11.196397,41.316536,-14.790967,0.7344392,-14.804202,2.7504919,13.169757,-15.098229,30.427132,-50.06782,-22.950241,12.553246,-7.1324654,17.278255,38.276047,-39.174755,25.271416,5.2971787,-8.4560585,-16.042046,-19.962542
194,-1.8646737337112427,155.13433837890625,77.76263427734375,-0.30808281374965274,4.511208987950796,95.7340810711612,12.06544,-1.878309,2.900215,24.951021,-10.47917,1.175386,-30.84385,-4.7778716,-10.740133,34.56561,-13.748674,2.2149296,-14.9861,2.425919,12.955258,-14.232595,30.963861,-50.050262,-23.733423,13.0303545,-8.448103,16.738667,39.22545,-39.13028,24.858334,4.714297,-8.6905775,-16.040407,-19.74768
195,-1.8410855531692505,156.6591339111328,77.94293975830078,0.16262565478978758,4.346142170996959,95.82623355009727,12.751801,-2.1966844,2.955544,25.771404,-8.38853,0.9790529,-29.001617,-4.378983,-10.190177,27.94462,-12.707772,3.5396738,-15.110823,2.0099409,12.768494,-13.320693,31.515348,-50.007694,-24.396152,13.444649,-9.765072,16.170189,39.866188,-39.053066,24.547955,4.303088,-8.84985,-16.045252,-19.479143
196,-1.8161511421203613,158.177978515625,78.06672668457031,0.6413642304245812,4.2031782967324975,95.91549389513985,13.214822,-2.5336378,2.9797888,26.947567,-6.4670725,0.7042564,-27.264183,-4.2247562,-9.853114,22.069178,-11.756991,4.4280605,-15.232212,1.5760734,12.568322,-12.337693,32.07457,-49.884487,-24.92543,13.589088,-10.889971,15.67397,40.599968,-38.917595,24.203108,3.708898,-9.112595,-16.074091,-19.144617
197,-1.788872480392456,159.6778106689453,78.13932037353516,1.118352854922874,4.107748884801687,95.99006756233894,13.384805,-2.857435,2.9628336,28.574467,-4.831077,0.3795501,-25.734428,-4.269437,-9.8781595,17.082064,-10.957042,4.816857,-15.278866,1.1476191,12.348235,-11.330381,32.632103,-49.736538,-25.305815,13.389994,-11.82452,15.234149,41.1006,-38.738224,23.91837,3.1987731,-9.27257,-16.151022,-18.680832
198,-1.756650447845459,161.14891052246094,78.17396545410156,1.622788759211132,4.028691148724638,96.04815510324552,13.295612,-3.1874526,2.930546,30.658651,-3.4382436,0.05526945,-24.321743,-4.4149933,-10.116356,12.71524,-10.260428,4.928522,-15.260349,0.68422025,12.117893,-10.279126,33.18012,-49.55356,-25.536606,12.968882,-12.650399,14.798199,41.449837,-38.516026,23.676117,2.7199981,-9.402073,-16.258066,-18.11674
199,-1.7222782373428345,162.59239196777344,78.16678619384766,2.0938728831635895,3.9627833339984893,96.06611033208117,12.970131,-3.462183,2.9426131,33.181263,-2.1584969,-0.31424516,-23.021074,-4.5331335,-10.440805,8.988387,-9.581062,4.926841,-15.170126,0.24203204,11.898379,-9.205482,33.707146,-49.337822,-25.608046,12.407764,-13.289901,14.427947,41.628143,-38.25174,23.497757,2.2931397,-9.53104,-16.36629,-17.566214
200,-1.6863174438476562,164.0074920654297,78.116455078125,2.4643723589264455,3.9102907372444458,96.0202682632296,12.440516,-3.61995,3.0520332,36.102318,-0.8532211,-0.78535306,-22.481834,-4.6423483,-10.656009,7.3455043,-9.583785,4.9499555,-14.988023,-0.11268088,11.712955,-8.147169,34.197437,-49.105595,-25.507048,11.790103,-13.667638,14.191172,41.511776,-37.95375,23.438961,2.0238013,-9.633979,-16.445332,-17.143293
201,-1.6516331434249878,165.40301513671875,78.02008056640625,2.7223417468878526,3.895809890836477,95.89307984024686,11.658375,-3.6351118,3.3154414,39.50949,0.6122721,-1.410867,-22.457996,-4.6939406,-10.849609,7.2827682,-10.037863,5.0581956,-14.690493,-0.36010632,11.543753,-7.1095314,34.632786,-48.869545,-25.204105,11.020514,-13.727966,14.131548,41.082657,-37.62372,23.51931,1.9220053,-9.681894,-16.486044,-16.870358
202,-1.6268941164016724,166.80235290527344,77.88156127929688,2.858990279513101,3.9273442855771488,95.68270828409612,10.602638,-3.471195,3.6932974,43.432644,2.1109092,-2.1226053,-22.265074,-4.554454,-11.116458,7.270865,-10.169269,5.152968,-14.274314,-0.4893843,11.380221,-6.0930905,34.999165,-48.63108,-24.689106,10.097632,-13.5265255,14.211448,40.406178,-37.258434,23.701029,1.9408014,-9.694579,-16.50413,-16.690302
203,-1.6028748750686646,168.20513916015625,77.69963073730469,2.82551344606167,3.9751157049109307,95.39960490360518,9.3687315,-3.0892565,4.078407,47.712673,3.4030297,-2.8299286,-21.922716,-4.1668935,-11.257627,7.2953835,-9.867314,5.1174345,-13.761837,-0.45859253,11.255356,-5.1231275,35.288876,-48.385292,-23.97349,9.24723,-13.1565485,14.377071,39.48417,-36.861908,23.951876,2.0979986,-9.7174225,-16.506966,-16.597424
204,-1.5582388639450073,169.5122528076172,77.5282211303711,2.582383859469918,4.004977398332099,95.05902592229789,8.06571,-2.4866958,4.3595486,52.1685,4.2565637,-3.4829655,-21.452255,-3.4806125,-11.077028,7.3482575,-9.023535,4.8446665,-13.187798,-0.23132923,11.201169,-4.211321,35.500816,-48.116165,-23.079622,8.695136,-12.708208,14.569382,38.345078,-36.44117,24.233105,2.3854954,-9.809429,-16.501764,-16.586397
205,-1.512519359588623,170.81204223632812,77.30988311767578,2.0954053864236237,4.0336964746449,94.65529580883629,6.6927123,-1.6544065,4.547901,56.844913,4.6060295,-4.1563544,-21.936607,-2.613719,-10.298917,9.762607,-8.4445095,4.3442183,-12.5522,0.23511866,11.20318,-3.3435073,35.630817,-47.81198,-22.011541,8.549731,-12.151012,14.834981,36.963715,-36.000607,24.53825,2.819807,-9.981851,-16.490898,-16.639936
206,-1.4836543798446655,172.14813232421875,77.02251434326172,1.4555792490147457,4.039888649335675,94.21370805566286,5.2679133,-0.6986833,4.6518764,61.75115,4.594794,-4.8783116,-22.910429,-1.5462449,-9.165289,13.589569,-7.795631,3.7497237,-11.871366,0.84857833,11.253835,-2.517745,35.677277,-47.486687,-20.758818,8.668985,-11.452736,15.17866,35.352367,-35.54157,24.873291,3.3827212,-10.196855,-16.469017,-16.76753
207,-1.4520293474197388,173.49017333984375,76.67626190185547,0.802735876191622,3.9393783071541097,93.79177080941788,3.908987,0.19585416,4.583099,66.67434,4.300768,-5.556808,-23.822563,-0.40542865,-8.096648,17.675077,-7.259248,3.1034696,-11.201927,1.4547753,11.397187,-1.7526363,35.651806,-47.15341,-19.325996,8.909906,-10.698657,15.477995,33.604797,-35.06711,25.218172,4.00438,-10.448594,-16.431118,-17.00299
208,-1.4044697284698486,174.81219482421875,76.26934051513672,0.2165983919988303,3.6743072675209154,93.42199642907683,2.6964417,0.9121239,4.278574,71.426125,3.788445,-6.1101866,-24.53864,0.5993593,-7.43986,21.745316,-7.501483,2.324274,-10.5783615,1.9654917,11.674906,-1.0632658,35.57458,-46.816216,-17.72726,9.133223,-9.977597,15.617334,31.819893,-34.582115,25.549713,4.6091332,-10.741422,-16.37267,-17.377945
209,-1.3567733764648438,176.12852478027344,75.79946899414062,-0.3253413066111504,3.1687972220795033,93.09853534253693,1.7303509,1.430242,3.7169247,76.05225,2.959199,-6.552936,-25.145803,1.359199,-7.274386,26.194067,-8.952657,1.152806,-9.988387,2.4024796,12.162779,-0.45144543,35.462692,-46.465252,-15.964977,9.469593,-9.302108,15.5320425,29.914793,-34.094048,25.870174,5.2913604,-11.008834,-16.335459,-17.887112
210,-1.3080350160598755,177.40167236328125,75.29385375976562,-0.8446142826671652,2.4754758531606074,92.81041798193908,0.94852626,1.7679217,2.9769142,80.63543,1.8047613,-6.9435062,-25.689453,1.9384164,-7.341187,31.075716,-11.227219,-0.3505779,-9.435697,2.7994866,12.82144,0.11788613,35.326496,-46.07724,-14.063995,9.942121,-8.630066,15.294447,27.933626,-33.600372,26.172535,5.9940386,-11.303101,-16.305008,-18.517511
211,-1.2638872861862183,178.67897033691406,74.75785827636719,-1.3373802032608932,1.7573369446930642,92.55652910466421,0.14440683,1.9614388,2.1338272,85.071465,0.5144871,-7.2766647,-26.032404,2.433878,-7.484062,35.689915,-13.810379,-1.8507221,-8.919665,3.1718872,13.522657,0.6468002,35.176167,-45.667778,-12.062432,10.249435,-7.9703984,15.0071335,25.831745,-33.10615,26.508091,6.6947227,-11.636361,-16.195227,-19.285099
212,-1.216936469078064,179.9573974609375,74.22846984863281,-1.8211530381215617,1.183940028747924,92.3298006995042,-0.90363014,2.0747986,1.239486,89.2509,-0.71366835,-7.5438232,-26.084793,2.984539,-7.6085587,39.407585,-16.20756,-2.9972055,-8.438362,3.5480623,14.132504,1.1443291,35.020897,-45.246937,-9.997908,10.089878,-7.3274384,14.77873,23.591024,-32.617332,26.920107,7.344959,-12.028685,-15.918578,-20.205349
213,-1.174081563949585,181.2342529296875,73.72015380859375,-2.366911047807151,0.8171818215664827,92.1173991922031,-2.3021646,2.1380193,0.2156312,93.25778,-1.8523581,-7.708856,-25.864517,3.6961899,-7.78424,42.11125,-18.430622,-3.6660628,-7.998279,3.986418,14.62578,1.6051161,34.8593,-44.768032,-7.795698,9.299424,-6.80129,14.547397,21.145794,-32.134533,27.467402,7.9711404,-12.518043,-15.371591,-21.44739
214,-1.1496998071670532,182.50108337402344,73.24388122558594,-2.9678188817389572,0.5701851325316998,91.91682812093315,-3.9249449,2.1129427,-0.9325376,97.12907,-2.99654,-7.803361,-25.452843,4.4869595,-8.039773,44.2106,-20.739323,-4.049983,-7.5967407,4.474144,15.065547,2.0421338,34.69599,-44.22316,-5.469989,8.06875,-6.3526073,14.29294,18.52979,-31.65058,28.11025,8.571531,-13.062621,-14.618345,-22.941545
215,-1.1250783205032349,183.7498321533203,72.80632781982422,-3.5237347641413317,0.3889753640699207,91.73355088371751,-5.6637483,1.9955037,-2.0464325,100.67848,-4.127363,-7.896955,-24.871832,5.234759,-8.267183,45.876408,-22.997936,-4.2674875,-7.2083364,4.9320927,15.452542,2.4896116,34.554535,-43.69147,-3.1984234,6.624821,-5.780147,14.1974,15.888047,-31.158396,28.742565,9.047401,-13.580992,-13.82977,-24.346195
216,-1.0959867238998413,184.989501953125,72.45000457763672,-3.929595959590687,0.2196942015945327,91.57737834413852,-7.43269,1.8094449,-2.9843607,103.71724,-5.2129703,-8.0422535,-24.132212,5.8236337,-8.364801,47.243267,-25.054195,-4.4433713,-6.8117166,5.2749367,15.789259,2.982503,34.469322,-43.259003,-1.1690009,5.1849,-4.8929505,14.45309,13.400107,-30.655281,29.256481,9.277235,-14.037736,-13.186338,-25.325333
217,-1.0589598417282104,186.26153564453125,72.17881774902344,-4.157634160328941,0.08069077002237783,91.46634268557665,-9.292711,1.5331087,-3.779555,106.230675,-6.16445,-8.336656,-23.24291,6.2302012,-8.33474,48.302574,-26.88666,-4.595213,-6.417052,5.482152,16.071238,3.5317101,34.46114,-42.927326,0.62798613,3.6516986,-3.5301375,15.151236,11.082422,-30.132273,29.609749,9.235386,-14.459735,-12.726057,-25.77256
218,-1.0409601926803589,187.5592803955078,71.97242736816406,-4.269113511568041,-0.008980890824181418,91.38904214872467,-11.289681,1.1950895,-4.500175,108.31552,-7.0039353,-8.702243,-22.195795,6.5280137,-8.243463,48.98388,-28.560453,-4.6665716,-6.02298,5.594069,16.305292,4.122723,34.53899,-42.663742,2.2513802,1.9288987,-1.855418,16.21018,8.844017,-29.588997,29.876408,8.99194,-14.874041,-12.365135,-25.874035
219,-1.0284788608551025,188.86819458007812,71.82877349853516,-4.2999957067912,-0.10220110901022392,91.31111104219589,-13.330351,0.9168045,-5.078352,109.94532,-7.8609242,-8.92818,-20.9736,6.755332,-8.087835,49.321842,-30.052776,-4.676854,-5.600677,5.624597,16.513895,4.7598505,34.722816,-42.494423,3.5767322,0.23136328,-0.16522692,17.547766,6.649742,-29.050743,30.153002,8.6088505,-15.234214,-12.10632,-25.738808
220,-1.02938973903656,190.1427764892578,71.73516082763672,-4.287950022486521,-0.25215147872318905,91.19840061739035,-15.319946,0.8177,-5.4534616,111.091736,-8.8668165,-8.810696,-19.557789,6.9477277,-7.859569,49.351288,-31.340584,-4.6448216,-5.1268578,5.594222,16.722168,5.4655833,35.03904,-42.433266,4.4545197,-1.2100549,1.2610683,19.05489,4.478368,-28.557962,30.533274,8.126631,-15.48482,-11.949221,-25.475304
221,-1.0225874185562134,191.424560546875,71.70979309082031,-4.225508581807255,-0.5079379648576652,91.04943442507319,-17.246124,0.8729332,-5.6415424,111.74134,-10.150939,-8.263104,-17.899843,7.097945,-7.548069,49.091328,-32.445766,-4.5640697,-4.6153774,5.5002074,16.980803,6.283128,35.521824,-42.51359,4.7369576,-2.3743327,2.522801,21.022518,2.2919161,-28.14362,31.07684,7.4972396,-15.570726,-11.940362,-25.061516
222,-1.0138047933578491,192.7044219970703,71.74588775634766,-4.098316268841659,-0.8305374405843251,90.87779547305836,-19.161499,1.0345796,-5.6613955,111.90878,-11.606259,-7.40663,-16.022642,7.1900363,-7.1632485,48.525654,-33.375877,-4.436598,-4.088548,5.342351,17.27836,7.249304,36.1857,-42.663612,4.4651084,-3.3900738,3.7066102,23.38905,0.12257683,-27.812859,31.749924,6.6797523,-15.519936,-12.062135,-24.457598
223,-1.0192862749099731,193.9837188720703,71.84722900390625,-3.926469663765546,-1.140586635992512,90.67087261003715,-21.057789,1.3783166,-5.4812956,111.59473,-13.022091,-6.3817472,-14.012541,7.240212,-6.7184734,47.63415,-34.083893,-4.28962,-3.534926,5.1449313,17.544859,8.37152,37.016743,-42.744324,3.7812364,-4.1984944,4.5533485,25.482838,-1.9536611,-27.561508,32.501503,5.7352743,-15.397665,-12.216515,-23.744917
224,-1.0266236066818237,195.25372314453125,72.01102447509766,-3.732695165728035,-1.3589018717358516,90.41661376937871,-22.918953,1.9894367,-5.0600996,110.7987,-14.194627,-5.3237824,-11.957311,7.260944,-6.222684,46.40022,-34.524483,-4.1459765,-2.9395573,4.9282093,17.704758,9.6410475,37.978535,-42.636185,2.8528757,-4.697912,4.8275905,26.620178,-3.8646364,-27.383032,33.271496,4.7340136,-15.2747965,-12.307171,-23.007114
225,-1.029783844947815,196.5579071044922,72.23966217041016,-3.51048345388262,-1.4732877618589033,90.09011049338568,-24.731655,2.975775,-4.284193,109.48259,-15.120305,-4.244271,-9.808303,7.2462583,-5.6339474,44.691124,-34.71101,-3.9993918,-2.2706046,4.687847,17.73112,11.070059,39.04446,-42.306446,1.6825662,-4.812605,4.326387,26.46384,-5.6171947,-27.28325,34.071793,3.6786044,-15.191241,-12.30818,-22.231932
226,-1.065220594406128,197.91807556152344,72.52961730957031,-3.2408395275108575,-1.5246042192235667,89.70276835190931,-26.445276,4.237532,-3.1602902,107.65009,-15.931629,-3.114977,-7.5433397,7.1652455,-4.947407,42.580177,-34.67284,-3.844362,-1.544026,4.405764,17.668842,12.662673,40.204315,-41.81156,0.21705407,-4.598609,3.2450383,25.416344,-7.2407036,-27.267063,34.92897,2.5342033,-15.102357,-12.270379,-21.388592
227,-1.1035138368606567,199.2883758544922,72.87032318115234,-2.9339304073940062,-1.5122917824970423,89.29951261205204,-27.996124,5.5621524,-1.8252119,105.36921,-16.622791,-1.9944601,-5.290109,7.0008626,-4.233483,40.345146,-34.37977,-3.6925323,-0.80531,4.081564,17.544136,14.356838,41.435997,-41.201115,-1.4247793,-4.155341,1.944187,23.907505,-8.673291,-27.320826,35.777206,1.3027747,-14.966318,-12.213281,-20.533659
228,-1.1364926099777222,200.67257690429688,73.24775695800781,-2.605211285732265,-1.434336605169007,88.92781167194886,-29.35317,6.751112,-0.43945184,102.705956,-17.172592,-0.9248893,-3.1809497,6.752386,-3.5744524,38.257523,-33.79575,-3.54493,-0.09529446,3.7194216,17.374336,16.082603,42.70888,-40.536232,-3.1095486,-3.5456848,0.7841524,22.36521,-9.862672,-27.423023,36.542492,0.0072539006,-14.744327,-12.156368,-19.722334
229,-1.1663354635238647,202.09031677246094,73.67008209228516,-2.2447452645242874,-1.2799031967541072,88.59237266246207,-30.529636,7.8219833,1.0196321,99.645546,-17.571081,0.13986397,-1.2003112,6.4111195,-2.969806,36.259384,-32.872257,-3.3890166,0.59716195,3.307167,17.131023,17.769499,44.004093,-39.86667,-4.767891,-2.6214993,-0.20250982,20.741663,-10.798738,-27.565292,37.202297,-1.3289962,-14.434257,-12.089345,-18.951035
230,-1.2018123865127563,203.5144500732422,74.11592864990234,-1.8492622314056526,-1.0516529723393089,88.27561073290484,-31.510096,8.828731,2.6489253,96.15993,-17.847904,1.1836078,0.6917773,5.9818707,-2.3953366,34.25825,-31.644976,-3.2140727,1.2944167,2.8422208,16.805868,19.420704,45.30903,-39.18523,-6.415275,-1.4193039,-1.2166406,18.876493,-11.511648,-27.75217,37.778835,-2.7015114,-14.063983,-12.005748,-18.194706
231,-1.2342301607131958,204.9389190673828,74.57565307617188,-1.4525153356117808,-0.7672072409848801,87.9919775294948,-32.265503,9.658332,4.3483615,92.291794,-18.017569,2.09229,2.4074125,5.5033293,-1.9002498,32.45616,-30.204178,-3.0249834,1.9721491,2.353703,16.441324,21.079926,46.598083,-38.46608,-8.048248,-0.23551875,-2.2238147,17.014635,-12.012536,-27.979046,38.26371,-4.109726,-13.6377735,-11.930046,-17.47682
232,-1.2682194709777832,206.3629150390625,75.04202270507812,-1.0893181353066828,-0.4443149703998362,87.75440533655849,-32.79333,10.22477,5.993666,88.07614,-18.076561,2.777835,3.8654292,5.020588,-1.5292449,31.050217,-28.633558,-2.8319247,2.6043532,1.8770592,16.075493,22.724463,47.838993,-37.711506,-9.61675,0.61000615,-3.1610394,15.38994,-12.318448,-28.234823,38.65504,-5.5424147,-13.16263,-11.8872,-16.82054
233,-1.302272081375122,207.79869079589844,75.51498413085938,-0.7554872219326385,-0.045864594293846914,87.55894005668739,-33.15581,10.6061,7.6007214,83.46809,-18.0139,3.359019,5.0200105,4.534804,-1.2779602,30.057274,-26.880398,-2.6262014,3.1983576,1.4093418,15.672221,24.324566,49.005165,-36.943974,-11.083849,1.0809246,-4.004443,14.015374,-12.443683,-28.514572,38.957912,-6.979924,-12.577068,-11.879821,-16.237955
234,-1.3382983207702637,209.24588012695312,75.9826431274414,-0.43979247398367793,0.4243688301992159,87.40201815332237,-33.353485,10.830583,9.196855,78.45703,-17.824503,3.85487,5.928062,4.0406275,-1.1232579,29.373278,-24.917452,-2.4085467,3.7585,0.9444846,15.216043,25.85386,50.08288,-36.189514,-12.433108,1.3464849,-4.7728744,12.772639,-12.391448,-28.818062,39.176144,-8.407204,-11.901198,-11.894426,-15.712818
235,-1.3701516389846802,210.71426391601562,76.44913482666016,-0.17168904755410277,0.8857169232598376,87.29262937277933,-33.320988,10.78501,10.637884,73.11461,-17.495043,4.0689054,6.67477,3.5744393,-1.0776002,29.001064,-22.858812,-2.2027833,4.262686,0.5197781,14.772462,27.313692,51.059704,-35.4533,-13.661349,1.4196523,-5.449705,11.69336,-12.165017,-29.137743,39.304802,-9.813695,-11.261149,-11.933774,-15.224629
236,-1.4060285091400146,212.16053771972656,76.8808822631836,0.020760467136362308,1.2566857249586951,87.23894080573348,-33.00418,10.38855,11.754512,67.49748,-17.003431,3.8332813,7.349709,3.1760764,-1.1573589,28.939367,-20.816006,-2.0306783,4.688536,0.17713702,14.406381,28.71411,51.925014,-34.73481,-14.772191,1.3157713,-6.0197167,10.810511,-11.777172,-29.460514,39.344242,-11.176499,-10.783087,-12.004494,-14.753003
237,-1.4444167613983154,213.62110900878906,77.28875732421875,0.13039353898722228,1.5353128560398737,87.23762270643599,-32.363056,9.602131,12.418927,61.36995,-16.27116,3.097655,7.9563665,2.8521817,-1.3910465,29.173868,-18.710955,-1.9096655,5.034727,-0.07190084,14.121634,30.056595,52.66586,-34.040493,-15.747021,0.9482556,-6.4488335,10.157251,-11.223244,-29.771471,39.290295,-12.489369,-10.508331,-12.128746,-14.285724
238,-1.4881336688995361,215.09701538085938,77.66775512695312,0.16570000226364848,1.7559547519477672,87.27760400298153,-31.43227,8.585657,12.673485,54.735546,-15.331523,2.056607,8.477067,2.597882,-1.7567081,29.664856,-16.490942,-1.8124062,5.3124094,-0.23485826,13.882239,31.313538,53.27637,-33.391956,-16.57306,0.35214397,-6.749122,9.703896,-10.523087,-30.06241,39.159733,-13.735029,-10.3673115,-12.299864,-13.833911
239,-1.5245016813278198,216.6056365966797,78.00360107421875,0.12118851810704784,1.8906279484569224,87.3526642429174,-30.267483,7.54578,12.622262,47.99992,-14.32048,0.89926386,8.965359,2.4334893,-2.1935496,30.383183,-14.314612,-1.7019272,5.520061,-0.29963475,13.695543,32.46275,53.763187,-32.802654,-17.273615,-0.27681756,-6.979377,9.391702,-9.716998,-30.329836,38.98255,-14.880223,-10.320805,-12.480361,-13.413676
