unveil-humanoid-operators/unveil-humanoid-operators.github.io/feature-analysis-animation/data/feature_matrix_instances/age_waist_mean_vel_jogging_A031_jog_sideway_045_start_002__A031.csv
Frame,root_translateX,root_translateY,root_translateZ,root_rotateX,root_rotateY,root_rotateZ,left_hip_pitch_joint_dof,left_hip_roll_joint_dof,left_hip_yaw_joint_dof,left_knee_joint_dof,left_ankle_pitch_joint_dof,left_ankle_roll_joint_dof,right_hip_pitch_joint_dof,right_hip_roll_joint_dof,right_hip_yaw_joint_dof,right_knee_joint_dof,right_ankle_pitch_joint_dof,right_ankle_roll_joint_dof,waist_yaw_joint_dof,waist_roll_joint_dof,waist_pitch_joint_dof,left_shoulder_pitch_joint_dof,left_shoulder_roll_joint_dof,left_shoulder_yaw_joint_dof,left_elbow_joint_dof,left_wrist_roll_joint_dof,left_wrist_pitch_joint_dof,left_wrist_yaw_joint_dof,right_shoulder_pitch_joint_dof,right_shoulder_roll_joint_dof,right_shoulder_yaw_joint_dof,right_elbow_joint_dof,right_wrist_roll_joint_dof,right_wrist_pitch_joint_dof,right_wrist_yaw_joint_dof
0,0.498182475566864,2.546102285385132,78.54875946044922,-0.797704181015532,0.7866740523063519,-91.99560793642121,2.2756796,5.1222615,8.113248,9.962099,-13.23934,-4.5293083,1.9556271,-3.2181823,-12.301222,6.8998666,-8.94282,5.044205,-0.32668015,0.7225666,3.2885349,-5.467944,11.50524,-55.694756,72.595184,-3.243693,7.047732,2.022868,-5.5044756,-9.607197,48.05156,70.13378,1.7486651,0.53163487,-4.712246
1,0.5041963458061218,2.5605921745300293,78.55298614501953,-0.7975507914761744,0.823817417545296,-92.04905064738682,2.1907742,5.1255455,8.156127,10.036775,-13.257375,-4.5005336,1.8759468,-3.2184405,-12.244192,6.901604,-8.871872,5.0169873,-0.29172125,0.7368947,3.294771,-5.49217,11.4959,-55.62535,72.57483,-3.217942,7.064562,2.0596826,-5.57084,-9.591494,48.052967,70.17509,1.7710419,0.51166785,-4.707536
2,0.5158448219299316,2.587979316711426,78.55496215820312,-0.7937002223827877,0.8586415379341014,-92.10089887761693,2.1069548,5.1261935,8.197439,10.118173,-13.281662,-4.472776,1.7865233,-3.2251358,-12.185331,6.9362144,-8.823689,4.992037,-0.26229066,0.74860007,3.3007643,-5.5132585,11.484544,-55.550106,72.55551,-3.1871028,7.0831122,2.0942879,-5.6326823,-9.581536,48.06028,70.21015,1.7946112,0.49171224,-4.698513
3,0.5247947573661804,2.6086063385009766,78.55585479736328,-0.7868506620597288,0.8995443187379627,-92.15810736798741,2.0108001,5.1232033,8.244639,10.20666,-13.304745,-4.44254,1.6839063,-3.2368462,-12.125148,6.973448,-8.766058,4.9650292,-0.2206375,0.7580869,3.3063858,-5.5375314,11.476101,-55.48095,72.53043,-3.1617818,7.0980477,2.1335564,-5.69412,-9.578213,48.059746,70.23876,1.8177811,0.47289827,-4.697104
4,0.5389890670776367,2.6405389308929443,78.55484771728516,-0.7726698274336441,0.9552151688661076,-92.22892753773421,1.8828763,5.1121793,8.306484,10.316046,-13.326692,-4.406242,1.3978441,-3.2930756,-12.052664,7.3446302,-8.857945,4.933223,-0.18636572,0.7681688,3.3185563,-5.569407,11.458939,-55.364864,72.503975,-3.1259584,7.101612,2.1829062,-5.782607,-9.57606,48.06977,70.27364,1.8368424,0.45756048,-4.7134976
5,0.5526581406593323,2.68477463722229,78.55536651611328,-0.7513358988568797,1.0267729956998142,-92.31617017121272,1.7230272,5.093046,8.386914,10.445647,-13.347183,-4.36169,0.9654434,-3.3849914,-11.972607,7.965667,-9.0527,4.8970847,-0.12785861,0.77234,3.330474,-5.612347,11.442558,-55.25463,72.47265,-3.106248,7.0937395,2.253809,-5.882123,-9.577655,48.076168,70.30717,1.8564216,0.4462862,-4.7556148
6,0.5709100961685181,2.73346209526062,78.55746459960938,-0.7235263321681725,1.1097542365720887,-92.4147924294236,1.539025,5.066836,8.480404,10.5916605,-13.367112,-4.31077,0.47575313,-3.4928913,-11.889587,8.662044,-9.268182,4.858754,-0.071192466,0.7756216,3.3464308,-5.661261,11.418712,-55.1143,72.44246,-3.0805573,7.075556,2.3389869,-5.999169,-9.583252,48.093033,70.34199,1.8733466,0.43859896,-4.8142786
7,0.5950944423675537,2.7841835021972656,78.55904388427734,-0.6865973895076595,1.2059852233494686,-92.5229981172559,1.3321327,5.028985,8.584269,10.74456,-13.3803215,-4.255907,-0.07478764,-3.6193602,-11.795822,9.434863,-9.500516,4.8168893,-0.0038887437,0.77387065,3.3622918,-5.717554,11.392912,-54.9619,72.40659,-3.055203,7.0507607,2.4211214,-6.1262236,-9.592724,48.09497,70.37621,1.8869455,0.4315988,-4.8832884
8,0.6216076612472534,2.8449902534484863,78.5595932006836,-0.6378366556504489,1.3169863216607771,-92.63779417062936,1.0968958,4.976319,8.694509,10.908668,-13.3875885,-4.199595,-0.6856217,-3.7667346,-11.68412,10.277002,-9.743944,4.770286,0.06446428,0.7683331,3.3788426,-5.777664,11.361446,-54.76876,72.36133,-3.007659,7.0209007,2.4820247,-6.26576,-9.608274,48.07296,70.40769,1.8947126,0.4232701,-4.954055
9,0.6492634415626526,2.917912483215332,78.56035614013672,-0.5773086492940811,1.4459873940295902,-92.76352500898996,0.8365091,4.9086895,8.814516,11.072242,-13.38321,-4.145051,-1.36639,-3.933881,-11.54526,11.198669,-9.999914,4.7106,0.139566,0.7609206,3.391451,-5.843224,11.322813,-54.549427,72.307076,-2.9571998,6.984482,2.506715,-6.420247,-9.632587,48.033722,70.443634,1.8992362,0.41333267,-5.0330067
10,0.6832454800605774,2.993269920349121,78.56079864501953,-0.505143436670298,1.591265051132434,-92.89983068140863,0.54857165,4.827072,8.9450035,11.245208,-13.373151,-4.0898767,-2.1164618,-4.1210275,-11.384237,12.203963,-10.272699,4.642194,0.22791843,0.7477208,3.4017076,-5.913615,11.285438,-54.31605,72.23874,-2.9072616,6.9419494,2.5080073,-6.5858397,-9.660951,47.971664,70.482025,1.8971477,0.4027202,-5.121785
11,0.7225092649459839,3.079789400100708,78.55805969238281,-0.4197347402244508,1.746594300685745,-93.03741045003126,0.2393132,4.7275834,9.079583,11.423444,-13.353314,-4.0283585,-2.8997512,-4.326428,-11.216566,13.236298,-10.539688,4.581549,0.3161509,0.72488725,3.4189258,-5.988481,11.249676,-54.04111,72.15942,-2.8233688,6.8962893,2.509862,-6.7600284,-9.693583,47.87396,70.50946,1.886211,0.39099824,-5.2047353
12,0.7676092982292175,3.1731207370758057,78.55313110351562,-0.3201894926126698,1.9057083704402817,-93.16676708418767,-0.08902176,4.6077957,9.211491,11.610999,-13.324276,-3.9550452,-3.689837,-4.5506144,-11.057435,14.258991,-10.787638,4.544268,0.38813984,0.69505405,3.4548655,-6.0698347,11.205198,-53.687344,72.07721,-2.663805,6.8502693,2.5366476,-6.9357095,-9.743466,47.73034,70.49969,1.8642087,0.37918112,-5.2652698
13,0.8178694844245911,3.2824721336364746,78.54816436767578,-0.2023978404710208,2.073268721638069,-93.29057211432284,-0.44134936,4.4643908,9.344929,11.807706,-13.284142,-3.8680913,-4.485644,-4.7969666,-10.908769,15.258845,-11.017404,4.533595,0.45601565,0.6472125,3.5018206,-6.153377,11.163765,-53.271946,71.986435,-2.4031203,6.8081756,2.5775027,-7.1108418,-9.802294,47.525105,70.45682,1.835491,0.36552402,-5.298398
14,0.8709794878959656,3.3928065299987793,78.54236602783203,-0.06898157587995117,2.250330056641424,-93.41207232330312,-0.8175572,4.300767,9.481709,12.013009,-13.233976,-3.7708344,-5.3032193,-5.064642,-10.762407,16.265154,-11.2370825,4.540372,0.51889104,0.58607346,3.5591266,-6.237939,11.126825,-52.79721,71.88244,-2.063552,6.7676578,2.6251552,-7.290822,-9.870615,47.272606,70.388664,1.8003887,0.35072154,-5.3126435
15,0.9265490770339966,3.514979362487793,78.53626251220703,0.07151695630850577,2.425391508413812,-93.52233378030095,-1.2088721,4.1247406,9.611126,12.232218,-13.17903,-3.665768,-6.124802,-5.3450146,-10.618899,17.268293,-11.436896,4.560446,0.5730028,0.5227914,3.6407468,-6.329152,11.097454,-52.263893,71.75815,-1.7045169,6.72439,2.709066,-7.4764895,-9.944757,46.971767,70.297676,1.7441216,0.33539927,-5.31518
16,0.9910188913345337,3.64534068107605,78.52986145019531,0.210515346113107,2.586858865927701,-93.61228751034825,-1.6080143,3.9442227,9.722264,12.4723625,-13.125372,-3.5553997,-6.930806,-5.6295986,-10.48054,18.254917,-11.6049,4.590947,0.61039126,0.4725259,3.7629964,-6.43518,11.072108,-51.66476,71.61034,-1.3816097,6.6736307,2.8589714,-7.6634026,-10.038371,46.62782,70.17014,1.6539936,0.32197335,-5.31177
17,1.0624208450317383,3.7883832454681396,78.52528381347656,0.3489680426829045,2.7323030196353124,-93.68412254877936,-2.0076394,3.757231,9.817288,12.723297,-13.06662,-3.4370942,-7.7216864,-5.9194026,-10.345864,19.228287,-11.736699,4.633908,0.63766426,0.43305886,3.9300911,-6.5527887,11.053076,-50.983604,71.435524,-1.1114957,6.6121726,3.082741,-7.8559,-10.147368,46.23138,70.010315,1.5061191,0.31475237,-5.2991366
18,1.1443719863891602,3.938161611557007,78.51698303222656,0.4903561232984864,2.867579246842283,-93.74093434917569,-2.415372,3.5617018,9.900421,12.988397,-13.003872,-3.3110166,-8.507709,-6.2179303,-10.214223,20.196394,-11.840138,4.6898355,0.65376794,0.399887,4.134008,-6.6794934,11.040631,-50.22599,71.23466,-0.86333144,6.545095,3.3645108,-8.052991,-10.273641,45.783764,69.81749,1.3116593,0.31193575,-5.2751737
19,1.224083423614502,4.094643592834473,78.51031494140625,0.6298912577515413,2.9939494945584,-93.77630592457948,-2.8414078,3.3632755,9.96431,13.286214,-12.948993,-3.183647,-9.27914,-6.520773,-10.089153,21.14381,-11.919473,4.7537127,0.653523,0.37780863,4.3698044,-6.824385,11.03479,-49.434658,71.0154,-0.62407863,6.4756627,3.6978693,-8.248366,-10.4186535,45.30199,69.58733,1.1223536,0.3040825,-5.249053
20,1.3155088424682617,4.2663750648498535,78.50139617919922,0.7633221414948341,3.112504970454954,-93.78356400573429,-3.2978668,3.1676445,10.001508,13.639579,-12.915372,-3.0614374,-10.028808,-6.8240256,-9.974049,22.060244,-11.981186,4.820242,0.6326618,0.3716065,4.6318035,-6.997165,11.035807,-48.655975,70.78105,-0.38352287,6.411868,4.0765834,-8.432911,-10.583314,44.797188,69.31422,0.9840857,0.28217715,-5.2299304
21,1.4063907861709595,4.443012714385986,78.49441528320312,0.8941925737020733,3.219277748404294,-93.76335047671871,-3.7801,2.9695196,10.013316,14.044881,-12.897758,-2.9243546,-10.755916,-7.1321383,-9.865186,22.949736,-12.024542,4.8853145,0.5941576,0.37842432,4.929246,-7.198855,11.04285,-47.87423,70.52468,-0.15148756,6.367941,4.497449,-8.605262,-10.769361,44.24818,68.99382,0.90184444,0.24843773,-5.2176943
22,1.5085930824279785,4.625786304473877,78.48117065429688,1.023623058380729,3.315089997720799,-93.71851781737172,-4.2861886,2.7677832,10.002958,14.497021,-12.892417,-2.7764518,-11.464881,-7.44622,-9.762039,23.816277,-12.04723,4.951719,0.5407621,0.39669436,5.2616167,-7.4267845,11.055595,-47.076122,70.24818,0.070238926,6.3364506,4.9640136,-8.767774,-10.977488,43.655243,68.62507,0.8540597,0.20646028,-5.207806
23,1.6208080053329468,4.819865703582764,78.46330261230469,1.1432466130073078,3.407977982961704,-93.64584512267881,-4.8215976,2.5728261,9.966152,14.9949045,-12.911601,-2.6599474,-12.157193,-7.757836,-9.672817,24.653582,-12.055381,5.024089,0.4665242,0.4317896,5.6083455,-7.6834373,11.075374,-46.30879,69.969284,0.30605036,6.292445,5.4806504,-8.920186,-11.208146,43.059673,68.21699,0.84280306,0.14904897,-5.2033195
24,1.7352545261383057,5.021496295928955,78.44035339355469,1.245667015164105,3.5059964144888736,-93.5423298211175,-5.390602,2.3936918,9.898746,15.535726,-12.96672,-2.6163428,-12.83446,-8.059207,-9.605703,25.45498,-12.054856,5.1070137,0.3667012,0.48796827,5.9490976,-7.9668818,11.103855,-45.610798,69.701584,0.59171474,6.2118373,6.051733,-9.062333,-11.461724,42.50462,67.778725,0.87346584,0.06847466,-5.2073574
25,1.8444700241088867,5.227551460266113,78.41475677490234,1.3284116582583363,3.614890852568065,-93.40521186112868,-6.0138063,2.228264,9.782902,16.130781,-13.052521,-2.6366055,-13.511248,-8.348884,-9.556041,26.229622,-12.034583,5.205068,0.23830873,0.5707934,6.2866063,-8.2824,11.141613,-44.990913,69.44795,0.9685338,6.077519,6.6714296,-9.191262,-11.7382145,41.976673,67.300285,0.95291936,-0.038250964,-5.2247343
26,1.9685295820236206,5.439323425292969,78.3809814453125,1.3972080864239964,3.729098079479039,-93.23702525327509,-6.6835346,2.071199,9.627022,16.781317,-13.167497,-2.7045717,-14.181642,-8.632648,-9.521509,26.977242,-11.996985,5.313806,0.08526704,0.67431265,6.6294227,-8.628426,11.188453,-44.42848,69.20049,1.4102181,5.9083977,7.3402295,-9.306293,-12.03763,41.458897,66.779305,1.0757602,-0.16669032,-5.2522244
27,2.101191759109497,5.655072212219238,78.33892059326172,1.4563297596111358,3.8394306319290674,-93.04267439719384,-7.362316,1.927887,9.466004,17.471636,-13.333479,-2.850882,-14.825051,-8.915903,-9.512922,27.693748,-11.971655,5.42474,-0.089240916,0.7857872,6.9666805,-8.997625,11.2455225,-43.928764,68.958115,1.8357289,5.733383,8.0719385,-9.411654,-12.360227,40.992447,66.23617,1.2292808,-0.31306633,-5.280622
28,2.2317726612091064,5.865033149719238,78.2889404296875,1.5110865503144897,3.936982407691829,-92.82700052042935,-8.023174,1.8052303,9.334684,18.207916,-13.575705,-3.1055918,-15.414785,-9.204849,-9.541459,28.362713,-11.986059,5.529831,-0.2830048,0.89200485,7.2873087,-9.379699,11.314774,-43.493275,68.71641,2.1671875,5.5797048,8.879504,-9.508617,-12.705194,40.6188,65.68928,1.3998128,-0.4735997,-5.3009405
29,2.3590381145477295,6.073812484741211,78.22626495361328,1.5534318016434678,4.028250061901309,-92.58636831573291,-8.656053,1.6941106,9.201593,18.919102,-13.883257,-3.5944223,-15.95055,-9.493623,-9.622695,28.974655,-12.044559,5.6227283,-0.50425154,1.0007676,7.5873613,-9.775281,11.397792,-43.14104,68.49078,2.425901,5.4417543,9.806881,-9.597819,-13.073511,40.350857,65.116066,1.5459086,-0.6287333,-5.3102684
30,2.4946365356445312,6.275925636291504,78.15667724609375,1.5874588325095222,4.115221247904652,-92.31979793324217,-9.286288,1.5937731,9.065589,19.648272,-14.257449,-4.2603135,-16.444614,-9.786621,-9.74491,29.540218,-12.134,5.7095494,-0.75221133,1.1111562,7.8735557,-10.1855135,11.49458,-42.862465,68.273384,2.6426399,5.3087277,10.832789,-9.6755495,-13.4650755,40.165142,64.512146,1.6854867,-0.7859205,-5.313666
31,2.6287143230438232,6.475175380706787,78.07986450195312,1.6347531060817495,4.182308933296112,-92.03587686990471,-9.924198,1.5255413,9.004447,20.537659,-14.730422,-4.8598366,-16.89543,-10.10388,-9.880576,30.085735,-12.260181,5.8011084,-1.0125674,1.1995271,8.14952,-10.603567,11.605339,-42.623764,68.02714,2.7421076,5.196024,11.872148,-9.746592,-13.877067,40.058086,63.9377,1.9013948,-0.9854766,-5.3141212
32,2.7657594680786133,6.673432350158691,77.9975814819336,1.7115296787529553,4.214412161779189,-91.74309137663633,-10.578557,1.516081,9.086883,21.724733,-15.333951,-5.148716,-17.29828,-10.458545,-10.003724,30.63079,-12.424858,5.9073234,-1.2729671,1.2479366,8.418202,-11.020962,11.73123,-42.386364,67.71404,2.6514542,5.1159606,12.839584,-9.813522,-14.30292,40.02274,63.452473,2.271244,-1.2674556,-5.3139515
33,2.9070003032684326,6.868527889251709,77.91588592529297,1.828170208869975,4.213862573103724,-91.43097840946612,-11.258559,1.5644063,9.341658,23.240078,-16.101706,-5.021706,-17.648067,-10.866389,-10.119901,31.165174,-12.637016,6.033496,-1.5408143,1.243699,8.672158,-11.439091,11.874509,-42.157406,67.33869,2.2961476,5.076505,13.757981,-9.891498,-14.741144,40.10608,63.068066,2.8386521,-1.6557788,-5.3086243
34,3.0476813316345215,7.05743408203125,77.82484436035156,1.9647139350871436,4.186266440990255,-91.0994908749034,-11.947586,1.6744195,9.714761,24.995173,-17.002539,-4.6199074,-17.944288,-11.306418,-10.243568,31.676111,-12.888592,6.1725693,-1.8225584,1.2083708,8.911674,-11.857639,12.03646,-41.949207,66.912094,1.7315912,5.0614066,14.657148,-9.979745,-15.190379,40.29975,62.76076,3.555437,-2.1252172,-5.2952228
35,3.182788848876953,7.242547035217285,77.73434448242188,2.0877017623004326,4.120280711363227,-90.77268037676323,-12.5965605,1.8824972,10.149023,26.912083,-17.959795,-4.070174,-18.183546,-11.732515,-10.366271,32.170498,-13.152934,6.3150005,-2.1029458,1.1778427,9.150362,-12.262766,12.215577,-41.72712,66.406395,1.0852071,5.049664,15.462272,-10.058911,-15.642009,40.51212,62.54407,4.360213,-2.6427267,-5.2788854
36,3.320438861846924,7.419362545013428,77.63862609863281,2.1660308576155085,4.005251942712749,-90.47473525169161,-13.162325,2.2213118,10.589491,28.923685,-18.89869,-3.4985466,-18.36314,-12.099866,-10.477327,32.65609,-13.403567,6.4510517,-2.3658154,1.1854483,9.401484,-12.645121,12.409125,-41.463512,65.79999,0.47816768,5.0252013,16.098604,-10.109357,-16.082266,40.650597,62.435234,5.192755,-3.1757393,-5.266809
37,3.463914155960083,7.596201419830322,77.53488159179688,2.190154697875014,3.8307325976731414,-90.21099213209652,-13.627824,2.7266219,11.078894,31.056448,-19.81723,-2.8788822,-18.466896,-12.396457,-10.575727,33.126328,-13.638036,6.577621,-2.6052332,1.2398014,9.66986,-13.005627,12.614755,-41.138916,65.09589,-0.11687991,5.0050306,16.51969,-10.149208,-16.504183,40.75193,62.487144,6.1000934,-3.7788153,-5.2443647
38,3.6161155700683594,7.768044471740723,77.4284439086914,2.171579420027749,3.6043999986948774,-89.9699888649247,-14.004916,3.38303,11.618018,33.31335,-20.745937,-2.159019,-18.49809,-12.641413,-10.668937,33.578114,-13.86825,6.698939,-2.8317757,1.3267533,9.947033,-13.348001,12.832105,-40.76877,64.3108,-0.7436542,4.992508,16.77469,-10.1868925,-16.904894,40.84505,62.68862,7.0916467,-4.4490004,-5.2103252
39,3.7631657123565674,7.935639381408691,77.32128143310547,2.114836742854673,3.343023946415599,-89.75015206242385,-14.296352,4.1338644,12.09911,35.590942,-21.650444,-1.4331896,-18.485289,-12.842168,-10.757266,34.026684,-14.090816,6.816734,-3.050497,1.4403782,10.22474,-13.668743,13.061908,-40.385365,63.43805,-1.3079323,4.9609094,16.932,-10.188161,-17.275915,40.826393,62.966732,8.0546055,-5.0689163,-5.1983776
40,3.9189138412475586,8.08653736114502,77.21018981933594,2.0272505905611937,3.0635816354391903,-89.5495119640018,-14.513709,4.9118147,12.4217,37.794956,-22.495031,-0.7978244,-18.458548,-13.008243,-10.8399105,34.489304,-14.302899,6.933255,-3.2626615,1.5709817,10.493909,-13.965826,13.304144,-40.023243,62.4748,-1.7133098,4.879875,17.060345,-10.1136055,-17.607073,40.582485,63.248573,8.867959,-5.522429,-5.247886
41,4.068886756896973,8.238093376159668,77.09322357177734,1.9003885438846504,2.7571406282652666,-89.37241764005749,-14.649012,5.7144623,12.570267,39.934464,-23.274483,-0.27000627,-18.402042,-13.123583,-10.921192,34.95704,-14.504691,7.0429764,-3.4618707,1.7274259,10.761862,-14.243105,13.55844,-39.692474,61.42503,-1.9119254,4.74559,17.162724,-9.953171,-17.888445,40.059986,63.546703,9.462873,-5.779979,-5.3448606
42,4.230043888092041,8.399785041809082,76.9661865234375,1.735499356339011,2.41922228313699,-89.21793988269263,-14.700424,6.5597277,12.602713,42.04488,-23.998793,0.19275725,-18.307919,-13.190523,-10.998906,35.426517,-14.698076,7.147071,-3.6456516,1.9077624,11.028309,-14.500689,13.823509,-39.377773,60.29177,-1.961411,4.5744004,17.208527,-9.726382,-18.117271,39.322186,63.898697,9.913502,-5.903884,-5.4827504
43,4.398593425750732,8.549610137939453,76.83672332763672,1.5572392245679965,2.073856723396391,-89.07576144353526,-14.696444,7.406509,12.533895,44.081043,-24.655712,0.5789282,-18.2216,-13.248368,-11.061873,35.92745,-14.885567,7.2588377,-3.8232358,2.0869117,11.273598,-14.737555,14.098417,-39.086258,59.070614,-1.9390593,4.365142,17.215063,-9.436692,-18.294151,38.432102,64.26735,10.313142,-5.9209714,-5.7135186
44,4.576901912689209,8.693609237670898,76.69984436035156,1.3914483547818512,1.745225886655676,-88.9357993651623,-14.668995,8.215684,12.376909,46.00298,-25.23654,0.87885636,-18.18922,-13.33684,-11.09904,36.49021,-15.0693655,7.3920007,-4.002811,2.2381194,11.476926,-14.950478,14.382011,-38.822315,57.75606,-1.9176942,4.116359,17.199001,-9.086075,-18.424433,37.451878,64.607086,10.754366,-5.853886,-6.0894456
45,4.753504753112793,8.841524124145508,76.55775451660156,1.2386625155193163,1.4345232517593596,-88.79941159971048,-14.624616,8.97519,12.110642,47.81751,-25.724344,1.0660613,-18.208323,-13.454579,-11.115591,37.111206,-15.258584,7.551478,-4.185436,2.3646145,11.635184,-15.136253,14.674322,-38.584015,56.346706,-1.8897835,3.8035598,17.164717,-8.665538,-18.507084,36.34088,64.907715,11.210488,-5.65749,-6.644542
46,4.938907623291016,8.984601974487305,76.41365814208984,1.0892503615455469,1.1308881065731542,-88.67029656398228,-14.552228,9.700577,11.742231,49.547676,-26.130745,1.1498517,-18.259882,-13.583181,-11.11521,37.778683,-15.449797,7.7317047,-4.367024,2.4767458,11.758147,-15.293567,14.975078,-38.36578,54.84129,-1.8217484,3.4357488,17.103565,-8.178111,-18.540022,35.087574,65.19042,11.653528,-5.338276,-7.3457103
47,5.130038261413574,9.135601997375488,76.2557601928711,0.9527782591209635,0.8402345500454271,-88.54235622475875,-14.459488,10.39948,11.324554,51.181915,-26.493576,1.177388,-18.36445,-13.736821,-11.0857115,38.508118,-15.6252365,7.9303856,-4.548878,2.561334,11.845507,-15.432112,15.284115,-38.17728,53.238365,-1.7618533,3.0621252,17.012793,-7.642269,-18.529236,33.798004,65.45222,12.174213,-5.001732,-8.143725
48,5.334649085998535,9.282103538513184,76.09371948242188,0.8402590073028384,0.5686888881249657,-88.40987462177443,-14.354089,11.081025,10.906548,52.706818,-26.849606,1.1992781,-18.544428,-13.929324,-11.011744,39.318104,-15.767879,8.144576,-4.735166,2.6046028,11.897038,-15.554686,15.601475,-38.018475,51.53093,-1.7500638,2.7324142,16.888693,-7.078184,-18.487154,32.583324,65.68904,12.863136,-4.7551665,-8.989875
49,5.547050952911377,9.436397552490234,75.93214416503906,0.7537710050965888,0.32655470981457096,-88.27290684105498,-14.248645,11.738897,10.484467,54.120644,-27.211582,1.2181284,-18.822317,-14.166151,-10.886667,40.226925,-15.876683,8.370489,-4.928621,2.6035156,11.904044,-15.655016,15.928936,-37.88286,49.696312,-1.8032422,2.4564865,16.727936,-6.4881506,-18.421766,31.440657,65.89393,13.788348,-4.6121254,-9.938527
50,5.750551700592041,9.596213340759277,75.76372528076172,0.6911426059054191,0.10773642453752323,-88.13421622620531,-14.139194,12.372755,10.037529,55.43492,-27.561321,1.2116866,-19.180374,-14.436628,-10.719024,41.21934,-15.959636,8.613716,-5.128091,2.5671148,11.870493,-15.727206,16.267937,-37.76657,47.734646,-1.8954028,2.210109,16.532179,-5.858645,-18.334286,30.323877,66.05837,14.888104,-4.529762,-10.992803
51,5.969516277313232,9.75748062133789,75.59325408935547,0.6437068535319009,-0.10641649379243164,-87.99171436291178,-14.011713,13.00351,9.588505,56.66292,-27.890673,1.1941365,-19.577534,-14.731995,-10.517022,42.25851,-16.011017,8.88525,-5.331997,2.4988601,11.814003,-15.783155,16.618746,-37.68171,45.68054,-2.0103824,1.9916139,16.30521,-5.1876173,-18.231245,29.279434,66.18015,16.053282,-4.5270853,-12.025641
52,6.2024078369140625,9.92167854309082,75.41866302490234,0.6075254570871033,-0.33460896101932336,-87.84316318218139,-13.849116,13.651599,9.16053,57.810772,-28.1924,1.1798534,-19.974495,-15.044305,-10.288196,43.309917,-16.026285,9.194305,-5.540887,2.4031923,11.753413,-15.832045,16.980486,-37.636166,43.565014,-2.1291797,1.7989984,16.050945,-4.473311,-18.120882,28.356796,66.25483,17.177343,-4.6142154,-12.909101
53,6.436589241027832,10.097347259521484,75.23902130126953,0.5805948165204362,-0.5784578137020491,-87.68741712733848,-13.652481,14.318255,8.751739,58.88601,-28.465818,1.1834126,-20.377998,-15.378835,-10.031719,44.39013,-15.995061,9.551872,-5.7563124,2.2774746,11.690734,-15.8723345,17.354591,-37.632385,41.376823,-2.2657242,1.6233292,15.758236,-3.710466,-18.009731,27.567854,66.27517,18.322147,-4.824892,-13.632019
54,6.68417501449585,10.260217666625977,75.0571517944336,0.5686451648704332,-0.8291377664911437,-87.52599625302493,-13.431048,14.995028,8.351473,59.885216,-28.715452,1.194616,-20.803453,-15.735233,-9.742438,45.507767,-15.922469,9.951276,-5.977352,2.1221774,11.61817,-15.89772,17.742325,-37.664692,39.09797,-2.4234123,1.469479,15.428809,-2.8987355,-17.900246,26.886366,66.23807,19.51468,-5.1387825,-14.249765
55,6.941275119781494,10.430540084838867,74.87123107910156,0.5639678739717102,-1.0898553362966694,-87.36075091157375,-13.177785,15.69226,7.9744897,60.799675,-28.938297,1.1889204,-21.223831,-16.100595,-9.425861,46.61965,-15.831015,10.37308,-6.200316,1.9462738,11.54004,-15.9133,18.141006,-37.730183,36.753056,-2.5673335,1.3547773,15.086374,-2.042581,-17.793459,26.300175,66.14593,20.594107,-5.474691,-14.736913
56,7.199251651763916,10.60519027709961,74.68301391601562,0.5600152303501134,-1.3637246684106619,-87.19346887223048,-12.886559,16.41903,7.635493,61.622932,-29.131992,1.1417755,-21.610966,-16.4631,-9.088012,47.68033,-15.741301,10.797,-6.4213157,1.7584462,11.460059,-15.92494,18.544724,-37.825382,34.37001,-2.6598468,1.2953885,14.755319,-1.1490718,-17.689936,25.798698,66.00469,21.401863,-5.748434,-15.072384
57,7.471711158752441,10.791696548461914,74.48876953125,0.5615689214711113,-1.6540368558228307,-87.02482945980627,-12.553184,17.161997,7.324305,62.351086,-29.28511,1.041961,-21.982698,-16.827972,-8.708333,48.719486,-15.64199,11.227994,-6.638775,1.554059,11.38259,-15.939972,18.948715,-37.95618,31.94279,-2.6745338,1.3013576,14.450081,-0.21786194,-17.591528,25.37851,65.81818,21.90149,-5.9614983,-15.23308
58,7.765809535980225,10.972299575805664,74.28626251220703,0.5717407417070501,-1.958457335608426,-86.85390911475338,-12.182132,17.922493,7.039309,62.989796,-29.402607,0.9042058,-22.345959,-17.198254,-8.29044,49.74754,-15.527731,11.673238,-6.851853,1.3317729,11.3038025,-15.958289,19.35146,-38.12548,29.465487,-2.6354053,1.3606879,14.156034,0.7553665,-17.499863,25.04258,65.582405,22.179684,-6.143276,-15.239152
59,8.061848640441895,11.146206855773926,74.08963775634766,0.5766224855724055,-2.27142043768084,-86.67994061286146,-11.77738,18.730875,6.8091254,63.5449,-29.505886,0.7427725,-22.656046,-17.56084,-7.877996,50.69044,-15.428373,12.114394,-7.0591435,1.1044421,11.214782,-15.976148,19.751745,-38.325977,26.967993,-2.5821588,1.4568751,13.853432,1.7696157,-17.415543,24.785334,65.29372,22.254751,-6.251952,-15.138133
60,8.361868858337402,11.328784942626953,73.8888931274414,0.566300497343568,-2.587420652799275,-86.50212480674699,-11.3420315,19.617134,6.6633263,64.02126,-29.615774,0.57195616,-22.868515,-17.906153,-7.5154557,51.47516,-15.373578,12.53182,-7.260231,0.8856032,11.107469,-15.992004,20.148573,-38.55073,24.483154,-2.5568142,1.5721993,13.523037,2.8260427,-17.336813,24.60022,64.945625,22.143475,-6.247062,-14.976929
61,8.675199508666992,11.513503074645996,73.68944549560547,0.533297091590428,-2.912065009740023,-86.31702960245556,-10.858769,20.612741,6.631328,64.417366,-29.734627,0.381339,-22.969131,-18.228062,-7.2028885,52.096493,-15.3818445,12.916479,-7.452035,0.6764512,10.984683,-16.016472,20.541645,-38.809387,22.012972,-2.5738263,1.7099066,13.158929,3.928812,-17.264198,24.50265,64.53564,21.798729,-6.0971074,-14.726778
62,9.00490665435791,11.697863578796387,73.495849609375,0.48852512484455957,-3.246020920677812,-86.12595244809309,-10.328414,21.69317,6.6947684,64.73131,-29.85067,0.16792472,-22.981955,-18.536879,-6.9222198,52.588726,-15.432822,13.277479,-7.635644,0.46987638,10.849224,-16.051264,20.93113,-39.104233,19.544188,-2.6114197,1.8766394,12.771863,5.077266,-17.199793,24.48757,64.06793,21.226109,-5.833668,-14.375273
63,9.331405639648438,11.878830909729004,73.30879211425781,0.43131696162589805,-3.5757784629227407,-85.93495316647426,-9.780977,22.804836,6.8099136,64.96903,-29.964968,-0.044342488,-22.922733,-18.846104,-6.690721,52.943707,-15.500523,13.621295,-7.8171043,0.26667604,10.693854,-16.068378,21.314957,-39.411583,17.076502,-2.6461759,2.061383,12.368084,6.262856,-17.142025,24.524338,63.547222,20.5287,-5.5103025,-13.993296
64,9.675786972045898,12.067167282104492,73.13372039794922,0.36724258693863876,-3.887838705132663,-85.74992165030011,-9.248309,23.894209,6.9312987,65.13693,-30.07942,-0.23110251,-22.806877,-19.164745,-6.52611,53.151524,-15.557671,13.954255,-8.001548,0.06717149,10.510116,-16.049704,21.691145,-39.71097,14.619211,-2.6609144,2.2528338,11.953653,7.475277,-17.08867,24.581285,62.98085,19.808464,-5.1778464,-13.653803
65,10.02901554107666,12.260662078857422,72.96967315673828,0.28928914363614716,-4.18352778423528,-85.55944484861648,-8.730204,25.009207,7.0868344,65.2453,-30.226608,-0.35463536,-22.604143,-19.50313,-6.470929,53.194817,-15.657636,14.269148,-8.192705,-0.12760985,10.291873,-16.00794,22.059214,-40.01468,12.172037,-2.6612723,2.4676073,11.547588,8.724463,-17.03799,24.692093,62.371754,19.051704,-4.847329,-13.367545
66,10.42149543762207,12.464420318603516,72.82213592529297,0.19693026375601932,-4.468221339491316,-85.3643719805506,-8.210676,26.156698,7.2893825,65.289566,-30.395126,-0.43862203,-22.317587,-19.85517,-6.5046496,53.08399,-15.793278,14.564621,-8.3871155,-0.31914228,10.044875,-15.947541,22.419003,-40.327026,9.731895,-2.6507251,2.7045279,11.140834,10.012687,-16.990408,24.858112,61.71482,18.216557,-4.4919324,-13.09803
67,10.837310791015625,12.669836044311523,72.69895935058594,0.09596630296781064,-4.732598413400219,-85.19469562037689,-7.703156,27.237652,7.4664245,65.2539,-30.522064,-0.5536774,-22.013832,-20.194641,-6.553292,52.846798,-15.845145,14.852319,-8.572885,-0.4971171,9.779425,-15.842191,22.768482,-40.61677,7.3061733,-2.611621,2.9245088,10.697299,11.316866,-16.945023,24.998747,61.009956,17.366602,-4.108679,-12.8454485
68,11.268105506896973,12.908178329467773,72.5941390991211,-0.039835554478323966,-4.961481569242637,-85.09248563036952,-7.23139,28.189821,7.5372267,65.12808,-30.546732,-0.7803644,-21.758879,-20.458313,-6.5765243,52.495182,-15.685319,15.000033,-8.7247505,-0.6257292,9.50465,-15.670968,23.104185,-40.854504,4.907918,-2.5284934,3.0878663,10.180982,12.614976,-16.900791,25.031376,60.25468,16.564571,-3.6930053,-12.610399
69,11.726700782775879,13.159258842468262,72.51956176757812,-0.15924907508241687,-5.163124858149297,-85.03790152843573,-6.7856193,28.96586,7.5211544,64.90299,-30.481134,-1.089758,-21.576435,-20.712893,-6.541281,52.088573,-15.337022,15.000033,-8.856876,-0.75690424,9.219793,-15.441774,23.424383,-41.039734,2.5149853,-2.3962638,3.1993449,9.574476,13.925295,-16.853888,24.943382,59.423447,15.768771,-3.2051573,-12.397142
70,12.217796325683594,13.439223289489746,72.47781372070312,-0.26795080684806116,-5.341678707296704,-85.01854255439777,-6.3609414,29.607307,7.444122,64.58871,-30.35294,-1.4531642,-21.430037,-20.965752,-6.461384,51.6024,-14.849556,15.000033,-8.973459,-0.88893616,8.921714,-15.168676,23.728214,-41.187866,0.13514473,-2.2253773,3.2728202,8.899387,15.254127,-16.801392,24.772839,58.52154,14.964968,-2.6590524,-12.201984
71,12.758511543273926,13.730020523071289,72.4721450805664,-0.3743285813985743,-5.496457411972693,-85.04334908727105,-5.9626145,30.055092,7.249249,64.17469,-30.114285,-1.9166191,-21.300358,-21.194006,-6.3303294,50.97677,-14.168418,15.000033,-9.078448,-1.0063918,8.620704,-14.833109,24.011461,-41.292538,-2.1753068,-2.017231,3.2817674,8.178144,16.560457,-16.744825,24.51488,57.59357,14.256646,-2.1305563,-12.016844
72,13.326210021972656,14.046552658081055,72.50996398925781,-0.4897870604003097,-5.6267733108442926,-85.12159806662143,-5.594345,30.249458,6.878172,63.649334,-29.719831,-2.5267696,-21.167791,-21.374264,-6.141192,50.15353,-13.240663,15.000033,-9.175645,-1.09232,8.327209,-14.416075,24.266605,-41.34771,-4.359125,-1.7723927,3.1996343,7.433689,17.803905,-16.688673,24.165731,56.682037,13.749127,-1.6943693,-11.836431
73,13.93290901184082,14.387080192565918,72.58734130859375,-0.6175881694507722,-5.733925290018215,-85.2576257399073,-5.236315,30.178404,6.3170285,62.9886,-29.191929,-3.3302062,-21.036787,-21.4955,-5.8771405,49.141453,-12.067936,15.000033,-9.264736,-1.1379796,8.039739,-13.915932,24.48549,-41.340492,-6.4239216,-1.4531196,3.0073195,6.6414094,18.997866,-16.63579,23.717527,55.77233,13.491779,-1.3586345,-11.686555
74,14.583314895629883,14.755505561828613,72.70367431640625,-0.7522130882090662,-5.818278342297584,-85.44513579940667,-4.8865747,29.873606,5.5899987,62.20522,-28.558477,-4.289717,-20.912842,-21.573275,-5.545213,47.96451,-10.6750765,15.000033,-9.344468,-1.1518284,7.7537813,-13.34812,24.66296,-41.279694,-8.38253,-1.0732783,2.719592,5.8002505,20.157394,-16.585787,23.17694,54.848324,13.423988,-1.0846754,-11.56409
75,15.268388748168945,15.136234283447266,72.85902404785156,-0.8861222043385698,-5.87731216818432,-85.67798487027628,-4.575584,29.33924,4.692314,61.346645,-27.78396,-5.3296614,-20.77881,-21.625845,-5.1727314,46.587677,-9.045441,15.000033,-9.417922,-1.1414616,7.4744787,-12.72341,24.7959,-41.19181,-10.180816,-0.7148569,2.3631825,4.968571,21.247274,-16.536747,22.561848,53.95066,13.48377,-0.87737375,-11.420575
76,15.9866361618042,15.550931930541992,73.05022430419922,-1.0114273787147217,-5.908380020452845,-85.9497130081752,-4.3319416,28.576359,3.6193457,60.457623,-26.825796,-6.3790526,-20.615597,-21.667269,-4.786809,44.971207,-7.158931,15.000033,-9.487846,-1.1164191,7.2067046,-12.047174,24.882095,-41.103905,-11.768026,-0.45366278,1.9681408,4.2042313,22.229239,-16.486937,21.88979,53.124268,13.607945,-0.74239093,-11.207824
77,16.73211097717285,15.992820739746094,73.27076721191406,-1.153739612695253,-5.907727883793575,-86.25720669891352,-4.1643796,27.50719,2.2357275,59.528812,-25.549986,-7.4830847,-20.395512,-21.675549,-4.400253,43.067577,-4.990948,15.000033,-9.578868,-1.0574667,6.9445353,-11.303156,24.90946,-40.99978,-13.115156,-0.2734811,1.5060902,3.5096881,23.092375,-16.4406,21.173195,52.386803,13.837785,-0.70619345,-10.914886
78,17.52765464782715,16.45876121520996,73.51380920410156,-1.3045405417216551,-5.878460762403162,-86.60354516863747,-4.0294514,26.151964,0.581822,58.542873,-24.03615,-8.674703,-20.135733,-21.65865,-3.9889631,40.915657,-2.5650108,15.000033,-9.657564,-0.968492,6.694153,-10.50754,24.89236,-40.90294,-14.266644,-0.15257809,0.97654164,2.8656456,23.87496,-16.386541,20.365257,51.699657,14.174252,-0.75527304,-10.561339
79,18.352787017822266,16.94918441772461,73.7728271484375,-1.4195440202641896,-5.826197264624497,-86.99185290053515,-3.89954,24.663427,-1.082282,57.53949,-22.54512,-9.855728,-19.886705,-21.677065,-3.526554,38.60596,0.07046135,15.000033,-9.703946,-0.89096886,6.4537582,-9.698584,24.816345,-40.830196,-15.216447,-0.13844615,0.4518964,2.273943,24.556067,-16.320545,19.494564,51.080414,14.532497,-0.8391117,-10.160549
80,19.202760696411133,17.466215133666992,74.03909301757812,-1.4533409641293134,-5.75520898460096,-87.42692425604851,-3.77576,23.20049,-2.4918907,56.55965,-21.314938,-10.909872,-19.70621,-21.78144,-2.9891374,36.23423,2.8691182,15.000033,-9.719398,-0.86239064,6.2236567,-8.883145,24.690296,-40.7668,-15.994441,-0.2799971,0.0075677433,1.7316775,25.103245,-16.256876,18.61277,50.545036,14.835003,-0.9077982,-9.728105
81,20.088895797729492,18.007503509521484,74.30462646484375,-1.4034309497759754,-5.649179413710793,-87.91704966883151,-3.6775956,21.785456,-3.5980866,55.560406,-20.351831,-11.859298,-19.56359,-21.969625,-2.3827343,33.65761,6.014826,15.000033,-9.696625,-0.8755728,5.9948454,-8.044736,24.514263,-40.721462,-16.585304,-0.66201645,-0.35974073,1.2368271,25.525423,-16.198761,17.681953,50.08491,15.081955,-0.960591,-9.268994
82,20.994966506958008,18.571523666381836,74.55535125732422,-1.2982394552095713,-5.50865960311252,-88.45791172150018,-3.6111794,20.340319,-4.528271,54.538933,-19.519625,-12.739785,-19.46192,-22.215601,-1.7077557,30.908346,9.4558935,15.000033,-9.64332,-0.91030324,5.769374,-7.1747932,24.286837,-40.690243,-16.989397,-1.2303642,-0.6782769,0.7877212,25.829199,-16.146688,16.698637,49.696255,15.3112955,-1.0197294,-8.775062
83,21.92601203918457,19.148731231689453,74.78361511230469,-1.1324256202307785,-5.361708975258515,-89.03793688097193,-3.5742407,18.877808,-5.274636,53.580833,-18.831882,-13.448509,-19.518326,-22.522709,-0.93297017,28.352144,12.794229,15.000033,-9.547016,-0.9816312,5.570293,-6.3164935,24.020197,-40.67447,-17.2602,-1.8318677,-0.9125315,0.3923619,26.007973,-16.104162,15.714917,49.37469,15.483544,-1.0693122,-8.235332
84,22.87693977355957,19.745271682739258,74.9701156616211,-0.9007280282716816,-5.235126675052065,-89.64833482534189,-3.5737278,17.41569,-5.8313046,52.771446,-18.306524,-13.882859,-19.849073,-22.891901,-0.028212942,26.340588,15.636944,15.000033,-9.396534,-1.1076387,5.4212794,-5.5010266,23.73695,-40.669518,-17.466946,-2.310537,-1.0291885,0.061563514,26.052622,-16.078844,14.785615,49.115353,15.558431,-1.0944011,-7.6394176
85,23.851703643798828,20.364253997802734,75.11031341552734,-0.5424744106851446,-5.125230286223439,-90.29209015237267,-3.6299047,15.853693,-6.2454324,52.092007,-17.914753,-13.959529,-20.597708,-23.336384,1.2158276,24.95369,18.14257,15.000033,-9.202851,-1.3404955,5.3184857,-4.7073984,23.455677,-40.66759,-17.6132,-2.6853256,-1.0014673,-0.18587022,25.96302,-16.075666,13.896921,48.921177,15.5373335,-1.0904114,-6.943345
86,24.825420379638672,20.99428939819336,75.21033477783203,-0.07807059964546689,-5.010818259972074,-90.9804331315082,-3.7488909,14.218617,-6.4904904,51.496525,-17.642189,-13.752496,-21.72222,-23.82478,2.756041,24.063189,20.421577,15.000033,-8.9665365,-1.6561099,5.249096,-3.9080226,23.185532,-40.65917,-17.699005,-3.0205736,-0.8549505,-0.35664788,25.735378,-16.098438,13.035471,48.793484,15.4375925,-1.0677196,-6.1661353
87,25.801095962524414,21.626920700073242,75.27742004394531,0.379622380744133,-4.9020544908612305,-91.71035683099574,-3.9169626,12.713799,-6.459249,51.029316,-17.53778,-13.392953,-22.986843,-24.297365,4.19062,23.601328,22.053793,15.000033,-8.672685,-1.9648073,5.230602,-3.1179419,22.938017,-40.630367,-17.786537,-3.2285502,-0.63648224,-0.47937888,25.361746,-16.153484,12.264042,48.71982,15.243907,-1.0342169,-5.391597
88,26.755136489868164,22.28437042236328,75.32170104980469,0.7218609204407194,-4.824149101362902,-92.46830236857039,-4.1139603,11.540011,-6.0589046,50.74851,-17.66454,-13.011087,-24.08594,-24.728077,5.053573,23.427334,22.6337,15.000033,-8.320133,-2.1786478,5.2925878,-2.3477614,22.727076,-40.565582,-17.9475,-3.2220597,-0.3927991,-0.58540547,24.837267,-16.249132,11.6493025,48.685505,14.942723,-0.99759686,-4.703673
89,27.69681167602539,22.961380004882812,75.32967376708984,0.9130765451876507,-4.799655913224934,-93.26352236454849,-4.303991,10.785096,-5.2039614,50.671734,-18.109978,-12.682257,-24.839006,-25.213858,4.968524,23.35691,21.733713,15.000033,-7.9175396,-2.2683222,5.4611735,-1.5700808,22.566977,-40.450123,-18.232065,-2.9198713,-0.07597916,-0.6748854,24.152039,-16.388304,11.190998,48.680687,14.465901,-0.93844765,-4.06759
90,28.618127822875977,23.637741088867188,75.29136657714844,1.0044074434498578,-4.827131264650657,-94.09039366123702,-4.4966245,10.338305,-3.9803498,50.777832,-18.8317,-12.328255,-25.346218,-25.752922,4.1829686,23.40915,19.694805,15.000033,-7.4814267,-2.2741997,5.730934,-0.7695086,22.466846,-40.284477,-18.620243,-2.3909228,0.3177435,-0.7373931,23.310469,-16.57123,10.870111,48.711296,13.844335,-0.86281335,-3.456342
91,29.522720336914062,24.322908401489258,75.22023010253906,1.0103046805452387,-4.896221970605592,-94.91372127758585,-4.740799,10.108346,-2.5553925,51.071865,-19.699644,-11.852266,-25.74987,-26.233002,2.9831533,23.788908,17.24892,14.385467,-7.024552,-2.2156441,6.082136,0.021034919,22.430485,-40.07757,-19.070292,-1.7762271,0.6751677,-0.78775233,22.330532,-16.80158,10.724682,48.785454,13.215409,-0.8120396,-2.965322
92,30.411211013793945,25.04033088684082,75.12696075439453,0.9064369147887886,-4.981260949967923,-95.72271307561493,-5.109724,10.055156,-1.0885558,51.59295,-20.608795,-11.159926,-26.195272,-26.40537,2.0898602,24.662899,15.177094,13.760672,-6.531214,-2.0525777,6.4853296,0.7679487,22.456263,-39.837593,-19.53883,-1.2172481,0.8830036,-0.83671683,21.226822,-17.084993,10.793798,48.913357,12.719013,-0.82273275,-2.6903036
93,31.30901527404785,25.784202575683594,75.01718139648438,0.7680225249434318,-5.0707082288620695,-96.49859446177366,-5.657078,10.109424,0.5144614,52.41213,-21.565151,-10.081611,-26.845118,-26.321064,1.7676727,26.270662,13.567661,13.313381,-6.020228,-1.8587223,6.928329,1.4212615,22.547417,-39.579304,-20.04622,-0.6602616,0.91901565,-0.87485725,19.964094,-17.43226,11.127511,49.09414,12.399398,-0.9035305,-2.673022
94,32.21424102783203,26.535987854003906,74.88887786865234,0.6009756875535469,-5.174963008034504,-97.25075426923604,-6.3259478,10.292468,2.2936063,53.488438,-22.620594,-8.704811,-27.648472,-26.089756,1.7768419,28.557964,12.010087,13.017934,-5.5011287,-1.632462,7.4199347,2.0271466,22.704473,-39.289566,-20.618887,-0.06337314,0.8406309,-0.8978613,18.54001,-17.839104,11.696479,49.31488,12.185825,-1.0298017,-2.8548973
95,33.109466552734375,27.306142807006836,74.74388122558594,0.4396277602317255,-5.319407650899061,-97.94435697406,-6.9982677,10.475448,4.0308228,54.61233,-23.67568,-7.2658772,-28.500498,-25.76531,2.0892844,31.356277,10.485599,12.872456,-5.0009427,-1.4055787,7.960253,2.6866121,22.9156,-38.943386,-21.200495,0.42003685,0.65501404,-0.9227299,17.026854,-18.281868,12.414949,49.567604,12.042109,-1.1884286,-3.182697
96,34.00477981567383,28.06357192993164,74.58313751220703,0.321154505492802,-5.531148965321306,-98.54295104508506,-7.5632763,10.521036,5.516147,55.56887,-24.627687,-6.001916,-29.263203,-25.38496,2.6653142,34.451836,9.001969,12.89533,-4.5377207,-1.21908,8.550364,3.4795985,23.161526,-38.52324,-21.715614,0.6364559,0.3697656,-0.96858937,15.5029745,-18.730474,13.19227,49.854412,11.926069,-1.3675219,-3.6058576
97,34.8858642578125,28.816884994506836,74.4062271118164,0.27010760217544116,-5.8466916148957715,-99.02486126959354,-7.97587,10.374293,6.7181854,56.319637,-25.468903,-4.938679,-29.91551,-24.865532,3.6552157,37.940754,7.6051726,13.195961,-4.10659,-1.108526,9.222727,4.3772593,23.429934,-38.040985,-22.090322,0.4776097,-0.108315796,-1.0740536,13.946015,-19.171967,14.066178,50.2446,11.91772,-1.6072918,-4.1790595
98,35.74906921386719,29.57278823852539,74.2236328125,0.26125430848869,-6.240294737293794,-99.41468556023227,-8.306212,10.112919,7.7451386,56.971222,-26.247362,-3.9618287,-30.487747,-24.130058,4.973851,41.872032,6.281142,13.785399,-3.6871104,-1.0447996,9.964096,5.3289537,23.716686,-37.509804,-22.35158,0.04952536,-0.74989283,-1.2236294,12.329931,-19.604273,15.061092,50.724987,12.000675,-1.9023591,-4.9089003
99,36.60127639770508,30.3158016204834,74.04350280761719,0.21646479698265994,-6.643783299008338,-99.75759272920567,-8.635952,9.848377,8.594429,57.553753,-26.947872,-3.1112916,-30.911427,-23.225214,6.1937013,45.93817,4.9680185,14.489264,-3.2548387,-0.94212806,10.705733,6.3774076,24.011042,-36.9189,-22.565947,-0.47440758,-1.364253,-1.352449,10.733979,-20.016562,16.060806,51.179367,11.985979,-2.1702874,-5.674084
100,37.430198669433594,31.045795440673828,73.87984466552734,0.08204910493025744,-6.993029241481518,-100.08808402666821,-9.038063,9.66137,9.267813,58.085278,-27.544409,-2.4196427,-31.157623,-22.303268,6.923165,49.84527,3.6156228,15.000033,-2.7896948,-0.7431944,11.37831,7.5573187,24.296227,-36.266235,-22.796799,-0.9195292,-1.7626196,-1.3874682,9.243731,-20.393057,16.939556,51.491142,11.685188,-2.3243256,-6.355282
101,38.2376594543457,31.763395309448242,73.73059844970703,-0.082403980814255,-7.3178301352822315,-100.36547602404788,-9.472068,9.445058,9.707439,58.505615,-27.996239,-1.9535047,-31.218628,-21.521523,7.1334095,53.62416,2.1833715,15.000033,-2.3254886,-0.5250596,12.003571,8.905785,24.553453,-35.534103,-23.032658,-1.3224069,-1.8642266,-1.3445597,7.8667912,-20.722015,17.677979,51.659664,10.941285,-2.3051536,-6.9571247
102,39.02031707763672,32.48750686645508,73.59140014648438,-0.27003394339773884,-7.639235816265821,-100.58382539063824,-9.917593,9.188651,9.939887,58.827885,-28.32393,-1.6714746,-31.1027,-20.759993,7.1062217,57.379383,0.7188697,15.000033,-1.8528336,-0.29687676,12.598936,10.374771,24.772387,-34.736416,-23.226385,-1.7455448,-1.7805806,-1.2466152,6.565,-21.003595,18.333607,51.75256,9.888043,-2.1652596,-7.530596
103,39.78510284423828,33.20338821411133,73.47045135498047,-0.4571220263468026,-7.895550874439101,-100.77585768268425,-10.434683,8.920022,10.121713,59.08526,-28.535215,-1.4028,-30.887371,-20.072733,6.8250732,61.00383,-0.7302967,15.000033,-1.344595,-0.06577653,13.094865,11.869533,24.951452,-33.92471,-23.374537,-2.054618,-1.6118892,-1.0288388,5.3579035,-21.243832,18.889435,51.752895,8.77315,-1.9885821,-8.028674
104,40.5366096496582,33.92759704589844,73.3691177368164,-0.6173800663291916,-8.025058258848333,-100.97389904566631,-11.082442,8.664677,10.410603,59.308693,-28.640162,-0.97536826,-30.655714,-19.526653,6.2919316,64.39231,-2.1112895,15.000033,-0.7703837,0.15989389,13.423265,13.293317,25.09679,-33.15977,-23.474487,-2.1157696,-1.4577538,-0.6275603,4.271783,-21.453972,19.317091,51.633987,7.840788,-1.8644887,-8.408031
105,41.27700424194336,34.6361083984375,73.29241943359375,-0.7444539721953259,-7.990990384988952,-101.17312476933918,-11.9126,8.426766,10.851157,59.531578,-28.657665,-0.322378,-30.450262,-19.235432,5.4472528,67.56729,-3.4328856,15.000033,-0.13317978,0.37478635,13.53701,14.645441,25.215132,-32.459366,-23.543758,-1.8097771,-1.276931,0.03186234,3.330401,-21.642824,19.56769,51.330807,7.0297856,-1.7578545,-8.616064
106,42.02499771118164,35.33271026611328,73.2366714477539,-0.8455841067910657,-7.8350481784693145,-101.35723428971404,-12.875659,8.185254,11.366709,59.720467,-28.574955,0.46184215,-30.209116,-19.160904,4.3582125,70.56763,-4.7117705,15.000033,0.55580664,0.573787,13.48504,15.966946,25.30637,-31.802076,-23.578686,-1.2405385,-1.0315528,0.8962708,2.5218968,-21.814997,19.658134,50.86691,6.2515445,-1.6459416,-8.689108
107,42.76997375488281,36.03253173828125,73.2134017944336,-0.916356191284493,-7.6142072859094405,-101.54363382631853,-13.878558,7.9302025,11.934787,59.809975,-28.36112,1.3045052,-29.87026,-19.134687,3.2121284,73.31812,-5.9108987,15.000033,1.3118156,0.7491597,13.342275,17.22608,25.36811,-31.187813,-23.54748,-0.6050699,-0.82790905,1.8364389,1.8185508,-21.974968,19.6613,50.347366,5.7070947,-1.6382288,-8.723645
108,43.50274658203125,36.74126434326172,73.21704864501953,-0.9551497826822778,-7.382737965919108,-101.75342087326364,-14.83328,7.6563516,12.5329075,59.740757,-27.987526,2.1310332,-29.390326,-18.967356,2.1760714,75.73918,-6.9851613,15.000033,2.151996,0.8989997,13.180345,18.39034,25.396069,-30.61407,-23.41486,-0.09375072,-0.7801921,2.725902,1.1887958,-22.126995,19.655005,49.88197,5.600134,-1.8421389,-8.817423
109,44.23408508300781,37.45758056640625,73.25269317626953,-0.9274246946228482,-7.140997674045258,-101.97963260864248,-15.728198,7.3164873,13.183742,59.48729,-27.442377,2.9662244,-28.785137,-18.703012,1.2693882,77.86008,-7.966315,15.000033,3.0838277,0.9870769,12.993999,19.42829,25.394354,-30.100851,-23.145119,0.37818682,-0.9548131,3.560939,0.63122815,-22.279917,19.678183,49.48148,6.098617,-2.3371394,-9.003572
110,44.958404541015625,38.1702766418457,73.32068634033203,-0.8456952561718275,-6.864823860798861,-102.21504938435616,-16.60295,6.9299755,13.898337,59.082623,-26.744183,3.8352444,-28.078222,-18.400112,0.40913942,79.70812,-8.856882,15.000033,4.0917354,1.0253339,12.755152,20.36899,25.364758,-29.639359,-22.7666,0.8745556,-1.2789545,4.4009666,0.15917118,-22.436554,19.68867,49.092907,7.05721,-3.051727,-9.218932
111,45.665122985839844,38.89319610595703,73.42536163330078,-0.786522327252617,-6.56787460879706,-102.48588044939135,-17.456228,6.597405,14.629292,58.561287,-25.90655,4.660602,-27.258936,-17.920017,-0.4668959,81.19042,-9.560018,14.815238,5.1640167,1.0892096,12.492198,21.265066,25.294647,-29.185537,-22.337004,1.174574,-1.669547,5.2125664,-0.2365291,-22.585886,19.642508,48.73333,8.2089615,-3.8649101,-9.418389
112,46.36772918701172,39.61592102050781,73.56685638427734,-0.8181040710880398,-6.264202348770661,-102.8144869669584,-18.291407,6.405383,15.328328,57.966057,-24.94649,5.3737917,-26.32756,-16.975924,-1.176792,82.21933,-9.979098,15.000033,6.2882466,1.2533382,12.223325,22.161196,25.160786,-28.697124,-21.897501,1.0558776,-2.0495522,5.9563513,-0.5753338,-22.709284,19.499674,48.435936,9.28623,-4.653433,-9.568821
113,47.056968688964844,40.35932922363281,73.73982238769531,-0.9765596787384764,-5.9486280301661045,-103.22718114641242,-19.11852,6.4137573,15.959327,57.30184,-23.885206,5.9331985,-25.275423,-15.589351,-1.899055,82.74137,-10.085506,15.000033,7.5021667,1.547002,11.923127,23.058554,24.943794,-28.174147,-21.437273,0.39113402,-2.4200122,6.6048074,-0.84348685,-22.792057,19.224865,48.224678,10.289187,-5.4428973,-9.663962
114,47.74757385253906,41.12131118774414,73.94340515136719,-1.2152230430417006,-5.6209171205637025,-103.69772710675669,-19.937338,6.5519843,16.547537,56.55906,-22.709417,6.3880677,-24.123959,-13.843153,-2.5585072,82.813225,-9.936114,15.000033,8.791635,1.9188024,11.577059,23.918482,24.639051,-27.64342,-20.91148,-0.67353004,-2.8259866,7.173833,-1.0542183,-22.83241,18.853615,48.10461,11.334225,-6.2793765,-9.721581
115,48.42946243286133,41.889427185058594,74.17611694335938,-1.4915649887092612,-5.298272855122876,-104.17715187853068,-20.748976,6.7493153,17.113363,55.76243,-21.373123,6.7874994,-22.90911,-11.878562,-3.140689,82.49306,-9.5643015,15.000033,10.063265,2.3234637,11.219848,24.732779,24.245378,-27.10094,-20.31862,-1.9495453,-3.2568693,7.687627,-1.270232,-22.834475,18.455647,48.081947,12.326615,-7.0688868,-9.757571
116,49.12451171875,42.6815185546875,74.4386215209961,-1.764349691880023,-4.9962453557534445,-104.61869565728067,-21.554232,6.942531,17.681837,54.933163,-19.830627,7.1802874,-21.66202,-9.835358,-3.633307,81.84322,-8.999998,15.000033,11.2231045,2.72207,10.891982,25.498898,23.763714,-26.538282,-19.660435,-3.2498815,-3.698977,8.173236,-1.5519564,-22.805294,18.103672,48.15892,13.172635,-7.71801,-9.792736
117,49.81678009033203,43.4912109375,74.7206039428711,-2.0515284294195038,-4.726068546584834,-105.04344730165998,-22.364395,7.183616,18.22677,54.10801,-18.065878,7.5666103,-20.338717,-7.6215124,-4.004482,80.78645,-8.124286,15.000033,12.28506,3.1441133,10.602607,26.245808,23.189276,-25.931332,-18.968292,-4.6734977,-4.1421533,8.611295,-1.9160624,-22.74232,17.783895,48.37524,13.841311,-8.182854,-9.834156
118,50.51319122314453,44.31593704223633,75.02074432373047,-2.351345406217938,-4.484433783747525,-105.45175084758469,-23.174007,7.469776,18.737658,53.26612,-16.101765,7.9273953,-18.916914,-5.2336636,-4.23078,79.31965,-6.9832153,15.000033,13.269497,3.5890558,10.340561,26.967983,22.519499,-25.291265,-18.227325,-6.2711678,-4.5973063,8.989897,-2.3348317,-22.64351,17.476194,48.721424,14.38404,-8.519612,-9.877787
119,51.22802734375,45.16478729248047,75.32711791992188,-2.59817744730661,-4.255596120244552,-105.77951496591265,-23.970007,7.6787143,19.272469,52.35271,-13.949363,8.278512,-17.466486,-2.9213998,-4.3306103,77.617,-5.83198,15.000033,14.102074,3.9866729,10.1178665,27.616491,21.76479,-24.656282,-17.389061,-7.7819567,-5.076795,9.353099,-2.7953784,-22.523502,17.241964,49.116047,14.8310585,-8.78488,-9.9281435
120,51.95410919189453,46.01547622680664,75.63833618164062,-2.7403630128708385,-4.015422765064065,-105.97676482970348,-24.74351,7.7084255,19.896238,51.307953,-11.615927,8.632243,-16.07355,-0.9080864,-4.3478966,75.85312,-4.8949757,15.000033,14.719842,4.278985,9.944306,28.144054,20.94292,-24.057077,-16.410591,-8.945726,-5.5935097,9.750003,-3.276699,-22.406046,17.140762,49.46354,15.216802,-9.034559,-9.986293
121,52.705047607421875,46.87834930419922,75.94564056396484,-2.777235298716437,-3.759754295223846,-106.06178630472012,-25.51443,7.574472,20.605333,50.13333,-9.053546,9.092117,-14.739045,0.8699395,-4.2400117,74.01285,-4.2077236,15.000033,15.139274,4.4751678,9.833504,28.578281,20.053446,-23.466866,-15.285126,-9.714811,-6.199504,10.163482,-3.7830842,-22.309889,17.198408,49.748886,15.573513,-9.246748,-10.074767
122,53.47135543823242,47.76771545410156,76.2352523803711,-2.7424960936348346,-3.4950918914035674,-106.06033685438152,-26.284618,7.346313,21.377075,48.85001,-6.269776,9.61072,-13.419088,2.5063643,-4.0133963,72.02004,-3.6376488,15.000033,15.390249,4.614934,9.780931,28.93363,19.09446,-22.87346,-14.042643,-10.220784,-6.8672466,10.582197,-4.3078775,-22.237812,17.37753,49.99654,15.88175,-9.401971,-10.183386
123,54.24842834472656,48.674800872802734,76.50425720214844,-2.637928623654111,-3.2046422318555288,-105.9458789302544,-27.025963,7.0116253,22.237432,47.427334,-3.3589766,9.966929,-12.15133,3.8485258,-3.827377,69.95551,-3.1417453,15.000033,15.445008,4.696407,9.764139,29.148203,18.09425,-22.325428,-12.706799,-10.472818,-7.4895554,11.072723,-4.8112173,-22.186993,17.63565,50.164875,16.098808,-9.559316,-10.262298
124,55.0456657409668,49.60123062133789,76.74386596679688,-2.4709563558615453,-2.872780602289821,-105.69316768285715,-27.710043,6.545323,23.19226,45.823612,-0.41378793,9.933018,-10.978354,4.7545595,-3.8610592,67.89914,-2.6765232,15.000033,15.284595,4.715743,9.761853,29.16999,17.102486,-21.871004,-11.319586,-10.485156,-7.9604273,11.706844,-5.2485657,-22.151476,17.920734,50.20659,16.181276,-9.777559,-10.260418
125,55.8349723815918,50.53066635131836,76.95768737792969,-2.258927871390229,-2.475119341404911,-105.30702904940739,-28.437004,5.941943,24.160242,44.074226,2.702133,9.632693,-9.917582,5.1303606,-4.3212214,65.86517,-2.1659462,15.000033,14.918856,4.664447,9.7673645,29.020338,16.147768,-21.508171,-9.905632,-10.197533,-8.226635,12.590229,-5.615257,-22.132784,18.24349,50.075188,16.06613,-10.066912,-10.146731
126,56.61861801147461,51.46942901611328,77.12928009033203,-2.0042740147718896,-2.0289536113183178,-104.80046289432504,-29.185331,5.217191,25.12151,42.157455,5.9900866,9.09831,-8.927839,5.116141,-5.1260467,63.80871,-1.6659598,15.000033,14.371289,4.55518,9.793401,28.733341,15.238576,-21.215416,-8.469769,-9.636322,-8.342759,13.667098,-5.9178767,-22.130655,18.603893,49.79017,15.793891,-10.398112,-9.9539385
127,57.41377639770508,52.42192077636719,77.25057983398438,-1.700950734647382,-1.5868360225410092,-104.16094441572608,-29.7376,4.332283,26.146019,39.920864,9.161166,7.963696,-7.9657283,4.904839,-6.036115,61.71948,-1.3424065,15.000033,13.649995,4.4158716,9.848954,28.280817,14.4038315,-21.016182,-7.0316014,-8.950357,-8.369878,14.767822,-6.1236362,-22.131365,18.92852,49.401093,15.475061,-10.771329,-9.726481
128,58.21586990356445,53.37151336669922,77.32491302490234,-1.3526646289116917,-1.202820817163001,-103.38117121479011,-29.868074,3.2200382,27.292393,37.183723,11.94243,5.870223,-7.00072,4.657328,-6.8238993,59.597702,-1.3735982,15.000033,12.775294,4.2746325,9.943417,27.638239,13.68881,-20.94029,-5.62063,-8.290493,-8.378756,15.727816,-6.194256,-22.116362,19.1349,48.956917,15.216629,-11.186908,-9.5072365
129,59.03303527832031,54.30971908569336,77.3331069946289,-0.9512711681217525,-0.8964297449389675,-102.42959822679948,-29.315733,1.7235268,28.714725,33.45825,14.489484,2.2203655,-6.026814,4.393931,-7.396018,57.47007,-1.7353069,15.000033,11.725133,4.1202216,10.086403,26.800737,13.134382,-21.028158,-4.2448535,-7.6670237,-8.360969,16.59487,-6.0902267,-22.071888,19.190355,48.42302,14.997855,-11.696026,-9.281952
130,59.86186981201172,55.2391471862793,77.27092742919922,-0.5674088130062077,-0.6672371187523065,-101.3449844023549,-28.204493,-0.13544098,30.249792,28.781616,16.982813,-2.6319761,-5.0358343,4.035112,-8.035551,55.380444,-2.4281576,15.000033,10.544015,4.0033383,10.279664,25.801214,12.750965,-21.27764,-2.9215922,-7.029161,-8.288287,17.435823,-5.8219304,-21.998028,19.117094,47.781006,14.773943,-12.283569,-9.035194
131,60.6806526184082,56.153656005859375,77.13741302490234,-0.33415375883702936,-0.5385881498131012,-100.21217052734922,-26.906647,-2.0570247,31.543718,23.916018,19.109848,-7.5744762,-3.9654984,3.5855563,-9.0799055,53.290154,-3.6220667,14.993594,9.33491,4.0568643,10.530394,24.667036,12.52945,-21.65316,-1.6904292,-6.430994,-8.211443,18.115204,-5.42185,-21.89649,18.91754,47.097282,14.616102,-12.848042,-8.80597
132,61.39665222167969,57.09616470336914,76.94049072265625,-0.7206341868617735,-0.3743383399587068,-99.23105840310642,-26.529774,-2.8059704,32.163437,21.128908,19.869822,-11.611302,-2.7424364,3.1847026,-12.041465,50.792324,-5.2886653,10.652338,8.310025,4.677024,10.667414,23.403864,12.453336,-22.103827,-0.57167083,-5.920801,-8.186281,18.49252,-4.9323115,-21.761078,18.601822,46.44049,14.597269,-13.2872715,-8.635186
133,62.11083984375,58.056495666503906,76.70008087158203,-1.120165837667493,-0.2393223279638388,-98.18276023727233,-26.533752,-3.3353834,32.561478,19.481596,19.496603,-14.340787,-1.3472544,2.7229486,-15.380095,48.059254,-8.05164,7.0178833,7.2605085,5.316887,10.852231,21.977087,12.51873,-22.627089,0.44345057,-5.5035424,-8.242854,18.436338,-4.335003,-21.581003,18.147446,45.770622,14.760707,-13.546661,-8.504293
134,62.853782653808594,59.02110290527344,76.42262268066406,-1.4090282819185975,-0.052000677348715024,-96.89181737110871,-26.575237,-4.003017,33.388103,18.067139,18.510464,-15.000033,0.047618862,2.1120696,-19.066423,45.28976,-11.792335,3.8920064,6.0100827,5.8468337,11.021587,20.390968,12.721243,-23.255676,1.3622619,-5.156102,-8.351512,18.053144,-3.6208744,-21.356459,17.562977,45.07687,15.058459,-13.689386,-8.398692
135,63.594173431396484,60.006378173828125,76.12785339355469,-1.6851339275355959,0.10553009536496544,-95.66769184254562,-26.877565,-4.4606524,33.939518,17.475792,16.91424,-15.000033,1.285705,1.6943915,-22.436745,42.71731,-15.683529,1.4588975,4.846798,6.362562,11.249614,18.681961,13.037592,-23.973671,2.187449,-4.880938,-8.4821205,17.552332,-2.8543909,-21.082415,16.91149,44.472466,15.426977,-13.791828,-8.371562
136,64.34253692626953,61.00718307495117,75.82474517822266,-1.9132388539406955,0.2436841834276875,-94.60785003773427,-27.500858,-4.6461697,33.932602,17.758097,14.99089,-15.000033,2.024632,1.4226505,-25.015368,40.824978,-19.00905,-0.17876399,3.8397367,6.8255916,11.530466,16.906425,13.430007,-24.757185,2.9137466,-4.671119,-8.600661,17.144127,-2.1172757,-20.762112,16.269646,44.0922,15.79979,-13.931747,-8.475157
137,65.09393310546875,62.02850341796875,75.51020050048828,-2.124015862074372,0.3465607404908398,-93.6823936606653,-28.5959,-4.510311,33.04284,19.19718,12.5736065,-15.000033,2.1322696,1.1773802,-26.731333,39.80159,-21.593117,-1.0009934,2.9582155,7.286624,11.883785,15.006721,13.8757105,-25.614296,3.5441477,-4.5365076,-8.702774,16.82235,-1.4312587,-20.397875,15.620363,43.93974,16.180702,-14.141715,-8.72533
138,65.84107208251953,63.03489685058594,75.2182846069336,-2.3368923858628854,0.40991022098888347,-92.8555878602613,-30.085896,-4.131292,31.421738,21.665083,9.599658,-15.000033,1.7838621,0.85384405,-27.898586,39.406704,-23.76186,-1.2265583,2.163015,7.760199,12.306775,12.968566,14.366131,-26.543829,4.089596,-4.465945,-8.804652,16.493052,-0.7649738,-19.989492,14.951123,43.96498,16.596865,-14.378468,-9.094155
139,66.56527709960938,64.04899597167969,74.93257904052734,-2.503815356006336,0.4533436392139591,-92.21141896907326,-31.64502,-3.6037033,29.71251,24.554111,6.528573,-15.000033,1.0859324,0.38393646,-28.623264,39.548508,-25.59969,-1.1474092,1.5018411,8.169935,12.757652,10.917912,14.880263,-27.497437,4.5624127,-4.4159703,-8.902104,16.234135,-0.13115075,-19.54244,14.352397,44.23006,17.015442,-14.606196,-9.569839
140,67.30237579345703,65.06111907958984,74.66012573242188,-2.536483286332457,0.49497269662211985,-91.83174340247734,-32.93552,-2.9794192,28.571802,27.292906,3.7733772,-15.000033,0.13202834,-0.3240989,-28.98473,40.15706,-27.206186,-1.0242623,1.0156623,8.404657,13.185753,8.981053,15.389735,-28.419737,4.990387,-4.339003,-8.991648,16.120232,0.44684386,-19.065119,13.924885,44.808548,17.406427,-14.788809,-10.144102
141,68.05555725097656,66.0512466430664,74.4107437133789,-2.358788318912472,0.5335838898506778,-91.82095344437937,-33.872124,-2.2083876,28.22143,29.798119,1.4030889,-15.000033,-1.2130924,-1.3999958,-28.794283,41.486,-28.581964,-0.84739786,0.7790198,8.401768,13.581528,7.1439576,15.868876,-29.322199,5.4425354,-4.263759,-9.118503,16.251078,0.92391014,-18.57157,13.703614,45.795216,17.798235,-15.008881,-10.878836
142,68.83077239990234,67.01032257080078,74.19844818115234,-2.0047706513054475,0.5699158472948156,-92.07847280406742,-34.580288,-1.3175468,28.41715,32.240417,-0.74635875,-14.39074,-2.984761,-2.8102353,-28.070684,43.513966,-29.698235,-0.51185155,0.71491754,8.219272,13.951518,5.346205,16.307566,-30.21597,5.910409,-4.191335,-9.267593,16.557388,1.3232085,-18.071644,13.639986,47.130013,18.194832,-15.255966,-11.760759
143,69.61541748046875,67.93245697021484,74.01807403564453,-1.56029242454586,0.6040972071108686,-92.42565835491432,-35.08311,-0.35436124,28.831877,34.623505,-2.7324488,-13.646973,-4.8878403,-4.3450766,-27.166594,45.693634,-30.582132,-0.13599592,0.6794959,7.9262786,14.280121,3.639878,16.70901,-31.050762,6.3234386,-4.035265,-9.34796,16.858675,1.7202941,-17.56286,13.709109,48.661144,18.53357,-15.351676,-12.670699
144,70.41178131103516,68.82587432861328,73.86575317382812,-1.133993189094446,0.6242056242896779,-92.70416424994718,-35.41026,0.66338986,29.223574,36.978397,-4.6256795,-12.8287115,-6.6025996,-5.7915807,-26.445349,47.50056,-31.267853,0.16267283,0.5500857,7.6088996,14.559575,2.0835466,17.089745,-31.777292,6.6059074,-3.7115967,-9.267383,16.972305,2.1813939,-17.033129,13.89359,50.24864,18.756811,-15.1156225,-13.490594
145,71.18712615966797,69.7034683227539,73.75344848632812,-0.6842895026265127,0.6219181342995203,-92.93501607797184,-35.515385,1.7483966,29.701128,39.31077,-6.4347777,-11.892238,-8.107402,-7.2215133,-25.955587,48.95551,-31.784594,0.34607637,0.3424454,7.219087,14.79554,0.6915791,17.465395,-32.377666,6.760518,-3.1157613,-8.94389,16.838634,2.6725955,-16.472359,14.219006,51.978596,18.846216,-14.446342,-14.234145
146,71.9369888305664,70.5571517944336,73.67792510986328,-0.1829593286496256,0.6000436473213538,-93.1940742410285,-35.390133,2.9339464,30.32597,41.62449,-8.149382,-10.861981,-9.526922,-8.6994295,-25.507153,50.277714,-32.101498,0.48570493,0.117933534,6.734044,14.990193,-0.5601488,17.844164,-32.88468,6.82057,-2.320657,-8.44921,16.552025,3.1719747,-15.88036,14.689704,53.89616,18.843367,-13.454746,-14.948454
147,72.66248321533203,71.38655853271484,73.64295959472656,0.258121840252399,0.5729507015017037,-93.37762046333712,-35.140827,4.1733875,30.812668,43.895622,-9.770883,-9.811653,-10.785443,-10.073492,-25.151987,51.32001,-32.202236,0.63215536,-0.19841735,6.260001,15.114496,-1.67568,18.236412,-33.33104,6.7589827,-1.5119826,-7.924023,16.165592,3.761435,-15.261924,15.251513,55.80351,18.776762,-12.278427,-15.562768
148,73.36917877197266,72.19422149658203,73.64217376708984,0.5252553734702302,0.5539071354026323,-93.38165804281024,-34.894238,5.417739,30.875626,46.101772,-11.291921,-8.817143,-11.817793,-11.194999,-24.954199,51.943356,-32.078285,0.82767636,-0.68023705,5.90672,15.1404705,-2.655936,18.653067,-33.748203,6.540136,-0.87724876,-7.505208,15.7404,4.5234714,-14.6232195,15.848241,57.497013,18.669588,-11.055908,-16.006815
149,74.06316375732422,72.98648834228516,73.67010498046875,0.5684411293807621,0.5391436560141606,-93.13376932527746,-34.72295,6.682668,30.399914,48.323475,-12.717362,-7.858948,-12.584762,-12.019219,-24.981907,52.101513,-31.740665,1.085138,-1.3856232,5.7194247,15.056537,-3.5009427,19.111137,-34.13383,6.1165867,-0.39465684,-7.206229,15.267413,5.4840455,-13.956429,16.501062,58.951317,18.486685,-9.653512,-16.289152
150,74.7494125366211,73.7533950805664,73.7387466430664,0.45282577805691365,0.5251980199810711,-92.70415131267828,-34.57582,7.982584,29.551058,50.538464,-14.044114,-6.9089994,-13.135735,-12.643001,-25.198322,51.891556,-31.204042,1.3765715,-2.262452,5.6355977,14.880932,-4.2010684,19.619759,-34.47245,5.5019107,0.007875241,-6.961732,14.726676,6.592194,-13.258427,17.232004,60.27104,18.224874,-8.054411,-16.43244
151,75.44386291503906,74.51058959960938,73.84008026123047,0.2414666900133607,0.5267448915202969,-92.20132191928737,-34.403873,9.273742,28.468061,52.588802,-15.247183,-6.0356827,-13.546702,-13.129404,-25.510796,51.38965,-30.466183,1.6781596,-3.2164037,5.603016,14.631614,-4.744342,20.170546,-34.77527,4.753421,0.21967028,-6.7829947,14.167621,7.815425,-12.551585,17.983027,61.443684,17.948477,-6.5728254,-16.394733
152,76.13504791259766,75.25222778320312,73.98562622070312,-0.00490837270245316,0.5574331010390399,-91.73288113146286,-34.15369,10.512801,27.295319,54.328197,-16.305805,-5.3077703,-13.894894,-13.538388,-25.823923,50.673664,-29.523775,1.9677987,-4.150996,5.5769954,14.32721,-5.130017,20.740112,-35.058132,3.9432144,0.13015388,-6.682088,13.641066,9.13597,-11.87048,18.688736,62.435875,17.722103,-5.5205717,-16.136742
153,76.83636474609375,75.97578430175781,74.17925262451172,-0.30755677255411007,0.6296146854688188,-91.26393050155635,-33.854828,11.716996,25.98842,55.76775,-17.22714,-4.7722626,-14.162871,-13.850546,-26.19297,49.72066,-28.393412,2.2211967,-5.087697,5.5901303,13.953541,-5.372176,21.311573,-35.333763,3.0849166,-0.39949018,-6.6937385,13.148963,10.624304,-11.228765,19.33418,63.186707,17.571602,-5.042928,-15.589774
154,77.56188201904297,76.69895935058594,74.41374969482422,-0.686467206993674,0.7363551298667489,-90.75759946583467,-33.534107,12.902794,24.505484,56.98176,-18.017551,-4.3855376,-14.328476,-14.048608,-26.641554,48.508682,-27.074055,2.4547918,-6.0606427,5.6650124,13.512215,-5.4791017,21.879189,-35.5907,2.1612923,-1.2713611,-6.795145,12.668745,12.279037,-10.623248,19.953405,63.71435,17.460573,-4.952465,-14.792672
155,78.3148193359375,77.41558837890625,74.69829559326172,-1.0674875539334723,0.8587711029204955,-90.31849842391915,-33.1191,14.028343,23.002241,57.927227,-18.65921,-4.0804596,-14.456829,-14.189386,-27.023632,47.105556,-25.528515,2.710418,-6.9893665,5.738901,13.040673,-5.451208,22.432386,-35.810505,1.206487,-2.2415822,-6.9122205,12.213984,13.979354,-10.071847,20.544928,64.090515,17.362715,-5.0532575,-13.873564
156,79.09198760986328,78.12822723388672,75.02462768554688,-1.3825557390314382,0.9755177963992249,-90.05034935515556,-32.528202,15.055223,21.638369,58.56711,-19.13775,-3.7887514,-14.610884,-14.326528,-27.189419,45.57775,-23.718758,3.031787,-7.7932324,5.7543855,12.575372,-5.2888556,22.955425,-35.97349,0.2510661,-3.063249,-6.9764585,11.799701,15.613419,-9.602839,21.099615,64.37537,17.250315,-5.1506815,-12.957207
157,79.90074920654297,78.83504486083984,75.39640808105469,-1.649290087553282,1.084821565136096,-89.96930135453358,-31.726978,16.051508,20.449877,58.89327,-19.44101,-3.492865,-14.787012,-14.421042,-27.115345,43.91095,-21.62213,3.424473,-8.456852,5.734663,12.118081,-4.9879518,23.431736,-36.072453,-0.6980251,-3.698204,-6.9776435,11.438122,17.195156,-9.243907,21.63826,64.5268,17.10559,-5.240512,-12.007606
158,80.73054504394531,79.5364761352539,75.81210327148438,-1.8927541710496225,1.19485547079185,-90.02368500691105,-30.75216,17.019363,19.367641,58.938087,-19.584457,-3.2276814,-14.959017,-14.450572,-26.86771,42.07934,-19.26329,3.8691149,-9.02198,5.709402,11.654426,-4.558487,23.853436,-36.11224,-1.6463672,-4.2636147,-6.9534855,11.1175785,18.788403,-8.999757,22.150278,64.50144,16.95412,-5.4073167,-10.976609
159,81.58495330810547,80.22978210449219,76.25635528564453,-2.0551182851882728,1.2980259478284981,-90.21456634125299,-29.624203,17.820795,18.389227,58.73463,-19.598577,-3.0025928,-15.160557,-14.493512,-26.421501,40.139027,-16.677618,4.3739176,-9.4895,5.62727,11.190898,-4.027971,24.220291,-36.096985,-2.5788026,-4.747575,-6.909636,10.819084,20.353605,-8.860073,22.569082,64.36255,16.825727,-5.5912647,-9.973416
160,82.46112060546875,80.92023468017578,76.72797393798828,-2.0724283182404872,1.3878568005033738,-90.54388706878758,-28.354345,18.312307,17.514507,58.305737,-19.509995,-2.8248472,-15.423275,-14.634867,-25.744417,38.140934,-13.897252,4.9496207,-9.858909,5.4298615,10.731619,-3.4204605,24.537071,-36.03255,-3.4851878,-5.1375823,-6.850927,10.5243845,21.846746,-8.803555,22.824972,64.181564,16.746138,-5.7350717,-9.108454
161,83.36800384521484,81.61747741699219,77.21442413330078,-1.9247595924358034,1.461598678608382,-91.03720742359725,-26.883814,18.467112,16.750032,57.60354,-19.343647,-2.6723902,-15.742778,-14.884005,-24.764444,36.062572,-10.886095,5.6091866,-10.110193,5.087467,10.276714,-2.7294707,24.803682,-35.91565,-4.3507237,-5.4005613,-6.780497,10.2361965,23.266129,-8.817387,22.893564,63.94362,16.705385,-5.8248177,-8.430629
162,84.29306030273438,82.31910705566406,77.70618438720703,-1.6445299487605056,1.526882369519724,-91.68595590035974,-25.216763,18.356392,16.094023,56.64519,-19.085897,-2.5428286,-16.116514,-15.1988125,-23.485798,33.9089,-7.6568875,6.3533263,-10.244304,4.627739,9.821432,-1.9529175,25.017685,-35.7516,-5.1814833,-5.5530787,-6.6964207,9.962067,24.630608,-8.89771,22.80126,63.625286,16.690836,-5.8924203,-7.8770194
163,85.246337890625,83.02565002441406,78.1882553100586,-1.251949208134145,1.5942920626346273,-92.44036471946517,-23.461067,17.985529,15.52339,55.54692,-18.703815,-2.4731758,-16.573257,-15.58454,-21.992323,31.75432,-4.303579,7.177838,-10.293327,4.0807943,9.362555,-1.1207138,25.184925,-35.558857,-5.9985476,-5.6593676,-6.595162,9.690902,25.927721,-9.036072,22.55257,63.279404,16.721804,-5.9428916,-7.3937902
164,86.22643280029297,83.73075103759766,78.64567565917969,-0.7634977676162638,1.6742496153411561,-93.25023793902172,-21.727606,17.354279,15.013339,54.42272,-18.164755,-2.5037005,-17.14621,-16.055897,-20.366835,29.681152,-0.92092365,8.080834,-10.290894,3.472767,8.896792,-0.2591163,25.317524,-35.35368,-6.828814,-5.7857056,-6.472464,9.41244,27.143131,-9.218642,22.153229,62.960686,16.817757,-5.9812026,-6.927499
165,87.21641540527344,84.4433822631836,79.07015228271484,-0.1248165913309299,1.7763461003873469,-94.12054256772774,-19.997398,16.363585,14.570024,53.237038,-17.496038,-2.6642318,-17.886938,-16.659859,-18.496397,27.682205,2.638722,9.058136,-10.238032,2.7495186,8.408539,0.6536206,25.422464,-35.129898,-7.679744,-5.9463773,-6.336562,9.136666,28.283445,-9.434999,21.594908,62.67505,17.013573,-6.0282984,-6.5171995
166,88.20964813232422,85.15751647949219,79.44877624511719,0.6454288281627177,1.9029496023586896,-95.07284911063341,-18.237822,15.047864,14.174043,51.94984,-16.705408,-2.927103,-18.76593,-17.364376,-16.33452,25.727785,6.3555646,10.141501,-10.121145,1.9201041,7.909421,1.6298625,25.501993,-34.879467,-8.551131,-6.1095047,-6.1863813,8.865867,29.348324,-9.678581,20.873102,62.396774,17.287964,-6.074808,-6.1742845
167,89.21502685546875,85.8793716430664,79.77261352539062,1.4312974492389485,2.0476809603239574,-96.07939691149221,-16.529192,13.593631,13.774642,50.6574,-15.716317,-3.2522876,-19.68539,-18.074734,-14.095745,23.842669,9.908045,11.365082,-9.951964,1.0925711,7.4350786,2.6341875,25.564219,-34.615936,-9.4609995,-6.269158,-6.00258,8.578693,30.30576,-9.94316,20.000866,62.144882,17.576298,-6.0814476,-5.804615
168,90.2319107055664,86.60391998291016,80.04098510742188,2.1248535348547137,2.1956658537875127,-97.11007880083288,-14.943082,12.177869,13.334372,49.45363,-14.449487,-3.6029747,-20.534756,-18.703922,-12.041727,22.02083,12.997911,12.735678,-9.744369,0.36664182,7.02052,3.6335478,25.6219,-34.353413,-10.428851,-6.4199977,-5.765561,8.2536,31.121,-10.223024,18.996416,61.944183,17.812609,-6.009186,-5.314417
169,91.25028991699219,87.3370590209961,80.25011444091797,2.7511798574359974,2.3372444914339923,-98.18758282278675,-13.477064,10.747622,12.843762,48.357086,-12.6290455,-4.0059,-21.30192,-19.22529,-10.139474,20.073696,15.903343,14.451949,-9.49087,-0.28480086,6.6673455,4.655186,25.685926,-34.076527,-11.479212,-6.5178046,-5.455248,7.88411,31.787525,-10.51786,17.79753,61.801632,17.971415,-5.8225765,-4.611618
170,92.22969818115234,88.09413146972656,80.41316223144531,3.1152989636688506,2.5350122259258336,-99.42678555566279,-12.224818,9.563082,12.253811,47.49726,-10.468672,-4.571917,-21.87629,-19.435335,-8.994468,17.648993,18.894875,15.000033,-9.0837,-0.6807891,6.3540864,5.7173247,25.760302,-33.782173,-12.6126995,-6.5816817,-5.087144,7.4830627,32.312634,-10.827226,16.420683,61.71301,18.086826,-5.550929,-3.7677324
171,93.18928527832031,88.87027740478516,80.54149627685547,3.383504151818606,2.7212617762720477,-100.64782735046532,-11.067002,8.424152,11.634352,46.70067,-8.419585,-5.170376,-22.294548,-19.646933,-8.398529,15.316633,21.25718,15.000033,-8.665973,-0.9862021,6.1108937,6.772972,25.849775,-33.499638,-13.806699,-6.7019987,-4.6930375,7.0559754,32.686302,-11.142846,15.01533,61.69304,18.184605,-5.253697,-2.937147
172,94.13838195800781,89.65055847167969,80.61992645263672,3.5969311065876144,2.8667917145988535,-101.7391042750929,-9.960832,7.3261604,11.039609,45.87734,-6.9643435,-5.6862864,-22.632843,-19.97245,-8.152647,13.608106,22.300297,15.000033,-8.308191,-1.2376963,5.947931,7.766763,25.959778,-33.264423,-15.030607,-6.970431,-4.3024797,6.6098313,32.89476,-11.458078,13.727549,61.76748,18.291485,-4.9924054,-2.2767127
173,95.09226989746094,90.43860626220703,80.6179428100586,3.7517754305927906,2.9573633394516188,-102.71709704244577,-8.858656,6.2701473,10.462073,45.011284,-6.2247357,-6.119084,-22.89852,-20.430227,-8.327324,12.61013,21.461977,15.000033,-8.007925,-1.4295968,5.860997,8.729975,26.097286,-33.06573,-16.319822,-7.310232,-3.8839035,6.1701126,32.929214,-11.7715845,12.521325,61.95448,18.413414,-4.7601776,-1.7800802
174,96.04776763916016,91.21978759765625,80.55301666259766,3.8354477491894916,3.0053044359466687,-103.62805223566373,-7.793658,5.264988,9.891301,44.14267,-5.9362392,-6.5036116,-23.104868,-20.941877,-8.8976345,12.132815,19.197392,15.000033,-7.728339,-1.550744,5.839458,9.675308,26.266975,-32.89612,-17.676783,-7.707891,-3.432095,5.7270317,32.796284,-12.08884,11.347556,62.248592,18.53516,-4.5345716,-1.3827804
175,97.00860595703125,92.0323257446289,80.45718383789062,3.804739495214753,3.0459179632852216,-104.43744519925637,-6.887197,4.420006,9.380531,43.2995,-6.009438,-6.7870946,-23.334156,-21.425243,-9.720345,12.251581,16.36089,15.000033,-7.459758,-1.5576484,5.869392,10.5170765,26.465902,-32.79602,-19.008944,-8.347537,-3.0157847,5.237567,32.508427,-12.414249,10.337154,62.636425,18.657522,-4.351935,-1.1530523
176,97.9752426147461,92.8697738647461,80.32743072509766,3.6304737793417425,3.1162832049912597,-105.1070124303382,-6.260207,3.8193665,8.994358,42.501892,-6.353237,-6.912466,-23.694992,-21.825903,-10.609075,13.092895,13.79007,15.000033,-7.1973867,-1.4191946,5.933917,11.164643,26.685545,-32.80385,-20.220015,-9.411959,-2.698661,4.6580853,32.073734,-12.752454,9.620675,63.110725,18.782743,-4.252686,-1.1582272
177,98.94438171386719,93.72969055175781,80.1600341796875,3.2752984591628262,3.233822881350977,-105.62228161681055,-5.9409337,3.5161028,8.743779,41.6761,-6.964713,-6.8491993,-24.191877,-22.16306,-11.629543,14.700496,11.596142,15.000033,-6.954,-1.0924009,6.0281367,11.594158,26.919767,-32.93199,-21.322231,-10.981036,-2.4673023,4.002697,31.465641,-13.111552,9.247764,63.685345,18.925795,-4.2683973,-1.4465708
178,99.9190444946289,94.60883331298828,79.95014190673828,2.7750668321390166,3.371080612019725,-106.00090804490307,-5.8650265,3.4380004,8.602821,40.835327,-7.8819575,-6.627474,-24.765757,-22.53445,-12.815324,17.044863,9.327072,15.000033,-6.7376976,-0.6099274,6.1597652,11.847953,27.16645,-33.153603,-22.349083,-12.945506,-2.2818894,3.2846906,30.691946,-13.492787,9.146617,64.349785,19.08345,-4.3717413,-1.9711455
179,100.90560913085938,95.51254272460938,79.7005386352539,2.2325640520980516,3.494414611103835,-106.24449127064644,-6.0041327,3.4525087,8.581597,40.12266,-9.073952,-6.2744813,-25.40585,-23.015959,-13.91831,20.081251,7.0095525,15.000033,-6.5409946,-0.07559965,6.335911,11.931451,27.421862,-33.45071,-23.231112,-15.206526,-2.15992,2.4546628,29.816034,-13.884119,9.2621975,65.04914,19.228554,-4.5082645,-2.6586936
180,101.88797760009766,96.43782043457031,79.41875457763672,1.7518554429357172,3.570950605773607,-106.35252968284183,-6.331275,3.4263272,8.6884165,39.684788,-10.511643,-5.814926,-26.11036,-23.64637,-14.6888485,23.751228,4.700148,15.000033,-6.3530645,0.40387067,6.564756,11.845035,27.681318,-33.80994,-23.892715,-17.6693,-2.1160073,1.4598545,28.899593,-14.266335,9.538102,65.73459,19.33289,-4.6236877,-3.43789
181,102.87126159667969,97.37670135498047,79.11146545410156,1.3418539494022432,3.5891941464403065,-106.3111571879808,-6.847124,3.360569,8.992485,39.512657,-12.343766,-5.2406836,-26.905514,-24.392645,-15.101465,28.127455,2.486119,14.5136795,-6.1677127,0.81662476,6.8647633,11.4975,27.947649,-34.287086,-24.289484,-20.521349,-2.1650655,0.2432071,27.928427,-14.633124,10.021575,66.43667,19.392467,-4.7221265,-4.364625
182,103.8339614868164,98.35177612304688,78.7760238647461,0.8241326751534116,3.6122538461249283,-106.20541369956113,-7.664102,3.50113,9.464548,39.692196,-14.608298,-4.573244,-27.689745,-25.00854,-15.467441,32.920708,0.47309357,13.24034,-5.908135,1.3396034,7.20563,10.910229,28.22087,-34.87167,-24.472998,-23.749361,-2.255928,-1.1645985,26.87488,-14.98065,10.713702,67.16295,19.41822,-4.826397,-5.453851
183,104.7811508178711,99.33602905273438,78.39740753173828,0.30986777630897433,3.6218946229362383,-106.00491738519702,-8.716167,3.6685948,9.939547,40.212112,-16.946966,-3.8051918,-28.359863,-25.598667,-15.762307,37.897022,-1.4375244,11.884508,-5.6309576,1.8627622,7.581583,10.251638,28.491003,-35.45776,-24.49818,-26.954145,-2.3203983,-2.6813467,25.788979,-15.292654,11.488243,67.83548,19.402151,-4.9097576,-6.575131
184,105.70125579833984,100.32857513427734,77.97350311279297,-0.1129938356852551,3.606802545070503,-105.69105297788718,-9.945919,3.709131,10.26431,41.06533,-19.009542,-2.9594464,-28.824503,-26.261257,-16.069403,42.854576,-3.371001,10.606166,-5.3783407,2.2905912,7.981105,9.682047,28.74415,-35.95054,-24.402075,-29.733362,-2.3205092,-4.2172685,24.724604,-15.550726,12.219462,68.386246,19.335953,-4.9468307,-7.6002817
185,106.6012954711914,101.33354949951172,77.51316833496094,-0.4392632141532515,3.5415309089408407,-105.2252130320294,-11.400813,3.6174076,10.418988,42.411728,-20.790009,-2.0185351,-29.094305,-27.033182,-16.357996,47.96431,-5.439003,9.416665,-5.1684866,2.617373,8.425429,9.156925,28.976082,-36.372066,-24.074228,-32.229923,-2.2932582,-6.018811,23.686356,-15.741376,12.9164295,68.8462,19.225918,-4.9242997,-8.552028
186,107.4910888671875,102.3519287109375,77.02806854248047,-0.6927297629936666,3.4360905510488458,-104.61774431549209,-13.073114,3.4262798,10.484268,44.167236,-22.433681,-0.9878141,-29.214832,-27.864962,-16.578568,53.314175,-7.572638,8.257478,-4.9768343,2.8658707,8.911172,8.6078005,29.187935,-36.77456,-23.514318,-34.577206,-2.235821,-8.04402,22.649826,-15.868487,13.628005,69.25169,19.071014,-4.859157,-9.484166
187,108.38343811035156,103.3717041015625,76.53421020507812,-0.875190528504181,3.34762879227152,-103.95249227703091,-14.852414,3.108083,10.48057,46.00089,-23.848,0.054414794,-29.149483,-28.68899,-16.820412,58.567604,-9.628757,7.1511526,-4.7554307,3.030471,9.374565,8.162127,29.370358,-37.10634,-22.912603,-36.352985,-2.1298811,-9.764175,21.62857,-15.944512,14.296505,69.54711,18.85465,-4.7722073,-10.312574
188,109.267578125,104.38612365722656,76.04902648925781,-0.987093559371024,3.3317469088150964,-103.31402759709668,-16.628866,2.640232,10.433273,47.585453,-24.941084,1.0324178,-28.86445,-29.44604,-17.18437,63.390793,-11.466581,6.115711,-4.456682,3.1069932,9.751247,7.937171,29.503632,-37.314545,-22.447908,-37.132698,-2.0094845,-10.652038,20.638632,-15.989129,14.862415,69.66633,18.560827,-4.6794143,-10.952873
189,110.14776611328125,105.38823699951172,75.5867691040039,-0.9979358630953344,3.4339942981440577,-102.6414322216524,-18.484863,1.9502804,10.283828,48.93378,-25.641233,1.9032103,-28.358912,-30.265144,-17.806973,67.834526,-13.093257,5.081461,-4.1346045,3.0689409,10.014297,7.9272146,29.574137,-37.389603,-22.104141,-36.664722,-1.920383,-10.477037,19.69512,-16.002872,15.283966,69.565926,18.149971,-4.550292,-11.353954
190,111.01312255859375,106.37743377685547,75.16943359375,-0.9163788474166055,3.6109542069419107,-101.91733654606742,-20.430946,1.073476,10.068069,50.184788,-26.01824,2.7182174,-27.629744,-31.12584,-18.620861,72.05253,-14.578454,4.058965,-3.7937567,2.9294114,10.200995,8.078352,29.58499,-37.359337,-21.796484,-35.225044,-1.8530451,-9.554746,18.793934,-15.988313,15.60468,69.28154,17.644783,-4.3848457,-11.567864
191,111.88078308105469,107.34123992919922,74.79096221923828,-0.7997708476853916,3.7861834301263473,-101.29226325963963,-22.2582,0.1581449,9.943548,51.21236,-26.197971,3.5394707,-26.680458,-31.7563,-19.419086,75.886475,-15.8708935,3.190416,-3.3262498,2.7413857,10.34251,8.453011,29.538542,-37.207905,-21.612211,-33.177044,-1.7566657,-8.181873,17.906748,-15.966835,15.907573,68.886795,17.124653,-4.2551045,-11.661244
192,112.75569152832031,108.28155517578125,74.4526138305664,-0.7099202474850558,3.8868427905307525,-100.91759274319352,-23.767233,-0.6393732,10.048189,51.88647,-26.30359,4.4252305,-25.55261,-31.877766,-19.990305,79.16749,-16.903687,2.6297421,-2.6337438,2.5705183,10.4683275,9.117536,29.421547,-36.91105,-21.634348,-30.880857,-1.5974425,-6.657086,17.01636,-15.982263,16.279987,68.43207,16.67164,-4.2226276,-11.697728
193,113.62544250488281,109.2070083618164,74.15673065185547,-0.656492360164511,3.898963319047911,-100.82194695934818,-24.895533,-1.3040196,10.406915,52.142128,-26.369968,5.4176154,-24.225338,-31.482187,-20.400026,81.89113,-17.705357,2.2982929,-1.6740397,2.4312217,10.592994,10.125422,29.243296,-36.476833,-21.970587,-27.9518,-1.3283226,-4.7441554,16.17316,-16.065388,16.714684,67.84768,16.331213,-4.2961965,-11.616765
194,114.49705505371094,110.0963134765625,73.90922546386719,-0.6130563097254467,3.8613460919888736,-100.9283630183904,-25.75642,-1.9022311,10.940363,52.05478,-26.334497,6.474592,-22.733313,-30.686504,-20.721014,84.14218,-18.282679,2.1585162,-0.5247566,2.3026311,10.699947,11.457338,29.001001,-35.896225,-22.572542,-24.366282,-0.8826846,-2.4043157,15.376716,-16.215086,17.195696,67.111115,16.061,-4.4404426,-11.403806
195,115.37053680419922,110.95040130615234,73.71173858642578,-0.5898080510400523,3.783165227541757,-101.23173916933499,-26.42487,-2.3930812,11.617905,51.715652,-26.169397,7.5238466,-21.219046,-29.38879,-20.76283,85.870834,-18.534458,2.4300363,0.78018385,2.208834,10.776026,13.049404,28.697886,-35.1794,-23.32155,-21.035532,-0.3335155,-0.20895043,14.592681,-16.434265,17.736439,66.28507,15.798949,-4.6459584,-11.179831
196,116.25177764892578,111.78419494628906,73.5601806640625,-0.5967220054168826,3.673782045162763,-101.72742409800644,-26.971638,-2.7362328,12.41226,51.212025,-25.848347,8.49422,-19.816809,-27.48705,-20.34347,87.031845,-18.370184,3.3413715,2.206417,2.1704555,10.808105,14.837933,28.337763,-34.33229,-24.10027,-18.852432,0.1155086,1.2995324,13.786586,-16.727547,18.351954,65.42982,15.483167,-4.9025154,-11.0641
197,117.13778686523438,112.61241149902344,73.45919036865234,-0.6389513443847912,3.504906060104286,-102.51873293132,-27.337776,-2.8771343,13.3949375,50.532394,-25.431604,9.384937,-18.55974,-24.772276,-19.247322,87.58551,-17.75194,5.0941434,3.8510578,2.187347,10.800335,16.908339,27.90549,-33.31924,-24.940107,-18.158875,0.30481255,1.9390013,12.938138,-17.108603,19.1091,64.5563,15.10186,-5.2007647,-11.078008
198,118.0416259765625,113.43360900878906,73.41157531738281,-0.7094837433029869,3.2819677872848922,-103.57359029758577,-27.506947,-2.857837,14.556356,49.645485,-24.918163,10.224283,-17.328392,-21.346453,-17.649315,87.57875,-16.812372,7.5413337,5.6960783,2.251879,10.751204,19.266014,27.382341,-32.16453,-25.903337,-18.433258,0.29504323,2.0324852,12.080199,-17.577936,19.986794,63.61809,14.691879,-5.545131,-11.156998
199,118.97050476074219,114.26774597167969,73.40685272216797,-0.7996231097777979,3.0642988365631667,-104.68517277291348,-27.625418,-2.7771647,15.751957,48.625164,-24.182928,10.989741,-16.037033,-17.582855,-15.928753,87.08874,-15.712662,10.384636,7.54193,2.3676689,10.64202,21.712036,26.771214,-30.966642,-26.901299,-19.255636,0.17068273,1.8155831,11.256711,-18.108524,20.854996,62.591866,14.257652,-5.9473734,-11.29464
200,119.89543151855469,115.11117553710938,73.45409393310547,-0.9010247977982483,2.9117385404368483,-105.64696692762578,-27.842989,-2.7237008,16.838783,47.541485,-23.093426,11.666702,-14.660817,-13.872149,-14.421184,86.180756,-14.554687,13.313839,9.196049,2.5261078,10.457808,24.043179,26.09907,-29.818764,-27.836031,-20.20407,0.023461638,1.5240802,10.494852,-18.66187,21.572788,61.474945,13.795262,-6.4226418,-11.491602
201,120.78558349609375,115.98339080810547,73.5573501586914,-1.4043351921797491,2.9400846134739584,-106.64176517602418,-28.489906,-2.117009,17.634596,46.833965,-21.831654,12.142884,-13.267861,-10.013543,-13.639398,84.6471,-13.104351,15.000033,10.852869,3.0509672,10.007905,26.268017,25.392155,-28.706669,-28.714844,-21.375502,-0.14063516,1.1478517,9.755018,-19.225298,22.15336,60.304955,13.23139,-6.9816833,-11.810789
202,121.64995574951172,116.88995361328125,73.71310424804688,-2.1146443944816085,3.0465886532314252,-107.65294308061623,-29.351496,-1.1949549,18.256348,46.293793,-20.363953,12.477341,-11.775779,-6.2335043,-13.471516,82.53009,-11.386352,15.000033,12.493081,3.7380207,9.394012,28.483429,24.65905,-27.594934,-29.599627,-22.931873,-0.35044548,0.583781,9.020579,-19.799885,22.644825,59.088665,12.581673,-7.614946,-12.24051
203,122.51525115966797,117.8182373046875,73.9115219116211,-2.73770695514554,3.1500542573203516,-108.48252024601126,-30.21259,-0.4332516,18.851027,45.636936,-18.540539,12.781725,-10.194512,-2.7967095,-13.383442,80.07495,-9.656911,15.000033,13.919603,4.3517385,8.784314,30.610058,23.909184,-26.540478,-30.451826,-24.54203,-0.5787326,-0.0634749,8.340427,-20.366446,22.950148,57.798183,11.97096,-8.312065,-12.670866
204,123.39907836914062,118.7554931640625,74.13426971435547,-3.18652534389498,3.2363175724880175,-109.04096242224038,-31.022205,0.014199225,19.502077,44.798695,-16.30806,13.101263,-8.547332,-0.07135123,-13.501482,77.47881,-8.085822,15.000033,15.045019,4.836348,8.259506,32.548676,23.155169,-25.610643,-31.208605,-25.87078,-0.81118053,-0.68222326,7.7620177,-20.898182,22.958841,56.422047,11.520875,-9.069116,-12.991711
205,124.3244400024414,119.7055435180664,74.37401580810547,-3.4866252499186423,3.3307334474900308,-109.31646585783047,-31.825186,0.18886608,20.186401,43.79363,-13.608642,13.483455,-6.8508587,1.9090074,-13.970159,74.72231,-6.5761914,15.000033,15.87271,5.2221446,7.7992306,34.296062,22.412663,-24.80061,-31.860079,-26.830074,-1.062411,-1.2816656,7.2804146,-21.381594,22.60829,55.014412,11.289274,-9.994616,-13.189417
206,125.27660369873047,120.66962432861328,74.61830139160156,-3.6981356451953227,3.4538289463660288,-109.3783080407417,-32.655003,0.21722148,20.869068,42.65047,-10.482248,13.868344,-5.1218095,3.4036343,-14.722775,71.70364,-5.0235076,15.000033,16.469393,5.551305,7.3623347,35.900894,21.696064,-24.073677,-32.43525,-27.59884,-1.3383528,-1.9028689,6.8608212,-21.81948,21.958027,53.593525,11.196447,-11.060609,-13.3181305
207,126.25798034667969,121.66801452636719,74.86283111572266,-3.807060226723482,3.5856224117874422,-109.26556228697063,-33.446213,0.08604709,21.606222,41.324974,-7.0204096,14.135321,-3.390643,4.5119457,-15.622292,68.49435,-3.5803683,15.000033,16.844738,5.8131766,6.993304,37.34243,21.016981,-23.441835,-32.9311,-28.237053,-1.6215311,-2.4803174,6.5123663,-22.205648,21.083086,52.087933,11.163356,-12.059302,-13.367346
208,127.2621841430664,122.68128204345703,75.09049987792969,-3.7985005694706855,3.700647788058107,-109.01261377706147,-34.130447,-0.23427962,22.445314,39.777706,-3.319388,14.171572,-1.6795783,5.3106904,-16.544117,65.166855,-2.414116,15.000033,17.00534,5.9963646,6.7393184,38.596344,20.385916,-22.916119,-33.33676,-28.801062,-1.8944805,-2.9487994,6.241636,-22.528313,20.058146,50.42738,11.110896,-12.78228,-13.328982
209,128.28704833984375,123.70571899414062,75.29167175292969,-3.665370357088311,3.789341286163813,-108.60151520032935,-34.73035,-0.7844603,23.412323,38.003696,0.7413463,14.16496,0.031754296,5.6946244,-17.638165,61.75836,-1.5017884,15.000033,16.926493,6.100122,6.6257777,39.703575,19.800388,-22.471914,-33.655796,-29.278646,-2.1761324,-3.301007,6.055319,-22.768387,18.79051,48.559093,11.051555,-13.101222,-13.128229
210,129.32322692871094,124.72608947753906,75.4689712524414,-3.4380809419498615,3.8545291059800357,-108.02372386541967,-35.248722,-1.5258551,24.441628,35.991173,5.1753936,14.076016,1.7861874,5.7079616,-19.043268,58.22335,-0.8119546,15.000033,16.611275,6.151099,6.6286163,40.666042,19.267626,-22.092405,-33.88976,-29.645082,-2.471545,-3.56683,5.937277,-22.922739,17.279932,46.54928,11.01369,-13.153722,-12.793963
211,130.3714599609375,125.75577545166016,75.6032485961914,-3.1639218849571997,3.888839010748966,-107.32378258297017,-35.597805,-2.427012,25.395971,33.674038,9.737608,13.455567,3.5833178,5.625892,-20.59879,54.508663,-0.49678898,15.000033,16.103113,6.1828485,6.7202067,41.41325,18.818392,-21.797224,-34.04478,-29.93834,-2.7422135,-3.7368617,5.8664207,-23.006853,15.74391,44.487816,10.947199,-13.128896,-12.475303
212,131.41783142089844,126.79542541503906,75.69741821289062,-2.8919687990655487,3.889714073769201,-106.55522673689731,-35.694542,-3.4869409,26.09089,30.96966,14.18544,11.840906,5.4102154,5.6934185,-22.104908,50.538467,-0.6738724,15.000033,15.454552,6.226415,6.870028,41.882458,18.493986,-21.604824,-34.137424,-30.201818,-2.9497623,-3.8007965,5.8293514,-23.046791,14.399612,42.448956,10.805708,-13.214683,-12.320268
213,132.458984375,127.83440399169922,75.73700714111328,-2.626180108088306,3.846718852471847,-105.70192003481267,-35.433735,-4.8575964,26.361862,27.537508,18.785372,8.800004,7.3901806,5.9664855,-23.555647,45.9815,-1.3671187,15.000033,14.635999,6.2876253,7.0949974,42.073032,18.327179,-21.544958,-34.18671,-30.522837,-3.0882685,-3.6960688,5.850821,-23.0534,13.274384,40.358196,10.584675,-13.438337,-12.352808
214,133.49148559570312,128.88107299804688,75.704833984375,-2.407242821632628,3.737823289845934,-104.7793401919444,-34.84162,-6.499617,26.131096,23.442774,23.54267,4.58096,9.58305,6.3769507,-25.157581,40.871468,-2.4897902,15.000033,13.679633,6.4113507,7.41327,42.036472,18.324001,-21.606556,-34.213528,-30.862686,-3.1830642,-3.4399364,5.961508,-23.023615,12.248154,38.166687,10.312677,-13.703932,-12.496017
215,134.49386596679688,129.94583129882812,75.60255432128906,-2.398412286318478,3.6162487275730304,-103.94431731940536,-34.248703,-7.933867,25.445053,19.545895,27.693203,-0.217357,11.813781,7.0600004,-27.134119,35.55817,-3.897498,13.719423,12.784664,6.715895,7.7254343,41.778816,18.477928,-21.750696,-34.22485,-31.075068,-3.2406158,-3.1440303,6.1544337,-22.963428,11.317197,35.98747,9.993565,-14.013602,-12.746806
216,135.45115661621094,131.0421905517578,75.4339370727539,-2.6781897465581026,3.6168422893885537,-103.34732352975689,-34.374374,-8.575805,24.654991,17.438839,30.000067,-4.8829274,13.696619,8.15633,-29.145147,30.483658,-5.4624276,11.221494,12.146477,7.23268,7.8712907,41.29466,18.770546,-21.92836,-34.214493,-31.013039,-3.2639563,-2.925431,6.4046307,-22.879261,10.491086,33.948433,9.633374,-14.370451,-13.104295
217,136.39572143554688,132.1331329345703,75.1976318359375,-3.0961492517581606,3.5128402990293583,-102.90845545175085,-35.18983,-8.427141,24.330614,17.858154,30.000067,-9.525896,15.507189,9.526503,-30.74979,25.625845,-7.3957267,8.929636,11.677567,7.8843575,8.092249,40.561237,19.210167,-22.146423,-34.19851,-30.55109,-3.2127492,-2.8147612,6.7348247,-22.78261,9.801034,32.0296,9.206734,-14.826579,-13.619685
218,137.35446166992188,133.23802185058594,74.9473876953125,-3.3301536601301835,3.499441576653191,-102.40732591616995,-35.607185,-8.563824,24.347198,17.54174,30.000067,-14.217685,16.933119,10.719522,-32.204006,21.161118,-9.848263,6.768976,11.1581135,8.337579,8.286581,39.54501,19.797434,-22.433151,-34.13284,-29.804321,-3.101659,-2.7549322,7.13776,-22.662725,9.235775,30.189205,8.719907,-15.361547,-14.284012
219,138.37692260742188,134.36233520507812,74.67447662353516,-3.322136815044784,3.593087844108346,-101.72812494960904,-35.51496,-8.842697,25.905989,16.357761,30.000067,-15.000033,17.568888,11.348266,-33.693092,18.035181,-12.762299,4.9837255,10.475633,8.568382,8.461801,38.332123,20.484035,-22.787937,-34.02613,-28.96191,-3.0029101,-2.7244346,7.573577,-22.523525,8.730702,28.496655,8.217229,-15.865359,-14.988435
220,139.4153289794922,135.50247192382812,74.40485382080078,-3.2081914064782477,3.727640210798873,-101.04571361419171,-35.120518,-9.527824,26.519915,14.301082,30.000067,-15.000033,17.358677,11.395521,-35.11927,16.543995,-15.724174,3.6813662,9.769051,8.706702,8.6617,36.955975,21.188417,-23.181877,-33.825974,-28.210686,-2.988984,-2.7092247,7.9619026,-22.35785,8.250269,27.054598,7.7562284,-16.234386,-15.627593
221,140.45101928710938,136.65115356445312,74.1644058227539,-3.2718670376876617,3.658480228664652,-100.62743784065599,-34.709927,-10.121622,25.132046,12.46941,29.163664,-15.000033,16.606373,11.059887,-36.149517,16.629662,-18.563627,2.8750763,9.276217,9.084055,9.07582,35.368652,21.856823,-23.596842,-33.52032,-27.484636,-3.0636578,-2.7582414,8.275312,-22.176304,7.79821,25.847708,7.316832,-16.429508,-16.205742
222,141.4877166748047,137.8076934814453,73.9530258178711,-3.4929290477923027,3.4562254046526064,-100.38733301402927,-36.16406,-9.705777,22.627407,15.354847,24.218987,-15.000033,15.368558,10.382299,-36.870445,18.0739,-21.467934,2.3990543,8.891398,9.641116,9.627622,33.537968,22.470612,-24.038153,-33.08443,-26.705473,-3.18946,-2.871733,8.5210085,-21.988129,7.4178376,24.866148,6.884457,-16.512186,-16.767334
223,142.53700256347656,138.9840850830078,73.7792739868164,-3.745853618947694,3.233926048335976,-100.34515782945162,-37.815712,-9.124036,19.865799,18.913788,18.745169,-15.000033,13.734792,9.391827,-37.3545,20.41105,-24.255198,2.0659533,8.607424,10.211435,10.215518,31.602436,23.000471,-24.485527,-32.524563,-26.025993,-3.3639584,-2.9625466,8.67698,-21.786085,7.142237,24.202253,6.515388,-16.524736,-17.262547
224,143.61329650878906,140.1547393798828,73.63912963867188,-3.909518230793771,3.0521882383899537,-100.5573056721858,-39.26772,-8.387399,17.856281,22.334064,13.9208555,-15.000033,11.844468,8.132613,-37.62915,23.197538,-26.764881,1.701549,8.437089,10.626327,10.77643,29.702188,23.41442,-24.910652,-31.844423,-25.597595,-3.5801218,-2.947183,8.7135,-21.557732,7.009805,23.958986,6.259444,-16.51214,-17.644049
225,144.71176147460938,141.311767578125,73.53168487548828,-3.914632756666191,2.917430013543285,-101.18411656414597,-40.442062,-7.3568273,16.867107,25.48352,9.875671,-15.000033,9.552609,6.4280224,-37.57218,26.735008,-29.019936,1.2900896,8.483916,10.820314,11.316748,27.85677,23.671463,-25.27951,-31.015089,-25.63364,-3.8992894,-2.860689,8.550896,-21.305737,7.055985,24.225597,6.1613116,-16.522024,-17.872887
226,145.79920959472656,142.43194580078125,73.4542236328125,-3.786939284793922,2.7970132689362535,-102.18117671747706,-41.471317,-6.0627785,16.377834,28.628857,6.0869446,-15.000033,6.8975215,4.3273664,-37.134438,30.962004,-31.000591,0.90977794,8.714469,10.851823,11.872794,26.008226,23.759682,-25.572666,-30.030561,-25.980589,-4.2974176,-2.7437959,8.205682,-21.038015,7.274875,24.94023,6.1792693,-16.519726,-17.986788
227,146.85775756835938,143.52711486816406,73.4045181274414,-3.5456751981724484,2.691172900321078,-103.25075267741019,-42.293198,-4.710783,16.142836,31.642305,2.6629472,-15.000033,4.21704,2.1359758,-36.533398,35.107296,-32.58367,0.5486229,8.906052,10.732186,12.429712,24.160799,23.71015,-25.808594,-28.917965,-26.245903,-4.641826,-2.5133297,7.805376,-20.74112,7.628631,25.977692,6.2322845,-16.427742,-18.05405
228,147.893798828125,144.5907440185547,73.39319610595703,-3.2466313752829983,2.595353377347967,-104.08038611426932,-42.872097,-3.4933922,15.896018,34.455433,-0.30705622,-15.000033,1.8164942,0.12872082,-36.045193,38.549065,-33.720448,0.19118412,8.84327,10.492817,12.962788,22.311377,23.583221,-26.035425,-27.712126,-26.046692,-4.800687,-2.07165,7.490189,-20.388361,8.062463,27.213097,6.2352552,-16.170376,-18.140854
229,148.89370727539062,145.62596130371094,73.42449188232422,-2.8550537500490982,2.515640324859802,-104.63709199925081,-43.18389,-2.4458132,15.661251,37.06431,-2.7303143,-15.000033,-0.34606797,-1.7718375,-35.736717,41.402073,-34.400604,-0.18087378,8.514905,10.062332,13.461114,20.458467,23.4121,-26.28781,-26.379396,-25.275143,-4.737166,-1.2946285,7.267618,-19.944574,8.564718,28.71395,6.179595,-15.700894,-18.226551
230,149.85081481933594,146.631103515625,73.48895263671875,-2.3684936598829243,2.4523776312813883,-105.05738755726026,-43.259815,-1.4489261,15.53284,39.533085,-4.698561,-15.000033,-2.4084563,-3.6873722,-35.494167,43.981968,-34.684727,-0.5437438,8.034984,9.439809,13.927873,18.606712,23.206541,-26.554333,-24.934837,-24.155657,-4.5092525,-0.2595398,7.0896697,-19.402737,9.13867,30.511341,6.0945563,-15.071457,-18.285923
231,150.77761840820312,147.60218811035156,73.57810974121094,-1.911024971991008,2.385522623028368,-105.283223059971,-43.16392,-0.46988717,15.341012,41.905594,-6.399208,-15.000033,-4.2286773,-5.440135,-35.364674,46.06812,-34.676853,-0.8604422,7.3847027,8.779713,14.34813,16.763447,22.999548,-26.843157,-23.49708,-22.807129,-4.1315746,0.8335225,7.0309815,-18.782064,9.749361,32.408398,5.9633584,-14.34774,-18.375795
232,151.6870880126953,148.53858947753906,73.6864013671875,-1.5724225875966962,2.302600560110486,-105.22899236093754,-42.955124,0.47515026,14.977842,44.176403,-7.9909077,-14.807397,-5.6935577,-6.92208,-35.41951,47.508747,-34.52092,-1.084376,6.5260754,8.207305,14.705545,14.93885,22.838247,-27.172943,-22.19304,-21.350311,-3.634416,1.7898326,7.171376,-18.117222,10.356273,34.20564,5.778368,-13.597465,-18.550299
233,152.58306884765625,149.45730590820312,73.8101806640625,-1.36601653203434,2.1870943453691445,-104.7899362264286,-42.643894,1.3392131,14.474043,46.384888,-9.4937315,-13.907964,-6.7354355,-8.135783,-35.74994,48.25395,-34.27669,-1.1834519,5.3817377,7.7357736,15.005626,13.13714,22.759941,-27.573027,-21.062685,-19.644438,-2.9383183,2.616113,7.5510545,-17.415545,10.964536,35.908657,5.474067,-12.735746,-18.856892
234,153.4442596435547,150.36575317382812,73.95774841308594,-1.269834770457486,2.0460219831895423,-104.04654958665434,-42.230488,2.1829398,13.777515,48.56096,-10.866867,-12.868522,-7.429787,-9.122785,-36.320152,48.417934,-33.88014,-1.2003444,4.012293,7.3196435,15.248265,11.370938,22.768848,-28.053484,-20.074009,-17.706278,-2.055844,3.3863232,8.13271,-16.668362,11.588532,37.591503,5.092557,-11.75899,-19.246447
235,154.2967987060547,151.2686767578125,74.13227081298828,-1.2815454130607473,1.9133971105334153,-103.16844924123545,-41.745632,3.0899017,12.944801,50.61544,-12.126429,-11.769098,-7.911902,-9.907051,-37.00926,48.14446,-33.301125,-1.1869038,2.5699756,6.971646,15.413924,9.658114,22.854704,-28.602556,-19.237852,-15.877005,-1.1774784,4.02363,8.87744,-15.89645,12.201998,39.15948,4.7862434,-10.85883,-19.633701
236,155.1360321044922,152.15093994140625,74.33426666259766,-1.3949795653171406,1.8238897878943818,-102.32546377836086,-41.218464,4.1359553,12.040123,52.457256,-13.284031,-10.693462,-8.3187475,-10.504265,-37.691174,47.562794,-32.501373,-1.1938782,1.2022344,6.710332,15.493021,8.014408,23.000471,-29.197964,-18.561026,-14.489223,-0.5058126,4.4722095,9.752683,-15.13669,12.779574,40.505222,4.7085004,-10.22875,-19.939167
237,155.97410583496094,153.03033447265625,74.56779479980469,-1.668988522427312,1.7908930809298218,-101.47851533601334,-40.711372,5.378545,10.993699,54.141514,-14.347548,-9.64222,-8.615391,-10.807105,-38.426094,46.5694,-31.480917,-1.2491676,-0.11509033,6.6087594,15.480209,6.3963027,23.205355,-29.868374,-18.031492,-13.607596,-0.10214089,4.7271466,10.808944,-14.405296,13.336649,41.58013,4.9781876,-9.952818,-20.183187
238,156.8224334716797,153.8972625732422,74.84200286865234,-2.085994703596165,1.801064831601591,-100.56424201136502,-40.21492,6.766161,9.801047,55.689804,-15.312075,-8.580212,-8.759703,-10.834906,-39.261616,45.138027,-30.25768,-1.3192985,-1.4468201,6.6454515,15.398109,4.812293,23.468765,-30.615696,-17.649706,-13.055898,0.12908922,4.8305826,12.047077,-13.700365,13.891344,42.43867,5.491775,-9.919021,-20.393589
239,157.6870880126953,154.7602081298828,75.15664672851562,-2.5225741020413563,1.845089918120881,-99.71569465438117,-39.643986,8.207127,8.634738,56.973812,-16.165867,-7.5413837,-8.88337,-10.786305,-40.039547,43.512127,-28.819042,-1.3720256,-2.7134166,6.699344,15.27747,3.3568764,23.768637,-31.361233,-17.436396,-12.79434,0.21881157,4.805245,13.358158,-13.035301,14.422468,43.127,6.0700655,-10.024912,-20.50506
240,158.56517028808594,155.6079559326172,75.50813293457031,-2.8550418147936814,1.9078747648357182,-99.06445660046067,-38.899075,9.609518,7.675027,57.88057,-16.902613,-6.561469,-9.114849,-10.868365,-40.60115,41.94693,-27.154453,-1.3711433,-3.8389404,6.654753,15.139354,2.114698,24.071354,-32.0172,-17.400457,-12.779866,0.20094825,4.6675515,14.635822,-12.436484,14.904394,43.68693,6.537032,-10.164708,-20.454048
