unveil-humanoid-operators/unveil-humanoid-operators.github.io/feature-analysis-animation/data/feature_matrix_instances/age_waist_mean_vel_jogging_A122_exercise_2_003__A122.csv
Frame,root_translateX,root_translateY,root_translateZ,root_rotateX,root_rotateY,root_rotateZ,left_hip_pitch_joint_dof,left_hip_roll_joint_dof,left_hip_yaw_joint_dof,left_knee_joint_dof,left_ankle_pitch_joint_dof,left_ankle_roll_joint_dof,right_hip_pitch_joint_dof,right_hip_roll_joint_dof,right_hip_yaw_joint_dof,right_knee_joint_dof,right_ankle_pitch_joint_dof,right_ankle_roll_joint_dof,waist_yaw_joint_dof,waist_roll_joint_dof,waist_pitch_joint_dof,left_shoulder_pitch_joint_dof,left_shoulder_roll_joint_dof,left_shoulder_yaw_joint_dof,left_elbow_joint_dof,left_wrist_roll_joint_dof,left_wrist_pitch_joint_dof,left_wrist_yaw_joint_dof,right_shoulder_pitch_joint_dof,right_shoulder_roll_joint_dof,right_shoulder_yaw_joint_dof,right_elbow_joint_dof,right_wrist_roll_joint_dof,right_wrist_pitch_joint_dof,right_wrist_yaw_joint_dof
0,-0.4364962577819824,2.0608763694763184,78.3958969116211,1.312334906670227,-1.4213693212457876,-84.40465925898096,0.81666267,1.0994368,-0.7758108,9.284945,-10.315634,-1.6620773,5.23207,-10.793333,-21.590588,8.061559,-9.743669,7.944933,-8.883181,-1.6703454,7.0974574,-1.5597937,18.793669,-44.51323,57.529034,-19.450283,11.768687,-1.482453,-7.0210514,-15.558964,37.126907,65.15879,16.407795,-2.3119762,8.962121
1,-0.4432954788208008,2.062338352203369,78.39608764648438,1.3094144191058248,-1.393755825961518,-84.369954769349,0.7803793,1.1026704,-0.81242174,9.270299,-10.299139,-1.6807532,5.2169604,-10.782236,-21.62421,8.04688,-9.741053,7.930025,-8.913818,-1.6643592,7.0720677,-1.5708063,18.822084,-44.60497,57.39871,-18.576862,11.97554,-1.7791848,-7.066888,-15.568346,37.114555,65.176834,16.282455,-2.361525,8.943668
2,-0.4552929699420929,2.061265230178833,78.39789581298828,1.3074903466812873,-1.3656152611941026,-84.33618091493307,0.74478644,1.1060449,-0.84822655,9.253407,-10.281893,-1.7005663,5.20058,-10.7710495,-21.657003,8.032773,-9.738434,7.915132,-8.921039,-1.6607608,7.048354,-1.5916499,18.861376,-44.733784,57.260845,-17.691792,12.185775,-2.076059,-7.089953,-15.587823,37.07652,65.17395,16.145533,-2.4120083,8.923763
3,-0.4634190797805786,2.0617072582244873,78.39897155761719,1.3051279008724588,-1.3382530733924887,-84.30098881144404,0.7086112,1.108628,-0.8851105,9.239125,-10.2652,-1.7181691,5.183745,-10.761548,-21.690556,8.022394,-9.737848,7.9003854,-8.912269,-1.6580205,7.0357566,-1.6059833,18.928255,-44.86912,57.091152,-16.855043,12.381472,-2.378052,-7.0878625,-15.631319,37.010048,65.12796,16.014544,-2.455891,8.909827
4,-0.4764743149280548,2.0650808811187744,78.40010070800781,1.3031022192908897,-1.3131889625406192,-84.26265269597242,0.6724292,1.1103001,-0.9247811,9.23012,-10.249795,-1.7302414,5.1725354,-10.752085,-21.727423,8.007381,-9.735445,7.885652,-8.921526,-1.6514013,7.0243397,-1.6112878,18.979107,-44.95368,56.93803,-16.115244,12.541399,-2.6852968,-7.1022854,-15.671156,36.956024,65.090614,15.916446,-2.4895518,8.901138
5,-0.48302480578422546,2.068692922592163,78.40084075927734,1.302304429569573,-1.2925789633298486,-84.22279657007165,0.6379357,1.1099907,-0.9652594,9.229058,-10.236694,-1.7344099,5.160567,-10.747846,-21.763824,8.006047,-9.740314,7.8702726,-8.936552,-1.6436341,7.016722,-1.6130373,19.017403,-45.007355,56.811962,-15.498542,12.639827,-2.9997382,-7.128931,-15.706205,36.902737,65.06107,15.860586,-2.5131934,8.904432
6,-0.49124807119369507,2.0710933208465576,78.4029769897461,1.3017819125759469,-1.2752367202375379,-84.18152749094598,0.6049286,1.1089634,-1.0067639,9.233333,-10.225362,-1.7330819,5.153689,-10.744074,-21.801273,8.002002,-9.743946,7.8542542,-8.945954,-1.6344042,7.018789,-1.6098915,19.063986,-45.048355,56.68341,-14.975097,12.696462,-3.31881,-7.147206,-15.753873,36.83371,65.01186,15.8314295,-2.5300915,8.919027
7,-0.5019104480743408,2.075732707977295,78.40364837646484,1.3008983273968302,-1.2566068136836197,-84.13530178749423,0.5681888,1.106762,-1.0529002,9.239962,-10.213241,-1.7295994,5.1492596,-10.740315,-21.84424,7.9921856,-9.744785,7.8397393,-8.95151,-1.6240548,7.0291963,-1.5954367,19.129957,-45.060635,56.51712,-14.526801,12.760369,-3.6357927,-7.145441,-15.826051,36.742188,64.9177,15.808112,-2.5331945,8.932654
8,-0.5126299858093262,2.0699374675750732,78.40572357177734,1.3000198068194044,-1.232415754993818,-84.08058488962813,0.52282673,1.1028302,-1.1071036,9.244802,-10.197566,-1.7274024,5.138286,-10.738015,-21.895681,7.98767,-9.749006,7.8288393,-8.959757,-1.6140823,7.0378323,-1.5726755,19.204277,-45.02576,56.309277,-14.13262,12.878756,-3.9434283,-7.1326723,-15.908877,36.628716,64.79518,15.768987,-2.5203211,8.930786
9,-0.5237796902656555,2.071465253829956,78.40691375732422,1.29978701074453,-1.2028236674053108,-84.01558056891977,0.46974608,1.0975573,-1.1706486,9.245073,-10.1771,-1.7274638,5.1313157,-10.732924,-21.959955,7.96556,-9.74479,7.823213,-8.969445,-1.6052848,7.039906,-1.549522,19.27523,-44.93415,56.06081,-13.8055,13.09137,-4.244281,-7.1152434,-15.986873,36.482098,64.66411,15.704188,-2.4827662,8.912687
10,-0.5353102684020996,2.0746898651123047,78.40839385986328,1.2996629502319195,-1.169528168731881,-83.94270950177726,0.4103316,1.0904938,-1.2413601,9.244393,-10.153898,-1.7279251,5.124589,-10.7278595,-22.033564,7.9382443,-9.738554,7.821443,-8.979263,-1.5977794,7.039294,-1.5230201,19.347555,-44.795963,55.77911,-13.548613,13.364741,-4.5410357,-7.092134,-16.064112,36.307922,64.52078,15.626924,-2.425248,8.884558
11,-0.5478519201278687,2.0806541442871094,78.41072845458984,1.3012768886745307,-1.1315754136609188,-83.86359056383931,0.34431395,1.0822166,-1.3185403,9.241948,-10.126923,-1.728271,5.1128182,-10.7236805,-22.11227,7.9133544,-9.733322,7.820686,-8.991803,-1.5923333,7.03451,-1.49432,19.420084,-44.63329,55.496403,-13.330227,13.634179,-4.8254604,-7.070723,-16.138775,36.125263,64.36952,15.543423,-2.367617,8.840534
12,-0.5588845014572144,2.0850000381469727,78.41398620605469,1.3014706127298903,-1.087946242397175,-83.77987467114835,0.26979423,1.0732802,-1.4017376,9.240109,-10.096138,-1.7278981,5.0973396,-10.718722,-22.193745,7.8843064,-9.724521,7.817969,-9.0084715,-1.5889447,7.029268,-1.4571412,19.504662,-44.46624,55.224754,-13.119065,13.83577,-5.0895905,-7.04693,-16.221704,35.948463,64.192276,15.459615,-2.3276427,8.775933
13,-0.5737718939781189,2.090294599533081,78.41604614257812,1.3022752992428523,-1.0366663636495048,-83.68920360247851,0.18407325,1.0625557,-1.4943417,9.239733,-10.060137,-1.7255986,5.0743713,-10.714765,-22.27875,7.856898,-9.714484,7.8141084,-9.033978,-1.5903194,7.0198,-1.4130536,19.595509,-44.2952,54.984116,-12.921915,13.94261,-5.328952,-7.026423,-16.306396,35.78685,63.99876,15.373426,-2.314971,8.680642
14,-0.5892501473426819,2.0985400676727295,78.41939544677734,1.3048894244204126,-0.9790648570511863,-83.59158849530827,0.08776857,1.0500315,-1.5955819,9.241773,-10.020238,-1.7220072,5.0472455,-10.711013,-22.368784,7.8269687,-9.701982,7.8100667,-9.066312,-1.5957681,7.0046587,-1.3664752,19.686077,-44.1116,54.766808,-12.751577,13.992193,-5.5474687,-7.0110464,-16.38716,35.631287,63.797523,15.283067,-2.3186467,8.559564
15,-0.6070327758789062,2.1003122329711914,78.42169952392578,1.3051794991326806,-0.9182215960224693,-83.49227729148991,-0.01178856,1.0381029,-1.6980376,9.240812,-9.978244,-1.719458,5.0155034,-10.706715,-22.459408,7.798701,-9.690172,7.8034625,-9.097462,-1.6005698,6.9923897,-1.3095518,19.79299,-43.919285,54.535587,-12.5853405,14.017462,-5.7503185,-6.9915347,-16.478178,35.470108,63.570065,15.194295,-2.3274155,8.431925
16,-0.6154453158378601,2.107297658920288,78.42472839355469,1.3049781521946848,-0.8578892442909588,-83.39612185136272,-0.10921383,1.0290959,-1.7946358,9.2357645,-9.937921,-1.7202805,4.983564,-10.699458,-22.54767,7.766133,-9.676735,7.791863,-9.1186905,-1.6011175,6.9821577,-1.2518346,19.906023,-43.728943,54.293537,-12.400701,14.048174,-5.9412584,-6.9721103,-16.57047,35.295208,63.326164,15.113461,-2.3286855,8.313282
17,-0.6284675002098083,2.113330125808716,78.43009185791016,1.2999212974965102,-0.799229223688353,-83.3046995598832,-0.20174967,1.0244027,-1.8822805,9.225602,-9.902608,-1.727809,4.945518,-10.690979,-22.630701,7.744552,-9.671011,7.7707014,-9.125324,-1.594917,6.9738994,-1.1921327,20.02492,-43.54145,54.030647,-12.177812,14.085073,-6.1179357,-6.949618,-16.663855,35.100506,63.06893,15.043766,-2.3245602,8.205226
18,-0.6469467878341675,2.116720676422119,78.43299865722656,1.2940281948203107,-0.7405156410467938,-83.21526546861574,-0.29318404,1.0227835,-1.9653137,9.211889,-9.869612,-1.7400314,4.90538,-10.68002,-22.711977,7.7226324,-9.66604,7.742522,-9.122012,-1.5843812,6.9666886,-1.1294024,20.149612,-43.353542,53.755657,-11.932978,14.114066,-6.279471,-6.924855,-16.758446,34.891598,62.797016,14.981767,-2.3196306,8.099784
19,-0.6568098664283752,2.12719988822937,78.4363784790039,1.2874094788144343,-0.6796266871167085,-83.12665113711317,-0.38676628,1.0204378,-2.0465808,9.195997,-9.834207,-1.7509636,4.8621073,-10.66935,-22.792208,7.699513,-9.65988,7.715815,-9.114584,-1.5745587,6.9608407,-1.0693377,20.279726,-43.167988,53.487785,-11.699959,14.144258,-6.431028,-6.9046116,-16.85488,34.674313,62.507935,14.919709,-2.3081756,7.9999995
20,-0.6637910008430481,2.145435333251953,78.437744140625,1.2834138332035423,-0.6144441319140295,-83.03787884605981,-0.4875805,1.014786,-2.129355,9.183348,-9.794081,-1.7547085,4.8158784,-10.6608305,-22.872433,7.670449,-9.647504,7.699133,-9.108652,-1.5696524,6.9570894,-1.0173682,20.414278,-42.986984,53.24596,-11.51113,14.185091,-6.578368,-6.8953614,-16.954191,34.454304,62.198856,14.850085,-2.2847028,7.909082
21,-0.6767507791519165,2.1601250171661377,78.44133758544922,1.282263551850703,-0.5426689800187233,-82.94608856709881,-0.599235,1.0042367,-2.216521,9.174424,-9.745713,-1.7482904,4.765775,-10.655456,-22.955467,7.633589,-9.62713,7.6964197,-9.106842,-1.5708696,6.9537005,-0.976849,20.552193,-42.809307,53.024918,-11.366716,14.256504,-6.7216268,-6.8964515,-17.056763,34.228592,61.866108,14.777073,-2.2387626,7.844156
22,-0.6891740560531616,2.1698431968688965,78.44381713867188,1.2822253735986238,-0.4658926713030354,-82.85256781423467,-0.72031784,0.9925986,-2.3062587,9.170572,-9.69309,-1.7355717,4.7125635,-10.649853,-23.040222,7.589718,-9.599889,7.7026677,-9.1058,-1.5737336,6.950881,-0.94508445,20.692947,-42.634613,52.819614,-11.251754,14.348046,-6.8582053,-6.9057207,-17.163189,33.996662,61.512817,14.703573,-2.176456,7.798098
23,-0.699232816696167,2.182769298553467,78.44607543945312,1.278918911821135,-0.3884378261085496,-82.76207198456186,-0.84402394,0.9837683,-2.394395,9.170213,-9.641427,-1.7204312,4.657932,-10.640508,-23.122469,7.54271,-9.569872,7.7125664,-9.102094,-1.5745072,6.953212,-0.91894484,20.836308,-42.46656,52.6486,-11.177725,14.422838,-6.9897733,-6.9229646,-17.273687,33.764233,61.14079,14.617683,-2.1159935,7.7382555
24,-0.7032478451728821,2.205003499984741,78.44220733642578,1.2615779946380337,-0.31301798495843763,-82.67873977325394,-1.0717534,0.9847118,-2.4810631,9.396606,-9.714119,-1.7082773,4.6097856,-10.612727,-23.201166,7.479738,-9.532869,7.7191625,-9.093329,-1.5621705,6.9651127,-0.89434445,20.981907,-42.30922,52.528957,-11.156194,14.444418,-7.117567,-6.9487123,-17.387976,33.53893,60.752186,14.509841,-2.0753825,7.6315613
25,-0.7115418314933777,2.2202110290527344,78.4383316040039,1.2452851151642719,-0.24215273053244044,-82.60650046173625,-1.2975587,0.9842479,-2.557213,9.631619,-9.79862,-1.7001542,4.560855,-10.586355,-23.270079,7.419435,-9.499401,7.7243905,-9.07601,-1.5524062,6.986464,-0.8718722,21.130203,-42.16422,52.473244,-11.183438,14.387866,-7.237664,-6.984113,-17.506598,33.323383,60.34865,14.361956,-2.0625038,7.4649568
26,-0.7130564451217651,2.2493467330932617,78.43699645996094,1.230944337789886,-0.17378823698753706,-82.54254687976783,-1.5147066,0.9811378,-2.62541,9.854782,-9.880706,-1.6931483,4.5106983,-10.562463,-23.33145,7.36033,-9.467385,7.7305527,-9.052234,-1.5459557,7.0156217,-0.85253507,21.281124,-42.02873,52.468822,-11.255241,14.277957,-7.350738,-7.026344,-17.62897,33.11144,59.926247,14.183032,-2.0661285,7.2575245
27,-0.7169216871261597,2.2758889198303223,78.4342041015625,1.2152949648257974,-0.10718991594799195,-82.4839629205116,-1.7319471,0.97845125,-2.6898484,10.083627,-9.966686,-1.6830045,4.457955,-10.538712,-23.386417,7.305119,-9.435355,7.7360487,-9.023969,-1.5395683,7.0514927,-0.83665884,21.433886,-41.901806,52.5011,-11.384196,14.152595,-7.4652333,-7.078917,-17.754517,32.90553,59.488663,14.009279,-2.0766506,7.0236073
28,-0.7192597389221191,2.282846450805664,78.43225860595703,1.1947979235713204,-0.041765169877068645,-82.42754063114215,-1.9617271,0.9792562,-2.754947,10.34363,-10.065289,-1.6656437,4.405102,-10.510412,-23.436943,7.2494965,-9.398757,7.739018,-8.993757,-1.5292093,7.0934205,-0.82427406,21.587147,-41.781635,52.556065,-11.581995,14.049816,-7.5894327,-7.1437016,-17.882244,32.7056,59.038998,13.873848,-2.0847354,6.7780375
29,-0.7172735929489136,2.312103509902954,78.42880249023438,1.1695680557840287,0.019570862201076247,-82.36735953653576,-2.1917238,0.98361814,-2.8257027,10.612383,-10.165027,-1.6423768,4.354851,-10.479016,-23.487085,7.197782,-9.359739,7.7386994,-8.964799,-1.5170687,7.144028,-0.8209989,21.740068,-41.66343,52.629044,-11.863247,13.994678,-7.7207294,-7.223944,-18.01227,32.516335,58.576683,13.793298,-2.0898645,6.509784
30,-0.7132111191749573,2.3326213359832764,78.42549896240234,1.1407455877740045,0.07757482484635664,-82.30688674601579,-2.4260218,0.99000514,-2.898626,10.897961,-10.270733,-1.6145,4.305264,-10.44594,-23.53478,7.1501007,-9.319212,7.736074,-8.935557,-1.5034966,7.202746,-0.82540363,21.892416,-41.549343,52.728985,-12.217705,13.962331,-7.856282,-7.3152237,-18.14381,32.333313,58.09892,13.74347,-2.096426,6.2156353
31,-0.7098789811134338,2.3534507751464844,78.42231750488281,1.107601689438603,0.1383477729876155,-82.25703042520999,-2.6720319,1.0000167,-2.9649844,11.207148,-10.391033,-1.5779036,4.249416,-10.408061,-23.571728,7.100525,-9.273327,7.732369,-8.900071,-1.4842666,7.2623034,-0.827977,22.043592,-41.449005,52.864605,-12.619732,13.915723,-8.00417,-7.421041,-18.27656,32.157185,57.616882,13.713271,-2.103841,5.923088
32,-0.7066679000854492,2.375326633453369,78.41888427734375,1.0689352102153555,0.20798636116795088,-82.22886130057925,-2.9392748,1.0150155,-3.0158179,11.551546,-10.537359,-1.5285476,4.177447,-10.363927,-23.589334,7.0491486,-9.220975,7.728873,-8.852454,-1.4547312,7.315587,-0.8193923,22.192533,-41.372227,53.044376,-13.043871,13.817826,-8.172718,-7.541658,-18.409857,31.984661,57.138916,13.687038,-2.1112742,5.6593432
33,-0.6888312101364136,2.401338815689087,78.4146728515625,1.0256157256594804,0.2901318384557043,-82.22606458688873,-3.2271535,1.0345762,-3.0482476,11.924407,-10.710095,-1.4636263,4.0853577,-10.3132715,-23.58334,6.9938145,-9.16009,7.7233,-8.788858,-1.4151273,7.3549814,-0.80030566,22.338749,-41.32276,53.27994,-13.479839,13.641891,-8.375837,-7.6786375,-18.543629,31.81791,56.670925,13.6785965,-2.1219814,5.446326
34,-0.6709693074226379,2.422201156616211,78.4110107421875,0.9775504449399729,0.38080438111623705,-82.24244459306755,-3.5317283,1.0587331,-3.0674736,12.322821,-10.904019,-1.3858752,3.9697838,-10.260951,-23.557425,6.955137,-9.10187,7.716014,-8.712948,-1.3670772,7.3858356,-0.7752761,22.481762,-41.29522,53.56484,-13.942222,13.414059,-8.605949,-7.830507,-18.677826,31.65614,56.207253,13.68863,-2.135429,5.2646103
35,-0.6557493209838867,2.4470810890197754,78.40576934814453,0.9232008302008895,0.47452557442717036,-82.27463549897216,-3.8567135,1.0880222,-3.0764828,12.763584,-11.122165,-1.2990099,3.831035,-10.208918,-23.516146,6.9494586,-9.057099,7.711944,-8.629753,-1.3092823,7.420317,-0.7430037,22.620539,-41.287693,53.882416,-14.4456,13.17566,-8.839657,-7.9977446,-18.812216,31.496254,55.74259,13.687123,-2.1449068,5.079121
36,-0.6346091628074646,2.4735336303710938,78.40045928955078,0.8610067467552704,0.5658459855729425,-82.31906121485682,-4.207066,1.1230778,-3.0784523,13.264916,-11.36802,-1.2064822,3.6905174,-10.150174,-23.467976,6.942841,-9.009075,7.7160764,-8.54418,-1.2400627,7.4706054,-0.70255286,22.753546,-41.2988,54.216797,-15.004171,12.967701,-9.05314,-8.178524,-18.94591,31.332678,55.2696,13.641448,-2.1434062,4.854837
37,-0.6071794033050537,2.5082623958587646,78.39149475097656,0.7901129635472653,0.6613726631821535,-82.37498655681947,-4.6014996,1.164085,-3.0758896,13.846443,-11.6479,-1.1076207,3.5400186,-10.084212,-23.416994,6.934872,-8.957402,7.731196,-8.458513,-1.156755,7.530934,-0.65868676,22.875277,-41.333763,54.58994,-15.669328,12.780752,-9.239647,-8.379633,-19.072874,31.159178,54.79598,13.524182,-2.1230717,4.575376
38,-0.5749642252922058,2.5401124954223633,78.3796157836914,0.7122399486401958,0.761207562459333,-82.44443843742198,-5.0314527,1.2104484,-3.0668297,14.492747,-11.958165,-1.0001816,3.3794587,-10.012157,-23.359415,6.9261723,-8.902246,7.754302,-8.366144,-1.0611409,7.60086,-0.60931194,22.995466,-41.39542,54.99248,-16.41946,12.6004095,-9.412973,-8.590432,-19.20304,30.974031,54.308575,13.358846,-2.0879927,4.2631025
39,-0.5365781188011169,2.576991558074951,78.36614227294922,0.6276353146416056,0.8500391932879435,-82.52746692813815,-5.4620557,1.2639511,-3.0479991,15.17314,-12.289066,-0.886005,3.2275002,-9.934527,-23.288546,6.9171715,-8.844021,7.781327,-8.269609,-0.95862234,7.6882467,-0.5498227,23.107307,-41.467533,55.3982,-17.151424,12.457964,-9.576266,-8.817074,-19.332018,30.799295,53.820435,13.19071,-2.0526257,3.9366834
40,-0.49332863092422485,2.6127471923828125,78.35092163085938,0.5363135240911066,0.9127830832696758,-82.62401092737018,-5.857872,1.3264915,-3.0160065,15.855506,-12.629869,-0.76777333,3.1022887,-9.851614,-23.19818,6.9088206,-8.783594,7.8083076,-8.168699,-0.8533321,7.8043847,-0.47449163,23.21009,-41.536106,55.772377,-17.763973,12.384655,-9.731978,-9.056492,-19.463072,30.65266,53.330883,13.065646,-2.0310915,3.615768
41,-0.442171186208725,2.646245002746582,78.3366470336914,0.43389795476500476,0.9414551640959684,-82.7328995641387,-6.2146564,1.4029648,-2.9726186,16.554476,-12.990329,-0.64222145,3.0147963,-9.756473,-23.084232,6.900927,-8.723367,7.832041,-8.062977,-0.74144524,7.957893,-0.374121,23.303537,-41.582874,56.109497,-18.196037,12.396868,-9.893271,-9.308196,-19.598951,30.535997,52.832714,13.004154,-2.028429,3.3189871
42,-0.3954981565475464,2.6772725582122803,78.317626953125,0.3211767986878314,0.945432701329236,-82.85453101474155,-6.5450983,1.4916822,-2.9192998,17.26991,-13.368959,-0.5111509,2.9528673,-9.650734,-22.951088,6.893618,-8.662204,7.855325,-7.9537344,-0.6205314,8.141554,-0.25341436,23.38798,-41.618484,56.4254,-18.512564,12.47434,-10.053363,-9.571278,-19.739834,30.44151,52.32397,12.978619,-2.0367312,3.0316358
43,-0.34026849269866943,2.7028257846832275,78.30268096923828,0.2066542385210236,0.935774812394846,-82.99111509727186,-6.8501306,1.5837104,-2.8509817,17.9721,-13.744411,-0.3807678,2.902557,-9.546352,-22.804436,6.8859453,-8.5954075,7.882556,-7.842866,-0.49829888,8.341509,-0.12790827,23.463318,-41.67272,56.719078,-18.800283,12.593334,-10.184405,-9.847725,-19.886202,30.37611,51.817207,12.96743,-2.0512102,2.7230873
44,-0.2779596149921417,2.728435754776001,78.28392028808594,0.09920062420809048,0.9235827224401058,-83.14484770694023,-7.130176,1.669335,-2.7622125,18.62957,-14.096505,-0.25647748,2.8481042,-9.457135,-22.649614,6.8789535,-8.519159,7.918458,-7.7321057,-0.3828556,8.544177,-0.013248033,23.52878,-41.7755,56.989735,-19.146032,12.730107,-10.258228,-10.135314,-20.038065,30.342335,51.32166,12.943039,-2.0665443,2.362843
45,-0.2042088657617569,2.7603979110717773,78.26513671875,-0.005328060997255478,0.9025723820595888,-83.32303345703046,-7.3780375,1.7552338,-2.6505594,19.246735,-14.430407,-0.13982393,2.7961419,-9.377367,-22.48657,6.8718724,-8.438018,7.961239,-7.6127253,-0.27042988,8.754562,0.0902373,23.583841,-41.94765,57.258533,-19.613226,12.895174,-10.307698,-10.44366,-20.198664,30.355387,50.826424,12.884271,-2.0729716,1.941805
46,-0.1270824819803238,2.792249917984009,78.2452163696289,-0.1101822322746874,0.869925369446062,-83.52199542098703,-7.5974164,1.8437617,-2.5192049,19.839693,-14.755291,-0.027743874,2.750979,-9.302248,-22.31303,6.865147,-8.352789,8.009754,-7.4851594,-0.15732294,8.97745,0.18779857,23.627567,-42.17082,57.520382,-20.14245,13.094922,-10.332933,-10.765501,-20.368711,30.405237,50.3253,12.808319,-2.0753248,1.4770073
47,-0.043112047016620636,2.82751727104187,78.2255859375,-0.20547031624244474,0.8419334928947275,-83.72838882959138,-7.7978935,1.92071,-2.3714113,20.378227,-15.047953,0.07974734,2.6948464,-9.246248,-22.13152,6.857402,-8.250655,8.070624,-7.3653774,-0.051922534,9.198021,0.27064013,23.65869,-42.417637,57.73749,-20.63805,13.298595,-10.258165,-11.08396,-20.543623,30.465364,49.846508,12.753498,-2.0913935,0.9765427
48,0.054721541702747345,2.866111993789673,78.20580291748047,-0.27173663769351314,0.8348660651971379,-83.9291857478066,-7.994717,1.9626458,-2.2068582,20.844868,-15.294451,0.18259938,2.6091316,-9.233578,-21.94312,6.8495774,-8.119962,8.151367,-7.2687945,0.02734621,9.399927,0.32969227,23.675945,-42.661747,57.873104,-21.005362,13.474651,-10.008511,-11.38294,-20.714731,30.508238,49.421,12.756626,-2.1398075,0.44794354
49,0.14878220856189728,2.9129254817962646,78.18081665039062,-0.3105227831210236,0.8540209177113987,-84.12569644342682,-8.213603,1.9717133,-2.0240502,21.279247,-15.508765,0.28105468,2.4510274,-9.277427,-21.742752,6.9294796,-8.028822,8.270775,-7.1909823,0.07770909,9.576137,0.37280184,23.677557,-42.913876,57.942245,-21.198454,13.619234,-9.553514,-11.68231,-20.879961,30.553648,49.05343,12.79247,-2.2230794,-0.13001394
50,0.2563612461090088,2.9752655029296875,78.15171813964844,-0.3235959446978708,0.8908861193600216,-84.32405016350202,-8.441339,1.9513367,-1.8203055,21.67958,-15.695161,0.37520096,2.047572,-9.445756,-21.498755,7.506112,-8.190146,8.42441,-7.127134,0.10095009,9.73419,0.40211406,23.662844,-43.181255,57.958775,-21.274979,13.747444,-8.93733,-11.985589,-21.038563,30.608139,48.734608,12.850318,-2.333249,-0.7541883
51,0.3724210262298584,3.0328989028930664,78.12031555175781,-0.2984363896492572,0.9431513019541482,-84.52040009963804,-8.649203,1.8853368,-1.5942904,21.99196,-15.831971,0.46381372,1.2822101,-9.796339,-21.185862,8.834645,-8.693542,8.584643,-7.0904226,0.08944698,9.877635,0.40046746,23.633442,-43.43157,57.884995,-21.29553,13.855541,-8.1974325,-12.260637,-21.182783,30.62783,48.486702,12.990419,-2.475768,-1.3806707
52,0.493257075548172,3.0907492637634277,78.08877563476562,-0.21600216355260574,1.009979037959596,-84.71322750641576,-8.8159,1.7510269,-1.3408455,22.174566,-15.903963,0.5461241,0.32956693,-10.27934,-20.823309,10.511192,-9.273892,8.722026,-7.091923,0.028296048,10.007733,0.3525877,23.593561,-43.631996,57.680775,-21.321083,13.938985,-7.370728,-12.475882,-21.299675,30.567478,48.33371,13.271709,-2.6573918,-1.9654074
53,0.6177342534065247,3.1585891246795654,78.0513916015625,-0.032845135739885276,1.1101013138183837,-84.90218921036053,-8.933919,1.5002612,-1.0388358,22.169186,-15.881692,0.6211673,-0.7999854,-10.932985,-20.413912,12.483524,-10.008597,8.833097,-7.131667,-0.12867075,10.093178,0.25813514,23.547197,-43.834087,57.37511,-21.364723,14.009552,-6.4016266,-12.645528,-21.378742,30.438925,48.330368,13.794952,-2.9223888,-2.506601
54,0.7521149516105652,3.2387566566467285,78.00858306884766,0.2341567038263454,1.2382695998909317,-85.08774766005321,-9.011545,1.1515801,-0.695193,22.003225,-15.776061,0.6908716,-2.0816298,-11.724546,-19.953964,14.700074,-10.857102,8.932808,-7.2067304,-0.36972344,10.140032,0.13103224,23.497944,-44.032154,56.971153,-21.395618,14.066464,-5.292294,-12.789166,-21.414736,30.26187,48.46346,14.496717,-3.2577946,-3.0233016
55,0.8921043276786804,3.308850049972534,77.96280670166016,0.5198168475214807,1.3580923459578174,-85.27063317010231,-9.049484,0.77657264,-0.34434065,21.759996,-15.631775,0.7598237,-3.5235298,-12.582943,-19.416853,17.218103,-11.625105,9.024405,-7.321392,-0.6274367,10.204822,-0.026991885,23.44787,-44.110554,56.391396,-21.408009,14.08551,-4.1666546,-12.880221,-21.408276,30.00144,48.650093,15.190865,-3.581727,-3.503982
56,1.0415090322494507,3.3985655307769775,77.91944885253906,0.7616887246908143,1.433037237089333,-85.45217590262016,-9.047473,0.4442361,-0.019197993,21.521906,-15.492214,0.83332014,-5.135258,-13.436377,-18.778326,20.098007,-12.114542,9.116761,-7.4818306,-0.8375695,10.344083,-0.21416254,23.40097,-43.95067,55.554817,-21.394665,14.04321,-3.148863,-12.896592,-21.360817,29.626688,48.809193,15.695907,-3.8091745,-3.9402544
57,1.193129062652588,3.50107741355896,77.88809204101562,0.9647911113394809,1.4735062307641202,-85.61792693983892,-9.016953,0.14208466,0.2665807,21.276592,-15.346136,0.9159951,-6.9223776,-14.289107,-18.043505,23.372826,-12.348984,9.255987,-7.704026,-1.0040481,10.548507,-0.43205872,23.356703,-43.50406,54.466717,-21.365606,13.920217,-2.3262138,-12.849439,-21.254898,29.07556,48.941067,15.92119,-3.8712263,-4.3025556
58,1.3500820398330688,3.6119251251220703,77.86793518066406,1.1546002315818291,1.4915987724178101,-85.77191734279556,-8.955419,-0.1553959,0.5308892,20.993942,-15.178792,1.0039766,-8.867485,-15.145736,-17.218893,26.96899,-12.390336,9.438621,-7.987245,-1.1546053,10.796879,-0.6705279,23.326612,-42.82954,53.141697,-21.318663,13.735986,-1.615256,-12.752937,-21.092525,28.392073,49.081673,15.983228,-3.8250859,-4.606831
59,1.5118203163146973,3.7318084239959717,77.84999084472656,1.3024320933020104,1.453520904892576,-85.94370507579706,-8.834742,-0.40314355,0.7906207,20.714474,-15.02091,1.0904851,-10.944756,-15.93695,-16.286219,30.78761,-12.099257,9.603287,-8.304952,-1.271504,11.120839,-0.9301075,23.315027,-41.980003,51.54738,-21.22694,13.524226,-0.8820336,-12.603918,-20.880196,27.692604,49.239853,15.99928,-3.777426,-4.9141426
60,1.6752939224243164,3.859508514404297,77.8458023071289,1.3826193926553174,1.3256920755252046,-86.16338411139255,-8.62801,-0.559757,1.0643458,20.483047,-14.905287,1.1691834,-13.13555,-16.602915,-15.226974,34.74965,-11.332922,9.684261,-8.635465,-1.337974,11.5529375,-1.2059917,23.32601,-41.001053,49.64415,-21.06133,13.32006,0.0069622756,-12.392089,-20.632088,27.097408,49.414738,16.086946,-3.835584,-5.2866864
61,1.839158296585083,3.990447521209717,77.85177612304688,1.3890089456832657,1.1008504335963025,-86.4454018148936,-8.32136,-0.6172327,1.3631631,20.287355,-14.826723,1.2398431,-15.486258,-17.159264,-14.028617,38.947453,-9.7609,9.654269,-8.981519,-1.3478621,12.110408,-1.4876724,23.362753,-39.895054,47.432163,-20.907616,13.068067,1.1557256,-12.120425,-20.357065,26.6151,49.58772,16.272125,-4.036915,-5.7700863
62,1.9983046054840088,4.119892120361328,77.86830139160156,1.3367190988738682,0.7957210686383953,-86.77144532996076,-7.9284654,-0.5987635,1.6766007,20.108578,-14.770881,1.3058304,-17.986683,-17.610033,-12.709643,43.370274,-7.5355515,9.561424,-9.352927,-1.3119255,12.774478,-1.7761157,23.427818,-38.639107,44.917915,-20.748108,12.774624,2.4700387,-11.779641,-20.056149,26.18728,49.750458,16.49369,-4.321626,-6.3206515
63,2.1507039070129395,4.244159698486328,77.89160919189453,1.2321384681382288,0.4127757817025883,-87.12339595602427,-7.467424,-0.5095947,1.9918593,19.991776,-14.761758,1.3654474,-20.534899,-17.884207,-11.3059845,47.811684,-5.259264,9.447626,-9.738306,-1.2387185,13.523083,-2.0813594,23.524363,-37.239464,42.063976,-20.40173,12.573799,3.788559,-11.343049,-19.736942,25.837341,49.921524,16.74184,-4.652452,-6.866498
64,2.302137613296509,4.3583149909973145,77.91954803466797,1.079017804415766,-0.04505931766605524,-87.48326625373016,-6.9568825,-0.35081092,2.2957559,19.981089,-14.823306,1.416321,-23.031717,-17.91097,-9.857811,52.09772,-3.5569086,9.356569,-10.125796,-1.1305915,14.334654,-2.411185,23.655924,-35.70048,38.823486,-19.693409,12.605852,4.950728,-10.782563,-19.410574,25.591309,50.1166,17.010784,-4.9913607,-7.335871
65,2.4439783096313477,4.449586868286133,77.95162963867188,0.8754548749054847,-0.5983306266048314,-87.87340409954587,-6.3592315,-0.112239175,2.6102016,20.058943,-14.957384,1.4583813,-25.480766,-17.686607,-8.362975,56.302353,-2.5740821,9.199214,-10.4986725,-0.9836262,15.229684,-2.7136436,23.823559,-33.977047,35.063705,-18.426304,12.97965,5.974772,-10.078083,-19.085135,25.449991,50.307705,17.302414,-5.3349023,-7.7496567
66,2.5753695964813232,4.549551486968994,77.97736358642578,0.6185297324182057,-1.2428346687604208,-88.29427957640388,-5.6776,0.20796782,2.9359758,20.212915,-15.153727,1.4911463,-27.919596,-17.230793,-6.8276687,60.520226,-2.006164,8.988913,-10.867124,-0.79182345,16.210081,-2.9813437,24.031868,-32.079754,30.822695,-16.749939,13.614007,6.91353,-9.23947,-18.764063,25.402039,50.490868,17.621723,-5.700672,-8.131565
67,2.689093828201294,4.6419854164123535,77.99845123291016,0.30801547991139666,-1.938032492669496,-88.69539932334762,-4.989394,0.6017509,3.2268057,20.488098,-15.414901,1.5113347,-30.305103,-16.50685,-5.305741,64.64154,-1.8168582,8.930316,-11.255182,-0.5514899,17.226374,-3.2902188,24.292017,-30.102339,26.299576,-15.008479,14.351857,7.661727,-8.277974,-18.451832,25.446379,50.715088,17.966734,-6.0805264,-8.4137335
68,2.787227153778076,4.708594799041748,78.01834106445312,-0.0619066938486215,-2.6422811480697184,-89.02642702439181,-4.3737783,1.0631889,3.434837,20.930902,-15.743537,1.5160004,-32.595406,-15.480124,-3.8546162,68.560135,-1.9821069,9.234148,-11.683006,-0.25986403,18.230433,-3.7240977,24.6176,-28.144892,21.689741,-13.544528,15.019551,8.129483,-7.1996813,-18.153008,25.576143,51.023098,18.337175,-6.4650383,-8.527585
69,2.865481376647949,4.771864414215088,78.03367614746094,-0.4926891209840614,-3.3635632502226454,-89.28329530928728,-3.8220246,1.5968252,3.559627,21.542904,-16.140566,1.5133722,-34.754314,-14.019712,-2.3984177,72.25744,-2.6577823,10.0909,-12.146917,0.082085475,19.227097,-4.2673006,25.022083,-26.234194,16.900003,-12.418947,15.571873,8.266748,-5.9706264,-17.87148,25.784826,51.39766,18.706844,-6.8608694,-8.463983
70,2.932543992996216,4.825082778930664,78.04861450195312,-0.9878693028259719,-4.11908026557316,-89.4861339401468,-3.2956867,2.209983,3.6200202,22.289165,-16.597635,1.5017068,-36.801136,-12.192115,-0.992955,75.83079,-3.854196,11.341693,-12.635316,0.4706692,20.238394,-4.856648,25.512327,-24.32436,11.833292,-11.456131,16.082493,8.135539,-4.5881243,-17.60974,26.066044,51.81807,19.088186,-7.2667923,-8.253704
71,2.9793739318847656,4.878994941711426,78.06075286865234,-1.5436285500648528,-4.878688530670528,-89.62096152716877,-2.8342106,2.8983927,3.59628,23.166388,-17.106236,1.4639825,-38.798496,-10.283678,0.13287823,79.3306,-5.3073235,12.657862,-13.157448,0.90235555,21.241451,-5.529238,26.08646,-22.407333,6.697806,-10.646251,16.551138,7.827619,-3.103057,-17.36767,26.413095,52.318302,19.537205,-7.6597023,-7.8868995
72,3.0063130855560303,4.925217628479004,78.07000732421875,-2.1635706229965805,-5.610025395182422,-89.6759403736528,-2.4770365,3.6555884,3.4704616,24.169403,-17.656685,1.3827933,-40.82858,-8.582623,0.801009,82.784454,-6.712072,13.716713,-13.7168665,1.3738118,22.208487,-6.359815,26.732439,-20.48714,1.7402071,-9.982338,16.979248,7.4372644,-1.5685247,-17.143745,26.820595,52.938725,20.11136,-8.015523,-7.3533053
73,3.015470027923584,4.966520309448242,78.07235717773438,-2.8614496142771646,-6.301280499148186,-89.65139305081776,-2.2293394,4.489076,3.2376587,25.286049,-18.247812,1.2488182,-42.926933,-7.180471,0.94761455,86.191055,-8.000222,14.413266,-14.313165,1.8921721,23.128864,-7.3905005,27.433784,-18.574104,-3.0373998,-9.448119,17.382524,6.919209,0.008110457,-16.937614,27.33695,53.710247,20.89726,-8.316753,-6.61387
74,3.030369758605957,4.992260456085205,78.06266784667969,-3.629859053684919,-6.967400319072989,-89.55051712122331,-2.0694098,5.3932214,2.907038,26.50904,-18.877457,1.0734397,-45.072884,-5.9721303,0.7118835,89.53424,-9.304862,14.898219,-14.943451,2.4514358,24.007168,-8.624511,28.18445,-16.69019,-7.698498,-9.047781,17.747011,6.2541437,1.6496542,-16.749273,27.951197,54.620632,21.845802,-8.5695305,-5.6836705
75,3.0204060077667236,5.012539386749268,78.03951263427734,-4.447932675477342,-7.6156632926384065,-89.368183769836,-1.9985188,6.345415,2.4826477,27.847712,-19.538128,0.8660235,-47.265305,-5.0024943,0.16249463,92.804306,-10.599763,15.000033,-15.599933,3.033501,24.838806,-10.112649,28.989773,-14.873718,-12.063774,-8.81021,18.03576,5.5760827,3.3617537,-16.574045,28.560383,55.63081,22.805744,-8.786686,-4.6340036
76,2.993224859237671,5.022163391113281,77.99470520019531,-5.287847412768316,-8.25358825131818,-89.09845192893535,-2.0152173,7.3116584,1.9702134,29.31241,-20.223703,0.6400987,-49.49654,-4.1812377,-0.48701742,95.99087,-11.869192,15.000033,-16.26851,3.6215522,25.621376,-11.914642,29.864624,-13.174164,-15.943687,-8.765542,18.215979,5.0181746,5.154967,-16.404863,29.055042,56.695843,23.62407,-8.988988,-3.5370283
77,2.9568285942077637,5.025014877319336,77.92972564697266,-6.154989264775306,-8.868943163738887,-88.74472107602107,-2.12067,8.284897,1.3781615,30.904087,-20.949192,0.38632813,-51.78189,-3.5075474,-1.2090764,99.095024,-13.112342,15.000033,-16.943611,4.236233,26.344635,-14.090013,30.837534,-11.627563,-19.288805,-8.957264,18.256657,4.5731163,7.023352,-16.240046,29.470247,57.883343,24.287556,-9.170256,-2.2473483
78,2.9142391681671143,5.004415988922119,77.83539581298828,-7.056715562861515,-9.459132260273924,-88.30742230508557,-2.3119183,9.266573,0.7038365,32.615036,-21.715527,0.10069175,-54.121124,-2.9850206,-2.0367868,102.12342,-14.33428,15.000033,-17.625345,4.86644,27.01576,-16.642714,31.9161,-10.263905,-22.189178,-9.365076,18.187433,4.189396,8.971288,-16.07618,29.8396,59.17858,24.868572,-9.321825,-0.780748
79,2.859866142272949,4.981029987335205,77.71341705322266,-7.972948567118195,-10.046170583034318,-87.77677187374819,-2.5761685,10.237809,-0.06359874,34.43915,-22.486376,-0.20080246,-56.475483,-2.5617673,-2.8674154,105.07097,-15.540852,15.000033,-18.305746,5.461601,27.658401,-19.551716,33.086174,-9.120179,-24.643177,-9.908916,18.069418,3.923679,11.02921,-15.900254,30.04602,60.411797,25.33632,-9.473893,0.54675716
80,2.7852110862731934,4.953826427459717,77.56293487548828,-8.887936158289007,-10.652143395044178,-87.14404051101087,-2.8970811,11.1822815,-0.93359035,36.36839,-23.230812,-0.5058716,-58.806797,-2.1795444,-3.6167302,107.92474,-16.736246,15.000033,-18.966787,5.9913273,28.289381,-22.816114,34.33367,-8.236819,-26.61477,-10.491817,17.965076,3.823021,13.228956,-15.696127,29.962034,61.425766,25.654947,-9.664581,1.4165003
81,2.6842598915100098,4.907794952392578,77.38240814208984,-9.845391472140015,-11.282646451772262,-86.42968875030719,-3.3266323,12.142344,-1.9220817,38.550964,-23.927528,-0.84691405,-61.139088,-1.7883129,-4.3468966,110.67014,-17.887564,15.000033,-19.562502,6.538934,28.897333,-26.564491,35.670296,-7.6508703,-28.09156,-11.152157,17.879665,3.8977735,15.624949,-15.441988,29.52538,62.31436,25.776833,-9.969924,1.8241466
82,2.55588960647583,4.850234031677246,77.17501831054688,-10.820044877571991,-11.923821082611566,-85.61873422039422,-3.8323157,13.059491,-3.0142221,40.912838,-24.586334,-1.2281094,-63.481487,-1.43953,-5.0578775,113.32436,-19.018522,15.000033,-20.115238,7.0965877,29.458433,-30.820694,37.125805,-7.4440556,-29.060139,-11.8986025,17.791166,4.105156,18.18601,-15.127176,28.802197,63.140224,25.723907,-10.35808,1.9060762
83,2.407966375350952,4.7768988609313965,76.94361877441406,-11.79188808587849,-12.522975618149687,-84.72862668222332,-4.354151,13.936935,-4.1520967,43.19803,-25.270714,-1.6335247,-65.83229,-1.1800555,-5.7329783,115.88331,-20.151129,15.000033,-20.650423,7.595865,29.793802,-35.413044,38.693413,-7.7678976,-29.364439,-12.613442,17.71035,4.4238605,20.859997,-14.741808,27.928984,63.78892,25.582272,-10.685984,1.5810918
84,2.237764835357666,4.709714412689209,76.67819213867188,-12.744269998448676,-13.040624681532682,-83.77690215810463,-4.8208957,14.793903,-5.2772717,45.157143,-26.04747,-2.0356135,-68.17368,-1.0494916,-6.350232,118.33503,-21.30436,15.000033,-21.180592,7.9462323,29.793802,-40.204388,40.311836,-8.738047,-28.912739,-13.169513,17.643248,4.8502927,23.5641,-14.269175,27.041578,64.13277,25.43792,-10.818961,0.75944614
85,2.045565128326416,4.629176139831543,76.38201904296875,-13.755264690084005,-13.558663901387506,-82.69063965260183,-5.155994,15.737211,-6.428871,46.817505,-27.064247,-2.419155,-70.48201,-0.9784853,-6.916975,120.698654,-22.524403,15.000033,-21.737923,8.170724,29.793802,-45.39066,41.95807,-10.23604,-27.837679,-13.521835,17.617254,5.4133763,26.311668,-13.712484,26.063953,63.963757,25.24949,-10.731278,-0.86974645
86,1.8117212057113647,4.527520179748535,76.08116149902344,-14.811271451401993,-14.071164604623597,-81.48490474050519,-5.387178,16.724752,-7.599931,48.28092,-28.247175,-2.7882361,-72.76179,-0.96314925,-7.448458,122.974884,-23.793354,15.000033,-22.325758,8.29503,29.793802,-50.941216,43.608818,-12.204186,-26.298887,-13.747176,17.619759,6.1187873,29.083923,-13.079713,24.975904,63.42006,24.994577,-10.491973,-3.1757588
87,1.5703476667404175,4.412438869476318,75.80252075195312,-15.810963209531616,-14.527386065814168,-80.29062978979324,-5.480546,17.63139,-8.682707,49.417995,-29.350117,-3.1455607,-74.88068,-1.1100585,-7.94816,125.09764,-25.044355,15.000033,-22.926966,8.301927,29.793802,-56.27043,45.20361,-14.412892,-24.724941,-13.865623,17.622448,6.9018044,31.606579,-12.422586,23.810394,62.613216,24.727293,-10.166541,-5.6476583
88,1.3484649658203125,4.271121501922607,75.57593536376953,-16.647540026143428,-14.880758938058635,-79.24261624541681,-5.4295692,18.34683,-9.592315,50.11212,-30.128803,-3.4975257,-76.70849,-1.5212911,-8.392045,127.00287,-26.196253,15.000033,-23.523798,8.198163,29.793802,-60.77172,46.675274,-16.556578,-23.489906,-13.881452,17.599436,7.673744,33.65112,-11.830384,22.576859,61.58664,24.496433,-9.821015,-7.7726617
89,1.1568821668624878,4.11914587020874,75.42394256591797,-17.312097249853245,-15.126611958834793,-78.27276746615101,-5.3327494,18.835934,-10.454936,50.448368,-30.613264,-3.900168,-78.2977,-2.349915,-8.673872,128.7463,-27.263243,15.000033,-24.171667,7.9618554,29.793802,-64.51275,48.00909,-18.552725,-22.5324,-13.641959,17.539783,8.4344015,35.349876,-11.377366,21.147213,60.10819,24.428638,-9.417956,-9.403011
90,1.0016379356384277,3.963588237762451,75.37390899658203,-17.85310056612652,-15.290808085458481,-77.3420793892177,-5.1831713,19.179527,-11.294988,50.473404,-30.910292,-4.3199644,-79.69056,-3.4905083,-8.792201,130.33972,-28.267658,15.000033,-24.874401,7.6480927,29.793802,-67.71129,49.212414,-20.391304,-21.696983,-13.165535,17.466171,9.198858,36.876255,-11.083079,19.524614,58.090878,24.472912,-8.92873,-10.804241
91,0.9296201467514038,3.8166279792785645,75.46814727783203,-18.252416407288653,-15.382355044256729,-76.62797928843995,-4.838899,19.45612,-11.903293,50.01907,-30.882292,-4.6385355,-80.739395,-4.6649957,-8.891322,131.64954,-29.133799,15.000033,-25.510107,7.4018254,29.793802,-70.04483,50.27554,-21.882488,-21.115635,-12.699054,17.400991,9.882708,38.078754,-10.951964,17.881367,55.77899,24.403685,-8.4288845,-12.078957
92,0.9602657556533813,3.6883301734924316,75.7318344116211,-18.493950412605283,-15.412270535840467,-76.31689192529443,-4.1675954,19.746586,-12.067382,48.914135,-30.384382,-4.7454534,-81.29992,-5.598565,-9.148559,132.53963,-29.77542,15.000033,-25.942549,7.3816495,29.793802,-71.16399,51.197372,-22.829138,-20.917006,-12.487616,17.362156,10.387963,38.782673,-10.987953,16.372044,53.434174,23.991476,-7.987364,-13.328666
93,1.0235748291015625,3.5378715991973877,76.16627502441406,-18.564087151433345,-15.348233376614388,-76.50494922902874,-3.0806894,20.06978,-11.64593,46.938213,-29.463907,-4.628245,-81.3272,-6.2895236,-9.681098,132.94255,-30.20528,15.000033,-26.097067,7.7088833,29.793802,-70.936935,52.02008,-23.15575,-21.161905,-12.758485,17.318722,10.754935,38.93872,-11.198179,14.869314,51.0866,23.114946,-7.607542,-14.589029
94,1.118607521057129,3.3370933532714844,76.74603271484375,-18.554145856910914,-15.205215586076124,-77.15819434630043,-1.6738511,20.489782,-10.72734,44.26465,-28.209202,-4.416384,-80.89135,-6.852445,-10.556034,132.89543,-30.4112,15.000033,-25.981815,8.362301,29.793802,-69.470604,52.782032,-22.8724,-21.76819,-13.324932,17.266298,11.009017,38.658813,-11.584023,13.343366,48.605446,21.914917,-7.2356167,-15.793005
95,1.2447140216827393,3.1005258560180664,77.44986724853516,-18.452135592972912,-15.06339301789114,-78.12976174437941,-0.090935506,20.886713,-9.48624,41.30787,-26.505375,-4.1380334,-79.97549,-7.4585886,-11.865867,132.51183,-30.347622,14.2470045,-25.711975,9.097467,29.793802,-66.79723,53.462234,-21.92287,-22.65588,-13.813351,17.266876,11.035355,37.95461,-12.151008,12.088458,46.02424,20.548306,-6.8616867,-16.889687
96,1.4092135429382324,2.8510642051696777,78.22274017333984,-18.192271221838915,-15.000943099790906,-79.21476172956105,1.4987065,21.061646,-8.143655,38.505505,-24.230034,-3.73515,-78.67204,-7.7964845,-13.083335,131.92143,-29.994066,13.368927,-25.445425,9.622284,29.793802,-63.01124,53.997627,-20.332813,-23.700373,-13.8517275,17.388254,10.712149,36.834503,-12.906472,11.398181,43.372894,19.178102,-6.4839463,-17.826954
97,1.5801390409469604,2.5722131729125977,79.07545471191406,-17.754920907214203,-15.053647456050752,-80.48070065199626,3.2469454,21.001104,-6.689672,35.71873,-21.186172,-3.0123422,-76.98363,-7.458211,-13.943138,131.12083,-29.283895,13.125455,-25.145525,9.897734,29.793802,-57.82976,54.293873,-18.143257,-25.021595,-13.190707,17.71992,9.783124,35.197052,-13.884858,11.469552,40.713154,17.857483,-6.103883,-18.648851
98,1.7510871887207031,2.2901246547698975,79.97982025146484,-17.129793921572162,-15.1833441680749,-81.97923109943612,5.1411057,20.677984,-4.9678864,32.960308,-17.618784,-2.012696,-74.89826,-6.5869894,-14.559702,130.05855,-28.25581,13.306658,-24.77001,10.025694,29.793802,-51.343994,54.301605,-15.485558,-26.578777,-12.079123,18.18954,8.3832035,33.06769,-15.087361,12.127782,38.00582,16.507511,-5.7223887,-19.36007
99,1.9044197797775269,2.0117175579071045,80.89892578125,-16.338074271501767,-15.341511612118722,-83.53047217752587,6.776451,20.083574,-3.0305595,30.795904,-13.971405,-0.99788034,-72.556206,-5.5508537,-14.899867,128.76219,-26.994429,13.584007,-24.401731,9.993166,29.793802,-44.322567,54.017906,-12.627457,-27.997202,-10.898567,18.632013,6.9797406,30.64583,-16.429047,13.120037,35.140667,15.095516,-5.34974,-19.852686
100,2.0156192779541016,1.7515411376953125,81.809326171875,-15.424799356195257,-15.458455644532577,-84.9435698269941,7.7990355,19.33011,-1.0018816,29.568806,-10.493412,-0.21401894,-70.1011,-4.745995,-14.976613,127.256584,-25.578737,13.625636,-24.10557,9.751693,29.793802,-37.530037,53.448593,-9.833228,-28.892897,-10.041726,18.904669,6.0696845,28.10577,-17.768673,14.215588,32.02647,13.583369,-5.0100145,-20.022175
101,2.0938878059387207,1.5059105157852173,82.72039794921875,-14.304168797690105,-15.30619212957723,-86.25887260060276,7.8950357,18.564716,1.442896,29.18597,-6.759937,0.21963976,-67.79288,-4.275283,-14.708552,125.5828,-23.916943,13.377561,-23.867294,9.137504,28.939291,-30.929787,52.484806,-7.687453,-28.728369,-9.65679,18.951284,5.8554435,25.332722,-18.967894,15.730333,29.215927,11.874448,-4.720181,-19.72993
102,2.1180777549743652,1.3156682252883911,83.61214447021484,-13.066817318834403,-15.059053183322758,-87.51208768465727,7.4820247,17.870071,4.222205,29.335073,-2.6622488,0.48323196,-65.33452,-3.938718,-14.201984,123.70278,-22.043491,12.998009,-23.539402,8.311463,27.930971,-24.612106,51.08346,-6.1218886,-27.90598,-9.482312,18.885004,6.0521216,22.402739,-19.970423,17.416218,26.194603,9.949134,-4.5241256,-19.09602
103,2.0836827754974365,1.1854323148727417,84.46556091308594,-11.79205524473028,-14.792022592467493,-88.59870366010792,6.715504,17.048672,6.524668,29.954664,1.2322774,0.7476843,-62.708218,-3.7993116,-13.555203,121.58448,-20.093489,12.490815,-23.092522,7.4073544,26.934965,-18.926447,49.314346,-5.158077,-26.50352,-9.3858595,18.748213,6.408821,19.557991,-20.753956,18.974995,22.918589,8.065499,-4.4040513,-18.319952
104,2.0442168712615967,1.1022869348526,85.29487609863281,-10.54013572785927,-14.58492062383178,-89.4215416470572,5.737673,15.829268,7.547041,30.965754,4.35025,1.1093923,-59.906116,-3.9159636,-12.849467,119.20479,-18.203127,11.863683,-22.520344,6.518133,26.067236,-14.222563,47.32517,-4.7198734,-24.521114,-9.263471,18.57924,6.6968627,16.949602,-21.32095,20.178097,19.473309,6.4848905,-4.3161006,-17.593586
105,1.9879227876663208,1.0657509565353394,86.07974243164062,-9.244349328898297,-14.48109596890365,-89.91875211247745,4.5079026,13.804218,6.662159,32.427917,6.432147,1.5096685,-56.871204,-4.3827267,-12.001869,116.58756,-16.412664,11.063527,-21.880396,5.522766,25.347616,-10.486828,45.20862,-4.614494,-21.879425,-9.17879,18.42503,6.9151554,14.535537,-21.650515,21.035807,15.902785,5.258821,-4.2526608,-16.948399
106,1.9108487367630005,1.0701855421066284,86.76685333251953,-7.867788530660245,-14.457717771013701,-90.16124464496703,2.952085,10.998762,4.4168267,34.39034,7.825433,1.6506582,-53.611343,-5.1673536,-11.005592,113.75353,-14.667834,10.105814,-21.181454,4.338427,24.724268,-7.422145,42.985172,-4.7694626,-18.61501,-9.20582,18.244795,7.204144,12.171729,-21.746708,21.664627,12.254682,4.2424498,-4.232638,-16.293783
107,1.827999234199524,1.0792714357376099,87.37261199951172,-6.517335545498439,-14.494594043852992,-90.25759834221326,1.1447427,7.8423023,1.7965119,36.87465,8.775256,1.3617556,-50.21419,-6.116155,-10.05363,110.66372,-12.957272,9.100878,-20.384645,3.1204758,24.195618,-4.9253016,40.722,-5.149023,-14.850914,-9.271753,17.945412,7.558677,9.800696,-21.674395,22.079586,8.666505,3.4206185,-4.2305636,-15.622227
108,1.7660671472549438,1.0964059829711914,87.91902923583984,-5.310757061306964,-14.555281209472275,-90.31242480268757,-0.8614203,4.9529266,-0.21519385,39.902634,9.533532,0.6734151,-46.769962,-7.053386,-9.3345375,107.27095,-11.263375,8.157724,-19.462358,2.0367153,23.754654,-2.891442,38.5119,-5.711642,-10.709837,-9.318915,17.432745,7.9835005,7.3926883,-21.527758,22.321066,5.229501,2.7958453,-4.2172866,-14.915611
109,1.7066915035247803,1.123162865638733,88.4218521118164,-4.242319352332147,-14.625952417179432,-90.29723872430576,-3.098838,2.5314083,-1.3842007,43.693596,10.089277,-0.29218027,-43.258217,-8.015224,-8.869859,103.50002,-9.621412,7.346721,-18.419157,1.0888659,23.416075,-1.3250849,36.395557,-6.359231,-6.125696,-9.279497,16.668688,8.516595,5.0169015,-21.34432,22.399666,1.8526222,2.4725168,-4.192388,-14.160371
110,1.6163074970245361,1.1698535680770874,88.86238098144531,-3.2489655569331957,-14.730247433342939,-90.18249203649395,-5.6181097,0.32481956,-2.1785502,48.36582,10.243909,-1.4021606,-39.638027,-9.05237,-8.585242,99.4018,-8.032443,6.584517,-17.26855,0.18663797,23.18456,-0.15457818,34.366295,-7.0022016,-1.1251304,-9.248375,15.701416,9.167744,2.6860452,-21.123877,22.312134,-1.5317748,2.4417577,-4.1592417,-13.365791
111,1.4994721412658691,1.2195167541503906,89.21586608886719,-2.3769990261224128,-14.867300485199191,-90.05998070148094,-8.400791,-1.6002251,-2.7192714,53.688667,10.090017,-2.497052,-35.96986,-9.989346,-8.480407,95.09754,-6.4251575,5.782307,-16.026243,-0.6224789,23.026407,0.8307559,32.453304,-7.61708,4.0419636,-9.412199,14.567575,9.893657,0.2818554,-20.909822,22.118862,-4.805493,2.5439484,-4.094276,-12.540421
112,1.369857907295227,1.2763922214508057,89.46778869628906,-1.6747031991465384,-15.033994431802368,-90.02021558450731,-11.408967,-3.2591138,-3.1474478,59.350086,9.742093,-3.5240648,-32.31842,-10.656853,-8.549297,90.699745,-4.728556,4.840139,-14.720734,-1.2906563,22.913103,1.8364406,30.705315,-8.188273,9.1261215,-9.970603,13.30011,10.643498,-2.2994995,-20.768787,21.898546,-7.880655,2.6309843,-3.9765828,-11.689506
113,1.2348477840423584,1.3190317153930664,89.6194076538086,-1.2311609023686352,-15.221081115984175,-90.10709563810443,-14.680584,-4.516977,-3.4020832,65.4439,9.220655,-4.5179586,-28.722183,-10.845153,-8.779087,86.15662,-2.878904,3.663292,-13.30481,-1.7283015,22.876741,2.8510065,29.144445,-8.6156645,14.194105,-11.148905,11.7855215,11.493747,-5.04751,-20.75196,21.681616,-10.821392,2.6921885,-3.7836297,-10.758651
114,1.0852982997894287,1.3526251316070557,89.6736831665039,-1.0018810631546105,-15.424339219302325,-90.26121089408332,-18.201786,-5.3571467,-3.4600718,72.04619,8.502018,-5.42792,-25.145838,-10.689978,-9.160607,81.438126,-0.94112116,2.3089762,-11.7985935,-1.961661,22.923655,3.850443,27.76474,-8.889331,19.258167,-12.789094,10.032355,12.393532,-7.888307,-20.867512,21.458155,-13.722786,2.8182447,-3.5303605,-9.76935
115,0.9165348410606384,1.3387925624847412,89.64932250976562,-0.8434275540659264,-15.653265192047277,-90.41650216338758,-21.836731,-6.1027637,-3.513444,78.76147,7.6329384,-6.2160673,-21.54462,-10.527915,-9.708224,76.6754,0.9628617,0.9203445,-10.332926,-2.1230955,22.990713,4.96213,26.57446,-9.166835,24.050358,-14.538436,8.270233,13.119789,-10.833049,-21.10526,21.249466,-16.533518,3.013596,-3.255119,-8.838413
116,0.7162523865699768,1.285601258277893,89.53510284423828,-0.6086622107107066,-15.922715163874429,-90.50975345302163,-25.448523,-7.1473947,-3.7174792,85.19316,6.65284,-6.9180455,-17.8686,-10.670058,-10.456781,71.99133,2.7119062,-0.32411835,-9.027477,-2.358954,23.027637,6.2646413,25.59035,-9.629183,28.354336,-16.074142,6.749852,13.490763,-13.896112,-21.442038,21.063734,-19.184454,3.2771478,-2.999171,-8.079247
117,0.5046145915985107,1.218922734260559,89.32207489013672,-0.3355096711662092,-16.265981125392457,-90.5161910580225,-28.973597,-8.648845,-4.167301,91.34936,5.477683,-7.551389,-14.02156,-11.178334,-11.62599,67.3408,4.281703,-1.402549,-7.9089336,-2.651733,23.046143,7.7151866,24.842815,-10.276862,32.210163,-17.31981,5.6117706,13.407145,-17.12464,-21.874058,20.921932,-21.648584,3.621191,-2.7785182,-7.5366354
118,0.3114706575870514,1.1372196674346924,89.00729370117188,-0.08020121396441923,-16.676425032686005,-90.47111682081267,-32.453384,-10.465137,-4.70118,97.40489,4.102202,-8.171742,-10.04764,-11.7993,-13.148624,62.681286,5.7166796,-2.3248017,-6.9056463,-2.9467132,23.08463,9.238713,24.331762,-11.048565,35.75491,-18.48127,4.724327,13.001603,-20.489832,-22.401468,20.819447,-23.97706,4.036257,-2.5719752,-7.1423607
119,0.13539038598537445,1.0518544912338257,88.60047149658203,0.2797183800140599,-17.112442326997765,-90.40644503160219,-35.94758,-12.521944,-5.0262303,103.21276,2.6980002,-8.846568,-6.1131487,-12.416449,-14.627789,58.12879,7.0210123,-2.9746287,-5.976787,-3.3380177,23.136412,10.81788,24.017162,-12.056368,38.972507,-19.654144,3.932117,12.458589,-23.90153,-23.000515,20.701952,-26.18456,4.48843,-2.3640146,-6.8364997
120,-0.03003171645104885,0.9427924752235413,88.1118392944336,0.8686796033531465,-17.530584454730057,-90.35783999778656,-39.541553,-14.706027,-4.941584,108.61484,1.4314826,-9.672821,-2.4031591,-12.996567,-15.649404,53.8057,8.214555,-3.286648,-5.067186,-3.9112308,23.188118,12.403546,23.84589,-13.434622,41.87674,-20.916702,3.0690598,11.9564705,-27.263205,-23.630392,20.508652,-28.273064,4.908808,-2.1379404,-6.558036
121,-0.19646646082401276,0.8154047727584839,87.53963470458984,1.7254906808906507,-17.922175887917007,-90.27587502307631,-43.333042,-17.094267,-4.417033,113.60878,0.38114655,-10.695409,1.0324749,-13.678866,-16.167292,49.675537,9.801838,-3.494193,-4.249321,-4.7265754,23.188557,13.934729,23.823341,-15.301527,44.577637,-22.272022,2.043257,11.531769,-30.681366,-24.286741,20.213097,-30.173824,5.3593273,-1.8377872,-6.284435
122,-0.37170058488845825,0.6527357697486877,86.88783264160156,2.7761104742683975,-18.328957077754577,-90.17350271705023,-47.28123,-19.64862,-3.5280404,118.28577,-0.5782478,-11.85676,4.2697215,-14.4914,-16.363426,45.748302,11.580431,-3.5770843,-3.4970577,-5.7136793,23.183802,15.373018,23.959692,-17.58759,47.11423,-23.678875,0.955098,11.087486,-34.143238,-24.971346,19.85748,-31.91195,5.7961473,-1.488985,-6.0461664
123,-0.506039559841156,0.48367971181869507,86.16004943847656,3.9756340441616915,-18.769079132405537,-90.1782458824578,-51.3027,-22.03189,-2.2809477,122.60858,-1.5429137,-13.039297,7.3449965,-15.28974,-16.140846,42.12927,12.582862,-3.1191854,-2.684999,-6.802282,23.26307,16.796381,24.199158,-20.062803,49.354393,-25.12434,-0.07711137,10.601596,-37.580223,-25.69494,19.462654,-33.461735,6.178835,-1.1929775,-5.8329573
124,-0.622485339641571,0.2975446581840515,85.38836669921875,5.28929377360459,-19.24177569552746,-90.41010493321943,-55.312325,-23.923056,-0.74290645,126.52303,-2.5802474,-14.122746,10.372221,-15.950137,-15.443043,38.76657,11.9425,-1.7317135,-1.6986669,-7.906659,23.508074,18.277714,24.458332,-22.499718,51.169197,-26.572577,-0.9377783,10.064036,-40.93541,-26.458347,19.064144,-34.786102,6.4480157,-1.05119,-5.645902
125,-0.690414309501648,0.11892963945865631,84.5078125,6.879571942675162,-19.635053990545913,-90.93093112517971,-59.59018,-25.21954,1.2524135,130.04135,-3.6419911,-15.000033,13.571875,-16.583052,-14.195204,35.277283,8.997445,0.97300225,-0.49225608,-9.134803,23.811615,19.846537,24.702316,-24.931751,52.516743,-27.993088,-1.5961137,9.46986,-44.306152,-27.261374,18.643375,-35.817425,6.653674,-1.1283978,-5.4593334
126,-0.7366502285003662,-0.07009455561637878,83.57628631591797,8.740833654259056,-19.95711660188439,-91.67818463866399,-64.09011,-25.57462,3.8211713,133.18755,-4.615909,-15.000033,17.015026,-17.442316,-12.776577,31.427113,4.5435405,4.494024,0.85273737,-10.505441,24.16843,21.418322,24.93897,-27.44616,53.53097,-29.387516,-2.121,8.8367,-47.70752,-28.103872,18.204004,-36.5837,6.805631,-1.3556485,-5.283221
127,-0.8002681732177734,-0.27731338143348694,82.69174194335938,10.585364677090517,-20.36787530782838,-92.57084779852245,-68.207825,-25.52884,6.1895604,135.90192,-5.61652,-15.000033,20.56444,-18.516397,-11.732239,27.449879,-0.14167917,7.9078946,2.2514718,-11.77816,24.786001,22.925138,25.148186,-29.895712,54.325665,-30.75872,-2.5463111,8.19706,-51.024918,-28.970314,17.817226,-37.13108,6.801082,-1.6358207,-5.1814485
128,-0.8405694961547852,-0.47303810715675354,81.85736083984375,12.111969986713799,-21.048455820409334,-93.51220542570314,-71.3852,-25.19014,7.875709,138.11725,-6.6558123,-15.000033,23.99,-19.587873,-11.273252,23.8605,-3.9794378,10.407347,3.5874236,-12.682718,25.849043,24.332535,25.289486,-32.11445,55.00464,-32.10281,-2.9089208,7.5857477,-54.142242,-29.82737,17.567608,-37.51318,6.5384946,-1.8724446,-5.219833
129,-0.8611778020858765,-0.6319975852966309,81.05886840820312,13.254772279551066,-22.256514400780585,-94.51215673411994,-73.36265,-24.573421,8.761809,139.85393,-7.7023845,-15.000033,27.42984,-20.515488,-11.314698,20.93192,-7.0033035,11.798502,4.7874684,-13.097689,27.602957,25.698233,25.324518,-34.2717,55.60066,-33.401684,-3.2487588,7.030344,-57.310596,-30.629627,17.534658,-37.601814,5.950621,-2.0498812,-5.4346886
130,-0.8395397067070007,-0.7517051100730896,80.29935455322266,14.188067838406413,-23.805001438847793,-95.60195632745433,-74.570465,-23.704788,9.089594,141.12738,-8.683675,-15.000033,30.867031,-21.285608,-11.655714,18.57301,-9.842043,12.413531,5.8790092,-13.139194,29.793802,27.02222,25.238073,-36.39228,56.113476,-34.65367,-3.545178,6.512269,-60.54307,-31.34372,17.669008,-37.36434,5.0994606,-2.2126956,-5.788439
131,-0.771312952041626,-0.8422609567642212,79.60081481933594,14.834944255828361,-24.76460094205939,-96.61713464442578,-76.10417,-22.64246,8.864728,141.86171,-9.382827,-15.000033,32.88132,-21.828585,-11.828412,17.468056,-12.65268,12.398475,6.7581925,-12.65697,29.793802,28.87586,24.905743,-38.701054,57.140022,-36.047585,-3.5304582,5.8053513,-62.607723,-31.70089,18.463898,-36.239697,4.185801,-2.4874663,-6.3545094
132,-0.7037790417671204,-0.9056809544563293,79.01370239257812,15.28837858328066,-25.337288370556507,-97.55315326926444,-77.52827,-21.690138,8.114205,141.95535,-9.962997,-15.000033,34.087185,-22.141592,-11.837166,16.837313,-14.967107,12.098896,7.5644526,-12.081149,29.793802,30.388315,24.410208,-39.920013,57.937473,-37.364624,-3.4288418,5.1424327,-64.172066,-31.847326,19.12574,-35.247097,3.1100864,-2.6948733,-6.9054356
133,-0.6573464274406433,-0.9271361827850342,78.56084442138672,15.485122439195605,-25.421134584346163,-98.52601480509334,-78.879395,-20.83869,6.571855,141.31871,-10.571072,-15.000033,34.20602,-22.231237,-11.495356,16.74269,-16.784397,11.588656,8.448332,-11.352084,29.793802,31.575754,23.78032,-39.750957,58.474163,-38.795742,-3.2156281,4.4808526,-65.27109,-31.883574,19.643644,-34.426895,1.8799915,-2.820465,-7.429193
134,-0.6372723579406738,-0.8793008327484131,78.25934600830078,15.415054829764948,-25.201307315987776,-99.53497269621906,-79.9894,-19.979767,4.2941566,140.04124,-11.191973,-15.000033,33.442482,-22.092726,-10.87031,17.18478,-18.178642,10.847948,9.384501,-10.419342,29.793802,32.516777,23.012976,-38.584538,58.793015,-40.294384,-2.8893745,3.8318946,-65.98697,-31.837368,20.0915,-33.629307,0.494765,-2.8806186,-7.9677505
135,-0.6350799202919006,-0.7297772765159607,78.16436004638672,15.176910947573305,-24.777795708948165,-100.33411133985157,-80.79951,-19.136082,1.8192103,138.29555,-11.606823,-15.000033,32.263428,-21.809896,-10.214825,17.796917,-19.027391,10.111338,10.210461,-9.510451,29.793802,33.096764,22.155941,-36.884853,58.817535,-41.49938,-2.4771347,3.2777956,-66.208534,-31.711641,20.387545,-32.82487,-0.94472975,-2.892316,-8.53223
136,-0.6439716815948486,-0.5388743877410889,78.26459503173828,14.88456650955039,-24.242601166818474,-100.6654399087585,-81.301186,-18.359497,-0.25295207,136.23607,-11.597697,-15.000033,31.12709,-21.50218,-9.79682,18.234694,-19.203709,9.592776,10.742786,-8.8744335,29.793802,33.260735,21.318094,-35.073284,58.425175,-42.046543,-2.0152254,2.893317,-65.806526,-31.494349,20.459702,-31.995424,-2.3403056,-2.8745618,-9.133136
137,-0.6886322498321533,-0.399493932723999,78.50895690917969,14.556327340579262,-23.498858798674153,-100.38269418548487,-81.656395,-16.250393,-0.99927753,133.8064,-11.073335,-12.847586,30.042753,-21.193245,-9.718399,18.346247,-18.573656,9.33804,10.912118,-8.647917,29.793802,33.058327,20.620579,-32.905445,57.31193,-41.66896,-1.4209409,2.6694033,-64.60819,-31.197905,20.248049,-31.314463,-3.776916,-2.841346,-9.871941
138,-0.7737128734588623,-0.31603580713272095,78.86856842041016,14.183420754319535,-22.536111167364492,-99.66075292002598,-81.751915,-13.433254,-0.83646923,130.94844,-10.415864,-9.562497,28.797796,-20.822166,-9.860104,18.360296,-17.245497,9.1858015,10.838252,-8.725718,29.793802,32.627644,20.120031,-30.24748,55.429348,-40.622906,-0.68505985,2.556554,-62.6214,-30.838821,19.77184,-30.82297,-5.2764134,-2.7739527,-10.706963
139,-0.853864848613739,-0.2770485281944275,79.32733917236328,13.834812866513223,-21.566304367697438,-98.69835069110098,-81.33605,-10.988905,-0.19119437,127.7722,-9.59999,-6.4234505,27.48319,-20.461641,-10.130856,18.540285,-15.452689,9.06566,10.605079,-8.9557705,29.793802,32.022915,19.828762,-27.686447,53.095493,-39.334072,0.03732054,2.5735188,-60.00013,-30.402697,19.075449,-30.298004,-6.647616,-2.6537428,-11.438078
140,-0.8912949562072754,-0.25156858563423157,79.85394287109375,13.517683784467208,-20.793476393427497,-97.66892193447656,-80.31103,-9.700091,0.4556512,124.37788,-8.304113,-4.172393,26.187878,-20.198437,-10.427308,19.129696,-13.419326,8.943747,10.287125,-9.143324,29.793802,31.234026,19.710274,-25.825333,50.725132,-38.242725,0.57723343,2.7542603,-56.987473,-29.870314,18.23847,-29.435255,-7.6893096,-2.4732852,-11.86632
141,-0.8827211260795593,-0.2378162294626236,80.43731689453125,13.238232255676397,-20.288212077328943,-96.47883108905208,-78.67245,-10.109454,0.8744579,120.67608,-6.0082836,-3.0887349,25.03853,-20.11439,-10.813145,20.11506,-11.072523,8.877245,9.839568,-9.256737,29.793802,30.095608,19.751694,-25.029524,48.559383,-37.430046,0.83573264,3.1750066,-53.487133,-29.204384,17.290163,-28.170698,-8.3751955,-2.1363568,-11.826119
142,-0.8552930355072021,-0.22687767446041107,81.07115936279297,12.907518222465423,-19.76054623536251,-95.03529756416037,-76.71173,-11.673187,1.088098,116.63456,-2.8327832,-2.7377727,23.682587,-20.111515,-11.253281,21.494946,-8.357518,8.875159,9.216197,-9.248171,29.065401,28.748886,19.909052,-25.151289,46.738594,-36.741333,0.981691,3.7622354,-49.146305,-28.346249,16.360525,-26.408905,-8.767177,-1.7263923,-11.496293
143,-0.8217268586158752,-0.22030965983867645,81.74724578857422,12.455903256814247,-19.252960847192874,-93.57182092935314,-74.38829,-13.549698,0.988139,112.45864,0.57271,-2.747219,22.129583,-20.047125,-11.616997,23.157652,-5.378479,8.89601,8.493825,-9.092607,28.15747,27.324787,20.112852,-25.504852,44.84049,-36.13147,1.082051,4.432723,-44.618828,-27.334959,15.367793,-24.238365,-8.885287,-1.424107,-11.12288
144,-0.7794815301895142,-0.20876865088939667,82.44791412353516,11.806296603842556,-18.735800990446382,-92.31103348196436,-71.75219,-14.903476,0.54778945,108.35807,3.5757425,-2.7597926,20.26606,-19.775152,-11.769524,25.083122,-2.278539,8.874034,7.7735105,-8.718803,27.318668,25.976685,20.291983,-25.51192,42.60305,-35.563217,1.2276651,5.0854545,-40.324093,-26.246286,14.315825,-21.713728,-8.714851,-1.4245478,-10.983794
145,-0.7149379253387451,-0.18360577523708344,83.17030334472656,10.89694330290241,-18.192629951899523,-91.27819961036056,-68.75325,-15.672145,-0.31666374,104.326164,6.167308,-2.8522158,18.031363,-19.286753,-11.8284,27.296825,1.1940445,8.820027,7.1014824,-8.023548,26.56229,24.647083,20.38713,-25.09606,40.08608,-35.18089,1.3866335,5.762415,-36.183502,-25.11473,13.195744,-18.791414,-7.96758,-1.8426949,-11.109775
146,-0.6442782878875732,-0.1574045568704605,83.90025329589844,9.780024711024145,-17.67070195075925,-90.37726422124487,-65.35292,-16.235308,-1.5953435,100.27808,8.634113,-3.1867392,15.551237,-18.627916,-11.832694,29.740128,5.058043,8.812211,6.428888,-7.049968,25.8874,23.213072,20.38843,-24.517618,37.42632,-34.929375,1.5058378,6.5049553,-32.027573,-23.931753,12.07027,-15.519263,-6.7395954,-2.5519137,-11.372082
147,-0.580098569393158,-0.13267353177070618,84.61859893798828,8.539624915314395,-17.20161791846326,-89.6352638134292,-61.696896,-16.433685,-3.074831,96.30908,10.802292,-3.5426664,12.90726,-17.72022,-11.536341,32.378983,8.761558,8.861297,5.703382,-5.933034,25.321737,21.771109,20.314512,-23.76032,34.55351,-34.49724,1.6647223,7.1973157,-28.09517,-22.719496,11.091689,-11.957914,-5.5677867,-3.3998206,-11.818224
148,-0.5224672555923462,-0.1016729399561882,85.29692077636719,7.252061234062987,-16.822312939835083,-89.06918982272023,-57.95241,-16.114979,-4.4886746,92.51979,12.49827,-3.6689093,10.162013,-16.459612,-10.701336,35.264984,11.702131,8.975684,4.8640018,-4.8047986,24.897758,20.431837,20.202547,-22.805735,31.365244,-33.571724,1.9521194,7.716864,-24.630478,-21.514763,10.376035,-8.163631,-5.0074663,-4.2292695,-12.519828
149,-0.46698376536369324,-0.0643831193447113,85.93255615234375,5.847024811706491,-16.563247990676008,-88.70869645702481,-54.090023,-15.071551,-5.800538,88.96179,13.527505,-3.4724357,7.321761,-14.635297,-9.165535,38.513943,13.690411,9.094293,3.9065504,-3.6070201,24.651962,19.291431,20.062475,-21.615768,27.736525,-31.870747,2.4203365,7.970241,-21.694605,-20.345242,9.869182,-4.0118146,-5.456454,-5.0206585,-13.678697
150,-0.4048976004123688,-0.018138540908694267,86.50128173828125,4.301812464881515,-16.418065563771478,-88.5338055178952,-50.085045,-13.422495,-7.068444,85.57593,14.021075,-3.116575,4.3552074,-12.252203,-7.1182995,42.1999,14.98289,9.313089,2.8634481,-2.288906,24.575136,18.304874,19.8969,-20.205116,23.716501,-29.62732,3.011867,8.023158,-19.13098,-19.228683,9.508044,0.49547258,-6.5452113,-5.826759,-15.229579
151,-0.34655529260635376,0.033505093306303024,86.97456359863281,2.757618260244837,-16.366257406798333,-88.48659666944653,-46.06357,-11.532108,-8.215441,82.28541,14.295125,-2.7406342,1.2983311,-9.529422,-4.8528085,46.28183,15.6453705,9.849801,1.7345898,-0.99156624,24.632544,17.382456,19.75059,-18.64449,19.428276,-27.299053,3.6601167,7.9913235,-16.847925,-18.201172,9.333762,5.0950737,-7.668714,-6.606824,-16.845526
152,-0.3068128526210785,0.06952505558729172,87.35779571533203,1.36123296604819,-16.37861090477225,-88.50596731514412,-42.118877,-9.773848,-9.213289,79.016884,14.672488,-2.465729,-1.8386221,-6.7161407,-2.6512523,50.721165,15.733412,10.887725,0.5270517,0.14130677,24.787453,16.448982,19.694487,-17.01138,14.949745,-25.350027,4.3159018,8.000852,-14.764087,-17.313244,9.366399,9.518731,-8.201132,-7.3607483,-18.176168
153,-0.25354713201522827,0.09711406379938126,87.64881134033203,0.1216981038006353,-16.485510991523647,-88.61874170830367,-38.180428,-8.127146,-10.049465,75.71903,15.26576,-2.2991924,-5.030829,-3.64452,-0.40953764,55.64538,15.004005,12.659223,-0.7778817,1.0920404,25.096397,15.57488,19.792511,-15.340331,10.086539,-23.895557,5.014829,8.094429,-12.954433,-16.597218,9.564874,13.813011,-7.8695498,-8.137249,-19.067467
154,-0.19032548367977142,0.10558613389730453,87.82328033447266,-1.029940957948247,-16.695536085950494,-88.83332303534533,-34.200386,-6.43468,-10.7386675,72.44259,15.897449,-2.1603582,-8.278285,-0.21276471,1.8450948,61.14749,13.375635,14.990637,-2.158764,1.9271053,25.57486,14.872449,20.058414,-13.598222,4.733468,-22.715414,5.7794228,8.196462,-11.387218,-16.059864,9.854113,18.03688,-7.0065145,-8.938507,-19.704613
155,-0.13832128047943115,0.09554264694452286,87.87191009521484,-2.085687270555523,-16.932541444004173,-89.07107138619938,-30.298172,-4.8400564,-11.369936,69.275475,16.457243,-2.0438285,-11.698459,2.425542,2.666129,67.03543,11.322563,15.000033,-3.5395348,2.6285195,26.104534,14.272565,20.475119,-11.772426,-0.85556495,-21.77132,6.544123,8.270315,-9.849906,-15.714783,10.21201,21.963772,-5.8953266,-9.7170315,-20.235817
156,-0.07499412447214127,0.06305643171072006,87.79440307617188,-3.146039832556338,-17.112415167183947,-89.2999980617507,-26.635061,-3.3767736,-12.099975,66.3829,16.783154,-1.9635903,-15.377613,4.6171384,2.8217938,72.99092,9.394272,15.000033,-4.790095,3.3596563,26.5628,13.622125,21.004868,-9.868819,-6.3534517,-21.020262,7.23485,8.287757,-8.141331,-15.580688,10.623698,25.380886,-4.8229437,-10.42461,-20.820028
157,-0.01282565202564001,0.007292732130736113,87.5977783203125,-3.9629031598964564,-17.175551050605467,-89.4886933783646,-23.252518,-2.36789,-12.820309,63.636642,17.057907,-1.862382,-19.44091,6.0624743,2.4934099,79.205505,7.6086707,15.000033,-5.927168,3.8748217,26.844196,12.828952,21.618397,-7.9160213,-11.675468,-20.479717,7.8346186,8.283356,-6.2946544,-15.695686,11.152493,28.312542,-3.688778,-11.059402,-21.589304
158,0.05134722590446472,-0.05057622864842415,87.28263854980469,-4.560268543079985,-17.164268781829417,-89.67361601069129,-20.065542,-1.699241,-13.513917,60.993683,17.302843,-1.7296902,-23.817482,6.930196,1.8519223,85.726944,5.7627616,15.000033,-6.9845963,4.2066526,27.00074,11.892927,22.302908,-5.9411664,-16.909391,-20.158562,8.369181,8.273508,-4.4072022,-16.066702,11.767266,30.87607,-2.3841944,-11.653573,-22.422415
159,0.14022795855998993,-0.11301245540380478,86.86077117919922,-5.0639608397357465,-17.154715109313393,-89.8094652991815,-16.988081,-1.1307131,-14.139978,58.489605,17.299799,-1.5233045,-28.32868,7.457688,1.0820554,92.239586,3.906594,15.000033,-7.9675927,4.4843454,27.129053,10.740766,23.05148,-3.9632182,-21.937595,-19.991543,8.8261385,8.205298,-2.3813322,-16.648993,12.310782,33.006973,-1.1997464,-12.195752,-23.10976
160,0.24342267215251923,-0.19051410257816315,86.34056091308594,-5.604715706970368,-17.230436954711134,-89.84504319031065,-13.928659,-0.4356037,-14.645575,56.15822,16.827969,-1.2264483,-32.802624,7.8926177,0.3269776,98.42297,2.0865316,15.000033,-8.885436,4.8217564,27.340773,9.308223,23.870636,-2.0014489,-26.64145,-19.907364,9.193441,8.020276,-0.110800564,-17.368973,12.619851,34.633823,-0.43803975,-12.656892,-23.447296
161,0.3352411687374115,-0.2803209125995636,85.73529052734375,-6.124812929586787,-17.391588058440586,-89.78212859913236,-10.853229,0.27787727,-15.021629,54.018745,16.18164,-0.7514496,-37.280468,8.283453,-0.28938994,104.34395,0.27128214,15.000033,-9.719014,5.1642857,27.618732,7.5535393,24.776157,-0.079548284,-31.020205,-19.9104,9.440242,7.63837,2.4570043,-18.187979,12.582064,35.67246,-0.431303,-12.997524,-23.383568
162,0.40256181359291077,-0.37927448749542236,85.04975128173828,-6.581208307025613,-17.5977546436367,-89.63965498369286,-7.796101,0.90301126,-15.339559,52.0254,15.35567,-0.20149805,-41.822792,8.551691,-0.82591206,110.13889,-1.5495167,15.000033,-10.447993,5.468153,27.897856,5.4021916,25.78492,1.7239342,-35.03753,-20.018951,9.577831,7.1156597,5.2838693,-19.09645,12.260174,36.19243,-0.95116067,-13.23595,-23.033918
163,0.4463613033294678,-0.48377737402915955,84.29073333740234,-7.110483087171611,-17.879578143061355,-89.3927148926996,-4.7574606,1.6802647,-15.628027,50.08536,13.70707,0.14937763,-46.29917,8.711256,-1.4413388,115.57954,-3.289295,15.000033,-11.104136,5.851758,28.2402,2.7978961,26.917217,3.3441858,-38.55876,-20.18122,9.666097,6.5865827,8.322544,-20.052858,11.77559,36.36134,-1.4611006,-13.424562,-22.443842
164,0.42335274815559387,-0.602179229259491,83.41632843017578,-7.854809444620562,-18.268857243789075,-89.01404355489913,-1.7316042,2.8724844,-15.848431,48.069477,10.629843,0.06745378,-50.587467,8.727398,-2.293572,120.42257,-4.857461,15.000033,-11.737027,6.4155483,28.716938,-0.2451681,28.204144,4.7626624,-41.504818,-20.342026,9.771665,6.1785502,11.478153,-21.004705,11.275561,36.38594,-1.4356018,-13.608578,-21.66188
165,0.36108335852622986,-0.727719247341156,82.5130844116211,-8.918525825366476,-18.74548328091172,-88.4933226905438,1.3901703,4.775587,-15.735626,45.781307,5.341236,-0.4142352,-54.800846,8.50547,-3.5303266,124.64589,-6.1359434,15.000033,-12.372064,7.2356296,29.334927,-3.7306018,29.70894,6.022013,-44.02255,-20.475609,9.948943,5.8752704,14.74918,-21.945038,10.80533,36.253418,-0.5032391,-13.788893,-20.544367
166,0.28569743037223816,-0.8679704666137695,81.60702514648438,-10.190841658562453,-19.248990470702665,-87.84566335012414,4.5558567,7.187493,-15.235031,43.20269,-1.5188521,-1.2149302,-59.036232,8.024967,-4.9841123,128.3982,-7.1851544,15.000033,-12.959522,8.22126,29.793802,-7.755019,31.468681,6.8811536,-45.850685,-20.610312,10.157382,5.614043,18.166351,-22.856337,10.358679,36.09491,1.0003306,-13.911907,-19.108242
167,0.1799125373363495,-1.0104151964187622,80.68876647949219,-11.507321388757559,-19.757592044305838,-87.06972814675275,7.513458,9.697031,-14.584034,40.551567,-8.466613,-2.286588,-63.135773,7.3690615,-6.350912,131.64087,-8.145042,15.000033,-13.426782,9.213092,29.793802,-12.468672,33.473793,6.910904,-46.3913,-20.758968,10.325512,5.4615293,21.672878,-23.649967,9.98978,36.26795,2.5125208,-13.956209,-17.647038
168,0.037917859852313995,-1.1526026725769043,79.77295684814453,-12.770020456834072,-20.37780480061631,-86.14065049069423,10.11483,11.957437,-14.111934,38.22514,-14.223844,-3.4041824,-66.79477,6.703105,-7.3658133,134.3098,-9.181477,15.000033,-13.822445,10.016434,29.793802,-17.659046,35.65116,6.2493634,-45.919384,-20.972141,10.38132,5.512661,25.10992,-24.232252,9.633696,36.658012,3.386183,-13.961332,-16.488209
169,-0.12535275518894196,-1.2786978483200073,78.87025451660156,-14.165113433484615,-21.2688195996616,-84.97337668183685,12.465939,14.182388,-13.96936,36.353363,-18.935614,-4.512803,-69.99056,6.138607,-8.123193,136.36781,-10.232845,15.000033,-14.141649,10.73221,29.793802,-23.655901,37.974854,4.69587,-44.14429,-21.130943,10.321824,5.850959,28.552256,-24.562634,9.412292,37.483532,3.1775787,-13.954057,-15.849083
170,-0.3068622648715973,-1.3682162761688232,77.993408203125,-15.739371812228567,-22.336044318803207,-83.57098338573975,14.687363,16.458828,-13.938342,34.893715,-23.338844,-5.4052444,-72.88492,5.5865846,-8.716677,137.8443,-11.2019415,15.000033,-14.397481,11.361421,29.793802,-30.499468,40.405598,2.1869442,-41.34581,-21.283995,10.167815,6.4532514,31.99548,-24.635729,9.329837,38.605564,2.2731743,-13.941239,-15.517453
171,-0.514775276184082,-1.458008885383606,77.21258544921875,-17.13134097714152,-23.23758004280948,-82.07710629666137,16.418827,18.203693,-14.075356,34.03679,-27.052736,-5.8354063,-75.56705,4.944337,-8.830595,138.78346,-12.190616,15.000033,-14.717632,11.558828,29.793802,-37.300888,42.788815,-0.8267877,-38.364315,-21.664034,9.897175,7.18065,34.986603,-24.457323,9.382999,39.865604,1.28121,-13.943384,-15.195466
172,-0.6675857305526733,-1.5725618600845337,76.70997619628906,-17.913878492032506,-23.663904385651513,-80.67351807973272,17.17048,18.913782,-14.5603695,33.87392,-29.58779,-5.861514,-78.11149,4.1228414,-8.108501,139.2329,-13.295142,15.000033,-15.217961,11.0661,29.793802,-43.030693,44.97613,-3.5788724,-36.02432,-22.452274,9.516916,7.7860713,37.083443,-24.091711,9.495518,41.116394,0.80214345,-13.9784155,-14.615426
173,-0.7990744709968567,-1.664605975151062,76.44149017333984,-17.767888039498313,-23.459786365939326,-79.21599573184176,16.31889,18.119884,-15.891571,34.78483,-30.566969,-5.653416,-80.65211,2.9150903,-5.9802165,139.16039,-14.745435,15.000033,-16.076168,9.684403,29.793802,-47.40926,46.97515,-5.514705,-34.574623,-23.802507,8.948548,8.098134,38.212,-23.555067,9.38939,42.340733,1.1376603,-14.05358,-13.5261
174,-0.7762187719345093,-1.5966720581054688,76.37297821044922,-16.927949604150736,-22.877381426961783,-77.66839358524331,14.357019,16.148981,-17.863785,36.50259,-30.267185,-5.312319,-83.115685,1.4373161,-2.724937,138.57384,-16.418879,15.000033,-17.213093,7.6942835,29.793802,-50.82798,48.84348,-6.7349815,-33.627876,-25.516254,8.244786,8.179677,38.669056,-22.8897,9.071034,43.55362,1.9161695,-14.136762,-12.146942
175,-0.786170244216919,-1.4077157974243164,76.47610473632812,-15.914370298757781,-22.212919773050185,-76.5022609034412,12.381646,14.030977,-19.551086,38.104885,-29.214735,-4.924946,-85.28899,0.014471251,0.43050483,137.5112,-17.822172,15.000033,-18.206993,5.7925963,29.793802,-53.332268,50.537514,-7.484925,-32.944744,-27.199064,7.6175704,8.117801,38.66874,-22.235952,8.833881,44.600018,2.7793045,-14.191743,-10.902246
176,-0.8206809163093567,-1.2224876880645752,76.72662353515625,-15.17206496948702,-21.692950387918728,-76.1167093906178,11.245065,12.708144,-20.275082,38.717453,-27.956375,-4.5816875,-86.89154,-0.96025676,2.4154294,136.09396,-18.607613,15.000033,-18.730892,4.5481215,29.793802,-54.855644,51.94444,-8.023389,-32.325306,-28.44946,7.2748203,8.002575,38.394817,-21.801214,9.012457,45.336174,3.3874857,-14.2047415,-10.21211
177,-0.8056796193122864,-1.1237807273864746,77.10858917236328,-14.742275336410671,-21.34178842521145,-76.74593087289396,11.216019,12.448647,-19.82292,37.824837,-26.543556,-4.3588147,-87.87847,-2.4029582,2.2465198,134.26234,-18.668459,12.892659,-18.633646,4.127178,29.793802,-55.198227,52.9793,-8.307675,-31.72203,-29.125414,7.3567333,7.76347,37.840664,-21.73758,9.795663,45.8127,3.7503138,-14.221265,-10.3102455
178,-0.7121655344963074,-1.127753496170044,77.61471557617188,-14.422647939302395,-21.03196067579173,-78.1393841488099,11.766867,12.734201,-18.59168,36.03485,-24.751783,-4.1913476,-88.19412,-3.864998,0.8058493,132.0018,-18.432428,9.959355,-18.119541,4.253726,29.793802,-54.38473,53.667397,-8.129066,-31.183134,-29.40796,7.739122,7.3675094,37.005466,-22.025436,10.951773,46.002254,4.091409,-14.240122,-10.892145
179,-0.5415664911270142,-1.2330880165100098,78.18290710449219,-14.166691250584552,-20.74768033810587,-79.89244743591244,12.481176,13.205729,-16.98385,34.10751,-22.670147,-3.9994934,-87.79503,-4.897776,-1.2135859,129.57246,-18.04444,7.321123,-17.478033,4.6291986,29.793802,-52.623222,54.056828,-7.493645,-30.744524,-29.392061,8.224989,6.970339,36.022293,-22.591217,12.200506,45.67138,4.3594694,-14.187481,-11.587972
180,-0.36401957273483276,-1.3893941640853882,78.79141235351562,-13.917485591669221,-20.46808432858012,-81.58093418806291,12.929487,13.534091,-15.427549,32.746803,-20.34839,-3.6808813,-86.81538,-5.34921,-3.1580276,127.21798,-17.476452,5.5173154,-16.998556,4.9544454,29.793802,-50.22543,54.19398,-6.5339785,-30.385721,-29.187115,8.612741,6.7391686,35.029278,-23.324142,13.257017,44.575733,4.4967675,-13.979496,-12.031362
181,-0.22814159095287323,-1.5677756071090698,79.44178771972656,-13.749964586964689,-20.225234106695584,-83.25481626272139,13.126203,13.815184,-13.890339,32.075665,-17.781534,-3.0167503,-85.2519,-4.9310927,-4.969201,124.93432,-16.505465,4.8357096,-16.660624,5.28636,29.793802,-47.168056,54.059746,-5.458584,-30.118458,-28.843948,8.84467,6.7844744,34.020664,-24.20294,14.081864,42.545532,4.4361277,-13.564236,-12.21075
182,-0.11303547024726868,-1.7370333671569824,80.11377716064453,-13.650581595269914,-20.023968123685147,-85.07246536384527,13.245939,14.173072,-12.181174,31.756472,-14.951282,-2.1075346,-83.157265,-3.7938292,-6.8068433,122.60276,-15.103381,4.9050713,-16.29851,5.7175546,29.793802,-43.373074,53.62644,-4.2367654,-29.957396,-28.304703,9.033796,7.016127,32.9691,-25.221407,14.768429,39.716404,4.2007875,-12.990258,-12.299289
183,-0.03475328907370567,-1.8806910514831543,80.85658264160156,-13.425663972789378,-19.777346828927005,-86.75847863342725,13.071928,14.344066,-10.533022,31.73723,-11.824951,-1.3111836,-80.80848,-2.4843643,-8.288782,120.28631,-13.498957,5.3064904,-16.000189,6.0208626,29.793802,-39.146786,52.92833,-2.7562542,-29.85244,-27.53098,9.23036,7.296202,31.967518,-26.268503,15.253968,36.31625,3.8608718,-12.325712,-12.220315
184,0.010314170271158218,-2.0141427516937256,81.64891815185547,-12.883920057537619,-19.38201616759995,-88.04080743321364,12.385753,14.049571,-9.205997,31.931921,-8.339845,-0.9882856,-78.424774,-1.5938134,-9.105115,118.06192,-11.935902,5.6177583,-15.846146,5.9435763,29.793802,-34.916313,52.02955,-1.0121796,-29.678486,-26.547974,9.469854,7.4834623,31.042631,-27.178785,15.524343,32.6445,3.4718943,-11.65076,-11.914694
185,0.02896086312830448,-2.0933544635772705,82.47390747070312,-11.849943877355836,-18.667519324733853,-88.84110235564137,10.916382,13.078314,-8.264996,32.26511,-4.1035943,-1.2709007,-76.162056,-1.1881348,-8.977766,116.020645,-10.38931,5.9120846,-15.902704,5.2319517,29.58219,-30.791813,50.917645,0.74929106,-29.363258,-25.081993,9.79452,7.5669775,30.037716,-27.807695,15.662457,28.86226,2.9719543,-10.9444475,-11.291248
186,0.015111071057617664,-2.110955238342285,83.31062316894531,-10.403558000331724,-17.50990759143032,-89.31871483400774,8.574466,11.532145,-7.6150703,32.807064,0.77915984,-1.9685453,-74.1347,-1.0502892,-8.077411,114.106544,-8.703634,6.3768115,-16.086506,4.020863,28.156126,-26.838045,49.566772,1.7027279,-28.241018,-23.254864,10.154497,7.556459,28.914526,-28.105982,16.034775,25.58086,2.3893266,-10.17117,-10.365944
187,-0.027757635340094566,-2.0914855003356934,84.12116241455078,-8.893865735772666,-16.405970230963998,-89.49601164161112,6.113845,9.753115,-7.257861,33.54103,5.604136,-3.0069056,-71.79637,-1.3083435,-6.994034,112.174614,-7.067333,6.7201376,-16.260624,2.6956131,26.813383,-23.399878,48.03551,2.209535,-26.641205,-21.483625,10.456299,7.5195036,27.818058,-28.096912,16.267353,22.237352,1.7467718,-9.466348,-9.403613
188,-0.07874570786952972,-2.0694451332092285,84.8895492553711,-7.574751364394675,-15.62561899750787,-89.45998799275313,3.9375408,7.97422,-7.246901,34.60915,9.611712,-4.3018365,-68.92091,-2.1135435,-6.2494955,110.08469,-5.593583,6.646074,-16.329731,1.5024542,25.825216,-20.497826,46.37894,2.3815143,-24.51026,-20.23521,10.588075,7.489267,26.789783,-27.860006,16.4579,18.956402,1.1743544,-8.914597,-8.586412
189,-0.11365450918674469,-2.033158302307129,85.61785125732422,-6.4630019973653035,-15.272000787915376,-89.13280000310321,2.1987212,6.1806436,-7.6217146,36.038284,12.55285,-6.1331716,-65.315186,-3.794388,-6.0232553,107.888245,-4.372682,5.930645,-16.34493,0.38986358,25.291462,-18.053879,44.60559,2.4051335,-21.757395,-19.84542,10.505366,7.4755816,25.8507,-27.422615,16.67371,15.739019,0.737695,-8.577159,-7.948305
190,-0.16131891310214996,-2.004763126373291,86.30477142333984,-5.412806910044212,-15.217880125293291,-88.51541331097422,0.62448,4.1707764,-8.391359,37.918385,14.717918,-8.523752,-61.13054,-6.1688523,-6.0933642,105.640175,-3.343808,4.804242,-16.352715,-0.78633726,25.080774,-15.904848,42.71582,2.3371763,-18.518703,-20.015423,10.263458,7.4753213,24.932957,-26.788141,16.883408,12.520071,0.37775737,-8.388254,-7.3932686
191,-0.19621479511260986,-1.9849072694778442,86.92425537109375,-4.417905447362283,-15.371871585738868,-87.8325788303369,-1.034704,1.9076809,-9.5022745,40.514107,16.162626,-10.964631,-56.663,-8.600503,-6.3501973,103.206696,-2.3833072,3.6351566,-16.214272,-1.9439449,25.105967,-14.003115,40.76761,2.0869956,-15.014893,-20.268208,9.899156,7.5254817,23.946781,-26.020979,17.065277,9.319971,0.057107814,-8.231361,-6.895582
192,-0.22244541347026825,-1.969881534576416,87.49261474609375,-3.479333813956889,-15.627897209713028,-87.31172018318117,-2.969672,-0.62699693,-10.864285,43.976334,17.044846,-12.933049,-52.203556,-10.463231,-6.619681,100.43803,-1.3438569,2.7605362,-15.808552,-2.9977055,25.277931,-12.307793,38.85573,1.5679822,-11.446528,-20.145578,9.445754,7.6832366,22.825817,-25.213379,17.212801,6.130397,-0.24445617,-7.988644,-6.4194846
193,-0.2685658931732178,-1.9552761316299438,87.99383544921875,-2.565503999059963,-16.015306756197166,-87.00665143460323,-5.151319,-3.7183628,-12.656565,48.51558,17.264294,-14.191443,-47.73227,-11.624126,-6.776978,97.25805,-0.21453829,2.2619743,-15.090192,-3.986388,25.660574,-10.834735,37.025192,0.80678725,-7.7568507,-19.458485,8.888233,8.055845,21.601385,-24.404911,17.346565,2.8914828,-0.4959726,-7.628802,-5.9521413
194,-0.3286054730415344,-1.9249513149261475,88.38629150390625,-1.6775394734502636,-16.57146831929164,-86.81625630944029,-7.4109454,-7.3495784,-14.694639,53.98471,16.789404,-15.000033,-43.104862,-12.40188,-6.8740053,93.76181,0.9350775,1.9534297,-14.122629,-4.954169,26.285337,-9.55565,35.268555,-0.09854133,-3.8650293,-18.515478,8.214235,8.614174,20.314926,-23.592585,17.483974,-0.41990447,-0.66751164,-7.2106867,-5.5063424
195,-0.4098842740058899,-1.891452431678772,88.67450714111328,-0.8624093689908682,-17.18761303166872,-86.73515741455516,-9.829736,-10.843046,-16.107681,59.96418,15.967938,-15.000033,-38.46075,-12.871829,-6.961122,90.06286,2.1469443,1.7307217,-12.977789,-5.815425,27.001696,-8.377316,33.618458,-1.1227472,0.09327904,-17.608553,7.46462,9.213844,18.912529,-22.811039,17.63476,-3.7539692,-0.7758514,-6.749927,-5.07864
196,-0.5207090377807617,-1.874845266342163,88.85009765625,-0.17913945390751834,-17.743844687584346,-86.74283177602236,-12.52076,-13.703408,-16.639702,66.06496,15.134824,-15.000033,-33.953392,-13.097631,-7.1098905,86.26198,3.4663038,1.4986293,-11.758047,-6.4961567,27.641628,-7.205465,32.13143,-2.2377598,3.9925168,-17.044584,6.6713023,9.705501,17.341503,-22.11305,17.822424,-7.0709753,-0.8252552,-6.2614765,-4.663665
197,-0.6390151381492615,-1.8937972784042358,88.9205322265625,0.30402496375701304,-18.192470663910342,-86.86071895245793,-15.692603,-15.455638,-15.980789,72.41815,14.423805,-15.000033,-29.658674,-12.907299,-7.293325,82.32645,4.9667435,1.2293154,-10.47164,-6.9258957,28.16587,-6.0488505,30.849115,-3.4232442,7.925573,-16.882803,5.822936,10.038065,15.5978985,-21.538275,18.109274,-10.415768,-0.7763456,-5.725319,-4.274983
198,-0.7692868113517761,-1.9514249563217163,88.88705444335938,0.6283004238896474,-18.58406781228971,-87.07079816925058,-19.280277,-16.402954,-14.603444,79.17159,13.692275,-15.000033,-25.505707,-12.345929,-7.45704,78.22419,6.5983324,0.9503243,-9.120016,-7.168349,28.637667,-4.8963647,29.767458,-4.641494,11.896546,-17.001245,4.9082294,10.287443,13.716086,-21.083384,18.496817,-13.8207245,-0.612546,-5.140169,-3.9173753
199,-0.904283881187439,-2.0434951782226562,88.75553131103516,0.9048808670330643,-18.94818443054175,-87.29186522468198,-23.068373,-17.038475,-13.069001,85.96537,12.880429,-15.000033,-21.428955,-11.780779,-7.6503296,74.04545,8.22257,0.69495213,-7.8021817,-7.358886,29.038404,-3.6468017,28.870693,-5.8518276,15.6655655,-17.427406,3.9540586,10.480906,11.681262,-20.728691,18.919712,-17.20468,-0.3762091,-4.5496683,-3.5700443
200,-1.0402580499649048,-2.1451218128204346,88.51150512695312,1.2511536165180546,-19.328494859199118,-87.45702920739174,-26.834564,-17.966314,-11.812735,92.42908,11.893779,-15.000033,-17.348713,-11.554195,-7.9469495,69.8765,9.698801,0.5261051,-6.596253,-7.6368604,29.369904,-2.2271707,28.139277,-7.0301356,19.008924,-18.182375,2.986918,10.642104,9.470124,-20.449505,19.304964,-20.476496,-0.117821835,-3.9973488,-3.2092798
201,-1.1698904037475586,-2.2716586589813232,88.16918182373047,1.6120605583899843,-19.747580548965498,-87.52151589636881,-30.520357,-19.426954,-10.956395,98.60715,10.551015,-15.000033,-13.189928,-11.790346,-8.647706,65.67135,11.19991,0.5065161,-5.536821,-7.976623,29.636496,-0.6764135,27.567375,-8.206565,21.998175,-19.459171,1.9290901,10.786055,7.040864,-20.234377,19.659485,-23.612865,0.143746,-3.484029,-2.798531
202,-1.2753283977508545,-2.42293643951416,87.74119567871094,1.9570544255418023,-20.186078410596572,-87.5373843992546,-34.23389,-21.131191,-10.134597,104.66883,8.922572,-15.000033,-9.006682,-12.216381,-9.638618,61.40642,12.721997,0.6622123,-4.5836945,-8.32859,29.793802,0.9582257,27.145016,-9.399744,24.780382,-21.183935,0.7926542,10.866752,4.376907,-20.072046,20.043581,-26.576944,0.4334539,-2.9915478,-2.3645866
203,-1.355421543121338,-2.5971527099609375,87.22834777832031,2.4519553815636534,-20.632978699442088,-87.59900311062327,-38.026566,-22.89327,-8.994496,110.408455,7.275699,-15.000033,-4.908856,-12.632523,-10.361365,57.186012,13.866754,0.9996735,-3.679789,-8.796962,29.793802,2.7352283,26.84666,-10.569483,27.229599,-22.971144,-0.2487873,10.821773,1.4999602,-19.944818,20.43805,-29.264305,0.77042884,-2.5390239,-1.9664761
204,-1.420553207397461,-2.7916817665100098,86.63848114013672,3.254264308129884,-21.110819504101343,-87.79905585116383,-41.93628,-24.466494,-7.244635,115.60436,5.8992543,-15.000033,-0.96056336,-12.936443,-10.264598,53.093937,14.245295,1.4663314,-2.7419226,-9.475883,29.793802,4.6833277,26.648659,-11.638214,29.097782,-24.409159,-1.0250869,10.631432,-1.571101,-19.840967,20.765522,-31.712765,1.1351253,-2.143646,-1.6646277
205,-1.468470573425293,-3.023812770843506,85.97551727294922,4.500350362685714,-21.59941806464291,-88.150993109537,-46.10363,-25.908457,-4.723091,120.209946,4.8877687,-15.000033,2.8672452,-13.184976,-8.941122,49.018974,13.936594,1.8774848,-1.7617038,-10.493891,29.793802,6.820755,26.566843,-12.600653,30.273859,-25.295702,-1.43261,10.224162,-4.8774576,-19.77903,20.999903,-33.979397,1.5757761,-1.7865952,-1.482596
206,-1.4798738956451416,-3.285125255584717,85.25424194335938,6.050623817323135,-22.112046946413532,-88.62914837745554,-50.462193,-27.177595,-1.6086025,124.382545,4.0410085,-15.000033,6.6439652,-13.509428,-6.8129473,44.933647,13.086531,2.247706,-0.7745803,-11.729484,29.793802,9.110055,26.57819,-13.474478,30.899809,-25.858992,-1.5768687,9.651517,-8.443996,-19.764318,21.192053,-36.033855,2.0709515,-1.4671926,-1.3799531
207,-1.4459642171859741,-3.5516445636749268,84.44740295410156,7.66928461027877,-22.664680728248065,-89.24553534121308,-54.77039,-27.932941,1.7283808,128.17603,3.2855828,-15.000033,10.325122,-13.984493,-4.59728,41.018288,11.442376,2.7624085,0.24573527,-12.903789,29.793802,11.466044,26.65205,-14.338905,31.195292,-26.392391,-1.600422,9.085765,-12.116606,-19.706835,21.45491,-37.76144,2.3933642,-1.2333236,-1.3491362
208,-1.366563320159912,-3.800091505050659,83.55702209472656,9.150279508112266,-23.268951100129907,-89.98885594671953,-58.771767,-27.955711,4.818592,131.59694,2.622647,-15.000033,13.876958,-14.682985,-3.0329301,37.412136,8.786305,3.5999372,1.17913,-13.870981,29.793802,13.999114,26.725328,-15.023786,31.222979,-27.108232,-1.6349398,8.677433,-16.14052,-19.689596,21.6594,-38.86419,2.8155978,-1.1238563,-1.2933854
209,-1.2972468137741089,-4.039620399475098,82.69221496582031,10.515765188131335,-23.892630562879475,-90.83621610786156,-62.617744,-27.064041,7.554301,134.73392,2.2759082,-15.000033,17.448236,-15.742562,-2.516609,33.964043,4.502815,4.88469,2.0814052,-14.531757,29.793802,16.656603,26.790785,-15.656294,30.896608,-28.231047,-1.7516156,8.480151,-20.219887,-19.618408,21.908289,-39.686913,2.9777114,-1.1629237,-1.2472624
210,-1.240159034729004,-4.2617926597595215,81.86004638671875,11.873261636163567,-24.511159164303184,-91.78776149214734,-66.34718,-25.523006,9.953727,137.53922,2.249192,-15.000033,21.080854,-17.109583,-2.788436,30.489365,-1.0086751,6.3752475,2.9314854,-15.040086,29.793802,19.420034,26.854664,-16.218199,30.191744,-29.545078,-1.8761225,8.412553,-24.479576,-19.51756,22.105999,-40.21105,3.016168,-1.318065,-1.1880269
211,-1.1849669218063354,-4.473512649536133,81.07457733154297,13.140872387302565,-25.108127089496065,-92.85099219590568,-69.66645,-23.855919,11.801349,139.79141,2.261851,-15.000033,24.49304,-18.5143,-3.4891798,27.177256,-6.4950128,7.741367,3.7384226,-15.369869,29.793802,22.135952,26.886793,-16.743895,29.408867,-30.711264,-1.9229279,8.419712,-28.67889,-19.394821,22.338728,-40.354477,2.8402705,-1.5716803,-1.1842462
212,-1.108487844467163,-4.670379161834717,80.34814453125,14.249818146832276,-25.682348922124557,-94.02854633153994,-72.345535,-22.56876,13.009026,141.25677,2.0521066,-15.000033,27.34026,-19.709726,-4.0567746,24.365444,-10.822094,8.696178,4.5110803,-15.478497,29.793802,24.644127,26.817173,-17.260872,28.875404,-31.383993,-1.8070148,8.452278,-32.593784,-19.2299,22.720463,-39.999733,2.3735764,-1.90856,-1.3158438
213,-0.9742639064788818,-4.830450057983398,79.68133544921875,15.26160691393936,-26.4150111902107,-95.45055344011293,-74.28077,-21.853249,13.649283,141.81229,1.5281503,-15.000033,29.631142,-20.750624,-4.23825,22.282242,-13.885828,9.215333,5.2576175,-15.287774,29.793802,26.97992,26.552696,-17.938736,28.848354,-31.325796,-1.4448404,8.581626,-36.3696,-18.959326,23.423296,-38.87301,1.4602897,-2.3883655,-1.6820829
214,-0.8120914697647095,-4.946539878845215,79.08831024169922,16.216453867921317,-27.23840651353235,-97.07692188778061,-75.70782,-21.467081,13.771568,141.59784,0.8608466,-15.000033,31.453272,-21.707695,-4.2312737,20.897337,-16.358162,9.382316,5.9704833,-14.808263,29.793802,29.145775,26.082012,-18.7191,29.153215,-30.727524,-0.9113695,8.808454,-39.995686,-18.544271,24.313192,-37.186752,0.18005858,-2.9935272,-2.225411
215,-0.6915644407272339,-4.973239898681641,78.60591125488281,16.98065785112739,-27.80870394603427,-98.62753411251522,-76.87516,-21.218555,13.28828,140.77458,0.22076243,-15.000033,32.55124,-22.419985,-4.004549,20.10785,-18.268545,9.229578,6.6342115,-14.1676,29.793802,30.953712,25.478561,-19.26586,29.476107,-29.91578,-0.36133656,8.975308,-43.119007,-18.046074,25.085579,-35.4422,-1.1660286,-3.5942922,-2.7996585
216,-0.6522554159164429,-4.877359867095947,78.29791259765625,17.377675255102602,-27.802129131103136,-99.80642702466417,-77.98912,-20.912348,12.131025,139.50293,-0.24007818,-15.000033,32.68443,-22.768375,-3.537137,19.710571,-19.605818,8.897392,7.2345967,-13.528813,29.793802,32.270504,24.851433,-19.224075,29.456312,-29.25264,0.050544802,8.931085,-45.52819,-17.60253,25.513044,-34.008755,-2.2557714,-4.0671215,-3.2594728
217,-0.6943427324295044,-4.717594623565674,78.20232391357422,17.247356850487865,-26.947509977700182,-100.59650627366764,-79.213806,-20.286942,10.095785,137.7113,-0.57406116,-15.000033,31.400625,-22.594769,-2.608634,19.701694,-20.29803,8.421938,7.9137206,-12.885105,29.793802,33.07112,24.252703,-18.27744,28.894377,-28.86627,0.28274482,8.512223,-47.24449,-17.376482,25.513363,-33.01445,-2.964273,-4.4062276,-3.6104434
218,-0.7680196762084961,-4.537116527557373,78.30879211425781,16.649278494530456,-25.494351059693663,-101.13595890255559,-80.35087,-19.41128,7.3626738,135.38506,-0.8814198,-15.000033,28.98379,-21.837252,-1.3281547,20.03371,-20.322187,7.8206053,8.693136,-12.160472,29.793802,33.47571,23.677765,-16.706907,27.914074,-28.594118,0.43001866,7.827732,-48.37425,-17.41672,25.224804,-32.26805,-3.4310164,-4.6681733,-3.9362519
219,-0.8357893824577332,-4.357760429382324,78.5438461303711,15.77809620718277,-23.913496271903362,-101.35879866750393,-81.1048,-18.56651,4.524616,132.76015,-1.0307456,-15.000033,26.342016,-20.641323,-0.20611322,20.433393,-19.750084,7.203432,9.436563,-11.417989,29.793802,33.563038,23.302683,-15.18772,26.63477,-28.480135,0.5303572,7.18364,-48.884758,-17.62233,24.7308,-31.524681,-3.7699087,-4.8266125,-4.165028
220,-0.8867107629776001,-4.19299840927124,78.83926391601562,14.9230590288625,-22.639942605621343,-101.10622553635805,-81.30064,-18.010595,2.2766016,129.9754,-0.74538034,-15.000033,24.261904,-19.506556,0.28863806,20.78475,-18.729923,6.738217,9.59323,-10.92735,29.793802,33.60942,22.821955,-13.780811,25.148413,-28.146984,0.67089564,6.7470546,-48.661148,-17.995306,24.330301,-30.874386,-3.946714,-4.8686075,-4.304301
221,-0.9442751407623291,-4.040969371795654,79.19048309326172,14.178382698178435,-21.802517416030238,-100.17745581887809,-80.85483,-17.939312,0.87544715,127.02086,-0.030539611,-15.000033,22.977728,-18.711796,-0.021612415,21.06199,-17.269426,6.5182667,9.158632,-10.701999,29.793802,33.449463,22.53975,-12.996123,23.59799,-27.909933,0.79693973,6.7629633,-47.715973,-18.34887,23.928183,-29.957567,-4.0901437,-4.6955104,-4.165842
222,-1.0202001333236694,-3.923095703125,79.60952758789062,13.39586918553533,-21.14317261139652,-98.7374631114545,-79.83525,-18.264791,-0.052064355,123.86129,0.85990614,-15.000033,22.003046,-18.006512,-0.80577356,21.382477,-15.315987,6.389311,8.321426,-10.65933,29.793802,33.17246,22.46837,-12.404708,21.7806,-27.742992,0.92389274,7.027586,-46.02049,-18.6798,23.403933,-28.975895,-4.158987,-4.3550997,-3.800659
223,-1.0657763481140137,-3.852118492126465,80.10660552978516,12.62154853460658,-20.589866578571428,-97.0917919170683,-78.32522,-17.352444,0.12209092,120.49323,2.1536887,-12.6152,21.06862,-17.404167,-1.7647839,21.914454,-12.986132,6.261214,7.3209133,-10.66245,29.793802,32.72886,22.582026,-12.026575,19.781908,-27.49788,1.0709289,7.3832803,-43.77308,-18.995914,22.776445,-27.917171,-4.199844,-4.0189915,-3.4430668
224,-1.0577641725540161,-3.8050570487976074,80.67493438720703,11.855913990480582,-20.06920542324451,-95.55442428422171,-76.30806,-16.321041,0.48486945,116.92194,3.6972175,-9.933156,19.881119,-16.83271,-2.6057274,22.859499,-10.406415,6.0059605,6.394105,-10.551373,29.793802,32.054554,22.826843,-11.898231,17.709993,-27.022524,1.253325,7.6753044,-41.18731,-19.32131,22.099638,-26.747757,-4.243335,-3.8577828,-3.3300462
225,-1.0098164081573486,-3.7712771892547607,81.29252624511719,11.066817641214762,-19.58374138019615,-94.09074208810962,-73.7338,-16.129574,0.42215112,113.09349,5.7319913,-8.394698,18.379515,-16.267782,-3.3420343,24.331095,-7.487411,5.4440165,5.520448,-10.259495,29.793802,31.019539,23.17881,-12.19259,15.689037,-26.150267,1.4574727,7.9366813,-38.16952,-19.679201,21.422035,-25.462826,-4.2413545,-3.9378908,-3.5441082
226,-0.9461047053337097,-3.7315526008605957,81.94522857666016,10.211996432972864,-19.06117064938126,-92.54968200668333,-70.73698,-16.604214,0.020523215,109.007996,8.28806,-7.6310983,16.56882,-15.725975,-4.116845,26.241137,-4.1991696,4.671659,4.561836,-9.756403,29.37701,29.63818,23.613373,-13.029716,13.965393,-25.037796,1.691052,8.2179785,-34.563644,-20.029253,20.813868,-23.834576,-4.1594114,-4.178837,-3.9817076
227,-0.8906008005142212,-3.700856924057007,82.60608673095703,9.300114039485733,-18.45462462120421,-91.0974932797397,-67.49365,-17.323656,-0.74059975,104.756226,11.026679,-7.379821,14.453629,-15.177248,-4.8435035,28.414368,-0.730661,3.9816713,3.5989354,-9.053496,28.482296,28.122915,24.067316,-14.108961,12.420466,-23.955006,1.9780014,8.393982,-30.694237,-20.327324,20.275991,-21.73539,-4.077787,-4.5054903,-4.5617867
228,-0.8343146443367004,-3.665158987045288,83.27037048339844,8.349356032123456,-17.876555872062305,-89.91474248716024,-64.004684,-17.878641,-1.8119512,100.43797,13.545047,-7.3712687,12.233269,-14.572833,-5.412831,30.652464,2.7220705,3.6898541,2.7371333,-8.262068,27.736168,26.700083,24.498158,-14.865577,10.474823,-23.080584,2.309266,8.366095,-26.98828,-20.57049,19.691727,-19.461853,-4.1655335,-4.8156714,-5.1850786
229,-0.76394122838974,-3.6170806884765625,83.92672729492188,7.320012494277134,-17.324699975085977,-89.03126531465601,-60.203465,-18.40915,-3.4362273,95.98172,15.991804,-7.8926034,9.881527,-13.913858,-5.901365,32.95133,6.2428164,4.054831,1.9780707,-7.3588,27.129242,25.424065,24.863194,-15.195818,8.059987,-22.479593,2.695803,8.061411,-23.499094,-20.745464,19.089306,-16.908184,-4.5154104,-5.0361443,-5.8783245
230,-0.6777656078338623,-3.553252696990967,84.5594711303711,6.2005129891622675,-16.819307353880514,-88.3618987428326,-56.028275,-18.978783,-5.635596,91.38481,18.497385,-8.949437,7.341779,-13.167086,-6.262847,35.491,9.844503,4.906679,1.2486718,-6.3302717,26.624819,24.203825,25.154737,-15.254059,5.3008347,-22.0028,3.118679,7.555284,-20.13311,-20.835495,18.558142,-14.036024,-5.070478,-5.2216578,-6.6720757
231,-0.6156718134880066,-3.51562762260437,85.1575698852539,5.039215395661077,-16.394797414887197,-87.90203547330873,-51.655743,-19.107025,-7.973507,86.830154,20.637383,-9.918788,4.6180744,-12.170873,-6.192798,38.38594,13.20169,5.9606895,0.49209642,-5.2440195,26.24441,23.067337,25.396841,-15.03021,2.2463946,-21.574377,3.548243,6.958676,-17.056032,-20.840553,18.1894,-10.873673,-5.6292744,-5.4897823,-7.482793
232,-0.5742555856704712,-3.4707705974578857,85.72631072998047,3.879068848194411,-16.084025830616323,-87.63939099870046,-47.34583,-18.341772,-9.849056,82.491035,22.026955,-10.125427,1.7321045,-10.744781,-5.4434004,41.737804,15.997878,6.962022,-0.34838367,-4.1708226,26.016647,22.058113,25.633585,-14.510454,-1.0837758,-21.1229,3.9602575,6.3773007,-14.416176,-20.772362,18.042063,-7.47802,-5.99272,-5.963704,-8.22758
233,-0.5339014530181885,-3.40569806098938,86.20965576171875,2.693798441294917,-15.954516870888408,-87.63713054344714,-43.086918,-16.423826,-10.982512,78.35613,22.297722,-9.280564,-1.267322,-8.496769,-3.65067,45.62174,18.170849,8.008549,-1.2649963,-3.1053152,26.038198,21.284119,25.89206,-13.635906,-4.8404493,-20.556786,4.364586,5.7749867,-12.279278,-20.629293,18.124073,-3.7949147,-6.0851502,-6.739301,-8.834809
234,-0.48921507596969604,-3.3582046031951904,86.60413360595703,1.456956024871477,-15.997664677201193,-87.87922040540104,-38.807632,-13.660662,-11.549339,74.361694,21.694946,-7.7771525,-4.336404,-5.3998575,-1.0955147,50.010513,19.805874,9.42199,-2.22967,-2.027848,26.287642,20.75657,26.177673,-12.404424,-9.037408,-19.946568,4.769893,5.1141596,-10.541664,-20.414886,18.390076,0.17492467,-6.028814,-7.7347765,-9.361938
235,-0.4339814782142639,-3.326897382736206,86.90290069580078,0.22700067177405053,-16.121638076338087,-88.2315331912001,-34.678562,-10.542407,-11.641795,70.590324,20.772417,-6.0034165,-7.475078,-1.9189392,1.4519451,54.83645,20.83769,11.153635,-3.2525458,-0.9850858,26.624004,20.344261,26.510235,-10.912916,-13.44757,-19.467796,5.1575046,4.497717,-9.0535,-20.165678,18.777822,4.245968,-5.9246492,-8.81034,-9.925136
236,-0.3609469532966614,-3.3211708068847656,87.0853271484375,-0.9359780368700634,-16.209620743151927,-88.56218694131876,-30.872328,-7.548704,-11.441523,67.1142,20.130724,-4.3430195,-10.7975445,1.2858989,3.2303276,60.040188,21.270142,12.94582,-4.3273344,-0.015998947,26.888845,19.879955,26.921432,-9.28017,-17.834957,-19.30195,5.5145006,4.032757,-7.652045,-19.944798,19.209623,8.217212,-5.865836,-9.824718,-10.6468315
237,-0.28076261281967163,-3.308943748474121,87.08488464355469,-2.0435338652170856,-16.1889398818053,-88.88119766896061,-27.531092,-4.550664,-10.81138,63.994217,20.07779,-2.6936102,-14.46674,3.8842921,3.9029543,65.784966,20.927544,14.536378,-5.447887,0.909583,27.025312,19.358612,27.441175,-7.5470486,-22.271938,-19.605572,5.843934,3.7876282,-6.3321767,-19.809292,19.692991,12.05935,-5.827379,-10.7861395,-11.645988
238,-0.23509003221988678,-3.3247270584106445,86.97712707519531,-3.1154352076797944,-16.128288260051043,-89.25345659060595,-24.477499,-1.4268168,-9.768025,61.175884,20.220703,-0.9719175,-18.484625,5.712706,3.4213953,72.08597,19.932756,15.000033,-6.5752463,1.8087292,27.13111,18.856785,28.076397,-5.6726365,-26.864944,-20.2673,6.1533895,3.7030175,-5.0914526,-19.7766,20.202478,15.78592,-5.7566576,-11.754067,-12.8324375
