unveil-humanoid-operators/unveil-humanoid-operators.github.io/feature-analysis-animation/data/feature_matrix_instances/age_waist_rom_jogging_A042_jog_backward_stop_004__A042.csv
Frame,root_translateX,root_translateY,root_translateZ,root_rotateX,root_rotateY,root_rotateZ,left_hip_pitch_joint_dof,left_hip_roll_joint_dof,left_hip_yaw_joint_dof,left_knee_joint_dof,left_ankle_pitch_joint_dof,left_ankle_roll_joint_dof,right_hip_pitch_joint_dof,right_hip_roll_joint_dof,right_hip_yaw_joint_dof,right_knee_joint_dof,right_ankle_pitch_joint_dof,right_ankle_roll_joint_dof,waist_yaw_joint_dof,waist_roll_joint_dof,waist_pitch_joint_dof,left_shoulder_pitch_joint_dof,left_shoulder_roll_joint_dof,left_shoulder_yaw_joint_dof,left_elbow_joint_dof,left_wrist_roll_joint_dof,left_wrist_pitch_joint_dof,left_wrist_yaw_joint_dof,right_shoulder_pitch_joint_dof,right_shoulder_roll_joint_dof,right_shoulder_yaw_joint_dof,right_elbow_joint_dof,right_wrist_roll_joint_dof,right_wrist_pitch_joint_dof,right_wrist_yaw_joint_dof
0,-0.3973064422607422,2.391402006149292,78.696044921875,0.5316555770869185,-1.0275316931681358,-89.30946253394582,-0.27554777,2.3341188,-1.0012903,8.982698,-10.15612,-3.333122,-1.4940028,-3.76714,-5.2487774,14.9265785,-10.08484,-0.35145438,-1.0631661,-0.39364958,5.8891387,2.4124608,16.08619,-31.845102,58.357155,12.183798,6.8307843,4.4558177,-2.6353855,-17.40531,47.696606,54.93397,-4.36015,8.3926735,-7.847671
1,-0.4218228757381439,2.410834789276123,78.69624328613281,0.5274348202667687,-1.0003940073546838,-89.2857164324697,-0.3744947,2.3581061,-1.0507187,9.049672,-10.134523,-3.36932,-1.6476482,-3.749632,-5.273778,15.137268,-10.1416235,-0.4502213,-1.0717508,-0.3939993,5.8946724,2.3984652,16.091791,-31.813927,58.337265,12.224441,6.8199925,4.48037,-2.608652,-17.413979,47.65041,54.85948,-4.2765765,8.397099,-7.890374
2,-0.4478352963924408,2.4391579627990723,78.69054412841797,0.5113597064381004,-0.9737492433799426,-89.26380138274699,-0.56682885,2.3932557,-1.1042422,9.3211155,-10.226337,-3.4046872,-1.8008169,-3.718764,-5.2988586,15.35048,-10.201659,-0.5473843,-1.0733699,-0.3849944,5.908591,2.3805819,16.099548,-31.769611,58.314594,12.287502,6.8080225,4.4995623,-2.573008,-17.423534,47.57286,54.76824,-4.215489,8.4030485,-7.9267373
3,-0.4773254990577698,2.4763689041137695,78.6845474243164,0.49174878185804644,-0.9432471653659378,-89.23482558982072,-0.7828668,2.4324276,-1.1668042,9.622703,-10.323172,-3.4470563,-1.9637733,-3.6842978,-5.3333764,15.572199,-10.262371,-0.6513179,-1.073956,-0.37232953,5.9225626,2.3539517,16.110126,-31.735216,58.29185,12.336856,6.797141,4.5178237,-2.5421274,-17.432869,47.494915,54.68454,-4.15538,8.407403,-7.9618177
4,-0.513894259929657,2.5163657665252686,78.6772232055664,0.46542521419640553,-0.9025665711011887,-89.18978380284251,-1.0545384,2.4800537,-1.2497609,9.99125,-10.428184,-3.5061603,-2.1567953,-3.6432474,-5.389033,15.825212,-10.329537,-0.77183515,-1.0772045,-0.35559025,5.9360423,2.307019,16.121075,-31.7126,58.271065,12.365168,6.792855,4.5336833,-2.5152543,-17.437859,47.42617,54.60249,-4.1035123,8.416703,-7.996399
5,-0.555198609828949,2.562257766723633,78.66984558105469,0.43249847280339393,-0.8481980568925509,-89.12870216705257,-1.3986189,2.5378246,-1.3528792,10.45316,-10.550005,-3.5876825,-2.385815,-3.5943983,-5.4674835,16.113132,-10.405102,-0.91172916,-1.0912824,-0.33149856,5.944251,2.238508,16.131907,-31.705217,58.259323,12.353657,6.795985,4.5426536,-2.5003734,-17.438766,47.368706,54.530983,-4.0564046,8.429785,-8.025221
6,-0.6027110815048218,2.6169674396514893,78.66163635253906,0.3953726835332825,-0.7848941692338697,-89.0565366284195,-1.7868915,2.6018744,-1.4697126,10.968231,-10.679641,-3.6862733,-2.640466,-3.5405514,-5.561839,16.427711,-10.487514,-1.0658141,-1.0906922,-0.30869207,5.957117,2.1420214,16.154903,-31.724827,58.24947,12.315198,6.805092,4.54257,-2.4793952,-17.436142,47.281322,54.450855,-4.031367,8.445839,-8.045282
7,-0.6562394499778748,2.671666383743286,78.6537857055664,0.354730376843554,-0.7161277509236014,-88.96884993284353,-2.2125905,2.6681097,-1.6065906,11.52635,-10.812131,-3.7947423,-2.9161527,-3.4840295,-5.674096,16.767803,-10.5743,-1.2317704,-1.080416,-0.2888964,5.9765058,2.0395,16.195082,-31.755863,58.214893,12.273551,6.816426,4.5440855,-2.458359,-17.426697,47.195004,54.3727,-4.0155177,8.461208,-8.070085
8,-0.7062427401542664,2.733318328857422,78.64319610595703,0.3116616962175957,-0.6457980353782876,-88.86074363258216,-2.666318,2.733582,-1.7706088,12.112459,-10.941411,-3.90568,-3.2084672,-3.426558,-5.8069386,17.133383,-10.663556,-1.4072762,-1.0791388,-0.2655403,6.008893,1.936388,16.226635,-31.750952,58.157703,12.274998,6.8211145,4.5560093,-2.4499083,-17.416471,47.14461,54.30432,-4.003148,8.473391,-8.107951
9,-0.7696995735168457,2.803987979888916,78.62902069091797,0.2602775074631267,-0.5732802251433315,-88.7302415478302,-3.1526046,2.8042073,-1.9680722,12.733241,-11.071175,-4.022768,-3.5150108,-3.361229,-5.9628196,17.518744,-10.749993,-1.5956972,-1.0712218,-0.2404631,6.057044,1.8293536,16.258593,-31.715551,58.076557,12.329087,6.8227563,4.5791845,-2.439291,-17.404047,47.109238,54.234978,-4.01543,8.480937,-8.164236
10,-0.8377029299736023,2.8933842182159424,78.61348724365234,0.20145557666932376,-0.49732587777347803,-88.5801982906942,-3.6735892,2.8782053,-2.1938202,13.392834,-11.20264,-4.1482973,-3.8391125,-3.290309,-6.139648,17.92797,-10.837795,-1.7970374,-1.0658835,-0.21519691,6.1223855,1.7353525,16.305933,-31.650278,57.94577,12.41859,6.8264666,4.606573,-2.4375482,-17.383308,47.089928,54.17053,-4.049145,8.485259,-8.232584
11,-0.905954122543335,2.9786581993103027,78.59922790527344,0.14741203050986426,-0.4199343171138768,-88.41340354123125,-4.2150416,2.9420822,-2.4373991,14.068382,-11.325023,-4.272326,-4.1829824,-3.2285247,-6.3331614,18.369326,-10.934606,-2.0041513,-1.0601801,-0.19503416,6.199449,1.6326457,16.356533,-31.575348,57.790596,12.526597,6.819648,4.6392713,-2.4467144,-17.36053,47.09103,54.11424,-4.072891,8.487744,-8.303309
12,-0.9783686399459839,3.0667824745178223,78.58318328857422,0.10754630287474135,-0.3434901304538727,-88.23257366472912,-4.761438,2.982727,-2.687993,14.735053,-11.426397,-4.3848305,-4.5475373,-3.190179,-6.5389524,18.849281,-11.047326,-2.2099562,-1.0579207,-0.19249196,6.2935486,1.5391771,16.437319,-31.497635,57.570213,12.6374855,6.7952237,4.671039,-2.4831421,-17.32747,47.11723,54.076447,-4.060817,8.488008,-8.365278
13,-1.0605173110961914,3.1694953441619873,78.56369018554688,0.08459918982713094,-0.27064589003655143,-88.0388645254192,-5.3092318,2.998141,-2.9427936,15.393057,-11.505334,-4.484176,-4.931007,-3.177869,-6.756294,19.371536,-11.180664,-2.4119842,-1.0462422,-0.20161046,6.400222,1.420838,16.519272,-31.446419,57.330772,12.74165,6.746345,4.7002335,-2.5339627,-17.30209,47.159176,54.048786,-3.994635,8.484431,-8.41062
14,-1.1391675472259521,3.27716064453125,78.5418472290039,0.07280396736833117,-0.19959771180266425,-87.83039816563537,-5.8612695,2.9955404,-3.2073386,16.042828,-11.565792,-4.5752473,-5.329597,-3.1832578,-6.9876146,19.923931,-11.327692,-2.6142929,-1.0205684,-0.21073502,6.5161424,1.2610633,16.575804,-31.417229,57.1033,12.851816,6.678185,4.734017,-2.5859766,-17.291336,47.20872,54.021713,-3.8948627,8.478459,-8.445707
15,-1.2279480695724487,3.3944900035858154,78.51700592041016,0.0698244501092482,-0.12554809064374367,-87.60594745908736,-6.431608,2.9745975,-3.4841793,16.699392,-11.611266,-4.6576514,-5.753006,-3.2074304,-7.232129,20.513197,-11.48382,-2.819037,-1.003759,-0.23720907,6.6554317,1.1390938,16.688047,-31.362911,56.765984,12.9743805,6.602712,4.772318,-2.657443,-17.279575,47.28259,53.9886,-3.7858682,8.47425,-8.481615
16,-1.3058148622512817,3.5200557708740234,78.4896469116211,0.07172866830933519,-0.044064673628426955,-87.36404381053819,-7.0284023,2.9360032,-3.7759008,17.367466,-11.644209,-4.731061,-6.207202,-3.2495713,-7.4898458,21.139639,-11.642926,-3.0284057,-0.97265816,-0.2590938,6.80621,0.99739486,16.785654,-31.299421,56.399456,13.121815,6.528206,4.8419094,-2.7251956,-17.277908,47.345196,53.945034,-3.7068412,8.478233,-8.526829
17,-1.3920557498931885,3.6549296379089355,78.4633560180664,0.08062728394323648,0.044018586978549164,-87.10596671782885,-7.646732,2.8810232,-4.081541,18.040768,-11.664377,-4.794393,-6.6914973,-3.3084369,-7.759078,21.803585,-11.802031,-3.248287,-0.93498296,-0.2815098,6.974799,0.8629398,16.893648,-31.206312,55.96214,13.318056,6.459374,4.943877,-2.7924309,-17.28542,47.408806,53.88445,-3.665573,8.497864,-8.593607
18,-1.4911144971847534,3.7969372272491455,78.43310546875,0.09437581714902207,0.13694171867113342,-86.83205525467335,-8.283605,2.809057,-4.4001427,18.71794,-11.670054,-4.8481154,-7.2022786,-3.384705,-8.0403595,22.503342,-11.96381,-3.4757147,-0.8874592,-0.30251017,7.157325,0.71756643,16.99658,-31.09923,55.483974,13.550907,6.3904047,5.0729113,-2.8596907,-17.302708,47.47323,53.814568,-3.645276,8.528211,-8.673582
19,-1.5854448080062866,3.9471936225891113,78.40019226074219,0.11644738797626902,0.23765269561846655,-86.53872369946987,-8.952565,2.716336,-4.733963,19.414686,-11.663365,-4.8945904,-7.7416415,-3.4816515,-8.336386,23.235113,-12.131593,-3.6997323,-0.8356675,-0.3208507,7.350737,0.5571423,17.0911,-30.984308,54.975838,13.777077,6.31646,5.222641,-2.9321692,-17.330393,47.535698,53.737823,-3.6330671,8.556557,-8.746279
20,-1.6680203676223755,4.111240863800049,78.36369323730469,0.14423017366640847,0.3491988490806619,-86.22297472816348,-9.666286,2.5994234,-5.0851893,20.145376,-11.644483,-4.9369507,-8.312694,-3.6027474,-8.649828,23.9986,-12.307955,-3.9096076,-0.78097993,-0.33378327,7.5490766,0.36771816,17.164143,-30.874325,54.46431,13.95282,6.2322474,5.388717,-3.0164697,-17.364264,47.589916,53.666214,-3.6167855,8.569471,-8.79137
21,-1.758062481880188,4.284979343414307,78.3205795288086,0.18157126692215336,0.4759576251368536,-85.88430408809795,-10.425781,2.4556966,-5.454258,20.900276,-11.610721,-4.9736176,-8.91966,-3.7501552,-8.981473,24.79186,-12.496215,-4.105545,-0.7364522,-0.3484295,7.76009,0.18084678,17.255987,-30.759933,53.895157,14.041703,6.127946,5.5733685,-3.1120472,-17.424992,47.653423,53.569855,-3.593568,8.566027,-8.795779
22,-1.8516722917556763,4.465539932250977,78.27106475830078,0.22700271106501527,0.614909265531212,-85.52419819978665,-11.224732,2.2868128,-5.8393245,21.676687,-11.56253,-5.004678,-9.559879,-3.9222937,-9.329224,25.617285,-12.694397,-4.292449,-0.6861765,-0.360851,7.9805856,-0.025425818,17.346466,-30.654516,53.296806,14.072626,6.0088515,5.780594,-3.2100682,-17.506243,47.71129,53.45578,-3.5723255,8.552432,-8.772465
23,-1.9561764001846313,4.658578395843506,78.21563720703125,0.27695930957551146,0.7582054360717868,-85.14232831368169,-12.064625,2.094618,-6.238682,22.498768,-11.506766,-5.036214,-10.226013,-4.117388,-9.691237,26.480236,-12.899636,-4.466609,-0.6360384,-0.36942047,8.215396,-0.239415,17.42773,-30.531809,52.665802,14.106546,5.8937154,5.988538,-3.312227,-17.606213,47.75905,53.325085,-3.5439904,8.528495,-8.738619
24,-2.0518503189086914,4.865231037139893,78.15432739257812,0.32790133406448513,0.8979376268942795,-84.73801744743591,-12.94544,1.880856,-6.6504054,23.388676,-11.448928,-5.0752597,-10.911404,-4.334181,-10.065511,27.387247,-13.109546,-4.624802,-0.59132886,-0.37273484,8.470085,-0.44867933,17.49379,-30.366272,51.996593,14.203158,5.801757,6.1752157,-3.4181793,-17.725609,47.791443,53.174603,-3.4990218,8.4946995,-8.711197
25,-2.146864891052246,5.070734977722168,78.08602905273438,0.3858711886526776,1.0368670455713462,-84.30828169493347,-13.869679,1.6367959,-7.0727725,24.34141,-11.373043,-5.1236606,-11.622727,-4.582521,-10.454005,28.345144,-13.318649,-4.7666235,-0.5513032,-0.37601072,8.747999,-0.65556115,17.538687,-30.1384,51.285896,14.384563,5.74198,6.3209825,-3.5266902,-17.865345,47.804886,53.001064,-3.4186234,8.4456005,-8.699997
26,-2.2428088188171387,5.292204856872559,78.01287841796875,0.4507030802321163,1.1774132870505714,-83.8542491816299,-14.836483,1.3626866,-7.5058813,25.35028,-11.28307,-5.1808267,-12.363235,-4.8615236,-10.855754,29.355783,-13.533972,-4.894863,-0.5148221,-0.37644684,9.044519,-0.868912,17.561092,-29.864727,50.54433,14.617805,5.70288,6.4430633,-3.6383784,-18.026062,47.804817,52.807148,-3.3120434,8.382939,-8.694209
27,-2.34748911857605,5.517071723937988,77.92554473876953,0.5081137815873769,1.31165840699319,-83.38201023951075,-15.838253,1.074215,-7.950864,26.42752,-11.212421,-5.2507052,-13.111579,-5.1512065,-11.265861,30.397387,-13.762537,-5.0113072,-0.48525536,-0.36115825,9.353094,-1.0877502,17.563175,-29.576494,49.78801,14.878309,5.6727214,6.5750127,-3.7563303,-18.207834,47.797302,52.599712,-3.2136843,8.318017,-8.679534
28,-2.4478185176849365,5.748340606689453,77.82140350341797,0.543943553354148,1.432030255542721,-82.89772785222588,-16.874266,0.78551143,-8.409284,27.599682,-11.197611,-5.3363056,-13.855143,-5.433423,-11.679066,31.465935,-14.015746,-5.116939,-0.4658197,-0.31796274,9.667561,-1.3098823,17.549381,-29.305717,49.030262,15.140772,5.640174,6.750218,-3.8836765,-18.4101,47.78863,52.385674,-3.156959,8.26189,-8.641971
29,-2.5512890815734863,5.9865546226501465,77.7011489868164,0.5428386893437069,1.5430023298703062,-82.39646517824049,-17.963842,0.5005058,-8.919458,28.86139,-11.237618,-5.439163,-14.589495,-5.6904693,-12.107961,32.542065,-14.285024,-5.209013,-0.45739076,-0.23025666,9.991507,-1.5410622,17.523123,-29.06077,48.272095,15.407014,5.6028075,6.9855957,-4.01216,-18.631845,47.76063,52.155727,-3.176954,8.218288,-8.580648
30,-2.652310609817505,6.236892223358154,77.56279754638672,0.5159873609635901,1.6471545941209915,-81.87723683335439,-19.100342,0.2072778,-9.466885,30.204231,-11.317572,-5.561185,-15.323418,-5.937434,-12.550556,33.638344,-14.569423,-5.288829,-0.4571472,-0.110418625,10.326802,-1.779526,17.484873,-28.826515,47.50413,15.686305,5.5674706,7.260422,-4.1430407,-18.873236,47.71491,51.909958,-3.2471335,8.180836,-8.501989
31,-2.762576103210449,6.481363773345947,77.40771484375,0.4888167941310913,1.7339946700492976,-81.35219865887908,-20.2391,-0.09946498,-9.973809,31.637506,-11.450514,-5.702665,-16.060175,-6.202554,-12.980264,34.78915,-14.892328,-5.362258,-0.46422824,0.011108059,10.665148,-2.0091474,17.434683,-28.597733,46.720936,15.965737,5.535928,7.550984,-4.2932634,-19.134687,47.68825,51.665947,-3.309657,8.1455145,-8.402858
32,-2.859854221343994,6.719418525695801,77.23210144042969,0.48630005210479665,1.7927177671204477,-80.83311252697528,-21.341793,-0.42266238,-10.363735,33.179108,-11.653018,-5.859924,-16.804157,-6.5140743,-13.370778,36.030468,-15.278123,-5.4341693,-0.47890365,0.10347273,10.997757,-2.2120397,17.37225,-28.366423,45.916447,16.233568,5.509717,7.8338003,-4.482585,-19.41735,47.72045,51.445923,-3.3055472,8.108279,-8.280379
33,-2.9589977264404297,6.954817295074463,77.03399658203125,0.5156499216577857,1.8187425014250447,-80.30808298723598,-22.399818,-0.76695615,-10.632224,34.766052,-11.91489,-6.066572,-17.556808,-6.885452,-13.722276,37.379887,-15.730824,-5.5040665,-0.50819147,0.16107997,11.330113,-2.3876143,17.297956,-28.131205,45.08494,16.489876,5.4894853,8.104482,-4.7120757,-19.723305,47.825993,51.24864,-3.2123508,8.065006,-8.129032
34,-3.0576722621917725,7.18377685546875,76.81816864013672,0.5630048899928093,1.8183708712516022,-79.7753016246104,-23.440649,-1.1253409,-10.814813,36.422962,-12.237425,-6.3072925,-18.318056,-7.299374,-14.04585,38.81985,-16.24084,-5.5683208,-0.55187196,0.19877686,11.664216,-2.541762,17.212248,-27.892952,44.22881,16.740265,5.474211,8.374774,-4.974288,-20.053194,47.98613,51.06493,-3.0631013,8.019301,-7.951885
35,-3.155447244644165,7.420867919921875,76.57987213134766,0.621087796671727,1.7967147129378063,-79.26275560974582,-24.470629,-1.4752965,-10.891704,38.27551,-12.639844,-6.5018272,-19.075535,-7.7303557,-14.329612,40.30254,-16.792782,-5.626753,-0.5981017,0.21887784,11.986938,-2.6677115,17.114716,-27.648367,43.353916,16.980324,5.4628315,8.645128,-5.2722917,-20.403084,48.189163,50.897995,-2.88166,7.9790554,-7.758694
36,-3.237765312194824,7.6525092124938965,76.31867218017578,0.6819541453748974,1.7588396163943414,-78.79831883446656,-25.49423,-1.7935666,-10.845781,40.448437,-13.14084,-6.571406,-19.821396,-8.152881,-14.562793,41.789024,-17.376951,-5.67965,-0.63571525,0.22470716,12.284764,-2.758076,17.004637,-27.393515,42.467255,17.206017,5.453852,8.915899,-5.611751,-20.765547,48.423958,50.756004,-2.6927295,7.952004,-7.5596967
37,-3.32368540763855,7.877969741821289,76.03712463378906,0.7511019915219812,1.7011163912864615,-78.3756162058045,-26.528671,-2.0712826,-10.627053,43.011036,-13.76554,-6.4624276,-20.552671,-8.577021,-14.746545,43.28945,-18.010746,-5.717027,-0.66818804,0.20656036,12.558999,-2.8103812,16.88126,-27.124008,41.566902,17.402843,5.4434633,9.184974,-6.0009003,-21.135378,48.70332,50.651653,-2.4784944,7.9329066,-7.3450084
38,-3.3991575241088867,8.099993705749512,75.73992919921875,0.8272833460529052,1.6218698567292333,-77.98500466211765,-27.55995,-2.306037,-10.265854,45.871292,-14.490179,-6.2211704,-21.272928,-9.004395,-14.886442,44.815407,-18.69119,-5.7415357,-0.699581,0.16897465,12.8152685,-2.827519,16.744467,-26.84215,40.65043,17.577827,5.433242,9.45303,-6.4391127,-21.509382,49.029583,50.584095,-2.2343535,7.920122,-7.113979
39,-3.477454900741577,8.316919326782227,75.42916107177734,0.8920590359701152,1.529052802718287,-77.65014083409655,-28.542347,-2.490779,-9.866831,48.90981,-15.259248,-5.92374,-21.984343,-9.398885,-14.980134,46.33118,-19.379215,-5.772459,-0.7188292,0.13581946,13.045594,-2.8117871,16.59524,-26.555681,39.726326,17.758373,5.4302826,9.724769,-6.922126,-21.8833,49.377064,50.54881,-2.0051537,7.9256086,-6.8908353
40,-3.5429210662841797,8.527313232421875,75.10832214355469,0.9288031584549662,1.431019849164281,-77.39425591406597,-29.429665,-2.628132,-9.530393,52.011295,-16.01756,-5.651287,-22.689919,-9.725382,-15.025324,47.800972,-20.035564,-5.829069,-0.7139515,0.12973884,13.241723,-2.7666886,16.435436,-26.274433,38.803387,17.970953,5.4419713,10.004759,-7.445202,-22.252619,49.718933,50.542103,-1.8359191,7.9604893,-6.69979
41,-3.6017589569091797,8.749686241149902,74.7740707397461,0.9351400219331488,1.3310056030105073,-77.21700451928707,-30.2301,-2.7175052,-9.2454405,55.218376,-16.762787,-5.3932962,-23.397509,-9.984319,-15.0215845,49.230896,-20.662058,-5.9206963,-0.68420637,0.1546528,13.398376,-2.6986294,16.266216,-26.012543,37.88214,18.184135,5.4684443,10.301231,-8.0319395,-22.615776,50.088223,50.593662,-1.697464,8.023865,-6.523997
42,-3.654646158218384,8.960399627685547,74.44181823730469,0.9198379272659643,1.2240762326874446,-77.10827312196298,-30.9525,-2.760128,-8.97177,58.55984,-17.519384,-5.1192837,-24.10339,-10.18847,-14.971677,50.6339,-21.274195,-6.034605,-0.6348286,0.19857156,13.521141,-2.6017795,16.087816,-25.761065,36.95684,18.396952,5.506257,10.609005,-8.679157,-22.971006,50.486156,50.699474,-1.5803258,8.110395,-6.3587894
43,-3.7031688690185547,9.176101684570312,74.09998321533203,0.8832381333872733,1.1067864185200773,-77.07672154016474,-31.556555,-2.7737184,-8.759246,61.911564,-18.269981,-4.886688,-24.795952,-10.324447,-14.876846,51.98803,-21.855192,-6.1573315,-0.56188613,0.25882685,13.617665,-2.4633477,15.901093,-25.49869,36.0286,18.67913,5.558626,10.913091,-9.338854,-23.31292,50.836777,50.804283,-1.5583224,8.22421,-6.245977
44,-3.740673780441284,9.383216857910156,73.7607650756836,0.8265539423814651,0.9756012889544745,-77.13055736530704,-32.0034,-2.780573,-8.653906,65.152596,-19.00003,-4.7555766,-25.46358,-10.38093,-14.738315,53.272472,-22.38872,-6.2766848,-0.45911947,0.33245853,13.695329,-2.272249,15.707061,-25.20657,35.099094,19.100101,5.6293497,11.198127,-9.959641,-23.634346,51.058914,50.85284,-1.7071787,8.3691225,-6.2269206
45,-3.763385057449341,9.591833114624023,73.42536163330078,0.7425629131185619,0.8296603498645425,-77.2914202248886,-32.287514,-2.7861989,-8.674429,68.310356,-19.720526,-4.7651033,-26.108536,-10.338732,-14.547096,54.488533,-22.879238,-6.391207,-0.31245404,0.4259382,13.751303,-2.0261855,15.503195,-24.882526,34.1798,19.708996,5.7329736,11.479612,-10.559755,-23.931551,51.16318,50.868725,-2.0904233,8.565556,-6.3073406
46,-3.7871673107147217,9.800085067749023,73.09586334228516,0.6350998781550808,0.6702818154749342,-77.54822074287877,-32.422134,-2.791917,-8.782549,71.432236,-20.439302,-4.8848634,-26.735909,-10.212023,-14.306181,55.648346,-23.332502,-6.5076447,-0.12880862,0.5365699,13.781854,-1.7327609,15.288541,-24.537188,33.268772,20.458078,5.8646364,11.758232,-11.157774,-24.203283,51.180847,50.87771,-2.6536837,8.805427,-6.465485
47,-3.8256850242614746,10.007346153259277,72.76741790771484,0.5225904594711086,0.4972456475752242,-77.85992600446178,-32.400867,-2.8105767,-8.939693,74.43312,-21.138893,-5.068552,-27.338102,-10.039591,-14.034328,56.746624,-23.740387,-6.6268435,0.06649551,0.64587593,13.793079,-1.3937066,15.068191,-24.172638,32.344646,21.271235,5.9982734,11.997172,-11.705215,-24.447693,51.062893,50.833347,-3.296111,9.050389,-6.701257
48,-3.8580949306488037,10.209766387939453,72.4518814086914,0.42261496761616696,0.31083909532430565,-78.18577026351996,-32.22092,-2.849993,-9.1132345,77.226944,-21.798971,-5.2652707,-27.909054,-9.860261,-13.749577,57.779156,-24.0899,-6.748618,0.25048527,0.7349696,13.792433,-1.0089327,14.851623,-23.793312,31.381086,22.070988,6.106638,12.16062,-12.15048,-24.663877,50.756042,50.684776,-3.9173915,9.261804,-7.015877
49,-3.8789830207824707,10.418594360351562,72.14994812011719,0.33798391692108454,0.10225898073070612,-78.52977675634789,-31.86542,-2.913062,-9.316422,79.82794,-22.426245,-5.4741073,-28.450033,-9.674472,-13.446464,58.76639,-24.381233,-6.878648,0.42754343,0.79503816,13.789256,-0.5700147,14.641362,-23.385077,30.383747,22.908308,6.16998,12.256086,-12.488904,-24.851261,50.217827,50.421906,-4.567847,9.445896,-7.434489
50,-3.8861865997314453,10.632604598999023,71.87611389160156,0.2612992781393727,-0.12605049980406358,-78.90917429653659,-31.341564,-2.99411,-9.557182,82.276535,-23.03155,-5.717767,-28.96458,-9.46598,-13.118237,59.707108,-24.620718,-7.015063,0.6086216,0.8353858,13.779497,-0.07623309,14.437114,-22.952785,29.353785,23.798668,6.205533,12.297192,-12.742145,-25.009832,49.480663,50.06783,-5.2760353,9.621211,-7.9481072
51,-3.903221368789673,10.858918190002441,71.61624908447266,0.1934383891955528,-0.35644686314770363,-79.30241560385008,-30.687757,-3.0802279,-9.800699,84.52324,-23.59308,-5.9734755,-29.445631,-9.2469,-12.782201,60.554287,-24.801504,-7.1463943,0.7770007,0.86309534,13.749694,0.4661837,14.24816,-22.526207,28.253702,24.610964,6.239244,12.25709,-12.908692,-25.142437,48.61337,49.630333,-5.9059916,9.7639675,-8.508987
52,-3.903766632080078,11.088478088378906,71.38619232177734,0.13438479175483867,-0.5711702764400327,-79.68818888305933,-29.946745,-3.157875,-10.015954,86.52065,-24.089622,-6.217368,-29.888876,-9.029487,-12.455843,61.265617,-24.918737,-7.2609425,0.9156234,0.8845342,13.688393,1.0582342,14.090418,-22.13332,27.03619,25.2141,6.296774,12.107202,-12.984316,-25.25305,47.68271,49.10876,-6.3228717,9.84692,-9.070388
53,-3.8969874382019043,11.320899963378906,71.18748474121094,0.08621046015077062,-0.7698443099268323,-80.06868691787432,-29.11066,-3.2177584,-10.203085,88.273094,-24.52653,-6.4538794,-30.292393,-8.8127575,-12.139187,61.840515,-24.987494,-7.358188,1.0239801,0.89603424,13.595396,1.7237006,13.977758,-21.76304,25.660067,25.554646,6.3769345,11.779887,-12.95186,-25.338684,46.633865,48.47563,-6.488506,9.863242,-9.63709
54,-3.8935866355895996,11.567917823791504,71.01849365234375,0.049691824214572536,-0.9608007093522144,-80.45279566793663,-28.168365,-3.2640505,-10.381134,89.805046,-24.90935,-6.6883063,-30.658915,-8.591571,-11.824758,62.297947,-25.004309,-7.4432044,1.1086427,0.89226276,13.480301,2.470407,13.914196,-21.402983,24.135801,25.705366,6.468545,11.308217,-12.823083,-25.397484,45.454823,47.7337,-6.4756722,9.823481,-10.229395
55,-3.8730521202087402,11.83461856842041,70.87743377685547,0.016921885865461613,-1.1380193346794862,-80.82994491026055,-27.16079,-3.304313,-10.550322,91.09607,-25.211632,-6.897662,-30.989222,-8.371735,-11.519126,62.621918,-24.936207,-7.512882,1.1609812,0.87940663,13.34671,3.2750244,13.899366,-21.076847,22.494358,25.72518,6.583292,10.813649,-12.630252,-25.43633,44.275913,46.916958,-6.317088,9.725752,-10.824327
56,-3.8339130878448486,12.111655235290527,70.77743530273438,-0.019317054230850738,-1.2962080519819312,-81.18880294030542,-26.128479,-3.3497374,-10.714163,92.12648,-25.413118,-7.063168,-31.284977,-8.160741,-11.229996,62.79864,-24.752083,-7.564448,1.1687014,0.86390895,13.19669,4.114248,13.929364,-20.80457,20.7694,25.674955,6.7320333,10.417377,-12.40724,-25.469128,43.23443,46.06174,-6.0429,9.568324,-11.39864
57,-3.778949022293091,12.400731086730957,70.72209167480469,-0.05597040460545624,-1.4370410675740815,-81.52652041836467,-25.067932,-3.4145257,-10.886524,92.896835,-25.472336,-7.182401,-31.547853,-7.963136,-10.957834,62.836994,-24.450111,-7.600578,1.1184074,0.85125566,13.030109,5.002231,14.004436,-20.584469,18.928574,25.539854,6.925936,10.139609,-12.1580515,-25.508932,42.3561,45.141926,-5.5250516,9.337099,-11.953621
58,-3.725473165512085,12.715300559997559,70.70606994628906,-0.0961222958114479,-1.562162003463259,-81.84905955397663,-23.966555,-3.4876468,-11.066795,93.41557,-25.41067,-7.263862,-31.776207,-7.774597,-10.69895,62.739643,-24.044725,-7.621761,1.0169516,0.8396317,12.84799,5.949664,14.125132,-20.40315,16.960499,25.299557,7.1580667,9.918678,-11.858122,-25.559948,41.57248,44.13267,-4.792462,9.033964,-12.495838
59,-3.6448066234588623,13.054667472839355,70.73511505126953,-0.1366220097516309,-1.6664218658374965,-82.15880051503336,-22.858902,-3.5420055,-11.232434,93.68823,-25.288448,-7.29991,-31.967035,-7.588504,-10.452753,62.481796,-23.527452,-7.621656,0.8849706,0.82517505,12.653015,6.917261,14.28434,-20.26713,14.947404,25.006279,7.406563,9.756746,-11.494852,-25.62267,40.87788,43.072807,-4.1104565,8.685312,-13.011713
60,-3.567070245742798,13.398324012756348,70.81916046142578,-0.17826967669569357,-1.7442406798828527,-82.45833859841692,-21.780867,-3.545854,-11.3546915,93.71668,-25.158133,-7.2753787,-32.11661,-7.3966317,-10.216801,62.035667,-22.886927,-7.593371,0.742031,0.805167,12.445785,7.860889,14.468935,-20.181744,12.9796295,24.71358,7.6492114,9.656078,-11.0591755,-25.693037,40.269604,42.00939,-3.7439373,8.322136,-13.4913845
61,-3.479602098464966,13.780821800231934,70.93517303466797,-0.22499691135052993,-1.791653255156526,-82.73741387125379,-20.733406,-3.5051422,-11.446274,93.49711,-25.046745,-7.2038097,-32.23131,-7.2039895,-9.996512,61.41035,-22.129208,-7.535374,0.5795399,0.78434277,12.213539,8.773888,14.674492,-20.15555,11.054893,24.44622,7.902148,9.645907,-10.551911,-25.771461,39.776756,40.93054,-3.7985067,7.954046,-13.928106
62,-3.3751044273376465,14.188554763793945,71.09522247314453,-0.27543007655257085,-1.8119109057150273,-82.99797210155606,-19.70377,-3.431632,-11.515714,93.03212,-24.920273,-7.0851684,-32.310463,-7.0131407,-9.789099,60.61449,-21.257456,-7.4514065,0.39184713,0.76571083,11.958361,9.670488,14.900653,-20.18351,9.143553,24.174583,8.168694,9.7165985,-9.975846,-25.858597,39.391167,39.82223,-4.12074,7.569479,-14.332234
63,-3.2842180728912354,14.600213050842285,71.30512237548828,-0.32521528614156914,-1.810634547992717,-83.26097405403291,-18.704275,-3.3088753,-11.531928,92.33509,-24.74847,-6.8921194,-32.339336,-6.812228,-9.581913,59.62111,-20.258698,-7.343818,0.20365474,0.74379903,11.700601,10.529345,15.1373415,-20.252419,7.3075833,23.870773,8.407874,9.813527,-9.330539,-25.94717,39.055737,38.73867,-4.5873666,7.1686816,-14.7216215
64,-3.1894280910491943,15.020842552185059,71.56637573242188,-0.3708106142513648,-1.7930659319148983,-83.54705020297055,-17.745506,-3.1218126,-11.462997,91.417656,-24.503738,-6.5984254,-32.30336,-6.5896873,-9.361788,58.404644,-19.121002,-7.214655,0.04079592,0.71416104,11.458158,11.322797,15.368361,-20.35105,5.619075,23.510265,8.579477,9.882478,-8.619953,-26.024347,38.71513,37.74393,-5.073851,6.749904,-15.113061
65,-3.0814239978790283,15.482818603515625,71.86640167236328,-0.41111833038063234,-1.7539316756464292,-83.85760255521394,-16.83261,-2.8734112,-11.304426,90.276276,-24.24898,-6.174253,-32.207615,-6.340475,-9.13035,56.963055,-17.857134,-7.067433,-0.09434753,0.6783231,11.22045,12.0483,15.580347,-20.484684,4.096105,23.08425,8.675447,9.948392,-7.8381677,-26.080767,38.37185,36.853344,-5.660189,6.283504,-15.51837
66,-2.961129665374756,15.96817398071289,72.20691680908203,-0.4499299150301019,-1.6920816804993746,-84.1833280037949,-15.956158,-2.573844,-11.067503,88.91004,-23.982498,-5.64454,-32.056797,-6.0716166,-8.889215,55.309635,-16.469568,-6.9000707,-0.2147821,0.64088416,10.977468,12.7052765,15.770635,-20.658043,2.7225058,22.612255,8.716112,10.027389,-6.994916,-26.112026,38.055206,36.053352,-6.377145,5.7816286,-15.92987
67,-2.834974527359009,16.485584259033203,72.57587432861328,-0.4831710975158152,-1.6202505585322686,-84.52843663225906,-15.105617,-2.2183914,-10.738924,87.33637,-23.578163,-5.0618434,-31.834322,-5.786731,-8.626066,53.43697,-14.930429,-6.706121,-0.31939405,0.599473,10.746878,13.271166,15.940652,-20.857674,1.5198345,22.110676,8.704534,10.0531,-6.1244397,-26.112642,37.75455,35.373238,-7.026496,5.301122,-16.330128
68,-2.713165283203125,17.027435302734375,72.98393249511719,-0.5063790827365974,-1.5511629533013898,-84.89786163959438,-14.27081,-1.7995569,-10.305099,85.57202,-22.909197,-4.479846,-31.527418,-5.4878716,-8.328024,51.34251,-13.208296,-6.4783154,-0.40548414,0.5516426,10.54662,13.724921,16.094305,-21.070864,0.5071922,21.594599,8.645576,9.958993,-5.257727,-26.076561,37.456306,34.839348,-7.4108386,4.8959427,-16.697449
69,-2.5859487056732178,17.598024368286133,73.41836547851562,-0.5134208808158789,-1.4876763285500572,-85.29903956818836,-13.450171,-1.312481,-9.7333555,83.60029,-21.905212,-3.8758671,-31.105663,-5.15536,-7.971638,48.963455,-11.321114,-6.2112126,-0.46432692,0.48928878,10.382535,14.054318,16.23435,-21.298939,-0.2936523,21.034153,8.523356,9.686448,-4.3926144,-25.996151,37.168148,34.471714,-7.455932,4.553379,-17.035461
70,-2.4634478092193604,18.191362380981445,73.87969970703125,-0.5110018872377393,-1.422508100314078,-85.7277034692759,-12.641158,-0.76389635,-9.025593,81.4229,-20.656534,-3.2350066,-30.583708,-4.7919326,-7.564784,46.322212,-9.277553,-5.908562,-0.5017803,0.413112,10.2421255,14.276473,16.360409,-21.54602,-0.89920014,20.431122,8.34445,9.283146,-3.5255234,-25.867655,36.90069,34.266052,-7.274737,4.249115,-17.349064
71,-2.3238911628723145,18.81075668334961,74.35478210449219,-0.5075989240924912,-1.3537222621090683,-86.17141016054137,-11.83355,-0.16490649,-8.22127,79.08254,-19.274923,-2.6226978,-30.020397,-4.427898,-7.1438866,43.5431,-7.03425,-5.5759287,-0.53522795,0.33649674,10.117551,14.410867,16.472034,-21.805086,-1.3463726,19.846193,8.1460705,8.843136,-2.6768856,-25.691957,36.640594,34.199986,-6.949359,4.0195537,-17.61702
72,-2.183692455291748,19.452775955200195,74.84149932861328,-0.5166302534199061,-1.279452608642908,-86.6172666917808,-11.019487,0.47007424,-7.3647604,76.61964,-17.868425,-2.106952,-29.475878,-4.089544,-6.7471933,40.746944,-4.543801,-5.2174783,-0.5805393,0.27296063,10.001874,14.476836,16.56882,-22.070387,-1.6734166,19.34111,7.9627075,8.461494,-1.8640597,-25.474247,36.371243,34.24639,-6.5609226,3.9022827,-17.819864
73,-2.0403130054473877,20.11484718322754,75.32911682128906,-0.5527886250526732,-1.200152859422914,-87.06399228949576,-10.200112,1.2135311,-6.3979597,73.99976,-16.357111,-1.7236545,-28.92814,-3.7544868,-6.399429,37.88201,-1.7308506,-4.8484225,-0.6332556,0.23847783,9.903578,14.456663,16.646097,-22.350483,-1.8404089,18.96096,7.7976193,8.147436,-1.0659596,-25.212992,36.057323,34.402798,-6.092884,3.9326568,-17.95305
74,-1.8973536491394043,20.786046981811523,75.80382537841797,-0.607431924383348,-1.1163773801967958,-87.5187811704235,-9.370184,2.0313814,-5.308052,71.21771,-14.721695,-1.4396538,-28.36366,-3.4026594,-6.0718155,34.916405,1.359246,-4.459123,-0.68440425,0.22397998,9.822429,14.344232,16.702261,-22.64924,-1.8394891,18.66442,7.6326113,7.856275,-0.27848268,-24.907368,35.71579,34.67813,-5.513859,4.0824037,-18.028189
75,-1.7492430210113525,21.477493286132812,76.25527954101562,-0.6540470777863374,-1.0262887650833992,-87.98210092970255,-8.520652,2.752255,-4.222623,68.34771,-13.152673,-1.2194173,-27.85714,-3.0649314,-5.721493,31.998055,4.5972366,-4.0160637,-0.7446091,0.20275491,9.738977,14.178147,16.745157,-22.950417,-1.7586309,18.382824,7.4686346,7.6021194,0.45387042,-24.571487,35.407455,35.06342,-4.8820753,4.2952137,-18.050398
76,-1.5754139423370361,22.188831329345703,76.66839599609375,-0.6623086997335573,-0.9276546479046154,-88.45284044182371,-7.652358,3.2151165,-3.2842486,65.45907,-11.836622,-1.0230697,-27.485676,-2.7823496,-5.3015966,29.279787,7.854998,-3.484236,-0.82595944,0.14468431,9.636787,14.002483,16.78846,-23.235823,-1.6957664,18.04618,7.307142,7.3983035,1.0944582,-24.22966,35.189476,35.535553,-4.2533436,4.5154295,-18.024069
77,-1.4074972867965698,22.90886116027832,77.04524993896484,-0.6092652208214789,-0.8136881147492128,-88.92988141441873,-6.7495966,3.3266728,-2.5839095,62.455307,-10.748521,-0.8781617,-27.281525,-2.5871727,-4.776435,26.695498,11.408826,-2.7872698,-0.931288,0.02646466,9.512126,13.818142,16.841215,-23.510836,-1.6529438,17.620165,7.143987,7.2555275,1.6538416,-23.900667,35.06731,36.08278,-3.5904105,4.752694,-17.952396
78,-1.218624472618103,23.639097213745117,77.37464141845703,-0.5164892262932184,-0.6853998020314623,-89.41463616478934,-5.8282933,3.2039545,-2.0502563,59.327137,-9.805692,-0.7877847,-27.208355,-2.4369705,-4.1545606,24.203373,15.231453,-1.9555058,-1.0519117,-0.1287121,9.378227,13.612857,16.904583,-23.781773,-1.6030148,17.143326,6.979233,7.163845,2.1631405,-23.591736,35.00509,36.687687,-2.8764963,5.03109,-17.83346
79,-1.0291212797164917,24.37397003173828,77.65033721923828,-0.4223569418320121,-0.5545954862552783,-89.90645118080246,-4.9372,3.0011888,-1.585444,56.271976,-9.108911,-0.6734951,-27.21981,-2.287716,-3.4752855,21.962042,18.737331,-1.1191182,-1.1852579,-0.2865258,9.2465105,13.409553,16.980253,-24.032534,-1.6006447,16.653948,6.820989,7.106155,2.6212106,-23.310045,34.995773,37.314117,-2.1992292,5.3164716,-17.660799
80,-0.8274024128913879,25.115236282348633,77.86331176757812,-0.36122368608573685,-0.43575970173715006,-90.40296753257734,-4.1238685,2.858455,-1.082358,53.496086,-8.758968,-0.46439207,-27.258535,-2.1228561,-2.8121343,20.121399,21.338623,-0.42277768,-1.3335032,-0.4173271,9.130457,13.233926,17.070967,-24.242977,-1.7030944,16.190725,6.677334,7.064859,3.0239067,-23.06216,35.036762,37.928467,-1.6453755,5.5744905,-17.426832
81,-0.6312772035598755,25.853431701660156,78.01458740234375,-0.3402052089268592,-0.32619819396037353,-90.90854866537865,-3.363712,2.7923293,-0.51809204,50.968315,-8.795171,-0.10696194,-27.276976,-1.9388524,-2.1244578,18.54663,22.955439,0.13384193,-1.5027926,-0.5153851,9.024445,13.108852,17.17851,-24.409353,-1.9364893,15.760034,6.553152,7.0484104,3.3660755,-22.855171,35.133514,38.530014,-1.2498602,5.8175545,-17.08761
82,-0.4493967592716217,26.59966278076172,78.1212158203125,-0.33444405202999505,-0.22460247289531757,-91.41939552814779,-2.6389048,2.7231627,0.047233492,48.596016,-9.154279,0.34318793,-27.296299,-1.7780277,-1.4229944,17.184338,23.886335,0.6008471,-1.6941671,-0.6019293,8.929756,13.017992,17.303894,-24.540388,-2.273273,15.34175,6.4425583,7.061697,3.658739,-22.692507,35.283916,39.121826,-0.96128035,6.0579686,-16.659342
83,-0.2595060169696808,27.361921310424805,78.17195892333984,-0.32776035965099387,-0.14708080538132542,-91.92185487188287,-1.9967769,2.6394079,0.60428995,46.47584,-9.775769,0.7890921,-27.385155,-1.6957699,-0.87890136,16.353321,24.09897,0.8980641,-1.9006451,-0.69282717,8.869556,12.929107,17.448935,-24.635088,-2.6900463,14.934795,6.3379908,7.0821633,3.9175458,-22.572464,35.475277,39.68102,-0.73709905,6.2597523,-16.223305
84,-0.07045973837375641,28.119892120361328,78.1612777709961,-0.3134718707954311,-0.10652117396542804,-92.40552168424692,-1.4879751,2.5437524,1.1457483,44.70566,-10.596072,1.1366023,-27.615654,-1.7258242,-0.66096306,16.368637,23.561209,0.95196545,-2.1121056,-0.79683954,8.86312,12.809634,17.616076,-24.692709,-3.162242,14.537837,6.2323174,7.0872526,4.1555247,-22.49026,35.695446,40.189713,-0.53470945,6.38651,-15.860994
85,0.1130933165550232,28.891658782958984,78.10266876220703,-0.303266233600178,-0.1126665807967908,-92.87573278084393,-1.1047841,2.4642406,1.683157,43.30407,-11.67985,1.3617688,-28.026579,-1.8849462,-0.90498275,17.422205,22.03162,0.66443205,-2.3335876,-0.9091389,8.915944,12.680886,17.808865,-24.701742,-3.7157469,14.169288,6.119281,7.049048,4.3559976,-22.445562,35.97021,40.653847,-0.37157163,6.4095693,-15.572854
86,0.29459378123283386,29.66665267944336,77.99891662597656,-0.30720287559506143,-0.1528222356028873,-93.33924615666383,-0.83184344,2.4110358,2.2139096,42.216087,-13.027044,1.5102185,-28.583729,-2.1410291,-1.4719956,19.323172,19.594492,0.11088096,-2.5654054,-1.0171102,9.013744,12.554354,18.02843,-24.664217,-4.357156,13.822548,6.004424,6.9870353,4.5133,-22.439219,36.29911,41.084972,-0.25969717,6.3532977,-15.321584
87,0.471292108297348,30.435609817504883,77.85871887207031,-0.31783815205974303,-0.20580958270194802,-93.78836161197695,-0.7121842,2.369107,2.713038,41.438793,-14.480142,1.6032823,-29.248877,-2.4514961,-2.1207564,21.814209,16.709694,-0.5237194,-2.7869256,-1.1150784,9.14679,12.3789625,18.27154,-24.604038,-5.030532,13.458661,5.898218,6.950217,4.663675,-22.462732,36.62628,41.466785,-0.14951883,6.2613688,-15.132174
88,0.6451147794723511,31.22723960876465,77.6810531616211,-0.3206266202869579,-0.2512054628074261,-94.21368523957796,-0.7931824,2.3204136,3.1556885,40.981804,-15.890166,1.6719154,-29.99028,-2.775085,-2.640317,24.654085,13.8319845,-1.0732559,-2.975375,-1.2017739,9.304588,12.096695,18.532286,-24.549532,-5.671207,13.040207,5.8106456,6.9883075,4.841833,-22.502333,36.892006,41.79007,0.0057957806,6.1770053,-15.029745
89,0.8114407062530518,32.01988983154297,77.4743881225586,-0.31583193162313195,-0.2964947156060366,-94.62626621526007,-1.113713,2.2746742,3.5431843,40.933372,-17.272995,1.7350531,-30.814718,-3.1183848,-3.0574117,27.903694,10.923478,-1.4982418,-3.1239939,-1.2821764,9.501119,11.703574,18.80504,-24.489132,-6.2984395,12.521769,5.736024,7.098195,5.0347834,-22.549961,37.089714,42.046986,0.19678114,6.0967326,-15.026628
90,0.9809224605560303,32.83586883544922,77.2395248413086,-0.30693698277797726,-0.3480008960394229,-95.02754300823722,-1.649229,2.2468297,3.8871365,41.278305,-18.699387,1.7854832,-31.736319,-3.5020583,-3.4509368,31.663399,7.78269,-1.8923662,-3.2420015,-1.3558661,9.7336445,11.2196245,19.088644,-24.416042,-6.922786,11.937584,5.670602,7.2592125,5.223547,-22.60348,37.24731,42.260674,0.40250257,6.001195,-15.107677
91,1.147844672203064,33.65834426879883,76.98081970214844,-0.28814090090309286,-0.3855498508360827,-95.39104064755685,-2.3448803,2.2180037,4.1776905,41.859444,-20.096012,1.820449,-32.715576,-3.895953,-3.7129905,35.715633,4.65554,-2.2922924,-3.33256,-1.4191453,9.96802,10.624778,19.384655,-24.368525,-7.469603,11.370348,5.6267557,7.4955654,5.437332,-22.655918,37.356133,42.466362,0.6519881,5.910153,-15.258039
92,1.31935715675354,34.479766845703125,76.69698333740234,-0.24835301685583805,-0.39009543891867854,-95.6886903449372,-3.141841,2.1646624,4.405314,42.51187,-21.385138,1.8365793,-33.69971,-4.2594557,-3.7439399,39.818863,1.8028115,-2.7311556,-3.396591,-1.4711808,10.169767,9.892107,19.69682,-24.391918,-7.858787,10.900762,5.61753,7.832515,5.7056303,-22.699217,37.402275,42.704456,0.9724971,5.8426943,-15.462195
93,1.4878185987472534,35.303436279296875,76.40376281738281,-0.17058389601631507,-0.33577391364600556,-95.92226605703074,-4.0894475,2.0677228,4.5691085,43.256165,-22.546888,1.8172024,-34.749596,-4.5596313,-3.4719214,44.016754,-0.71634436,-3.2476473,-3.4231184,-1.5180223,10.320263,8.940212,20.037958,-24.524452,-8.020804,10.461556,5.6502604,8.327535,6.0287933,-22.725592,37.370808,42.99265,1.3895597,5.785871,-15.776522
94,1.650919795036316,36.12067413330078,76.10543823242188,-0.0617466094650043,-0.24168101562548341,-96.10199253625434,-5.1986294,1.940687,4.675585,44.160946,-23.624502,1.7723244,-35.84886,-4.7934203,-2.9778268,48.37574,-3.017777,-3.8016405,-3.4118686,-1.5649792,10.442401,7.806642,20.410755,-24.743633,-8.018554,10.034021,5.7154408,8.953217,6.392522,-22.732052,37.266815,43.315617,1.878983,5.732271,-16.189066
95,1.794277548789978,36.918949127197266,75.82374572753906,0.048668372195923036,-0.15606551045489536,-96.21201183515825,-6.3479047,1.8068622,4.724714,45.12318,-24.628298,1.7373501,-36.829624,-4.971506,-2.4004836,52.692726,-5.1021686,-4.310371,-3.3865178,-1.6052527,10.564495,6.6469145,20.795479,-24.996944,-7.972188,9.776302,5.8044615,9.605836,6.8064256,-22.715954,37.11396,43.654198,2.3979638,5.71158,-16.582972
96,1.919175624847412,37.717498779296875,75.55276489257812,0.12996574219079962,-0.1270856497608388,-96.23696226068655,-7.41449,1.6886888,4.7144003,46.039436,-25.56704,1.7492692,-37.530334,-5.1287403,-1.8778147,56.7744,-6.9793906,-4.702582,-3.3752387,-1.6294584,10.711007,5.6088285,21.1593,-25.224203,-7.984907,9.852752,5.9130535,10.178351,7.272959,-22.677067,36.941917,44.00041,2.904099,5.756119,-16.842245
97,2.055581569671631,38.48548126220703,75.2948989868164,0.17014107399533737,-0.1564260254877367,-96.1471302903325,-8.392667,1.587116,4.616476,46.89793,-26.44151,1.8221655,-37.925426,-5.2992954,-1.4432974,60.618397,-8.636995,-4.9640217,-3.3990617,-1.6309445,10.883266,4.684227,21.47843,-25.418583,-8.016165,10.366434,6.0659986,10.652051,7.809166,-22.61041,36.727425,44.364536,3.405852,5.891174,-16.916508
98,2.1906816959381104,39.219120025634766,75.05682373046875,0.1861428871295802,-0.22245946006752945,-95.95881018119357,-9.335694,1.4879903,4.439272,47.744595,-27.244867,1.9340949,-38.089973,-5.4670615,-1.036967,64.31868,-10.079287,-5.133626,-3.4431727,-1.6102964,11.063856,3.7914357,21.746271,-25.607521,-8.00106,11.218893,6.2632666,11.074348,8.399987,-22.514387,36.472137,44.762577,3.9195256,6.096517,-16.876484
99,2.315250873565674,39.9091911315918,74.83926391601562,0.18559936869978716,-0.3383339091982115,-95.72563652504303,-10.206866,1.3934307,4.2338448,48.558735,-27.97147,2.0700538,-38.013622,-5.606641,-0.6522081,67.81848,-11.347715,-5.2280183,-3.484829,-1.5665148,11.2501745,2.9745574,21.956224,-25.773977,-8.010542,12.275684,6.462546,11.436807,9.001289,-22.397058,36.24608,45.187496,4.417623,6.3375745,-16.787237
100,2.4443774223327637,40.579593658447266,74.62594604492188,0.17131457178431395,-0.5174426019985897,-95.50126464539308,-10.970037,1.3069645,4.0516086,49.32047,-28.616655,2.2152915,-37.68918,-5.692946,-0.28209513,71.05966,-12.483359,-5.2655387,-3.506155,-1.4989306,11.439977,2.2837088,22.10424,-25.893011,-8.119996,13.40374,6.618744,11.732342,9.5672865,-22.275173,36.124638,45.631397,4.876093,6.57897,-16.714472
101,2.564800977706909,41.24186325073242,74.42282104492188,0.13041850337467578,-0.7958391154502912,-95.28849716546975,-11.583277,1.2471179,3.8967464,50.042538,-29.186697,2.3757477,-37.06069,-5.718625,0.059065886,74.03965,-13.475901,-5.246084,-3.5098553,-1.3878008,11.659554,1.746412,22.184439,-25.943855,-8.351286,14.754287,6.7191067,11.939338,10.104336,-22.161667,36.11796,46.08572,5.2737484,6.8452263,-16.680222
102,2.6875228881835938,41.897525787353516,74.22927856445312,0.06229489068628186,-1.1556827192628911,-95.06169141507607,-12.07512,1.2066332,3.7439756,50.727146,-29.680025,2.5557575,-36.147884,-5.7040343,0.36966288,76.788216,-14.31213,-5.1630764,-3.5074875,-1.2361605,11.902369,1.330771,22.195078,-25.938032,-8.659819,16.340082,6.785177,12.067052,10.637246,-22.062025,36.191082,46.544266,5.6318874,7.1448874,-16.648016
103,2.815903425216675,42.538143157958984,74.05558776855469,-0.0017797415056752795,-1.5293463492240549,-94.83169943324961,-12.517604,1.1524758,3.6010184,51.34344,-30.083952,2.7383432,-35.060276,-5.6673093,0.6748474,79.29336,-15.028847,-5.030997,-3.4925983,-1.0762426,12.118547,1.0008212,22.143288,-25.899458,-9.02785,17.817719,6.8210173,12.157925,11.154504,-21.981619,36.34812,46.99197,5.98971,7.4181066,-16.5938
104,2.939342975616455,43.163978576660156,73.90576934814453,-0.028520334237384544,-1.8493361128716592,-94.61030725148149,-12.982672,1.0525424,3.4761846,51.858994,-30.384789,2.906423,-33.910366,-5.6258626,1.0011427,81.542534,-15.66185,-4.862716,-3.460001,-0.94162744,12.259227,0.72741014,22.042822,-25.848917,-9.447145,18.841143,6.831481,12.254848,11.643895,-21.924374,36.594913,47.41236,6.3861966,7.6054025,-16.492659
105,3.0647692680358887,43.79206085205078,73.77818298339844,-0.002852101987677709,-2.1148061687451603,-94.40509634053149,-13.467106,0.89140123,3.3831832,52.264557,-30.577112,3.0605748,-32.69853,-5.590109,1.3767785,83.54055,-16.2241,-4.6477666,-3.4028046,-0.84480184,12.323238,0.51681,21.899149,-25.77996,-9.938261,19.262737,6.8053,12.372946,12.087458,-21.895542,36.96325,47.823635,6.8699617,7.6790957,-16.33489
106,3.181589126586914,44.41889190673828,73.66996002197266,0.056905024143282655,-2.356654573553593,-94.20832251120703,-13.939963,0.69000614,3.314283,52.57809,-30.6696,3.208272,-31.376846,-5.5552225,1.7803125,85.295586,-16.697323,-4.3861046,-3.3270862,-0.7679952,12.335629,0.38779625,21.714073,-25.682838,-10.510711,19.28286,6.7417645,12.490148,12.499219,-21.897873,37.43924,48.21955,7.408146,7.6761894,-16.132751
107,3.296809673309326,45.04215621948242,73.57594299316406,0.1312129754939516,-2.555115667604334,-94.00940912513258,-14.431366,0.46954495,3.246677,52.806988,-30.668457,3.3429341,-29.988821,-5.515944,2.1665013,86.79817,-17.062365,-4.106781,-3.2437997,-0.7005465,12.287712,0.3324908,21.499815,-25.575459,-11.146598,19.075966,6.663596,12.594374,12.916303,-21.927225,37.959778,48.544308,7.918849,7.6343856,-15.894647
108,3.3982808589935303,45.659698486328125,73.50071716308594,0.20385476792962717,-2.690343562193579,-93.79788677572095,-14.970986,0.25052547,3.1576033,52.958946,-30.580383,3.4578922,-28.579632,-5.46582,2.4927928,88.03793,-17.301516,-3.839747,-3.1604724,-0.6344945,12.171148,0.34483063,21.275118,-25.479298,-11.832423,18.814203,6.594995,12.674796,13.376016,-21.974936,38.45759,48.743664,8.317275,7.590253,-15.629692
109,3.481627941131592,46.2791633605957,73.44541931152344,0.27973619905518116,-2.7489126984684003,-93.57263206993962,-15.578952,0.02536859,3.0487878,53.04225,-30.401321,3.5528152,-27.161566,-5.411888,2.7721305,89.02328,-17.421442,-3.611356,-3.0722623,-0.58456916,11.971201,0.43621516,21.054344,-25.397964,-12.59196,18.455322,6.543166,12.7293415,13.882612,-22.036108,38.943695,48.802643,8.538129,7.5522966,-15.313591
110,3.551586627960205,46.89793014526367,73.40762329101562,0.3679989334954004,-2.744360824327863,-93.33846992579949,-16.234396,-0.2135282,2.9312122,53.05034,-30.12956,3.6307862,-25.717543,-5.35864,3.025342,89.75989,-17.42452,-3.4026606,-2.976101,-0.555394,11.699776,0.6182409,20.842268,-25.320864,-13.443859,17.93116,6.4958696,12.765591,14.415081,-22.108723,39.44326,48.751503,8.639238,7.500127,-14.950279
111,3.6198947429656982,47.52082061767578,73.390869140625,0.44956333119370956,-2.697080966247681,-93.0943042882137,-16.903952,-0.4460123,2.7953222,52.963047,-29.772844,3.690499,-24.25063,-5.2934985,3.2237568,90.23316,-17.286514,-3.176163,-2.8805087,-0.5244046,11.387635,0.88062215,20.642975,-25.249254,-14.361474,17.374815,6.4490113,12.787845,14.971857,-22.186811,39.909416,48.607277,8.719423,7.426293,-14.591751
112,3.669090986251831,48.138858795166016,73.40310668945312,0.5029237881283718,-2.627244753713836,-92.83888054749819,-17.555178,-0.65177923,2.6312368,52.76258,-29.33961,3.730723,-22.76454,-5.200985,3.3394809,90.42839,-16.983198,-2.8935723,-2.7901175,-0.46796942,11.0646715,1.2079067,20.459053,-25.190096,-15.314178,16.919382,6.398777,12.800965,15.555284,-22.261541,40.290627,48.38594,8.87539,7.324251,-14.289692
113,3.7119905948638916,48.75699234008789,73.44210052490234,0.5217974204443483,-2.519702759022697,-92.56908410007524,-18.205448,-0.825585,2.4306345,52.44964,-28.846346,3.743947,-21.274866,-5.0959725,3.3474104,90.350006,-16.477818,-2.5631926,-2.7052956,-0.3815084,10.714778,1.6138679,20.291466,-25.147043,-16.319752,16.606071,6.3454432,12.820108,16.17977,-22.325977,40.56773,48.069855,9.111611,7.178688,-14.0562525
114,3.738389492034912,49.391536712646484,73.51075744628906,0.5196640548630801,-2.3699304078193806,-92.28699144719081,-18.861792,-0.97929347,2.2010472,52.029316,-28.2824,3.7333326,-19.78011,-4.9762416,3.2755463,90.00542,-15.791368,-2.1999485,-2.6204586,-0.2792235,10.329383,2.0988848,20.140957,-25.119268,-17.383722,16.36121,6.2900577,12.83922,16.836493,-22.377354,40.768032,47.665073,9.381251,6.99694,-13.864306
115,3.757972002029419,50.03266906738281,73.61013793945312,0.5020437126812765,-2.21383818781552,-91.99962001568385,-19.479637,-1.118955,1.955516,51.493935,-27.618443,3.714333,-18.259624,-4.799718,3.1766012,89.38766,-14.99118,-1.7748544,-2.5321043,-0.16500789,9.948512,2.6298249,20.009075,-25.105953,-18.46277,16.145367,6.23356,12.829828,17.491129,-22.412737,40.91308,47.225853,9.70709,6.80719,-13.706599
116,3.774261951446533,50.692527770996094,73.73051452636719,0.47807278520746394,-2.08701878453909,-91.71379815197118,-20.013586,-1.2497952,1.7075148,50.83367,-26.82347,3.702123,-16.690746,-4.526519,3.1037292,88.487015,-14.143931,-1.2595685,-2.4365094,-0.043625038,9.61157,3.1725574,19.897392,-25.107386,-19.508385,15.919758,6.1764584,12.763268,18.10793,-22.42981,41.023502,46.80924,10.111232,6.637462,-13.576005
117,3.783355712890625,51.35162353515625,73.88462829589844,0.44668369150777537,-1.9987964441085984,-91.4300999448536,-20.452858,-1.3744658,1.4607115,50.050945,-25.901854,3.713869,-15.054489,-4.169698,3.050199,87.29367,-13.205178,-0.6627376,-2.3357675,0.08380481,9.3249035,3.738733,19.810251,-25.121971,-20.53673,15.677465,6.131134,12.622991,18.694475,-22.424074,41.08856,46.41021,10.61063,6.485684,-13.480071
118,3.7986538410186768,52.02081298828125,74.07025146484375,0.4044755045742102,-1.929444665460481,-91.14552612212955,-20.822039,-1.4899569,1.2089763,49.149452,-24.866047,3.7373505,-13.368265,-3.7414122,3.0048635,85.81584,-12.164152,0.0048022904,-2.231796,0.22026023,9.066497,4.3371696,19.741722,-25.149967,-21.55875,15.439309,6.0935783,12.426049,19.260267,-22.392466,41.106052,46.01227,11.189999,6.339502,-13.419523
119,3.8033061027526855,52.70082473754883,74.29345703125,0.3547194575926287,-1.8714086223469009,-90.86165565501628,-21.12948,-1.594114,0.95149726,48.12355,-23.698702,3.7438006,-11.663668,-3.206686,3.0163422,84.074005,-11.141909,0.764128,-2.1192167,0.36275035,8.836377,4.9382925,19.695183,-25.19453,-22.536058,15.201664,6.040831,12.197841,19.774063,-22.336739,41.106033,45.650074,11.821479,6.211335,-13.376486
120,3.8052189350128174,53.389549255371094,74.54786682128906,0.29999827677315855,-1.8171697787792613,-90.58001469265601,-21.383427,-1.6860399,0.6866716,46.966167,-22.38072,3.7045968,-9.969987,-2.537914,3.1337547,82.083275,-10.261654,1.6322659,-1.9955728,0.509587,8.634452,5.512733,19.669483,-25.255676,-23.428665,14.962514,5.9493403,11.962697,20.207264,-22.263891,41.120663,45.352814,12.478875,6.114491,-13.333609
121,3.8041088581085205,54.0924072265625,74.83003997802734,0.23347841787936913,-1.7789356055706689,-90.29979288416689,-21.558336,-1.7634283,0.40321925,45.660385,-20.921888,3.604187,-8.234254,-1.7098264,3.3810105,79.7747,-9.577883,2.6822977,-1.8614491,0.6692581,8.467046,6.0614805,19.661787,-25.335262,-24.223562,14.703915,5.802028,11.717575,20.56172,-22.16746,41.14728,45.11803,13.176,6.062127,-13.272238
122,3.7988994121551514,54.80960464477539,75.13096618652344,0.15816642406115117,-1.7553255203849967,-90.02056056775714,-21.659128,-1.8320504,0.105007984,44.21375,-19.326818,3.4611313,-6.456309,-0.7669326,3.7439237,77.16177,-9.028855,3.8631668,-1.7186519,0.83838034,8.331024,6.5960207,19.672304,-25.43215,-24.9412,14.432843,5.6154428,11.451895,20.850874,-22.050161,41.17276,44.931396,13.920559,6.0443716,-13.207064
123,3.783125162124634,55.54469299316406,75.44963073730469,0.08953833818147076,-1.7186785918762362,-89.74374246430465,-21.739578,-1.9013957,-0.18673235,42.654816,-17.567257,3.2979953,-4.744911,0.21198826,4.2057385,74.38615,-8.551406,5.0051956,-1.564596,0.9980716,8.210253,7.0963683,19.70005,-25.543463,-25.582033,14.184972,5.415582,11.177732,21.057611,-21.920008,41.21371,44.81744,14.676361,6.03847,-13.171388
124,3.7635655403137207,56.303096771240234,75.78546142578125,0.043880896647144105,-1.6413996468697958,-89.4712788425972,-21.853222,-1.9785795,-0.45107254,41.012745,-15.615101,3.1370902,-3.2098103,1.160573,4.742216,71.59054,-8.074774,5.9528427,-1.3983625,1.131821,8.089847,7.5446053,19.743877,-25.663168,-26.14793,13.996225,5.2279,10.907537,21.167168,-21.791039,41.28811,44.793888,15.408897,6.021222,-13.197783
125,3.734556198120117,57.08921432495117,76.13249969482422,0.022619949553663473,-1.522753746135256,-89.19622735260941,-21.991905,-2.0687466,-0.6972025,39.26678,-13.457452,2.9863708,-1.841115,2.1269546,5.400011,68.73462,-7.646123,6.7389183,-1.2221128,1.2390224,7.970929,7.924912,19.806374,-25.800653,-26.621555,13.870899,5.0452485,10.646673,21.181513,-21.67485,41.397163,44.855152,16.26546,5.9575987,-13.326553
126,3.7091498374938965,57.898956298828125,76.48440551757812,0.020410872839008384,-1.375236760822338,-88.92011560059781,-22.135098,-2.1689944,-0.9313813,37.411198,-11.111191,2.833761,-0.5865218,3.1137686,6.1734853,65.76688,-7.27804,7.4169455,-1.0376028,1.329377,7.861683,8.253946,19.887852,-25.952234,-27.014162,13.790926,4.857995,10.388488,21.115524,-21.576006,41.532017,44.977253,17.214123,5.8679214,-13.528033
127,3.683831214904785,58.74017333984375,76.83930206298828,0.030186932639560016,-1.1916893899374685,-88.65777884190389,-22.315487,-2.268625,-1.1306702,35.495518,-8.590558,2.6703267,0.5035038,4.01249,6.9458685,62.8142,-6.838908,7.884706,-0.84339684,1.403531,7.75822,8.56321,19.981117,-26.092724,-27.366632,13.760935,4.68712,10.1271,20.972733,-21.499617,41.694977,45.153732,17.950775,5.814087,-13.731501
128,3.6532204151153564,59.609031677246094,77.18705749511719,0.04636465056636909,-0.9655865598188363,-88.42394726090862,-22.566746,-2.3525212,-1.2754904,33.570972,-5.9087577,2.485508,1.3723524,4.7361665,7.589746,60.007122,-6.1969233,8.057192,-0.638835,1.4644004,7.6562824,8.8811455,20.074594,-26.195728,-27.717775,13.786551,4.553154,9.85537,20.754623,-21.451857,41.88892,45.380978,18.172586,5.861805,-13.868281
129,3.6177315711975098,60.49626541137695,77.52658081054688,0.07133072983782456,-0.6855281465520943,-88.22264632192112,-22.912962,-2.4104438,-1.3550272,31.650213,-3.0198655,2.3217573,1.9794799,5.3462873,8.138486,57.357105,-5.2590394,7.97263,-0.42004016,1.5112107,7.5492506,9.208956,20.158714,-26.257187,-28.060417,13.900523,4.477461,9.553908,20.448286,-21.438398,42.13646,45.681118,17.655003,6.0562663,-13.937901
130,3.5733554363250732,61.40986251831055,77.8528060913086,0.10425714265145325,-0.3586529602594476,-88.04568643827069,-23.332523,-2.4454205,-1.3861525,29.707968,0.06735273,2.1668086,2.362004,5.886324,8.612093,54.800392,-4.1149797,7.6760035,-0.19176891,1.5474887,7.4407897,9.5298,20.230366,-26.287518,-28.371666,14.092823,4.4420114,9.23019,20.060776,-21.461817,42.431656,46.042236,16.60903,6.3561735,-13.967096
131,3.519721031188965,62.35302734375,78.1553955078125,0.1357021032005839,-0.006245404029880332,-87.88959011248738,-23.791622,-2.4591784,-1.4014695,27.741892,3.2590396,1.923665,2.570332,6.260542,8.84786,52.365147,-2.911304,7.1010256,0.0358562,1.583822,7.3419824,9.844666,20.28817,-26.285646,-28.66705,14.305995,4.4092007,8.91747,19.623192,-21.523958,42.732574,46.412018,15.38424,6.6969333,-13.930452
132,3.472721576690674,63.31683349609375,78.42666625976562,0.15199123425490116,0.3496292032053076,-87.75215709152562,-24.245195,-2.4527974,-1.4452486,25.73056,6.4666777,1.4906291,2.6596906,6.381506,8.680477,50.073997,-1.8016615,6.184242,0.2543052,1.6334816,7.265345,10.155236,20.33228,-26.250551,-28.966162,14.481269,4.3424797,8.649629,19.16792,-21.626083,42.996765,46.734585,14.330122,7.0131664,-13.8077545
133,3.4216578006744385,64.29051971435547,78.66626739501953,0.14613641276712408,0.7186924494401613,-87.64036551647212,-24.704975,-2.4206347,-1.5449749,23.585926,9.886782,0.8273394,2.5923889,6.1968827,7.9793243,47.933205,-0.7075254,4.802956,0.46898764,1.7034683,7.208653,10.474291,20.360107,-26.174223,-29.273632,14.624583,4.229851,8.422685,18.68013,-21.77164,43.23326,47.020405,13.428368,7.339446,-13.558956
134,3.3777997493743896,65.2743911743164,78.86994171142578,0.11857944049286423,1.1039081832305875,-87.55478656897537,-25.172304,-2.351327,-1.7116872,21.327967,13.498663,-0.031006763,2.3730762,5.801761,6.8163567,45.939587,0.35566628,3.0355387,0.68331015,1.7928144,7.1703153,10.795727,20.370213,-26.059761,-29.578535,14.760313,4.0919313,8.222968,18.15292,-21.963661,43.458813,47.286842,12.527607,7.6895914,-13.2051
135,3.333094596862793,66.26266479492188,79.02266693115234,0.06934482415243157,1.4710772970335098,-87.48414552972055,-25.590021,-2.238494,-1.9602356,19.106647,16.887983,-1.0668491,2.125413,5.3321404,5.3644004,44.09827,1.1088877,1.1335856,0.888781,1.907737,7.1661267,11.092916,20.366774,-25.925997,-29.875904,14.857459,3.9421494,8.070986,17.630404,-22.200315,43.64082,47.487175,11.7803545,7.970494,-12.825439
136,3.2752816677093506,67.26106262207031,79.11847686767578,-0.0024143390288314326,1.78690632543804,-87.41772139770941,-25.904135,-2.0810864,-2.2797396,17.07552,19.636654,-2.2440698,1.9669784,4.9162307,3.838533,42.39752,1.3235346,-0.63841647,1.0812678,2.0529087,7.211191,11.337917,20.358027,-25.795572,-30.163887,14.884192,3.7946332,7.9882627,17.155342,-22.477802,43.741234,47.57845,11.340362,8.092742,-12.502965
137,3.215134620666504,68.25923156738281,79.14653015136719,-0.11583072472912707,2.04439827412632,-87.36868264527853,-26.024061,-1.8772693,-2.7733488,15.001532,21.820929,-3.7718015,1.9510709,4.5485854,2.239022,40.78892,0.9036852,-2.2944767,1.2777436,2.2481477,7.3150964,11.53633,20.35193,-25.671381,-30.449636,14.829192,3.6424954,7.9924555,16.733837,-22.7983,43.744274,47.558323,11.31678,7.998223,-12.243525
138,3.158905029296875,69.26233673095703,79.12002563476562,-0.2783005604313523,2.2533760225647534,-87.34506936153149,-25.997494,-1.6037804,-3.404552,12.897638,23.586523,-5.5879736,2.0378168,4.206789,0.5217316,39.258377,0.0023974555,-3.9079895,1.4847164,2.4972172,7.475618,11.70266,20.350836,-25.545052,-30.740667,14.708976,3.4827068,8.070072,16.346533,-23.16432,43.668247,47.44294,11.606078,7.750256,-12.009529
139,3.114051580429077,70.26485443115234,79.06283569335938,-0.4467073449314841,2.419749209261035,-87.31600328399436,-26.009687,-1.2791787,-3.8929462,11.308933,24.643518,-7.2190194,2.1575205,3.9327936,-1.1568108,37.863003,-1.1907202,-5.3251176,1.6704367,2.7543988,7.6777663,11.819469,20.354174,-25.421616,-31.03003,14.532869,3.3343554,8.195228,15.998126,-23.566694,43.52454,47.220703,12.042854,7.4425697,-11.819752
140,3.077752113342285,71.27651977539062,78.97216796875,-0.5461103678359747,2.563346059226068,-87.238796956498,-26.282553,-0.9802973,-3.9285705,10.82017,24.714401,-8.181099,2.193231,3.7025492,-2.6622076,36.704742,-2.4883623,-6.425698,1.7940174,2.9403405,7.8929386,11.863173,20.359486,-25.308762,-31.300095,14.310704,3.2163038,8.341856,15.686871,-23.986755,43.323296,46.89271,12.460474,7.1663237,-11.69596
141,3.03941011428833,72.2939224243164,78.84212493896484,-0.5320086199410788,2.698506457102773,-87.09110621611994,-26.916737,-0.7312533,-3.2867765,11.685798,23.50549,-8.211637,2.1084096,3.4333625,-4.0363364,35.803978,-3.8843553,-7.2135944,1.8390867,3.0092497,8.102687,11.824067,20.365442,-25.211855,-31.553366,14.006246,3.1361582,8.513517,15.411141,-24.409697,43.058796,46.467182,12.822219,6.924459,-11.626858
142,2.9908413887023926,73.30282592773438,78.67840576171875,-0.4375215324500295,2.819466281848609,-86.8928766399442,-27.795536,-0.4916214,-2.1790743,13.580562,21.232418,-7.6159406,1.9296615,3.1056077,-5.329295,35.132236,-5.4425964,-7.7816887,1.8249276,2.9946094,8.316515,11.711478,20.37197,-25.128212,-31.788033,13.627859,3.0821695,8.720357,15.162356,-24.82835,42.728012,45.96459,13.212122,6.673096,-11.607675
143,2.932907819747925,74.30734252929688,78.48628234863281,-0.30550117329368864,2.9169072852106743,-86.66453902615311,-28.81801,-0.24461117,-0.95609343,16.227299,18.387123,-6.7598386,1.6237829,2.7760582,-6.432947,34.727318,-7.081118,-8.165424,1.7641094,2.9370322,8.5471115,11.529626,20.377989,-25.052862,-31.984053,13.252362,3.0446765,8.945455,14.926621,-25.232834,42.344,45.410004,13.643897,6.4312243,-11.672073
144,2.875720977783203,75.3194580078125,78.27232360839844,-0.17715302506558614,2.9833024648458233,-86.42513246368364,-29.892954,0.0027144437,0.071415395,19.355799,15.479265,-5.978087,1.1585422,2.5053008,-7.2405996,34.624187,-8.721977,-8.393789,1.6667749,2.8751738,8.8054695,11.282273,20.381575,-24.98013,-32.11487,12.956792,3.0144446,9.171669,14.687565,-25.61043,41.92193,44.832043,14.130709,6.2169228,-11.854199
145,2.8224658966064453,76.32978057861328,78.0291748046875,-0.05798374933513133,2.996924157378239,-86.15592446236072,-31.020388,0.24755003,0.9099514,23.058971,12.4536915,-5.325332,0.52416205,2.322205,-7.6587334,34.85946,-10.395534,-8.437712,1.5157757,2.814442,9.116033,10.944887,20.384062,-24.904219,-32.185112,12.725793,2.9835415,9.386115,14.4469185,-25.949371,41.444588,44.21877,14.71952,6.031056,-12.20367
146,2.772897720336914,77.34098815917969,77.75442504882812,0.05095210902624197,2.9576032253801676,-85.86413740326363,-32.206326,0.5357807,1.6724035,27.38706,9.11463,-4.629267,-0.25607514,2.206407,-7.771546,35.40493,-12.125065,-8.316562,1.3209227,2.7547412,9.473507,10.525357,20.385704,-24.830063,-32.202385,12.53103,2.959455,9.600965,14.205013,-26.244358,40.911495,43.581295,15.386054,5.8592305,-12.68973
147,2.71728253364563,78.35582733154297,77.44631958007812,0.1286574994637982,2.898745318461037,-85.59898300327662,-33.391785,0.87410575,2.2560906,32.020794,5.784461,-3.8594444,-1.1726148,2.1360247,-7.7410116,36.200176,-13.825551,-8.116433,1.1236292,2.714324,9.836211,10.072145,20.381634,-24.765993,-32.15053,12.429131,2.9568322,9.835362,13.938925,-26.494291,40.3658,42.983303,16.038012,5.6988883,-13.226377
148,2.6550004482269287,79.35855102539062,77.10983276367188,0.16121142373318345,2.8572938729983015,-85.40717619847031,-34.523724,1.2387892,2.571331,36.64328,2.787155,-2.987916,-2.2239442,2.0797837,-7.72563,37.194324,-15.416481,-7.915751,0.9613762,2.7061517,10.159274,9.633347,20.363178,-24.719479,-32.009556,12.47844,2.9903448,10.107199,13.622033,-26.700855,39.853558,42.488422,16.585371,5.551264,-13.72781
149,2.595632553100586,80.34732055664062,76.74700927734375,0.13732234506811633,2.8433971719416626,-85.28663491833709,-35.658478,1.5762538,2.543173,41.33455,0.21344611,-1.9297177,-3.4495242,2.0372682,-7.7464585,38.447002,-16.904158,-7.6984687,0.83747584,2.7420218,10.432987,9.186885,20.322817,-24.6994,-31.749538,12.673362,3.0688093,10.438578,13.233306,-26.86667,39.397053,42.12693,17.063845,5.3969307,-14.20103
150,2.5424134731292725,81.32784271240234,76.373291015625,0.06650317177433247,2.837453059480552,-85.21637330965137,-36.785267,1.8612456,2.2462065,46.175167,-2.0839849,-0.7353934,-4.843583,2.0260453,-7.7316685,39.976093,-18.334219,-7.42648,0.7315363,2.8151999,10.678836,8.712204,20.257784,-24.699625,-31.377785,12.991972,3.1845598,10.811059,12.785895,-26.992203,38.971275,41.86531,17.502247,5.2429304,-14.682396
151,2.497633457183838,82.30870056152344,76.00556182861328,-0.026646397563431394,2.8355308753002366,-85.21193216430173,-37.773304,2.1137707,1.8325157,50.89548,-4.158715,0.42364255,-6.3252225,2.033035,-7.6924534,41.63288,-19.661047,-7.1423416,0.64416975,2.903439,10.895476,8.258126,20.167889,-24.705215,-30.932657,13.466189,3.32796,11.181324,12.306254,-27.075718,38.551136,41.668514,17.80019,5.134176,-15.130957
152,2.4580776691436768,83.27942657470703,75.65257263183594,-0.11226543392993772,2.8351558312177545,-85.28794243317589,-38.504337,2.3804646,1.4552773,55.25123,-6.0835214,1.3875556,-7.812854,2.0378084,-7.63604,43.265064,-20.834404,-6.8906097,0.57451767,2.9788787,11.080673,7.8765073,20.055347,-24.69956,-30.455666,14.12827,3.4891608,11.506263,11.819491,-27.112656,38.1128,41.501064,17.85919,5.117483,-15.506656
153,2.4183261394500732,84.22716522216797,75.3185043334961,-0.18409431610394358,2.858874920004907,-85.47060695473357,-38.979435,2.714825,1.1700225,59.228836,-7.8866143,2.13168,-9.325649,2.0332265,-7.5569057,44.851967,-21.82385,-6.6630855,0.5324754,3.0344963,11.218596,7.600928,19.917513,-24.666616,-29.960701,15.070887,3.6919677,11.770311,11.306174,-27.095848,37.646774,41.38406,17.588598,5.2292795,-15.788564
154,2.3814749717712402,85.14972686767578,74.98833465576172,-0.2518766917568756,2.902136710127732,-85.7430359196734,-39.26172,3.084794,0.9072826,62.97508,-9.542327,2.7407267,-10.892324,2.025979,-7.4513474,46.461647,-22.65875,-6.4363556,0.5147652,3.0783572,11.312314,7.3957353,19.75386,-24.619495,-29.423235,16.249529,3.9346805,11.994563,10.755131,-27.022627,37.16719,41.33496,17.06303,5.439196,-16.000414
155,2.355980157852173,86.04383850097656,74.65714263916016,-0.3090953950353009,2.9226305492348117,-86.05525960054568,-39.332783,3.426733,0.6308547,66.49458,-11.061042,3.2266195,-12.445987,2.0160255,-7.326435,48.075047,-23.37589,-6.235884,0.5011881,3.104087,11.387929,7.2125793,19.574282,-24.583591,-28.826464,17.48908,4.1672,12.1945915,10.207867,-26.897545,36.684513,41.308945,16.430416,5.693551,-16.169884
156,2.3243885040283203,86.92606353759766,74.3284912109375,-0.3494831848563139,2.8782486880860647,-86.35708388550006,-39.17532,3.673494,0.30517885,69.789536,-12.452558,3.598223,-13.919097,2.0044606,-7.190173,49.67234,-24.011654,-6.088953,0.4707292,3.1059246,11.473801,7.0092487,19.396042,-24.583557,-28.166784,18.61208,4.3389425,12.391416,9.711197,-26.730759,36.20764,41.250572,15.838747,5.938786,-16.326052
157,2.2886338233947754,87.7919921875,74.00382232666016,-0.3531377418899098,2.748206461731835,-86.65099983962111,-38.756027,3.8151855,-0.044066392,72.863335,-13.706607,3.8452063,-15.308308,1.9774565,-7.0174947,51.292496,-24.553066,-6.0101166,0.42420167,3.0611043,11.589453,6.798132,19.230547,-24.615032,-27.454895,19.63313,4.417096,12.607463,9.283123,-26.525202,35.722675,41.128468,15.242546,6.207526,-16.465723
158,2.2501046657562256,88.6424789428711,73.68701934814453,-0.32640950240830935,2.5590160203045804,-86.95905054955351,-38.09358,3.888222,-0.3959978,75.724236,-14.827782,3.9674244,-16.641119,1.9417478,-6.810211,52.922596,-24.981617,-5.978868,0.37160137,2.9753745,11.718978,6.605683,19.081354,-24.667587,-26.70827,20.622154,4.435328,12.832607,8.901493,-26.281475,35.228317,40.964558,14.591622,6.512904,-16.574942
159,2.2161202430725098,89.48789978027344,73.38472747802734,-0.30202695340002056,2.33944163825847,-87.26105929024705,-37.24829,3.8908477,-0.7908678,78.36944,-15.841119,3.9878664,-17.903357,1.9243004,-6.615782,54.476315,-25.326527,-5.9750795,0.30501536,2.8854578,11.839828,6.414985,18.95489,-24.75411,-25.934135,21.484634,4.4409575,13.040951,8.558192,-26.009129,34.753174,40.771397,14.028332,6.7722735,-16.671204
160,2.1938483715057373,90.31434631347656,73.08935546875,-0.3133823073387112,2.1179822758298195,-87.53640619707076,-36.281467,3.8208964,-1.2703111,80.79567,-16.771378,3.9290895,-19.079689,1.9473938,-6.4820156,55.86497,-25.621893,-5.983735,0.21584909,2.8280797,11.930508,6.2107267,18.858906,-24.887047,-25.142788,22.125704,4.479908,13.20565,8.249618,-25.725191,34.323723,40.554466,13.695435,6.903516,-16.774319
161,2.167865514755249,91.12348937988281,72.80150604248047,-0.36859232614286924,1.8862893158495295,-87.78146406167706,-35.185787,3.6603217,-1.8695836,83.01289,-17.604301,3.7697937,-20.16678,2.0100617,-6.427176,57.10015,-25.853329,-6.011951,0.10114352,2.8151677,11.999547,5.975158,18.802425,-25.073854,-24.331251,22.415304,4.5646844,13.313145,7.9890466,-25.441265,33.941654,40.299706,13.678561,6.8547373,-16.900682
162,2.142240285873413,91.92863464355469,72.52476501464844,-0.44967725722206,1.6340146894150043,-88.00673833187248,-33.933178,3.4207737,-2.5525723,85.022484,-18.33902,3.507049,-21.173014,2.0970109,-6.423059,58.217926,-26.010424,-6.069838,-0.03474353,2.8259563,12.0588045,5.7300787,18.788101,-25.304623,-23.512589,22.435555,4.6687727,13.38263,7.786212,-25.161068,33.592213,39.98491,13.888197,6.680132,-17.03616
163,2.1207351684570312,92.72327423095703,72.25904083251953,-0.55158836678234,1.3863784343955339,-88.21255817606777,-32.559616,3.1448958,-3.2601535,86.81143,-19.011402,3.189582,-22.107563,2.2069361,-6.4480877,59.179558,-26.134289,-6.1497955,-0.19051091,2.8505964,12.091556,5.518092,18.810324,-25.564714,-22.716291,22.409971,4.779205,13.433445,7.634011,-24.891039,33.278805,39.600365,14.204229,6.4574065,-17.155943
164,2.093186140060425,93.50408935546875,72.00122833251953,-0.670002662356687,1.1687101921822605,-88.39944641174631,-31.103785,2.8765128,-3.93645,88.362755,-19.657875,2.8690221,-22.97836,2.34022,-6.481451,59.944447,-26.265959,-6.2440963,-0.36651993,2.8822165,12.080518,5.3793135,18.857826,-25.83809,-21.967485,22.563423,4.883138,13.482919,7.5259476,-24.638813,33.006256,39.135227,14.508383,6.2653713,-17.236437
165,2.0753865242004395,94.2867202758789,71.76026916503906,-0.8188674139380835,0.9820045258854938,-88.565802500371,-29.553476,2.6205912,-4.602585,89.68133,-20.301819,2.5350676,-23.773079,2.513219,-6.5262976,60.491177,-26.421537,-6.3512444,-0.5644435,2.938333,12.021959,5.3011513,18.921625,-26.13734,-21.24383,22.958227,4.9961233,13.5553255,7.4544315,-24.413912,32.799545,38.597652,14.832471,6.1063585,-17.264866
166,2.068476915359497,95.05838012695312,71.53962707519531,-0.9956206801362865,0.8143019589375771,-88.7123626997231,-27.899483,2.3643785,-5.2802463,90.776924,-20.918877,2.1729329,-24.4911,2.7206304,-6.5920525,60.844723,-26.57796,-6.477932,-0.7844347,3.0215669,11.925342,5.2643127,18.99873,-26.464602,-20.531303,23.476542,5.118268,13.631906,7.432123,-24.220665,32.64834,37.979973,15.22045,5.946148,-17.25502
167,2.068721055984497,95.82742309570312,71.33668518066406,-1.1767121999590726,0.6716280829470811,-88.84196061800944,-26.187336,2.1222112,-5.9186506,91.63369,-21.466257,1.8282206,-25.157154,2.9313743,-6.6675997,61.032455,-26.715069,-6.627617,-1.0238414,3.1036437,11.792595,5.298633,19.087309,-26.78905,-19.875446,24.074276,5.213309,13.664848,7.481772,-24.055302,32.504993,37.247467,15.573659,5.809292,-17.225382
168,2.0777273178100586,96.59680938720703,71.15449523925781,-1.332581714961997,0.5605808988847449,-88.95773017461123,-24.466225,1.9043891,-6.469394,92.23725,-21.900133,1.5459603,-25.797655,3.1143727,-6.7417035,61.0837,-26.813803,-6.803351,-1.279871,3.1550086,11.624156,5.4327674,19.187677,-27.07924,-19.31791,24.706976,5.2437634,13.607406,7.6221704,-23.909466,32.321663,36.37218,15.791966,5.71944,-17.195442
169,2.0735323429107666,97.36127471923828,70.99847412109375,-1.463612210610669,0.4914718863662249,-89.04797727953584,-22.743732,1.7065883,-6.941304,92.58985,-22.218035,1.3582971,-26.391613,3.2665293,-6.8271427,60.95176,-26.936625,-7.023625,-1.5615156,3.170719,11.404039,5.674829,19.303867,-27.329292,-18.861877,25.44256,5.1635003,13.408103,7.866703,-23.77604,32.085808,35.33879,15.827216,5.703597,-17.163721
170,2.0735111236572266,98.12863159179688,70.87017059326172,-1.5830928013094585,0.45836603258955244,-89.11505074470583,-21.003664,1.5247209,-7.3606367,92.70004,-22.435387,1.237026,-26.932613,3.4055517,-6.9263587,60.63664,-27.070927,-7.27967,-1.8662052,3.1658745,11.1365,6.0092225,19.438179,-27.554512,-18.48798,26.27711,5.0012617,13.107594,8.199894,-23.653625,31.822706,34.170166,15.738287,5.7417765,-17.122614
171,2.081117630004883,98.91250610351562,70.7677001953125,-1.6852348374252961,0.443792520021993,-89.18307665735054,-19.260332,1.36462,-7.704845,92.5625,-22.534727,1.136178,-27.469366,3.530245,-7.0128846,60.235886,-27.084425,-7.5346365,-2.174833,3.1405087,10.851536,6.4287796,19.586977,-27.755547,-18.20592,27.059898,4.833742,12.795952,8.596672,-23.542038,31.542652,32.895443,15.586059,5.787059,-17.083298
172,2.0941901206970215,99.70639038085938,70.6991958618164,-1.7670789820171822,0.43013405460941834,-89.2757876679137,-17.527134,1.2296621,-7.9507284,92.17071,-22.499811,1.0086554,-28.049793,3.638162,-7.061253,59.846367,-26.843807,-7.7537045,-2.4683304,3.0952797,10.578407,6.924054,19.7425,-27.934479,-18.025036,27.642805,4.741129,12.5597105,9.0337715,-23.44123,31.256699,31.542154,15.43246,5.792596,-17.057343
173,2.1077260971069336,100.5091781616211,70.66931915283203,-1.8236051923549284,0.422686850045982,-89.39444291066285,-15.81096,1.1295538,-8.078685,91.52344,-22.32109,0.8875467,-28.718054,3.7191365,-7.077781,59.531586,-26.307615,-7.944973,-2.7485077,3.0270467,10.310285,7.506836,19.89785,-28.093904,-17.965027,28.013697,4.762228,12.422158,9.5239105,-23.352095,30.958391,30.08174,15.268187,5.7520413,-17.063797
174,2.1261563301086426,101.32677459716797,70.68303680419922,-1.8589305407680765,0.4279714040671613,-89.52726478183064,-14.107208,1.0523989,-8.108652,90.6254,-22.008104,0.7832166,-29.438448,3.778649,-7.075398,59.22582,-25.548079,-8.124867,-3.0235608,2.9379535,10.034357,8.170045,20.050974,-28.233519,-18.005386,28.245134,4.8501925,12.334279,10.076288,-23.274647,30.644947,28.509363,15.0690975,5.6887207,-17.091389
175,2.1522250175476074,102.1622085571289,70.7353515625,-1.8787614681637785,0.4305030298048663,-89.6785507352781,-12.412929,0.9695737,-8.076151,89.48348,-21.576286,0.6164884,-30.142849,3.8364832,-7.037723,58.838272,-24.604317,-8.271443,-3.2844286,2.8343914,9.770234,8.877348,20.200895,-28.352118,-18.094547,28.317755,4.958958,12.274201,10.658171,-23.207745,30.333124,26.89446,14.874285,5.599832,-17.106224
176,2.1801159381866455,103.01591491699219,70.82772827148438,-1.889547796023265,0.4146828760509273,-89.852624363726,-10.723146,0.8540033,-8.018379,88.10259,-21.041533,0.30772784,-30.761507,3.912596,-6.9462543,58.274788,-23.513205,-8.35985,-3.5232947,2.722442,9.537342,9.595045,20.346815,-28.447226,-18.18433,28.211702,5.042035,12.220076,11.233654,-23.147512,30.042145,25.30842,14.723867,5.4822736,-17.074326
177,2.2061753273010254,103.87642669677734,70.96043395996094,-1.8853367905284717,0.37223744086387806,-90.05789175740145,-9.007745,0.7077997,-7.9186726,86.45016,-20.439837,-0.18160541,-31.29533,4.011264,-6.776868,57.55154,-22.272675,-8.374172,-3.7391336,2.5949867,9.337695,10.335754,20.48896,-28.516008,-18.280907,27.854843,5.082103,12.198897,11.80563,-23.0914,29.773813,23.745632,14.636369,5.3198094,-16.985874
178,2.235353946685791,104.75302124023438,71.13108825683594,-1.8646284889487037,0.3136348788821779,-90.28995361489073,-7.278947,0.5363604,-7.771638,84.53691,-19.755714,-0.8038023,-31.77673,4.1250296,-6.543579,56.70501,-20.864902,-8.330298,-3.9361763,2.4498541,9.160498,11.111001,20.626652,-28.561136,-18.404585,27.280226,5.105649,12.211762,12.384191,-23.038347,29.521788,22.182957,14.588177,5.1183157,-16.859184
179,2.271902084350586,105.64996337890625,71.3375015258789,-1.8402072127188729,0.2505297104512519,-90.53334984576856,-5.5931697,0.3203645,-7.6337,82.42741,-18.925934,-1.509031,-32.182335,4.253002,-6.283321,55.672577,-19.305016,-8.248153,-4.115186,2.2992146,9.004893,11.882073,20.75696,-28.587852,-18.514637,26.624636,5.1320124,12.197315,12.943482,-22.985947,29.291548,20.668636,14.554086,4.908458,-16.703648
180,2.3172409534454346,106.56460571289062,71.5799331665039,-1.8254270943938478,0.19493456635538675,-90.77116647524282,-4.004824,0.04088498,-7.565557,80.18495,-17.889263,-2.2516155,-32.48623,4.391279,-6.033098,54.391563,-17.610468,-8.146698,-4.2783513,2.1548758,8.8693695,12.61115,20.87461,-28.60113,-18.57147,26.026796,5.1817746,12.094229,13.454164,-22.930574,29.088907,19.256714,14.508398,4.719676,-16.529074
181,2.3658227920532227,107.49676513671875,71.85486602783203,-1.8237104013924401,0.13684741929531463,-91.0122768177884,-2.4846697,-0.31754225,-7.5819783,77.758156,-16.546915,-3.1445289,-32.66342,4.5469723,-5.7899566,52.834118,-15.791972,-8.034339,-4.4212055,2.0188165,8.760904,13.303095,20.97428,-28.604904,-18.573835,25.515518,5.275199,11.895768,13.909881,-22.869272,28.918552,17.95793,14.46496,4.55163,-16.318066
182,2.42185378074646,108.46761322021484,72.15145111083984,-1.8270654116892406,0.07440978476013818,-91.26093168431603,-1.0138805,-0.7458048,-7.6658077,75.13692,-14.96334,-4.1762476,-32.73323,4.71466,-5.5315847,51.041203,-13.839611,-7.897455,-4.544268,1.8842548,8.675425,13.968686,21.053452,-28.597479,-18.53305,25.021648,5.3976917,11.630898,14.3201885,-22.80083,28.776825,16.75386,14.429476,4.390736,-16.072643
183,2.472566843032837,109.45733642578125,72.47013854980469,-1.8325408828565806,0.031096355344208345,-91.4947756596756,0.33906955,-1.2092847,-7.814504,72.43557,-13.322561,-5.1043,-32.730957,4.8742437,-5.265549,49.03742,-11.738282,-7.7225523,-4.6564503,1.7515243,8.596124,14.578295,21.11166,-28.573568,-18.421047,24.536587,5.5183835,11.292889,14.681252,-22.723783,28.657171,15.652657,14.364714,4.24686,-15.831271
184,2.514432668685913,110.47236633300781,72.80305480957031,-1.8363297860726975,0.030287901722442508,-91.69131850098111,1.5022926,-1.663388,-8.009694,69.769,-11.801876,-5.679867,-32.691383,5.0093226,-5.000566,46.843155,-9.468561,-7.495829,-4.7668695,1.6203817,8.50634,15.103087,21.14998,-28.527231,-18.211504,24.051474,5.6067367,10.874336,14.988375,-22.63709,28.551985,14.663891,14.232366,4.1294355,-15.632391
185,2.5701560974121094,111.50323486328125,73.14894104003906,-1.8276269972167352,0.077931905735126,-91.84078276026605,2.4416351,-2.2117674,-8.341167,67.152084,-10.301403,-5.8932567,-32.595596,5.1159606,-4.7341104,44.410263,-7.033611,-7.252834,-4.877817,1.482212,8.402469,15.538955,21.165825,-28.448807,-17.891865,23.58729,5.659016,10.306509,15.24846,-22.535831,28.453568,13.798576,14.012818,4.0409455,-15.486743
186,2.6361401081085205,112.5731201171875,73.49188232421875,-1.8139339806323216,0.16123781462924522,-91.95707638688256,3.200917,-2.8211262,-8.774083,64.53318,-8.775838,-5.8502927,-32.432735,5.2036467,-4.457569,41.743053,-4.4407086,-6.986775,-4.9839296,1.3398879,8.292474,15.899012,21.157999,-28.344473,-17.473743,23.141695,5.6920924,9.614807,15.45669,-22.418192,28.368011,13.055694,13.727835,3.9757206,-15.374055
187,2.699296712875366,113.66860961914062,73.83580017089844,-1.8092528158117946,0.2750908493781913,-92.05112315692993,3.8164709,-3.2594512,-9.081997,61.93308,-7.486733,-5.481225,-32.25076,5.279595,-4.167716,38.937412,-1.6711398,-6.618404,-5.0854197,1.2077521,8.179107,16.184708,21.132895,-28.229929,-16.979935,22.668934,5.705545,8.932714,15.594623,-22.28992,28.30879,12.419141,13.403093,3.9316967,-15.285937
188,2.766965866088867,114.77408599853516,74.17059326171875,-1.825219502411532,0.41378342739616647,-92.13367126896351,4.3261538,-3.3200896,-9.02348,59.36774,-6.6980286,-4.724791,-32.092934,5.3572516,-3.8541856,36.079144,1.3016104,-6.06461,-5.1830664,1.098877,8.067861,16.402027,21.101871,-28.119574,-16.438803,22.121645,5.6974077,8.394938,15.649695,-22.161098,28.288847,11.863541,13.065739,3.9069426,-15.213595
189,2.8321752548217773,115.89518737792969,74.48373413085938,-1.887656948136674,0.5934394017183171,-92.19678288124581,4.7310205,-2.8750753,-8.432904,56.761936,-6.533695,-3.4608362,-32.021477,5.4663734,-3.5494933,33.15992,4.7072916,-5.551153,-5.2799087,1.0390562,7.952312,16.546722,21.071705,-28.011429,-15.835513,21.467888,5.6602893,8.028183,15.635708,-22.036541,28.307058,11.382456,12.715405,3.9052646,-15.179315
190,2.897718906402588,117.02725982666016,74.75682830810547,-1.9738076810071,0.8078489710588547,-92.23818699522204,5.0391316,-2.141032,-7.450809,54.131485,-6.881532,-1.8210914,-31.990501,5.59321,-3.231421,30.136545,8.462804,-5.0335164,-5.3755975,1.0040805,7.837703,16.625639,21.04447,-27.897505,-15.174846,20.73626,5.595744,7.76423,15.560799,-21.916342,28.357208,10.976446,12.342609,3.926876,-15.178957
191,2.97503662109375,118.1971435546875,74.97314453125,-2.0168309689263144,1.0147728435373258,-92.27237647120653,5.3046136,-1.4295182,-6.3159633,51.613087,-7.6357594,-0.12042172,-31.866232,5.693084,-2.7650912,27.016401,12.14482,-4.00577,-5.4700027,0.9245895,7.749679,16.663744,21.027384,-27.782097,-14.522037,19.969637,5.517184,7.5945187,15.401892,-21.807476,28.443953,10.633601,11.960656,3.9647512,-15.165225
192,3.0494143962860107,119.37330627441406,75.14091491699219,-1.94537857349402,1.1682396027969155,-92.30524689220587,5.5685263,-1.0108647,-5.282408,49.329105,-8.638067,1.3805654,-31.49154,5.714947,-1.9772224,23.769606,15.350551,-1.9434127,-5.5719466,0.7255267,7.718677,16.691216,21.031572,-27.667744,-13.950265,19.209705,5.438018,7.511113,15.140584,-21.720112,28.573063,10.332639,11.584671,4.0114627,-15.091064
193,3.1266140937805176,120.53742218017578,75.26029205322266,-1.6671637651651945,1.236442090367079,-92.29214432861691,5.89126,-0.9864704,-4.393596,47.221394,-9.877338,2.7663054,-30.577072,5.5512505,-0.619207,19.828728,18.269419,1.9934424,-5.71878,0.31672376,7.771306,16.716396,21.061872,-27.563862,-13.476715,18.445908,5.353969,7.5453496,14.801304,-21.677748,28.736858,10.0422325,11.200177,4.0749187,-14.928961
194,3.2130751609802246,121.69869995117188,75.3121566772461,-1.1572079987441337,1.2131513975702308,-92.20334017443119,6.3045435,-1.3037822,-3.5758238,45.163094,-11.36695,4.13937,-29.207157,5.121919,1.233764,15.312984,21.017155,7.3291574,-5.96285,-0.34509578,7.9139833,16.784533,21.146217,-27.422106,-13.12462,17.659056,5.2559633,7.6836047,14.349448,-21.653484,28.977346,9.806052,10.808449,4.154266,-14.715869
195,3.3096272945404053,122.86504364013672,75.30489349365234,-0.5317957183645622,1.1235476852965085,-92.10372592024181,6.7310348,-1.8456364,-2.8823647,43.22629,-12.974215,5.3115187,-27.855028,4.4977784,3.1305292,11.287147,23.0545,12.545689,-6.2099085,-1.130672,8.127349,16.831955,21.265343,-27.28516,-12.848402,16.884201,5.1571445,7.8705335,13.8353405,-21.657167,29.242712,9.563787,10.449021,4.2359347,-14.479806
196,3.381084680557251,124.04547119140625,75.26739501953125,-0.1334828569062452,1.0223216643774082,-92.12573981801812,6.995943,-2.1913688,-2.3259776,41.669476,-14.678641,6.0518413,-26.934431,4.0250416,4.039392,8.624336,24.01239,15.000033,-6.346541,-1.7060435,8.392428,16.864754,21.428877,-27.135944,-12.66482,16.148655,5.0679135,8.045505,13.229907,-21.676281,29.54259,9.325327,10.166909,4.301447,-14.259277
197,3.432581663131714,125.23928833007812,75.22041320800781,-0.062376701242451545,0.9904518200913474,-92.32540405792865,6.9634156,-2.1996436,-1.8658855,40.572727,-16.54858,6.2850237,-26.788944,3.9403527,4.159317,7.916139,23.475065,15.000033,-6.3087287,-1.9535058,8.647623,16.855303,21.61095,-26.994211,-12.555069,15.436506,4.9894733,8.205709,12.517341,-21.703634,29.86258,9.10462,9.957345,4.3489556,-14.021311
198,3.4980196952819824,126.45134735107422,75.16414642333984,-0.08904714579653591,1.0675678341780912,-92.65419929910551,6.6394114,-2.1317394,-1.4375452,39.76317,-18.50336,6.2148943,-27.4835,4.0703263,4.4361486,9.135727,21.492281,15.000033,-6.145174,-2.0763566,8.83064,16.796457,21.800638,-26.863556,-12.498254,14.740522,4.914522,8.38168,11.6924925,-21.738878,30.206139,8.921909,9.801188,4.3843107,-13.759514
199,3.589034080505371,127.66378021240234,75.09835052490234,-0.16958478721452674,1.2075951369068951,-93.09701925333418,6.0543623,-2.022253,-1.0107785,39.26938,-20.401625,5.9998884,-28.722822,4.3127136,4.676333,11.727952,18.732132,15.000033,-5.8616953,-2.1162403,8.968961,16.64881,21.9903,-26.755045,-12.425887,14.111959,4.8452806,8.566101,10.787724,-21.779222,30.559753,8.772809,9.710492,4.404584,-13.544474
200,3.6893937587738037,128.8787078857422,75.01591491699219,-0.233435949140784,1.3504299440477334,-93.6238968083659,5.2640486,-1.9448452,-0.57562447,39.10338,-22.095884,5.797416,-30.193857,4.515356,4.7158413,15.143377,15.846171,15.000033,-5.476384,-2.1433597,9.101785,16.376926,22.175749,-26.679342,-12.274219,13.602225,4.784863,8.751534,9.837594,-21.8197,30.909637,8.650791,9.697496,4.4075184,-13.447228
201,3.7683491706848145,130.1132049560547,74.90840911865234,-0.3389391806231798,1.4225205888333174,-94.26940666643962,4.2708917,-1.8236587,-0.18140483,39.440254,-23.63684,5.583015,-31.82131,4.668488,4.1297464,19.430763,12.848636,13.948553,-4.9645495,-2.1197968,9.314093,15.965455,22.360062,-26.622828,-12.042817,13.184695,4.7280593,8.918189,8.813213,-21.85802,31.263693,8.538085,9.815208,4.3875017,-13.499257
202,3.8444371223449707,131.33177185058594,74.78038024902344,-0.3693760316203273,1.43755512841655,-94.98377980141078,3.1142247,-1.7965991,0.1500233,40.145092,-25.029966,5.332948,-33.688347,4.6452794,3.202661,24.75493,9.450568,11.979613,-4.3771048,-2.1616895,9.586614,15.445619,22.54842,-26.578379,-11.769178,12.848725,4.6769366,9.073236,7.713909,-21.891836,31.627079,8.435473,10.03921,4.348581,-13.660485
203,3.933326482772827,132.53662109375,74.63108825683594,-0.30040285107002174,1.4081631438255882,-95.6598465915121,1.8910677,-1.8693744,0.4488037,41.02499,-26.249386,5.0995555,-35.467236,4.3750987,2.2277598,30.351604,6.0232472,9.800559,-3.7923818,-2.2800317,9.886699,14.851014,22.742046,-26.567062,-11.445349,12.669398,4.6461606,9.24997,6.615541,-21.914423,31.981085,8.369766,10.2635565,4.303489,-13.893715
204,4.018924713134766,133.7131805419922,74.47759246826172,-0.19765409969874076,1.3718763605717919,-96.2267422517734,0.65144444,-1.9357709,0.7619351,41.94065,-27.301748,4.9093947,-36.902596,3.9124768,1.2900411,35.538857,2.9188855,7.704827,-3.2522492,-2.399011,10.158429,14.202425,22.936115,-26.618547,-11.050447,12.720426,4.650432,9.484375,5.588758,-21.917582,32.30425,8.3795595,10.3819065,4.2649374,-14.1603565
205,4.096375465393066,134.87286376953125,74.32886505126953,-0.10962785101872022,1.3742516536566634,-96.70199717709428,-0.69245726,-1.9168284,1.136483,42.97457,-28.179892,4.7585716,-38.028957,3.2638683,0.2760627,40.328148,0.13999255,5.6323357,-2.7345037,-2.4569554,10.3497305,13.43285,23.128971,-26.776682,-10.484566,13.036249,4.696,9.820795,4.623,-21.894564,32.600525,8.4956045,10.412361,4.223762,-14.498612
206,4.172369956970215,136.0030059814453,74.19503021240234,-0.027133803450672223,1.3950018281626813,-97.12693426813432,-2.1522698,-1.8418355,1.5427148,44.180626,-28.897955,4.6235566,-38.95769,2.4192188,-0.8123148,45.03706,-2.5051143,3.442035,-2.21002,-2.4726071,10.490199,12.547049,23.318352,-27.01941,-9.782586,13.571496,4.778342,10.230772,3.6848178,-21.842821,32.873833,8.704007,10.393258,4.177477,-14.911173
207,4.220270156860352,137.12269592285156,74.08641052246094,0.05170650635773323,1.3833298778556853,-97.47544797344807,-3.5861168,-1.7436396,1.9151515,45.396984,-29.502779,4.49877,-39.61879,1.4708487,-1.7940785,49.54308,-4.967401,1.311917,-1.7069929,-2.471405,10.631611,11.670268,23.493855,-27.27648,-9.1185255,14.281147,4.895242,10.639266,2.8038135,-21.764854,33.108833,8.986878,10.248027,4.150617,-15.306195
208,4.281876564025879,138.19358825683594,73.99092102050781,0.1241191926588503,1.2885084863562746,-97.72395249733033,-4.850818,-1.6542972,2.1914368,46.460007,-30.040377,4.3835616,-39.951855,0.5421414,-2.520161,53.72185,-7.1684127,-0.5671655,-1.2525939,-2.4705727,10.825547,10.925234,23.641111,-27.47714,-8.659484,15.122271,5.0413003,10.969111,2.0104601,-21.66671,33.29447,9.323534,9.9025135,4.168173,-15.592143
209,4.332859992980957,139.2464599609375,73.90119934082031,0.17232309838527027,1.0876950713062712,-97.8634747534895,-5.9078407,-1.5553937,2.3582509,47.349567,-30.507374,4.2768145,-39.94074,-0.35640052,-3.055652,57.602478,-9.053563,-2.191941,-0.84733546,-2.4544525,11.097122,10.3092985,23.75225,-27.620367,-8.400273,16.266008,5.2497244,11.191033,1.3258914,-21.548918,33.41671,9.724172,9.308415,4.2428126,-15.734663
210,4.378147125244141,140.2621612548828,73.81494903564453,0.19402061251399358,0.8141165146276436,-97.91096954203424,-6.836186,-1.4328804,2.4486496,48.145226,-30.884594,4.177998,-39.637886,-1.2626792,-3.4916906,61.263172,-10.673846,-3.6529117,-0.47775507,-2.4071927,11.408163,9.761262,23.82477,-27.73866,-8.254442,17.6781,5.511033,11.342953,0.7265903,-21.411573,33.491688,10.199133,8.516478,4.359107,-15.784684
211,4.433739185333252,141.26345825195312,73.73084259033203,0.209868840776487,0.5015520015314486,-97.88217212950923,-7.67319,-1.3273897,2.4716456,48.83917,-31.195436,4.0919676,-39.098076,-2.1011539,-3.7432072,64.6515,-12.092681,-4.884631,-0.15192585,-2.3475022,11.7150345,9.313987,23.85246,-27.809294,-8.262718,19.00839,5.751535,11.451527,0.1732686,-21.26686,33.556477,10.73101,7.6005325,4.499513,-15.778595
212,4.492232322692871,142.25880432128906,73.64208984375,0.24073053267244976,0.18407879623081613,-97.79398420614292,-8.4570055,-1.2770854,2.4376678,49.423664,-31.46269,4.024119,-38.38031,-2.7835808,-3.7266922,67.7118,-13.365667,-5.809931,0.11829876,-2.2925763,11.976539,9.005158,23.828207,-27.8033,-8.470712,19.9062,5.8965626,11.548516,-0.3703589,-21.135525,33.65128,11.292586,6.63772,4.6470933,-15.755152
213,4.550173759460449,143.23233032226562,73.56170654296875,0.2788219256423657,-0.15805218180533734,-97.63297478208693,-9.171075,-1.2841568,2.3302357,49.910957,-31.69779,3.976897,-37.459904,-3.2570014,-3.4206011,70.44568,-14.484189,-6.364625,0.31443912,-2.2322679,12.205179,8.879263,23.741184,-27.693274,-8.936113,20.283592,5.91031,11.64211,-0.892088,-21.035782,33.77251,11.847737,5.6064005,4.832413,-15.707266
214,4.617091178894043,144.18408203125,73.4907455444336,0.31312570633575443,-0.5322509929236349,-97.39765102153088,-9.805173,-1.3281014,2.1513298,50.301426,-31.886484,3.9480505,-36.326195,-3.5555842,-2.9111235,72.89407,-15.421078,-6.590873,0.4468293,-2.1537774,12.416881,8.900896,23.587337,-27.501171,-9.614899,20.328955,5.8343043,11.718209,-1.3666286,-20.97457,33.905155,12.396326,4.484726,5.0517273,-15.620283
215,4.679298400878906,145.1188507080078,73.43309783935547,0.3585550911937689,-0.8861345303220887,-97.12345340881701,-10.41029,-1.412883,1.9392033,50.575455,-32.01796,3.93645,-35.06318,-3.721085,-2.2696617,75.06414,-16.208307,-6.56706,0.54815346,-2.072674,12.575748,8.986684,23.374641,-27.273289,-10.401445,20.104055,5.710703,11.777309,-1.8113631,-20.956131,34.069057,12.968264,3.349179,5.238347,-15.523286
216,4.741511344909668,146.04388427734375,73.38078308105469,0.4308328055232193,-1.1675633913809793,-96.84549484220557,-11.036495,-1.5421437,1.7322224,50.71105,-32.079803,3.9408371,-33.757084,-3.803286,-1.5579872,76.961136,-16.879442,-6.3788786,0.6507204,-2.006081,12.647397,9.061765,23.118793,-27.052364,-11.201923,19.6695,5.582305,11.819052,-2.242906,-20.980576,34.284096,13.590433,2.2767172,5.326976,-15.449134
217,4.795817852020264,146.96498107910156,73.33950805664062,0.5418664271606728,-1.3650663318899756,-96.56978027783542,-11.694937,-1.7318494,1.5375689,50.703854,-32.073063,3.966301,-32.4187,-3.785225,-0.7295324,78.588455,-17.431751,-5.9652915,0.76094234,-1.9667302,12.619674,9.134729,22.82665,-26.832453,-12.034043,18.860691,5.4411902,11.851709,-2.6888368,-21.055025,34.578255,14.276502,1.2737991,5.281802,-15.413751
218,4.847115993499756,147.88259887695312,73.30980682373047,0.6811174383256096,-1.5060847338108911,-96.27917058528071,-12.358792,-1.9742326,1.3370918,50.56464,-32.002506,4.0115495,-31.00324,-3.6523573,0.21699952,79.95367,-17.864904,-5.3078084,0.86317444,-1.9432575,12.515732,9.242878,22.498941,-26.595861,-12.947904,17.702513,5.2710905,11.871261,-3.127579,-21.182621,34.931858,14.998128,0.30667064,5.1449466,-15.402006
219,4.894190788269043,148.79049682617188,73.29100036621094,0.8309954283125282,-1.5965059072093306,-95.97362628573828,-13.018996,-2.2381837,1.1317171,50.29111,-31.86156,4.065809,-29.519573,-3.4649868,1.1670859,81.06432,-18.20663,-4.5603666,0.95915794,-1.9206339,12.352605,9.355143,22.147007,-26.368217,-13.89854,16.538914,5.1037955,11.861007,-3.506886,-21.351824,35.29077,15.730017,-0.61112976,4.968153,-15.398475
220,4.944601058959961,149.69422912597656,73.28423309326172,0.9767576872438526,-1.6416432602140612,-95.6533350318244,-13.666536,-2.4935672,0.922255,49.88049,-31.642813,4.1183896,-27.984262,-3.2851148,2.0136607,81.926796,-18.477535,-3.8798559,1.0538592,-1.8875211,12.145911,9.439937,21.789227,-26.177473,-14.841283,15.711109,4.9724483,11.808698,-3.7788985,-21.54151,35.59657,16.457798,-1.4689937,4.8023367,-15.384698
221,4.974910259246826,150.59466552734375,73.2909927368164,1.1234399604019818,-1.6308728407429525,-95.3161414800084,-14.271702,-2.744556,0.71268135,49.261047,-31.39892,4.179217,-26.405851,-3.1335864,2.7558367,82.55367,-18.703455,-3.3091428,1.1450244,-1.856189,11.877687,9.514392,21.440166,-26.027176,-15.799734,15.291408,4.9009743,11.702168,-3.95614,-21.737707,35.851524,17.19959,-2.2855067,4.6380343,-15.339253
222,4.983802795410156,151.48583984375,73.32305908203125,1.2785945857074301,-1.5656643261123693,-94.96217203014531,-14.844866,-3.0060952,0.50349927,48.452938,-31.113613,4.2491703,-24.781887,-2.9833248,3.4506943,82.94179,-18.863667,-2.7707567,1.2330779,-1.8360548,11.546728,9.597726,21.105217,-25.90262,-16.800482,15.0983095,4.868043,11.554916,-4.0669303,-21.936312,36.078716,17.973816,-3.0636952,4.454371,-15.276561
223,4.985649108886719,152.37159729003906,73.3840560913086,1.4291287943628377,-1.4693862728863119,-94.59635847102724,-15.440634,-3.26337,0.2895703,47.594196,-30.678036,4.304771,-23.11821,-2.8230708,4.084092,83.07544,-18.900864,-2.2411408,1.3279399,-1.8112211,11.192882,9.662525,20.788923,-25.804565,-17.804852,15.092731,4.8391843,11.394033,-4.0841765,-22.12799,36.24835,18.76586,-3.772251,4.285397,-15.2294855
224,4.970425128936768,153.27374267578125,73.4646224975586,1.563692079863605,-1.3648574769867663,-94.22380940296846,-16.115124,-3.5014026,0.0654966,46.824383,-29.98308,4.3235426,-21.421337,-2.639142,4.643328,82.93866,-18.757666,-1.6953185,1.4425899,-1.7663879,10.855137,9.674952,20.494808,-25.73778,-18.765202,15.234927,4.7783933,11.247823,-3.9797223,-22.300941,36.326843,19.563152,-4.381539,4.166049,-15.229315
225,4.961583137512207,154.18344116210938,73.57453918457031,1.6987795848151566,-1.2372270405167693,-93.84909558325816,-16.941051,-3.731926,-0.15177345,46.244667,-28.971346,4.3179965,-19.702438,-2.459083,5.1326904,82.53484,-18.447134,-1.1328583,1.5856445,-1.7156962,10.520851,9.632358,20.224707,-25.70831,-19.684097,15.621283,4.6701975,11.134785,-3.735122,-22.443943,36.289738,20.3668,-4.933893,4.1007276,-15.2803955
226,4.935713291168213,155.10748291015625,73.70689392089844,1.833583290102726,-1.0811062522301036,-93.46904567549102,-17.8702,-3.9603326,-0.3637293,45.759434,-27.709606,4.295876,-17.960875,-2.2794862,5.5668426,81.87265,-17.988625,-0.56702167,1.7499434,-1.6650304,10.174312,9.551085,19.980083,-25.7126,-20.580313,16.235579,4.5347066,11.038589,-3.3757622,-22.552197,36.15921,21.196686,-5.4320745,4.072913,-15.365363
227,4.899381160736084,156.0279998779297,73.87702178955078,1.9372185284493115,-0.9324814368345363,-93.07667677169982,-18.78012,-4.1600027,-0.6076773,45.216324,-26.276741,4.226892,-16.18561,-2.037421,5.9522357,80.94788,-17.338076,0.008407002,1.9228369,-1.5859878,9.849346,9.429497,19.763643,-25.739004,-21.434254,16.870861,4.391803,10.933608,-2.9400759,-22.62522,35.974022,22.066933,-5.7849092,4.085802,-15.482105
228,4.852030277252197,156.9690704345703,74.0655746459961,1.9792654194345531,-0.8267433184366854,-92.66516388797106,-19.548998,-4.3035088,-0.92524874,44.46482,-24.75239,4.07899,-14.363437,-1.6688516,6.2993298,79.75252,-16.453451,0.601079,2.0909724,-1.4491359,9.579915,9.267444,19.57879,-25.77553,-22.23068,17.319761,4.261656,10.792516,-2.464916,-22.665627,35.773228,22.988497,-5.901133,4.142284,-15.6291065
229,4.785687446594238,157.92539978027344,74.2841567993164,1.9327830108563273,-0.780655013578828,-92.23730086809981,-20.141962,-4.3588285,-1.3508343,43.482285,-23.16985,3.8258386,-12.453707,-1.0970712,6.6371098,78.23769,-15.28219,1.2780123,2.2606163,-1.2290478,9.381622,9.05598,19.431011,-25.82318,-22.964241,17.5475,4.1532183,10.590356,-1.9280846,-22.67102,35.540237,23.96125,-5.7618146,4.2525606,-15.828176
230,4.723219394683838,158.8866424560547,74.5273666381836,1.8218403627846005,-0.7708980639051465,-91.79536726926426,-20.626724,-4.347463,-1.8640994,42.345684,-21.484797,3.4887877,-10.476797,-0.373074,6.974855,76.42433,-13.865843,2.0148048,2.4343197,-0.9480588,9.233231,8.80463,19.322105,-25.885363,-23.65275,17.656332,4.0553746,10.347547,-1.3212638,-22.638844,35.26541,24.9797,-5.4132133,4.41033,-16.073202
231,4.639551639556885,159.8424530029297,74.80015563964844,1.685319673830437,-0.7736641622507681,-91.33269528684833,-21.031975,-4.3207445,-2.4256198,41.048744,-19.657053,3.105638,-8.513839,0.37556267,7.2868032,74.412674,-12.294984,2.6825256,2.5913293,-0.64760643,9.113506,8.53696,19.24791,-25.950882,-24.304777,17.644701,3.9583373,10.103354,-0.70405394,-22.576603,35.0004,26.049162,-4.860981,4.592617,-16.322433
232,4.5467400550842285,160.80909729003906,75.09459686279297,1.564864551965572,-0.7657593147734811,-90.84246298761501,-21.384754,-4.328334,-2.9935646,39.583874,-17.645136,2.713923,-6.6472635,1.019598,7.5310936,72.30403,-10.654975,3.1517732,2.7084491,-0.36650592,9.003082,8.277289,19.199589,-26.00553,-24.929121,17.51286,3.8519483,9.895425,-0.13363919,-22.497835,34.799225,27.167017,-4.109719,4.7784767,-16.53443
233,4.443202018737793,161.81558227539062,75.39210510253906,1.457322319460606,-0.7621752340783957,-90.29734027552163,-21.631912,-4.38054,-3.5996482,37.878155,-15.436743,2.3021722,-4.8489227,1.6007224,7.7118545,70.06002,-8.871447,3.4241831,2.7661881,-0.095843576,8.911011,8.014449,19.169727,-26.05858,-25.50633,17.221634,3.7254002,9.728559,0.39639077,-22.411228,34.670837,28.349623,-3.0571911,4.9661193,-16.74113
234,4.406759738922119,162.79978942871094,75.69769287109375,1.3448750975644446,-0.7681573480729891,-89.70948562870728,-21.77645,-4.4442244,-4.259605,35.956837,-13.054622,1.8555297,-3.093523,2.1602962,7.838806,67.65289,-6.929748,3.555561,2.7798278,0.18405159,8.844126,7.7371817,19.155539,-26.112373,-26.0321,16.786764,3.5871975,9.581867,0.9151835,-22.32026,34.589516,29.581465,-1.7326353,5.164447,-16.952654
235,4.323538303375244,163.8235626220703,76.00524139404297,1.2430621467512457,-0.7466774038882648,-89.1319720220845,-21.93387,-4.508703,-4.9020348,33.964615,-10.50941,1.4058998,-1.4686122,2.5717893,7.852325,65.202126,-5.0033855,3.4939256,2.7792544,0.45157585,8.781134,7.4686303,19.155268,-26.142263,-26.542288,16.290195,3.4550219,9.454356,1.3991753,-22.232285,34.55584,30.81645,-0.33637953,5.3685756,-17.095514
236,4.227097511291504,164.8706512451172,76.30889129638672,1.1728368404528242,-0.6614462351349495,-88.61801757793387,-22.217072,-4.5684314,-5.45113,32.03799,-7.8035727,0.98434633,-0.059519432,2.7153962,7.678551,62.823708,-3.2655742,3.1886694,2.7926116,0.6852364,8.701713,7.235298,19.168283,-26.120163,-27.074549,15.8135805,3.3456957,9.345246,1.8245565,-22.156336,34.57259,32.005825,0.9316975,5.5790267,-17.095287
237,4.134213924407959,165.95196533203125,76.58348083496094,1.1408746381637498,-0.4993880836168506,-88.1821559357107,-22.664444,-4.63251,-5.898495,30.192673,-4.829973,0.6092349,1.082109,2.5472152,7.2405877,60.575333,-1.6569965,2.5545948,2.8290782,0.87632257,8.601294,7.0335345,19.19278,-26.038671,-27.625433,15.372028,3.2705877,9.262182,2.1773956,-22.100498,34.651676,33.15333,2.1151464,5.8219123,-16.908545
238,4.044307708740234,167.04298400878906,76.84151458740234,1.1366692822156634,-0.28300738319982055,-87.79588774220183,-23.209309,-4.7024636,-6.2789903,28.354761,-1.6151925,0.2583156,2.0185397,2.1562617,6.554108,58.394,-0.1439351,1.6480961,2.870328,1.0394014,8.493304,6.8565474,19.230238,-25.908508,-28.183136,14.9242325,3.2175937,9.202679,2.4728541,-22.062653,34.79013,34.276512,3.2887805,6.096125,-16.584255
239,3.960800886154175,168.16033935546875,77.06842041015625,1.1451335000370966,-0.02965259747530983,-87.44836928874241,-23.813011,-4.762055,-6.579973,26.539843,1.6307467,-0.09752147,2.8405619,1.6384107,5.695846,56.20582,1.064751,0.64818704,2.9115968,1.1921892,8.38483,6.7160573,19.280758,-25.739986,-28.767277,14.468567,3.1684916,9.15161,2.7441626,-22.051441,34.95759,35.331635,4.3009596,6.361473,-16.182655
240,3.8802490234375,169.30276489257812,77.24943542480469,1.1485656806728468,0.2432091310929499,-87.12937322849025,-24.436615,-4.79021,-6.7923875,24.76437,4.697663,-0.48772565,3.6386824,1.1013336,4.766322,53.928944,1.7820051,-0.24812916,2.9477665,1.3544087,8.283936,6.62755,19.347208,-25.541533,-29.405428,14.002593,3.105231,9.093761,3.0263557,-22.0748,35.124043,36.27191,5.0004582,6.5729847,-15.761521
