unveil-humanoid-operators/unveil-humanoid-operators.github.io/feature-analysis-animation/data/feature_matrix_instances/age_waist_mean_vel_jogging_A042_jog_sideway_045_start_005__A042.csv
Frame,root_translateX,root_translateY,root_translateZ,root_rotateX,root_rotateY,root_rotateZ,left_hip_pitch_joint_dof,left_hip_roll_joint_dof,left_hip_yaw_joint_dof,left_knee_joint_dof,left_ankle_pitch_joint_dof,left_ankle_roll_joint_dof,right_hip_pitch_joint_dof,right_hip_roll_joint_dof,right_hip_yaw_joint_dof,right_knee_joint_dof,right_ankle_pitch_joint_dof,right_ankle_roll_joint_dof,waist_yaw_joint_dof,waist_roll_joint_dof,waist_pitch_joint_dof,left_shoulder_pitch_joint_dof,left_shoulder_roll_joint_dof,left_shoulder_yaw_joint_dof,left_elbow_joint_dof,left_wrist_roll_joint_dof,left_wrist_pitch_joint_dof,left_wrist_yaw_joint_dof,right_shoulder_pitch_joint_dof,right_shoulder_roll_joint_dof,right_shoulder_yaw_joint_dof,right_elbow_joint_dof,right_wrist_roll_joint_dof,right_wrist_pitch_joint_dof,right_wrist_yaw_joint_dof
0,-0.1716517060995102,2.0628793239593506,78.32643127441406,0.4625926732733811,0.9083123390616569,-89.03659417154691,-3.5191095,4.3380523,-7.2418184,7.9992175,-8.2671175,-6.6365232,-2.7692301,-6.3702035,-5.9172096,13.39016,-8.919489,2.1020076,-0.44392845,0.2865936,3.6581893,7.70618,16.006876,-26.602806,54.933964,15.251868,5.135988,6.953637,-0.3854362,-19.879107,46.068386,54.229206,-12.194079,7.45023,-8.592487
1,-0.1700657606124878,2.0713415145874023,78.31974029541016,0.4781255320682933,0.9074639029773242,-89.03120932589559,-3.5194294,4.319006,-7.2458897,7.98874,-8.261742,-6.6275406,-2.848158,-6.395111,-5.8997545,13.551727,-8.989701,2.077493,-0.43634832,0.27395943,3.6715128,7.715278,16.008615,-26.587542,54.90886,15.264538,5.140112,6.9586883,-0.36990124,-19.898163,46.051476,54.192577,-12.179818,7.4535127,-8.590111
2,-0.17466101050376892,2.0766191482543945,78.31817626953125,0.49175756963643596,0.9060232745465808,-89.02623369506847,-3.5172007,4.302727,-7.248168,7.975264,-8.256433,-6.6233287,-2.924498,-6.417212,-5.8813577,13.709771,-9.057535,2.0518267,-0.42920825,0.2630763,3.6812685,7.723989,16.008965,-26.575325,54.888145,15.276265,5.144833,6.9636784,-0.36347336,-19.906183,46.03996,54.17511,-12.160437,7.4546356,-8.589523
3,-0.17585742473602295,2.08298921585083,78.31791687011719,0.5088644132903455,0.9055994235019081,-89.02013940531724,-3.5172436,4.281581,-7.2541275,7.961795,-8.247635,-6.6097026,-3.0021825,-6.443618,-5.8655353,13.867453,-9.125949,2.0286179,-0.42363578,0.24805309,3.6930246,7.731921,16.00932,-26.5583,54.867382,15.287975,5.1480794,6.9700603,-0.35605523,-19.914848,46.025146,54.154495,-12.149692,7.457267,-8.587655
4,-0.1785648912191391,2.090308904647827,78.3161392211914,0.5254722395988064,0.9048243461699415,-89.00834654222913,-3.535473,4.255716,-7.2755566,7.980401,-8.24783,-6.5740595,-3.0711627,-6.4697766,-5.8626966,14.006982,-9.187934,2.0094543,-0.42248258,0.23401713,3.7068276,7.7334437,16.009485,-26.54644,54.855713,15.284016,5.146259,6.9822006,-0.34904394,-19.919355,46.01475,54.136627,-12.145831,7.4610505,-8.586528
5,-0.17807812988758087,2.1031994819641113,78.31322479248047,0.5533152407022421,0.9038387457769379,-88.99650926858436,-3.5621736,4.213255,-7.305915,8.014069,-8.24468,-6.503236,-3.1414177,-6.510175,-5.866537,14.147325,-9.256449,1.9998646,-0.42248964,0.2062122,3.7329872,7.7287097,16.01066,-26.517555,54.846157,15.279792,5.135745,6.9935513,-0.3312114,-19.931019,45.987587,54.09432,-12.182505,7.4687433,-8.575628
6,-0.1838170439004898,2.1094472408294678,78.31208038330078,0.5820337300309542,0.9005168742600311,-88.98213204021752,-3.6005905,4.1657634,-7.347422,8.074896,-8.248561,-6.4086194,-3.1961296,-6.551362,-5.8809967,14.260301,-9.315636,1.9955676,-0.42341447,0.17808391,3.7605064,7.719498,16.01287,-26.497719,54.845127,15.257677,5.120409,7.0098886,-0.30959758,-19.944263,45.964645,54.050957,-12.23141,7.478856,-8.563443
7,-0.1914345622062683,2.121500015258789,78.31233978271484,0.6111948385389752,0.9022785073840361,-88.95996337485478,-3.6498523,4.1150208,-7.401249,8.136598,-8.248587,-6.30806,-3.259302,-6.594535,-5.903671,14.378044,-9.374077,1.9909005,-0.42885742,0.14975458,3.7856688,7.7042446,16.014812,-26.482271,54.849323,15.227283,5.1042585,7.0330324,-0.29123497,-19.951792,45.94529,54.012707,-12.267866,7.4885387,-8.557172
8,-0.2021225094795227,2.1381587982177734,78.3109130859375,0.637397209615695,0.9151077124033566,-88.92367016984586,-3.712389,4.065991,-7.4705095,8.183864,-8.240435,-6.2198305,-3.3470974,-6.6363854,-5.9344482,14.519829,-9.434048,1.9796574,-0.4387442,0.1233179,3.8139617,7.6763554,16.018171,-26.460508,54.8517,15.206309,5.089447,7.0602856,-0.27415144,-19.959818,45.9131,53.965004,-12.2773905,7.4938345,-8.558989
9,-0.21335987746715546,2.1558332443237305,78.30940246582031,0.6580983849757017,0.9396045340752095,-88.87515169601076,-3.7847185,4.023504,-7.5537133,8.21017,-8.227891,-6.1517653,-3.4586713,-6.6719,-5.970313,14.682664,-9.491502,1.9611917,-0.45791817,0.10340215,3.8353457,7.641903,16.02097,-26.441626,54.858154,15.180183,5.075085,7.1001377,-0.26926035,-19.963566,45.88635,53.925396,-12.231512,7.494234,-8.578251
10,-0.2251899540424347,2.1795873641967773,78.31010437011719,0.675687494520049,0.9726041971976417,-88.81662485583645,-3.864894,3.9839394,-7.6498337,8.220894,-8.209596,-6.0929065,-3.5851593,-6.7039285,-6.012473,14.855351,-9.5447,1.9386194,-0.47981206,0.08361132,3.862155,7.592676,16.026932,-26.414293,54.867718,15.159358,5.0580544,7.1443653,-0.2683165,-19.968037,45.84166,53.877697,-12.162964,7.4904437,-8.604786
11,-0.23972781002521515,2.208482503890991,78.30835723876953,0.6897998803622585,1.0157187946560935,-88.74166220890761,-3.9681711,3.94312,-7.765326,8.236775,-8.18335,-6.033584,-3.7391682,-6.7384424,-6.0677986,15.061045,-9.608251,1.9115696,-0.5064167,0.068966344,3.8907304,7.536289,16.034657,-26.386469,54.868153,15.145486,5.0460515,7.189427,-0.26440597,-19.971153,45.790962,53.82446,-12.084447,7.4829698,-8.633918
12,-0.25099021196365356,2.2460873126983643,78.30562591552734,0.6902094503170291,1.0708065197554355,-88.64308778738689,-4.2583566,3.8862796,-7.919727,8.594712,-8.313562,-5.9652157,-3.9212575,-6.7689295,-6.148117,15.29797,-9.682927,1.877869,-0.54225725,0.074516706,3.9184942,7.474524,16.041214,-26.357702,54.854492,15.14341,5.0444784,7.230339,-0.25858864,-19.972876,45.742752,53.77689,-12.007942,7.470098,-8.659699
13,-0.26342394948005676,2.290231466293335,78.29759216308594,0.6898664730638141,1.1398761288005679,-88.51953635724693,-4.6349044,3.8128142,-8.106284,9.073877,-8.4784565,-5.8778887,-4.1332,-6.8085346,-6.254168,15.564587,-9.767786,1.8305117,-0.58107305,0.08117216,3.9556425,7.394731,16.051146,-26.321104,54.82559,15.163055,5.054085,7.2568383,-0.23768716,-19.975275,45.669952,53.7113,-11.951198,7.4464946,-8.679969
14,-0.2712627351284027,2.339413642883301,78.28447723388672,0.6891044253055424,1.2214899968207826,-88.37447105375307,-5.0752926,3.7263901,-8.319532,9.634708,-8.66371,-5.7788143,-4.371293,-6.8551555,-6.3807664,15.856104,-9.859319,1.7728392,-0.6225498,0.09014126,3.995812,7.302184,16.063784,-26.285818,54.785175,15.193311,5.0730696,7.2768774,-0.20570295,-19.978748,45.58284,53.6348,-11.897321,7.414759,-8.699938
15,-0.27698463201522827,2.3928987979888916,78.27268981933594,0.6880692489375619,1.3105744732718034,-88.21028679564999,-5.5564194,3.6275308,-8.550856,10.242116,-8.859067,-5.683372,-4.6344924,-6.9123816,-6.5205836,16.181108,-9.962669,1.7211611,-0.66190904,0.10487365,4.045818,7.2024837,16.080023,-26.246998,54.72447,15.244643,5.097924,7.2944613,-0.16747963,-19.985647,45.477673,53.55096,-11.859042,7.3838816,-8.707921
16,-0.27474892139434814,2.456350564956665,78.25607299804688,0.6864019589550422,1.4014740163060457,-88.03005958030096,-6.0694084,3.514953,-8.791885,10.893437,-9.065637,-5.607184,-4.9212947,-6.9830017,-6.665741,16.548567,-10.083003,1.6914665,-0.7022012,0.13068707,4.1098,7.1037498,16.093733,-26.19319,54.63843,15.33076,5.1274047,7.315576,-0.13175496,-19.99624,45.366173,53.46571,-11.845466,7.3666744,-8.695315
17,-0.2664811313152313,2.526898145675659,78.2373046875,0.6848898365724515,1.4971822075993184,-87.83003950303302,-6.6134224,3.3864908,-9.044532,11.576673,-9.2765465,-5.562536,-5.2358274,-7.069502,-6.8180866,16.959568,-10.220996,1.6949304,-0.7355683,0.16610628,4.196937,6.9974318,16.11393,-26.127089,54.518246,15.470921,5.172403,7.330711,-0.080418125,-20.0278,45.20964,53.3434,-11.886565,7.3757834,-8.641241
18,-0.2508918344974518,2.6038687229156494,78.21206665039062,0.683927356188209,1.5989728024635093,-87.61024250388579,-7.197676,3.2407417,-9.310968,12.3086605,-9.498591,-5.5398283,-5.578882,-7.1702724,-6.9799676,17.414244,-10.37679,1.7203825,-0.7800042,0.21319665,4.293837,6.8861585,16.124308,-26.043146,54.38264,15.652672,5.2308946,7.3451433,-0.032940373,-20.06384,45.048874,53.21814,-11.9557495,7.403245,-8.562044
19,-0.23236298561096191,2.6749515533447266,78.18318176269531,0.6830628489046029,1.6989140388067767,-87.37861394926894,-7.817393,3.0790114,-9.5833,13.107322,-9.745082,-5.5225415,-5.9432173,-7.284375,-7.144749,17.91655,-10.552571,1.7506716,-0.81799763,0.27143276,4.4065433,6.7741046,16.12874,-25.94558,54.226856,15.848781,5.2757955,7.368397,0.015133349,-20.112478,44.8879,53.091427,-12.025316,7.4224687,-8.480376
20,-0.20369742810726166,2.762158155441284,78.1460189819336,0.6813193078228619,1.78941589253455,-87.14277059956886,-8.470434,2.9025407,-9.8540945,13.99506,-10.031481,-5.494619,-6.322722,-7.409764,-7.3059044,18.472744,-10.75217,1.7685392,-0.84122866,0.34593877,4.541586,6.671607,16.127163,-25.832514,54.041195,16.03036,5.2803483,7.411097,0.075242124,-20.205822,44.747757,52.94202,-12.05679,7.4090466,-8.419328
21,-0.16832058131694794,2.8574419021606445,78.10052490234375,0.6820848112270784,1.8728863119241579,-86.9021251517595,-9.163924,2.700253,-10.126202,14.98184,-10.369004,-5.434025,-6.7237744,-7.5503683,-7.461125,19.089182,-10.976828,1.7645924,-0.8571626,0.43178615,4.6935177,6.5850425,16.1172,-25.698095,53.82917,16.182867,5.2297897,7.4772124,0.12575597,-20.317913,44.649414,52.810444,-12.031821,7.3467455,-8.392412
22,-0.12086255848407745,2.9528110027313232,78.05103302001953,0.6838879953689921,1.9520012693194644,-86.65349408921949,-9.890694,2.4739833,-10.400398,16.042315,-10.743729,-5.358659,-7.148258,-7.7058387,-7.6135235,19.763582,-11.225053,1.749295,-0.86657846,0.52947706,4.862322,6.506317,16.099823,-25.545153,53.593437,16.323973,5.1410375,7.5606537,0.1728918,-20.450537,44.575047,52.684975,-11.9738455,7.2521067,-8.38405
23,-0.07185659557580948,3.044893264770508,77.99697875976562,0.6794197454577078,2.0195602490924727,-86.40046273576176,-10.64363,2.2408617,-10.666867,17.180527,-11.141013,-5.3123918,-7.57478,-7.8660665,-7.7661543,20.47149,-11.491576,1.7348824,-0.86963594,0.6456823,5.0496416,6.438675,16.075743,-25.36871,53.32931,16.476368,5.035234,7.6600304,0.21875848,-20.605446,44.520485,52.556355,-11.901396,7.1476,-8.382805
24,-0.013627616688609123,3.1440589427948,77.93585968017578,0.6617966804851505,2.0685239512158398,-86.14653620804339,-11.409036,2.0190594,-10.915169,18.386206,-11.542692,-5.338952,-7.982119,-8.022049,-7.9221363,21.188923,-11.77095,1.7340902,-0.867645,0.7863668,5.256524,6.386376,16.045708,-25.162355,53.032135,16.66325,4.9336576,7.773676,0.26450396,-20.784817,44.483307,52.417747,-11.833239,7.055622,-8.37757
25,0.05594410374760628,3.238848924636841,77.86572265625,0.622080099454042,2.0978966166734194,-85.89563254762265,-12.189504,1.8065966,-11.15391,19.66413,-11.963588,-5.446603,-8.365135,-8.162876,-8.083299,21.903982,-12.05953,1.749066,-0.85446924,0.96688944,5.488638,6.347695,16.009897,-24.920721,52.69085,16.907623,4.8395076,7.887209,0.3172869,-20.991835,44.45454,52.259544,-11.782949,6.9804015,-8.367912
26,0.1292857676744461,3.342129707336426,77.78616333007812,0.5667299396487703,2.1115760501933702,-85.64483396550081,-12.992733,1.5917733,-11.381958,21.022926,-12.411169,-5.617241,-8.736539,-8.297199,-8.247438,22.634058,-12.362037,1.7733006,-0.8313743,1.1793375,5.744112,6.321265,15.968567,-24.648453,52.310066,17.191587,4.7424355,8.006027,0.3769615,-21.228243,44.43721,52.08255,-11.737315,6.910685,-8.358566
27,0.20609712600708008,3.4438724517822266,77.6978530883789,0.5110268041385954,2.109671584307543,-85.38785365080076,-13.80457,1.3816979,-11.574813,22.440783,-12.856443,-5.8541546,-9.099667,-8.444066,-8.412327,23.39438,-12.68482,1.8067769,-0.81135154,1.3941287,6.012854,6.3115373,15.922948,-24.354134,51.908405,17.476473,4.6437635,8.158668,0.4311645,-21.492682,44.447285,51.898342,-11.675623,6.84576,-8.346279
28,0.2866334319114685,3.5363879203796387,77.60164642333984,0.4705307263321206,2.092113165588016,-85.11862271270752,-14.612627,1.1856993,-11.70942,23.89869,-13.270642,-6.1588125,-9.458871,-8.622728,-8.575281,24.201857,-13.034916,1.8497735,-0.80795,1.5811667,6.284503,6.324387,15.874692,-24.045063,51.503616,17.72423,4.5449734,8.373226,0.46578425,-21.781199,44.502064,51.721714,-11.577217,6.7845345,-8.32802
29,0.36818283796310425,3.6295738220214844,77.50275421142578,0.4403198351359265,2.0570398577663322,-84.83423368574582,-15.414146,1.000362,-11.795887,25.382359,-13.630274,-6.6123743,-9.810526,-8.8270445,-8.738267,25.05537,-13.408974,1.9050682,-0.8242504,1.7446291,6.5631976,6.366394,15.8221445,-23.710669,51.09368,17.931555,4.44195,8.6797695,0.47512057,-22.091612,44.608364,51.55101,-11.423727,6.723374,-8.292978
30,0.45765185356140137,3.732548236846924,77.38955688476562,0.4156076888970709,2.0052687511172556,-84.53818222739739,-16.216616,0.82146144,-11.839121,26.90593,-13.963843,-7.1893544,-10.154241,-9.051094,-8.90157,25.948402,-13.805388,1.9722207,-0.8547841,1.895142,6.8516235,6.4336214,15.764604,-23.349245,50.67105,18.117409,4.3358946,9.055683,0.46421516,-22.422808,44.75882,51.384624,-11.230621,6.6639657,-8.246432
31,0.5558911561965942,3.813776731491089,77.28202056884766,0.41140133760273,1.940274011163501,-84.23393110718065,-17.025488,0.6628156,-11.812903,28.499012,-14.308046,-7.7252827,-10.49236,-9.311279,-9.061518,26.876747,-14.226212,2.046373,-0.89914924,2.013258,7.1377487,6.516757,15.707081,-22.983473,50.2446,18.274878,4.235519,9.449367,0.435354,-22.770306,44.949707,51.23843,-11.027334,6.6126876,-8.209357
32,0.6572322249412537,3.8861613273620605,77.16539764404297,0.4404140386972429,1.865216806988603,-83.9249083933277,-17.840382,0.5461404,-11.6963825,30.178041,-14.690133,-8.050155,-10.830394,-9.622426,-9.214362,27.84393,-14.678972,2.122207,-0.955842,2.08118,7.4102197,6.6091223,15.658145,-22.636873,49.818764,18.396288,4.1491723,9.808605,0.38988882,-23.126345,45.176994,51.128117,-10.842856,6.5759516,-8.202944
33,0.7634823322296143,3.9719555377960205,77.0408706665039,0.5066048325998992,1.776235642998035,-83.60140439523936,-18.665092,0.4779559,-11.488896,31.963362,-15.119359,-8.085735,-11.15668,-9.992129,-9.37282,28.841658,-15.166508,2.1953053,-1.0317501,2.091112,7.6723194,6.7200994,15.623169,-22.305449,49.3772,18.457758,4.0877132,10.135635,0.31826204,-23.485443,45.463623,51.068123,-10.67695,6.5519886,-8.242924
34,0.861963152885437,4.033487319946289,76.9180908203125,0.5994818822523553,1.6724014543668162,-83.2656621467379,-19.492325,0.46113887,-11.208649,33.827415,-15.567144,-7.9235234,-11.470921,-10.407903,-9.534335,29.869907,-15.682149,2.2687917,-1.1256192,2.0537105,7.9282947,6.8557925,15.6032295,-21.978941,48.91585,18.469196,4.0431905,10.45142,0.21694452,-23.844551,45.806484,51.054497,-10.51698,6.537856,-8.31531
35,0.9645013213157654,4.096035003662109,76.78878021240234,0.7109907285906298,1.5606580974669135,-82.93887464827029,-20.301504,0.51716167,-10.868036,35.710606,-15.998418,-7.644995,-11.78433,-10.851333,-9.674902,30.920128,-16.211721,2.3490744,-1.2215407,1.9794393,8.168176,7.0034833,15.6012,-21.672995,48.458023,18.472887,3.9959238,10.732039,0.0998111,-24.198503,46.15796,51.074738,-10.375894,6.537961,-8.396989
36,1.07407546043396,4.15168571472168,76.65350341796875,0.8332861892782468,1.4483633313779483,-82.6423966456362,-21.071352,0.66728276,-10.474885,37.551853,-16.377985,-7.332924,-12.101981,-11.301995,-9.770459,31.968637,-16.730804,2.4429224,-1.3007835,1.8776972,8.381837,7.1486254,15.621236,-21.407116,48.02816,18.510242,3.926552,10.953873,-0.017220994,-24.541286,46.46667,51.116116,-10.267116,6.5567894,-8.464746
37,1.1820014715194702,4.202171802520752,76.51810455322266,0.9703879018897585,1.3391879548303995,-82.36967435201932,-21.808163,0.9387309,-9.991737,39.351955,-16.695393,-6.9773626,-12.423943,-11.763,-9.82332,33.014652,-17.240196,2.556338,-1.3660666,1.7426804,8.5609865,7.288161,15.668274,-21.19955,47.63908,18.568504,3.8226871,11.098771,-0.13899818,-24.868547,46.737976,51.192547,-10.186303,6.5944915,-8.507351
38,1.294189691543579,4.250147819519043,76.37757873535156,1.123758415486621,1.2284301357245102,-82.113717703087,-22.518211,1.3254344,-9.435243,41.137268,-16.972805,-6.53268,-12.74515,-12.238773,-9.8446455,34.062782,-17.7472,2.685444,-1.4221035,1.571139,8.712746,7.4312744,15.743543,-21.038439,47.272606,18.631811,3.6970506,11.182595,-0.27211156,-25.177803,46.990437,51.309277,-10.129413,6.6486273,-8.539175
39,1.412606120109558,4.292102336883545,76.23193359375,1.2839882882009206,1.1113296189971555,-81.89439837911037,-23.186148,1.7887329,-8.892861,42.895184,-17.228115,-6.0333953,-13.071082,-12.714238,-9.823008,35.11617,-18.248226,2.822903,-1.4539335,1.3748317,8.849172,7.5811,15.844219,-20.898418,46.90935,18.736774,3.5687225,11.234126,-0.40267408,-25.468184,47.190063,51.445305,-10.11396,6.7200794,-8.575515
40,1.5411407947540283,4.3304443359375,76.07965087890625,1.4421275914565785,0.9831206115921788,-81.73217780546106,-23.797443,2.282036,-8.44829,44.61335,-17.477098,-5.5211005,-13.410138,-13.175841,-9.745919,36.182552,-18.742239,2.9613829,-1.4445372,1.1668875,8.982912,7.7380004,15.964854,-20.755936,46.53246,18.920582,3.4567878,11.282211,-0.5120669,-25.740166,47.299694,51.574238,-10.1577215,6.8097854,-8.631293
41,1.6707284450531006,4.3668437004089355,75.92225646972656,1.6047682804522925,0.8447816264906465,-81.63272780152745,-24.352106,2.8054876,-8.091807,46.288067,-17.711472,-4.9790134,-13.769706,-13.6305685,-9.608974,37.269955,-19.22993,3.101496,-1.3862793,0.94080555,9.111871,7.8973784,16.101553,-20.617796,46.154045,19.18936,3.3653777,11.3287325,-0.5987556,-25.99381,47.317726,51.702297,-10.285781,6.9257016,-8.714602
42,1.8053905963897705,4.401125907897949,75.7576675415039,1.7738985870259554,0.6982154607089537,-81.58542004727742,-24.857622,3.3773,-7.7894,47.92558,-17.928375,-4.395399,-14.144352,-14.080511,-9.419167,38.372723,-19.712181,3.2472458,-1.288303,0.6947663,9.231367,8.057818,16.253603,-20.493452,45.782413,19.525524,3.2847626,11.361371,-0.6701234,-26.229406,47.260197,51.840363,-10.481793,7.065099,-8.815572
43,1.957106351852417,4.435693264007568,75.58628845214844,1.9345590611556989,0.540237549775772,-81.5855078020945,-25.31047,3.9711814,-7.583228,49.52248,-18.143204,-3.8270683,-14.520865,-14.50465,-9.181115,39.47311,-20.184479,3.395814,-1.1590809,0.44877708,9.350278,8.22292,16.421162,-20.36256,45.396465,19.929085,3.21292,11.387506,-0.7204712,-26.449074,47.116543,51.96723,-10.701594,7.2126126,-8.922249
44,2.1100008487701416,4.463230133056641,75.40524291992188,2.072162759314395,0.3677502450830085,-81.62817805746052,-25.706726,4.557339,-7.5134945,51.075993,-18.369072,-3.3341694,-14.888062,-14.88367,-8.898799,40.55741,-20.644587,3.543571,-1.0069714,0.22165139,9.47718,8.397783,16.604923,-20.20464,44.97313,20.400778,3.1481626,11.414524,-0.745593,-26.658066,46.877495,52.06274,-10.90005,7.3526506,-9.023005
45,2.277898073196411,4.494874954223633,75.21526336669922,2.1852963215202603,0.17235363878320614,-81.72399173668265,-26.035273,5.122746,-7.603431,52.592827,-18.614777,-2.9258366,-15.248054,-15.210499,-8.557102,41.644405,-21.097273,3.6855695,-0.82674605,0.016828693,9.620125,8.59062,16.805216,-20.016094,44.509556,20.950916,3.0844893,11.448278,-0.74002135,-26.85816,46.517365,52.11813,-11.095375,7.4905486,-9.10654
46,2.448925495147705,4.5273003578186035,75.01092529296875,2.281673886033253,-0.041580295110156124,-81.87134413447573,-26.30084,5.676523,-7.8221235,54.070232,-18.867018,-2.5802448,-15.607238,-15.496898,-8.158501,42.7372,-21.543438,3.8247793,-0.61526304,-0.17507756,9.773504,8.79735,17.022053,-19.807798,44.01521,21.575788,3.024575,11.483173,-0.7048503,-27.050625,46.04708,52.140774,-11.301363,7.6315312,-9.181259
47,2.628220558166504,4.551959991455078,74.80669403076172,2.3618625971606444,-0.2580733564884745,-82.04789939434208,-26.525028,6.2182455,-8.128842,55.49642,-19.106262,-2.3126435,-15.958277,-15.753214,-7.735133,43.793808,-21.973003,3.9695628,-0.3858913,-0.35340208,9.9262295,9.004942,17.255678,-19.580427,43.485023,22.25349,2.9799166,11.5097,-0.6415028,-27.240088,45.51158,52.125008,-11.46552,7.760333,-9.265117
48,2.8192691802978516,4.577547550201416,74.59925079345703,2.426145889281912,-0.4612919946302733,-82.23053340533347,-26.72784,6.7494464,-8.484094,56.85567,-19.31687,-2.137283,-16.29595,-15.99029,-7.31921,44.776325,-22.37814,4.128529,-0.15379862,-0.51782465,10.06709,9.202383,17.506247,-19.332172,42.912075,22.962984,2.961374,11.517767,-0.5522474,-27.433817,44.958366,52.06427,-11.534186,7.861719,-9.376558
49,3.0228755474090576,4.610523223876953,74.38684844970703,2.470157594764275,-0.6533261333545324,-82.42666957678308,-26.907454,7.277411,-8.891046,58.15944,-19.494413,-2.0893214,-16.614723,-16.198679,-6.913093,45.677387,-22.768375,4.301126,0.086267576,-0.6623748,10.199059,9.387716,17.774614,-19.059835,42.294266,23.747458,2.9757414,11.506164,-0.43767864,-27.636309,44.37461,51.944996,-11.472101,7.9401217,-9.512607
50,3.240187168121338,4.65115213394165,74.18147277832031,2.4957329319185173,-0.8405577300606922,-82.64364267331166,-27.054619,7.7933145,-9.3625965,59.413742,-19.650272,-2.155408,-16.921192,-16.3805,-6.5016074,46.52168,-23.147314,4.4842205,0.3385475,-0.7895195,10.326462,9.569305,18.060694,-18.76448,41.63307,24.602001,3.0152285,11.478627,-0.29374474,-27.849768,43.743,51.76749,-11.313971,8.00089,-9.665969
51,3.466510057449341,4.6984992027282715,73.98038482666016,2.5115805387996812,-1.0134309253680223,-82.85906946639419,-27.178461,8.28041,-9.872075,60.59493,-19.784258,-2.2726882,-17.217981,-16.553217,-6.0934367,47.301098,-23.487217,4.6811943,0.58569956,-0.9105472,10.441079,9.752358,18.361515,-18.449457,40.92537,25.435028,3.068446,11.432082,-0.11310498,-28.076813,43.10358,51.53954,-11.109483,8.029995,-9.848115
52,3.711787700653076,4.745769500732422,73.79095458984375,2.5262185045519128,-1.1622155818535072,-83.05074612696973,-27.290888,8.722466,-10.396144,61.68343,-19.898842,-2.3782158,-17.510277,-16.738352,-5.6956096,48.01191,-23.763277,4.895765,0.80779696,-1.0369773,10.534187,9.942212,18.672247,-18.115107,40.169056,26.156096,3.1241071,11.36407,0.107498325,-28.320091,42.50158,51.27294,-10.906687,8.013786,-10.070556
53,3.9783883094787598,4.793838977813721,73.61176300048828,2.543037543940554,-1.282062177934002,-83.2203762087224,-27.392624,9.113981,-10.944442,62.68039,-20.009338,-2.4655902,-17.814985,-16.938225,-5.2982764,48.674175,-23.97673,5.127924,1.0063155,-1.169986,10.599745,10.14315,18.99045,-17.749023,39.35247,26.743376,3.1847126,11.273186,0.36402372,-28.584105,41.94466,50.966625,-10.680578,7.9385185,-10.339004
54,4.246470928192139,4.852934837341309,73.4456558227539,2.5569817032721613,-1.3788567532053178,-83.37721722279393,-27.47798,9.462584,-11.523363,63.597378,-20.1121,-2.5663462,-18.124788,-17.145823,-4.900332,49.284718,-24.139793,5.3763127,1.1872504,-1.3030589,10.6438465,10.352228,19.315485,-17.352625,38.480865,27.24609,3.254027,11.161014,0.65775484,-28.87015,41.411083,50.610832,-10.417221,7.8147144,-10.645595
55,4.539855003356934,4.914605140686035,73.29586791992188,2.564699560768143,-1.4594075212717623,-83.51007876985115,-27.55017,9.775841,-12.103848,64.42743,-20.175508,-2.670284,-18.406567,-17.359423,-4.5231557,49.79759,-24.23815,5.640799,1.3379691,-1.4376379,10.674777,10.561759,19.644339,-16.947021,37.58029,27.680517,3.3230777,11.031189,0.99753475,-29.175074,40.901455,50.21241,-10.182962,7.6644588,-10.982198
56,4.844485282897949,4.976485729217529,73.17152404785156,2.565619503168888,-1.5303546941830755,-83.60773361087455,-27.613455,10.061283,-12.659016,65.16436,-20.169128,-2.7673702,-18.627783,-17.583832,-4.1870317,50.169205,-24.259014,5.9213977,1.4452922,-1.5735713,10.70047,10.76105,19.972471,-16.5537,36.679848,28.062832,3.382999,10.887489,1.3913019,-29.490429,40.417656,49.779778,-10.043882,7.510847,-11.341908
57,5.159637451171875,5.048249244689941,73.07222747802734,2.5593801258019395,-1.5921022176807311,-83.66024376560877,-27.67616,10.319371,-13.192706,65.81782,-20.098082,-2.8653998,-18.79042,-17.823797,-3.8953426,50.410866,-24.210035,6.217785,1.5032374,-1.7140045,10.717381,10.949242,20.30022,-16.163326,35.77233,28.399088,3.4345264,10.713781,1.8356565,-29.811779,39.962414,49.327763,-10.006475,7.3398504,-11.736175
58,5.495031356811523,5.125858783721924,72.99812316894531,2.546757605072649,-1.6416651236015896,-83.67595387142735,-27.73437,10.547565,-13.716234,66.388824,-19.974411,-2.9652796,-18.908651,-18.080069,-3.63637,50.53896,-24.094257,6.5292473,1.5189373,-1.8580214,10.721926,11.129341,20.628178,-15.769108,34.849842,28.68051,3.4815857,10.514276,2.3255696,-30.137,39.53433,48.854202,-10.040454,7.146689,-12.165314
59,5.856226921081543,5.219770431518555,72.9458236694336,2.5251319212007424,-1.6801110333354736,-83.67061718745279,-27.776493,10.748838,-14.215231,66.8584,-19.77731,-3.0463586,-18.969196,-18.340237,-3.4101024,50.515915,-23.890594,6.853588,1.4993536,-2.0008695,10.71982,11.29484,20.950138,-15.396237,33.944008,28.902077,3.521034,10.324821,2.8590496,-30.460508,39.131817,48.355865,-10.156464,6.9684,-12.606884
60,6.237462520599365,5.311595916748047,72.93196105957031,2.489910398782804,-1.7086393129716015,-83.66036127774386,-27.79083,10.927091,-14.674198,67.207504,-19.485048,-3.0868886,-18.956564,-18.594748,-3.2163706,50.302395,-23.57718,7.1888695,1.4518301,-2.1363888,10.715344,11.4327545,21.256342,-15.072697,33.094536,29.05979,3.5505168,10.18279,3.4334214,-30.774399,38.752956,47.833954,-10.366664,6.842317,-13.038202
61,6.635826110839844,5.4146623611450195,72.95099639892578,2.4438454774212515,-1.7302919858574002,-83.63491924906455,-27.781092,11.076906,-15.104653,67.43975,-19.090124,-3.0765543,-18.862818,-18.852602,-3.0686867,49.900757,-23.165455,7.5354185,1.3708842,-2.266631,10.706451,11.537799,21.540516,-14.795547,32.311153,29.14854,3.5606163,10.106197,4.042749,-31.074558,38.4222,47.300026,-10.701146,6.779167,-13.485582
62,7.0507073402404785,5.525895595550537,73.00634765625,2.383808417448672,-1.743219013470119,-83.59068432544456,-27.752968,11.199318,-15.508703,67.56425,-18.604467,-3.02614,-18.69666,-19.112818,-2.9628084,49.326916,-22.660915,7.893231,1.2526124,-2.3920944,10.688735,11.61148,21.802292,-14.553025,31.582588,29.174635,3.5566893,10.074518,4.681126,-31.358982,38.138477,46.764137,-11.144642,6.760828,-13.951124
63,7.490199089050293,5.6530537605285645,73.09761810302734,2.3129948046375715,-1.7422636700835072,-83.55334890704223,-27.69633,11.309303,-15.8586445,67.56666,-18.034557,-2.9478452,-18.470392,-19.359915,-2.8688343,48.567318,-22.03462,8.261414,1.1093012,-2.5042095,10.662998,11.650596,22.04084,-14.362593,30.91691,29.150444,3.5586524,10.066958,5.347787,-31.621902,37.86102,46.224976,-11.640441,6.77962,-14.376149
64,7.952545642852783,5.7930779457092285,73.2235107421875,2.2296641487079176,-1.722172565086881,-83.54856875615167,-27.601473,11.42178,-16.126074,67.433136,-17.387037,-2.853023,-18.197325,-19.575333,-2.756525,47.609344,-21.2586,8.638854,0.9565215,-2.5939977,10.630033,11.648979,22.255539,-14.246085,30.324492,29.088001,3.5865731,10.063532,6.044826,-31.855427,37.5449,45.68118,-12.132715,6.8259945,-14.701813
65,8.438237190246582,5.939518451690674,73.38536071777344,2.131871909516812,-1.6830105633863612,-83.57045968516907,-27.472084,11.549455,-16.295109,67.15769,-16.662804,-2.7316597,-17.861385,-19.753315,-2.627258,46.426777,-20.34087,9.019788,0.7918226,-2.6604192,10.589599,11.5939865,22.446772,-14.214261,29.821718,28.958733,3.6477408,10.06892,6.7800846,-32.053757,37.18392,45.124477,-12.666839,6.926202,-14.907046
66,8.949715614318848,6.103853702545166,73.57755279541016,2.0214096718329233,-1.6272086825744803,-83.60965606538643,-27.31335,11.681701,-16.383308,66.75226,-15.862072,-2.5817082,-17.464083,-19.901464,-2.4919584,45.038532,-19.29424,9.406672,0.61159605,-2.708137,10.539997,11.48917,22.615702,-14.258367,29.401842,28.76631,3.7313092,10.091562,7.548051,-32.214775,36.8005,44.565228,-13.254483,7.0738773,-15.024202
67,9.481118202209473,6.279362201690674,73.79256439208984,1.8987418498082695,-1.5522388152800797,-83.68671246234801,-27.11485,11.800795,-16.408728,66.22236,-14.982839,-2.4231355,-17.039026,-20.02348,-2.3346972,43.48761,-18.091076,9.81119,0.4287585,-2.7370217,10.480066,11.35355,22.763187,-14.369047,29.040695,28.571703,3.8297074,10.11597,8.329549,-32.336227,36.393665,44.03153,-13.788469,7.208504,-15.075833
68,10.039436340332031,6.469444751739502,74.033447265625,1.765295117191978,-1.4562429553002199,-83.82229509056847,-26.86599,11.887774,-16.39193,65.5755,-14.025664,-2.2784016,-16.620998,-20.121578,-2.138676,41.81782,-16.703894,10.245587,0.2574279,-2.746784,10.408978,11.205899,22.890034,-14.537746,28.714079,28.436037,3.935324,10.126399,9.107133,-32.416145,35.959846,43.549248,-14.162288,7.2700896,-15.086096
69,10.620688438415527,6.667027473449707,74.29723358154297,1.6187017311484655,-1.3390933595978705,-84.01311799974633,-26.573954,11.933792,-16.34034,64.81677,-12.87998,-2.0858028,-16.174881,-20.191156,-1.9162008,39.96689,-15.118782,10.722859,0.0949845,-2.735384,10.327305,11.042117,22.995756,-14.777829,28.435068,28.389694,4.059746,10.123204,9.900713,-32.44882,35.477833,43.11105,-14.334695,7.235786,-15.058355
70,11.217398643493652,6.869787216186523,74.5798568725586,1.4590425618922171,-1.2017858465319418,-84.25149185444795,-26.242601,11.952022,-16.240694,63.944283,-11.584203,-1.8553717,-15.699414,-20.22667,-1.6661407,37.93934,-13.354214,11.234359,-0.062562056,-2.7040024,10.234458,10.855349,23.080685,-15.090485,28.21082,28.395395,4.2026415,10.113531,10.707664,-32.432076,34.958187,42.713234,-14.367312,7.139039,-14.982171
71,11.836030006408691,7.09928035736084,74.86698150634766,1.2913654230563338,-1.044296058415646,-84.55062778615556,-25.854328,11.952447,-16.086803,62.95154,-10.3602705,-1.7191844,-15.280991,-20.233505,-1.3491535,35.88023,-11.431479,11.760268,-0.20600022,-2.6569414,10.129192,10.662798,23.146875,-15.445468,28.005152,28.412193,4.3385267,10.09022,11.478735,-32.37133,34.44534,42.38242,-14.307762,7.0049534,-14.860618
72,12.478961944580078,7.3313117027282715,75.15458679199219,1.1186108164129938,-0.8666340555359784,-84.92408211110596,-25.388584,11.940417,-15.8775215,61.829212,-9.429225,-1.8116151,-15.005172,-20.220427,-0.92592186,33.93237,-9.370468,12.280569,-0.32900092,-2.5990436,10.010917,10.486105,23.197098,-15.808122,27.777735,28.399769,4.4414363,10.046018,12.163169,-32.277824,33.985817,42.143135,-14.2025,6.859031,-14.696968
73,13.144599914550781,7.577977180480957,75.43873596191406,0.9454328244768783,-0.6616554273033376,-85.37862855971767,-24.802628,11.86881,-15.656581,60.50519,-8.85186,-2.239888,-14.8832,-20.19158,-0.38678548,32.08954,-7.118328,12.822271,-0.4356242,-2.5320148,9.873373,10.340378,23.22962,-16.174063,27.51515,28.371405,4.502295,9.965036,12.763439,-32.1565,33.572006,41.992493,-14.047632,6.710384,-14.455942
74,13.822731018066406,7.835849285125732,75.71110534667969,0.7648497077620819,-0.4317153228996299,-85.90669346955566,-24.118153,11.749367,-15.415691,59.000797,-8.507005,-2.9078038,-14.87674,-20.140537,0.25625655,30.295715,-4.686894,13.387585,-0.5290865,-2.451847,9.719752,10.216005,23.243544,-16.555979,27.235611,28.341173,4.535306,9.855555,13.301348,-32.009605,33.187172,41.91494,-13.821771,6.546017,-14.147284
75,14.520456314086914,8.105290412902832,75.96099090576172,0.5725045244956156,-0.19181263646161448,-86.50037860205227,-23.407404,11.669994,-15.070199,57.443638,-8.34044,-3.645641,-14.997737,-20.055605,1.0041567,28.62096,-2.190929,13.918568,-0.60248494,-2.3541446,9.565008,10.097995,23.244175,-16.943476,26.943512,28.26927,4.5494895,9.745041,13.760028,-31.846954,32.86282,41.909046,-13.543884,6.3580475,-13.841653
76,15.23137378692627,8.391209602355957,76.18484497070312,0.36338876637848827,0.04307214234269137,-87.1516954400437,-22.741302,11.715373,-14.536304,55.969215,-8.295795,-4.295728,-15.251327,-19.929863,1.849749,27.123327,0.25947055,14.357359,-0.6521433,-2.2374134,9.425199,9.978772,23.239365,-17.32046,26.634892,28.115463,4.553461,9.659949,14.12119,-31.68347,32.63405,41.970356,-13.231419,6.1379395,-13.6092005
77,15.945378303527832,8.683792114257812,76.38517761230469,0.13930833465755324,0.278458998447631,-87.86855836466998,-22.100496,11.907265,-13.76254,54.530983,-8.331071,-4.8860908,-15.636581,-19.737526,2.8984828,25.731407,2.802837,14.868833,-0.6774643,-2.101523,9.298869,9.863666,23.233644,-17.68981,26.297249,27.846104,4.5561113,9.610692,14.379566,-31.532133,32.525986,42.10443,-12.855001,5.8763123,-13.455563
78,16.66512107849121,8.994894027709961,76.56072998046875,-0.16730709254773174,0.5225356117603848,-88.67265452420023,-21.465748,12.27549,-12.836499,53.099808,-8.493713,-5.514012,-16.12441,-19.40274,3.983197,24.389236,5.4755554,15.000033,-0.6641936,-1.8820347,9.179336,9.763102,23.225105,-18.053116,25.924906,27.488113,4.5501013,9.580731,14.552197,-31.397753,32.513107,42.29602,-12.413703,5.5800395,-13.344682
79,17.394460678100586,9.31846809387207,76.68917083740234,-0.4661042766261334,0.7508004801493329,-89.51831282179671,-20.861282,12.672813,-11.754905,51.78321,-8.820854,-6.0473824,-16.75053,-19.100779,5.0397687,23.334257,7.9307723,15.000033,-0.64155453,-1.6682754,9.084604,9.672892,23.213606,-18.39266,25.52767,27.09198,4.519774,9.556096,14.659021,-31.280014,32.553658,42.504433,-11.967538,5.26444,-13.285721
80,18.145870208740234,9.63161849975586,76.78790283203125,-0.6569686361235114,0.9454944834045917,-90.36312985515664,-20.317097,12.951682,-10.517868,50.684483,-9.352418,-6.350342,-17.572739,-18.987295,6.021777,22.818024,9.814197,15.000033,-0.6424814,-1.5567174,9.029837,9.599388,23.202194,-18.681252,25.103142,26.70766,4.448325,9.520591,14.7216425,-31.191143,32.609657,42.67669,-11.573747,4.945005,-13.2869625
81,18.89468002319336,9.963265419006348,76.85499572753906,-0.9232793988755839,1.1192053700291213,-91.28457631109016,-19.878794,13.360247,-9.165274,49.893147,-10.23468,-6.411147,-18.628244,-18.841412,6.660097,22.77443,11.203329,13.91336,-0.5889067,-1.3720236,8.998853,9.522607,23.183455,-18.947235,24.680185,26.320593,4.3293324,9.492504,14.725948,-31.095934,32.66023,42.867073,-11.246496,4.5904274,-13.373381
82,19.65045738220215,10.294690132141113,76.88262176513672,-1.236439994118512,1.2761763693309618,-92.27669388048298,-19.509007,13.875926,-7.681692,49.331005,-11.404607,-6.3031163,-19.900358,-18.692501,6.9683604,23.135725,12.22092,11.811224,-0.5055858,-1.1384075,8.993799,9.467587,23.161541,-19.172028,24.227467,25.915533,4.170106,9.468145,14.670361,-31.022522,32.73801,43.05828,-10.950652,4.2041526,-13.530193
83,20.403461456298828,10.630003929138184,76.8807373046875,-1.5410619269601142,1.3990866402529483,-93.26518242591786,-19.201199,14.367784,-6.194244,48.96226,-12.676376,-6.12669,-21.22363,-18.68539,6.8393273,23.861227,12.742621,9.408617,-0.4301545,-0.9179932,9.0295315,9.414037,23.148037,-19.350111,23.74489,25.532534,3.9835608,9.414189,14.586242,-30.98421,32.835598,43.18229,-10.700792,3.849223,-13.716453
84,21.143192291259766,10.960707664489746,76.84480285644531,-1.813579280690744,1.4692872790281184,-94.18065534906573,-18.962965,14.752578,-4.8533587,48.762077,-13.868566,-5.983351,-22.390137,-18.927341,6.101221,24.849703,12.652669,7.150856,-0.38103235,-0.7420801,9.109032,9.30533,23.141579,-19.50781,23.27968,25.211626,3.7883074,9.306305,14.483569,-30.952473,32.949253,43.229237,-10.515333,3.5882657,-13.899442
85,21.872180938720703,11.309274673461914,76.76898956298828,-2.058680756301988,1.4637224852803268,-95.02788224076009,-18.795328,15.038493,-3.679226,48.762253,-14.96298,-5.87211,-23.317238,-19.510778,4.5711584,26.091307,11.693813,5.046403,-0.36301908,-0.61734086,9.249382,9.144547,23.144545,-19.632402,22.833015,24.953041,3.5825171,9.093026,14.330463,-30.912687,33.105434,43.21243,-10.391593,3.4628527,-14.073725
86,22.585302352905273,11.654205322265625,76.64958953857422,-2.290884850854381,1.3942416820128323,-95.8316072528144,-18.702168,15.274606,-2.611347,48.970444,-16.051231,-5.7385736,-24.061537,-20.370995,2.4512517,27.595924,9.947474,2.9370847,-0.3696483,-0.51953024,9.456626,8.964999,23.158285,-19.70419,22.363466,24.746792,3.357871,8.795388,14.141849,-30.883904,33.279415,43.116634,-10.333511,3.4325616,-14.2538
87,23.290699005126953,12.008438110351562,76.50601196289062,-2.505221392994132,1.298264308741864,-96.5530840105494,-18.70331,15.4445915,-1.6760387,49.322548,-17.112862,-5.5984735,-24.649849,-21.37239,0.14682102,29.31931,7.829081,1.001572,-0.4176401,-0.44482574,9.679982,8.740831,23.192457,-19.765614,21.912848,24.581478,3.1234348,8.5206375,13.920842,-30.847942,33.48735,42.99308,-10.321255,3.4313009,-14.452094
88,23.976558685302734,12.352900505065918,76.33998107910156,-2.691841039611468,1.2159807957307196,-97.15498851245057,-18.819714,15.525195,-0.8935172,49.752335,-18.125452,-5.4671206,-25.151402,-22.385,-1.9761286,31.23849,5.794115,-0.6358005,-0.49866423,-0.3942397,9.881191,8.436792,23.265635,-19.867098,21.50816,24.451887,2.8851886,8.368108,13.713235,-30.790106,33.68497,42.85231,-10.361422,3.392408,-14.673097
89,24.64362144470215,12.700478553771973,76.16057586669922,-2.845062796998237,1.1553637523363833,-97.62760833678628,-19.066582,15.508599,-0.28039384,50.258003,-19.092196,-5.3564954,-25.603958,-23.46502,-4.0371523,33.44997,3.872884,-1.9553599,-0.5891208,-0.3788258,10.051274,7.996323,23.41506,-20.071587,21.175228,24.326668,2.632451,8.371707,13.545227,-30.683838,33.84198,42.70174,-10.481639,3.3082566,-14.946063
90,25.301963806152344,13.071012496948242,75.95794677734375,-2.976831570735831,1.1015780456613669,-97.99489124718023,-19.440916,15.416328,0.1791998,50.87308,-20.023472,-5.253466,-25.991058,-24.674824,-6.1549087,35.99959,1.8408005,-3.0549135,-0.68423975,-0.38476297,10.207639,7.434074,23.610285,-20.349014,20.907728,24.222315,2.3652549,8.477054,13.408498,-30.552202,33.963177,42.519367,-10.677637,3.211941,-15.257462
91,25.95431900024414,13.444869041442871,75.73908996582031,-3.0916547019262874,1.0603260596751716,-98.26862748269501,-19.929228,15.256189,0.5198984,51.57667,-20.90284,-5.135228,-26.339851,-25.878925,-7.993595,38.780426,-0.17662568,-4.0141706,-0.77603173,-0.40949112,10.35255,6.831703,23.835005,-20.644894,20.649387,24.174149,2.110758,8.65432,13.291073,-30.395487,34.04466,42.299503,-10.913913,3.0937283,-15.550322
92,26.592382431030273,13.828542709350586,75.50967407226562,-3.1907757086206145,1.0355696966998513,-98.45820977067972,-20.515131,15.031234,0.7755598,52.347954,-21.71404,-4.9792924,-26.689028,-26.908136,-9.227826,41.65863,-2.0193021,-4.8985047,-0.85721457,-0.4498086,10.489078,6.2601266,24.061296,-20.907698,20.359184,24.221533,1.8960657,8.874508,13.188427,-30.220768,34.074978,42.031162,-11.158823,2.9434993,-15.766446
93,27.226581573486328,14.217972755432129,75.27156829833984,-3.266927508088699,1.052111203504941,-98.54366987522334,-21.25385,14.720435,0.9236608,53.215714,-22.445166,-4.780529,-27.123693,-27.683844,-9.728582,44.67311,-3.5802286,-5.726455,-0.9372103,-0.5069843,10.602441,5.683872,24.26979,-21.138771,20.090586,24.425066,1.719004,9.174141,13.107188,-30.032389,34.037098,41.714485,-11.417981,2.7530408,-15.867159
94,27.84920883178711,14.608016967773438,75.0213623046875,-3.320834866762516,1.1007420118697695,-98.52768975736412,-22.133856,14.325968,0.9603392,54.179825,-23.107279,-4.5519667,-27.62026,-28.24199,-9.715344,47.858673,-4.9153438,-6.439396,-1.018208,-0.57654154,10.692618,5.0676374,24.456877,-21.364107,19.868696,24.754526,1.5696276,9.556,13.04688,-29.833073,33.943905,41.355347,-11.7026005,2.5297463,-15.891897
95,28.470125198364258,14.99604320526123,74.76502990722656,-3.362730034983176,1.1332421057934936,-98.45297507896157,-23.034866,13.883785,0.94825155,55.1732,-23.714378,-4.296455,-28.05075,-28.580864,-9.386129,51.04515,-6.0902114,-6.970332,-1.0857596,-0.6480057,10.786619,4.489035,24.618357,-21.563366,19.60544,25.11499,1.4624579,9.9393835,12.995143,-29.630817,33.83112,40.94492,-11.987184,2.2868218,-15.898224
96,29.09044647216797,15.366961479187012,74.50788879394531,-3.401476991908528,1.1012876845456012,-98.36249079510505,-23.834625,13.431066,0.9497936,56.123207,-24.282557,-4.0155797,-28.28594,-28.728317,-8.924483,54.067448,-7.1840234,-7.2683277,-1.1299013,-0.7125923,10.912536,4.0325522,24.7516,-21.708166,19.207636,25.41275,1.4089199,10.243017,12.936606,-29.438736,33.73868,40.473743,-12.244173,2.0384233,-15.9439535
97,29.7109375,15.729106903076172,74.25469970703125,-3.4303425414752686,0.9854121841052784,-98.24966522462188,-24.512331,12.956288,0.96423376,57.038242,-24.806702,-3.704734,-28.292347,-28.676937,-8.298409,56.915955,-8.22335,-7.28984,-1.1605815,-0.7758032,11.093994,3.7288387,24.853867,-21.769447,18.62954,25.675037,1.4509584,10.438127,12.8863125,-29.266119,33.65754,39.91612,-12.479973,1.782493,-16.037727
98,30.31977081298828,16.078142166137695,74.01443481445312,-3.448834722238579,0.8134444553231119,-98.09779460513522,-25.127872,12.448003,0.9634455,57.94797,-25.282475,-3.3644502,-28.126493,-28.392992,-7.470708,59.66387,-9.167734,-7.054121,-1.1832583,-0.8365461,11.312517,3.5357318,24.925127,-21.761448,17.92373,25.93556,1.5676526,10.569305,12.851228,-29.116917,33.575356,39.27107,-12.701165,1.5144734,-16.14985
99,30.908641815185547,16.4349422454834,73.78408813476562,-3.4725937732868912,0.6073209739013784,-97.93237963667802,-25.68014,11.941141,0.96540266,58.809605,-25.720062,-3.0023885,-27.796637,-27.905577,-6.6036873,62.276,-10.015367,-6.6372814,-1.1821584,-0.87819123,11.533465,3.4309437,24.96974,-21.72017,17.138872,26.109516,1.6773751,10.6645155,12.808085,-28.996502,33.524628,38.56513,-12.883557,1.2448883,-16.279552
100,31.486324310302734,16.77912712097168,73.57059478759766,-3.516849432921957,0.3888477135111816,-97.77858263300456,-26.168858,11.470248,0.98740387,59.580544,-26.129606,-2.6264634,-27.317162,-27.263758,-5.8428464,64.71049,-10.760695,-6.127148,-1.142524,-0.8776227,11.725035,3.3874514,24.983944,-21.683485,16.326374,26.112597,1.6980678,10.753508,12.755285,-28.942204,33.531548,37.790974,-12.996107,0.9851838,-16.423233
101,32.057376861572266,17.11895751953125,73.36775970458984,-3.596641278354855,0.14773923634993888,-97.63239480662277,-26.591345,11.048949,1.0161657,60.273575,-26.515558,-2.2354424,-26.664515,-26.454496,-5.179673,66.95631,-11.378192,-5.51822,-1.0596434,-0.8317263,11.890358,3.418647,24.989561,-21.653484,15.474515,25.889845,1.5893543,10.864434,12.650557,-28.907576,33.633038,37.000717,-12.987401,0.7255041,-16.600416
102,32.621681213378906,17.457738876342773,73.1814193725586,-3.6999897391431666,-0.12287143563652532,-97.48278712902304,-26.948214,10.65612,1.0455526,60.902668,-26.871784,-1.8261107,-25.83971,-25.477879,-4.548658,69.03422,-11.888074,-4.782644,-0.9478764,-0.7518925,12.043126,3.5395713,24.983711,-21.608107,14.558149,25.49572,1.4004555,10.974838,12.510001,-28.900633,33.81203,36.173473,-12.883875,0.4638904,-16.804976
103,33.162899017333984,17.78641700744629,73.01660919189453,-3.7981255487190158,-0.3963851680233798,-97.34376462505838,-27.242983,10.272877,1.108131,61.425255,-27.19075,-1.402767,-24.906582,-24.407583,-3.9857209,70.94882,-12.335486,-3.9778845,-0.83213073,-0.6689607,12.1646805,3.769271,24.965996,-21.517933,13.56747,25.010477,1.1825025,11.027366,12.326226,-28.929419,34.04863,35.31486,-12.791966,0.21961012,-17.00492
104,33.692405700683594,18.114341735839844,72.87174987792969,-3.861110648229449,-0.6464436694871596,-97.22982598958286,-27.478521,9.880195,1.2354634,61.797077,-27.46496,-0.9703517,-23.931263,-23.320246,-3.5288088,72.70394,-12.764139,-3.1662483,-0.6529018,-0.6127254,12.235602,4.0319047,24.949938,-21.464035,12.549619,24.49276,0.9965131,10.979207,12.175275,-28.969852,34.210625,34.399143,-12.851325,0.0082540205,-17.160423
105,34.21817398071289,18.44367790222168,72.74829864501953,-3.8730749439027097,-0.8787232501503561,-97.14865896250836,-27.635069,9.470819,1.4493767,62.00897,-27.703163,-0.5324773,-22.916597,-22.230764,-3.1536386,74.30337,-13.176921,-2.3478749,-0.4539216,-0.60060483,12.261439,4.3897357,24.932753,-21.378736,11.465802,23.890022,0.83708936,10.805772,11.995192,-29.055107,34.379444,33.444942,-13.047998,-0.17479336,-17.271395
106,34.727752685546875,18.774999618530273,72.64888763427734,-3.8525951741495628,-1.103941078932493,-97.09085091821845,-27.717302,9.0544405,1.7275217,62.082344,-27.906076,-0.085918196,-21.837128,-21.112549,-2.839969,75.743546,-13.551152,-1.5060796,-0.19908282,-0.6172965,12.24834,4.8036175,24.921743,-21.31213,10.338405,23.180193,0.68698657,10.541581,11.813467,-29.159279,34.524963,32.449814,-13.344268,-0.33748364,-17.35194
107,35.22763442993164,19.106624603271484,72.57394409179688,-3.8163039864861172,-1.3020010640927384,-97.04577429982344,-27.767244,8.636256,2.0381541,62.02229,-28.055271,0.3778534,-20.719473,-19.983528,-2.6282961,77.013565,-13.885408,-0.6754435,0.0809135,-0.6445393,12.188328,5.2939224,24.919802,-21.243471,9.1396265,22.513191,0.5677256,10.198492,11.660211,-29.274397,34.615795,31.387579,-13.757061,-0.4562316,-17.404251
108,35.71843338012695,19.44356918334961,72.52169036865234,-3.779460398634645,-1.4530328369316454,-97.00255454923685,-27.82744,8.220717,2.3504522,61.836533,-28.13416,0.8673048,-19.592642,-18.862455,-2.558331,78.102486,-14.176704,0.10591979,0.36852625,-0.6648676,12.072848,5.8666115,24.931374,-21.168505,7.8506985,22.036879,0.4998169,9.791427,11.577785,-29.38933,34.602417,30.228397,-14.308573,-0.508121,-17.428745
109,36.18885803222656,19.781599044799805,72.4988784790039,-3.7379855771826302,-1.5482806960279156,-96.96555965533778,-27.895098,7.8076863,2.6780744,61.507385,-28.166546,1.3930885,-18.460926,-17.771673,-2.6389065,79.012276,-14.4208765,0.8296617,0.66880846,-0.6837572,11.887168,6.534743,24.961485,-21.085989,6.4494905,21.818932,0.5111301,9.288137,11.581844,-29.492786,34.449177,28.95668,-15.089569,-0.470549,-17.424706
110,36.65438461303711,20.13620376586914,72.5022964477539,-3.684850421366937,-1.599750485485712,-96.93775640352077,-27.951916,7.392741,3.0321922,61.038486,-28.154032,1.9469904,-17.318813,-16.703566,-2.8342178,79.748375,-14.612964,1.507477,0.99062777,-0.713724,11.639724,7.293502,25.01215,-21.000965,4.9480352,21.770363,0.5817672,8.693713,11.642719,-29.581654,34.187702,27.60215,-16.062746,-0.36264083,-17.390703
111,37.1102409362793,20.49785041809082,72.53645324707031,-3.632803443307466,-1.6177292891641524,-96.90681719957033,-28.012259,6.976272,3.3817403,60.462135,-28.04299,2.5096939,-16.180141,-15.630247,-3.1164503,80.29759,-14.743458,2.1354172,1.3215754,-0.7451114,11.35664,8.119015,25.0822,-20.918175,3.380524,21.802446,0.6587966,8.078751,11.7368765,-29.658545,33.871437,26.196194,-17.057436,-0.22412993,-17.32654
112,37.56458282470703,20.876808166503906,72.59440612792969,-3.591912992297256,-1.6124968188736981,-96.86061200387665,-28.090416,6.560135,3.6967032,59.80981,-27.77912,3.0626574,-15.058723,-14.517387,-3.4610837,80.64464,-14.803596,2.710557,1.6485776,-0.76644653,11.063845,8.986221,25.168066,-20.841257,1.7835504,21.82651,0.6905524,7.514363,11.842862,-29.730268,33.554104,24.767128,-17.901989,-0.093991086,-17.23403
113,38.01639938354492,21.27332305908203,72.68431091308594,-3.5720814606898195,-1.5733394294790015,-96.80857589528912,-28.201714,6.1592193,3.9853342,59.093327,-27.368118,3.6158073,-13.972138,-13.39082,-3.9073133,80.80583,-14.8022,3.147514,1.9766722,-0.7687039,10.747234,9.913633,25.269424,-20.761726,0.13137898,21.889112,0.6549068,6.9978747,11.97215,-29.800838,33.228085,23.287064,-18.576128,0.030742045,-17.1034
114,38.46235275268555,21.679819107055664,72.81242370605469,-3.5610896471169284,-1.4989468446355068,-96.75316316631988,-28.333048,5.767566,4.263705,58.293617,-26.832973,4.1743665,-12.912803,-12.257578,-4.4453244,80.77784,-14.734353,3.4749906,2.3081248,-0.7608015,10.400391,10.907932,25.38632,-20.677359,-1.5848395,22.013367,0.58018535,6.498147,12.132085,-29.87126,32.873234,21.747272,-19.161493,0.16627654,-16.937357
115,38.89860916137695,22.08753776550293,72.9721450805664,-3.550379589345885,-1.4145333072881956,-96.67192166366011,-28.456886,5.3562236,4.5143127,57.398495,-26.146318,4.7134275,-11.86003,-11.052724,-4.9784184,80.521576,-14.573103,3.862094,2.625931,-0.755109,10.05979,11.925532,25.512865,-20.602806,-3.3028815,22.07783,0.4940408,6.0433683,12.297328,-29.944677,32.524227,20.203314,-19.639746,0.2942469,-16.758516
116,39.33469772338867,22.517353057861328,73.16326904296875,-3.5281417685982133,-1.345337854117848,-96.54207048537208,-28.546144,4.896231,4.718944,56.395817,-25.2797,5.2084684,-10.793274,-9.715675,-5.4085937,79.99739,-14.29717,4.477695,2.9109366,-0.7614254,9.760656,12.918992,25.639257,-20.552118,-4.953851,21.963129,0.4259364,5.6614757,12.439819,-30.0245,32.2193,18.713507,-19.991102,0.3980014,-16.589788
117,39.77891540527344,22.977785110473633,73.38077545166016,-3.505286554546715,-1.2945090554123497,-96.35134375863451,-28.60321,4.3813496,4.849197,55.2844,-24.2301,5.639119,-9.6937275,-8.228738,-5.7439017,79.17729,-13.898015,5.3473115,3.1560256,-0.76645666,9.505532,13.8825865,25.759373,-20.533876,-6.539478,21.64268,0.38868997,5.3717866,12.549002,-30.114153,31.97195,17.288568,-20.16045,0.47525394,-16.445314
118,40.22236633300781,23.446500778198242,73.63256072998047,-3.47933911288989,-1.2495137402783836,-96.1142752511388,-28.635798,3.8237774,4.927185,54.065975,-23.010992,6.0243006,-8.580497,-6.629013,-6.0131893,78.08593,-13.396316,6.383492,3.3708184,-0.76684326,9.276062,14.832484,25.871586,-20.540247,-8.079864,21.182146,0.36604157,5.154951,12.64102,-30.214798,31.762201,15.899568,-20.173927,0.5358531,-16.311186
119,40.672332763671875,23.933019638061523,73.91019439697266,-3.4294569566773716,-1.2130316966215757,-95.84782373643142,-28.63169,3.2243402,5.008255,52.74269,-21.616537,6.3990116,-7.481421,-4.938576,-6.150118,76.756935,-12.826035,7.585915,3.5615103,-0.7867599,9.076318,15.753185,25.971693,-20.562183,-9.533405,20.601849,0.3449108,4.9812512,12.727674,-30.324856,31.578268,14.546813,-20.134008,0.5803096,-16.168993
120,41.13142395019531,24.439006805419922,74.20704650878906,-3.3314408649161185,-1.1878126735364745,-95.56866693962415,-28.578157,2.5872629,5.146752,51.313408,-20.043331,6.7986917,-6.418409,-3.1831846,-6.0909996,75.22682,-12.223263,8.953502,3.7340984,-0.8505915,8.909786,16.628819,26.053295,-20.59098,-10.855887,19.92322,0.3124115,4.8207707,12.817257,-30.441185,31.40838,13.236196,-20.144228,0.6086054,-16.00008
121,41.589847564697266,24.964298248291016,74.52053833007812,-3.1632798469014616,-1.178426507444167,-95.27465896814888,-28.450014,1.9042082,5.37269,49.73515,-18.278639,7.2649636,-5.360764,-1.2923995,-5.7360907,73.43394,-11.625117,10.70517,3.8897696,-0.98156506,8.783244,17.455091,26.113577,-20.629507,-12.034783,19.097275,0.27142814,4.6734347,12.9061,-30.56029,31.256508,11.967521,-20.171717,0.62466276,-15.795783
122,42.05499267578125,25.513999938964844,74.8413314819336,-2.9379955617293203,-1.18312223795706,-94.95876232602312,-28.261381,1.1746335,5.658098,48.02119,-16.328798,7.7706623,-4.289069,0.6938093,-5.1295705,71.38405,-11.040953,12.751888,4.0251694,-1.1642953,8.692409,18.235178,26.152025,-20.682785,-13.086736,18.132746,0.22688337,4.5519753,12.987792,-30.680843,31.128263,10.74465,-20.182243,0.6271332,-15.567523
123,42.50755310058594,26.075733184814453,75.17981719970703,-2.6895038268032407,-1.1946211716441721,-94.63015818886821,-28.060274,0.4227512,5.9629107,46.25305,-14.212097,8.247565,-3.2430317,2.5917943,-4.440246,69.21235,-10.425511,14.635775,4.1392436,-1.3613569,8.623329,18.963305,26.164742,-20.745653,-14.00947,17.13788,0.16888918,4.4454484,13.066908,-30.804295,31.013702,9.580693,-20.277033,0.6068944,-15.326945
124,42.96053695678711,26.645404815673828,75.51969909667969,-2.4614378869423863,-1.2045681139195408,-94.30172572047017,-27.907787,-0.3008131,6.227594,44.533085,-11.953108,8.613808,-2.267841,4.14405,-4.1054254,67.04894,-9.678773,15.000033,4.232343,-1.5300584,8.560889,19.631165,26.145535,-20.814486,-14.798176,16.221806,0.08738053,4.342803,13.14904,-30.934834,30.901611,8.488003,-20.556725,0.55386555,-15.085213
125,43.42262268066406,27.236865997314453,75.86799621582031,-2.3366246181809642,-1.2107235954652131,-93.98773616881147,-27.847933,-0.91237587,6.3860817,42.93415,-9.545011,8.920781,-1.3838098,5.6453648,-3.783661,64.83444,-8.724727,15.000033,4.325344,-1.5728813,8.492566,20.242546,26.086716,-20.887733,-15.433971,15.403538,-0.030614734,4.2443514,13.238448,-31.077192,30.790306,7.4598246,-21.129148,0.46625772,-14.826281
126,43.89214324951172,27.83436393737793,76.19786834716797,-2.1453404514167707,-1.2299674430233767,-93.64095157825189,-27.766973,-1.603593,6.5496745,41.251175,-6.9052157,9.21757,-0.5564733,7.008054,-3.3242457,62.60107,-7.666355,15.000033,4.3749423,-1.6590222,8.451899,20.793613,25.985554,-20.969538,-15.917237,14.63053,-0.17729776,4.1530952,13.333543,-31.232681,30.684952,6.489173,-21.91218,0.34672844,-14.551401
127,44.372005462646484,28.449100494384766,76.5125503540039,-1.8954555375699242,-1.2465151984873208,-93.2831635593387,-27.687008,-2.3452353,6.735589,39.51465,-4.123658,9.347296,0.19900197,8.072472,-2.897566,60.433483,-6.4983816,15.000033,4.3909917,-1.7820426,8.423848,21.268497,25.84545,-21.064161,-16.275574,13.904472,-0.33164594,4.063129,13.4306345,-31.401054,30.583986,5.589829,-22.722021,0.19264579,-14.297385
128,44.85829544067383,29.077857971191406,76.80072021484375,-1.6087100380084771,-1.2446412509114313,-92.94015137531461,-27.640299,-3.096439,6.938139,37.77737,-1.3056775,9.14378,0.86690307,8.717935,-2.6851628,58.403442,-5.220782,15.000033,4.3881536,-1.9183415,8.392403,21.653378,25.673847,-21.175371,-16.541107,13.224756,-0.4719465,3.9697406,13.527964,-31.580376,30.48471,4.772368,-23.375605,0.0042059687,-14.100104
129,45.34365463256836,29.715078353881836,77.05525970458984,-1.3537336997790839,-1.2141497617700154,-92.63033378803918,-27.706907,-3.7682579,7.1577563,36.14048,1.5896517,8.664461,1.427816,8.962851,-2.8419316,56.482437,-3.6385567,15.000033,4.3828936,-2.0035326,8.342011,21.958982,25.472954,-21.297867,-16.710464,12.571287,-0.59308887,3.8745534,13.625259,-31.765736,30.385574,4.03972,-23.85664,-0.22988547,-13.973381
130,45.83195877075195,30.3687686920166,77.27128601074219,-1.0902219616715765,-1.1691682456737875,-92.33323821701767,-27.833345,-4.4219694,7.362905,34.51664,4.601668,7.937861,1.8967777,8.820092,-3.4338114,54.66324,-1.8443946,14.461016,4.360209,-2.0820682,8.289568,22.190926,25.24273,-21.430565,-16.774675,11.949346,-0.70619464,3.7802248,13.720616,-31.955341,30.288776,3.389694,-24.253065,-0.5042081,-13.896884
131,46.32265090942383,31.039541244506836,77.44703674316406,-0.81781810093894,-1.11847578520078,-92.05231299292124,-27.936018,-5.0975914,7.4076734,32.840084,7.5299115,6.721348,2.314931,8.345424,-4.4102764,52.95721,-0.20363784,13.154804,4.324335,-2.1539607,8.245156,22.331726,24.990522,-21.582115,-16.761509,11.396406,-0.814003,3.6842763,13.81326,-32.154068,30.195322,2.8210773,-24.537546,-0.7918858,-13.853683
132,46.81639099121094,31.724977493286133,77.57877349853516,-0.540830184725564,-1.0720319281666166,-91.79226287679981,-27.923788,-5.8430014,7.139624,31.042229,10.16349,4.780173,2.7241318,7.6396685,-5.592615,51.372555,0.9041758,11.240056,4.282857,-2.2138925,8.220958,22.366644,24.727783,-21.76184,-16.704721,10.948341,-0.91896594,3.5853398,13.907946,-32.37074,30.102865,2.3263278,-24.681019,-1.0679666,-13.826762
133,47.31041717529297,32.41288375854492,77.65476989746094,-0.2758699950011101,-1.0294728758020264,-91.56649001011682,-27.650465,-6.7489247,6.2973886,28.787535,12.629997,1.5531911,3.137406,6.644893,-7.093559,49.88769,1.4007591,8.371944,4.2532873,-2.246414,8.21764,22.304308,24.460413,-21.96738,-16.610195,10.623862,-1.0270392,3.4745815,14.025858,-32.612335,30.001457,1.8872783,-24.620375,-1.3407112,-13.823682
134,47.81652069091797,33.103214263916016,77.6613998413086,-0.03995355977026028,-0.9960641458628816,-91.37571647351604,-27.164782,-7.733115,4.967629,26.201124,14.886433,-2.683758,3.5620415,5.4415493,-8.917562,48.509747,1.3317775,4.7947707,4.237191,-2.228502,8.239626,22.154102,24.188818,-22.19596,-16.471895,10.396988,-1.1348499,3.3580272,14.170845,-32.882057,29.887028,1.4979566,-24.387505,-1.6189351,-13.847098
135,48.32107925415039,33.801029205322266,77.61046600341797,0.16707052164000671,-0.9796640929095464,-91.20078038323722,-26.73257,-8.591786,3.6248584,23.989878,16.506035,-6.8604226,4.0033545,4.2775764,-10.75476,47.2805,0.6062838,1.2505045,4.212291,-2.1652806,8.296042,21.901878,23.917053,-22.454203,-16.305819,10.236111,-1.2315997,3.2565281,14.325454,-33.182476,29.766315,1.1603012,-24.096304,-1.874884,-13.872793
136,48.847259521484375,34.5176887512207,77.50370025634766,0.40058972662611425,-0.9727638430444392,-91.00976669925355,-26.688406,-9.201759,2.8419023,22.902287,17.183197,-9.887465,4.419386,3.2952101,-12.273132,46.250656,-0.72268385,-1.5437205,4.1430297,-2.1136923,8.384898,21.531971,23.65221,-22.746765,-16.125954,10.108386,-1.3068753,3.1905239,14.468958,-33.51351,29.648863,0.87967813,-23.86061,-2.0806284,-13.878484
137,49.372344970703125,35.24568557739258,77.37415313720703,0.723458163211184,-0.9656143549420797,-90.77877209869601,-27.175026,-9.593144,2.9082997,23.231043,16.747252,-11.388267,4.8090997,2.4159791,-13.380205,45.40311,-2.6794577,-3.4609697,4.0043373,-2.1384802,8.502481,21.028957,23.401762,-23.079115,-15.931915,10.021046,-1.348636,3.1624146,14.600744,-33.87196,29.528666,0.6487884,-23.687382,-2.238537,-13.847953
138,49.89319610595703,35.98027420043945,77.20826721191406,1.1186329238566135,-0.9535704177627264,-90.52232716190429,-28.041397,-9.835529,3.5577276,24.58477,15.46951,-11.945749,5.15707,1.5455871,-14.20938,44.703365,-5.171059,-4.8468924,3.8148909,-2.2248745,8.642281,20.409002,23.167616,-23.445026,-15.724912,9.983003,-1.3657578,3.1636682,14.730767,-34.255928,29.402002,0.46758208,-23.524189,-2.3604434,-13.797131
139,50.41326141357422,36.72183609008789,76.99273681640625,1.52989581837215,-0.9345440979625562,-90.26127059724688,-29.174564,-9.913389,4.5172114,26.644844,13.780042,-11.931293,5.3817697,0.71254474,-14.806053,44.20066,-7.89229,-5.7796144,3.597364,-2.3274136,8.797244,19.706072,22.946712,-23.829786,-15.521382,9.965039,-1.3796202,3.1975822,14.849773,-34.66537,29.286898,0.35350257,-23.393242,-2.4322453,-13.754225
140,50.93048095703125,37.46731185913086,76.73760986328125,1.9037417066334248,-0.9063595991884107,-90.01800590473947,-30.455727,-9.81715,5.5145054,29.087759,12.10104,-11.711049,5.4070983,-0.060107894,-15.2241,43.958035,-10.557002,-6.3629704,3.3731377,-2.4005303,8.961283,18.953041,22.732874,-24.216272,-15.335251,9.938657,-1.411786,3.2662113,14.944455,-35.10185,29.204823,0.3273273,-23.316673,-2.4396467,-13.747482
141,51.45355987548828,38.203277587890625,76.45030975341797,2.2469848992301165,-0.8808316931381541,-89.78725842118895,-31.897818,-9.541162,6.5563817,31.984756,10.47082,-11.281195,5.2268157,-0.81276655,-15.452529,44.025116,-13.192792,-6.5802836,3.1394045,-2.4479792,9.1461,18.13642,22.525267,-24.605408,-15.177807,9.885397,-1.4813758,3.3549461,15.010667,-35.569897,29.163687,0.3768283,-23.309816,-2.3613222,-13.776548
142,51.986778259277344,38.96392822265625,76.10884094238281,2.56204890210636,-0.8616033225223028,-89.56651782444612,-33.490955,-9.048238,7.7068076,35.38944,8.709651,-10.478231,4.8870687,-1.5665053,-15.499859,44.363075,-15.898425,-6.4654274,2.890498,-2.469281,9.357563,17.249552,22.323397,-25.000648,-15.04312,9.825213,-1.572647,3.466912,15.05348,-36.07168,29.153008,0.49562854,-23.357079,-2.2103715,-13.829382
143,52.52178192138672,39.73027420043945,75.74075317382812,2.805100379100158,-0.8293286162350405,-89.37921515891533,-35.11852,-8.317921,8.815369,38.997993,6.8972926,-9.41416,4.3862376,-2.2686522,-15.4384,44.913345,-18.512226,-6.1880093,2.638836,-2.4240894,9.577498,16.335142,22.118067,-25.388157,-14.913946,9.789135,-1.6549889,3.6308115,15.069055,-36.603424,29.171268,0.7173119,-23.434322,-2.0239923,-13.917012
144,53.065895080566406,40.50313949584961,75.34323120117188,2.931376628321635,-0.7617485234248069,-89.24573300420738,-36.679947,-7.365686,9.744117,42.512337,5.1152835,-8.212949,3.7148185,-2.8678126,-15.329306,45.623096,-20.877905,-5.898542,2.3912406,-2.280179,9.783369,15.432154,21.895012,-25.75278,-14.765085,9.809792,-1.6979278,3.8739948,15.046216,-37.156662,29.223745,1.084599,-23.517885,-1.83929,-14.050798
145,53.619564056396484,41.26304626464844,74.93034362792969,2.9002059565323433,-0.6438730708173601,-89.15962536888627,-38.236897,-6.2046065,10.392465,45.974686,3.3465536,-6.8326645,2.8223937,-3.3153992,-15.15949,46.5383,-22.97674,-5.5801635,2.140738,-1.9923563,9.970354,14.501124,21.641811,-26.103907,-14.560767,9.8662405,-1.6972318,4.23731,14.94295,-37.736588,29.3331,1.6406816,-23.588785,-1.6570375,-14.250768
146,54.16368103027344,42.00895309448242,74.5342788696289,2.7445958776118045,-0.49090558565628184,-89.1136730362699,-39.810535,-4.8501906,10.827538,49.480885,1.5641004,-5.2361016,1.7261496,-3.6488695,-14.910812,47.68056,-24.900536,-5.1747227,1.8822845,-1.5861939,10.149823,13.529646,21.354048,-26.441605,-14.308599,9.955215,-1.6675243,4.6925826,14.770241,-38.34591,29.499086,2.3596244,-23.663137,-1.4595613,-14.505734
147,54.68537902832031,42.756553649902344,74.15223693847656,2.543657753277102,-0.32296507714595607,-89.12524050296345,-41.266224,-3.3235383,11.193274,52.855953,-0.1850287,-3.5530956,0.51819575,-3.9473925,-14.624064,48.9479,-26.645163,-4.7557716,1.6252928,-1.144997,10.318135,12.598092,21.032862,-26.740856,-14.046498,10.137116,-1.6053915,5.163787,14.593324,-38.96345,29.691736,3.1888072,-23.774128,-1.2567511,-14.779203
148,55.19654846191406,43.50239562988281,73.7952651977539,2.382797533618709,-0.15976042523352788,-89.21056576190146,-42.473476,-1.633027,11.649303,55.946136,-1.8622582,-1.9103861,-0.70814365,-4.2948995,-14.334003,50.23565,-28.200182,-4.3960943,1.3809009,-0.7590573,10.467079,11.787245,20.685394,-26.980906,-13.812066,10.471003,-1.5064347,5.5753775,14.468314,-39.55235,29.88087,4.0921187,-23.959225,-1.058866,-15.032871
149,55.69767379760742,44.23250961303711,73.45353698730469,2.2767962385883305,0.03629900670302601,-89.40486742232592,-43.44177,0.30376858,12.302482,58.73869,-3.4843004,-0.3056805,-2.022316,-4.7186046,-14.037173,51.587734,-29.529129,-4.119162,1.1647426,-0.45303708,10.567742,11.1445,20.310944,-27.142422,-13.61109,11.01484,-1.3404663,5.9494824,14.363029,-40.078167,30.076405,5.134018,-24.251455,-0.8718475,-15.254861
150,56.17507553100586,44.905487060546875,73.13566589355469,2.1854647971650083,0.2612815457416689,-89.68931369093214,-44.229916,2.4695282,13.052785,61.32635,-5.0854316,1.3158895,-3.4398813,-5.1696405,-13.710807,53.028614,-30.645052,-3.8759558,0.9696201,-0.18872325,10.62496,10.613777,19.911388,-27.24663,-13.413566,11.722612,-1.1158905,6.310246,14.232271,-40.528828,30.303598,6.353965,-24.63323,-0.6892995,-15.463613
151,56.65382766723633,45.52182388305664,72.85225677490234,2.1078093354375205,0.43433480242939076,-89.99979183542087,-44.779755,4.7150984,13.767551,63.712116,-6.648941,2.9032323,-4.7909403,-5.6232753,-13.358883,54.43004,-31.607986,-3.634513,0.7763306,0.034149963,10.681181,10.124973,19.505138,-27.337265,-13.212108,12.496806,-0.88856006,6.5883894,14.121758,-40.90522,30.545366,7.671346,-25.066256,-0.50405145,-15.666077
152,57.131229400634766,46.10786819458008,72.59335327148438,2.048874677340416,0.4752681937163388,-90.27154424838218,-45.041996,6.8829165,14.323946,65.89431,-8.147036,4.4037914,-5.90454,-6.059529,-12.991113,55.66239,-32.48265,-3.3660607,0.5684483,0.21398556,10.78298,9.613559,19.12179,-27.460035,-13.013533,13.236982,-0.71734506,6.7191014,14.096062,-41.218235,30.770277,8.985783,-25.51099,-0.30944324,-15.869524
153,57.5950813293457,46.66949462890625,72.35758209228516,2.034241818351919,0.3305163211279445,-90.50793946170737,-44.934147,8.991607,14.792574,67.867294,-9.585595,5.83107,-6.713698,-6.4942803,-12.576886,56.71441,-33.271088,-3.0590088,0.36162362,0.3190948,10.974865,9.092299,18.780188,-27.617537,-12.846965,14.011122,-0.60936034,6.6519628,14.178074,-41.47536,30.975155,10.29671,-26.021978,-0.089792326,-16.085056
154,58.042274475097656,47.21510314941406,72.1429443359375,2.0578590665929912,0.05440922468195307,-90.73682156299085,-44.512474,11.102616,15.233905,69.6382,-10.974517,7.197005,-7.3153524,-6.9332886,-12.125063,57.64499,-33.943867,-2.729972,0.16008212,0.3535176,11.225931,8.601634,18.485666,-27.79095,-12.72893,14.834109,-0.5405862,6.437484,14.347956,-41.67681,31.163105,11.628663,-26.59664,0.14691277,-16.304619
155,58.48044204711914,47.75083541870117,71.9440689086914,2.071740128546356,-0.27088310668486365,-90.92931609848665,-43.9517,13.123816,15.507573,71.227776,-12.280774,8.44935,-7.7912517,-7.348956,-11.707823,58.445946,-34.520466,-2.3947954,-0.06831104,0.36945552,11.469808,8.118226,18.249826,-27.99453,-12.64945,15.5247,-0.52252215,6.165228,14.610873,-41.82671,31.307718,12.916084,-27.107788,0.37015417,-16.508402
156,58.915191650390625,48.27688217163086,71.76519012451172,2.0296537732781674,-0.5627686304388947,-91.05525770798693,-43.437767,14.961054,15.465265,72.65465,-13.462071,9.539595,-8.225405,-7.7149525,-11.396591,59.10953,-35.01905,-2.0702841,-0.35164633,0.42049247,11.6414585,7.6178007,18.088108,-28.247412,-12.6024475,15.899656,-0.562054,5.926005,14.98394,-41.932545,31.372055,14.082691,-27.429081,0.54724807,-16.677113
157,59.34480285644531,48.78160858154297,71.60723114013672,1.910994305943421,-0.8153579626768941,-91.10439275336674,-43.015495,16.602585,15.042082,73.92249,-14.486153,10.452046,-8.6219015,-8.016969,-11.223321,59.630512,-35.434696,-1.7626151,-0.69941735,0.52648306,11.731857,7.0829363,18.020283,-28.579859,-12.59333,15.809823,-0.6823739,5.7765484,15.483395,-42.000004,31.349876,15.102612,-27.526993,0.67194647,-16.793417
158,59.78443145751953,49.27973937988281,71.47187805175781,1.743310152088918,-1.0661852549164335,-91.09238745046417,-42.606487,18.093672,14.3349905,75.02536,-15.368521,11.21745,-8.945055,-8.276777,-11.1456,60.016815,-35.760616,-1.4634812,-1.1072835,0.6514313,11.7748,6.552449,18.048845,-28.961094,-12.649108,15.380788,-0.8705179,5.6554623,16.079277,-42.025394,31.27903,16.022667,-27.464235,0.7597364,-16.874886
159,60.217262268066406,49.74894714355469,71.36074829101562,1.5526103015543191,-1.2974025579089488,-91.02697862193028,-42.218502,19.420979,13.426389,75.972946,-16.135126,11.855366,-9.220527,-8.522559,-11.122139,60.281464,-36.011833,-1.1683251,-1.521642,0.7776289,11.7780075,6.037843,18.17221,-29.39108,-12.778554,14.835505,-1.0717252,5.49383,16.851128,-42.020287,31.06489,16.785105,-27.275705,0.8047601,-16.945503
160,60.67108917236328,50.214229583740234,71.26860809326172,1.3657478431301424,-1.4914247813686405,-90.91637594568716,-41.8514,20.571648,12.401114,76.77393,-16.815275,12.386792,-9.472798,-8.782455,-11.111253,60.43657,-36.20329,-0.87217486,-1.966961,0.8791185,11.737622,5.600582,18.361017,-29.77574,-12.996527,14.410162,-1.2388817,5.2008696,17.722616,-41.98194,30.762985,17.436283,-26.974743,0.80843353,-17.04024
161,61.14030456542969,50.66051483154297,71.19942474365234,1.1828094336894668,-1.6382640185425759,-90.74815116274017,-41.520363,21.519674,11.226251,77.43055,-17.403355,12.790887,-9.706707,-9.055584,-11.114863,60.48296,-36.349167,-0.5789072,-2.449064,0.96658814,11.636822,5.2215767,18.602394,-30.121857,-13.292331,14.12532,-1.3609303,4.7346597,18.730917,-41.91195,30.338951,17.944672,-26.502644,0.7392903,-17.16234
162,61.61219024658203,51.092166900634766,71.16558074951172,0.9910105203126915,-1.7483683889339285,-90.52237021134684,-41.215816,22.278677,9.881238,77.944984,-17.887442,13.068866,-9.910086,-9.330887,-11.150933,60.415634,-36.4377,-0.28911343,-2.967921,1.0519123,11.478927,4.875094,18.893583,-30.455795,-13.646219,13.875073,-1.4632103,4.144377,19.877552,-41.811565,29.804443,18.31156,-25.868334,0.6078198,-17.294806
163,62.098384857177734,51.52111053466797,71.1581802368164,0.803254114014793,-1.8346219913367359,-90.26628917125724,-40.901165,22.894878,8.464495,78.33076,-18.290428,13.270495,-10.08252,-9.619649,-11.201323,60.237415,-36.444664,0.006813213,-3.4969707,1.1182209,11.292862,4.577694,19.222555,-30.765127,-14.04067,13.704239,-1.5514115,3.4906983,21.113096,-41.68054,29.20577,18.586725,-25.20085,0.4732077,-17.438374
164,62.59513473510742,51.94404220581055,71.1825942993164,0.6341513110336879,-1.9108086398692041,-90.00850328067696,-40.537395,23.417284,7.0775366,78.59694,-18.634853,13.447005,-10.224212,-9.932598,-11.246728,59.950153,-36.344368,0.3181539,-4.012109,1.1468287,11.104851,4.3432317,19.57199,-31.032907,-14.450029,13.65957,-1.6334193,2.832863,22.376411,-41.518967,28.597399,18.829325,-24.627262,0.39772165,-17.595314
165,63.10115051269531,52.364112854003906,71.23902893066406,0.486609255240807,-1.9724274111850058,-89.73611882210164,-40.131714,23.823065,5.6962123,78.74583,-18.934547,13.603044,-10.334085,-10.277839,-11.306052,59.545586,-36.14036,0.6446985,-4.52819,1.1350995,10.907077,4.175954,19.928928,-31.2396,-14.864798,13.80283,-1.7298855,2.1328514,23.675123,-41.320843,27.971687,19.035185,-24.178612,0.4059179,-17.775845
166,63.61729049682617,52.7747917175293,71.33062744140625,0.3528856002957715,-2.0150183463264866,-89.44114811494194,-39.68974,24.100548,4.288579,78.77652,-19.176466,13.715925,-10.413018,-10.64581,-11.381874,59.02487,-35.841187,0.9827379,-5.0530863,1.0944333,10.685808,4.057306,20.28908,-31.397493,-15.278924,14.097421,-1.8352606,1.3750212,25.022163,-41.083168,27.316658,19.190882,-23.786936,0.46267918,-17.97708
167,64.1463623046875,53.17706298828125,71.45891571044922,0.23342551455217,-2.052251741509526,-89.15857750321851,-39.175907,24.31686,2.9407117,78.695015,-19.344088,13.794744,-10.464031,-11.020665,-11.429677,58.404167,-35.430393,1.3361459,-5.5559225,1.0287328,10.4591675,3.969734,20.64752,-31.533749,-15.673176,14.442948,-1.9191864,0.65245736,26.364466,-40.812057,26.682383,19.338545,-23.430286,0.5412499,-18.183422
168,64.69620513916016,53.57538604736328,71.61685180664062,0.13030158659070387,-2.0980027757743818,-88.9232635921856,-38.558315,24.540041,1.7379156,78.50585,-19.419739,13.848522,-10.490127,-11.386886,-11.404346,57.698895,-34.89137,1.7081712,-6.0086646,0.941048,10.245032,3.8992708,20.99936,-31.67175,-16.031357,14.740449,-1.9459139,0.056107413,27.646145,-40.520523,26.120802,19.522573,-23.085924,0.6153908,-18.379713
169,65.25409698486328,53.97050476074219,71.8106460571289,0.04662452114277117,-2.1616217356941316,-88.73027857138293,-37.818546,24.776869,0.6925129,78.206314,-19.420372,13.867546,-10.482752,-11.74695,-11.295128,56.91796,-34.225033,2.0984516,-6.4192758,0.82280314,10.047629,3.8490937,21.341434,-31.80947,-16.348806,15.002115,-1.8873022,-0.38057402,28.887495,-40.214664,25.61863,19.732508,-22.762213,0.6922938,-18.571585
170,65.8310317993164,54.364986419677734,72.03652954101562,-0.01867011643392446,-2.234109972533219,-88.56581634401931,-36.975555,24.997568,-0.23651466,77.797005,-19.34889,13.851535,-10.444579,-12.105172,-11.123781,56.051292,-33.438602,2.5052273,-6.799155,0.67811537,9.857766,3.822126,21.671646,-31.935326,-16.632116,15.269869,-1.7672259,-0.71099514,30.10938,-39.895905,25.154617,19.946125,-22.463184,0.7818028,-18.763805
171,66.42833709716797,54.76105880737305,72.28900909423828,-0.07699497571266323,-2.3022768308682853,-88.45104268347934,-36.055576,25.213467,-1.0440714,77.2879,-19.167261,13.8226385,-10.395631,-12.448495,-10.892915,55.087505,-32.527195,2.9292884,-7.126831,0.5272845,9.673476,3.8068707,21.98686,-32.056267,-16.879381,15.49199,-1.6258268,-0.9744767,31.264946,-39.57546,24.763615,20.186502,-22.165253,0.86287534,-18.940884
172,67.0414047241211,55.16389465332031,72.56749725341797,-0.1405578926172635,-2.3532662282219423,-88.40707257621602,-35.084396,25.4344,-1.7247754,76.68834,-18.836893,13.803507,-10.355278,-12.763621,-10.604888,54.012978,-31.486269,3.371548,-7.385144,0.39165336,9.493301,3.796092,22.282879,-32.175026,-17.095497,15.61614,-1.5035995,-1.2106628,32.300903,-39.26984,24.488491,20.479055,-21.839823,0.9145927,-19.08751
173,67.67620086669922,55.56515884399414,72.87191009521484,-0.20782652937408858,-2.3902469359957146,-88.44325645490076,-34.05677,25.698265,-2.2406404,76.008965,-18.316572,13.8431225,-10.323229,-13.045056,-10.251119,52.826454,-30.320454,3.8369622,-7.5668135,0.27421933,9.321359,3.7863364,22.556627,-32.288273,-17.280092,15.614954,-1.402497,-1.4185038,33.22031,-38.99464,24.337168,20.820381,-21.448145,0.9342965,-19.210789
174,68.32710266113281,55.98044967651367,73.19697570800781,-0.27657626151729164,-2.418078870023594,-88.54695357611315,-32.96218,25.984432,-2.6051931,75.245224,-17.638603,13.91552,-10.290703,-13.297866,-9.83057,51.533203,-29.031748,4.323384,-7.68801,0.16800523,9.158335,3.786366,22.806364,-32.389435,-17.435057,15.521377,-1.3033451,-1.5813897,34.05223,-38.756268,24.285934,21.190262,-21.0101,0.9329781,-19.3144
175,69.00489807128906,56.40519714355469,73.5411376953125,-0.3469085016111477,-2.425873708397113,-88.70666050081503,-31.81754,26.214746,-2.8909814,74.38375,-16.875393,13.9323,-10.26797,-13.524716,-9.3555155,50.1387,-27.607222,4.820985,-7.7656097,0.07773723,8.997329,3.805107,23.029936,-32.477764,-17.556932,15.373563,-1.214924,-1.714906,34.78604,-38.556335,24.326164,21.58988,-20.590364,0.9103972,-19.379086
176,69.69982147216797,56.83763122558594,73.90238189697266,-0.42070649509084596,-2.402514405257736,-88.91065002100697,-30.639668,26.311249,-3.1752703,73.41177,-16.09974,13.803656,-10.265838,-13.729416,-8.83783,48.64825,-26.033922,5.3202567,-7.8152003,0.006468876,8.830435,3.8489258,23.225367,-32.553818,-17.642199,15.209651,-1.146295,-1.8352693,35.405693,-38.393818,24.452072,22.025331,-20.252342,0.8683549,-19.385067
177,70.41341400146484,57.26508331298828,74.28453826904297,-0.5032420919180705,-2.347625364470414,-89.16130728859584,-29.41396,26.287453,-3.4508035,72.314644,-15.326271,13.531254,-10.274973,-13.898634,-8.262102,47.04236,-24.308218,5.8141427,-7.831684,-0.04269132,8.653915,3.9156303,23.390707,-32.624744,-17.6832,15.027825,-1.1024321,-1.934941,35.9104,-38.26951,24.680557,22.504099,-19.99671,0.80624586,-19.309172
178,71.14789581298828,57.700706481933594,74.677490234375,-0.5924013470539317,-2.2665468238196964,-89.46314539424922,-28.136955,26.17027,-3.6932206,71.10455,-14.52033,13.154352,-10.292908,-14.033909,-7.623895,45.32676,-22.439138,6.3096066,-7.8090873,-0.07240021,8.471878,4.0003467,23.52487,-32.68868,-17.680346,14.811989,-1.0777423,-2.009773,36.304375,-38.18548,25.009047,23.025785,-19.792648,0.72470915,-19.167946
179,71.89697265625,58.14427185058594,75.0811996459961,-0.6810701128708977,-2.1559173894688373,-89.80806070060483,-26.841372,25.908157,-3.9529965,69.80742,-13.688185,12.64783,-10.344877,-14.162036,-6.949663,43.548904,-20.434229,6.8193326,-7.7648635,-0.08655323,8.28824,4.110251,23.627357,-32.730396,-17.643799,14.579403,-1.0652719,-2.0803149,36.591644,-38.137184,25.397272,23.573528,-19.665129,0.6259814,-19.002234
180,72.67515563964844,58.60820388793945,75.48703002929688,-0.7632921650957225,-2.0126586772193162,-90.18790921717124,-25.560038,25.449572,-4.285632,68.44696,-12.834589,11.983733,-10.456462,-14.308634,-6.265198,41.755764,-18.299208,7.3559384,-7.712761,-0.08964635,8.1072855,4.2496843,23.69831,-32.73824,-17.584354,14.346994,-1.0578686,-2.166661,36.774837,-38.11693,25.803955,24.133675,-19.639269,0.51144874,-18.852749
181,73.4709243774414,59.084922790527344,75.88878631591797,-0.837414608931712,-1.8314735496818417,-90.60660668258363,-24.299526,24.70039,-4.7917275,67.02301,-11.970905,11.163002,-10.620722,-14.480226,-5.569168,39.91689,-16.002012,7.960974,-7.6340704,-0.07854076,7.926587,4.412305,23.726656,-32.728157,-17.490932,14.097915,-1.0590906,-2.282839,36.87183,-38.121254,26.219727,24.70638,-19.767096,0.37332675,-18.725643
182,74.28668975830078,59.55865478515625,76.28246307373047,-0.9083955666297947,-1.6158149984871935,-91.0673876282207,-23.039888,23.723122,-5.428391,65.52263,-11.104739,10.203305,-10.830222,-14.660251,-4.8400807,38.023838,-13.552311,8.616881,-7.5471435,-0.06240739,7.7415757,4.6190424,23.725683,-32.677807,-17.372108,13.8306265,-1.070925,-2.417798,36.821873,-38.14687,26.713762,25.341278,-20.011833,0.21453023,-18.608599
183,75.13048553466797,60.05158996582031,76.66082763671875,-0.9806604751635254,-1.3753562849131078,-91.56106797183404,-21.780304,22.697117,-6.035243,63.950634,-10.232768,9.100242,-11.112639,-14.837101,-4.077374,36.158558,-11.017453,9.248609,-7.4505954,-0.03206251,7.5634747,4.8361444,23.696384,-32.600452,-17.227169,13.584738,-1.0829072,-2.5459685,36.678062,-38.190628,27.207802,25.97065,-20.296474,0.046754878,-18.492344
184,75.98360443115234,60.56361389160156,77.02941131591797,-1.0578750714602685,-1.1191943186140247,-92.07771818716483,-20.52533,21.790571,-6.4472704,62.307865,-9.341207,7.8433523,-11.496377,-15.001752,-3.2872865,34.404068,-8.46331,9.781229,-7.3541923,0.0151986275,7.400778,5.0401983,23.646917,-32.49739,-17.056524,13.398824,-1.0846922,-2.6420498,36.466267,-38.248158,27.647396,26.549032,-20.540117,-0.11737432,-18.370956
185,76.83743286132812,61.073638916015625,77.36741638183594,-1.1365740746019792,-0.8423113801329383,-92.61212739371571,-19.272478,20.95752,-6.6918035,60.579998,-8.27905,6.3521023,-11.975213,-15.162818,-2.4504917,32.70793,-5.7488904,10.335506,-7.240456,0.07787732,7.258965,5.2206426,23.595282,-32.39306,-16.87047,13.274041,-1.064079,-2.702725,36.212128,-38.299282,27.996819,27.069237,-20.74932,-0.28095743,-18.238543
186,77.70999145507812,61.59601974487305,77.67618560791016,-1.2171197693874891,-0.541542964179727,-93.17083329712665,-18.026003,20.12408,-6.845821,58.765198,-7.101348,4.6497974,-12.542203,-15.320916,-1.5634495,31.05478,-2.8922524,10.910387,-7.1393642,0.15107843,7.126712,5.4111323,23.524786,-32.246006,-16.664818,13.197679,-1.0315199,-2.746884,35.842968,-38.35895,28.345312,27.589941,-20.945705,-0.44628054,-18.105675
187,78.59081268310547,62.1441764831543,77.94937896728516,-1.3123930951786564,-0.22749044993445539,-93.76088659918244,-16.805315,19.413496,-6.7978177,56.877453,-6.0894976,2.88719,-13.229903,-15.465644,-0.68222564,29.59207,-0.19713016,11.241332,-7.008124,0.24154933,7.0105615,5.5898223,23.455004,-32.093338,-16.453678,13.161217,-1.0032856,-2.7509837,35.426266,-38.418983,28.621893,28.044456,-21.12727,-0.6103166,-17.968266
188,79.48828887939453,62.7001953125,78.17460632324219,-1.430680668520335,0.08947455667982833,-94.38959528410234,-15.63068,18.954023,-6.4133577,54.931873,-5.509572,1.2233348,-14.068832,-15.595734,0.108943,28.461273,2.0368276,11.053518,-6.83975,0.35108122,6.911139,5.760838,23.39733,-31.931768,-16.253748,13.1613245,-0.9974431,-2.6992977,34.97052,-38.48677,28.817099,28.402792,-21.274477,-0.76688725,-17.828981
189,80.3880615234375,63.266693115234375,78.3561782836914,-1.5794573909433303,0.4254969635998034,-95.07313736970798,-14.466131,18.85845,-5.491715,52.82963,-5.3944144,-0.3535084,-15.161434,-15.654234,0.932658,27.716906,3.8502996,10.092016,-6.63083,0.49110076,6.821282,5.942647,23.358849,-31.75338,-16.08045,13.213943,-1.0218047,-2.5680707,34.482098,-38.567993,28.904778,28.651371,-21.41024,-0.9164872,-17.674976
190,81.28813171386719,63.82662582397461,78.48092651367188,-1.7492685581185823,0.7813876251751621,-95.80489186614622,-13.299977,19.00482,-4.1136756,50.582348,-5.5750327,-1.9224751,-16.475967,-15.676351,1.7443663,27.300882,5.3672,8.546732,-6.384152,0.65190136,6.741899,6.1351132,23.34336,-31.559557,-15.933418,13.312468,-1.0656579,-2.3703797,33.95102,-38.657852,28.901173,28.808622,-21.534437,-1.061875,-17.50907
191,82.18509674072266,64.3873519897461,78.55867004394531,-1.9259598973501542,1.1217182818311064,-96.55619907580804,-12.193638,19.190863,-2.5698667,48.374203,-6.0224085,-3.4186072,-17.831919,-15.797697,2.2176268,27.166649,6.4091835,6.807028,-6.120197,0.8070749,6.689442,6.333242,23.35604,-31.342674,-15.821838,13.421813,-1.1186857,-2.1487832,33.371502,-38.774113,28.861929,28.867878,-21.59065,-1.1990255,-17.354603
192,83.07552337646484,64.9620132446289,78.59138488769531,-2.095770083305153,1.4083871223337994,-97.29440103717857,-11.229107,19.24332,-1.171401,46.401524,-6.734624,-4.7483873,-19.025822,-16.141716,2.052978,27.23308,6.786723,5.274863,-5.846078,0.92897886,6.6833673,6.517349,23.408339,-31.115953,-15.746389,13.503388,-1.1713295,-1.9412863,32.744724,-38.906765,28.829967,28.830008,-21.531109,-1.3247535,-17.235624
193,83.95321655273438,65.53192138671875,78.57390594482422,-2.2521102857698647,1.6218111645098008,-98.02700168105493,-10.371139,19.134724,0.024483273,44.599014,-7.8412404,-5.9167676,-19.954624,-16.791687,1.0572296,27.415207,6.2427406,4.0507526,-5.5752625,1.0047355,6.740931,6.726478,23.511063,-30.859438,-15.754075,13.554335,-1.215625,-1.7630563,32.06097,-39.056232,28.804634,28.6754,-21.305914,-1.4505394,-17.154066
194,84.82015991210938,66.10076904296875,78.51686096191406,-2.4066267449519487,1.7809165267879055,-98.76234961244175,-9.600108,18.9777,1.1741027,42.90081,-9.309316,-6.9489093,-20.69347,-17.650993,-0.5426217,27.733295,4.933213,2.9622793,-5.3055334,1.053085,6.854845,6.968171,23.66973,-30.56992,-15.845148,13.588946,-1.2585137,-1.5907327,31.317919,-39.223335,28.770271,28.412338,-20.953756,-1.5737149,-17.098392
195,85.67218780517578,66.67574310302734,78.42535400390625,-2.573904341025724,1.905383113342981,-99.46767166248097,-9.033874,18.82793,2.2630668,41.515717,-10.911078,-7.775544,-21.302937,-18.575169,-2.415852,28.253084,3.2971988,1.9900556,-5.030892,1.096796,7.007929,7.185219,23.883533,-30.275759,-15.954614,13.597985,-1.3127396,-1.4076498,30.517601,-39.404125,28.759457,28.086252,-20.554863,-1.6693534,-17.073614
196,86.49720764160156,67.25430297851562,78.30429077148438,-2.7617422022017846,2.0165596901546627,-100.11130586895243,-8.790299,18.727833,3.2727842,40.664337,-12.422821,-8.338353,-21.8784,-19.44678,-4.2379227,29.072794,1.7687519,1.0695477,-4.7419524,1.150705,7.178673,7.309324,24.146639,-30.009716,-16.001396,13.573226,-1.3932034,-1.1972402,29.65886,-39.5911,28.804487,27.751642,-20.190187,-1.7129284,-17.086206
197,87.3289566040039,67.84061431884766,78.14647674560547,-2.9732547558297537,2.1041719147377176,-100.71575148427883,-8.919541,18.69926,4.2139707,40.501583,-13.843934,-8.583745,-22.432192,-20.324604,-6.117674,30.250015,0.35333976,0.14130451,-4.418153,1.214721,7.3710246,7.308656,24.45628,-29.790405,-15.977705,13.48445,-1.5096751,-0.9544462,28.708557,-39.779827,28.940535,27.430992,-19.809788,-1.6886256,-17.163246
198,88.15604400634766,68.44402313232422,77.96246337890625,-3.2024941936189313,2.1626512507031053,-101.28833806233267,-9.358607,18.719595,5.0757427,40.903603,-15.291336,-8.562658,-22.915522,-21.270992,-8.156746,31.749254,-1.1639615,-0.76876265,-4.068292,1.2817695,7.5904236,7.218,24.811426,-29.599707,-15.910698,13.347171,-1.6531378,-0.6890095,27.673676,-39.96641,29.142206,27.101423,-19.396332,-1.6134847,-17.295387
199,88.96027374267578,69.0578842163086,77.76422882080078,-3.4396315551528556,2.2219177569907407,-101.77419887578831,-10.05348,18.754887,5.8093786,41.669533,-16.714785,-8.375032,-23.368895,-22.187548,-10.023562,33.536003,-2.6645813,-1.6341583,-3.7237887,1.3519899,7.816043,7.0679235,25.205349,-29.41981,-15.774227,13.223966,-1.807931,-0.4065099,26.617058,-40.140984,29.349344,26.74744,-19.078646,-1.5114683,-17.434528
200,89.73888397216797,69.69200134277344,77.5449447631836,-3.674415761526355,2.3125984877625907,-102.11799856403134,-10.950917,18.768642,6.3715343,42.593834,-18.059399,-8.118814,-23.84997,-22.957264,-11.391835,35.563812,-4.0078855,-2.4282098,-3.4121768,1.4240626,8.0253935,6.880491,25.627504,-29.238924,-15.532749,13.1775465,-1.9580151,-0.1122585,25.60748,-40.290794,29.49674,26.355001,-18.991062,-1.4055688,-17.53141
201,90.5035400390625,70.33028411865234,77.30043029785156,-3.9203801137334477,2.4646675080107947,-102.30472866110556,-12.13552,18.788603,6.7436333,43.738598,-19.320845,-7.778365,-24.460726,-23.528889,-12.178951,37.925297,-5.100964,-3.2019136,-3.1238253,1.5172894,8.198013,6.579593,26.076746,-29.089302,-15.102372,13.13526,-2.1293168,0.20588163,24.651266,-40.403736,29.567535,25.948587,-19.228998,-1.28091,-17.576157
202,91.25992584228516,70.98648071289062,77.03961944580078,-4.177104608201461,2.65645891621155,-102.3652722668445,-13.606154,18.816746,6.946607,45.174026,-20.522936,-7.3164554,-25.16808,-23.95263,-12.563167,40.612747,-6.0143495,-3.950944,-2.8374393,1.6239653,8.346822,6.1608434,26.552835,-28.983343,-14.507121,13.095136,-2.3200667,0.5468492,23.716343,-40.47686,29.590078,25.539713,-19.706419,-1.132356,-17.592701
203,91.99053192138672,71.64505767822266,76.7552719116211,-4.412824999377011,2.8417099434276976,-102.31344295973732,-15.175464,18.777224,7.0066476,46.694824,-21.646584,-6.797551,-25.840658,-24.243969,-12.615835,43.437313,-6.838264,-4.5521283,-2.568272,1.7032248,8.49871,5.7577686,27.042786,-28.873104,-13.878591,13.225887,-2.4681044,0.8839415,22.811686,-40.51641,29.572979,25.09411,-20.284119,-0.9970294,-17.582598
204,92.71650695800781,72.30815887451172,76.46192169189453,-4.595823290007897,2.9740698255930935,-102.16255723708326,-16.655289,18.596233,6.955508,48.09807,-22.675356,-6.2833147,-26.34129,-24.420547,-12.4099865,46.210846,-7.6689506,-4.8823533,-2.335429,1.7167464,8.68083,5.5044937,27.525928,-28.703424,-13.344345,13.697015,-2.5096633,1.1893704,21.946648,-40.537914,29.526995,24.572283,-20.817396,-0.91137207,-17.54878
205,93.43323516845703,72.95964813232422,76.16681671142578,-4.71834908615132,3.0571386881698297,-101.87248195595919,-18.066555,18.235462,6.733735,49.38649,-23.600578,-5.7889085,-26.671328,-24.441013,-11.874366,48.959137,-8.546284,-4.841165,-2.1737666,1.6530404,8.899771,5.4199996,27.982084,-28.447292,-12.894339,14.694714,-2.4000409,1.4337578,21.141378,-40.552452,29.431427,23.947987,-21.332476,-0.9010365,-17.472948
206,94.14500427246094,73.59429931640625,75.87078857421875,-4.799496240926615,3.1116148407437585,-101.45155926823435,-19.48215,17.736639,6.356623,50.648914,-24.431063,-5.283374,-26.887707,-24.2576,-11.035578,51.758476,-9.418329,-4.4820647,-2.0661376,1.5415996,9.138375,5.427031,28.404741,-28.134838,-12.455438,16.084661,-2.1800659,1.6309229,20.391514,-40.56668,29.288488,23.237757,-21.880875,-0.94117165,-17.359756
207,94.85026550292969,74.1977310180664,75.5903091430664,-4.846495985157411,3.115810419010873,-100.98438218440596,-20.789307,17.152288,5.9696374,51.808437,-25.17617,-4.7548237,-26.934359,-23.906586,-10.101062,54.50033,-10.249417,-3.9311795,-1.9582356,1.4043114,9.390132,5.526663,28.796059,-27.787622,-12.070927,17.557182,-1.9145632,1.820499,19.672787,-40.590954,29.144344,22.457134,-22.35419,-0.9908823,-17.245802
208,95.55488586425781,74.7786636352539,75.3311996459961,-4.865435243837351,3.0472802372135126,-100.55438887542977,-21.87759,16.53946,5.7123704,52.787434,-25.846333,-4.1892333,-26.755966,-23.456722,-9.258888,57.067177,-10.992628,-3.3340795,-1.8026125,1.2603147,9.650747,5.734289,29.16617,-27.41746,-11.797297,18.801435,-1.6687655,2.0482643,18.956154,-40.637054,29.050442,21.623777,-22.643085,-1.0099496,-17.168259
209,96.25984954833984,75.34186553955078,75.09376525878906,-4.84183404243777,2.873999919234943,-100.15734361746557,-22.683783,15.882639,5.6102853,53.548553,-26.439314,-3.5707269,-26.298452,-22.929947,-8.48482,59.438244,-11.627511,-2.6746786,-1.6059269,1.0961223,9.948653,6.07418,29.523006,-27.015093,-11.682355,19.879465,-1.4159462,2.3355818,18.239431,-40.7129,29.016424,20.710777,-22.691597,-0.9699278,-17.142529
210,96.95824432373047,75.89004516601562,74.88873291015625,-4.779040755157333,2.6152495113294125,-99.75682428403425,-23.27762,15.1662245,5.5897226,54.13706,-26.950138,-2.9089215,-25.590378,-22.290525,-7.7127557,61.65986,-12.187507,-1.8965652,-1.393873,0.90837425,10.28013,6.551457,29.867466,-26.566525,-11.704061,20.906385,-1.135337,2.6559978,17.540585,-40.820038,29.018255,19.705347,-22.563057,-0.89719856,-17.146898
211,97.63542175292969,76.4398422241211,74.70325469970703,-4.70719589416287,2.325539878140781,-99.38668290972376,-23.749905,14.448061,5.6385136,54.596012,-27.390314,-2.2274446,-24.717417,-21.554094,-7.0372925,63.722897,-12.687136,-1.1034081,-1.1481236,0.7287724,10.592524,7.1500177,30.20165,-26.07737,-11.812537,21.650211,-0.90388614,2.9920359,16.8593,-40.959877,29.057505,18.646885,-22.327211,-0.8314395,-17.161343
212,98.29953002929688,76.97981262207031,74.53032684326172,-4.654540590909233,2.059912951836172,-99.08020258668662,-24.192444,13.785473,5.7469797,54.970226,-27.76577,-1.5500485,-23.773079,-20.741152,-6.540686,65.61209,-13.128671,-0.40299076,-0.8524981,0.58737755,10.833374,7.8569746,30.527555,-25.549519,-11.961817,21.879377,-0.80208594,3.3291147,16.192526,-41.131126,29.139706,17.573551,-22.0531,-0.811123,-17.165619
213,98.95764923095703,77.51009368896484,74.37805938720703,-4.630482512170632,1.8132477442098898,-98.85534433317086,-24.593987,13.203335,5.9364643,55.26762,-28.103209,-0.8710535,-22.761194,-19.866533,-6.2256503,67.340775,-13.50946,0.13968495,-0.48999038,0.49640253,10.997382,8.674358,30.844784,-24.989998,-12.130216,21.340187,-0.8982994,3.7217443,15.514816,-41.3414,29.29805,16.504707,-21.672619,-0.8670507,-17.18068
214,99.61072540283203,78.03376007080078,74.24407958984375,-4.617023743489359,1.56253395717238,-98.69008261703543,-24.917599,12.667117,6.2033296,55.464333,-28.390966,-0.18073928,-21.647446,-18.932772,-6.032747,68.90682,-13.815136,0.5815159,-0.07769525,0.43571934,11.110381,9.615287,31.151133,-24.38945,-12.352304,20.220673,-1.1443273,4.156861,14.835999,-41.591846,29.522747,15.411142,-21.175592,-0.97168016,-17.207743
215,100.2431869506836,78.55233764648438,74.1321792602539,-4.600865390001401,1.336611651683125,-98.55828809591077,-25.217186,12.145756,6.5011525,55.561176,-28.581688,0.50155103,-20.476622,-17.952694,-5.9440107,70.28097,-14.034479,0.99381745,0.35438538,0.3836224,11.1664505,10.679456,31.445288,-23.728962,-12.665344,18.952436,-1.4408597,4.5208774,14.204714,-41.86447,29.750345,14.26732,-20.718962,-1.076153,-17.19809
216,100.86195373535156,79.07820129394531,74.04397583007812,-4.5682636131286145,1.1642687841313533,-98.43437759950224,-25.54416,11.608306,6.7872734,55.554855,-28.624977,1.1567286,-19.293245,-16.938517,-5.943465,71.43533,-14.1601925,1.4486209,0.78269845,0.3162805,11.159184,11.857908,31.727722,-22.99847,-13.100022,17.964155,-1.6772072,4.707937,13.665695,-42.1305,29.91317,13.059815,-20.463465,-1.1315943,-17.104565
217,101.46300506591797,79.60358428955078,73.9754638671875,-4.504668583015644,1.0598386304347207,-98.33018115590902,-25.90679,11.050035,7.0833926,55.43916,-28.524729,1.7869886,-18.114262,-15.929651,-6.0366526,72.39114,-14.18683,1.9494962,1.2235671,0.21244936,11.070149,13.158917,31.999393,-22.190046,-13.669648,17.330109,-1.821352,4.639563,13.215158,-42.36917,29.9927,11.797758,-20.50729,-1.1148248,-16.904985
218,102.0453109741211,80.13093566894531,73.94328308105469,-4.4191203428673305,1.0056296512128533,-98.25312385004514,-26.276808,10.487128,7.4062376,55.21374,-28.30059,2.3998773,-16.918896,-14.922064,-6.2127976,73.1548,-14.114721,2.4546206,1.6899734,0.08041225,10.906929,14.577534,32.259163,-21.319853,-14.351246,16.831459,-1.9256194,4.392617,12.8241625,-42.575634,30.023539,10.508978,-20.754368,-1.0579169,-16.628944
219,102.61048126220703,80.6700210571289,73.94035339355469,-4.333922896370539,0.982307244873643,-98.17051075337939,-26.655241,9.919645,7.7049975,54.894596,-27.930767,2.9849515,-15.699109,-13.850622,-6.4328146,73.679756,-13.950676,2.9732075,2.15359,-0.05770654,10.702194,16.08397,32.502766,-20.415789,-15.118966,16.457378,-2.0034697,4.099682,12.504566,-42.743942,30.01516,9.205484,-21.0764,-0.99453396,-16.307621
220,103.17481994628906,81.22758483886719,73.96293640136719,-4.271929927465421,0.9705313521114901,-98.04936967576867,-27.043386,9.348276,7.929741,54.497932,-27.392185,3.5317867,-14.447709,-12.651994,-6.6594796,73.91752,-13.701093,3.5131433,2.5890357,-0.17696318,10.486921,17.637182,32.725033,-19.513577,-15.936917,16.198961,-2.0705764,3.8928976,12.273113,-42.86823,29.972157,7.897358,-21.345316,-0.95681286,-15.972443
221,103.71407318115234,81.77595520019531,74.02132415771484,-4.245262190692226,0.9808296515943709,-97.88128651865219,-27.47391,8.778391,8.049606,54.05047,-26.66715,4.0201936,-13.164061,-11.316054,-6.908511,73.85038,-13.33577,4.0384703,2.99173,-0.26777136,10.246402,19.241375,32.92521,-18.616468,-16.81221,16.156399,-2.118556,3.7891753,12.148044,-42.941235,29.875803,6.5725427,-21.561604,-0.95509785,-15.608582
222,104.25534057617188,82.33257293701172,74.1089859008789,-4.2385222612047695,1.0184101887348127,-97.6838799792206,-27.9344,8.207745,8.10179,53.538063,-25.769663,4.4618664,-11.857063,-9.876342,-7.17703,73.50226,-12.857362,4.555257,3.3785186,-0.34558606,9.969393,20.90335,33.1022,-17.71755,-17.748201,16.301353,-2.144489,3.7253885,12.115303,-42.95926,29.728273,5.237755,-21.784813,-0.9725758,-15.20723
223,104.7994384765625,82.9040756225586,74.2359390258789,-4.233503890938695,1.0558488752036816,-97.46388443388234,-28.350552,7.624031,8.139569,52.89929,-24.72522,4.895038,-10.529898,-8.33404,-7.400941,72.88155,-12.324188,5.1364255,3.75634,-0.4222237,9.689286,22.57807,33.249973,-16.839008,-18.694242,16.433912,-2.172177,3.7120378,12.136833,-42.92728,29.569004,3.938788,-21.974787,-0.9981332,-14.808341
224,105.32667541503906,83.4862289428711,74.39642333984375,-4.211023595982868,1.0657388974993924,-97.22823652362945,-28.651041,7.0159144,8.214765,52.07737,-23.56104,5.3575234,-9.1842575,-6.691574,-7.516608,71.99921,-11.800148,5.855146,4.1306677,-0.50711894,9.439009,24.219637,33.358322,-16.004187,-19.598166,16.357428,-2.2247074,3.7586076,12.177554,-42.85489,29.437536,2.717338,-22.091185,-1.019527,-14.45166
225,105.8635482788086,84.09685516357422,74.57845306396484,-4.170875635315003,1.038805427135091,-96.97493713021224,-28.814537,6.387822,8.339477,51.055702,-22.29674,5.8763,-7.7872434,-4.9009595,-7.479501,70.802505,-11.320428,6.787243,4.4987135,-0.5972635,9.226421,25.829159,33.42142,-15.210066,-20.452097,15.99704,-2.3205419,3.8866117,12.2381,-42.748478,29.345476,1.5719714,-22.075727,-1.0379914,-14.162866
226,106.40650939941406,84.69213104248047,74.79695892333984,-4.120704640647102,0.9906764156334896,-96.70121880318625,-28.87936,5.7430353,8.488927,49.86411,-20.9145,6.4262366,-6.342045,-2.9874735,-7.318958,69.29682,-10.852137,7.8657393,4.8538833,-0.68536943,9.03324,27.423342,33.43781,-14.44984,-21.277542,15.470041,-2.4449701,4.0815516,12.332508,-42.608997,29.275877,0.4813885,-21.964085,-1.0562484,-13.915855
227,106.953369140625,85.29719543457031,75.03672790527344,-4.04967767550996,0.9309494986711458,-96.41457382636675,-28.867592,5.0676904,8.66363,48.517967,-19.384335,6.968499,-4.906957,-1.0708388,-7.0893164,67.59122,-10.355947,8.94599,5.198543,-0.7775313,8.852786,28.963932,33.405197,-13.745568,-22.049177,14.8669815,-2.5739405,4.2997665,12.443556,-42.441322,29.224302,-0.5386844,-21.856058,-1.064457,-13.671691
228,107.50638580322266,85.92461395263672,75.2939224243164,-3.9490704766481426,0.8690743676462308,-96.122818167854,-28.800102,4.350814,8.860387,47.028553,-17.672703,7.4635887,-3.53999,0.7391076,-6.852653,65.79442,-9.78397,9.893635,5.53567,-0.87615377,8.678397,30.411047,33.320206,-13.121258,-22.739405,14.27996,-2.6821783,4.4983497,12.555508,-42.252125,29.18527,-1.4741595,-21.85054,-1.0533711,-13.391673
229,108.06522369384766,86.56328582763672,75.56806945800781,-3.8142419375494367,0.800852652169988,-95.82615124009521,-28.655146,3.5823371,9.078267,45.361374,-15.784105,7.9284244,-2.2218525,2.4489357,-6.61391,63.88144,-9.143656,10.735065,5.869185,-0.98080915,8.510034,31.768362,33.18004,-12.582583,-23.346216,13.704174,-2.7525246,4.693351,12.671582,-42.04744,29.158468,-2.3281744,-21.970846,-1.0084313,-13.059992
230,108.64591979980469,87.23213958740234,75.85475158691406,-3.650907165825744,0.7234370270981565,-95.52119473909157,-28.431358,2.7730167,9.316659,43.52079,-13.7299185,8.375085,-0.9247747,4.100637,-6.344511,61.807716,-8.447427,11.519209,6.194631,-1.0866584,8.351457,33.049385,32.98607,-12.120187,-23.879951,13.104169,-2.8028018,4.89746,12.799788,-41.830738,29.14502,-3.111897,-22.16371,-0.9393976,-12.6981735
231,109.23046112060547,87.91739654541016,76.15181732177734,-3.4666982338748022,0.6478346888568689,-95.2105825376617,-28.183222,1.9450153,9.569244,41.58077,-11.489182,8.755771,0.30256438,5.650718,-6.0613723,59.661236,-7.656152,12.164318,6.5014377,-1.187496,8.203313,34.22506,32.743404,-11.732606,-24.33312,12.521499,-2.8586059,5.0634055,12.937236,-41.60239,29.139183,-3.8285577,-22.415947,-0.87443954,-12.323809
232,109.82479858398438,88.61921691894531,76.45665740966797,-3.270598390431825,0.5848260838337226,-94.8968923955329,-27.964619,1.1206305,9.827396,39.61341,-9.038004,9.0216255,1.4115437,7.060327,-5.788835,57.53072,-6.72681,12.593955,6.781327,-1.2771013,8.066103,35.26655,32.459385,-11.418125,-24.695671,11.997596,-2.94387,5.1443415,13.08011,-41.360996,29.133877,-4.478996,-22.713728,-0.8419072,-11.953813
233,110.42436218261719,89.34124755859375,76.7634048461914,-3.0572592350218932,0.5308080082555945,-94.58510679892427,-27.78828,0.29421416,10.112265,37.636044,-6.3086104,9.336541,2.4056268,8.35014,-5.5136347,55.417675,-5.6555376,12.844527,7.0426702,-1.3572181,7.940694,36.18324,32.13384,-11.176369,-24.962591,11.511485,-3.0708003,5.120994,13.230872,-41.100967,29.122917,-5.0615425,-23.100727,-0.85112005,-11.570008
234,111.02894592285156,90.07923889160156,77.06183624267578,-2.824897096536325,0.48185425450294594,-94.27203857791409,-27.626907,-0.5373962,10.422493,35.60889,-3.3314004,9.666824,3.3104742,9.536227,-5.245143,53.283203,-4.459204,12.946712,7.285585,-1.4303647,7.827054,36.985565,31.769127,-11.004122,-25.14188,11.050188,-3.2228358,5.020007,13.385434,-40.821068,29.113443,-5.571998,-23.569422,-0.88840485,-11.170508
235,111.63581848144531,90.83546447753906,77.34703063964844,-2.5919175081681134,0.44684914292868844,-93.94910979894236,-27.464916,-1.3598099,10.687108,33.499653,-0.21952058,9.660039,4.1066294,10.582224,-5.0530434,51.160557,-3.1277375,12.816623,7.493495,-1.4883095,7.7260165,37.660088,31.378359,-10.894183,-25.254025,10.670595,-3.3801532,4.8659725,13.539161,-40.527115,29.113253,-6.0161023,-24.02692,-0.9452371,-10.798837
236,112.23119354248047,91.61239624023438,77.60738372802734,-2.380010079404265,0.43273803322936477,-93.60959110343948,-27.273808,-2.1704168,10.7960415,31.252844,2.9237378,8.951902,4.776555,11.457704,-5.0137677,49.079205,-1.6536494,12.366985,7.6544824,-1.5177767,7.6408887,38.19681,30.980053,-10.838658,-25.331984,10.426919,-3.523339,4.6858954,13.698112,-40.22847,29.124495,-6.410619,-24.378592,-1.0113367,-10.498649
237,112.83069610595703,92.4080810546875,77.83480834960938,-2.2087043182561725,0.44325296578665707,-93.24955019430783,-27.049389,-2.9667718,10.730013,28.795874,6.214835,7.450981,5.276149,12.269668,-5.0345826,47.035587,0.091946416,11.648637,7.7734113,-1.502101,7.573555,38.59628,30.580593,-10.837794,-25.372166,10.365894,-3.6476526,4.4783535,13.888445,-39.925842,29.129255,-6.772273,-24.620974,-1.0833853,-10.296144
238,113.43000030517578,93.2157974243164,78.02272033691406,-2.077863895738173,0.46680196995978546,-92.87904338800483,-26.775028,-3.7611911,10.454996,26.125502,9.662041,5.312855,5.638394,13.0172615,-5.147327,45.011868,2.0520532,10.673199,7.8659067,-1.4365723,7.528166,38.868813,30.181026,-10.892865,-25.372944,10.44368,-3.7633495,4.2357516,14.113779,-39.6191,29.122309,-7.1021175,-24.796242,-1.1654614,-10.163219
239,114.02886199951172,94.04927062988281,78.16918182373047,-1.9893256182686923,0.48448785894210095,-92.51485832715575,-26.378325,-4.5616536,9.820034,23.25985,13.009666,2.5413933,5.9592247,13.526182,-5.636074,43.02285,3.9522195,9.280348,7.93935,-1.3163557,7.5131173,39.016994,29.795397,-10.995846,-25.35927,10.575759,-3.873522,3.9763098,14.348546,-39.322113,29.121944,-7.3947387,-24.876194,-1.2575568,-10.0618725
