unveil-humanoid-operators/unveil-humanoid-operators.github.io/feature-analysis-animation/data/feature_matrix_instances/age_ankle_rom_jogging_A255_jog_ff_start_180_R_002__A255.csv
Frame,root_translateX,root_translateY,root_translateZ,root_rotateX,root_rotateY,root_rotateZ,left_hip_pitch_joint_dof,left_hip_roll_joint_dof,left_hip_yaw_joint_dof,left_knee_joint_dof,left_ankle_pitch_joint_dof,left_ankle_roll_joint_dof,right_hip_pitch_joint_dof,right_hip_roll_joint_dof,right_hip_yaw_joint_dof,right_knee_joint_dof,right_ankle_pitch_joint_dof,right_ankle_roll_joint_dof,waist_yaw_joint_dof,waist_roll_joint_dof,waist_pitch_joint_dof,left_shoulder_pitch_joint_dof,left_shoulder_roll_joint_dof,left_shoulder_yaw_joint_dof,left_elbow_joint_dof,left_wrist_roll_joint_dof,left_wrist_pitch_joint_dof,left_wrist_yaw_joint_dof,right_shoulder_pitch_joint_dof,right_shoulder_roll_joint_dof,right_shoulder_yaw_joint_dof,right_elbow_joint_dof,right_wrist_roll_joint_dof,right_wrist_pitch_joint_dof,right_wrist_yaw_joint_dof
0,0.06924517452716827,1.998450756072998,76.68437957763672,-0.5983720176155923,1.113444409569033,-90.02099015391357,-8.50127,11.511878,22.12634,31.00426,-21.473434,-5.3385253,-8.805661,-5.833356,-10.0485115,27.989756,-19.000622,6.2171497,-1.3922602,0.17821136,4.8465066,-0.53671974,28.909761,-49.528667,50.2547,22.544495,2.2142859,0.18025579,-0.79173213,-25.49371,53.55802,51.509083,-12.133863,1.3402208,-3.931159
1,0.06994727998971939,2.0062966346740723,76.68344116210938,-0.6009147852981123,1.1102683954788057,-90.02080017534324,-8.514019,11.510703,22.11558,31.026142,-21.474413,-5.2872987,-8.802316,-5.8332343,-10.052155,27.986631,-18.998974,6.2173676,-1.3949319,0.17883164,4.8555784,-0.5240566,28.958454,-49.526566,50.199146,22.561947,2.2029958,0.15190722,-0.7711744,-25.540342,53.542492,51.443752,-12.136576,1.3418028,-3.9246347
2,0.07533098757266998,2.0069706439971924,76.68207550048828,-0.6038472855503926,1.1072363833103556,-90.02054213142104,-8.527472,11.509213,22.103638,31.048147,-21.474464,-5.2314634,-8.797967,-5.8326354,-10.0561075,27.981354,-18.996101,6.217279,-1.3966165,0.18020912,4.8599763,-0.5156051,28.99186,-49.5252,50.16062,22.584732,2.191394,0.12308702,-0.7548062,-25.57338,53.52699,51.395676,-12.140831,1.3417965,-3.918446
3,0.07811540365219116,2.008230686187744,76.68384552001953,-0.6064052403740613,1.1038039733097507,-90.02037963138015,-8.539565,11.508531,22.093878,31.069979,-21.476261,-5.1848307,-8.79432,-5.8325863,-10.059674,27.977833,-18.994114,6.2177515,-1.402175,0.18266506,4.8581276,-0.51951027,28.996572,-49.52732,50.158787,22.607927,2.1788135,0.10075191,-0.7557907,-25.57803,53.52458,51.387085,-12.143569,1.3425392,-3.9153717
4,0.07997158914804459,2.0114357471466064,76.68589782714844,-0.6079916373280789,1.0996198048185386,-90.02088468338157,-8.543861,11.507722,22.089792,31.08049,-21.476212,-5.1607876,-8.790121,-5.833117,-10.061476,27.9736,-18.990973,6.219113,-1.3995692,0.18286385,4.863539,-0.5216335,29.021414,-49.538193,50.136032,22.623676,2.1670234,0.08616595,-0.74556786,-25.602772,53.515514,51.35301,-12.144285,1.3489565,-3.9133997
5,0.08062376081943512,2.015801191329956,76.68797302246094,-0.6079278844047254,1.0940616365110094,-90.02223594276744,-8.536803,11.507249,22.094875,31.075241,-21.474442,-5.173065,-8.785541,-5.8347855,-10.060978,27.969177,-18.986933,6.2218738,-1.3991659,0.18213902,4.870824,-0.52890414,29.03856,-49.5538,50.12636,22.633904,2.1541805,0.087668255,-0.7485856,-25.619505,53.52241,51.33628,-12.138288,1.364764,-3.9158406
6,0.08201806992292404,2.019859790802002,76.68684387207031,-0.6067591701125234,1.0874891316073485,-90.02437311045527,-8.521367,11.507022,22.106466,31.05849,-21.47121,-5.211088,-8.780417,-5.8372197,-10.058824,27.96445,-18.981953,6.2256393,-1.399791,0.18151522,4.881071,-0.5414932,29.042635,-49.565777,50.13186,22.648777,2.139964,0.09957168,-0.7620532,-25.623154,53.532574,51.337345,-12.135251,1.3865659,-3.9199529
7,0.08366405963897705,2.0246102809906006,76.68539428710938,-0.6054138777482463,1.080989937255371,-90.0264463410198,-8.505608,11.506947,22.118547,31.041302,-21.468422,-5.2520537,-8.774989,-5.8395777,-10.056155,27.95872,-18.97643,6.229729,-1.3974785,0.1794457,4.886786,-0.55044925,29.058758,-49.592674,50.12794,22.64938,2.1282804,0.114828415,-0.7701357,-25.636621,53.55595,51.32968,-12.117846,1.4076161,-3.9282012
8,0.08569073677062988,2.0255093574523926,76.68679809570312,-0.6053736965656216,1.0750335785860503,-90.02767027114787,-8.49515,11.506735,22.125002,31.031862,-21.46629,-5.2730603,-8.768539,-5.8403516,-10.054332,27.95127,-18.970373,6.2332625,-1.3977188,0.17906311,4.89346,-0.56188196,29.065838,-49.603325,50.131573,22.660677,2.1164322,0.11894775,-0.78050256,-25.642288,53.56623,51.331436,-12.115572,1.4160933,-3.9328163
9,0.08629731833934784,2.0282294750213623,76.6858901977539,-0.6071292529730528,1.070394668891695,-90.02748344677717,-8.495408,11.507436,22.122694,31.038057,-21.467579,-5.264287,-8.761411,-5.8388424,-10.053914,27.942118,-18.964546,6.2361355,-1.398527,0.18050897,4.895295,-0.5713441,29.07145,-49.606606,50.136093,22.674574,2.1053693,0.110322356,-0.78590935,-25.646702,53.57049,51.33422,-12.120853,1.4081432,-3.9361877
10,0.08892755955457687,2.0302324295043945,76.68673706054688,-0.609715060163906,1.066394984065044,-90.0265010032586,-8.500288,11.508005,22.11544,31.050102,-21.469196,-5.239118,-8.752321,-5.835743,-10.054206,27.928898,-18.95714,6.238781,-1.398712,0.18272968,4.8947697,-0.5777415,29.075933,-49.603584,50.138924,22.691633,2.0960836,0.09458056,-0.7881298,-25.650345,53.570553,51.3379,-12.131192,1.3906912,-3.9394822
11,0.08994565904140472,2.0322787761688232,76.68797302246094,-0.6125587300455658,1.0623368187876063,-90.02543352048527,-8.50659,11.508556,22.107311,31.064768,-21.471432,-5.209775,-8.74399,-5.8326826,-10.054277,27.917479,-18.95032,6.2412424,-1.399531,0.18489741,4.895544,-0.5799271,29.084354,-49.592182,50.13594,22.714388,2.0873399,0.07458361,-0.78947866,-25.657488,53.566914,51.338913,-12.142659,1.3682727,-3.9408302
12,0.09238488227128983,2.034883975982666,76.68647766113281,-0.6142605252146317,1.0573796588426816,-90.025224687711,-8.50928,11.508529,22.102459,31.0754,-21.472685,-5.188475,-8.736793,-5.8312693,-10.053494,27.909046,-18.943525,6.2435904,-1.3999094,0.18661061,4.8960686,-0.58500636,29.087612,-49.586323,50.136993,22.736776,2.0827398,0.05624716,-0.7929414,-25.660309,53.56465,51.343388,-12.148214,1.3493454,-3.9413843
13,0.09399109333753586,2.0370073318481445,76.68569946289062,-0.6143750402654247,1.0516912732854897,-90.02653796029857,-8.509405,11.507763,22.101484,31.08341,-21.473112,-5.174749,-8.733944,-5.832422,-10.051308,27.908825,-18.93805,6.2463584,-1.4021829,0.18674144,4.9032874,-0.58401316,29.101389,-49.57259,50.122654,22.767342,2.0832353,0.03919566,-0.7987078,-25.672417,53.560875,51.337036,-12.147369,1.3348483,-3.9375446
14,0.09576965868473053,2.041548013687134,76.68574523925781,-0.6136557221538774,1.0456682062882132,-90.02866773559631,-8.508914,11.506517,22.102367,31.091518,-21.47349,-5.1633067,-8.73312,-5.835059,-10.048268,27.911757,-18.932323,6.249394,-1.4014924,0.18585356,4.9080405,-0.58694166,29.11111,-49.566364,50.114895,22.79924,2.0881462,0.024035389,-0.80535096,-25.681118,53.557644,51.33613,-12.139663,1.3211035,-3.9324198
15,0.09674372524023056,2.0453927516937256,76.68548583984375,-0.6125864130371643,1.038775669186023,-90.03088635509907,-8.505341,11.505147,22.105057,31.096254,-21.473812,-5.1591616,-8.73179,-5.838145,-10.044933,27.916029,-18.927725,6.2515407,-1.3994685,0.18518583,4.911233,-0.5897538,29.11498,-49.560955,50.111416,22.830597,2.0922794,0.0067254454,-0.8112079,-25.684635,53.553574,51.339413,-12.1296835,1.3067514,-3.928557
16,0.09877890348434448,2.047147512435913,76.68509674072266,-0.6116177814841047,1.030393926348346,-90.03228662618965,-8.49536,11.50362,22.109583,31.093714,-21.47392,-5.167199,-8.7258625,-5.840507,-10.041905,27.916536,-18.924402,6.2517395,-1.3990853,0.1851721,4.9164863,-0.59309644,29.118916,-49.55231,50.108032,22.853403,2.0894458,-0.017740598,-0.81602085,-25.688293,53.54681,51.342903,-12.1224785,1.2892643,-3.9277604
17,0.10104433447122574,2.0492711067199707,76.68580627441406,-0.610809514373704,1.0188583921876087,-90.03223715926303,-8.474675,11.501745,22.117002,31.080032,-21.474466,-5.197505,-8.713244,-5.841798,-10.0392065,27.913973,-18.92451,6.2476187,-1.4009659,0.18599539,4.9287972,-0.59237,29.128685,-49.5291,50.094078,22.870232,2.0750036,-0.061147366,-0.815801,-25.697628,53.53037,51.336086,-12.12197,1.2669251,-3.9304278
18,0.1041816994547844,2.050732135772705,76.68523406982422,-0.6100491364145468,1.0050708849725702,-90.03109437816477,-8.445655,11.499598,22.127014,31.056772,-21.4746,-5.244556,-8.695868,-5.842675,-10.036616,27.909042,-18.926756,6.2405396,-1.403152,0.18742093,4.9408307,-0.5895958,29.13649,-49.503204,50.07997,22.87982,2.0549042,-0.1156862,-0.81206614,-25.705336,53.51252,51.329475,-12.120923,1.2422872,-3.9372637
19,0.10534802824258804,2.051013946533203,76.68765258789062,-0.6088358749240542,0.9921653748650351,-90.03051282420138,-8.417768,11.497573,22.137356,31.03437,-21.474888,-5.2898245,-8.678752,-5.8434086,-10.034126,27.902643,-18.928362,6.234603,-1.4052482,0.18922423,4.9517703,-0.5848057,29.143347,-49.47759,50.067135,22.887892,2.0327256,-0.16306604,-0.8084601,-25.712236,53.495262,51.32509,-12.119695,1.2164408,-3.9446461
20,0.1081458330154419,2.053536891937256,76.68851470947266,-0.6087631683335163,0.983174884408185,-90.03200998602841,-8.399962,11.496821,22.145767,31.022133,-21.475473,-5.3149667,-8.666204,-5.8440986,-10.031877,27.89461,-18.926306,6.234069,-1.4092958,0.19135106,4.9608917,-0.58177763,29.150505,-49.461056,50.057873,22.892452,2.014479,-0.18468803,-0.80981785,-25.719427,53.483986,51.324703,-12.1186,1.192407,-3.9496818
21,0.10847692936658859,2.056410789489746,76.68807983398438,-0.6080046740053773,0.9805414709427006,-90.03742315611024,-8.397821,11.49747,22.152817,31.025326,-21.476545,-5.3122034,-8.66149,-5.8459506,-10.029627,27.884354,-18.917974,6.242696,-1.4134897,0.1927252,4.9616876,-0.58145887,29.152735,-49.460938,50.060192,22.893923,2.003616,-0.16519494,-0.81527966,-25.721638,53.483,51.333122,-12.114972,1.1710835,-3.953597
22,0.11037763953208923,2.0587260723114014,76.6859359741211,-0.6068745869280215,0.9810086972432772,-90.04552539014743,-8.403617,11.499818,22.159285,31.037111,-21.477955,-5.292496,-8.659738,-5.847455,-10.027809,27.870865,-18.905357,6.257233,-1.4175802,0.19532658,4.9639697,-0.5778089,29.156816,-49.466213,50.061806,22.896126,1.9920002,-0.112936586,-0.82754683,-25.725628,53.48426,51.349842,-12.111172,1.1424979,-3.9562712
23,0.11139541119337082,2.0614943504333496,76.68509674072266,-0.6066111110750294,0.9827239412034623,-90.05294131606988,-8.4136305,11.502694,22.162737,31.053108,-21.479805,-5.2648587,-8.658666,-5.8479714,-10.026401,27.856524,-18.892347,6.271564,-1.4203215,0.1991123,4.9638867,-0.574458,29.167074,-49.485462,50.05753,22.88547,1.9844168,-0.058026396,-0.83628553,-25.73514,53.48986,51.358852,-12.10263,1.1203485,-3.957098
24,0.11245010048151016,2.060142993927002,76.687255859375,-0.60789805497271,0.9822988622237365,-90.05686716361399,-8.419854,11.503298,22.162117,31.064713,-21.480713,-5.238198,-8.655166,-5.8475366,-10.024822,27.845337,-18.884546,6.2797384,-1.4249405,0.20161058,4.964534,-0.5737953,29.169476,-49.490677,50.061443,22.885757,1.9765387,-0.034820788,-0.84193254,-25.737377,53.49076,51.367104,-12.105347,1.1118022,-3.954906
25,0.11496641486883163,2.0602118968963623,76.68827819824219,-0.6124004455417995,0.9781573768608761,-90.05392288031302,-8.423553,11.503913,22.15138,31.075996,-21.482418,-5.2076735,-8.643982,-5.8417444,-10.024907,27.832829,-18.88222,6.276405,-1.4242959,0.20677751,4.967942,-0.5726869,29.184324,-49.50162,50.052475,22.87694,1.966511,-0.051144253,-0.83348393,-25.751415,53.482327,51.352272,-12.111123,1.1219695,-3.9454868
26,0.11818674206733704,2.0598573684692383,76.68804168701172,-0.6175349024224126,0.9721116925666514,-90.04684862986907,-8.426054,11.503148,22.134068,31.08659,-21.48369,-5.170782,-8.629393,-5.8336387,-10.025381,27.821352,-18.884212,6.2662854,-1.4278013,0.2129905,4.973181,-0.57147247,29.194662,-49.498993,50.04713,22.874962,1.9548848,-0.09553019,-0.82448566,-25.761524,53.471725,51.335087,-12.125965,1.1467615,-3.9305902
27,0.12121842801570892,2.0602171421051025,76.6891098022461,-0.6234695659769145,0.9664734995195738,-90.0401353894095,-8.4264965,11.501231,22.118782,31.093023,-21.484016,-5.140639,-8.615475,-5.8268323,-10.025438,27.810278,-18.885775,6.2572017,-1.4324307,0.21842627,4.975752,-0.57100976,29.197294,-49.496788,50.05041,22.875866,1.9464471,-0.1404478,-0.82074374,-25.764103,53.46794,51.331375,-12.139041,1.169361,-3.9182308
28,0.1211729496717453,2.059107542037964,76.6900634765625,-0.6255592466493461,0.9630554377409339,-90.03792707830019,-8.424186,11.499455,22.113213,31.092676,-21.483028,-5.1306334,-8.605353,-5.823719,-10.025103,27.797884,-18.881409,6.256662,-1.4338347,0.22108287,4.981895,-0.5710115,29.206768,-49.495533,50.04554,22.882622,1.9443665,-0.16939989,-0.81414866,-25.773506,53.459576,51.32208,-12.154134,1.1781015,-3.9115717
29,0.12103471904993057,2.0604248046875,76.6887435913086,-0.6220675386448021,0.9636882603583172,-90.04368257097425,-8.415272,11.49531,22.125618,31.076315,-21.47758,-5.1555586,-8.602517,-5.8293004,-10.023298,27.78409,-18.866577,6.2722387,-1.4331145,0.21829309,4.9853525,-0.5704284,29.210297,-49.499607,50.04713,22.899855,1.9566557,-0.16260265,-0.8177166,-25.77692,53.46159,51.337418,-12.164398,1.1583489,-3.917839
30,0.11981178820133209,2.062455415725708,76.68850708007812,-0.6129657582444654,0.9667197965413528,-90.05424804411206,-8.402053,11.489774,22.149588,31.05051,-21.47029,-5.204601,-8.604395,-5.8403673,-10.020612,27.769943,-18.845602,6.2979636,-1.4305618,0.21202044,4.9893417,-0.5717669,29.214487,-49.51246,50.04719,22.91644,1.9795172,-0.13595252,-0.8251744,-25.780684,53.469994,51.36007,-12.170338,1.1211561,-3.9320743
31,0.12131445109844208,2.064296007156372,76.68807220458984,-0.6050431510187527,0.9701889191489769,-90.0646804290419,-8.389683,11.484879,22.17283,31.02545,-21.463247,-5.252201,-8.606698,-5.850563,-10.0176325,27.756493,-18.825928,6.321772,-1.427413,0.20618507,4.9922256,-0.5717937,29.21628,-49.520203,50.049503,22.938974,1.9988165,-0.11125441,-0.8306532,-25.782194,53.475517,51.383266,-12.175957,1.0853693,-3.9473202
32,0.12361068278551102,2.0641391277313232,76.68965911865234,-0.601421447111445,0.9718654994052114,-90.06968167344746,-8.382536,11.482219,22.183851,31.011457,-21.459244,-5.2728033,-8.604525,-5.853857,-10.01474,27.74427,-18.815104,6.331795,-1.4491835,0.20568614,4.982267,-0.5467988,29.224516,-49.5104,50.04419,22.950167,2.0025363,-0.1065942,-0.72303736,-25.786087,53.38189,51.33124,-12.310821,1.0705448,-3.9591393
33,0.12506438791751862,2.060803174972534,76.69137573242188,-0.6070536451626627,0.9699846502209237,-90.06632888518351,-8.3838415,11.484199,22.17562,31.016785,-21.461357,-5.2515407,-8.596331,-5.8455877,-10.011308,27.737894,-18.821276,6.317352,-1.4147224,0.2089675,4.996456,-0.5740984,29.232204,-49.532066,50.046936,22.968464,1.9776436,-0.14156015,-0.80723685,-25.794117,53.455574,51.375343,-12.172961,1.0801227,-3.9592526
34,0.12909288704395294,2.0581271648406982,76.69197845458984,-0.617392029683645,0.9663209031540672,-90.05759173951124,-8.391046,11.489433,22.155413,31.034967,-21.467667,-5.20475,-8.584182,-5.82978,-10.00753,27.733923,-18.837616,6.287512,-1.4197894,0.22010975,4.9949546,-0.569183,29.233803,-49.517197,50.052498,22.983105,1.9339901,-0.19760065,-0.79194,-25.795732,53.450783,51.35844,-12.157996,1.1121336,-3.9584463
35,0.1303781121969223,2.0559158325195312,76.69353485107422,-0.6266488059890263,0.9632635038843298,-90.04843761307916,-8.399581,11.494263,22.13344,31.053799,-21.473637,-5.153578,-8.571787,-5.8137918,-10.004631,27.728462,-18.852976,6.259048,-1.4267757,0.2315443,4.998321,-0.5569974,29.237474,-49.482437,50.04931,23.011093,1.8894006,-0.255872,-0.77567464,-25.800009,53.436066,51.335503,-12.1534605,1.1442399,-3.9537086
36,0.1314627230167389,2.0546300411224365,76.69292449951172,-0.6316091108343219,0.9633252508725315,-90.04353382516456,-8.406212,11.494276,22.119904,31.064047,-21.475687,-5.118995,-8.56442,-5.80684,-10.003175,27.720648,-18.857233,6.249049,-1.4300157,0.23755468,4.998809,-0.5532974,29.238289,-49.476677,50.050762,23.02089,1.8702297,-0.28160533,-0.76832145,-25.800888,53.433697,51.329895,-12.148173,1.1574212,-3.9525278
37,0.1308271586894989,2.0534744262695312,76.69149017333984,-0.6293286071187117,0.9687439021724088,-90.04495959133342,-8.414257,11.490996,22.115797,31.067318,-21.473509,-5.104553,-8.560952,-5.8085394,-10.005595,27.69883,-18.83866,6.269835,-1.4327799,0.2383353,4.9977565,-0.5500248,29.239407,-49.473083,50.05155,23.035555,1.8782672,-0.27485535,-0.763956,-25.802023,53.435165,51.3326,-12.1621475,1.1469777,-3.954015
38,0.12827429175376892,2.0535104274749756,76.69126892089844,-0.6233155633420049,0.9779082496455921,-90.04982718406835,-8.423647,11.483528,22.116848,31.065672,-21.46796,-5.099382,-8.562173,-5.8178506,-10.010127,27.67278,-18.808392,6.3101234,-1.4389844,0.2348351,4.994193,-0.5413093,29.243347,-49.480396,50.0456,23.04114,1.9118015,-0.23665716,-0.7697353,-25.805445,53.45378,51.349358,-12.17831,1.1161247,-3.9591868
39,0.12731294333934784,2.0515823364257812,76.6903076171875,-0.6172084799203681,0.9871824212291677,-90.05525870340033,-8.429312,11.475627,22.121336,31.057787,-21.461079,-5.104575,-8.563556,-5.828624,-10.0153675,27.64685,-18.777403,6.3494086,-1.4437795,0.22998835,4.990265,-0.53919184,29.247084,-49.49627,50.04391,23.039272,1.9447625,-0.1978203,-0.7759604,-25.808018,53.4739,51.366096,-12.190312,1.086664,-3.9629896
40,0.12793436646461487,2.0500032901763916,76.69039154052734,-0.6141302299663245,0.9937613472594874,-90.05753269360373,-8.430116,11.472306,22.126163,31.048672,-21.458244,-5.1214066,-8.56333,-5.834825,-10.021212,27.629877,-18.759468,6.367206,-1.4450792,0.22840732,4.986228,-0.5365072,29.249098,-49.503956,50.043533,23.043802,1.9561889,-0.18428998,-0.77309686,-25.809072,53.483414,51.370132,-12.190596,1.0763478,-3.9613242
41,0.1297604739665985,2.0484585762023926,76.69259643554688,-0.6168984115855229,0.9958614123410363,-90.0550274848404,-8.418233,11.475707,22.133486,31.027157,-21.457088,-5.1626835,-8.558063,-5.8333898,-10.028749,27.622093,-18.75818,6.3496847,-1.4436208,0.23200426,4.980939,-0.5327098,29.25085,-49.50035,50.045498,23.056112,1.930694,-0.21339418,-0.7592218,-25.809763,53.48235,51.357372,-12.169666,1.0953084,-3.949926
42,0.13287575542926788,2.043358325958252,76.69681549072266,-0.6239572720337552,0.9953063706984602,-90.04982603574024,-8.399507,11.484065,22.143124,31.001148,-21.459595,-5.2237105,-8.552019,-5.828178,-10.037789,27.624393,-18.769108,6.310579,-1.4416775,0.23837022,4.9775686,-0.5309356,29.252142,-49.48686,50.049675,23.074442,1.8817663,-0.2697045,-0.73904604,-25.810198,53.4715,51.331978,-12.1401615,1.1324723,-3.9307437
43,0.13595284521579742,2.0398812294006348,76.69830322265625,-0.630904989917097,0.9944109139080599,-90.04419663882369,-8.38061,11.491642,22.151442,30.974882,-21.461239,-5.2788877,-8.544861,-5.8223143,-10.046096,27.626242,-18.781387,6.2705297,-1.4397435,0.24496965,4.9789634,-0.5266768,29.253788,-49.462997,50.048347,23.100275,1.8336602,-0.32674056,-0.7174948,-25.810886,53.4518,51.301373,-12.116826,1.1716383,-3.910833
44,0.13521087169647217,2.0371792316436768,76.69886779785156,-0.6343155038449555,0.9957823143187766,-90.04028778773971,-8.371083,11.493939,22.153923,30.959265,-21.461456,-5.3026667,-8.538382,-5.819341,-10.051386,27.620821,-18.786238,6.2501216,-1.440372,0.249348,4.981459,-0.5217072,29.25628,-49.447144,50.04268,23.11626,1.8120033,-0.3543764,-0.7036331,-25.812126,53.44164,51.279865,-12.100866,1.197415,-3.9006734
45,0.1417265385389328,2.0348713397979736,76.6971206665039,-0.6332061137082945,1.0008564519454866,-90.0390455860492,-8.377476,11.488106,22.146729,30.961754,-21.459484,-5.273871,-8.533087,-5.820608,-10.052913,27.603794,-18.778803,6.260848,-1.4432985,0.2501908,4.9837613,-0.51757777,29.25731,-49.45037,50.03442,23.116312,1.833731,-0.3311803,-0.7005305,-25.812634,53.44729,51.27459,-12.09717,1.201877,-3.906316
46,0.14183993637561798,2.032355308532715,76.69512939453125,-0.6286867836036514,1.0083498737853775,-90.03900376973364,-8.394213,11.47777,22.1328,30.97629,-21.456621,-5.2110057,-8.527932,-5.823709,-10.052222,27.578745,-18.764273,6.28966,-1.4516321,0.24967301,4.982908,-0.5127229,29.25906,-49.47179,50.023376,23.095642,1.8844743,-0.27413473,-0.7044586,-25.81324,53.474148,51.27706,-12.092255,1.1958815,-3.9242675
47,0.13572266697883606,2.025362968444824,76.6944351196289,-0.6232230534515071,1.0157580855693202,-90.03932925840145,-8.409036,11.4650135,22.11904,30.987286,-21.45183,-5.147636,-8.52333,-5.827845,-10.049509,27.554989,-18.750519,6.3206224,-1.4590197,0.24746364,4.978186,-0.50717264,29.260683,-49.49835,50.01414,23.070492,1.93642,-0.21824223,-0.7087138,-25.813173,53.50824,51.283913,-12.081614,1.1892238,-3.9452877
48,0.13334612548351288,2.0213820934295654,76.69490051269531,-0.6182767283072608,1.0206323209561776,-90.03891083183224,-8.4109,11.453155,22.112005,30.981413,-21.445446,-5.117378,-8.519128,-5.831757,-10.045404,27.540823,-18.744892,6.3376937,-1.4631919,0.24512848,4.9736924,-0.50042915,29.26153,-49.511097,50.006157,23.057302,1.9635613,-0.19845124,-0.7072637,-25.811882,53.531296,51.28533,-12.065889,1.1924231,-3.9587996
49,0.13360844552516937,2.0142672061920166,76.69708251953125,-0.6142407444971636,1.0206232240331656,-90.03729060989066,-8.388749,11.441537,22.115973,30.943966,-21.434465,-5.1425433,-8.513386,-5.834976,-10.038881,27.539036,-18.750923,6.3326297,-1.4604067,0.24232271,4.9732447,-0.49768636,29.261482,-49.5045,50.001717,23.061628,1.9507087,-0.23786642,-0.6962424,-25.81079,53.531242,51.27552,-12.045473,1.2135695,-3.9585528
50,0.13487209379673004,2.0084733963012695,76.70030975341797,-0.6104960746528049,1.0178113391720953,-90.03507845099949,-8.352173,11.429677,22.126524,30.886978,-21.420218,-5.200815,-8.507144,-5.837908,-10.030269,27.54554,-18.764614,6.315148,-1.4552828,0.23929603,4.97297,-0.49732146,29.261232,-49.49185,50.000454,23.069891,1.9152445,-0.31186256,-0.6816223,-25.809942,53.52498,51.261906,-12.01714,1.2452418,-3.9517431
51,0.13707049190998077,2.001905918121338,76.70100402832031,-0.6059902903707145,1.0148466651052057,-90.03315838334345,-8.315047,11.417261,22.137838,30.829966,-21.406353,-5.258753,-8.501584,-5.8415756,-10.021089,27.554125,-18.779575,6.296851,-1.4528707,0.23507491,4.9792905,-0.48920593,29.260378,-49.448822,49.991932,23.10275,1.8748635,-0.3948776,-0.6663622,-25.807076,53.50456,51.24411,-12.00565,1.2748922,-3.941906
52,0.13795481622219086,1.9978235960006714,76.70355224609375,-0.6035074985052943,1.016002827593285,-90.03138438697084,-8.296489,11.409003,22.141546,30.799282,-21.399666,-5.28346,-8.498982,-5.843283,-10.01514,27.55896,-18.790041,6.28862,-1.4501843,0.23432083,4.978832,-0.4858263,29.259985,-49.438786,49.985786,23.111849,1.8571787,-0.43897843,-0.6573955,-25.80589,53.500786,51.238255,-11.993791,1.2870917,-3.9407735
53,0.13913504779338837,1.9915732145309448,76.7048568725586,-0.5990871310542316,1.0218517023510802,-90.03109081507375,-8.299536,11.399849,22.137144,30.79864,-21.398916,-5.253927,-8.5010605,-5.847273,-10.010313,27.561024,-18.795132,6.296714,-1.4506218,0.23166823,4.9767346,-0.48116177,29.259401,-49.431118,49.975693,23.125887,1.8666329,-0.44383067,-0.65143645,-25.8042,53.502422,51.23859,-12.007753,1.2742463,-3.9492466
54,0.13732300698757172,1.9853266477584839,76.7031021118164,-0.5958956301275147,1.0316803942905153,-90.03127770441255,-8.319848,11.393849,22.12607,30.822435,-21.404959,-5.192248,-8.506448,-5.8496747,-10.007603,27.560553,-18.796663,6.313485,-1.4540919,0.23158401,4.9703064,-0.4718821,29.25852,-49.433887,49.96152,23.134441,1.8955021,-0.4166932,-0.6518514,-25.801783,53.515656,51.250694,-12.030573,1.241601,-3.9650266
55,0.1370999664068222,1.980218529701233,76.7000732421875,-0.5928978086388527,1.0416535779323657,-90.0314617235797,-8.342144,11.388627,22.114485,30.85017,-21.412464,-5.127767,-8.511349,-5.8524365,-10.006382,27.55882,-18.797144,6.3322062,-1.4572718,0.23164935,4.965641,-0.46790928,29.258057,-49.440628,49.95057,23.139318,1.9254007,-0.38706326,-0.65221006,-25.800682,53.52587,51.259407,-12.054663,1.2121049,-3.9804552
56,0.1370333731174469,1.97454833984375,76.69843292236328,-0.5903178910678717,1.0487473289925489,-90.03089523556774,-8.352406,11.383205,22.107594,30.862747,-21.41713,-5.090107,-8.511952,-5.855646,-10.006818,27.555454,-18.798317,6.3457413,-1.4589704,0.23227604,4.9613314,-0.46283558,29.257383,-49.446373,49.941875,23.144659,1.9433832,-0.3771249,-0.64922076,-25.799358,53.534496,51.261993,-12.064319,1.205375,-3.991213
57,0.13611270487308502,1.9676380157470703,76.6983413696289,-0.5877742909304038,1.052454983025658,-90.02852913918511,-8.347234,11.376358,22.106287,30.854107,-21.417055,-5.089305,-8.507603,-5.860737,-10.009774,27.550116,-18.799967,6.353492,-1.462063,0.23398548,4.95555,-0.45425484,29.255175,-49.446846,49.9352,23.14935,1.9487487,-0.40062118,-0.64175075,-25.795464,53.54217,51.259457,-12.053133,1.233039,-3.9984596
58,0.1362038403749466,1.9607669115066528,76.69901275634766,-0.5850554952219658,1.0533212032698478,-90.02555749421951,-8.332581,11.368188,22.108429,30.834381,-21.414734,-5.1088276,-8.498975,-5.867424,-10.014401,27.542402,-18.801222,6.358867,-1.4665369,0.23579049,4.955478,-0.44687518,29.252298,-49.434456,49.93196,23.161009,1.9420662,-0.44622502,-0.6342572,-25.790771,53.540073,51.251453,-12.037078,1.2820027,-3.9996736
59,0.13700172305107117,1.950920581817627,76.7003402709961,-0.5831985476436754,1.0537429391350122,-90.02255283747115,-8.31461,11.362084,22.11297,30.810886,-21.412699,-5.138401,-8.48936,-5.8731213,-10.020146,27.534924,-18.803627,6.360654,-1.4708148,0.2380107,4.957991,-0.43703666,29.248005,-49.413345,49.927475,23.182175,1.9301003,-0.49276793,-0.6270437,-25.783857,53.531998,51.240166,-12.02354,1.3367311,-3.996714
60,0.14335212111473083,1.943297266960144,76.70059204101562,-0.5834060683981304,1.0562350437035142,-90.02034566639405,-8.300933,11.361126,22.118355,30.79381,-21.414745,-5.1675453,-8.480556,-5.8753285,-10.026768,27.52705,-18.806606,6.3576193,-1.4735475,0.24122,4.957161,-0.43003786,29.24568,-49.404934,49.923042,23.198727,1.9167697,-0.51833695,-0.61892426,-25.779926,53.527683,51.22427,-12.011986,1.3806419,-3.9910338
61,0.14002449810504913,1.9311364889144897,76.70060729980469,-0.5868744221063358,1.0607234943519541,-90.0192124683569,-8.290209,11.36811,22.126663,30.781574,-21.42103,-5.1989994,-8.471547,-5.871904,-10.0355015,27.517935,-18.810324,6.345047,-1.4768233,0.24596009,4.952821,-0.42205063,29.241337,-49.39929,49.92094,23.223278,1.8970069,-0.5137925,-0.6124336,-25.771866,53.52385,51.2083,-12.012408,1.4126121,-3.9789124
62,0.13646340370178223,1.9210736751556396,76.69954681396484,-0.5925528740667526,1.0662118852600455,-90.01866553358714,-8.280148,11.380325,22.137594,30.771633,-21.430609,-5.2363744,-8.462154,-5.8652825,-10.046134,27.509058,-18.815504,6.3251777,-1.4782128,0.2519286,4.9463377,-0.4137967,29.238422,-49.402084,49.91554,23.247532,1.8739731,-0.4906881,-0.60575354,-25.7653,53.523273,51.18816,-12.01177,1.4384439,-3.9633956
63,0.13528385758399963,1.913617730140686,76.69910430908203,-0.5979227924541961,1.0736179884206847,-90.01823252469597,-8.272373,11.391741,22.147757,30.761713,-21.439548,-5.27063,-8.45473,-5.858617,-10.055405,27.499655,-18.820442,6.3068757,-1.4803874,0.25749213,4.9400406,-0.40818217,29.237894,-49.40491,49.910313,23.26895,1.8529011,-0.46622545,-0.60023254,-25.764011,53.523525,51.16692,-12.012929,1.4565916,-3.9483294
64,0.13605935871601105,1.9040696620941162,76.69953918457031,-0.6018796412011858,1.0835139134516092,-90.01767920939027,-8.271731,11.400153,22.153208,30.758518,-21.44925,-5.293676,-8.451235,-5.853492,-10.061458,27.490557,-18.825127,6.2991104,-1.472677,0.2581387,4.924232,-0.40171334,29.232662,-49.421284,49.91439,23.28863,1.8415614,-0.44603175,-0.58576846,-25.751808,53.518997,51.152866,-12.01411,1.4738024,-3.9382865
65,0.13930553197860718,1.8949958086013794,76.69905090332031,-0.599894816785966,1.0967101194954636,-90.01618878614609,-8.2756605,11.396351,22.153112,30.752487,-21.45319,-5.3010354,-8.453552,-5.85519,-10.060896,27.481405,-18.828611,6.3090935,-1.4682014,0.25367475,4.916308,-0.3963454,29.231388,-49.423576,49.908268,23.306732,1.850804,-0.4492818,-0.58025557,-25.749298,53.517002,51.14511,-12.012055,1.4737767,-3.9392624
66,0.14087554812431335,1.8850805759429932,76.6961669921875,-0.5949632321942901,1.1129449897245167,-90.0142601015633,-8.285949,11.387175,22.149052,30.749907,-21.456148,-5.298191,-8.460679,-5.860168,-10.056138,27.472696,-18.831432,6.3303013,-1.4587126,0.2450084,4.905532,-0.39202797,29.22706,-49.42683,49.90443,23.326635,1.873067,-0.46226504,-0.57249105,-25.741688,53.5094,51.14594,-12.012817,1.4635745,-3.9465048
67,0.13958744704723358,1.8756366968154907,76.69525146484375,-0.589763122710907,1.129675800193112,-90.01232509203004,-8.297335,11.37672,22.143084,30.747997,-21.458164,-5.289025,-8.468185,-5.8654804,-10.050976,27.464153,-18.834719,6.352153,-1.4512286,0.23602171,4.897042,-0.38831195,29.222164,-49.427914,49.90052,23.341635,1.8972318,-0.47641784,-0.5690919,-25.734123,53.50539,51.149315,-12.012514,1.452001,-3.9544659
68,0.14039701223373413,1.865850806236267,76.6969223022461,-0.5863153479771958,1.1459884300433005,-90.01096422926524,-8.308316,11.369042,22.13754,30.747082,-21.460405,-5.2770753,-8.476377,-5.86908,-10.04822,27.460297,-18.841204,6.3640776,-1.4447248,0.23063566,4.8877296,-0.38448757,29.21645,-49.429684,49.895985,23.350113,1.9147846,-0.48674288,-0.5674978,-25.725824,53.503693,51.156254,-12.013229,1.4426523,-3.9572017
69,0.14061599969863892,1.8543757200241089,76.69613647460938,-0.5867908186754425,1.1609116786407214,-90.01059622883724,-8.319167,11.367197,22.131748,30.750166,-21.463223,-5.2589455,-8.48318,-5.869335,-10.050608,27.460266,-18.850357,6.3593163,-1.4406823,0.2312675,4.8800735,-0.38168508,29.211395,-49.432243,49.892582,23.348818,1.9179213,-0.49157125,-0.5716386,-25.718935,53.508442,51.167046,-12.013043,1.440658,-3.9533825
70,0.13800740242004395,1.8422844409942627,76.69602966308594,-0.5893303072080449,1.1754432154896015,-90.01079330643041,-8.331422,11.36832,22.124762,30.757235,-21.466469,-5.2341065,-8.4907875,-5.8678355,-10.055729,27.46477,-18.862164,6.344757,-1.4410394,0.23530032,4.872607,-0.37881628,29.203142,-49.434464,49.890404,23.338684,1.9154671,-0.494144,-0.5819398,-25.707981,53.523033,51.183372,-12.010442,1.4433532,-3.9471593
71,0.1362697035074234,1.830132246017456,76.6956787109375,-0.5916308264273988,1.1896540100182593,-90.01080818064152,-8.341091,11.368936,22.118328,30.760794,-21.468857,-5.210964,-8.49645,-5.8659463,-10.060472,27.468,-18.8746,6.3303633,-1.4417589,0.23900594,4.8659716,-0.37376857,29.198313,-49.436447,49.884975,23.323122,1.912712,-0.49143496,-0.5900925,-25.701777,53.5351,51.194843,-12.008857,1.4450636,-3.9373028
72,0.1386169046163559,1.820475459098816,76.69609069824219,-0.5914391347932731,1.2033660540345488,-90.01003172556115,-8.345859,11.366296,22.114084,30.758085,-21.471745,-5.197878,-8.49815,-5.8651557,-10.061441,27.466019,-18.886726,6.3261714,-1.4434894,0.2385277,4.8582726,-0.36622766,29.195112,-49.43948,49.879684,23.302885,1.9172276,-0.47896132,-0.5921138,-25.697685,53.54288,51.196705,-12.008323,1.4432876,-3.9251678
73,0.13528360426425934,1.8052376508712769,76.69586181640625,-0.5865324702533972,1.2171658404601997,-90.0081284983817,-8.3428955,11.356741,22.113333,30.74254,-21.472404,-5.1997614,-8.494272,-5.866825,-10.055962,27.455734,-18.898344,6.3392367,-1.4486604,0.23086916,4.844093,-0.36141902,29.187422,-49.4549,49.887184,23.269703,1.9352452,-0.44731262,-0.59167063,-25.687489,53.549488,51.19876,-12.003473,1.4374526,-3.907463
74,0.1328921914100647,1.7889244556427002,76.69478607177734,-0.5788314920510432,1.2306847774173013,-90.00552127592591,-8.335021,11.34325,22.114885,30.719679,-21.472414,-5.2112656,-8.487036,-5.869934,-10.046278,27.441875,-18.911009,6.3627663,-1.4565731,0.21904647,4.8317785,-0.35050556,29.184471,-49.465244,49.88831,23.236097,1.9606936,-0.4039778,-0.58548397,-25.683395,53.54784,51.185856,-12.000387,1.4293324,-3.8828611
75,0.1315336972475052,1.7731735706329346,76.69436645507812,-0.571494685782817,1.2435229225467237,-90.00268577961528,-8.324727,11.330505,22.116861,30.6953,-21.473927,-5.2253857,-8.477816,-5.8721685,-10.036962,27.425755,-18.922522,6.38587,-1.4511324,0.20557712,4.8146043,-0.3577692,29.176575,-49.502865,49.908356,23.183708,1.9850336,-0.35900462,-0.57064325,-25.672642,53.53627,51.1814,-12.002707,1.4164295,-3.8629677
76,0.1322363317012787,1.7571485042572021,76.69237518310547,-0.568877556613795,1.2544823313857054,-89.99974615443838,-8.316375,11.325067,22.116528,30.680239,-21.481617,-5.2351837,-8.467321,-5.8707805,-10.033043,27.409262,-18.930695,6.39756,-1.451245,0.19830821,4.8077097,-0.35266918,29.174387,-49.510136,49.91311,23.140259,1.9958668,-0.33219448,-0.56292075,-25.669931,53.534695,51.17656,-12.014664,1.3980842,-3.85434
77,0.13097691535949707,1.7413249015808105,76.69287109375,-0.5718235646002391,1.262861203024042,-89.99730377453483,-8.308381,11.327964,22.114609,30.673626,-21.494898,-5.236537,-8.456326,-5.8656826,-10.036447,27.393583,-18.933458,6.3896217,-1.4422747,0.19669276,4.8065515,-0.35393718,29.171848,-49.51339,49.92049,23.088558,1.9869813,-0.32864234,-0.5564429,-25.667288,53.538033,51.185837,-12.044461,1.3686808,-3.8644388
78,0.13000863790512085,1.7275445461273193,76.6918716430664,-0.5793345133332966,1.268779813070616,-89.99476478625947,-8.3000965,11.337922,22.111149,30.673525,-21.513332,-5.2341228,-8.443999,-5.8567295,-10.044932,27.37833,-18.932932,6.369399,-1.4338219,0.20042652,4.809325,-0.36206535,29.16774,-49.51242,49.938046,23.022148,1.9616032,-0.33914644,-0.5555421,-25.663874,53.552788,51.2112,-12.085498,1.3248339,-3.8895233
79,0.12700164318084717,1.7099767923355103,76.69136810302734,-0.5883716153872794,1.274831353225536,-89.99195925593932,-8.293345,11.350393,22.10654,30.677275,-21.535467,-5.233416,-8.429365,-5.846013,-10.054807,27.35915,-18.931448,6.3503036,-1.4257836,0.20541288,4.8133016,-0.3649689,29.16408,-49.503525,49.95023,22.963459,1.9374956,-0.35331383,-0.554581,-25.661428,53.567715,51.232296,-12.124676,1.2870388,-3.9165678
80,0.1264963001012802,1.6930841207504272,76.69061279296875,-0.5973078000574757,1.283059736021541,-89.98819405264445,-8.2911825,11.362939,22.099636,30.685423,-21.561808,-5.2400584,-8.410726,-5.833324,-10.063238,27.33118,-18.930859,6.345119,-1.4337828,0.21107279,4.8125877,-0.35683382,29.155794,-49.481007,49.963467,22.918697,1.9256866,-0.3591308,-0.56369644,-25.656073,53.594166,51.252254,-12.143406,1.2655854,-3.9366665
81,0.1234174370765686,1.6742256879806519,76.6865463256836,-0.6037288494940664,1.2931337546582804,-89.98391400874382,-8.290884,11.372117,22.091911,30.692734,-21.590761,-5.2584124,-8.386373,-5.8207507,-10.068279,27.292767,-18.931147,6.3639684,-1.4374017,0.21152574,4.8074837,-0.350039,29.151537,-49.472187,49.974846,22.888365,1.9338909,-0.35706106,-0.5610001,-25.653059,53.600548,51.251217,-12.148074,1.2676957,-3.9466987
82,0.12009131908416748,1.6561610698699951,76.6831283569336,-0.6102540290091581,1.3040852494729416,-89.97880050698542,-8.292917,11.381392,22.082462,30.702177,-21.623354,-5.2846756,-8.355969,-5.8065057,-10.072832,27.243326,-18.929897,6.3975983,-1.4439309,0.21143667,4.7999663,-0.3428539,29.1492,-49.46728,49.9871,22.865822,1.9530265,-0.35173568,-0.5563991,-25.651165,53.60199,51.24082,-12.141983,1.2848823,-3.9520795
83,0.11890833079814911,1.6375014781951904,76.678955078125,-0.6185405114532584,1.317491626133088,-89.97292473449629,-8.30328,11.394997,22.070553,30.72487,-21.663689,-5.311921,-8.328065,-5.78982,-10.077707,27.19617,-18.933529,6.430912,-1.4496862,0.21201006,4.790311,-0.33372825,29.147594,-49.462696,49.99531,22.844109,1.975891,-0.33917198,-0.5497181,-25.649702,53.598793,51.22539,-12.124467,1.3070406,-3.9536774
84,0.11557118594646454,1.6212966442108154,76.67385864257812,-0.6336227608061425,1.3347255879000757,-89.96529620298418,-8.330786,11.421424,22.053307,30.776827,-21.717932,-5.333953,-8.307608,-5.7666917,-10.086592,27.157385,-18.9449,6.4483914,-1.455194,0.2189817,4.7805743,-0.32389113,29.143291,-49.451218,49.99893,22.816378,1.9943644,-0.31621072,-0.54205066,-25.645508,53.584618,51.210228,-12.103239,1.3245994,-3.9494457
85,0.11243978142738342,1.6029529571533203,76.669677734375,-0.656172245721265,1.3558639578529292,-89.95662820569217,-8.376206,11.462918,22.032543,30.860626,-21.788033,-5.349787,-8.298937,-5.736749,-10.099106,27.134285,-18.96809,6.438846,-1.4576952,0.23233162,4.7731023,-0.31824896,29.137766,-49.43458,49.99712,22.773983,2.0068939,-0.27794847,-0.53717554,-25.640108,53.55569,51.198025,-12.06932,1.3242146,-3.9356632
86,0.10894966870546341,1.5842821598052979,76.6629638671875,-0.6844022211837849,1.3803979988149884,-89.94697020367839,-8.435854,11.515641,22.008366,30.969042,-21.870937,-5.362638,-8.29756,-5.70111,-10.114271,27.120205,-18.999916,6.4127226,-1.4588976,0.2505063,4.7650986,-0.314123,29.13235,-49.416924,49.989838,22.720417,2.0181315,-0.2269456,-0.53197056,-25.634956,53.5171,51.18311,-12.021281,1.3154464,-3.914621
87,0.10626009106636047,1.5634171962738037,76.65777587890625,-0.7154270368866764,1.4081083055245545,-89.93508395240144,-8.509031,11.574198,21.978249,31.09853,-21.963224,-5.3718567,-8.3002205,-5.663234,-10.131876,27.109457,-19.036312,6.3881254,-1.4634582,0.27095526,4.753697,-0.3065516,29.129362,-49.402107,49.978966,22.66146,2.026886,-0.1710595,-0.52618665,-25.632118,53.487118,51.166386,-11.967586,1.318518,-3.8957434
88,0.10654227435588837,1.5439852476119995,76.65229034423828,-0.7464486927652967,1.4384077201944572,-89.91972270292769,-8.593271,11.6323805,21.939577,31.242613,-22.059662,-5.376759,-8.301591,-5.626378,-10.151873,27.093365,-19.07181,6.383136,-1.4640809,0.2917189,4.7482805,-0.30656213,29.125257,-49.38886,49.97147,22.618883,2.0303442,-0.122743376,-0.5147662,-25.627625,53.440983,51.148697,-11.946521,1.3515356,-3.8807678
89,0.10782893747091293,1.516487956047058,76.64458465576172,-0.7761175601864507,1.4725727950403427,-89.89911675919942,-8.691653,11.6874695,21.889503,31.403334,-22.160574,-5.3782506,-8.30152,-5.5920897,-10.173405,27.068329,-19.103382,6.410319,-1.4720162,0.31234744,4.73651,-0.30227554,29.123137,-49.386242,49.96563,22.574884,2.0262005,-0.07545153,-0.5026524,-25.624292,53.41921,51.13484,-11.942876,1.4326888,-3.8849342
90,0.10346303135156631,1.4876211881637573,76.63430786132812,-0.8059725023468653,1.510328385532864,-89.8744743754049,-8.804206,11.742932,21.829947,31.583168,-22.268126,-5.3763266,-8.302404,-5.5587115,-10.196707,27.03971,-19.1346,6.457541,-1.4865294,0.33402592,4.7231393,-0.296507,29.122562,-49.38644,49.95988,22.530231,2.0156043,-0.027639264,-0.4921189,-25.622458,53.410347,51.123295,-11.952943,1.5471718,-3.9000168
91,0.10172203183174133,1.4613525867462158,76.62144470214844,-0.8381460456951905,1.5497201545405617,-89.84872564991942,-8.924939,11.8021555,21.765816,31.775913,-22.380514,-5.369061,-8.304331,-5.523557,-10.223742,27.012909,-19.170156,6.505469,-1.4974777,0.35641208,4.7110085,-0.29216984,29.122442,-49.389584,49.9548,22.499128,2.006779,0.013075083,-0.47639927,-25.618172,53.39295,51.109978,-11.969229,1.6687279,-3.909898
92,0.09985101968050003,1.4458510875701904,76.61051940917969,-0.8739851350335566,1.5889249252912656,-89.82504293189645,-9.048075,11.867981,21.702095,31.977036,-22.496758,-5.354284,-8.308882,-5.4851055,-10.255816,26.99696,-19.21665,6.5348597,-1.507933,0.37932703,4.7007666,-0.28225964,29.122942,-49.386414,49.94824,22.491766,2.0080893,0.040523503,-0.45973712,-25.61404,53.373455,51.09313,-11.968926,1.7718259,-3.9016178
93,0.08942170441150665,1.4249792098999023,76.59905242919922,-0.9168526973013049,1.6260581630801663,-89.80561203128329,-9.176118,11.947753,21.638577,32.19679,-22.620277,-5.326731,-8.314706,-5.4388075,-10.295157,26.992487,-19.271532,6.5357647,-1.5152371,0.40462935,4.697705,-0.27078742,29.12438,-49.380577,49.940758,22.519695,2.033244,0.061846178,-0.4401013,-25.607843,53.3351,51.06429,-11.952891,1.8554116,-3.8577187
94,0.08232342451810837,1.3953068256378174,76.58995056152344,-0.9648572050054933,1.6625466949354881,-89.78821458869771,-9.310546,12.037217,21.573103,32.433205,-22.750055,-5.289093,-8.322968,-5.387398,-10.34028,26.998434,-19.334478,6.520086,-1.5150195,0.43004826,4.7000413,-0.26294303,29.128618,-49.380375,49.93371,22.572329,2.0741575,0.07765588,-0.41585085,-25.59566,53.275803,51.03021,-11.931646,1.9310532,-3.7898126
95,0.08092210441827774,1.3642847537994385,76.58065032958984,-1.0123292650554734,1.7016290032501067,-89.76978515339391,-9.444269,12.123537,21.50744,32.663208,-22.878002,-5.251229,-8.333431,-5.3377185,-10.387186,27.008715,-19.40843,6.501137,-1.5185739,0.454898,4.698234,-0.24571292,29.13152,-49.36704,49.92524,22.634401,2.1056266,0.07004798,-0.39089414,-25.587479,53.232838,51.00001,-11.900174,1.9923838,-3.7277625
96,0.08273621648550034,1.331897497177124,76.57000732421875,-1.0532972960371885,1.7455312298498258,-89.7476765085388,-9.571795,12.195194,21.44394,32.870564,-23.000166,-5.223389,-8.349383,-5.298335,-10.431751,27.026955,-19.501348,6.4928317,-1.5097528,0.47255638,4.697784,-0.23207437,29.13612,-49.333687,49.911186,22.700886,2.1008642,0.0138842,-0.35717443,-25.57626,53.179504,50.98699,-11.894104,2.0287597,-3.6931705
97,0.08353400975465775,1.292546272277832,76.56128692626953,-1.0851169632938107,1.7934937837910856,-89.72094890602662,-9.685689,12.246157,21.38477,33.04167,-23.111559,-5.2098727,-8.3699255,-5.271737,-10.470237,27.05364,-19.617628,6.4979873,-1.4925284,0.481901,4.694597,-0.21193707,29.14253,-49.256107,49.88703,22.77001,2.0339224,-0.13424006,-0.3171229,-25.563145,53.13469,50.99832,-11.910728,2.0367625,-3.701144
98,0.08727648854255676,1.254602074623108,76.55001068115234,-1.1114641926585513,1.8446439507827652,-89.69108428940247,-9.792542,12.284334,21.327923,33.192352,-23.217894,-5.2047453,-8.395007,-5.2535343,-10.505977,27.08997,-19.753628,6.509672,-1.4782404,0.48643607,4.690363,-0.18229467,29.150692,-49.138622,49.85447,22.844545,1.9245739,-0.3495818,-0.27908078,-25.550058,53.107616,51.027798,-11.936951,2.022173,-3.7362273
99,0.08730484545230865,1.2205995321273804,76.53782653808594,-1.1353920308552643,1.9020880172250274,-89.6586077918238,-9.899665,12.315402,21.270536,33.329536,-23.319092,-5.2021384,-8.423169,-5.2402835,-10.544507,27.124594,-19.897837,6.5260425,-1.4739685,0.48910245,4.6845007,-0.1368662,29.161884,-49.007607,49.810806,22.927813,1.8171217,-0.5493882,-0.2476207,-25.53629,53.09576,51.06889,-11.961554,1.9908404,-3.7814581
100,0.09083296358585358,1.185997724533081,76.5257568359375,-1.160239673584691,1.9688254889474623,-89.6240030266578,-10.015358,12.345036,21.209238,33.461903,-23.416162,-5.1961756,-8.455542,-5.228385,-10.591322,27.151217,-20.04092,6.5452194,-1.4703624,0.49334815,4.6727962,-0.10036297,29.16852,-48.932827,49.777878,23.000332,1.7580003,-0.64749134,-0.21090974,-25.528528,53.082092,51.104935,-11.971695,1.9489579,-3.820592
101,0.09288080781698227,1.1510733366012573,76.51695251464844,-1.1883937718031727,2.0462522343356624,-89.58702979069903,-10.145851,12.376062,21.140198,33.596836,-23.50931,-5.181304,-8.492594,-5.217618,-10.652452,27.16757,-20.180576,6.5676007,-1.4929737,0.50234115,4.663377,-0.049858604,29.180294,-48.891556,49.734905,23.086105,1.7658006,-0.5980045,-0.19576432,-25.516188,53.083195,51.153053,-11.967164,1.8882512,-3.8535826
102,0.10029284656047821,1.1054154634475708,76.51065063476562,-1.2174645615204198,2.1326361147670694,-89.5476347820569,-10.285276,12.404797,21.06621,33.72718,-23.597916,-5.1620116,-8.534244,-5.209536,-10.723485,27.177841,-20.322092,6.5939555,-1.5372213,0.5143138,4.6395454,0.017605493,29.188864,-48.88075,49.694473,23.172764,1.8155321,-0.45093572,-0.086635746,-25.502838,52.999428,51.15266,-12.071141,1.811777,-3.8894558
103,0.1074054166674614,1.0615503787994385,76.50457763671875,-1.2438631457442306,2.225816750514925,-89.50630345572442,-10.424332,12.42792,20.993786,33.84393,-23.6826,-5.147453,-8.577465,-5.2039704,-10.794245,27.181461,-20.465496,6.6227465,-1.5164732,0.5175464,4.6340094,0.02111939,29.199556,-48.94783,49.667988,23.23884,1.8829185,-0.28008863,-0.19692625,-25.492378,53.113487,51.284416,-11.873813,1.725882,-3.9166327
104,0.11467315256595612,1.0160486698150635,76.49832153320312,-1.2654743803479882,2.323919598003307,-89.46332298722805,-10.553712,12.44379,20.929232,33.93757,-23.764431,-5.1469007,-8.618734,-5.1995144,-10.85525,27.17689,-20.610294,6.6525936,-1.5482336,0.51789904,4.6101985,0.07991142,29.204906,-48.932453,49.632156,23.286385,1.9392686,-0.16121866,-0.12326018,-25.479834,53.060852,51.296978,-11.922948,1.6609566,-3.9267929
105,0.12043002247810364,0.9649621248245239,76.49290466308594,-1.27920761385123,2.4272160846452957,-89.41912370462043,-10.668312,12.449951,20.877224,34.001785,-23.84442,-5.167005,-8.658694,-5.1970763,-10.901103,27.164879,-20.753826,6.682086,-1.5713537,0.5060629,4.580822,0.14291154,29.211304,-48.884567,49.59264,23.306746,1.9837923,-0.123280905,0.029587658,-25.458868,52.90266,51.25861,-12.077527,1.6174053,-3.9014008
106,0.12704291939735413,0.9121443033218384,76.48991394042969,-1.2876450565583253,2.5368158484191787,-89.37316581838307,-10.774313,12.448411,20.833387,34.042072,-23.921228,-5.2014627,-8.69919,-5.1967697,-10.938197,27.146332,-20.897259,6.7123218,-1.5548099,0.48558336,4.55866,0.17009704,29.213844,-48.864925,49.564125,23.296497,2.0297678,-0.118851475,0.03458706,-25.451609,52.891003,51.293488,-12.017886,1.582591,-3.8534572
107,0.128967747092247,0.8525440692901611,76.4852523803711,-1.2937047943539688,2.650344449151138,-89.32554352655721,-10.877394,12.441484,20.791313,34.06964,-23.993973,-5.2400985,-8.736311,-5.197548,-10.972921,27.118235,-21.045767,6.745787,-1.5471778,0.46056348,4.5466886,0.20656511,29.221128,-48.811073,49.524883,23.279636,2.070249,-0.12471425,-0.0017931456,-25.433767,52.917973,51.35586,-11.928726,1.5489396,-3.8081295
108,0.1339232474565506,0.798064649105072,76.47940826416016,-1.3008899168070358,2.7658522451699317,-89.27627394499,-10.983587,12.432243,20.744766,34.094555,-24.061083,-5.272692,-8.765587,-5.1977053,-11.0120125,27.076326,-21.204126,6.785009,-1.5781225,0.43936032,4.5287824,0.2885608,29.225452,-48.703423,49.475243,23.266567,2.1007824,-0.11066598,0.16453664,-25.413315,52.75937,51.30305,-12.1036825,1.5140009,-3.7911992
109,0.14533695578575134,0.7370696663856506,76.47411346435547,-1.3094718613804985,2.8808242654136116,-89.22700091815737,-11.092235,12.421892,20.69472,34.119156,-24.120573,-5.300954,-8.783288,-5.1960206,-11.054047,27.017584,-21.378046,6.8317237,-1.5620689,0.4155137,4.5424004,0.31771508,29.22967,-48.632996,49.438824,23.238396,2.1192138,-0.06542106,0.22852707,-25.397257,52.69246,51.321686,-12.140812,1.4514023,-3.8209817
110,0.15649738907814026,0.6765025854110718,76.4693374633789,-1.3177983874176302,2.9970601343155825,-89.17715012982627,-11.200366,12.408644,20.643763,34.137325,-24.173187,-5.328775,-8.7931,-5.193382,-11.096604,26.945877,-21.563862,6.884489,-1.5305331,0.38917744,4.5754404,0.33503342,29.234901,-48.5547,49.400055,23.206364,2.1281037,-0.005879381,0.22769344,-25.379618,52.68987,51.387684,-12.10201,1.3727615,-3.881006
111,0.16274550557136536,0.6200538873672485,76.46546936035156,-1.3260622289630628,3.118696765252963,-89.1236080068157,-11.313279,12.3905325,20.58755,34.151802,-24.225103,-5.3494754,-8.800727,-5.1930776,-11.1446905,26.8651,-21.751282,6.941197,-1.5165021,0.36299896,4.609926,0.37350354,29.241428,-48.447132,49.351475,23.174055,2.1323261,0.056408536,0.24157318,-25.356857,52.683826,51.44132,-12.089264,1.3109343,-3.9407265
112,0.16938896477222443,0.5671930313110352,76.46160888671875,-1.3339607241941176,3.249877529087636,-89.0632966590975,-11.435883,12.364987,20.522017,34.16579,-24.282581,-5.3562164,-8.814582,-5.1984944,-11.202979,26.784399,-21.932705,6.9993005,-1.505026,0.33602843,4.640777,0.4171491,29.250713,-48.34218,49.298595,23.135849,2.137541,0.11078278,0.23724207,-25.328875,52.69978,51.49029,-12.044141,1.2939998,-3.9678125
113,0.18614697456359863,0.5026288628578186,76.45928192138672,-1.3407857045116516,3.3908014252933065,-88.99176534137499,-11.569902,12.327699,20.44015,34.181324,-24.348286,-5.3373013,-8.828414,-5.2115703,-11.274946,26.695831,-22.102688,7.065157,-1.5084966,0.30982593,4.6523275,0.48019904,29.255386,-48.238644,49.2454,23.09389,2.141447,0.14789206,0.34620222,-25.309381,52.617287,51.439857,-12.101614,1.3502849,-3.946798
114,0.20544931292533875,0.4278322160243988,76.46137237548828,-1.3463991454562783,3.539101287462925,-88.9117323721224,-11.711662,12.280582,20.346302,34.19567,-24.418222,-5.2995377,-8.841784,-5.2309585,-11.357162,26.60166,-22.268616,7.1375294,-1.5041069,0.28169152,4.670336,0.5368297,29.264435,-48.140564,49.18426,23.051853,2.14234,0.17236358,0.39947098,-25.283234,52.578083,51.410744,-12.086756,1.4508666,-3.8944604
115,0.22596898674964905,0.35250383615493774,76.45870971679688,-1.3531059165542387,3.69659867621929,-88.83128497708465,-11.861337,12.232683,20.252417,34.207817,-24.490005,-5.264387,-8.865977,-5.2525706,-11.444699,26.510517,-22.433376,7.2025304,-1.4923245,0.25424707,4.6886363,0.59215593,29.272943,-48.04838,49.125774,22.998896,2.147032,0.20646623,0.44000608,-25.260386,52.559258,51.378937,-12.047852,1.5627013,-3.8336139
116,0.2396797239780426,0.28033900260925293,76.45332336425781,-1.3630389009468387,3.8642899564760866,-88.7582968428489,-12.018146,12.1928215,20.1707,34.216988,-24.561167,-5.2532024,-8.913562,-5.272884,-11.532512,26.435709,-22.602833,7.2464786,-1.4747733,0.2305935,4.714032,0.6505119,29.28155,-47.94605,49.068214,22.936094,2.1612659,0.26635748,0.48216742,-25.23763,52.531765,51.34905,-12.038557,1.6472386,-3.7811682
117,0.2614162266254425,0.20720498263835907,76.45320892333984,-1.3767879920906918,4.0446657056267314,-88.6986294602922,-12.180873,12.164802,20.109842,34.218063,-24.630728,-5.2804165,-8.990822,-5.290221,-11.618009,26.378881,-22.77845,7.2630024,-1.4351139,0.21003892,4.748337,0.69207066,29.287283,-47.854774,49.02285,22.840107,2.1947849,0.3770292,0.5145362,-25.22096,52.5084,51.324196,-12.037953,1.7022187,-3.750163
118,0.2883501648902893,0.1291143298149109,76.45165252685547,-1.3931606350571462,4.236078310760972,-88.64679965204247,-12.349213,12.142934,20.061789,34.211666,-24.699192,-5.3316913,-9.090787,-5.306765,-11.704041,26.335342,-22.958416,7.260372,-1.3896075,0.19239333,4.7897153,0.74162406,29.29302,-47.745705,48.97306,22.735102,2.240777,0.52034825,0.5450159,-25.202261,52.479748,51.298565,-12.061023,1.7450004,-3.7271461
119,0.3068712651729584,0.05244627222418785,76.44962310791016,-1.411788546704314,4.434691907905202,-88.59374536434082,-12.527576,12.123364,20.012968,34.210724,-24.769312,-5.385707,-9.2022085,-5.3241034,-11.794452,26.300531,-23.138174,7.247363,-1.3333385,0.17872083,4.8382444,0.77572966,29.297026,-47.652767,48.934227,22.625126,2.2834423,0.6576061,0.54688066,-25.188951,52.472992,51.29068,-12.055988,1.7664481,-3.693443
120,0.3328874409198761,-0.006219593342393637,76.44229888916016,-1.431847407527608,4.636085537970132,-88.53051299425107,-12.717337,12.101324,19.950033,34.22294,-24.841131,-5.420751,-9.314929,-5.3438373,-11.891879,26.271364,-23.31449,7.231709,-1.2918224,0.17088838,4.8956714,0.8344136,29.304077,-47.52669,48.881657,22.565678,2.3052576,0.74501157,0.50267786,-25.173584,52.502705,51.317127,-12.018239,1.7579437,-3.629085
121,0.36740243434906006,-0.06229620799422264,76.43526458740234,-1.4518520328609377,4.8390103553132064,-88.45333654475844,-12.920054,12.073596,19.868292,34.250614,-24.911812,-5.426784,-9.428147,-5.370443,-12.000523,26.25165,-23.484974,7.215852,-1.2786856,0.17154288,4.9489813,0.91566056,29.310474,-47.384094,48.826836,22.561749,2.2968445,0.7587783,0.53817445,-25.162098,52.442215,51.30436,-12.095884,1.7093861,-3.5086102
122,0.39159679412841797,-0.1555459201335907,76.43350982666016,-1.4724527272872407,5.045761107890583,-88.36740866367406,-13.134022,12.042901,19.775385,34.28866,-24.981836,-5.4166255,-9.546927,-5.4019246,-12.117406,26.241816,-23.651983,7.1952324,-1.2729053,0.17742048,5.014155,1.007514,29.32429,-47.22309,48.758663,22.604511,2.2682548,0.72299427,0.5302786,-25.151657,52.40495,51.32096,-12.145657,1.6251152,-3.347719
123,0.4328756630420685,-0.2363167703151703,76.43167114257812,-1.4965640887396736,5.257735609996067,-88.27733937745123,-13.357366,12.014646,19.675694,34.335648,-25.057468,-5.4033246,-9.669514,-5.43025,-12.235659,26.234133,-23.819965,7.16773,-1.2586001,0.18659864,5.0882626,1.0989151,29.343184,-47.06563,48.68966,22.63953,2.235924,0.6782379,0.48390475,-25.147116,52.40923,51.357876,-12.14551,1.5296208,-3.1932142
124,0.45990249514579773,-0.3245779275894165,76.4275894165039,-1.5272523534768279,5.476298606896634,-88.18765936550095,-13.589345,11.994745,19.573353,34.3921,-25.146088,-5.3998036,-9.793846,-5.4471407,-12.348525,26.21976,-23.992188,7.13139,-1.233672,0.19807665,5.1669245,1.1751835,29.357616,-46.92518,48.644386,22.607695,2.2146056,0.66296315,0.48894632,-25.14614,52.37421,51.357674,-12.198328,1.448943,-3.0889435
125,0.48460108041763306,-0.4198489785194397,76.42326354980469,-1.5681591976805591,5.7005528031073425,-88.09898379972229,-13.82945,11.986722,19.466908,34.45953,-25.251793,-5.408296,-9.916814,-5.4471464,-12.455203,26.194426,-24.172071,7.082983,-1.2017109,0.21316618,5.266698,1.2527071,29.382929,-46.764454,48.592175,22.478592,2.2131464,0.6853137,0.46546012,-25.15005,52.379303,51.36085,-12.222365,1.3807954,-3.0449233
126,0.5248592495918274,-0.49601054191589355,76.41384887695312,-1.6163858710741597,5.930215304528707,-88.00923043105254,-14.078329,11.986609,19.354792,34.536846,-25.369507,-5.4222536,-10.040193,-5.43551,-12.558961,26.16302,-24.356928,7.024756,-1.1559287,0.23189542,5.3743124,1.3151888,29.406237,-46.617256,48.557907,22.273836,2.2222614,0.7286111,0.46704003,-25.156197,52.367123,51.347218,-12.269919,1.315783,-3.039246
127,0.5596408247947693,-0.595396876335144,76.40196990966797,-1.6661068846412996,6.167432244692294,-87.91862329373889,-14.335369,11.98882,19.241789,34.6198,-25.493145,-5.441661,-10.169558,-5.420195,-12.659206,26.132275,-24.54198,6.962603,-1.1067694,0.2502189,5.489447,1.3837159,29.437027,-46.47029,48.52147,22.087006,2.2278318,0.7783458,0.43840814,-25.167303,52.394077,51.340225,-12.278122,1.2618033,-3.0634542
128,0.6030349135398865,-0.6922864317893982,76.39127349853516,-1.7111696864149193,6.414482532832584,-87.82731638480647,-14.599185,11.986998,19.132843,34.702305,-25.615088,-5.4662647,-10.309959,-5.4093137,-12.755351,26.10736,-24.721874,6.9023776,-1.0701115,0.26331758,5.601888,1.4793707,29.484367,-46.32222,48.471115,21.997713,2.2167058,0.8216484,0.4112557,-25.18359,52.43382,51.315388,-12.2852545,1.2290838,-3.1102424
129,0.6286745667457581,-0.7830771803855896,76.37670135498047,-1.7466755462619656,6.670075027549961,-87.73330105035758,-14.865141,11.976549,19.03045,34.77984,-25.733131,-5.504144,-10.457108,-5.405503,-12.841903,26.082487,-24.888874,6.852861,-1.0352099,0.26718295,5.7061896,1.585979,29.537926,-46.21602,48.430504,22.036016,2.1848736,0.87333477,0.39318588,-25.1976,52.48299,51.277523,-12.289418,1.2222253,-3.1975808
130,0.6621204614639282,-0.888359010219574,76.36639404296875,-1.7770251510343473,6.933725120180704,-87.63711853045766,-15.135379,11.961727,18.931885,34.85612,-25.850885,-5.552585,-10.610709,-5.404655,-12.920767,26.058311,-25.048542,6.8082557,-1.0012865,0.2648409,5.8075027,1.6958544,29.59554,-46.140186,48.402866,22.152086,2.1395657,0.93447495,0.37000665,-25.207497,52.551918,51.23931,-12.281427,1.2350283,-3.3232424
131,0.706080973148346,-0.9981665015220642,76.35236358642578,-1.8097147140980197,7.208252200454999,-87.54282244721767,-15.418624,11.949966,18.83326,34.93951,-25.971586,-5.59579,-10.779987,-5.4042425,-13.002924,26.04646,-25.213102,6.7529097,-0.95964134,0.2627547,5.908545,1.8141283,29.656595,-46.05149,48.371876,22.313522,2.085649,0.97544837,0.3258174,-25.214886,52.632263,51.20927,-12.248778,1.2596338,-3.4486914
132,0.7570592164993286,-1.1199625730514526,76.33968353271484,-1.8526556704206816,7.496639359158523,-87.45450444261198,-15.723832,11.948732,18.730652,35.03788,-26.097565,-5.617706,-10.973868,-5.400994,-13.099074,26.05877,-25.39514,6.670599,-0.91119605,0.26800856,6.011166,1.9372588,29.722677,-45.91379,48.328865,22.46987,2.02704,0.96599245,0.29526943,-25.221153,52.66436,51.16214,-12.246033,1.2893533,-3.5345974
133,0.7977070212364197,-1.2287452220916748,76.32686614990234,-1.9098276729281771,7.802251239351046,-87.37770313870573,-16.059713,11.962724,18.624311,35.157715,-26.227829,-5.6040735,-11.20081,-5.3939004,-13.21331,26.099945,-25.600912,6.5546727,-0.84280205,0.28452387,6.1181865,2.052385,29.791012,-45.725483,48.283653,22.649443,1.9530174,0.8606037,0.24656232,-25.230919,52.66973,51.116726,-12.238723,1.3216034,-3.5623243
134,0.8439095616340637,-1.326119303703308,76.31057739257812,-1.9764394527521953,8.122640177210785,-87.30890053700118,-16.419577,11.987084,18.515568,35.29339,-26.36172,-5.5667787,-11.453283,-5.3845224,-13.339562,26.162062,-25.822254,6.41457,-0.76295644,0.30896187,6.226522,2.1774402,29.86191,-45.490883,48.229416,22.872993,1.8645675,0.6875949,0.2039147,-25.24503,52.63983,51.05659,-12.249287,1.3610911,-3.5547533
135,0.8998841047286987,-1.431863784790039,76.29383087158203,-2.0475683474507793,8.452224103624252,-87.23865844146475,-16.789165,12.014486,18.402636,35.434734,-26.502527,-5.5292478,-11.717756,-5.37495,-13.473479,26.239805,-26.050718,6.2592597,-0.6820787,0.33551902,6.336794,2.300215,29.935349,-45.23563,48.165623,23.047836,1.7846824,0.52945006,0.15977292,-25.264044,52.59611,50.9832,-12.252938,1.4090153,-3.53682
136,0.9500582814216614,-1.5695791244506836,76.27938842773438,-2.118072498054691,8.785258106774467,-87.15737842924676,-17.155268,12.038938,18.283636,35.574368,-26.655357,-5.515396,-11.978107,-5.3668766,-13.612161,26.32313,-26.274826,6.098836,-0.60911405,0.35879198,6.445626,2.4405577,30.010029,-44.956528,48.072575,23.11465,1.737299,0.46787545,0.1276681,-25.287048,52.538086,50.889725,-12.248791,1.4666508,-3.5329268
137,1.0192992687225342,-1.7106305360794067,76.26346588134766,-2.189317699906051,9.120831068646417,-87.0622576696212,-17.51067,12.060511,18.159101,35.700954,-26.820368,-5.5373025,-12.223211,-5.3575425,-13.761039,26.39715,-26.492838,5.9213066,-0.54761994,0.3794231,6.555852,2.5920284,30.083916,-44.65913,47.960297,22.979616,1.7353421,0.56808513,0.110356264,-25.311945,52.463936,50.76832,-12.23172,1.5500177,-3.547296
138,1.0641785860061646,-1.877443552017212,76.23641967773438,-2.2628105197762682,9.461903147692011,-86.95842397806139,-17.863363,12.081779,18.029821,35.821552,-26.995193,-5.5803533,-12.464912,-5.3472815,-13.919528,26.473476,-26.711674,5.7263007,-0.49238676,0.3993775,6.66626,2.752366,30.155998,-44.338734,47.83374,22.706291,1.7633561,0.77206945,0.10908662,-25.338272,52.36463,50.623653,-12.215601,1.6531792,-3.567667
139,1.1035841703414917,-2.016310691833496,76.2114028930664,-2.3340496615711688,9.808363083901204,-86.84842888042017,-18.224049,12.100449,17.894806,35.95669,-27.18138,-5.6284456,-12.71768,-5.3426695,-14.075971,26.573086,-26.927893,5.5411024,-0.44150484,0.41633853,6.772447,2.920409,30.22768,-44.00088,47.681362,22.440102,1.8038328,0.97685915,0.11805182,-25.366825,52.24897,50.467846,-12.204987,1.7448581,-3.5939558
140,1.1607520580291748,-2.1421351432800293,76.1847915649414,-2.398812415255987,10.160091709275813,-86.73470389504834,-18.602194,12.113957,17.753212,36.124016,-27.378916,-5.6654015,-12.997155,-5.350394,-14.218868,26.718943,-27.138712,5.393077,-0.3951728,0.42756662,6.8698454,3.093112,30.302174,-43.652294,47.492115,22.322954,1.8408191,1.0788336,0.13793594,-25.399574,52.118225,50.309837,-12.215905,1.7939762,-3.6259258
141,1.2200416326522827,-2.2826995849609375,76.15166473388672,-2.459129237995535,10.519952160779706,-86.61375913105958,-19.004992,12.124429,17.597818,36.32924,-27.587378,-5.694492,-13.292718,-5.364486,-14.350157,26.882732,-27.338291,5.3063135,-0.35567984,0.43630844,6.952166,3.278143,30.383429,-43.296936,47.25826,22.45283,1.881479,1.013716,0.17575286,-25.437195,51.966137,50.152943,-12.267086,1.7810452,-3.6665225
142,1.267216444015503,-2.459740400314331,76.11132049560547,-2.516124296178068,10.88695167877201,-86.48563741049576,-19.425629,12.131969,17.43126,36.561882,-27.806555,-5.7217274,-13.602203,-5.384429,-14.474239,27.066795,-27.531435,5.2604117,-0.32352686,0.44181666,7.025111,3.4665325,30.47313,-42.938023,46.989388,22.723581,1.9302531,0.84837,0.2295765,-25.480137,51.792614,49.989563,-12.347898,1.72649,-3.7149353
143,1.3261542320251465,-2.6411359310150146,76.06856536865234,-2.563849312464667,11.25580482080815,-86.35774837391138,-19.85446,12.13153,17.267733,36.8212,-28.039717,-5.7353096,-13.950559,-5.4251795,-14.584286,27.331018,-27.72593,5.2172847,-0.2906402,0.43646923,7.099217,3.6668646,30.569544,-42.550556,46.67524,23.008575,1.969031,0.67595667,0.29173383,-25.530157,51.60554,49.80903,-12.426861,1.6590595,-3.7646337
144,1.3883612155914307,-2.8057174682617188,76.00943756103516,-2.5966265319655393,11.621029549936008,-86.23766811075498,-20.280766,12.11723,17.121365,37.103836,-28.28907,-5.7229185,-14.365876,-5.5017233,-14.67144,27.742928,-27.934307,5.1371303,-0.2533915,0.41224948,7.1877866,3.857642,30.669533,-42.133736,46.32795,23.151602,1.9805913,0.59035337,0.34240937,-25.591042,51.425613,49.605988,-12.462924,1.607154,-3.8095202
145,1.4548887014389038,-2.9498131275177,75.94623565673828,-2.625352676156595,11.984976390882727,-86.1266000574616,-20.716343,12.103322,16.988827,37.42394,-28.554691,-5.667578,-14.839188,-5.5985594,-14.740432,28.277658,-28.159372,5.018695,-0.21150042,0.38305947,7.295685,4.0376024,30.768908,-41.679844,45.949883,23.077843,1.953189,0.64021987,0.37924764,-25.665808,51.24794,49.376255,-12.439164,1.5724115,-3.8520818
146,1.5368951559066772,-3.1207025051116943,75.872314453125,-2.6484666661013567,12.34916185442482,-86.02073733522182,-21.161375,12.087025,16.865105,37.776756,-28.834827,-5.580087,-15.361339,-5.714453,-14.792563,28.91451,-28.395367,4.8795485,-0.16569127,0.34824562,7.4154496,4.216465,30.866264,-41.190342,45.53703,22.884647,1.898235,0.7678463,0.40166196,-25.756884,51.076454,49.127827,-12.365273,1.5414379,-3.8939636
147,1.606576681137085,-3.3107314109802246,75.79461669921875,-2.6409135830823285,12.707419769224359,-85.91929490369958,-21.58983,12.037049,16.761852,38.136307,-29.131933,-5.49029,-15.954959,-5.8857927,-14.814365,29.71415,-28.635109,4.7095013,-0.120306574,0.27815107,7.5421233,4.377319,30.962633,-40.68645,45.100758,22.659775,1.8345964,0.9075465,0.4362879,-25.863457,50.903465,48.841953,-12.291127,1.5219824,-3.9271276
148,1.6749354600906372,-3.51224946975708,75.70443725585938,-2.5760616350225845,13.053313208364127,-85.82117147999315,-21.975052,11.921792,16.692057,38.475506,-29.447748,-5.427864,-16.643806,-6.149351,-14.791103,30.739231,-28.872072,4.49888,-0.07103558,0.14191803,7.6678867,4.5410013,31.059965,-40.16136,44.624077,22.528578,1.7822495,0.99334574,0.4969046,-25.983896,50.732716,48.5128,-12.246101,1.5210927,-3.9434352
149,1.7472639083862305,-3.7197511196136475,75.59722900390625,-2.446955381833346,13.397903386937971,-85.72274685938946,-22.316324,11.728327,16.65873,38.76133,-29.779144,-5.445436,-17.459133,-6.509083,-14.708957,32.017918,-29.075233,4.1853986,-0.021500114,-0.07075501,7.788103,4.7073455,31.159277,-39.609886,44.11149,22.503971,1.7353765,1.0223863,0.5839616,-26.115477,50.54741,48.127888,-12.2169075,1.5544963,-3.9092696
150,1.8157625198364258,-3.929147958755493,75.47377014160156,-2.2637929733714333,13.739907441197309,-85.6244710750429,-22.624805,11.472082,16.657948,39.01512,-30.125801,-5.5117874,-18.37516,-6.9472966,-14.575616,33.50055,-29.25056,3.7963965,0.030580662,-0.3472562,7.9071703,4.879948,31.260777,-39.02736,43.55844,22.537672,1.6873842,1.0246333,0.6875656,-26.258062,50.353466,47.69948,-12.190365,1.6136795,-3.8395596
151,1.906327486038208,-4.1372551918029785,75.3367919921875,-2.0276920222799735,14.054183644102148,-85.53132779177653,-22.892387,11.163583,16.691319,39.29326,-30.494328,-5.5308156,-19.327322,-7.467994,-14.407482,35.129986,-29.445425,3.4567416,0.08369691,-0.68268317,8.037692,5.0131235,31.368406,-38.460346,42.985058,22.593292,1.657367,0.9843792,0.81172204,-26.411957,50.185555,47.24445,-12.211337,1.6699737,-3.7993624
152,1.9964045286178589,-4.355823040008545,75.18080139160156,-1.7408180845348016,14.31583274247504,-85.44858563021288,-23.11126,10.814086,16.758205,39.651768,-30.890396,-5.4067016,-20.252956,-8.074694,-14.220675,36.854206,-29.71152,3.2900915,0.14872456,-1.0703514,8.186946,5.1387906,31.485262,-37.900112,42.353077,22.704258,1.6649166,0.8848653,0.959117,-26.578117,50.0803,46.786488,-12.310813,1.6942483,-3.853236
153,2.0938217639923096,-4.602584362030029,74.99793243408203,-1.371497288973304,14.51969768526226,-85.38217022910567,-23.265741,10.382094,16.874607,40.080345,-31.299036,-5.0501523,-21.116795,-8.807917,-14.023323,38.620426,-30.100704,3.393152,0.22104211,-1.5469857,8.359563,5.2226105,31.616135,-37.375374,41.689465,22.798944,1.7292203,0.72213566,1.1363581,-26.757277,50.05988,46.323486,-12.518124,1.6736629,-4.061975
154,2.169264316558838,-4.843535900115967,74.79309844970703,-0.9291374400346158,14.6785809945889,-85.32755910210113,-23.366268,9.874501,17.033155,40.555363,-31.71968,-4.5331564,-21.959007,-9.652091,-13.801647,40.470097,-30.575268,3.6782799,0.30473492,-2.1030731,8.548846,5.3172503,31.760744,-36.84162,40.957764,22.932547,1.8353953,0.50339144,1.3461763,-26.948402,50.095146,45.84403,-12.808246,1.6265779,-4.3765306
155,2.2509093284606934,-5.120148181915283,74.5634536743164,-0.4809482581333763,14.793945623460022,-85.27575842915458,-23.442451,9.375712,17.197796,41.11402,-32.1828,-4.0017495,-22.828636,-10.523241,-13.540565,42.491936,-31.052107,3.9926915,0.38756856,-2.663435,8.760214,5.3572116,31.922346,-36.342384,40.19642,23.125156,1.9496204,0.2315776,1.5651224,-27.15096,50.164257,45.356464,-13.147076,1.5707458,-4.698685
156,2.3483073711395264,-5.409844398498535,74.3108901977539,-0.09501737953149764,14.867269646472758,-85.21775322966532,-23.52132,8.973038,17.332321,41.79523,-32.721558,-3.6019,-23.769669,-11.332301,-13.227124,44.766907,-31.443733,4.185956,0.45958138,-3.1513207,8.998848,5.25458,32.104557,-35.939598,39.461685,23.380848,2.0376837,-0.08967178,1.7773305,-27.363106,50.237103,44.86202,-13.505646,1.5230196,-4.9297557
157,2.4380781650543213,-5.698620319366455,74.03649139404297,0.22784638685768405,14.882596895759285,-85.15931531768707,-23.594904,8.6835575,17.449007,42.62893,-33.34809,-3.379947,-24.760963,-12.059436,-12.836029,47.301937,-31.781918,4.27418,0.5445611,-3.5708275,9.276084,5.064085,32.31032,-35.60597,38.704052,23.830671,2.079596,-0.52192223,1.993747,-27.585596,50.29196,44.335785,-13.956045,1.4970027,-5.0179806
158,2.5368852615356445,-5.978646278381348,73.75167846679688,0.517575799599141,14.84446282424828,-85.10327968604729,-23.650362,8.466026,17.558685,43.588795,-34.04635,-3.2548048,-25.782394,-12.73982,-12.387385,50.04633,-32.089203,4.328767,0.64015305,-3.9548595,9.587119,4.786811,32.54191,-35.34124,37.927708,24.410921,2.0934863,-1.0463079,2.2203472,-27.819096,50.346523,43.78148,-14.488999,1.4796143,-5.0242743
159,2.623302936553955,-6.279070854187012,73.46202087402344,0.7586578362115951,14.784868948630148,-85.03547794049163,-23.702421,8.313183,17.628433,44.619568,-34.800476,-3.1815841,-26.878267,-13.372815,-11.933317,52.99097,-32.257034,4.2819858,0.7214592,-4.274396,9.897358,4.4472723,32.792328,-35.121902,37.12589,24.992392,2.1065152,-1.5402795,2.4559288,-28.05977,50.407536,43.250206,-14.955416,1.4463305,-5.017169
160,2.698453903198242,-6.592989921569824,73.16348266601562,0.9350723004302692,14.73559704639262,-84.94137808133254,-23.76562,8.214524,17.627768,45.663486,-35.592365,-3.1169543,-28.092293,-13.966056,-11.523444,56.126762,-32.179703,4.060875,0.7506834,-4.501256,10.175911,3.9798043,33.050907,-34.977947,36.366245,25.382154,2.1499119,-1.8799512,2.6921024,-28.300516,50.486755,42.795795,-15.213689,1.3736687,-5.0663548
161,2.7829277515411377,-6.931118488311768,72.86209106445312,1.0199422261138889,14.704797744486276,-84.8121279531325,-23.867983,8.18636,17.528389,46.745567,-36.4399,-3.0467064,-29.470943,-14.540053,-11.204506,59.577858,-31.712833,3.550364,0.72539,-4.599113,10.402443,3.406298,33.30653,-34.900665,35.648613,25.569004,2.226099,-2.0288289,2.921661,-28.53724,50.590466,42.424145,-15.188459,1.2403939,-5.1545825
162,2.848565101623535,-7.3022589683532715,72.56159973144531,1.0292142057009068,14.675505102784118,-84.65685040224128,-23.991785,8.224745,17.355282,47.878593,-37.343216,-2.9955883,-30.973866,-15.099145,-10.944849,63.29999,-30.946007,2.8140087,0.657607,-4.590868,10.595922,2.7182233,33.55561,-34.894905,34.976,25.626759,2.3230925,-2.0517793,3.1361463,-28.768326,50.723442,42.125298,-14.962126,1.0633844,-5.256578
163,2.947842597961426,-7.677945613861084,72.25177001953125,1.0117355875179994,14.642030251006975,-84.4882519668823,-24.087389,8.286858,17.158249,48.992672,-38.258297,-2.9779272,-32.526222,-15.622603,-10.667598,67.05536,-30.128986,2.0448835,0.5522575,-4.5349016,10.771511,1.971747,33.794,-34.91166,34.293095,25.614328,2.4537401,-1.978574,3.3682187,-28.985863,50.857002,41.91816,-14.652761,0.8765781,-5.428725
164,3.056356430053711,-8.052212715148926,71.93582153320312,1.013858574257037,14.599156628692374,-84.32012259201882,-24.107407,8.334301,16.986591,50.02091,-39.143166,-3.0083866,-34.057728,-16.067516,-10.291989,70.61389,-29.514599,1.4477923,0.41441318,-4.48911,10.946431,1.1992038,34.01943,-34.916046,33.562103,25.57602,2.6304588,-1.839589,3.6132348,-29.180035,50.99266,41.845734,-14.345034,0.71260375,-5.7290454
165,3.1593334674835205,-8.453145027160645,71.62555694580078,1.0526618280802844,14.53946872267049,-84.16429699250448,-24.033632,8.352272,16.86861,50.964626,-40.009144,-3.0912306,-35.59195,-16.387682,-9.7180605,74.02779,-29.184048,1.0630991,0.24598765,-4.467498,11.1202965,0.4026759,34.23236,-34.92134,32.785828,25.482504,2.8721466,-1.6020215,3.872793,-29.34142,51.16383,41.964535,-14.047559,0.5465739,-6.2835436
166,3.246842384338379,-8.874360084533691,71.3111572265625,1.0993270089126834,14.468596300405792,-84.01202278695344,-23.895498,8.36538,16.775415,51.856297,-40.871513,-3.2194827,-37.15597,-16.59578,-9.020047,77.398026,-29.005524,0.7981607,0.044071637,-4.438677,11.283255,-0.43393394,34.43354,-34.93773,31.983995,25.321692,3.1662831,-1.2624749,4.119579,-29.46579,51.380634,42.26541,-13.7010355,0.3685569,-7.0254607
167,3.333406448364258,-9.335979461669922,71.01516723632812,1.1311015835396963,14.400876623379009,-83.84637876159482,-23.71273,8.393497,16.671274,52.666725,-41.699387,-3.3904552,-38.688213,-16.733948,-8.371509,80.57211,-28.914675,0.6666308,-0.19999075,-4.39233,11.43277,-1.2809377,34.62157,-34.909714,31.129091,25.175766,3.4781914,-0.8973996,4.3874063,-29.54891,51.542477,42.641064,-13.36907,0.23828216,-7.723999
168,3.3835575580596924,-9.800292015075684,70.74372863769531,1.1265187699345338,14.350309805535215,-83.64977962820532,-23.503304,8.456139,16.520187,53.364853,-42.459805,-3.6014109,-40.131546,-16.860836,-7.940342,83.39718,-28.84876,0.6731226,-0.49031898,-4.318797,11.568424,-2.109948,34.796078,-34.785885,30.192986,25.130226,3.774743,-0.5841264,4.691115,-29.590628,51.56462,42.99642,-13.088737,0.21809672,-8.148997
169,3.4324872493743896,-10.301153182983398,70.49589538574219,1.0808118119612828,14.313285754934373,-83.39983324259443,-23.274021,8.558777,16.297138,53.963,-43.157944,-3.8678634,-41.460403,-16.97003,-7.737061,85.851845,-28.813581,0.91409177,-0.8388202,-4.2163477,11.699226,-2.9251506,34.95864,-34.53605,29.152124,25.265795,4.0611725,-0.38935554,5.0380483,-29.586182,51.395294,43.32392,-12.874867,0.35456955,-8.19542
170,3.46689510345459,-10.813394546508789,70.26878356933594,1.0053164279208762,14.284949159193559,-83.1118815583464,-23.013178,8.691046,16.028465,54.47054,-43.8061,-4.185267,-42.714672,-17.04774,-7.682978,88.02426,-28.844765,1.3520372,-1.238306,-4.091629,11.823359,-3.74282,35.111557,-34.197594,28.030594,25.515036,4.351446,-0.25838202,5.4229765,-29.534225,51.086224,43.668056,-12.708794,0.60702956,-8.0012665
171,3.5059306621551514,-11.323101997375488,70.0735855102539,0.9035011808160754,14.277668912758106,-82.82370765833504,-22.712,8.84881,15.753538,54.85432,-44.39201,-4.520651,-43.937786,-17.159899,-7.801651,89.920296,-28.91384,1.7772444,-1.6611849,-3.9455974,11.926405,-4.5407643,35.255417,-33.815834,26.856148,25.749157,4.626768,-0.08536273,5.8221154,-29.444565,50.729282,44.015446,-12.546846,0.9079872,-7.7010627
172,3.549626111984253,-11.840841293334961,69.91423034667969,0.7794704939990773,14.303404954412121,-82.57273455345316,-22.361376,9.02727,15.509494,55.0792,-44.8989,-4.839865,-45.17175,-17.377932,-8.109421,91.54166,-28.983072,1.9747728,-2.082887,-3.7791162,11.996069,-5.305211,35.38842,-33.43759,25.663155,25.833887,4.868395,0.23668396,6.210535,-29.336088,50.418518,44.346336,-12.341431,1.1901001,-7.4297204
173,3.574491024017334,-12.396159172058105,69.78084564208984,0.6362950483639709,14.367333975983787,-82.35797286286409,-21.97183,9.228215,15.292902,55.155586,-45.331722,-5.130534,-46.430637,-17.827406,-8.691354,92.9215,-29.073488,1.7889045,-2.5054927,-3.593521,12.031027,-6.0429835,35.50841,-33.058826,24.42907,25.671959,5.05803,0.7940785,6.601567,-29.221466,50.14087,44.633446,-12.077596,1.4903082,-7.1822586
174,3.6000940799713135,-12.977605819702148,69.68427276611328,0.47235537473177736,14.461688911533752,-82.16196815041079,-21.542347,9.452898,15.08569,55.094555,-45.6961,-5.409987,-47.683186,-18.45377,-9.503854,94.050705,-29.193363,1.3527178,-2.9407356,-3.3855708,12.040452,-6.7605457,35.613922,-32.660152,23.145582,25.353565,5.207683,1.5115626,7.012933,-29.105312,49.853928,44.873425,-11.783301,1.8278213,-6.900182
175,3.6160740852355957,-13.57742977142334,69.62867736816406,0.2849364927908768,14.578608980375677,-81.99748253909925,-21.04954,9.69894,14.90234,54.868526,-45.974648,-5.6907654,-48.90814,-19.053696,-10.374164,94.86272,-29.281788,0.8874509,-3.376911,-3.148395,12.027432,-7.4366,35.70352,-32.262634,21.865997,25.031305,5.341903,2.256171,7.418871,-28.997839,49.614193,45.087254,-11.462728,2.1079779,-6.637472
176,3.6253697872161865,-14.182344436645508,69.60298156738281,0.0711700859523248,14.710212126823867,-81.87797989392833,-20.470995,9.96455,14.758009,54.450943,-46.1547,-5.9858713,-50.097607,-19.416342,-11.130912,95.288376,-29.269047,0.62188685,-3.8068109,-2.8747606,11.994793,-8.045034,35.774548,-31.881641,20.64046,24.859077,5.4912686,2.8936117,7.8071346,-28.910618,49.468006,45.284508,-11.134324,2.236077,-6.446773
177,3.636800765991211,-14.809433937072754,69.61801147460938,-0.17836144704131401,14.862623012737672,-81.81013972263494,-19.822235,10.262002,14.650289,53.853653,-46.24626,-6.3020253,-51.286636,-19.49636,-11.757913,95.294014,-29.13136,0.61520237,-4.2326183,-2.5507061,11.935601,-8.594684,35.820374,-31.519453,19.47479,24.951025,5.6723957,3.3687828,8.189785,-28.858528,49.43986,45.448532,-10.772634,2.1405911,-6.3971405
178,3.66015887260437,-15.460407257080078,69.67476654052734,-0.4595800438503356,15.03692072531107,-81.78591927484815,-19.108648,10.589427,14.572384,53.08544,-46.252857,-6.631778,-52.472794,-19.400217,-12.340343,94.91759,-28.90376,0.75186616,-4.6547327,-2.1809464,11.85473,-9.099545,35.83945,-31.171732,18.346441,25.201689,5.869652,3.7596672,8.561914,-28.84568,49.509457,45.574444,-10.360345,1.8865077,-6.438918
179,3.688664436340332,-16.157379150390625,69.77201080322266,-0.7560509788432995,15.217694665147695,-81.79710987227686,-18.292063,10.922622,14.534418,52.112114,-46.143604,-6.967758,-53.599377,-19.142649,-12.8568535,94.19359,-28.600163,0.999329,-5.0737863,-1.7888582,11.76919,-9.532824,35.836903,-30.831757,17.264364,25.437431,6.064875,4.13093,8.930286,-28.86528,49.61575,45.66627,-9.985368,1.585693,-6.4472547
180,3.6907944679260254,-16.85956382751465,69.90222930908203,-1.0512036324954885,15.39004731251071,-81.83497847047781,-17.334452,11.236149,14.5463705,50.899246,-45.888134,-7.3031793,-54.608955,-18.737982,-13.285759,93.15744,-28.23578,1.3231027,-5.493975,-1.3958188,11.696258,-9.860406,35.815422,-30.48501,16.232342,25.487509,6.2373414,4.5472403,9.287976,-28.919115,49.714626,45.729393,-9.71753,1.3521383,-6.2996836
181,3.7024338245391846,-17.613555908203125,70.06548309326172,-1.3379147057028355,15.558162924230778,-81.91076095766876,-16.20316,11.513616,14.638514,49.370266,-45.50196,-7.635332,-55.538292,-18.121134,-13.5589905,91.78779,-27.764603,1.7646097,-5.8898873,-1.0171411,11.631374,-10.111041,35.772503,-30.159252,15.258656,25.224052,6.3983684,5.067129,9.667992,-28.995329,49.760902,45.744797,-9.615112,1.2146523,-5.908883
182,3.7084712982177734,-18.388547897338867,70.26537322998047,-1.6256204090011932,15.726869801380877,-82.02401219488266,-14.926618,11.765666,14.797672,47.565853,-44.98833,-7.9711804,-56.393887,-17.309555,-13.704444,90.0703,-27.201426,2.3211956,-6.265522,-0.63866925,11.569202,-10.289603,35.70666,-29.853191,14.33443,24.767366,6.549564,5.64362,10.020897,-29.094507,49.82691,45.74546,-9.583606,1.1121771,-5.3601866
183,3.703319549560547,-19.198976516723633,70.49430847167969,-1.9205410563950416,15.882032170101992,-82.14892026512726,-13.553733,12.007185,14.970794,45.611366,-44.30697,-8.319801,-57.07401,-16.437233,-13.844504,88.05154,-26.64804,2.8933723,-6.642963,-0.24976477,11.515855,-10.389893,35.6258,-29.5757,13.48724,24.293776,6.6631427,6.1927185,10.393685,-29.209827,49.86121,45.72087,-9.643575,1.0249603,-4.7879353
184,3.697094678878784,-20.024742126464844,70.74702453613281,-2.229916718848022,16.009748682856063,-82.26023069118526,-12.137414,12.256434,15.102751,43.63808,-43.41642,-8.689339,-57.4817,-15.63339,-14.105727,85.7772,-26.200418,3.383778,-7.0505686,0.15666537,11.469452,-10.385644,35.54557,-29.328161,12.735788,23.980436,6.715543,6.628666,10.956785,-29.32768,49.69769,45.589085,-9.949468,0.93556285,-4.3250318
185,3.705673933029175,-20.87858009338379,71.01226806640625,-2.563713391038409,16.094930865449392,-82.36983500802128,-10.606871,12.504333,15.19424,41.534386,-42.284008,-9.086846,-57.551792,-14.904196,-14.547692,83.17718,-25.89048,3.7940872,-7.418916,0.59762776,11.480515,-10.317185,35.467884,-29.164202,12.079546,23.864063,6.6909375,6.9409375,11.192102,-29.456156,49.80749,45.682983,-9.942577,0.8274173,-4.0067425
186,3.6804616451263428,-21.762510299682617,71.2943115234375,-2.9156569181324707,16.148458972953215,-82.48513324005897,-8.966893,12.741288,15.268993,39.275654,-40.93474,-9.509553,-57.34456,-14.177427,-15.096473,80.24329,-25.659542,4.1695323,-7.8220716,1.0535613,11.508237,-10.094027,35.399036,-28.987988,11.485082,23.864431,6.604117,7.162999,11.59067,-29.577255,49.75366,45.692577,-10.200683,0.72195077,-3.7611456
187,3.650536298751831,-22.660472869873047,71.57245635986328,-3.2664628688339343,16.196837036671145,-82.57511659259372,-7.385424,12.989642,15.303456,37.130894,-39.42023,-9.942835,-56.959244,-13.460647,-15.679541,77.12038,-25.464266,4.483487,-8.241008,1.5096846,11.532684,-9.814036,35.349163,-28.867584,10.961618,23.938051,6.4936695,7.303796,11.99888,-29.690971,49.651592,45.69321,-10.489194,0.61661255,-3.5722864
188,3.606343984603882,-23.589651107788086,71.8411865234375,-3.596687595472515,16.26676044335004,-82.60897426593985,-6.0299683,13.277054,15.2704115,35.378193,-37.796906,-10.364593,-56.494728,-12.765316,-16.224358,73.95241,-25.2648,4.708475,-8.693542,1.9470019,11.525045,-9.546106,35.33184,-28.830517,10.520675,24.042124,6.3951783,7.367371,12.415667,-29.79242,49.486034,45.664562,-10.759312,0.5136911,-3.4242854
189,3.5496487617492676,-24.50339698791504,72.10542297363281,-3.9149896362666365,16.37544329388303,-82.5713026463717,-4.9490614,13.634165,15.15383,34.08354,-36.030617,-10.786499,-55.954155,-12.095287,-16.754734,70.682915,-25.035858,4.8298125,-9.221508,2.3672566,11.465141,-9.2553425,35.362713,-28.847271,10.144013,24.179285,6.3175006,7.3191476,13.03132,-29.870085,49.075092,45.481857,-11.259814,0.39724228,-3.3231027
190,3.4798741340637207,-25.428560256958008,72.3517837524414,-4.225233162334955,16.50531106110595,-82.48117046475335,-4.057658,14.041224,14.960458,33.114822,-34.11468,-11.203261,-55.28889,-11.433259,-17.29654,67.2567,-24.798912,4.87192,-9.741542,2.7857597,11.401345,-8.94427,35.441917,-28.957993,9.791646,24.371906,6.2444763,7.1749887,13.313496,-29.933517,48.905334,45.49002,-11.41022,0.2616708,-3.2777119
191,3.4073920249938965,-26.380542755126953,72.5849380493164,-4.500857089054219,16.6306028948166,-82.35932556952683,-3.3167307,14.45622,14.699442,32.452385,-32.150517,-11.569726,-54.522804,-10.768793,-17.7787,63.826702,-24.58536,4.8634453,-10.3002,3.1615195,11.3097105,-8.526423,35.572315,-29.083002,9.462889,24.621206,6.1635,6.9916153,13.817712,-29.968147,48.499435,45.35549,-11.75002,0.16001847,-3.2642174
192,3.319284439086914,-27.344545364379883,72.80713653564453,-4.714982806944016,16.725922159655752,-82.22721425609267,-2.6832242,14.837687,14.387233,32.07692,-30.237846,-11.848405,-53.68762,-10.099582,-18.126759,60.55989,-24.430557,4.827172,-10.802325,3.4792905,11.237028,-8.331937,35.74697,-29.395613,9.368265,24.794537,6.0703764,6.8446045,14.096723,-29.99115,48.259747,45.356426,-11.701846,0.123224236,-3.2649744
193,3.2195513248443604,-28.322891235351562,73.0107650756836,-4.863197790941577,16.78930607257321,-82.06786324189193,-2.1690252,15.189599,14.005426,32.013027,-28.37703,-12.028733,-52.776737,-9.436321,-18.330107,57.437954,-24.356062,4.7180514,-11.303158,3.7324417,11.128519,-7.9741926,35.9678,-29.759453,9.250242,25.096851,5.95922,6.7402277,14.736346,-29.983934,47.66976,45.14579,-11.818325,0.20586325,-3.2826042
194,3.135352849960327,-29.327682495117188,73.19032287597656,-4.958734991285052,16.832884205808593,-81.87633797666602,-1.7783003,15.526766,13.560348,32.248417,-26.516758,-12.148533,-51.78106,-8.781302,-18.424202,54.395485,-24.339615,4.543656,-11.790255,3.9348898,11.001135,-7.615001,36.23748,-30.238987,9.212908,25.451864,5.83631,6.64956,15.525656,-29.950413,46.9065,44.840206,-11.928944,0.3707598,-3.324507
195,3.0509862899780273,-30.350505828857422,73.33284759521484,-5.001407769844786,16.852337593664625,-81.68815094683673,-1.4558676,15.825482,13.105469,32.697235,-24.671062,-12.240533,-50.724297,-8.128057,-18.405346,51.522358,-24.343782,4.403053,-12.160467,4.0934153,10.890904,-7.2962775,36.531277,-30.834402,9.237404,25.773514,5.70815,6.573614,15.787456,-29.915028,46.57558,44.871983,-11.396917,0.5326178,-3.3713448
196,2.9602551460266113,-31.423246383666992,73.4388656616211,-4.992994386774738,16.84282571700563,-81.53967472496772,-1.1535304,16.066423,12.689887,33.282734,-22.858208,-12.324581,-49.631012,-7.474337,-18.269213,48.914135,-24.331081,4.3914304,-12.505141,4.1774263,10.749857,-6.831726,36.826683,-31.337904,9.30033,26.007732,5.571707,6.493457,16.32081,-29.868498,46.013943,44.720478,-11.172614,0.63667434,-3.3897552
197,2.8618364334106445,-32.51131057739258,73.51241302490234,-4.907060443912895,16.806795654276417,-81.42877789844377,-0.8630119,16.216722,12.299435,33.974697,-21.064438,-12.407109,-48.48206,-6.8263206,-17.9609,46.518932,-24.304892,4.638396,-12.75732,4.175703,10.572047,-6.237375,37.10288,-31.808603,9.393716,26.134987,5.4088097,6.4472427,16.871443,-29.828175,45.453617,44.550808,-10.871638,0.66078603,-3.3886642
198,2.783069372177124,-33.59425354003906,73.56641387939453,-4.753484718781937,16.745842712930322,-81.34115993386425,-0.6090099,16.297354,11.919109,34.81356,-19.281824,-12.474065,-47.2742,-6.197255,-17.499712,44.317757,-24.282118,5.0550447,-12.939231,4.10773,10.369141,-5.672386,37.35786,-32.323254,9.635711,26.143208,5.2231293,6.4252453,17.37161,-29.803574,44.940536,44.40169,-10.423341,0.6423803,-3.3786547
199,2.705084800720215,-34.66876983642578,73.59053039550781,-4.590053126084357,16.65528551239063,-81.2967112950767,-0.39778954,16.378588,11.5947485,35.835175,-17.540304,-12.502841,-46.06899,-5.5912843,-16.99031,42.480614,-24.253353,5.4037056,-13.072339,4.020289,10.15608,-5.0617456,37.58498,-32.80111,9.969523,26.116735,5.058487,6.360406,18.055588,-29.790125,44.25517,44.102818,-10.2453575,0.5961614,-3.326618
200,2.6552205085754395,-35.76875686645508,73.56948852539062,-4.477298650026396,16.531383658231746,-81.31677036163308,-0.23514046,16.535686,11.373813,37.07414,-15.86971,-12.468921,-44.932365,-5.002399,-16.537096,41.182373,-24.218744,5.4442134,-13.082468,3.9805567,9.985339,-4.3858585,37.769962,-33.23349,10.3032255,26.160992,4.961912,6.193048,18.401785,-29.807531,43.809914,43.995228,-9.970559,0.5210382,-3.2079577
201,2.60510516166687,-36.86601257324219,73.50791931152344,-4.438795830171427,16.391139990602035,-81.40155521483389,-0.13602935,16.789938,11.24673,38.537144,-14.265664,-12.310166,-43.870544,-4.412984,-16.174517,40.5112,-24.139656,5.0521297,-13.031479,4.01416,9.822971,-3.6936388,37.909462,-33.60732,10.71559,26.247414,4.965398,5.8662376,18.694128,-29.856312,43.393723,43.896305,-9.92137,0.41248912,-2.9988902
202,2.545105218887329,-37.96588134765625,73.44149017333984,-4.447056974180602,16.231780984031023,-81.54366959153698,-0.090506725,17.119463,11.19982,40.20081,-12.712337,-12.046404,-42.862526,-3.8242803,-15.849812,40.376392,-24.038837,4.3697944,-12.9054785,4.0943975,9.658378,-2.9422739,37.997654,-33.93417,11.1817665,26.374443,5.0378256,5.4270473,18.972662,-29.9392,42.97605,43.779873,-10.034657,0.2698172,-2.717921
203,2.4870519638061523,-39.07854080200195,73.36323547363281,-4.484823746286554,16.019949934173717,-81.7516328105073,-0.06837386,17.534115,11.267791,42.06127,-11.227132,-11.772892,-41.933956,-3.253278,-15.536499,40.680416,-24.005968,3.5580094,-12.684005,4.189542,9.555914,-2.1773975,38.032726,-34.217487,11.714542,26.507952,5.1207705,4.954661,19.068819,-30.060812,42.655964,43.72611,-10.17826,0.114914455,-2.4033554
204,2.4232001304626465,-40.184425354003906,73.26334381103516,-4.53249794420128,15.72175631926685,-82.0340426095645,-0.037374385,18.038898,11.481288,44.116085,-9.828312,-11.585559,-41.107452,-2.7179077,-15.203962,41.321342,-24.128757,2.778514,-12.385626,4.25974,9.572222,-1.461708,38.02042,-34.44512,12.364598,26.579828,5.1547227,4.5252585,19.044239,-30.215704,42.343983,43.65585,-10.467473,-0.025412152,-2.091746
205,2.353196144104004,-41.28388595581055,73.13898468017578,-4.5741343846649976,15.294617546568999,-82.3844055164315,0.095497176,18.674103,11.920234,46.346596,-8.440837,-11.641455,-40.417953,-2.2478068,-14.850861,42.44299,-24.481585,2.0290272,-11.992662,4.2828155,9.746496,-0.704615,37.958965,-34.57067,13.049417,26.671097,5.1094465,4.0818043,18.863443,-30.398623,42.050083,43.595764,-10.948464,-0.15630662,-1.7216879
206,2.2823126316070557,-42.35205841064453,72.98814392089844,-4.617879511403935,14.764352468576941,-82.7980030226719,0.29472578,19.432354,12.532774,48.769623,-7.0862494,-11.824458,-39.8311,-1.8214105,-14.492097,44.020958,-24.989325,1.2389008,-11.521295,4.282238,10.0476885,-0.018997848,37.85265,-34.65881,13.858743,26.713339,5.020801,3.6078923,18.517607,-30.611277,41.806038,43.56594,-11.578679,-0.2908378,-1.3000175
207,2.229523181915283,-43.43037414550781,72.82427215576172,-4.680896283502381,14.202480700056654,-83.28713427136162,0.39925408,20.2451,13.160135,51.4333,-5.9303093,-11.833554,-39.274574,-1.380482,-14.117595,45.715546,-25.523165,0.46758655,-10.945596,4.2930827,10.409897,0.76557976,37.693943,-34.67449,14.660514,26.758522,4.936834,3.2477012,17.902147,-30.859926,41.72248,43.64174,-12.070856,-0.41596222,-0.9614383
208,2.1876585483551025,-44.489501953125,72.64959716796875,-4.784696052432476,13.682412182100581,-83.86608938181507,0.24438253,21.044039,13.653913,54.374947,-5.1381326,-11.381339,-38.686188,-0.8672028,-13.7195015,47.204647,-25.96183,-0.22501262,-10.350896,4.3378997,10.763407,1.4093584,37.494858,-34.712204,15.688208,26.571516,4.899415,3.1384034,17.41132,-31.140251,41.50673,43.523327,-12.67605,-0.5035975,-0.837547
209,2.1580138206481934,-45.55573272705078,72.44449615478516,-4.950790310691229,13.19235408710902,-84.58543018025124,-0.18161756,21.881914,14.07196,57.738194,-4.735391,-10.172369,-38.073174,-0.2393391,-13.279348,48.472984,-26.19903,-0.8554844,-9.558675,4.459215,11.144761,2.1273866,37.238495,-34.73583,16.688223,26.278698,4.948796,3.3686745,16.288273,-31.48437,41.75603,43.728897,-12.586739,-0.5664696,-0.9767361
210,2.1228713989257812,-46.60274887084961,72.22965240478516,-5.161005323262724,12.702464809896377,-85.4220768346187,-0.7885053,22.778967,14.465778,61.43927,-4.6464186,-8.429138,-37.46176,0.46597758,-12.810179,49.671078,-26.326107,-1.4426783,-8.704826,4.6209,11.54806,2.9259894,36.923096,-34.660473,17.739243,25.870552,5.043288,3.8379688,15.20288,-31.8739,41.941063,43.7787,-12.56511,-0.59863245,-1.2993628
211,2.0774543285369873,-47.63320541381836,72.00801849365234,-5.376485526658454,12.262004408795496,-86.28115675067721,-1.6172975,23.58037,14.665517,65.19813,-4.873904,-6.67971,-36.833317,1.181936,-12.344198,50.74861,-26.520023,-1.9307353,-7.822172,4.8053403,11.922148,3.7318,36.559673,-34.587437,18.88232,25.43855,5.1311374,4.4445696,13.987502,-32.304413,42.22166,43.839596,-12.422249,-0.59529865,-1.7598302
212,2.0297913551330566,-48.67085647583008,71.77948760986328,-5.558467193116612,11.922769299192506,-87.06800845250974,-2.7286034,24.098328,14.502219,68.75517,-5.41642,-5.479078,-36.173065,1.8379056,-11.909047,51.65913,-26.963194,-2.2657187,-7.0041428,4.974235,12.210914,4.473524,36.16734,-34.57661,20.189486,25.04379,5.1605473,5.079898,12.6799,-32.75479,42.59956,43.930847,-12.200356,-0.54752576,-2.3142104
213,1.9713081121444702,-49.6961784362793,71.56224060058594,-5.712431578396122,11.702909630902179,-87.76087196544263,-4.193617,24.191212,13.828131,72.16115,-6.420076,-5.0784106,-35.472073,2.4270618,-11.53169,52.391983,-27.780806,-2.4058716,-6.267199,5.1120553,12.398414,5.2085114,35.75456,-34.59164,21.6484,24.648222,5.1084747,5.83795,11.235991,-33.2086,43.141884,44.088642,-11.81987,-0.46493325,-3.035632
214,1.919499397277832,-50.74074935913086,71.35340118408203,-5.852680313044235,11.575220107271175,-88.41004488622562,-5.977697,23.9206,12.792059,75.55527,-7.8541083,-5.1903024,-34.74835,2.9773045,-11.187861,52.984444,-28.859169,-2.3929615,-5.569492,5.2244577,12.518435,5.937553,35.326725,-34.616817,23.236275,24.222029,5.0025406,6.7335105,9.633053,-33.653267,43.83455,44.30085,-11.286203,-0.35457712,-3.9230044
215,1.8626683950424194,-51.76704025268555,71.17730712890625,-5.9541976260912195,11.525035549257272,-89.02892633289444,-7.984934,23.420092,11.674603,78.80398,-9.438538,-5.5563684,-34.026455,3.4699383,-10.8293495,53.459335,-30.021091,-2.2993371,-4.8846517,5.302912,12.579186,6.640496,34.897835,-34.700806,24.897516,23.927393,4.88015,7.5414267,7.9756927,-34.06962,44.51892,44.51837,-10.778102,-0.19945163,-4.8184133
216,1.80588698387146,-52.812557220458984,71.02141571044922,-5.991923143190033,11.53836809983441,-89.62997728398018,-10.129794,22.850523,10.724446,81.753555,-10.870067,-5.9078774,-33.329365,3.886508,-10.408125,53.83657,-31.087215,-2.19561,-4.1722484,5.3388886,12.584099,7.315268,34.485138,-34.89461,26.558516,23.93963,4.786453,8.040213,6.3733735,-34.441864,45.030945,44.71547,-10.473579,0.024023665,-5.562604
217,1.7477790117263794,-53.851348876953125,70.88847351074219,-5.953708735249523,11.635926314447293,-90.22574012957502,-12.458486,22.196896,9.931633,84.39547,-12.04707,-6.256435,-32.695965,4.221739,-9.897442,54.146996,-32.048134,-2.0972393,-3.4064317,5.3175855,12.516045,7.931227,34.100384,-35.25329,28.310219,24.336557,4.766719,8.180068,4.8152547,-34.76064,45.365505,44.967247,-10.388794,0.3359321,-6.1213036
218,1.7033195495605469,-54.891998291015625,70.77652740478516,-5.858297126312365,11.817831611447797,-90.80702829418577,-14.991841,21.409096,9.200196,86.799194,-13.133028,-6.7099967,-32.10082,4.4847946,-9.33153,54.370693,-32.988483,-1.9701118,-2.5929465,5.2386594,12.375074,8.552106,33.746365,-35.719036,30.110046,25.04658,4.790706,8.077766,3.2652297,-35.024075,45.586376,45.286045,-10.444634,0.7221945,-6.574466
219,1.675105094909668,-55.930198669433594,70.6908950805664,-5.729059769143673,12.0399246707624,-91.35461751848125,-17.622173,20.618992,8.606768,88.90937,-14.20118,-7.137718,-31.47159,4.68229,-8.752816,54.45292,-33.86521,-1.8096904,-1.7742965,5.117715,12.209108,9.100972,33.435566,-36.28126,31.848064,25.861374,4.7889457,7.764557,1.7564254,-35.23825,45.67071,45.55911,-10.676175,1.1597542,-6.9333615
220,1.6581082344055176,-56.959617614746094,70.6321029663086,-5.588636445703776,12.257593670099196,-91.84933012389973,-20.24711,19.965204,8.212613,90.66475,-15.315761,-7.4025383,-30.735634,4.8216596,-8.2032995,54.33752,-34.636475,-1.612398,-0.9614576,4.977587,12.047876,9.72595,33.17558,-36.80995,33.240868,26.7359,4.69134,7.270532,0.37337482,-35.4146,45.550003,45.648468,-11.126947,1.6253417,-7.205872
221,1.6421353816986084,-57.980506896972656,70.59957885742188,-5.447629544341354,12.481237468592946,-92.29233760605312,-22.918228,19.49471,8.008338,92.065956,-16.50272,-7.4740305,-29.901043,4.9040813,-7.6895075,54.016567,-35.30604,-1.3609215,-0.17200953,4.8344817,11.908839,10.294496,32.987244,-37.37582,34.310516,27.596197,4.4634833,6.5329103,-0.9093504,-35.56349,45.182217,45.515648,-11.950763,2.1526985,-7.3408127
222,1.6400426626205444,-59.026145935058594,70.60877227783203,-5.293440397507814,12.725975223947623,-92.69284763737303,-25.667418,19.14755,7.9504466,93.12901,-17.709307,-7.4144344,-28.995138,4.925744,-7.1901474,53.51873,-35.892982,-1.0694474,0.6239331,4.6731377,11.767581,10.928785,32.87426,-37.93075,35.059563,28.580372,4.1364264,5.5594716,-2.0932236,-35.69024,44.589138,45.21211,-13.086593,2.7395,-7.339971
223,1.6512632369995117,-60.08374786376953,70.66986846923828,-5.109665419071652,12.955572433115346,-93.04111539736387,-28.359001,18.896057,8.04414,93.80502,-18.87758,-7.2269974,-27.968369,4.8824425,-6.703283,52.83653,-36.384357,-0.7790708,1.3940443,4.4674006,11.643042,11.571392,32.835026,-38.49672,35.60553,29.509619,3.7436407,4.493301,-3.1844385,-35.80173,43.9063,44.761494,-14.218121,3.3111515,-7.3024487
224,1.6769435405731201,-61.16559600830078,70.77493286132812,-4.878936699425061,13.134180530367784,-93.32673794205375,-30.85567,18.708946,8.299482,94.04632,-19.952513,-6.918197,-26.773886,4.766683,-6.227087,51.963634,-36.763283,-0.5255845,2.102513,4.1912875,11.55166,12.156822,32.8605,-39.10266,36.077404,30.202658,3.328439,3.4748695,-4.1747136,-35.905865,43.258472,44.183327,-15.03683,3.797603,-7.3375072
225,1.7074171304702759,-62.261478424072266,70.91455841064453,-4.590561299152991,13.245542403942297,-93.53932058596061,-33.145344,18.589836,8.740384,93.82893,-20.971128,-6.4843197,-25.379526,4.5601683,-5.755364,50.86988,-37.050304,-0.30928794,2.7314343,3.8389666,11.506745,12.714098,32.9438,-39.759678,36.44273,30.63015,2.869785,2.4608314,-5.070077,-36.00814,42.631294,43.4535,-15.437082,4.1813865,-7.4741397
226,1.7321010828018188,-63.376731872558594,71.08360290527344,-4.252126965926162,13.311106257791561,-93.68656190402336,-35.278824,18.535786,9.3646755,93.17205,-21.95088,-5.940458,-23.818844,4.2636323,-5.290191,49.571213,-37.24637,-0.11146191,3.298332,3.427268,11.499783,13.239843,33.082096,-40.46085,36.674545,30.869442,2.3619633,1.4009842,-5.88177,-36.10942,41.981224,42.570168,-15.579662,4.501333,-7.6609063
227,1.7584747076034546,-64.52278900146484,71.28857421875,-3.8744744128485618,13.35252103838968,-93.78502357595251,-37.213017,18.50484,10.1471405,92.09496,-22.813105,-5.3230314,-22.14706,3.8996894,-4.842849,48.132248,-37.305477,0.069020495,3.8265846,2.9646661,11.502885,13.722966,33.263145,-41.14242,36.84033,30.989779,1.876963,0.42098197,-6.5608106,-36.21045,41.35215,41.569195,-15.58228,4.774463,-7.891275
228,1.7623534202575684,-65.68861389160156,71.51177215576172,-3.469579177788868,13.3912423153475,-93.85089804300988,-38.90668,18.461046,11.060562,90.61948,-23.479116,-4.6636333,-20.4177,3.4934223,-4.425728,46.605442,-37.177258,0.24096906,4.3368845,2.4620776,11.485181,14.1962385,33.46616,-41.70793,36.982033,31.0998,1.4836951,-0.35239184,-7.0562525,-36.3091,40.79242,40.48956,-15.561899,5.0176516,-8.157997
229,1.7575962543487549,-66.85504913330078,71.75365447998047,-3.026171534746883,13.43255358075221,-93.87366025535812,-40.35128,18.411446,12.145668,88.71571,-23.934654,-3.8987734,-18.590914,3.037451,-4.046768,44.889313,-36.871723,0.38555506,4.805563,1.9068329,11.431153,14.648795,33.677498,-42.17414,37.131298,31.206856,1.1936926,-0.8909896,-7.297711,-36.40082,40.30008,39.257774,-15.507906,5.2366843,-8.540655
230,1.7579541206359863,-68.07015991210938,72.01116943359375,-2.541220868236662,13.46605362428087,-93.84799336848377,-41.550262,18.341492,13.424302,86.37727,-24.235888,-3.0569222,-16.667675,2.5200977,-3.707284,42.990433,-36.40452,0.5274744,5.259981,1.3046868,11.376786,15.037649,33.896866,-42.599445,37.26856,31.280256,0.9755387,-1.2572696,-7.6117673,-36.49256,40.054916,38.086735,-15.145051,5.420013,-9.018759
231,1.7639003992080688,-69.31873321533203,72.29109191894531,-2.0406053975235676,13.4886314601078,-93.79811949947869,-42.488914,18.197294,14.829253,83.65913,-24.39788,-2.2948964,-14.757961,1.9642234,-3.4055302,41.12102,-35.73603,0.7330514,5.674553,0.681082,11.307554,15.43533,34.10519,-42.878014,37.376793,31.332901,0.8257957,-1.4683958,-7.683529,-36.572483,39.778114,36.82483,-14.893531,5.5630565,-9.43452
232,1.7826693058013916,-70.59549713134766,72.57293701171875,-1.5522929726574721,13.497655958403376,-93.74928874855647,-43.165455,17.940086,16.277727,80.6139,-24.422056,-1.7580187,-12.968194,1.3943261,-3.130473,39.50151,-34.824917,1.0514139,6.093711,0.07214825,11.240612,15.838173,34.288963,-42.966915,37.454903,31.378208,0.7438777,-1.5349578,-7.6045957,-36.64198,39.47044,35.6165,-14.838486,5.662116,-9.626659
233,1.7968045473098755,-71.87197875976562,72.85664367675781,-1.0551993948118286,13.487945669640107,-93.69824862785703,-43.52871,17.574823,17.829956,77.134476,-24.282417,-1.4589434,-11.2712145,0.78839034,-2.8797934,38.12339,-33.630642,1.4911958,6.5446167,-0.54170763,11.191803,16.22307,34.440834,-42.858307,37.51662,31.467083,0.75688493,-1.3953741,-7.5040956,-36.70458,39.21566,34.56777,-14.956906,5.7109046,-9.511668
234,1.8266407251358032,-73.16929626464844,73.13912963867188,-0.5451858960873301,13.461702640288076,-93.63493694748861,-43.59753,17.09643,19.500319,73.21167,-23.97214,-1.3356398,-9.632307,0.14851671,-2.649029,36.89632,-32.182636,2.0129032,6.98892,-1.1652822,11.141847,16.609236,34.55289,-42.566845,37.567154,31.58098,0.85603565,-1.0649741,-7.207909,-36.753136,38.926838,33.51691,-15.288495,5.7125063,-9.188574
235,1.8477250337600708,-74.46630096435547,73.39395141601562,-0.07950068193119289,13.42673490651666,-93.57506024792626,-43.49605,16.487822,21.110575,69.055725,-23.511059,-1.3969319,-8.135607,-0.46069518,-2.4143457,35.92455,-30.552664,2.5802884,7.423566,-1.7363964,11.087651,16.98527,34.62119,-42.132843,37.608192,31.620588,0.98869354,-0.66413,-6.8746653,-36.795666,38.699326,32.57939,-15.616962,5.6761723,-8.770327
236,1.868935465812683,-75.78826904296875,73.64408874511719,0.2843127545959971,13.391058442651259,-93.53647192396627,-43.3525,15.763668,22.471643,64.878296,-22.920757,-1.6305562,-6.8549647,-0.9728365,-2.1507096,35.303585,-28.811586,3.1629946,7.8269653,-2.1940403,11.0181055,17.362734,34.63854,-41.57442,37.633648,31.489902,1.0991623,-0.31455702,-6.561021,-36.83908,38.56706,31.792759,-15.806225,5.61526,-8.37018
237,1.9062055349349976,-77.11790466308594,73.87019348144531,0.5291648503093999,13.354460673286988,-93.53251602908361,-43.168686,14.926968,23.539173,60.541187,-22.089378,-2.0462399,-5.7881656,-1.3680236,-1.8521986,35.04635,-26.937315,3.7960167,8.20808,-2.520985,10.933052,17.765535,34.588177,-40.8351,37.639935,31.136337,1.1881661,-0.0017329295,-6.2339907,-36.89133,38.51499,31.140709,-15.866289,5.5227423,-7.985716
238,1.9420521259307861,-78.45525360107422,74.06739807128906,0.6809320596660969,13.310991096927797,-93.5561691501803,-42.884758,14.014045,24.380394,55.97464,-21.038637,-2.6086025,-4.8765826,-1.6611608,-1.5191299,35.0826,-24.904251,4.4969525,8.574743,-2.7435505,10.83723,18.171877,34.461388,-39.926895,37.645226,30.621225,1.2771983,0.32516745,-5.8843937,-36.955982,38.540226,30.610126,-15.848046,5.396667,-7.5666094
