unveil-humanoid-operators/unveil-humanoid-operators.github.io/feature-analysis-animation/data/feature_matrix_instances/age_waist_rom_jogging_A274_jump_ff_360_006__A274.csv
Frame,root_translateX,root_translateY,root_translateZ,root_rotateX,root_rotateY,root_rotateZ,left_hip_pitch_joint_dof,left_hip_roll_joint_dof,left_hip_yaw_joint_dof,left_knee_joint_dof,left_ankle_pitch_joint_dof,left_ankle_roll_joint_dof,right_hip_pitch_joint_dof,right_hip_roll_joint_dof,right_hip_yaw_joint_dof,right_knee_joint_dof,right_ankle_pitch_joint_dof,right_ankle_roll_joint_dof,waist_yaw_joint_dof,waist_roll_joint_dof,waist_pitch_joint_dof,left_shoulder_pitch_joint_dof,left_shoulder_roll_joint_dof,left_shoulder_yaw_joint_dof,left_elbow_joint_dof,left_wrist_roll_joint_dof,left_wrist_pitch_joint_dof,left_wrist_yaw_joint_dof,right_shoulder_pitch_joint_dof,right_shoulder_roll_joint_dof,right_shoulder_yaw_joint_dof,right_elbow_joint_dof,right_wrist_roll_joint_dof,right_wrist_pitch_joint_dof,right_wrist_yaw_joint_dof
0,-0.5140337347984314,0.8634864091873169,77.24224090576172,1.9247576924635343,12.270677730073178,-86.15633389234954,-27.76883,-3.7173502,0.99755484,15.318566,-0.58625877,-3.4238389,-10.384835,-2.958893,-1.5525187,56.50533,-1.4128236,13.098513,3.566623,0.44524288,9.400347,23.465605,31.327118,-24.330498,-19.68383,-6.477674,-8.349273,11.697305,2.445739,-27.876337,23.582245,-17.19531,3.9301426,-9.612736,-10.676688
1,-0.4890733063220978,-0.06994175165891647,77.02416229248047,2.406621518869521,11.895403456811582,-85.9739500484526,-28.140175,-4.29055,1.2347955,18.506985,-2.6714776,-2.3777585,-11.702229,-3.435715,-0.7361097,60.296272,-1.5749394,14.229816,2.9350145,-0.07347051,9.8908615,21.848358,31.299372,-24.908411,-19.56325,-6.955988,-8.1834545,12.543749,3.3358572,-27.695858,23.39132,-16.124147,4.068178,-10.315579,-11.268222
2,-0.4714484214782715,-0.9738504886627197,76.77467346191406,2.825519421738752,11.461758109327576,-85.83526073347163,-28.479156,-4.7760606,1.4443009,21.768145,-4.7930384,-1.296496,-12.915414,-3.8324654,-0.01532677,64.107445,-1.6694603,15.000033,2.357529,-0.55600417,10.38784,20.162436,31.19059,-25.52812,-19.329319,-7.5040636,-8.024757,13.395784,4.1061087,-27.380068,23.236408,-14.866271,4.1816382,-11.050685,-11.813472
3,-0.4720715284347534,-1.8652117252349854,76.5217514038086,3.1753282738319917,11.07632883972335,-85.69904482178721,-28.732056,-5.170601,1.573182,24.760525,-6.81403,-0.32582578,-14.171515,-4.3418546,0.36998174,67.778046,-1.8888285,15.000033,1.7566323,-0.9934878,10.807108,18.444073,31.032532,-26.129683,-19.027866,-7.8467965,-7.8640823,14.24957,4.831577,-26.975946,23.123697,-13.536807,4.21709,-11.716198,-12.358106
4,-0.5161697268486023,-2.7547147274017334,76.28960418701172,3.4520403032937654,10.856861721632278,-85.52133131347755,-28.88184,-5.489368,1.5860364,27.186172,-8.615658,0.3934596,-15.635938,-4.929148,0.6133,71.13612,-2.4238043,15.000033,1.1026257,-1.361048,11.043386,16.65104,30.859394,-26.727423,-18.645226,-7.7091208,-7.6846967,15.115851,5.6417565,-26.520311,22.99921,-12.27127,4.114157,-12.208343,-12.934177
5,-0.5571351647377014,-3.643390655517578,76.0886459350586,3.8449622552440093,10.858076989726392,-85.19884620088013,-28.852749,-5.968564,1.5408161,28.723925,-10.041769,0.8169303,-17.421999,-5.7609982,0.8738835,74.29301,-3.5456312,15.000033,0.31170583,-1.826351,11.057334,14.71772,30.705698,-27.37962,-18.15013,-6.9671865,-7.5018687,16.084105,6.616257,-26.026785,22.797693,-11.115102,3.7343276,-12.458284,-13.58219
6,-0.6011480689048767,-4.536505699157715,75.92022705078125,4.2180059337937665,11.037198612389687,-84.7983950533688,-28.805494,-6.4475937,1.4174558,29.816492,-11.294006,1.0045841,-19.453825,-6.677669,1.104446,77.25142,-5.0423355,14.999868,-0.5388999,-2.2623477,10.885814,12.691217,30.580374,-28.076796,-17.598442,-5.801643,-7.30025,17.126657,7.728054,-25.506079,22.529295,-10.050956,3.1659331,-12.530607,-14.279048
7,-0.6586407423019409,-5.484640121459961,75.78362274169922,4.5494870000710765,11.285952557300261,-84.40395061820387,-28.670254,-6.86463,1.2574576,30.589512,-12.420546,1.064245,-21.582733,-7.996053,0.7878457,79.89286,-6.5576034,13.464605,-1.3788339,-2.6705985,10.620671,10.691183,30.467594,-28.731485,-17.087175,-4.392698,-7.017257,18.070013,8.939207,-24.988842,22.26242,-9.109401,2.6889374,-12.528404,-14.961365
8,-0.6975196599960327,-6.514541149139404,75.68289947509766,4.800491282470139,11.501758669906252,-84.10714380498007,-28.391548,-7.1632895,1.1047978,31.191454,-13.481138,1.1275085,-23.636059,-9.269943,0.47234377,82.081184,-7.7553086,12.121181,-2.1283283,-2.9993398,10.354065,8.833418,30.33891,-29.25,-16.699024,-2.912704,-6.604378,18.732145,10.202588,-24.518206,22.075665,-8.325564,2.5839598,-12.560816,-15.571631
9,-0.7446113228797913,-7.515162944793701,75.60865020751953,4.972506663793035,11.69970719179663,-83.95298212626153,-27.987364,-7.324581,0.99504626,31.641638,-14.490851,1.2164946,-25.670261,-10.547812,0.14131883,83.82818,-8.497422,11.018551,-2.7475228,-3.2364542,10.077415,7.121309,30.170973,-29.611912,-16.424217,-1.2051427,-5.969604,19.045137,11.552523,-24.130444,21.994732,-7.7429633,2.951933,-12.621173,-16.151913
10,-0.791874349117279,-8.478913307189941,75.56034088134766,5.089090235653674,11.919769723094996,-83.88256368933011,-27.473248,-7.3910794,0.90142846,31.863865,-15.416882,1.2737621,-27.738306,-11.893288,-0.266562,85.19675,-8.99309,9.937938,-3.2948494,-3.3912668,9.7621975,5.4824815,29.957577,-29.87217,-16.200901,0.7620173,-5.178787,19.085825,13.015688,-23.838104,21.975134,-7.364267,3.6466882,-12.670666,-16.721382
11,-0.8497478365898132,-9.425344467163086,75.5565185546875,5.1269805525258105,12.09812261912077,-83.83947148498699,-26.7867,-7.369303,0.7589257,31.864319,-16.246252,1.2942809,-29.665771,-13.168884,-0.7519198,86.11332,-9.384348,8.919281,-3.8303254,-3.4480925,9.474562,3.9198442,29.7002,-30.050741,-16.030775,2.6394563,-4.433226,18.90491,14.528498,-23.64152,21.988157,-7.1567116,4.5763664,-12.770864,-17.186575
12,-0.8992539048194885,-10.357126235961914,75.587890625,5.060825615236513,12.172106019930247,-83.76883173683052,-25.87428,-7.259507,0.5043038,31.664114,-16.974863,1.2708166,-31.276388,-14.232518,-1.3241513,86.50502,-9.799559,8.009397,-4.416592,-3.3950214,9.278606,2.4488227,29.409,-30.155533,-15.927048,4.0763903,-3.928657,18.57586,16.019289,-23.533468,22.01516,-7.0791163,5.6444616,-12.977645,-17.451902
13,-0.9604270458221436,-11.35151195526123,75.68096923828125,4.847776705565232,12.0841082207897,-83.63894853289635,-24.667547,-7.0311737,0.07352714,31.263885,-17.623865,1.1836574,-32.451004,-15.052329,-2.0643315,86.30681,-10.255258,7.254944,-5.087514,-3.2002063,9.229709,1.0820904,29.090248,-30.169825,-15.903715,4.928626,-3.7422614,18.047068,17.493994,-23.515478,22.060434,-7.166556,7.013546,-13.336968,-17.440323
14,-1.0062479972839355,-12.392178535461426,75.81377410888672,4.510885411074944,11.883043788176229,-83.48531100571726,-23.222418,-6.679209,-0.47888792,30.665192,-18.19509,1.0384552,-33.29561,-15.688542,-2.970181,85.573006,-10.679636,6.6395326,-5.802517,-2.8839903,9.288301,-0.1937491,28.747854,-30.097115,-15.953369,5.399321,-3.7652721,17.321167,18.98444,-23.588737,22.127113,-7.427979,8.677821,-13.797777,-17.209005
15,-1.0560111999511719,-13.416329383850098,75.9712905883789,4.122743396572007,11.66680493534099,-83.35521172230663,-21.662094,-6.2439194,-1.0402403,29.870249,-18.643503,0.86552304,-33.976025,-16.142345,-3.9100146,84.4091,-11.070215,6.1296883,-6.5111475,-2.5154335,9.371749,-1.3879719,28.39437,-29.971292,-16.06995,5.6609254,-3.9036024,16.560787,20.456076,-23.738014,22.19701,-7.778534,10.280529,-14.270311,-16.866482
16,-1.1162543296813965,-14.41928768157959,76.14238739013672,3.7570429453241925,11.531888287938152,-83.29683429297668,-20.106874,-5.7745223,-1.5009056,28.881798,-18.923813,0.6967409,-34.663357,-16.414762,-4.7472253,82.91849,-11.4252205,5.686516,-7.160319,-2.1625571,9.39236,-2.509136,28.048124,-29.826376,-16.251587,5.885239,-4.0637636,15.927746,21.86286,-23.935263,22.251781,-8.118863,11.460241,-14.676205,-16.53211
17,-1.1866936683654785,-15.44198989868164,76.33448791503906,3.426963755136336,11.501381105941032,-83.32968516050757,-18.544994,-5.2760453,-1.8416632,27.614271,-19.016865,0.52476543,-35.41783,-16.452057,-5.4130507,81.09342,-11.775841,5.318924,-7.7340097,-1.8485085,9.32234,-3.5553343,27.726439,-29.659449,-16.520235,6.0607743,-4.248206,15.45923,23.201727,-24.159119,22.2893,-8.43465,12.099613,-15.026009,-16.209995
18,-1.2626230716705322,-16.464370727539062,76.53207397460938,3.0967331750132208,11.524009207334872,-83.42635556060732,-16.927761,-4.729997,-2.113603,26.094221,-18.948439,0.33455312,-36.143517,-16.277279,-5.9887247,78.88329,-12.108275,5.0363727,-8.257394,-1.5441979,9.207891,-4.5189257,27.43743,-29.458973,-16.882338,6.108943,-4.49231,15.073624,24.478752,-24.40234,22.316164,-8.753302,12.392349,-15.355277,-15.850015
19,-1.3558369874954224,-17.498239517211914,76.73461151123047,2.767281066375052,11.58386232408628,-83.56570915077755,-15.3164015,-4.156165,-2.3165505,24.49523,-18.742157,0.14744288,-36.77429,-16.003521,-6.5652156,76.318504,-12.357009,4.802615,-8.7373495,-1.2376338,9.068129,-5.3970523,27.183556,-29.24568,-17.312836,6.107351,-4.7548327,14.754328,25.682629,-24.659536,22.321411,-9.055874,12.4251995,-15.630329,-15.496319
20,-1.4500614404678345,-18.540098190307617,76.93224334716797,2.4394450257660627,11.665545990981252,-83.72713441980191,-13.769417,-3.5748122,-2.453446,22.985634,-18.417807,-0.01648731,-37.24577,-15.732578,-7.2371364,73.433205,-12.454544,4.5914116,-9.180043,-0.915164,8.92152,-6.187085,26.961864,-29.04102,-17.78299,6.1351366,-4.9959416,14.484727,26.820864,-24.923561,22.293123,-9.338825,12.278784,-15.816768,-15.191969
21,-1.5382068157196045,-19.62903594970703,77.13925170898438,2.098071374348776,11.776955065016734,-83.91625299137947,-12.271537,-2.9670475,-2.514246,21.52727,-17.955553,-0.14767596,-37.52478,-15.506359,-8.104315,70.172516,-12.384584,4.3939834,-9.581933,-0.5568627,8.759128,-6.885359,26.769764,-28.855072,-18.297398,6.2327995,-5.1954184,14.308007,27.870768,-25.194609,22.238518,-9.564423,11.867363,-15.90462,-14.986373
22,-1.629549503326416,-20.69930076599121,77.33504486083984,1.7491295016939812,11.921708507203482,-84.14165941246598,-10.805448,-2.3384268,-2.4998422,20.067352,-17.356758,-0.25996557,-37.6402,-15.243369,-9.101013,66.524574,-12.179762,4.240538,-9.939501,-0.17678416,8.573761,-7.4928417,26.60744,-28.675335,-18.868488,6.354019,-5.377246,14.2169485,28.856123,-25.471582,22.155575,-9.76156,11.172704,-15.915028,-14.84435
23,-1.714461088180542,-21.767181396484375,77.52941131591797,1.4258219313072706,12.07729553399679,-84.38749659655731,-9.425015,-1.7415938,-2.431957,18.751722,-16.683956,-0.36473724,-37.62318,-14.864441,-10.068036,62.575996,-11.843855,4.160241,-10.2550125,0.1874886,8.388362,-8.0253725,26.47473,-28.494116,-19.466228,6.4442425,-5.5687175,14.120248,29.7721,-25.744867,22.02342,-9.95279,10.410826,-15.859184,-14.680046
24,-1.7980930805206299,-22.849096298217773,77.71157836914062,1.1618186513753959,12.221132441871296,-84.63651857478222,-8.175164,-1.2270554,-2.3374531,17.712387,-15.992149,-0.46909645,-37.510887,-14.318809,-10.832819,58.412758,-11.380462,4.160143,-10.52997,0.49596238,8.225082,-8.498795,26.37036,-28.307634,-20.064272,6.450803,-5.796941,13.926867,30.613203,-25.999443,21.822073,-10.158362,9.794296,-15.748656,-14.407035
25,-1.8928378820419312,-23.928674697875977,77.87833404541016,0.9572937079796847,12.356325117450726,-84.89158140641551,-7.0494995,-0.7946428,-2.214237,16.933987,-15.251417,-0.5736128,-37.30811,-13.615585,-11.375294,53.952866,-10.775222,4.0703983,-10.75431,0.74799734,8.08821,-8.93373,26.294828,-28.121296,-20.652794,6.343047,-6.0829883,13.597701,31.395126,-26.224106,21.52377,-10.399019,9.288833,-15.531738,-13.963836
26,-1.9895745515823364,-25.017690658569336,78.03135681152344,0.800613659564456,12.489396523812577,-85.15731647296792,-6.0179744,-0.42617947,-2.0583735,16.35019,-14.441089,-0.66864747,-36.98445,-12.803831,-11.762182,49.15894,-10.024786,3.919173,-10.927693,0.95511323,7.966116,-9.322184,26.24784,-27.941883,-21.243029,6.1536217,-6.4062366,13.185815,32.096355,-26.415327,21.14946,-10.637537,8.811208,-15.222578,-13.406117
27,-2.0821492671966553,-26.11275863647461,78.16039276123047,0.7072513682544446,12.600722618375245,-85.41701734774745,-5.090547,-0.14049207,-1.8967072,16.021729,-13.632396,-0.7460944,-36.52664,-11.9184265,-11.93902,44.180866,-9.135993,3.9912438,-11.072076,1.0948316,7.8572288,-9.642496,26.22663,-27.764688,-21.825851,5.9213405,-6.7314677,12.736811,32.703876,-26.569056,20.752666,-10.849929,8.476155,-14.928684,-12.825932
28,-2.201674222946167,-27.229785919189453,78.26896667480469,0.6952176695549083,12.669166899239114,-85.65064107533931,-4.2721124,0.042076886,-1.7578387,16.001776,-12.892695,-0.79800355,-35.909077,-10.99974,-11.8490095,39.141,-8.10617,4.570207,-11.213835,1.1434802,7.7617598,-9.871411,26.227339,-27.58233,-22.39116,5.6864924,-7.0243983,12.296382,33.19705,-26.680922,20.39142,-11.005951,8.403439,-14.753779,-12.318588
29,-2.3385884761810303,-28.334089279174805,78.33704376220703,0.8072587926063552,12.678671926650866,-85.84274527862291,-3.507562,0.07612596,-1.6570518,16.219534,-12.219275,-0.8245542,-35.020588,-9.99882,-11.298885,33.697304,-6.747292,6.0106006,-11.371472,1.0569404,7.6818833,-10.002757,26.251532,-27.391535,-22.94439,5.452525,-7.2715716,11.847862,33.58893,-26.74804,20.062683,-11.105115,8.682844,-14.749249,-11.881837
30,-2.4829506874084473,-29.45193099975586,78.36763763427734,1.0594993458127047,12.619457043141267,-85.97924512010397,-2.757572,-0.056366034,-1.5968055,16.610035,-11.5483675,-0.8212662,-33.797203,-9.0238905,-10.3405075,27.752743,-5.080312,8.02924,-11.552964,0.8205676,7.6315646,-10.053873,26.298374,-27.198038,-23.482431,5.2011027,-7.4913654,11.373973,33.878353,-26.768417,19.748714,-11.154631,9.231378,-14.84581,-11.475527
31,-2.633636951446533,-30.582490921020508,78.36268615722656,1.4277241801580116,12.482471667030724,-86.04708975793284,-2.0553486,-0.330748,-1.580986,17.240162,-10.860684,-0.77434105,-32.349964,-8.304865,-9.318686,21.89732,-3.4339294,9.991485,-11.762673,0.45634022,7.6307263,-10.025179,26.373005,-27.005548,-24.000948,4.9381704,-7.6981487,10.922901,34.040577,-26.75046,19.474102,-11.155971,9.910359,-14.965769,-11.1348295
32,-2.782132863998413,-31.71006965637207,78.32540893554688,1.8369378885747036,12.289026637006138,-86.06583607498207,-1.4942639,-0.66271937,-1.5913669,18.240242,-10.169331,-0.67851263,-30.93912,-7.9349513,-8.628398,16.916277,-2.1762967,11.306622,-11.9771805,0.037988253,7.672206,-9.932834,26.45843,-26.818468,-24.466547,4.6748753,-7.90763,10.539639,34.021072,-26.699148,19.277954,-11.073704,10.580582,-15.035763,-10.901825
33,-2.9325311183929443,-32.833709716796875,78.27120971679688,2.2078056328069824,12.086819247155551,-86.07777615198798,-1.1655865,-0.96212685,-1.5857576,19.719181,-9.552307,-0.53779966,-29.747095,-7.816749,-8.481827,13.116178,-1.5387791,11.805054,-12.158632,-0.35402963,7.7314315,-9.767435,26.554634,-26.628128,-24.886185,4.4254093,-8.129748,10.21811,33.797485,-26.613523,19.167213,-10.892889,11.251562,-15.032575,-10.794938
34,-3.091322898864746,-33.944236755371094,78.20698547363281,2.526999905036528,11.892177024631264,-86.10208910449322,-1.067794,-1.2084587,-1.5557947,21.643368,-9.011105,-0.36216927,-28.70602,-7.778796,-8.679833,10.137108,-1.298449,11.845463,-12.290859,-0.70180404,7.793171,-9.532029,26.652784,-26.434822,-25.258703,4.1851473,-8.356087,9.939893,33.387074,-26.497478,19.124567,-10.6171,11.984273,-15.000154,-10.791259
35,-3.259570837020874,-35.04734420776367,78.13223266601562,2.7521484014190487,11.714714957044231,-86.15947223925065,-1.2190448,-1.3482689,-1.5117878,23.992952,-8.47239,-0.17325029,-27.791752,-7.690838,-9.015174,7.862579,-1.1779455,11.633535,-12.344913,-0.9597139,7.8529463,-9.246802,26.74443,-26.254486,-25.563395,3.9314408,-8.576229,9.737603,32.803307,-26.358372,19.137484,-10.25096,12.712141,-14.967106,-10.864126
36,-3.425527811050415,-36.16339111328125,78.041015625,2.862533328781911,11.552107962235311,-86.2583213132276,-1.6096413,-1.3575897,-1.472335,26.717138,-7.846958,0.009614726,-27.360115,-7.53962,-9.218563,7.0238023,-1.3461142,11.357156,-12.303637,-1.1035802,7.9123836,-8.930726,26.817862,-26.104424,-25.783169,3.6445453,-8.779516,9.642818,32.06669,-26.207182,19.191076,-9.806239,13.369036,-14.961013,-10.986785
37,-3.5824389457702637,-37.27547073364258,77.92472839355469,2.851523655466188,11.414417443251972,-86.40774066762432,-2.2482321,-1.2375417,-1.4052147,29.831354,-7.0459523,0.18554421,-27.082909,-7.267354,-9.296135,6.984474,-1.2831854,11.12813,-12.159559,-1.1197095,7.957893,-8.574885,26.859806,-25.987387,-25.910265,3.3028493,-8.968826,9.678414,31.18099,-26.046402,19.290495,-9.274854,13.980242,-14.9966545,-11.1920395
38,-3.7338662147521973,-38.38839340209961,77.78050231933594,2.707168419571612,11.307048111244827,-86.60773738445761,-3.124859,-0.9755434,-1.3195696,33.31883,-6.119403,0.35193634,-26.604637,-6.8361244,-9.408675,6.972463,-0.7435607,10.807503,-11.913712,-0.99381423,7.988984,-8.1876,26.862768,-25.900883,-25.938982,2.9260464,-9.149914,9.820656,30.146708,-25.875946,19.430817,-8.6619425,14.569656,-15.059028,-11.480595
39,-3.897172689437866,-39.47505569458008,77.66654205322266,2.4203117759065154,11.209071928533417,-86.84288333793538,-4.1770983,-0.5597733,-1.3075747,37.058025,-5.178596,0.47573188,-26.405514,-6.3315916,-9.507436,7.8917494,-0.5007009,10.205536,-11.574503,-0.7194308,8.032405,-7.810622,26.826181,-25.85147,-25.850517,2.5559103,-9.316479,10.031279,28.986113,-25.704317,19.584826,-8.008833,15.068493,-15.129196,-11.77861
40,-4.053328037261963,-40.5647087097168,77.54000854492188,1.9969936199286895,11.092448499651688,-87.09187021196387,-5.3357935,-0.007988264,-1.4639882,40.935703,-4.3373895,0.51748693,-26.774914,-5.8163877,-9.575656,10.246601,-1.1137847,9.150284,-11.158624,-0.30528888,8.118642,-7.478933,26.754313,-25.841465,-25.632399,2.2328525,-9.461148,10.272904,27.723095,-25.545221,19.727356,-7.361921,15.410874,-15.185782,-12.013796
41,-4.209200859069824,-41.6930046081543,77.36869049072266,1.4161451658354498,10.939819644370827,-87.35304440625086,-6.6131516,0.66655195,-1.850165,45.05514,-3.5362346,0.4335822,-27.517776,-5.2073994,-9.620058,13.67133,-2.3119502,7.322984,-10.666472,0.2727006,8.254605,-7.208704,26.65096,-25.885185,-25.277325,1.9643438,-9.545342,10.567338,26.364098,-25.406427,19.85466,-6.729608,15.571391,-15.236642,-12.178469
42,-4.373128414154053,-42.786155700683594,77.18502807617188,0.7920668094356611,10.717405277569565,-87.58741704718089,-7.937862,1.3013082,-2.4259639,49.351585,-2.7055323,0.23005474,-28.476706,-4.580924,-9.637976,17.939404,-3.8340902,4.951313,-10.1403,0.90084857,8.449259,-6.9741974,26.51882,-25.974958,-24.799747,1.7284201,-9.584396,10.922443,24.922325,-25.287703,19.974632,-6.120854,15.589869,-15.285787,-12.31144
43,-4.534021377563477,-43.83462142944336,76.96263885498047,0.2634715585731097,10.408922711610588,-87.7466961937012,-9.204163,1.7485907,-3.1120927,53.582623,-2.0089078,-0.05140901,-29.316936,-4.0438375,-9.67465,22.243927,-5.4726005,2.6659005,-9.634085,1.4375448,8.719759,-6.7424145,26.363117,-26.072933,-24.233624,1.5198398,-9.652026,11.281798,23.420025,-25.193867,20.0821,-5.572634,15.495593,-15.306762,-12.409719
44,-4.666213512420654,-44.83186721801758,76.6661605834961,-0.14509490725888435,10.047091237185409,-87.83126570907181,-10.396878,2.025812,-3.8240442,57.593285,-1.6525278,-0.35432747,-29.788761,-3.6332698,-9.783581,25.896006,-7.132011,1.0438957,-9.158606,1.8575889,9.060286,-6.4742436,26.187807,-26.136984,-23.61713,1.3345587,-9.822999,11.591678,21.858906,-25.136044,20.174849,-5.1032786,15.321992,-15.274355,-12.467872
45,-4.811439037322998,-45.84246826171875,76.35051727294922,-0.48858659592484593,9.602552712131208,-87.85709420106842,-11.518067,2.1999328,-4.601635,61.51266,-1.7920531,-0.65628,-29.874369,-3.3620348,-10.00194,28.967985,-9.017455,0.2946213,-8.698196,2.2173107,9.532132,-6.176243,25.987375,-26.14085,-22.936937,1.1406865,-10.192857,11.817597,20.21096,-25.12312,20.231361,-4.724103,15.082372,-15.185113,-12.42253
46,-4.9531402587890625,-46.84654998779297,76.03178405761719,-0.8140112399181597,9.097573505084695,-87.84364051303469,-12.623177,2.3144398,-5.4510813,65.44006,-2.3255568,-0.9804914,-29.75689,-3.1876924,-10.291665,31.85748,-11.187942,0.06521549,-8.23708,2.5701544,10.104417,-5.8567724,25.760128,-26.104006,-22.186337,0.9514704,-10.697156,11.994434,18.485268,-25.158157,20.262415,-4.4299164,14.758909,-15.052156,-12.298113
47,-5.077791690826416,-47.838871002197266,75.72635650634766,-1.1213086059088986,8.656007095399055,-87.81307224796298,-13.8155155,2.4266574,-6.253455,69.20357,-3.0761425,-1.3133206,-29.530622,-3.0555646,-10.6016865,34.443466,-13.396353,0.06522857,-7.7725105,2.9210973,10.625698,-5.4641724,25.518362,-26.048365,-21.424925,0.833064,-11.171051,12.176901,16.707485,-25.242735,20.323902,-4.18784,14.350805,-14.876146,-12.219244
48,-5.184925079345703,-48.77970886230469,75.4288558959961,-1.4049894169997725,8.398361409273198,-87.78605634443572,-15.204104,2.5967636,-6.9017067,72.62282,-3.8578289,-1.6337591,-29.282925,-2.8884306,-10.877011,36.572315,-15.375127,0.01004368,-7.305202,3.2625015,10.948049,-4.9329004,25.285189,-25.98889,-20.723833,0.8495977,-11.449215,12.423039,14.912428,-25.376019,20.476606,-3.978704,13.852991,-14.655823,-12.310702
49,-5.297387599945068,-49.7663688659668,75.16590881347656,-1.6922592250502393,8.414074588718663,-87.7708113648984,-16.907394,2.9432392,-7.356131,75.71767,-4.702406,-1.9086963,-29.070492,-2.6256514,-11.127381,38.147125,-17.067135,-0.15303151,-6.839784,3.613709,10.986766,-4.201116,25.075241,-25.910654,-20.11454,1.0660762,-11.466772,12.782129,13.0230465,-25.564598,20.783968,-3.7439373,13.241809,-14.360902,-12.6537695
50,-5.413414001464844,-50.78326416015625,74.93109130859375,-1.986252209909814,8.623329122290667,-87.7605803423287,-18.859798,3.4377415,-7.6995506,78.57472,-5.676783,-2.1308727,-28.852978,-2.3060217,-11.383675,39.286667,-18.61788,-0.28420934,-6.380021,3.9718919,10.836854,-3.287682,24.894444,-25.79331,-19.58764,1.4253604,-11.316898,13.213905,11.062845,-25.803356,21.214443,-3.5430932,12.527708,-13.996574,-13.165368
51,-5.521744251251221,-51.81500244140625,74.72476959228516,-2.2388642339612903,8.889605093324226,-87.75037726216628,-20.889402,3.90724,-8.003934,81.09928,-6.6370287,-2.3262374,-28.559984,-1.9919078,-11.613549,40.13334,-20.048965,-0.37617797,-5.9148307,4.288269,10.626478,-2.2628565,24.7562,-25.65872,-19.14216,1.8072071,-11.071981,13.645519,9.112863,-26.068295,21.68904,-3.4269254,11.788605,-13.617495,-13.720306
52,-5.635674476623535,-52.83809280395508,74.54862976074219,-2.400750562409786,9.075060100023704,-87.73366079077381,-22.815287,4.16847,-8.3248625,83.18801,-7.4424043,-2.5329688,-28.114052,-1.7498051,-11.782528,40.828876,-21.383533,-0.41845164,-5.4307914,4.508423,10.4810915,-1.2049369,24.677996,-25.538166,-18.769163,2.0925155,-10.806743,14.008107,7.294447,-26.330357,22.117935,-3.4659345,11.074862,-13.281836,-14.1900425
53,-5.754581928253174,-53.84983825683594,74.4079818725586,-2.4432439798567747,9.15283090662235,-87.70250171181881,-24.628723,4.1310477,-8.692466,84.83001,-8.004927,-2.7607455,-27.499643,-1.61776,-11.875027,41.414963,-22.639597,-0.3928717,-4.911873,4.596248,10.424669,-0.13168508,24.67778,-25.467531,-18.450539,2.301279,-10.493186,14.325674,5.514132,-26.5712,22.512756,-3.530879,10.293007,-13.00348,-14.595683
54,-5.867592811584473,-54.859405517578125,74.3113784790039,-2.398777916867189,9.191820182672789,-87.66266540803699,-26.409986,3.9064515,-9.06016,86.07121,-8.410975,-2.9956172,-26.751522,-1.5599514,-11.910908,41.81711,-23.802917,-0.30871907,-4.3668776,4.5755954,10.393184,1.0018324,24.761715,-25.4235,-18.199442,2.4747221,-10.107303,14.625866,3.7790222,-26.78734,22.911333,-3.6451612,9.425446,-12.75155,-14.979162
55,-5.96284294128418,-55.86094665527344,74.25965118408203,-2.3077093801139,9.198040480055047,-87.62682040009909,-28.111776,3.6161914,-9.364632,86.89244,-8.77598,-3.2431493,-25.861927,-1.5323368,-11.908408,41.990845,-24.842121,-0.19376647,-3.8111668,4.494264,10.390967,2.2063067,24.92343,-25.354992,-18.068254,2.5305398,-9.730848,14.849392,2.153063,-26.979853,23.282692,-3.913427,8.701284,-12.527874,-15.250907
56,-6.047142028808594,-56.874961853027344,74.25763702392578,-2.2109959067500964,9.178255967783997,-87.6075678126993,-29.689816,3.386666,-9.546715,87.27513,-9.216122,-3.504206,-24.825686,-1.4878762,-11.884781,41.894634,-25.726677,-0.077264346,-3.249971,4.4082365,10.42617,3.476103,25.148075,-25.222563,-18.102438,2.3871374,-9.44643,14.9368515,0.5965037,-27.152348,23.598558,-4.3466372,8.386668,-12.338793,-15.32677
57,-6.122439861297607,-57.89907455444336,74.29232788085938,-2.1174538381551895,9.109082110933487,-87.61506449393413,-31.11957,3.234024,-9.6011,87.196045,-9.779416,-3.831026,-23.605692,-1.4093395,-11.829776,41.50015,-26.456455,0.038198225,-2.6823564,4.3352036,10.522126,4.8268027,25.4263,-25.003723,-18.319887,1.9660112,-9.28791,14.829486,-0.85233086,-27.31217,23.841055,-5.0277543,8.608001,-12.193551,-15.14741
58,-6.183296203613281,-58.9102668762207,74.35985565185547,-2.006542202643233,8.99521961275185,-87.6411726415684,-32.42779,3.1087484,-9.554961,86.66568,-10.395747,-4.2023273,-22.217007,-1.3243592,-11.735984,40.837112,-27.045738,0.16628985,-2.1090634,4.249986,10.663032,6.2584467,25.755615,-24.717625,-18.687904,1.331575,-9.204789,14.571604,-2.1496909,-27.465689,24.030064,-5.9569774,9.191811,-12.085479,-14.775182
59,-6.2348737716674805,-59.92932891845703,74.4566650390625,-1.8739567385126201,8.885599037431843,-87.67103393562263,-33.64503,3.0340507,-9.39862,85.71428,-11.0032215,-4.510783,-20.729723,-1.2506098,-11.623545,39.944572,-27.48385,0.3012837,-1.5346413,4.1419206,10.796305,7.737426,26.12739,-24.393927,-19.171404,0.6210721,-9.153848,14.258406,-3.3380275,-27.61296,24.18881,-7.0114307,9.95932,-11.997525,-14.308633
60,-6.271241664886475,-60.963104248046875,74.59069061279297,-1.7145591659797212,8.829463456238534,-87.68933402786303,-34.798187,3.0248556,-9.120327,84.37244,-11.541931,-4.654791,-19.215567,-1.2064103,-11.5138035,38.865376,-27.761763,0.4386363,-0.9657586,3.995056,10.864349,9.225894,26.52901,-24.062819,-19.72565,-0.025293427,-9.095111,13.98466,-4.406633,-27.750622,24.331377,-8.113378,10.712555,-11.916469,-13.843547
61,-6.310655117034912,-62.02015686035156,74.75292205810547,-1.532283897501891,8.838888348409654,-87.70150871451453,-35.89684,3.0707462,-8.7068,82.62748,-12.058325,-4.626602,-17.658842,-1.1837635,-11.409342,37.53621,-27.877369,0.57719576,-0.40197608,3.8082,10.839361,10.736286,26.950354,-23.71797,-20.34603,-0.5953099,-9.024635,13.761441,-5.1698833,-27.876457,24.426737,-9.43677,11.442991,-11.867764,-13.3718815
62,-6.343470573425293,-63.09268569946289,74.94087219238281,-1.325630433293215,8.887895178524246,-87.71258446983306,-36.905983,3.154016,-8.155162,80.45538,-12.566675,-4.489225,-16.033834,-1.180861,-11.297281,35.96154,-27.836535,0.7224363,0.17060247,3.590165,10.761738,12.263542,27.388348,-23.357504,-21.043545,-1.1515732,-8.962023,13.541935,-5.823026,-27.991865,24.48342,-10.841069,12.289843,-11.846171,-12.856645
63,-6.369997024536133,-64.1684799194336,75.14933776855469,-1.0791856095297359,8.967695908166942,-87.70597138174736,-37.78392,3.2630477,-7.472136,77.879456,-12.964943,-4.2641935,-14.397003,-1.2248663,-11.176338,34.284374,-27.642956,0.879077,0.7292492,3.3204136,10.645559,13.771407,27.839476,-22.990808,-21.773787,-1.6665924,-8.904956,13.3309555,-6.3212414,-28.098824,24.520964,-12.311189,13.048823,-11.7958975,-12.339119
64,-6.395723819732666,-65.26040649414062,75.37494659423828,-0.779222609540352,9.069457700993512,-87.6648111684674,-38.487316,3.3840432,-6.6613817,74.91483,-13.152196,-3.9726384,-12.806767,-1.3421822,-11.04818,32.65081,-27.301517,1.0515838,1.2571126,2.9829488,10.509211,15.218778,28.29991,-22.633045,-22.496464,-2.1108854,-8.851503,13.134442,-6.695433,-28.201029,24.562542,-13.769431,13.544521,-11.663499,-11.861409
65,-6.415737628936768,-66.36217498779297,75.61161804199219,-0.3960089316977493,9.198491060641016,-87.5747896859342,-39.00459,3.495206,-5.663364,71.50718,-13.107189,-3.5852149,-11.245318,-1.5605295,-10.905002,31.016287,-26.813467,1.2389675,1.7492098,2.5474694,10.3468075,16.593035,28.770962,-22.28977,-23.199583,-2.4648457,-8.799218,12.960597,-6.9211206,-28.299643,24.592752,-15.242608,13.69344,-11.399731,-11.436189
66,-6.436709880828857,-67.47505950927734,75.85710906982422,0.055988785305448645,9.355871461631622,-87.44677948930853,-39.326504,3.5688126,-4.4706435,67.64608,-12.888763,-3.1358776,-9.697716,-1.8604329,-10.752135,29.338097,-26.180487,1.4410397,2.214696,2.030883,10.155887,17.91486,29.253023,-21.951437,-23.904978,-2.747146,-8.750748,12.803776,-6.987631,-28.396114,24.598686,-16.760963,13.5997305,-11.049613,-11.038374
67,-6.460182189941406,-68.59241485595703,76.11351013183594,0.5188596922866926,9.525712866354212,-87.30193734232614,-39.426823,3.5926425,-3.1751533,63.411003,-12.508978,-2.734137,-8.22572,-2.1938033,-10.613362,27.767767,-25.410461,1.6624159,2.6560006,1.4938227,9.957128,19.195965,29.7376,-21.609856,-24.619854,-2.9841313,-8.712148,12.647933,-6.9336085,-28.496025,24.61085,-18.267254,13.3625965,-10.703311,-10.653031
68,-6.4698004722595215,-69.72148132324219,76.37468719482422,0.9315232896846315,9.693127646788396,-87.16207688405203,-39.295307,3.5724607,-1.884594,58.87689,-11.969571,-2.472901,-6.8875165,-2.5079763,-10.510186,26.45392,-24.509377,1.9046453,3.0747433,1.0030429,9.769311,20.441904,30.209173,-21.258335,-25.343372,-3.2017488,-8.689171,12.475142,-6.806078,-28.605488,24.663727,-19.692144,13.086862,-10.4495,-10.268302
69,-6.47346830368042,-70.84849548339844,76.63418579101562,1.2981876060262372,9.861250094512883,-87.02369323785996,-38.903778,3.5545359,-0.5588646,53.90049,-11.171562,-2.3069515,-5.668624,-2.806754,-10.4513645,25.368406,-23.440662,2.1759331,3.468703,0.55868083,9.587068,21.643513,30.659584,-20.902128,-26.06833,-3.4158776,-8.676951,12.285824,-6.6064982,-28.731009,24.778616,-21.028547,12.75936,-10.321963,-9.908689
70,-6.465237617492676,-71.9898681640625,76.88229370117188,1.637911705593006,10.032435871802935,-86.88118738380759,-38.23909,3.4896722,0.84207547,48.43499,-10.116753,-2.2288349,-4.541636,-3.101629,-10.420435,24.450127,-22.209799,2.4676857,3.8379705,0.1421818,9.405298,22.794006,31.086208,-20.544096,-26.788097,-3.6066809,-8.674845,12.084625,-6.3179812,-28.875795,24.934841,-22.306105,12.341762,-10.270702,-9.571895
71,-6.452635765075684,-73.13909912109375,77.11380004882812,1.9021957328080796,10.189319576867069,-86.75770107550873,-37.353424,3.302171,2.170008,42.72764,-8.95338,-2.3467214,-3.5432684,-3.34164,-10.393401,23.800806,-20.893288,2.7512188,4.1928887,-0.19818544,9.240404,23.900156,31.478294,-20.17875,-27.49584,-3.7423954,-8.694773,11.860231,-5.9452424,-29.038572,25.102457,-23.523518,11.894989,-10.257554,-9.207395
72,-6.43289852142334,-74.29202270507812,77.3290786743164,2.0482683399510195,10.312952625401055,-86.67643640159615,-36.300293,2.9695327,3.2539186,36.99831,-7.8158894,-2.7288597,-2.697978,-3.4809809,-10.348122,23.500845,-19.549906,3.000424,4.541906,-0.4193869,9.108312,24.963476,31.82022,-19.801714,-28.17767,-3.7913914,-8.748785,11.600408,-5.504929,-29.216152,25.25706,-24.669659,11.480031,-10.24418,-8.763589
73,-6.399445056915283,-75.44483184814453,77.52175903320312,2.0382486004100118,10.403988123219976,-86.6618571968471,-35.031902,2.5571368,4.0053806,31.020525,-6.695117,-3.360561,-1.9713231,-3.46877,-10.280244,23.49134,-18.176048,3.2010984,4.9114256,-0.4854464,9.004684,26.002054,32.096992,-19.395988,-28.834188,-3.7479463,-8.86383,11.251056,-4.9971414,-29.413248,25.410103,-25.748537,11.122025,-10.232078,-8.209444
74,-6.354170322418213,-76.60747528076172,77.6894302368164,1.8485442290877387,10.445270216806973,-86.72726437363195,-33.48646,2.2036476,4.4764104,24.658773,-5.4856014,-4.153172,-1.3028628,-3.2695544,-10.186851,23.681812,-16.708849,3.36446,5.3141994,-0.3682915,8.9404545,27.003857,32.303806,-18.974388,-29.462343,-3.624248,-9.026003,10.832594,-4.422475,-29.635012,25.572502,-26.75827,10.787775,-10.237064,-7.577348
75,-6.307210922241211,-77.7787094116211,77.81902313232422,1.448944375650132,10.39204740676248,-86.88016441970015,-31.757824,2.0319266,4.706932,18.40236,-4.2421384,-5.0571833,-0.6737735,-2.8508847,-10.049262,24.095446,-15.114305,3.5030017,5.741792,-0.028095474,8.9511,27.927017,32.443638,-18.580843,-30.053598,-3.4115872,-9.185793,10.446831,-3.785262,-29.874798,25.71801,-27.682312,10.442277,-10.242321,-6.9091673
76,-6.254900932312012,-78.9500961303711,77.90790557861328,0.8659442326622524,10.225955143550605,-87.0944555438698,-29.995655,2.0648415,4.7709,12.809067,-3.0460362,-6.0472136,-0.12533198,-2.2540162,-9.865096,24.826107,-13.392022,3.6371725,6.156982,0.5181817,9.048705,28.722572,32.527004,-18.26225,-30.590899,-3.101884,-9.293659,10.196141,-3.0992968,-30.116909,25.819788,-28.49214,10.051318,-10.231994,-6.2457843
77,-6.206035137176514,-80.12218475341797,77.96952819824219,0.15066075513210644,9.978820820822838,-87.32935046700389,-28.146616,2.200228,4.678544,7.699097,-1.7508457,-7.2565384,0.24735545,-1.5576477,-9.679231,25.999752,-11.507188,3.7708273,6.523199,1.2192932,9.211794,29.401829,32.556976,-18.00751,-31.069122,-2.5697348,-9.33674,10.089226,-2.3607337,-30.346584,25.870888,-29.18286,9.594867,-10.204427,-5.549697
78,-6.156867980957031,-81.2955093383789,78.01148223876953,-0.63231925842659,9.689501156450804,-87.55637940733334,-28.086407,2.5150647,4.352015,6.8625007,-2.4787006,-8.6283045,0.40431553,-0.8316387,-9.512579,27.630938,-9.515665,3.918846,6.8194613,2.0062094,9.405134,29.973267,32.536205,-17.80334,-31.487864,-1.8607298,-9.341095,10.07758,-1.5823977,-30.55663,25.892403,-29.747566,9.091492,-10.170069,-4.81358
79,-6.103456974029541,-82.45942687988281,78.03861999511719,-1.3676660751488663,9.386718032995176,-87.73028904261687,-28.164072,2.785369,3.9388692,6.7622786,-3.3734183,-9.875854,0.33080283,-0.1861037,-9.344973,29.697525,-7.587596,4.1210356,6.9973054,2.7613726,9.594716,30.372982,32.48339,-17.696127,-31.814651,-1.2245916,-9.314253,10.179563,-0.79651994,-30.728384,25.901016,-30.153278,8.5587435,-10.131289,-4.124917
80,-6.052548408508301,-83.6194839477539,78.04789733886719,-1.9682350298421372,9.09029404881313,-87.82018619312787,-28.052078,2.935326,3.536498,6.711986,-4.066781,-10.729242,0.035204653,0.30110896,-9.144334,32.156742,-5.8815207,4.406097,7.0225,3.3814075,9.750625,30.562147,32.442913,-17.72226,-32.038612,-0.91673523,-9.263703,10.421224,-0.061152928,-30.809605,25.922792,-30.3355,8.008114,-10.087465,-3.5647955
81,-6.003261566162109,-84.78167724609375,78.0395736694336,-2.432052740656123,8.798510383398716,-87.81100829062882,-27.669147,2.949537,3.1729255,6.681333,-4.675726,-11.181123,-0.5035524,0.63694304,-8.87867,35.088066,-4.374538,4.8031917,6.86464,3.877746,9.885925,30.560738,32.411156,-17.883749,-32.1893,-0.99349976,-9.1896105,10.856439,0.6817363,-30.852427,25.945076,-30.365555,7.402946,-10.006533,-3.1319578
82,-5.956667423248291,-85.94535064697266,78.00010681152344,-2.802187211429688,8.510016463906156,-87.72161032167777,-27.044785,2.8493571,2.7969522,6.679667,-5.151973,-11.371782,-1.2709879,0.85817736,-8.566406,38.464085,-2.993421,5.2790136,6.57754,4.296051,9.999393,30.320646,32.382458,-18.215014,-32.216457,-1.3255916,-9.091222,11.471696,1.4650627,-30.861631,25.935163,-30.252764,6.7498055,-9.896805,-2.7872303
83,-5.931342124938965,-87.12060546875,77.9281234741211,-3.004192944935165,8.245842613086294,-87.57007273821948,-26.303303,2.583128,2.4011443,6.7027407,-5.217512,-11.242316,-2.2199812,0.8700943,-8.232204,42.121933,-1.8464397,5.785357,6.1923428,4.5422835,10.090363,29.838892,32.362587,-18.676977,-32.12025,-1.8907281,-8.981065,12.149905,2.2246325,-30.821579,25.912172,-29.963102,6.154763,-9.820787,-2.5810435
84,-5.902357578277588,-88.2772445678711,77.86638641357422,-2.954728775546511,8.027280547718467,-87.37303216584156,-25.55726,2.08611,1.9851478,6.7115355,-4.5707417,-10.730496,-3.3060448,0.57706434,-7.897492,45.896973,-1.041918,6.288601,5.7500544,4.5145216,10.148319,29.072767,32.352234,-19.255548,-31.866512,-2.6642604,-8.871041,12.776269,2.9012034,-30.70623,25.885948,-29.45428,5.722303,-9.838904,-2.563551
85,-5.881267547607422,-89.41097259521484,77.7958984375,-2.597539095481682,7.865006995119982,-87.11661598792683,-24.821474,1.2943107,1.4656053,6.7026105,-2.7210846,-9.677872,-4.5362244,-0.046636403,-7.5248427,49.84356,-0.55741704,6.872967,5.17899,4.1368103,10.156756,28.127556,32.363663,-19.86885,-31.54985,-3.779782,-8.746616,13.349986,3.4124768,-30.520664,25.956057,-28.684153,5.5230966,-9.977537,-2.8062122
86,-5.878122329711914,-90.54847717285156,77.67095947265625,-1.9632489183498458,7.730779179725096,-86.80958323999332,-24.018145,0.24827042,0.93087065,6.659284,0.071860954,-8.176368,-5.901538,-0.94820535,-7.064181,54.00227,-0.35408413,7.5568347,4.4923086,3.4489384,10.1297455,27.00755,32.395554,-20.535032,-31.175621,-5.20687,-8.616005,13.923936,3.811353,-30.271168,26.095089,-27.68966,5.486605,-10.200407,-3.268137
87,-5.873673915863037,-91.66322326660156,77.49602508544922,-1.202986707124595,7.578104373198025,-86.51387288365795,-23.170073,-0.85803056,0.5568239,6.6486063,2.8953094,-6.5432496,-7.310087,-2.002064,-6.564296,58.14399,-0.48819563,8.170227,3.7779496,2.6087058,10.138097,25.73149,32.43617,-21.213482,-30.75674,-6.6904655,-8.517624,14.427838,4.154484,-29.96118,26.218266,-26.537987,5.516105,-10.475917,-3.8492973
88,-5.856318473815918,-92.75468444824219,77.2690200805664,-0.45896614583675743,7.3739565938966996,-86.28150537797065,-23.847286,-1.8498678,0.50018835,10.013664,3.085279,-5.06951,-8.701252,-3.1294954,-6.0984154,62.07549,-1.0189395,8.515627,3.1049345,1.7657641,10.255003,24.326162,32.470062,-21.851265,-30.30623,-7.975584,-8.482174,14.78482,4.4952116,-29.602299,26.249346,-25.306366,5.51388,-10.771414,-4.453563
89,-5.811110496520996,-93.79085540771484,77.01360321044922,0.292260582008804,7.056990761179837,-86.13415262764974,-24.512966,-2.7336373,0.8163805,13.663243,1.9654233,-3.731171,-10.034427,-4.4208755,-5.6589274,65.873955,-2.1643183,8.467949,2.491525,0.895103,10.566135,22.762177,32.479416,-22.425604,-29.837206,-9.131762,-8.539964,14.891652,4.8018146,-29.205942,26.170992,-23.970816,5.5461173,-11.116856,-5.0902767
90,-5.754960060119629,-94.7893295288086,76.74270629882812,1.0659332025991357,6.654592904668815,-86.05203451813463,-25.232983,-3.5206096,1.3561826,17.707848,-0.03930709,-2.3978243,-11.346616,-5.8616776,-5.2178326,69.600555,-3.8198287,8.127201,1.9115032,-0.018087424,11.022477,21.030647,32.459034,-22.962187,-29.336382,-10.244437,-8.656828,14.810074,5.0674076,-28.779171,26.020449,-22.52553,5.6342797,-11.517505,-5.799295
91,-5.725584030151367,-95.76966857910156,76.45014190673828,1.7578650754744334,6.2938336118723175,-86.00435409976123,-25.90611,-4.1513014,1.8978952,21.619421,-2.3677,-1.2046124,-12.735977,-7.288364,-4.825239,73.069725,-5.5723314,7.6262813,1.3487523,-0.85802794,11.4781475,19.187351,32.417458,-23.487427,-28.7678,-11.083291,-8.768343,14.715676,5.3776617,-28.32627,25.800386,-21.05812,5.622763,-11.901004,-6.5352883
92,-5.728931903839111,-96.75115203857422,76.17723846435547,2.3016107886531074,6.1139779551754945,-85.94409410686175,-26.42461,-4.637538,2.26678,24.815302,-4.416073,-0.28486198,-14.32446,-8.580758,-4.531795,76.116875,-7.016335,7.104105,0.7731615,-1.5461034,11.773251,17.286118,32.37276,-24.035675,-28.097723,-11.421019,-8.817125,14.790268,5.8289175,-27.848345,25.506681,-19.659048,5.359784,-12.191623,-7.2557316
93,-5.7505011558532715,-97.73021697998047,75.94174194335938,2.723839821019408,6.204263295627018,-85.84067122774462,-26.84507,-5.045977,2.4653563,27.194708,-6.1131735,0.28760654,-16.252998,-9.799956,-4.365264,78.77881,-8.089078,6.5410075,0.15925078,-2.107532,11.842431,15.270575,32.345352,-24.638212,-27.26978,-11.180652,-8.854077,15.100333,6.469019,-27.331179,25.086945,-18.330276,4.7650323,-12.370124,-7.9505053
94,-5.770492076873779,-98.73394775390625,75.7397232055664,3.088859252648058,6.4887047987376265,-85.70425873676692,-27.240639,-5.4141746,2.594571,29.104654,-7.771544,0.59735817,-18.457764,-11.031475,-4.281809,81.149445,-9.005979,5.880306,-0.4832222,-2.6128397,11.763949,13.140366,32.337093,-25.27394,-26.33337,-10.496314,-8.885665,15.554549,7.253873,-26.77056,24.546196,-17.032701,3.9338691,-12.470148,-8.639987
95,-5.809065818786621,-99.74447631835938,75.56210327148438,3.3872752535494746,6.8579556790567056,-85.54852928797045,-27.533495,-5.7236814,2.653753,30.6429,-9.351261,0.75375026,-20.74594,-12.19781,-4.247485,83.14226,-9.768862,5.2021446,-1.1413273,-3.0488455,11.593633,11.034304,32.33268,-25.899843,-25.408442,-9.45703,-8.78685,16.090088,8.140499,-26.193459,23.975714,-15.800597,2.97844,-12.494484,-9.330855
96,-5.833558559417725,-100.76311492919922,75.41759490966797,3.6009885092801603,7.200692441075365,-85.39214485759938,-27.633928,-5.948225,2.6340728,31.886276,-10.802751,0.86407894,-22.918203,-13.210257,-4.242296,84.66529,-10.375747,4.593517,-1.8026079,-3.3886132,11.393951,9.075936,32.308037,-26.47455,-24.594522,-8.154817,-8.433464,16.629988,9.09155,-25.646912,23.475725,-14.684403,2.0132084,-12.449335,-10.035666
97,-5.855175495147705,-101.76557159423828,75.30109405517578,3.720803119260106,7.535390677568657,-85.23133964598766,-27.549479,-6.0829787,2.5280204,32.82408,-12.128086,0.9283239,-25.003502,-14.083158,-4.300905,85.720764,-10.774604,4.073579,-2.4821627,-3.5953355,11.133152,7.2566204,32.24461,-27.040394,-23.85013,-6.3768096,-7.6726108,17.244713,10.139315,-25.167645,23.064068,-13.698064,0.85742027,-12.274317,-10.851923
98,-5.880273342132568,-102.78172302246094,75.23368072509766,3.7585755769329348,7.9056151171514255,-85.05870717421735,-27.318754,-6.145495,2.3477757,33.430847,-13.351526,0.9041151,-27.074429,-14.854751,-4.4463763,86.34844,-10.980381,3.603071,-3.1857903,-3.6729267,10.80313,5.50413,32.1328,-27.613232,-23.121529,-4.1651683,-6.593115,17.903387,11.310713,-24.766277,22.68879,-12.850684,-0.46456665,-11.978174,-11.744211
99,-5.884649753570557,-103.84980773925781,75.22605895996094,3.721449010118689,8.237653506804726,-84.8911619287008,-26.890507,-6.1355157,2.106286,33.748936,-14.452451,0.8331348,-28.99761,-15.463655,-4.647026,86.517296,-11.083312,3.1896822,-3.8838916,-3.655223,10.503646,3.8612478,31.96458,-28.110254,-22.494385,-1.9708815,-5.4562016,18.390306,12.552319,-24.446161,22.35014,-12.182627,-1.5301536,-11.687277,-12.534876
100,-5.909326076507568,-104.92826843261719,75.27816009521484,3.61620563419722,8.457925319433294,-84.74629712522729,-26.213335,-6.0491014,1.8143799,33.819862,-15.408874,0.75264555,-30.639164,-15.846141,-4.8690553,86.19526,-11.173967,2.8445423,-4.5564,-3.584554,10.331059,2.3715644,31.740885,-28.431911,-22.04979,-0.23241268,-4.546646,18.52545,13.794186,-24.207344,22.062956,-11.717349,-1.9251698,-11.543979,-13.056626
101,-5.940062522888184,-105.98684692382812,75.38021087646484,3.423875868010211,8.490385678353679,-84.62769038373908,-25.206701,-5.8619833,1.450613,33.654938,-16.231174,0.6560351,-31.917711,-15.915941,-5.0762725,85.34796,-11.257699,2.5966842,-5.2077193,-3.471424,10.372341,1.0502899,31.465734,-28.523447,-21.821405,0.95982105,-3.904425,18.208118,15.025825,-24.054512,21.842413,-11.493863,-1.440024,-11.609029,-13.238656
102,-5.9799604415893555,-107.02796936035156,75.52340698242188,3.147651503906894,8.394092504982885,-84.5266628920485,-23.920631,-5.5741487,1.0204139,33.23062,-16.92583,0.52722085,-32.913116,-15.736566,-5.302809,83.99915,-11.29297,2.4362442,-5.852169,-3.3020499,10.557373,-0.13087079,31.145798,-28.444183,-21.755157,1.8446716,-3.4105685,17.570147,16.278446,-23.991083,21.682722,-11.4868965,-0.32863835,-11.806078,-13.180468
103,-6.021633148193359,-108.06647491455078,75.70150756835938,2.8263823925166895,8.298241162544903,-84.44289212437046,-22.507076,-5.217153,0.5725987,32.545406,-17.469107,0.38411132,-33.73541,-15.462952,-5.6180325,82.20687,-11.302683,2.3180344,-6.4821525,-3.0817397,10.744792,-1.1833328,30.792297,-28.26268,-21.814476,2.4867237,-3.1134958,16.806553,17.541422,-24.00612,21.565619,-11.619663,1.1274109,-12.075104,-12.972282
104,-6.065587520599365,-109.12793731689453,75.91047668457031,2.497645708072441,8.332372527951676,-84.37677508283308,-21.11591,-4.8252697,0.15232375,31.594564,-17.835073,0.24458143,-34.489574,-15.2399235,-6.099227,80.02114,-11.308175,2.2037263,-7.0874305,-2.812252,10.791809,-2.1178398,30.420622,-28.043568,-21.96472,2.9415603,-3.0550337,16.111132,18.804436,-24.08154,21.472736,-11.812621,2.6373835,-12.35872,-12.706089
105,-6.106012344360352,-110.20772552490234,76.14409637451172,2.160169590037039,8.5531954914057,-84.31980813552434,-19.790695,-4.400738,-0.25638172,30.317259,-18.004297,0.106944524,-35.20254,-15.096027,-6.8169055,77.37845,-11.361549,2.124126,-7.669577,-2.4827003,10.640286,-2.9241703,30.040932,-27.774704,-22.232931,3.136933,-3.3154693,15.510967,20.068312,-24.205051,21.405767,-12.069995,4.3231444,-12.684596,-12.334677
106,-6.147276401519775,-111.29659271240234,76.39066314697266,1.7954556497461032,8.884712877174731,-84.27628146723089,-18.454973,-3.9244084,-0.66755337,28.737791,-17.995174,-0.041149598,-35.8022,-14.936525,-7.727292,74.261345,-11.43443,2.103085,-8.227079,-2.096033,10.3748665,-3.6033087,29.659012,-27.43275,-22.630146,3.062075,-3.8411074,14.917267,21.335451,-24.37296,21.369314,-12.420582,6.270884,-13.056576,-11.821531
107,-6.184849739074707,-112.39320373535156,76.64881896972656,1.414187269753299,9.256556405595635,-84.26693460103166,-17.07654,-3.4010866,-1.0361202,26.97948,-17.838821,-0.20202886,-36.24362,-14.711443,-8.739634,70.77983,-11.427137,2.097268,-8.742895,-1.6700696,10.067851,-4.166989,29.283098,-27.06298,-23.111712,2.8698604,-4.473181,14.349573,22.57906,-24.578577,21.347155,-12.799466,8.138436,-13.397059,-11.286313
108,-6.2312517166137695,-113.50218963623047,76.91748046875,1.029487045528025,9.598184052705108,-84.31148724545035,-15.624746,-2.8396592,-1.3149024,25.168352,-17.567818,-0.37520704,-36.492058,-14.377452,-9.754571,67.04769,-11.24203,2.0564427,-9.198079,-1.22742,9.789727,-4.6270633,28.920427,-26.7155,-23.62995,2.7173698,-5.056232,13.831142,23.780853,-24.810678,21.316608,-13.14929,9.5754385,-13.643458,-10.857888
109,-6.272383689880371,-114.63092803955078,77.18499755859375,0.6100878109600859,9.907202348888642,-84.42837042733353,-14.017483,-2.1982625,-1.4907752,23.162712,-17.16334,-0.58099264,-36.52152,-13.953988,-10.850019,63.00212,-10.8203535,1.8512298,-9.577548,-0.74142337,9.543603,-4.9621763,28.571005,-26.388916,-24.195684,2.6469135,-5.596171,13.364162,24.933552,-25.06439,21.28695,-13.451399,10.543126,-13.782808,-10.5894985
110,-6.301792144775391,-115.78854370117188,77.44117736816406,0.16038276772683646,10.214381829640725,-84.6034375716276,-12.295605,-1.4954449,-1.5810751,20.947014,-16.615276,-0.82279646,-36.346745,-13.418759,-12.052096,58.588943,-10.221782,1.5673681,-9.892916,-0.2139742,9.296356,-5.1724253,28.235083,-26.062063,-24.830418,2.5740151,-6.159658,12.938548,26.054756,-25.337227,21.25871,-13.740769,11.201135,-13.857388,-10.412368
111,-6.336272716522217,-116.96183776855469,77.67708587646484,-0.24638391848204563,10.498862595505559,-84.80443726939458,-10.616262,-0.8364255,-1.5918411,18.86065,-15.975037,-1.0653223,-36.010506,-12.716302,-13.1552725,53.938404,-9.520281,1.4394592,-10.165179,0.28001755,9.061326,-5.301417,27.921818,-25.759367,-25.504717,2.4680958,-6.684146,12.5619545,27.163755,-25.619026,21.19185,-14.037614,11.493973,-13.89449,-10.274544
112,-6.391110897064209,-118.11803436279297,77.89714050292969,-0.5307169468514141,10.738990314140759,-84.99628560539853,-9.124816,-0.32690522,-1.5404074,17.232822,-15.29274,-1.2587112,-35.561413,-11.848083,-13.926502,49.176315,-8.781028,1.6648514,-10.411417,0.6583293,8.853608,-5.3956776,27.645336,-25.51195,-26.18723,2.2987232,-7.1064625,12.243943,28.215908,-25.89442,21.047356,-14.299206,11.392854,-13.920788,-10.121091
113,-6.453237533569336,-119.2794418334961,78.09073638916016,-0.6704066384319067,10.924477664440124,-85.18583255561127,-7.797071,0.011087483,-1.4100084,16.058311,-14.526676,-1.3808314,-34.976326,-10.813096,-14.244629,44.160004,-7.9903073,2.2228556,-10.62974,0.8941966,8.677106,-5.442728,27.419292,-25.331316,-26.894659,2.0636945,-7.3841596,12.0177965,29.260096,-26.151703,20.804335,-14.550824,10.670547,-13.948279,-9.954098
114,-6.515840530395508,-120.463134765625,78.26399993896484,-0.6918141639429812,11.060578898834429,-85.37777577723334,-6.544308,0.21234766,-1.2119647,15.155465,-13.655228,-1.448214,-34.21106,-9.708589,-14.209129,38.83042,-7.1089864,2.9637144,-10.816549,1.0104344,8.5286665,-5.4169345,27.24837,-25.20227,-27.650427,1.7765912,-7.558678,11.8719225,30.276995,-26.385612,20.485151,-14.780983,9.419819,-13.965518,-9.793537
115,-6.581279754638672,-121.64077758789062,78.40721130371094,-0.5858832162976041,11.148014704886197,-85.53162424712025,-5.4358945,0.2609578,-1.0121468,14.640699,-12.774739,-1.4642644,-33.289734,-8.698735,-13.919864,33.459198,-6.1608067,3.8872397,-10.995605,0.99652,8.409131,-5.343061,27.131777,-25.109512,-28.423374,1.4288707,-7.6920724,11.746421,31.243578,-26.585207,20.120216,-15.006008,8.036002,-13.959601,-9.6119375
116,-6.655608177185059,-122.81527709960938,78.51197052001953,-0.3480413202457055,11.18777716039417,-85.6074622289574,-4.531282,0.14772993,-0.87596464,14.60215,-11.971183,-1.4353797,-32.25193,-7.9071283,-13.498091,28.337765,-5.1720138,5.028633,-11.188026,0.84694,8.31778,-5.253612,27.06486,-25.041428,-29.1769,1.0107979,-7.8458047,11.579543,32.11968,-26.736332,19.744152,-15.224303,6.9197383,-13.917193,-9.381188
117,-6.735373497009277,-124.00069427490234,78.5831298828125,0.08660540289682038,11.163179104835033,-85.57442897518656,-3.783012,-0.2047793,-0.81792897,14.982251,-11.255463,-1.3521392,-31.033623,-7.340629,-12.854819,23.294151,-4.02915,6.705683,-11.420913,0.49686006,8.254636,-5.1659245,27.053047,-25.014675,-29.914782,0.4778646,-7.998835,11.367462,32.94175,-26.827053,19.326258,-15.463498,5.9927897,-13.805109,-9.041714
118,-6.830935001373291,-125.17649841308594,78.61753845214844,0.7370724418816674,11.054239268685441,-85.43560864241462,-3.1208577,-0.81888324,-0.81793666,15.680915,-10.542827,-1.2132075,-29.58727,-7.0250745,-11.969757,18.219013,-2.7699192,8.794241,-11.700485,-0.078045785,8.229096,-5.06187,27.09633,-25.030237,-30.646606,-0.14995812,-8.127971,11.1345215,33.695587,-26.849949,18.877785,-15.692735,5.0980396,-13.642,-8.624742
119,-6.94219970703125,-126.34270477294922,78.6229248046875,1.4957577281506604,10.880709385737317,-85.2281478613274,-2.6203487,-1.5687317,-0.87038434,16.777636,-9.8031645,-1.0453949,-28.064436,-6.9912634,-11.105194,13.58323,-1.6504787,10.715666,-11.971818,-0.7737037,8.247962,-4.934819,27.19019,-25.074522,-31.346363,-0.7917765,-8.2926035,10.870857,34.33432,-26.816511,18.453125,-15.888516,4.5137186,-13.485223,-8.231038
120,-7.0491180419921875,-127.48974609375,78.60787200927734,2.1695125768128176,10.706621186195797,-85.03165331468263,-2.4425693,-2.2259138,-0.94108003,18.449282,-9.058817,-0.8894425,-26.68414,-7.1043367,-10.547502,9.871763,-0.872741,11.909407,-12.16705,-1.4026277,8.285651,-4.7719035,27.304354,-25.10309,-31.959888,-1.3585147,-8.553527,10.552355,34.73377,-26.733303,18.162197,-15.94978,4.509398,-13.3877325,-7.9788146
121,-7.157515525817871,-128.62258911132812,78.59942626953125,2.614219193978092,10.609553818858258,-84.9056773052441,-2.758613,-2.6202278,-0.97746533,20.90865,-8.393125,-0.7557435,-25.648071,-7.190884,-10.442338,7.405512,-0.6151204,12.13301,-12.218837,-1.8125701,8.31126,-4.5981865,27.420115,-25.111753,-32.4603,-1.8553525,-8.952584,10.134995,34.858784,-26.60035,18.030064,-15.833581,5.328754,-13.380142,-7.9164543
122,-7.270178318023682,-129.75440979003906,78.5869369506836,2.86548487732793,10.580360127512218,-84.83549182959861,-3.5025783,-2.795338,-0.98860294,24.049728,-7.7920585,-0.64358914,-25.39325,-7.2820716,-10.571553,7.020052,-1.3170938,11.745157,-12.145705,-2.0300317,8.321635,-4.4332747,27.522013,-25.119482,-32.84411,-2.3163793,-9.448937,9.634387,34.75491,-26.425982,18.009758,-15.570603,6.7710505,-13.427735,-7.980404
123,-7.380998134613037,-130.88719177246094,78.55040740966797,2.97588852012783,10.567066296983485,-84.80081082431825,-4.5014043,-2.8177755,-1.0272923,27.596045,-7.1457114,-0.57855684,-25.129623,-7.2578745,-10.84688,7.031234,-2.0039003,11.083787,-11.973052,-2.1083689,8.33639,-4.2603426,27.6011,-25.143215,-33.105858,-2.6955264,-9.9828,9.130389,34.447685,-26.226831,18.063318,-15.19863,8.447746,-13.485422,-8.108892
124,-7.488554000854492,-132.01846313476562,78.48854064941406,3.015259454342602,10.512353837699274,-84.77876041891511,-5.5883455,-2.7801628,-1.1446322,31.300413,-6.3544836,-0.59294844,-24.671625,-7.136579,-11.103903,7.053312,-2.3733728,10.474999,-11.73541,-2.1180308,8.375802,-4.055288,27.650162,-25.191315,-33.24842,-2.9458618,-10.496478,8.70391,33.962708,-26.027296,18.15719,-14.757028,9.97215,-13.504397,-8.245857
125,-7.599263668060303,-133.15213012695312,78.39170837402344,3.0447546613908965,10.394595565515043,-84.75643589124779,-6.744424,-2.7705185,-1.3375797,35.187603,-5.2950406,-0.6875968,-23.945087,-6.9754744,-11.300126,7.0652623,-2.2266212,10.099236,-11.45007,-2.1156154,8.430042,-3.7831025,27.657366,-25.256733,-33.26305,-3.0328026,-11.029748,8.34595,33.316925,-25.843006,18.300968,-14.25846,11.449911,-13.458838,-8.389662
126,-7.698076248168945,-134.28240966796875,78.24988555908203,3.017076706477324,10.240421877289506,-84.74271341092027,-8.0283575,-2.7389722,-1.6046517,39.337765,-4.042208,-0.8636972,-23.387661,-6.83281,-11.481134,7.9717994,-2.1477616,9.741476,-11.107852,-2.0472088,8.496129,-3.4669735,27.616066,-25.333984,-33.14589,-2.9856758,-11.597889,8.023771,32.509518,-25.677383,18.502169,-13.70077,13.025129,-13.381699,-8.571368
127,-7.7983856201171875,-135.4234161376953,78.11784362792969,2.8551333486363726,10.059524561826574,-84.74440765080128,-9.395184,-2.6009908,-1.993755,43.61608,-2.8098981,-1.1529934,-23.0763,-6.639825,-11.6789875,9.699225,-2.4371123,9.137747,-10.70609,-1.8364446,8.60594,-3.1662114,27.533463,-25.433683,-32.912163,-2.8508322,-12.107202,7.785021,31.53419,-25.538235,18.72136,-13.098091,14.36827,-13.307955,-8.7837
128,-7.877959251403809,-136.5797882080078,77.95989990234375,2.489669189627863,9.858677728239986,-84.76516868147422,-10.799109,-2.2866309,-2.5540075,47.90295,-1.8211166,-1.5874475,-23.006487,-6.3076143,-11.933996,12.000533,-3.2981932,8.033538,-10.245791,-1.4149764,8.793057,-2.9335248,27.425985,-25.563364,-32.59006,-2.6757987,-12.462782,7.6786227,30.392128,-25.435287,18.91899,-12.477338,15.148689,-13.267011,-9.018068
129,-7.962857723236084,-137.6978759765625,77.80006408691406,1.8674681472703865,9.608491382118748,-84.80488611468546,-12.220981,-1.7556453,-3.338366,52.285107,-1.0092326,-2.2796443,-23.341837,-5.7930946,-12.234689,15.261803,-4.9870267,6.0512557,-9.72516,-0.7324702,9.093778,-2.8042455,27.310919,-25.737898,-32.190903,-2.4388757,-12.5972395,7.7499633,29.069023,-25.369972,19.085674,-11.844979,15.195637,-13.260598,-9.279135
130,-8.060175895690918,-138.77928161621094,77.60894012451172,1.1255349067762028,9.281768642792864,-84.82934785486975,-13.617137,-1.1993535,-4.308792,56.746513,-0.28887868,-3.1969209,-23.903942,-5.185941,-12.539946,19.22726,-7.1698875,3.455665,-9.179504,0.07450977,9.496277,-2.729198,27.195139,-25.942312,-31.722553,-2.1284242,-12.573354,7.9648404,27.590784,-25.339602,19.238314,-11.218862,14.712186,-13.268826,-9.571966
131,-8.154359817504883,-139.8497772216797,77.32982635498047,0.42695557815983726,8.91945187723419,-84.81705894312172,-14.966791,-0.80387884,-5.354449,61.080513,0.11108582,-4.135064,-24.411606,-4.585655,-12.825342,23.142149,-9.430144,0.9441553,-8.645097,0.848724,9.944377,-2.6283102,27.077873,-26.133526,-31.21035,-1.8082733,-12.492466,8.25241,26.000559,-25.351131,19.383204,-10.624441,13.9312315,-13.291752,-9.886876
132,-8.248106956481934,-140.91812133789062,76.99821472167969,-0.14804834677274845,8.591788080032217,-84.77793554933797,-16.32032,-0.6205274,-6.36722,65.144775,-0.05144997,-4.865807,-24.647821,-4.0638714,-13.094792,26.380875,-11.4732485,-0.81474173,-8.131935,1.5179814,10.369036,-2.4188716,26.950462,-26.266644,-30.67654,-1.5399697,-12.458551,8.543089,24.321625,-25.4199,19.532017,-10.068895,13.09235,-13.332901,-10.212852
133,-8.324673652648926,-141.96804809570312,76.64513397216797,-0.6532216839968636,8.286473594698947,-84.7181220753342,-17.703905,-0.59321386,-7.3988132,69.062096,-1.0951613,-5.2327194,-24.58664,-3.630872,-13.402675,28.979088,-13.393449,-1.562214,-7.6371226,2.1517594,10.802489,-2.1000817,26.797081,-26.324282,-30.102533,-1.3674054,-12.535479,8.832547,22.525679,-25.564804,19.676271,-9.553335,12.166895,-13.43508,-10.553635
134,-8.386374473571777,-143.00152587890625,76.29360961914062,-1.1592534467681546,7.998862655371589,-84.65170864140669,-19.1332,-0.631274,-8.471806,72.91743,-2.8291411,-5.3663015,-24.387068,-3.2478182,-13.74241,31.319298,-15.374545,-1.7005583,-7.1490397,2.8209386,11.252048,-1.7080896,26.612204,-26.324146,-29.480785,-1.2466956,-12.65735,9.150841,20.607544,-25.790882,19.822079,-9.080524,11.064793,-13.5799055,-10.919135
135,-8.436147689819336,-144.01171875,75.96676635742188,-1.6253883303452668,7.813854808407711,-84.60726160044578,-20.665232,-0.68025506,-9.442815,76.5019,-4.704986,-5.434873,-24.13327,-2.919671,-14.050513,33.35992,-17.303473,-1.5577431,-6.654183,3.4629917,11.609453,-1.2046273,26.406126,-26.274256,-28.853888,-1.1058491,-12.734107,9.481706,18.630928,-26.08771,20.00573,-8.663834,9.928587,-13.682763,-11.301786
136,-8.481571197509766,-145.02769470214844,75.67040252685547,-2.0011563669788113,7.81192065974749,-84.61022476759211,-22.359034,-0.6916766,-10.178409,79.594406,-6.1728473,-5.6119275,-23.898506,-2.6181905,-14.26217,35.00719,-19.04378,-1.4565735,-6.1369834,3.999294,11.773357,-0.53937393,26.2019,-26.180717,-28.283218,-0.8763758,-12.674645,9.81085,16.622877,-26.433577,20.27042,-8.281338,8.912194,-13.660864,-11.689621
137,-8.522798538208008,-146.08705139160156,75.40819549560547,-2.2764142778861163,8.100643398922244,-84.68539227640463,-24.35991,-0.6347518,-10.659285,82.1655,-7.04096,-5.9903326,-23.790571,-2.304074,-14.360286,36.19494,-20.55939,-1.4376855,-5.574411,4.3905444,11.639895,0.35137534,26.015728,-26.02085,-27.777218,-0.54957926,-12.4503975,10.117053,14.581647,-26.82136,20.66934,-7.9226723,8.056905,-13.479418,-12.081528
138,-8.57284927368164,-147.1638641357422,75.17488861083984,-2.4810298706889706,8.608467106478946,-84.81659072066377,-26.613987,-0.5171149,-10.967444,84.3304,-7.6077766,-6.4451714,-23.753128,-1.9840518,-14.394921,36.989414,-21.92388,-1.3484646,-4.975643,4.6757298,11.300369,1.4483768,25.85399,-25.789892,-27.341644,-0.16421764,-12.110688,10.415067,12.356321,-27.243729,21.196121,-7.4861627,7.325129,-13.1891365,-12.481487
139,-8.62593936920166,-148.24722290039062,74.9755859375,-2.6197465212226,9.144091912453847,-84.96504973973398,-28.879694,-0.3451994,-11.119083,86.07118,-8.050883,-6.8214173,-23.602568,-1.6839393,-14.393178,37.469604,-23.156078,-1.2212541,-4.3822665,4.87208,10.927029,2.671178,25.73004,-25.522848,-26.991753,0.27316618,-11.680302,10.74377,10.207247,-27.669077,21.749336,-7.213225,6.5903153,-12.830648,-12.8681755
140,-8.693580627441406,-149.3223419189453,74.81121826171875,-2.695301967717576,9.516504193728107,-85.09044338053477,-30.910809,-0.12528805,-11.128161,87.364525,-8.549901,-6.9697695,-23.14825,-1.4317614,-14.377435,37.71092,-24.271502,-1.0831394,-3.8174455,5.003785,10.696363,3.9195209,25.660172,-25.278069,-26.739803,0.7566055,-11.183054,11.147227,8.220757,-28.05867,22.230194,-7.1642876,5.7754097,-12.446855,-13.216623
141,-8.756996154785156,-150.40560913085938,74.69813537597656,-2.6928379230199333,9.659109059426347,-85.17640126979853,-32.647556,0.1488536,-10.981798,88.19705,-9.154984,-6.8295527,-22.302404,-1.2507312,-14.34879,37.721287,-25.296957,-0.92354417,-3.283663,5.0549345,10.661483,5.189594,25.660799,-25.086454,-26.56931,1.4363441,-10.529776,11.72124,6.419554,-28.38581,22.62229,-7.326232,4.6840487,-11.989079,-13.556748
142,-8.816454887390137,-151.5150909423828,74.64617156982422,-2.614826913256191,9.678204134688112,-85.24597707945415,-34.2147,0.4843787,-10.678829,88.57864,-9.7681265,-6.493182,-21.17122,-1.1264591,-14.2912445,37.461697,-26.21529,-0.73219424,-2.7575471,5.0099163,10.725561,6.5237446,25.73861,-24.921574,-26.478937,2.2567046,-9.732816,12.413996,4.7162256,-28.647228,22.978998,-7.6116066,3.4128883,-11.454279,-13.872989
143,-8.854552268981934,-152.61427307128906,74.65164947509766,-2.489068882945963,9.64223660557925,-85.31784589896206,-35.642784,0.8717937,-10.247455,88.52073,-10.348166,-6.0462317,-19.852047,-1.029742,-14.199186,36.93207,-26.97006,-0.530272,-2.2313015,4.8951607,10.832485,7.8952312,25.88953,-24.749895,-26.502405,2.9093251,-8.974829,13.056322,3.1114235,-28.848228,23.300802,-8.038538,2.2928011,-10.958842,-14.080107
144,-8.889791488647461,-153.766357421875,74.71143341064453,-2.3426289348637304,9.61989359813081,-85.41056405888855,-36.960163,1.3006924,-9.712965,88.03258,-10.853342,-5.5734696,-18.444061,-0.93126166,-14.06566,36.135155,-27.506601,-0.34042197,-1.6936628,4.73919,10.924595,9.269299,26.101727,-24.548168,-26.665268,3.0984583,-8.447893,13.490547,1.6357173,-29.001717,23.572653,-8.655113,1.647121,-10.623579,-14.105318
145,-8.906386375427246,-154.91744995117188,74.80482482910156,-2.187223099461838,9.60156742404589,-85.54087250437038,-38.155766,1.7904426,-9.046884,87.100174,-11.276156,-5.0850825,-16.918325,-0.8106605,-13.878123,35.01619,-27.81413,-0.16899915,-1.1374753,4.56042,11.017395,10.654391,26.369076,-24.3073,-26.99864,2.6909282,-8.228339,13.6887045,0.26911655,-29.118713,23.784988,-9.495483,1.6227415,-10.528823,-13.908883
146,-8.93028450012207,-156.0247039794922,74.92507934570312,-2.0040417699872783,9.560052559509584,-85.69550489468313,-39.201874,2.3264306,-8.232288,85.71836,-11.645398,-4.555799,-15.240699,-0.6959911,-13.63642,33.593494,-27.921108,1.1664957e-05,-0.5730816,4.342928,11.130612,12.067535,26.690065,-24.03531,-27.47888,1.8690411,-8.209556,13.733857,-0.9639961,-29.204323,23.946533,-10.557224,2.0195286,-10.594166,-13.546974
147,-8.950316429138184,-157.1495361328125,75.07977294921875,-1.775168633573872,9.53760160139191,-85.84764982343773,-40.102974,2.8470128,-7.3102837,83.90928,-11.972431,-4.016579,-13.502429,-0.6274617,-13.356325,31.979706,-27.832195,0.17564286,-0.005891913,4.0685163,11.219277,13.468592,27.05564,-23.747684,-28.040485,0.81296885,-8.310474,13.637467,-2.0799246,-29.261759,24.071045,-11.730789,2.6782963,-10.70241,-13.096559
148,-8.946362495422363,-158.30731201171875,75.25789642333984,-1.483960385554192,9.576584263443722,-85.96971080705556,-40.86643,3.289042,-6.3222203,81.69172,-12.264796,-3.497602,-11.79468,-0.6433588,-13.05726,30.287134,-27.552881,0.3657766,0.5527334,3.7145576,11.232221,14.816048,27.4511,-23.457098,-28.606207,-0.29548654,-8.448883,13.410813,-2.992771,-29.29503,24.158545,-13.001381,3.4025009,-10.735912,-12.632775
149,-8.94096565246582,-159.47775268554688,75.46107482910156,-1.1070212489480862,9.692003002551978,-86.057078286756,-41.487133,3.6191454,-5.225513,79.02384,-12.587987,-3.0011575,-10.094329,-0.7580302,-12.713596,28.429445,-27.075438,0.5634253,1.109327,3.257872,11.148227,16.099333,27.867142,-23.171194,-29.1566,-1.580581,-8.651382,12.993403,-3.6362522,-29.304897,24.176014,-14.433046,4.26656,-10.656938,-12.131565
150,-8.941431045532227,-160.65008544921875,75.68938446044922,-0.6580397015886886,9.860279749047338,-86.12199965566973,-41.941715,3.84963,-3.999476,75.893906,-12.916449,-2.5372381,-8.3753605,-0.9553415,-12.328578,26.395048,-26.40585,0.7693883,1.672042,2.7190266,11.001786,17.32389,28.301786,-22.890406,-29.721628,-3.0818028,-8.932933,12.392207,-4.164121,-29.294909,24.13414,-15.928958,5.3687954,-10.524223,-11.572379
151,-8.922825813293457,-161.85794067382812,75.92984771728516,-0.17931311401391112,10.064910013599693,-86.16194409894173,-42.215305,3.991131,-2.7237408,72.355705,-13.120053,-2.1436036,-6.719757,-1.2178241,-11.96793,24.403046,-25.567223,1.0007972,2.2149537,2.1373067,10.814214,18.492363,28.747179,-22.601883,-30.289537,-4.485042,-9.203566,11.726104,-4.4916077,-29.272345,24.071987,-17.516087,6.4220276,-10.371239,-11.032226
152,-8.90011978149414,-163.07421875,76.17764282226562,0.28236970148422774,10.288882358336929,-86.17373600991613,-42.305027,4.0630097,-1.4819272,68.46695,-13.071378,-1.8434612,-5.2122517,-1.5202259,-11.698168,22.683096,-24.587849,1.2732579,2.7205298,1.5634304,10.612154,19.592949,29.192316,-22.30213,-30.846066,-5.471877,-9.38704,11.12136,-4.72952,-29.24816,24.045258,-19.048231,7.21745,-10.239725,-10.58701
153,-8.879987716674805,-164.29380798339844,76.42839050292969,0.7482704074241141,10.540151584461011,-86.14504020882205,-42.197342,4.0552726,-0.24128467,64.13489,-12.699074,-1.6260253,-3.8393857,-1.8842893,-11.558321,21.205181,-23.423685,1.6077417,3.181078,0.97947395,10.387186,20.608784,29.630878,-21.98799,-31.376778,-5.9358816,-9.463807,10.590568,-4.847875,-29.226583,24.058239,-20.552011,7.6888075,-10.147888,-10.29488
154,-8.858019828796387,-165.5374298095703,76.68479919433594,1.2267249222808962,10.820960202302953,-86.08082583020061,-41.87911,3.9364824,1.0327984,59.326748,-12.066174,-1.4996445,-2.5692477,-2.30018,-11.504724,19.883709,-22.078304,1.9864593,3.6050518,0.3782633,10.132606,21.544188,30.059952,-21.664354,-31.884083,-6.0489235,-9.484063,10.07466,-4.8341284,-29.209679,24.085537,-22.063374,7.9639754,-10.076611,-10.101766
155,-8.82728385925293,-166.7862548828125,76.93536376953125,1.6569619479341886,11.105197030672569,-86.00795304340787,-41.35695,3.7121053,2.2508795,54.172657,-11.232918,-1.5006324,-1.4332508,-2.695337,-11.472832,18.81418,-20.632326,2.364812,3.9984813,-0.17780212,9.873178,22.420582,30.4702,-21.336632,-32.380833,-5.9092264,-9.484074,9.5943165,-4.71717,-29.203804,24.132156,-23.541912,8.084757,-10.013236,-9.912502
156,-8.790389060974121,-168.04014587402344,77.169189453125,1.9731085616026238,11.367182079647113,-85.95600842759167,-40.651047,3.4184566,3.3066363,48.80249,-10.261282,-1.6464086,-0.45815668,-2.99467,-11.397753,18.087584,-19.164877,2.699067,4.367783,-0.6202969,9.631366,23.258474,30.847271,-21.008995,-32.877464,-5.6143146,-9.497537,9.168272,-4.525549,-29.218018,24.207655,-24.94975,8.090228,-9.943919,-9.6324005
157,-8.731953620910645,-169.31182861328125,77.38825988769531,2.1623286077506934,11.610452954901923,-85.93118936612893,-39.72206,3.1192224,4.2240925,43.02366,-9.0291395,-1.8363682,0.35919225,-3.182854,-11.26051,17.690107,-17.654066,2.9896302,4.7194314,-0.93412894,9.40204,24.05643,31.180546,-20.68237,-33.368946,-5.1394753,-9.539841,8.794151,-4.264291,-29.265703,24.332226,-26.30056,7.9714074,-9.851791,-9.25412
158,-8.66865348815918,-170.57574462890625,77.58853149414062,2.2429879093589142,11.835638307923766,-85.93241166967744,-38.533695,2.801146,5.027937,36.743145,-7.5017977,-2.0849922,1.0606304,-3.2768157,-11.084904,17.545362,-16.051744,3.25577,5.0597153,-1.1341388,9.183911,24.795328,31.466192,-20.359652,-33.843044,-4.4461355,-9.593673,8.461003,-3.913218,-29.352644,24.492634,-27.617476,7.7163777,-9.750055,-8.822415
159,-8.588443756103516,-171.86248779296875,77.75594329833984,2.186735720587837,12.00822176172812,-85.98285426487138,-37.129665,2.4483886,5.587538,30.267773,-5.8712964,-2.5487306,1.6804225,-3.2426777,-10.871543,17.64902,-14.395038,3.4825256,5.400346,-1.188892,9.0075655,25.469341,31.700703,-20.052158,-34.296593,-3.6095068,-9.64085,8.174945,-3.47197,-29.472218,24.64752,-28.86097,7.3633423,-9.669975,-8.319846
160,-8.514105796813965,-173.142822265625,77.8924560546875,1.9527691657569743,12.088454896983382,-86.11182470368469,-35.569576,2.1056702,5.7573547,23.94849,-4.3503594,-3.3607347,2.2622676,-3.0326536,-10.61851,17.984692,-12.716019,3.6509097,5.759214,-1.0559834,8.905799,26.073353,31.881533,-19.771498,-34.723473,-2.7048397,-9.6616335,7.942438,-2.9517484,-29.609695,24.757153,-29.981562,6.9526634,-9.642457,-7.7276516
161,-8.422551155090332,-174.43577575683594,77.98397827148438,1.4492649534898707,12.051841853799655,-86.37059357825973,-33.80457,1.8893282,5.3443823,17.646006,-2.9878368,-4.6686373,2.871533,-2.5398118,-10.316449,18.462843,-10.9657755,3.7254148,6.1810594,-0.6488579,8.892856,26.643686,32.00405,-19.500694,-35.151924,-1.6199957,-9.638962,7.7651296,-2.3558297,-29.759897,24.810858,-30.974852,6.4341145,-9.685076,-6.9574094
162,-8.329014778137207,-175.7391815185547,78.02574157714844,0.6284365020704646,11.874151265963976,-86.78186865280132,-31.726753,1.9881997,4.459617,11.14193,-1.6520467,-6.305492,3.5619519,-1.7053616,-9.938718,19.013937,-9.086419,3.7140408,6.6913424,0.081025906,8.979029,27.18188,32.067955,-19.241404,-35.584957,-0.35663515,-9.584176,7.6371484,-1.6869727,-29.92769,24.83083,-31.854805,5.8077297,-9.781892,-6.0416756
163,-8.242020606994629,-177.05172729492188,78.02336120605469,-0.3556757764277477,11.578183334428655,-87.25518498281414,-30.413414,2.4316728,3.4182966,6.866944,-1.410846,-7.934166,4.236566,-0.7083397,-9.505644,19.785387,-7.1715,3.682762,7.2090526,0.9968906,9.1424465,27.616772,32.081047,-19.036594,-35.969387,0.83946764,-9.520464,7.5549984,-0.950531,-30.104239,24.829178,-32.602932,5.183679,-9.911141,-5.148268
164,-8.157623291015625,-178.3507080078125,78.00533294677734,-1.2687993514119746,11.241421256264614,-87.64996530698716,-30.758871,2.9761646,2.5023751,6.7341037,-3.022454,-9.25143,4.7060866,0.1796137,-9.080064,21.017118,-5.361461,3.7068357,7.606742,1.8770814,9.325111,27.858904,32.057194,-18.93447,-36.23463,1.7207452,-9.471521,7.519599,-0.16688158,-30.26749,24.821587,-33.17905,4.6704316,-10.045684,-4.4443493
165,-8.064001083374023,-179.64112854003906,77.98336791992188,-2.00715954464568,10.90646846259725,-87.90418189880677,-30.842018,3.3310137,1.889334,6.6386523,-4.40359,-10.33924,4.8761253,0.8345489,-8.704302,22.844551,-3.675994,3.8223112,7.81982,2.6039834,9.496895,27.920664,32.020107,-18.93188,-36.37201,2.26499,-9.447837,7.535238,0.6263014,-30.3492,24.838408,-33.507473,4.253453,-10.182073,-3.9249954
166,-7.969308853149414,-180.93128967285156,77.95155334472656,-2.6574456039539562,10.568954071765429,-88.05983344022154,-30.717829,3.5676827,1.403127,6.592015,-5.62776,-11.3295765,4.801522,1.3610308,-8.376185,25.157574,-2.0652044,3.9832444,7.880963,3.258796,9.672809,27.858606,31.97473,-18.98765,-36.44153,2.5798697,-9.435033,7.601617,1.4474665,-30.391478,24.869656,-33.643196,3.8943155,-10.330801,-3.523662
167,-7.885068893432617,-182.22618103027344,77.90116882324219,-3.149811214080163,10.266760053296464,-88.10484508206578,-30.430988,3.6323528,0.99303836,6.572348,-6.3924313,-12.002553,4.450321,1.688623,-8.106317,27.924868,-0.62374485,4.164587,7.7906322,3.7742846,9.827602,27.59983,31.90456,-19.13279,-36.39459,2.6277404,-9.419139,7.7240896,2.2856274,-30.415401,24.896042,-33.60574,3.6317685,-10.47983,-3.2887437
168,-7.8210673332214355,-183.53443908691406,77.83248901367188,-3.4033728552080937,10.036240280120118,-88.02991849902038,-30.020622,3.4591308,0.6051729,6.554287,-6.3948545,-12.13157,3.7868817,1.7361946,-7.895987,31.130478,0.55144876,4.3512163,7.5454044,4.058927,9.928173,27.08165,31.812597,-19.388025,-36.180935,2.36164,-9.38732,7.9171443,3.0918705,-30.401335,24.928028,-33.365925,3.4933243,-10.617303,-3.27146
169,-7.759068965911865,-184.8169403076172,77.77240753173828,-3.3906907193520874,9.894666878176679,-87.80821728606688,-29.43779,3.0017688,0.20023327,6.529082,-5.301927,-11.638916,2.766628,1.4914792,-7.73175,34.873806,1.4851328,4.5120306,7.096097,4.070582,9.952247,26.373629,31.72828,-19.717886,-35.867218,1.6558752,-9.328313,8.214976,3.8416247,-30.335516,25.01695,-32.900925,3.522189,-10.715124,-3.5581784
170,-7.687028408050537,-186.06663513183594,77.73969268798828,-3.1546654654553166,9.80762034304644,-87.46995127985127,-28.667173,2.3076148,-0.16067667,6.505669,-3.3423927,-10.676863,1.4723973,0.9992694,-7.5727167,39.059288,2.2456837,4.6711273,6.4791274,3.8546479,9.92921,25.496872,31.651508,-20.114807,-35.469776,0.56858027,-9.257765,8.604519,4.5653462,-30.224047,25.145138,-32.232502,3.692672,-10.78824,-4.0943685
171,-7.625565528869629,-187.3247833251953,77.66600036621094,-2.6501519633832826,9.741146154854675,-87.07828546909258,-27.774837,1.373979,-0.3482761,6.4234996,-1.0298594,-9.335245,0.029549308,0.189896,-7.3611555,43.43748,2.7616036,4.9186544,5.804116,3.370423,9.870634,24.301727,31.52903,-20.668816,-34.82851,-0.65643597,-9.199873,9.041374,5.192448,-29.985632,25.26824,-31.251003,3.9090614,-10.889162,-4.714267
172,-7.579297065734863,-188.5934295654297,77.51986694335938,-2.0796522084021327,9.635261525053332,-86.72984356020241,-26.942047,0.45662257,-0.39183038,6.489297,0.98488003,-7.7328315,-1.3664069,-0.72060615,-7.10007,47.64096,3.0302753,5.2863274,5.108674,2.7926867,9.85261,22.938898,31.351078,-21.209375,-34.071674,-1.8117217,-9.176033,9.415124,5.604882,-29.566122,25.39716,-29.912354,4.0866838,-11.066984,-5.2415476
173,-7.536343574523926,-189.82196044921875,77.34630584716797,-1.234176631643903,9.482655543492877,-86.40019209571578,-26.123629,-0.65527457,-0.17466041,6.5715337,2.8707974,-5.5215044,-2.7363062,-1.9670978,-6.7147202,51.81736,2.9953103,6.0033875,4.320531,1.9153646,9.946477,21.542519,31.187735,-21.621046,-33.39265,-3.0286777,-9.220025,9.692028,5.819995,-29.118519,25.546976,-28.346994,4.325173,-11.356687,-5.690009
174,-7.474976539611816,-191.00540161132812,77.134033203125,-0.23266125496401865,9.264155844485092,-86.09691488732116,-26.924644,-1.85797,0.27779722,10.225074,2.9674284,-2.7762778,-4.082406,-3.3928008,-6.212361,56.014698,2.7072065,6.95993,3.4890046,0.86761373,10.129602,20.040201,31.032383,-21.992971,-32.726097,-4.3594246,-9.309404,9.925234,5.922138,-28.644392,25.684866,-26.589518,4.6329823,-11.724908,-6.130298
175,-7.381921768188477,-192.12855529785156,76.90605926513672,0.6709408410719595,8.994772409595486,-85.86973860751596,-28.110697,-2.8784165,0.83476996,14.838095,2.248647,-0.15281487,-5.409733,-4.729668,-5.700874,60.04531,2.1482675,7.7549605,2.6983027,-0.10050751,10.386641,18.455803,30.890293,-22.338078,-32.053802,-5.5301023,-9.392615,10.1635685,6.038356,-28.14534,25.760956,-24.751085,4.8584175,-12.133654,-6.5941386
176,-7.287102222442627,-193.23822021484375,76.66483306884766,1.3460890950849516,8.742520444761102,-85.71769422176186,-28.9132,-3.6261084,1.287818,18.703867,1.2086253,1.7168324,-6.8175917,-5.872967,-5.291732,63.809196,1.2684458,7.997374,1.9842277,-0.8628532,10.666403,16.809908,30.775393,-22.667717,-31.348469,-6.2719846,-9.420117,10.461263,6.2984977,-27.617525,25.732182,-22.938349,4.84644,-12.544869,-7.120119
177,-7.238589763641357,-194.33987426757812,76.41150665283203,1.8823889928972846,8.543055963979137,-85.61038203796872,-29.39916,-4.2103496,1.5941484,21.955667,-0.49779472,2.566934,-8.426831,-6.932433,-4.946838,67.44581,-0.16860476,7.4415293,1.3306416,-1.5252111,10.980344,15.030235,30.706566,-23.001719,-30.568356,-6.5782657,-9.445275,10.862224,6.734691,-27.035357,25.542603,-21.125816,4.4932294,-13.001826,-7.7301097
178,-7.219372749328613,-195.439453125,76.17706298828125,2.3872552625642123,8.393777328805651,-85.52046777103237,-29.759176,-4.723942,1.828941,24.977545,-2.8107183,2.785956,-10.225662,-8.010551,-4.609853,71.01484,-2.093475,6.356864,0.7036518,-2.1954129,11.314372,13.119401,30.68796,-23.342562,-29.735117,-6.57637,-9.470548,11.337592,7.281673,-26.388792,25.22098,-19.266773,3.8953562,-13.501524,-8.401433
179,-7.227657794952393,-196.5372772216797,75.96810913085938,2.825614639426652,8.327665401482252,-85.42867897271415,-30.023703,-5.1451035,1.9958255,27.70027,-5.293456,2.729185,-12.143858,-9.083397,-4.359245,74.31154,-4.102711,5.130406,0.08132522,-2.8096807,11.563648,11.210698,30.705196,-23.672066,-28.909231,-6.2008123,-9.36746,11.828319,7.9104123,-25.707235,24.860373,-17.437283,3.210957,-13.938659,-9.11187
180,-7.241549968719482,-197.64102172851562,75.79662322998047,3.1407234242799307,8.36791273817121,-85.32572667848783,-30.17878,-5.4493413,2.0805378,29.973173,-7.47257,2.744924,-14.092118,-10.132475,-4.307521,77.121025,-5.780798,4.1254945,-0.55684215,-3.2710955,11.639341,9.435834,30.732513,-23.966682,-28.147467,-5.386632,-9.005267,12.265253,8.598149,-25.050802,24.554533,-15.724294,2.6095502,-14.21273,-9.840568
181,-7.242778778076172,-198.75009155273438,75.65657806396484,3.306243834050119,8.590774692403823,-85.18430483523377,-30.268877,-5.6424556,2.055868,31.700983,-9.2470875,2.8880394,-16.130909,-11.24557,-4.587661,79.419395,-7.0169554,3.4105272,-1.248235,-3.5027716,11.461133,7.7862215,30.749077,-24.249842,-27.408163,-3.8864317,-8.239256,12.632277,9.39502,-24.467178,24.310955,-14.15236,1.9908537,-14.234089,-10.692201
182,-7.222422122955322,-199.89370727539062,75.54391479492188,3.3645907058177618,8.962238998282324,-85.01228621117207,-30.288439,-5.75276,1.94509,32.984577,-10.860661,2.9878664,-18.275106,-12.4326315,-5.122754,81.32277,-8.037677,2.7891111,-1.9834441,-3.5530717,11.105143,6.1887007,30.744804,-24.529999,-26.661716,-1.8176042,-7.167262,12.926455,10.320565,-23.971565,24.081863,-12.715933,1.33378,-14.0737505,-11.647369
183,-7.193299293518066,-201.04383850097656,75.47140502929688,3.348992135753915,9.336320619186907,-84.85948772310412,-30.126938,-5.790562,1.790843,33.930992,-12.341796,3.0509906,-20.361654,-13.560071,-5.7421746,82.81878,-8.919957,2.2150996,-2.7082965,-3.5032277,10.724001,4.694005,30.710485,-24.758875,-25.990261,0.35296845,-6.0304503,13.109485,11.327955,-23.576317,23.881176,-11.473955,0.9150165,-13.886167,-12.5009575
184,-7.162789344787598,-202.197998046875,75.42606353759766,3.2892581533741874,9.566977161149923,-84.77822530080704,-29.673254,-5.7591314,1.6347492,34.644733,-13.718554,3.0817182,-22.238115,-14.477787,-6.2736535,83.8921,-9.735487,1.6564229,-3.375309,-3.4412947,10.467467,3.3555305,30.642546,-24.87515,-25.477448,2.1620183,-5.0764775,13.174364,12.352722,-23.29102,23.732826,-10.478514,1.0076917,-13.832755,-13.054778
185,-7.135618686676025,-203.3400115966797,75.42164611816406,3.178557410390577,9.588679815765287,-84.8035913609798,-28.849829,-5.6356516,1.4918082,35.134426,-15.015024,3.0728612,-23.870178,-15.150385,-6.688632,84.53868,-10.461074,1.1032925,-3.9652362,-3.3865125,10.401025,2.2079685,30.535278,-24.834581,-25.153105,3.6398306,-4.3179464,13.090943,13.3885765,-23.128202,23.66147,-9.7653885,1.8263084,-13.9749975,-13.2310295
186,-7.106442928314209,-204.49600219726562,75.47216033935547,3.0046190876862373,9.487970458742886,-84.90162630155686,-27.73108,-5.4211173,1.3422035,35.34995,-16.21145,3.02572,-25.339912,-15.6464205,-7.0932374,84.76614,-11.0632925,0.5857889,-4.5116606,-3.2928443,10.439844,1.2121423,30.388449,-24.67487,-24.96615,4.9902782,-3.6503994,12.880545,14.466784,-23.092222,23.650558,-9.30779,3.1853142,-14.220894,-13.142714
187,-7.08865213394165,-205.63536071777344,75.55828094482422,2.788497531032874,9.347925141893569,-85.02139233576773,-26.433714,-5.1508365,1.1737299,35.305424,-17.2691,2.954557,-26.673414,-15.967783,-7.5127244,84.565056,-11.59926,0.13730735,-5.0429115,-3.155347,10.505068,0.32005316,30.214628,-24.458214,-24.886738,6.015568,-3.1413877,12.648342,15.58786,-23.1688,23.65918,-9.066655,4.748367,-14.504618,-12.876374
188,-7.080863952636719,-206.77304077148438,75.68073272705078,2.5505413519011713,9.252328746969441,-85.11207701414071,-25.07564,-4.8594847,0.9711617,35.01594,-18.14911,2.872373,-27.896797,-16.118177,-7.969565,83.92745,-12.125097,-0.20968793,-5.584634,-2.971918,10.517415,-0.51267904,30.036762,-24.244284,-24.893112,6.5105615,-2.8523288,12.50647,16.742653,-23.331541,23.64917,-8.99099,6.174113,-14.765515,-12.522421
189,-7.065054893493652,-207.98526000976562,75.84402465820312,2.2787087303523528,9.204316209326011,-85.14397154436561,-23.643347,-4.540067,0.698088,34.441494,-18.853443,2.771427,-28.996904,-16.04549,-8.459698,82.81471,-12.700373,-0.44025457,-6.1576433,-2.7391064,10.466828,-1.2859755,29.878136,-24.046003,-25.0137,6.284968,-2.8345218,12.523422,17.935236,-23.56591,23.623085,-9.108031,7.511502,-15.009885,-12.033051
190,-7.058566093444824,-209.17010498046875,76.01982116699219,1.9704016902454018,9.166337895774317,-85.14890301923325,-22.093424,-4.175285,0.3761656,33.593548,-19.40127,2.6457443,-29.966473,-15.777403,-8.973399,81.24167,-13.277901,-0.5772479,-6.7384744,-2.4717329,10.394981,-1.9704851,29.747398,-23.833055,-25.26628,5.487321,-3.040982,12.639067,19.159945,-23.866468,23.596016,-9.4191475,8.893135,-15.252098,-11.377363
191,-7.069688320159912,-210.32843017578125,76.20872497558594,1.6596533329627283,9.160443761699984,-85.16959575551306,-20.495773,-3.7875159,0.0740639,32.560436,-19.777504,2.5102208,-30.828194,-15.430991,-9.528367,79.26528,-13.762156,-0.64107525,-7.287942,-2.192174,10.297124,-2.5580397,29.643463,-23.595495,-25.616959,4.422381,-3.383168,12.770127,20.384018,-24.215906,23.55165,-9.823641,10.096471,-15.458947,-10.679637
192,-7.088960647583008,-211.505859375,76.41551208496094,1.3788479675736562,9.208436845861417,-85.24953854774894,-18.918446,-3.40112,-0.14226446,31.429895,-19.96701,2.3799784,-31.601782,-15.1093855,-10.149418,76.93886,-14.055501,-0.6430913,-7.7643633,-1.9192193,10.164195,-3.0520341,29.557335,-23.328299,-26.015902,3.3946793,-3.7693098,12.834942,21.58606,-24.58769,23.467806,-10.223974,10.88829,-15.608199,-10.067277
193,-7.104310989379883,-212.6883544921875,76.63167572021484,1.1261400223747862,9.331592915228338,-85.41282268056962,-17.344526,-3.0097642,-0.25510362,30.123745,-19.957369,2.261251,-32.312057,-14.805613,-10.844299,74.23252,-14.102125,-0.53739274,-8.143681,-1.6494731,9.969701,-3.4618857,29.482456,-23.023272,-26.450474,2.3730867,-4.219132,12.796009,22.751472,-24.963339,23.332655,-10.581421,11.142779,-15.711782,-9.552348
194,-7.107000827789307,-213.9091796875,76.85417175292969,0.8868865082239983,9.51240165353676,-85.63286150973477,-15.749766,-2.6093757,-0.29987416,28.631586,-19.760784,2.1421783,-32.928974,-14.461403,-11.60812,71.11682,-13.961161,-0.32453,-8.448906,-1.3775661,9.7198105,-3.7940047,29.41914,-22.691444,-26.93078,1.2333798,-4.764079,12.694148,23.902863,-25.337467,23.155157,-10.945385,10.987326,-15.786593,-9.075527
195,-7.119777679443359,-215.1338348388672,77.07685089111328,0.6739663936500628,9.715029632028573,-85.87731917486411,-14.192787,-2.2297156,-0.29341367,27.148428,-19.40194,2.0136633,-33.3922,-14.0914545,-12.450284,67.64268,-13.706673,-0.077129364,-8.707709,-1.1156396,9.454983,-4.0444384,29.365639,-22.35752,-27.443533,0.1437942,-5.328924,12.575455,25.000965,-25.702438,22.947912,-11.283357,10.601487,-15.826955,-8.659276
196,-7.132797718048096,-216.3485107421875,77.30276489257812,0.4999546257861085,9.904105569816668,-86.11374796705026,-12.730049,-1.8981923,-0.25467363,25.865904,-18.90363,1.8693835,-33.645252,-13.712765,-13.377291,63.85913,-13.41357,0.1284277,-8.949388,-0.87775207,9.213254,-4.2119727,29.318605,-22.046303,-27.965033,-0.72619224,-5.840875,12.49121,26.072973,-26.047201,22.721207,-11.617261,10.13263,-15.823177,-8.324034
197,-7.145333290100098,-217.59532165527344,77.5335464477539,0.35821675344476356,10.078953300566111,-86.34628657288563,-11.351905,-1.607801,-0.17185587,24.775526,-18.23066,1.7118511,-33.645763,-13.3885355,-14.497854,59.70081,-13.11193,0.15377381,-9.1697,-0.65398,9.000458,-4.2940216,29.273537,-21.769009,-28.49714,-1.3327777,-6.294844,12.474365,27.07927,-26.367508,22.472599,-11.901472,9.49424,-15.762094,-8.102703
198,-7.15967321395874,-218.8328094482422,77.74944305419922,0.24525390752187712,10.25519653917769,-86.58857647274091,-10.032957,-1.3511575,-0.044352546,23.79231,-17.385748,1.5457251,-33.42427,-13.051195,-15.782613,55.141727,-12.750607,0.102605894,-9.351677,-0.44294485,8.796239,-4.300372,29.228533,-21.51691,-29.040712,-1.763254,-6.726059,12.495269,27.98943,-26.663029,22.197977,-12.108334,8.65912,-15.653249,-7.9723268
199,-7.172150135040283,-220.0984649658203,77.95304870605469,0.18217908028145374,10.421264641615,-86.82008926914102,-8.80904,-1.1553534,0.08912225,23.000761,-16.445356,1.3708097,-33.03931,-12.564369,-17.007666,50.280678,-12.27651,0.23071897,-9.511538,-0.27417478,8.598609,-4.244531,29.185379,-21.281557,-29.577023,-2.0456092,-7.123047,12.514214,28.893211,-26.923471,21.905844,-12.334296,7.841884,-15.517417,-7.871239
200,-7.200898170471191,-221.35154724121094,78.13408660888672,0.19503147019436481,10.56338245900814,-87.01692436530587,-7.7079554,-1.0520409,0.18808824,22.470968,-15.4791765,1.1875821,-32.55202,-11.852141,-17.922665,45.211372,-11.626815,0.74877226,-9.661945,-0.18305293,8.409278,-4.148473,29.149124,-21.061346,-30.084724,-2.2095678,-7.4736643,12.49203,29.77062,-27.137932,21.61038,-12.580571,7.3008842,-15.376969,-7.7389336
201,-7.251470565795898,-222.6127166748047,78.29337310791016,0.30917997666277713,10.681957052891722,-87.17781458417213,-6.69165,-1.0708141,0.25118923,22.129032,-14.476542,1.0052149,-31.921051,-10.904024,-18.417694,39.695686,-10.763444,1.6911715,-9.802916,-0.19855197,8.225754,-4.0089808,29.125687,-20.851456,-30.564026,-2.221135,-7.7764397,12.411893,30.59126,-27.29784,21.311892,-12.810325,7.085177,-15.220039,-7.5561275
202,-7.3112287521362305,-223.85528564453125,78.41541290283203,0.529365352780803,10.770141482674683,-87.29833881367071,-5.728679,-1.2181695,0.285856,21.928202,-13.38886,0.82397854,-31.07069,-9.866614,-18.593803,33.671032,-9.69885,2.8737078,-9.942409,-0.3244762,8.056505,-3.8144155,29.11819,-20.653913,-31.028141,-2.0798934,-8.036898,12.29948,31.375685,-27.399424,21.008144,-13.038567,7.0554657,-15.039448,-7.3563013
203,-7.374212741851807,-225.123046875,78.50853729248047,0.8580245177509978,10.79981127189027,-87.34542551903908,-4.8457236,-1.4975306,0.26278803,21.96658,-12.2236,0.6308559,-30.009373,-8.916363,-18.51941,27.506672,-8.451797,4.1831408,-10.10487,-0.56510824,7.9217477,-3.5812836,29.126749,-20.48202,-31.474329,-1.8664536,-8.252578,12.178003,32.091717,-27.440672,20.719187,-13.251702,7.224778,-14.86454,-7.161403
204,-7.436024188995361,-226.41050720214844,78.5576171875,1.297837545400154,10.74382243849888,-87.2885590535754,-4.074213,-1.9117391,0.1553905,22.347288,-10.989946,0.41348264,-28.788973,-8.186116,-18.284266,21.64253,-7.0579305,5.5592194,-10.322901,-0.92315936,7.8328066,-3.3282712,29.140318,-20.346548,-31.886248,-1.6575017,-8.4206,12.070142,32.69917,-27.433304,20.485092,-13.430559,7.6098113,-14.725879,-7.0043144
205,-7.503665447235107,-227.69143676757812,78.56238555908203,1.9170837625236472,10.579903864187827,-87.08592396436883,-3.3826346,-2.5347142,-0.028807605,23.066778,-9.68802,0.19958195,-27.371735,-7.703481,-17.837362,15.97265,-5.4000645,7.238168,-10.621221,-1.4501525,7.8154206,-3.0218248,29.17232,-20.236332,-32.33238,-1.4463494,-8.507853,11.963658,33.28723,-27.391472,20.23813,-13.657769,8.322969,-14.631875,-6.8375554
206,-7.587221145629883,-228.96888732910156,78.52701568603516,2.7530047522038434,10.300233478020385,-86.74325527614884,-2.7206244,-3.4120255,-0.28872854,24.030577,-8.285087,-0.007483877,-25.669462,-7.4806995,-17.159702,10.233517,-3.467515,9.190569,-10.993621,-2.2071705,7.8595767,-2.664069,29.252043,-20.162458,-32.79997,-1.2056854,-8.52564,11.861857,33.825603,-27.275799,20.002333,-13.889742,9.313597,-14.565036,-6.6662354
207,-7.6751203536987305,-230.24322509765625,78.4706802368164,3.6397880212703577,9.956878923972877,-86.35892429881162,-2.2099724,-4.363205,-0.6301667,25.342505,-6.813445,-0.27772713,-24.838636,-7.7301693,-16.300205,7.0370655,-2.6741486,10.998235,-11.366815,-3.035066,7.9355173,-2.2846928,29.347221,-20.119522,-33.23216,-0.9830966,-8.540176,11.77797,34.22503,-27.1189,19.83157,-14.083922,10.37447,-14.511571,-6.5607767
208,-7.763609886169434,-231.53024291992188,78.41783905029297,4.351423252461286,9.635484982009137,-86.05551607874096,-2.0153995,-5.1433263,-1.0420536,27.142084,-5.329596,-0.69512707,-25.108364,-8.199878,-15.438184,6.8441606,-3.2664454,12.2426605,-11.6131315,-3.7064366,8.018097,-1.9310805,29.440136,-20.122906,-33.57808,-0.83670557,-8.619846,11.732208,34.426914,-26.938444,19.72529,-14.224677,11.300352,-14.458692,-6.5673885
209,-7.855428218841553,-232.7949981689453,78.34857940673828,4.878210714085788,9.36040535802157,-85.85740629066716,-2.1769333,-5.7554054,-1.5005866,29.469004,-3.7498133,-1.325215,-25.137505,-8.448089,-14.862342,6.7545514,-3.7656837,13.069695,-11.711021,-4.1994014,8.093184,-1.6109545,29.507881,-20.178728,-33.82049,-0.76831716,-8.78939,11.7358465,34.435417,-26.757822,19.692547,-14.319377,12.1214485,-14.409748,-6.7276525
210,-7.934708118438721,-234.04074096679688,78.25341796875,5.250481597993417,9.12467922718853,-85.73450182350514,-2.660207,-6.238486,-2.0041614,32.294643,-2.1089287,-2.133118,-24.947718,-8.481821,-14.471045,6.7131157,-4.1005445,13.640105,-11.707552,-4.520836,8.165642,-1.2955385,29.533197,-20.26074,-33.984024,-0.74778813,-9.01293,11.772169,34.310658,-26.633812,19.714804,-14.426357,12.942917,-14.37332,-7.012054
211,-8.006197929382324,-235.28887939453125,78.14044189453125,5.352248318308984,8.950894295377708,-85.70444923565208,-3.4565725,-6.470632,-2.586244,35.563023,-0.58627963,-3.0458019,-24.607506,-8.173269,-14.147111,6.6926584,-4.1038837,13.55444,-11.527387,-4.5979514,8.227928,-1.0692973,29.551313,-20.430729,-34.010136,-0.78211296,-9.261253,11.824696,33.938366,-26.396683,19.777632,-14.380601,13.599026,-14.345709,-7.3350906
212,-8.086609840393066,-236.5223846435547,78.05994415283203,5.09896712706232,8.85521714439347,-85.7767482623574,-4.527146,-6.3731747,-3.2854412,39.17375,0.66199625,-3.9940147,-24.206814,-7.43657,-13.757053,6.7141724,-3.644704,12.410739,-11.193974,-4.3113923,8.285383,-0.9103193,29.527378,-20.641478,-33.91887,-0.870664,-9.51057,11.867092,33.363472,-26.179464,19.843864,-14.281208,14.020463,-14.317917,-7.651307
213,-8.167200088500977,-237.7480926513672,77.99734497070312,4.322789642252743,8.884440473649125,-85.98919533683359,-5.9308,-5.806754,-4.1883144,43.22807,1.6513137,-5.057162,-23.776077,-6.0456862,-13.183843,6.784296,-2.3050563,9.497839,-10.667182,-3.48541,8.298623,-0.8345185,29.44966,-20.910593,-33.685364,-1.032298,-9.763939,11.899571,32.572533,-25.988726,19.912325,-14.123555,14.127149,-14.264399,-7.973898
214,-8.21983814239502,-238.97166442871094,77.88611602783203,3.1449158110613378,8.968473276266307,-86.29395256205208,-7.543522,-4.9488378,-5.346093,47.63301,2.4756699,-6.294048,-23.379177,-4.196071,-12.583185,7.1817155,-0.36867964,5.248024,-9.998691,-2.2448828,8.298332,-0.8327894,29.313675,-21.237154,-33.31963,-1.2570271,-10.030648,11.926899,31.610746,-25.827131,19.98445,-13.943549,13.993779,-14.193248,-8.327089
215,-8.285935401916504,-240.17724609375,77.7442855834961,1.9836261442663696,8.946699237353974,-86.5633387304066,-9.063019,-4.2440524,-6.6595526,52.000015,3.114029,-7.563781,-25.149326,-2.9284534,-12.041039,12.681023,-1.1038775,0.9949523,-9.330855,-1.0244259,8.388265,-0.8738556,29.133682,-21.570606,-32.863163,-1.5095674,-10.293597,11.930312,30.537006,-25.698038,20.053114,-13.792773,13.740775,-14.146562,-8.669944
216,-8.376402854919434,-241.34597778320312,77.55291748046875,1.1478023775469832,8.729092291981155,-86.71435795751643,-10.331354,-3.9613132,-7.94669,56.087353,3.484728,-8.697813,-26.183628,-2.0178301,-11.8486805,17.104216,-2.1198885,-2.020932,-8.763713,-0.14026605,8.651788,-0.91600037,28.932632,-21.852736,-32.36757,-1.7571043,-10.538732,11.898591,29.370089,-25.604145,20.120787,-13.686965,13.49217,-14.170441,-8.960829
217,-8.478649139404297,-242.48513793945312,77.28224182128906,0.5780798144347473,8.264469870193432,-86.76443651318489,-11.345071,-4.0443907,-9.227279,60.065636,3.5034719,-9.734163,-26.627539,-1.5161356,-11.976807,21.005775,-4.115871,-3.3870401,-8.282693,0.4662449,9.181782,-1.0005096,28.72942,-22.064022,-31.841066,-2.0254912,-10.776426,11.817899,28.074747,-25.546808,20.165998,-13.642989,13.236091,-14.317768,-9.1446
218,-8.572012901306152,-243.5689239501953,76.94464874267578,0.09430734264342236,7.648129937796447,-86.77393663798384,-12.24512,-4.307235,-10.511792,64.08302,3.1845496,-10.731334,-26.793505,-1.2684507,-12.294453,24.93023,-6.901225,-3.83236,-7.8303523,0.9845559,9.900342,-1.1109589,28.52844,-22.222616,-31.28373,-2.3264854,-11.010861,11.704944,26.633698,-25.525349,20.201027,-13.637601,12.923548,-14.552074,-9.259581
219,-8.645410537719727,-244.64810180664062,76.60509490966797,-0.35430786101373224,7.078679898903845,-86.78420409864779,-13.231766,-4.5628114,-11.62285,67.969734,2.556234,-11.5248165,-26.79379,-1.1390158,-12.659648,28.544456,-9.873245,-3.8603458,-7.381992,1.4763805,10.606057,-1.1247772,28.322731,-22.33253,-30.731188,-2.602154,-11.221961,11.599849,25.051802,-25.543446,20.275686,-13.588198,12.629121,-14.790168,-9.398673
220,-8.69554328918457,-245.746826171875,76.29385375976562,-0.7911705253051982,6.742484944705069,-86.82349749318355,-14.506968,-4.6354823,-12.416071,71.53163,1.6769757,-11.92946,-26.704979,-0.9372485,-12.934802,31.40699,-12.381784,-3.9591796,-6.9246426,1.9707054,11.100207,-0.91759074,28.099474,-22.393833,-30.208843,-2.7952263,-11.389424,11.540814,23.338758,-25.607523,20.445005,-13.419961,12.428056,-14.947627,-9.655691
221,-8.73133659362793,-246.868896484375,76.0267105102539,-1.2579658468905617,6.732724078956172,-86.91699780480734,-16.232437,-4.425609,-12.900171,74.82483,0.41586688,-11.7595215,-26.575506,-0.5223236,-13.128313,33.32329,-14.26937,-4.1933966,-6.440486,2.5141492,11.30617,-0.43681872,27.835245,-22.377789,-29.726019,-2.9791014,-11.573317,11.459288,21.424688,-25.73299,20.746658,-13.071811,12.475026,-15.027067,-10.0452795
222,-8.764500617980957,-247.9830322265625,75.79328155517578,-1.7487926382841967,6.942232960791484,-87.05189516060416,-18.306713,-3.9901433,-13.183706,77.932755,-1.1923473,-11.125077,-26.389938,0.02872846,-13.332618,34.570526,-15.878519,-4.3227835,-5.934585,3.1013687,11.333234,0.24473828,27.522512,-22.287085,-29.263035,-3.1514878,-11.763184,11.355746,19.205774,-25.92147,21.159773,-12.501056,12.739061,-15.069131,-10.527997
223,-8.798046112060547,-249.0742645263672,75.59217071533203,-2.2005211180115767,7.2505381129962885,-87.19322721355914,-20.539827,-3.3931577,-13.279226,80.693596,-2.8306723,-10.2748,-26.100924,0.6098386,-13.518426,35.348255,-17.282387,-4.375887,-5.442603,3.6467698,11.246923,1.0727917,27.182714,-22.167494,-28.791475,-3.1411204,-11.834086,11.375458,17.219236,-26.140388,21.616695,-12.170232,12.800247,-15.035727,-11.105666
224,-8.861146926879883,-250.1753387451172,75.43902587890625,-2.5470898766826067,7.536796865579844,-87.3027603911264,-22.738445,-2.6878293,-13.176475,82.94045,-4.182248,-9.4510565,-25.647406,1.1065294,-13.650276,35.85035,-18.553032,-4.3791275,-4.9616714,4.075602,11.14852,1.962818,26.855953,-22.105932,-28.31436,-2.7802925,-11.660804,11.674295,15.150979,-26.354624,22.082878,-11.756905,12.543161,-14.893291,-11.781207
225,-8.941282272338867,-251.3007354736328,75.33743286132812,-2.7662060623118916,7.815449824557202,-87.35866660849807,-24.943573,-1.80019,-12.816596,84.642746,-5.143168,-8.694151,-25.027592,1.4869264,-13.7251425,36.083225,-19.709745,-4.324016,-4.505777,4.328658,11.001385,2.943924,26.57267,-22.122637,-27.779236,-1.871701,-11.162889,12.340166,13.213562,-26.531548,22.596766,-11.372526,11.642296,-14.565958,-12.678877
226,-9.044210433959961,-252.4416961669922,75.28852081298828,-2.8953273967585735,8.134178631954024,-87.38640260227379,-27.224243,-0.71029395,-12.227293,85.88699,-5.8947678,-7.8739653,-24.262377,1.8124313,-13.758376,35.956,-20.714642,-4.209252,-4.0511894,4.442206,10.784977,4.045245,26.342531,-22.189663,-27.224846,-0.57210016,-10.406633,13.271139,11.284875,-26.661552,23.172619,-10.934266,10.319573,-14.075659,-13.736937
227,-9.128076553344727,-253.58917236328125,75.29615020751953,-2.957125755035228,8.421649739579752,-87.41627742244793,-29.425396,0.44810042,-11.501447,86.67594,-6.547669,-6.97895,-23.314806,2.1043897,-13.738682,35.511818,-21.550587,-4.0657578,-3.5856328,4.4648895,10.590715,5.211621,26.175581,-22.287956,-26.756985,0.7528672,-9.4900255,14.337613,9.419906,-26.742064,23.708065,-10.610322,8.948692,-13.535686,-14.673252
228,-9.19421100616455,-254.737548828125,75.36416625976562,-2.9727831739725232,8.607353596254224,-87.47774428616295,-31.392693,1.528133,-10.725168,87.01138,-7.2090344,-6.0090346,-22.148993,2.3803852,-13.652164,34.795322,-22.2002,-3.918633,-3.097505,4.4443417,10.500879,6.385346,26.080746,-22.403536,-26.475332,1.7463219,-8.527383,15.4277315,7.8115845,-26.781115,24.079908,-10.687605,7.8449745,-13.082525,-15.216056
229,-9.249641418457031,-255.8706512451172,75.4835205078125,-2.9373869031282878,8.63391845565244,-87.58111609869393,-33.064804,2.5033607,-9.8685665,86.87547,-7.9096823,-4.926627,-20.687792,2.6375039,-13.477824,33.77378,-22.66862,-3.759977,-2.579793,4.39307,10.583272,7.567862,26.071217,-22.563791,-26.420935,2.453662,-7.4035506,16.686468,6.5328217,-26.788443,24.221107,-11.29573,6.937768,-12.743016,-15.277235
230,-9.298612594604492,-257.01397705078125,75.64006805419922,-2.8383807970711388,8.551577403908873,-87.71014953481597,-34.50825,3.4269996,-8.876511,86.27125,-8.604731,-3.7707815,-18.969696,2.855011,-13.218396,32.44076,-22.962801,-3.5751493,-2.037027,4.293033,10.79607,8.796707,26.150738,-22.756952,-26.56746,3.000377,-6.1094227,18.11988,5.1655035,-26.768911,24.246262,-11.9900465,6.2149854,-12.468264,-15.021964
231,-9.350383758544922,-258.1331787109375,75.82306671142578,-2.6843877526692816,8.451474026826755,-87.85347564974906,-35.768635,4.266422,-7.797033,85.22757,-9.274716,-2.6588285,-17.134567,3.0223706,-12.897953,30.882746,-23.068499,-3.375589,-1.4766368,4.1237745,11.012461,10.048539,26.31072,-22.928608,-26.841959,3.17599,-4.942014,19.438362,4.1569304,-26.728395,24.178902,-13.083744,5.722056,-12.279208,-14.538904
232,-9.39452075958252,-259.26715087890625,76.032958984375,-2.4861079470775573,8.425491486871543,-87.99914765295796,-36.897602,4.9933176,-6.680145,83.77127,-9.893592,-1.7024225,-15.322915,3.1335652,-12.544254,29.187046,-22.972584,-3.1753352,-0.8866618,3.8851519,11.140044,11.28509,26.533913,-23.034037,-27.200861,2.7960634,-4.2091713,20.360708,3.2190456,-26.67868,24.09966,-14.233161,5.782488,-12.195752,-13.937265
233,-9.433515548706055,-260.4290466308594,76.26426696777344,-2.2327133751583936,8.492423000476544,-88.15393256263049,-37.90213,5.5730295,-5.508489,81.87342,-10.497422,-0.92993385,-13.507106,3.188484,-12.12815,27.2502,-22.657993,-2.9842525,-0.26812083,3.5608668,11.148024,12.521897,26.80818,-23.05717,-27.65515,1.6133652,-4.0594707,20.808073,2.536172,-26.622677,23.98946,-15.6377,6.5884686,-12.253203,-13.1439905
234,-9.463518142700195,-261.5919494628906,76.50985717773438,-1.9213067860219795,8.606814899971429,-88.31969122550326,-38.744576,6.013057,-4.2470884,79.52032,-11.077766,-0.29822353,-11.639338,3.1799886,-11.647945,25.076681,-22.141388,-2.7901244,0.37590238,3.161254,11.096374,13.766948,27.130764,-23.02159,-28.221556,-0.18706918,-4.312283,20.926294,2.0235217,-26.564089,23.827005,-17.250153,7.997493,-12.410509,-12.141147
235,-9.493663787841797,-262.7703552246094,76.7704086303711,-1.5772876932804474,8.762712588539125,-88.4768054951632,-39.412956,6.3546357,-2.92158,76.75165,-11.537543,0.19632116,-9.828448,3.101875,-11.177719,22.913353,-21.458553,-2.5764441,1.0194695,2.7100515,10.999051,14.99765,27.491976,-22.914282,-28.847616,-2.1367278,-4.7722745,20.766436,1.6541016,-26.51107,23.66236,-18.961857,9.566888,-12.573197,-11.112281
236,-9.527451515197754,-263.95562744140625,77.04200744628906,-1.2278499757257622,8.953502534105734,-88.6054000280938,-39.899498,6.6375585,-1.5584424,73.61035,-11.777533,0.5584812,-8.177942,2.9576783,-10.793117,20.99672,-20.646105,-2.3271239,1.6320351,2.234872,10.869825,16.19561,27.876583,-22.717373,-29.482405,-3.766747,-5.24716,20.392395,1.3689107,-26.474743,23.554714,-20.629782,10.858611,-12.669972,-10.24718
237,-9.558646202087402,-265.15228271484375,77.31670379638672,-0.8548612329234391,9.192654349577257,-88.68910433433578,-40.20151,6.877129,-0.08755249,70.036766,-11.722497,0.7892028,-6.6764584,2.7320504,-10.528421,19.280329,-19.664103,-2.0246735,2.2107868,1.7186077,10.693176,17.348774,28.274729,-22.407999,-30.108711,-5.082091,-5.7684383,19.696049,1.182227,-26.461662,23.51783,-22.273636,11.854277,-12.693186,-9.623615
