unveil-humanoid-operators/unveil-humanoid-operators.github.io/feature-analysis-animation/data/feature_matrix_instances/age_ankle_rom_turning_A026.csv
Frame,root_translateX,root_translateY,root_translateZ,root_rotateX,root_rotateY,root_rotateZ,left_hip_pitch_joint_dof,left_hip_roll_joint_dof,left_hip_yaw_joint_dof,left_knee_joint_dof,left_ankle_pitch_joint_dof,left_ankle_roll_joint_dof,right_hip_pitch_joint_dof,right_hip_roll_joint_dof,right_hip_yaw_joint_dof,right_knee_joint_dof,right_ankle_pitch_joint_dof,right_ankle_roll_joint_dof,waist_yaw_joint_dof,waist_roll_joint_dof,waist_pitch_joint_dof,left_shoulder_pitch_joint_dof,left_shoulder_roll_joint_dof,left_shoulder_yaw_joint_dof,left_elbow_joint_dof,left_wrist_roll_joint_dof,left_wrist_pitch_joint_dof,left_wrist_yaw_joint_dof,right_shoulder_pitch_joint_dof,right_shoulder_roll_joint_dof,right_shoulder_yaw_joint_dof,right_elbow_joint_dof,right_wrist_roll_joint_dof,right_wrist_pitch_joint_dof,right_wrist_yaw_joint_dof
0,-0.03488945588469505,1.6786768436431885,77.20117950439453,1.8352553765339643,3.812707731611374,-94.83769949340923,-6.9910593,5.4640055,5.264816,20.587236,-17.86328,-5.1417522,-7.769758,-11.9186735,-5.0759954,15.791697,-11.795877,11.897372,-0.120236,-1.426606,0.37318134,-0.6909962,18.94438,-38.99017,55.12813,-1.5645202,8.4957,-1.8126171,-8.293733,-20.05984,45.946243,59.677532,0.7046144,4.338581,7.0044785
1,-0.03507580980658531,1.6786611080169678,77.2011947631836,1.8372451443013367,3.8137097582612216,-94.83965176554172,-6.9867034,5.4617105,5.27151,20.583555,-17.863256,-5.1373096,-7.7683005,-11.9225645,-5.076191,15.79059,-11.796905,11.899906,-0.11712925,-1.429125,0.37209824,-0.68161994,18.953049,-38.992546,55.109177,-1.6165155,8.516736,-1.8352096,-8.292142,-20.070189,45.945942,59.662094,0.7361359,4.352952,7.016294
2,-0.03571007028222084,1.6719661951065063,77.20096588134766,1.839340515474563,3.8150958529676666,-94.84237819410166,-6.9830775,5.459674,5.279712,20.580719,-17.863338,-5.132391,-7.767407,-11.926625,-5.0758514,15.788845,-11.796845,11.902355,-0.114971206,-1.4307636,0.368564,-0.6765568,18.95566,-38.9939,55.100307,-1.6695802,8.538177,-1.8585765,-8.293739,-20.073792,45.94518,59.65583,0.7658254,4.3675895,7.0281744
3,-0.03502979129552841,1.666024923324585,77.20021057128906,1.8413815384443106,3.8156509225095596,-94.84347936267442,-6.9784045,5.457386,5.2853284,20.577032,-17.863293,-5.1288137,-7.764786,-11.930616,-5.0768943,15.787162,-11.798161,11.905156,-0.11392698,-1.4328097,0.365051,-0.6706447,18.957697,-38.995384,55.091663,-1.7182434,8.556761,-1.8795576,-8.293559,-20.077059,45.94394,59.64939,0.7914169,4.380497,7.038707
4,-0.03231057524681091,1.6659144163131714,77.19791412353516,1.8428940687605,3.81404815143797,-94.84046370081019,-6.971473,5.454944,5.285373,20.571884,-17.863005,-5.129345,-7.7582912,-11.934377,-5.081485,15.786079,-11.802984,11.908801,-0.11490834,-1.4355942,0.3621969,-0.6634313,18.959024,-38.996525,55.083233,-1.755273,8.567967,-1.8956393,-8.2898655,-20.07949,45.94193,59.641304,0.80846834,4.389143,7.0470624
5,-0.033413711935281754,1.6623057126998901,77.19534301757812,1.8441681512694885,3.808582596638353,-94.83088117341667,-6.9610596,5.4521,5.276443,20.56602,-17.863682,-5.1368713,-7.742958,-11.938053,-5.092147,15.78174,-11.811868,11.915128,-0.11871874,-1.4398801,0.3614346,-0.6519593,18.962303,-38.996616,55.07216,-1.7754297,8.567299,-1.9046936,-8.273179,-20.08536,45.931526,59.621502,0.8048442,4.3921814,7.0530896
6,-0.031466104090213776,1.6569297313690186,77.1932144165039,1.8450181303288204,3.800234405902594,-94.81677372092298,-6.9491053,5.4497185,5.262102,20.561989,-17.866234,-5.1501207,-7.722262,-11.941545,-5.1071315,15.776809,-11.82477,11.9233055,-0.12707812,-1.4453057,0.36187506,-0.64167446,18.963127,-38.99513,55.06631,-1.7854086,8.557378,-1.9088386,-8.259768,-20.086924,45.925766,59.608635,0.7942644,4.389975,7.056699
7,-0.03441374748945236,1.6525769233703613,77.19303131103516,1.845658342807912,3.792319010915119,-94.80173810402876,-6.9375143,5.4469347,5.245947,20.557121,-17.867731,-5.162718,-7.7024612,-11.945005,-5.122582,15.773988,-11.83799,11.930053,-0.13579597,-1.4506227,0.36094305,-0.62911695,18.964073,-38.991493,55.0589,-1.7863764,8.546239,-1.911814,-8.238831,-20.088472,45.914505,59.58992,0.77687985,4.38643,7.058791
8,-0.03917863592505455,1.650233507156372,77.19332885742188,1.8464596091462755,3.787824551781648,-94.7894819211538,-6.9305906,5.443837,5.2331486,20.554316,-17.868105,-5.169455,-7.6909404,-11.948462,-5.134533,15.777403,-11.848667,11.932281,-0.14259627,-1.4536263,0.35843763,-0.6209187,18.96457,-38.988697,55.05215,-1.7883399,8.540956,-1.9175373,-8.224394,-20.089231,45.90782,59.576935,0.77381617,4.3826814,7.0597696
9,-0.04082934930920601,1.6459921598434448,77.19554901123047,1.846648314828804,3.7890953350867305,-94.7814467239707,-6.9313564,5.44108,5.2251787,20.55472,-17.865736,-5.1670995,-7.6924095,-11.951028,-5.1422043,15.790756,-11.855046,11.927235,-0.14684814,-1.4530737,0.35252044,-0.61804956,18.96471,-38.987118,55.04585,-1.7918411,8.544011,-1.9299159,-8.216015,-20.08943,45.904823,59.5687,0.7866614,4.3789067,7.0594163
10,-0.04008529707789421,1.6420619487762451,77.19758605957031,1.8473509493568505,3.7946980273845194,-94.773800101109,-6.9379416,5.437041,5.2179675,20.55642,-17.860874,-5.158918,-7.702644,-11.954764,-5.1490383,15.811301,-11.859246,11.917754,-0.15012714,-1.4521033,0.3391946,-0.613216,18.965122,-38.982418,55.03688,-1.7884439,8.554008,-1.9501365,-8.199285,-20.09002,45.898342,59.55661,0.8057786,4.374255,7.0562644
11,-0.04047060012817383,1.6361608505249023,77.19815063476562,1.847979470639581,3.799751352201013,-94.76800667446376,-6.9443703,5.433087,5.2127156,20.560009,-17.858023,-5.1500244,-7.714892,-11.958285,-5.1524887,15.83561,-11.865125,11.907187,-0.1526494,-1.450001,0.32890242,-0.61190915,18.965408,-38.979603,55.029667,-1.7857379,8.56383,-1.9643822,-8.188703,-20.090412,45.895687,59.54791,0.8288905,4.370248,7.0538864
12,-0.03973625600337982,1.6308797597885132,77.19790649414062,1.8494116489399186,3.8004370976273707,-94.76303060001725,-6.9423323,5.4285293,5.2084174,20.557728,-17.8569,-5.145123,-7.7203484,-11.962852,-5.152796,15.855326,-11.8743725,11.899674,-0.1555068,-1.4495682,0.32312635,-0.60862046,18.966091,-38.97559,55.022774,-1.780694,8.57047,-1.9657527,-8.178307,-20.091457,45.89346,59.539803,0.8460773,4.3677015,7.053546
13,-0.03787364810705185,1.6278706789016724,77.19447326660156,1.850889149317084,3.793826733831056,-94.75931208385168,-6.929581,5.4243665,5.205018,20.55321,-17.86298,-5.1470623,-7.7165537,-11.967538,-5.1473565,15.871464,-11.891277,11.895602,-0.16107896,-1.4483323,0.32550487,-0.60543424,18.966545,-38.975143,55.01855,-1.78083,8.571133,-1.9438483,-8.172675,-20.092072,45.891815,59.535854,0.85422146,4.3666415,7.058293
14,-0.03600964695215225,1.622288465499878,77.19253540039062,1.8537710477878526,3.782612712373199,-94.75723683244729,-6.9078875,5.418631,5.203398,20.542948,-17.871439,-5.1523986,-7.7078705,-11.9739,-5.136574,15.88679,-11.913281,11.893249,-0.1668361,-1.4490118,0.332753,-0.5985347,18.966825,-38.976017,55.012638,-1.7800778,8.570035,-1.9036238,-8.165961,-20.09236,45.888577,59.53139,0.8559419,4.367398,7.065696
15,-0.033140379935503006,1.619085431098938,77.19121551513672,1.8567760354195209,3.7707626938588734,-94.75484851106025,-6.8869085,5.4132557,5.2018,20.53524,-17.881191,-5.157944,-7.6983185,-11.980622,-5.1266456,15.901945,-11.935451,11.892774,-0.17027274,-1.4495274,0.3405107,-0.59512776,18.967318,-38.979202,55.01012,-1.7789935,8.567306,-1.8647715,-8.158895,-20.092602,45.88361,59.528694,0.85417765,4.368917,7.0728536
16,-0.03344247490167618,1.6150968074798584,77.18907928466797,1.8604060796255375,3.7618515168706934,-94.75067013378859,-6.871625,5.406974,5.199489,20.529713,-17.886177,-5.159394,-7.6907463,-11.987921,-5.1228786,15.915574,-11.951767,11.894284,-0.17181304,-1.4506171,0.34457934,-0.5957749,18.967731,-38.980953,55.01096,-1.7747278,8.564508,-1.8431771,-8.149724,-20.09257,45.880123,59.527164,0.8503535,4.371332,7.075405
17,-0.03501587361097336,1.6134679317474365,77.18827819824219,1.8655704534815596,3.757066743037441,-94.7440838231134,-6.86666,5.4002304,5.198185,20.532719,-17.887218,-5.1563115,-7.687698,-11.997278,-5.128258,15.931644,-11.961592,11.89961,-0.169238,-1.4534324,0.34380257,-0.60344905,18.968313,-38.98162,55.01783,-1.7659563,8.561168,-1.8495252,-8.13837,-20.092428,45.879517,59.52724,0.8467482,4.3756194,7.0706143
18,-0.037254489958286285,1.6106752157211304,77.19080352783203,1.8716171254058223,3.7545127560620317,-94.73599986638166,-6.8663254,5.39233,5.1972003,20.537722,-17.884075,-5.1498637,-7.6870923,-12.008027,-5.1391616,15.949092,-11.96754,11.908025,-0.16448373,-1.4584451,0.33987308,-0.6163011,18.969343,-38.979927,55.030987,-1.7526959,8.556292,-1.8739899,-8.122911,-20.092073,45.881287,59.5259,0.8417535,4.3817883,7.060148
19,-0.03754732385277748,1.6082433462142944,77.18926239013672,1.877196480785881,3.752662559552339,-94.72720911731268,-6.8690643,5.3851776,5.1942434,20.546127,-17.881285,-5.142228,-7.6859193,-12.017831,-5.1518383,15.963632,-11.971009,11.916288,-0.16010687,-1.4605502,0.33611023,-0.6277182,18.96989,-38.978848,55.039684,-1.7401617,8.553211,-1.8970758,-8.113428,-20.09191,45.884598,59.531128,0.8354822,4.387324,7.05167
20,-0.03709081560373306,1.6070740222930908,77.18936157226562,1.8815551136270792,3.7505723455842177,-94.71851035625706,-6.872202,5.3784633,5.187179,20.554625,-17.880215,-5.1348205,-7.6848955,-12.02588,-5.1614575,15.976733,-11.976549,11.9213505,-0.16039419,-1.4632262,0.3313108,-0.64070106,18.971272,-38.977104,55.050804,-1.7305715,8.551848,-1.9078459,-8.09969,-20.091301,45.891567,59.53019,0.8284359,4.3919888,7.0458145
21,-0.038790713995695114,1.6076750755310059,77.18954467773438,1.883324480595691,3.748509007147486,-94.70989867852275,-6.878179,5.37345,5.1724463,20.566107,-17.882282,-5.126013,-7.6838155,-12.029548,-5.1662416,15.986202,-11.984062,11.920596,-0.16135316,-1.4625958,0.32883385,-0.65117544,18.972286,-38.9795,55.053047,-1.7229466,8.556983,-1.8921297,-8.094125,-20.090954,45.899277,59.534794,0.82029957,4.393687,7.04865
22,-0.03982069343328476,1.603855013847351,77.1903305053711,1.8835814713609043,3.7471136941150607,-94.7008225626203,-6.887546,5.3692145,5.1521773,20.580349,-17.885906,-5.1155715,-7.683473,-12.030654,-5.1687455,15.992683,-11.991703,11.91623,-0.16446054,-1.4607751,0.32450205,-0.66274935,18.974218,-38.989017,55.054356,-1.7233652,8.565897,-1.8607901,-8.092383,-20.090336,45.917526,59.54205,0.819183,4.393753,7.053799
23,-0.040265943855047226,1.598688006401062,77.1919174194336,1.8831328806754675,3.744668552104326,-94.69219162335541,-6.894266,5.365907,5.132608,20.593035,-17.890596,-5.1077876,-7.680421,-12.031373,-5.1718545,15.996963,-11.999153,11.912292,-0.16984887,-1.4571964,0.3197173,-0.6702355,18.976883,-38.99805,55.052418,-1.7263546,8.57423,-1.8276452,-8.088217,-20.089237,45.932453,59.548264,0.81384736,4.39398,7.0615187
24,-0.040021270513534546,1.5984243154525757,77.18960571289062,1.88283409765261,3.739544333105077,-94.68442799696938,-6.8916364,5.3630033,5.1196775,20.597404,-17.894453,-5.106505,-7.672567,-12.033623,-5.1782246,16.00125,-12.006601,11.912466,-0.17380233,-1.4530413,0.31847963,-0.6779275,18.978704,-39.00311,55.051785,-1.7293549,8.577195,-1.8073286,-8.086549,-20.088646,45.940193,59.555614,0.81209666,4.395208,7.07189
25,-0.038432806730270386,1.5930029153823853,77.1863784790039,1.8827566261057618,3.729641628289624,-94.67793854542495,-6.874745,5.3616147,5.1170406,20.591745,-17.898825,-5.1165752,-7.654318,-12.038672,-5.19175,16.001602,-12.012433,11.91995,-0.18189476,-1.4463649,0.31757554,-0.68058354,18.98124,-39.007725,55.05268,-1.7441635,8.570904,-1.8028005,-8.0826025,-20.087868,45.94522,59.563488,0.8172306,4.399013,7.085093
26,-0.03325371444225311,1.5926599502563477,77.18177032470703,1.8822958535725027,3.7163264460196017,-94.67247561265998,-6.848188,5.3615084,5.121017,20.579805,-17.90419,-5.1346827,-7.6300063,-12.045329,-5.209538,16.001566,-12.018896,11.931985,-0.1897454,-1.4390132,0.31937104,-0.679221,18.98526,-39.010193,55.05097,-1.7617165,8.558993,-1.8082097,-8.07987,-20.086987,45.945538,59.572727,0.8273176,4.4041834,7.102508
27,-0.031059876084327698,1.586440920829773,77.18158721923828,1.8819650753196508,3.7035367909359604,-94.66719914443395,-6.821136,5.361313,5.126497,20.565603,-17.908562,-5.153216,-7.6057954,-12.051853,-5.2261987,16.00048,-12.024001,11.943763,-0.19766277,-1.4315456,0.32118335,-0.6783338,18.989075,-39.00999,55.04969,-1.778313,8.547305,-1.8171918,-8.076687,-20.086445,45.94174,59.579983,0.8345448,4.408979,7.1177983
28,-0.029434792697429657,1.5820083618164062,77.18142700195312,1.8820219895011383,3.6952443980492653,-94.6613925049801,-6.804031,5.3603396,5.129238,20.556551,-17.911377,-5.1654844,-7.590634,-12.056934,-5.236081,16.002869,-12.028602,11.950636,-0.20492624,-1.4246927,0.319246,-0.67966735,18.991144,-39.008694,55.049534,-1.7908176,8.541718,-1.8225619,-8.072024,-20.086227,45.937824,59.5843,0.83512425,4.411647,7.123959
29,-0.026977606117725372,1.5822371244430542,77.18232727050781,1.8821774476407618,3.6933078045859706,-94.65459688603953,-6.8011985,5.358859,5.128237,20.555107,-17.912949,-5.1706657,-7.5881467,-12.0595045,-5.237566,16.010563,-12.032133,11.949582,-0.20849477,-1.4201349,0.31306377,-0.6823145,18.994232,-39.004642,55.04632,-1.7946258,8.546095,-1.8231654,-8.064605,-20.085945,45.93114,59.58335,0.82529366,4.4109893,7.116347
30,-0.028429046273231506,1.579912781715393,77.18363189697266,1.882367912720017,3.69533653237542,-94.64721780151477,-6.8062496,5.3572555,5.125866,20.556343,-17.912767,-5.1721325,-7.592804,-12.060573,-5.2338686,16.020233,-12.034079,11.943752,-0.2123346,-1.4154463,0.30315986,-0.68575215,18.996536,-38.99934,55.042557,-1.7972971,8.556027,-1.8216398,-8.056166,-20.085594,45.92441,59.58012,0.8088191,4.4080234,7.099148
31,-0.03037300705909729,1.5796207189559937,77.18412017822266,1.883440640277602,3.6990467108363054,-94.64002213210007,-6.8156567,5.354598,5.122489,20.561386,-17.912258,-5.169181,-7.6009827,-12.061819,-5.226072,16.03116,-12.036542,11.937423,-0.21493156,-1.4131713,0.29320335,-0.6895144,18.999542,-38.990486,55.038204,-1.7932593,8.56724,-1.82117,-8.046335,-20.085257,45.912678,59.573547,0.78852355,4.404816,7.080796
32,-0.03101610578596592,1.577114462852478,77.18585968017578,1.8859513420536609,3.701946689659909,-94.63351410824578,-6.8239994,5.3502145,5.1183696,20.567677,-17.910833,-5.1611075,-7.606421,-12.064592,-5.216022,16.037779,-12.038863,11.934943,-0.2163966,-1.4120784,0.28388813,-0.69338137,19.003345,-38.984097,55.035885,-1.7892,8.573824,-1.8210428,-8.041835,-20.085114,45.90459,59.571194,0.78261125,4.4024973,7.0691195
33,-0.035248689353466034,1.5794031620025635,77.18672943115234,1.8910935325522789,3.7048152235264236,-94.6271408010999,-6.833026,5.3426547,5.112049,20.577011,-17.906984,-5.143553,-7.6087947,-12.0698595,-5.200934,16.03874,-12.041249,11.939132,-0.21865654,-1.4126812,0.27281302,-0.6963041,19.006079,-38.981323,55.03729,-1.7855198,8.573043,-1.8207296,-8.040528,-20.085173,45.900604,59.57118,0.7946554,4.4015336,7.0668435
34,-0.03219899907708168,1.5779597759246826,77.18346405029297,1.8984690265421917,3.708397318843529,-94.62074841749696,-6.844864,5.332816,5.1043353,20.59074,-17.902033,-5.118744,-7.611345,-12.076762,-5.1809683,16.037262,-12.043829,11.9472275,-0.21992628,-1.4157716,0.25994733,-0.6995486,19.008179,-38.980274,55.041958,-1.7795504,8.5680895,-1.8202957,-8.042637,-20.085442,45.899,59.574463,0.81920224,4.4010763,7.0694814
35,-0.03392014279961586,1.5775299072265625,77.1839370727539,1.9052701979990083,3.7108388256149656,-94.61594843171132,-6.8542256,5.3233485,5.0973086,20.603193,-17.89777,-5.094305,-7.612882,-12.083679,-5.1621733,16.035511,-12.047356,11.954843,-0.22085807,-1.4188902,0.24930987,-0.7021233,19.014238,-38.980217,55.044937,-1.7755399,8.562742,-1.8213512,-8.047156,-20.086634,45.899204,59.577824,0.8462049,4.400763,7.0736194
36,-0.0339348129928112,1.5733619928359985,77.18222045898438,1.9091242026747075,3.710112147961168,-94.61433330516147,-6.85505,5.3169394,5.0934534,20.607801,-17.89537,-5.0782065,-7.6108036,-12.088691,-5.150838,16.032827,-12.051017,11.95745,-0.22019452,-1.4179455,0.24174605,-0.7029801,19.01537,-38.97921,55.047993,-1.7719824,8.562501,-1.8221027,-8.050633,-20.086977,45.89865,59.58253,0.86186695,4.401621,7.0739703
37,-0.029430869966745377,1.5717251300811768,77.18038940429688,1.9090217256047592,3.7046576092645265,-94.61814925663198,-6.8453383,5.3156924,5.0956416,20.606102,-17.898474,-5.075843,-7.607401,-12.091834,-5.149819,16.036839,-12.060522,11.951971,-0.21845005,-1.4123919,0.24004026,-0.6991003,19.018095,-38.97151,55.04503,-1.7655988,8.568826,-1.8283659,-8.0569315,-20.088123,45.896626,59.59197,0.8634996,4.4014287,7.0707746
38,-0.02602577395737171,1.5695180892944336,77.18022155761719,1.9057843758384925,3.6955634299995546,-94.6258544995004,-6.826226,5.3175964,5.1010766,20.5966,-17.90369,-5.081293,-7.601118,-12.093208,-5.155671,16.04198,-12.072482,11.941131,-0.21584037,-1.4035625,0.24347731,-0.69263494,19.020224,-38.95953,55.039333,-1.757375,8.579782,-1.8369349,-8.063211,-20.089424,45.893833,59.600807,0.8545148,4.401843,7.0648823
39,-0.020700756460428238,1.5703177452087402,77.17910766601562,1.9021280448581372,3.686312254615218,-94.63376379830319,-6.8073854,5.320053,5.1070857,20.587662,-17.910246,-5.0883865,-7.5948005,-12.094292,-5.1634407,16.047495,-12.083305,11.930497,-0.2147282,-1.3942934,0.24798805,-0.6853371,19.022488,-38.944855,55.033863,-1.7505968,8.589767,-1.8450863,-8.071045,-20.091413,45.891357,59.609802,0.8430921,4.4029255,7.059971
40,-0.01685446873307228,1.5689330101013184,77.18085479736328,1.9004560958201566,3.6801913978702205,-94.63791006483922,-6.7951055,5.32022,5.1102643,20.581318,-17.91468,-5.0903406,-7.5898595,-12.095975,-5.1686378,16.049944,-12.08766,11.925552,-0.21646403,-1.3874007,0.24936293,-0.6798228,19.023905,-38.935204,55.03223,-1.7508467,8.593846,-1.8486236,-8.078624,-20.093021,45.890205,59.616547,0.83592296,4.405748,7.0590982
41,-0.01605844870209694,1.5691531896591187,77.17961120605469,1.9015864126976898,3.678746294860857,-94.6362280608736,-6.7943816,5.317203,5.110123,20.582108,-17.918648,-5.084201,-7.5881453,-12.099105,-5.1696515,16.050636,-12.08433,11.928535,-0.22487324,-1.3818244,0.24681301,-0.67025113,19.025919,-38.92517,55.028114,-1.7584523,8.591261,-1.8444737,-8.087333,-20.094955,45.88843,59.621147,0.8312393,4.4115434,7.0667605
42,-0.017044715583324432,1.5708627700805664,77.177978515625,1.9041854921406844,3.6803553644316236,-94.6313090153716,-6.7990193,5.3124647,5.107965,20.583864,-17.92113,-5.0734835,-7.5877395,-12.102596,-5.169089,16.048508,-12.0747175,11.9362545,-0.23372516,-1.379219,0.24024346,-0.6648284,19.02758,-38.922546,55.03098,-1.775591,8.583478,-1.8351634,-8.09567,-20.096254,45.887703,59.625088,0.8322506,4.4193854,7.078824
43,-0.014712156727910042,1.574506402015686,77.17955017089844,1.9072581086273155,3.6821483533936648,-94.6258060376261,-6.806001,5.3072743,5.105004,20.588541,-17.923124,-5.0633593,-7.5883064,-12.106219,-5.168166,16.047623,-12.064251,11.946207,-0.243473,-1.3768682,0.23380204,-0.65976536,19.028593,-38.92237,55.034603,-1.7954056,8.573047,-1.8256674,-8.102163,-20.096874,45.88627,59.62724,0.8315281,4.426672,7.0894876
44,-0.013836494646966457,1.5729628801345825,77.1809310913086,1.9098503234646889,3.681343941467549,-94.62194480418282,-6.8096027,5.302825,5.1023197,20.592014,-17.921862,-5.058854,-7.5872445,-12.109698,-5.1688986,16.047173,-12.056024,11.9565325,-0.24966662,-1.3734454,0.23249984,-0.65627325,19.031471,-38.926666,55.035275,-1.8144977,8.561375,-1.820391,-8.111921,-20.098341,45.88585,59.630478,0.83154905,4.430506,7.094021
45,-0.015309551730751991,1.5777744054794312,77.18372344970703,1.9118329772049436,3.676941025551486,-94.62030571109328,-6.8095365,5.2993517,5.098955,20.595943,-17.91594,-5.063038,-7.5855317,-12.112941,-5.1726565,16.05087,-12.051959,11.968011,-0.25556168,-1.3676403,0.23664461,-0.65444607,19.033327,-38.930706,55.035423,-1.8314921,8.546568,-1.8224499,-8.117893,-20.09908,45.885002,59.629387,0.82402515,4.430283,7.086051
46,-0.013826810754835606,1.5783485174179077,77.1839599609375,1.9136617721255123,3.670462482813985,-94.61948206901731,-6.8078623,5.296095,5.0947843,20.6004,-17.90629,-5.072753,-7.582893,-12.11619,-5.1783814,16.055904,-12.049137,11.981422,-0.2583767,-1.3616779,0.24571057,-0.6564018,19.034946,-38.93793,55.035385,-1.8487643,8.5286045,-1.8288091,-8.128306,-20.099722,45.886505,59.63104,0.8183497,4.427114,7.071328
47,-0.013302401639521122,1.579952597618103,77.18390655517578,1.9153006771932373,3.6629551947743506,-94.61991888395696,-6.8043203,5.293312,5.0920844,20.6042,-17.897139,-5.0832543,-7.5796423,-12.119362,-5.1830044,16.06065,-12.047491,11.994065,-0.25812176,-1.3551801,0.25565723,-0.6587985,19.040798,-38.957073,55.03277,-1.8714333,8.512025,-1.8345187,-8.135822,-20.101553,45.887558,59.629543,0.81502134,4.4220014,7.055231
48,-0.013881631195545197,1.5844686031341553,77.1826171875,1.9170398964331203,3.656539691006311,-94.62245919201838,-6.8005834,5.291038,5.0937076,20.607737,-17.893229,-5.08984,-7.5760994,-12.122057,-5.1832237,16.061413,-12.045859,12.003115,-0.2609368,-1.3512139,0.2627727,-0.6585989,19.041754,-38.961735,55.033493,-1.8761594,8.505488,-1.8404298,-8.143146,-20.101885,45.888577,59.62588,0.81157064,4.417873,7.0467167
49,-0.010538286529481411,1.5856842994689941,77.18025207519531,1.919152117930242,3.6486368652312287,-94.62772463227442,-6.792439,5.288903,5.102025,20.61016,-17.897583,-5.0908227,-7.569708,-12.125467,-5.1767187,16.058609,-12.046558,12.008229,-0.25732246,-1.3478656,0.27113312,-0.6591913,19.051865,-38.99229,55.02893,-1.8929888,8.508963,-1.8393773,-8.15087,-20.105389,45.890694,59.62123,0.8206715,4.4117126,7.0451484
50,-0.0064935884438455105,1.5895260572433472,77.17845153808594,1.9214178866295013,3.640803838265182,-94.63518552188108,-6.7824297,5.287232,5.1149592,20.611103,-17.906267,-5.08884,-7.5619164,-12.128996,-5.165818,16.051554,-12.048079,12.010474,-0.25861827,-1.3458784,0.27947214,-0.6583707,19.05866,-39.00985,55.02704,-1.8938694,8.521646,-1.8396362,-8.161812,-20.108105,45.895355,59.61463,0.8316876,4.4050813,7.0513616
51,-0.0030930216889828444,1.592186689376831,77.17698669433594,1.922950211584504,3.633740738668477,-94.64328131916639,-6.7733207,5.2863765,5.1283827,20.612547,-17.916283,-5.0857873,-7.5552235,-12.131417,-5.154158,16.044264,-12.048927,12.010434,-0.25992313,-1.3435102,0.28590357,-0.65568477,19.06569,-39.025772,55.02488,-1.8909228,8.535862,-1.8394452,-8.171054,-20.111147,45.900402,59.606647,0.842041,4.399194,7.057831
52,0.0006339918472804129,1.5941176414489746,77.17627716064453,1.923184061627174,3.6289699116872955,-94.65063243077198,-6.768568,5.28701,5.137932,20.615643,-17.92365,-5.0836906,-7.5531516,-12.131775,-5.145232,16.041874,-12.04814,12.0085125,-0.26269454,-1.3395253,0.28986886,-0.65383196,19.067743,-39.030666,55.02794,-1.8804597,8.5444,-1.8412863,-8.178169,-20.112091,45.902287,59.599224,0.8426689,4.3959785,7.060081
53,0.004393159411847591,1.5938364267349243,77.1769790649414,1.920690056306995,3.626575605475042,-94.65728135018627,-6.768697,5.2902875,5.141917,20.62047,-17.928093,-5.084044,-7.556458,-12.12832,-5.1410155,16.045767,-12.04389,12.004497,-0.26081368,-1.3332261,0.29090688,-0.64934605,19.073769,-39.038326,55.025753,-1.8696951,8.545868,-1.8417436,-8.183406,-20.114697,45.90689,59.590397,0.8438646,4.395807,7.055286
54,0.007879205048084259,1.5933090448379517,77.17752075195312,1.9164118773650247,3.626158765710743,-94.66387744373249,-6.77303,5.2955484,5.142616,20.628193,-17.932234,-5.0854836,-7.564206,-12.122565,-5.1393437,16.054914,-12.038151,11.998534,-0.25971988,-1.3252565,0.28949624,-0.6462873,19.075953,-39.03784,55.029236,-1.8500346,8.54315,-1.8428029,-8.185688,-20.115498,45.907455,59.580845,0.8346217,4.3980923,7.0469103
55,0.009717880748212337,1.599368691444397,77.17888641357422,1.912067550140347,3.627096106183069,-94.66955021233619,-6.780464,5.3010874,5.1425166,20.637701,-17.934942,-5.0858393,-7.574004,-12.116315,-5.1374335,16.064365,-12.032359,11.990495,-0.25837976,-1.3174605,0.28645748,-0.6431131,19.078836,-39.033863,55.033134,-1.8312223,8.538561,-1.8467481,-8.187603,-20.116419,45.908253,59.572197,0.8262868,4.4010983,7.038072
56,0.0067164357751607895,1.6057169437408447,77.1806869506836,1.9092265149202778,3.6288462020220345,-94.6736163031692,-6.788786,5.304679,5.1437674,20.645546,-17.9335,-5.0825353,-7.583863,-12.111876,-5.132245,16.070824,-12.028874,11.980185,-0.25969216,-1.3113047,0.28277764,-0.63710904,19.084967,-39.02216,55.033985,-1.817699,8.534259,-1.8569969,-8.189437,-20.11804,45.90987,59.564014,0.8222421,4.4033422,7.0319715
57,0.008460388518869877,1.6082855463027954,77.18223571777344,1.909033257999562,3.6325789397638286,-94.67443068864284,-6.801718,5.3055,5.1468267,20.655579,-17.926609,-5.072112,-7.5952673,-12.110311,-5.1216526,16.073507,-12.029346,11.964411,-0.257624,-1.3065836,0.27393973,-0.63551354,19.08741,-39.012196,55.04294,-1.8145509,8.531013,-1.8779811,-8.186801,-20.118427,45.90788,59.55956,0.82603127,4.4051533,7.029255
58,0.007490084506571293,1.6147871017456055,77.18229675292969,1.9103088406005315,3.6379762592399025,-94.67296377551615,-6.8185344,5.304766,5.150418,20.667732,-17.915787,-5.0567775,-7.608609,-12.110176,-5.107641,16.07491,-12.032823,11.94402,-0.2531275,-1.3031923,0.2620352,-0.63628894,19.088274,-39.00311,55.05586,-1.8180637,8.527929,-1.9064276,-8.18456,-20.11851,45.905865,59.560566,0.8369143,4.406913,7.0286436
59,0.003836538875475526,1.6200920343399048,77.18204498291016,1.9120155520625894,3.643040191485511,-94.67191351266713,-6.8341217,5.3037095,5.154677,20.678196,-17.905148,-5.0428653,-7.621451,-12.110431,-5.0935826,16.07539,-12.035891,11.926312,-0.2567869,-1.3004023,0.2530269,-0.6336789,19.090612,-38.974777,55.065884,-1.8170029,8.523143,-1.9353927,-8.181975,-20.118395,45.901745,59.556957,0.839372,4.4080653,7.0292025
60,0.004617003723978996,1.6231062412261963,77.18496704101562,1.9128730738402864,3.6446120634194283,-94.673695817665,-6.840667,5.3032775,5.159141,20.680964,-17.898151,-5.0366335,-7.62901,-12.110145,-5.0835304,16.074675,-12.03546,11.918381,-0.2556869,-1.2966486,0.24531594,-0.6325743,19.09143,-38.96557,55.074547,-1.8296835,8.517539,-1.942552,-8.181246,-20.118185,45.901485,59.55743,0.8458567,4.4071813,7.0265336
61,0.0071281022392213345,1.6292723417282104,77.18161010742188,1.9126209096197966,3.6415238166804595,-94.68031492386478,-6.8335867,5.3036866,5.1645126,20.67161,-17.896812,-5.043426,-7.627847,-12.108498,-5.0796213,16.069384,-12.028157,11.926574,-0.2586104,-1.2922722,0.2416497,-0.6282856,19.092073,-38.960068,55.0792,-1.8526757,8.510396,-1.9218322,-8.179284,-20.117838,45.89987,59.55577,0.83859104,4.404106,7.0199113
62,0.008881982415914536,1.632544755935669,77.18152618408203,1.912089798522665,3.635167924466081,-94.68974514133114,-6.817202,5.304527,5.170716,20.65373,-17.898785,-5.058722,-7.6215253,-12.106636,-5.079211,16.061724,-12.017075,11.94568,-0.26264912,-1.2880136,0.24164744,-0.6210264,19.093285,-38.95658,55.078804,-1.8821665,8.502241,-1.8824028,-8.178499,-20.11706,45.898136,59.55329,0.8260545,4.3993487,7.011872
63,0.010201701894402504,1.6380631923675537,77.18082427978516,1.9114740385570472,3.6279801046092635,-94.69961635487054,-6.7996063,5.3050394,5.176243,20.634987,-17.901167,-5.0734544,-7.614611,-12.104637,-5.0793633,16.055027,-12.006092,11.965028,-0.26672593,-1.2836683,0.24219246,-0.61495924,19.094818,-38.95751,55.077496,-1.9152861,8.492532,-1.8395733,-8.175672,-20.115969,45.895138,59.550365,0.813014,4.3936553,7.002641
64,0.012297612614929676,1.6388002634048462,77.17891693115234,1.9116580773809102,3.62215880700948,-94.70740550670176,-6.7910166,5.305405,5.181027,20.628311,-17.903492,-5.079681,-7.6130795,-12.103473,-5.077063,16.054508,-12.000143,11.974234,-0.26788905,-1.2800925,0.24328561,-0.6143658,19.096634,-38.96222,55.076164,-1.9441593,8.480834,-1.8093072,-8.17491,-20.114815,45.894356,59.549423,0.81291145,4.3874087,6.994764
65,0.016018379479646683,1.640602946281433,77.18153381347656,1.912646714235531,3.6182510185877685,-94.71246567023103,-6.792064,5.304532,5.183432,20.632185,-17.902525,-5.0704417,-7.6189713,-12.103061,-5.0701704,16.061708,-12.001381,11.966407,-0.27169994,-1.2748381,0.24425279,-0.61745316,19.098358,-38.967026,55.07295,-1.970728,8.464911,-1.7960169,-8.171974,-20.113773,45.893658,59.545975,0.81976986,4.3800874,6.986143
66,0.022048866376280785,1.6442114114761353,77.18256378173828,1.9144514458577186,3.6152638660175738,-94.71647074252891,-6.8003607,5.30311,5.1853647,20.646149,-17.901972,-5.0525584,-7.630681,-12.10343,-5.0604534,16.07676,-12.008583,11.94874,-0.27203637,-1.2713529,0.24540237,-0.62597626,19.101866,-38.980278,55.069183,-2.000418,8.445233,-1.7900299,-8.171074,-20.112131,45.896244,59.545662,0.83988374,4.370785,6.975833
67,0.020245548337697983,1.6511030197143555,77.18330383300781,1.9162165517787524,3.6123564169597087,-94.71886992192209,-6.810166,5.3016057,5.186171,20.6612,-17.90012,-5.0341797,-7.6416974,-12.10387,-5.051557,16.090374,-12.014863,11.930711,-0.27613977,-1.2662472,0.24771045,-0.633963,19.104208,-38.986683,55.0645,-2.0202916,8.427083,-1.7906431,-8.1686945,-20.11111,45.897438,59.542088,0.85768247,4.363272,6.9698625
68,0.014922902919352055,1.6614880561828613,77.1846923828125,1.9178206871969938,3.6092061969856006,-94.71979757068563,-6.8181047,5.300519,5.1866717,20.672987,-17.897799,-5.0243306,-7.648675,-12.104659,-5.046241,16.098377,-12.015731,11.922297,-0.27463794,-1.265174,0.24910432,-0.64397377,19.11021,-38.99787,55.063087,-2.0320766,8.414691,-1.7937158,-8.165695,-20.108679,45.89935,59.54003,0.88228476,4.3589907,6.970487
69,0.011231372132897377,1.6668004989624023,77.18485260009766,1.9197669857284592,3.6057988035735953,-94.71791345645859,-6.8229704,5.299345,5.186806,20.6784,-17.8934,-5.027008,-7.648605,-12.106486,-5.0469937,16.096165,-12.007656,11.930074,-0.27515566,-1.2639494,0.24942708,-0.6494925,19.111977,-38.9948,55.065407,-2.017303,8.410501,-1.802157,-8.159255,-20.107862,45.89693,59.53502,0.9022548,4.36071,6.9837813
70,0.009007131680846214,1.6729395389556885,77.1847915649414,1.9217472523248347,3.6023454263121506,-94.71365915099948,-6.8284183,5.29854,5.1862516,20.683914,-17.889269,-5.03724,-7.6449757,-12.108796,-5.0516744,16.089195,-11.9947195,11.947447,-0.27328137,-1.2652155,0.25042924,-0.65753126,19.113552,-38.986553,55.072582,-1.9845562,8.411283,-1.817531,-8.153132,-20.107119,45.893898,59.528778,0.92815584,4.366144,7.0063863
71,0.008131904527544975,1.6805237531661987,77.1856689453125,1.9230982139472237,3.598245205014801,-94.7094780652157,-6.8327465,5.298436,5.18542,20.688705,-17.885153,-5.0493727,-7.640646,-12.110369,-5.05653,16.082043,-11.981827,11.964408,-0.27970257,-1.2670982,0.25796923,-0.66223407,19.119596,-38.959,55.073364,-1.9407021,8.414745,-1.8373101,-8.150154,-20.104366,45.888855,59.518974,0.9419404,4.373269,7.0317836
72,0.00944475643336773,1.6900498867034912,77.1842269897461,1.9228550899048464,3.5929956095435123,-94.70715801214695,-6.835948,5.2998724,5.184462,20.693808,-17.881912,-5.058033,-7.639905,-12.109517,-5.0578346,16.081978,-11.975225,11.970747,-0.28427193,-1.2640945,0.263942,-0.6694424,19.121813,-38.952526,55.07445,-1.9206711,8.41864,-1.84721,-8.149785,-20.103474,45.89072,59.516674,0.95190483,4.378684,7.0503626
73,0.011683455668389797,1.6996957063674927,77.18390655517578,1.9201886285959031,3.585767052990647,-94.70820772864907,-6.838041,5.303855,5.1833224,20.70219,-17.882063,-5.0620065,-7.64464,-12.104845,-5.0523515,16.093027,-11.978971,11.959925,-0.29274097,-1.2564662,0.27381325,-0.67920583,19.123566,-38.95433,55.072487,-1.9253485,8.42286,-1.8478897,-8.151896,-20.102942,45.895073,59.515778,0.9418905,4.3837423,7.0611095
74,0.011258897371590137,1.7064156532287598,77.1823959350586,1.9155647051043736,3.576887089778509,-94.71118999587574,-6.840133,5.31041,5.1825814,20.715117,-17.885683,-5.0648627,-7.6530976,-12.097504,-5.043099,16.112371,-11.9900055,11.938673,-0.3007794,-1.2480271,0.2854082,-0.69304425,19.1328,-38.977654,55.06665,-1.9599707,8.429194,-1.8405211,-8.162628,-20.10066,45.914776,59.522854,0.9353872,4.3893156,7.0659018
75,0.012716863304376602,1.7146440744400024,77.1820068359375,1.9105673073054081,3.5682140602923944,-94.71431068286111,-6.842175,5.3170695,5.181136,20.726648,-17.88827,-5.0660725,-7.66047,-12.0896635,-5.0348854,16.128986,-11.9992,11.916684,-0.30969647,-1.2377447,0.2973217,-0.7060787,19.13854,-38.997913,55.061546,-1.9887552,8.435418,-1.8328146,-8.167423,-20.099447,45.9238,59.528324,0.915933,4.39229,7.0692506
76,0.013666767627000809,1.7234405279159546,77.18299865722656,1.9064082402639706,3.561321068805412,-94.71580080941834,-6.8465576,5.322303,5.178888,20.737896,-17.889177,-5.06624,-7.664574,-12.084119,-5.0325394,16.137243,-12.000489,11.90395,-0.3171893,-1.2284145,0.30707073,-0.7191503,19.143639,-39.017643,55.059177,-2.0045485,8.440236,-1.8284714,-8.169928,-20.098537,45.9305,59.53769,0.90745,4.3892956,7.0713468
77,0.014318096451461315,1.7301002740859985,77.18452453613281,1.903402985453146,3.556939707168551,-94.7154128424761,-6.854244,5.326007,5.1755476,20.748854,-17.887297,-5.0645037,-7.662185,-12.081238,-5.0394826,16.130365,-11.98833,11.904719,-0.32407898,-1.2195625,0.31394243,-0.731261,19.147047,-39.034077,55.060017,-1.9992678,8.444118,-1.8312695,-8.169728,-20.098003,45.934486,59.553795,0.9175076,4.375645,7.070528
78,0.0172414593398571,1.7368638515472412,77.1846923828125,1.9007930870708099,3.553984334495766,-94.71368461550384,-6.8637795,5.328777,5.171147,20.759346,-17.883572,-5.060946,-7.6552167,-12.079939,-5.0527797,16.1133,-11.967654,11.9131775,-0.3278317,-1.2122393,0.3172995,-0.7442586,19.154772,-39.061764,55.06244,-1.988274,8.447234,-1.8371102,-8.162825,-20.0966,45.932983,59.574066,0.935446,4.3545523,7.066082
79,0.017854265868663788,1.7446796894073486,77.18760681152344,1.8986150277155032,3.551960611751994,-94.71145040306189,-6.8743253,5.3310194,5.1667037,20.769056,-17.879168,-5.05765,-7.648517,-12.079295,-5.066607,16.094624,-11.94507,11.923796,-0.33202624,-1.2057222,0.32144502,-0.75473297,19.161034,-39.080086,55.063694,-1.9698834,8.449343,-1.8414752,-8.158006,-20.095585,45.92985,59.595387,0.95195574,4.333644,7.0628257
80,0.01566927134990692,1.7529652118682861,77.1878890991211,1.8967989996337764,3.550492586626983,-94.70942866015265,-6.884094,5.332926,5.162815,20.775837,-17.874264,-5.0564656,-7.646375,-12.077893,-5.0757723,16.082003,-11.927281,11.930786,-0.33660367,-1.1997117,0.32502478,-0.761953,19.165245,-39.09191,55.062786,-1.9607913,8.449246,-1.8367262,-8.15254,-20.094976,45.92582,59.611298,0.95489883,4.3206954,7.063559
81,0.015879232436418533,1.7602636814117432,77.18714141845703,1.895336682506192,3.5499521322322063,-94.70716930691054,-6.8922644,5.3343396,5.1592784,20.776798,-17.867788,-5.0586476,-7.6503177,-12.075677,-5.078783,16.077335,-11.9152975,11.933635,-0.33818206,-1.1959002,0.3278991,-0.76454,19.16904,-39.09896,55.057495,-1.9644293,8.446954,-1.8148506,-8.148564,-20.094557,45.921284,59.622295,0.9434908,4.319174,7.0710983
82,0.015473064966499805,1.7704484462738037,77.18827819824219,1.894429806124227,3.550352013122282,-94.70458866116252,-6.899877,5.335033,5.1558685,20.773977,-17.860119,-5.0627866,-7.657733,-12.073096,-5.0784836,16.07639,-11.905841,11.935012,-0.3406679,-1.1928498,0.32911968,-0.7631798,19.170666,-39.098946,55.05121,-1.9747056,8.442627,-1.7819235,-8.144288,-20.09444,45.917683,59.630173,0.9215992,4.324548,7.0822697
83,0.015345138497650623,1.7807469367980957,77.18831634521484,1.8936890552702326,3.5508980771377474,-94.70227124913518,-6.907761,5.335658,5.1531434,20.77117,-17.852726,-5.067433,-7.667412,-12.070623,-5.0762177,16.078571,-11.899118,11.934271,-0.34316003,-1.1899118,0.3303436,-0.7604807,19.17225,-39.09663,55.04373,-1.9873258,8.436336,-1.7504089,-8.14044,-20.094427,45.913197,59.63644,0.89482963,4.332175,7.093654
84,0.014498865231871605,1.788856029510498,77.18858337402344,1.893311731966955,3.5503396744711355,-94.70065654459819,-6.9133472,5.336234,5.1519938,20.766119,-17.844572,-5.070726,-7.67464,-12.068273,-5.0737233,16.077131,-11.89237,11.930576,-0.34526876,-1.1869981,0.3323422,-0.76037556,19.173592,-39.09357,55.03919,-1.9951929,8.42757,-1.7351855,-8.137663,-20.094568,45.909122,59.643864,0.87122124,4.3375373,7.1001945
85,0.010423673316836357,1.799118161201477,77.19043731689453,1.8929870045963482,3.547912376399165,-94.69985212288408,-6.916866,5.3370996,5.1530147,20.760563,-17.836555,-5.072813,-7.680505,-12.066027,-5.0698485,16.076075,-11.889626,11.920902,-0.34628874,-1.1836383,0.33686247,-0.7665623,19.176342,-39.091866,55.038387,-1.9992658,8.414044,-1.7445706,-8.138242,-20.095188,45.90748,59.65231,0.8541406,4.339224,7.0999227
86,0.009888086467981339,1.8097410202026367,77.19102478027344,1.893029736340992,3.5440008455311607,-94.69955718778398,-6.9171915,5.33801,5.1559253,20.751562,-17.827461,-5.0744653,-7.685635,-12.06371,-5.064194,16.075338,-11.8896475,11.9065075,-0.34683487,-1.1803539,0.34234175,-0.7764705,19.18015,-39.09146,55.04101,-2.0039723,8.395618,-1.7700387,-8.139936,-20.096474,45.909035,59.661125,0.839573,4.3395967,7.0941553
87,0.009332187473773956,1.8205835819244385,77.19226837158203,1.8935272322071948,3.540729715314995,-94.70009988230532,-6.918636,5.3384776,5.159132,20.743532,-17.818445,-5.074712,-7.690622,-12.061978,-5.059217,16.072317,-11.888161,11.893484,-0.34759712,-1.1773508,0.346061,-0.7858093,19.183706,-39.091713,55.04473,-2.0079982,8.378539,-1.7978573,-8.140416,-20.097918,45.911224,59.668938,0.827318,4.3398757,7.0870447
88,0.015247462317347527,1.8296254873275757,77.19341278076172,1.8951387604386296,3.5395738379981965,-94.70173259663811,-6.9229174,5.337245,5.1612124,20.736845,-17.809002,-5.0722895,-7.69657,-12.061935,-5.05679,16.066858,-11.882043,11.887621,-0.34797165,-1.1763705,0.34910154,-0.79207927,19.187437,-39.09075,55.044945,-2.009128,8.368175,-1.8161863,-8.1398945,-20.099688,45.912,59.673077,0.8193296,4.3413153,7.0817347
89,0.017280464991927147,1.8403762578964233,77.1953353881836,1.8987804790775313,3.5420435411604716,-94.70485476605556,-6.9333477,5.3338084,5.1616087,20.73489,-17.800167,-5.066961,-7.703292,-12.065256,-5.060604,16.055655,-11.867863,11.894552,-0.34594035,-1.1791447,0.34846464,-0.79666173,19.189508,-39.0895,55.04573,-2.005663,8.367358,-1.8191215,-8.140548,-20.100815,45.91204,59.67861,0.8194183,4.3440895,7.0797625
90,0.01906520500779152,1.8470953702926636,77.19602966308594,1.9036119409311811,3.547424667001934,-94.70919663747436,-6.9475393,5.328466,5.160579,20.734423,-17.791048,-5.0588593,-7.711121,-12.070622,-5.0684395,16.04061,-11.848381,11.909618,-0.34348533,-1.1842306,0.3460613,-0.80014396,19.191025,-39.086315,55.045303,-1.9984752,8.372838,-1.8156321,-8.138966,-20.101692,45.910065,59.679108,0.823156,4.3482294,7.0782704
91,0.01984354667365551,1.8576138019561768,77.19771575927734,1.9083706583608064,3.552541588844527,-94.71427524263066,-6.9618845,5.323425,5.160298,20.735346,-17.78214,-5.0496397,-7.719101,-12.075536,-5.074054,16.025421,-11.828141,11.924059,-0.3411191,-1.1896492,0.34655118,-0.8023129,19.194563,-39.079594,55.04246,-1.9870088,8.379444,-1.8118616,-8.138903,-20.104013,45.90503,59.678814,0.8264853,4.3515506,7.078838
92,0.016835208982229233,1.8697692155838013,77.19806671142578,1.911132716452638,3.5539874058855667,-94.71930574313839,-6.9739804,5.32097,5.1628127,20.740229,-17.77528,-5.0412774,-7.7283006,-12.077379,-5.0710225,16.01815,-11.813905,11.929186,-0.3387479,-1.1912419,0.34861085,-0.8043392,19.19588,-39.078793,55.043186,-1.9782374,8.381846,-1.8116301,-8.141868,-20.10505,45.904587,59.685127,0.83187544,4.3528776,7.0797467
93,0.018530169501900673,1.8804494142532349,77.19697570800781,1.9106518780980257,3.552721987569395,-94.72527457257635,-6.9848576,5.3230243,5.1699495,20.7505,-17.771091,-5.032499,-7.740344,-12.0734,-5.053599,16.018131,-11.806024,11.9191675,-0.33758262,-1.1857731,0.35626164,-0.80769306,19.197384,-39.079872,55.043156,-1.9702734,8.377516,-1.8197405,-8.151094,-20.106445,45.904858,59.69788,0.83301115,4.350378,7.083134
94,0.01926504820585251,1.8893154859542847,77.19654083251953,1.9083229895551597,3.548398702715565,-94.73185944775476,-6.9937844,5.327327,5.1800647,20.76459,-17.768759,-5.0229335,-7.7535644,-12.066087,-5.0267563,16.02437,-11.80297,11.90015,-0.3363389,-1.1760694,0.36787993,-0.8098594,19.200232,-39.085007,55.041748,-1.9644624,8.368832,-1.8311414,-8.1632805,-20.109625,45.906498,59.71365,0.8332933,4.3453712,7.088036
95,0.018320508301258087,1.9008395671844482,77.19786071777344,1.9058813910687775,3.5431181536908873,-94.73809457150767,-7.001491,5.332314,5.190363,20.77792,-17.765903,-5.0151906,-7.7664933,-12.058463,-4.9994655,16.031668,-11.800393,11.8798895,-0.3352662,-1.1666093,0.37979373,-0.8113962,19.203032,-39.09128,55.04182,-1.9576288,8.360707,-1.8434553,-8.174638,-20.11326,45.908714,59.729046,0.83754027,4.3399353,7.0929694
96,0.022187478840351105,1.9146246910095215,77.19844818115234,1.9045768525079625,3.53857911972688,-94.74340784256941,-7.0088763,5.33572,5.198193,20.787058,-17.760824,-5.0118484,-7.778656,-12.0531025,-4.9804463,16.038387,-11.796068,11.866075,-0.33405238,-1.1603947,0.3920785,-0.8144069,19.20818,-39.100388,55.041245,-1.9545959,8.357113,-1.8537875,-8.182779,-20.120468,45.911186,59.736454,0.8531699,4.335467,7.0970526
97,0.0183072779327631,1.9300484657287598,77.2010269165039,1.905917311451214,3.5351494779161645,-94.74659297990075,-7.014986,5.3362937,5.2024317,20.78792,-17.75088,-5.015083,-7.789604,-12.052,-4.9719253,16.043325,-11.7888565,11.86202,-0.33505976,-1.1611785,0.4006478,-0.817285,19.20888,-39.101456,55.048504,-1.9436706,8.360564,-1.8633541,-8.187727,-20.121439,45.912205,59.74252,0.8799931,4.3325725,7.098715
98,0.0178151186555624,1.941634178161621,77.20165252685547,1.9091389998401016,3.532707104095535,-94.7494307254146,-7.020761,5.334987,5.205872,20.784216,-17.738043,-5.0228987,-7.802146,-12.053673,-4.9676576,16.050047,-11.780932,11.863281,-0.337134,-1.1651975,0.41363907,-0.8276316,19.21346,-39.101433,55.058582,-1.9340892,8.367042,-1.877653,-8.198113,-20.127604,45.919098,59.745705,0.9295142,4.327193,7.1000857
99,0.018641026690602303,1.9529376029968262,77.20320129394531,1.9112438298834502,3.529758268226361,-94.75172965172746,-7.025848,5.3348823,5.207154,20.779936,-17.725533,-5.0320864,-7.8118706,-12.054543,-4.9695983,16.05416,-11.771492,11.865743,-0.33986646,-1.1695063,0.423446,-0.832558,19.215796,-39.10123,55.06828,-1.92136,8.375297,-1.885826,-8.205434,-20.130514,45.92294,59.748783,0.96940815,4.3254576,7.1017685
100,0.018026674166321754,1.9634557962417603,77.20352172851562,1.911998067946611,3.5255753065946,-94.75508472212218,-7.028604,5.336521,5.207486,20.775106,-17.714827,-5.0388207,-7.8191276,-12.053255,-4.9760866,16.057426,-11.762492,11.865739,-0.34460312,-1.1721741,0.43763307,-0.83753514,19.218828,-39.101036,55.073795,-1.9085135,8.381566,-1.8879882,-8.217006,-20.133987,45.93027,59.747375,1.0002607,4.328257,7.105054
101,0.015158490277826786,1.9728565216064453,77.20501708984375,1.9090636499732623,3.5194517451704153,-94.75952832489743,-7.0297246,5.3426275,5.206068,20.773176,-17.70801,-5.042752,-7.821428,-12.047969,-4.992618,16.057938,-11.753211,11.862164,-0.35018128,-1.1710403,0.45176193,-0.8354464,19.222221,-39.103344,55.072613,-1.8911601,8.383768,-1.8781228,-8.227159,-20.13754,45.934944,59.74207,1.0040464,4.3392863,7.1116834
102,0.015291105955839157,1.9830796718597412,77.20391082763672,1.9040036942372502,3.5118481512323623,-94.76442593206633,-7.0293355,5.3511634,5.2021065,20.772545,-17.70398,-5.0449953,-7.8204637,-12.04013,-5.0173173,16.05737,-11.7439575,11.856759,-0.35643074,-1.1677244,0.46816024,-0.83071095,19.225311,-39.10826,55.06688,-1.8721257,8.384537,-1.8590755,-8.23786,-20.140398,45.93764,59.732407,0.9932079,4.356873,7.120177
103,0.012499813921749592,1.9941565990447998,77.20718383789062,1.898143078374205,3.50452933639141,-94.76987917017011,-7.028688,5.3607593,5.198689,20.771328,-17.700089,-5.0471864,-7.818447,-12.031048,-5.0412426,16.053951,-11.733687,11.850818,-0.3605094,-1.1639566,0.48378888,-0.8245914,19.231958,-39.119225,55.056805,-1.8591748,8.38645,-1.8374747,-8.247496,-20.145905,45.939606,59.7209,0.9776989,4.374087,7.12928
104,0.010809410363435745,2.0039947032928467,77.20838928222656,1.8932031802550007,3.4993901641733665,-94.7760981968827,-7.0303426,5.3699265,5.198423,20.770233,-17.695148,-5.0507793,-7.8203816,-12.022042,-5.054941,16.051117,-11.724092,11.84537,-0.3639622,-1.1607664,0.49608755,-0.8216635,19.237385,-39.128933,55.05175,-1.8529079,8.391816,-1.8214282,-8.253636,-20.149958,45.939507,59.709362,0.96151674,4.3850384,7.1367936
105,0.00978030078113079,2.015500783920288,77.20645904541016,1.8896965466551614,3.496763624573612,-94.78307737933162,-7.0344124,5.3781266,5.202507,20.768713,-17.688812,-5.057393,-7.827093,-12.013529,-5.054673,16.048708,-11.715824,11.840509,-0.36614624,-1.1581844,0.5047563,-0.82652056,19.242735,-39.14323,55.054737,-1.8627572,8.402281,-1.8127323,-8.262962,-20.15363,45.94503,59.705338,0.9515063,4.3858066,7.143356
106,0.006824469193816185,2.0261423587799072,77.20616912841797,1.8865529680094397,3.4957650674499554,-94.79074639458035,-7.0396833,5.386172,5.2093043,20.766357,-17.68167,-5.0659094,-7.836416,-12.004812,-5.045978,16.046276,-11.708487,11.835888,-0.36853084,-1.1554732,0.5094506,-0.8329026,19.24991,-39.16222,55.060005,-1.8847978,8.416153,-1.8069174,-8.271501,-20.158165,45.95313,59.704613,0.9396415,4.3804393,7.149064
107,0.005112985614687204,2.0368292331695557,77.20877075195312,1.8834295518761914,3.4961228981808894,-94.7989360407661,-7.0475464,5.3947487,5.217336,20.76651,-17.674858,-5.0733304,-7.8477087,-11.995342,-5.03302,16.043154,-11.700187,11.83135,-0.3681316,-1.1531893,0.51247835,-0.83919585,19.257288,-39.181232,55.06453,-1.9085311,8.431452,-1.8016958,-8.278791,-20.162542,45.96269,59.701286,0.9357591,4.3741107,7.1525645
108,0.003657403402030468,2.0500755310058594,77.20987701416016,1.8800962923129128,3.497505771349501,-94.80731969840771,-7.059607,5.4039874,5.2247624,20.77258,-17.6691,-5.076595,-7.8594494,-11.984998,-5.020427,16.038225,-11.689206,11.827011,-0.36642212,-1.1520666,0.5146512,-0.84334886,19.264742,-39.191914,55.06899,-1.9201456,8.443692,-1.7967525,-8.286717,-20.167038,45.96905,59.696724,0.9381007,4.370548,7.15417
109,0.00130564218852669,2.0602943897247314,77.21000671386719,1.87600378224378,3.5005260581493354,-94.81572075367811,-7.0781937,5.4145446,5.231443,20.787766,-17.664698,-5.073132,-7.8716397,-11.973,-5.007796,16.02966,-11.673057,11.822908,-0.36210215,-1.1512055,0.51460344,-0.8437996,19.266638,-39.191387,55.07415,-1.9147873,8.453033,-1.7874959,-8.2911625,-20.16823,45.969025,59.686443,0.9503779,4.372552,7.152779
110,-0.00010817377915373072,2.0742359161376953,77.21229553222656,1.8711246274446587,3.505406312880592,-94.82442213178301,-7.1025467,5.4266586,5.2377853,20.810122,-17.661379,-5.0649095,-7.8854814,-11.958943,-4.993175,16.019022,-11.653434,11.818813,-0.35734084,-1.151028,0.5147758,-0.840091,19.272152,-39.17926,55.074173,-1.8984321,8.460862,-1.7776098,-8.293596,-20.172205,45.963814,59.667995,0.968259,4.377379,7.149992
111,-0.003302990924566984,2.086167335510254,77.21562194824219,1.866687358119932,3.5102615048581716,-94.83356085192183,-7.127454,5.4386983,5.244602,20.834208,-17.659224,-5.056912,-7.89911,-11.945397,-4.9792514,16.00784,-11.633879,11.815142,-0.35155,-1.1511681,0.51419675,-0.83764964,19.27521,-39.167244,55.07666,-1.8799883,8.467559,-1.7713717,-8.296924,-20.174704,45.959476,59.651535,0.98822755,4.382039,7.144963
112,-0.007740644738078117,2.0948872566223145,77.21562194824219,1.863092918827896,3.5135440836263534,-94.84349653911887,-7.145683,5.4488826,5.2507443,20.848885,-17.655216,-5.052516,-7.910963,-11.933478,-4.9683504,15.996709,-11.6172695,11.8120985,-0.35057333,-1.1511347,0.51766896,-0.83530277,19.2819,-39.15108,55.07473,-1.8621775,8.473542,-1.7765583,-8.30449,-20.180538,45.95961,59.63627,1.0001824,4.3844805,7.138856
113,-0.010840133763849735,2.1059181690216064,77.21612548828125,1.860941099705445,3.5147394540646717,-94.85392336948466,-7.1547003,5.4562693,5.25554,20.85077,-17.64869,-5.053668,-7.9186153,-11.9242735,-4.963483,15.982952,-11.603708,11.810033,-0.3494047,-1.1506065,0.5198348,-0.8391228,19.285896,-39.147713,55.079277,-1.8529071,8.480386,-1.7957348,-8.311006,-20.183704,45.963448,59.627296,1.0013129,4.383824,7.1272216
114,-0.013443561270833015,2.1170613765716553,77.21720123291016,1.8598878742001708,3.5147852782022273,-94.86477979740219,-7.158165,5.461552,5.2594204,20.844658,-17.640347,-5.057896,-7.9248915,-11.917214,-4.9623246,15.969401,-11.593034,11.808952,-0.3482067,-1.1508486,0.5211969,-0.84520924,19.288734,-39.149,55.08688,-1.8446344,8.487225,-1.8241442,-8.318713,-20.185738,45.968067,59.624237,0.9940764,4.381107,7.112676
115,-0.01631215773522854,2.127692699432373,77.2171401977539,1.8585507122077203,3.5142130799330413,-94.8767469554711,-7.159964,5.467598,5.2642555,20.836994,-17.632572,-5.063346,-7.930305,-11.909418,-4.960511,15.954551,-11.582092,11.807576,-0.34718,-1.1504066,0.5247056,-0.8569887,19.291883,-39.152622,55.096703,-1.8425211,8.4917,-1.8564585,-8.328785,-20.187801,45.975624,59.623013,0.98949593,4.377557,7.097142
116,-0.017318811267614365,2.1388909816741943,77.21815490722656,1.8564090205991084,3.5138972654435467,-94.88999662199662,-7.16356,5.475466,5.2716584,20.832657,-17.626528,-5.0679445,-7.9387627,-11.900144,-4.953357,15.943843,-11.57141,11.805243,-0.34516823,-1.1503725,0.5280948,-0.86459607,19.297256,-39.156075,55.10287,-1.8424284,8.491627,-1.8773457,-8.338864,-20.191097,45.982746,59.622276,0.9894566,4.374066,7.088205
117,-0.01717848889529705,2.1492855548858643,77.21739959716797,1.8524521254757387,3.513272983769185,-94.90581625775332,-7.1684046,5.486913,5.2833085,20.831902,-17.623215,-5.0714006,-7.94983,-11.8877,-4.9382076,15.93617,-11.559861,11.801784,-0.3416567,-1.1490772,0.534436,-0.8710992,19.302021,-39.157196,55.106297,-1.8475819,8.484521,-1.8843015,-8.350069,-20.193838,45.985695,59.621662,0.99393624,4.3710365,7.0876384
118,-0.019188961014151573,2.158277988433838,77.21759796142578,1.8477155866651271,3.51235367394431,-94.92361753765647,-7.173532,5.500439,5.297819,20.833,-17.62196,-5.0747185,-7.962242,-11.873497,-4.9180923,15.930053,-11.548088,11.79775,-0.337133,-1.1478215,0.54375607,-0.87664413,19.308878,-39.15745,55.105793,-1.8568238,8.472283,-1.8837539,-8.363027,-20.197557,45.98624,59.620964,1.0005218,4.3677416,7.093656
119,-0.023030322045087814,2.1732606887817383,77.218505859375,1.8426914177382165,3.5117259966514647,-94.94111384200077,-7.1799183,5.5143075,5.312703,20.835484,-17.62035,-5.077786,-7.9759274,-11.858935,-4.8968496,15.925654,-11.536152,11.792796,-0.33281255,-1.1469595,0.55386335,-0.87952024,19.317453,-39.15523,55.10036,-1.8638458,8.459738,-1.8810568,-8.372029,-20.201845,45.98092,59.61661,1.0040671,4.3647413,7.1008835
120,-0.024660278111696243,2.19071626663208,77.21817779541016,1.8388279271207606,3.512265653029983,-94.95614426029046,-7.189269,5.5266733,5.325332,20.840168,-17.616022,-5.0806303,-7.989661,-11.845709,-4.8785467,15.920494,-11.523326,11.786561,-0.32908127,-1.1475654,0.56167537,-0.8847756,19.324594,-39.153103,55.09941,-1.8656058,8.449398,-1.8823444,-8.381206,-20.205248,45.976486,59.61547,1.0109539,4.360806,7.1049643
121,-0.0262314360588789,2.2024645805358887,77.22086334228516,1.8364306548208031,3.514655927339718,-94.9674274347378,-7.2030983,5.536687,5.334988,20.848032,-17.607393,-5.083049,-8.003824,-11.834606,-4.8645334,15.9144335,-11.50886,11.778264,-0.3280708,-1.1495832,0.5652213,-0.8875776,19.328785,-39.147606,55.098965,-1.858063,8.442643,-1.8903128,-8.384287,-20.207119,45.969383,59.61324,1.0170661,4.3569098,7.102119
122,-0.03221050277352333,2.214478015899658,77.22286224365234,1.8350256544973769,3.5184232359074232,-94.97634873282037,-7.22051,5.5454273,5.3429294,20.858984,-17.596249,-5.0851116,-8.018785,-11.824704,-4.852673,15.908374,-11.493413,11.768276,-0.32839805,-1.1534635,0.5691818,-0.8893028,19.336967,-39.13566,55.095596,-1.8418206,8.436677,-1.9035542,-8.382245,-20.210257,45.954147,59.60568,1.0201339,4.35229,7.097154
123,-0.03725544735789299,2.2283685207366943,77.22379302978516,1.8336001085879714,3.5220213855376263,-94.98467312004192,-7.2381516,5.55424,5.350111,20.870375,-17.584986,-5.0870857,-8.033617,-11.81453,-4.841403,15.903032,-11.478298,11.758276,-0.329653,-1.1568468,0.57269245,-0.8917142,19.341797,-39.127434,55.09294,-1.8278482,8.433465,-1.9141307,-8.382607,-20.21195,45.944115,59.601135,1.0262,4.3476667,7.092667
124,-0.04015887528657913,2.2380337715148926,77.22628784179688,1.8308781532939629,3.524138419668616,-94.99389536621948,-7.2521586,5.5640936,5.357028,20.877138,-17.574732,-5.0890093,-8.047026,-11.8025875,-4.8294,15.89708,-11.4637,11.74973,-0.33266175,-1.1593986,0.57909685,-0.89674497,19.346989,-39.12252,55.09162,-1.8216472,8.43157,-1.9192555,-8.38721,-20.21365,45.93577,59.598713,1.0274372,4.3414207,7.0951195
125,-0.047609880566596985,2.2510409355163574,77.22688293457031,1.827177739217925,3.523706602621713,-95.00403105624183,-7.262118,5.5751123,5.3645096,20.881351,-17.56888,-5.091017,-8.058309,-11.789281,-4.815854,15.89206,-11.45156,11.745031,-0.33772805,-1.1606668,0.5876227,-0.90252334,19.349886,-39.12383,55.090607,-1.8267304,8.432663,-1.915225,-8.396121,-20.214619,45.9344,59.597366,1.0291578,4.3342113,7.107272
126,-0.050052348524332047,2.2648065090179443,77.22651672363281,1.8218689499976344,3.521915596562354,-95.01545861859267,-7.2694373,5.5879536,5.3720393,20.883272,-17.565203,-5.0926514,-8.067859,-11.773383,-4.8006787,15.886,-11.439794,11.741936,-0.3402995,-1.1619736,0.6058404,-0.9137143,19.359972,-39.13519,55.081802,-1.847183,8.436406,-1.9038306,-8.415357,-20.218037,45.93148,59.597393,1.0317712,4.324049,7.1295004
127,-0.0523734912276268,2.279137372970581,77.22801208496094,1.8162037811736629,3.520042262511837,-95.0269561807879,-7.276534,5.601334,5.3789716,20.88448,-17.561111,-5.0950956,-8.077979,-11.756996,-4.7870398,15.880902,-11.42819,11.738038,-0.34709886,-1.1619049,0.6194155,-0.9232016,19.363552,-39.141407,55.080006,-1.8607968,8.441257,-1.8924732,-8.430051,-20.219316,45.93302,59.597084,1.0265918,4.3149805,7.1498556
128,-0.05631792172789574,2.2901453971862793,77.22718811035156,1.8095864735589884,3.5192730533636754,-95.03916728483617,-7.2858887,5.616424,5.3854947,20.88814,-17.555304,-5.0997667,-8.089555,-11.739583,-4.7768965,15.875463,-11.414447,11.729607,-0.34873056,-1.16267,0.63543725,-0.94087774,19.370281,-39.157402,55.080112,-1.8751523,8.445546,-1.8844405,-8.447732,-20.221628,45.939266,59.59805,1.0233635,4.3060317,7.1629686
129,-0.0600135363638401,2.30228853225708,77.22901916503906,1.8015945446097446,3.5209469489254075,-95.05279231156501,-7.3001885,5.6340213,5.3908405,20.896133,-17.546347,-5.1074896,-8.105712,-11.7208185,-4.771963,15.871933,-11.397845,11.713702,-0.346369,-1.1654339,0.64846396,-0.95544237,19.385822,-39.175472,55.074448,-1.8766078,8.4513855,-1.8844535,-8.458113,-20.227003,45.951347,59.59326,1.0128919,4.2977347,7.1625032
130,-0.06069622561335564,2.318687915802002,77.2298355102539,1.7920765077333738,3.5237833148961664,-95.06736110978696,-7.316924,5.6537843,5.395188,20.906319,-17.535345,-5.117387,-8.124004,-11.700472,-4.7709317,15.868716,-11.378741,11.692834,-0.34380212,-1.1666867,0.6622251,-0.97916293,19.391369,-39.18475,55.08293,-1.8597052,8.457029,-1.8905199,-8.472863,-20.229061,45.96555,59.594177,0.99174225,4.2891197,7.1563096
131,-0.07012730836868286,2.334294080734253,77.232421875,1.7827933030661927,3.5266470558316176,-95.08193783797705,-7.333696,5.673812,5.400199,20.917063,-17.52501,-5.1282988,-8.14222,-11.680336,-4.770355,15.865644,-11.360398,11.67211,-0.34607473,-1.1680003,0.6740249,-0.99783474,19.403112,-39.198345,55.08527,-1.8538462,8.462017,-1.8946033,-8.48571,-20.233059,45.990383,59.59167,0.9771678,4.282612,7.147558
132,-0.07417301833629608,2.3443005084991455,77.2341079711914,1.7751837805450539,3.5279771190584284,-95.09532006271651,-7.3469944,5.692144,5.4074335,20.92533,-17.517193,-5.1388516,-8.157659,-11.662037,-4.766884,15.862973,-11.346291,11.656585,-0.34803885,-1.1705076,0.68619967,-1.0181767,19.407791,-39.206158,55.09378,-1.8477646,8.464197,-1.894353,-8.4990835,-20.234629,46.00145,59.592598,0.9605582,4.279494,7.1485605
133,-0.0767812505364418,2.354235887527466,77.23272705078125,1.7692113829561256,3.5276037341197894,-95.1071681822255,-7.356523,5.709916,5.418513,20.931154,-17.514202,-5.1505275,-8.170008,-11.645399,-4.759822,15.860914,-11.337952,11.647599,-0.35493523,-1.1745336,0.6970627,-1.0368478,19.416382,-39.220795,55.101017,-1.8670709,8.462244,-1.8848523,-8.508928,-20.236889,46.010284,59.588963,0.9554431,4.2828236,7.159229
134,-0.08147900551557541,2.3649535179138184,77.2325668334961,1.7641260441162365,3.5262638239642574,-95.11822921814097,-7.36401,5.7271338,5.4320965,20.936157,-17.514648,-5.1631246,-8.180298,-11.6297865,-4.750877,15.858841,-11.3331175,11.642389,-0.3634866,-1.179441,0.70711595,-1.0545725,19.42127,-39.231503,55.111027,-1.8909981,8.458228,-1.8702675,-8.518596,-20.237976,46.011604,59.586758,0.95170313,4.291027,7.1775
135,-0.09040937572717667,2.3797097206115723,77.23439025878906,1.76076721168495,3.523940748353084,-95.12866686628512,-7.368522,5.7421613,5.445816,20.937944,-17.513853,-5.174162,-8.188991,-11.616142,-4.740218,15.857199,-11.330058,11.640042,-0.3623997,-1.1900845,0.71848077,-1.0750537,19.439518,-39.26173,55.113323,-1.9274579,8.452901,-1.8548037,-8.516031,-20.241,45.996166,59.574963,0.94413036,4.298185,7.1972647
136,-0.09820078313350677,2.3940746784210205,77.23509216308594,1.7592115290235644,3.5207901495351437,-95.1390083070903,-7.372581,5.7538047,5.4571567,20.940542,-17.510714,-5.181322,-8.194955,-11.604671,-4.7285085,15.85196,-11.324528,11.639587,-0.3623869,-1.2016765,0.73028594,-1.0916293,19.455372,-39.28194,55.11455,-1.9466226,8.446619,-1.8449662,-8.517771,-20.243877,45.984226,59.56945,0.93333304,4.299007,7.2150164
137,-0.09948509931564331,2.4041922092437744,77.23360443115234,1.7609423005485523,3.515840264442396,-95.14925158241749,-7.372767,5.7598033,5.465551,20.939432,-17.502329,-5.182379,-8.196603,-11.596786,-4.7128634,15.842432,-11.316663,11.642749,-0.36640275,-1.2126324,0.74150145,-1.1042596,19.46473,-39.293774,55.118404,-1.9476187,8.439155,-1.8408002,-8.521083,-20.245768,45.977146,59.570023,0.91208804,4.2928877,7.2292256
138,-0.10639338195323944,2.412633180618286,77.23348236083984,1.7654035738899183,3.509529129531352,-95.15916697863378,-7.370649,5.761531,5.4721518,20.937326,-17.49141,-5.1791353,-8.195075,-11.592018,-4.693974,15.830321,-11.308055,11.649354,-0.3682068,-1.2261304,0.7532121,-1.1150684,19.475714,-39.30688,55.120266,-1.9404207,8.430001,-1.8404276,-8.52412,-20.24825,45.968872,59.57318,0.88746095,4.2816195,7.2430806
139,-0.1136729046702385,2.422546863555908,77.23413848876953,1.7699989397734814,3.5035002123316,-95.16888128083647,-7.3678827,5.762253,5.4773464,20.932873,-17.478182,-5.1746545,-8.193402,-11.587597,-4.677459,15.817695,-11.29838,11.655586,-0.37198204,-1.2382925,0.7620308,-1.1235105,19.479433,-39.31158,55.124832,-1.9247359,8.420911,-1.8412714,-8.529643,-20.249369,45.967545,59.581177,0.8676313,4.267395,7.2538533
140,-0.12049397826194763,2.4372498989105225,77.23509216308594,1.7724204948627442,3.4992100305543086,-95.17837022074187,-7.370801,5.766595,5.4819484,20.93529,-17.467566,-5.1730046,-8.1955,-11.581392,-4.669089,15.808629,-11.288415,11.657765,-0.3694845,-1.2523175,0.7719261,-1.1353048,19.491478,-39.320213,55.124744,-1.9146274,8.411001,-1.843834,-8.5299425,-20.253597,45.960136,59.581955,0.8568863,4.248898,7.2621036
141,-0.12714950740337372,2.4470877647399902,77.23722839355469,1.7725829883445792,3.4977572507029833,-95.18734497968076,-7.379189,5.7736335,5.484887,20.940607,-17.45606,-5.1727276,-8.203575,-11.574172,-4.6731715,15.804717,-11.2771,11.655241,-0.36626315,-1.2630285,0.7738,-1.1419641,19.493069,-39.31915,55.126213,-1.9013188,8.402869,-1.8435795,-8.529996,-20.254404,45.96015,59.587173,0.86373025,4.2286606,7.2643933
142,-0.1307077705860138,2.45774507522583,77.23958587646484,1.7706948297132277,3.499337313937971,-95.19656563570524,-7.393724,5.783476,5.486711,20.950697,-17.444635,-5.17312,-8.215208,-11.565012,-4.6857953,15.800466,-11.262614,11.649424,-0.36117047,-1.2769592,0.77825403,-1.1557965,19.500254,-39.30604,55.131405,-1.8813175,8.389846,-1.848609,-8.530104,-20.25927,45.96334,59.587433,0.8871932,4.196099,7.26328
143,-0.13806496560573578,2.4661591053009033,77.24112701416016,1.7676667765686578,3.5003617778196987,-95.20513656797775,-7.407928,5.794733,5.487647,20.961378,-17.435001,-5.176019,-8.226997,-11.554766,-4.699939,15.7986555,-11.249748,11.641272,-0.3606244,-1.2873478,0.78154176,-1.1598777,19.50613,-39.2877,55.12635,-1.859517,8.380352,-1.854289,-8.529923,-20.264744,45.969856,59.585556,0.90818024,4.168287,7.2603583
144,-0.14275343716144562,2.478201389312744,77.2419662475586,1.7628867383566265,3.499402709901917,-95.2131440652512,-7.4177337,5.808587,5.4884024,20.968073,-17.42791,-5.183705,-8.234637,-11.541492,-4.708896,15.794337,-11.239035,11.631051,-0.36827007,-1.292864,0.7877585,-1.1571171,19.513748,-39.26601,55.111507,-1.836902,8.373853,-1.863994,-8.53416,-20.27353,45.983925,59.582047,0.92178607,4.146994,7.2583723
145,-0.14879195392131805,2.487980842590332,77.24146270751953,1.7552238074228723,3.4954561853963217,-95.22176273541027,-7.4203715,5.8264832,5.490238,20.968538,-17.425457,-5.200399,-8.237207,-11.523608,-4.7097864,15.788103,-11.232571,11.616985,-0.37213418,-1.2945619,0.7925157,-1.1610255,19.516,-39.26272,55.10497,-1.8350068,8.360541,-1.8904763,-8.534667,-20.276382,45.987396,59.584423,0.9153584,4.132814,7.2568545
146,-0.1570064127445221,2.4991185665130615,77.2408218383789,1.744447579451665,3.4894630102452413,-95.2304344570319,-7.418899,5.848829,5.491644,20.966106,-17.426756,-5.223538,-8.236596,-11.501029,-4.7069445,15.781256,-11.22883,11.599309,-0.38530424,-1.2904264,0.80360293,-1.153093,19.528938,-39.25071,55.07776,-1.8412191,8.341891,-1.9351285,-8.531378,-20.293568,45.995956,59.568714,0.90128505,4.122997,7.2550626
147,-0.16328182816505432,2.508617639541626,77.240966796875,1.7337369854656854,3.4833800432064037,-95.23779326263985,-7.4185114,5.870934,5.4926405,20.965883,-17.429209,-5.2461176,-8.234627,-11.478828,-4.7026834,15.773097,-11.225335,11.582007,-0.3927447,-1.2876537,0.8104461,-1.1562958,19.531712,-39.252193,55.066456,-1.8312857,8.339171,-1.9581127,-8.53091,-20.297575,45.997272,59.570522,0.8789852,4.116499,7.25329
148,-0.16964565217494965,2.5192809104919434,77.24097442626953,1.7262029573795934,3.478886785775878,-95.24197323591848,-7.4224005,5.8880835,5.4904222,20.968824,-17.428162,-5.2592397,-8.23403,-11.460589,-4.698872,15.765153,-11.220083,11.568671,-0.40050283,-1.2886388,0.81715506,-1.1624558,19.53341,-39.255737,55.055218,-1.7759702,8.371268,-1.930984,-8.532084,-20.300459,45.999813,59.57376,0.85692143,4.113389,7.2533226
149,-0.17283736169338226,2.5279369354248047,77.2415542602539,1.7212992714154876,3.4763158944790558,-95.24125864435943,-7.433782,5.900245,5.483681,20.97998,-17.423813,-5.258767,-8.233542,-11.446751,-4.696512,15.754927,-11.211116,11.561353,-0.40895718,-1.292639,0.8240445,-1.1703372,19.535484,-39.261703,55.03594,-1.7119591,8.460126,-1.8494023,-8.53227,-20.305449,46.003197,59.575256,0.8338266,4.1144514,7.2544093
150,-0.18155083060264587,2.5385398864746094,77.24329376220703,1.7189673469781288,3.4749915399792335,-95.23705018729189,-7.4498177,5.9084435,5.474114,20.996017,-17.41743,-5.249695,-8.233526,-11.436508,-4.693899,15.744712,-11.200895,11.557953,-0.41914505,-1.2991779,0.8305733,-1.1810876,19.536907,-39.26804,55.01588,-1.6386566,8.586683,-1.7309589,-8.531951,-20.31194,46.00561,59.57618,0.8056402,4.119551,7.257671
151,-0.18961572647094727,2.5489234924316406,77.24422454833984,1.7173388374460494,3.4742880953731143,-95.23232830306118,-7.4671397,5.915421,5.4638133,21.01276,-17.409836,-5.2390194,-8.234474,-11.427168,-4.6915903,15.734918,-11.190556,11.555153,-0.42819086,-1.3064002,0.8372203,-1.1913939,19.537275,-39.279808,54.99571,-1.47552,8.724192,-1.5673736,-8.530446,-20.319881,46.00901,59.57572,0.7783802,4.127772,7.26065
152,-0.1974855363368988,2.559401750564575,77.24439239501953,1.7144372072268665,3.4736109701845046,-95.23012570236017,-7.4845695,5.9248753,5.4572005,21.030783,-17.404116,-5.235758,-8.237342,-11.416845,-4.6907005,15.727565,-11.182068,11.550091,-0.4342054,-1.3115844,0.8439179,-1.2004042,19.536318,-39.30313,54.980297,-1.1435523,8.845225,-1.3514327,-8.531562,-20.331823,46.01811,59.578274,0.7599809,4.1372724,7.2617106
153,-0.2049899846315384,2.569345235824585,77.24458312988281,1.7095604842956746,3.4731213960334073,-95.23148135774099,-7.500326,5.9375,5.454383,21.045746,-17.397917,-5.242482,-8.244301,-11.404196,-4.6916223,15.725606,-11.176714,11.540473,-0.44036692,-1.3158914,0.8516138,-1.2055612,19.535585,-39.336548,54.969868,-0.53249484,8.953167,-1.051952,-8.5377,-20.339035,46.0353,59.58609,0.7456515,4.1516533,7.2577844
154,-0.21244411170482635,2.577183485031128,77.24334716796875,1.7038243728895053,3.4729850631494013,-95.2346814435313,-7.515592,5.9513984,5.453563,21.059021,-17.390633,-5.2545037,-8.253971,-11.390975,-4.693875,15.727133,-11.173349,11.528608,-0.44351593,-1.3193321,0.85878533,-1.2090002,19.534353,-39.3845,54.96256,0.28352258,9.063128,-0.6827561,-8.550578,-20.347462,46.06362,59.602318,0.74151874,4.169143,7.251007
155,-0.21650974452495575,2.5874500274658203,77.24229431152344,1.6980379709920996,3.473082919225275,-95.23871713314563,-7.5316176,5.9659276,5.454852,21.074623,-17.385738,-5.2684965,-8.264453,-11.377847,-4.6961584,15.7292795,-11.170718,11.51717,-0.43904686,-1.3201069,0.860208,-1.2167631,19.528057,-39.454597,54.965427,1.1022248,9.162092,-0.30181533,-8.5478325,-20.369467,46.091923,59.60441,0.7497558,4.1863723,7.2430906
156,-0.22004243731498718,2.5996322631835938,77.24288177490234,1.693955358385702,3.471955571567134,-95.24215249097155,-7.544452,5.9783964,5.456512,21.087702,-17.3818,-5.279303,-8.272458,-11.366643,-4.6967607,15.729945,-11.168254,11.509177,-0.44525537,-1.3231316,0.8682779,-1.2178628,19.525969,-39.490944,54.959248,1.7631348,9.233868,0.019482948,-8.557319,-20.377327,46.105022,59.62043,0.7461124,4.1949887,7.2431993
157,-0.2244138866662979,2.6082894802093506,77.24282836914062,1.6922948322009579,3.4691975890038993,-95.24560055213779,-7.5532823,5.9883456,5.460536,21.099386,-17.380926,-5.2864556,-8.277305,-11.3582735,-4.6940937,15.728658,-11.166574,11.50674,-0.44612783,-1.3267107,0.8735319,-1.2244545,19.521847,-39.536617,54.960415,2.183985,9.260325,0.29560906,-8.551601,-20.389938,46.0991,59.626194,0.7494251,4.193209,7.248579
158,-0.23056268692016602,2.618035078048706,77.24111938476562,1.6923456156281076,3.465037572541566,-95.24926387087811,-7.558861,5.996304,5.4667473,21.109575,-17.38176,-5.291918,-8.279815,-11.352067,-4.689569,15.725823,-11.165271,11.50804,-0.4520961,-1.3313732,0.88195795,-1.2281635,19.519386,-39.56957,54.959263,2.4833224,9.252491,0.54777914,-8.552297,-20.39823,46.08469,59.63979,0.75471765,4.183312,7.2592025
159,-0.23600447177886963,2.627969264984131,77.24339294433594,1.6921138823618704,3.4616430761962267,-95.25223299593742,-7.564667,6.0044947,5.4715924,21.118513,-17.382818,-5.296201,-8.28314,-11.345701,-4.685368,15.7239485,-11.164242,11.50919,-0.43789858,-1.3372561,0.8895037,-1.2479142,19.5135,-39.621387,54.968346,2.6994803,9.235239,0.7491501,-8.53061,-20.418074,46.042595,59.63466,0.7543247,4.172542,7.274221
160,-0.24099555611610413,2.6365814208984375,77.24401092529297,1.6899370108905012,3.460913342086694,-95.2533568474372,-7.5745316,6.014248,5.471681,21.127287,-17.382683,-5.299516,-8.28952,-11.336835,-4.6838965,15.723843,-11.162288,11.5064335,-0.43183824,-1.3403691,0.8930304,-1.2593342,19.509506,-39.648777,54.970005,2.8930986,9.233255,0.86571056,-8.5132475,-20.433271,46.015324,59.63321,0.74843866,4.1665974,7.2909894
161,-0.24636676907539368,2.644423246383667,77.24392700195312,1.6849651939319603,3.4645837392024266,-95.25206147929995,-7.5915165,6.026664,5.465156,21.137106,-17.381588,-5.300413,-8.301694,-11.32477,-4.6859465,15.7273855,-11.159082,11.498197,-0.4295232,-1.3417252,0.88870925,-1.2624869,19.50836,-39.653915,54.96363,3.0620172,9.252623,0.88099784,-8.50328,-20.43835,46.00655,59.643993,0.7401498,4.1674585,7.311164
162,-0.2539292871952057,2.6539435386657715,77.24397277832031,1.6781052971861166,3.4712391490490124,-95.24909447126647,-7.6116724,6.0404754,5.4542704,21.144451,-17.378782,-5.2991867,-8.317407,-11.310402,-4.69037,15.733031,-11.154679,11.486759,-0.41985956,-1.3417664,0.88159233,-1.2699704,19.506308,-39.65148,54.957054,3.183052,9.279272,0.814462,-8.483687,-20.448694,45.99021,59.64558,0.7231983,4.1724796,7.3369827
163,-0.26335543394088745,2.6620187759399414,77.2438735961914,1.6707708039626377,3.4781619254816363,-95.24513751412897,-7.6321316,6.0544043,5.4412503,21.15117,-17.375313,-5.29887,-8.333465,-11.29563,-4.69574,15.739929,-11.15128,11.473886,-0.4120147,-1.3403524,0.8718449,-1.2761744,19.505022,-39.645596,54.950523,3.2678416,9.308678,0.6915149,-8.468091,-20.456974,45.984303,59.653797,0.7102746,4.1768303,7.3609524
164,-0.27094143629074097,2.670781135559082,77.24417877197266,1.664103924093962,3.482273897240308,-95.24109221167787,-7.6492515,6.06774,5.4289,21.158768,-17.372316,-5.3030787,-8.34504,-11.281581,-4.701168,15.744794,-11.149252,11.461856,-0.40489846,-1.3411835,0.8662852,-1.2841456,19.504616,-39.6392,54.9465,3.3407314,9.336859,0.53471553,-8.449982,-20.463606,45.983532,59.65283,0.70146,4.1805487,7.377017
165,-0.2804773151874542,2.671903133392334,77.24385070800781,1.658209583940053,3.483035304194703,-95.23682153085166,-7.662577,6.080292,5.4170265,21.167603,-17.369726,-5.3146152,-8.352835,-11.268989,-4.7070856,15.750692,-11.151165,11.450304,-0.40068686,-1.3402288,0.86496735,-1.2926018,19.5056,-39.6321,54.941586,3.3910499,9.361749,0.3168295,-8.433374,-20.479578,45.997707,59.643948,0.70445764,4.1798487,7.384772
166,-0.28841590881347656,2.68593430519104,77.24203491210938,1.6527815854797532,3.4817283590754387,-95.23187207888807,-7.671841,6.0918784,5.404144,21.172838,-17.364904,-5.330389,-8.3579235,-11.256743,-4.7136083,15.75654,-11.15514,11.438266,-0.39101437,-1.3413794,0.8634524,-1.3074524,19.506895,-39.632336,54.943127,3.411755,9.386126,0.03730275,-8.420049,-20.485851,46.012184,59.64644,0.70797485,4.1752653,7.386756
167,-0.29201430082321167,2.690302848815918,77.24272155761719,1.6475030645495783,3.4795367326423454,-95.2269688763954,-7.6802382,6.1034117,5.3922067,21.17962,-17.361212,-5.3470016,-8.360161,-11.244819,-4.719804,15.759416,-11.158697,11.427159,-0.3898198,-1.3411924,0.86274415,-1.3141873,19.511143,-39.630363,54.94019,3.4191525,9.412119,-0.2399476,-8.4089985,-20.498983,46.04927,59.63931,0.7302534,4.1722198,7.3822236
168,-0.297163724899292,2.6948719024658203,77.24101257324219,1.6427376496558643,3.4770592537036733,-95.22300609211854,-7.686774,6.1141443,5.383292,21.185179,-17.357662,-5.360074,-8.359539,-11.233674,-4.723902,15.757009,-11.159574,11.418449,-0.39083686,-1.3413697,0.86431473,-1.31526,19.517132,-39.63373,54.93564,3.4327285,9.441942,-0.45131007,-8.397087,-20.5132,46.080708,59.62856,0.7518497,4.17151,7.3751864
169,-0.3040573000907898,2.698570966720581,77.24105834960938,1.6388869346509949,3.473584589249444,-95.22042761017462,-7.6905,6.1239405,5.3791084,21.190296,-17.355324,-5.3686957,-8.354325,-11.22348,-4.7238574,15.747256,-11.157329,11.413171,-0.39065424,-1.3448018,0.8682069,-1.3171777,19.521162,-39.654182,54.93894,3.4585226,9.483131,-0.57788044,-8.388012,-20.52169,46.106197,59.623833,0.7781325,4.1723704,7.362006
170,-0.30729126930236816,2.705031633377075,77.24267578125,1.6355741436361764,3.469110041584791,-95.2187309465517,-7.691497,6.1329536,5.3781943,21.194422,-17.353544,-5.374851,-8.344097,-11.214134,-4.7212768,15.729543,-11.151761,11.410623,-0.38960376,-1.3489115,0.8722681,-1.3153222,19.52786,-39.69374,54.941326,3.4794679,9.532553,-0.6528563,-8.372704,-20.536337,46.135777,59.609074,0.8167585,4.1749024,7.341847
171,-0.3123287260532379,2.712290048599243,77.24053955078125,1.6320531729001124,3.465182272790687,-95.21712491606151,-7.69344,6.1420517,5.377739,21.19954,-17.351974,-5.3795676,-8.33479,-11.204678,-4.719364,15.712829,-11.146283,11.408303,-0.38863933,-1.3539625,0.8775671,-1.3132391,19.531399,-39.727375,54.949806,3.5007865,9.575,-0.694001,-8.362975,-20.544922,46.156384,59.60128,0.8489359,4.179428,7.323293
172,-0.3173709809780121,2.7194247245788574,77.2400894165039,1.6273723543856309,3.4637074092833715,-95.21492158139264,-7.702511,6.1528277,5.375085,21.211855,-17.35287,-5.3843017,-8.329688,-11.194292,-4.7221284,15.699436,-11.141059,11.404143,-0.3885669,-1.3580834,0.88038695,-1.3062068,19.532969,-39.744064,54.95977,3.5127118,9.596033,-0.71540976,-8.351348,-20.549372,46.16315,59.59125,0.8651325,4.188653,7.3115454
173,-0.3270259499549866,2.7286946773529053,77.24179077148438,1.6208577882904327,3.4656466044600003,-95.21207598298604,-7.719721,6.1660523,5.36914,21.2301,-17.354784,-5.389238,-8.331296,-11.182143,-4.730917,15.692763,-11.136833,11.396707,-0.3886808,-1.360705,0.879429,-1.2952409,19.533659,-39.74661,54.97517,3.512554,9.583003,-0.70711076,-8.3429785,-20.551863,46.159645,59.582695,0.86830664,4.2044067,7.310129
174,-0.3272826373577118,2.734423875808716,77.2425308227539,1.6128762956820277,3.4699536236855453,-95.2088664609514,-7.74378,6.181252,5.3612742,21.25548,-17.359201,-5.393858,-8.33651,-11.1685095,-4.7439113,15.688498,-11.132254,11.387409,-0.38760525,-1.3627878,0.87814945,-1.2808889,19.534424,-39.73806,54.99304,3.507438,9.546488,-0.66670054,-8.331293,-20.555851,46.140667,59.565865,0.8574527,4.226241,7.3162155
175,-0.32977673411369324,2.7454397678375244,77.24515533447266,1.6050023392789314,3.475191549042722,-95.2053377699592,-7.7691245,6.1959877,5.352734,21.280823,-17.362875,-5.397215,-8.3435955,-11.155292,-4.7586308,15.685939,-11.12801,11.378425,-0.3870151,-1.3648387,0.8730005,-1.2624409,19.53424,-39.723904,55.00929,3.4845536,9.507509,-0.61565703,-8.321277,-20.556953,46.12461,59.553467,0.84981835,4.248657,7.321606
176,-0.33629152178764343,2.745244026184082,77.24468994140625,1.598315667063757,3.4800691293316386,-95.20135855193035,-7.793284,6.2088823,5.3451295,21.305237,-17.365824,-5.399243,-8.3497925,-11.144039,-4.773536,15.68236,-11.123723,11.372283,-0.38313517,-1.3693242,0.8738756,-1.2400099,19.532932,-39.684563,55.01064,3.4597287,9.486598,-0.58283323,-8.306759,-20.55916,46.09158,59.533306,0.83474874,4.268202,7.326412
177,-0.34415575861930847,2.7562224864959717,77.24380493164062,1.593346773541879,3.4848485760909527,-95.1960381155373,-7.8157277,6.2182937,5.338143,21.326668,-17.365522,-5.3970914,-8.355856,-11.135616,-4.789271,15.67858,-11.119367,11.37074,-0.37683287,-1.3755819,0.87125754,-1.2148608,19.53026,-39.638695,55.000072,3.3971927,9.494805,-0.5581796,-8.290302,-20.560663,46.0681,59.514767,0.83949876,4.2838817,7.3223405
178,-0.3448706865310669,2.756882905960083,77.24288177490234,1.5894112656217745,3.490134442407238,-95.18976698452313,-7.83767,6.2258005,5.331387,21.345877,-17.362698,-5.3919725,-8.362061,-11.1291485,-4.8065467,15.673946,-11.114202,11.372147,-0.36543426,-1.3841418,0.8637526,-1.1863583,19.52681,-39.58953,54.981842,3.3044312,9.519383,-0.53235424,-8.270857,-20.56124,46.04771,59.49879,0.8571682,4.2977114,7.3128576
179,-0.3527289628982544,2.7588672637939453,77.24087524414062,1.5859794236507554,3.4948176842116485,-95.18407395275561,-7.856953,6.23252,5.3247075,21.361456,-17.359455,-5.3881145,-8.367598,-11.123061,-4.822783,15.668965,-11.109871,11.373533,-0.3598399,-1.391199,0.86157215,-1.1529552,19.521132,-39.518314,54.95639,3.2236426,9.5451,-0.52768844,-8.2583475,-20.561676,46.029354,59.482277,0.87162787,4.3097115,7.305716
180,-0.35572534799575806,2.7649526596069336,77.24018859863281,1.5819382056874838,3.498781453663214,-95.18142687269194,-7.8729563,6.2405467,5.3189354,21.374098,-17.35954,-5.390096,-8.37165,-11.115684,-4.834801,15.661757,-11.106692,11.371607,-0.3628636,-1.3931813,0.8606448,-1.1141233,19.510433,-39.435753,54.933647,3.1687124,9.557482,-0.55787075,-8.252975,-20.561632,46.026054,59.46796,0.8875878,4.3189087,7.300933
181,-0.35864514112472534,2.767534017562866,77.2379150390625,1.5769326326394533,3.501286420181903,-95.18260949891139,-7.8818355,6.2502337,5.3131447,21.377586,-17.36221,-5.4012895,-8.374196,-11.106071,-4.841161,15.654043,-11.106947,11.364105,-0.35564,-1.3942575,0.8577929,-1.0786256,19.500362,-39.372925,54.917507,3.1554382,9.559262,-0.634711,-8.240645,-20.560713,46.019295,59.45328,0.90466493,4.3244467,7.2980423
182,-0.36202725768089294,2.7739830017089844,77.23393249511719,1.5717923783328096,3.502822773390037,-95.18647426401738,-7.8851686,6.2605247,5.3077016,21.373762,-17.36615,-5.418598,-8.375174,-11.095316,-4.8436813,15.64479,-11.109135,11.353351,-0.34157315,-1.3951803,0.85511804,-1.0447251,19.491903,-39.319237,54.901978,3.1667285,9.556195,-0.7474029,-8.222489,-20.559456,46.00862,59.435394,0.9222265,4.326957,7.2960877
183,-0.3640132248401642,2.77890944480896,77.2356185913086,1.5669962689507342,3.504495678695471,-95.19180746468321,-7.886946,6.2705555,5.303866,21.367542,-17.369873,-5.436267,-8.376172,-11.084901,-4.8441205,15.634212,-11.110548,11.342647,-0.33207396,-1.3941714,0.8541261,-1.0112125,19.4797,-39.261993,54.890057,3.1629155,9.539675,-0.8739749,-8.213223,-20.557575,46.008556,59.421413,0.9384011,4.3272057,7.297237
184,-0.3667994737625122,2.782717227935791,77.2361831665039,1.5635890327915356,3.5078831600208162,-95.19726184517629,-7.8916497,6.278818,5.302996,21.363894,-17.37199,-5.4483824,-8.378032,-11.076294,-4.8446774,15.621123,-11.108414,11.335341,-0.31574166,-1.3962365,0.8490857,-0.9833519,19.474573,-39.23786,54.88093,3.0742698,9.502612,-0.9874406,-8.19853,-20.556557,46.007572,59.405388,0.94590336,4.32525,7.3008366
185,-0.366657555103302,2.7935619354248047,77.2381591796875,1.5619643010799162,3.513965128446817,-95.20352954396506,-7.899349,6.284914,5.30702,21.360975,-17.370646,-5.452306,-8.381352,-11.069823,-4.845596,15.603389,-11.099563,11.3329935,-0.3089986,-1.3969918,0.842705,-0.95451653,19.464481,-39.213024,54.879135,2.8971164,9.423206,-1.1043657,-8.19366,-20.554564,46.021355,59.393463,0.9374873,4.320918,7.310585
186,-0.37080174684524536,2.794959545135498,77.24063873291016,1.5616878843674613,3.521875759759294,-95.21072158319325,-7.9087133,6.2892413,5.314341,21.357986,-17.367546,-5.451367,-8.385965,-11.064727,-4.8459654,15.583086,-11.08711,11.333456,-0.30284008,-1.3965311,0.83047265,-0.93030745,19.449186,-39.207443,54.89059,2.6484656,9.3119545,-1.2277566,-8.189549,-20.550697,46.04566,59.38553,0.9217445,4.313767,7.323507
187,-0.37350690364837646,2.7973923683166504,77.24179077148438,1.5620964079299386,3.5295994050635633,-95.21803074213719,-7.9178767,6.292796,5.3231463,21.355495,-17.363325,-5.449393,-8.38959,-11.060714,-4.8452563,15.561091,-11.073875,11.33513,-0.29018927,-1.4006659,0.8236062,-0.9104149,19.44385,-39.214558,54.892426,2.3654351,9.211405,-1.3274523,-8.183586,-20.549252,46.059746,59.370884,0.89986384,4.3059263,7.338029
188,-0.3750499486923218,2.802781105041504,77.24089050292969,1.5627958344718147,3.535259516580834,-95.22415150698973,-7.9263597,6.2958965,5.330449,21.35604,-17.359207,-5.4491067,-8.393459,-11.057157,-4.8425474,15.545055,-11.065881,11.336251,-0.28095523,-1.4040937,0.8157466,-0.89095813,19.436333,-39.226566,54.890514,2.0784698,9.161834,-1.3653764,-8.175986,-20.5471,46.077694,59.357155,0.8842252,4.300087,7.3461676
189,-0.37753403186798096,2.8060667514801025,77.24101257324219,1.564038641770859,3.53860988934243,-95.22900723208062,-7.932435,6.298065,5.3363748,21.356596,-17.35269,-5.4518304,-8.396907,-11.054162,-4.8366013,15.534754,-11.064718,11.336371,-0.2730108,-1.4075007,0.8088994,-0.8775212,19.421404,-39.24401,54.88755,1.7873138,9.1842375,-1.3101794,-8.172399,-20.542551,46.10046,59.348133,0.8817639,4.2958207,7.3474793
190,-0.3790438771247864,2.8116886615753174,77.23992156982422,1.5658416583183035,3.540328360355785,-95.23319355775625,-7.9382715,6.299882,5.3427672,21.360554,-17.345957,-5.4563894,-8.399408,-11.052231,-4.8284793,15.5266,-11.066752,11.336687,-0.2664288,-1.4121652,0.80641466,-0.8694891,19.40432,-39.264324,54.880413,1.481337,9.252705,-1.1895456,-8.1710615,-20.537342,46.120167,59.33807,0.8785152,4.292424,7.3461747
191,-0.3800431489944458,2.815779685974121,77.23805236816406,1.5676278386549025,3.540644412589668,-95.23649767360025,-7.943313,6.3013535,5.347623,21.365543,-17.339731,-5.460507,-8.401883,-11.050444,-4.8201323,15.522123,-11.0710335,11.336862,-0.2605802,-1.416897,0.8066001,-0.860446,19.388113,-39.279037,54.86832,1.1814014,9.337136,-1.0541447,-8.167567,-20.532448,46.13339,59.325687,0.87265474,4.290543,7.343054
192,-0.38449567556381226,2.817469835281372,77.23710632324219,1.5687203863598391,3.539768643931953,-95.23879745622033,-7.947333,6.303137,5.3501606,21.3702,-17.335424,-5.462858,-8.403356,-11.048195,-4.814151,15.518563,-11.074677,11.336883,-0.25289375,-1.4216136,0.8086131,-0.85449547,19.37294,-39.28547,54.861465,0.9039627,9.405173,-0.95644295,-8.167219,-20.527939,46.14584,59.316544,0.87516224,4.2893443,7.340075
193,-0.3885933756828308,2.8194751739501953,77.2343521118164,1.5695094901349103,3.536966529442088,-95.23928188572383,-7.9509325,6.304957,5.3487597,21.376654,-17.335566,-5.4623985,-8.402511,-11.045632,-4.8115025,15.515237,-11.077108,11.338057,-0.24339776,-1.4270614,0.8133449,-0.84838206,19.36318,-39.277424,54.85554,0.6585598,9.455498,-0.9054823,-8.166648,-20.525068,46.15273,59.308933,0.8827267,4.29007,7.3377643
194,-0.3904910683631897,2.829230308532715,77.23430633544922,1.569869925497064,3.53236118045772,-95.23848593983726,-7.953377,6.3067427,5.3445387,21.383692,-17.338127,-5.4601927,-8.399834,-11.043105,-4.810699,15.512762,-11.079614,11.340063,-0.23868741,-1.4298166,0.8188136,-0.84266376,19.345476,-39.252365,54.85627,0.43711242,9.502983,-0.8739774,-8.172076,-20.519764,46.16494,59.309185,0.89675736,4.293044,7.334087
195,-0.3916114568710327,2.8323678970336914,77.23577880859375,1.5692771378461001,3.527488249841578,-95.23749966146136,-7.956037,6.309431,5.339894,21.391586,-17.341188,-5.457874,-8.398118,-11.039724,-4.8110094,15.513103,-11.082416,11.340062,-0.23543762,-1.4316198,0.8247592,-0.83703244,19.328228,-39.219933,54.860252,0.2292126,9.541118,-0.8633379,-8.1806755,-20.514534,46.174503,59.31284,0.91109586,4.295214,7.330281
196,-0.3945290446281433,2.8358755111694336,77.23485565185547,1.5676763790518538,3.523840780445236,-95.23811995971305,-7.960187,6.3141613,5.3376207,21.401052,-17.34349,-5.4572353,-8.398577,-11.035098,-4.8114367,15.514833,-11.084061,11.335713,-0.23274258,-1.4315935,0.83026993,-0.8281293,19.311274,-39.185608,54.863445,0.027275896,9.565869,-0.872348,-8.188684,-20.509209,46.179245,59.313614,0.9208409,4.295648,7.3247404
197,-0.39499080181121826,2.841418743133545,77.23582458496094,1.5633569977150412,3.5225792010614656,-95.2413613134586,-7.967305,6.323041,5.339058,21.41309,-17.343885,-5.4590983,-8.404202,-11.027158,-4.8123865,15.520849,-11.084262,11.322948,-0.23171565,-1.4274023,0.83241296,-0.8167741,19.287056,-39.141174,54.875507,-0.17246558,9.57665,-0.91503984,-8.198169,-20.501741,46.176632,59.31745,0.91939753,4.2925715,7.3165717
198,-0.3951699137687683,2.842529773712158,77.23652648925781,1.5571296090663946,3.5227356381573283,-95.24635108938226,-7.9769073,6.3350215,5.342546,21.428024,-17.343742,-5.4624696,-8.413135,-11.017196,-4.8140454,15.530015,-11.083323,11.30433,-0.22616655,-1.4228169,0.8346199,-0.80191016,19.269943,-39.097282,54.88207,-0.37200466,9.577064,-0.9869928,-8.201161,-20.496649,46.159756,59.313503,0.9096886,4.2875915,7.306023
199,-0.3994949162006378,2.84525465965271,77.2362060546875,1.5515126576464955,3.522554626214724,-95.25097777242948,-7.9853897,6.345971,5.3461657,21.441721,-17.343702,-5.466098,-8.422228,-11.0081215,-4.8153024,15.541027,-11.083905,11.286445,-0.21890274,-1.4199778,0.8352508,-0.7826306,19.262894,-39.068283,54.880886,-0.56356424,9.564642,-1.0594064,-8.198347,-20.494583,46.14198,59.303593,0.90418017,4.2823195,7.295258
200,-0.40144598484039307,2.851315975189209,77.23690032958984,1.5489310163751009,3.519917407270294,-95.25374827717238,-7.9892616,6.3521304,5.348048,21.451494,-17.344475,-5.4687223,-8.426505,-11.003071,-4.8151155,15.549248,-11.086767,11.276164,-0.21954857,-1.4177747,0.84370744,-0.77171165,19.246498,-39.03542,54.886303,-0.71385753,9.536326,-1.1086674,-8.205483,-20.490202,46.123253,59.29823,0.89701873,4.278881,7.291504
201,-0.4026191830635071,2.8591840267181396,77.23487091064453,1.5510254910898051,3.5133527989283984,-95.25385674707361,-7.9846616,6.3508954,5.3478084,21.453384,-17.34656,-5.469903,-8.424445,-11.004179,-4.811809,15.555903,-11.095304,11.277295,-0.2228786,-1.4195526,0.85234135,-0.7625903,19.237368,-39.03311,54.887436,-0.84952337,9.478786,-1.1309032,-8.211148,-20.487793,46.11413,59.29112,0.9085866,4.2781105,7.293126
202,-0.4009990990161896,2.861428737640381,77.23321533203125,1.556128135366894,3.504218589236517,-95.25264873941767,-7.975233,6.3450227,5.3464475,21.452,-17.35043,-5.4703445,-8.417656,-11.009272,-4.8064837,15.560384,-11.106693,11.285495,-0.22171006,-1.4239981,0.8612574,-0.76668686,19.223398,-39.054775,54.90177,-0.96788543,9.396617,-1.1388206,-8.21345,-20.484121,46.09798,59.285507,0.92522806,4.2784357,7.299498
203,-0.40018922090530396,2.8632068634033203,77.23218536376953,1.5619740572399894,3.4953616111315355,-95.25012421190566,-7.9660373,6.3380156,5.3439293,21.449474,-17.353441,-5.470501,-8.411878,-11.015437,-4.8016996,15.566838,-11.118947,11.295379,-0.23068643,-1.4293654,0.87444216,-0.76193875,19.219997,-39.071762,54.899883,-1.052837,9.317609,-1.125479,-8.223414,-20.483337,46.095993,59.277084,0.9457308,4.2792654,7.306158
204,-0.40601176023483276,2.863281488418579,77.23179626464844,1.5659659048880703,3.4897998820281226,-95.24663359942767,-7.9642305,6.3338904,5.3400054,21.45161,-17.354755,-5.4709187,-8.410485,-11.0195265,-4.8004675,15.574348,-11.127443,11.301492,-0.23142774,-1.4343001,0.8823603,-0.7705119,19.214962,-39.116642,54.912277,-1.1120917,9.265957,-1.0742297,-8.227528,-20.482025,46.095055,59.27076,0.95984364,4.2782035,7.307145
205,-0.4095792770385742,2.867859125137329,77.23155212402344,1.5673733462542896,3.488642827658975,-95.24187988643651,-7.971822,6.33404,5.3343105,21.458878,-17.35291,-5.471571,-8.415988,-11.020289,-4.8039465,15.584799,-11.130976,11.302103,-0.22269896,-1.4402782,0.88506854,-0.80172104,19.207914,-39.198093,54.94762,-1.136553,9.252148,-0.95648,-8.227703,-20.48011,46.09929,59.267616,0.9670933,4.273752,7.299643
206,-0.41199806332588196,2.8726806640625,77.23258972167969,1.5675391194975163,3.4899797424487415,-95.23569045590585,-7.9855385,6.336119,5.3267574,21.470049,-17.34929,-5.4722323,-8.425421,-11.019715,-4.8107433,15.5975065,-11.131951,11.300418,-0.22597407,-1.4449168,0.8906245,-0.8301631,19.20481,-39.2741,54.978836,-1.1125323,9.261818,-0.7918054,-8.235887,-20.479055,46.118828,59.26433,0.9659478,4.268099,7.2888002
207,-0.41155973076820374,2.8801522254943848,77.23289489746094,1.5672554695176129,3.492941750185779,-95.229248281441,-8.000864,6.338696,5.3190336,21.48043,-17.34435,-5.4730215,-8.437168,-11.018791,-4.8183637,15.611221,-11.132058,11.29746,-0.22884564,-1.4495105,0.89353305,-0.859261,19.203762,-39.350433,55.01096,-1.0689926,9.281992,-0.6330451,-8.242662,-20.478058,46.141056,59.26207,0.9627751,4.262293,7.2765145
208,-0.41730180382728577,2.8828301429748535,77.23279571533203,1.5671543772370136,3.49621869672421,-95.22335752331459,-8.015452,6.3406367,5.3123355,21.490234,-17.34154,-5.4744887,-8.448058,-11.018341,-4.825111,15.623128,-11.132635,11.294544,-0.23222359,-1.4539394,0.8956303,-0.8797417,19.20393,-39.401325,55.035595,-1.014539,9.299963,-0.53750306,-8.250654,-20.477566,46.15824,59.263348,0.9569199,4.258169,7.267129
209,-0.41851139068603516,2.8879623413085938,77.23158264160156,1.5673652728243976,3.5005335113008633,-95.21933647773804,-8.027575,6.3412924,5.308273,21.495544,-17.33905,-5.476671,-8.460116,-11.018343,-4.8297257,15.635101,-11.1345005,11.291177,-0.23321618,-1.457873,0.8943094,-0.8921501,19.2042,-39.427204,55.054348,-0.9474044,9.317512,-0.51391417,-8.256023,-20.477446,46.167942,59.26733,0.9450551,4.2549744,7.2602353
210,-0.4196322560310364,2.8901302814483643,77.23222351074219,1.5675299335781567,3.5059677865577297,-95.21591699910614,-8.03979,6.3414407,5.305434,21.499557,-17.337074,-5.4794116,-8.473201,-11.018777,-4.8337417,15.646019,-11.135694,11.287102,-0.23075525,-1.4613996,0.8892622,-0.9000244,19.204304,-39.44439,55.070255,-0.8638336,9.340268,-0.53296053,-8.25882,-20.477392,46.17513,59.27425,0.9292899,4.252563,7.253607
211,-0.42160534858703613,2.8930890560150146,77.22920227050781,1.5677358649701514,3.5113062511896334,-95.21163190255167,-8.051045,6.341391,5.3016067,21.502495,-17.335594,-5.4822187,-8.484735,-11.019211,-4.838341,15.655912,-11.137666,11.2833605,-0.22837393,-1.46443,0.88187206,-0.9061869,19.204178,-39.450447,55.08714,-0.7814804,9.35834,-0.5951405,-8.259909,-20.47745,46.178955,59.283157,0.9181415,4.2521524,7.2485533
212,-0.4209473729133606,2.8939106464385986,77.22785949707031,1.567797021831768,3.5148817728155,-95.20434920719927,-8.058593,6.340864,5.2943482,21.50129,-17.332531,-5.4844704,-8.490474,-11.019791,-4.845226,15.661418,-11.139965,11.280955,-0.22961731,-1.4657735,0.8734253,-0.90900475,19.203909,-39.446877,55.104023,-0.71700436,9.362716,-0.6998919,-8.25645,-20.47736,46.17686,59.28959,0.91616553,4.2561746,7.2458997
213,-0.4225960373878479,2.895036220550537,77.22798156738281,1.5679280738200934,3.5157216266196,-95.19213942295497,-8.062414,6.339565,5.2808857,21.497543,-17.329273,-5.485793,-8.488624,-11.020924,-4.855426,15.662914,-11.144357,11.280752,-0.23194975,-1.4661047,0.86188006,-0.90766734,19.203772,-39.433804,55.123016,-0.67382675,9.3481,-0.87562585,-8.246193,-20.477098,46.167027,59.295677,0.932216,4.2669163,7.2469463
214,-0.42797037959098816,2.893467903137207,77.22708892822266,1.567932647244571,3.5148603740073447,-95.17655918577795,-8.062944,6.3375826,5.263222,21.490374,-17.325148,-5.486519,-8.480589,-11.02245,-4.8680043,15.659673,-11.149128,11.281997,-0.23601595,-1.4656374,0.84991664,-0.9048888,19.203835,-39.405617,55.14351,-0.6419293,9.320073,-1.1142317,-8.230009,-20.476295,46.14522,59.29909,0.9555399,4.2827616,7.251717
215,-0.4335651993751526,2.8924171924591064,77.22879028320312,1.5679842783519586,3.513584196401131,-95.1607161489171,-8.062416,6.33597,5.245884,21.482582,-17.321127,-5.4874306,-8.470741,-11.02367,-4.8811693,15.654152,-11.153061,11.283593,-0.24113424,-1.4645991,0.83841807,-0.89924806,19.204212,-39.37362,55.16067,-0.61909604,9.287078,-1.3569647,-8.213121,-20.475237,46.11974,59.30177,0.97814804,4.299082,7.2570524
216,-0.436160147190094,2.8921327590942383,77.2296142578125,1.5671499004472143,3.5135758721324177,-95.1478787828978,-8.063562,6.3360376,5.233442,21.47671,-17.317703,-5.489345,-8.464924,-11.023359,-4.892797,15.651365,-11.15561,11.284042,-0.24793689,-1.4628816,0.8286478,-0.89250356,19.205357,-39.3458,55.171844,-0.6077078,9.257447,-1.5447962,-8.1993265,-20.473612,46.094624,59.30321,0.99148536,4.311282,7.2598042
217,-0.4379305839538574,2.893794298171997,77.23252868652344,1.5649620157868682,3.516128186460723,-95.13906060218645,-8.06797,6.338891,5.2284245,21.47285,-17.315025,-5.4927883,-8.465369,-11.020855,-4.902557,15.650946,-11.154653,11.282654,-0.25600103,-1.4592934,0.81803775,-0.8846486,19.206795,-39.331863,55.177975,-0.6213876,9.230428,-1.6628281,-8.189163,-20.471823,46.074272,59.303574,0.9959561,4.3183804,7.2577314
218,-0.4423758387565613,2.893608808517456,77.23211669921875,1.5619516802768594,3.520235014706132,-95.1324254786226,-8.074433,6.343678,5.2278867,21.470533,-17.31314,-5.4972157,-8.469001,-11.016545,-4.9114833,15.651168,-11.151453,11.279972,-0.26550582,-1.4543704,0.806622,-0.8746523,19.208294,-39.32314,55.179836,-0.6544849,9.202538,-1.7421521,-8.178645,-20.469822,46.050774,59.30285,0.9910448,4.322603,7.2531576
219,-0.4446238875389099,2.900512456893921,77.2295150756836,1.5591345813281494,3.5234068043554134,-95.12701979214455,-8.078968,6.3480487,5.2280583,21.467707,-17.310612,-5.501597,-8.471816,-11.012481,-4.919695,15.651586,-11.148188,11.27798,-0.2704688,-1.4514605,0.7979506,-0.8681244,19.210957,-39.321552,55.179615,-0.6864205,9.178704,-1.7915449,-8.167022,-20.466673,46.023174,59.30017,0.98226696,4.324722,7.2481766
220,-0.4440244734287262,2.9000022411346436,77.22996520996094,1.5575325919057215,3.5233041511928023,-95.12160320620711,-8.079872,6.3506227,5.226244,21.466843,-17.30853,-5.5059395,-8.467838,-11.010634,-4.9281287,15.647879,-11.145891,11.278613,-0.27819902,-1.4488504,0.79024756,-0.8604872,19.211544,-39.32171,55.178432,-0.7021572,9.163189,-1.8163805,-8.160026,-20.465883,46.015434,59.30185,0.9849282,4.325094,7.2419825
221,-0.44389572739601135,2.8947341442108154,77.2301025390625,1.5584622557296794,3.518088072596142,-95.11581502673152,-8.074083,6.349005,5.2201285,21.466564,-17.305374,-5.5094056,-8.455055,-11.0127,-4.9367666,15.641411,-11.146465,11.283692,-0.28222734,-1.4501474,0.7858762,-0.8519141,19.212725,-39.32517,55.172398,-0.6895089,9.160291,-1.8063679,-8.145682,-20.4643,46.00477,59.300545,0.9838101,4.3227115,7.2363586
222,-0.4510086178779602,2.8967719078063965,77.22920989990234,1.5610479402689426,3.5092284544325754,-95.11052946449708,-8.063058,6.3446445,5.2125635,21.466576,-17.301565,-5.5125747,-8.435827,-11.017373,-4.9451704,15.6319475,-11.148348,11.291854,-0.28752866,-1.4528899,0.78604954,-0.84481806,19.213455,-39.32994,55.163506,-0.66256875,9.166289,-1.7619301,-8.130919,-20.46316,46.00008,59.297657,0.98203826,4.3174872,7.229878
223,-0.4542795419692993,2.8920023441314697,77.22745513916016,1.5632625048732947,3.5003132969697797,-95.10538193936394,-8.052521,6.340789,5.2038617,21.467596,-17.298508,-5.5153503,-8.416754,-11.021469,-4.9531302,15.623191,-11.150942,11.299508,-0.28960085,-1.4564682,0.7847184,-0.83737713,19.21416,-39.337597,55.154617,-0.62526655,9.174219,-1.710924,-8.116049,-20.461737,45.99711,59.297348,0.98045117,4.312596,7.224821
224,-0.449053019285202,2.8909599781036377,77.22853088378906,1.5630586421361128,3.4943550215935675,-95.10037737292829,-8.047936,6.3411503,5.1946588,21.472118,-17.298826,-5.5177326,-8.40238,-11.021144,-4.9605436,15.615349,-11.152244,11.303292,-0.29142073,-1.4575019,0.7822907,-0.83029187,19.214613,-39.344036,55.146,-0.58593273,9.178305,-1.6780334,-8.102,-20.460564,45.996025,59.29565,0.9772715,4.311126,7.2214007
225,-0.4505923092365265,2.890604257583618,77.22935485839844,1.5580971093792746,3.4930925712256222,-95.09430614994186,-8.052285,6.3485813,5.182723,21.479923,-17.303398,-5.5200796,-8.393956,-11.013485,-4.968591,15.606879,-11.150747,11.301031,-0.29154068,-1.4548382,0.77328193,-0.8189525,19.214983,-39.351055,55.13754,-0.53386706,9.175538,-1.6707015,-8.08207,-20.459137,45.993023,59.290268,0.96904266,4.3160844,7.220133
226,-0.45377254486083984,2.8898823261260986,77.22745513916016,1.5506252678559043,3.494541265927414,-95.08788469147949,-8.062481,6.3600726,5.168973,21.49124,-17.311499,-5.5222254,-8.38973,-11.001638,-4.976307,15.599608,-11.148587,11.294946,-0.29068166,-1.4504144,0.7647534,-0.8131681,19.215282,-39.357124,55.13345,-0.47106153,9.168216,-1.6783446,-8.068636,-20.4576,45.992027,59.288048,0.96050435,4.3244424,7.2232285
227,-0.4613440930843353,2.8911423683166504,77.22863006591797,1.544489352604703,3.4961660052097905,-95.0831578971331,-8.071573,6.3701143,5.1578264,21.500673,-17.31885,-5.5230327,-8.388826,-10.990981,-4.981341,15.596997,-11.148176,11.288407,-0.29195935,-1.4457098,0.76065695,-0.8096922,19.215311,-39.358932,55.12819,-0.42048767,9.161284,-1.6910008,-8.059202,-20.456905,45.991817,59.285828,0.948556,4.331598,7.227164
228,-0.46587562561035156,2.8892855644226074,77.22776794433594,1.5382397426631715,3.498005514352673,-95.08043982688194,-8.082301,6.38017,5.1507716,21.515455,-17.326876,-5.5234227,-8.387965,-10.981335,-4.9860153,15.592925,-11.146567,11.283798,-0.28404555,-1.441775,0.74761283,-0.7980532,19.214989,-39.359818,55.120754,-0.3770534,9.157131,-1.7107772,-8.03849,-20.454496,45.99057,59.284756,0.93728834,4.337337,7.2277946
229,-0.472417414188385,2.8890507221221924,77.228271484375,1.5379018380533682,3.4975689372799623,-95.0818917310093,-8.084775,6.3821483,5.1528735,21.522755,-17.328257,-5.5202985,-8.389509,-10.979917,-4.985607,15.596285,-11.148605,11.283107,-0.27425295,-1.4416845,0.7446739,-0.79269964,19.214684,-39.35802,55.111103,-0.37771,9.158523,-1.7328408,-8.026836,-20.453876,45.99004,59.289104,0.92715704,4.3358364,7.226543
230,-0.4667086601257324,2.886599063873291,77.22798919677734,1.5394541321763244,3.497272072174674,-95.08687009651925,-8.086518,6.3818135,5.161222,21.531542,-17.32863,-5.5151906,-8.394592,-10.981375,-4.9816165,15.603995,-11.151971,11.284292,-0.25655308,-1.4421009,0.73459995,-0.7796714,19.21321,-39.349834,55.095882,-0.39283776,9.166397,-1.7702559,-8.006302,-20.452236,45.989708,59.297665,0.9152391,4.3297286,7.2215066
231,-0.46336686611175537,2.8874690532684326,77.22817993164062,1.5417997554150957,3.496329599279718,-95.0927078055961,-8.085773,6.3803797,5.1709256,21.537483,-17.3278,-5.510561,-8.39964,-10.983878,-4.976737,15.612594,-11.155682,11.285602,-0.24056026,-1.4429737,0.72850025,-0.768232,19.211498,-39.340652,55.081486,-0.41453746,9.172565,-1.7992107,-7.9897447,-20.450994,45.990128,59.305233,0.9032269,4.3239026,7.217755
232,-0.46443459391593933,2.8886501789093018,77.22797393798828,1.5426292905746748,3.4947021284175324,-95.09842004883302,-8.083344,6.3808327,5.1781306,21.541115,-17.328121,-5.50901,-8.403267,-10.98413,-4.9721103,15.621022,-11.159615,11.285247,-0.23732696,-1.4410238,0.7232651,-0.75083596,19.204994,-39.31463,55.06987,-0.41522828,9.173839,-1.8101443,-7.978728,-20.447006,45.9964,59.312866,0.88633645,4.321944,7.2166033
233,-0.46667107939720154,2.8895015716552734,77.2274398803711,1.5412952431589197,3.4917105617671296,-95.10384125457385,-8.080134,6.385005,5.1818266,21.545502,-17.33252,-5.512473,-8.404016,-10.980443,-4.9680467,15.62801,-11.163139,11.281593,-0.2293404,-1.4397948,0.7231533,-0.74237216,19.203388,-39.307926,55.062458,-0.40954465,9.165887,-1.7909532,-7.969864,-20.44603,45.997993,59.31607,0.8732838,4.3241715,7.2194667
234,-0.4656481146812439,2.887612819671631,77.22773742675781,1.5387783675168043,3.487805412181207,-95.1099281684881,-8.074497,6.3907,5.184187,21.547338,-17.337725,-5.5186954,-8.404671,-10.974862,-4.963142,15.637116,-11.167669,11.276032,-0.22877254,-1.4365989,0.72394264,-0.7267347,19.198154,-39.28842,55.05433,-0.38725165,9.152683,-1.7531184,-7.9642143,-20.442621,46.003662,59.31799,0.85717225,4.3299003,7.2249217
235,-0.46525782346725464,2.886723041534424,77.2275619506836,1.5360947123852684,3.4838186453683426,-95.11554666879313,-8.068488,6.3967557,5.185668,21.548193,-17.343073,-5.526137,-8.40379,-10.968975,-4.959276,15.643852,-11.171416,11.271138,-0.22729097,-1.4340475,0.72580516,-0.71652734,19.193853,-39.27611,55.050426,-0.36734173,9.1401205,-1.7083697,-7.958558,-20.43948,46.00758,59.317814,0.84324616,4.336372,7.2306094
236,-0.4706608057022095,2.888432025909424,77.224365234375,1.5342683227517606,3.4810136125758344,-95.11911269784434,-8.064429,6.40146,5.186302,21.549112,-17.347008,-5.5328774,-8.401623,-10.96485,-4.958206,15.645768,-11.172909,11.269354,-0.2226943,-1.4321442,0.7269168,-0.71359265,19.192978,-39.27267,55.049335,-0.35488245,9.135318,-1.6733594,-7.9530053,-20.438782,46.00867,59.317238,0.8359163,4.3410935,7.2348995
237,-0.47336748242378235,2.8851964473724365,77.22221374511719,1.5328788462177487,3.4786380079820307,-95.1208225794926,-8.061867,6.4058285,5.1864667,21.550938,-17.35009,-5.5395255,-8.395906,-10.961497,-4.9610224,15.639865,-11.171411,11.272402,-0.22546984,-1.4318779,0.72488886,-0.7034278,19.185385,-39.25704,55.05136,-0.33294728,9.13972,-1.6328582,-7.948909,-20.433105,46.020885,59.315845,0.8349514,4.347154,7.2368345
238,-0.4725427031517029,2.8853225708007812,77.22441864013672,1.5321171180089979,3.4771757436929946,-95.12018047985656,-8.061338,6.4094286,5.1849513,21.553501,-17.352493,-5.546527,-8.38756,-10.959507,-4.9676003,15.627783,-11.16727,11.278825,-0.22981395,-1.4303764,0.7208531,-0.70164365,19.176563,-39.2484,55.062935,-0.31615487,9.150095,-1.5935652,-7.9491463,-20.42604,46.036545,59.319904,0.841557,4.351693,7.2378426
