unveil-humanoid-operators/unveil-humanoid-operators.github.io/feature-analysis-animation/data/feature_matrix_instances/age_ankle_rom_walking_A094_walk_ff_loop_225_003__A094.csv
Frame,root_translateX,root_translateY,root_translateZ,root_rotateX,root_rotateY,root_rotateZ,left_hip_pitch_joint_dof,left_hip_roll_joint_dof,left_hip_yaw_joint_dof,left_knee_joint_dof,left_ankle_pitch_joint_dof,left_ankle_roll_joint_dof,right_hip_pitch_joint_dof,right_hip_roll_joint_dof,right_hip_yaw_joint_dof,right_knee_joint_dof,right_ankle_pitch_joint_dof,right_ankle_roll_joint_dof,waist_yaw_joint_dof,waist_roll_joint_dof,waist_pitch_joint_dof,left_shoulder_pitch_joint_dof,left_shoulder_roll_joint_dof,left_shoulder_yaw_joint_dof,left_elbow_joint_dof,left_wrist_roll_joint_dof,left_wrist_pitch_joint_dof,left_wrist_yaw_joint_dof,right_shoulder_pitch_joint_dof,right_shoulder_roll_joint_dof,right_shoulder_yaw_joint_dof,right_elbow_joint_dof,right_wrist_roll_joint_dof,right_wrist_pitch_joint_dof,right_wrist_yaw_joint_dof
0,-0.719321608543396,-2.079800844192505,78.05078887939453,-2.8059537845937252,-2.0478890170807733,78.11282738980671,-33.741882,-3.054548,-5.91571,59.15423,-9.486362,3.6826751,4.9810376,10.228494,3.0147507,7.4464974,-10.079062,-6.1490803,7.1193957,0.30595672,12.84502,11.520925,15.040956,-22.604647,54.612747,16.000547,2.375132,5.360348,-5.418915,-20.067719,21.866556,60.69032,-20.587494,-0.62702936,-0.5722678
1,-0.3070172369480133,-1.6042150259017944,77.98759460449219,-2.7450702060366674,-1.9194961188379012,77.43610022896002,-33.54102,-3.6118388,-5.7214975,56.080853,-8.886186,3.4459205,5.288746,10.528672,3.6637368,7.4842067,-10.422505,-6.3423448,7.6186395,0.37933877,12.668082,12.041743,15.007941,-22.61662,54.804325,15.760657,2.325035,5.3453097,-5.8810263,-20.071503,22.044035,60.422527,-20.554398,-0.6027035,-0.620378
2,0.11622640490531921,-1.1077073812484741,77.91471099853516,-2.684455379140928,-1.7906153611299795,76.75426503638646,-33.341637,-4.1670423,-5.5379596,52.991566,-8.26756,3.238405,5.597552,10.831465,4.319599,7.519803,-10.762227,-6.5393605,8.064412,0.46092942,12.468607,12.563677,14.893225,-22.567648,55.044575,15.536119,2.266991,5.3576684,-6.436038,-20.052052,22.310501,60.264492,-20.485815,-0.57116365,-0.69118315
3,0.550733208656311,-0.6190290451049805,77.8305435180664,-2.6348815311403313,-1.6651555419754491,76.07495470408145,-33.06287,-4.699259,-5.3723817,49.806683,-7.6481843,2.9788985,5.922279,11.143859,4.977813,7.5489407,-11.0952015,-6.743671,8.50889,0.5535915,12.258394,13.036741,14.749675,-22.538979,55.36932,15.339523,2.2230203,5.350479,-6.9824877,-20.01875,22.575975,60.10405,-20.463766,-0.5450809,-0.74519354
4,0.9886203408241272,-0.11405482888221741,77.74158477783203,-2.604524259008729,-1.5468404225391614,75.40530578083848,-32.621933,-5.182156,-5.235462,46.43656,-7.0454397,2.5907261,6.2766204,11.472584,5.6342144,7.5722914,-11.422646,-6.957796,8.9282,0.6624451,12.04029,13.458643,14.596316,-22.531933,55.800545,15.201743,2.2128046,5.2765136,-7.4973626,-19.97521,22.863665,59.890778,-20.535778,-0.5338717,-0.7496557
5,1.4274250268936157,0.3991263508796692,77.64042663574219,-2.5963653848517354,-1.4366128979147708,74.7425244194324,-31.99707,-5.6326766,-5.19344,42.81622,-6.4620466,2.057319,6.669534,11.820515,6.2995467,7.574675,-11.73875,-7.1758313,9.322127,0.7873503,11.816527,13.833485,14.445087,-22.555925,56.348343,15.151022,2.2440517,5.1100087,-7.973896,-19.92295,23.180279,59.604675,-20.737335,-0.5392655,-0.6786634
6,1.8755327463150024,0.9171911478042603,77.52803802490234,-2.609524617668742,-1.3349953843039786,74.08066729518141,-31.221289,-6.0356674,-5.2262454,38.975327,-5.877263,1.4309891,7.0992107,12.185555,6.9774837,7.5529404,-12.041405,-7.3975153,9.702791,0.9277087,11.590537,14.178765,14.300891,-22.602486,56.97228,15.160892,2.3051672,4.875934,-8.4190235,-19.862282,23.516111,59.261868,-21.031004,-0.55722415,-0.5535031
7,2.332014322280884,1.4365087747573853,77.40597534179688,-2.650580746388029,-1.246163201936411,73.42176417041819,-30.294178,-6.322989,-5.212189,34.96733,-5.271312,0.73215896,7.575687,12.570205,7.6564007,7.499851,-12.3222685,-7.6352973,10.073617,1.089689,11.364494,14.499946,14.167375,-22.653418,57.635284,15.181158,2.3879066,4.606303,-8.832516,-19.794525,23.857285,58.87627,-21.363214,-0.5891049,-0.41379946
8,2.794149160385132,1.9780399799346924,77.2754135131836,-2.7266903140953014,-1.1749083070883897,72.76706166108484,-29.21152,-6.4442234,-5.0223823,30.840183,-4.61749,-0.032012865,8.10798,12.979604,8.325337,7.408821,-12.571689,-7.90335,10.438867,1.2810494,11.1407585,14.802086,14.0471325,-22.690992,58.300285,15.161807,2.4845011,4.3331966,-9.212459,-19.720966,24.189623,58.459297,-21.68036,-0.6353419,-0.29888067
9,3.2621562480926514,2.510262966156006,77.13357543945312,-2.856781845836255,-1.1341133278082418,72.10060372838235,-27.895716,-6.374009,-4.6184144,26.443516,-3.8539648,-0.9901827,8.730121,13.436165,9.006846,7.2412167,-12.774576,-8.203301,10.817095,1.523629,10.9237995,15.086089,13.941755,-22.710302,58.969624,15.04171,2.5987637,4.065883,-9.560349,-19.644424,24.517735,58.007988,-21.965828,-0.69704074,-0.20846339
10,3.7306535243988037,3.06510066986084,76.97599029541016,-3.0571277544922135,-1.1290631158355886,71.40897741671215,-26.328808,-6.134432,-4.0598493,21.727417,-2.968354,-2.1204412,9.383547,13.971934,9.706103,7.1285653,-12.995605,-8.534926,11.217873,1.8361351,10.714038,15.356396,13.851752,-22.72105,59.65161,14.863013,2.7339506,3.7868705,-9.874452,-19.56698,24.846313,57.515102,-22.24884,-0.77354413,-0.12384469
11,4.210141658782959,3.63230037689209,76.80326080322266,-3.3278147470051525,-1.1502495289690509,70.69944080878328,-24.619661,-5.762485,-3.3551269,16.93859,-2.0286684,-3.1991053,10.035305,14.59005,10.406806,7.1116686,-13.235759,-8.908794,11.637729,2.2181592,10.508513,15.622983,13.785164,-22.733824,60.312016,14.729344,2.8808799,3.4857485,-10.136352,-19.496758,25.151888,56.970707,-22.54294,-0.86275417,-0.054930665
12,4.688848972320557,4.204275608062744,76.62527465820312,-3.6471076843148253,-1.17682012057115,69.99568363933174,-22.900188,-5.320334,-2.5135121,12.351295,-1.1190867,-3.9980242,10.707003,15.253573,11.092578,7.090424,-13.424626,-9.329598,12.052753,2.6446161,10.298419,15.887006,13.742032,-22.754686,60.931973,14.746379,3.027219,3.1538317,-10.337199,-19.437082,25.416466,56.376022,-22.861982,-0.96213144,-0.014122142
13,5.183658123016357,4.778794288635254,76.4444351196289,-3.9891235969305474,-1.1966797528245834,69.32268099058872,-21.100813,-4.8502655,-1.4832642,7.781704,-0.16837111,-4.400822,11.386672,15.930908,11.730631,7.0651526,-13.565097,-9.815995,12.414486,3.08728,10.076927,16.157616,13.706265,-22.764511,61.51586,15.023569,3.180992,2.7440345,-10.510073,-19.368595,25.668936,55.762646,-23.244497,-1.0756398,-0.018571472
14,5.673727512359619,5.3469157218933105,76.2613754272461,-4.333391010343695,-1.2036478201206247,68.68971202239075,-20.882633,-4.4061947,-0.13267288,6.7104573,-1.0301327,-4.552641,12.064781,16.596514,12.31649,7.040592,-13.670416,-10.349251,12.723867,3.523265,9.842623,16.419945,13.681033,-22.76721,62.083206,15.478422,3.3409252,2.2756763,-10.652855,-19.291344,25.904554,55.12593,-23.673912,-1.20255,-0.059610672
15,6.168676853179932,5.925961017608643,76.08788299560547,-4.64110597392206,-1.1761863821338343,68.11542356841194,-21.052572,-3.972039,1.3028164,6.6055164,-2.2874596,-4.6103325,12.713442,17.199482,12.844465,7.01427,-13.738723,-10.872635,12.961411,3.9010923,9.582412,16.65815,13.66669,-22.755968,62.647358,15.93766,3.4867163,1.8456942,-10.786435,-19.179516,26.12557,54.510475,-24.073961,-1.3293025,-0.12742801
16,6.665135860443115,6.51261043548584,75.92634582519531,-4.9037494821569405,-1.0984117690807773,67.60389923978346,-21.180662,-3.5706003,2.6675193,6.5622935,-3.3792017,-4.7252264,13.301873,17.73008,13.319181,7.00085,-13.772876,-11.334789,13.156852,4.2090917,9.289245,16.841143,13.676848,-22.759315,63.21429,16.220942,3.6022625,1.5490762,-10.864816,-19.061487,26.288006,53.879192,-24.368732,-1.4452256,-0.19852395
17,7.165842533111572,7.098196983337402,75.77728271484375,-5.116098708653832,-0.987409384174784,67.14470818226506,-21.178484,-3.2015378,4.081983,6.4947586,-4.3518815,-5.0556602,13.864771,18.188776,13.744212,6.9861517,-13.776402,-11.737559,13.3210745,4.453819,8.981036,16.960089,13.703416,-22.787104,63.801136,16.259306,3.6791153,1.4341439,-10.856888,-18.967842,26.38741,53.178898,-24.509047,-1.5422981,-0.26837814
18,7.669384956359863,7.685711860656738,75.63246154785156,-5.332336695711458,-0.8407197362006558,66.73386201457402,-21.111202,-2.8072257,5.5404696,6.4992886,-5.2587943,-5.4886007,14.398197,18.645823,14.118642,6.9671702,-13.741363,-12.108926,13.438203,4.6799803,8.637773,17.043062,13.748879,-22.82039,64.391556,16.15329,3.7299237,1.4438286,-10.811122,-18.861193,26.452755,52.4672,-24.545904,-1.6276977,-0.35047913
19,8.184432029724121,8.289549827575684,75.50543212890625,-5.443835095756786,-0.6293207180944478,66.41427142516073,-21.004963,-2.5629573,6.8024445,6.488096,-5.861704,-5.7161756,14.847852,18.970007,14.405624,6.9554586,-13.668758,-12.401073,13.475028,4.774734,8.274661,17.071394,13.815271,-22.849009,64.9709,15.983178,3.7680295,1.5137097,-10.735513,-18.735567,26.478148,51.776485,-24.54152,-1.7133499,-0.44151586
20,8.71821117401123,8.89278793334961,75.39390563964844,-5.375629440338778,-0.332751527233888,66.22861848914435,-20.94068,-2.6006746,7.6099195,6.4897823,-5.986817,-5.42901,15.1738,19.071032,14.569918,6.9562063,-13.556643,-12.572793,13.397749,4.64781,7.9082947,17.044794,13.924991,-22.858746,65.50095,15.827217,3.8090973,1.5777723,-10.669852,-18.553762,26.45652,51.179462,-24.563423,-1.8156763,-0.5407133
21,9.236430168151855,9.485316276550293,75.33871459960938,-5.059077007642687,0.09067930140216768,66.21719822790858,-20.93143,-3.0413513,7.7966757,6.4802227,-5.498598,-4.373711,15.285582,18.889929,14.541436,7.0531363,-13.489007,-12.615211,13.157728,4.2405024,7.530856,16.934021,14.049413,-22.844614,66.00996,15.705114,3.8456242,1.6381415,-10.579713,-18.36388,26.390516,50.60498,-24.616215,-1.9363651,-0.63272715
22,9.749103546142578,10.07041072845459,75.31855773925781,-4.535116244093525,0.6109065510620594,66.33906143452674,-20.938591,-3.794747,7.5638204,6.4493017,-4.5018916,-2.7696495,15.232339,18.483408,14.360074,7.2350116,-13.450412,-12.540887,12.794388,3.6138158,7.1429067,16.74515,14.172237,-22.816984,66.50861,15.577603,3.8759606,1.7262033,-10.4485035,-18.18845,26.285814,50.02764,-24.663664,-2.0692506,-0.71901053
23,10.263792037963867,10.66454792022705,75.31649780273438,-3.871156758909867,1.1447534657214293,66.52441160318654,-20.947302,-4.6995564,7.2081213,6.4154525,-3.1813304,-1.0112281,14.608997,18.041656,13.964938,8.551143,-13.926709,-12.33291,12.398275,2.793314,6.7739015,16.5554,14.394587,-22.768139,66.91264,15.435357,3.9126148,1.8100333,-10.340644,-17.895586,26.127062,49.59317,-24.728298,-2.207383,-0.82915586
24,10.74805736541748,11.229084014892578,75.34273529052734,-3.160645192445555,1.6060928656273896,66.70257236455377,-20.935232,-5.571033,6.9997926,6.385193,-1.7324642,0.51883286,13.664645,17.627014,13.509994,10.691806,-14.675868,-11.982762,12.036129,1.9399177,6.4757476,16.32959,14.62209,-22.690697,67.27576,15.296884,3.9650033,1.8882159,-10.172062,-17.622066,25.956821,49.196476,-24.75902,-2.3353086,-0.95776695
25,11.222221374511719,11.81334400177002,75.381103515625,-2.3637192770678737,1.9876291607032932,66.87133332048049,-20.907598,-6.419859,7.0119095,6.323835,0.01640853,1.7729357,12.806676,17.112318,13.151824,12.852395,-15.346673,-11.464113,11.72995,1.0062767,6.266602,16.057554,14.866657,-22.580719,67.592804,15.160488,4.048206,1.9519002,-9.926825,-17.359804,25.740705,48.815563,-24.77517,-2.4493692,-1.103107
26,11.746687889099121,12.423263549804688,75.41938781738281,-1.4514865350388593,2.3297375726790714,67.05779126983532,-20.873852,-7.3172703,7.118908,6.2452235,2.0817764,2.953149,11.96369,16.474974,12.836162,15.095764,-15.993215,-10.781218,11.44635,-0.045786396,6.120357,15.738478,15.134426,-22.445717,67.86324,15.022174,4.1520634,2.009509,-9.616029,-17.102707,25.480553,48.451992,-24.778465,-2.556479,-1.2601669
27,12.314303398132324,13.040837287902832,75.45980072021484,-0.5113341632596352,2.6095209759954807,67.24446981091806,-20.77419,-8.204397,7.2604427,6.1745286,4.042705,4.05704,11.149777,15.805153,12.5286875,17.405191,-16.453655,-9.968089,11.186997,-1.1205049,6.0314255,15.39703,15.424407,-22.307789,68.08534,14.883115,4.2511096,2.0708337,-9.268916,-16.84786,25.221518,48.169827,-24.737474,-2.6628404,-1.4358581
28,12.873127937316895,13.643314361572266,75.50968170166016,0.36394908499383644,2.804598355476492,67.41304561088428,-20.55002,-9.020386,7.3516073,6.1399784,5.4808426,5.0669875,10.362041,15.200318,12.191907,19.785118,-16.566254,-9.056045,10.952315,-2.115137,5.994006,15.054665,15.730046,-22.188759,68.262596,14.744925,4.3200016,2.1461246,-8.916015,-16.594683,25.009113,48.033455,-24.62059,-2.7747996,-1.6372298
29,13.435041427612305,14.252185821533203,75.57086944580078,1.1516613977513406,2.911674523606003,67.58039648041522,-20.192116,-9.754207,7.307526,6.157737,6.2704597,5.9759088,9.547593,14.717845,11.794612,22.351484,-16.349455,-8.200618,10.732834,-3.010061,6.004607,14.693814,16.052784,-22.11344,68.43019,14.585337,4.336656,2.2540915,-8.554294,-16.339396,24.85095,48.082233,-24.37451,-2.9253533,-1.9250386
30,13.989212036132812,14.858711242675781,75.65591430664062,1.8915841138487317,2.9416408897112722,67.74982236862999,-19.729445,-10.431037,7.154603,6.215886,6.6357265,6.7849717,8.72189,14.310687,11.369296,25.057514,-15.864848,-7.32625,10.529823,-3.8496356,6.0656657,14.308717,16.393358,-22.06542,68.578995,14.410708,4.3194594,2.3837106,-8.175843,-16.080687,24.725124,48.281086,-24.032167,-3.1020143,-2.2764363
31,14.541671752929688,15.458661079406738,75.74449920654297,2.5756002037074333,2.8936951709295764,67.88636528355454,-19.162104,-11.045375,6.9615154,6.30513,6.694461,7.478992,7.968782,13.936181,10.974333,27.700634,-15.044993,-6.1223774,10.353823,-4.616099,6.1794724,13.935293,16.737951,-22.00081,68.651695,14.268924,4.3042135,2.5019155,-7.8015485,-15.8264265,24.633348,48.580242,-23.691746,-3.2408397,-2.5736382
32,15.09101676940918,16.059579849243164,75.83077239990234,3.1996304354084626,2.765941617613898,67.95742593680347,-18.581707,-11.582187,6.824584,6.6117754,6.4570622,8.042473,7.3682427,13.5583315,10.677494,30.09833,-13.843317,-4.279095,10.210876,-5.290312,6.3510566,13.605052,17.063185,-21.873684,68.59844,14.208206,4.327236,2.5780995,-7.452978,-15.590833,24.581818,48.929535,-23.447285,-3.275574,-2.69968
33,15.63085651397705,16.670408248901367,75.9216079711914,3.7462326616571144,2.5376899157665034,67.9415282150637,-18.052006,-12.020105,6.771862,7.341775,5.763505,8.437879,6.894644,13.234607,10.542031,32.362747,-12.179383,-1.7462114,10.117508,-5.8401804,6.5938067,13.319645,17.348606,-21.670382,68.42131,14.261607,4.4128194,2.5924113,-7.127334,-15.3863325,24.589432,49.339657,-23.321749,-3.1719182,-2.6179607
34,16.151445388793945,17.282209396362305,76.01594543457031,4.216641688346406,2.217846712144611,67.86466877349923,-17.232674,-12.398687,6.6852374,7.769968,4.9655137,8.679635,6.49763,13.022015,10.556064,34.614464,-10.177011,1.3362904,10.057584,-6.2679915,6.900504,13.04994,17.589455,-21.415785,68.163246,14.39901,4.536801,2.569678,-6.8112206,-15.216856,24.651546,49.823982,-23.26226,-2.9688745,-2.3931437
35,16.65390968322754,17.89250373840332,76.1161117553711,4.63078538091301,1.8495098976409041,67.76495704601165,-16.27151,-12.71168,6.584856,8.061591,4.1166754,8.825134,6.194465,12.890052,10.6721,36.74788,-8.110477,4.9785237,9.99002,-6.605162,7.2432246,12.784279,17.789042,-21.120598,67.832954,14.574931,4.6630025,2.546182,-6.5108714,-15.085013,24.735235,50.33653,-23.25229,-2.7094638,-2.0600748
36,17.153831481933594,18.50518798828125,76.21414947509766,5.00789320404539,1.4748185659028152,67.68028828464163,-15.313678,-12.963051,6.4974456,8.365831,3.2788415,8.941805,5.9942718,12.783242,10.8219385,38.665016,-6.226609,9.172125,9.875076,-6.8858833,7.5945535,12.513541,17.956264,-20.796408,67.433464,14.742223,4.7553544,2.5574334,-6.23319,-14.99251,24.807568,50.830566,-23.274681,-2.4370632,-1.6529856
37,17.648395538330078,19.084674835205078,76.2994613647461,5.361447984955929,1.1008710743716776,67.59684128466911,-14.365515,-13.180389,6.4724646,8.6621685,2.4755378,9.067665,6.021023,12.728016,11.162251,40.17032,-4.3313675,14.681277,9.715966,-7.122662,7.955051,12.258358,18.091917,-20.41123,66.92558,14.917178,4.8152337,2.597381,-5.991938,-14.944366,24.86715,51.30013,-23.356144,-2.123638,-1.0944483
38,18.226579666137695,19.631450653076172,76.36119842529297,5.336037190295846,0.6892695444488953,67.52199838479733,-14.120569,-12.836028,6.4591894,10.580873,0.7943372,9.019245,6.2577095,12.867475,9.978513,41.09671,-2.0022907,15.000033,9.52026,-7.0121155,8.302379,11.970481,18.190702,-19.987667,66.35966,15.111376,4.8569474,2.65535,-5.7646585,-14.938444,24.912773,51.747643,-23.496548,-1.7589083,-0.39545467
39,18.81574249267578,20.166173934936523,76.41044616699219,5.114942258159007,0.2885037494183663,67.4237671457074,-14.035114,-12.250898,6.4332952,12.828268,-1.0712615,8.87923,6.2266164,12.869074,8.234444,42.250645,0.13569662,15.000033,9.303837,-6.7133756,8.624482,11.701253,18.29911,-19.536785,65.707886,15.286953,4.8676376,2.737969,-5.555436,-14.949256,24.971119,52.18658,-23.63328,-1.4169562,0.2790222
40,19.36583137512207,20.711545944213867,76.47499084472656,4.916676478799542,-0.09859641458573726,67.33604984915189,-13.641612,-11.748727,6.339552,14.387723,-2.5737994,8.689406,5.681378,12.516339,6.3454623,44.164116,1.4616109,15.000033,9.10175,-6.4131513,8.936332,11.354763,18.390177,-19.20147,65.11011,15.375861,4.8326626,2.8827066,-5.306272,-14.983839,24.982174,52.608505,-23.718372,-1.1694735,0.7664023
41,19.877140045166016,21.26797866821289,76.55783081054688,4.86209535265798,-0.5171309462863954,67.31276697340999,-12.75646,-11.490281,6.1604853,14.968366,-3.5634937,8.434642,4.6660476,11.767497,4.659116,46.95295,1.6058627,15.000033,8.849772,-6.235739,9.303746,10.97361,18.498718,-18.958612,64.50072,15.352337,4.7438293,3.088446,-5.01178,-15.048467,24.961369,52.975094,-23.756401,-1.035634,1.0425533
42,20.363271713256836,21.832443237304688,76.659912109375,4.925916490342173,-0.9807467365103871,67.36496184168955,-11.495693,-11.435597,5.915708,14.847471,-4.193998,8.130451,3.4390044,10.720184,3.2218924,50.21754,0.8659838,15.000033,8.536069,-6.155743,9.724019,10.544425,18.59829,-18.791317,63.896656,15.248639,4.6109314,3.3505776,-4.7003503,-15.124248,24.905273,53.33109,-23.77735,-0.9758354,1.1847229
43,20.839319229125977,22.402013778686523,76.76541137695312,5.044123994165433,-1.4626885109395233,67.49392533608325,-10.019996,-11.507257,5.5868683,14.297892,-4.594645,7.8298697,2.1755195,9.410487,1.8819377,53.500786,-0.23066415,15.000033,8.170665,-6.127023,10.17573,10.084608,18.724995,-18.700026,63.27724,15.107386,4.4438787,3.6379302,-4.335834,-15.234957,24.81273,53.63979,-23.717182,-0.97476184,1.200051
44,21.30527114868164,22.96249771118164,76.87287139892578,5.137776554215421,-1.9280584879585492,67.68285212470259,-8.524535,-11.592134,5.17142,13.647277,-4.923729,7.577548,1.0138416,7.864416,0.44092906,56.41668,-1.2075695,15.000033,7.7806582,-6.0756583,10.603597,9.556034,18.852095,-18.703669,62.720005,14.976159,4.2559805,3.9433374,-3.934175,-15.358211,24.681538,53.964733,-23.530842,-1.0152385,1.0823302
45,21.77884292602539,23.534276962280273,76.98635864257812,5.193052754945545,-2.373851588534155,67.94990152488297,-7.029608,-11.673364,4.6345773,12.922039,-5.1846504,7.38229,-0.0170349,5.9617553,-1.2728168,58.931374,-2.0427136,15.000033,7.3474264,-5.9880123,11.001655,8.949768,18.98075,-18.831837,62.23991,14.819018,4.015983,4.298091,-3.4908614,-15.491073,24.504353,54.31099,-23.161062,-1.1230766,0.76087254
46,22.23813247680664,24.106658935546875,77.09648132324219,5.2494469157858195,-2.8291067958719958,68.31553514807314,-5.4320855,-11.789401,3.959229,11.970181,-5.2995086,7.208292,-0.94262797,3.717758,-3.1130414,61.24758,-3.0135937,15.000033,6.8469777,-5.901165,11.401377,8.278928,19.111359,-19.070929,61.81234,14.627505,3.728134,4.698061,-3.0083084,-15.6334505,24.284523,54.667908,-22.652348,-1.3006122,0.26060876
47,22.686840057373047,24.661561965942383,77.200927734375,5.30086167087886,-3.294857175268937,68.74505029698064,-3.7637146,-11.897781,3.1988862,10.865387,-5.315432,7.0347342,-1.7573454,1.3573021,-4.8498406,63.353313,-4.052763,15.000033,6.3160934,-5.815068,11.806543,7.562076,19.238379,-19.362644,61.414516,14.490207,3.4599402,5.0750585,-2.4932976,-15.786602,24.038506,55.03271,-22.10301,-1.4949566,-0.27640972
48,23.129981994628906,25.208415985107422,77.29629516601562,5.339999110507203,-3.760767710498398,69.191556735029,-2.064092,-11.964046,2.4246984,9.683607,-5.286192,6.8514185,-2.505156,-0.8767583,-6.263631,65.23412,-5.061009,15.000033,5.8003163,-5.7240224,12.211359,6.815586,19.353468,-19.64678,61.028862,14.4950485,3.2799172,5.363347,-1.9567667,-15.952405,23.785877,55.405853,-21.607962,-1.6487014,-0.71032584
49,23.565235137939453,25.768692016601562,77.3897933959961,5.32220053577996,-4.206447750910362,69.61574954720663,-0.42464,-11.9244585,1.6817824,8.588596,-5.314782,6.651833,-3.248483,-2.912055,-7.3555284,66.879425,-5.9799957,15.000033,5.3411,-5.57812,12.592966,6.024219,19.452253,-19.93766,60.68355,14.703443,3.2117474,5.5455513,-1.3963157,-16.133204,23.517618,55.79624,-21.15468,-1.7570122,-1.0356168
50,24.041648864746094,26.31259536743164,77.48168182373047,5.136149199648042,-4.5828530245629695,69.93631379099072,0.86890966,-11.606319,1.0698348,8.077186,-5.669387,6.394333,-4.003758,-5.0371623,-8.86345,68.25596,-6.802635,13.123093,5.012857,-5.2834105,12.908938,5.1752257,19.536057,-20.257576,60.388794,15.057047,3.217208,5.658605,-0.8100517,-16.324736,23.22844,56.199684,-20.701994,-1.8454974,-1.3187027
51,24.529855728149414,26.852333068847656,77.57101440429688,4.93192328902077,-4.932788370137514,70.24523936676509,2.1202815,-11.246136,0.4956779,7.5882177,-6.032193,6.1416974,-4.7415967,-7.129619,-10.334629,69.42037,-7.662811,10.669425,4.715648,-4.979132,13.207928,4.3040442,19.602142,-20.55921,60.09252,15.461435,3.2737055,5.7185655,-0.21469572,-16.526196,22.945091,56.608242,-20.306343,-1.8989764,-1.5270241
52,25.025983810424805,27.37849998474121,77.6391830444336,4.720215406889566,-5.248658484574328,70.53702925861033,3.271172,-10.853635,-0.01347102,7.211092,-6.429756,5.897877,-5.4987354,-9.025007,-11.518661,70.36027,-8.55739,8.444204,4.442017,-4.675249,13.485557,3.4410682,19.6496,-20.786,59.742577,15.824199,3.3607526,5.7413807,0.36637294,-16.733412,22.701675,57.01684,-20.021004,-1.900957,-1.6301029
53,25.504758834838867,27.914602279663086,77.70457458496094,4.503954082448239,-5.529285184784817,70.78452096413122,4.148361,-10.426206,-0.388364,7.308481,-7.0534716,5.657321,-6.3141155,-10.693832,-12.396943,71.065895,-9.45143,6.4550405,4.21112,-4.3714542,13.740095,2.5909743,19.676506,-20.907244,59.334015,16.12885,3.4965525,5.7113867,0.9208834,-16.945715,22.51687,57.436478,-19.892176,-1.8290168,-1.6039138
54,25.99664306640625,28.4334659576416,77.75553131103516,4.286562975308983,-5.7772756202386555,70.99685104200267,4.9382777,-9.975214,-0.6833267,7.497914,-7.7073064,5.4190283,-7.201434,-12.1603155,-13.007342,71.53681,-10.320628,4.642239,4.018362,-4.0690584,13.970128,1.7390051,19.683775,-20.95194,58.89332,16.424284,3.684158,5.6262646,1.4558539,-17.163313,22.375767,57.873226,-19.879477,-1.6961561,-1.4713212
55,26.494768142700195,28.933610916137695,77.80484771728516,4.075258172739745,-5.987139932280391,71.22142903461402,5.669875,-9.5180235,-0.9738609,7.6892257,-8.338163,5.180467,-8.141484,-13.435756,-13.388367,71.75514,-11.13954,3.0573378,3.821782,-3.782138,14.170559,0.8864047,19.676819,-20.952454,58.41719,16.716484,3.877528,5.523051,1.9766176,-17.382204,22.259413,58.317204,-19.908628,-1.5398566,-1.272609
56,26.994197845458984,29.427892684936523,77.84645080566406,3.8751124762776423,-6.152936007697902,71.5066233429727,6.3262167,-9.070041,-1.3273621,7.891057,-8.946479,4.942717,-9.108462,-14.533187,-13.578995,71.705215,-11.8804035,1.7505423,3.5783782,-3.5231545,14.337239,0.037734058,19.663788,-20.940691,57.897522,17.008554,4.0310063,5.4386663,2.4886146,-17.594152,22.149456,58.75833,-19.90575,-1.3972481,-1.0483161
57,27.506685256958008,29.913286209106445,77.88211059570312,3.6807627476481715,-6.263288227250877,71.85824052295926,6.889403,-8.629961,-1.7589161,8.119075,-9.532855,4.721662,-10.124891,-15.434354,-13.578803,71.37166,-12.506264,0.7582777,3.2839618,-3.2936037,14.460469,-0.80480963,19.65026,-20.905233,57.32384,17.313818,4.145342,5.3574166,2.9869542,-17.791655,22.056421,59.20333,-19.859764,-1.2666482,-0.7851905
58,28.020078659057617,30.4044189453125,77.91201782226562,3.4894699422604294,-6.323866286900238,72.25279564167269,7.3699975,-8.19079,-2.2337499,8.374256,-10.103474,4.513978,-11.20038,-16.135258,-13.383146,70.76658,-13.014126,0.04049997,2.960139,-3.0881243,14.544421,-1.640872,19.638346,-20.834219,56.698177,17.625072,4.2407355,5.267424,3.4653685,-17.972902,21.98614,59.662163,-19.808535,-1.1319249,-0.4709222
59,28.537416458129883,30.8869686126709,77.93507385253906,3.307924811542618,-6.354141670858636,72.69551796517464,7.804972,-7.759915,-2.7468965,8.623724,-10.658886,4.2938876,-12.283867,-16.676443,-13.023564,69.918,-13.431051,-0.47061154,2.6031759,-2.9082694,14.6065855,-2.4656863,19.63008,-20.759039,56.0271,17.914148,4.3012342,5.2113843,3.9322248,-18.137724,21.91007,60.1237,-19.753218,-1.0088204,-0.14698505
60,29.052453994750977,31.360239028930664,77.94001770019531,3.1445571097210316,-6.373579255910918,73.19167130552275,8.227839,-7.3439403,-3.2920165,8.840183,-11.202395,4.0358057,-13.32414,-17.103624,-12.526697,68.855865,-13.789356,-0.84317607,2.2128155,-2.757061,14.664755,-3.277998,19.626905,-20.716064,55.32001,18.151913,4.3116007,5.2325735,4.39854,-18.288689,21.794819,60.57527,-19.69541,-0.9134374,0.14546283
61,29.582050323486328,31.837421417236328,77.93878936767578,2.999094934280492,-6.382332490321441,73.76090704522858,8.643825,-6.9449425,-3.879385,9.007105,-11.731358,3.7191372,-14.325238,-17.413223,-11.871504,67.58642,-14.111585,-1.0852631,1.7702283,-2.644504,14.717993,-4.080709,19.631428,-20.702465,54.571926,18.31364,4.245923,5.3702593,4.843032,-18.396696,21.640587,61.048706,-19.645988,-0.85588545,0.40149626
62,30.102231979370117,32.31302261352539,77.92401123046875,2.8695056444193483,-6.371779566678165,74.39510805736695,9.0351925,-6.5618215,-4.5074644,9.149034,-12.251061,3.364096,-15.299034,-17.60345,-11.050622,66.09756,-14.372826,-1.1787292,1.3010273,-2.548581,14.774071,-4.88116,19.640701,-20.72493,53.761578,18.411428,4.119095,5.5893717,5.3360972,-18.52886,21.425102,61.447124,-19.597923,-0.8283156,0.659003
63,30.630094528198242,32.78593063354492,77.89808654785156,2.760039076131769,-6.348887936793821,75.05905471996627,9.41483,-6.19574,-5.154801,9.2726345,-12.761289,3.0051525,-16.209274,-17.724472,-10.109511,64.39608,-14.540929,-1.1511786,0.80252683,-2.4896314,14.809639,-5.6526785,19.651768,-20.755737,52.93132,18.501575,3.9809332,5.8321724,5.7895937,-18.619024,21.21207,61.884754,-19.533485,-0.810581,0.8783914
64,31.1533145904541,33.25806427001953,77.86180877685547,2.675707523089005,-6.319851558036318,75.71653083996753,9.782668,-5.8463755,-5.7990394,9.405406,-13.270669,2.6755273,-17.022001,-17.82029,-9.095819,62.483654,-14.581992,-1.0258834,0.33715448,-2.4432662,14.838012,-6.406801,19.66368,-20.846334,52.094486,18.609655,3.8795676,6.0351887,6.286437,-18.728342,20.95277,62.25812,-19.438986,-0.78927016,1.0612897
65,31.67841339111328,33.74162673950195,77.81594848632812,2.622991339363369,-6.289606976915001,76.37092165796149,10.139626,-5.523917,-6.4470425,9.545872,-13.772123,2.3893793,-17.72681,-17.915648,-8.016503,60.348392,-14.485041,-0.7534549,-0.13140638,-2.4265256,14.851703,-7.130267,19.671146,-20.965645,51.260624,18.758148,3.827386,6.1825757,6.7588897,-18.821033,20.695019,62.646606,-19.289173,-0.76222605,1.1738192
66,32.21625900268555,34.23362350463867,77.7570571899414,2.598072505264915,-6.254223375063717,77.03770642092266,10.477459,-5.225353,-7.1065836,9.696857,-14.270932,2.126011,-18.334707,-17.997612,-6.8438897,57.993214,-14.275027,-0.35104215,-0.6043681,-2.436662,14.852659,-7.833301,19.674944,-21.119572,50.419247,18.921387,3.7987056,6.3076086,7.2231073,-18.90157,20.420612,63.034233,-19.101063,-0.7385074,1.2329363
67,32.76922607421875,34.72431945800781,77.69291687011719,2.5919841773800685,-6.2077544166776315,77.69649724297408,10.809097,-4.930697,-7.7584534,9.836624,-14.7641945,1.8657146,-18.852985,-18.054895,-5.5693254,55.454594,-13.975555,0.06467086,-1.0518398,-2.4636652,14.8299055,-8.505358,19.67345,-21.304857,49.573917,19.095907,3.785367,6.42539,7.7045903,-18.975508,20.124619,63.39053,-18.909296,-0.70880914,1.2765561
68,33.32468795776367,35.226924896240234,77.61625671386719,2.588328492814635,-6.1443630926200035,78.32892116994321,11.136221,-4.6152544,-8.383605,9.96552,-15.260937,1.5889916,-19.286522,-18.064766,-4.1926484,52.760075,-13.606682,0.37809488,-1.5036848,-2.5124457,14.758067,-9.087285,19.6733,-21.445099,48.715363,19.29937,3.7781386,6.54815,8.126451,-19.011656,19.89054,63.79846,-18.733902,-0.6669074,1.3226446
69,33.891841888427734,35.743106842041016,77.53355407714844,2.5804869588108277,-6.057446727622156,78.92915303314246,11.451124,-4.2710733,-8.979361,10.085287,-15.763977,1.2891217,-19.641796,-17.990866,-2.6874175,49.862774,-13.138186,0.56309867,-1.8356924,-2.54288,14.657295,-9.677537,19.665054,-21.690683,47.86834,19.492043,3.7855906,6.70356,8.66539,-19.05976,19.547861,64.07994,-18.625393,-0.6067797,1.4088603
70,34.469181060791016,36.267303466796875,77.44029235839844,2.5764077548398556,-5.951464732857963,79.50717536492972,11.753559,-3.9090302,-9.554817,10.196578,-16.269112,0.9766124,-19.91386,-17.871153,-1.0568416,46.781765,-12.581411,0.6643819,-2.1311128,-2.5730572,14.518839,-10.2273245,19.64309,-21.955885,47.020306,19.700712,3.8077867,6.8760104,9.219931,-19.103035,19.198145,64.33441,-18.539333,-0.5322576,1.5026193
71,35.061668395996094,36.80302047729492,77.34313201904297,2.579958713610346,-5.836011633253662,80.06815917160745,12.054687,-3.5338476,-10.106353,10.299555,-16.774612,0.6584747,-20.103024,-17.787224,0.65120214,43.645626,-12.015256,0.6884051,-2.4418614,-2.6229193,14.344173,-10.685272,19.623693,-22.174358,46.156982,19.932133,3.829399,7.022123,9.728658,-19.123825,18.899818,64.61505,-18.444815,-0.4561858,1.5901489
72,35.663352966308594,37.348793029785156,77.23490142822266,2.5959238153203352,-5.720716273171729,80.6162594865077,12.365037,-3.1487257,-10.629931,10.396799,-17.280107,0.34168816,-20.214214,-17.790895,2.3775141,40.564632,-11.509161,0.65952784,-2.6870544,-2.6761858,14.153391,-11.130988,19.587036,-22.451702,45.33629,20.151098,3.8399923,7.114154,10.30251,-19.135952,18.52466,64.82219,-18.349968,-0.3972983,1.6815753
73,36.27362823486328,37.89175033569336,77.10950469970703,2.628656436265718,-5.613788797693494,81.15031343816909,12.696416,-2.7593315,-11.120564,10.486464,-17.792072,0.030590465,-20.225527,-17.83355,4.1764116,37.433758,-11.023707,0.6873996,-2.951096,-2.757168,13.937779,-11.472252,19.553545,-22.677895,44.507942,20.391497,3.8252797,7.126333,10.839449,-19.128647,18.192268,65.05197,-18.211588,-0.35876635,1.7600517
74,36.90374755859375,38.453731536865234,76.97515869140625,2.673534359193733,-5.5065830082999,81.66740607739872,13.035007,-2.3586748,-11.58008,10.573816,-18.311058,-0.28020307,-20.164526,-17.882753,6.0495257,34.24675,-10.545994,0.7416011,-3.2331443,-2.8579648,13.695033,-11.702995,19.533682,-22.852869,43.650063,20.650843,3.794324,7.0786705,11.342284,-19.111605,17.905687,65.29166,-18.041586,-0.3323178,1.8320073
75,37.53666305541992,39.028480529785156,76.83259582519531,2.7119868165651004,-5.384723970187947,82.16964847941033,13.35614,-1.928741,-12.013736,10.66498,-18.823626,-0.5989115,-20.119884,-17.972881,7.8455987,31.255047,-10.179833,0.66283363,-3.4524271,-2.9508786,13.430888,-11.923144,19.508467,-23.07685,42.82649,20.891151,3.7662954,7.000977,11.890781,-19.075048,17.549543,65.4609,-17.895773,-0.31218237,1.9104975
76,38.17579650878906,39.60834884643555,76.6874771118164,2.7209020161543114,-5.233405353567528,82.66052424041185,13.628448,-1.4476852,-12.4278965,10.78135,-19.32484,-0.93445414,-20.177298,-18.11623,9.402952,28.704397,-10.030061,0.3071252,-3.6317613,-3.0207977,13.134301,-12.137733,19.472546,-23.32131,42.05543,21.108238,3.7567294,6.9133086,12.442327,-19.006447,17.154108,65.584915,-17.792072,-0.2888068,1.9943067
77,38.83234405517578,40.183753967285156,76.5368423461914,2.706638795408322,-5.039323507824827,83.13515567746221,13.843963,-0.919697,-12.81625,10.912955,-19.821772,-1.2888731,-20.413715,-18.304312,10.801065,26.692131,-10.182777,-0.53424776,-3.8062422,-3.073406,12.790727,-12.299671,19.437077,-23.527859,41.292595,21.312841,3.7797394,6.796293,12.966535,-18.919386,16.75843,65.68326,-17.722788,-0.2549332,2.0969207
78,39.494590759277344,40.75718307495117,76.3846664428711,2.649591866741473,-4.804525797798108,83.59984500549253,13.886916,-0.3507862,-13.181037,11.318212,-20.453651,-1.6622025,-20.780058,-18.435604,12.045662,25.075562,-10.596075,-1.6727276,-3.9823236,-3.0852199,12.40278,-12.397692,19.407684,-23.70194,40.5239,21.506783,3.8224678,6.6444097,13.476033,-18.829493,16.36254,65.74442,-17.673368,-0.21740751,2.2159913
79,40.15608596801758,41.33097839355469,76.23582458496094,2.536172528103044,-4.551592002519617,84.06073089663946,13.8166895,0.28343913,-13.535385,11.912397,-21.145922,-2.0550714,-21.12842,-18.469116,12.901145,23.695932,-11.136063,-2.6724677,-4.11591,-3.0477061,11.998812,-12.5022545,19.370754,-23.917204,39.82578,21.676651,3.8603284,6.498191,13.992304,-18.699066,15.930105,65.7561,-17.659447,-0.18650451,2.320955
80,40.83367156982422,41.89106369018555,76.08129119873047,2.3568833393915605,-4.306663727339598,84.52872319607242,13.685172,0.9988922,-13.897271,12.634373,-21.837332,-2.4672914,-21.28867,-18.441345,13.142966,22.377424,-11.603923,-3.1414316,-4.28855,-2.9505956,11.612764,-12.545691,19.34663,-24.094204,39.159946,21.831081,3.8612986,6.380498,14.473638,-18.581106,15.565049,65.70874,-17.645279,-0.17229696,2.3960278
81,41.51823425292969,42.45778274536133,75.92861938476562,2.107560811040061,-4.078279619323526,85.02620469214816,13.512902,1.8072954,-14.289688,13.461523,-22.54386,-2.9125154,-21.144882,-18.50018,12.505644,20.957447,-12.109093,-3.0377138,-4.4518743,-2.8020756,11.248017,-12.604365,19.327812,-24.328712,38.58207,21.963324,3.815974,6.2963023,14.968197,-18.417934,15.177738,65.5843,-17.684967,-0.16701558,2.4336677
82,42.2173957824707,43.029457092285156,75.77532196044922,1.8022550984223034,-3.8588476097687145,85.54570979301582,13.307932,2.69496,-14.7055435,14.362344,-23.255455,-3.3866887,-20.727087,-18.642902,11.164397,19.442324,-12.605822,-2.5628412,-4.6480074,-2.6087058,10.897809,-12.61819,19.324518,-24.551126,38.036736,22.082376,3.7380822,6.2253013,15.45044,-18.250538,14.8189535,65.392494,-17.751562,-0.16877349,2.450816
83,42.94084930419922,43.601375579833984,75.61937713623047,1.480308060697858,-3.6555086271761477,86.07219802081958,13.067494,3.606379,-15.138982,15.354061,-23.913395,-3.8603027,-20.204569,-18.744522,9.613128,18.138361,-12.765535,-1.7570721,-4.8529787,-2.4124017,10.579829,-12.599781,19.332893,-24.76353,37.54705,22.167927,3.6476312,6.1860337,15.9006405,-18.07158,14.509123,65.163925,-17.799683,-0.19608554,2.4337413
84,43.66951370239258,44.14015197753906,75.48933410644531,1.1367071278340113,-3.4582217483329685,86.56939239401471,12.7706,4.5316224,-15.561788,16.45231,-24.45795,-4.307789,-19.685299,-18.653557,8.329287,17.144403,-12.176481,-0.69653755,-5.039229,-2.2082648,10.296867,-12.549762,19.345947,-24.94772,37.13173,22.204788,3.563582,6.197594,16.277239,-17.879257,14.289382,64.945694,-17.778088,-0.26708964,2.3671737
85,44.39480209350586,44.644351959228516,75.40459442138672,0.7326083839424266,-3.247445319672157,87.01954308260119,12.422184,5.5304203,-15.959397,17.605982,-24.889763,-4.7762027,-19.08957,-18.28163,7.405253,16.273457,-10.352216,0.8676834,-5.1967335,-1.947468,10.044713,-12.468731,19.358418,-25.088055,36.76229,22.190952,3.5094743,6.2588534,16.574396,-17.687868,14.172973,64.70379,-17.67936,-0.3871089,2.2571578
86,45.13348388671875,45.16774368286133,75.31029510498047,0.32735698482969505,-3.0446133439087064,87.45718503076834,12.043537,6.534352,-16.367104,18.816069,-25.229856,-5.254111,-18.562841,-17.722212,6.7123346,15.835671,-7.882331,2.9605198,-5.352896,-1.6976988,9.8276825,-12.362345,19.37273,-25.198437,36.449272,22.134989,3.468617,6.360425,16.82047,-17.496584,14.1389885,64.42285,-17.528334,-0.5463291,2.1095052
87,45.87168884277344,45.72736740112305,75.2104721069336,-0.08709438785402417,-2.853397100827131,87.86783204839044,11.586046,7.521871,-16.774378,20.195127,-25.460766,-5.651323,-18.083317,-16.99477,6.1785135,15.61741,-5.372294,5.1108356,-5.5009527,-1.4471633,9.637392,-12.215192,19.384142,-25.280746,36.245182,22.042118,3.3988507,6.513388,17.001442,-17.303932,14.188478,64.187454,-17.315062,-0.74232197,1.9133579
88,46.614017486572266,46.27043151855469,75.14546966552734,-0.483026533476531,-2.6883920361965834,88.25318507425278,11.022027,8.431497,-17.187565,21.833853,-25.554678,-5.873255,-17.78206,-16.203512,5.7377357,15.780442,-3.5211618,6.738753,-5.648023,-1.2230179,9.469633,-12.014575,19.385132,-25.337742,36.207882,21.919779,3.257714,6.7273912,17.107855,-17.108631,14.319301,64.0787,-17.030231,-0.9727099,1.6576196
89,47.3557243347168,46.776611328125,75.12142181396484,-0.8575450416576303,-2.5340142146590727,88.61964558543688,10.337735,9.255728,-17.630459,23.7318,-25.527185,-5.921912,-17.818079,-15.367735,5.4116874,16.623009,-2.42189,7.5365415,-5.7926903,-1.027578,9.305739,-11.771137,19.369617,-25.376026,36.349125,21.78291,3.0163708,7.0202465,17.127964,-16.909622,14.571311,64.144806,-16.579782,-1.2981077,1.2744896
90,48.08402633666992,47.28450012207031,75.12015533447266,-1.2282449633940233,-2.3904800674279563,88.96557420563393,9.55996,10.030373,-18.095142,25.83031,-25.376528,-5.8410735,-18.083641,-14.433152,5.180586,17.985542,-1.6816502,7.8565006,-5.932114,-0.8417612,9.1533375,-11.492331,19.335873,-25.394802,36.647434,21.626274,2.7027826,7.381759,17.069513,-16.707525,14.927514,64.33442,-16.00163,-1.702634,0.79340607
91,48.817569732666016,47.799442291259766,75.14665222167969,-1.6032316721486481,-2.2934045231980233,89.28227964639225,8.714112,10.757747,-18.540726,28.144299,-25.045074,-5.5991683,-18.328703,-13.451472,4.9032173,19.420277,-1.2312424,7.989873,-6.071062,-0.65831417,9.045501,-11.159182,19.282019,-25.38643,37.108364,21.426298,2.359728,7.779683,16.95659,-16.50218,15.300471,64.57586,-15.480483,-2.0655935,0.34772065
92,49.55214309692383,48.32648849487305,75.19429016113281,-1.9867370030747458,-2.275645368962909,89.55966519301947,7.824449,11.444153,-18.921413,30.686552,-24.472357,-5.1644816,-18.325253,-12.487766,4.461253,20.528418,-1.0474743,8.197584,-6.210331,-0.4683914,9.012791,-10.754158,19.20531,-25.345436,37.73891,21.158371,2.0301,8.182395,16.81604,-16.293348,15.599455,64.79757,-15.20018,-2.2615788,0.066540346
93,50.2789192199707,48.847476959228516,75.25069427490234,-2.375363683324931,-2.361098827863012,89.77038305233368,6.9227247,12.077723,-19.23383,33.50231,-23.63664,-4.4676185,-18.005985,-11.591957,3.8155484,21.268805,-1.2457274,8.515256,-6.340132,-0.27949503,9.075816,-10.242205,19.100073,-25.242323,38.569183,20.765255,1.6686431,8.661838,16.637966,-16.078041,15.801295,65.01689,-15.266287,-2.2229745,-0.014936763
94,51.00028610229492,49.36642074584961,75.32855987548828,-2.7684137584314716,-2.5267896309519835,89.92945985901125,5.9946976,12.667973,-19.482876,36.5478,-22.558128,-3.5479054,-17.496414,-10.748201,3.0425766,21.873896,-1.803696,8.770171,-6.4596195,-0.093384765,9.210462,-9.64556,18.964462,-25.092741,39.59154,20.280312,1.2690542,9.2074375,16.41811,-15.8558445,15.951293,65.26091,-15.56181,-2.0257711,0.032260068
95,51.72473907470703,49.89015579223633,75.41971588134766,-3.171973550310909,-2.7342008957143102,90.0898786578216,4.980056,13.253221,-19.642096,39.73249,-21.247051,-2.5273378,-16.84291,-9.9230385,2.205357,22.32305,-2.5024037,8.912014,-6.581908,0.10556025,9.380771,-9.033195,18.803766,-24.95948,40.75531,19.809933,0.9350694,9.666053,16.188467,-15.634462,16.060097,65.474525,-15.935468,-1.7585028,0.17619354
96,52.440773010253906,50.4150505065918,75.52375793457031,-3.5929793231022615,-2.944769252502109,90.3047925250137,3.8142326,13.87182,-19.696615,42.97564,-19.725359,-1.5160066,-16.094585,-9.073717,1.3670509,22.58499,-3.1218088,8.896273,-6.720111,0.3316025,9.554106,-8.474657,18.626764,-24.908844,42.007362,19.453112,0.77439374,9.886878,15.983297,-15.425643,16.134706,65.59726,-16.23496,-1.5095395,0.38481933
97,53.15068817138672,50.93796920776367,75.6318359375,-4.0332421113252455,-3.158724478231484,90.5731836009152,2.4630165,14.558963,-19.610792,46.345825,-17.910856,-0.54493546,-15.223416,-8.183943,0.54915756,22.61321,-3.6396544,8.690025,-6.8806357,0.58668673,9.732977,-7.9615474,18.437532,-24.935555,43.35076,19.22825,0.8453954,9.821739,15.8080225,-15.232776,16.155104,65.59492,-16.451757,-1.2487837,0.7159174
98,53.857059478759766,51.455039978027344,75.74978637695312,-4.487730478252304,-3.3935816478304073,90.87284515193164,0.95064235,15.308304,-19.408411,49.872128,-15.832066,0.48035148,-14.196653,-7.2758408,-0.27423716,22.410229,-4.151714,8.32981,-7.057368,0.8631297,9.934352,-7.4591646,18.236149,-25.011278,44.799248,19.081419,1.0835769,9.555235,15.64798,-15.054803,16.124258,65.499405,-16.657255,-0.9480573,1.1664647
99,54.55008316040039,51.96404266357422,75.87116241455078,-4.958495413145268,-3.635686240932722,91.2249784411228,-0.70845324,16.094303,-19.171194,53.432835,-13.686054,1.6451108,-13.062154,-6.3565965,-1.1164864,22.015295,-4.614321,7.873356,-7.2473383,1.162034,10.149432,-6.9933114,18.025675,-25.163742,46.31165,19.005919,1.4135352,9.135827,15.508552,-14.897087,16.082668,65.34529,-16.816969,-0.69708,1.6122191
100,55.231563568115234,52.475433349609375,75.99703979492188,-5.443036571569435,-3.871055519107273,91.6504974277516,-2.5016105,16.886812,-18.977388,56.906044,-11.670633,3.0309799,-11.86891,-5.4334745,-1.9948888,21.469868,-4.9838567,7.377474,-7.447717,1.4855344,10.369791,-6.5899477,17.810534,-25.421484,47.84615,18.992712,1.7592969,8.610655,15.396907,-14.76898,16.069077,65.164856,-16.89419,-0.58448637,1.9289838
101,55.91417694091797,52.989654541015625,76.12609100341797,-5.977213962730227,-4.10023195567864,92.19441238306851,-4.56446,17.788969,-18.799877,60.40877,-9.631352,4.8917294,-10.574423,-4.481533,-2.9647324,20.724766,-5.2383404,6.828981,-7.69225,1.8634441,10.607819,-6.271542,17.594849,-25.815205,49.42218,19.052927,2.1316106,7.9310923,15.3300705,-14.67627,16.107582,64.9373,-16.85002,-0.6731482,2.09074
102,56.56718444824219,53.48927307128906,76.252197265625,-6.55670274424218,-4.326826254090536,92.83198178272208,-6.890088,18.838905,-18.60443,63.954834,-7.5530534,7.183394,-9.150316,-3.4868896,-3.9962304,19.746107,-5.3954353,6.214502,-7.973098,2.290748,10.866947,-6.0147,17.379663,-26.32121,51.04551,19.188,2.5591557,7.08951,15.301815,-14.619531,16.173546,64.649864,-16.710901,-0.9022828,2.163272
103,57.21207809448242,53.992618560791016,76.37175750732422,-7.118149987323062,-4.543094240470346,93.47954222222141,-9.221361,19.837885,-18.469803,67.27835,-5.836507,9.4586935,-7.6769137,-2.4899223,-4.982211,18.62035,-5.4790454,5.5883665,-8.227403,2.7129302,11.123747,-5.773152,17.162989,-26.880781,52.65041,19.373446,2.9928293,6.194447,15.287882,-14.596054,16.23595,64.3427,-16.537825,-1.1751411,2.1617603
104,57.836795806884766,54.507835388183594,76.4876937866211,-7.587225261645219,-4.743855994563214,94.05496893064488,-11.262073,20.48764,-18.489622,70.143326,-4.8553224,11.1553755,-6.252599,-1.5542765,-5.8204365,17.47046,-5.5272813,5.0028915,-8.393006,3.0666678,11.350682,-5.5027814,16.941704,-27.434967,54.17454,19.582956,3.384565,5.355578,15.261092,-14.602356,16.2648,64.058655,-16.391304,-1.3950113,2.0992954
105,58.430702209472656,55.019439697265625,76.59680938720703,-7.945040898718225,-4.935773190741682,94.57023211564088,-12.868056,20.625484,-18.726997,72.48532,-4.9275193,11.935352,-4.8926406,-0.7093211,-6.518582,16.33444,-5.558999,4.474186,-8.469543,3.3356605,11.544971,-5.217416,16.714455,-28.008646,55.632915,19.85026,3.7269735,4.5414534,15.234965,-14.638382,16.23514,63.784645,-16.266657,-1.5550104,1.9522935
106,59.01007080078125,55.51914978027344,76.70664978027344,-8.222267841570398,-5.120615983765042,95.06024691696175,-14.17997,20.341642,-19.115059,74.4689,-5.7664576,12.056488,-3.559967,0.06500513,-7.1281385,15.178307,-5.5675435,3.9786363,-8.484714,3.5464828,11.715457,-4.938577,16.480865,-28.6219,57.054665,20.174507,4.042239,3.7133923,15.217973,-14.703997,16.167736,63.50636,-16.139662,-1.700723,1.7222958
107,59.56227111816406,56.02849197387695,76.81779479980469,-8.415100216622573,-5.287855074014656,95.47782493454633,-15.31281,19.692568,-19.54695,76.20375,-6.8208256,11.812574,-2.290444,0.76768434,-7.6205826,14.044226,-5.563606,3.5028257,-8.420605,3.6992354,11.850786,-4.6328797,16.240236,-29.206093,58.399002,20.4768,4.329584,2.9718494,15.168668,-14.7979555,16.102743,63.27196,-16.040213,-1.8141199,1.4575504
108,60.106170654296875,56.529266357421875,76.92723083496094,-8.520083433191873,-5.427570697249571,95.77455356976941,-16.385399,18.746288,-19.92352,77.78642,-7.5367208,11.506809,-1.116695,1.39959,-7.9672675,12.962634,-5.551864,3.0287318,-8.263565,3.7954416,11.941386,-4.262277,15.993221,-29.68872,59.621696,20.677502,4.590476,2.4179814,15.041872,-14.9193125,16.086412,63.12882,-15.995487,-1.8748567,1.2068058
109,60.627437591552734,57.025997161865234,77.04054260253906,-8.525075553110725,-5.536582619457178,95.92923370557996,-17.396048,17.415861,-20.269962,79.227646,-7.7277617,11.105647,-0.0765956,1.9492447,-8.151962,11.97385,-5.539004,2.53228,-7.999752,3.8259375,11.980055,-3.8168004,15.737665,-30.061266,60.721703,20.75173,4.837449,2.1091125,14.814808,-15.072145,16.145823,63.105236,-15.997204,-1.8691267,0.9519633
110,61.13075637817383,57.52512741088867,77.157470703125,-8.441889946582783,-5.623413286817183,95.97023636081376,-18.285685,15.703881,-20.616068,80.47062,-7.7010684,10.469095,0.8490085,2.4212828,-8.205624,11.068437,-5.5291734,2.0230346,-7.6456504,3.8002398,11.977727,-3.3136506,15.473057,-30.35406,61.717373,20.742306,5.067615,1.9821744,14.51096,-15.258362,16.258028,63.1708,-16.03324,-1.8097787,0.6778315
111,61.62135696411133,58.004085540771484,77.26957702636719,-8.304129649953222,-5.695361731042941,95.92359995756193,-19.097536,13.815814,-20.883175,81.509865,-7.6392817,9.746781,1.6978793,2.8382387,-8.167097,10.223216,-5.526498,1.5302007,-7.230432,3.7462513,11.951727,-2.754288,15.205737,-30.553778,62.591297,20.671043,5.2603054,1.9584714,14.151872,-15.473046,16.391937,63.290245,-16.125559,-1.7176352,0.43627435
112,62.10151290893555,58.465152740478516,77.37445068359375,-8.139667202544748,-5.758419199870718,95.81611824130079,-19.877676,11.962793,-20.99175,82.33177,-7.7130547,9.103707,2.5117548,3.220564,-8.072857,9.40447,-5.528721,1.079839,-6.7857647,3.685419,11.918036,-2.135153,14.9474535,-30.64579,63.3194,20.55883,5.394557,1.95816,13.756154,-15.707203,16.519238,63.431095,-16.297058,-1.6132208,0.27860898
113,62.555511474609375,58.94786071777344,77.47745513916016,-7.944413967722446,-5.815333902065548,95.63981099358601,-20.627867,10.133991,-20.931717,82.93693,-7.9874506,8.600562,3.2899365,3.5592911,-7.91822,8.614193,-5.5353274,0.66818535,-6.306459,3.609199,11.879222,-1.4335172,14.704949,-30.61471,63.880398,20.389223,5.453681,2.0146592,13.312058,-15.957356,16.647377,63.62125,-16.596777,-1.4972603,0.22783221
114,63.011234283447266,59.41107177734375,77.57234954833984,-7.706433696671334,-5.862228324314543,95.38496386549677,-21.33918,8.251151,-20.751778,83.322754,-8.358697,8.153293,3.9924033,3.8445783,-7.692488,7.9087405,-5.565037,0.27440175,-5.7814283,3.507307,11.830435,-0.6499255,14.479867,-30.471025,64.27942,20.156284,5.451807,2.1510782,12.810877,-16.223944,16.790699,63.869804,-16.999432,-1.3606013,0.25351956
115,63.4786262512207,59.86005783081055,77.64922332763672,-7.424416483220186,-5.893840492383269,95.07197077823514,-22.04742,6.40867,-20.440083,83.48998,-8.750388,7.7208533,4.542055,4.062913,-7.418758,7.4610457,-5.7128296,-0.097974434,-5.227111,3.3740046,11.7718315,0.18368767,14.278295,-30.237171,64.53202,19.900799,5.414643,2.2717733,12.274287,-16.502737,16.929867,64.11807,-17.417267,-1.2091289,0.32590967
116,63.935874938964844,60.31330108642578,77.71725463867188,-7.147875800290643,-5.903832298345089,94.73114719397697,-22.777477,4.742384,-20.017134,83.4069,-9.064532,7.2607436,5.061945,4.281932,-7.1207814,7.0148454,-5.8414083,-0.4462758,-4.66837,3.2552476,11.708767,1.0368338,14.108217,-29.93785,64.65061,19.662537,5.369265,2.2807593,11.721671,-16.78608,17.041756,64.31386,-17.763506,-1.052437,0.41334182
117,64.38742065429688,60.757999420166016,77.77835845947266,-6.871035873149841,-5.880728257452143,94.36675666575653,-23.539911,3.2585406,-19.468729,83.05233,-9.275072,6.710901,5.32042,4.466738,-6.8184032,7.0360084,-6.1944294,-0.7627283,-4.1043324,3.1431148,11.633399,1.9101825,13.977357,-29.555157,64.60944,19.44235,5.32123,2.1177027,11.153616,-17.0666,17.115065,64.44702,-18.033354,-0.86799556,0.5319293
118,64.83765411376953,61.1917724609375,77.83184051513672,-6.593679316786881,-5.8302273309120975,93.96800737288069,-24.313765,1.9132586,-18.804932,82.431526,-9.424676,6.1117105,5.5025463,4.6408386,-6.48938,7.1346407,-6.5648417,-1.0572814,-3.527358,3.0333576,11.549541,2.8254597,13.887273,-29.082794,64.398026,19.221453,5.258021,1.8432671,10.555299,-17.343117,17.164768,64.5521,-18.269264,-0.6609842,0.68858117
119,65.2707748413086,61.631935119628906,77.88172149658203,-6.321284603548985,-5.76887463003063,93.52976653814845,-25.07436,0.72679,-18.042778,81.56932,-9.529427,5.575426,5.6722727,4.8192706,-6.126183,7.2204914,-6.9115915,-1.3398858,-2.938049,2.930742,11.467234,3.777267,13.835386,-28.568794,64.06202,19.007568,5.1796174,1.5436226,9.931751,-17.618109,17.206793,64.62509,-18.454012,-0.4701106,0.84003884
120,65.69449615478516,62.078643798828125,77.92752838134766,-6.0604011769473605,-5.712915426398774,93.0466035194249,-25.79691,-0.28660473,-17.197845,80.49484,-9.606904,5.2123604,5.845428,5.0076623,-5.723688,7.305216,-7.2478976,-1.6169153,-2.3334823,2.838721,11.394567,4.755715,13.815809,-28.065165,63.65443,18.809034,5.0847635,1.3053074,9.293577,-17.89524,17.252653,64.657524,-18.570024,-0.33377442,0.9431304
121,66.11724853515625,62.51469802856445,77.96070861816406,-5.804113009129934,-5.666217106959669,92.51063027054964,-26.47694,-1.11137,-16.240095,79.2084,-9.677127,5.0641856,6.0231414,5.201081,-5.2792697,7.390668,-7.572551,-1.8822246,-1.7024987,2.7547574,11.333657,5.759729,13.825616,-27.578245,63.162975,18.64114,4.9817185,1.1202567,8.644371,-18.177576,17.29022,64.64548,-18.578903,-0.26893517,0.9843488
122,66.53121185302734,62.96063232421875,77.99017333984375,-5.549223091540707,-5.61974122730035,91.92671052170736,-27.111553,-1.7713856,-15.1715145,77.69721,-9.728517,5.0582285,6.1977367,5.3953385,-4.79475,7.4729753,-7.8815155,-2.1324801,-1.0479501,2.6774056,11.278277,6.792404,13.863312,-27.087494,62.572685,18.494898,4.8688736,0.9524543,7.9829264,-18.464567,17.315691,64.59028,-18.50088,-0.25255838,0.98793656
123,66.95001220703125,63.40923309326172,78.01055908203125,-5.301332556387459,-5.569944828741795,91.30764515133069,-27.680302,-2.313962,-14.055159,75.97117,-9.731267,5.1342993,6.370101,5.5964837,-4.2720714,7.559128,-8.186754,-2.3767104,-0.386646,2.6100852,11.222262,7.8429556,13.922521,-26.607477,61.94851,18.342613,4.7242947,0.84925485,7.3102136,-18.754852,17.353113,64.49362,-18.405834,-0.26249757,0.9663705
124,67.34317779541016,63.861358642578125,78.02572631835938,-5.065895182481588,-5.5138179122141295,90.66646094338483,-28.164936,-2.7849412,-12.955288,74.03852,-9.6547365,5.234571,6.544034,5.8118806,-3.7132227,7.650012,-8.497097,-2.624229,0.26557812,2.5580566,11.157591,8.900283,13.994267,-26.153835,61.349567,18.157763,4.5338993,0.8564357,6.6294622,-19.046509,17.423742,64.35675,-18.365303,-0.27628416,0.93199205
125,67.73454284667969,64.33010864257812,78.03287506103516,-4.839351735417721,-5.45533483328538,89.99736245594137,-28.564236,-3.176182,-11.851698,71.89344,-9.476673,5.395698,6.725199,6.040603,-3.1029856,7.7436395,-8.813397,-2.8731039,0.91300577,2.5198634,11.083889,9.96109,14.072776,-25.73779,60.78368,17.93304,4.272103,1.0169556,5.9356194,-19.339573,17.536093,64.18327,-18.398167,-0.29390654,0.88819826
126,68.12200164794922,64.79147338867188,78.02947998046875,-4.618544709928301,-5.394050045796315,89.29653962234728,-28.875368,-3.4854455,-10.719266,69.53378,-9.221861,5.6219034,6.90319,6.27695,-2.4457648,7.8548727,-9.139722,-3.118086,1.5622973,2.4942846,11.000377,11.025687,14.156419,-25.353952,60.231045,17.684828,3.9564354,1.2958531,5.2313547,-19.634632,17.676052,63.971085,-18.467237,-0.32353294,0.827967
127,68.50354766845703,65.25936126708984,78.01773834228516,-4.414851722106966,-5.321546912621191,88.58052214653293,-29.08601,-3.7608578,-9.619367,66.96972,-8.924564,5.8130183,7.0825953,6.5246563,-1.7708932,7.9610357,-9.464168,-3.3647556,2.2019498,2.4878833,10.900767,12.078548,14.240152,-24.9901,59.734188,17.421486,3.6199088,1.6271672,4.5274305,-19.928106,17.832907,63.720886,-18.556782,-0.3613862,0.74635965
128,68.87950897216797,65.73713684082031,78.00016021728516,-4.239176418256371,-5.229597138006675,87.86552302242205,-29.190645,-4.0438976,-8.618176,64.207596,-8.613971,5.874604,7.255135,6.7884216,-1.109082,8.063215,-9.785895,-3.6197627,2.8200994,2.5077233,10.778446,13.102667,14.317112,-24.632778,59.33575,17.149284,3.297654,1.9457475,3.8342648,-20.212772,17.995522,63.434464,-18.652164,-0.4030895,0.6381034
129,69.25255584716797,66.21343231201172,77.97615051269531,-4.096198999106406,-5.110340693464081,87.1366539218827,-29.201649,-4.3157306,-7.7179637,61.216454,-8.277925,5.798627,7.4100003,7.0718136,-0.45093152,8.156905,-10.096537,-3.8857496,3.4289105,2.5589173,10.622097,14.096667,14.382385,-24.273605,59.04201,16.85372,2.9732714,2.2660055,3.1402607,-20.48995,18.174816,63.126823,-18.746908,-0.4566865,0.4735289
130,69.62030792236328,66.70246887207031,77.94509887695312,-3.979924389066484,-4.971062792379015,86.39115027132702,-29.117538,-4.565597,-6.8930144,57.995693,-7.9005184,5.6315126,7.5525417,7.372644,0.214446,8.247384,-10.4005785,-4.159353,4.029016,2.6374297,10.43577,15.063706,14.435298,-23.920359,58.840137,16.537674,2.636439,2.6134827,2.4442008,-20.760529,18.373524,62.791367,-18.849491,-0.51863295,0.2649
131,69.99813842773438,67.19502258300781,77.90533447265625,-3.8901048566100944,-4.8259530045926144,85.66408824094293,-28.915218,-4.8351727,-6.1739063,54.583374,-7.500468,5.368546,7.7124596,7.6894264,0.8601722,8.322676,-10.702215,-4.438943,4.593508,2.7351274,10.237066,15.99314,14.477121,-23.579878,58.742218,16.234613,2.3322208,2.9410787,1.761891,-21.015112,18.564543,62.417797,-18.970379,-0.57607055,0.065166704
132,70.37338256835938,67.68863677978516,77.85478973388672,-3.8233924737820604,-4.689515270014784,84.98992314203808,-28.578438,-5.1597757,-5.5947,51.024746,-7.0977077,5.0096817,7.9169683,8.021795,1.4589864,8.374235,-11.007384,-4.7236147,5.0963697,2.8425288,10.043506,16.873207,14.512131,-23.258476,58.76103,15.975663,2.107168,3.2031245,1.1047039,-21.240582,18.72065,62.001694,-19.12092,-0.61462265,-0.074459344
133,70.7535629272461,68.19364166259766,77.79450225830078,-3.783941113334885,-4.562632126886927,84.36882336674064,-28.099863,-5.536652,-5.193312,47.266293,-6.705441,4.596587,8.169212,8.372893,2.0093038,8.397961,-11.314183,-5.016478,5.5323553,2.962795,9.855089,17.709658,14.542826,-22.952831,58.904667,15.757754,1.9734473,3.417951,0.46342543,-21.428188,18.836685,61.54692,-19.324886,-0.618897,-0.1301446
134,71.1513671875,68.6993637084961,77.72383117675781,-3.772689273405414,-4.4404666236031645,83.7830485612598,-27.485083,-5.9295864,-4.9507284,43.283157,-6.3010263,4.1307206,8.458955,8.744941,2.5268605,8.392872,-11.616283,-5.3185534,5.91736,3.0968263,9.664239,18.50785,14.571814,-22.656107,59.161335,15.566825,1.9076562,3.601365,-0.17292824,-21.57874,18.926468,61.066177,-19.571596,-0.6001506,-0.13540661
135,71.54354095458984,69.22486114501953,77.63934326171875,-3.7866774872303126,-4.32964922351363,83.23974958426884,-26.732328,-6.3168864,-4.8174553,39.148895,-5.849118,3.5550308,8.798302,9.137578,3.012161,8.347278,-11.909448,-5.6259136,6.257179,3.2373755,9.480265,19.256304,14.604972,-22.369797,59.508606,15.415454,1.9029924,3.7036226,-0.78837746,-21.690147,18.989157,60.55952,-19.820366,-0.5849741,-0.12328075
136,71.94572448730469,69.74982452392578,77.54754638671875,-3.8220655044236334,-4.236947197130225,82.74515547242446,-25.838043,-6.6795397,-4.7431216,34.930164,-5.3103933,2.8104415,9.201978,9.550989,3.4674137,8.2462635,-12.188535,-5.934568,6.577874,3.378205,9.303422,19.91085,14.63636,-22.12396,59.967594,15.310576,1.9551388,3.6857715,-1.3694772,-21.73893,18.998947,60.052296,-20.04661,-0.5980422,-0.13502552
137,72.36283111572266,70.27545928955078,77.44098663330078,-3.8921506474538083,-4.17325941363174,82.30124808534015,-24.74899,-7.0139236,-4.786545,30.504688,-4.64603,1.8192661,9.700192,10.00211,3.8986278,8.057604,-12.44625,-6.2420373,6.82695,3.5262861,9.16684,20.563019,14.701487,-21.821098,60.429638,15.316427,2.0751836,3.4705698,-1.9174383,-21.771725,19.011236,59.4914,-20.191296,-0.6581457,-0.16291967
138,72.79112243652344,70.80166625976562,77.31733703613281,-4.011068611253283,-4.138329716756921,81.89221658113004,-23.4493,-7.2817035,-4.9606223,25.806894,-3.8560457,0.64787054,10.307362,10.505786,4.3226714,7.745901,-12.657681,-6.555589,7.058318,3.7007477,9.053514,21.171875,14.798506,-21.525154,60.95056,15.394757,2.2642028,3.1100156,-2.4240425,-21.759481,18.972694,58.896896,-20.304737,-0.7468678,-0.19862099
139,73.2259521484375,71.34566497802734,77.17814636230469,-4.1828052400975455,-4.121988924144,81.49672250350964,-22.006062,-7.4218345,-5.139024,21.019009,-2.971624,-0.5585089,11.014218,11.063884,4.7599063,7.2946553,-12.792688,-6.885476,7.288812,3.9128973,8.948224,21.725191,14.9154,-21.272663,61.5261,15.458266,2.488785,2.6923504,-2.902858,-21.704678,18.905891,58.28584,-20.418337,-0.8405566,-0.23544754
140,73.66366577148438,71.90338897705078,77.02269744873047,-4.406271919518421,-4.110776888326417,81.09716728957616,-20.511559,-7.401737,-5.1849837,16.372406,-2.044414,-1.6653682,11.621276,11.686513,5.1893077,7.0778856,-13.02782,-7.2391534,7.5289025,4.1652727,8.836527,22.223183,15.053139,-21.096222,62.13547,15.417978,2.7141244,2.302174,-3.3619864,-21.619858,18.837185,57.662632,-20.558878,-0.9160042,-0.26380438
141,74.11328887939453,72.45123291015625,76.85287475585938,-4.691887452272077,-4.104758976403262,80.68708161615372,-18.945345,-7.218005,-5.070684,11.809242,-1.0476876,-2.71908,12.151801,12.388127,5.6223164,7.047853,-13.340026,-7.6232686,7.780987,4.470185,8.717269,22.66504,15.212941,-21.005793,62.78832,15.205325,2.9454389,1.9543388,-3.7977383,-21.511305,18.759743,57.005196,-20.738327,-0.9557719,-0.2604859
142,74.55162048339844,73.0118179321289,76.67339324951172,-5.037553672770269,-4.105412048926116,80.27408924387389,-17.110468,-6.8838234,-4.866186,6.874163,0.22674218,-3.7702165,12.70378,13.15802,6.0738225,7.0114202,-13.634136,-8.031427,8.040343,4.825354,8.593209,23.054064,15.395995,-20.981842,63.486378,14.88327,3.1968446,1.6065685,-4.2019506,-21.380577,18.663868,56.30801,-20.938087,-0.9763459,-0.23459497
143,74.99642181396484,73.55482482910156,76.4912338256836,-5.3800541861120585,-4.089590693225589,79.88914587194954,-17.40314,-6.6788793,-4.279869,6.621251,-0.8355213,-4.6891894,13.246011,13.912418,6.505389,6.9765706,-13.905228,-8.441485,8.285624,5.169487,8.45362,23.377554,15.5940075,-21.022657,64.211426,14.557859,3.4519858,1.2581902,-4.569129,-21.235615,18.565424,55.595966,-21.137922,-1.0053294,-0.22624667
144,75.43930053710938,74.10929107666016,76.32120513916016,-5.654407135250379,-4.035223850590173,79.56845517256583,-17.672615,-6.4892583,-3.5850616,6.510615,-1.7790712,-5.3635454,13.748806,14.56923,6.8698316,6.949319,-14.149383,-8.832539,8.49495,5.4281607,8.291187,23.631298,15.8193,-21.127886,64.93044,14.332157,3.6936219,0.9031035,-4.895116,-21.067053,18.472902,54.90063,-21.321852,-1.0703449,-0.27884063
145,75.8694839477539,74.66610717773438,76.16886138916016,-5.814431462937981,-3.9344935514793558,79.33926148741433,-17.84861,-6.377352,-2.7080305,6.4086447,-2.5120108,-5.73084,14.200633,15.076425,7.129042,6.9342,-14.382735,-9.201118,8.600369,5.6067095,8.116735,23.754301,15.961426,-21.30047,65.73591,14.251046,3.909224,0.52677417,-5.1722674,-20.955994,18.427553,54.17723,-21.47926,-1.1836694,-0.38744482
146,76.30106353759766,75.22428894042969,76.02777099609375,-5.924028428224532,-3.7844703459906333,79.18916994054106,-17.981789,-6.280347,-1.6921556,6.389789,-3.0979288,-5.8812804,14.601902,15.515922,7.299842,6.919616,-14.597029,-9.561261,8.665863,5.7083797,7.9083223,23.795681,16.152884,-21.572285,66.55654,14.227745,4.1101127,0.120316565,-5.406278,-20.800663,18.360086,53.461826,-21.645844,-1.3289962,-0.5495847
147,76.73770141601562,75.77218627929688,75.90379333496094,-5.9567550779735345,-3.6081114002892725,79.10913314681598,-17.999968,-6.2347245,-0.68098307,6.354066,-3.5126858,-5.8988023,14.97489,15.855375,7.3970203,6.9135427,-14.783064,-9.892603,8.692975,5.71338,7.696109,23.761387,16.366655,-21.882488,67.36862,14.260835,4.311668,-0.2507227,-5.5935473,-20.623695,18.298052,52.761837,-21.78092,-1.4901432,-0.758488
148,77.17569732666016,76.3250961303711,75.79077911376953,-5.956512908782845,-3.410119647126435,79.07984606228602,-17.937601,-6.197373,0.15865375,6.3726654,-3.8078418,-5.879291,15.324325,16.150646,7.4482217,6.9080677,-14.910853,-10.188361,8.690155,5.6816077,7.4762444,23.65126,16.558283,-22.172672,68.16956,14.350788,4.524805,-0.51570225,-5.7226195,-20.4628,18.274652,52.073883,-21.838362,-1.6491213,-1.0020597
149,77.60209655761719,76.889404296875,75.68954467773438,-5.90186892574338,-3.206499751165024,79.10474728189493,-17.68484,-6.194343,0.79348993,6.3456717,-3.9709458,-5.872045,15.6707,16.382639,7.4481277,6.9062815,-14.99705,-10.442885,8.675709,5.584095,7.264158,23.465893,16.758589,-22.496649,68.96602,14.480318,4.7485933,-0.6463185,-5.7943134,-20.293533,18.279446,51.411606,-21.789234,-1.8092057,-1.3268863
150,78.03849029541016,77.45059967041016,75.5929946899414,-5.810755108668978,-2.992218765021091,79.20244793104966,-17.307335,-6.217135,1.2865343,6.3696303,-4.025003,-5.822385,15.972345,16.580915,7.365608,6.9746747,-15.082318,-10.669106,8.653646,5.4060783,7.04269,23.221582,17.034569,-22.885399,69.73501,14.638698,4.9761167,-0.6931071,-5.811192,-20.059536,18.277952,50.79273,-21.675516,-1.9746816,-1.729402
151,78.48845672607422,78.00180053710938,75.51221466064453,-5.65838786344883,-2.7463398250290365,79.339671021304,-16.903824,-6.2851043,1.6948702,6.42619,-3.899737,-5.6434093,16.225712,16.702572,7.238535,7.0523386,-15.099884,-10.854752,8.61178,5.149321,6.8141646,22.93829,17.320742,-23.21276,70.4164,14.853789,5.222236,-0.6918507,-5.78665,-19.813946,18.292137,50.210125,-21.55088,-2.1448674,-2.1196837
152,78.94995880126953,78.56158447265625,75.44914245605469,-5.369875875667947,-2.474701727414483,79.49555236876606,-16.498238,-6.4827943,2.090247,6.4005632,-3.4842997,-5.240697,16.420055,16.651123,7.079401,7.1629634,-15.036971,-10.978188,8.584545,4.711234,6.593683,22.670525,17.677692,-23.416553,70.89171,15.107472,5.504739,-0.69552773,-5.7523336,-19.496647,18.287874,49.73459,-21.498957,-2.3165417,-2.4330583
153,79.38997650146484,79.12503814697266,75.42032623291016,-4.999025184406455,-2.1258092651133422,79.66597299512544,-16.209963,-6.7357984,2.4869797,6.445461,-2.732271,-4.561699,16.508194,16.497932,6.885228,7.294102,-14.904785,-11.056423,8.549962,4.1321487,6.329595,22.442934,18.096163,-23.416325,71.131645,15.489733,5.868466,-0.72704,-5.730028,-19.10276,18.294188,49.373104,-21.530956,-2.499236,-2.6499305
154,79.83606719970703,79.68972778320312,75.41374206542969,-4.502099592128259,-1.730197874033993,79.8543448388443,-15.929699,-7.0915318,2.8886347,6.4680505,-1.6660037,-3.6548655,16.235075,16.228962,6.5685663,8.053592,-15.036003,-11.070048,8.491144,3.4375856,6.054519,22.163378,18.452946,-23.282185,71.28883,15.980936,6.2900844,-0.7364572,-5.6773076,-18.738564,18.343527,49.05459,-21.58279,-2.6898386,-2.795497
155,80.30188751220703,80.26197052001953,75.39997100830078,-3.912264988008448,-1.3291428629918585,80.03167123141293,-15.681181,-7.530254,3.263702,6.478436,-0.49588174,-2.6291387,15.275099,15.907088,6.0792623,10.1916485,-15.766589,-10.987734,8.433636,2.6618545,5.794298,21.854315,18.763866,-23.05776,71.358116,16.43981,6.682176,-0.6946018,-5.604835,-18.389582,18.426865,48.804195,-21.65535,-2.864175,-2.8828297
156,80.71105194091797,80.818603515625,75.44478607177734,-3.273444128959017,-0.9634715675660273,80.17463064175618,-15.483881,-8.025766,3.5663843,6.4828534,0.5697081,-1.5963567,14.291771,15.50799,5.639334,12.427795,-16.359617,-10.788325,8.389888,1.846902,5.5764117,21.542862,19.041582,-22.777575,71.328285,16.727648,6.957277,-0.57016987,-5.5252957,-18.04408,18.543463,48.64338,-21.745794,-2.997942,-2.9245467
157,81.1076431274414,81.36935424804688,75.51148223876953,-2.544412369881828,-0.6184488567847615,80.2704205366673,-15.393524,-8.622468,3.792713,6.46608,1.5876912,-0.51420474,13.258605,14.997119,5.2630453,14.809976,-16.899036,-10.463147,8.374565,0.9434152,5.39351,21.237553,19.29468,-22.423466,71.17094,16.812332,7.1121798,-0.32647046,-5.4416156,-17.69403,18.70377,48.578384,-21.859606,-3.0855908,-2.9176784
158,81.55203247070312,81.95927429199219,75.56266021728516,-1.7148012625832774,-0.27689912974852543,80.3328341244674,-15.39371,-9.315645,3.9796553,6.431917,2.6402133,0.6484059,12.16927,14.370546,4.9331346,17.33374,-17.400238,-10.011662,8.379736,-0.064598106,5.2335534,20.934679,19.528347,-21.982492,70.88804,16.766628,7.186797,0.010047421,-5.3531904,-17.335585,18.90264,48.606384,-21.999393,-3.1396377,-2.8596132
159,82.02171325683594,82.55999755859375,75.61670684814453,-0.8747313800917943,0.02010090756409007,80.38488518222357,-15.377719,-10.017292,4.116449,6.4049487,3.5539942,1.7679487,11.091167,13.721084,4.6318088,19.920397,-17.701494,-9.417149,8.378279,-1.0769583,5.1212053,20.632229,19.747452,-21.5066,70.52199,16.601965,7.1572933,0.37714922,-5.263364,-16.966164,19.116049,48.729893,-22.15533,-3.1637027,-2.7629204
160,82.45960235595703,83.14878845214844,75.68614196777344,-0.12162700917714166,0.2293910839265508,80.44801346483251,-15.22423,-10.63683,4.1686764,6.399792,4.152282,2.7236917,10.079891,13.149739,4.3367114,22.502228,-17.645023,-8.664285,8.348163,-1.9853863,5.0790405,20.324093,19.956762,-21.051239,70.117516,16.330013,7.0003095,0.7115432,-5.172084,-16.586933,19.316637,48.95015,-22.318264,-3.16115,-2.6396322
161,82.91175079345703,83.7344741821289,75.75694274902344,0.5078202013028777,0.33224841187370246,80.53313292939355,-14.891625,-11.147062,4.06034,6.4430437,4.302009,3.4573336,9.105381,12.717677,4.004819,25.176477,-17.236292,-7.887121,8.290771,-2.7531743,5.1154084,20.003561,20.16543,-20.619465,69.677444,15.903676,6.6497188,0.98818415,-5.0603676,-16.192785,19.492062,49.28478,-22.504957,-3.1352782,-2.4981449
162,83.36436462402344,84.32381439208984,75.83158111572266,1.0610990723631009,0.3522264964610385,80.62967284405455,-14.604156,-11.578011,3.835302,6.868453,3.9340334,4.0424294,8.149706,12.380069,3.6586056,27.933,-16.547838,-7.0328975,8.21889,-3.4351141,5.2161093,19.674345,20.376831,-20.19067,69.17719,15.333847,6.1362906,1.2367249,-4.9296684,-15.782046,19.653467,49.726006,-22.7155,-3.0840726,-2.3305075
163,83.80924987792969,84.89690399169922,75.91594696044922,1.5586680897728593,0.3083109180793888,80.72712681066054,-14.602174,-11.92566,3.627871,8.076726,3.003656,4.5556064,7.263736,12.095228,3.3785145,30.590578,-15.5484915,-5.810874,8.127144,-4.0473228,5.37028,19.340778,20.580786,-19.78522,68.62373,14.719704,5.5835357,1.478246,-4.8038616,-15.365747,19.807623,50.22876,-22.915232,-3.0032804,-2.122859
164,84.24613952636719,85.4632568359375,76.0032730102539,2.016831064424485,0.21857551180054738,80.81627763557195,-14.471094,-12.237628,3.4437797,9.104093,2.190643,5.0803943,6.4961786,11.83597,3.257545,32.992165,-14.235455,-3.934707,8.008606,-4.5966334,5.5678086,18.998075,20.758268,-19.429796,68.03467,14.155214,5.11543,1.7404934,-4.70431,-14.964758,19.96083,50.7434,-23.067688,-2.888476,-1.8602235
165,84.66502380371094,86.0306396484375,76.08972930908203,2.4221094875022238,0.07184324970530291,80.91059987859433,-14.214602,-12.515545,3.2811775,9.973658,1.524103,5.6730194,5.8338084,11.65009,3.345534,35.188015,-12.546234,-1.286583,7.8479857,-5.054504,5.821701,18.634459,20.891077,-19.135698,67.42097,13.5863495,4.7415695,2.0548718,-4.6281385,-14.592261,20.106695,51.27376,-23.147345,-2.7295954,-1.527818
166,85.07786560058594,86.58649444580078,76.1678695678711,2.759614718063755,-0.13814056586046322,81.0113558936698,-13.852567,-12.742644,3.0995471,10.772732,0.86834687,6.278335,5.2420053,11.600171,3.6274784,37.29735,-10.590932,1.9891578,7.649985,-5.4062138,6.1317143,18.240671,20.97449,-18.894197,66.7893,12.988251,4.403029,2.403743,-4.558183,-14.251539,20.245834,51.830482,-23.176826,-2.531465,-1.1355911
167,85.47566223144531,87.13418579101562,76.2436294555664,3.046636495016067,-0.3852367317720528,81.0928854386313,-13.417351,-12.912896,2.9326642,11.5156145,0.19929974,6.809142,4.7311344,11.672227,4.0921187,39.290142,-8.631789,5.7736726,7.437781,-5.6798334,6.4704432,17.82071,21.010462,-18.694857,66.142265,12.504642,4.124111,2.744152,-4.4940867,-13.949851,20.39432,52.371014,-23.18812,-2.3121634,-0.70481
168,85.86307525634766,87.68062591552734,76.31063079833984,3.3026466428741914,-0.6424537763547883,81.12973057413579,-12.935465,-13.022789,2.8147233,12.200174,-0.5019573,7.1784754,4.309262,11.82102,4.704008,41.135815,-6.900149,9.930665,7.235301,-5.9061384,6.811414,17.377817,21.004404,-18.528221,65.48501,12.276386,3.9267306,3.0342233,-4.4329996,-13.695982,20.567383,52.847153,-23.212202,-2.0902612,-0.2550323
169,86.24858856201172,88.22634887695312,76.36869049072266,3.5354926847812043,-0.8958767222056875,81.10174242082864,-12.436583,-13.06087,2.791143,12.855358,-1.2687418,7.3353443,4.072985,12.113549,5.6279073,42.66722,-5.234205,15.000033,7.0533037,-6.092096,7.1444936,16.930813,20.953657,-18.38067,64.783226,12.407079,3.8523293,3.253151,-4.3847857,-13.499653,20.77681,53.239277,-23.25404,-1.8394262,0.26667172
170,86.7322769165039,88.74966430664062,76.39578247070312,3.3151303127670544,-1.1460760085676995,80.96343120492091,-12.633524,-12.433165,2.838075,15.0527935,-2.9270627,7.1724257,4.052316,12.735506,5.2610583,43.59411,-3.2029939,15.000033,6.9484777,-5.8585744,7.436,16.451746,20.87703,-18.27396,64.04906,12.791913,3.8776147,3.4226663,-4.317392,-13.368887,20.99684,53.529255,-23.292065,-1.5606588,0.8564857
171,87.21588134765625,89.2619857788086,76.40989685058594,2.955987706886252,-1.416725373671973,80.78230858406009,-12.8028755,-11.64579,2.8674254,17.280672,-4.6501746,6.9101906,3.8829887,13.192956,4.535983,44.720135,-1.4611833,15.000033,6.833193,-5.4648757,7.7273736,15.950798,20.750383,-18.180597,63.329044,13.288679,3.9375274,3.5790083,-4.2754416,-13.260887,21.251654,53.81543,-23.329695,-1.311573,1.3942649
172,87.66122436523438,89.77069854736328,76.43550872802734,2.700078708569952,-1.7260745394373451,80.61955887745331,-12.556801,-11.040995,2.8346405,18.726755,-5.978425,6.695495,3.3497233,13.162504,3.6126525,46.52571,-0.5005279,15.000033,6.710951,-5.139218,8.069757,15.376997,20.60561,-18.17725,62.674633,13.717673,3.9657109,3.7452035,-4.180945,-13.1981535,21.475458,54.056473,-23.36214,-1.1550277,1.7798194
173,88.06411743164062,90.3006591796875,76.496337890625,2.679419932614321,-2.1039392616632027,80.5007126694136,-11.750936,-10.780185,2.752995,19.140663,-6.78382,6.562595,2.4454858,12.539105,2.755687,49.16434,-0.60640275,15.000033,6.553505,-5.013793,8.508578,14.744221,20.448893,-18.236933,62.061977,14.092667,3.9598997,3.8956575,-4.0324035,-13.177546,21.66784,54.230206,-23.427767,-1.1127348,2.0029244
174,88.42313385009766,90.82171630859375,76.57396697998047,2.8420117396950264,-2.541574907917218,80.41755885003157,-10.529841,-10.768835,2.6433363,18.808147,-7.223346,6.4495535,1.3667666,11.4835615,2.066543,52.26357,-1.4511696,15.000033,6.36025,-5.0467606,9.028453,14.06886,20.28105,-18.350937,61.466106,14.480893,3.949914,4.0240183,-3.8445911,-13.195828,21.840624,54.337967,-23.514421,-1.1506106,2.1152706
175,88.76506805419922,91.34588623046875,76.65902709960938,3.0858595790255317,-3.0019145000152077,80.37567682134905,-9.101531,-10.8742485,2.4827693,18.077843,-7.4536767,6.333421,0.25730842,10.148413,1.4610795,55.39938,-2.574724,15.000033,6.1329875,-5.148703,9.575791,13.3372755,20.109257,-18.555141,60.926662,14.808099,3.9163356,4.18606,-3.6265302,-13.246812,21.997307,54.435783,-23.540262,-1.244169,2.0990262
176,89.12281036376953,91.88876342773438,76.75153350830078,3.2929608097202205,-3.443520103076436,80.3710140806777,-7.690139,-10.946108,2.2643013,17.325562,-7.649596,6.195709,-0.7782105,8.667891,0.78894097,58.195824,-3.5256946,15.000033,5.886972,-5.2144513,10.094555,12.531719,19.942839,-18.891922,60.48611,14.997194,3.8382378,4.4366455,-3.3798788,-13.3204,22.13572,54.573368,-23.425007,-1.3699459,1.936937
177,89.47518157958984,92.41716003417969,76.84078216552734,3.449078562567989,-3.8679733395269613,80.41956708683271,-6.321804,-10.979512,1.9635687,16.604683,-7.8334665,6.035806,-1.7279373,6.961557,-0.06725377,60.640526,-4.2957883,15.000033,5.6142135,-5.2344007,10.581494,11.63994,19.790064,-19.417278,60.16023,14.954261,3.6825945,4.8453016,-3.1021519,-13.411156,22.24586,54.761425,-23.098202,-1.557559,1.5580757
178,89.81891632080078,92.95028686523438,76.93045806884766,3.6135407703568387,-4.299368523611721,80.52907880098536,-4.869842,-11.048885,1.5769329,15.703646,-7.90536,5.864765,-2.6331246,4.97361,-0.98965466,62.923203,-5.117056,15.000033,5.306048,-5.2670693,11.067676,10.678286,19.649672,-20.099312,59.918297,14.742466,3.4670172,5.360834,-2.7894237,-13.517814,22.324505,54.974094,-22.624208,-1.8118141,0.9950233
179,90.16863250732422,93.45303344726562,77.0110092163086,3.7706822204533355,-4.724093870237011,80.66969573416044,-3.3729086,-11.111863,1.1577111,14.680448,-7.90003,5.6857886,-3.4943907,2.8947942,-1.8108107,64.99422,-5.934574,15.000033,4.98458,-5.298911,11.541456,9.675656,19.514168,-20.843756,59.730022,14.522914,3.2524378,5.858597,-2.452149,-13.638451,22.388193,55.217533,-22.12088,-2.0700707,0.38292035
180,90.51991271972656,93.9676513671875,77.09674835205078,3.9018081651933074,-5.122093970711834,80.80384586543636,-1.877978,-11.121788,0.769253,13.596514,-7.859215,5.5021486,-4.3377123,0.93307924,-2.3812695,66.802635,-6.6647058,15.000033,4.674263,-5.3107185,11.984876,8.659793,19.374086,-21.552444,59.570152,14.45681,3.1034012,6.2171493,-2.108149,-13.771007,22.45776,55.50456,-21.703356,-2.264741,-0.14594571
181,90.87140655517578,94.48413848876953,77.1837387084961,3.9948639602075806,-5.482904476562123,80.91410321996024,-0.3883682,-11.059627,0.446175,12.443321,-7.7864637,5.3189826,-5.2059116,-0.86134666,-2.6866982,68.35575,-7.244969,15.000033,4.387808,-5.2862,12.386554,7.616851,19.225245,-22.23627,59.475086,14.581808,3.0266595,6.415312,-1.761623,-13.913588,22.553404,55.86046,-21.35741,-2.3948357,-0.63100964
182,91.2287368774414,95.0074234008789,77.27417755126953,4.008562760042235,-5.8043627076676065,80.99139107792631,1.0177531,-10.881261,0.18768361,11.382793,-7.7679095,5.122022,-6.1102047,-2.534952,-2.846664,69.65501,-7.703612,15.000033,4.136458,-5.1835313,12.74087,6.5371947,19.067242,-22.933071,59.45253,14.814951,2.992237,6.516285,-1.4104687,-14.064903,22.663826,56.279255,-21.034975,-2.4893854,-1.1206949
183,91.6061019897461,95.50875091552734,77.36193084716797,3.8908775131169664,-6.076904686948172,80.99903245875139,2.188303,-10.501834,0.018710228,10.713501,-7.960891,4.8776526,-7.037688,-4.1652756,-3.1899586,70.64952,-8.071869,14.09629,3.950299,-4.958157,13.042453,5.4523277,18.89819,-23.581455,59.43541,15.139243,3.011168,6.5261216,-1.0636247,-14.222176,22.762434,56.72666,-20.797915,-2.5206873,-1.4983755
184,91.98707580566406,96.0054702758789,77.44023132324219,3.7651877606503983,-6.3293113270107,81.01762138349137,3.3140306,-10.101214,-0.16956031,10.069086,-8.148745,4.6162167,-7.9360256,-5.836599,-3.6612241,71.37622,-8.499372,12.406155,3.7412133,-4.739704,13.322654,4.403564,18.714886,-24.115414,59.349766,15.53884,3.094873,6.4506645,-0.73219943,-14.386389,22.827965,57.17353,-20.706911,-2.4594607,-1.6461163
185,92.37300109863281,96.50646209716797,77.51533508300781,3.637214524240693,-6.5644781148238085,81.04048488112421,4.4100704,-9.695794,-0.38015562,9.425936,-8.317064,4.3445735,-8.823581,-7.382132,-3.9715269,71.83398,-9.030062,10.813867,3.511318,-4.5246863,13.580824,3.393247,18.515602,-24.507057,59.19194,16.069546,3.2716765,6.233866,-0.41829398,-14.55617,22.85674,57.622456,-20.841732,-2.2604134,-1.4733573
186,92.76107025146484,97.00271606445312,77.58531951904297,3.501684362829469,-6.778428067024545,81.06221717194776,5.475879,-9.27631,-0.5937123,8.7851715,-8.473141,4.068125,-9.719291,-8.795855,-4.132826,72.0332,-9.610123,9.314911,3.2694023,-4.304944,13.812573,2.4006286,18.302233,-24.793907,58.999847,16.722967,3.5239692,5.890243,-0.11827806,-14.731594,22.861746,58.08965,-21.149466,-1.9519237,-1.0617235
187,93.14344787597656,97.48822021484375,77.6452407836914,3.3580991577148422,-6.968480770985939,81.1067234806104,6.478646,-8.848063,-0.81694824,8.204173,-8.650997,3.79121,-10.601615,-10.099533,-4.207954,71.97732,-10.181471,7.944771,3.0016975,-4.083785,14.020808,1.426339,18.07888,-25.007084,58.762463,17.384874,3.795538,5.531823,0.17184284,-14.913821,22.845585,58.554504,-21.491085,-1.6143937,-0.55151373
188,93.52568054199219,97.97274780273438,77.68962097167969,3.193372672474236,-7.131428210604525,81.2013999477238,7.3431854,-8.403644,-1.0549884,7.8270097,-8.922564,3.5144715,-11.444766,-11.314226,-4.270273,71.67695,-10.690324,6.7345867,2.6902497,-3.850128,14.208893,0.47356245,17.850603,-25.176968,58.4637,17.937645,4.0341454,5.2724166,0.45627907,-15.104418,22.81139,58.99458,-21.724874,-1.3249598,-0.08479678
189,93.9098129272461,98.45999145507812,77.72430419921875,3.016974226410129,-7.2576214974196835,81.35209176653663,7.988887,-7.9548006,-1.3021075,7.792606,-9.359075,3.233116,-12.252847,-12.462765,-4.3443627,71.11144,-11.105058,5.695534,2.326819,-3.6159284,14.371537,-0.45540038,17.618664,-25.288244,58.08906,18.344305,4.256278,5.1300883,0.7308494,-15.305253,22.763496,59.40853,-21.818039,-1.0856072,0.3373628
190,94.29475402832031,98.9266128540039,77.75053405761719,2.83352292975324,-7.350248049999199,81.5442844597476,8.511366,-7.502237,-1.5661736,7.910797,-9.860096,2.9449027,-13.03303,-13.529321,-4.400267,70.28172,-11.447027,4.813962,1.9231164,-3.3834934,14.510588,-1.3623002,17.383562,-25.330095,57.64536,18.66876,4.481873,5.0483727,0.99880785,-15.515443,22.698656,59.801247,-21.843826,-0.8603446,0.7785197
191,94.68426513671875,99.39897918701172,77.76893615722656,2.6595088122718553,-7.423233149972816,81.76673516113513,9.002142,-7.0591707,-1.8481927,8.026083,-10.347566,2.6553583,-13.762646,-14.505077,-4.4113445,69.20538,-11.721823,4.0774717,1.5001862,-3.1660194,14.637788,-2.2507975,17.150848,-25.342476,57.151775,18.940659,4.666085,5.0316577,1.2697481,-15.73454,22.607853,60.16654,-21.817856,-0.6669965,1.1911654
192,95.07511138916016,99.87639617919922,77.7760238647461,2.50715172155282,-7.4896013956114285,82.00994325712283,9.479832,-6.634891,-2.140093,8.137711,-10.825775,2.3713934,-14.419095,-15.380585,-4.3515296,67.89975,-11.935669,3.4708233,1.0797333,-2.9724455,14.764167,-3.1217577,16.928114,-25.367496,56.62335,19.189743,4.7640214,5.083593,1.5561144,-15.962666,22.478443,60.49557,-21.756395,-0.5236669,1.5284579
193,95.47319030761719,100.33987426757812,77.77599334716797,2.3738495321127226,-7.555475563758631,82.28947193908283,9.94807,-6.2312727,-2.4521768,8.250659,-11.295538,2.0962377,-14.990362,-16.161875,-4.223412,66.35903,-12.092215,2.9970899,0.650737,-2.8033168,14.898387,-3.9712899,16.719818,-25.402851,56.050037,19.4151,4.741458,5.2297096,1.8619398,-16.200268,22.298338,60.781296,-21.645863,-0.44828653,1.7929329
194,95.87571716308594,100.81280517578125,77.7650375366211,2.2549514135285413,-7.612476321953217,82.60443820135286,10.398672,-5.8427176,-2.7842624,8.36405,-11.755689,1.8274767,-15.487465,-16.858229,-4.040113,64.581345,-12.182537,2.6554823,0.2086857,-2.6545596,15.033344,-4.79612,16.526703,-25.43137,55.420307,19.602608,4.630582,5.4597273,2.1836088,-16.446783,22.074505,61.02593,-21.48372,-0.42662343,2.0051758
195,96.28384399414062,101.28563690185547,77.7445068359375,2.155366350345079,-7.653405261801047,82.92083972645382,10.833019,-5.4689155,-3.1127517,8.471241,-12.211853,1.5640796,-15.924314,-17.470787,-3.7876952,62.589214,-12.195615,2.423847,-0.21479736,-2.5279646,15.155986,-5.5983896,16.350723,-25.47517,54.746635,19.760118,4.4855313,5.7234573,2.522255,-16.699255,21.825531,61.234486,-21.300371,-0.42918846,2.1455462
196,96.69678497314453,101.75961303710938,77.71675872802734,2.0843359074023162,-7.670848209640907,83.20408962321467,11.255092,-5.1098275,-3.414102,8.556776,-12.663719,1.3041195,-16.315424,-17.99802,-3.4515407,60.403156,-12.121702,2.2803636,-0.5864676,-2.4268594,15.253108,-6.3806357,16.19414,-25.55813,54.042423,19.894384,4.360065,5.9703603,2.8774264,-16.953642,21.568142,61.414524,-21.127415,-0.42698973,2.193902
197,97.1237564086914,102.23064422607422,77.67632293701172,2.048449438376684,-7.662610142353265,83.44537404605774,11.665211,-4.7730956,-3.6829343,8.610908,-13.106067,1.0537168,-16.6614,-18.451986,-3.027243,58.00341,-11.947548,2.2634852,-0.89729226,-2.3576236,15.325062,-7.149328,16.05921,-25.691242,53.306744,19.97884,4.2507544,6.205842,3.2444403,-17.207815,21.302885,61.564564,-20.968885,-0.41126788,2.12172
198,97.55984497070312,102.70379638671875,77.62376403808594,2.0425668770292518,-7.632444121636233,83.66348108149498,12.051272,-4.454748,-3.9310725,8.66415,-13.551415,0.81121546,-16.953074,-18.83885,-2.5203078,55.390434,-11.681768,2.3610146,-1.1654258,-2.315826,15.376321,-7.898408,15.94648,-25.861012,52.531143,20.018883,4.1346807,6.4500904,3.6230288,-17.460974,21.022673,61.685463,-20.810268,-0.39864394,1.9467679
199,98.00712585449219,103.19269561767578,77.56497192382812,2.055369880885873,-7.583614360194092,83.86361223892817,12.431856,-4.141672,-4.1617346,8.692882,-13.988576,0.56199884,-17.193684,-19.15534,-1.9244845,52.615158,-11.357182,2.475925,-1.3970461,-2.2943854,15.399423,-8.610954,15.854709,-26.054075,51.716457,20.068258,4.036178,6.6742816,4.018774,-17.709747,20.734318,61.788586,-20.654995,-0.39779827,1.7184159
200,98.46925354003906,103.68463134765625,77.49504089355469,2.0757813493743593,-7.518591676105258,84.05101597651469,12.809631,-3.8215828,-4.3761177,8.705739,-14.423924,0.2920046,-17.390099,-19.395496,-1.234304,49.73095,-11.008116,2.5105398,-1.5987401,-2.285459,15.386581,-9.271128,15.782186,-26.256092,50.865116,20.180899,3.980346,6.8503346,4.4356847,-17.94876,20.444572,61.886887,-20.506884,-0.4172718,1.4856614
201,98.93895721435547,104.1836166381836,77.41827392578125,2.102230848259885,-7.434691261124908,84.22188509686997,13.186061,-3.4917595,-4.569738,8.695618,-14.855855,-0.0022647546,-17.546463,-19.542988,-0.43854254,46.700447,-10.611697,2.4054751,-1.7650683,-2.2857184,15.334808,-9.880109,15.727372,-26.465351,49.969215,20.372713,3.9851074,6.9697227,4.869495,-18.17652,20.160025,61.98955,-20.363573,-0.4731733,1.2239684
202,99.42041778564453,104.68895721435547,77.33221435546875,2.1401312764223857,-7.330594688846858,84.37473088336117,13.554424,-3.1583679,-4.7415857,8.670069,-15.286925,-0.3131876,-17.667503,-19.622278,0.4656257,43.537582,-10.174698,2.2070527,-1.8954997,-2.2989326,15.246585,-10.444745,15.690487,-26.687866,49.03167,20.614704,4.033575,7.0481453,5.3152194,-18.39388,19.87709,62.093403,-20.225224,-0.5562946,0.9187966
203,99.90966033935547,105.20375061035156,77.23985290527344,2.1884970526525453,-7.211049553594164,84.51770645633043,13.9217825,-2.8221304,-4.8981795,8.625511,-15.712141,-0.63850445,-17.760685,-19.682022,1.4685001,40.360878,-9.771288,1.9880332,-2.0034385,-2.328871,15.1236105,-10.957022,15.672816,-26.921156,48.070004,20.89311,4.09823,7.0933146,5.776792,-18.595932,19.58823,62.19173,-20.097921,-0.63688815,0.6344047
204,100.410400390625,105.71993255615234,77.13343048095703,2.2491139376940232,-7.080898602610503,84.658712616914,14.289475,-2.4840386,-5.0462584,8.5706415,-16.132643,-0.97557324,-17.8305,-19.750471,2.551979,37.268135,-9.465129,1.8354456,-2.1024756,-2.3804593,14.96697,-11.409923,15.676938,-27.162767,47.103622,21.194176,4.151621,7.1133747,6.254821,-18.775131,19.286057,62.280872,-19.98808,-0.6837967,0.43400145
205,100.92506408691406,106.24928283691406,77.01605224609375,2.334800019770263,-6.947835123924934,84.79044952075748,14.681925,-2.1581504,-5.181231,8.486545,-16.552988,-1.326679,-17.837324,-19.803312,3.735531,34.13439,-9.252526,1.879225,-2.1879518,-2.470388,14.771221,-11.793252,15.70732,-27.414724,46.1296,21.540264,4.1914964,7.106134,6.752392,-18.925133,18.973566,62.369774,-19.909618,-0.6803509,0.34142554
206,101.45608520507812,106.78738403320312,76.88510131835938,2.434079404843338,-6.806527177653893,84.91298104817929,15.086035,-1.8339989,-5.3010163,8.3823,-16.974277,-1.6925716,-17.799257,-19.8193,5.0158095,30.952658,-9.104292,2.0445118,-2.2567914,-2.5881283,14.53716,-12.111426,15.765935,-27.677387,45.137253,21.930038,4.2306213,7.068234,7.262093,-19.04435,18.65456,62.46194,-19.855484,-0.64434963,0.31918532
207,101.99708557128906,107.33943939208984,76.74710083007812,2.523468101000874,-6.6422873770587305,85.04066717762932,15.456621,-1.4835863,-5.413364,8.29274,-17.385973,-2.0683105,-17.798206,-19.810879,6.335181,27.96702,-9.032547,2.1332052,-2.3264046,-2.7078946,14.270085,-12.385567,15.843038,-27.939774,44.150898,22.31769,4.2635026,7.007594,7.7511764,-19.125578,18.332148,62.576115,-19.801193,-0.601835,0.33291334
208,102.54051971435547,107.8842544555664,76.61080932617188,2.5570831228214432,-6.437228364521502,85.19542478997927,15.603175,-1.0719976,-5.529087,8.554464,-17.93728,-2.4507284,-17.92286,-19.753265,7.616294,25.444643,-9.058699,1.959135,-2.3958654,-2.773438,13.990701,-12.629052,15.950911,-28.222704,43.149715,22.640024,4.2864337,6.9306493,8.246288,-19.191122,17.963408,62.6556,-19.727253,-0.5820848,0.3631962
209,103.08926391601562,108.42864227294922,76.4771957397461,2.535259598944973,-6.169574095188715,85.37779013825757,15.566788,-0.59363395,-5.6418834,9.024987,-18.553827,-2.831125,-18.270058,-19.608713,9.033812,23.489948,-9.249207,1.293199,-2.4845269,-2.785773,13.672135,-12.848514,16.073563,-28.506212,42.143223,22.90654,4.3123193,6.8233204,8.711869,-19.227497,17.556879,62.7454,-19.621506,-0.59381807,0.4093096
210,103.65252685546875,108.9641342163086,76.35377502441406,2.473459239900626,-5.850477217254424,85.57318213216097,15.414821,-0.060366742,-5.7469535,9.605538,-19.197317,-3.2150168,-18.772142,-19.32975,10.545066,21.952246,-9.592128,0.328515,-2.5719578,-2.7580004,13.314932,-13.042186,16.210293,-28.800076,41.13532,23.138374,4.3387566,6.6887302,9.163723,-19.235275,17.113129,62.83863,-19.499176,-0.6222297,0.48344257
211,104.21918487548828,109.49607849121094,76.23504638671875,2.3658942920092545,-5.521764382212056,85.77743810624155,15.202707,0.53234756,-5.861824,10.280859,-19.84901,-3.6187391,-19.23414,-18.9499,11.762104,20.666294,-9.952918,-0.4983252,-2.662088,-2.6873636,12.954128,-13.215133,16.34505,-29.083382,40.1815,23.330652,4.334341,6.5610023,9.590855,-19.219152,16.68984,62.93547,-19.361036,-0.6528372,0.5611273
212,104.77845764160156,110.00482940673828,76.12100219726562,2.215778328715033,-5.2300729069357885,85.99130655452666,14.999497,1.1847332,-6.0098095,11.01484,-20.483273,-4.058906,-19.419434,-18.584234,12.304311,19.38175,-10.125935,-0.7757896,-2.7361026,-2.5849924,12.644603,-13.360974,16.505623,-29.372025,39.28696,23.456858,4.2711034,6.472574,10.011785,-19.1803,16.301456,63.003685,-19.221336,-0.6761481,0.6219673
213,105.36195373535156,110.51648712158203,75.98243713378906,2.1197008838757503,-5.040510250056594,86.27590643317743,14.901219,1.7893732,-6.269016,11.738739,-21.090977,-4.533969,-19.394865,-18.450562,11.988061,18.447844,-10.379382,-0.20828356,-2.8653402,-2.5602973,12.431119,-13.480212,16.69053,-29.64864,38.462082,23.514385,4.1206365,6.4135313,10.433447,-19.118847,15.974951,63.034958,-19.058418,-0.6856617,0.65346986
214,105.95879364013672,111.04100036621094,75.85172271728516,1.9796100548734816,-4.8893180696508285,86.58401312156428,14.82111,2.4545984,-6.5709014,12.493666,-21.687664,-5.045369,-18.940775,-18.442505,10.938154,17.18312,-10.3202915,0.89186686,-3.0090358,-2.5005696,12.265294,-13.571236,16.892641,-29.912676,37.688145,23.512623,3.9054592,6.3750753,10.838286,-19.041302,15.690311,63.047676,-18.874807,-0.68924034,0.66902816
215,106.57243347167969,111.56603240966797,75.72341918945312,1.7866315962267703,-4.739403219591274,86.88662355453174,14.703476,3.1892717,-6.8773756,13.313835,-22.228712,-5.575114,-18.329638,-18.377678,9.634748,15.963739,-9.941656,2.0496466,-3.14643,-2.3976612,12.117617,-13.625369,17.10747,-30.151865,36.982906,23.472197,3.6693285,6.377425,11.203218,-18.946028,15.465138,63.06851,-18.697577,-0.69175726,0.68253404
216,107.2042007446289,112.09837341308594,75.61178588867188,1.5174213463563684,-4.5512403015477805,87.15178006150464,14.489131,4.0172324,-7.149977,14.237006,-22.67095,-6.106889,-17.868362,-18.071934,8.57448,15.206584,-9.29022,2.789093,-3.2578053,-2.230874,11.954911,-13.632505,17.327175,-30.347242,36.36829,23.41841,3.455724,6.4413342,11.495756,-18.829441,15.323625,63.134808,-18.552628,-0.69756275,0.7060249
217,107.83536529541016,112.5967025756836,75.54876708984375,1.110205085743566,-4.3010263371611215,87.35206403853846,14.162923,5.018629,-7.3603935,15.246971,-23.015415,-6.665597,-17.686668,-17.395678,7.867317,15.177834,-8.361849,2.8277864,-3.3228607,-1.9325763,11.769111,-13.59887,17.546305,-30.490387,35.84265,23.35388,3.2723897,6.597713,11.690436,-18.69282,15.277263,63.267643,-18.451508,-0.7133828,0.74868464
218,108.48199462890625,113.08619689941406,75.51290130615234,0.6777977845454513,-4.037769607162378,87.54150433588619,13.79125,6.0642085,-7.5799966,16.300138,-23.263172,-7.237593,-17.969196,-16.516035,7.37404,16.332842,-7.531428,2.5317233,-3.3843822,-1.6256889,11.589959,-13.5339,17.767488,-30.5938,35.410748,23.269842,3.096825,6.8239646,11.824303,-18.533604,15.312786,63.432407,-18.377672,-0.7318702,0.8031264
219,109.13591003417969,113.58578491210938,75.48039245605469,0.23340543954831403,-3.769838115275098,87.73229488487993,13.352317,7.1230454,-7.8315835,17.457264,-23.407137,-7.7822814,-18.26919,-15.549847,6.912752,17.5459,-6.4508505,2.3436584,-3.4478788,-1.3236138,11.405925,-13.431889,17.987827,-30.66918,35.096893,23.168886,2.9278646,7.0708036,11.9154005,-18.350657,15.414864,63.62813,-18.318253,-0.74640346,0.8504852
220,109.79689025878906,114.09965515136719,75.4510498046875,-0.1575263093348937,-3.5184017118978907,87.95386345992343,12.850704,8.101579,-8.1550455,18.745476,-23.423693,-8.249627,-18.388456,-14.667036,6.4312916,18.283443,-5.126264,2.653444,-3.5333,-1.0969468,11.211694,-13.2884035,18.202278,-30.728497,34.930283,23.055685,2.764134,7.286746,11.9939995,-18.139097,15.5687475,63.843155,-18.25921,-0.74881387,0.873266
221,110.47492980957031,114.62342834472656,75.43595886230469,-0.4581642938671097,-3.273961461416376,88.23082168764861,12.289321,8.963101,-8.573594,20.122377,-23.291971,-8.675891,-18.285412,-13.936826,5.988146,18.409773,-3.3031712,3.733537,-3.650752,-0.9852778,10.9883,-13.117674,18.40808,-30.789309,34.928967,22.93127,2.6010802,7.4599075,12.07182,-17.893911,15.786373,64.079414,-18.189074,-0.73796505,0.84225655
222,111.17235565185547,115.14136505126953,75.43289947509766,-0.7095745434403757,-3.0297130035067648,88.54117385242839,11.663475,9.756965,-9.064394,21.584103,-23.025143,-9.067857,-18.065536,-13.251964,5.6318884,18.246675,-1.1085348,5.3120904,-3.7845573,-0.9455069,10.742388,-12.921748,18.60343,-30.843292,35.0815,22.794825,2.4409792,7.6176047,12.132169,-17.61327,16.068321,64.34309,-18.118456,-0.7177745,0.7740723
223,111.8763656616211,115.65672302246094,75.44512176513672,-0.9492976459459793,-2.8077238867885237,88.84561756360286,10.962312,10.509433,-9.596854,23.221037,-22.653038,-9.331908,-17.811506,-12.554714,5.303027,18.10256,0.8042158,6.8925304,-3.9139376,-0.9332322,10.502269,-12.687708,18.78597,-30.871855,35.381374,22.64204,2.2932582,7.767312,12.1618595,-17.303322,16.376986,64.632515,-18.069227,-0.6873369,0.71914786
224,112.58212280273438,116.18279266357422,75.48167419433594,-1.220706537029813,-2.628444330512308,89.10490967364355,10.171567,11.253714,-10.139942,25.131342,-22.20382,-9.378733,-17.613317,-11.800452,4.8898735,18.283602,1.8073621,7.9575057,-4.0188622,-0.89517486,10.296238,-12.399162,18.95161,-30.854248,35.817642,22.468754,2.166987,7.9165688,12.152176,-16.97299,16.675938,64.93976,-18.061432,-0.6461017,0.72965544
225,113.28421020507812,116.71356964111328,75.52417755126953,-1.5311655736420573,-2.4923077798404547,89.31619301639401,9.299856,11.983442,-10.73765,27.325247,-21.698683,-9.16741,-17.546545,-11.007214,4.304125,19.014263,1.5117753,8.270617,-4.097055,-0.8232836,10.1208515,-12.046827,19.09611,-30.785429,36.40024,22.27273,2.060905,8.076305,12.107677,-16.62573,16.969011,65.27827,-18.11968,-0.59523696,0.82669485
226,114.0009536743164,117.23030853271484,75.57717895507812,-1.867471944383398,-2.387728228137882,89.49720275018473,8.357521,12.693337,-11.381935,29.735245,-21.104897,-8.758706,-17.556469,-10.207797,3.6066232,20.124409,0.3262644,8.114712,-4.156812,-0.73281616,9.962321,-11.641639,19.217567,-30.676325,37.132305,22.056696,1.9709517,8.239669,12.036157,-16.262392,17.270159,65.64211,-18.225502,-0.53513944,0.9815489
227,114.71812438964844,117.76419830322266,75.6477279663086,-2.2385808178923297,-2.318816368482497,89.64161176846294,7.3521194,13.423665,-11.96315,32.31073,-20.357876,-8.214799,-17.500357,-9.376786,2.8838196,21.235325,-1.1393201,7.75327,-4.195159,-0.60916,9.83505,-11.194143,19.315279,-30.527225,37.9895,21.826656,1.9026392,8.387716,11.934691,-15.8904705,17.554401,65.994514,-18.336832,-0.46387264,1.1719637
228,115.4417495727539,118.29814910888672,75.72635650634766,-2.6494188134393615,-2.2906522764708916,89.74477264549378,6.2829638,14.211892,-12.377303,35.02148,-19.399086,-7.5903087,-17.244318,-8.479099,2.2122796,21.965115,-2.2633674,7.446515,-4.210333,-0.44345257,9.754765,-10.715792,19.389433,-30.339655,38.947094,21.586401,1.8613526,8.501285,11.802208,-15.522381,17.79589,66.29533,-18.410152,-0.37936413,1.3763667
229,116.15757751464844,118.83405303955078,75.8154067993164,-3.1122546902024815,-2.305945958222648,89.77805074019923,5.1660647,15.092878,-12.578157,37.890587,-18.204054,-6.8880014,-16.726923,-7.472999,1.6170462,22.143534,-2.8762193,7.2466297,-4.1914487,-0.2208329,9.723674,-10.1812525,19.437996,-30.09241,40.01259,21.333971,1.8424343,8.599147,11.635255,-15.163188,17.993294,66.538925,-18.42766,-0.27540517,1.609751
230,116.87098693847656,119.35979461669922,75.9052505493164,-3.6129117463318003,-2.36444512861041,89.75526912494168,4.000852,16.04541,-12.623678,40.919914,-16.802351,-6.074927,-16.014997,-6.383501,1.0630375,21.956688,-3.2892268,7.0219154,-4.145164,0.04536675,9.734988,-9.590814,19.459742,-29.789364,41.190483,21.06885,1.8448982,8.683244,11.439479,-14.813821,18.1588,66.73956,-18.413733,-0.15486054,1.8781946
231,117.57447814941406,119.89102172851562,76.00389862060547,-4.120879766997994,-2.4668167492872133,89.73601638693026,2.7533603,17.026505,-12.570602,44.059055,-15.226492,-5.135726,-15.167242,-5.2737184,0.5232265,21.54826,-3.5940034,6.7515163,-4.0979137,0.3224509,9.793249,-8.991991,19.456745,-29.468914,42.44772,20.79623,1.8799818,8.709408,11.230874,-14.477314,18.288294,66.8792,-18.38714,-0.02948983,2.1487854
232,118.27356719970703,120.42382049560547,76.10379791259766,-4.607283460782154,-2.612001924636686,89.77929278904546,1.3779229,18.002903,-12.4779825,47.267284,-13.515478,-4.040737,-14.236054,-4.2052855,-0.034120694,21.064548,-3.8850186,6.4163256,-4.0745697,0.5820647,9.904279,-8.431703,19.432493,-29.170845,43.749992,20.52185,1.9595603,8.633588,11.026357,-14.157797,18.375067,66.93756,-18.36675,0.08850426,2.3892627
233,118.9721450805664,120.94961547851562,76.20020294189453,-5.082876586372691,-2.813966936178407,89.89816506815195,-0.18239094,19.070791,-12.281768,50.62943,-11.516711,-2.7255507,-13.177329,-3.1734385,-0.6258585,20.484585,-4.1714125,6.002743,-4.0827575,0.8296082,10.083833,-7.9082446,19.38785,-28.879538,45.101204,20.234364,2.0988557,8.40691,10.835652,-13.854772,18.39548,66.89572,-18.350534,0.21309201,2.619607
234,119.6590576171875,121.47779846191406,76.29595947265625,-5.562575677003425,-3.067986838260733,90.06199365079407,-1.911738,20.272116,-11.971814,54.144005,-9.281171,-1.1538855,-11.9648075,-2.1425157,-1.2278131,19.726694,-4.399027,5.5257215,-4.107409,1.0812291,10.32603,-7.4005094,19.322422,-28.58483,46.512764,19.934546,2.2891748,8.065505,10.648875,-13.567554,18.35887,66.765884,-18.330627,0.34503618,2.8481293
235,120.32794952392578,121.98548126220703,76.3899917602539,-6.02542910143727,-3.344853537044227,90.26349162370603,-3.7469273,21.472713,-11.688097,57.646034,-7.1566963,0.6438432,-10.677424,-1.1319463,-1.8146266,18.85564,-4.5731616,5.0118074,-4.1393695,1.3231506,10.604762,-6.926353,19.239006,-28.334185,47.962646,19.646927,2.5066535,7.693441,10.453923,-13.303813,18.304544,66.5745,-18.319412,0.45197642,3.0251834
236,120.98007202148438,122.49317169189453,76.48221588134766,-6.445706017724238,-3.615690167445018,90.49558053827346,-5.615091,22.489609,-11.572899,60.97983,-5.4880104,2.5841804,-9.402889,-0.17026049,-2.3640842,17.958193,-4.7107563,4.4890304,-4.1700926,1.5392479,10.894267,-6.501294,19.141792,-28.174284,49.42618,19.395214,2.7262578,7.374186,10.241568,-13.074885,18.272327,66.34297,-18.327127,0.5014263,3.1025167
237,121.61190795898438,123.00183868408203,76.57263946533203,-6.82480117631292,-3.880813393591272,90.79497604707903,-7.593659,23.31925,-11.632216,64.237656,-4.3069687,4.8772063,-8.14112,0.73057175,-2.9074025,17.05477,-4.824517,3.9563322,-4.2275543,1.7302879,11.207501,-6.145885,19.034796,-28.117004,50.914516,19.204939,2.961605,7.1165633,10.021306,-12.887252,18.26075,66.04457,-18.363592,0.4757179,3.0644603
238,122.23178100585938,123.48916625976562,76.6529312133789,-7.175678058679728,-4.15294080078154,91.15185974316962,-9.693145,24.033636,-11.795456,67.46841,-3.4729812,7.490622,-6.847235,1.5850716,-3.4444191,16.10367,-4.908703,3.408052,-4.306859,1.9041121,11.554333,-5.84069,18.918674,-28.135365,52.42726,19.056622,3.2188737,6.8795,9.799638,-12.740324,18.253016,65.669075,-18.419683,0.39468914,2.94016
239,122.82999420166016,123.96863555908203,76.72906494140625,-7.47499432077013,-4.420942155179405,91.49148870667251,-11.720442,24.471384,-12.103247,70.47615,-3.0360038,9.878441,-5.5535164,2.3886724,-3.9114954,15.117959,-4.963329,2.8654013,-4.3535433,2.0476475,11.9009905,-5.5467167,18.793585,-28.219717,53.92813,18.902113,3.4612386,6.672102,9.5606785,-12.63664,18.266151,65.266655,-18.478594,0.28220746,2.7481334
240,123.4211196899414,124.44889831542969,76.8074722290039,-7.700212822950181,-4.673574212236467,91.74165564170032,-13.464123,24.428167,-12.597689,73.0752,-3.012124,11.436879,-4.314132,3.1305332,-4.251177,14.1499,-4.9992385,2.345629,-4.317156,2.148796,12.212709,-5.223343,18.659012,-28.35878,55.379387,18.693298,3.651803,6.5036407,9.289822,-12.578195,18.31931,64.8851,-18.522213,0.16177404,2.5077212
241,123.98529052734375,124.93012237548828,76.88848114013672,-7.845189078404093,-4.916093071469171,91.90009290935933,-14.787984,23.68407,-13.393229,75.20547,-3.5637462,11.727569,-3.1474953,3.8002222,-4.469613,13.231534,-5.0267577,1.8445207,-4.1929803,2.2038531,12.493397,-4.878677,18.514719,-28.572966,56.80335,18.381823,3.7641,6.4087396,8.980485,-12.570438,18.426485,64.52433,-18.530718,0.028658051,2.1958337
