unveil-humanoid-operators/unveil-humanoid-operators.github.io/feature-analysis-animation/data/feature_matrix_instances/age_waist_rom_jogging_A093_jog_arc_cw_stop_001__A093.csv
Frame,root_translateX,root_translateY,root_translateZ,root_rotateX,root_rotateY,root_rotateZ,left_hip_pitch_joint_dof,left_hip_roll_joint_dof,left_hip_yaw_joint_dof,left_knee_joint_dof,left_ankle_pitch_joint_dof,left_ankle_roll_joint_dof,right_hip_pitch_joint_dof,right_hip_roll_joint_dof,right_hip_yaw_joint_dof,right_knee_joint_dof,right_ankle_pitch_joint_dof,right_ankle_roll_joint_dof,waist_yaw_joint_dof,waist_roll_joint_dof,waist_pitch_joint_dof,left_shoulder_pitch_joint_dof,left_shoulder_roll_joint_dof,left_shoulder_yaw_joint_dof,left_elbow_joint_dof,left_wrist_roll_joint_dof,left_wrist_pitch_joint_dof,left_wrist_yaw_joint_dof,right_shoulder_pitch_joint_dof,right_shoulder_roll_joint_dof,right_shoulder_yaw_joint_dof,right_elbow_joint_dof,right_wrist_roll_joint_dof,right_wrist_pitch_joint_dof,right_wrist_yaw_joint_dof
0,-1.7855674028396606,-1.7237640619277954,69.07836151123047,11.211475985513179,2.759126158830093,30.310223115186243,-25.961668,3.4583182,1.6599996,50.062084,-25.11218,-12.993856,-8.391006,-10.74414,-2.2173886,100.00538,-21.795914,-8.992666,-3.6658866,-7.8656034,10.859754,27.94834,29.663462,-7.434264,-32.36237,-4.1030235,-3.3122618,-7.6028395,-3.8992639,-14.424611,25.055271,-21.570751,-10.64118,-5.94559,-1.2290441
1,-1.030339002609253,-0.9806580543518066,68.82442474365234,11.320158420798276,2.7173003877656514,29.795395584167004,-24.953384,3.5346174,2.3242288,50.79869,-26.596931,-12.875108,-10.303017,-10.4346075,-1.8056866,101.75783,-22.773674,-8.389949,-4.448973,-7.9693174,10.900495,25.243021,29.933527,-7.349051,-32.37232,-3.9410732,-3.3074894,-7.7303247,-2.120877,-14.7124605,25.108843,-20.71836,-11.1265955,-6.0058355,-1.1554003
2,-0.24204112589359283,-0.26400551199913025,68.6352767944336,11.446016982708954,2.672649197939025,29.256548770394495,-23.95755,3.599248,3.0184727,51.598335,-28.123629,-12.754315,-12.211183,-10.119364,-1.3470594,103.61194,-23.789997,-7.765473,-5.0639324,-8.072761,11.003878,22.381481,30.334112,-7.4445267,-32.34708,-3.8075204,-3.3052802,-7.8155637,-0.04456271,-15.21001,24.989922,-20.182669,-11.602038,-6.074113,-1.1162698
3,0.5784305930137634,0.4352707862854004,68.50513458251953,11.534207190020878,2.6389066059998503,28.760965555628708,-22.920639,3.6683488,3.6505241,52.250656,-29.55946,-12.64557,-14.102922,-9.792484,-1.0230062,105.27128,-24.764896,-7.17444,-5.598016,-8.119879,11.113423,19.433342,30.816732,-7.6238236,-32.31542,-3.75742,-3.3080127,-7.872494,2.2448432,-15.864267,24.762049,-19.94937,-11.933364,-6.1230946,-1.094737
4,1.4200302362442017,1.1082971096038818,68.4295425415039,11.531268436738932,2.6277498385074485,28.3767703415527,-21.789198,3.7599015,4.1280513,52.547577,-30.771982,-12.5643835,-15.974162,-9.461252,-1.0042493,106.43492,-25.606884,-6.670082,-6.1360455,-8.055328,11.179427,16.471193,31.348398,-7.7915936,-32.31274,-3.8484702,-3.3186631,-7.9174814,4.6808333,-16.645123,24.481457,-20.037766,-11.981321,-6.123865,-1.0793445
5,2.292097568511963,1.7551207542419434,68.40880584716797,11.401093282847372,2.6323918103019937,28.15124585125497,-20.577833,3.8908362,4.387018,52.488224,-31.769203,-12.526245,-17.83509,-9.148161,-1.3955371,107.033936,-26.30871,-6.2604194,-6.721641,-7.83754,11.193802,13.4268675,31.911257,-7.950465,-32.32282,-4.1014366,-3.3423355,-7.986584,7.2811236,-17.539337,24.153147,-20.44832,-11.626331,-6.048603,-1.0903237
6,3.191920042037964,2.3830032348632812,68.44974517822266,11.180579908518542,2.6470461998888792,28.039868850863233,-19.308102,4.0527472,4.4898415,52.169067,-32.60864,-12.522915,-19.686874,-8.863126,-2.0815456,107.21737,-26.903372,-5.9183526,-7.335384,-7.506974,11.175602,10.284169,32.488575,-8.142839,-32.313255,-4.4744024,-3.377291,-8.0713005,10.044921,-18.52475,23.75329,-21.13156,-10.975765,-5.919856,-1.1240261
7,4.114152431488037,2.9938881397247314,68.55908203125,10.927590819136116,2.684999629269939,27.973057228607747,-17.934301,4.2228208,4.534075,51.523514,-33.23119,-12.535407,-21.509893,-8.594244,-2.9001346,107.007835,-27.356306,-5.6428194,-7.9701133,-7.132161,11.113708,7.2059216,33.05891,-8.321284,-32.300972,-4.9265637,-3.4162867,-8.122321,12.867066,-19.564388,23.302052,-22.02071,-10.233313,-5.7830815,-1.132748
8,5.067141532897949,3.58113956451416,68.73448944091797,10.699212514654427,2.7597637458055044,27.880788963636427,-16.409481,4.3728375,4.6164374,50.484383,-33.577755,-12.544791,-23.286064,-8.3210945,-3.6884987,106.430275,-27.636196,-5.433503,-8.639496,-6.783119,10.990512,4.404545,33.60191,-8.388399,-32.33212,-5.41291,-3.4514434,-8.096276,15.592158,-20.613518,22.859236,-23.004004,-9.610599,-5.6818285,-1.0665523
9,6.055355072021484,4.14567756652832,68.97747039794922,10.503685630314115,2.881098440476114,27.78921997435949,-14.695733,4.489438,4.7461967,48.93353,-33.668957,-12.556227,-25.030695,-8.045393,-4.4547734,105.460785,-27.719488,-5.2976213,-9.408054,-6.4787483,10.770844,1.9519459,34.10924,-8.252683,-32.42964,-5.904503,-3.475758,-8.003488,18.140606,-21.64454,22.487873,-24.00294,-9.1982355,-5.638617,-0.8933944
10,7.081899166107178,4.703592300415039,69.28186798095703,10.311502844863137,3.0395895506883415,27.721153660340164,-12.825902,4.582888,4.8776937,46.935677,-33.520275,-12.584443,-26.734455,-7.773462,-5.2696466,104.09114,-27.637121,-5.2292905,-10.279968,-6.1825743,10.462342,-0.22854657,34.587715,-7.9326024,-32.57888,-6.419124,-3.4939225,-7.873142,20.530853,-22.65244,22.186085,-25.003134,-8.891498,-5.6246634,-0.6414426
11,8.147001266479492,5.248297214508057,69.643798828125,10.122877740891562,3.2201356531320973,27.600386288917868,-10.853584,4.6596985,5.0283246,44.69237,-33.07253,-12.620606,-28.342268,-7.4781227,-6.062002,102.368225,-27.434175,-5.2064805,-11.171438,-5.880953,10.11125,-2.1362588,35.04857,-7.488122,-32.78037,-6.9798036,-3.5150259,-7.687712,22.746532,-23.632534,21.921083,-25.993275,-8.607026,-5.606171,-0.34872368
12,9.24804973602295,5.7862162590026855,70.05972290039062,9.93784123832617,3.406829900505381,27.3506206996245,-8.833704,4.7276554,5.211668,42.411606,-32.268547,-12.644291,-29.800428,-7.126789,-6.7645226,100.33851,-27.15598,-5.2092776,-11.995653,-5.5638356,9.765823,-3.7630122,35.505184,-6.9783826,-33.043934,-7.6127644,-3.5487595,-7.428089,24.774494,-24.578154,21.657192,-26.966732,-8.26078,-5.549178,-0.053314757
13,10.37786865234375,6.321431636810303,70.51676177978516,9.74898213871915,3.581133593447289,26.938951755802595,-6.672987,4.7961187,5.438955,39.985954,-31.06794,-12.682971,-31.077267,-6.7013764,-7.378748,97.9805,-26.81234,-5.266527,-12.732974,-5.2347517,9.445508,-5.0666227,35.972088,-6.384466,-33.37281,-8.382457,-3.5970037,-7.0437684,26.576256,-25.494913,21.404043,-27.927803,-7.8386497,-5.4315157,0.26492423
14,11.531951904296875,6.840313911437988,71.00267791748047,9.556410900845115,3.7559752569809772,26.408886003243545,-4.3784223,4.8547916,5.6999693,37.36175,-29.512707,-12.729828,-32.193447,-6.202301,-7.9384613,95.27552,-26.388874,-5.367285,-13.418159,-4.8994393,9.127001,-6.0532136,36.45593,-5.6746445,-33.776752,-9.260616,-3.6582243,-6.555042,28.174398,-26.387959,21.174387,-28.885021,-7.385234,-5.274923,0.6179126
15,12.703715324401855,7.344181060791016,71.50807189941406,9.374088729729635,3.962668727365946,25.798206071010803,-2.1597064,4.8891196,5.976853,34.842094,-27.67648,-12.703349,-33.17985,-5.6243773,-8.427013,92.26978,-25.88676,-5.4394655,-14.045257,-4.556996,8.792773,-6.7838874,36.954006,-4.893253,-34.273544,-10.131135,-3.734609,-6.049677,29.640034,-27.24455,20.938025,-29.833876,-6.904959,-5.1117306,0.9569731
16,13.887174606323242,7.844707489013672,72.0248031616211,9.21816425191003,4.232362997973143,25.143798830942035,-0.23152027,4.890289,6.255638,32.743084,-25.637943,-12.520036,-34.069935,-4.9709706,-8.812917,89.00655,-25.303513,-5.4079094,-14.598834,-4.207672,8.421416,-7.3406687,37.45651,-4.1073637,-34.859875,-10.872121,-3.8239357,-5.61545,31.043823,-28.036121,20.66203,-30.758799,-6.4045367,-4.975738,1.2357827
17,15.092960357666016,8.327932357788086,72.54581451416016,9.089934166858459,4.588983541031657,24.420595351249816,1.3295628,4.876368,6.5729017,31.202156,-23.360106,-12.115024,-34.89208,-4.1900363,-9.04577,85.45024,-24.623575,-5.2418056,-15.037909,-3.8493893,7.988888,-7.7587237,37.966373,-3.3469915,-35.513725,-11.458569,-3.9243925,-5.2567043,32.376324,-28.743217,20.34263,-31.640566,-5.8667583,-4.8824596,1.4447848
18,16.30903434753418,8.796533584594727,73.06964874267578,8.984932680222617,5.008923325426604,23.618077746506664,2.6344333,4.8529606,6.94014,30.060917,-20.831535,-11.545099,-35.609413,-3.2958763,-9.144952,81.58197,-23.852184,-4.9868803,-15.364501,-3.4938166,7.5086956,-8.012702,38.486347,-2.5934289,-36.22244,-11.950752,-4.0340533,-4.931755,33.59917,-29.360386,20.000957,-32.472008,-5.3015895,-4.813127,1.6140202
19,17.538864135742188,9.257625579833984,73.58978271484375,8.910672654915198,5.45235966987164,22.796396205245227,3.751582,4.7953887,7.302973,29.185776,-18.16113,-10.909833,-36.16571,-2.3978972,-9.180451,77.46616,-23.012602,-4.68568,-15.631384,-3.1590843,7.013009,-8.097263,38.99875,-1.8430268,-36.987076,-12.351169,-4.1469893,-4.6618657,34.726437,-29.874939,19.650017,-33.24464,-4.7555184,-4.7506423,1.7558535
20,18.781110763549805,9.7072172164917,74.09950256347656,8.87514493839436,5.881194444017956,22.016816417293583,4.7539196,4.6764593,7.5959425,28.430935,-15.449004,-10.307108,-36.512188,-1.6039896,-9.225183,73.16054,-22.12991,-4.379191,-15.886657,-2.857334,6.531359,-8.035381,39.474567,-1.1085868,-37.782566,-12.658124,-4.2564096,-4.4724894,35.77586,-30.270987,19.296291,-33.9498,-4.2777295,-4.6777043,1.8841808
21,20.0417423248291,10.149823188781738,74.58982849121094,8.869306649057139,6.308779598155198,21.282235390453504,5.6431055,4.5073624,7.8515043,27.735495,-12.540694,-9.814447,-36.651608,-0.88199264,-9.259332,68.586044,-21.134972,-4.0285225,-16.117329,-2.5692246,6.0586743,-7.8478594,39.895565,-0.39724576,-38.606087,-12.821533,-4.3639197,-4.4103656,36.764557,-30.53328,18.928373,-34.586147,-3.9046896,-4.5825686,2.0054371
22,21.31231117248535,10.589097023010254,75.05803680419922,8.894696283580464,6.7483424959550575,20.56632682846707,6.387975,4.298076,8.086592,27.174707,-9.429005,-9.37005,-36.600086,-0.19605097,-9.250099,63.720936,-20.03067,-3.6308677,-16.296503,-2.2950978,5.5794053,-7.54836,40.260647,0.27833295,-39.444668,-12.850334,-4.468601,-4.456237,37.669613,-30.65832,18.551157,-35.144173,-3.609076,-4.477049,2.1162343
23,22.599536895751953,11.030985832214355,75.49838256835938,8.974615121764629,7.162808512522656,19.887080244980655,7.008953,4.0209255,8.206809,26.81538,-6.438107,-8.859151,-36.34757,0.35893726,-9.2603855,58.720978,-18.937328,-3.2689977,-16.449295,-2.0730798,5.1082635,-7.1405435,40.564846,0.8934755,-40.279945,-12.826795,-4.5607066,-4.534482,38.45656,-30.653605,18.190567,-35.599728,-3.3444977,-4.379019,2.2153823
24,23.900375366210938,11.461884498596191,75.90477752685547,9.130272459373671,7.5160610134643315,19.262475782594773,7.53637,3.6507537,8.125287,26.703861,-3.8854337,-8.162303,-35.893295,0.6969386,-9.366746,53.744484,-17.974737,-3.0193508,-16.603006,-1.934677,4.6611075,-6.6300864,40.801224,1.4248339,-41.09285,-12.833037,-4.630676,-4.570607,39.096394,-30.533905,17.869947,-35.93864,-3.0618641,-4.3061004,2.300191
25,25.21086883544922,11.891617774963379,76.27994537353516,9.387524689893379,7.791723935946399,18.70232461854143,8.000086,3.1513262,7.7793427,26.793478,-1.7816982,-7.174507,-35.18616,0.82701725,-9.535207,48.675034,-17.1593,-2.820721,-16.77424,-1.9003372,4.239385,-5.9945765,40.961876,1.8734196,-41.88934,-12.893268,-4.664662,-4.5469503,39.599712,-30.3075,17.59301,-36.174637,-2.741103,-4.261958,2.3588443
26,26.52490234375,12.327842712402344,76.61909484863281,9.730943490892438,8.011813087112127,18.19931703633272,8.388427,2.5438826,7.238553,27.05517,0.04591912,-5.982801,-34.24824,0.7933434,-9.761018,43.454582,-16.413433,-2.6451826,-16.950176,-1.9448595,3.8371048,-5.2379584,41.044415,2.2480536,-42.68294,-12.959771,-4.6714354,-4.5051208,39.9854,-29.976608,17.346708,-36.32085,-2.4081895,-4.2373962,2.395105
27,27.840137481689453,12.760470390319824,76.91182708740234,10.114650544980183,8.199623729376208,17.745387841067885,8.669162,1.8888819,6.606471,27.566128,1.5485668,-4.749851,-33.19515,0.59051883,-10.183883,38.332962,-15.725905,-2.6022334,-17.112625,-2.0248032,3.460551,-4.4219127,41.054207,2.532025,-43.448856,-13.011417,-4.6752195,-4.4598823,40.241886,-29.550997,17.123613,-36.37012,-2.081567,-4.2306914,2.4300861
28,29.152414321899414,13.208503723144531,77.1553726196289,10.48862249596529,8.37913720148371,17.331616341196423,8.809737,1.2481568,5.9750547,28.401676,2.6618125,-3.6387866,-32.15087,0.23654972,-10.95183,33.581837,-15.096956,-2.7893302,-17.242142,-2.093646,3.115743,-3.6076121,41.000843,2.707618,-44.16116,-13.027153,-4.7005534,-4.423041,40.36023,-29.043667,16.915327,-36.312332,-1.7783078,-4.2400155,2.4834056
29,30.448034286499023,13.650753021240234,77.33935546875,10.855671890015099,8.564125964967316,16.965407669873095,8.752423,0.5959909,5.277678,29.653442,3.3284423,-2.5912535,-31.113302,-0.31913307,-12.242594,29.18194,-14.5416155,-3.3184378,-17.346895,-2.14605,2.7871108,-2.7981021,40.88956,2.7741594,-44.82397,-13.023607,-4.7651944,-4.3888226,40.35105,-28.458696,16.712254,-36.17035,-1.4666616,-4.264544,2.5885603
30,31.7265625,14.073784828186035,77.45207214355469,11.237836763105578,8.739906077032717,16.647153344219543,8.539685,-0.09785667,4.480654,31.252874,3.5895472,-1.549548,-30.037539,-0.99745303,-13.96731,25.022238,-14.075275,-4.055408,-17.433119,-2.2047393,2.4772503,-1.9701242,40.721214,2.7354388,-45.445477,-13.006668,-4.8528113,-4.3517632,40.222645,-27.796099,16.517725,-35.945545,-1.1460972,-4.3052697,2.7239258
31,32.97785949707031,14.48023509979248,77.49119567871094,11.611726222513207,8.888746429483032,16.354647801639924,8.2820015,-0.7713182,3.7152796,33.047287,3.5102427,-0.6798028,-28.998554,-1.6255631,-15.844856,21.278143,-13.706328,-4.7641687,-17.47622,-2.2655635,2.218809,-1.1396338,40.50052,2.5842235,-46.011047,-12.938558,-4.9371104,-4.3233843,39.965492,-27.066696,16.338139,-35.61252,-0.8807836,-4.363574,2.826841
32,34.206520080566406,14.881278991699219,77.46613311767578,11.951696902813838,8.994527799871108,16.065862472414413,8.073312,-1.35349,3.1125655,34.906975,3.148162,-0.14984027,-28.081356,-2.095721,-17.562906,18.147915,-13.438164,-5.2615094,-17.454987,-2.3210063,2.0434148,-0.32221285,40.23374,2.3164551,-46.503254,-12.783404,-4.992179,-4.3134646,39.57116,-26.28617,16.181416,-35.148003,-0.73151046,-4.4415026,2.831545
33,35.4162712097168,15.278631210327148,77.37710571289062,12.27376207715799,9.058900064530413,15.797694136781994,7.922131,-1.8316436,2.7433443,36.854023,2.3937888,-0.06099696,-27.26578,-2.4853325,-19.18218,15.574618,-13.328785,-5.432529,-17.380186,-2.3803957,1.9464633,0.485638,39.922916,1.929628,-46.938293,-12.50875,-5.0092497,-4.3195868,39.057556,-25.459429,16.03543,-34.565968,-0.6999117,-4.541718,2.699835
34,36.60966491699219,15.66627311706543,77.22804260253906,12.576672847394166,9.095796334999083,15.546731209812055,7.747963,-2.2148623,2.5306594,39.008987,1.2177416,-0.298933,-26.548735,-2.862909,-20.794523,13.536148,-13.3728285,-5.440104,-17.252954,-2.4346797,1.9116173,1.3014305,39.567757,1.4310446,-47.323856,-12.140831,-5.003629,-4.3363338,38.427567,-24.586817,15.893301,-33.876217,-0.75550956,-4.6627655,2.4705348
35,37.78886413574219,16.056381225585938,77.0252914428711,12.781201111826825,9.118654896092021,15.25312126721576,7.5071273,-2.44264,2.3926485,41.371967,-0.19784321,-0.7194198,-26.07018,-3.1479242,-22.115688,12.345601,-13.504044,-5.570989,-17.030632,-2.4195375,1.9517629,2.1205292,39.172424,0.83206105,-47.62561,-11.735716,-4.985618,-4.368702,37.644554,-23.684608,15.766108,-33.048183,-0.91032416,-4.800735,2.1934285
36,38.96170425415039,16.446250915527344,76.77877807617188,12.799886338546642,9.14277866408615,14.857096317572756,7.1716256,-2.4664896,2.2424212,43.904682,-1.6547639,-1.1903477,-25.990236,-3.2743597,-22.857388,12.368601,-13.692665,-6.121379,-16.675697,-2.260174,2.0785005,2.9572437,38.740944,0.15325916,-47.822296,-11.348775,-4.9662876,-4.4185634,36.674953,-22.777147,15.669954,-32.055626,-1.172303,-4.9518657,1.9138778
37,40.12189865112305,16.84101104736328,76.4907455444336,12.594606476645874,9.170163988773776,14.345819847331008,6.761519,-2.3091216,2.0243936,46.569237,-3.1529317,-1.7382611,-26.399315,-3.1905015,-22.77874,13.7981,-13.710192,-7.1921844,-16.184189,-1.9111286,2.2984755,3.8465161,38.269783,-0.6039584,-47.93318,-10.989562,-4.945566,-4.477499,35.51861,-21.876749,15.602289,-30.868444,-1.6057837,-5.123118,1.6373659
38,41.25175476074219,17.1765193939209,76.19173431396484,12.255678665080625,9.172401183786157,13.76450394389713,6.3224797,-2.0481734,1.7983515,49.34646,-4.763452,-2.414325,-27.154558,-2.9667892,-22.10898,16.32571,-13.56683,-8.591835,-15.600076,-1.4546412,2.602574,4.78895,37.75862,-1.4373993,-47.971684,-10.63088,-4.919137,-4.548917,34.2089,-20.98699,15.550911,-29.531847,-2.1813304,-5.311633,1.3346164
39,42.37897872924805,17.515941619873047,75.84037780761719,11.89059766789496,9.117480221993215,13.142596319985778,5.8783407,-1.7280685,1.6362697,52.199993,-6.3801675,-3.1279473,-28.062658,-2.7200255,-21.251486,19.567028,-13.603379,-10.190051,-14.965502,-1.0089065,2.9817436,5.741599,37.21983,-2.3201895,-47.894886,-10.278664,-4.891536,-4.6500096,32.757584,-20.122469,15.523672,-28.12819,-2.7634513,-5.500177,0.99741346
40,43.51587677001953,17.890480041503906,75.41178131103516,11.564338107531356,8.99288572180692,12.496809048343804,5.4239044,-1.3326361,1.6048346,55.125027,-7.906558,-3.7936938,-28.96598,-2.570424,-20.56339,23.216963,-14.245262,-11.926742,-14.312541,-0.64889246,3.4280357,6.667608,36.670143,-3.2157648,-47.66039,-9.942985,-4.8685904,-4.7922535,31.166428,-19.304636,15.533412,-26.734861,-3.2131405,-5.6735253,0.61635584
41,44.63996505737305,18.25248146057129,74.93655395507812,11.29151973154738,8.782694943990899,11.819730194405919,4.9917874,-0.83901274,1.734878,58.147774,-9.290208,-4.4910145,-30.00471,-2.6300807,-20.032917,27.732891,-15.854082,-14.156054,-13.649918,-0.38587344,3.9576778,7.581045,36.125366,-4.108457,-47.305683,-9.663991,-4.857404,-4.9909472,29.44349,-18.537996,15.578713,-25.362122,-3.4618337,-5.842571,0.18712716
42,45.7196044921875,18.604000091552734,74.44783020019531,11.307334298194574,8.399044897410205,11.266039866868827,4.6683517,-0.57010746,1.9232484,61.11825,-10.47192,-5.1222796,-31.194971,-3.37958,-19.373827,33.41321,-18.291916,-15.000033,-13.134688,-0.41492936,4.5812926,8.509147,35.5838,-5.0077624,-46.845592,-9.429869,-4.855449,-5.2256994,27.58001,-17.819176,15.66093,-23.969788,-3.5864198,-6.0128536,-0.28902906
43,46.76523208618164,18.94828224182129,73.9262466430664,11.391048215024236,7.950612936645649,10.739851796697675,4.2981935,-0.29387754,2.162007,64.12188,-11.613544,-5.5668645,-32.13544,-4.184561,-18.610403,38.845127,-20.849352,-15.000033,-12.656435,-0.5349227,5.268142,9.452647,35.0291,-5.8979506,-46.22135,-9.174031,-4.8532014,-5.4584436,25.560257,-17.161776,15.799468,-22.582472,-3.6648219,-6.160692,-0.81555986
44,47.802371978759766,19.25694465637207,73.39117431640625,11.275532450898964,7.566828343189409,10.127974752170452,3.7198946,0.27534056,2.4243162,67.23225,-12.87586,-5.724106,-32.591057,-4.4407215,-17.948803,42.98343,-22.990864,-15.000033,-12.09483,-0.4947784,5.9735975,10.4355135,34.431202,-6.748802,-45.387203,-8.826782,-4.842181,-5.652772,23.363775,-16.589342,16.016102,-21.22303,-3.7697763,-6.261445,-1.4002035
45,48.82966995239258,19.54802894592285,72.8760757446289,10.787962758188609,7.264129502642239,9.351951719054897,2.909045,1.3534253,2.6841145,70.58284,-14.370039,-5.489258,-32.501987,-3.9415674,-17.583344,45.691505,-24.725521,-15.000033,-11.395295,-0.13320576,6.747022,11.4973135,33.754,-7.550422,-44.321976,-8.280913,-4.8163075,-5.8150935,20.929077,-16.127794,16.337723,-19.881021,-3.8712726,-6.304397,-2.1369615
46,49.85778045654297,19.84229278564453,72.40653228759766,10.02878052113584,7.001103835207611,8.453358947665281,1.9375721,2.83095,2.9234164,74.10332,-16.003668,-4.972724,-32.074688,-2.9733963,-17.429932,47.630936,-26.37277,-15.000033,-10.616806,0.48036665,7.578817,12.651523,32.98143,-8.28751,-43.07483,-7.597259,-4.7820215,-5.9715624,18.287884,-15.776631,16.753662,-18.573986,-3.9330673,-6.303626,-3.0023608
47,50.896888732910156,20.114377975463867,71.98750305175781,9.228492593072614,6.790121782755746,7.551322416389777,0.81571704,4.402721,3.1070096,77.50811,-17.586407,-4.3570514,-31.484291,-1.902758,-17.318121,49.126293,-27.938574,-15.000033,-9.851603,1.1604123,8.339458,13.863366,32.121784,-8.934663,-41.69172,-6.9601426,-4.748967,-6.113458,15.553303,-15.512192,17.228642,-17.36106,-4.021773,-6.2691073,-3.8228226
48,51.954227447509766,20.37070655822754,71.62150573730469,8.6165618262298,6.654059356702986,6.761904491587738,-0.46732247,5.768897,3.2296634,80.53665,-18.93587,-3.8140738,-30.889023,-1.0646428,-17.0963,50.444984,-29.409723,-15.000033,-9.171782,1.7025065,8.90628,15.077179,31.203684,-9.486379,-40.208275,-6.5571876,-4.726069,-6.226088,12.8286,-15.301849,17.726112,-16.277185,-4.2124944,-6.2099957,-4.417505
49,53.017127990722656,20.61944007873535,71.3243408203125,8.269671588920355,6.632917031653671,6.117482364309782,-1.9697099,6.8986373,3.3559067,83.18124,-19.993317,-3.3510988,-30.330639,-0.5376691,-16.739729,51.59935,-30.79873,-15.000033,-8.579555,2.0097334,9.222622,16.263554,30.24037,-9.971481,-38.474506,-6.553975,-4.702335,-6.275913,10.070356,-15.124543,18.291447,-15.237552,-4.612862,-6.102522,-4.720292
50,54.1076774597168,20.859941482543945,71.10289764404297,8.057915820525672,6.707699792282253,5.554296472311747,-3.6804733,7.940887,3.4666524,85.57491,-20.862566,-2.8720498,-29.712996,-0.122965984,-16.342785,52.438877,-32.09657,-15.000033,-8.025286,2.1832614,9.366628,17.444164,29.234806,-10.402953,-36.517742,-6.816815,-4.677475,-6.274766,7.234857,-14.97063,18.930216,-14.235876,-5.1601763,-5.9514623,-4.8257422
51,55.22140121459961,21.084653854370117,70.9522933959961,7.89978416247613,6.818486919117228,5.042571490042505,-5.518382,8.857923,3.4624662,87.67377,-21.60037,-2.399723,-28.98071,0.26381487,-15.942841,52.96702,-33.25523,-15.000033,-7.4951673,2.3088918,9.418984,18.630821,28.211998,-10.760973,-34.62844,-7.0827746,-4.675951,-6.268471,4.422565,-14.829031,19.549812,-13.41875,-5.6796803,-5.8068757,-4.7905345
52,56.347572326660156,21.29216766357422,70.86605072021484,7.713562795955036,6.903142845455182,4.553970747433952,-7.405772,9.601403,3.245918,89.42944,-22.256428,-1.9725552,-28.081444,0.69648176,-15.568657,53.187412,-34.22105,-15.000033,-6.9755216,2.4713058,9.457435,19.836111,27.212103,-11.023578,-33.107075,-7.09265,-4.7215023,-6.2954617,1.7282202,-14.692911,20.05552,-12.922527,-5.997526,-5.7184763,-4.6705093
53,57.475364685058594,21.489482879638672,70.84198760986328,7.48049714515723,6.931116174112519,4.117961161805683,-9.368789,10.108496,2.7364786,90.85457,-22.814045,-1.5965644,-26.957853,1.1675906,-15.246931,53.064526,-35.00242,-15.000033,-6.4864287,2.6808345,9.506211,21.062807,26.260195,-11.154047,-32.023014,-6.720642,-4.8416815,-6.3558893,-0.8469291,-14.560173,20.438864,-12.823042,-6.0339866,-5.7166705,-4.433722
54,58.60163497924805,21.66368293762207,70.8764419555664,7.24635712821731,6.939481051944931,3.7372528761015418,-11.43516,10.394078,2.0241323,91.96009,-23.24137,-1.2650337,-25.649065,1.6333538,-14.941902,52.60679,-35.618935,-15.000033,-6.023783,2.8802798,9.523735,22.315058,25.362587,-11.173152,-31.238865,-6.1361246,-5.0172787,-6.4194174,-3.3562276,-14.433814,20.750309,-13.020412,-5.8953366,-5.770407,-4.0627017
55,59.73346710205078,21.821805953979492,70.96847534179688,7.026894241982554,6.967220846734072,3.3429104686367563,-13.529876,10.530255,1.2649041,92.69332,-23.562359,-1.0038526,-24.248928,2.1063354,-14.583454,51.889015,-36.03546,-15.000033,-5.5365353,3.0557022,9.487447,23.602596,24.531092,-11.146118,-30.737684,-5.5231395,-5.2013187,-6.477032,-5.781676,-14.316765,20.984974,-13.390193,-5.68702,-5.8362756,-3.6364532
56,60.87735366821289,21.96019744873047,71.11689758300781,6.836769268111814,7.053170345640085,2.865719142071797,-15.578614,10.60154,0.61081374,93.004196,-23.80681,-0.8373686,-22.849957,2.5963335,-14.105837,50.99079,-36.222656,-15.000033,-4.9668117,3.1923716,9.374952,24.926098,23.782005,-11.143462,-30.495594,-5.0669003,-5.346422,-6.519076,-8.09905,-14.211985,21.133747,-13.811908,-5.514041,-5.872794,-3.2333674
57,62.033260345458984,22.075077056884766,71.31819152832031,6.68298387862595,7.223579331358456,2.274028453709906,-17.597473,10.610299,0.10128892,92.86187,-23.989197,-0.80448776,-21.466837,3.1152086,-13.458444,49.877792,-36.183887,-15.000033,-4.2739344,3.2730815,9.16574,26.304146,23.130735,-11.171731,-30.595804,-4.776756,-5.4413123,-6.5344343,-10.322626,-14.123118,21.18069,-14.293735,-5.409788,-5.8782597,-2.8311586
58,63.20208740234375,22.187320709228516,71.57337188720703,6.554013369123142,7.4515753708310495,1.6081186359293516,-19.60501,10.529351,-0.33718935,92.29847,-24.091496,-0.8822576,-20.047716,3.6421742,-12.680814,48.53111,-35.93461,-15.000033,-3.4898734,3.3033335,8.880727,27.73215,22.580528,-11.199296,-31.02913,-4.575301,-5.5099034,-6.5269833,-12.456715,-14.052664,21.14056,-14.8870125,-5.317188,-5.8737626,-2.4017444
59,64.382568359375,22.281265258789062,71.87664031982422,6.435901885139692,7.6968984958745335,0.9065437623271866,-21.52713,10.406778,-0.72179097,91.346375,-24.104256,-0.9980507,-18.584637,4.144896,-11.841758,47.045433,-35.45273,-15.000033,-2.6647756,3.3050094,8.559157,29.173878,22.124601,-11.238551,-31.636803,-4.5134425,-5.5571117,-6.5121255,-14.458346,-13.998629,21.043365,-15.548822,-5.199147,-5.849117,-2.0159154
60,65.57890319824219,22.362714767456055,72.21802520751953,6.316309068790294,7.919812110506742,0.20844235878581643,-23.29174,10.286638,-1.0698832,90.03887,-24.017174,-1.0798005,-17.07161,4.590683,-11.015088,45.513905,-34.716103,-14.979629,-1.8488979,3.3029249,8.237675,30.585964,21.750992,-11.3041115,-32.251118,-4.6385264,-5.587914,-6.50649,-16.284111,-13.957502,20.915598,-16.229837,-5.020035,-5.794205,-1.7438406
61,66.79443359375,22.43574333190918,72.59806060791016,6.223375446874758,8.118071837321702,-0.47513147940227723,-24.901365,10.143564,-1.353881,88.36567,-23.81685,-1.0798281,-15.487897,4.882104,-10.216758,43.933273,-33.71851,-14.56799,-1.0518721,3.277612,7.91316,31.968344,21.456123,-11.407823,-32.86345,-5.0520816,-5.5962987,-6.5087643,-17.917799,-13.925147,20.749012,-16.93563,-4.7801175,-5.697278,-1.6444603
62,68.03682708740234,22.501577377319336,73.011474609375,6.162123433450519,8.310476004638614,-1.1627606660574412,-26.375443,9.961833,-1.5654305,86.30839,-23.516947,-1.0472454,-13.856619,5.0938444,-9.390113,42.27545,-32.481716,-14.123396,-0.25273138,3.2139783,7.5708785,33.33803,21.240568,-11.533747,-33.54509,-5.696324,-5.5812435,-6.514356,-19.388567,-13.901028,20.535715,-17.679977,-4.497896,-5.567147,-1.6678935
63,69.30113983154297,22.556642532348633,73.45220184326172,6.108444078054259,8.484996370212052,-1.8487348153756638,-27.66482,9.76715,-1.730618,83.88267,-23.143244,-1.0349234,-12.221698,5.23641,-8.594027,40.64108,-31.04423,-13.688446,0.53486687,3.1333902,7.2288423,34.677376,21.095127,-11.654304,-34.245636,-6.3763556,-5.555065,-6.535465,-20.722078,-13.891095,20.30599,-18.43253,-4.1663775,-5.4234076,-1.7197882
64,70.58759307861328,22.606258392333984,73.91356658935547,6.067490938173501,8.625394592601562,-2.5154645212038833,-28.71606,9.553083,-1.8596429,81.0888,-22.710358,-1.083056,-10.631139,5.2811584,-7.893544,39.152664,-29.457159,-13.294266,1.293466,3.0281608,6.909412,35.97087,21.029184,-11.746508,-34.92413,-6.9036775,-5.5311,-6.5783267,-21.923285,-13.901388,20.084457,-19.182781,-3.7853303,-5.284705,-1.7080636
65,71.88406372070312,22.655067443847656,74.38704681396484,6.039137011481971,8.7098727069785,-3.1523539177161224,-29.498365,9.286778,-1.9770985,77.89502,-22.22574,-1.1919965,-9.061409,5.22408,-7.3204255,37.812927,-27.667864,-12.946281,1.9916214,2.9165325,6.63076,37.19553,20.988518,-11.799214,-35.54324,-7.1861844,-5.5103865,-6.6845694,-23.004532,-13.931096,19.88452,-19.91684,-3.2913375,-5.138624,-1.6178243
66,73.1925048828125,22.69530487060547,74.86994171142578,6.021120539870562,8.753153788296052,-3.769041261880417,-30.038813,8.98664,-2.074263,74.30732,-21.684587,-1.3431971,-7.5041447,5.0877404,-6.839529,36.57217,-25.673113,-12.625212,2.6387439,2.8032405,6.3791285,38.36669,20.971615,-11.819343,-36.132416,-7.334455,-5.4862666,-6.8430467,-23.959867,-13.983406,19.700525,-20.647455,-2.7066607,-4.9791512,-1.4992032
67,74.51842498779297,22.74011993408203,75.35205841064453,6.014715475653942,8.793619512250771,-4.378481207119051,-30.373163,8.717654,-2.108928,70.37145,-21.077513,-1.5526819,-6.026568,4.88442,-6.418389,35.46714,-23.593513,-12.323334,3.259634,2.6833553,6.128092,39.485973,20.983526,-11.813783,-36.690662,-7.432577,-5.4587502,-7.009816,-24.795513,-14.097573,19.536982,-21.38691,-2.1361022,-4.8333163,-1.3486611
68,75.85589599609375,22.7816162109375,75.8274154663086,6.021887185176927,8.8696990504687,-4.994457952275758,-30.537365,8.534643,-2.0309186,66.121284,-20.389772,-1.8433343,-4.6947727,4.6239066,-6.0233283,34.533276,-21.547394,-12.033784,3.8659496,2.5457773,5.833938,40.550716,21.01957,-11.797031,-37.19331,-7.5561175,-5.4279943,-7.130346,-25.573269,-14.242795,19.414917,-22.05413,-1.7173843,-4.7298193,-1.1506245
69,77.2049560546875,22.817550659179688,76.28324890136719,6.06597589310006,8.991304967871724,-5.616088094106126,-30.486107,8.411217,-1.7980828,61.40212,-19.545935,-2.3399098,-3.522696,4.268987,-5.6700706,33.767715,-19.497242,-11.743009,4.4493055,2.3641994,5.4904957,41.561596,21.066467,-11.760999,-37.62698,-7.707716,-5.395511,-7.191962,-26.29901,-14.410834,19.3421,-22.646105,-1.5141783,-4.689239,-0.8633739
70,78.5595932006836,22.856481552124023,76.71530151367188,6.13779679328868,9.138102567138807,-6.238663978267428,-30.200172,8.307393,-1.4338773,56.20771,-18.554932,-3.0097294,-2.472052,3.832246,-5.3672485,33.14893,-17.396711,-11.455664,4.9958687,2.1496744,5.1170707,42.524986,21.118996,-11.696599,-38.00307,-7.848009,-5.360901,-7.223293,-26.973957,-14.605652,19.308577,-23.167522,-1.4363046,-4.692599,-0.50198865
71,79.92181396484375,22.891618728637695,77.11679077148438,6.188996955682154,9.302324472923505,-6.871416314773843,-29.760696,8.259689,-0.9824342,50.788063,-17.531084,-3.6406827,-1.5319266,3.3968406,-5.0718093,32.68506,-15.350905,-11.193476,5.518912,1.9541395,4.722614,43.44503,21.178188,-11.607958,-38.345936,-7.9923215,-5.3199735,-7.2472095,-27.589401,-14.822483,19.329546,-23.617004,-1.4298035,-4.708971,-0.14477722
72,81.28585815429688,22.926889419555664,77.47631072998047,6.171610601079595,9.476002802278483,-7.523436029659227,-29.265648,8.31662,-0.48877776,45.415573,-16.600765,-4.013545,-0.69149387,3.043558,-4.7436004,32.38184,-13.46251,-10.979362,6.0290055,1.8259705,4.3123846,44.33271,21.247726,-11.494922,-38.68658,-8.156486,-5.2686124,-7.2853,-28.14766,-15.052942,19.413204,-23.988377,-1.4307612,-4.7070746,0.13158375
73,82.66092681884766,22.95850372314453,77.79216766357422,6.083301126927048,9.67237718224916,-8.20465746196973,-28.720627,8.506538,0.05315161,40.01482,-15.819043,-3.9273376,0.03298318,2.7806323,-4.3527184,32.22612,-11.738058,-10.845688,6.5338387,1.7603987,3.8625512,45.207726,21.329954,-11.347111,-39.030132,-8.380239,-5.199862,-7.3379884,-28.665794,-15.296075,19.564058,-24.252104,-1.4429427,-4.6745973,0.30678552
74,84.04618835449219,22.98202133178711,78.05940246582031,5.94326814218699,9.88767033337024,-8.911587072797907,-28.071903,8.788487,0.6788551,34.458073,-15.106923,-3.5607145,0.65053433,2.571257,-3.9289787,32.20393,-10.116818,-10.772274,7.0351977,1.7381337,3.3805058,46.057716,21.42557,-11.169789,-39.36385,-8.643276,-5.1176276,-7.3950496,-29.11854,-15.5442,19.782137,-24.435545,-1.5161426,-4.6294947,0.4199623
75,85.42971801757812,23.00011444091797,78.27476501464844,5.732071434585026,10.085626856490912,-9.6351787795403,-27.333872,9.12889,1.3767477,28.943066,-14.389436,-3.2517707,1.218147,2.4331198,-3.5199726,32.305115,-8.602747,-10.708007,7.512926,1.7821333,2.9088316,46.874367,21.532549,-10.9648075,-39.704277,-8.8739395,-5.0345817,-7.459375,-29.529106,-15.795778,20.047464,-24.54348,-1.5814421,-4.5860977,0.4958567
76,86.81155395507812,23.00948715209961,78.4312515258789,5.420363371473587,10.22527881064795,-10.371380723524378,-26.51094,9.517744,2.1238914,23.654,-13.5671625,-3.3281844,1.8000658,2.3961577,-3.1699247,32.5141,-7.199128,-10.605358,7.948858,1.9288741,2.4918168,47.652214,21.646322,-10.733948,-40.06588,-9.000551,-4.9633203,-7.5340424,-29.933054,-16.057657,20.335182,-24.571161,-1.5540385,-4.55885,0.5602235
77,88.18653106689453,23.018905639648438,78.53094482421875,4.93031426173371,10.297242542654782,-11.15109117769992,-25.531649,10.069738,3.0334089,18.432169,-12.518228,-3.9788833,2.431193,2.544258,-2.8691666,32.775455,-5.865614,-10.467416,8.390783,2.2700586,2.1307614,48.393726,21.770466,-10.491127,-40.465374,-8.997531,-4.900469,-7.632076,-30.26705,-16.310755,20.684114,-24.570732,-1.4796743,-4.5493474,0.59886986
78,89.56065368652344,23.032772064208984,78.56645202636719,4.238861301794268,10.293307083451566,-11.997588820209156,-24.344313,10.815068,4.0845776,13.128173,-11.247294,-5.0052476,3.1171691,2.9016302,-2.5823476,33.078438,-4.5927634,-10.332597,8.838972,2.8195188,1.8120487,49.13977,21.900093,-10.215354,-40.912914,-8.907422,-4.8416333,-7.7447014,-30.6114,-16.566183,21.077887,-24.461214,-1.3220814,-4.5501623,0.6167489
79,90.92578887939453,23.05061149597168,78.54410552978516,3.4300163380545925,10.187928166824523,-12.877321310338838,-22.900272,11.607862,5.065468,7.7380753,-9.751525,-6.125294,3.8523452,3.3725746,-2.3204417,33.498123,-3.4442332,-10.201292,9.277429,3.4991784,1.5823692,49.828995,22.032072,-9.929007,-41.371643,-8.749357,-4.7966437,-7.8552046,-30.90573,-16.822142,21.492899,-24.303673,-1.1530309,-4.558616,0.62454605
80,92.27961730957031,23.062007904052734,78.47163391113281,2.6827040570720047,9.997021220120798,-13.71143502162841,-23.521437,12.423732,5.2681403,7.123913,-10.611252,-7.008511,4.557206,3.7572634,-2.1199353,34.1801,-2.5235705,-10.054991,9.642157,4.130028,1.4640063,50.39006,22.164925,-9.644649,-41.786404,-8.543556,-4.7765346,-7.9462295,-31.114553,-17.078121,21.894201,-24.1338,-1.021322,-4.574245,0.6357209
81,93.60277557373047,23.07642936706543,78.36152648925781,2.091914150382462,9.756718034342132,-14.445496225433924,-24.205538,12.988014,4.923747,6.991371,-11.601085,-7.5283313,5.1415935,3.9441304,-2.024626,35.243404,-1.8851479,-9.923207,9.880863,4.6199226,1.4440057,50.796745,22.299667,-9.35415,-42.142174,-8.252605,-4.7852526,-8.018455,-31.25409,-17.34154,22.287436,-23.950579,-0.92829597,-4.5964923,0.6536228
82,94.91502380371094,23.094104766845703,78.21343231201172,1.6291617684039195,9.487481544716447,-15.089094642244984,-24.777157,13.333481,4.2344623,6.9147496,-12.486807,-7.8281355,5.5973773,3.96234,-2.031679,36.657692,-1.5044719,-9.797529,10.012142,4.9989157,1.4995097,51.056602,22.440916,-9.060562,-42.441296,-7.8783674,-4.8175564,-8.081609,-31.289232,-17.605776,22.68965,-23.776754,-0.8866887,-4.626995,0.66469485
83,96.21134948730469,23.109542846679688,78.02294158935547,1.3030210071302015,9.196919009986425,-15.648747873889656,-25.192822,13.478676,3.4514382,6.880185,-13.187728,-8.002941,5.9640765,3.8125832,-2.1195934,38.3232,-1.364272,-9.599985,10.042275,5.2464547,1.6212653,51.17257,22.589867,-8.773312,-42.666637,-7.5033884,-4.870579,-8.127711,-31.204018,-17.863092,23.060675,-23.601213,-0.88100326,-4.6699977,0.66850966
84,97.4845199584961,23.117387771606445,77.78321838378906,1.117827055845932,8.888869647413928,-16.13592767310609,-25.404768,13.45612,2.8264146,6.8744316,-13.616624,-8.155747,6.2849817,3.5013843,-2.2626379,40.144604,-1.4471201,-9.249281,9.982592,5.346027,1.8020474,51.14762,22.747522,-8.502469,-42.80079,-7.209759,-4.9411783,-8.1493225,-30.979427,-18.104507,23.3615,-23.417274,-0.8973468,-4.7294393,0.6644761
85,98.74139404296875,23.123493194580078,77.48945617675781,1.056051854975126,8.540172239299931,-16.554411403944222,-25.368174,13.2972555,2.471936,6.895854,-13.966367,-8.274147,6.63138,3.04759,-2.4893508,42.068794,-1.7118787,-8.631359,9.829662,5.3164544,2.0562055,51.005463,22.904902,-8.2459135,-42.861214,-6.993474,-5.0403013,-8.138995,-30.609112,-18.302292,23.596888,-23.209099,-0.98722214,-4.8113813,0.66943973
86,99.97235107421875,23.122604370117188,77.13660430908203,1.110031841210633,8.162160233242382,-16.895344737534,-25.131777,12.986746,2.229855,6.960576,-14.21647,-8.325382,6.9527016,2.4418387,-2.8086429,44.175423,-2.1881144,-7.8298697,9.5836115,5.1633863,2.3751314,50.742558,23.086687,-7.998344,-42.858257,-6.8276925,-5.165861,-8.096722,-30.103176,-18.490082,23.765732,-22.990513,-1.1168889,-4.912274,0.67729217
87,101.1897201538086,23.111204147338867,76.73770141601562,1.3332311422229497,7.806545718610454,-17.152637981327395,-24.76642,12.451312,1.9707199,7.0537553,-13.939145,-8.390133,7.1234474,1.6240374,-3.1605036,46.54413,-2.9504247,-7.04409,9.23824,4.832804,2.7244525,50.29896,23.281921,-7.7769475,-42.733017,-6.7355633,-5.2938795,-8.042552,-29.462067,-18.643665,23.889353,-22.76456,-1.2553794,-5.0214815,0.6570661
88,102.38204956054688,23.115310668945312,76.34294128417969,1.7780749031624279,7.520622345649548,-17.32474612852326,-24.32906,11.622242,1.5703849,7.146523,-12.705584,-8.56713,7.038319,0.55185956,-3.4768932,49.22763,-4.0666084,-6.4582944,8.786623,4.2678165,3.0701091,49.634075,23.486946,-7.587435,-42.44118,-6.7469764,-5.4011087,-7.994638,-28.722788,-18.761255,23.979292,-22.509983,-1.3285149,-5.128775,0.5782933
89,103.5145263671875,23.130992889404297,75.96357727050781,2.529373667709674,7.330921968222209,-17.381098620114006,-23.82603,10.339277,0.8399871,7.237152,-9.89072,-9.058695,6.6854496,-0.86459106,-3.772704,52.266293,-5.6628547,-6.1099057,8.227132,3.377888,3.3950424,48.70956,23.719158,-7.448822,-41.953445,-6.8978524,-5.471346,-7.9597816,-27.853209,-18.85497,24.022318,-22.252195,-1.2564496,-5.2335105,0.42417976
90,104.65264129638672,23.131135940551758,75.53173065185547,3.5074153936596963,7.180925742621789,-17.355684408983986,-24.269218,8.684122,-0.2864454,9.559049,-7.0871377,-9.87058,6.183465,-2.5187535,-4.045646,55.57069,-7.6460676,-5.885214,7.581927,2.2522361,3.7272446,47.568592,23.968552,-7.358708,-41.309555,-7.1624374,-5.5201817,-7.9284062,-26.865406,-18.918047,24.025179,-21.97571,-1.0909126,-5.3405695,0.21480274
91,105.79627990722656,23.126285552978516,75.02926635742188,4.49497563367657,6.995910799441524,-17.346619898389818,-25.74839,6.9538703,-1.4294449,14.377057,-5.560719,-10.756092,5.6151433,-4.1246643,-4.2056465,58.99719,-9.752716,-5.7452135,6.9135375,1.1160908,4.1046515,46.288406,24.236204,-7.298587,-40.584187,-7.489796,-5.5727205,-7.882429,-25.798206,-18.947348,24.002493,-21.658783,-0.9657565,-5.4468813,-0.028531542
92,106.92897033691406,23.12381935119629,74.46188354492188,5.287412671242064,6.719256362239186,-17.44003508472464,-27.06794,5.551542,-2.0686727,19.213257,-5.0915103,-11.336932,5.0223975,-5.4213715,-4.179124,62.42992,-11.738011,-5.659309,6.2728796,0.17740433,4.560362,44.934246,24.524164,-7.2487726,-39.83564,-7.8287444,-5.6544,-7.8047347,-24.683933,-18.937489,23.963886,-21.288244,-1.0164012,-5.54883,-0.28564662
93,108.02820587158203,23.137958526611328,73.85946655273438,5.823452298022916,6.318328958276043,-17.659531348714385,-28.484566,4.6907406,-2.097449,24.704193,-6.245865,-11.321203,4.3953786,-6.312006,-3.898664,65.96599,-13.630534,-5.6782017,5.6661944,-0.51387334,5.1373134,43.5339,24.831167,-7.202754,-39.062653,-8.261867,-5.799881,-7.681867,-23.5659,-18.880714,23.92525,-20.828112,-1.2665385,-5.661587,-0.595143
94,109.10128021240234,23.145610809326172,73.22625732421875,6.177598037334088,5.823331683686803,-17.972324520706188,-29.952164,4.254784,-1.7584109,30.747847,-8.387156,-10.885259,3.7188838,-6.8874025,-3.4238002,69.63066,-15.532792,-5.804097,5.0776796,-1.033552,5.8145833,42.049362,25.154894,-7.1731496,-38.2343,-8.78475,-5.9867425,-7.5269184,-22.426321,-18.77359,23.881756,-20.286695,-1.6469669,-5.7797284,-0.9521785
95,110.14473724365234,23.144622802734375,72.60099792480469,6.41940138174089,5.302197829364377,-18.345167103657175,-31.165903,4.090042,-1.2621732,36.490837,-10.922239,-10.267151,2.970232,-7.2663503,-2.8852153,73.24861,-17.33078,-5.925205,4.499271,-1.4355414,6.5128193,40.42853,25.50054,-7.1709094,-37.362133,-9.213874,-6.15426,-7.3621,-21.176655,-18.617529,23.813522,-19.738514,-2.174249,-5.868483,-1.2742088
96,111.17536926269531,23.119638442993164,72.00778198242188,6.644547951048095,4.831614669698014,-18.731699084296835,-31.890308,3.9548407,-0.776375,41.18116,-13.301764,-9.734119,2.1135204,-7.611872,-2.4169388,76.65217,-18.915468,-5.9301243,3.913772,-1.8000404,7.1440983,38.61679,25.87816,-7.2080684,-36.454094,-9.368038,-6.241408,-7.2057467,-19.71996,-18.418886,23.690636,-19.269882,-2.8590608,-5.894893,-1.4783084
97,112.2095947265625,23.07052230834961,71.46379852294922,6.903748954010189,4.424003049438866,-19.106597837685882,-32.081078,3.7532225,-0.2969022,44.70642,-15.58459,-9.306128,1.144853,-8.001781,-2.0407205,79.8462,-20.219723,-5.745039,3.3108768,-2.166436,7.707378,36.531284,26.302057,-7.3220973,-35.429356,-9.139782,-6.208819,-7.04571,-17.975798,-18.168924,23.472916,-18.900537,-3.8975601,-5.825695,-1.5116245
98,113.25469207763672,23.006874084472656,70.97937774658203,7.168500086114919,4.053760564758548,-19.483938687365818,-31.92252,3.5702696,0.24594443,47.546455,-18.044306,-8.852242,0.06419973,-8.381212,-1.6972024,82.92223,-21.32388,-5.4407625,2.699001,-2.5223353,8.232933,34.21624,26.775377,-7.504337,-34.31275,-8.651512,-6.096169,-6.869933,-15.995496,-17.86858,23.170603,-18.599411,-5.2206926,-5.6906734,-1.423521
99,114.29078674316406,22.942628860473633,70.56426239013672,7.410063995106967,3.7397935715436583,-19.884444176634968,-31.529299,3.4241736,0.82621694,49.859684,-20.465664,-8.426358,-1.1524386,-8.712304,-1.3841804,85.81659,-22.32161,-5.1200967,2.0965166,-2.8592534,8.683451,31.8013,27.286217,-7.697763,-33.275745,-8.064479,-5.9597664,-6.7019944,-13.867948,-17.549543,22.834616,-18.387568,-6.441847,-5.5515094,-1.2899618
100,115.33197021484375,22.87738800048828,70.22498321533203,7.597766348139744,3.4994927437878647,-20.32961558010906,-31.007574,3.348872,1.418608,51.787384,-22.627485,-8.083889,-2.5317433,-8.9554,-1.0976194,88.45964,-23.299978,-4.887209,1.522074,-3.1587837,9.025842,29.40437,27.815063,-7.8488507,-32.477844,-7.534296,-5.856719,-6.5715218,-11.675236,-17.262037,22.521221,-18.29984,-7.1660643,-5.464774,-1.1960514
101,116.38577270507812,22.80243492126465,69.94932556152344,7.730338875390992,3.3465755400548662,-20.855713020346062,-30.334541,3.3752222,2.0598552,53.295517,-24.49776,-7.8482966,-4.126488,-9.11116,-0.78604674,90.87236,-24.278135,-4.777989,1.0175533,-3.405015,9.2488575,26.993525,28.345085,-7.9869814,-31.94794,-7.0328345,-5.805161,-6.4926257,-9.351041,-17.044811,22.218668,-18.416016,-7.138979,-5.455911,-1.1766995
102,117.43177032470703,22.704158782958984,69.73257446289062,7.823939903705325,3.2690026351580275,-21.43930239163927,-29.474697,3.4818892,2.7467859,54.347816,-26.191227,-7.6897435,-5.914774,-9.2016,-0.4662505,93.07801,-25.200651,-4.736889,0.57009315,-3.5943608,9.381533,24.49794,28.870184,-8.143941,-31.592253,-6.4952564,-5.775004,-6.454285,-6.8424115,-16.906591,21.900597,-18.745483,-6.6019597,-5.4892926,-1.1923946
103,118.4609146118164,22.587932586669922,69.57566833496094,7.872147218925079,3.24450586951578,-22.013014144372377,-28.508347,3.630986,3.4009752,55.064583,-27.709251,-7.583095,-7.8144755,-9.221729,-0.23591803,95.006386,-26.038713,-4.73195,0.113229804,-3.724896,9.448439,21.969004,29.391512,-8.2733965,-31.369415,-6.0202017,-5.7515464,-6.4510794,-4.256103,-16.843933,21.604591,-19.210651,-5.911509,-5.5265965,-1.2195641
104,119.46635437011719,22.433269500732422,69.47357940673828,7.868952035016073,3.2500630325895368,-22.509243636773657,-27.516663,3.7822614,3.9461133,55.563396,-29.052458,-7.498943,-9.744837,-9.173322,-0.1950703,96.5857,-26.763912,-4.7330213,-0.43313774,-3.8000853,9.469869,19.471607,29.916016,-8.318425,-31.24127,-5.7060223,-5.719563,-6.4813237,-1.7171564,-16.844498,21.374273,-19.715164,-5.4300613,-5.529099,-1.2358273
105,120.45820617675781,22.249744415283203,69.4239501953125,7.793042906254216,3.2956741185708287,-22.91345248465177,-26.53795,3.946887,4.3572536,55.872047,-30.229551,-7.4419346,-11.741009,-9.054708,-0.39413467,97.81469,-27.371885,-4.7478065,-1.0972823,-3.8043792,9.428606,16.983778,30.452326,-8.269294,-31.20896,-5.6138425,-5.680844,-6.5788126,0.76528496,-16.895977,21.215754,-20.23002,-5.280776,-5.4793787,-1.2630287
106,121.44384765625,22.042083740234375,69.42523193359375,7.654970374222095,3.385790006871041,-23.25937023035486,-25.525826,4.134407,4.6828094,55.931465,-31.237366,-7.4211974,-13.8283205,-8.882261,-0.7800579,98.72158,-27.870258,-4.791415,-1.8411442,-3.7455568,9.316644,14.473536,31.005236,-8.163233,-31.271736,-5.679643,-5.6423545,-6.735166,3.2433186,-16.993065,21.101742,-20.791754,-5.2672396,-5.4006376,-1.3036491
107,122.41004943847656,21.814167022705078,69.48175048828125,7.49619296695689,3.4895274262808247,-23.553137737125308,-24.434017,4.302457,4.9550166,55.725292,-32.057575,-7.411419,-15.908905,-8.685339,-1.2931391,99.27435,-28.247864,-4.8397374,-2.6459994,-3.664299,9.166661,11.99077,31.577362,-8.017236,-31.380695,-5.811344,-5.5961533,-6.885568,5.6812787,-17.13506,21.021593,-21.397198,-5.274613,-5.3145022,-1.306825
108,123.37750244140625,21.557701110839844,69.5890121459961,7.358487025053588,3.576970419054043,-23.80079053700874,-23.215944,4.4086533,5.202683,55.236057,-32.671143,-7.3892303,-17.886087,-8.489111,-1.8700494,99.443214,-28.496262,-4.868458,-3.4978423,-3.6027043,9.011056,9.600762,32.16747,-7.83589,-31.499744,-5.9166107,-5.5342364,-6.96568,8.0324335,-17.325476,20.972055,-22.037931,-5.186999,-5.2419863,-1.2212253
109,124.3434066772461,21.275728225708008,69.7543716430664,7.240951648782017,3.650331567215364,-23.968176839703283,-21.868973,4.4432,5.4062047,54.43054,-33.09908,-7.3475413,-19.77095,-8.295835,-2.5376315,99.20976,-28.599943,-4.881469,-4.435417,-3.5659506,8.84314,7.296984,32.776638,-7.6051846,-31.637045,-5.9491277,-5.445487,-6.957203,10.29084,-17.575062,20.957302,-22.71775,-4.9864583,-5.1863904,-1.0008667
110,125.31388854980469,20.96489906311035,69.98046112060547,7.125600236704055,3.72208539866394,-24.063077149370496,-20.414478,4.4281096,5.555473,53.32676,-33.342808,-7.300968,-21.597418,-8.099966,-3.3150225,98.588615,-28.570011,-4.884728,-5.452146,-3.5320325,8.649993,5.0397263,33.40481,-7.3379664,-31.799692,-5.9646797,-5.3375998,-6.8944135,12.488754,-17.888588,20.96663,-23.44464,-4.7295575,-5.135384,-0.68462557
111,126.2934799194336,20.645185470581055,70.26485443115234,7.027423794609251,3.778465957123741,-24.154565947369296,-18.845778,4.3685346,5.6910563,51.988617,-33.356846,-7.259529,-23.307396,-7.9064403,-4.1232324,97.601524,-28.438288,-4.8590536,-6.4705195,-3.5025194,8.454134,2.8512225,34.04682,-7.063964,-31.956633,-6.026487,-5.2301755,-6.792394,14.623641,-18.258898,20.982502,-24.208918,-4.415244,-5.086098,-0.3466526
112,127.28773498535156,20.30731964111328,70.59844207763672,6.961691736010491,3.8058063654501844,-24.311953665733224,-17.154114,4.267557,5.8537145,50.477474,-33.096375,-7.232304,-24.843487,-7.713816,-4.8827844,96.27272,-28.23761,-4.78653,-7.4159493,-3.4813278,8.27778,0.7711161,34.696445,-6.799679,-32.08752,-6.195406,-5.1425548,-6.6673145,16.678806,-18.67146,20.99455,-24.985159,-4.045803,-5.0365605,-0.05928986
113,128.28631591796875,19.947799682617188,70.98312377929688,6.9494358962617895,3.783466224447517,-24.539870927108467,-15.265935,4.0950875,6.048322,48.696873,-32.537525,-7.238419,-26.184828,-7.5380287,-5.5726695,94.58606,-27.98022,-4.6517563,-8.292471,-3.4936416,8.138817,-1.1886824,35.358494,-6.5214267,-32.194206,-6.511942,-5.083553,-6.5088825,18.628809,-19.123411,21.012156,-25.762444,-3.612226,-4.992426,0.16263175
114,129.30055236816406,19.576318740844727,71.40632629394531,6.976184435042308,3.725577846777496,-24.806200164863817,-13.208048,3.8569431,6.249506,46.647377,-31.70824,-7.2686887,-27.358469,-7.365713,-6.232258,92.53545,-27.65324,-4.4674706,-9.135253,-3.5317204,8.021059,-3.0326138,36.037773,-6.212206,-32.298573,-6.9338517,-5.0418096,-6.313909,20.476873,-19.617245,21.038647,-26.541212,-3.120843,-4.952126,0.35867393
115,130.32040405273438,19.189128875732422,71.86328887939453,7.004270639331533,3.669614915322113,-25.126043460678783,-11.126401,3.610647,6.4563446,44.548546,-30.639439,-7.2849617,-28.37791,-7.149546,-6.8741093,90.15532,-27.252872,-4.25909,-9.918689,-3.5509827,7.8974247,-4.7273293,36.724743,-5.8874164,-32.4203,-7.3922405,-5.0057373,-6.110233,22.239353,-20.142431,21.059357,-27.306826,-2.5979962,-4.9036417,0.5392422
116,131.3515167236328,18.783666610717773,72.33866119384766,6.996212712583244,3.6526810043091222,-25.514858186180145,-9.169626,3.4169075,6.675337,42.627537,-29.365803,-7.247364,-29.25876,-6.8416376,-7.510183,87.4798,-26.771715,-4.0495944,-10.613819,-3.5050128,7.7401237,-6.256742,37.401794,-5.5708876,-32.55841,-7.8157234,-4.9624863,-5.927768,23.929811,-20.680311,21.058016,-28.032515,-2.0741398,-4.8352942,0.7160555
117,132.3894805908203,18.359085083007812,72.82939910888672,6.928961560892034,3.6775927580532577,-25.988664770496097,-7.3415284,3.3093596,6.9136195,40.908863,-27.870455,-7.134186,-29.995335,-6.420861,-8.160303,84.47288,-26.20232,-3.8762705,-11.199514,-3.3680832,7.5453506,-7.6230354,38.06185,-5.265809,-32.690285,-8.20115,-4.9028916,-5.7677913,25.53755,-21.223692,21.030884,-28.68928,-1.5195974,-4.7379003,0.89994544
118,133.4380645751953,17.928733825683594,73.3311538696289,6.827823660580496,3.725753461591876,-26.536378170661575,-5.5787516,3.2515435,7.1749315,39.29573,-26.150288,-6.9673543,-30.57463,-5.907787,-8.810792,81.12343,-25.552301,-3.7138453,-11.688868,-3.168261,7.3285584,-8.841545,38.707134,-4.9592857,-32.810177,-8.576984,-4.8342667,-5.620247,27.057638,-21.773373,20.980452,-29.287792,-0.93724585,-4.619338,1.0845329
119,134.4852752685547,17.48306655883789,73.83527374267578,6.7283199331014165,3.8019745842275903,-27.132586707241746,-3.928442,3.1986153,7.463284,37.83153,-24.258368,-6.7701664,-31.002882,-5.321838,-9.42149,77.49431,-24.83838,-3.4939759,-12.103896,-2.9408066,7.089383,-9.907578,39.33121,-4.650484,-32.958443,-8.914059,-4.766909,-5.498673,28.50838,-22.320513,20.902445,-29.862535,-0.40774465,-4.493877,1.257603
120,135.53665161132812,17.01363754272461,74.3399887084961,6.665718146926033,3.9117499234497584,-27.750943196905045,-2.4363997,3.10553,7.7788105,36.5552,-22.243626,-6.5661335,-31.289804,-4.6866837,-9.948869,73.644356,-24.070478,-3.1520545,-12.466243,-2.7194474,6.82391,-10.825087,39.922966,-4.3442216,-33.159695,-9.181786,-4.7107515,-5.418453,29.902212,-22.848982,20.79585,-30.440023,-0.0134700965,-4.3765454,1.4083024
121,136.58995056152344,16.537086486816406,74.8398208618164,6.634519613266506,4.067339373532256,-28.40484250804234,-1.1133642,2.9857438,8.154334,35.467434,-20.046556,-6.3739147,-31.42824,-3.9832358,-10.39005,69.49778,-23.2372,-2.6709592,-12.758693,-2.4943,6.523885,-11.594368,40.477974,-4.038264,-33.4029,-9.359292,-4.6674733,-5.402299,31.234505,-23.34902,20.651575,-31.015207,0.18085517,-4.2634478,1.5429685
122,137.6499786376953,16.05253028869629,75.32453155517578,6.622044235902325,4.261405307882462,-29.101073743805056,0.06362106,2.8535712,8.581383,34.55344,-17.664555,-6.175945,-31.40795,-3.2111464,-10.752587,65.03152,-22.329954,-2.0917664,-12.970956,-2.257214,6.1916347,-12.217085,40.9974,-3.7325952,-33.675507,-9.463167,-4.6305165,-5.438481,32.496204,-23.819706,20.472736,-31.568007,0.22842771,-4.1500106,1.6681772
123,138.71588134765625,15.560160636901855,75.79254150390625,6.653429628405523,4.471669422805305,-29.802566185369535,1.104185,2.6664758,8.995384,33.81324,-15.218264,-5.943324,-31.236885,-2.4267416,-11.007871,60.376423,-21.35904,-1.4425243,-13.137688,-2.043328,5.837242,-12.711714,41.478317,-3.4399583,-33.98984,-9.520465,-4.5978217,-5.4914937,33.68801,-24.256529,20.28042,-32.094925,0.22426204,-4.050397,1.77312
124,139.7800750732422,15.048996925354004,76.23483276367188,6.754188218158547,4.676373731366702,-30.471858890219075,2.017397,2.384616,9.331964,33.247635,-12.828497,-5.6489277,-30.926777,-1.6864526,-11.129927,55.665882,-20.3356,-0.7484783,-13.292823,-1.8869306,5.4697886,-13.105871,41.91603,-3.1791215,-34.348427,-9.557472,-4.5672073,-5.526546,34.80918,-24.653147,20.095629,-32.586906,0.26186404,-3.978147,1.8473458
125,140.84719848632812,14.531392097473145,76.65032958984375,6.942371644776313,4.884145354149387,-31.103352488754492,2.8052695,1.9859756,9.608326,32.81335,-10.4243145,-5.249596,-30.453213,-0.9671649,-11.0524435,50.753906,-19.184868,0.066678114,-13.43767,-1.8031523,5.075068,-13.404943,42.30832,-2.958797,-34.7461,-9.5574665,-4.546409,-5.5366883,35.852455,-25.005116,19.924948,-33.037266,0.36193013,-3.9460387,1.8756746
126,141.9159698486328,14.008298873901367,77.0389175415039,7.208268479872198,5.100529441015744,-31.711349891025737,3.4675026,1.4921492,9.852314,32.512177,-7.9626007,-4.7774363,-29.801168,-0.27531222,-10.792557,45.59304,-17.912067,0.9757155,-13.55616,-1.7807273,4.65249,-13.603014,42.65583,-2.7738025,-35.17919,-9.512849,-4.533267,-5.5404077,36.81956,-25.310892,19.758564,-33.447308,0.47374392,-3.9435256,1.8693153
127,142.981689453125,13.48074722290039,77.39262390136719,7.5332849371601025,5.301085192957628,-32.288990210677426,4.0205927,0.9274349,10.011908,32.389038,-5.5934014,-4.31712,-29.005957,0.30395582,-10.469122,40.471058,-16.647102,1.8119656,-13.655134,-1.811857,4.231723,-13.712544,42.958385,-2.6247714,-35.647102,-9.463243,-4.511306,-5.5414896,37.723045,-25.56995,19.591429,-33.82612,0.5838249,-3.9488707,1.8581251
128,144.05226135253906,12.949277877807617,77.7046890258789,7.894554798492004,5.462542602455087,-32.83130782644881,4.476173,0.3183566,10.0283165,32.501553,-3.4790206,-3.9503324,-28.126135,0.7119696,-10.224846,35.708874,-15.526011,2.427561,-13.739632,-1.8825215,3.8419757,-13.742398,43.2147,-2.5117931,-36.157345,-9.447139,-4.4640574,-5.543168,38.57587,-25.781557,19.418459,-34.180954,0.6789548,-3.9404447,1.8713351
129,145.12124633789062,12.411222457885742,77.97309112548828,8.307224696630735,5.586017778123807,-33.32624470368053,4.853683,-0.3505973,9.889172,32.817158,-1.6010907,-3.7334645,-27.165916,0.95520896,-10.054512,31.297916,-14.569445,2.811387,-13.812878,-2.0013838,3.4779308,-13.69843,43.424034,-2.4374385,-36.715813,-9.511248,-4.3736143,-5.547406,39.40222,-25.943258,19.23061,-34.51814,0.7629608,-3.9120166,1.9210616
130,146.1890869140625,11.870774269104004,78.19158935546875,8.783114792188938,5.6806536251824635,-33.7786081088428,5.1484313,-1.0973159,9.617511,33.314346,0.10993763,-3.6102242,-26.115633,1.0707247,-9.919658,27.110739,-13.710162,3.0568526,-13.87191,-2.1782844,3.127737,-13.578716,43.586586,-2.4039145,-37.31644,-9.622193,-4.25312,-5.552419,40.18879,-26.05386,19.034943,-34.832115,0.8399678,-3.875271,1.9906917
131,147.252685546875,11.328019142150879,78.3587417602539,9.282423977581557,5.740385245855548,-34.213702805533615,5.3307147,-1.8887286,9.209614,34.074318,1.5627631,-3.4943638,-25.039814,1.0774921,-9.927973,23.331955,-12.969257,3.1841118,-13.907593,-2.3887324,2.8104107,-13.381123,43.702614,-2.4103336,-37.945618,-9.698619,-4.133237,-5.556337,40.89048,-26.117224,18.850492,-35.113815,0.89722383,-3.8349304,2.0669303
132,148.3061981201172,10.790483474731445,78.47608947753906,9.75325186394137,5.763189986551843,-34.66139593552071,5.359479,-2.6781874,8.669567,35.19378,2.6573784,-3.3046775,-24.01624,1.0087702,-10.186789,20.172821,-12.379368,3.208422,-13.909383,-2.5909252,2.5401597,-13.098346,43.749435,-2.4502568,-38.585247,-9.647332,-4.042745,-5.5702186,41.436565,-26.13169,18.709854,-35.323814,0.9132722,-3.7948866,2.1321409
133,149.353271484375,10.25680923461914,78.54114532470703,10.172059475161625,5.758708761160083,-35.14258611063338,5.1457853,-3.4640512,7.961654,36.84356,3.323807,-2.9419043,-23.091719,0.86354053,-10.831311,17.785044,-11.993297,3.1008618,-13.859269,-2.7652638,2.3258066,-12.724674,43.767673,-2.5125923,-39.260536,-9.437779,-3.9929352,-5.5682545,41.869877,-26.127638,18.599674,-35.52478,0.8935459,-3.7469618,2.1851747
134,150.38339233398438,9.72256088256836,78.54631805419922,10.539449918618145,5.737415403660588,-35.648489413815874,4.719163,-4.2472634,7.1107,38.951275,3.616502,-2.491199,-22.25146,0.67605,-11.781059,16.070288,-11.809464,2.868545,-13.747863,-2.9028955,2.1644816,-12.25372,43.76275,-2.5982962,-39.994164,-9.129039,-3.9691,-5.5469294,42.23237,-26.10222,18.486055,-35.740326,0.8532834,-3.6937385,2.2452097
135,151.40133666992188,9.191476821899414,78.4941635131836,10.834873394776347,5.699778726680388,-36.16507783925521,4.2145233,-4.9794574,6.207273,41.249786,3.617355,-2.148291,-21.49379,0.5207673,-12.811652,14.899307,-11.785591,2.5669477,-13.60498,-2.9891899,2.044291,-11.6909485,43.71009,-2.7206786,-40.72924,-8.781029,-3.962403,-5.525587,42.435223,-26.044767,18.416433,-35.87676,0.80160624,-3.6555533,2.2978613
136,152.40585327148438,8.658182144165039,78.37818908691406,11.045877292533572,5.6427363110504585,-36.675211529070275,3.765642,-5.609673,5.3357897,43.477867,3.4008937,-2.1012971,-20.811148,0.45333216,-13.694525,14.132553,-11.871792,2.245968,-13.444564,-3.0101464,1.9591631,-11.057067,43.574112,-2.910261,-41.41051,-8.453667,-3.9650638,-5.5253725,42.432552,-25.942463,18.399391,-35.877197,0.75206554,-3.6535022,2.3420246
137,153.3995819091797,8.127655982971191,78.19921112060547,11.175819843703428,5.559394858153722,-37.17916678966645,3.398642,-6.161267,4.479483,45.608204,2.9644494,-2.40935,-20.164644,0.4538575,-14.44961,13.732821,-12.081957,2.0683787,-13.277128,-2.9726286,1.911036,-10.322845,43.377056,-3.158963,-42.068947,-8.163867,-3.9897869,-5.5261335,42.23807,-25.828012,18.436369,-35.7858,0.7358226,-3.696476,2.3820457
138,154.3871307373047,7.598236083984375,77.96694946289062,11.22277410529361,5.453516091199086,-37.68532470251026,3.040834,-6.6401377,3.6096451,47.787445,2.2527716,-2.966306,-19.578148,0.48994827,-15.164573,13.793526,-12.442596,1.9439692,-13.089095,-2.8674119,1.9030747,-9.496065,43.116924,-3.4614222,-42.71228,-7.876328,-4.035969,-5.5295925,41.878094,-25.70226,18.513489,-35.62123,0.73801327,-3.7721364,2.4171832
139,155.36964416503906,7.07222843170166,77.6855239868164,11.172282503079128,5.334999543160709,-38.186566932672015,2.6794448,-6.963305,2.78925,50.011715,1.2607334,-3.7029676,-19.135502,0.5928151,-15.712818,14.365733,-12.923677,1.5397302,-12.892713,-2.6756446,1.9354326,-8.582286,42.7938,-3.806889,-43.3124,-7.599876,-4.080323,-5.5493884,41.352177,-25.562386,18.634777,-35.347046,0.73184,-3.8728247,2.4223328
140,156.3556365966797,6.5495123863220215,77.35619354248047,11.015852917281634,5.210713376766575,-38.67281609834009,2.308069,-7.0524306,2.0770514,52.262882,-0.0064640343,-4.5467396,-18.908165,0.7955666,-15.9701185,15.472124,-13.481031,0.52464265,-12.70296,-2.3866122,2.009554,-7.5854206,42.409878,-4.185493,-43.83842,-7.3434043,-4.099822,-5.5994744,40.659103,-25.40399,18.803198,-34.921204,0.6894682,-3.9907012,2.373166
141,157.3315887451172,6.026345252990723,76.98063659667969,10.754677008756474,5.060395173164893,-39.13572068563201,1.9833876,-6.900354,1.4782739,54.49386,-1.627094,-5.5589523,-18.888123,1.1458313,-15.76815,17.081589,-13.920487,-1.3463408,-12.5330305,-2.0037355,2.1333346,-6.4825516,41.96315,-4.6071205,-44.306667,-7.133186,-4.0801215,-5.690434,39.796715,-25.227571,19.026556,-34.33485,0.62246656,-4.1311073,2.2450795
142,158.3022003173828,5.5057806968688965,76.55850219726562,10.423766997144764,4.87424630406245,-39.5724599888218,1.7104627,-6.559819,0.9802467,56.702415,-3.5687225,-6.7256517,-19.02647,1.6031057,-15.243703,19.154327,-14.26074,-3.8329542,-12.382886,-1.5627704,2.3064518,-5.28497,41.455162,-5.081709,-44.719612,-6.956403,-4.0365505,-5.815255,38.777065,-25.033007,19.2947,-33.618122,0.5384601,-4.2953377,2.0564146
143,159.21624755859375,4.966760635375977,76.12047576904297,10.073975788063592,4.675339099900237,-39.98063314150821,1.4020352,-6.05625,0.59915113,58.936607,-5.641332,-7.868107,-19.333376,2.0597258,-14.705047,21.69871,-14.80236,-6.5427175,-12.248435,-1.1122268,2.5153174,-4.052672,40.898388,-5.5998006,-45.03297,-6.7668977,-3.9902658,-5.9599733,37.618885,-24.810364,19.586004,-32.79119,0.40401992,-4.4694033,1.8475513
144,160.1774444580078,4.450109481811523,75.617431640625,9.744200450806858,4.491962650270267,-40.36180947796386,0.9648268,-5.4130206,0.330105,61.24735,-7.6540437,-8.821583,-19.808872,2.4062307,-14.404758,24.706713,-15.897512,-9.106957,-12.120672,-0.69178116,2.744214,-2.8366537,40.309795,-6.149097,-45.210144,-6.5180535,-3.9627905,-6.1064167,36.333263,-24.542301,19.880312,-31.861639,0.18523714,-4.6395035,1.6601975
145,161.12632751464844,3.944357395172119,75.0693588256836,9.414493602383875,4.3136059169085135,-40.69315812880446,0.40513542,-4.5766277,0.1555895,63.67471,-9.628892,-9.642951,-20.564394,2.5735414,-14.406378,28.534628,-17.92138,-11.74257,-12.014957,-0.2856862,3.0039952,-1.6589254,39.710663,-6.751345,-45.26568,-6.1908784,-3.9583352,-6.251812,34.962463,-24.202074,20.1419,-30.838829,-0.19081739,-4.8072715,1.5528123
146,161.9969024658203,3.4276106357574463,74.50582122802734,9.080172321424367,4.1308884243910775,-40.980478183818725,-0.23675585,-3.555612,0.06549829,66.174995,-11.631106,-10.387734,-21.52578,2.6368585,-14.485857,32.99418,-20.59702,-14.56645,-11.921036,0.10175764,3.294745,-0.5104512,39.107124,-7.4274554,-45.19892,-5.816874,-3.9664912,-6.396676,33.48759,-23.778215,20.381313,-29.7024,-0.68916136,-4.978671,1.4920878
147,162.85760498046875,2.9440724849700928,73.93000030517578,9.051201402194355,3.9178061918113136,-41.13124962585136,-0.9570876,-2.7925172,0.04327448,68.53873,-13.405369,-10.788608,-22.516144,2.0039487,-14.505898,37.794987,-23.62473,-15.000033,-11.934748,0.18482888,3.5709112,0.61217403,38.482365,-8.147152,-44.949856,-5.428729,-3.988362,-6.528228,31.819685,-23.286913,20.642616,-28.417227,-1.1811544,-5.1465406,1.3806895
148,163.68429565429688,2.4683969020843506,73.31859588623047,8.983187824741446,3.8037432492984116,-41.384780662235876,-1.9123696,-1.9321396,0.058302484,70.92502,-15.026017,-10.851316,-23.244577,1.6256657,-14.346448,41.702915,-26.161304,-15.000033,-11.8289795,0.28120708,3.8204887,1.7578948,37.806927,-8.849929,-44.493774,-5.0533767,-4.0235467,-6.6416254,29.892824,-22.76377,20.966827,-26.98455,-1.5355154,-5.3013897,1.1155537
149,164.48170471191406,2.004490613937378,72.71282196044922,8.740461377828847,3.8894519964694654,-41.82412153438839,-3.2476606,-0.8040071,0.072980724,73.46716,-16.524784,-10.517369,-23.812029,1.8205693,-14.047818,44.580208,-28.051773,-15.000033,-11.530667,0.5400104,4.0119567,2.9624865,37.053688,-9.507813,-43.833282,-4.6354294,-4.0927176,-6.749593,27.656994,-22.238066,21.35246,-25.362011,-1.5900326,-5.45421,0.57955885
150,165.27142333984375,1.5404167175292969,72.16724395751953,8.350284546686895,4.122260339878695,-42.3953711208016,-4.8847027,0.57064384,0.057108164,76.125404,-17.932903,-9.874073,-24.349766,2.380666,-13.698295,46.95815,-29.66744,-15.000033,-11.099678,0.9421718,4.169914,4.2308674,36.213463,-10.119921,-43.004684,-4.1764417,-4.189399,-6.860133,25.1931,-21.716673,21.752106,-23.615353,-1.4502271,-5.6079903,-0.15303396
151,166.05828857421875,1.0579198598861694,71.68875885009766,7.927685676690838,4.357356751610744,-43.028480760852894,-6.5902,2.0007713,0.0014155281,78.662964,-19.207306,-9.060255,-24.724451,3.0204225,-13.3148155,49.00762,-31.144623,-15.000033,-10.618062,1.3585198,4.353468,5.57052,35.286724,-10.662356,-42.026806,-3.792228,-4.272597,-6.960315,22.611427,-21.201893,22.15171,-21.895435,-1.3835238,-5.7374125,-0.89884305
152,166.8539581298828,0.5777937173843384,71.26348876953125,7.594878368439245,4.455034981120725,-43.653116765157,-8.139982,3.2983549,-0.0645917,80.85764,-20.312744,-8.211143,-24.778637,3.4955652,-12.895867,50.809685,-32.5892,-15.000033,-10.170407,1.6574239,4.6224947,6.990564,34.283096,-11.113825,-40.918186,-3.602943,-4.3009443,-7.037087,19.996399,-20.692444,22.561163,-20.330826,-1.6545303,-5.8096137,-1.4748666
153,167.6658477783203,0.09743595868349075,70.89179229736328,7.40982862816609,4.362176799083448,-44.281288108044166,-9.460315,4.4429746,-0.053408735,82.68695,-21.215773,-7.2660446,-24.42183,3.7571707,-12.426388,52.334045,-34.038704,-15.000033,-9.776475,1.7660036,5.0233307,8.541191,33.192097,-11.461547,-39.595448,-3.7363973,-4.242252,-7.0562,17.261824,-20.18746,23.044043,-18.849909,-2.4961042,-5.7872353,-1.843439
154,168.48793029785156,-0.3991255462169647,70.58544921875,7.305175770631188,4.159069721080998,-44.93874270056832,-10.678785,5.5258193,0.00855875,84.2639,-21.955475,-6.1776342,-23.735031,3.9734435,-11.933116,53.51161,-35.414204,-15.000033,-9.397564,1.7699914,5.5180345,10.21276,32.011784,-11.720878,-38.08251,-4.098219,-4.126169,-7.0398602,14.383274,-19.683708,23.582159,-17.415789,-3.7084813,-5.692421,-2.0994601
155,169.30331420898438,-0.9298475384712219,70.34300994873047,7.21733960905319,3.91021147911515,-45.57533947986899,-11.881901,6.5226636,0.006641952,85.57773,-22.598106,-5.1065917,-22.814713,4.2218986,-11.454854,54.336685,-36.635586,-15.000033,-9.027573,1.7671686,6.0358624,11.924431,30.779566,-11.926328,-36.565887,-4.4712434,-4.0035377,-7.0490475,11.517729,-19.177088,24.08304,-16.185852,-4.9079638,-5.5803347,-2.253512
156,170.11517333984375,-1.4989252090454102,70.16670989990234,7.078576360548621,3.6791489643504667,-46.14097833394828,-13.159944,7.4018373,-0.17432018,86.61588,-23.195606,-4.219758,-21.766127,4.5517287,-11.01017,54.812817,-37.630478,-15.000033,-8.65987,1.8471798,6.5044723,13.594989,29.555239,-12.108214,-35.238556,-4.64616,-3.9247246,-7.131886,8.819741,-18.664085,24.462662,-15.306934,-5.7109213,-5.512591,-2.31657
157,170.9136505126953,-2.092338800430298,70.06556701660156,6.840224430388104,3.4331419794165794,-46.592163769216164,-14.521251,8.166916,-0.6140245,87.394875,-23.762053,-3.565657,-20.523806,4.976815,-10.618819,54.87054,-38.38127,-15.000033,-8.328717,2.0445209,6.9603066,15.231363,28.371813,-12.239049,-34.13269,-4.5710783,-3.9069803,-7.309276,6.3216367,-18.134369,24.72211,-14.857551,-5.9647436,-5.5254383,-2.252698
158,171.7101287841797,-2.6947009563446045,70.02859497070312,6.549277246314492,3.1540244518723477,-46.96485905123678,-15.927495,8.814907,-1.2214922,87.91312,-24.256683,-3.0600886,-19.064243,5.4439783,-10.242402,54.536915,-38.926533,-15.000033,-8.021774,2.2908485,7.4229946,16.879911,27.234175,-12.316488,-33.175274,-4.3728747,-3.9234424,-7.534092,3.9323835,-17.5824,24.914001,-14.732394,-5.8901095,-5.584711,-2.0659745
159,172.49354553222656,-3.311903476715088,70.0518569946289,6.279663074093023,2.9268260372665873,-47.33031638241147,-17.393852,9.306775,-1.8583868,88.1294,-24.640585,-2.6766458,-17.55913,5.891878,-9.806743,53.966423,-39.276337,-15.000033,-7.6657557,2.5204206,7.7935457,18.518806,26.161669,-12.399064,-32.39489,-4.1119304,-3.9583113,-7.749041,1.6183498,-17.017036,25.04313,-14.799951,-5.660364,-5.64503,-1.8285737
160,173.26707458496094,-3.945605754852295,70.12680053710938,6.1049847650958275,2.836688163418156,-47.760581056279875,-18.929459,9.608672,-2.3838117,88.00418,-24.878927,-2.388678,-16.181929,6.262593,-9.248753,53.31734,-39.448498,-15.000033,-7.181976,2.6663399,7.975518,20.122671,25.182373,-12.546758,-31.825094,-3.8516018,-3.9947562,-7.892016,-0.64092404,-16.457945,25.108768,-14.942961,-5.446918,-5.662141,-1.6125154
161,174.0469512939453,-4.5871806144714355,70.24799346923828,6.065894751738265,2.944931665184045,-48.27132430015237,-20.596098,9.663957,-2.7518475,87.51818,-24.937334,-2.232077,-15.016539,6.5309086,-8.531676,52.619896,-39.463478,-15.000033,-6.5279894,2.6809573,7.9076877,21.68713,24.319944,-12.776817,-31.531061,-3.541321,-4.034568,-7.9264016,-2.8458574,-15.917448,25.109715,-15.201296,-5.224933,-5.6155396,-1.4176382
162,174.82765197753906,-5.2594099044799805,70.42875671386719,6.112490804352521,3.193842251510217,-48.825969942191364,-22.351202,9.514216,-3.0261621,86.69267,-24.843136,-2.2088203,-13.957688,6.7270594,-7.698599,51.7964,-39.308514,-15.000033,-5.7466173,2.5997236,7.6603837,23.230425,23.577934,-13.0549135,-31.491484,-3.1808233,-4.0838995,-7.883034,-4.9784446,-15.398382,25.05465,-15.629459,-4.9201508,-5.532034,-1.2128023
163,175.60511779785156,-5.949609279632568,70.65965270996094,6.204692710209619,3.489483123180316,-49.411879578148714,-24.04237,9.25442,-3.2107265,85.53716,-24.645262,-2.223976,-12.897563,6.7824063,-6.840691,50.872463,-38.962753,-14.65913,-4.8946104,2.46506,7.3346424,24.76081,22.94721,-13.35882,-31.609608,-2.907642,-4.132216,-7.8033695,-7.022182,-14.907138,24.964252,-16.142942,-4.63616,-5.4391527,-1.0247989
164,176.37823486328125,-6.652474403381348,70.93852233886719,6.293909215646354,3.739616662943716,-50.02185420958754,-25.525377,8.991908,-3.3269863,84.06654,-24.397396,-2.1961186,-11.739853,6.7727804,-5.9915457,49.85967,-38.397797,-14.287969,-4.023924,2.3314912,7.028693,26.280766,22.409727,-13.669695,-31.780466,-2.855649,-4.1696677,-7.730914,-8.957583,-14.449826,24.858501,-16.657822,-4.477033,-5.3670106,-0.8812108
165,177.1642608642578,-7.372783184051514,71.2629165649414,6.321853992146944,3.945467451200699,-50.68348359226187,-26.810797,8.792473,-3.4153864,82.30805,-24.13001,-2.0999436,-10.438581,6.7964225,-5.115172,48.660526,-37.580242,-13.947052,-3.1139424,2.273314,6.742184,27.790558,21.956768,-14.007739,-32.004642,-3.129811,-4.1971493,-7.6661024,-10.791274,-14.029999,24.747206,-17.14991,-4.526011,-5.339729,-0.79971194
166,177.97335815429688,-8.122936248779297,71.63090515136719,6.323625440117737,4.14844068962065,-51.3929721113563,-27.954184,8.599921,-3.459584,80.244545,-23.816147,-1.9842265,-9.054986,6.81994,-4.1939373,47.302845,-36.534946,-13.620629,-2.1456213,2.250437,6.42914,29.27828,21.58521,-14.3760605,-32.317352,-3.632475,-4.21875,-7.5936775,-12.528883,-13.645474,24.631824,-17.665165,-4.708998,-5.3366337,-0.76491445
167,178.7906494140625,-8.901530265808105,72.0385513305664,6.324366702965566,4.320970585734199,-52.11775467198381,-28.899057,8.411514,-3.4447415,77.859505,-23.44504,-1.9049555,-7.6335325,6.786778,-3.3016949,45.926426,-35.289795,-13.316684,-1.1548283,2.2189677,6.119262,30.736078,21.281559,-14.723239,-32.675053,-4.191845,-4.2293296,-7.535166,-14.165925,-13.297248,24.51575,-18.214182,-4.8824244,-5.3182893,-0.7516543
168,179.62222290039062,-9.701919555664062,72.47999572753906,6.350919834998753,4.4357738118444905,-52.82477814552766,-29.58788,8.221559,-3.3536777,75.13072,-23.004353,-1.9191288,-6.2185955,6.6446066,-2.5151806,44.666336,-33.867428,-13.040732,-0.18266249,2.137473,5.845743,32.161736,21.025393,-14.993043,-33.03259,-4.633687,-4.22332,-7.5140185,-15.698904,-12.99105,24.403847,-18.811817,-4.902731,-5.2446895,-0.7343054
169,180.45335388183594,-10.521873474121094,72.94689178466797,6.42018077147835,4.456773589575811,-53.5067636545312,-29.961258,8.021552,-3.1540039,72.007164,-22.49056,-2.036927,-4.7622623,6.3663125,-1.8523122,43.51467,-32.22864,-12.776834,0.76577085,1.9969476,5.644513,33.550236,20.803972,-15.174027,-33.39704,-4.8779016,-4.1961603,-7.564026,-17.121475,-12.736664,24.296852,-19.482075,-4.687594,-5.0777664,-0.74051684
170,181.29681396484375,-11.364161491394043,73.42697143554688,6.514650198911548,4.408444318852005,-54.179601138531325,-30.06022,7.8146777,-2.8668602,68.51028,-21.910759,-2.233541,-3.2619185,5.991669,-1.2779757,42.417145,-30.378517,-12.522723,1.7058617,1.8295636,5.4927053,34.90413,20.613247,-15.290402,-33.783356,-5.0232377,-4.151088,-7.6680856,-18.434937,-12.538487,24.199623,-20.21901,-4.328202,-4.847108,-0.77497864
171,182.1331787109375,-12.217575073242188,73.91706085205078,6.6102091490805,4.354537864096974,-54.845488601931066,-29.97716,7.6110945,-2.5554905,64.715065,-21.26231,-2.5140097,-1.829551,5.571467,-0.7905044,41.433216,-28.39881,-12.302654,2.6256266,1.6527281,5.337444,36.2349,20.445263,-15.336955,-34.164845,-5.162829,-4.0943375,-7.7739477,-19.64474,-12.393338,24.120947,-20.990974,-3.9439466,-4.6140547,-0.77663505
172,182.964599609375,-13.082486152648926,74.40404510498047,6.682694513493046,4.358627070994751,-55.50767253779402,-29.805103,7.4243913,-2.2827096,60.688248,-20.540495,-2.8795273,-0.5770149,5.1546645,-0.38526553,40.61769,-26.365582,-12.142574,3.5121691,1.4789287,5.1255465,37.553604,20.289185,-15.307647,-34.514336,-5.3889484,-4.0321317,-7.830114,-20.755856,-12.289372,24.070736,-21.758911,-3.660373,-4.439293,-0.68326277
173,183.79458618164062,-13.973320960998535,74.88094329833984,6.7414244782499555,4.443432635502241,-56.163592159019196,-29.539051,7.237904,-2.0629542,56.307236,-19.685751,-3.3697705,0.45861068,4.7250557,-0.0836032,39.97335,-24.215773,-12.056219,4.3603196,1.288845,4.834964,38.865833,20.136251,-15.182199,-34.823742,-5.740488,-3.9616973,-7.8230643,-21.78225,-12.219289,24.048462,-22.504272,-3.5156384,-4.3468275,-0.4419792
174,184.6222381591797,-14.882328987121582,75.33927917480469,6.792088654737301,4.5722993396692475,-56.81474006885347,-29.124035,7.054659,-1.8667971,51.54514,-18.704885,-3.967879,1.3416251,4.270447,0.11979823,39.4689,-21.928055,-12.0253,5.169991,1.0786941,4.4974556,40.172028,19.982119,-14.961503,-35.11058,-6.160502,-3.881327,-7.7819133,-22.735668,-12.184605,24.05093,-23.231525,-3.4351194,-4.301349,-0.09435683
175,185.4373016357422,-15.79723072052002,75.77455139160156,6.8050196539767915,4.718846066300053,-57.470465044293086,-28.584513,6.923087,-1.6893145,46.61099,-17.686543,-4.58646,2.115312,3.8443718,0.271618,39.098724,-19.633661,-12.0314045,5.940919,0.8840987,4.139666,41.46996,19.824831,-14.674355,-35.379116,-6.5968103,-3.7986555,-7.719972,-23.605219,-12.181001,24.090988,-23.949251,-3.3935506,-4.274453,0.27947456
176,186.25364685058594,-16.725067138671875,76.18109893798828,6.750122257769405,4.8562594658234985,-58.13984197253568,-27.952936,6.893413,-1.5225723,41.721737,-16.726515,-5.138656,2.8243845,3.5008528,0.4186867,38.853756,-17.463148,-12.056559,6.6896214,0.7479144,3.7929301,42.74064,19.667345,-14.362668,-35.631924,-6.9963517,-3.7212312,-7.651835,-24.325783,-12.18069,24.20162,-24.700445,-3.4280226,-4.237396,0.5909439
177,187.0761260986328,-17.680387496948242,76.5538558959961,6.605279676033531,4.986199114479692,-58.846649910153225,-27.1937,7.001866,-1.3732406,36.772415,-15.831759,-5.593267,3.4764857,3.2730064,0.58861417,38.704945,-15.413767,-12.130891,7.445813,0.68697125,3.4512992,44.00406,19.513033,-14.011141,-35.87821,-7.3692565,-3.644796,-7.569993,-24.868277,-12.150463,24.41824,-25.500414,-3.6271636,-4.185344,0.81717646
178,187.888671875,-18.63508415222168,76.88322448730469,6.3851963999903445,5.114658994202065,-59.584824472118676,-26.287056,7.232727,-1.2364341,31.655378,-14.936139,-5.9947233,4.058333,3.1320353,0.752704,38.653183,-13.41809,-12.255799,8.088406,0.64427674,3.056592,45.3877,19.337227,-13.514242,-36.163334,-7.744122,-3.5681877,-7.4608645,-25.618622,-12.195879,24.576342,-26.05891,-3.580129,-4.135975,1.0616046
179,188.69451904296875,-19.593502044677734,77.16941833496094,6.104195697473243,5.22115748138989,-60.318526106579405,-25.302677,7.559262,-1.0890988,26.611506,-14.035823,-6.377867,4.589607,3.0526156,0.8750727,38.720955,-11.504532,-12.370889,8.731743,0.6762035,2.7005253,46.66818,19.15958,-13.039902,-36.406265,-8.066615,-3.5009136,-7.3604684,-26.096706,-12.238074,24.832893,-26.749754,-3.6869397,-4.0844245,1.2582713
180,189.49560546875,-20.557395935058594,77.40019989013672,5.78455703851319,5.285791444710003,-61.01221827418171,-24.315615,7.9375954,-0.90265536,21.899256,-13.131321,-6.7869325,5.0881596,3.0046117,0.9240954,38.936825,-9.707514,-12.417339,9.285996,0.7556623,2.3834474,47.86353,18.981903,-12.586989,-36.61601,-8.303484,-3.4533453,-7.280541,-26.485075,-12.275467,25.11176,-27.4018,-3.7261543,-4.031936,1.4512664
181,190.3026580810547,-21.517818450927734,77.58502197265625,5.409748028885295,5.311589876398546,-61.66705271540303,-23.315506,8.396458,-0.6085646,17.476023,-12.187109,-7.274489,5.553749,3.0069914,0.9048233,39.295216,-8.013137,-12.394488,9.750359,0.9005,2.0958169,48.999462,18.80613,-12.147388,-36.80601,-8.429948,-3.4303157,-7.222286,-26.78428,-12.307121,25.412418,-28.016891,-3.6658332,-3.9767253,1.6531409
182,191.09986877441406,-22.472000122070312,77.71971130371094,4.954149465472839,5.298140060055628,-62.30748208715604,-22.25714,8.9553175,-0.23138452,13.212354,-11.195117,-7.82344,5.9919024,3.0919707,0.8371771,39.773354,-6.402911,-12.338912,10.193997,1.143596,1.8520042,50.048992,18.644936,-11.733716,-36.969734,-8.467144,-3.4248002,-7.1804323,-26.84723,-12.283708,25.818272,-28.703743,-3.7260075,-3.9177036,1.831821
183,191.89468383789062,-23.410118103027344,77.80352783203125,4.459408857561753,5.231918346896159,-62.9196246221665,-21.146025,9.523072,0.12395847,9.184056,-10.180232,-8.360408,6.4057646,3.2119055,0.70870346,40.406048,-4.925883,-12.242192,10.475298,1.414638,1.6190578,51.101303,18.471102,-11.276849,-37.13901,-8.468987,-3.431492,-7.1422706,-27.119379,-12.308482,26.109112,-29.118006,-3.4600325,-3.8596585,2.0405374
184,192.6807861328125,-24.330026626586914,77.84078979492188,3.995907169892628,5.112830503150934,-63.47332285335935,-20.857576,9.984261,0.19548297,7.258773,-10.112842,-8.784187,6.7778444,3.285061,0.49814013,41.241516,-3.6393692,-12.090165,10.694336,1.681695,1.4716134,51.953865,18.325226,-10.893294,-37.236885,-8.460402,-3.4427805,-7.122277,-27.226551,-12.342481,26.412273,-29.559578,-3.2670126,-3.8035085,2.199409
185,193.4556427001953,-25.239309310913086,77.8327865600586,3.610799994706679,4.959863319089075,-63.92871530758438,-21.276365,10.287088,-0.037981264,7.1454535,-10.838341,-9.017202,7.051485,3.2580643,0.17767909,42.36115,-2.5527494,-11.898406,10.862564,1.9170372,1.4381908,52.517292,18.202717,-10.610487,-37.2286,-8.431458,-3.4504108,-7.155203,-26.926916,-12.283597,26.90002,-30.206612,-3.471658,-3.7425554,2.2529695
186,194.22056579589844,-26.138582229614258,77.78042602539062,3.3103999947191616,4.787053313143555,-64.28958229154172,-21.58394,10.446022,-0.371122,7.084818,-11.432856,-9.1144085,7.2126803,3.1184778,-0.24556881,43.76787,-1.6674222,-11.6717615,10.808452,2.0350266,1.381002,53.054234,18.133326,-10.303016,-37.198494,-8.407702,-3.4663393,-7.164481,-27.007042,-12.293514,27.112381,-30.433401,-3.183702,-3.6806467,2.3618383
187,194.97396850585938,-27.027118682861328,77.6825942993164,3.0870262041528598,4.5877760591846695,-64.58889006986057,-21.758404,10.468101,-0.7924371,7.063299,-11.893402,-9.164074,7.317438,2.8650925,-0.7415018,45.36966,-1.0129135,-11.375568,10.696158,2.1082385,1.4287478,53.38495,18.05852,-10.039826,-37.097427,-8.359631,-3.4936008,-7.2136145,-26.745705,-12.288313,27.468616,-30.840164,-3.1407256,-3.632829,2.391625
188,195.71551513671875,-27.902496337890625,77.53372955322266,2.9366963789259763,4.3532036318046075,-64.86324345642265,-21.774254,10.360575,-1.2856499,7.0688014,-12.21689,-9.257115,7.4225883,2.498257,-1.2778187,47.081017,-0.6230567,-10.970089,10.540414,2.126468,1.5388982,53.54316,18.002792,-9.84798,-36.90455,-8.293419,-3.5470858,-7.2343893,-26.391697,-12.269955,27.80496,-31.167477,-3.1199975,-3.6149094,2.4178877
189,196.4541015625,-28.758441925048828,77.33098602294922,2.8193243383127977,4.059273363896004,-65.11459869188192,-21.601267,10.16329,-1.8759724,7.1113853,-12.564749,-9.414135,7.5912204,2.0620298,-1.8826474,48.864304,-0.44277054,-10.363763,10.337113,2.1310837,1.7268265,53.552452,17.974352,-9.728187,-36.641365,-8.224154,-3.6384962,-7.2159724,-25.924934,-12.23992,28.124588,-31.43144,-3.1404343,-3.637678,2.4406364
190,197.19219970703125,-29.606264114379883,77.0801773071289,2.753311693313245,3.7200617739777755,-65.32376396681846,-21.262968,9.856568,-2.560448,7.1970973,-12.887742,-9.590883,7.7734346,1.5299819,-2.5610838,50.78888,-0.48287305,-9.609663,10.069603,2.099366,1.9844923,53.402573,17.97538,-9.672326,-36.304535,-8.145532,-3.7587783,-7.174518,-25.346539,-12.204028,28.426159,-31.642052,-3.1924665,-3.6907334,2.4539344
191,197.92727661132812,-30.439701080322266,76.77896881103516,2.8187881730187208,3.3821068934972858,-65.49908181606318,-20.814785,9.361994,-3.283663,7.306983,-12.864334,-9.788949,7.865462,0.8083514,-3.2482078,52.91393,-0.87042385,-8.872144,9.764063,1.9438043,2.2972271,53.064747,18.0071,-9.662866,-35.8806,-8.044289,-3.8875885,-7.132167,-24.588255,-12.119458,28.790407,-31.84917,-3.3690288,-3.7582366,2.4322324
192,198.6426239013672,-31.271495819091797,76.4288330078125,3.0922069266187746,3.0877158392800204,-65.65429418138112,-20.30863,8.607632,-3.994274,7.425391,-12.179995,-10.018755,7.7774773,-0.1846675,-3.876378,55.279865,-1.7278117,-8.305737,9.38841,1.5594788,2.6095724,52.56785,18.02737,-9.646908,-35.3546,-7.8879385,-4.0021753,-7.1120486,-23.985518,-12.091554,28.977541,-31.823988,-3.2448742,-3.8240802,2.453033
193,199.3481903076172,-32.085968017578125,76.06291198730469,3.6419352278386796,2.8467205591397913,-65.77797267795063,-20.186619,7.4321976,-4.8670835,8.5089,-11.015225,-10.386968,7.523255,-1.5638511,-4.4911876,57.91369,-3.2167485,-7.965915,8.991508,0.90214103,2.9548612,51.796104,18.059845,-9.665617,-34.644257,-7.654631,-4.1036553,-7.128061,-23.191792,-12.056702,29.238823,-31.833403,-3.1795888,-3.8718228,2.424759
194,200.0459442138672,-32.844120025634766,75.70722961425781,4.398571476677636,2.6260273109521743,-65.88029635103474,-20.825659,5.849323,-5.911521,11.44331,-10.089983,-10.891613,7.176109,-3.2307866,-5.092502,60.760662,-5.2196083,-7.7496457,8.572967,0.04131456,3.344034,50.813816,18.098183,-9.72471,-33.813927,-7.347985,-4.199405,-7.1739197,-22.300087,-12.01847,29.49407,-31.79971,-3.0928822,-3.913536,2.3884504
195,200.75721740722656,-33.599571228027344,75.30470275878906,5.216917393607194,2.4086303244330454,-66.00682411274425,-21.483385,4.1731606,-6.7827373,14.60039,-9.085425,-11.370082,6.7288446,-4.924104,-5.547208,63.721237,-7.4333253,-7.572376,8.142258,-0.87638235,3.7505088,49.69477,18.139687,-9.804144,-32.940258,-7.054912,-4.2882233,-7.2062716,-21.40725,-11.981406,29.732788,-31.627125,-2.966341,-3.977229,2.333374
196,201.4872589111328,-34.359249114990234,74.8403549194336,5.941683611304544,2.178196068051576,-66.20234459867352,-22.320932,2.6759696,-7.269521,18.244772,-8.670805,-11.604197,6.1528673,-6.3734345,-5.7298894,66.71428,-9.560399,-7.35786,7.7210417,-1.694622,4.162666,48.51695,18.188818,-9.887525,-32.12473,-6.8542514,-4.3665395,-7.191573,-20.553366,-11.942379,29.959517,-31.27441,-2.8256426,-4.089073,2.2499924
197,202.20401000976562,-35.099754333496094,74.31661224365234,6.520248676843386,1.9252043876694642,-66.48292576446268,-23.558662,1.4476589,-7.297413,22.83024,-8.991711,-11.436813,5.4242992,-7.5017767,-5.5866513,69.80934,-11.616859,-7.1112294,7.306136,-2.3653152,4.585517,47.3312,18.22351,-9.956389,-31.397606,-6.7796526,-4.4385514,-7.1380334,-19.77219,-11.915257,30.178633,-30.756067,-2.5882356,-4.2771797,2.163792
198,202.9026336669922,-35.82459259033203,73.75567626953125,6.9878351285408,1.6491971955600733,-66.83789335000397,-25.052063,0.45147008,-7.0117545,28.108421,-9.706158,-10.97833,4.570356,-8.379098,-5.1986823,73.013275,-13.728256,-6.87241,6.898446,-2.9160683,5.033255,46.090096,18.237623,-10.022687,-30.706537,-6.7815294,-4.5036163,-7.0631127,-19.022802,-11.90139,30.400013,-30.099905,-2.279444,-4.520245,2.0683136
199,203.58908081054688,-36.52770233154297,73.16539001464844,7.360727291454689,1.360869474979029,-67.25625280417503,-26.425867,-0.279079,-6.531703,33.275383,-10.747792,-10.392709,3.6119447,-9.008771,-4.652308,76.16752,-15.769977,-6.6146884,6.4991217,-3.3506114,5.50255,44.72637,18.24605,-10.093699,-30.03671,-6.814286,-4.5505285,-6.9569893,-18.252974,-11.890675,30.624786,-29.277943,-2.0605621,-4.772505,1.9083613
200,204.22998046875,-37.20299530029297,72.58448791503906,7.691411078074493,1.0800241463538747,-67.71557802245923,-27.361994,-0.8007642,-5.9615583,37.631474,-12.099611,-9.870108,2.5566027,-9.442587,-4.0303006,79.122986,-17.62046,-6.302459,6.1021585,-3.713941,5.985241,43.17228,18.269163,-10.17131,-29.371523,-6.8346534,-4.567731,-6.8118706,-17.398054,-11.870481,30.853289,-28.272104,-2.1011124,-4.98794,1.6292777
201,204.83509826660156,-37.90106964111328,72.03034973144531,8.031361549677317,0.8246189390019808,-68.19943659502697,-27.841484,-1.1643243,-5.258137,41.128025,-14.00112,-9.440517,1.3607857,-9.698633,-3.2962918,81.924484,-19.254679,-5.921575,5.719756,-4.0677238,6.470679,41.36454,18.373652,-10.308853,-28.647196,-6.961298,-4.550521,-6.5580764,-16.448193,-11.792156,31.08455,-26.985308,-2.5033536,-5.171892,1.1352537
202,205.41957092285156,-38.62138748168945,71.5421371459961,8.369565342220094,0.5894214234269924,-68.71270061062857,-28.057693,-1.3845404,-4.3985953,44.174736,-16.421087,-9.011016,0.025565337,-9.773047,-2.4378119,84.63645,-20.742258,-5.482888,5.3386254,-4.4214644,6.9646206,39.39137,18.551033,-10.458525,-27.93838,-7.189625,-4.504761,-6.2282825,-15.429123,-11.661017,31.308,-25.465553,-3.1595721,-5.337668,0.49003264
203,205.97763061523438,-39.34400177001953,71.12237548828125,8.667899401977879,0.3602177416169028,-69.26425489959844,-28.025764,-1.4947993,-3.4973495,46.7912,-18.94769,-8.603721,-1.381632,-9.704116,-1.5663457,87.14037,-22.099184,-4.9952946,4.9785237,-4.731707,7.45016,37.308258,18.781796,-10.586493,-27.326094,-7.299292,-4.440068,-5.8986216,-14.343763,-11.494117,31.470432,-23.820711,-3.9527988,-5.4523635,-0.12511991
204,206.52622985839844,-40.072914123535156,70.77883911132812,8.885949165077397,0.12086627295078257,-69.86415927912292,-27.750824,-1.5176688,-2.6658652,48.97619,-21.161488,-8.239137,-2.7982957,-9.536576,-0.78768206,89.31371,-23.333567,-4.473494,4.6480713,-4.952504,7.920421,35.18239,19.033968,-10.634478,-26.908533,-7.063979,-4.3619366,-5.6619577,-13.190883,-11.327446,31.53062,-22.180851,-4.759244,-5.4912376,-0.5293176
205,207.06956481933594,-40.79932403564453,70.50720977783203,9.01118399026231,-0.1519868688152591,-70.54664449043693,-27.158047,-1.4274935,-1.9042656,50.662468,-22.988743,-7.9264965,-4.2116194,-9.247538,-0.06684289,91.124535,-24.415531,-3.875049,4.3688912,-5.045426,8.405178,32.980946,19.28856,-10.601206,-26.697725,-6.1915264,-4.258235,-5.57125,-11.925706,-11.188,31.468285,-20.517658,-5.6516876,-5.423506,-0.6501614
206,207.6232147216797,-41.53317642211914,70.2953872680664,9.069906535598264,-0.44483296227087266,-71.29473778236613,-26.270018,-1.2337183,-1.1573213,51.881474,-24.646538,-7.6529064,-5.657598,-8.835035,0.63020015,92.63719,-25.34298,-3.2119555,4.123749,-5.0344844,8.905096,30.674356,19.546684,-10.510164,-26.638672,-4.8689227,-4.1303344,-5.5795665,-10.545487,-11.085561,31.314589,-18.813698,-6.65347,-5.2758245,-0.5967548
207,208.15231323242188,-42.27104187011719,70.13438415527344,9.079570416720511,-0.7198383578611549,-72.04119027841605,-25.236185,-0.9987463,-0.4543459,52.77249,-26.14204,-7.4050856,-7.153841,-8.383207,1.2051972,93.86849,-26.163979,-2.5835736,3.8627954,-4.9663076,9.370288,28.326658,19.809563,-10.341872,-26.708342,-3.5869775,-4.00316,-5.63078,-9.112235,-11.031382,31.101456,-17.221935,-7.559074,-5.1134157,-0.46402317
208,208.66168212890625,-43.01319885253906,70.02415466308594,9.055880348058432,-0.9384664351169364,-72.71864599838044,-24.20742,-0.7780721,0.17080577,53.47261,-27.483627,-7.170634,-8.72062,-7.978038,1.5638082,94.83044,-26.923485,-2.0897057,3.536062,-4.888073,9.748335,25.993422,20.07894,-10.083568,-26.877775,-2.8369448,-3.8987901,-5.6661835,-7.6919556,-11.038262,30.861977,-15.885631,-8.160902,-4.9975495,-0.34884313
209,209.14320373535156,-43.754154205322266,69.95909881591797,8.998752032298375,-1.0996985176702065,-73.33899761528174,-23.18904,-0.5643976,0.72879344,53.993446,-28.677797,-6.948615,-10.388454,-7.634319,1.6983956,95.52991,-27.633062,-1.7536545,3.158819,-4.799134,10.03329,23.621664,20.358175,-9.755399,-27.139975,-2.8863742,-3.834757,-5.678379,-6.257844,-11.115934,30.570925,-14.890602,-8.376323,-4.9578977,-0.23764406
210,209.60472106933594,-44.502708435058594,69.93807220458984,8.901264639570252,-1.22272836040342,-73.92700645214627,-22.114439,-0.33176306,1.2304369,54.27479,-29.721327,-6.747812,-12.141027,-7.317549,1.6578747,95.95177,-28.25956,-1.5229666,2.7567663,-4.676128,10.250637,21.176603,20.653303,-9.376833,-27.48685,-3.427167,-3.7956069,-5.694167,-4.772042,-11.269575,30.211082,-14.1608095,-8.320801,-4.9557304,-0.09372098
211,210.03546142578125,-45.238216400146484,69.95860290527344,8.766593188083988,-1.2984626508299664,-74.43447576167372,-21.03013,-0.103613414,1.639311,54.34835,-30.608309,-6.56938,-13.930351,-7.042148,1.4345074,96.0756,-28.781664,-1.383577,2.29622,-4.532553,10.392608,18.735224,20.967728,-8.943917,-27.874445,-4.085663,-3.752279,-5.7042027,-3.2787952,-11.501047,29.828588,-13.610766,-8.085982,-4.9473405,0.01997055
212,210.43658447265625,-45.978843688964844,70.02706909179688,8.597880802543244,-1.317219067074517,-74.8133945518227,-19.982878,0.09558656,1.9188154,54.24469,-31.331808,-6.4121985,-15.706856,-6.8239245,1.0215582,95.88187,-29.180967,-1.3207605,1.736817,-4.38233,10.451047,16.38,21.299265,-8.447959,-28.261112,-4.48857,-3.676429,-5.7011576,-1.8304398,-11.807521,29.475557,-13.14586,-7.764142,-4.890197,0.03890802
213,210.8115234375,-46.730186462402344,70.1424789428711,8.372357448798423,-1.2559712539653276,-75.02084629740305,-19.013151,0.27255237,2.031184,53.95821,-31.906677,-6.2777834,-17.500645,-6.6632414,0.35768536,95.35696,-29.454578,-1.3793062,1.0441797,-4.2167673,10.394088,14.0917635,21.638397,-7.8751874,-28.634995,-4.504952,-3.5519898,-5.6968374,-0.43104523,-12.188997,29.167133,-12.780467,-7.3157177,-4.7645283,-0.119246855
214,211.1775360107422,-47.49439239501953,70.29834747314453,8.095007516979171,-1.1268299113471685,-75.09207613790579,-18.090998,0.4398207,2.0054884,53.48117,-32.33244,-6.166608,-19.31201,-6.5638757,-0.53574914,94.50853,-29.616669,-1.5454623,0.24689505,-4.0260115,10.232237,11.808148,21.97969,-7.254521,-28.986965,-4.342756,-3.3980973,-5.693288,0.947838,-12.64306,28.872858,-12.546976,-6.7118044,-4.5983176,-0.40076432
215,211.5173797607422,-48.27252197265625,70.49954986572266,7.809184495062072,-0.9716709210514269,-75.09663962933502,-17.156214,0.5817698,1.9072161,52.83838,-32.578365,-6.0734305,-21.050156,-6.540014,-1.5390203,93.34971,-29.671825,-1.7179335,-0.6020312,-3.8243115,10.021513,9.562383,22.327057,-6.6307297,-29.29816,-4.137483,-3.2390203,-5.6672454,2.2962587,-13.156554,28.574415,-12.371737,-6.059151,-4.419962,-0.6652189
216,211.84640502929688,-49.05595779418945,70.74366760253906,7.558227924429834,-0.8324096476057999,-75.10423431731682,-16.148352,0.6819363,1.8013227,52.056297,-32.614685,-5.991985,-22.628744,-6.59825,-2.5300865,91.89625,-29.622885,-1.7973098,-1.4539182,-3.6323586,9.819133,7.4142723,22.6911,-6.0319242,-29.575956,-4.0269,-3.0983477,-5.592813,3.5914836,-13.708995,28.257988,-12.170282,-5.4681787,-4.2544975,-0.7695325
217,212.16542053222656,-49.84964370727539,71.03467559814453,7.3561775023509135,-0.7094405541298047,-75.09558240193579,-15.051188,0.7133377,1.6696763,51.090244,-32.421646,-5.9387975,-24.04192,-6.742222,-3.4967146,90.11843,-29.456726,-1.7059911,-2.3413892,-3.4727247,9.624554,5.4063582,23.080986,-5.4276886,-29.8583,-4.0208225,-2.9764545,-5.4431486,4.8079085,-14.286601,27.926111,-11.921809,-4.928319,-4.098469,-0.6358237
218,212.47341918945312,-50.65007019042969,71.36697387695312,7.178304668287384,-0.5828951616046948,-75.04611568088183,-13.896672,0.69463605,1.4879128,49.942844,-32.021156,-5.9103065,-25.322956,-6.960508,-4.4976554,88.01752,-29.179508,-1.5114412,-3.2793841,-3.3331504,9.409938,3.5097132,23.497023,-4.805313,-30.143576,-4.0577893,-2.8625782,-5.23441,5.9482,-14.883439,27.586329,-11.648796,-4.3991995,-3.9388795,-0.35100698
219,212.77490234375,-51.46923065185547,71.73682403564453,7.010351502408411,-0.4648793952964487,-75.01779609404022,-12.698498,0.67582625,1.313002,48.71624,-31.440681,-5.868301,-26.450235,-7.227634,-5.518508,85.65779,-28.821331,-1.3330553,-4.195268,-3.1874292,9.194488,1.6998295,23.938602,-4.206387,-30.40022,-4.1683035,-2.763322,-5.0050406,7.0274,-15.490863,27.23615,-11.3337755,-3.9492016,-3.782049,-0.016513407
220,213.0775146484375,-52.30009078979492,72.14342498779297,6.83757451074489,-0.36784873198494505,-75.07249682712754,-11.46924,0.70585763,1.2046099,47.51107,-30.712746,-5.773853,-27.402718,-7.5143733,-6.548693,83.10317,-28.414045,-1.2882285,-5.013867,-3.0114915,8.999886,-0.04203789,24.405703,-3.6723416,-30.600199,-4.381865,-2.6857276,-4.793205,8.0598755,-16.098349,26.870996,-10.959455,-3.6459095,-3.637102,0.2678744
221,213.36160278320312,-53.12850570678711,72.56758117675781,6.650202981356035,-0.3090565013749315,-75.23230278092348,-10.177964,0.80654085,1.1777651,46.322887,-29.815325,-5.611232,-28.149326,-7.8490906,-7.635654,80.34433,-27.968353,-1.4563439,-5.7258,-2.7987301,8.848275,-1.6833159,24.90418,-3.1814086,-30.768074,-4.787247,-2.638605,-4.5970607,9.013769,-16.701023,26.500284,-10.482992,-3.5266476,-3.5229757,0.5021233
222,213.64097595214844,-53.97398376464844,73.01615905761719,6.457634375020775,-0.2772688687642943,-75.46344550088025,-8.831071,0.9489522,1.2064266,45.114216,-28.745235,-5.4014425,-28.703882,-8.211723,-8.783483,77.35583,-27.473883,-1.7466581,-6.371861,-2.5669818,8.726919,-3.197633,25.437693,-2.7031426,-30.935558,-5.342631,-2.6166239,-4.3998947,9.878967,-17.29701,26.129604,-9.914258,-3.5515623,-3.431144,0.7330632
223,213.90977478027344,-54.83993148803711,73.47135162353516,6.275105626701068,-0.2427196216476295,-75.74413196622083,-7.4967923,1.1044258,1.2888405,43.933357,-27.559177,-5.1619935,-29.11868,-8.50869,-9.907718,74.16982,-26.924341,-2.025995,-6.951044,-2.3317447,8.605111,-4.606293,25.999788,-2.2690103,-31.084005,-5.877592,-2.603848,-4.2175884,10.69846,-17.881918,25.747446,-9.310099,-3.674604,-3.330538,0.9328241
224,214.17947387695312,-55.72584915161133,73.9291000366211,6.118787820599775,-0.17577579049769418,-76.05196739294813,-6.2412047,1.2425826,1.4211863,42.824978,-26.311552,-4.909725,-29.452173,-8.6615305,-10.909925,70.81362,-26.307793,-2.1728396,-7.4568987,-2.1049213,8.449937,-5.9498153,26.577,-1.9215989,-31.181864,-6.2202816,-2.5831954,-4.06617,11.521121,-18.448141,25.335125,-8.730209,-3.8485801,-3.1896021,1.0741175
225,214.4481201171875,-56.60188674926758,74.3785400390625,5.984194956985753,-0.06596222782509954,-76.3991354435823,-5.077006,1.3709916,1.6127464,41.790802,-24.971907,-4.653844,-29.71864,-8.6564,-11.773029,67.270294,-25.607061,-2.1983857,-7.868806,-1.873362,8.253954,-7.2343616,27.163273,-1.6648504,-31.223803,-6.3105516,-2.554331,-3.95058,12.349218,-18.990974,24.880165,-8.166106,-4.1175394,-2.9904332,1.1234775
226,214.7030792236328,-57.485260009765625,74.81227111816406,5.8668771956479056,0.0695359280935293,-76.79140373213359,-3.9712403,1.4975705,1.864242,40.813713,-23.526535,-4.38422,-29.89282,-8.544045,-12.531678,63.52625,-24.829994,-2.1662142,-8.19424,-1.6358111,8.034129,-8.437977,27.758543,-1.4759735,-31.22579,-6.240888,-2.5230124,-3.8639705,13.155259,-19.509563,24.393183,-7.587726,-4.489965,-2.752734,1.106892
227,214.95199584960938,-58.38608169555664,75.2312240600586,5.783984026413654,0.2192314960656803,-77.19611223089773,-2.9154387,1.5916094,2.1558175,39.89466,-22.046267,-4.088175,-29.972569,-8.35312,-13.153945,59.59749,-23.990417,-2.0349505,-8.46956,-1.4231155,7.7914305,-9.568592,28.356207,-1.3622348,-31.183422,-6.0675464,-2.4807668,-3.8058739,13.939659,-20.005327,23.889248,-7.013986,-4.868497,-2.5009027,1.0864888
228,215.19482421875,-59.29273223876953,75.62687683105469,5.75317579086187,0.3717960394491497,-77.58021737282192,-1.9029815,1.6225389,2.4665482,39.037464,-20.60378,-3.7521472,-29.953482,-8.108889,-13.61067,55.491974,-23.098907,-1.7626107,-8.729065,-1.2638624,7.5262566,-10.642061,28.94439,-1.337705,-31.084421,-5.844494,-2.4196181,-3.7758975,14.709214,-20.47994,23.380077,-6.4700737,-5.1562076,-2.2603042,1.1230272
229,215.4374542236328,-60.203975677490234,75.99003601074219,5.789009237664903,0.5268094480396194,-77.95248493009379,-0.92462957,1.5760071,2.8227456,38.22332,-19.177055,-3.3553257,-29.810038,-7.7771516,-13.863086,51.107956,-22.117605,-1.2664098,-8.964306,-1.170365,7.2381926,-11.654208,29.513376,-1.4024837,-30.923462,-5.5358405,-2.3485377,-3.7893627,15.465859,-20.936375,22.858196,-5.9645705,-5.348338,-2.0314455,1.2484949
230,215.68235778808594,-61.132144927978516,76.32390594482422,5.884177821492861,0.6875569206443891,-78.32194672296562,0.016766153,1.4642882,3.2244232,37.451653,-17.736671,-2.9096313,-29.535786,-7.3766174,-13.920292,46.439976,-21.038483,-0.6072855,-9.164324,-1.1283617,6.9279013,-12.602516,30.061115,-1.5498033,-30.707245,-5.125747,-2.2681944,-3.8450403,16.207762,-21.376785,22.318115,-5.487025,-5.490541,-1.8029066,1.4243381
231,215.90545654296875,-62.05127716064453,76.61514282226562,6.022553369450319,0.8480870572981544,-78.65510218460861,0.9134178,1.2970943,3.608653,36.74695,-16.341515,-2.4500084,-29.153028,-6.998502,-13.839069,41.63061,-19.91578,0.053292133,-9.359357,-1.1269854,6.597118,-13.512963,30.589006,-1.7868679,-30.432636,-4.7012887,-2.1581829,-3.9180918,16.935783,-21.801922,21.775173,-5.0308876,-5.5613265,-1.582373,1.60504
232,216.12269592285156,-62.9781379699707,76.86638641357422,6.187322212202257,1.0025884617925258,-78.9189726714418,1.7572042,1.0849057,3.9111056,36.135296,-15.052649,-2.0101082,-28.692049,-6.718108,-13.69196,36.83006,-18.801798,0.56963044,-9.57925,-1.154911,6.247335,-14.411141,31.100237,-2.1223967,-30.09636,-4.3496237,-1.9977218,-3.9826622,17.65051,-22.211292,21.2452,-4.5888386,-5.5386367,-1.3774148,1.7450223
233,216.34657287597656,-63.92510986328125,77.077880859375,6.393795372831722,1.1491130895334882,-79.10282967333082,2.5580523,0.80400056,4.111104,35.59152,-13.869574,-1.5785456,-28.12428,-6.5167108,-13.4295225,31.907408,-17.661781,0.9538218,-9.83221,-1.2251558,5.8740573,-15.297449,31.598766,-2.5664177,-29.692505,-4.0899014,-1.7692598,-4.0335746,18.35909,-22.60187,20.720707,-4.1649003,-5.3696365,-1.1867467,1.8402742
234,216.56121826171875,-64.87610626220703,77.23881530761719,6.663491700605912,1.280998194140179,-79.21587466301455,3.3336134,0.435136,4.235784,35.092648,-12.754505,-1.138741,-27.414705,-6.3759103,-13.04829,26.778984,-16.452227,1.2838091,-10.11135,-1.360544,5.4824967,-16.16248,32.08483,-3.113647,-29.22325,-3.8794098,-1.4874821,-4.0833774,19.061903,-22.971352,20.197464,-3.7641342,-5.0811453,-1.0068387,1.9115553
235,216.75758361816406,-65.8235855102539,77.35035705566406,6.987887389353932,1.3856337811632617,-79.25630703988816,4.0863,-0.0014264134,4.2904825,34.670494,-11.714688,-0.71725637,-26.611422,-6.3558064,-12.703065,21.708143,-15.229002,1.5301993,-10.423706,-1.5616643,5.088221,-17.015755,32.555542,-3.74781,-28.703575,-3.713956,-1.1795697,-4.133468,19.74697,-23.323114,19.697422,-3.3784432,-4.772316,-0.84209126,1.9511199
236,216.95480346679688,-66.77339935302734,77.41361236572266,7.345870289063885,1.4562100023088784,-79.22742139951144,4.8110404,-0.4710832,4.282826,34.36359,-10.761583,-0.34368,-25.796904,-6.496263,-12.553764,17.01362,-14.073276,1.6634686,-10.774267,-1.8137263,4.70523,-17.858017,33.005295,-4.4457307,-28.150858,-3.5876067,-0.8730702,-4.1854715,20.400612,-23.662859,19.24657,-3.0014958,-4.5399823,-0.69703865,1.9504118
237,217.15357971191406,-67.73294067382812,77.42959594726562,7.7531421459300205,1.4958731324609935,-79.11614340921287,5.504421,-0.9943618,4.1942663,34.165924,-9.894718,-0.03816525,-24.96953,-6.8359985,-12.696464,12.645318,-13.040304,1.6390654,-11.172904,-2.129925,4.316849,-18.692762,33.433235,-5.2132463,-27.566175,-3.5299582,-0.5566775,-4.248033,21.03311,-24.00025,18.85203,-2.6368587,-4.3789797,-0.5677977,1.888153
238,217.34349060058594,-68.70276641845703,77.40094757080078,8.198038865181832,1.5107134256439287,-78.92997547537247,6.1617813,-1.5577333,4.0240946,34.07457,-9.116071,0.21616131,-24.02155,-7.267805,-13.071104,8.278082,-11.970284,1.5077173,-11.613171,-2.491726,3.9214,-19.509056,33.838413,-6.0498877,-26.949926,-3.534188,-0.22202842,-4.3175483,21.64973,-24.338614,18.501867,-2.2933152,-4.245166,-0.4539621,1.7743336
