unveil-humanoid-operators/unveil-humanoid-operators.github.io/feature-analysis-animation/data/feature_matrix_instances/age_ankle_rom_turning_A245.csv
Frame,root_translateX,root_translateY,root_translateZ,root_rotateX,root_rotateY,root_rotateZ,left_hip_pitch_joint_dof,left_hip_roll_joint_dof,left_hip_yaw_joint_dof,left_knee_joint_dof,left_ankle_pitch_joint_dof,left_ankle_roll_joint_dof,right_hip_pitch_joint_dof,right_hip_roll_joint_dof,right_hip_yaw_joint_dof,right_knee_joint_dof,right_ankle_pitch_joint_dof,right_ankle_roll_joint_dof,waist_yaw_joint_dof,waist_roll_joint_dof,waist_pitch_joint_dof,left_shoulder_pitch_joint_dof,left_shoulder_roll_joint_dof,left_shoulder_yaw_joint_dof,left_elbow_joint_dof,left_wrist_roll_joint_dof,left_wrist_pitch_joint_dof,left_wrist_yaw_joint_dof,right_shoulder_pitch_joint_dof,right_shoulder_roll_joint_dof,right_shoulder_yaw_joint_dof,right_elbow_joint_dof,right_wrist_roll_joint_dof,right_wrist_pitch_joint_dof,right_wrist_yaw_joint_dof
0,-0.7616407871246338,1.4570727348327637,41.21390151977539,-4.041673284498125,31.120230007129244,96.81130357428891,-127.032234,44.980217,-9.703064,120.22422,-31.615543,5.2427015,-102.77781,-32.19703,0.08713092,127.68322,-50.000305,3.113932,0.8401897,-0.019218968,29.793802,-88.49478,51.59728,-37.310287,0.21753518,15.210563,2.287682,16.030579,-90.85323,-47.749386,38.043224,4.1039534,-12.268917,-8.34246,-17.31356
1,-0.7598887085914612,1.459342360496521,41.209190368652344,-4.029111594979927,31.13320791590724,96.83028456749598,-127.033356,44.97588,-9.679804,120.22476,-31.615479,5.251952,-102.79978,-32.206078,0.10533449,127.690636,-50.000305,3.1171694,0.8406358,-0.060801625,29.793802,-88.47243,51.61004,-37.291767,0.22998396,15.053243,2.2394714,15.996329,-90.84638,-47.732594,38.048107,4.0757084,-12.235735,-8.371202,-17.313015
2,-0.7602390050888062,1.4606724977493286,41.20601272583008,-4.017348995816431,31.146904564736406,96.84952860354419,-127.03635,44.96998,-9.656879,120.224365,-31.614027,5.261936,-102.82104,-32.215473,0.12197536,127.69639,-50.000305,3.1201625,0.84703875,-0.10085927,29.793802,-88.46027,51.614414,-37.281933,0.24735694,14.882737,2.190744,15.96314,-90.83177,-47.726166,38.049355,4.040508,-12.192854,-8.404381,-17.314827
3,-0.7609477043151855,1.4619836807250977,41.20502471923828,-4.005595533995327,31.158917230363237,96.86865989215998,-127.036514,44.96508,-9.633507,120.22389,-31.614086,5.2703176,-102.8426,-32.224876,0.14091241,127.704834,-50.000305,3.123623,0.8443042,-0.13918357,29.793802,-88.42246,51.632034,-37.24739,0.25148448,14.740227,2.142195,15.925294,-90.82488,-47.70294,38.0556,4.013088,-12.174279,-8.428283,-17.310846
4,-0.7607289552688599,1.4636281728744507,41.205413818359375,-3.9965302454371705,31.167471582485913,96.88535240230406,-127.03672,44.959324,-9.616607,120.22697,-31.616507,5.2748647,-102.86,-32.2355,0.15686223,127.71748,-50.000305,3.1271255,0.8418509,-0.1701249,29.793802,-88.37663,51.652573,-37.219776,0.25661644,14.6634245,2.1082125,15.9094925,-90.83175,-47.678078,38.071022,3.9936533,-12.187935,-8.429827,-17.298964
5,-0.7629609704017639,1.4663254022598267,41.20551681518555,-3.9901050143922787,31.171720051875052,96.89919011691738,-127.032524,44.952454,-9.603287,120.230286,-31.622723,5.275116,-102.87396,-32.247467,0.17021035,127.73763,-50.000305,3.127993,0.83551615,-0.19686753,29.793802,-88.331856,51.681973,-37.20813,0.27477828,14.67931,2.0895865,15.931293,-90.849976,-47.645042,38.094616,3.9753766,-12.266879,-8.391916,-17.27248
6,-0.7660742998123169,1.4686425924301147,41.203575134277344,-3.987644558975288,31.172822143626608,96.91082529013906,-127.02836,44.944904,-9.59644,120.234,-31.630957,5.2722387,-102.88401,-32.26076,0.17963459,127.76048,-50.000305,3.1269577,0.8391818,-0.21537209,29.793802,-88.29927,51.69488,-37.21555,0.31252858,14.767018,2.0817556,15.97978,-90.84893,-47.63078,38.105682,3.9360273,-12.392131,-8.325956,-17.233206
7,-0.7694017887115479,1.4731132984161377,41.19905090332031,-3.9875898439072244,31.171823972699627,96.92141521983277,-127.026306,44.935276,-9.594154,120.24195,-31.639322,5.266235,-102.891014,-32.274742,0.18873382,127.78517,-50.000305,3.1298604,0.84039116,-0.23445962,29.793802,-88.26752,51.712738,-37.23033,0.35043237,14.868361,2.0812876,16.02227,-90.85758,-47.611492,38.11925,3.9064894,-12.5138235,-8.260247,-17.19436
8,-0.7727968692779541,1.4792697429656982,41.192047119140625,-3.9896410363257626,31.170377444135973,96.9314189336081,-127.0332,44.923534,-9.599332,120.255394,-31.644108,5.2570887,-102.89523,-32.288425,0.19797984,127.805305,-50.000305,3.1423156,0.8496203,-0.24850371,29.793802,-88.23655,51.71961,-37.238842,0.38091767,14.935815,2.0820863,16.02158,-90.86368,-47.60466,38.126053,3.8833756,-12.582782,-8.222951,-17.164366
9,-0.7794155478477478,1.4825973510742188,41.1829719543457,-3.996933370588553,31.167809569568497,96.94118351855997,-127.05314,44.907166,-9.617574,120.27811,-31.641775,5.238538,-102.89348,-32.301712,0.20651554,127.81992,-50.000305,3.1712446,0.8499248,-0.26685712,29.793802,-88.19167,51.745052,-37.238342,0.38648614,14.944511,2.0900412,15.957387,-90.88887,-47.580067,38.14061,3.8900657,-12.579291,-8.226991,-17.156479
10,-0.7846064567565918,1.487308144569397,41.17023468017578,-4.006507373662083,31.164042770806333,96.95013728378805,-127.08174,44.891735,-9.641839,120.3079,-31.6417,5.2203503,-102.88767,-32.316994,0.2144313,127.82996,-50.000305,3.2123647,0.8523758,-0.2795186,29.793802,-88.129234,51.771706,-37.21847,0.37210688,14.933089,2.1030695,15.844934,-90.91592,-47.556725,38.152172,3.905615,-12.533471,-8.256126,-17.156193
11,-0.7899360656738281,1.4932119846343994,41.156227111816406,-4.018669231571106,31.15965103914053,96.95813480751309,-127.111496,44.873253,-9.668312,120.3382,-31.63823,5.20054,-102.8805,-32.33049,0.22298172,127.839485,-50.000305,3.252487,0.8605982,-0.2890483,29.793802,-88.07852,51.788666,-37.206448,0.36519152,14.912763,2.112964,15.731236,-90.93671,-47.54428,38.159397,3.9189374,-12.471939,-8.289229,-17.158562
12,-0.7972432971000671,1.4963030815124512,41.139034271240234,-4.024964486028285,31.15568265596945,96.96622118677257,-127.134705,44.862495,-9.686697,120.36579,-31.638159,5.1888514,-102.87935,-32.34041,0.2382364,127.85288,-50.000305,3.2794476,0.8601549,-0.3018626,29.793802,-88.0116,51.821198,-37.187542,0.34621772,14.901167,2.112007,15.657714,-90.97397,-47.52502,38.18015,3.9394715,-12.421868,-8.306601,-17.1574
13,-0.8010077476501465,1.4993606805801392,41.12489700317383,-4.0220686231048735,31.15007133646197,96.97523200743929,-127.144104,44.86039,-9.691171,120.389206,-31.642677,5.1894803,-102.884125,-32.346535,0.26611483,127.8728,-50.000305,3.287801,0.8639589,-0.3201095,29.793802,-87.97261,51.83502,-37.195633,0.35744137,14.89762,2.0922081,15.645651,-90.99898,-47.519386,38.195335,3.9472075,-12.386052,-8.301706,-17.146338
14,-0.8026964068412781,1.5057491064071655,41.1176872253418,-4.014832038877092,31.143213416216295,96.98408749627103,-127.14574,44.86556,-9.687846,120.409195,-31.649431,5.1973968,-102.89256,-32.3494,0.30300033,127.89657,-50.000305,3.2849371,0.8671779,-0.34181488,29.793802,-87.937775,51.845783,-37.209957,0.37569204,14.89711,2.0595438,15.6667385,-91.02026,-47.51692,38.208767,3.9521248,-12.353395,-8.286083,-17.129301
15,-0.8067755103111267,1.507982850074768,41.111839294433594,-4.009735882971724,31.139208742635645,96.99191109140118,-127.15057,44.869987,-9.684141,120.4281,-31.656603,5.207926,-102.903465,-32.351486,0.3352023,127.91879,-50.000305,3.2772248,0.8644577,-0.36511877,29.793802,-87.908714,51.87587,-37.24092,0.38773632,14.892103,2.029659,15.710454,-91.0597,-47.511147,38.23802,3.9643333,-12.322761,-8.263062,-17.124758
16,-0.8093648552894592,1.5080819129943848,41.104984283447266,-4.015391185711517,31.138661983877718,96.9951895814716,-127.17281,44.86497,-9.697378,120.44389,-31.658443,5.211436,-102.90934,-32.356567,0.3458288,127.93543,-50.000305,3.2712271,0.873886,-0.37215742,29.793802,-87.87806,51.89138,-37.25683,0.39750043,14.917681,2.0051584,15.730215,-91.0763,-47.50799,38.241783,3.9633076,-12.327087,-8.241349,-17.116507
17,-0.8124406337738037,1.5074344873428345,41.098167419433594,-4.038237844064588,31.145283571507683,96.9916100473966,-127.21754,44.851627,-9.726629,120.458084,-31.662638,5.214386,-102.91172,-32.361706,0.32735574,127.94381,-50.000305,3.2760413,0.8859938,-0.3711388,29.793802,-87.85268,51.926277,-37.280888,0.38971645,14.976731,1.9974529,15.743117,-91.07882,-47.49774,38.220886,3.9467387,-12.371731,-8.21709,-17.113607
18,-0.8191018104553223,1.506203532218933,41.0921745300293,-4.073832245771855,31.156046799376885,96.98229513500128,-127.2824,44.831,-9.775332,120.468605,-31.662184,5.211155,-102.91003,-32.367367,0.28767735,127.94912,-50.000305,3.2854116,0.9092132,-0.35260645,29.793802,-87.82551,51.949944,-37.29612,0.3770735,15.074884,1.995569,15.751097,-91.06903,-47.486923,38.18565,3.922439,-12.453032,-8.188765,-17.110893
19,-0.8211190700531006,1.5014731884002686,41.08676528930664,-4.1093545917744,31.167540165593607,96.97363914883326,-127.34714,44.808487,-9.82223,120.48001,-31.661278,5.2086062,-102.9081,-32.377728,0.24267319,127.94991,-50.000305,3.2844908,0.9336969,-0.33209345,29.793802,-87.80502,51.96702,-37.311295,0.3726375,15.161006,1.9945635,15.74185,-91.0626,-47.47729,38.150288,3.9038947,-12.535079,-8.163666,-17.112385
20,-0.8267448544502258,1.5019347667694092,41.07810974121094,-4.133600306480751,31.17749831113687,96.97052324152926,-127.39627,44.791397,-9.851239,120.48904,-31.65955,5.209471,-102.91174,-32.394474,0.20916092,127.95014,-50.000305,3.2582653,0.94403654,-0.33625802,29.793802,-87.79357,51.998055,-37.33617,0.38064843,15.184302,1.9895852,15.702283,-91.05366,-47.459652,38.104458,3.89155,-12.593763,-8.151225,-17.116264
21,-0.8329958915710449,1.5033031702041626,41.06890106201172,-4.14579805198657,31.184749969862818,96.97501772575092,-127.4278,44.779995,-9.859248,120.49998,-31.657293,5.2168517,-102.918365,-32.421677,0.18624458,127.94646,-50.000305,3.1950305,0.95320886,-0.3387486,29.793802,-87.78194,52.00804,-37.343616,0.4023528,15.146516,1.9833201,15.620508,-91.07717,-47.455204,38.09589,3.911214,-12.612547,-8.151936,-17.137377
22,-0.8399295806884766,1.5025829076766968,41.060298919677734,-4.150569552899465,31.190817957310465,96.98385609032017,-127.448166,44.772743,-9.853231,120.51107,-31.654974,5.2285004,-102.927605,-32.45764,0.16889058,127.93934,-50.000305,3.1057184,0.95649785,-0.35053343,29.793802,-87.773926,52.014164,-37.348347,0.43171787,15.066784,1.9788225,15.507858,-91.111176,-47.45368,38.092564,3.9448135,-12.609944,-8.163209,-17.167372
23,-0.8427739143371582,1.5011091232299805,41.05146789550781,-4.148776103976446,31.197399395074775,96.99551870846963,-127.462364,44.76633,-9.840779,120.52069,-31.650635,5.239074,-102.94108,-32.49388,0.15601052,127.932785,-50.000305,3.0074468,0.9521338,-0.37228778,29.793802,-87.76598,52.034687,-37.35466,0.4711118,14.939921,1.9621133,15.378248,-91.15239,-47.45032,38.09448,3.984132,-12.587895,-8.179267,-17.197355
24,-0.8469374775886536,1.4965037107467651,41.043548583984375,-4.143245929041298,31.202325464333274,97.00781251053309,-127.47013,44.7605,-9.826032,120.52875,-31.64741,5.246658,-102.95736,-32.525627,0.14944896,127.933136,-50.000305,2.9189687,0.95277697,-0.39457312,29.793802,-87.75022,52.040604,-37.356163,0.53479147,14.783148,1.9192117,15.240729,-91.18195,-47.44987,38.09229,4.017378,-12.558265,-8.193933,-17.212917
25,-0.8474783897399902,1.4947868585586548,41.03712463378906,-4.128804220941202,31.21280632897759,97.0219697571091,-127.47415,44.755543,-9.804458,120.53368,-31.642021,5.249857,-102.98805,-32.5487,0.15588188,127.93979,-50.000305,2.846923,0.9491414,-0.43050528,29.793802,-87.74177,52.05742,-37.35396,0.6285452,14.575158,1.8313525,15.077043,-91.2067,-47.447475,38.08171,4.04334,-12.510811,-8.207286,-17.208258
26,-0.8475471138954163,1.493640661239624,41.031822204589844,-4.107290418693939,31.224296107959866,97.03842434839032,-127.46999,44.753475,-9.775688,120.53737,-31.636301,5.250365,-103.02649,-32.565674,0.17223702,127.9504,-50.000305,2.781377,0.944055,-0.4767823,29.793802,-87.72979,52.070908,-37.34677,0.7451348,14.330431,1.7142327,14.890879,-91.22074,-47.44424,38.06169,4.063171,-12.450334,-8.220604,-17.189846
27,-0.8465214371681213,1.493873953819275,41.02768325805664,-4.087782779621109,31.23028479031865,97.05452094061127,-127.46249,44.747986,-9.752677,120.54069,-31.629976,5.2463975,-103.05779,-32.58525,0.18445691,127.964745,-50.000305,2.712853,0.9428325,-0.5175526,29.793802,-87.70909,52.076107,-37.345127,0.87534004,14.055404,1.5934736,14.715471,-91.22832,-47.442406,38.046227,4.0824847,-12.387835,-8.236155,-17.167685
28,-0.8458333015441895,1.4936422109603882,41.02353286743164,-4.079124312121517,31.223920271284136,97.06767492018625,-127.45625,44.737255,-9.750124,120.54596,-31.623108,5.2349615,-103.06524,-32.61153,0.1766298,127.98444,-50.000305,2.6311517,0.94294673,-0.5513365,29.793802,-87.668564,52.08634,-37.36497,1.0043598,13.762945,1.4959626,14.586187,-91.21995,-47.437252,38.025352,4.095689,-12.33545,-8.25735,-17.146544
29,-0.8442332148551941,1.493748664855957,41.02044677734375,-4.0867672830211905,31.199941583240665,97.07583080456804,-127.45221,44.71758,-9.775841,120.55574,-31.615715,5.215645,-103.04149,-32.65326,0.13864033,128.00899,-50.000305,2.521266,0.95120037,-0.5561469,29.793802,-87.58273,52.088276,-37.38657,1.127169,13.408461,1.4168116,14.496614,-91.20958,-47.435547,38.02863,4.1136584,-12.291122,-8.288199,-17.12884
30,-0.84244704246521,1.4937663078308105,41.020633697509766,-4.106862532204055,31.16193637219415,97.07899703739471,-127.449,44.690384,-9.823633,120.56783,-31.606678,5.1883526,-102.99343,-32.70194,0.07753268,128.03891,-50.000305,2.3919759,0.96411955,-0.5587688,29.793802,-87.525116,52.089485,-37.482452,1.2898782,12.974509,1.3495388,14.459536,-91.203995,-47.429913,38.052647,4.1449566,-12.240372,-8.325986,-17.125486
31,-0.8412020206451416,1.4964128732681274,41.02147674560547,-4.129112065196941,31.120260968710607,97.0840848922786,-127.442665,44.66271,-9.875944,120.58002,-31.599636,5.157329,-102.93531,-32.752098,0.014701424,128.07028,-50.000305,2.2716594,0.9799731,-0.54507077,29.793802,-87.41608,52.08745,-37.53656,1.4208188,12.607403,1.3030488,14.448735,-91.17999,-47.427418,38.068115,4.162741,-12.207651,-8.360072,-17.11626
32,-0.8380587100982666,1.502390742301941,41.02361297607422,-4.147013458594935,31.082233669874103,97.09559557952223,-127.42851,44.63698,-9.916953,120.588715,-31.596863,5.1256576,-102.87682,-32.794678,-0.032885566,128.09845,-50.000305,2.1881123,0.99723715,-0.5398138,29.793802,-87.35463,52.07907,-37.642056,1.5656708,12.383464,1.3009081,14.51278,-91.14949,-47.41987,38.07893,4.1786427,-12.190115,-8.375794,-17.127483
33,-0.8342307209968567,1.510722041130066,41.025291442871094,-4.159653598220783,31.04752016923662,97.11494100841385,-127.40391,44.61355,-9.94484,120.59374,-31.602379,5.0936384,-102.81521,-32.824337,-0.06108678,128.12299,-50.000305,2.1560242,1.0160222,-0.54042006,29.793802,-87.31931,52.061,-37.77309,1.7132798,12.393422,1.3701615,14.676935,-91.07744,-47.403687,38.045715,4.172029,-12.219574,-8.36771,-17.148844
34,-0.829595148563385,1.5210051536560059,41.02643966674805,-4.1694885979791705,31.012231318366016,97.13938958883097,-127.37201,44.591217,-9.968501,120.5978,-31.614088,5.059437,-102.746574,-32.84597,-0.07908862,128.14618,-50.000305,2.1583037,1.0366094,-0.54121095,29.793802,-87.2834,52.03548,-37.915176,1.853167,12.569942,1.4943453,14.918379,-90.979385,-47.37976,37.98611,4.1521206,-12.282309,-8.343529,-17.17593
35,-0.8267626166343689,1.5306963920593262,41.02748107910156,-4.176028352358375,30.980301817733867,97.16789681769521,-127.33536,44.57052,-9.984456,120.59958,-31.625532,5.024705,-102.67978,-32.867046,-0.08969561,128.16808,-50.000305,2.174733,1.0568658,-0.5373771,29.793802,-87.23196,52.014477,-38.02709,1.9657693,12.787175,1.6137135,15.154222,-90.87802,-47.357468,37.928207,4.126403,-12.344143,-8.316018,-17.201555
36,-0.8240352272987366,1.5413618087768555,41.02823257446289,-4.17503562084003,30.954261325216766,97.19972396511515,-127.294556,44.54965,-9.989147,120.59768,-31.628494,4.9884715,-102.62327,-32.89348,-0.09564225,128.18677,-50.000305,2.184902,1.0728453,-0.5464355,29.793802,-87.18873,51.995705,-38.112785,2.0661767,12.925842,1.6698782,15.307472,-90.78733,-47.335876,37.87135,4.101211,-12.370351,-8.301457,-17.20987
37,-0.8194004893302917,1.5541818141937256,41.03109359741211,-4.160955961598654,30.936545603083736,97.2356676699389,-127.24774,44.530132,-9.9785,120.591736,-31.620037,4.949662,-102.58169,-32.927505,-0.0951571,128.20137,-50.000305,2.1815622,1.0848303,-0.57367486,29.793802,-87.15779,51.978497,-38.16079,2.1538227,12.950879,1.6298045,15.344178,-90.70387,-47.31445,37.811287,4.073909,-12.3410225,-8.307857,-17.192627
38,-0.812654972076416,1.567488193511963,41.0357551574707,-4.138363549402082,30.92614376084364,97.27600183222404,-127.19569,44.511703,-9.954605,120.58283,-31.604168,4.908974,-102.5507,-32.965973,-0.0882916,128.21072,-50.000305,2.175967,1.0942534,-0.6031677,29.793802,-87.112946,51.970535,-38.162624,2.2083747,12.925231,1.5308925,15.312965,-90.64086,-47.30304,37.77068,4.048807,-12.264752,-8.323334,-17.166878
39,-0.8054806590080261,1.5802751779556274,41.04364013671875,-4.113511087671444,30.917344816285407,97.31852552324776,-127.14313,44.49287,-9.92768,120.57114,-31.585833,4.868894,-102.52222,-33.005096,-0.07820168,128.22202,-50.000305,2.1763422,1.1013467,-0.638386,29.793802,-87.07669,51.96314,-38.154434,2.2563913,12.881392,1.4155605,15.248113,-90.568405,-47.28985,37.717537,4.014425,-12.199237,-8.340786,-17.129404
40,-0.8001392483711243,1.5903009176254272,41.05056381225586,-4.095120280873223,30.90749582375527,97.36083783816753,-127.095985,44.46925,-9.905986,120.558464,-31.569065,4.8333974,-102.49106,-33.04063,-0.07019386,128.23979,-50.000305,2.1905072,1.1114053,-0.65894455,29.793802,-87.04465,51.959465,-38.151577,2.2918873,12.837289,1.3296849,15.196497,-90.50426,-47.280453,37.683376,3.9808273,-12.178971,-8.3456135,-17.102602
41,-0.7934126257896423,1.6033576726913452,41.05778121948242,-4.079447617232667,30.895655738113952,97.40706719567049,-127.05199,44.439926,-9.887549,120.545074,-31.555237,4.8026047,-102.4575,-33.074924,-0.06078972,128.26587,-50.000305,2.2240543,1.1203647,-0.66922295,29.793802,-87.021194,51.958187,-38.163292,2.3184433,12.799961,1.2804031,15.164841,-90.44147,-47.270206,37.657627,3.9450235,-12.229139,-8.336158,-17.086191
42,-0.7870309352874756,1.6141791343688965,41.064369201660156,-4.065817509089863,30.884506246166886,97.45614298063249,-127.010025,44.407837,-9.8692,120.52828,-31.541504,4.7748594,-102.425255,-33.1088,-0.048907563,128.29819,-50.000305,2.2715578,1.1302363,-0.6683043,29.793802,-87.00734,51.959404,-38.177902,2.3342664,12.751747,1.2452909,15.134513,-90.389114,-47.2661,37.653767,3.909554,-12.3199625,-8.316863,-17.079866
43,-0.7811664342880249,1.6232643127441406,41.07087707519531,-4.058117982734922,30.87225006141308,97.5012004358598,-126.97616,44.374126,-9.859343,120.51342,-31.528149,4.7506905,-102.38852,-33.13796,-0.042965293,128.3302,-50.000305,2.3247683,1.143571,-0.6614303,29.793802,-87.00037,51.962093,-38.193935,2.3457766,12.700907,1.2245986,15.098815,-90.34509,-47.263535,37.65555,3.8766146,-12.418291,-8.293022,-17.069609
44,-0.7768716216087341,1.6308985948562622,41.07746887207031,-4.06480440721437,30.85780112929097,97.53373093101999,-126.95908,44.344128,-9.870197,120.502686,-31.514545,4.728936,-102.34357,-33.15793,-0.04964684,128.35786,-50.000305,2.3755603,1.1609236,-0.65960276,29.793802,-87.01278,51.97236,-38.229294,2.3665397,12.6451435,1.2200159,15.060242,-90.305824,-47.259632,37.654205,3.8438365,-12.490007,-8.26751,-17.052025
45,-0.7732865214347839,1.6365346908569336,41.083072662353516,-4.088924771421218,30.84067510822597,97.55044691499349,-126.96313,44.313736,-9.907527,120.49693,-31.498976,4.709208,-102.28608,-33.16488,-0.07560315,128.3799,-50.000305,2.4209108,1.1905192,-0.6434266,29.793802,-87.015434,51.97742,-38.237267,2.3803668,12.597511,1.2334697,14.995239,-90.28876,-47.25947,37.66003,3.8198757,-12.528103,-8.23607,-17.006151
46,-0.7678951621055603,1.6410897970199585,41.08928298950195,-4.127918327132322,30.821396972630225,97.55536441926981,-126.98526,44.28586,-9.966572,120.494705,-31.482868,4.691797,-102.21952,-33.162067,-0.11508076,128.3994,-50.000305,2.465485,1.2279761,-0.6204946,29.793802,-87.02529,51.982586,-38.242126,2.3922968,12.547074,1.2649641,14.916359,-90.28307,-47.26072,37.67082,3.7972596,-12.55234,-8.197252,-16.946064
47,-0.7622175812721252,1.6456538438796997,41.09088134765625,-4.172127030740655,30.801894993034054,97.55440538182826,-127.01587,44.258263,-10.033781,120.49583,-31.467394,4.6787972,-102.149925,-33.15636,-0.16049822,128.41565,-50.000305,2.5121288,1.2682211,-0.5897253,29.793802,-87.02997,51.998814,-38.242588,2.3954365,12.495395,1.3032931,14.842388,-90.29604,-47.267704,37.702053,3.787817,-12.555734,-8.1641035,-16.895868
48,-0.7583653330802917,1.649493932723999,41.090576171875,-4.213348623897962,30.78280804696397,97.55331568941097,-127.04495,44.231136,-10.09535,120.49837,-31.45446,4.6723013,-102.08372,-33.152493,-0.20286645,128.428,-50.000305,2.5640836,1.3092686,-0.55678374,29.793802,-87.02823,52.01873,-38.240936,2.3977444,12.452111,1.3356098,14.783718,-90.30527,-47.277122,37.734913,3.7898412,-12.549023,-8.152045,-16.866852
49,-0.7581526637077332,1.6535900831222534,41.090354919433594,-4.2715414217349865,30.779348031741794,97.55584783033284,-127.114296,44.18585,-10.172788,120.494995,-31.425833,4.6794567,-102.013885,-33.161907,-0.2774104,128.43184,-50.000305,2.6181562,1.3521749,-0.5005289,29.793802,-87.03922,52.045677,-38.242794,2.396157,12.40958,1.3638844,14.746053,-90.322685,-47.289974,37.768703,3.8123467,-12.529512,-8.171914,-16.870358
50,-0.7616457939147949,1.6589362621307373,41.09005355834961,-4.343196934573909,30.785308112445524,97.55801944917347,-127.21344,44.12908,-10.264478,120.48933,-31.387121,4.6970253,-101.94012,-33.179226,-0.37570652,128.42775,-50.000305,2.6741376,1.3977983,-0.43108782,29.793802,-87.07141,52.071156,-38.2547,2.4056919,12.370695,1.3912036,14.719564,-90.34765,-47.30242,37.798286,3.8531342,-12.496923,-8.215418,-16.891338
51,-0.7635394334793091,1.662367582321167,41.090755462646484,-4.387237616681129,30.771723210002904,97.5545408348365,-127.25822,44.099396,-10.326286,120.49595,-31.375547,4.7111683,-101.87651,-33.181625,-0.42630348,128.4296,-50.000305,2.738964,1.4431101,-0.38948664,29.793802,-87.08141,52.10655,-38.275608,2.4137573,12.337103,1.4160279,14.710354,-90.34812,-47.317165,37.832745,3.8866532,-12.458116,-8.261334,-16.924824
52,-0.7592059969902039,1.656137228012085,41.09139633178711,-4.364840217673816,30.708109246336047,97.53806635209338,-127.163536,44.135544,-10.313832,120.52975,-31.428831,4.708419,-101.838104,-33.147514,-0.3557944,128.45224,-50.000305,2.8203378,1.4885536,-0.41934723,29.793802,-87.03547,52.134087,-38.300957,2.4360456,12.333,1.4302114,14.713309,-90.28209,-47.32206,37.861816,3.8947148,-12.436774,-8.293468,-16.95391
53,-0.7426931262016296,1.6422119140625,41.09209442138672,-4.22649281314813,30.56190068739915,97.50356973422782,-126.8355,44.281635,-10.177141,120.607735,-31.588839,4.6756597,-101.84165,-33.052685,-0.08092695,128.51097,-50.000305,2.9354477,1.5232291,-0.5725894,29.793802,-86.89285,52.17761,-38.337093,2.465112,12.351481,1.4317567,14.741945,-90.11977,-47.305622,37.896633,3.865536,-12.434834,-8.30578,-16.984932
54,-0.8582126498222351,1.7267332077026367,41.08182907104492,-4.0068903454646465,30.355953361934244,97.455000860657,-126.337906,44.50375,-9.947623,120.71849,-31.825432,4.623072,-101.873085,-32.913887,0.33886927,128.59659,-50.000305,3.0759623,1.5444973,-0.81540257,29.793802,-86.68122,52.22709,-38.378147,2.509583,12.395586,1.4231151,14.788481,-89.901726,-47.246853,37.93952,3.8343172,-12.45348,-8.309562,-17.018827
55,-0.8750170469284058,1.7375437021255493,41.083534240722656,-3.785033357312466,30.146713831107167,97.4017919396059,-125.83015,44.732395,-9.711775,120.83249,-32.068523,4.571717,-101.90299,-32.77168,0.7603075,128.68005,-50.000305,3.2095194,1.5535706,-1.0694059,29.793802,-86.46757,52.284595,-38.425,2.567657,12.455849,1.4114043,14.837424,-89.71148,-47.14587,37.99737,3.8363616,-12.480245,-8.308636,-17.050718
56,-0.8583989143371582,1.7183728218078613,41.08922576904297,-3.639728370162466,29.99205938702673,97.35405811129337,-125.4763,44.89314,-9.55768,120.91584,-32.245285,4.543189,-101.9064,-32.669262,1.0411255,128.72896,-50.000305,3.3031857,1.5603667,-1.2530749,29.793802,-86.30125,52.347805,-38.46731,2.6202304,12.531266,1.4035803,14.873032,-89.60027,-47.03215,38.0558,3.8759704,-12.5001135,-8.3064165,-17.073948
57,-0.8491930365562439,1.7077869176864624,41.09347915649414,-3.6009786006286726,29.911780337849066,97.31284604927235,-125.337585,44.96734,-9.521994,120.955414,-32.33029,4.544537,-101.87183,-32.61643,1.1274841,128.73103,-50.000305,3.3453424,1.5756336,-1.3360085,29.793802,-86.207375,52.42012,-38.516563,2.6603382,12.618394,1.4024246,14.901076,-89.579895,-46.926746,38.106358,3.9457774,-12.508068,-8.299611,-17.080767
58,-0.8530447483062744,1.6996532678604126,41.09150314331055,-3.623376616984576,29.874662584402277,97.27414885474157,-125.32443,44.9928,-9.556396,120.971306,-32.363903,4.564682,-101.81515,-32.591057,1.099339,128.70259,-50.000305,3.3539765,1.5995104,-1.3608152,29.793802,-86.15395,52.500072,-38.573147,2.6907208,12.716976,1.4039394,14.927365,-89.6018,-46.83798,38.14533,4.021307,-12.506176,-8.287296,-17.075964
59,-0.8653395771980286,1.699837327003479,41.09142303466797,-3.6765193438276826,29.861210277653214,97.23886722273478,-125.37702,44.990143,-9.623126,120.97639,-32.37147,4.595707,-101.75415,-32.58603,1.0166683,128.66315,-50.000305,3.3401368,1.625218,-1.356399,29.793802,-86.117035,52.58395,-38.616047,2.7110116,12.820326,1.4047496,14.935007,-89.63448,-46.766838,38.171154,4.087473,-12.495441,-8.276158,-17.071678
60,-0.8797125220298767,1.7003066539764404,41.09467697143555,-3.7275331830322584,29.85199786260163,97.20861483925096,-125.434166,44.981285,-9.685396,120.988205,-32.38081,4.630401,-101.705826,-32.58995,0.9381351,128.62988,-50.000305,3.3150427,1.6447146,-1.3517895,29.793802,-86.07373,52.667908,-38.62407,2.7230291,12.92183,1.4011012,14.90674,-89.658,-46.709244,38.191307,4.136567,-12.475993,-8.273291,-17.080303
61,-0.8918452262878418,1.7003787755966187,41.09513854980469,-3.7623272795673066,29.83393973994287,97.1815334997551,-125.465,44.978287,-9.726051,121.01645,-32.405346,4.666583,-101.67762,-32.601124,0.89128554,128.61218,-50.000305,3.2793727,1.6572032,-1.3569916,29.793802,-86.01443,52.7483,-38.600376,2.7367082,13.011922,1.3801987,14.850348,-89.66254,-46.661934,38.210995,4.167608,-12.446097,-8.284756,-17.111141
62,-0.8977822065353394,1.6806391477584839,41.08003616333008,-3.79919245603058,29.820231987746066,97.15771656440046,-125.506836,44.967678,-9.768055,121.052826,-32.428856,4.7082415,-101.65904,-32.623882,0.8403916,128.59886,-50.000305,3.227952,1.6636086,-1.3557419,29.793802,-85.94676,52.832397,-38.54879,2.7442214,13.09703,1.3478441,14.7706995,-89.66647,-46.619617,38.229572,4.19105,-12.408397,-8.305546,-17.155764
63,-0.9122796058654785,1.669468879699707,41.07164001464844,-3.8594779739026444,29.828914110042316,97.14067034544804,-125.59993,44.931023,-9.830558,121.078224,-32.4322,4.7573104,-101.640785,-32.66116,0.7512329,128.57884,-50.000305,3.1630597,1.6659716,-1.3340294,29.793802,-85.89204,52.913822,-38.459225,2.7384017,13.194535,1.3273994,14.645357,-89.682144,-46.586296,38.240726,4.21161,-12.369813,-8.325446,-17.20097
64,-0.9371662735939026,1.6667274236679077,41.06687927246094,-3.9634316842942656,29.87876170308521,97.13299734000927,-125.786354,44.853657,-9.935667,121.07943,-32.39792,4.8164387,-101.61426,-32.717148,0.58970594,128.54086,-50.000305,3.087402,1.6686146,-1.2764727,29.793802,-85.8768,52.982292,-38.3247,2.7158833,13.320937,1.342247,14.45263,-89.722984,-46.56878,38.237835,4.2355943,-12.334474,-8.334291,-17.232994
65,-0.8348054885864258,1.5733507871627808,41.07536315917969,-4.146669973130607,29.99869494078565,97.14135102150476,-126.1394,44.696987,-10.119166,121.0377,-32.292194,4.893544,-101.56891,-32.81,0.29211816,128.47305,-50.000305,2.982491,1.6720579,-1.1462595,29.793802,-85.90001,53.042797,-38.12765,2.656554,13.458429,1.3874122,14.175796,-89.81252,-46.57405,38.215866,4.2660584,-12.3113165,-8.323672,-17.250128
66,-0.8408041596412659,1.5542190074920654,41.072174072265625,-4.389821057405131,30.16982936565994,97.16174528479156,-126.61388,44.480247,-10.357891,120.96576,-32.13464,4.9846196,-101.50858,-32.93203,-0.10750975,128.38312,-50.000305,2.853558,1.6799659,-0.96373236,29.793802,-85.98481,53.079628,-37.905807,2.5969756,13.601603,1.4542004,13.833774,-89.93355,-46.601776,38.17334,4.30028,-12.292713,-8.301377,-17.25821
67,-0.8894712924957275,1.573602318763733,41.06523513793945,-4.627383821439237,30.34429356662411,97.1812671303309,-127.07728,44.26957,-10.582972,120.89588,-31.985037,5.0754404,-101.45465,-33.046764,-0.49262428,128.29588,-50.000305,2.738389,1.6890124,-0.7825009,29.793802,-86.04973,53.109524,-37.608685,2.499728,13.80723,1.5559568,13.440503,-90.036766,-46.659367,38.131077,4.307352,-12.264072,-8.278376,-17.257605
68,-0.9333513975143433,1.5914145708084106,41.06121826171875,-4.792452117545294,30.469655366709887,97.18756450112784,-127.393196,44.129833,-10.726242,120.856735,-31.9025,5.1506543,-101.42733,-33.120613,-0.7429525,128.23523,-50.000305,2.6749861,1.6907566,-0.70122313,29.793802,-86.15125,53.11155,-37.3314,2.4438052,14.120853,1.7133574,13.036444,-90.06487,-46.695007,38.07084,4.288164,-12.230614,-8.270052,-17.248438
69,-0.9624272584915161,1.5987688302993774,41.05814743041992,-4.853571293577997,30.52867517919048,97.17625114926442,-127.50702,44.09387,-10.759075,120.85962,-31.913746,5.205936,-101.441154,-33.133003,-0.80397403,128.2089,-50.000305,2.6815996,1.6934928,-0.7026371,29.793802,-86.14599,53.092438,-36.921368,2.3490267,14.599836,1.9206941,12.56986,-90.02069,-46.74095,38.046017,4.2344356,-12.169737,-8.281238,-17.227942
70,-0.9827989935874939,1.598999261856079,41.055904388427734,-4.848565715640811,30.547930067420854,97.15443874525363,-127.494286,44.123684,-10.720989,120.88838,-31.985136,5.2497234,-101.48425,-33.107006,-0.7423456,128.20425,-50.000305,2.7358057,1.6858035,-0.7966988,29.793802,-86.17809,53.0526,-36.52223,2.298728,15.183742,2.1764853,12.065685,-89.92511,-46.754753,38.014584,4.1719265,-12.099613,-8.307017,-17.199907
71,-1.0021392107009888,1.6010677814483643,41.05148696899414,-4.822998464089723,30.547654638920122,97.12902894902199,-127.43254,44.176643,-10.658349,120.93016,-32.080097,5.28487,-101.53156,-33.06974,-0.63558877,128.2125,-50.000305,2.8114622,1.6675929,-0.914607,29.793802,-86.20811,52.9893,-36.079895,2.2370393,15.842523,2.4678576,11.555899,-89.82233,-46.74227,37.995247,4.1219854,-12.046497,-8.333761,-17.164412
72,-1.0269213914871216,1.6044354438781738,41.047054290771484,-4.818541011447439,30.548230500798773,97.1064656394717,-127.40056,44.21195,-10.620067,120.97361,-32.163704,5.3148937,-101.560974,-33.04857,-0.55921245,128.22311,-50.000305,2.883302,1.6401402,-1.006707,29.793802,-86.27282,52.90333,-35.616486,2.152808,16.517054,2.7881043,11.086851,-89.75057,-46.706562,37.99243,4.1025395,-12.033235,-8.349069,-17.123165
73,-1.0561503171920776,1.6085686683654785,41.03867721557617,-4.843318181059329,30.55143983790451,97.08767521481681,-127.41067,44.224514,-10.614032,121.020874,-32.231403,5.3374653,-101.56999,-33.05214,-0.52663517,128.24011,-50.000305,2.936446,1.602337,-1.0747179,29.793802,-86.37661,52.79872,-35.128838,2.0305226,17.260464,3.1713367,10.657265,-89.687485,-46.651733,37.986824,4.0972514,-12.076052,-8.349735,-17.077343
74,-1.0898945331573486,1.61762273311615,41.02815246582031,-4.874308463541305,30.547826642293614,97.06988929832168,-127.42475,44.234974,-10.617108,121.075066,-32.30019,5.3512797,-101.56983,-33.06448,-0.5001391,128.2651,-50.000305,2.9872205,1.554114,-1.1396465,29.793802,-86.50209,52.674778,-34.607887,1.8795106,18.081469,3.6083333,10.243914,-89.62835,-46.578854,37.98614,4.1044874,-12.1542,-8.342443,-17.025637
75,-1.1283625364303589,1.6257308721542358,41.01876449584961,-4.913280916921771,30.54169753439619,97.05281940412637,-127.442894,44.23932,-10.626281,121.13173,-32.36812,5.364114,-101.55881,-33.08085,-0.4772177,128.29001,-50.000305,3.0563679,1.4979646,-1.1953384,29.793802,-86.65528,52.53548,-34.08542,1.7197443,18.8537,4.034701,9.870758,-89.57803,-46.49055,37.987247,4.12118,-12.255452,-8.329993,-16.964445
76,-1.1663647890090942,1.631860613822937,41.00809860229492,-4.963533429172774,30.537014221482845,97.03709148209066,-127.46503,44.232082,-10.638806,121.18379,-32.432495,5.3828654,-101.53282,-33.09367,-0.45711872,128.30702,-50.000305,3.1644716,1.4352266,-1.238007,29.793802,-86.856606,52.38934,-33.604885,1.5791969,19.440716,4.388716,9.566043,-89.55061,-46.392982,37.98926,4.149355,-12.356641,-8.315718,-16.889317
77,-1.2062983512878418,1.6343361139297485,41.00263595581055,-5.023368726823361,30.533111804611654,97.02653834452533,-127.4937,44.209606,-10.656744,121.2333,-32.490753,5.408851,-101.49245,-33.106712,-0.43627888,128.3199,-50.000305,3.3182752,1.3646303,-1.2666057,29.793802,-87.11172,52.24184,-33.17995,1.458395,19.772017,4.6479855,9.37923,-89.53633,-46.28902,37.98308,4.176099,-12.463456,-8.286467,-16.783157
78,-1.2507009506225586,1.644240140914917,41.005332946777344,-5.093340273958009,30.529023139997012,97.01936126698061,-127.52748,44.173805,-10.679624,121.28302,-32.544376,5.437792,-101.4391,-33.12158,-0.4168523,128.32924,-50.000305,3.5063653,1.285368,-1.2866198,29.793802,-87.40458,52.092716,-32.78636,1.338847,19.930763,4.85201,9.285856,-89.52082,-46.17838,37.961655,4.195389,-12.584413,-8.24552,-16.65279
79,-1.2970449924468994,1.6420258283615112,41.007293701171875,-5.173093518837091,30.52774159183358,97.00846763907337,-127.5641,44.137016,-10.704262,121.326035,-32.59954,5.4717793,-101.37367,-33.128677,-0.40314966,128.32814,-50.000305,3.7223787,1.1999164,-1.303778,29.793802,-87.72697,51.943382,-32.413418,1.2213806,20.006983,5.0316687,9.204131,-89.52434,-46.06518,37.9384,4.222255,-12.696688,-8.220564,-16.529922
80,-1.347548484802246,1.6419775485992432,41.014530181884766,-5.262893035727902,30.53270662014017,96.98619891070736,-127.60104,44.10813,-10.728962,121.359,-32.65983,5.5091214,-101.29739,-33.11911,-0.40038738,128.30759,-50.000305,3.9592679,1.1117951,-1.3224825,29.793802,-88.062614,51.793728,-32.044563,1.1009387,20.095509,5.217261,9.051417,-89.55122,-45.95391,37.916992,4.263581,-12.785136,-8.238743,-16.446877
81,-1.3969504833221436,1.642271637916565,41.02924728393555,-5.368452020908415,30.54425101353832,96.95018343144235,-127.6469,44.085354,-10.760099,121.38229,-32.724686,5.5519505,-101.208305,-33.083775,-0.41010764,128.26717,-50.000305,4.23345,1.023637,-1.3405294,29.793802,-88.41576,51.644405,-31.67374,0.96991104,20.202152,5.4107513,8.802541,-89.61429,-45.849396,37.899498,4.3229165,-12.843161,-8.319908,-16.40665
82,-1.4460043907165527,1.643287181854248,41.0505485534668,-5.486458519650427,30.56115351139458,96.90485390571939,-127.70034,44.065224,-10.79729,121.39756,-32.79227,5.59975,-101.10715,-33.03004,-0.429099,128.21231,-50.000305,4.542252,0.934122,-1.35476,29.793802,-88.78291,51.494843,-31.303093,0.82617617,20.285656,5.5978584,8.502416,-89.70043,-45.75306,37.881233,4.389879,-12.880949,-8.444876,-16.394285
83,-1.5037764310836792,1.6443023681640625,41.08037185668945,-5.606629118201662,30.596007240544196,96.82962118187123,-127.749146,44.077354,-10.818881,121.40055,-32.871853,5.65113,-101.02875,-32.946495,-0.44668686,128.13388,-50.000305,4.845045,0.8563654,-1.3851829,29.793802,-89.17235,51.34793,-30.940264,0.68745416,20.362211,5.7839975,8.170696,-89.81066,-45.667183,37.8654,4.460009,-12.895246,-8.581513,-16.41366
84,-1.5680873394012451,1.6391854286193848,41.1189079284668,-5.7188702988255145,30.658037139589048,96.71035585338123,-127.778854,44.143944,-10.801741,121.38295,-32.969875,5.707327,-101.037224,-32.82943,-0.43549487,127.99953,-49.85396,5.1020966,0.7964909,-1.4472357,29.793802,-89.57653,51.20623,-30.588192,0.5639428,20.452414,5.9746695,7.82792,-89.937355,-45.59229,37.854824,4.5250273,-12.887002,-8.698083,-16.468672
85,-1.641908049583435,1.6326854228973389,41.1688117980957,-5.827103988141155,30.723721287141014,96.5798630176625,-127.76907,44.22732,-10.7534,121.350815,-33.08183,5.7556214,-101.076035,-32.717445,-0.4148085,127.8197,-49.581253,5.310939,0.73332316,-1.51745,29.793802,-89.97215,51.06526,-30.242512,0.44820696,20.555603,6.1734405,7.4494615,-90.0462,-45.522198,37.829674,4.562721,-12.901588,-8.761045,-16.550568
86,-1.7200220823287964,1.6258190870285034,41.237281799316406,-5.935460083152599,30.793431786750883,96.43848971573605,-127.73181,44.324898,-10.684853,121.30564,-33.20503,5.798,-101.111626,-32.604057,-0.40156978,127.61694,-49.302654,5.4915576,0.6674191,-1.5949141,29.793802,-90.36764,50.923195,-29.905039,0.33909434,20.664406,6.3765903,7.034986,-90.150856,-45.455242,37.796806,4.585576,-12.925964,-8.796123,-16.660208
87,-1.8029814958572388,1.6218172311782837,41.31671905517578,-6.046856802271831,30.872966620478902,96.2940696832975,-127.676476,44.429657,-10.588985,121.24249,-33.33105,5.85375,-101.14538,-32.490265,-0.39582482,127.385345,-49.014404,5.65631,0.59046704,-1.6710075,29.793802,-90.763016,50.780075,-29.590498,0.25325578,20.775558,6.575653,6.6468067,-90.25932,-45.397907,37.79086,4.6401696,-12.870744,-8.8624525,-16.821844
88,-1.8958224058151245,1.6123963594436646,41.40167236328125,-6.162191102846707,30.968630770956565,96.1544758710043,-127.61231,44.532307,-10.457368,121.15084,-33.449448,5.9420233,-101.18045,-32.374325,-0.39832637,127.118065,-48.708202,5.816795,0.49595672,-1.735968,29.793802,-91.15352,50.634766,-29.311106,0.20286798,20.885988,6.7625966,6.347617,-90.374115,-45.36094,37.84653,4.76519,-12.650379,-9.019821,-17.059196
89,-1.9914612770080566,1.601965308189392,41.506263732910156,-6.287151245981323,31.086779238763437,96.02588046471143,-127.55375,44.63026,-10.288451,121.030334,-33.553936,6.078868,-101.2206,-32.259953,-0.41186264,126.81489,-48.38377,5.9748626,0.37929893,-1.7831706,29.793802,-91.55286,50.48404,-29.07343,0.20662661,20.999434,6.9246044,6.175903,-90.5239,-45.353943,37.967693,4.9666505,-12.201328,-9.312804,-17.392576
90,-2.091991662979126,1.5903992652893066,41.624061584472656,-6.418023791493095,31.22297522993408,95.90276098891084,-127.49162,44.72644,-10.084969,120.8847,-33.651146,6.250387,-101.26285,-32.145733,-0.43637237,126.47895,-48.04602,6.124764,0.25041264,-1.814735,29.793802,-91.96035,50.323395,-28.869701,0.25325018,21.11459,7.069984,6.0912824,-90.68638,-45.379646,38.133465,5.214625,-11.585858,-9.7030945,-17.80182
91,-2.191802501678467,1.5499672889709473,41.73571014404297,-6.551295615949024,31.366579259798282,95.77405657299413,-127.40205,44.827984,-9.852513,120.71793,-33.752792,6.429998,-101.29832,-32.027714,-0.46730626,126.10721,-47.692463,6.266855,0.1222896,-1.8368851,29.793802,-92.35323,50.151703,-28.693129,0.31265172,21.220697,7.2215543,6.0375376,-90.80937,-45.440968,38.35261,5.506105,-10.892202,-10.126245,-18.250277
92,-2.3019216060638428,1.5189601182937622,41.87559127807617,-6.68280746584406,31.507012362412414,95.62866576795352,-127.26036,44.942738,-9.594079,120.53371,-33.87005,6.591025,-101.31658,-31.898582,-0.50114274,125.700775,-47.32565,6.4017854,0.007731385,-1.8542347,29.793802,-92.70514,49.97036,-28.533426,0.35175553,21.306341,7.401451,5.958126,-90.835556,-45.539284,38.630894,5.8369713,-10.209986,-10.515406,-18.704361
93,-2.423579454421997,1.4977668523788452,42.032657623291016,-6.808222782006671,31.6401404506155,95.46330641780918,-127.05669,45.075886,-9.308931,120.33484,-34.009995,6.730902,-101.31947,-31.753971,-0.5286166,125.25977,-46.941673,6.5330815,-0.09389194,-1.8722373,29.793802,-92.99979,49.77648,-28.379879,0.3654389,21.337477,7.613252,5.8674603,-90.76744,-45.67753,38.978554,6.225981,-9.4255495,-10.9123535,-19.154947
94,-2.555122137069702,1.4945896863937378,42.2127571105957,-6.930150237797717,31.772120338493757,95.28394516234836,-126.80333,45.22008,-8.993365,120.12017,-34.165276,6.8620996,-101.30974,-31.59738,-0.55533344,124.78564,-46.542973,6.659524,-0.18503308,-1.883391,29.793802,-93.252014,49.567844,-28.237207,0.36766857,21.330412,7.8457217,5.7853823,-90.61968,-45.856373,39.38582,6.664035,-8.541457,-11.334837,-19.618511
95,-2.6874308586120605,1.4635906219482422,42.39624786376953,-7.057354630882246,31.906408443104365,95.09357868238901,-126.51346,45.37008,-8.6548605,119.88381,-34.32615,6.9803967,-101.27996,-31.437943,-0.5971962,124.27219,-46.132637,6.774462,-0.26646242,-1.8853184,29.793802,-93.48698,49.35513,-28.128185,0.360391,21.353302,8.099212,5.6639276,-90.41905,-46.07935,39.86264,7.1348333,-7.77391,-11.677141,-20.105751
96,-2.8357255458831787,1.4323467016220093,42.5921516418457,-7.197730761350001,32.04740087410748,94.89487386706456,-126.20078,45.519558,-8.299191,119.61988,-34.482815,7.081939,-101.22332,-31.285625,-0.6702465,123.71592,-45.715473,6.8712087,-0.33720592,-1.8737032,29.793802,-93.7218,49.155212,-28.069035,0.33494073,21.470894,8.3741865,5.4546466,-90.15266,-46.344856,40.39727,7.5977826,-7.3678193,-11.8283825,-20.632257
97,-2.9863624572753906,1.4060291051864624,42.80830764770508,-7.357662568603629,32.196073125706285,94.69052609626908,-125.87437,45.660427,-7.93457,119.32915,-34.629707,7.1592026,-101.134674,-31.14566,-0.7841832,123.1171,-45.293877,6.949765,-0.381286,-1.8270913,29.793802,-93.93347,48.968964,-28.047302,0.25829363,21.729542,8.686741,5.160032,-89.63303,-46.6252,40.91451,7.9699936,-7.712941,-11.636066,-21.280504
98,-3.149505376815796,1.381141185760498,43.04174041748047,-7.5261747623365425,32.34643284028274,94.4792052390477,-125.51517,45.80468,-7.5473294,119.01562,-34.781197,7.221135,-101.01715,-31.011997,-0.92386097,122.48115,-44.867126,7.0126457,-0.44018188,-1.7906032,29.793802,-94.142,48.814644,-28.090998,0.17138986,22.091238,9.032389,4.7992077,-89.138016,-46.940937,41.555187,8.401424,-8.402754,-11.194569,-22.011248
99,-3.313103675842285,1.3578362464904785,43.29064178466797,-7.701346896216096,32.5078605701862,94.25438227294742,-125.1285,45.95379,-7.1347103,118.67213,-34.928707,7.2723556,-100.88366,-30.87492,-1.0856386,121.797745,-44.428154,7.058663,-0.48512873,-1.745158,29.793802,-94.32955,48.690536,-28.155737,0.046449047,22.461796,9.372512,4.3504014,-88.48745,-47.272007,42.14903,8.773961,-9.159985,-10.745855,-22.668747
100,-3.487786293029785,1.3312184810638428,43.556884765625,-7.875678522356721,32.68457980007872,94.01082313657885,-124.70627,46.119267,-6.683436,118.291275,-35.075207,7.324737,-100.74417,-30.724272,-1.2614439,121.05752,-43.975113,7.086181,-0.52397394,-1.7147425,29.793802,-94.52384,48.605484,-28.250927,-0.09194618,22.757921,9.673397,3.7949054,-87.74531,-47.61697,42.652363,9.092674,-9.525257,-10.551935,-23.10649
101,-3.665019989013672,1.303185224533081,43.84086227416992,-8.043081473225726,32.87564708764764,93.75056433778312,-124.23863,46.300415,-6.185461,117.872856,-35.223946,7.3748717,-100.59465,-30.561085,-1.4516897,120.2612,-43.519154,7.0871716,-0.5561615,-1.7045617,29.793802,-94.729546,48.56667,-28.38665,-0.24475063,22.946617,9.928429,3.138726,-86.86375,-47.97191,43.043785,9.350354,-9.456634,-10.721454,-23.27016
102,-3.8513052463531494,1.2726281881332397,44.14122009277344,-8.209211046506816,33.079030536675226,93.474972250258,-123.72886,46.493317,-5.6467113,117.42119,-35.374496,7.4189534,-100.431885,-30.390383,-1.6589016,119.41002,-43.05659,7.065455,-0.5880838,-1.7141352,29.793802,-94.94043,48.57901,-28.568184,-0.41733795,23.073935,10.157003,2.3900206,-85.84813,-48.33582,43.350708,9.556182,-9.155738,-11.10744,-23.244045
103,-4.044890403747559,1.2454073429107666,44.46470642089844,-8.380568178236091,33.29941036402812,93.17768145646183,-123.19307,46.697933,-5.0735707,116.933846,-35.519882,7.4681807,-100.26393,-30.204184,-1.8812528,118.5072,-42.568905,7.037013,-0.62005866,-1.7375958,29.793802,-95.14527,48.642387,-28.770107,-0.6180824,23.17117,10.363813,1.5326377,-84.73253,-48.704784,43.546017,9.683568,-8.622018,-11.589319,-23.096556
104,-4.240492820739746,1.217859148979187,44.807247161865234,-8.566528820303638,33.541197016620686,92.85180577388958,-122.6484,46.918285,-4.4763284,116.411964,-35.654564,7.5331435,-100.100266,-29.997349,-2.1165643,117.5492,-42.034008,7.0178604,-0.65024334,-1.7675117,29.793802,-95.33714,48.754135,-28.969147,-0.8519303,23.268457,10.552281,0.5500881,-83.546234,-49.07366,43.599964,9.704917,-7.8587604,-12.0460825,-22.8966
105,-4.442871570587158,1.1928240060806274,45.167720794677734,-8.767506632682858,33.80523087933948,92.4963799864784,-122.090675,47.1552,-3.8504639,115.85482,-35.781612,7.6140227,-99.94249,-29.768879,-2.3633766,116.542625,-41.449318,7.008243,-0.67516553,-1.800989,29.793802,-95.50719,48.91519,-29.164312,-1.1271528,23.386366,10.722653,-0.5509304,-82.25836,-49.436485,43.48607,9.606523,-6.812918,-12.490049,-22.63646
106,-4.655862808227539,1.1697516441345215,45.54695129394531,-8.98025740922963,34.08882881923693,92.11388258140799,-121.51123,47.405453,-3.1910067,115.264366,-35.9037,7.70556,-99.78566,-29.522522,-2.6231866,115.48284,-40.824043,7.0011525,-0.6970196,-1.8430375,29.793802,-95.662766,49.12747,-29.367876,-1.4379739,23.5045,10.873154,-1.7653158,-80.86283,-49.79023,43.22178,9.406115,-5.4978304,-12.965346,-22.282427
107,-4.883294105529785,1.1398630142211914,45.943214416503906,-9.207465039445278,34.39210641113904,91.7027856010778,-120.921745,47.666176,-2.5043933,114.637436,-36.01199,7.810645,-99.62581,-29.252695,-2.8996458,114.36472,-40.162064,7.0018353,-0.72063905,-1.8951706,29.793802,-95.818016,49.386517,-29.571354,-1.771513,23.59388,11.004308,-3.1132743,-79.42448,-50.134144,42.84515,9.124143,-4.0216236,-13.400206,-21.870077
108,-5.106213092803955,1.1048550605773926,46.36036682128906,-9.453222917535717,34.714955194234314,91.26134861590562,-120.33418,47.93278,-1.7967967,113.968315,-36.096626,7.9324045,-99.46032,-28.957422,-3.195144,113.179436,-39.462803,7.015036,-0.7480458,-1.9547487,29.793802,-95.983055,49.683197,-29.760523,-2.1166599,23.627851,11.117608,-4.616175,-78.00624,-50.4686,42.395424,8.78322,-2.4989169,-13.725361,-21.440838
109,-5.338496685028076,1.0687084197998047,46.79332733154297,-9.72222480198434,35.05758763706107,90.7920673829913,-119.75327,48.202183,-1.069558,113.260445,-36.158794,8.081481,-99.29076,-28.635242,-3.5069315,111.930756,-38.726,7.043368,-0.77841544,-2.0094714,29.793802,-96.1485,50.009888,-29.923874,-2.474132,23.574156,11.21697,-6.310118,-76.60939,-50.79393,41.875637,8.380772,-0.7764874,-13.929427,-20.99748
110,-5.577673435211182,1.0307697057724,47.23974609375,-10.011870207831185,35.41917251367754,90.2937967445173,-119.17199,48.4766,-0.31895372,112.51561,-36.203537,8.253039,-99.11632,-28.286806,-3.8348343,110.62128,-37.953007,7.083823,-0.8060038,-2.0593076,29.793802,-96.31263,50.36411,-30.067007,-2.8466706,23.45776,11.304619,-8.174686,-75.20575,-51.10894,41.27134,7.9104385,1.1436911,-14.041667,-20.527073
111,-5.827404499053955,0.9830589294433594,47.69850540161133,-10.318969415014132,35.79833369217527,89.75870529569877,-118.58004,48.76035,0.4593543,111.728806,-36.227146,8.426676,-98.93134,-27.9139,-4.1842666,109.23647,-37.14702,7.13348,-0.8276911,-2.1213665,29.793802,-96.499825,50.743557,-30.20369,-3.2199311,23.338797,11.375311,-10.145903,-73.822296,-51.412395,40.601807,7.392823,2.9139302,-14.061426,-20.051332
112,-6.076140880584717,0.9346804618835449,48.17413330078125,-10.636008790816364,36.19334357929511,89.17929975293393,-117.96673,49.057133,1.2695942,110.89887,-36.22703,8.582408,-98.730125,-27.51653,-4.5599127,107.76443,-36.311153,7.188793,-0.8414009,-2.2125535,29.793802,-96.73255,51.14609,-30.346603,-3.5837326,23.277945,11.41944,-12.160961,-72.496826,-51.702408,39.895164,6.8544602,4.184599,-13.994255,-19.591093
113,-6.335234642028809,0.8803973197937012,48.66962814331055,-10.974519117502423,36.606671851097815,88.54907304628533,-117.34401,49.369278,2.1012542,110.02289,-36.20328,8.720657,-98.50351,-27.104416,-4.979537,106.19486,-35.465508,7.2276187,-0.8461797,-2.3284228,29.793802,-97.027534,51.57185,-30.496056,-3.9317496,23.248022,11.436397,-14.292305,-71.2306,-51.977573,39.137825,6.301254,4.7594213,-13.794492,-19.14434
114,-6.603039741516113,0.8371023535728455,49.187381744384766,-11.333479469252497,37.037335662187246,87.87213722931835,-116.709404,49.694668,2.9587903,109.105255,-36.158325,8.850482,-98.256775,-26.673235,-5.432986,104.534325,-34.602394,7.2583957,-0.8435279,-2.4632003,29.793802,-97.37092,52.020252,-30.648716,-4.2695284,23.229853,11.4297695,-16.54489,-70.01138,-52.23691,38.325546,5.7241235,4.8559084,-13.484303,-18.702595
115,-6.869950771331787,0.7796670794487,49.71284103393555,-11.696220028738093,37.47814874015626,87.15618573677995,-116.03504,50.029545,3.8653874,108.145065,-36.089622,8.964285,-98.00567,-26.209974,-5.878262,102.79793,-33.689686,7.324182,-0.8362956,-2.6305852,29.793802,-97.74328,52.48843,-30.81133,-4.5973687,23.292599,11.387475,-18.75485,-68.86773,-52.479515,37.509834,5.1344714,4.749714,-13.172031,-18.274126
116,-7.140614986419678,0.7127801179885864,50.257198333740234,-12.04325137345589,37.922394355866444,86.40992348338793,-115.29079,50.372673,4.844728,107.14511,-35.99567,9.054735,-97.768234,-25.700897,-6.2714524,101.00058,-32.6912,7.466903,-0.8274685,-2.841644,29.793802,-98.12066,52.97175,-30.985794,-4.9144545,23.506844,11.291837,-20.757795,-67.83103,-52.702015,36.746902,4.5484447,4.716575,-12.962031,-17.871548
117,-7.425464153289795,0.6600905060768127,50.818397521972656,-12.366150219364192,38.36559763064791,85.63556989883709,-114.45119,50.72545,5.9126925,106.09878,-35.87576,9.1191845,-97.53556,-25.141275,-6.592919,99.12568,-31.613403,7.7182517,-0.8218424,-3.1053722,29.793802,-98.50033,53.46959,-31.175413,-5.2222214,23.980864,11.114782,-22.550962,-66.91378,-52.900753,36.06019,3.9714313,4.783458,-12.885687,-17.491232
118,-7.701562404632568,0.598470151424408,51.39750289916992,-12.677827055510026,38.81182080417834,84.82812443964545,-113.53303,51.084633,7.0580683,105.00617,-35.731735,9.162576,-97.302315,-24.542128,-6.8597975,97.1701,-30.472252,8.04783,-0.81779677,-3.4121141,29.793802,-98.89409,53.983143,-31.376654,-5.5166216,24.6443,10.859573,-24.207548,-66.11744,-53.073353,35.434982,3.4099696,4.819893,-12.888217,-17.128618
119,-7.995966911315918,0.527504563331604,51.997947692871094,-12.9870251940334,39.26681803512438,83.98646262507143,-112.57445,51.444096,8.258895,103.88545,-35.56338,9.188131,-97.08856,-23.908709,-7.085452,95.16734,-29.250986,8.402608,-0.809799,-3.7451723,29.793802,-99.29579,54.50918,-31.578308,-5.793741,25.3038,10.56258,-25.677677,-65.44876,-53.21879,34.86265,2.8773313,4.86395,-12.936978,-16.798323
120,-8.311620712280273,0.45952728390693665,52.60308837890625,-13.302962670188691,39.73639332122608,83.10883286193808,-111.61235,51.795033,9.49535,102.74511,-35.372807,9.199816,-96.91719,-23.248632,-7.2826486,93.1535,-27.932878,8.730508,-0.7910484,-4.0863543,29.793802,-99.70024,55.041656,-31.768526,-6.0440106,25.768755,10.271068,-26.913467,-64.91386,-53.337627,34.334175,2.3858223,4.952661,-12.999807,-16.515442
121,-8.621854782104492,0.3957832157611847,53.21414566040039,-13.631828391235954,40.22924301573805,82.18173372360823,-110.639854,52.14625,10.784292,101.573296,-35.16369,9.19887,-96.81199,-22.565336,-7.437268,91.12729,-26.47362,9.012797,-0.75658864,-4.4342566,29.793802,-100.126915,55.579193,-31.960472,-6.2490635,25.99321,9.970828,-27.905632,-64.53552,-53.435066,33.854282,1.9345539,5.122212,-13.099087,-16.264494
122,-8.948232650756836,0.31956881284713745,53.82141876220703,-13.971385329935503,40.73933456963818,81.20827162660214,-109.64367,52.496967,12.128261,100.3666,-34.933643,9.184226,-96.75562,-21.862434,-7.5382137,89.07225,-24.896568,9.28142,-0.7098014,-4.796313,29.793802,-100.575836,56.120853,-32.15831,-6.4150577,26.07921,9.655769,-28.680254,-64.30153,-53.514107,33.424023,1.5172843,5.343493,-13.2413225,-16.043556
123,-9.263697624206543,0.25370681285858154,54.417564392089844,-14.315969023798122,41.25034823044712,80.21195280203573,-108.65144,52.832573,13.482046,99.161415,-34.6772,9.156819,-96.709694,-21.149374,-7.5939574,87.00084,-23.28433,9.568722,-0.65663975,-5.1684813,29.793802,-101.00986,56.65896,-32.335777,-6.57222,26.065813,9.389269,-29.244595,-64.17343,-53.572567,33.033653,1.1416844,5.5574255,-13.370481,-15.887972
124,-9.568988800048828,0.1808580458164215,55.00492858886719,-14.660605006224529,41.74615955434862,79.21751107302575,-107.69362,53.138332,14.797744,97.99144,-34.387848,9.1178,-96.6364,-20.430075,-7.6391716,84.92564,-21.721712,9.876682,-0.6021261,-5.5459747,29.793802,-101.38878,57.182182,-32.46277,-6.752937,25.994953,9.232494,-29.606256,-64.11167,-53.605507,32.673206,0.81598943,5.703127,-13.430951,-15.834466
125,-9.882683753967285,0.10776285827159882,55.57758331298828,-14.997907266655188,42.22722712679011,78.21198269064352,-106.753914,53.425926,16.09128,96.84797,-34.059456,9.067789,-96.59414,-19.57022,-7.51072,82.83078,-20.103262,10.192664,-0.5399668,-5.94302,29.793802,-101.72208,57.684277,-32.54752,-6.944304,25.810368,9.2244425,-29.71549,-64.13059,-53.61035,32.35628,0.55166477,5.7673893,-13.415769,-15.919743
126,-10.187403678894043,0.04194407910108566,56.13621520996094,-15.33359582108302,42.70035278897741,77.18904664360694,-105.82803,53.700714,17.372797,95.71873,-33.696857,9.006824,-96.57713,-18.626608,-7.2401495,80.71718,-18.432209,10.511151,-0.4682378,-6.356125,29.793802,-102.02646,58.16338,-32.601574,-7.1284976,25.518288,9.32419,-29.58568,-64.24405,-53.587532,32.083473,0.34701604,5.77971,-13.35232,-16.116076
127,-10.48495864868164,-0.029108930379152298,56.67461013793945,-15.675266622510579,43.15883631004402,76.18538847569707,-104.96711,53.9399,18.582375,94.63025,-33.309036,8.9338,-96.46268,-17.880995,-7.1527734,78.61889,-16.947012,10.85222,-0.39790303,-6.7552996,29.793802,-102.28128,58.614304,-32.603985,-7.3289156,25.250174,9.471465,-29.31937,-64.417496,-53.539017,31.828669,0.1871936,5.7446303,-13.237262,-16.361696
128,-10.780891418457031,-0.07883670181035995,57.19150924682617,-16.02969595766655,43.59631273415297,75.23826812266547,-104.22205,54.124615,19.65988,93.60845,-32.90527,8.846884,-96.13993,-17.594297,-7.591819,76.57137,-15.879803,11.232163,-0.33881217,-7.1097913,29.793802,-102.46242,59.029953,-32.528843,-7.568177,25.138222,9.607552,-29.02102,-64.610695,-53.47013,31.561705,0.055541728,5.665956,-13.066499,-16.595238
129,-11.089974403381348,-0.11911551654338837,57.68174362182617,-16.418863651806493,44.0210222123747,74.34085380767952,-103.63533,54.2461,20.570677,92.64456,-32.476097,8.745139,-95.54145,-17.587633,-8.514365,74.364334,-15.218257,12.095461,-0.28753743,-7.401212,29.793802,-102.57922,59.403778,-32.3721,-7.8568354,25.268208,9.73914,-28.702116,-64.82614,-53.388912,31.276531,-0.04682804,5.5141196,-12.806422,-16.830711
130,-11.356188774108887,-0.18522511422634125,58.11157989501953,-16.829387649013572,44.43276450956786,73.48109787801747,-103.17535,54.32259,21.345413,91.72853,-32.02021,8.628568,-94.73822,-17.775187,-9.806809,72.04548,-14.856258,13.28093,-0.23726392,-7.647514,29.793802,-102.63894,59.731136,-32.143776,-8.176975,25.553522,9.891722,-28.313274,-65.06979,-53.300575,30.981375,-0.12012614,5.2998743,-12.468782,-17.089098
131,-11.594354629516602,-0.24203181266784668,58.506996154785156,-17.215665947572433,44.81428958440822,72.68598795264762,-102.78536,54.364773,22.022549,90.88263,-31.557531,8.49644,-93.80502,-18.521759,-11.7516775,70.05333,-14.858339,13.930956,-0.1893216,-7.8709903,29.793802,-102.61736,60.008045,-31.840776,-8.509277,25.869816,10.036265,-27.86763,-65.30616,-53.206356,30.665062,-0.18741238,5.087589,-12.119029,-17.319147
132,-11.80656623840332,-0.29686880111694336,58.86790084838867,-17.535548871913093,45.149726843688136,71.98057873357992,-102.41377,54.386086,22.638123,90.13011,-31.108246,8.348608,-92.76385,-20.16121,-14.663268,68.85204,-15.309902,13.225555,-0.1431451,-8.093321,29.793802,-102.48969,60.231487,-31.458654,-8.835783,26.09435,10.141916,-27.377577,-65.50481,-53.106728,30.317972,-0.26704037,4.939001,-11.823555,-17.470493
133,-12.0212984085083,-0.3317028880119324,59.19831848144531,-17.795902794441737,45.428488762678285,71.37577265959906,-102.07227,54.376938,23.152157,89.46704,-30.665451,8.160829,-91.32466,-23.108326,-19.22765,68.67781,-16.636997,10.526629,-0.09409455,-8.302868,29.793802,-102.21694,60.39218,-30.968613,-9.163164,26.218931,10.166767,-26.821995,-65.6383,-52.99689,29.912716,-0.36423668,4.890057,-11.594797,-17.491756
134,-12.215592384338379,-0.38074392080307007,59.48388671875,-18.02488857546698,45.66274872945908,70.85054151277706,-101.79775,54.338562,23.543388,88.88189,-30.219883,7.939914,-89.189064,-26.895723,-25.252558,69.31229,-18.956293,6.5256834,-0.03359977,-8.486336,29.793802,-101.829384,60.485825,-30.384556,-9.493014,26.304335,10.13821,-26.202492,-65.72794,-52.879715,29.458942,-0.46830666,4.8986616,-11.399386,-17.422962
135,-12.3676118850708,-0.4276829659938812,59.72781753540039,-18.193718272265667,45.87327890670765,70.38733652615157,-101.56117,54.296883,23.891045,88.38519,-29.787447,7.7305393,-86.517426,-30.611782,-31.666897,70.50154,-21.757483,2.3307068,0.04091431,-8.66851,29.793802,-101.408104,60.522045,-29.768744,-9.800827,26.32584,10.127254,-25.564003,-65.806274,-52.768166,28.996891,-0.5869176,4.91074,-11.235933,-17.352448
136,-12.504778861999512,-0.4731541574001312,59.933353424072266,-18.263442356822974,46.08227151571761,69.98048274700243,-101.31974,54.267708,24.292124,87.99036,-29.386396,7.5792375,-83.86617,-33.595345,-37.247646,71.94721,-24.19771,-1.1117507,0.12092983,-8.880942,29.793802,-101.02834,60.519154,-29.181828,-10.069275,26.254816,10.204451,-24.949768,-65.90109,-52.678143,28.56524,-0.73200357,4.8746257,-11.102712,-17.368275
137,-12.63768196105957,-0.5340304970741272,60.088844299316406,-18.185117099869384,46.31313411213719,69.66144296246577,-101.04401,54.229706,24.80573,87.69921,-29.007269,7.502953,-81.478935,-36.079,-41.870895,73.70054,-25.942337,-3.8920546,0.17760691,-9.150589,29.793802,-100.72703,60.488834,-28.647459,-10.289697,25.982712,10.425498,-24.354979,-66.01946,-52.62363,28.164547,-0.9281719,4.7978244,-11.008469,-17.514555
138,-12.762467384338379,-0.6098634600639343,60.201847076416016,-17.98133236651483,46.54916581599284,69.4356509126761,-100.75253,54.17725,25.379894,87.50703,-28.646414,7.475856,-79.11832,-38.41997,-46.104183,75.847946,-27.38199,-6.5256615,0.21905051,-9.448588,29.793802,-100.39671,60.427635,-28.073038,-10.511265,25.563162,10.730663,-23.76962,-66.13204,-52.59852,27.766054,-1.1717753,4.694906,-10.949105,-17.728483
139,-12.866219520568848,-0.7034811973571777,60.271881103515625,-17.706856110335785,46.75643366369467,69.26524678759903,-100.46549,54.139904,25.957798,87.413795,-28.33012,7.4823837,-76.99665,-40.387985,-49.56955,78.13687,-28.522736,-8.789601,0.2717315,-9.748192,29.793802,-100.062836,60.3442,-27.517294,-10.710141,25.168156,11.04351,-23.189367,-66.23103,-52.60295,27.39476,-1.4405507,4.56264,-10.908666,-17.969053
140,-12.965827941894531,-0.8061724901199341,60.299163818359375,-17.419995439011267,46.900094566344045,69.10894370654881,-100.20582,54.152523,26.479084,87.42168,-28.085289,7.507132,-75.44657,-41.760418,-51.78231,80.311584,-29.326132,-10.406702,0.3668416,-10.017152,29.793802,-99.69365,60.246807,-26.981226,-10.894511,24.987604,11.282683,-22.628977,-66.30166,-52.6244,27.060873,-1.7084857,4.3809385,-10.8696995,-18.180996
141,-13.054286003112793,-0.9164853096008301,60.28187942504883,-17.11928566231558,46.96040005924929,68.96860602172586,-99.96596,54.22762,26.941908,87.54625,-27.917116,7.5573955,-74.93235,-42.428413,-52.118095,82.33797,-29.529613,-11.08957,0.50342727,-10.258171,29.793802,-99.271866,60.14464,-26.472511,-11.067489,25.107971,11.446442,-22.047626,-66.35996,-52.651913,26.79639,-1.9612681,4.118672,-10.832033,-18.372526
142,-13.129583358764648,-1.0343989133834839,60.223453521728516,-16.779217999176275,46.95922583451251,68.86135254263718,-99.73568,54.349163,27.375893,87.7817,-27.811947,7.638638,-75.35648,-42.579296,-50.87387,84.32566,-29.153084,-11.009271,0.6611408,-10.487482,29.793802,-98.80627,60.04388,-25.979729,-11.23367,25.417192,11.575412,-21.456768,-66.42462,-52.678978,26.597836,-2.2029603,3.790116,-10.803454,-18.564426
143,-13.19167423248291,-1.1580525636672974,60.12886047363281,-16.427107406336148,46.92552131832223,68.76506228792891,-99.53561,54.500153,27.768549,88.095474,-27.767548,7.732488,-76.20716,-42.402943,-48.94452,86.24017,-28.5971,-10.577768,0.84138286,-10.69573,29.793802,-98.312325,59.949394,-25.483164,-11.394442,25.806435,11.6539,-20.94777,-66.48758,-52.700478,26.423542,-2.4327214,3.449519,-10.778203,-18.723858
144,-13.246257781982422,-1.2820994853973389,60.00164031982422,-16.084136031032834,46.88807019126432,68.66380400404458,-99.38665,54.66484,28.10529,88.45603,-27.781616,7.8198996,-76.9424,-42.16006,-47.229668,88.06311,-28.261433,-10.264357,1.0436968,-10.873827,29.793802,-97.808876,59.86459,-24.967224,-11.552166,26.165718,11.66258,-20.61056,-66.53483,-52.714035,26.22831,-2.6570017,3.150638,-10.751713,-18.816599
145,-13.29085636138916,-1.406704068183899,59.839256286621094,-15.774070000891978,46.85128580209631,68.53368204783912,-99.314766,54.86695,28.37427,88.8755,-27.849445,7.9073277,-77.58153,-41.871166,-45.72154,89.85852,-28.161919,-10.268559,1.2858093,-11.018774,29.793802,-97.29324,59.789627,-24.413425,-11.70473,26.48297,11.552403,-20.484207,-66.55071,-52.716843,25.981186,-2.8846366,2.9009004,-10.717046,-18.79986
146,-13.327802658081055,-1.5310462713241577,59.65335464477539,-15.478354550309529,46.80084273281892,68.38890731727712,-99.30452,55.108818,28.58261,89.36489,-27.974419,8.001266,-78.34204,-41.407623,-44.043926,91.623184,-28.118883,-10.321772,1.561467,-11.137628,29.793802,-96.75626,59.72621,-23.83424,-11.8544855,26.810017,11.345963,-20.514702,-66.54619,-52.709534,25.710499,-3.1136224,2.6732972,-10.679589,-18.70134
147,-13.36241626739502,-1.6645675897598267,59.44021224975586,-15.15726215150492,46.7381004822123,68.2761468725547,-99.30315,55.328438,28.756866,89.88606,-28.164822,8.082496,-78.99409,-40.89264,-42.5037,93.24748,-28.23406,-10.2482395,1.8294197,-11.235135,29.793802,-96.20116,59.67885,-23.257257,-12.009909,27.133902,11.1309395,-20.6515,-66.539085,-52.69508,25.457333,-3.3289394,2.4706926,-10.652989,-18.594976
148,-13.398416519165039,-1.7774124145507812,59.205650329589844,-14.769377307843447,46.66400619357895,68.24370374640564,-99.25979,55.46673,28.921505,90.403275,-28.429682,8.1308365,-79.319984,-40.470463,-41.376774,94.62356,-28.615196,-9.872471,2.0461407,-11.317442,29.793802,-95.63038,59.653625,-22.7109,-12.176144,27.443346,10.996135,-20.845076,-66.55142,-52.6779,25.264853,-3.5191655,2.2975829,-10.65065,-18.55437
149,-13.419808387756348,-1.8923077583312988,58.94317626953125,-14.276845761477965,46.577849078301284,68.33007099081962,-99.14072,55.4745,29.082207,90.9012,-28.784885,8.121025,-79.2094,-40.22889,-40.75658,95.77776,-29.266499,-9.073186,2.1858544,-11.391505,29.793802,-95.02549,59.6562,-22.187689,-12.366066,27.732187,10.972997,-21.113453,-66.5778,-52.658318,25.146994,-3.6871083,2.1641743,-10.681651,-18.614807
150,-13.444232940673828,-2.0246834754943848,58.65910720825195,-13.71142163492111,46.478110555962886,68.50191177341046,-98.98108,55.39312,29.225037,91.400696,-29.221025,8.070242,-78.79632,-40.108597,-40.478184,96.758644,-30.14341,-7.9885616,2.272253,-11.451914,29.793802,-94.38416,59.68917,-21.670773,-12.575106,28.004902,11.010914,-21.47349,-66.61683,-52.63402,25.085848,-3.8374913,2.0662618,-10.736751,-18.73284
151,-13.466283798217773,-2.1525309085845947,58.349788665771484,-13.130399381225633,46.365794692980835,68.69941304977023,-98.83322,55.297783,29.347616,91.92058,-29.708578,8.021006,-78.23513,-40.04644,-40.429043,97.4854,-31.278809,-6.834531,2.3371732,-11.486729,29.793802,-93.73147,59.751442,-21.177153,-12.79259,28.269453,11.076337,-21.873276,-66.69096,-52.605198,25.073484,-3.9554238,1.985231,-10.801365,-18.86463
152,-13.496622085571289,-2.256162405014038,58.01710510253906,-12.595173205437092,46.242273963354016,68.86291547294648,-98.748665,55.262093,29.445732,92.47961,-30.218746,8.017636,-77.68206,-39.969444,-40.495502,97.871826,-32.70476,-5.8174486,2.414694,-11.484363,29.793802,-93.11001,59.8391,-20.736834,-12.994484,28.530811,11.136491,-22.259598,-66.81829,-52.573452,25.098475,-4.0286613,1.9033142,-10.860966,-18.966028
153,-13.510298728942871,-2.3587512969970703,57.66457748413086,-12.13532773385165,46.1128705811732,68.97008339110836,-98.7471,55.29747,29.508184,93.06261,-30.783346,8.077016,-77.07686,-39.829865,-40.793903,97.69282,-34.574738,-4.918162,2.5274444,-11.429326,29.793802,-92.54643,59.948956,-20.370428,-13.174007,28.783474,11.195432,-22.635462,-67.00273,-52.543354,25.150015,-4.0526824,1.8307774,-10.9229,-19.015043
154,-13.517008781433105,-2.4766056537628174,57.29390335083008,-11.717284196029475,45.975067587837366,69.05482782440141,-98.79915,55.365566,29.538948,93.665215,-31.404781,8.174138,-76.3713,-39.677425,-41.343124,97.051414,-36.805923,-4.0395246,2.656599,-11.332477,29.793802,-92.031654,60.07869,-20.074488,-13.333854,29.026724,11.266993,-23.022482,-67.22355,-52.516705,25.227236,-4.0391726,1.7731117,-10.991291,-19.037943
155,-13.484949111938477,-2.6518943309783936,56.89403533935547,-11.29517115285822,45.82064549655385,69.1425867841554,-98.88537,55.471786,29.55371,94.32603,-32.01026,8.287522,-75.74692,-39.574562,-41.8756,96.359695,-39.09137,-3.2760546,2.7742121,-11.22267,29.793802,-91.54746,60.22327,-19.83993,-13.462097,29.278929,11.333588,-23.394466,-67.4657,-52.488323,25.33566,-4.002797,1.7029852,-11.047539,-19.062614
156,-13.472975730895996,-2.8418307304382324,56.48489761352539,-10.828410037651748,45.64085402165597,69.25791992932348,-98.98368,55.616993,29.572382,95.082466,-32.52732,8.397077,-75.38652,-39.584362,-42.11371,96.039246,-41.139706,-2.7338665,2.8511264,-11.130672,29.793802,-91.073296,60.376545,-19.656454,-13.551778,29.5613,11.377642,-23.726458,-67.72204,-52.448566,25.485823,-3.9509542,1.5915807,-11.072948,-19.116646
157,-13.472837448120117,-3.015418767929077,56.06320571899414,-10.283842892193421,45.43069103219491,69.42271272548665,-99.090065,55.814247,29.606516,95.97691,-32.904068,8.494355,-75.31174,-39.718876,-41.995148,96.15545,-43.01713,-2.4898753,2.8731499,-11.073049,29.793802,-90.60726,60.538715,-19.5313,-13.594144,29.895966,11.39464,-24.003433,-67.98656,-52.388226,25.677748,-3.884411,1.4027237,-11.031599,-19.203651
158,-13.469679832458496,-3.1728358268737793,55.623172760009766,-9.692866654659795,45.194731209026706,69.61699712133613,-99.21272,56.05994,29.644676,96.9791,-33.191708,8.592417,-75.44395,-39.93359,-41.64577,96.5016,-44.84153,-2.4739494,2.8556511,-11.034442,29.793802,-90.15801,60.710667,-19.468887,-13.5947275,30.27277,11.394168,-24.241896,-68.27337,-52.304493,25.911413,-3.7907333,1.1593313,-10.943794,-19.30943
159,-13.462016105651855,-3.3250582218170166,55.162925720214844,-9.104739148200494,44.93891664453683,69.80277153924969,-99.34589,56.334026,29.67411,98.01855,-33.47251,8.703222,-75.81374,-40.212368,-41.067474,97.094765,-46.414894,-2.5818024,2.8190572,-10.991262,29.793802,-89.74293,60.88931,-19.460567,-13.555317,30.647364,11.377411,-24.464962,-68.59676,-52.199253,26.192707,-3.6595156,0.9172015,-10.874883,-19.436852
160,-13.448384284973145,-3.477642774581909,54.691036224365234,-8.569458062159917,44.670276977897124,69.94325790724788,-99.483574,56.616604,29.683182,99.024605,-33.827297,8.837191,-76.44798,-40.539803,-40.267376,97.95326,-47.533478,-2.7109277,2.7806742,-10.9216,29.793802,-89.34748,61.063698,-19.4816,-13.496382,30.994154,11.346499,-24.695194,-68.97187,-52.076466,26.527674,-3.4824824,0.7344365,-10.89055,-19.589739
161,-13.406503677368164,-3.6794185638427734,54.20635986328125,-8.055212340101223,44.39281455709908,70.05507363361377,-99.61397,56.906998,29.701138,100.005394,-34.23173,8.993451,-77.49753,-40.967213,-39.106297,99.213905,-48.006462,-2.869343,2.7373564,-10.838045,29.793802,-88.9928,61.229828,-19.536234,-13.410504,31.307066,11.29666,-24.940678,-69.41389,-51.94642,26.929544,-3.2448523,0.6305406,-11.035433,-19.799482
162,-13.411371231079102,-3.8414981365203857,53.726585388183594,-7.550707621975697,44.10258706579996,70.14989864883394,-99.742485,57.213432,29.724419,100.98926,-34.658115,9.167041,-78.90841,-41.463997,-37.618397,100.81826,-47.990173,-3.1042438,2.686205,-10.742167,29.793802,-88.673676,61.38563,-19.6298,-13.293544,31.60315,11.228309,-25.188496,-69.90484,-51.81247,27.388298,-2.9602478,0.57424265,-11.265406,-20.055138
163,-13.458141326904297,-3.9980621337890625,53.24829864501953,-7.12918744632582,43.79568318412102,70.18567207350435,-99.89952,57.524826,29.684721,101.937935,-35.18205,9.360999,-80.38683,-41.910255,-36.084354,102.49675,-47.803112,-3.3695757,2.6486933,-10.591126,29.793802,-88.35653,61.522003,-19.746183,-13.15603,31.87914,11.148825,-25.432655,-70.41136,-51.668015,27.876486,-2.654522,0.5477786,-11.513034,-20.297081
164,-13.49213695526123,-4.1576008796691895,52.770103454589844,-6.864745621580778,43.46820957535225,70.12145168392085,-100.12027,57.83163,29.50941,102.81258,-35.878685,9.577687,-81.62592,-42.204147,-34.79799,103.98244,-47.76518,-3.6186566,2.6467001,-10.34135,29.793802,-88.00521,61.62568,-19.867294,-13.007402,32.136585,11.065404,-25.667925,-70.90235,-51.501472,28.36661,-2.3458319,0.5311923,-11.71055,-20.464804
165,-13.537528038024902,-4.309462547302246,52.29635238647461,-6.803786578095169,43.101943104633676,69.92428651956374,-100.38211,58.11404,29.176033,103.572395,-36.893063,9.829529,-82.55698,-42.327625,-33.829678,105.26192,-47.902966,-3.870951,2.711553,-9.952081,29.793802,-87.607346,61.686756,-19.98328,-12.830569,32.368847,10.958776,-25.884487,-71.3651,-51.304356,28.851591,-2.0358317,0.5262671,-11.833996,-20.523304
166,-13.585044860839844,-4.455574035644531,51.830448150634766,-6.893526002400125,42.70339556019174,69.62781048413797,-100.68453,58.378445,28.718153,104.24689,-38.141518,10.1113615,-83.328125,-42.34356,-33.036304,106.46081,-48.061337,-4.1390076,2.8252864,-9.45493,29.793802,-87.18051,61.700436,-20.106358,-12.626173,32.590225,10.831835,-26.088816,-71.819374,-51.07774,29.343283,-1.7067726,0.5376701,-11.921875,-20.509745
167,-13.632466316223145,-4.595241546630859,51.37505340576172,-7.061122735408288,42.306259539551284,69.28987601603757,-101.09749,58.655327,28.143396,104.90827,-39.356686,10.398428,-83.95051,-42.28126,-32.396618,107.532906,-48.30154,-4.368257,2.9435954,-8.908247,29.793802,-86.78758,61.671005,-20.27717,-12.407997,32.800312,10.722831,-26.30328,-72.28533,-50.831146,29.84552,-1.3501164,0.5505498,-11.999204,-20.4715
168,-13.648459434509277,-4.744912147521973,50.931941986083984,-7.2362034996941285,41.94598877996684,68.96584953451784,-101.690865,58.97988,27.46231,105.625084,-40.27211,10.665397,-84.44055,-42.16776,-31.885172,108.435326,-48.678177,-4.5047197,3.0220034,-8.372898,29.793802,-86.49811,61.608475,-20.543127,-12.184329,32.99344,10.670646,-26.548752,-72.77613,-50.577557,30.359093,-0.9635329,0.54933083,-12.091135,-20.456154
169,-13.667912483215332,-4.882394790649414,50.51441955566406,-7.458084776397596,41.61832325190282,68.63478414221898,-102.596214,59.39475,26.556541,106.45039,-40.774593,10.9071455,-84.69813,-41.95611,-31.581587,109.08541,-49.294403,-4.492016,3.0661182,-7.83482,29.793802,-86.27437,61.50983,-20.902311,-11.984363,33.17816,10.72372,-26.81984,-73.27777,-50.31893,30.884113,-0.55777854,0.5505038,-12.207083,-20.466124
170,-13.693207740783691,-5.008494853973389,50.10877990722656,-7.745873546023474,41.308797514820306,68.2788807329275,-103.75083,59.868652,25.451687,107.33314,-41.01936,11.139007,-84.76538,-41.6579,-31.459566,109.511696,-50.000305,-4.373648,3.0994868,-7.268465,29.793802,-86.12822,61.376453,-21.350906,-11.776134,33.337257,10.847975,-27.109499,-73.78306,-50.057663,31.416191,-0.13385575,0.5564368,-12.332508,-20.479792
171,-13.751031875610352,-5.136590003967285,49.7386589050293,-8.02457881396648,41.11461093015138,67.80011553159859,-104.897995,60.436974,24.495323,108.169945,-41.171883,11.365604,-85.117,-41.295162,-31.21424,109.68464,-50.000305,-4.2757235,3.17046,-6.8209405,29.793802,-86.1731,61.230797,-21.879715,-11.549963,33.50168,10.967436,-27.443354,-74.37566,-49.81558,31.924213,0.29017004,0.53675157,-12.452718,-20.503202
172,-13.799145698547363,-5.26207971572876,49.39180374145508,-8.16204916391715,40.981715476042766,67.42089436663379,-105.818985,60.919422,23.81592,108.90222,-41.349,11.585053,-85.657616,-41.055008,-30.842152,109.99922,-50.000305,-4.262168,3.1505864,-6.4793787,29.793802,-86.3716,61.07875,-22.497108,-11.285746,33.659813,11.0036,-27.81716,-74.99144,-49.599197,32.405186,0.7053762,0.47492447,-12.56225,-20.551659
173,-13.80765438079834,-5.397965908050537,49.050209045410156,-8.084852403474155,40.91668392518411,67.24539944032759,-106.4194,61.244267,23.511377,109.50686,-41.552032,11.797956,-86.42323,-41.03728,-30.303051,110.54783,-50.000305,-4.3541436,2.9677029,-6.262721,29.793802,-86.72941,60.92082,-23.233356,-10.990025,33.829243,10.9156885,-28.260307,-75.611046,-49.407993,32.85264,1.1151546,0.3426302,-12.656117,-20.645763
174,-13.803216934204102,-5.5285749435424805,48.72166061401367,-7.865082701529387,40.91168370842862,67.20472271289908,-106.822876,61.474255,23.459799,110.02782,-41.717796,12.003118,-87.32958,-41.15278,-29.670357,111.211494,-50.000305,-4.503911,2.6660244,-6.1395473,29.793802,-87.23977,60.75647,-24.085361,-10.663094,33.988827,10.752237,-28.756409,-76.235146,-49.24095,33.274147,1.5190853,0.16143525,-12.740142,-20.773296
175,-13.811853408813477,-5.650653839111328,48.42719268798828,-7.599312375041326,40.92099695441181,67.2050378443394,-107.10206,61.669643,23.53292,110.49283,-41.876465,12.200238,-88.26382,-41.30123,-29.012487,111.888115,-50.000305,-4.678391,2.3103945,-6.0547695,29.793802,-87.79534,60.568134,-24.968063,-10.313899,34.126152,10.571175,-29.238106,-76.85321,-49.0912,33.683826,1.8999339,-0.016963087,-12.824232,-20.899527
176,-13.83665943145752,-5.769627571105957,48.16367721557617,-7.37977982947056,40.89921416446786,67.15214141850785,-107.328224,61.89037,23.603994,110.93052,-42.05889,12.389546,-89.109314,-41.385376,-28.401888,112.47835,-50.000305,-4.843535,1.9732449,-5.9417777,29.793802,-88.300835,60.335335,-25.790722,-9.942382,34.217354,10.4261675,-29.642832,-77.46565,-48.952576,34.10893,2.2537374,-0.14573249,-12.918076,-20.990791
177,-13.875317573547363,-5.891784191131592,47.9261589050293,-7.202920011220695,40.82461870099165,67.04010165727864,-107.45325,62.14412,23.701035,111.34548,-42.2899,12.575355,-89.855995,-41.401543,-27.822659,112.97294,-50.000305,-4.998181,1.6575117,-5.7922387,29.793802,-88.68805,60.037003,-26.515692,-9.539489,34.263725,10.3071165,-29.938906,-78.09105,-48.822727,34.588062,2.592152,-0.18165748,-13.028881,-21.032001
178,-13.909846305847168,-6.011961936950684,47.706031799316406,-7.026887246717969,40.72339793031986,66.9132723923012,-107.461784,62.402332,23.870071,111.724754,-42.5463,12.755744,-90.55506,-41.393906,-27.250639,113.42105,-50.000305,-5.158086,1.3383054,-5.6222596,29.793802,-89.014175,59.670433,-27.175652,-9.102354,34.277027,10.188662,-30.170692,-78.7405,-48.704315,35.117107,2.9329612,-0.16394489,-13.1497,-21.045204
179,-13.94482135772705,-6.1221394538879395,47.50974655151367,-6.897382106533068,40.62350890570011,66.75121062177546,-107.47571,62.667637,24.010956,112.06531,-42.787685,12.921398,-91.18224,-41.34733,-26.748518,113.8042,-50.000305,-5.3132963,1.0346323,-5.419263,29.793802,-89.315994,59.24182,-27.767952,-8.67143,34.288563,10.106466,-30.385735,-79.390625,-48.59723,35.64137,3.2663038,-0.15777443,-13.269454,-21.051561
180,-14.00190258026123,-6.18415641784668,47.345706939697266,-6.857215391837478,40.55236299590014,66.53405215612882,-107.62059,62.942417,24.019678,112.36519,-42.973576,13.063305,-91.71277,-41.245384,-26.37862,114.10865,-50.000305,-5.454312,0.76436365,-5.1695523,29.793802,-89.638824,58.767128,-28.291893,-8.285711,34.319183,10.095455,-30.631563,-80.02044,-48.501408,36.108994,3.582509,-0.23220755,-13.377418,-21.071564
181,-14.03948974609375,-6.272964954376221,47.202823638916016,-6.979161297235673,40.507227088822106,66.22300632906403,-108.03777,63.23819,23.750038,112.62619,-43.081646,13.181035,-92.08089,-41.05896,-26.227383,114.312225,-50.000305,-5.582575,0.5461661,-4.830712,29.793802,-89.98984,58.25597,-28.765179,-7.915611,34.286263,10.148942,-30.885286,-80.64707,-48.417233,36.532116,3.895509,-0.42178386,-13.481435,-21.109234
182,-14.099891662597656,-6.322809219360352,47.08890151977539,-7.217714368274521,40.475880024988136,65.84076673264973,-108.63314,63.546383,23.289265,112.845955,-43.13578,13.278985,-92.31966,-40.80937,-26.237932,114.42871,-50.000305,-5.7016816,0.3624679,-4.426266,29.793802,-90.35395,57.710648,-29.188221,-7.553883,34.199154,10.255043,-31.13159,-81.26899,-48.344154,36.92458,4.1986265,-0.68572235,-13.583634,-21.153599
183,-14.144875526428223,-6.401423454284668,46.999488830566406,-7.445380438152497,40.47244713955659,65.4582104955069,-109.170395,63.848263,22.892685,113.02208,-43.168877,13.356963,-92.55321,-40.550907,-26.257137,114.495125,-50.000305,-5.8042035,0.1702122,-4.04799,29.793802,-90.710976,57.138847,-29.518847,-7.2923784,34.237633,10.441288,-31.431795,-81.84869,-48.280903,37.242012,4.45441,-0.9710906,-13.664874,-21.202505
184,-14.18178653717041,-6.472719669342041,46.94126510620117,-7.533485584630762,40.51331628673368,65.14439450215976,-109.41198,64.12616,22.815884,113.15001,-43.210358,13.4125595,-92.90352,-40.335327,-26.135406,114.54778,-50.000305,-5.8828673,-0.074284,-3.7874084,29.793802,-91.04658,56.55654,-29.717295,-7.2252,34.57468,10.732018,-31.848394,-82.34947,-48.22828,37.440876,4.625198,-1.2212968,-13.70645,-21.252579
185,-14.207347869873047,-6.527865886688232,46.904930114746094,-7.430930154923428,40.633964214265106,64.92412108121245,-109.26479,64.373215,23.187029,113.21382,-43.26272,13.441483,-93.43928,-40.181164,-25.824123,114.58909,-50.000305,-5.9404154,-0.39738005,-3.694209,29.793802,-91.3869,55.983097,-29.773846,-7.3884635,35.226036,11.190184,-32.461327,-82.76864,-48.1861,37.48959,4.6941524,-1.4633372,-13.691177,-21.3068
186,-14.225560188293457,-6.565990924835205,46.884464263916016,-7.213433486597281,40.81688472199897,64.75734077412524,-108.85978,64.59953,23.855564,113.223236,-43.311695,13.44624,-94.08298,-40.054913,-25.408047,114.60078,-50.000305,-5.979277,-0.778148,-3.7141998,29.793802,-91.72294,55.42887,-29.706247,-7.741931,36.109104,11.775802,-33.22394,-83.12341,-48.153076,37.416405,4.677987,-1.7108039,-13.633236,-21.364126
187,-14.242286682128906,-6.597259044647217,46.87849044799805,-6.942377776242293,40.99866054626331,64.61754004810098,-108.281265,64.81247,24.67383,113.20815,-43.36184,13.434529,-94.734024,-39.93331,-24.93869,114.59009,-50.000305,-5.9925737,-1.1898097,-3.7826118,29.793802,-91.97295,54.89202,-29.508543,-8.275757,37.2571,12.357372,-34.01017,-83.41161,-48.12676,37.275883,4.5889125,-1.8930137,-13.561242,-21.41556
188,-14.262296676635742,-6.6266984939575195,46.8862419128418,-6.6745735595969515,41.11568328154605,64.479593119508,-107.61605,65.023056,25.489548,113.20199,-43.418816,13.413813,-95.29153,-39.798103,-24.466425,114.5664,-50.000305,-5.97354,-1.6034074,-3.8309693,29.793802,-92.053856,54.363464,-29.168526,-8.976203,38.697895,12.806078,-34.690617,-83.63076,-48.10482,37.12546,4.4433117,-1.9398801,-13.502015,-21.454147
189,-14.289448738098145,-6.661911964416504,46.912132263183594,-6.4022585265790255,41.1582983507079,64.34170919432485,-106.82863,65.23278,26.329552,113.21009,-43.486797,13.385334,-95.76447,-39.641148,-23.964975,114.52599,-50.000305,-5.910661,-2.019189,-3.8666942,29.793802,-91.94278,53.8387,-28.65977,-9.92473,40.735214,13.10224,-35.344296,-83.7785,-48.084885,36.96999,4.231362,-1.7695776,-13.458899,-21.482439
190,-14.346580505371094,-6.661388397216797,46.97314453125,-6.104167046083099,41.17615471592389,64.179735911533,-105.87105,65.46118,27.294586,113.21481,-43.56982,13.346132,-96.269394,-39.456154,-23.3802,114.41419,-49.789455,-5.8163047,-2.4299233,-3.9341474,29.793802,-91.705,53.32384,-27.988592,-11.099842,43.258682,13.294568,-36.00949,-83.88819,-48.068996,36.79254,3.9571369,-1.4390734,-13.417389,-21.503225
191,-14.384613990783691,-6.667877674102783,47.04779815673828,-5.818632006164021,41.17037473592151,63.98122646052427,-104.83661,65.70848,28.291077,113.213036,-43.66181,13.294789,-96.750595,-39.2364,-22.787588,114.2434,-49.430454,-5.7116933,-2.8205285,-3.9973536,29.793802,-91.356476,52.816364,-27.194777,-12.3366785,45.666676,13.386045,-36.476177,-83.97095,-48.05819,36.61063,3.6529422,-1.0935246,-13.380053,-21.51121
192,-14.419238090515137,-6.667933464050293,47.13294982910156,-5.589360972538608,41.16449386270583,63.686363284776235,-103.80778,66.01254,29.258661,113.20247,-43.765102,13.225527,-97.19392,-38.94038,-22.25047,114.025406,-49.047882,-5.6277714,-3.1450713,-4.0453086,29.793802,-90.95702,52.31375,-26.32786,-13.455886,47.357807,13.407272,-36.53611,-84.07318,-48.05812,36.444794,3.3577454,-0.8743597,-13.349244,-21.498981
193,-14.46103286743164,-6.664974212646484,47.23356628417969,-5.458319739497829,41.158232793747764,63.24705754632874,-102.83138,66.4067,30.144718,113.1845,-43.88887,13.13469,-97.58102,-38.53817,-21.80822,113.74574,-48.630642,-5.575744,-3.370089,-4.073613,29.793802,-90.505775,51.80705,-25.360096,-14.42408,48.20928,13.3246975,-36.08009,-84.19263,-48.071262,36.28009,3.067824,-0.80081725,-13.346844,-21.443727
194,-14.509502410888672,-6.654567241668701,47.34652328491211,-5.3904726421760545,41.14048995593989,62.70673408427796,-101.851845,66.864075,30.996586,113.16079,-44.02826,13.024901,-97.911644,-38.0563,-21.429,113.41781,-48.18275,-5.53862,-3.5239255,-4.0856533,29.793802,-89.98798,51.290726,-24.286713,-15.328814,48.531265,13.155107,-35.2308,-84.309296,-48.09987,36.112354,2.7692032,-0.80004084,-13.364523,-21.356133
195,-14.556150436401367,-6.635615825653076,47.475521087646484,-5.325369708382409,41.11972369819283,62.1391190776921,-100.79017,67.3337,31.911547,113.129,-44.16456,12.901072,-98.22056,-37.547993,-21.055786,113.05932,-47.725838,-5.503111,-3.651029,-4.082658,29.793802,-89.44428,50.76849,-23.197664,-16.170012,48.371346,13.005538,-34.13004,-84.427864,-48.14865,35.968746,2.4666877,-0.8879102,-13.357796,-21.278168
196,-14.589519500732422,-6.611475944519043,47.61507797241211,-5.199056416571409,41.10537941882688,61.618687302954456,-99.56681,67.75888,32.98796,113.08772,-44.27999,12.769273,-98.542244,-37.061493,-20.631573,112.69031,-47.278114,-5.457301,-3.7975602,-4.07142,29.793802,-88.916046,50.24843,-22.19046,-16.947037,47.77175,12.979602,-32.91652,-84.54701,-48.221497,35.868042,2.1644068,-1.0784093,-13.282467,-21.25131
197,-14.628531455993652,-6.5862884521484375,47.7666130065918,-4.979016215492883,41.11277899754923,61.17741402940116,-98.10987,68.12383,34.32841,113.033615,-44.378723,12.646079,-98.90693,-36.617443,-20.12587,112.31516,-46.845528,-5.403378,-3.989581,-4.066563,29.793802,-88.41922,49.73452,-21.27556,-17.644382,46.559998,13.111321,-31.528015,-84.66386,-48.320656,35.797314,1.8477393,-1.4513336,-13.093651,-21.290176
198,-14.664499282836914,-6.551331996917725,47.934295654296875,-4.703633790244842,41.1337886524738,60.77164609345862,-96.476234,68.45022,35.858067,112.96943,-44.466324,12.52402,-99.2879,-36.185448,-19.575655,111.92389,-46.417896,-5.3463755,-4.1980605,-4.0650473,29.793802,-87.93736,49.225853,-20.414352,-18.265419,44.764202,13.304633,-29.914724,-84.77178,-48.44665,35.742786,1.5150602,-1.9709792,-12.8258095,-21.368174
199,-14.702242851257324,-6.509922504425049,48.11102294921875,-4.419296504292257,41.14228472546883,60.362005530501385,-94.775375,68.746346,37.41816,112.89953,-44.53302,12.378081,-99.63681,-35.741024,-19.021248,111.51358,-45.990086,-5.27757,-4.3872437,-4.047839,29.793802,-87.46027,48.724586,-19.629921,-18.834604,42.727764,13.483282,-28.235909,-84.86316,-48.598682,35.721733,1.1798625,-2.4804115,-12.553561,-21.466698
200,-14.753463745117188,-6.46294641494751,48.2962646484375,-4.172884346182894,41.11188336373816,59.90800151767145,-93.14427,69.02751,38.81907,112.83009,-44.56275,12.179949,-99.90345,-35.258446,-18.505352,111.08232,-45.560596,-5.188092,-4.5217333,-3.998069,29.793802,-86.984055,48.234604,-18.951574,-19.369396,40.796623,13.600561,-26.656425,-84.92851,-48.77371,35.74868,0.8546042,-2.8245506,-12.352353,-21.569946
201,-14.798164367675781,-6.410611629486084,48.491615295410156,-3.965209573441561,41.02681091745682,59.406246893164315,-91.60579,69.29781,40.01526,112.76833,-44.544857,11.918833,-100.07134,-34.73322,-18.027239,110.631546,-45.132477,-5.0639343,-4.5935926,-3.9154575,29.793802,-86.50209,47.758095,-18.405556,-19.865643,38.920605,13.694125,-25.148062,-84.964966,-48.96955,35.84526,0.54928946,-2.9326367,-12.243189,-21.71328
202,-14.833988189697266,-6.369267463684082,48.69923400878906,-3.776247718728708,40.90377022833764,58.87582173465179,-90.10381,69.55496,41.09167,112.708824,-44.488716,11.609199,-100.168526,-34.179398,-17.566269,110.161896,-44.706257,-4.9134355,-4.6226544,-3.8108356,29.793802,-86.01847,47.296074,-17.971539,-20.313175,36.962124,13.769364,-23.646656,-84.981224,-49.1848,35.99819,0.2578518,-2.896416,-12.186367,-21.893675
203,-14.868828773498535,-6.319607257843018,48.90870666503906,-3.6111841290623077,40.76480357240411,58.3116333894002,-88.63822,69.80002,42.07628,112.63594,-44.412434,11.263349,-100.21357,-33.59792,-17.132177,109.66831,-44.273804,-4.7598724,-4.614203,-3.682965,29.793802,-85.54901,46.85293,-17.611319,-20.716818,35.137787,13.767593,-22.270157,-84.98363,-49.416084,36.17159,-0.02973674,-2.8110714,-12.165938,-22.038376
204,-14.900352478027344,-6.267595291137695,49.12563705444336,-3.4817226618335346,40.631579365445404,57.70800436771891,-87.20616,70.03322,43.00102,112.531845,-44.333954,10.89347,-100.226074,-32.98852,-16.737179,109.147316,-43.82711,-4.6293964,-4.5765667,-3.5326898,29.793802,-85.10171,46.43474,-17.28488,-21.089005,33.67076,13.648429,-21.1409,-84.98381,-49.65895,36.332165,-0.32076818,-2.7682085,-12.16519,-22.074043
205,-14.934147834777832,-6.21057653427124,49.35638427734375,-3.4061692436501403,40.50272441246777,57.04343356928786,-85.84185,70.26793,43.82159,112.393524,-44.260223,10.488134,-100.19923,-32.335876,-16.400084,108.59302,-43.35901,-4.535966,-4.498666,-3.354652,29.793802,-84.67564,46.050323,-16.994764,-21.43141,32.650013,13.403409,-20.301018,-84.984085,-49.90875,36.478054,-0.6127559,-2.7541752,-12.205042,-21.955757
206,-14.958785057067871,-6.1558661460876465,49.5917854309082,-3.374325760014427,40.36819405381238,56.32779897490444,-84.53564,70.50221,44.53738,112.229195,-44.181255,10.044747,-100.127846,-31.64559,-16.107702,108.01148,-42.877796,-4.4635744,-4.3862553,-3.1537476,29.793802,-84.2599,45.704018,-16.754488,-21.743954,31.946522,13.080753,-19.684174,-84.98278,-50.16219,36.626194,-0.9005601,-2.7333608,-12.285776,-21.730955
207,-14.99024486541748,-6.086302757263184,49.843414306640625,-3.3450999165023574,40.23742660504248,55.60390914589007,-83.22286,70.7093,45.242016,112.03953,-44.089508,9.589342,-100.03447,-30.947824,-15.826323,107.40445,-42.39,-4.394631,-4.271848,-2.9434621,29.793802,-83.8554,45.394253,-16.540949,-22.032478,31.452316,12.728607,-19.25055,-84.98782,-50.41828,36.774696,-1.1901746,-2.7633934,-12.360772,-21.465282
208,-15.025812149047852,-6.009117603302002,50.11103057861328,-3.2811845625652905,40.120536405668865,54.91308008344743,-81.839386,70.85832,46.033234,111.82289,-43.97881,9.152767,-99.94052,-30.273726,-15.522958,106.776436,-41.90432,-4.3115325,-4.186385,-2.7353332,29.793802,-83.46141,45.11524,-16.329105,-22.30154,31.061121,12.389927,-18.960958,-85.00673,-50.67854,36.92258,-1.4857968,-2.9030023,-12.383726,-21.22452
209,-15.054302215576172,-5.940577983856201,50.387657165527344,-3.1726551321713803,40.02178406973135,54.27020020714923,-80.373184,70.92808,46.92884,111.57088,-43.85767,8.744278,-99.84749,-29.639444,-15.192773,106.1262,-41.42554,-4.207263,-4.1423135,-2.5256922,29.793802,-83.07718,44.86136,-16.111092,-22.55372,30.772308,12.060981,-18.859602,-85.05154,-50.946793,37.079594,-1.7870108,-3.209447,-12.324803,-21.003082
210,-15.089218139648438,-5.844128608703613,50.67949295043945,-3.041539326237756,39.93544822476079,53.6512911552435,-78.86366,70.93944,47.871,111.28501,-43.725685,8.346092,-99.74479,-29.023897,-14.852107,105.45237,-40.947323,-4.0922403,-4.119595,-2.307201,29.793802,-82.70403,44.631737,-15.89731,-22.782646,30.630934,11.727725,-18.947788,-85.11715,-51.224827,37.24674,-2.090821,-3.6362443,-12.215817,-20.77338
211,-15.125231742858887,-5.762217044830322,50.9791374206543,-2.892680889286407,39.85766886775583,53.03976337131562,-77.33875,70.913795,48.824646,110.979744,-43.560627,7.943462,-99.63534,-28.409348,-14.497532,104.75885,-40.46821,-3.9740677,-4.099698,-2.0877104,29.793802,-82.34046,44.427166,-15.69215,-22.991335,30.601543,11.414116,-19.121525,-85.18135,-51.510395,37.407043,-2.398446,-4.090541,-12.101324,-20.56852
212,-15.149166107177734,-5.676577091217041,51.28794860839844,-2.7320671503835343,39.78390117025695,52.41946905770458,-75.80933,70.87775,49.769527,110.670685,-43.341076,7.5214167,-99.52044,-27.775158,-14.127125,104.04971,-39.98235,-3.8611462,-4.0665555,-1.8766452,29.793802,-81.98551,44.251366,-15.500354,-23.179825,30.650448,11.143806,-19.277948,-85.22733,-51.800037,37.544342,-2.7057955,-4.4735355,-12.025003,-20.422272
213,-15.166862487792969,-5.579619407653809,51.60173797607422,-2.5559576241356763,39.72090090090544,51.78515239895942,-74.26917,70.83428,50.719048,110.35724,-43.063087,7.07507,-99.41002,-27.112938,-13.733224,103.32341,-39.48824,-3.760406,-4.0171776,-1.6843729,29.793802,-81.65636,44.11133,-15.32339,-23.340311,30.810326,10.913086,-19.442347,-85.25523,-52.092636,37.643215,-3.0139964,-4.7910423,-12.0057535,-20.341736
214,-15.172369956970215,-5.48553466796875,51.92387008666992,-2.3642552489753075,39.668896865218564,51.1452887886356,-72.70999,70.77029,51.681744,110.03226,-42.74042,6.6130595,-99.3003,-26.433208,-13.319029,102.578735,-38.984684,-3.6658177,-3.9627373,-1.5072883,29.793802,-81.346085,44.009705,-15.159425,-23.475819,31.083284,10.71275,-19.649952,-85.26947,-52.387817,37.71089,-3.325513,-5.083872,-12.017084,-20.309557
215,-15.17493724822998,-5.387617111206055,52.25554656982422,-2.1634596231681966,39.61366987255315,50.5051945107155,-71.17441,70.68044,52.5996,109.69903,-42.370384,6.1387453,-99.169304,-25.750978,-12.897372,101.82056,-38.48338,-3.5658047,-3.9059856,-1.331904,29.793802,-81.02495,43.942677,-15.009516,-23.600151,31.387177,10.557821,-19.814913,-85.264015,-52.681217,37.771145,-3.6407468,-5.3118906,-12.034117,-20.32311
216,-15.172454833984375,-5.291168212890625,52.58815383911133,-1.9606966387009603,39.54083245337799,49.86986699637799,-69.69612,70.56004,53.421375,109.361885,-41.95585,5.656775,-98.99691,-25.08266,-12.479707,101.05485,-37.991993,-3.448907,-3.8497088,-1.1433299,29.793802,-80.65839,43.90114,-14.87297,-23.726734,31.645617,10.464317,-19.852623,-85.23482,-52.9654,37.850445,-3.9552927,-5.4364586,-12.03199,-20.38044
217,-15.17359447479248,-5.187741756439209,52.931941986083984,-1.7541678408337062,39.43803696571636,49.24126278952913,-68.22806,70.42193,54.192486,109.02862,-41.500713,5.170023,-98.76917,-24.431581,-12.06637,100.28196,-37.51565,-3.3034737,-3.7935717,-0.9375616,29.793802,-80.24403,43.875984,-14.754118,-23.854288,31.870556,10.461678,-19.737461,-85.18098,-53.232056,37.96624,-4.2682176,-5.3906894,-12.004596,-20.513746
218,-15.17658805847168,-5.077304840087891,53.27970886230469,-1.5410861558640745,39.31491544344448,48.616621711025644,-66.77535,70.26087,54.913734,108.69386,-41.004013,4.674652,-98.499374,-23.790356,-11.650353,99.500145,-37.04981,-3.1384225,-3.737114,-0.72034025,29.793802,-79.79235,43.86468,-14.649165,-23.978252,32.10077,10.533197,-19.518345,-85.11664,-53.47796,38.111008,-4.5665402,-5.21598,-11.965464,-20.71417
219,-15.177186012268066,-4.955204010009766,53.63451385498047,-1.3270664407892263,39.18995103878894,47.99393010646175,-65.445564,70.06121,55.47217,108.34135,-40.45805,4.1630197,-98.2075,-23.156656,-11.234472,98.707634,-36.58769,-2.9724855,-3.6790164,-0.48792714,29.793802,-79.32101,43.875065,-14.551072,-24.0821,32.280838,10.623878,-19.222425,-85.06808,-53.70799,38.281635,-4.8302145,-5.0345807,-11.918258,-20.916855
220,-15.167970657348633,-4.852632999420166,53.99642562866211,-1.1188197166519378,39.081799370225674,47.37055952514851,-64.34535,69.80621,55.755974,107.95517,-39.856464,3.627512,-97.91327,-22.525215,-10.822877,97.90103,-36.122387,-2.8246865,-3.620988,-0.23940049,29.793802,-78.822754,43.917557,-14.446445,-24.17206,32.364265,10.680264,-18.874788,-85.05472,-53.93035,38.468212,-5.0470285,-4.966518,-11.86596,-21.057343
221,-15.171451568603516,-4.730623245239258,54.35606384277344,-0.9211550613731087,38.99491294120124,46.75143510028258,-63.52779,69.47738,55.700356,107.51509,-39.20243,3.0559032,-97.61729,-21.90408,-10.423083,97.0786,-35.649574,-2.7090724,-3.57062,0.036812525,29.793802,-78.29312,44.002506,-14.32354,-24.241629,32.319496,10.685054,-18.464922,-85.0883,-54.15235,38.679565,-5.214775,-5.0481067,-11.81327,-21.109684
222,-15.170717239379883,-4.604273796081543,54.71880340576172,-0.7302695182987385,38.920391823315676,46.13586798035758,-62.918236,69.09091,55.385677,107.036705,-38.500614,2.454677,-97.311935,-21.292856,-10.031489,96.24196,-35.1736,-2.6126215,-3.525924,0.33705527,29.793802,-77.73071,44.132374,-14.185458,-24.29515,32.169254,10.667034,-17.983475,-85.1478,-54.37413,38.91189,-5.35063,-5.2129707,-11.756927,-21.11195
223,-15.153156280517578,-4.474647521972656,55.08806610107422,-0.541152626400059,38.856679928670694,45.51201085586002,-62.436928,68.6806,54.914555,106.55236,-37.742798,1.8439631,-97.00125,-20.675953,-9.634966,95.39267,-34.701035,-2.5138245,-3.475884,0.6342862,29.793802,-77.12116,44.301743,-14.042496,-24.368933,31.96017,10.641911,-17.457031,-85.216034,-54.593876,39.14112,-5.4698777,-5.4175935,-11.687855,-21.092716
224,-15.125940322875977,-4.3543829917907715,55.45561218261719,-0.3492937741388743,38.8028289725786,44.86840488816746,-62.008595,68.285484,54.384304,106.097916,-36.920135,1.2428981,-96.68959,-20.037054,-9.220881,94.53293,-34.238457,-2.3912551,-3.403188,0.90632826,29.793802,-76.47646,44.50268,-13.912088,-24.473791,31.727621,10.624561,-16.912748,-85.25796,-54.808456,39.333725,-5.5925593,-5.631585,-11.596425,-21.080685
225,-15.09389877319336,-4.233388423919678,55.815940856933594,-0.16730749564733907,38.76341651035112,44.17699775881166,-61.593414,67.911415,53.824833,105.65373,-36.044834,0.5861204,-96.37337,-19.351028,-8.790382,93.64848,-33.784546,-2.2342763,-3.2860558,1.1495929,29.793802,-75.80495,44.735382,-13.800795,-24.615953,31.484173,10.626823,-16.343824,-85.27871,-55.02052,39.478813,-5.720071,-5.896197,-11.456151,-21.063108
226,-15.054483413696289,-4.094144344329834,56.18290710449219,0.0059900272844731,38.737880282864666,43.452323694819135,-61.237534,67.53773,53.18244,105.21204,-35.117355,-0.11489361,-96.05125,-18.632511,-8.348624,92.74331,-33.33694,-2.056335,-3.1373477,1.3746707,29.793802,-75.100525,44.999126,-13.702584,-24.784784,31.212566,10.637458,-15.739533,-85.28007,-55.231964,39.585297,-5.847208,-6.215619,-11.280622,-21.02983
227,-15.001840591430664,-3.965517520904541,56.54475784301758,0.19697703330276733,38.71595012004095,42.745657035805806,-61.00222,67.16158,52.42081,104.81866,-34.104294,-0.7262222,-95.72831,-17.930645,-7.8879895,91.84541,-32.90151,-1.8720262,-2.9961164,1.5759938,29.793802,-74.34463,45.28042,-13.617116,-24.97855,30.916355,10.637836,-15.122453,-85.25718,-55.440506,39.667416,-5.97351,-6.4822617,-11.119629,-21.012604
228,-14.944548606872559,-3.8433444499969482,56.90392303466797,0.43520912355626507,38.68569754506999,42.108097543348514,-60.92482,66.78507,51.53102,104.52012,-32.974407,-1.1078464,-95.40811,-17.289154,-7.4023843,90.984085,-32.48377,-1.6959023,-2.8833847,1.7654814,29.793802,-73.61588,45.57878,-13.555463,-25.122282,30.53709,10.603045,-14.5222225,-85.21467,-55.64927,39.752853,-6.076323,-6.593915,-11.022151,-21.04333
229,-14.88039493560791,-3.728290319442749,57.266597747802734,0.73463723534094,38.64038233918674,41.54779024375473,-60.823624,66.437195,50.717255,104.32541,-31.70339,-1.403151,-95.091446,-16.714985,-6.877596,90.16693,-32.085003,-1.5350574,-2.7964647,1.9393452,29.793802,-72.91815,45.89701,-13.518126,-25.19182,30.010405,10.501356,-13.929055,-85.13922,-55.86032,39.854954,-6.159306,-6.4349966,-11.021154,-21.14783
230,-14.817120552062988,-3.6140615940093994,57.622127532958984,1.0813614286047515,38.59135642086459,41.03800564135271,-60.7318,66.11219,49.933155,104.210655,-30.311764,-1.6202575,-94.78203,-16.184769,-6.3167386,89.377884,-31.700365,-1.3799927,-2.760066,2.0610752,29.793802,-72.02014,46.180595,-13.485818,-25.365294,29.53777,10.36511,-13.320156,-85.017166,-56.055496,39.935364,-6.2608857,-6.083524,-11.0860615,-21.306007
231,-14.753389358520508,-3.4998269081115723,57.958858489990234,1.4430027341425267,38.54037749947668,40.57719908308241,-61.041473,65.7681,48.74302,104.18298,-28.822819,-1.4228001,-94.46843,-15.70375,-5.756938,88.61456,-31.333918,-1.2234423,-2.7227013,2.2053108,29.793802,-71.23316,46.46417,-13.486992,-25.454441,29.027428,10.226005,-12.75171,-84.91585,-56.254177,40.027336,-6.299543,-5.746971,-11.165185,-21.47479
232,-14.69295883178711,-3.392799139022827,58.2907600402832,1.7925290482937617,38.49942870824429,40.16614619310615,-62.08867,65.3596,46.79422,104.25119,-27.259584,-0.46292308,-94.15459,-15.27751,-5.225893,87.87265,-30.986288,-1.0568135,-2.7109554,2.3653333,29.793802,-70.488884,46.740402,-13.522635,-25.55334,28.64124,10.149121,-12.241886,-84.83852,-56.46039,40.08939,-6.2944427,-5.6144743,-11.20876,-21.617073
233,-14.631329536437988,-3.2929611206054688,58.61213684082031,2.128452707870388,38.461537200160954,39.83522984404421,-63.90854,65.01352,44.120007,104.545074,-25.441761,1.9015405,-93.82117,-14.931245,-4.744437,87.15314,-30.669252,-0.8791716,-2.7221363,2.5783842,29.793802,-69.87879,47.028202,-13.605506,-25.605297,28.327557,10.157669,-11.799447,-84.79784,-56.69281,40.13126,-6.218457,-5.7880473,-11.198792,-21.723804
234,-14.563414573669434,-3.2021031379699707,58.92013168334961,2.467398669922004,38.428399042007094,39.57196564542481,-66.218346,64.744095,41.06438,105.03294,-23.427277,5.386231,-93.4846,-14.651843,-4.2844014,86.457405,-30.376305,-0.69513255,-2.8038843,2.7668777,29.793802,-69.10959,47.256237,-13.725998,-25.78691,28.269253,10.240393,-11.381987,-84.72875,-56.93191,40.10328,-6.152297,-6.1331162,-11.165644,-21.818487
235,-14.508064270019531,-3.075188159942627,59.23172378540039,2.8039973940483156,38.398014220097046,39.319852488978654,-68.89816,64.259605,37.650696,105.480125,-21.572414,8.881098,-93.16326,-14.393538,-3.8240626,85.785645,-30.09151,-0.5038368,-2.847266,2.9742515,29.793802,-68.517136,47.473927,-13.903733,-25.87613,28.218407,10.337075,-11.031113,-84.66482,-57.194603,40.058853,-6.042465,-6.5363994,-11.121112,-21.898329
236,-14.452439308166504,-2.9826338291168213,59.517879486083984,3.1390172675682226,38.38910888156018,39.035891929144626,-71.81211,63.158714,33.862587,105.64759,-20.192165,11.166833,-92.89667,-14.116646,-3.339088,85.133965,-29.793816,-0.3038947,-2.8518198,3.1506183,29.793802,-68.031296,47.691048,-14.128156,-25.936436,28.219206,10.422156,-10.741484,-84.57752,-57.47237,39.96219,-5.9507704,-6.856525,-11.081299,-21.967417
237,-14.410805702209473,-2.893641710281372,59.788387298583984,3.4808702435710424,38.41854917093333,38.731813302908094,-74.94318,61.130447,29.553394,105.47834,-19.40731,11.790705,-92.70338,-13.830716,-2.8296378,84.49728,-29.47708,-0.09643141,-2.825018,3.2905889,29.793802,-67.678795,47.92583,-14.406192,-25.98585,28.294548,10.508126,-10.547226,-84.47959,-57.76316,39.799355,-5.871002,-7.109536,-11.037009,-22.019623
238,-14.37685489654541,-2.786912441253662,60.04160690307617,3.8181639808766823,38.47518406917184,38.428150751042715,-78.02186,58.35282,25.065048,105.15323,-19.056896,11.392065,-92.557396,-13.554233,-2.317389,83.87672,-29.152834,0.11816853,-2.7817578,3.4120352,29.793802,-67.445526,48.18691,-14.737649,-26.021084,28.42937,10.608337,-10.43171,-84.36757,-58.06694,39.574436,-5.795148,-7.350091,-10.985457,-22.055141
