unveil-humanoid-operators/unveil-humanoid-operators.github.io/feature-analysis-animation/data/feature_matrix_instances/age_waist_mean_vel_jogging_A029_jog_sideway_135_loop_002__A029.csv
Frame,root_translateX,root_translateY,root_translateZ,root_rotateX,root_rotateY,root_rotateZ,left_hip_pitch_joint_dof,left_hip_roll_joint_dof,left_hip_yaw_joint_dof,left_knee_joint_dof,left_ankle_pitch_joint_dof,left_ankle_roll_joint_dof,right_hip_pitch_joint_dof,right_hip_roll_joint_dof,right_hip_yaw_joint_dof,right_knee_joint_dof,right_ankle_pitch_joint_dof,right_ankle_roll_joint_dof,waist_yaw_joint_dof,waist_roll_joint_dof,waist_pitch_joint_dof,left_shoulder_pitch_joint_dof,left_shoulder_roll_joint_dof,left_shoulder_yaw_joint_dof,left_elbow_joint_dof,left_wrist_roll_joint_dof,left_wrist_pitch_joint_dof,left_wrist_yaw_joint_dof,right_shoulder_pitch_joint_dof,right_shoulder_roll_joint_dof,right_shoulder_yaw_joint_dof,right_elbow_joint_dof,right_wrist_roll_joint_dof,right_wrist_pitch_joint_dof,right_wrist_yaw_joint_dof
0,1.850321650505066,-0.41615980863571167,78.61730194091797,-0.2322316615776155,-1.8049620140434512,172.3271447971013,6.13486,5.5922575,8.025685,8.666833,-11.573332,-4.7687597,3.4299922,-2.458504,-6.4429383,7.906698,-10.746271,3.012393,0.07866024,2.8112056,9.43733,0.717084,14.154829,-38.120136,52.083897,-2.3923323,5.2018714,13.67483,-7.1973124,-10.147246,41.42175,63.75828,8.749348,0.7604262,-9.725655
1,1.8373889923095703,-0.423000693321228,78.61495971679688,-0.2247911412258762,-1.784408268036555,172.30672156362,6.1428366,5.5782857,8.049649,8.644778,-11.5837965,-4.7620544,3.4300327,-2.467868,-6.4177303,7.8786426,-10.740537,3.0560937,0.0883409,2.8142154,9.432647,0.70197874,14.1669655,-38.118145,52.04441,-2.3662252,5.2025404,13.674399,-7.197506,-10.1454315,41.42791,63.798847,8.738269,0.7706391,-9.699912
2,1.8188178539276123,-0.42761942744255066,78.6128158569336,-0.2166196773635336,-1.763403500455903,172.2855681352663,6.150845,5.563521,8.0744705,8.620551,-11.5929785,-4.755635,3.4293482,-2.4777908,-6.3918447,7.8503423,-10.734296,3.1020997,0.08773623,2.8106692,9.434837,0.7120468,14.212535,-38.103607,51.96113,-2.3417861,5.2056265,13.670925,-7.205458,-10.141237,41.4482,63.83722,8.733536,0.780237,-9.674455
3,1.7934834957122803,-0.431117981672287,78.61066436767578,-0.2097558758370501,-1.7433080394699279,172.26572259598953,6.1591277,5.550121,8.097728,8.599999,-11.604117,-4.7487826,3.429546,-2.4867148,-6.367197,7.8245645,-10.73034,3.143412,0.09003071,2.8096037,9.434408,0.7131504,14.24832,-38.09421,51.896275,-2.3186736,5.206559,13.667108,-7.20806,-10.140348,41.46416,63.87292,8.725818,0.7905202,-9.649261
4,1.7726637125015259,-0.4377294182777405,78.61006164550781,-0.20551233512718603,-1.7256565670936561,172.24898353195286,6.1685715,5.539247,8.117227,8.586562,-11.618411,-4.7410526,3.4317894,-2.4940178,-6.3454943,7.807021,-10.73353,3.1730747,0.09633865,2.8157516,9.427446,0.696752,14.255724,-38.094524,51.872307,-2.2972949,5.2040787,13.663882,-7.2055306,-10.14078,41.471134,63.914024,8.709077,0.80232376,-9.625321
5,1.7475632429122925,-0.4432172179222107,78.60828399658203,-0.20569361526031874,-1.7132321754999684,172.23403105412672,6.1835103,5.53306,8.133874,8.580646,-11.635131,-4.7307487,3.4386034,-2.497071,-6.326604,7.80047,-10.7446785,3.1844318,0.101167634,2.8255985,9.422367,0.6831808,14.260973,-38.098522,51.85464,-2.2798908,5.198987,13.654573,-7.204404,-10.141461,41.481705,63.961487,8.6834755,0.8169545,-9.599978
6,1.7190648317337036,-0.4464986324310303,78.60591125488281,-0.20926723392607124,-1.7045391749074852,172.22032632373828,6.2013574,5.5307403,8.148449,8.582554,-11.655242,-4.718719,3.4475427,-2.496917,-6.3095436,7.8034,-10.762375,3.1827893,0.10146739,2.836144,9.416396,0.67965364,14.277242,-38.111107,51.832775,-2.2750933,5.190683,13.643318,-7.2029524,-10.144063,41.510685,64.01118,8.661833,0.8330383,-9.576512
7,1.6906490325927734,-0.4499090015888214,78.60504150390625,-0.2129030742947449,-1.694297711758982,172.2114901535785,6.217459,5.527219,8.158413,8.583935,-11.675329,-4.707988,3.4572303,-2.4983165,-6.295806,7.8065557,-10.783543,3.1790237,0.09908245,2.8482707,9.408508,0.6738124,14.282966,-38.117176,51.818768,-2.2668967,5.184973,13.633145,-7.1997833,-10.145374,41.52168,64.05836,8.632117,0.8483942,-9.556931
8,1.6608104705810547,-0.4548676311969757,78.60313415527344,-0.21294506855855158,-1.6776533709877521,172.20976788861782,6.22875,5.517426,8.162779,8.575851,-11.692441,-4.7016635,3.4644766,-2.5059712,-6.285285,7.8038764,-10.806421,3.184002,0.0821793,2.8600125,9.392926,0.68283015,14.296032,-38.124264,51.78482,-2.2818906,5.1845994,13.631598,-7.19812,-10.148855,41.540577,64.100784,8.629296,0.85467684,-9.549643
9,1.6273525953292847,-0.4621402323246002,78.60037994384766,-0.2085801068813651,-1.6524350234641314,172.22134746564248,6.232049,5.498673,8.155754,8.554224,-11.704608,-4.7023416,3.4693053,-2.5224404,-6.285003,7.7927194,-10.830123,3.1994517,0.04789772,2.869297,9.370687,0.693551,14.305239,-38.11871,51.743828,-2.312422,5.194567,13.639858,-7.1961374,-10.152116,41.54271,64.13495,8.641949,0.84984016,-9.559962
10,1.5974147319793701,-0.47015854716300964,78.5960464477539,-0.20167434032083043,-1.6218394325711567,172.24281828850462,6.230949,5.4740252,8.140141,8.522944,-11.713331,-4.7078176,3.4737115,-2.5444286,-6.2923937,7.776153,-10.855683,3.219969,-0.0001806331,2.8779352,9.342884,0.70770526,14.311916,-38.107506,51.697186,-2.3593025,5.211118,13.655014,-7.193701,-10.1553,41.53736,64.16383,8.668595,0.83696926,-9.583592
11,1.5691581964492798,-0.47902506589889526,78.59233093261719,-0.1928312062422278,-1.5879399899421571,172.264031604488,6.228447,5.4471936,8.125555,8.489181,-11.721751,-4.713869,3.4766705,-2.5688026,-6.295077,7.757073,-10.884072,3.2457914,-0.05255908,2.886861,9.31669,0.7361631,14.321965,-38.084007,51.63354,-2.3967793,5.2281337,13.669126,-7.1953273,-10.161221,41.526703,64.18452,8.695942,0.82398236,-9.6053
12,1.5343883037567139,-0.4869198501110077,78.58860778808594,-0.18319235590151395,-1.5528771495309996,172.27442539672867,6.228251,5.4216557,8.121857,8.45768,-11.731649,-4.7165947,3.4792025,-2.5914063,-6.2806234,7.7351384,-10.915562,3.276993,-0.087488264,2.8911119,9.288467,0.75434315,14.327679,-38.06957,51.596085,-2.4192915,5.232094,13.678049,-7.1951265,-10.165692,41.517365,64.19678,8.724174,0.81805354,-9.617386
13,1.505138635635376,-0.49497443437576294,78.58350372314453,-0.17398760129891686,-1.515556063146076,172.27618018583408,6.2302694,5.3996325,8.127024,8.426866,-11.741202,-4.717155,3.4827404,-2.6108737,-6.2510405,7.706782,-10.950284,3.3125496,-0.11018688,2.8941743,9.259536,0.7783494,14.333436,-38.05519,51.56448,-2.4068756,5.223394,13.679006,-7.1917005,-10.171479,41.501923,64.1942,8.751893,0.82171196,-9.615921
14,1.4676339626312256,-0.5008609890937805,78.58061981201172,-0.16476373630089639,-1.4757950519899559,172.2731944476593,6.2320485,5.3793917,8.137206,8.397188,-11.751007,-4.716975,3.4863806,-2.6289446,-6.2113633,7.674893,-10.98949,3.3527133,-0.12502508,2.8952475,9.229311,0.80385834,14.33693,-38.04264,51.540154,-2.373843,5.2058444,13.675423,-7.1842165,-10.176262,41.481308,64.17747,8.781699,0.83090025,-9.607846
15,1.4252758026123047,-0.5033801794052124,78.57704162597656,-0.1537708741033824,-1.4357083452441985,172.25799331418153,6.239443,5.357802,8.159982,8.364159,-11.761241,-4.7121525,3.4885507,-2.6470435,-6.1537323,7.6413794,-11.028997,3.3999324,-0.12411803,2.8954086,9.2015085,0.8315391,14.339255,-38.03134,51.51829,-2.3340194,5.1848125,13.670105,-7.1834497,-10.180664,41.46101,64.160645,8.798586,0.8455623,-9.590611
16,1.3856745958328247,-0.5126246809959412,78.57084655761719,-0.13936971154150804,-1.3983738429157222,172.22404463186425,6.2540336,5.331939,8.201471,8.333253,-11.777084,-4.6988235,3.4892578,-2.6673534,-6.0713506,7.609452,-11.0662775,3.456593,-0.103094466,2.895024,9.1849165,0.85021967,14.343007,-38.02176,51.504284,-2.3155723,5.1619782,13.665592,-7.204875,-10.190518,41.452896,64.157524,8.800299,0.8613576,-9.562426
17,1.3460990190505981,-0.5262051224708557,78.56403350830078,-0.12380612970553,-1.3730413805189594,172.17539295271698,6.278029,5.3052187,8.255204,8.321196,-11.80792,-4.67172,3.5030663,-2.6893568,-5.9681034,7.574051,-11.099301,3.520976,-0.06338706,2.8909667,9.180291,0.85680944,14.343759,-38.02096,51.50949,-2.3295271,5.138899,13.665327,-7.2304044,-10.193758,41.458916,64.16465,8.784752,0.8794936,-9.533187
18,1.3055131435394287,-0.5342996120452881,78.55857849121094,-0.10401950823614498,-1.3578258818303417,172.09813272315398,6.3311734,5.2736397,8.338195,8.289608,-11.835281,-4.6345286,3.5138342,-2.7151284,-5.82867,7.5584593,-11.139625,3.5924416,-0.036141846,2.8982766,9.200844,0.89267236,14.348517,-37.989105,51.488667,-2.3687222,5.101559,13.669774,-7.308831,-10.223243,41.53947,64.18934,8.793925,0.90762347,-9.483171
19,1.2699002027511597,-0.5476080775260925,78.5525131225586,-0.08129482181791081,-1.3300704381723503,172.0108712052099,6.3711777,5.237764,8.432458,8.260306,-11.864247,-4.5963116,3.5132153,-2.7431579,-5.675837,7.530314,-11.171617,3.6752038,0.01768475,2.897605,9.208923,0.9096278,14.349526,-37.97742,51.488396,-2.4108999,5.072804,13.6745405,-7.392509,-10.241471,41.621883,64.22559,8.779401,0.93190074,-9.433518
20,1.227695345878601,-0.5635848641395569,78.54656219482422,-0.0491322464370862,-1.2711112444603982,171.90875604788008,6.391275,5.188201,8.547349,8.201819,-11.8764305,-4.5661993,3.4786046,-2.7780125,-5.5045943,7.4872165,-11.192357,3.7718058,0.06635725,2.8907745,9.194689,0.9380788,14.347999,-37.95534,51.47402,-2.43997,5.0582767,13.680938,-7.5051627,-10.267544,41.776604,64.26724,8.768919,0.9526106,-9.383901
21,1.1931345462799072,-0.583881676197052,78.53851318359375,-0.008192102669984878,-1.165301872907556,171.79121007084333,6.381324,5.124134,8.688938,8.098584,-11.862407,-4.5550127,3.3024175,-2.8306494,-5.3083115,7.6150627,-11.297257,3.8905451,0.11628026,2.8784082,9.142739,0.9746039,14.341536,-37.92508,51.446102,-2.451706,5.064068,13.692216,-7.646342,-10.302835,42.004444,64.315186,8.750202,0.96617854,-9.334103
22,1.1612344980239868,-0.602599024772644,78.52468872070312,0.06320794759356461,-1.024032314194989,171.65371181544654,6.359886,5.0219264,8.861098,7.9417405,-11.819414,-4.5527973,2.7501767,-2.947405,-5.0664096,8.441937,-11.766024,4.0286365,0.17775236,2.8389053,9.063289,1.0133125,14.329116,-37.89219,51.413433,-2.4550114,5.0837097,13.707523,-7.8100305,-10.345293,42.28768,64.36656,8.723148,0.97601944,-9.281858
23,1.1348285675048828,-0.6295164227485657,78.50959014892578,0.13965520822145083,-0.8745288156148273,171.50223990774634,6.3336744,4.9115763,9.044377,7.780051,-11.7746725,-4.543413,2.1960387,-3.0648816,-4.8091664,9.243396,-12.218788,4.16654,0.24155512,2.7963867,8.984459,1.0494617,14.311364,-37.857773,51.384155,-2.4520955,5.107473,13.718354,-8.000812,-10.394546,42.615673,64.42498,8.705336,0.9858414,-9.225233
24,1.1003044843673706,-0.6552900075912476,78.49525451660156,0.224649130408948,-0.7386563950224064,171.33597994364425,6.314933,4.7903023,9.229221,7.6385655,-11.742581,-4.5067925,1.6619797,-3.1838942,-4.5394773,10.031152,-12.667191,4.289929,0.32682225,2.742419,8.92694,1.0683767,14.2972355,-37.848953,51.369244,-2.453124,5.126761,13.716928,-8.2215805,-10.433145,42.947155,64.50466,8.703732,0.99787295,-9.161605
25,1.0675708055496216,-0.6769959330558777,78.47875213623047,0.3213305474959476,-0.6208657608957603,171.14736667973887,6.305371,4.6557007,9.415473,7.5258555,-11.7315,-4.429029,1.1282145,-3.3059344,-4.2482815,10.853497,-13.127365,4.38225,0.37646773,2.6796932,8.900469,1.1094176,14.2761,-37.785408,51.34636,-2.4411092,5.142831,13.691427,-8.478895,-10.494899,43.370743,64.58232,8.772571,1.0141009,-9.095918
26,1.039813756942749,-0.7060413360595703,78.44972229003906,0.40131330279298005,-0.5048238741452201,170.9469002226502,6.026594,4.5834184,9.575391,7.996352,-12.030489,-4.3290415,0.55704737,-3.4068515,-3.946463,11.750807,-13.622036,4.452407,0.4654254,2.62683,8.880899,1.1270581,14.265118,-37.770443,51.33668,-2.4426317,5.161941,13.654283,-8.760813,-10.535489,43.7707,64.69049,8.852093,1.0277945,-9.024192
27,0.9977793097496033,-0.7338712215423584,78.42003631591797,0.47625362866299453,-0.39176022115982007,170.74251214219245,5.6739035,4.52745,9.729811,8.635784,-12.414088,-4.221947,-0.0033689423,-3.501709,-3.6434858,12.630071,-14.118716,4.5313883,0.5141167,2.584581,8.878146,1.1616743,14.254092,-37.719917,51.315178,-2.4249053,5.1721706,13.611475,-9.079505,-10.590492,44.257557,64.79461,8.946051,1.0501541,-8.945471
28,0.9742364287376404,-0.7736273407936096,78.378662109375,0.5380143808792106,-0.27982528992899924,170.5481116661581,5.282173,4.4886026,9.878995,9.362886,-12.8369255,-4.1253524,-0.519144,-3.5858777,-3.3581958,13.425697,-14.599078,4.650171,0.5694478,2.5601459,8.887476,1.1702735,14.247994,-37.71282,51.30947,-2.3996618,5.164896,13.580045,-9.420531,-10.646729,44.755085,64.894806,8.993087,1.0851445,-8.852194
29,0.9428464770317078,-0.8145477771759033,78.3353500366211,0.5957396668288959,-0.16308412350617615,170.3664387224277,4.839712,4.460174,10.024048,10.189053,-13.305339,-4.0388837,-0.9973656,-3.6675937,-3.0927405,14.143027,-15.071392,4.8234887,0.6202568,2.544683,8.904582,1.1545798,14.247068,-37.750126,51.32265,-2.359937,5.130316,13.572827,-9.786814,-10.70437,45.278137,64.98813,8.976207,1.148902,-8.741253
30,0.9106664061546326,-0.8624293804168701,78.28880310058594,0.6516947983772932,-0.04496399880695602,170.18966693493698,4.3495407,4.440846,10.165935,11.117978,-13.823876,-3.953381,-1.4474479,-3.7471902,-2.8386683,14.805056,-15.541564,5.0348167,0.6842676,2.5323088,8.92936,1.1093563,14.250395,-37.839222,51.36016,-2.314268,5.076102,13.581012,-10.178626,-10.750072,45.80642,65.09178,8.909737,1.2318082,-8.615382
31,0.8818108439445496,-0.9200520515441895,78.23773193359375,0.684519115073679,0.06329852242037706,170.0170099576764,3.8146937,4.4540424,10.298537,12.170082,-14.394258,-3.8743618,-1.8487029,-3.804979,-2.6013703,15.3943205,-15.988568,5.2683434,0.7119458,2.5525258,8.977703,1.0785407,14.257545,-37.89718,51.377197,-2.253222,5.0176897,13.577469,-10.597687,-10.816047,46.41226,65.17644,8.853236,1.3077968,-8.482265
32,0.8307046890258789,-0.9880068898200989,78.18355560302734,0.6727645188392767,0.15050176201170454,169.84765011391275,3.2386448,4.524008,10.414897,13.366065,-15.018722,-3.8065705,-2.17727,-3.820642,-2.3862147,15.886577,-16.391375,5.508256,0.74712783,2.6259418,9.054294,1.0382221,14.265374,-37.955063,51.385124,-2.195366,4.9718385,13.5433,-11.0320635,-10.891458,47.03364,65.25274,8.818392,1.3453724,-8.34537
33,0.7982838153839111,-1.0633845329284668,78.12168884277344,0.6042185926786429,0.21308767836024659,169.68775036530536,2.6141326,4.669162,10.503466,14.727328,-15.724467,-3.7533865,-2.4125671,-3.7794456,-2.2004094,16.251621,-16.744522,5.7569404,0.7772612,2.767171,9.158137,0.9896029,14.270633,-38.012646,51.387383,-2.1393545,4.9569483,13.458412,-11.50033,-10.968578,47.689713,65.352684,8.822477,1.3141576,-8.183345
34,0.7574836015701294,-1.14580237865448,78.05667877197266,0.4932634866160336,0.2573182225259075,169.53547572561845,1.9459261,4.875883,10.5684185,16.228703,-16.499926,-3.7073445,-2.5696092,-3.695343,-2.0397933,16.505806,-17.058273,6.0215297,0.78135246,2.9637623,9.289582,0.9456952,14.2736435,-38.047745,51.374416,-2.07389,4.959058,13.336897,-11.994778,-11.067452,48.410847,65.44286,8.858808,1.24001,-8.001076
35,0.7083210945129395,-1.2281315326690674,77.98570251464844,0.35743740421489645,0.28694834259858776,169.37865143973946,1.2471286,5.121592,10.62551,17.835472,-17.288025,-3.6576908,-2.6817775,-3.5912142,-1.8931398,16.702427,-17.336716,6.292564,0.7991556,3.1916935,9.443859,0.8900011,14.272985,-38.077507,51.359444,-2.0110333,4.9463325,13.2147875,-12.487639,-11.177675,49.13616,65.500114,8.893163,1.1707681,-7.8439474
36,0.6387099623680115,-1.3274017572402954,77.9177474975586,0.21400914118791317,0.3059647454109538,169.20524445075114,0.5377313,5.380184,10.692602,19.500376,-18.028023,-3.595524,-2.7765014,-3.489093,-1.7492415,16.881948,-17.58059,6.5606804,0.843886,3.4304671,9.620076,0.8259921,14.267487,-38.085476,51.338512,-1.9539124,4.886641,13.125478,-12.954523,-11.300386,49.840626,65.487,8.903067,1.1560767,-7.75831
37,0.5880484580993652,-1.4298778772354126,77.84357452392578,0.05524087862491435,0.3228425708368924,169.01246566281992,-0.19592062,5.6623445,10.785883,21.236649,-18.718594,-3.5280511,-2.8703797,-3.382263,-1.6114948,17.050291,-17.770586,6.8204665,0.92504936,3.6926587,9.8145685,0.74266815,14.256136,-38.07887,51.31908,-1.8998958,4.7706056,13.081912,-13.408303,-11.438732,50.534504,65.39836,8.870883,1.2216597,-7.751079
38,0.5436590313911438,-1.5422265529632568,77.76957702636719,-0.12445471924877434,0.3329842530979414,168.8067735718836,-0.9531288,5.975719,10.891393,23.05041,-19.381943,-3.4563744,-2.943541,-3.2618868,-1.4836934,17.182219,-17.911472,7.0777597,1.0312618,3.9848676,10.028474,0.6426205,14.238233,-38.06028,51.300755,-1.8474348,4.615587,13.065192,-13.855766,-11.594782,51.229588,65.249146,8.814617,1.3373059,-7.799041
39,0.4681631028652191,-1.6623258590698242,77.70394897460938,-0.30718568219805903,0.32086338325585506,168.59003917904568,-1.6988765,6.290192,10.983087,24.899794,-19.999535,-3.3652227,-2.975605,-3.1461318,-1.3551623,17.28633,-18.039516,7.339439,1.1508112,4.279319,10.26764,0.5440662,14.213799,-38.013386,51.271183,-1.8033626,4.4295397,13.0604105,-14.258687,-11.765196,51.89187,65.02995,8.760253,1.4683834,-7.903611
40,0.37535417079925537,-1.7898648977279663,77.6399154663086,-0.4744841935024063,0.2709113831939254,168.3645177707161,-2.396624,6.5739684,11.036129,26.738035,-20.551426,-3.2398639,-2.9482377,-3.053093,-1.2153639,17.376753,-18.193865,7.612172,1.2724954,4.548078,10.537834,0.46545464,14.183581,-37.92359,51.21746,-1.7752174,4.220543,13.05304,-14.581545,-11.943047,52.48954,64.735985,8.739089,1.5796827,-8.066813
41,0.27431055903434753,-1.9193873405456543,77.58209228515625,-0.6362610310078867,0.16460784218186092,168.12549512184665,-3.0239072,6.8416753,11.056052,28.579224,-21.00323,-3.0993922,-2.8078966,-2.968762,-1.0628531,17.39082,-18.35926,7.9019613,1.396685,4.798889,10.85438,0.41523093,14.147739,-37.76861,51.140285,-1.7653648,3.9603045,13.018627,-14.826814,-12.125098,53.027966,64.37051,8.772245,1.6639609,-8.317178
42,0.1676890254020691,-2.0536715984344482,77.52942657470703,-0.7972201315698411,0.01503903723887626,167.87376101724357,-3.6002297,7.0999637,11.054468,30.430004,-21.370594,-2.9457855,-2.5795178,-2.8898995,-0.90258074,17.340912,-18.521927,8.203392,1.5262041,5.0419765,11.208731,0.38321087,14.106733,-37.560818,51.04483,-1.7696298,3.6547627,12.971705,-15.014391,-12.3105135,53.521584,63.94252,8.84157,1.738487,-8.64499
43,0.05668966844677925,-2.206232786178589,77.46989440917969,-0.9320267532284393,-0.14505546524165855,167.6195368059904,-4.1641726,7.306643,11.015019,32.258553,-21.716063,-2.739233,-2.3645186,-2.8512008,-0.73481673,17.357172,-18.724445,8.506546,1.6542299,5.2517056,11.570724,0.36010092,14.062109,-37.338005,50.925304,-1.785965,3.3633208,12.956145,-15.134951,-12.494838,53.94236,63.461456,8.9071045,1.8044488,-8.995402
44,-0.07181724905967712,-2.3582394123077393,77.40762329101562,-1.0157442723105714,-0.2828526692756616,167.3727861778863,-4.7556114,7.41942,10.920617,34.03523,-22.103882,-2.439785,-2.2649884,-2.887351,-0.5600521,17.571014,-19.009789,8.801815,1.7756379,5.4017105,11.910148,0.33577612,14.01608,-37.14045,50.777016,-1.8131107,3.1454632,13.016008,-15.180481,-12.671841,54.261417,62.940983,8.929273,1.8634257,-9.313447
45,-0.207549050450325,-2.514799118041992,77.35501098632812,-1.0444234764813212,-0.3881334547796877,167.1426081922996,-5.385421,7.4237347,10.756196,35.76009,-22.550438,-2.0042422,-2.2564697,-3.008875,-0.3841466,17.918764,-19.382814,9.137364,1.886032,5.478635,12.214361,0.31310225,13.969648,-36.99276,50.602417,-1.9056649,3.0162928,13.190848,-15.145259,-12.835684,54.472363,62.381664,8.859825,1.9307503,-9.613701
46,-0.3440958559513092,-2.674790382385254,77.29379272460938,-1.030828992264937,-0.4783655945725296,166.92151323082146,-6.0337944,7.33948,10.535795,37.4494,-23.022429,-1.466765,-2.3045914,-3.1986125,-0.20517753,18.365854,-19.822575,9.501755,1.9909323,5.4975214,12.500962,0.29522446,13.922771,-36.870983,50.4028,-2.0468185,2.9440687,13.448173,-15.038628,-12.984151,54.585728,61.78709,8.730666,2.0007472,-9.916153
47,-0.48383161425590515,-2.8554563522338867,77.22180938720703,-0.9726854682175554,-0.5622580467839752,166.6939581570282,-6.6936955,7.1750417,10.286454,39.09742,-23.510338,-0.90123874,-2.492802,-3.4503567,-0.010018513,19.080685,-20.33176,9.794934,2.100131,5.4729404,12.785682,0.27476647,13.876266,-36.740234,50.169422,-2.1274018,2.9192,13.724321,-14.877437,-13.117452,54.600903,61.174656,8.624039,2.0428913,-10.174225
48,-0.6087579131126404,-3.056096315383911,77.12770080566406,-0.864080438293028,-0.6477905852528105,166.4439836579981,-7.357331,6.9376736,10.035757,40.698376,-24.005503,-0.38155589,-2.9013624,-3.7602234,0.2184379,20.224823,-20.910833,9.916276,2.2236664,5.4158792,13.084022,0.24312033,13.831918,-36.56545,49.89375,-2.0382879,2.9331143,13.95515,-14.67956,-13.238237,54.51941,60.56247,8.623618,2.025619,-10.341484
49,-0.747124195098877,-3.252322196960449,77.01542663574219,-0.675670275729409,-0.7202551288608565,166.15603171233454,-8.0148,6.6039147,9.8323765,42.213146,-24.521967,0.10575764,-3.5947652,-4.1582637,0.4883355,21.89672,-21.55939,9.785645,2.3806152,5.302566,13.374814,0.19947879,13.788823,-36.35712,49.59312,-1.7168273,3.0311275,14.109323,-14.413355,-13.345129,54.28708,59.956696,8.778227,1.9017737,-10.417569
50,-0.8894193172454834,-3.4595072269439697,76.88798522949219,-0.4067221042634323,-0.7784793165824574,165.84097028094155,-8.671299,6.1653595,9.654273,43.658527,-25.060764,0.59248,-4.5064926,-4.6484957,0.8035841,23.961369,-22.264055,9.473195,2.564814,5.1230965,13.658872,0.14408639,13.74684,-36.129242,49.267487,-1.2328188,3.203016,14.22431,-14.083588,-13.43621,53.915817,59.344833,9.033753,1.7013049,-10.42355
51,-1.0234938859939575,-3.6785061359405518,76.72505187988281,-0.0945539413443495,-0.8521992467170932,165.52230639257894,-9.341831,5.653305,9.42446,45.11391,-25.594156,1.036402,-5.5187135,-5.1832423,1.1732153,26.233501,-23.00927,9.105822,2.7451518,4.9096565,13.985216,0.07334503,13.711994,-35.84746,48.877876,-0.6749961,3.3577816,14.339687,-13.763605,-13.515855,53.51418,58.715767,9.321056,1.5088754,-10.344732
52,-1.1457288265228271,-3.9240713119506836,76.52139282226562,0.21463903452482885,-0.9726183789408127,165.22482717243642,-10.042272,5.1054187,9.06325,46.65738,-26.09126,1.3919725,-6.5197744,-5.7043467,1.596351,28.552168,-23.783443,8.813163,2.8840067,4.7024894,14.403593,-0.007516952,13.695539,-35.47001,48.37381,-0.1296062,3.4050426,14.49626,-13.52254,-13.592459,53.197002,58.053894,9.570932,1.4095275,-10.16708
53,-1.272088646888733,-4.17690896987915,76.28888702392578,0.5335959533789846,-1.148831445005935,164.95200839177969,-10.76756,4.447177,8.49229,48.259357,-26.531479,1.6216215,-7.5395894,-6.2170444,2.1025074,30.980532,-24.566807,8.612121,2.9642506,4.4852962,14.929065,-0.07139359,13.704712,-34.98236,47.735023,0.4234906,3.3060153,14.719183,-13.346052,-13.67267,53.011963,57.338158,9.764881,1.4424859,-9.876674
54,-1.383849859237671,-4.434664726257324,76.01188659667969,0.8775880078348137,-1.3640597865069612,164.69170487300948,-11.511414,3.6827528,7.7796183,49.899513,-26.934414,1.7531586,-8.607387,-6.732522,2.6767132,33.559772,-25.363045,8.448895,3.0037653,4.244756,15.536912,-0.1171699,13.743996,-34.39964,46.97148,1.0184768,3.1158838,14.982601,-13.206312,-13.758711,52.90194,56.5735,9.942414,1.5584375,-9.484918
55,-1.4795300960540771,-4.6794633865356445,75.6796875,1.1976883667050235,-1.6126893937337243,164.44529758245739,-12.292157,2.975794,7.059227,51.673046,-27.331991,1.838445,-9.6227,-7.2008376,3.2443516,36.124607,-26.216793,8.342558,3.0178685,4.0334425,16.216265,-0.17781527,13.823812,-33.729713,46.07516,1.5866185,2.8844905,15.2496605,-13.145216,-13.852843,52.821697,55.779648,10.118094,1.7092917,-9.015219
56,-1.5819288492202759,-4.940033435821533,75.31726837158203,1.442401554149075,-1.8893826790169967,164.2145024778352,-13.131897,2.495319,6.45783,53.673225,-27.756556,1.9329067,-10.496299,-7.5816274,3.733484,38.526066,-27.182173,8.301663,3.018324,3.9057581,16.956636,-0.28060225,13.959021,-32.979965,45.03192,2.0583248,2.6606987,15.481855,-13.209214,-13.957387,52.730232,54.978794,10.308865,1.8465126,-8.490306
57,-1.687247633934021,-5.19506311416626,74.90386962890625,1.6032374890282997,-2.192715468235155,163.9996811069881,-14.053126,2.265944,5.9878044,55.950764,-28.188387,2.0150523,-11.223047,-7.8777914,4.1198406,40.76861,-28.343596,8.320586,2.9949727,3.865457,17.753098,-0.4350058,14.167465,-32.195248,43.839283,2.4174364,2.4274604,15.662548,-13.378098,-14.077517,52.599594,54.123806,10.446796,1.9493594,-7.7942505
58,-1.7653534412384033,-5.428945541381836,74.44530487060547,1.7016614370556533,-2.526203068306744,163.80043706980973,-15.038308,2.209368,5.5807843,58.441433,-28.621431,2.0678375,-11.858097,-8.114231,4.4434876,42.943665,-29.663319,8.389775,2.9457178,3.8878093,18.613739,-0.60299057,14.456831,-31.36209,42.47651,2.6969807,2.1690464,15.812165,-13.632588,-14.217937,52.455956,53.20937,10.544869,2.0462365,-6.9545064
59,-1.8110241889953613,-5.666255474090576,73.92560577392578,1.730756333677214,-2.892802839492634,163.61800671307685,-16.052038,2.3484194,5.2341523,61.06684,-29.10355,2.1588922,-12.405707,-8.287244,4.728144,45.036804,-31.014812,8.509357,2.8873615,3.9872525,19.547894,-0.7416064,14.822673,-30.394821,40.905155,2.9019032,1.9355874,15.945718,-14.022012,-14.375949,52.343407,52.324154,10.743431,2.1644924,-6.2098603
60,-1.880128264427185,-5.895558834075928,73.39932250976562,1.683938291889168,-3.2956308944436365,163.45381197793517,-17.059362,2.70733,4.94037,63.747635,-29.683252,2.3576996,-12.86536,-8.388272,4.9933443,47.02723,-32.268066,8.681357,2.8324707,4.17994,20.56386,-0.81545633,15.25231,-29.201773,39.096516,3.0384588,1.7772987,16.077993,-14.603559,-14.540784,52.31001,51.566727,11.186419,2.3325803,-5.8000207
61,-1.952995777130127,-6.127590656280518,72.85819244384766,1.55790399609424,-3.7642164372477462,163.30996017638688,-18.040028,3.3520138,4.7489734,66.545456,-30.43082,2.705978,-13.233196,-8.403776,5.2469835,48.977455,-33.439556,8.919169,2.777193,4.480819,21.704287,-0.8179008,15.727126,-27.715845,37.044533,3.072575,1.6964369,16.237906,-15.392822,-14.699039,52.35862,51.000484,12.204166,2.6217604,-5.7937455
62,-2.026550531387329,-6.3870086669921875,72.3106918334961,1.3547506933991214,-4.288020555972073,163.1866224658909,-19.013159,4.2607365,4.6236515,69.46878,-31.30531,3.1681654,-13.510466,-8.341844,5.4721823,50.880943,-34.58229,9.217656,2.7046134,4.879743,22.947975,-0.7714196,16.242147,-25.989346,34.783573,3.0134559,1.6691769,16.408083,-16.36933,-14.842045,52.472744,50.580036,13.627702,2.9870641,-6.0697374
63,-2.1039187908172607,-6.657931804656982,71.7734375,1.0765238919588653,-4.808513509300381,163.08295341677004,-20.008472,5.3195887,4.433699,72.359764,-32.186054,3.6964734,-13.703602,-8.221802,5.6503234,52.610523,-35.62118,9.552966,2.612814,5.3562493,24.208382,-0.68448216,16.811214,-24.11158,32.334454,2.9317825,1.7082491,16.533794,-17.53283,-14.963492,52.665028,50.234417,14.848974,3.2833693,-6.5736375
64,-2.152855634689331,-6.940902233123779,71.26471710205078,0.7260633105283271,-5.2674128773230695,162.99748350617017,-21.061605,6.404599,4.059758,75.06168,-32.946266,4.237235,-13.817904,-8.062895,5.763858,54.033287,-36.481888,9.901145,2.5007646,5.8876147,25.40212,-0.5469294,17.462877,-22.169256,29.68772,2.8975058,1.8274868,16.55804,-18.884277,-15.057904,52.95407,49.88923,15.255872,3.379215,-7.238811
65,-2.2433762550354004,-7.218361854553223,70.82060241699219,0.22311464617846993,-5.690534281614329,162.95917740411844,-22.191875,7.5847874,3.4283357,77.621284,-33.585793,4.8351836,-13.792238,-7.792566,5.741686,55.097214,-37.13403,10.247888,2.3214023,6.552193,26.579496,-0.30317438,18.222675,-20.146536,26.748318,2.8006816,2.0689642,16.47849,-20.513264,-15.118534,53.459053,49.716934,14.426359,3.223892,-8.197665
66,-2.34505558013916,-7.536096096038818,70.42981719970703,-0.4081172265093181,-6.094282323656515,162.96058812838845,-23.392147,8.879736,2.6085844,80.08821,-34.15456,5.496391,-13.647922,-7.423301,5.6171966,55.88046,-37.61882,10.607267,2.0863435,7.3234787,27.772438,0.0718013,19.097364,-17.99436,23.487213,2.6393492,2.4160542,16.316603,-22.388895,-15.132051,54.14555,49.678673,12.767306,2.926479,-9.433799
67,-2.469691276550293,-7.883359432220459,70.09943389892578,-1.0052689318350734,-6.407589551571657,162.94318884973717,-24.652855,10.089533,1.7194432,82.314964,-34.601234,6.1040277,-13.507216,-7.1070733,5.5246124,56.438034,-37.967167,11.003816,1.8924699,8.026349,28.863558,0.5491559,20.083412,-15.754476,19.989748,2.6456265,2.7935567,16.050856,-24.337885,-15.086081,54.797688,49.3983,10.91462,2.586454,-10.652244
68,-2.616334915161133,-8.240754127502441,69.83193969726562,-1.4040725974373724,-6.560834766058861,162.84489377281727,-25.954985,11.017398,0.8951275,84.16767,-34.87366,6.538895,-13.492729,-6.99723,5.596365,56.829704,-38.207,11.461023,1.8471704,8.491214,29.723507,1.0885481,21.165148,-13.477979,16.365913,3.0491152,3.1203973,15.660124,-26.201042,-14.982612,55.189404,48.523975,9.51423,2.2586277,-11.552903
69,-2.80295991897583,-8.599929809570312,69.64251708984375,-1.5206848799872836,-6.407009085709232,162.61951832199608,-27.440742,11.578394,0.20749417,85.606865,-34.91991,6.7510247,-13.830882,-7.16122,5.9192677,57.13833,-38.35251,12.004221,2.1490037,8.68184,29.793802,1.4427658,22.265966,-11.399193,13.131229,4.0094132,3.3728812,15.077656,-27.62657,-14.826771,55.116467,46.976936,8.883226,1.8538592,-11.998681
70,-3.04555082321167,-8.991257667541504,69.52503204345703,-1.4519187757218677,-6.131481723637439,162.31069889780676,-28.92797,11.884923,-0.3988107,86.700516,-34.78919,6.802989,-14.258917,-7.5141554,6.407603,57.290775,-38.395992,12.615423,2.5896037,8.65341,29.793802,1.8686553,23.475,-9.224813,9.622621,5.3816485,3.5794516,14.376884,-29.097704,-14.626134,54.736076,44.925674,8.581078,1.3480192,-12.228871
71,-3.325011968612671,-9.390356063842773,69.48005676269531,-1.319336266949109,-5.802089093005117,161.98211877848738,-30.365297,12.050477,-1.0008267,87.52762,-34.541054,6.7498302,-14.611869,-7.95898,6.9357657,57.166214,-38.307217,13.252006,3.065897,8.577171,29.793802,2.362878,24.658102,-7.003557,5.988117,6.9402695,3.726887,13.626928,-30.677479,-14.428986,54.32618,42.539803,8.286419,0.90045077,-12.303422
72,-3.6415655612945557,-9.826921463012695,69.50468444824219,-1.244775193335194,-5.466098094179984,161.6953173676055,-31.733246,12.186381,-1.6843086,88.169,-34.23318,6.6481457,-14.754807,-8.39906,7.374856,56.650352,-38.053757,13.870449,3.5313158,8.588038,29.793802,2.952876,25.826748,-4.8286767,2.3262959,8.384758,3.8183837,12.890997,-32.146637,-14.20528,53.960007,39.85436,7.4060516,0.6795524,-12.289334
73,-3.9817235469818115,-10.293214797973633,69.59104919433594,-1.2369942420296225,-5.117537005642908,161.42903851519992,-33.047764,12.325722,-2.4524128,88.62008,-33.879353,6.480531,-14.720459,-8.806172,7.740156,55.76299,-37.648113,14.480468,3.8871436,8.490659,29.793802,4.008579,27.227695,-2.3506734,-1.7103219,9.477066,3.8613222,12.163776,-34.04221,-13.956827,54.1754,36.953938,6.40445,0.71621174,-12.16643
74,-4.381954193115234,-10.759429931640625,69.76882934570312,-1.2446171264821724,-4.744281357670159,161.16265760774903,-34.30226,12.411171,-3.2704768,88.84781,-33.452663,6.224821,-14.546441,-9.211817,8.08684,54.542747,-37.096836,15.000033,4.2811737,8.378613,29.793802,5.182271,28.65515,0.24134813,-5.8791842,10.459633,3.851126,11.439268,-35.839966,-13.662798,54.367947,33.606743,4.8825293,0.94202304,-11.922223
75,-4.821327209472656,-11.226696014404297,70.02608489990234,-1.3567323622816112,-4.362610542631087,160.94372858421633,-35.485035,12.478279,-4.237085,88.9057,-32.955215,5.898614,-14.114511,-9.476615,8.33755,52.887764,-36.34174,15.000033,4.6272144,8.35101,29.793802,6.561983,30.051823,2.8175185,-10.084726,11.436222,3.7970257,10.74524,-37.641216,-13.351455,54.6699,30.040865,3.2631874,1.2726142,-11.552392
76,-5.314272403717041,-11.703897476196289,70.35330200195312,-1.4969847100418014,-3.9734340777663157,160.84505004702032,-36.560474,12.39779,-5.279017,88.80298,-32.359848,5.5915565,-13.381433,-9.834743,8.429224,50.764343,-35.367287,15.000033,4.8607273,8.336803,29.793802,8.253119,31.440437,5.236551,-14.272047,12.471667,3.7091374,10.104565,-39.307674,-13.025921,55.019325,26.33924,1.7097726,1.6334251,-11.068462
77,-5.882872104644775,-12.195169448852539,70.75149536132812,-1.6779498899378804,-3.47340039502158,160.90114959588428,-37.650284,12.168362,-6.401902,88.54608,-31.70984,5.4017353,-12.409394,-10.270091,8.322609,48.08613,-34.18636,15.000033,5.040666,8.424126,29.3373,10.013472,32.8702,7.182073,-17.974026,13.7480955,3.5879972,9.508888,-40.59839,-12.678631,55.41028,22.482609,0.26182777,2.0840507,-10.371578
78,-6.522222518920898,-12.715786933898926,71.21033477783203,-1.887454613693655,-2.893467546221176,161.07227864889154,-38.7137,11.80828,-7.5912385,88.11897,-30.997835,5.2742147,-11.201576,-10.755466,8.050337,44.899883,-32.804615,15.000033,5.1823463,8.565549,28.585802,11.902425,34.370007,8.8429365,-21.411213,15.163374,3.4310422,8.955013,-41.63179,-12.319776,55.842636,18.401297,-1.1924759,2.625141,-9.481836
79,-7.207241535186768,-13.252277374267578,71.7158432006836,-2.0599594501341993,-2.281923854568397,161.312264778757,-39.668976,11.263653,-8.800502,87.516396,-30.097694,5.0448184,-9.798789,-11.346728,7.654602,41.379425,-31.160961,15.000033,5.2945776,8.645696,27.741838,14.039275,35.920532,10.340981,-24.73291,16.409763,3.2345538,8.439574,-42.46243,-11.970611,56.312325,14.291021,-2.57336,3.0933466,-8.55506
80,-7.971142768859863,-13.81729507446289,72.26260375976562,-2.13415985787318,-1.6570740627894227,161.57634181039012,-40.472008,10.47808,-9.993581,86.738754,-28.881762,4.544918,-8.286839,-12.094883,7.1777573,37.70861,-29.201073,15.000033,5.4255786,8.590302,26.860321,16.416586,37.490456,11.663747,-27.905106,17.206795,2.9977012,7.9455695,-43.06039,-11.648806,56.803864,10.398781,-3.7924042,3.3333037,-7.74212
81,-8.778149604797363,-14.40102767944336,72.8437271118164,-2.067287550649021,-1.0308068286323724,161.89740001408833,-41.070747,9.342974,-11.203642,85.74788,-27.250082,3.6507936,-6.5145097,-13.054947,6.623099,33.646008,-26.885353,15.000033,5.5417094,8.359554,25.95868,19.14257,39.099,12.833197,-31.021202,17.461006,2.6789596,7.388958,-43.46082,-11.366629,57.341305,6.6562886,-4.933885,3.3629098,-6.993399
82,-9.624588012695312,-14.962935447692871,73.44136047363281,-1.8993992619856468,-0.39226341132551945,162.28662331372854,-41.48032,7.917249,-12.458403,84.55692,-25.31331,2.461442,-4.482883,-14.140575,5.935424,29.175892,-24.237766,15.000033,5.6351466,7.995536,25.013714,22.242945,40.7609,13.924255,-34.097,17.336197,2.3015401,6.7984743,-43.656593,-11.132511,57.915855,2.9424727,-6.0170994,3.2523549,-6.2668295
83,-10.486628532409668,-15.535844802856445,74.02328491210938,-1.694169011684104,0.27567948960673405,162.66738270803137,-41.76449,6.3982406,-13.711745,83.237625,-23.254463,1.1458087,-2.532489,-15.227369,5.0952787,24.854034,-21.30722,15.000033,5.7832847,7.559091,24.010763,25.535528,42.419384,14.944622,-36.951805,16.961178,1.9618622,6.3183956,-43.61772,-10.96625,58.47724,-0.5272823,-6.7905664,2.940786,-5.726081
84,-11.356879234313965,-16.15911865234375,74.591552734375,-1.519455854409238,0.9913892007895093,162.96266701505965,-42.001835,4.9915586,-14.906467,81.86001,-21.245869,-0.11552522,-1.0365988,-16.228579,4.1192894,21.287651,-18.170034,15.000033,6.074552,7.1367507,22.943878,28.776487,43.986683,15.820317,-39.406757,16.494904,1.7470131,6.0805554,-43.22268,-10.879228,58.99659,-3.5484478,-7.1060934,2.377769,-5.5346804
85,-12.24219799041748,-16.79751205444336,75.15206146240234,-1.3887606916795117,1.811516661489375,163.14210593434242,-42.267654,3.6860142,-16.104576,80.40749,-19.150549,-1.3923199,-0.13806954,-17.1809,2.9514449,18.638613,-14.7566,15.000033,6.483253,6.7474413,21.756443,32.016647,45.418293,16.535093,-41.50919,15.927057,1.6847306,6.065907,-42.782627,-10.923745,59.531815,-6.043646,-6.4368715,1.3769616,-5.8623767
86,-13.124935150146484,-17.458688735961914,75.70793914794922,-1.2765734208139312,2.7099490795726044,163.2516419848347,-42.50262,2.3991075,-17.335962,78.85127,-16.944849,-2.7481284,0.31655592,-18.135439,1.6388743,16.684961,-11.104374,15.000033,6.9885783,6.367191,20.495155,35.345535,46.727173,17.104782,-43.387844,15.235458,1.7137932,6.1898293,-42.098064,-11.101658,60.101814,-8.217193,-5.196803,0.019810608,-6.5631714
87,-14.029548645019531,-18.15093421936035,76.27062225341797,-1.1946979222566498,3.579800125465139,163.3295823192683,-42.611317,1.2438161,-18.46555,77.25104,-14.933508,-3.9664507,0.38907838,-19.058224,0.3722236,15.479392,-7.4808316,15.000033,7.5342593,6.0024195,19.254316,38.597317,47.89128,17.484488,-44.892555,14.53623,1.7911762,6.5122185,-41.140366,-11.410724,60.599895,-9.929602,-3.7878015,-1.3492813,-7.2940474
88,-14.9293212890625,-18.868118286132812,76.82532501220703,-1.1545711810707975,4.3127407222208225,163.41397735063993,-42.51772,0.34252125,-19.329586,75.66998,-13.403978,-4.809297,0.1554128,-19.917612,-0.64957625,15.052486,-4.1467423,15.000033,8.054859,5.6723337,18.129072,41.598347,48.870914,17.60431,-45.876507,13.950813,1.8728973,7.091141,-39.9101,-11.8459835,60.920967,-11.020468,-2.5618389,-2.3636014,-7.742068
89,-15.834630966186523,-19.61151123046875,77.36550903320312,-1.1881832190489416,4.909473352987872,163.49160565663047,-42.2458,-0.22175938,-19.886229,74.12125,-12.530609,-5.1898656,-0.35853946,-20.692131,-1.4365919,15.284653,-0.86268264,15.000033,8.555965,5.407022,17.12147,44.44097,49.64035,17.414684,-46.391182,13.4307165,1.949341,8.107045,-38.336708,-12.401048,61.03731,-11.437378,-1.3832282,-2.8909779,-7.821602
90,-16.757320404052734,-20.36722183227539,77.89546966552734,-1.2669117065894295,5.422865675761944,163.54368784186028,-41.85092,-0.53245044,-20.171051,72.57252,-12.103029,-5.223021,-1.194111,-21.44728,-2.0261924,16.16611,2.4307787,15.000033,9.050858,5.1765065,16.194942,47.19032,50.208183,16.940292,-46.53888,12.946921,2.0300887,9.461121,-36.462425,-13.068264,61.014786,-11.269792,-0.116123505,-3.1303086,-7.7160625
91,-17.69630241394043,-21.138723373413086,78.40637969970703,-1.2899902665760608,5.82142023159467,163.60291055115758,-41.304237,-0.7369287,-20.115343,71.01406,-11.82252,-4.969218,-2.3256526,-22.271557,-2.2499073,17.793526,5.2521544,15.000033,9.485679,4.8938594,15.396697,49.64018,50.584736,16.22101,-46.257217,12.64351,2.113118,10.797171,-34.445953,-13.834759,60.88185,-10.568135,0.8937229,-3.20006,-7.540109
92,-18.653879165649414,-21.929401397705078,78.87564086914062,-1.1444658871709859,6.069071678229897,163.71060755771646,-40.568516,-0.99791723,-19.655462,69.43247,-11.391723,-4.485662,-3.6809382,-23.232124,-1.9385676,20.178745,7.171134,15.000033,9.799898,4.4648895,14.781712,51.581425,50.777763,15.294012,-45.47974,12.661599,2.209575,11.763172,-32.447346,-14.682027,60.666428,-9.381977,1.2999288,-3.2254274,-7.403608
93,-19.60970115661621,-22.735004425048828,79.31505584716797,-0.8067489531969247,6.141658751260505,163.87522215312674,-39.61745,-1.2657347,-18.673052,67.79473,-10.757577,-3.6481016,-5.35564,-24.3266,-1.2240703,23.473158,8.123771,13.639935,9.981423,3.8562346,14.3606615,52.982464,50.757137,14.1143675,-44.157383,13.1633835,2.3881834,12.185642,-30.440823,-15.592491,60.326405,-7.593901,0.757854,-3.1756408,-7.312009
94,-20.540393829345703,-23.503625869750977,79.73926544189453,-1.1660049297618729,6.122354792846797,163.88012558738947,-38.62981,-0.74724084,-17.962444,66.43964,-10.321469,-2.7504826,-7.052813,-24.606348,-1.3581315,26.845324,8.730452,8.6368,10.247292,3.9015183,13.911683,53.969246,50.50094,12.655648,-42.359344,14.03051,2.6264136,12.2801,-28.354742,-16.557156,59.88015,-5.2049866,-0.468124,-3.0124536,-7.223465
95,-21.45765495300293,-24.272798538208008,80.10096740722656,-1.507130642337262,5.984892647588848,163.90822953113255,-37.47744,-0.27030966,-17.12054,65.1242,-9.875142,-1.8372175,-8.554278,-24.864058,-1.5132854,30.139683,8.886806,3.575552,10.400324,3.9525368,13.623207,54.605995,50.04882,11.056314,-40.198704,14.973308,2.802246,12.282387,-26.30607,-17.56037,59.43127,-2.430583,-1.8000418,-2.8457196,-7.1738644
96,-22.374229431152344,-25.04018211364746,80.39703369140625,-1.7689526014750347,5.75411868505397,163.98832957416488,-36.170357,-0.07054862,-16.349768,63.84144,-9.376868,-1.1639934,-9.585826,-25.032984,-1.4781725,32.94079,8.707292,-0.15840797,10.406401,3.9604893,13.52131,54.91185,49.471325,9.4232235,-37.759167,15.691407,2.803517,12.444789,-24.413383,-18.588907,59.07681,0.5372079,-2.662589,-2.7820613,-7.194998
97,-23.270492553710938,-25.808759689331055,80.62560272216797,-1.9642461229150425,5.403282028589225,164.12803455204713,-34.70187,-0.16409267,-15.6884,62.615257,-8.806927,-0.7226572,-10.06171,-25.001755,-1.0583801,35.305958,7.979848,-1.9658724,10.281471,3.9365358,13.622917,54.800117,48.788094,7.7200165,-34.917587,16.26288,2.5876124,12.830061,-22.697344,-19.639816,58.82264,3.7673895,-2.9590003,-2.8622246,-7.318986
98,-24.13445472717285,-26.577117919921875,80.77576446533203,-2.141871487648115,4.937479472596169,164.30509750293692,-33.08842,-0.42000377,-15.062611,61.441647,-8.18469,-0.40027422,-10.2786,-24.739243,-0.2514497,37.69445,6.601359,-2.5924704,10.064615,3.9219038,13.885352,54.28185,47.986145,5.9005165,-31.648329,16.777977,2.2257228,13.323959,-21.092386,-20.712069,58.607666,7.348511,-2.9791355,-3.024051,-7.519611
99,-24.978866577148438,-27.358488082885742,80.85108184814453,-2.2913665559625276,4.430268462346123,164.50078363596896,-31.384706,-0.8513172,-14.5166,60.26975,-7.5190544,-0.2929147,-10.542617,-24.291737,0.86314297,40.31947,4.8741937,-2.6505706,9.760761,3.9059138,14.240738,53.460876,47.107548,4.0285807,-28.129456,16.955887,1.7793236,13.917664,-19.592722,-21.797068,58.423897,11.139488,-2.7316022,-3.222319,-7.7342563
100,-25.82056427001953,-28.140369415283203,80.86190032958984,-2.3959375887558423,3.950170851202963,164.70114388580473,-29.635998,-1.4764656,-14.0971985,59.04419,-6.8195896,-0.49744537,-11.074851,-23.704021,2.1719236,43.255074,3.1878724,-2.7482774,9.38172,3.868471,14.622659,52.40484,46.23046,2.1545317,-24.517252,16.503204,1.3085082,14.603602,-18.184319,-22.880577,58.25062,15.00559,-2.2239847,-3.411347,-7.8978624
101,-26.650894165039062,-28.927162170410156,80.79983520507812,-2.439456656211762,3.4970990625979885,164.89909289306428,-27.780874,-2.4369216,-13.973818,57.652454,-5.8087754,-1.4845166,-11.898652,-22.911123,3.7598712,46.557423,1.6183188,-2.9286807,8.963273,3.7914762,15.025935,50.975616,45.405704,0.20985441,-20.623869,15.126332,0.7936926,15.42299,-16.86599,-23.953888,58.086918,18.99731,-1.4327033,-3.5938294,-7.995272
102,-27.46177101135254,-29.706584930419922,80.65277862548828,-2.4370274848406015,3.0386774119856947,165.1028607388879,-25.81543,-3.6808984,-14.110735,56.142803,-4.594749,-3.060005,-12.88435,-21.867002,5.6015215,50.211502,-0.052388445,-2.8799524,8.5368395,3.6864886,15.460952,49.12953,44.63349,-1.8348515,-16.394863,13.022856,0.19846198,16.368103,-15.6123495,-25.018028,57.89771,23.17545,-0.36578906,-3.7881312,-8.05188
103,-28.265371322631836,-30.489582061767578,80.41683197021484,-2.4136737996128175,2.5924594709069924,165.32456563426194,-23.874094,-4.9271455,-14.204637,54.70448,-3.7357817,-4.306414,-13.964511,-20.665447,7.421998,54.053326,-1.7895017,-2.6821685,8.096534,3.570031,15.892011,47.061768,43.92075,-3.8736465,-12.184751,10.6363535,-0.44272354,17.359163,-14.372425,-26.074907,57.616558,27.419905,0.9222712,-3.970166,-8.063478
104,-29.066068649291992,-31.272945404052734,80.10574340820312,-2.3898678116394643,2.177282477544861,165.57686064943954,-22.104563,-5.8925757,-13.897779,53.541767,-3.7419941,-4.2905545,-15.08516,-19.444971,8.972931,57.89096,-3.5413592,-2.4406242,7.625624,3.449307,16.28994,44.984646,43.284084,-5.787526,-8.368169,8.408403,-1.0797161,18.324556,-13.097804,-27.12694,57.184277,31.606216,2.377742,-4.116115,-8.028224
105,-29.860544204711914,-32.0513916015625,79.72578430175781,-2.3586619870060934,1.795029168591118,165.84194650641206,-20.547981,-6.4562125,-12.894623,52.753105,-4.8788357,-2.325334,-16.213062,-18.208668,10.316455,61.654087,-5.3117023,-2.1092067,7.143397,3.3137565,16.651958,42.88816,42.742455,-7.632461,-4.892265,6.2298403,-1.7289349,19.318357,-11.753967,-28.175129,56.6082,35.748016,4.160431,-4.241661,-7.936714
106,-30.64945411682129,-32.81135559082031,79.26416015625,-2.3007278350316263,1.4352851774139552,166.11970994673698,-19.105433,-6.8585625,-11.480073,52.24697,-6.8654895,0.9091364,-17.369675,-16.935173,11.538884,65.42624,-7.119102,-1.6707546,6.665062,3.1435966,16.992329,40.67251,42.295994,-9.449004,-1.6192181,3.9258687,-2.4162676,20.350996,-10.346498,-29.222788,55.895817,39.889225,6.2405615,-4.347266,-7.790241
107,-31.42978286743164,-33.5607795715332,78.75086212158203,-2.219669714581038,1.0996280431679895,166.44972517351238,-17.72661,-7.340578,-10.145364,51.926464,-9.343912,4.3100495,-18.61566,-15.760275,12.469414,69.23955,-8.910464,-1.2962258,6.1467733,2.931243,17.31464,38.420147,41.938454,-11.088757,1.1983446,1.8462094,-3.076326,21.297863,-8.900343,-30.27766,55.004436,43.94972,8.282029,-4.3884215,-7.6103997
108,-32.20805740356445,-34.30387878417969,78.1722412109375,-2.1295750286842456,0.7919326845347234,166.87216768154937,-16.39369,-8.059529,-9.317749,51.666992,-11.878043,6.8367314,-20.020947,-14.819247,12.947437,73.11661,-10.624267,-1.1646994,5.528712,2.674514,17.62683,36.2388,41.6692,-12.377916,3.287351,0.3489197,-3.6239996,22.040743,-7.4463387,-31.349367,53.898373,47.835995,9.948958,-4.324339,-7.4248567
109,-32.962650299072266,-35.042320251464844,77.5323715209961,-2.078237296127489,0.5264730729179848,167.363531789884,-15.127071,-8.949961,-9.082871,51.454967,-14.512489,8.186099,-21.633896,-14.11179,12.954234,77.12649,-12.232756,-1.3403844,4.7975225,2.4067416,17.910248,34.211872,41.4969,-13.279603,4.489421,-0.42604586,-4.012896,22.560184,-6.0190487,-32.4357,52.42998,51.630337,11.306778,-4.1037235,-7.1584754
110,-33.68810272216797,-35.77553176879883,76.82865905761719,-2.047213317886883,0.299191610613881,167.91505510368165,-13.938928,-9.922598,-9.199175,51.343044,-17.403505,8.9573765,-23.414629,-13.628185,12.598501,81.2278,-13.771556,-1.7565532,3.976405,2.1186385,18.168432,32.259235,41.440685,-13.889015,4.9689784,-0.6808545,-4.273219,22.92665,-4.5602098,-33.53535,50.65082,55.331306,12.482969,-3.7597988,-6.832599
111,-34.382591247558594,-36.493106842041016,76.08734130859375,-1.9565958679802573,0.08538110630376813,168.5899487317188,-12.8147955,-11.041201,-9.550826,51.29875,-20.251343,9.501316,-25.300407,-13.491853,11.92285,85.271034,-15.273576,-2.4011319,3.0584407,1.7482821,18.437239,30.23352,41.52257,-14.240152,4.950098,-0.566594,-4.4288754,23.159126,-2.9794374,-34.6638,48.825924,58.718533,13.239804,-3.3910427,-6.6164374
112,-35.05773162841797,-37.16328811645508,75.33929443359375,-1.7264428559133291,-0.14267999305724666,169.451397895522,-11.732436,-12.388844,-10.04561,51.28226,-22.74933,10.15642,-27.220856,-13.821884,10.976024,89.09669,-16.771132,-3.2539177,2.0342414,1.228853,18.75088,27.991514,41.759518,-14.363018,4.653339,-0.23116732,-4.507972,23.269629,-1.2065191,-35.84638,47.222675,61.563038,13.342092,-3.1019764,-6.6736064
113,-35.70071029663086,-37.81715774536133,74.58941650390625,-1.2756844293497982,-0.41277516584174745,170.5479151575171,-10.723719,-14.094786,-10.721881,51.356888,-24.854694,10.938634,-29.17876,-14.888153,9.691348,92.78377,-18.308031,-4.3583875,0.8764629,0.4634163,19.140982,25.502554,42.157566,-14.193371,4.034098,0.45649087,-4.493042,23.216284,0.7395247,-37.09676,45.68403,63.912926,12.578438,-2.9355953,-7.281509
114,-36.321414947509766,-38.45594024658203,73.86089324951172,-0.6683039692568935,-0.7148302015707657,171.839314092822,-9.775633,-16.076286,-11.612959,51.521297,-26.714539,11.695235,-31.14626,-16.60003,8.1228895,96.37972,-19.89977,-5.733461,-0.38963807,-0.48508978,19.556248,22.768866,42.730625,-13.823491,3.048728,1.5192552,-4.3808227,22.997433,2.8700123,-38.416443,44.097103,65.83053,11.128556,-2.812689,-8.267859
115,-36.97612762451172,-39.086212158203125,73.18997955322266,-0.04359878851464421,-1.0180639077658267,173.25340291777616,-8.800806,-18.106985,-12.633555,51.648357,-28.308475,12.500373,-33.02889,-18.48622,6.4639597,99.66859,-21.503582,-7.2899,-1.6813234,-1.4395995,19.91253,19.665632,43.495224,-13.546697,1.9362985,2.640809,-4.222621,22.690529,5.271707,-39.818306,42.79327,67.13769,9.341803,-2.6735709,-9.123704
116,-37.6573486328125,-39.74922561645508,72.59190368652344,0.4601107132912423,-1.2823780480327216,174.71518967776166,-7.715441,-19.952803,-13.694796,51.606167,-29.614777,13.42816,-34.780663,-20.029856,4.859384,102.4207,-23.027573,-8.914806,-2.9190512,-2.2206426,20.144138,16.084461,44.44243,-13.640732,0.9192147,3.5027297,-4.065444,22.383133,8.000447,-41.317337,42.123856,67.68136,7.563773,-2.4997327,-9.344981
117,-38.36072540283203,-40.42654800415039,72.0592041015625,0.8763216346884686,-1.5141509428270452,176.28812128628948,-6.497936,-21.639755,-14.776624,51.411953,-30.645933,14.538801,-36.455063,-21.258808,3.2649753,104.63576,-24.506819,-10.796468,-4.083509,-2.8381763,20.262606,11.739808,45.572166,-14.302964,0.10494611,4.1396947,-3.9140904,22.01395,11.129186,-42.95213,42.442036,67.298195,5.6899586,-2.293845,-8.515425
118,-39.10679626464844,-41.08374786376953,71.62992095947266,1.1881611971977188,-1.6972729413813867,178.00033551803745,-5.2731276,-23.072199,-15.921173,51.18803,-31.448296,15.000033,-38.06842,-22.31643,1.4832972,106.39083,-25.929392,-12.935396,-5.206384,-3.31116,20.275978,6.671398,46.83086,-15.48517,-0.62466604,4.665008,-3.752405,21.57721,14.591564,-44.715282,43.466873,66.1457,3.5938575,-2.114768,-7.0015416
119,-39.88323211669922,-41.741249084472656,71.31739807128906,1.2889065289102222,-1.7849127556367146,179.70531018839714,-4.0652475,-24.126404,-17.099606,50.87033,-32.00405,15.000033,-39.575447,-22.92031,-0.4412394,107.58231,-27.09299,-14.86343,-6.3210683,-3.5638232,20.170452,1.3760725,48.101677,-16.959347,-1.4368867,4.900139,-3.5840766,21.252403,18.164934,-46.537785,44.64628,64.5877,1.5715313,-2.0238922,-5.481449
120,-40.72667694091797,-42.457313537597656,71.11991882324219,1.1697413971753252,-1.7719876802731784,-178.76465952804824,-2.792252,-24.840372,-18.28166,50.28864,-32.234753,15.000033,-40.961037,-22.624933,-1.995921,108.12443,-27.776106,-15.000033,-7.477766,-3.5867536,19.958515,-3.5836682,49.275578,-18.388546,-2.4674084,4.7007236,-3.4065988,21.211002,21.589998,-48.330963,45.465164,63.03997,-0.08331846,-2.03422,-4.637094
121,-41.6431770324707,-43.21501922607422,71.04711151123047,0.7584237340736255,-1.6517172131408717,-177.43335739277265,-1.4505782,-25.11235,-19.510519,49.486355,-32.26078,15.000033,-42.252636,-21.669851,-3.781497,107.92289,-27.910143,-15.000033,-8.715035,-3.2970498,19.658224,-8.205998,50.323887,-19.724556,-3.6695616,3.868014,-3.2054467,21.59757,24.77119,-50.058792,46.162476,61.651783,-1.2882168,-2.1557624,-4.8152995
122,-42.605560302734375,-43.99695587158203,71.07328033447266,0.12261525859057286,-1.4317524344794499,-176.22982369188622,-0.064780526,-25.016022,-20.752365,48.510532,-32.076168,15.000033,-43.49922,-20.194727,-5.7788835,107.029366,-27.587574,-15.000033,-10.025308,-2.742492,19.287132,-12.66788,51.260067,-21.036242,-5.000224,2.5788383,-2.9951751,22.281725,27.726799,-51.724854,47.02017,60.32888,-2.1752954,-2.3518848,-5.61399
123,-43.63593673706055,-44.82975387573242,71.21089172363281,-0.6519776589439891,-1.086413162638654,-175.19294999848617,1.2883717,-24.633327,-21.879536,47.31336,-31.507057,15.000033,-44.74769,-18.338093,-7.818744,105.567406,-26.858341,-15.000033,-11.405115,-2.0179396,18.821918,-16.75274,52.089493,-22.17461,-6.4839406,1.2482282,-2.8085556,23.012636,30.480957,-53.30276,47.483868,59.06453,-2.8147068,-2.5535471,-6.5765834
124,-44.73422622680664,-45.71001434326172,71.44940948486328,-1.4725900315882865,-0.5978632565912604,-174.35884417844366,2.5430639,-24.069685,-22.769974,45.83655,-30.371258,15.000033,-46.053608,-16.12584,-9.540394,103.668396,-25.774097,-14.390998,-12.802194,-1.193314,18.23845,-20.187393,52.82835,-22.98798,-8.220177,0.31776905,-2.6589878,23.536436,33.17641,-54.76759,46.89769,57.78505,-3.2594874,-2.7013607,-7.240359
125,-45.89609146118164,-46.646934509277344,71.784423828125,-2.353809859049351,0.05247388971795157,-173.75269713860746,3.7262335,-23.302803,-23.479887,44.00945,-28.704937,15.000033,-47.479412,-13.441584,-10.854375,101.28794,-24.282215,-13.04947,-14.234959,-0.2573774,17.539194,-23.166067,53.485725,-23.51783,-10.022762,-0.17099063,-2.5431535,23.778696,35.902325,-56.09981,44.85893,56.407127,-3.3416002,-2.807012,-7.481134
126,-47.118186950683594,-47.62533950805664,72.21018981933594,-3.3193127378275804,0.8409703310783557,-173.3609363129786,4.824835,-22.348513,-24.002241,41.937595,-26.630552,15.000033,-48.98072,-10.315102,-11.9022455,98.35925,-22.416172,-11.287487,-15.644474,0.863766,16.7426,-25.635847,54.075756,-23.788729,-12.01269,-0.3905563,-2.4479086,23.877968,38.8119,-57.280243,41.58633,54.882812,-3.1099849,-2.8951683,-7.5303564
127,-48.38888931274414,-48.66146469116211,72.7115707397461,-4.295866346171662,1.7206206631216097,-173.1621302424591,5.7318263,-21.368086,-24.145214,39.81931,-24.08013,15.000033,-50.444878,-7.0314374,-12.739682,94.996155,-20.359045,-9.345915,-17.003124,2.1189127,15.9189415,-27.761343,54.599594,-23.915352,-14.051287,-0.40497726,-2.3619642,23.879333,41.791733,-58.30297,37.678856,53.280346,-2.84112,-2.935453,-7.461388
128,-49.69722366333008,-49.750797271728516,73.26370239257812,-5.220769159430182,2.646940632960139,-173.1310676448064,6.3623295,-20.489458,-23.751934,37.829742,-20.942781,15.000033,-51.754074,-3.8715978,-13.456522,91.31815,-18.271984,-7.492305,-18.22303,3.474437,15.087796,-29.472612,55.079624,-23.936476,-16.219147,-0.24794808,-2.2729735,23.82605,44.739693,-59.174282,33.760628,51.708073,-2.7921476,-2.9016075,-7.358764
129,-51.05153274536133,-50.877601623535156,73.85795593261719,-6.2043620875348235,3.715421269971533,-173.28741523135818,6.4419823,-19.650152,-22.839325,36.303967,-17.069323,15.000033,-53.014538,-0.643851,-14.018919,87.194855,-16.133532,-5.7692795,-19.384579,5.0231857,14.228407,-31.004908,55.51219,-23.921371,-18.27937,0.1359881,-2.159855,23.675934,47.370255,-59.90601,29.986523,50.29219,-3.1102607,-2.7396977,-7.186947
130,-52.43396759033203,-52.04560089111328,74.48186492919922,-7.246363923012518,4.903407660652795,-173.64181222427058,6.082428,-18.828596,-21.509216,35.142822,-12.58888,15.000033,-54.201847,2.689917,-14.363134,82.58527,-13.893138,-4.0732756,-20.449081,6.7537103,13.287068,-32.12564,55.930977,-23.764866,-20.42217,0.75371104,-2.0323026,23.416204,49.72798,-60.463078,26.162022,49.04149,-3.5972009,-2.4868484,-6.9154963
131,-53.845481872558594,-53.2664794921875,75.10469818115234,-8.092829741799836,5.998597947588618,-174.1382900847735,5.847995,-18.153656,-19.730091,33.696625,-7.6906447,15.000033,-55.037804,5.6387987,-14.548616,77.81722,-11.637307,-2.4453576,-21.379608,8.33207,12.401702,-32.923714,56.333008,-23.52561,-22.605856,1.442633,-1.9292009,23.14365,51.816414,-60.85582,22.572931,47.911453,-4.064047,-2.257156,-6.67472
132,-55.261783599853516,-54.533512115478516,75.70357513427734,-8.46860444931506,6.807695830861609,-174.700465676684,6.387373,-17.73325,-17.421503,31.099049,-2.4204829,15.000033,-55.291706,7.7499003,-14.668667,73.28367,-9.432384,-0.901251,-22.149857,9.404785,11.641977,-33.460503,56.703304,-23.279266,-24.796207,2.0500638,-1.8856645,22.956476,53.64017,-61.112507,19.55466,46.87381,-4.2901,-2.1598659,-6.5937576
133,-56.703834533691406,-55.8615608215332,76.26437377929688,-8.186743770418976,7.291930627979431,-175.37109348753725,8.303885,-17.686329,-14.345106,25.947487,4.250964,15.000033,-54.92613,8.856596,-14.701254,69.144356,-7.15095,0.6351403,-22.679935,9.791125,10.932827,-33.768616,57.05528,-23.071781,-27.061537,2.4965043,-1.9256165,22.886662,55.19654,-61.289867,17.276945,45.916676,-4.1186476,-2.2623725,-6.814199
134,-58.152610778808594,-57.24835968017578,76.76194763183594,-7.750808508485674,7.740834974250543,-175.99637170960932,11.065977,-17.691364,-10.710512,18.983433,12.020075,15.000033,-54.237534,9.297873,-15.082896,65.07739,-4.6828065,2.1412456,-23.22644,10.0568905,10.252299,-33.982193,57.37271,-22.936703,-29.251297,2.8698466,-2.0203197,22.889744,56.417137,-61.441654,15.595534,45.05165,-3.6917255,-2.4977045,-7.235703
135,-59.58491516113281,-58.52143859863281,77.26841735839844,-8.234044194183367,8.451894836240562,-176.3228760625033,13.215091,-17.031025,-9.632188,13.340293,18.342854,7.305309,-53.15898,9.863397,-16.907825,59.959972,-1.7630545,3.3128576,-24.074726,11.234652,9.753588,-33.90687,57.63691,-22.770084,-31.33718,3.281146,-2.1286137,22.929787,57.337967,-61.533703,14.3331,44.306988,-3.222364,-2.7595294,-7.616999
136,-60.989959716796875,-59.748355865478516,77.7044677734375,-8.897542651080313,9.213421722488366,-176.32732614485002,15.159185,-16.233973,-9.280515,8.826137,22.678501,-0.1080533,-51.844574,10.352373,-19.173952,54.66005,0.93425363,4.304568,-25.172855,12.578994,9.345699,-33.4169,57.825314,-22.489794,-33.260178,3.8270957,-2.2076836,22.96009,58.009907,-61.48559,13.292142,43.700714,-2.9381478,-2.939982,-7.7337255
137,-62.3453254699707,-60.92063903808594,78.04815673828125,-9.507847599859208,10.01146720591201,-175.98191296426822,17.143824,-15.338091,-8.78332,5.1450543,25.11088,-6.704538,-50.26852,10.618923,-21.817226,49.249393,3.3178136,5.1000214,-26.50421,13.87781,8.979993,-32.649,57.923527,-22.14664,-35.008747,4.6636467,-2.2664173,22.963541,58.514004,-61.233707,12.427183,43.168015,-3.0203836,-2.977373,-7.440163
138,-63.67758560180664,-62.054962158203125,78.3179702758789,-9.962073004404122,10.80638405145087,-175.37051285262046,17.723042,-14.69241,-7.5662084,5.015083,24.750332,-13.08039,-48.35261,10.687125,-24.775732,43.683357,5.560826,5.772446,-27.957193,15.0414295,8.644371,-31.673033,57.92153,-21.810226,-36.61627,5.696718,-2.3216906,22.960306,58.848736,-60.766495,11.79569,42.71092,-3.3385897,-2.94299,-6.90323
139,-65.03614807128906,-63.2484245300293,78.5361557006836,-9.916843963211091,11.518415973315877,-174.55717325901617,18.474833,-14.430881,-5.2850847,4.8900404,24.194668,-15.000033,-46.4266,10.371335,-27.415064,38.76119,7.3673463,6.4978046,-29.431017,15.748293,8.22535,-30.353891,57.77971,-21.471352,-37.99262,6.6649647,-2.3460674,22.966312,58.877335,-60.088314,11.378763,42.468376,-3.6565216,-2.9215517,-6.3730197
140,-66.41549682617188,-64.45480346679688,78.72856903076172,-9.405135708765682,11.963271365744095,-173.75929820863865,19.35583,-14.6438875,-3.692357,4.8578706,23.837502,-15.000033,-44.51755,9.862061,-29.349232,34.7415,8.677968,7.3027415,-30.721817,15.904911,7.7940345,-28.481642,57.445965,-21.09104,-39.086525,7.330926,-2.317144,22.990261,58.442074,-59.20675,11.169403,42.606686,-3.7384312,-2.986452,-6.102427
141,-67.79965209960938,-65.58863067626953,78.90463256835938,-8.617798141161495,11.974898296391919,-173.09246598109195,20.502039,-15.193496,-4.376761,5.0028796,23.269848,-15.000033,-42.29218,9.435562,-30.619371,31.172354,9.581078,8.191265,-31.780039,15.559897,7.4983487,-25.819597,56.87768,-20.644169,-40.000755,7.562047,-2.233485,23.040014,57.50692,-58.068462,11.091423,43.24568,-3.4141915,-3.1728928,-6.2035694
142,-69.1999282836914,-66.67198944091797,79.06368255615234,-7.607179679358949,11.648842513216277,-172.51078034922875,21.912884,-15.909743,-6.702244,5.324693,22.317175,-15.000033,-39.77958,8.958564,-31.468063,27.995983,10.109883,9.107586,-32.612793,14.814739,7.2761908,-22.56055,56.063072,-20.233377,-40.74513,7.5366454,-2.1118305,23.093388,56.23524,-56.648777,11.090934,44.27217,-2.858988,-3.437006,-6.532167
143,-70.64523315429688,-67.74898529052734,79.21304321289062,-6.532986648798781,11.140016203247413,-172.0585148639642,22.642298,-16.658497,-9.02959,7.3614717,20.608274,-15.000033,-37.274105,8.387219,-31.99104,25.548056,10.315836,9.9161825,-33.12129,13.892154,7.0930467,-19.214966,55.009727,-20.054638,-41.042316,7.453882,-1.957104,23.111189,54.737774,-55.03367,11.235462,45.51298,-2.3339982,-3.7284546,-6.948167
144,-72.10614776611328,-68.84475708007812,79.3102035522461,-5.604164476513091,10.577200506747321,-171.7866932614771,21.943384,-17.313574,-9.682281,12.312599,17.879627,-15.000033,-35.037205,7.760996,-32.30224,24.158108,10.244196,10.461026,-33.246376,13.03838,6.972187,-16.210028,53.73879,-20.258173,-40.62346,7.5382147,-1.7678605,23.058903,53.085064,-53.38045,11.648787,46.798954,-2.0622056,-3.9917433,-7.295796
145,-73.549560546875,-69.95471954345703,79.32747650146484,-4.870943626854419,9.940993862247636,-171.71137115156253,21.423906,-17.439949,-8.4402685,16.944923,16.00787,-14.451295,-33.082077,6.9920607,-32.584618,24.142647,9.939434,10.984782,-33.03441,12.274634,6.951837,-13.437847,52.237858,-20.804901,-39.47189,7.6537447,-1.4894911,22.957418,51.274765,-51.79465,12.422788,48.117207,-2.1382358,-4.1812315,-7.4776273
146,-74.99237823486328,-71.04781341552734,79.27699279785156,-4.349454926386168,9.19560244862229,-171.75809161077262,20.816149,-17.004566,-6.271309,21.967884,14.364008,-13.840378,-31.184204,6.196783,-32.828163,25.019886,9.4488125,11.437075,-32.63333,11.605462,7.0746913,-10.684344,50.509193,-21.645176,-37.689835,7.7571445,-1.1425031,22.809792,49.293102,-50.288105,13.485845,49.522793,-2.3691952,-4.3296623,-7.558658
147,-76.42486572265625,-72.14115905761719,79.16539001464844,-4.008707550531923,8.414514210062226,-171.88787033199756,20.047207,-16.000113,-3.6703906,27.34018,12.685694,-13.141126,-29.436935,5.474625,-32.678722,26.45532,8.56462,11.260594,-32.075085,11.0724745,7.300151,-8.226274,48.61422,-22.85331,-35.13976,8.185493,-0.8355988,22.566795,47.150314,-48.88542,14.742155,50.951767,-2.5461893,-4.4971128,-7.6238217
148,-77.8424072265625,-73.21931457519531,78.9862060546875,-3.8035589029409533,7.671701507001321,-172.07926657179974,19.055408,-14.502915,-1.0488082,32.998066,10.714431,-12.070077,-27.969704,4.9562683,-31.762096,28.150091,7.0688787,9.911954,-31.377054,10.692284,7.575577,-6.3130116,46.63108,-24.44877,-31.664646,9.266403,-0.67898995,22.202362,44.825912,-47.60832,16.127625,52.342915,-2.4610317,-4.7452345,-7.755605
149,-79.22171020507812,-74.3134536743164,78.74159240722656,-3.746648583433863,6.949050541383392,-172.35647726624413,17.89966,-12.4593115,1.6679926,39.007793,8.345095,-10.506338,-26.977282,4.803715,-29.649015,30.38225,4.827207,6.4296775,-30.517921,10.439183,7.926287,-4.786732,44.547955,-26.242111,-27.134579,11.53721,-0.71399367,21.751284,42.248363,-46.449974,17.795795,53.768726,-1.9333605,-5.127616,-7.9685106
150,-80.55107879638672,-75.3961410522461,78.44529724121094,-3.810042066211457,6.197824129496098,-172.71041391375695,16.767096,-9.878477,4.507433,45.253082,5.7655973,-8.613569,-26.397188,5.0672708,-26.566978,33.250862,2.1677415,1.3216702,-29.529922,10.267767,8.366071,-3.4278114,42.352097,-28.163815,-21.727823,14.675793,-0.90667695,21.248585,39.403816,-45.391525,19.759819,55.232533,-1.1047115,-5.601875,-8.206521
151,-81.88401794433594,-76.50279998779297,78.07524108886719,-3.9041777604602825,5.461439187607595,-173.0987097565159,15.665772,-7.013469,7.061795,51.496574,3.114653,-6.586031,-25.936216,5.662119,-23.150852,36.16758,-0.5511805,-3.700437,-28.473534,10.164543,8.821291,-2.4188313,40.138584,-30.372732,-15.69491,17.695116,-1.2371908,20.706448,36.356613,-44.435234,21.743187,56.564735,-0.26364252,-6.086649,-8.452793
152,-83.22710418701172,-77.6212387084961,77.65350341796875,-3.963288989600462,4.80028740464188,-173.50144616363946,14.486148,-4.125641,9.004791,57.579388,0.51017857,-4.6288495,-25.246748,6.2969346,-20.024023,38.526566,-3.3230052,-6.903324,-27.384697,10.122459,9.224721,-1.9520745,38.0535,-33.012486,-9.267581,19.585108,-1.6447507,20.158905,33.18301,-43.58866,23.461746,57.56964,0.2851906,-6.4967537,-8.693944
153,-84.52985382080078,-78.71566009521484,77.20169067382812,-3.957009702524468,4.266408441275178,-173.86059189238222,13.103946,-1.2486836,10.335998,63.645878,-2.1575708,-2.7473202,-24.22458,6.7181525,-17.189127,40.194294,-6.6571784,-7.513327,-26.304796,10.136345,9.51508,-2.1904662,36.21945,-36.29794,-2.2017667,19.80956,-2.1425939,19.53338,29.910374,-42.845028,24.845922,58.141094,0.4006532,-6.8050556,-8.891977
154,-85.7689437866211,-79.8068618774414,76.71066284179688,-3.9286823738913164,3.824861600344837,-174.2251555799408,11.527272,1.6711963,11.223912,69.80111,-4.936698,-0.8823788,-23.048763,6.9518805,-14.423103,41.538834,-10.599151,-6.5787725,-25.16906,10.172686,9.762905,-2.9289098,34.644714,-40.013283,5.4280868,18.919355,-2.6815796,18.89017,26.50016,-42.17542,26.035656,58.345455,0.2505607,-7.0555353,-9.06756
155,-86.96989440917969,-80.89592742919922,76.161865234375,-3.934113434498146,3.4138775972030238,-174.7405022347104,9.77388,4.5106335,11.656529,75.85168,-7.6074557,0.8524696,-21.828054,7.0197983,-11.942107,42.725986,-14.62705,-5.0994983,-23.88471,10.196841,10.100975,-3.8070197,33.298416,-43.634903,12.952747,17.54966,-3.1193306,18.42354,22.859339,-41.57556,27.124554,58.287067,-0.007586969,-7.2688875,-9.298458
156,-88.0968246459961,-81.99681854248047,75.5731201171875,-4.021063416692607,2.9679278247581355,-175.5493160509721,7.8558416,7.149696,11.648589,81.60061,-9.933123,2.3474226,-20.659874,7.066081,-9.847656,43.8857,-18.157888,-4.055874,-22.385937,10.198832,10.656171,-4.430901,32.154003,-46.645817,19.71907,16.372366,-3.3652682,18.317396,18.864853,-41.070526,28.253078,58.081684,-0.19608594,-7.463833,-9.652374
157,-89.16158294677734,-83.115234375,74.99241638183594,-4.220978417550779,2.4671370466892846,-176.72094697084322,5.6549892,9.484199,11.1311,87.18983,-11.824419,3.5618222,-19.568829,7.171672,-8.28366,45.082428,-21.100666,-3.6998138,-20.69007,10.221479,11.495936,-4.7597556,31.237326,-49.146904,25.776087,15.594556,-3.4221034,18.729671,14.227308,-40.716595,29.743462,57.83417,-0.30652153,-7.646219,-10.165571
158,-90.15016174316406,-84.22461700439453,74.46177673339844,-4.488039527705834,1.9453245966619337,-178.16570824120222,3.1633465,11.525677,10.164041,92.687164,-13.398229,4.5183387,-18.51626,7.24195,-7.117609,46.227425,-23.736399,-3.4755023,-18.902626,10.288256,12.536096,-4.910607,30.580645,-51.261765,31.406925,14.864085,-3.3686154,19.504517,9.020646,-40.498985,31.564714,57.43342,-0.3925325,-7.7974443,-10.769333
159,-91.07766723632812,-85.33177185058594,74.01301574707031,-4.7479043789694435,1.4151479007384515,-179.79333097101582,0.54972094,13.369424,8.972326,97.783516,-14.721193,5.227805,-17.485353,7.249993,-5.9646525,47.207493,-26.03031,-3.1735427,-17.040865,10.370909,13.665231,-4.774842,30.177774,-52.579258,36.321068,14.042262,-3.2420306,20.352707,3.6482198,-40.344612,33.34518,56.733128,-0.35034838,-7.904189,-11.385772
160,-91.96358489990234,-86.44680786132812,73.62049102783203,-4.9338470371265455,0.8922868238204307,178.4836728355333,-2.0320616,15.169508,7.7678347,102.16282,-15.858329,5.737631,-16.4532,7.1750264,-4.468974,47.910046,-27.945927,-2.6011975,-15.1031475,10.430665,14.767536,-4.266978,30.0055,-52.70441,40.206715,13.004816,-3.068878,20.980902,-1.4967787,-40.193302,34.687805,55.649918,-0.11716204,-7.959828,-11.95509
161,-92.84986114501953,-87.5962905883789,73.28067779541016,-5.073913347612253,0.33952527994060044,176.52506517222457,-4.58899,17.018034,6.5717497,105.84225,-16.758587,5.9975963,-15.417998,7.120063,-2.4445074,48.353798,-29.505627,-1.6979632,-12.974243,10.493079,15.92429,-3.2525115,30.038649,-51.21099,42.811222,11.494478,-2.8183396,21.305815,-6.6068716,-40.033047,35.543217,54.29168,0.50307083,-7.981603,-12.482418
162,-93.71665954589844,-88.79322814941406,73.0191421508789,-5.183925021468789,-0.23725307251288189,174.33718639366683,-7.234813,18.84289,5.2777586,108.97905,-17.394115,6.022133,-14.37279,7.0649385,-0.12994508,48.58361,-30.737318,-0.5835035,-10.717103,10.609002,17.138699,-1.7675024,30.269825,-48.356853,44.253487,9.679262,-2.4827728,21.47765,-11.833946,-39.86286,36.169407,52.706036,1.3579812,-7.964709,-12.994371
163,-94.62883758544922,-90.02558135986328,72.87873077392578,-5.196362539176279,-0.7507667935272665,172.2231183245674,-10.003458,20.605932,3.8978808,111.46174,-17.855331,6.005291,-13.295628,6.810072,2.183179,48.526806,-31.611725,0.65830106,-8.519932,10.734907,18.206589,-0.041613586,30.69116,-44.86943,44.80787,8.058242,-2.108635,21.55243,-16.896458,-39.671963,36.767967,50.886597,2.1848807,-7.8784733,-13.489352
164,-95.58290100097656,-91.25626373291016,72.8617935180664,-5.058323824127913,-1.1105952448015115,170.48345926272583,-12.934339,22.276901,2.4536335,113.167656,-18.226173,6.159505,-12.180163,6.1595783,4.2092752,48.09688,-32.08044,1.9478313,-6.5189843,10.780589,18.936682,1.6271471,31.305828,-41.56382,44.88654,7.1201262,-1.7472297,21.586548,-21.570927,-39.47496,37.552254,48.89177,2.813121,-7.6993346,-13.976533
165,-96.5775146484375,-92.4608383178711,72.96890258789062,-4.76291865142118,-1.2590726108765862,169.16682361785394,-16.166803,23.998358,0.96189016,114.06137,-18.587204,6.6036367,-11.059815,5.04881,5.9232607,47.183735,-32.168457,3.3180654,-4.686802,10.67748,19.235674,3.1547115,32.12965,-38.510128,44.518353,7.218088,-1.3927836,21.54208,-25.77616,-39.32586,38.506237,46.58281,3.146832,-7.3763638,-14.532979
166,-97.62406921386719,-93.66932678222656,73.17790985107422,-4.352644617379193,-1.2552530841871006,168.11626761695098,-19.6822,25.724672,-0.57460153,114.200966,-18.864433,7.236621,-9.927366,3.592807,7.477252,45.862766,-31.900244,4.787177,-2.9565015,10.446217,19.25071,4.7707853,33.146137,-35.328777,43.517155,8.011987,-1.0177317,21.395962,-29.562563,-39.261795,39.44224,43.890392,3.2485714,-6.938696,-15.134996
167,-98.74275970458984,-94.89171600341797,73.48987579345703,-3.8455550229996684,-1.184980163341482,167.32538155569333,-23.230656,27.140093,-2.0945153,113.601166,-18.92234,7.9416323,-8.73599,1.8660505,8.855507,44.322056,-31.200296,6.2735066,-1.3991073,10.100106,19.142843,6.55639,34.3081,-32.188923,42.120113,8.952086,-0.6520794,21.229948,-32.905033,-39.275978,40.262913,41.007244,3.1519628,-6.484582,-15.640632
168,-99.89421081542969,-96.12922668457031,73.89170837402344,-3.258312182002171,-1.134238688671277,166.79132466684848,-26.502733,27.954712,-3.5054262,112.296104,-18.637201,8.591791,-7.4530635,-0.04359332,10.036252,42.74516,-29.972456,7.711425,-0.06271169,9.6622715,19.04235,8.459808,35.527115,-29.317707,40.67694,9.47718,-0.3274488,21.136179,-35.712513,-39.328186,40.788284,38.135082,2.823491,-6.1161113,-15.911458
169,-101.0975112915039,-97.38885498046875,74.38199615478516,-2.5491823910640106,-1.1330270547135715,166.6128719564248,-29.388977,28.09542,-4.688131,110.213745,-18.056175,9.185532,-5.9740167,-2.210893,10.979387,41.0265,-28.167747,9.204506,1.0068204,9.107157,18.936937,10.206065,36.74432,-26.914652,39.494057,9.44803,-0.04118498,21.204874,-37.96002,-39.404568,40.91495,35.36829,2.0760686,-5.882268,-15.8455715
170,-102.33766174316406,-98.65119934082031,74.95348358154297,-1.716429138764468,-1.1407225254921327,166.76487554993795,-31.913322,27.684826,-5.594038,107.36843,-17.265497,9.7312,-4.381324,-4.6290355,11.720763,39.130165,-25.820679,10.755701,1.8661329,8.438353,18.740013,11.701638,37.9423,-24.922726,38.545742,9.162909,0.21267983,21.385164,-39.725906,-39.530647,40.755337,32.662376,0.9630268,-5.728383,-15.536656
171,-103.63545227050781,-99.94210052490234,75.58808135986328,-0.8427378613887407,-1.1323060712593374,167.05872863829052,-33.969322,26.785166,-6.278224,103.921135,-16.18633,10.130468,-2.9140778,-7.0773535,12.360016,37.34116,-22.956991,12.151426,2.626518,7.730358,18.460932,13.119745,39.083366,-23.190939,37.70402,8.717881,0.40872565,21.560013,-41.079998,-39.714653,40.457897,30.034222,-0.17888153,-5.6015077,-15.143853
172,-104.96184539794922,-101.28025817871094,76.27638244628906,-0.01718519201418285,-1.0765195547269393,167.30374971167402,-35.505856,25.497293,-6.853835,100.0283,-14.725938,10.320882,-1.7916518,-9.344008,13.004723,35.95037,-19.617254,13.184963,3.3983514,7.0556207,18.109207,14.651815,40.109108,-21.554478,36.83356,8.20903,0.52301186,21.608425,-42.077553,-39.946846,40.168346,27.509361,-1.0113627,-5.4409018,-14.827341
173,-106.34176635742188,-102.64445495605469,77.00482177734375,0.8090729169741128,-0.9347622572217298,167.52419426778243,-36.54813,23.675165,-7.3858204,95.61974,-12.701921,10.400818,-1.0275528,-11.486572,13.705631,34.990677,-15.568676,13.864468,4.162692,6.3750124,17.639452,16.308279,40.971607,-19.998383,35.948795,7.5566554,0.51119053,21.491007,-42.73878,-40.221867,39.974846,25.146622,-1.417325,-5.1969786,-14.637058
174,-107.77850341796875,-104.0111083984375,77.75951385498047,1.6570083493434622,-0.734271979625903,167.79827527500456,-37.083836,21.379517,-7.8726354,90.653435,-10.243161,10.372278,-0.52457887,-13.57215,14.428199,34.367043,-10.885052,14.30314,4.852254,5.681967,17.058847,17.939396,41.66485,-18.622793,35.16729,6.7690883,0.39893758,21.281954,-43.070858,-40.53293,39.82212,22.954035,-1.5836682,-4.9093537,-14.486475
175,-109.24028015136719,-105.37300109863281,78.5213623046875,2.3886706788921823,-0.5322414529938834,168.01127088606523,-37.094475,19.033024,-8.402027,85.329445,-7.705865,10.037409,-0.32507396,-15.416754,15.127987,34.15735,-6.052644,14.458372,5.518642,5.095333,16.447771,19.506695,42.198776,-17.438562,34.498653,6.0641723,0.26767504,21.028229,-43.08944,-40.856472,39.6264,20.893002,-1.6311916,-4.6489134,-14.33212
176,-110.70704650878906,-106.72298431396484,79.27249145507812,2.8701982667473773,-0.3802995111268172,168.0442273336821,-36.59573,17.039816,-9.046233,79.83838,-5.42922,9.199955,-0.47494674,-16.852667,15.734291,34.418514,-1.535746,14.256887,6.213292,4.7223783,15.886071,21.011951,42.595566,-16.42832,33.920994,5.6594496,0.19597138,20.774036,-42.82009,-41.15377,39.30975,18.935814,-1.6801344,-4.489063,-14.130849
177,-112.19682312011719,-108.0708236694336,80.01300811767578,3.0166188169996677,-0.2727292465008354,167.81513881806893,-35.489193,15.579429,-9.833128,73.94806,-3.5022535,7.5426474,-1.0584935,-17.812456,16.16809,35.11103,3.064776,13.566472,6.9998455,4.634842,15.364004,22.522387,42.883472,-15.604381,33.374348,5.7594385,0.22293279,20.497646,-42.245674,-41.379814,38.856106,17.049458,-1.7103118,-4.481726,-13.835707
178,-113.72216033935547,-109.42032623291016,80.73751068115234,2.9164712185219805,-0.18267645798432514,167.3960773559102,-33.857536,14.462251,-10.77779,67.62883,-1.7382001,5.293765,-2.0437975,-18.444805,16.402449,36.18123,7.887152,12.396009,7.8362303,4.745728,14.834215,24.045841,43.076767,-14.959505,32.85787,6.1946516,0.29774377,20.182564,-41.402016,-41.513203,38.32791,15.3109,-1.6806123,-4.580587,-13.481181
179,-115.26219940185547,-110.74849700927734,81.41807556152344,2.699980884734496,-0.13073562744798062,166.90278454115023,-31.991552,13.509707,-11.883207,61.375046,-0.043633454,3.0624428,-3.2576532,-18.910133,16.437723,37.6003,12.073389,10.862891,8.610566,4.928156,14.326925,25.49847,43.171185,-14.442363,32.435368,6.622028,0.36387572,19.88229,-40.385433,-41.553318,37.76217,13.84647,-1.6775506,-4.71182,-13.147451
180,-116.80024719238281,-112.07573699951172,82.03101348876953,2.496985709698065,-0.13943393932087406,166.45714892017605,-30.175,12.510333,-13.1432085,55.70844,1.6718917,1.4313735,-4.496445,-19.33028,16.343561,39.347954,14.728605,9.140073,9.214159,5.0944076,13.85153,26.693827,43.142265,-14.111097,32.267456,6.671527,0.36716756,19.660131,-39.274246,-41.52163,37.230637,12.7962885,-1.7877339,-4.80043,-12.935597
181,-118.32815551757812,-113.41357421875,82.55543518066406,2.2887388673854736,-0.20907667232944926,166.0686269605328,-28.435013,11.440538,-14.657492,50.628704,3.493535,0.5670549,-5.750849,-19.647017,16.186644,41.59877,15.265735,7.0782623,9.591192,5.186767,13.502582,27.93698,42.985867,-13.63175,32.104706,6.3167143,0.2872762,19.505796,-38.024643,-41.40886,36.585045,12.02197,-2.053531,-4.8396816,-12.846142
182,-119.8438491821289,-114.76882934570312,82.9931640625,2.0188290301148553,-0.33396266298695104,165.68688839332077,-26.674414,10.402675,-16.379303,45.95697,5.3308253,0.15215881,-7.1026764,-19.783606,16.002382,44.360973,14.213061,4.6988854,9.816517,5.3423467,13.178932,29.021149,42.69312,-13.313269,32.141693,5.6656423,0.15313658,19.406128,-36.62599,-41.21155,35.964603,11.575857,-2.4168568,-4.862895,-12.884776
183,-121.33665466308594,-116.13322448730469,83.32394409179688,1.7583067618653472,-0.5218969588813952,165.34425631850812,-24.989952,9.339293,-18.080414,41.95793,7.031067,0.019500893,-8.493206,-19.79286,15.86574,47.409832,12.350384,2.491299,9.864195,5.4894266,12.935731,29.888294,42.28801,-13.117643,32.334923,4.889329,0.0040103095,19.367268,-35.24832,-40.951923,35.41168,11.555768,-2.8162131,-4.86113,-12.928566
184,-122.81214904785156,-117.48728942871094,83.58116912841797,1.5818931639800309,-0.7806083449482558,165.0697524164024,-23.453665,8.183011,-19.532742,38.8445,8.477462,-0.0023318536,-9.861392,-19.772642,15.767544,50.483845,10.51212,0.8930742,9.716816,5.5638227,12.811099,30.45459,41.810253,-13.053039,32.666336,4.127662,-0.12259402,19.395123,-33.995968,-40.674904,34.964676,12.027332,-3.205746,-4.8257685,-12.875885
185,-124.26651763916016,-118.85244750976562,83.76528930664062,1.4935481554028485,-1.1139998747193982,164.87061518976563,-22.131147,6.8267584,-20.815952,36.737133,9.772995,0.20885484,-11.163057,-19.662283,15.742267,53.584236,8.719796,0.1710183,9.37885,5.5548263,12.820231,30.694452,41.27392,-13.147748,33.179707,3.3211448,-0.20678109,19.534927,-32.78605,-40.414352,34.554245,12.970874,-3.60521,-4.7461514,-12.7033615
186,-125.66341400146484,-120.21865844726562,83.87904357910156,1.4504657433440298,-1.5179509477483815,164.72748877739028,-20.952724,5.320326,-21.983446,35.434406,10.982882,0.67176,-12.458342,-19.411097,15.760327,56.898926,6.576456,0.05201499,8.879727,5.497448,12.947427,30.658997,40.681923,-13.385572,33.849834,2.420479,-0.27402785,19.76717,-31.541597,-40.18943,34.137764,14.303393,-4.0204144,-4.629491,-12.464903
187,-127.05079650878906,-121.59001922607422,83.92466735839844,1.458092451047676,-1.9895089995574535,164.62736070420482,-19.77012,3.831409,-22.789661,34.602905,11.96392,1.0547167,-13.82619,-19.186354,15.662144,60.382202,4.3352537,0.11032047,8.2457,5.390825,13.1855955,30.380945,40.06317,-13.704684,34.547787,1.5783647,-0.35302305,20.000166,-30.327568,-40.0301,33.762352,15.964403,-4.4019637,-4.4944158,-12.177812
188,-128.42726135253906,-122.95651245117188,83.91242980957031,1.523038993634566,-2.5256773262960825,164.55871295472815,-18.45077,2.521808,-23.009912,33.920147,12.5602865,1.030261,-15.327552,-19.171833,15.319525,63.947487,2.2727509,-0.08091247,7.5052094,5.228904,13.528029,29.898039,39.45931,-14.041333,35.13296,0.9434233,-0.4680128,20.139185,-29.216202,-39.971,33.476624,17.898445,-4.6916127,-4.358756,-11.860693
189,-129.79330444335938,-124.33847045898438,83.8176040649414,1.6528300415411163,-3.156254945016996,164.51836693920205,-16.9386,1.4375743,-22.428894,33.305546,12.816811,0.3118682,-16.947092,-19.496737,14.665585,67.59233,0.4896318,-0.5811651,6.6587586,4.9930806,14.008248,29.22957,38.88247,-14.408417,35.578316,0.54570323,-0.61061907,20.124285,-28.16996,-40.041454,33.250362,20.096554,-4.8685646,-4.213434,-11.4949045
190,-131.15187072753906,-125.72989654541016,83.63863372802734,1.835916224760483,-3.871443284239856,164.51435874977489,-15.317834,0.4454588,-21.228792,32.877247,12.804262,-0.8613909,-18.64429,-20.082232,13.790326,71.341835,-1.1750149,-1.2106522,5.7131786,4.683624,14.614111,28.353676,38.33272,-14.82943,35.936726,0.30061182,-0.76922613,20.013468,-27.122305,-40.25939,33.035168,22.539213,-4.9503217,-4.050898,-11.082839
191,-132.4847869873047,-127.10458374023438,83.38578033447266,2.052794023809395,-4.608517932884875,164.55327065791874,-13.677286,-0.55496603,-19.77806,32.637604,12.388908,-2.0173118,-20.426836,-20.797756,12.820721,75.118256,-2.8266954,-2.028841,4.7061615,4.321873,15.268665,27.245043,37.841038,-15.260281,36.18624,0.18240179,-0.9620528,19.8868,-26.046474,-40.63424,32.820774,25.122528,-4.966165,-3.8905835,-10.67551
192,-133.80712890625,-128.4813995361328,83.07611846923828,2.282717547217197,-5.306370690151344,164.63948806972337,-12.09563,-1.6287065,-18.448488,32.580235,11.449922,-2.6880646,-22.307014,-21.485624,11.88125,78.84145,-4.564308,-3.0742407,3.6794841,3.9294374,15.896414,25.893799,37.45641,-15.650306,36.28654,0.16123386,-1.2070007,19.82048,-24.916166,-41.16734,32.59246,27.749846,-4.948396,-3.753821,-10.322156
193,-135.12876892089844,-129.85025024414062,82.68745422363281,2.5426461720610614,-5.953750806336544,164.7648722774839,-10.607332,-2.7829533,-17.198853,32.801464,9.871793,-2.704844,-24.312515,-22.153093,11.014033,82.54285,-6.481114,-4.410585,2.648938,3.4847317,16.478827,24.313938,37.21884,-16.034348,36.193554,0.2635875,-1.558,19.817198,-23.73904,-41.86845,32.352993,30.45851,-4.96364,-3.6558154,-10.048524
194,-136.42811584472656,-131.19976806640625,82.2105484008789,2.83603803924537,-6.580956066414892,164.93100880733337,-9.180615,-4.019049,-15.886514,33.281452,7.7542653,-2.3287919,-26.411098,-22.86309,10.159923,86.23813,-8.511004,-5.9901175,1.617257,2.9755392,17.04657,22.51063,37.13499,-16.437508,35.910828,0.47889656,-1.9864981,19.835663,-22.473736,-42.745346,32.06093,33.25371,-4.9696383,-3.5811522,-9.824356
195,-137.71975708007812,-132.52830505371094,81.68539428710938,3.121279884695638,-7.191053114491357,165.15717063065222,-7.7997136,-5.355417,-14.74438,33.87739,5.2853465,-1.743347,-28.537216,-23.519213,9.270425,89.836235,-10.508723,-7.671492,0.60200685,2.4461296,17.602705,20.46113,37.201492,-16.797606,35.469532,0.72631794,-2.3865035,19.885693,-21.017591,-43.785767,31.62819,35.998158,-4.8394523,-3.5071466,-9.611683
196,-139.0052032470703,-133.8428955078125,81.10893249511719,3.356993923899941,-7.788011217055348,165.46358773573803,-6.4347825,-6.782024,-13.997774,34.44211,2.6427171,-1.1260116,-30.628431,-24.034155,8.275685,93.24678,-12.319778,-9.323341,-0.39226767,1.9374676,18.150211,18.153214,37.41213,-17.043692,34.901566,0.9291257,-2.6522424,19.976177,-19.24218,-44.96333,30.94695,38.54053,-4.466526,-3.4115098,-9.371493
197,-140.27432250976562,-135.13931274414062,80.46694946289062,3.554138787964786,-8.390369493636827,165.79670902874392,-5.0310025,-8.296945,-13.713549,34.97291,-0.32298404,-0.49148944,-32.727734,-24.4442,7.162755,96.533745,-13.88354,-11.00873,-1.3079497,1.4499238,18.703594,15.54928,37.776814,-17.169792,34.198544,1.0557694,-2.7491431,20.14081,-17.295937,-46.27182,30.12577,41.02297,-3.6998084,-3.267668,-9.079377
198,-141.5305938720703,-136.4231719970703,79.77013397216797,3.7293224200924593,-8.990489095093242,166.16823044622257,-3.6083436,-9.900304,-13.785876,35.557274,-3.6461558,0.26144323,-34.834724,-24.80266,5.9392457,99.71491,-15.290976,-12.779423,-2.1916385,0.95438963,19.234686,12.6934,38.295567,-17.21256,33.353733,1.1543963,-2.7353263,20.362284,-14.989959,-47.70461,29.039398,43.344822,-2.71938,-3.0940611,-8.763896
199,-142.77069091796875,-137.6663055419922,79.04474639892578,3.847489781675125,-9.5576639273864,166.69527311005746,-2.2384136,-11.556472,-14.1652,36.19089,-6.990649,1.1264372,-36.830215,-25.046822,4.549547,102.621735,-16.590097,-14.475547,-3.0826535,0.4964907,19.759005,9.5393,38.967136,-17.28507,32.40345,1.2577679,-2.6458824,20.57465,-12.395404,-49.21871,27.652016,45.568813,-1.5580956,-2.928918,-8.441878
200,-143.99424743652344,-138.880615234375,78.29881286621094,3.8800442051821205,-10.058798516113471,167.49951623543984,-0.9827123,-13.239884,-14.788291,36.855255,-10.016445,2.094158,-38.587185,-24.822777,3.2378383,105.07925,-17.790623,-15.000033,-4.0874524,0.091729395,20.244856,6.1079082,39.76841,-17.449476,31.394112,1.3976828,-2.515758,20.71069,-9.253565,-50.736565,25.725166,47.504105,-0.4149798,-2.8175592,-8.13483
201,-145.18075561523438,-140.05484008789062,77.53907775878906,3.8216181489691943,-10.528751440456448,168.61855343638157,0.14815013,-14.96383,-15.704974,37.6481,-12.781904,3.1146278,-40.139954,-24.300816,1.7209762,107.14953,-18.936415,-15.000033,-5.205787,-0.2735417,20.72702,2.2040238,40.707985,-17.792416,30.419468,1.6088291,-2.3122432,20.754274,-5.5551767,-52.184395,23.229223,49.307198,0.8664859,-2.8183453,-7.855682
202,-146.3710174560547,-141.19374084472656,76.81935119628906,3.81767815185722,-11.00885836638989,170.07827384611724,1.314841,-16.90022,-16.993464,38.39949,-15.307887,4.235648,-41.564686,-23.776075,0.0463303,108.921875,-20.016108,-15.000033,-6.4967833,-0.77726066,21.194498,-2.1578765,41.76832,-18.342463,29.45442,1.8479637,-2.0333774,20.738792,-1.3184928,-53.49431,20.198303,50.998013,2.293678,-2.8918207,-7.5741124
203,-147.53466796875,-142.3285675048828,76.17201232910156,3.6727607151376294,-11.361750753014046,171.72388346459243,2.4373453,-18.710886,-18.460247,39.09466,-17.512583,5.473197,-42.907272,-23.08721,-1.9015404,110.15167,-20.832773,-15.000033,-7.8994737,-1.1822314,21.539602,-6.653342,42.861603,-19.039278,28.347898,2.0381002,-1.7627676,20.682491,3.322504,-54.57646,16.73121,52.42179,3.5529056,-2.9345858,-7.239621
204,-148.70387268066406,-143.4537353515625,75.66034698486328,3.3357913996460407,-11.477616769224706,173.46915231119686,3.5084088,-20.225744,-19.933779,39.55806,-19.20296,6.873906,-44.212074,-22.185806,-4.0922594,110.619354,-21.222054,-15.000033,-9.456024,-1.3942001,21.66599,-10.910763,43.881718,-19.736063,26.968544,2.1320748,-1.5837791,20.614449,8.0849085,-55.350304,13.067338,53.51148,4.3160086,-2.8501103,-6.8186703
205,-149.90341186523438,-144.55258178710938,75.29360961914062,2.7987450219553596,-11.296215125398144,175.44518255689357,4.4799314,-21.420017,-21.437838,39.811993,-20.42223,8.507348,-45.542187,-21.036581,-6.572407,110.22323,-21.1651,-15.000033,-11.32347,-1.4073232,21.51061,-14.958872,44.800186,-20.38139,25.348515,2.0992007,-1.5662806,20.504389,12.684966,-55.74181,9.352153,54.522774,4.3154945,-2.5942423,-6.275355
206,-151.16360473632812,-145.6251678466797,75.07415008544922,2.127118500430889,-10.869606483383098,177.62797237986732,5.363624,-22.383942,-22.989628,39.921093,-21.244703,10.329487,-46.90378,-19.694,-9.295116,109.06738,-20.742058,-15.000033,-13.456434,-1.2909064,21.106487,-18.932896,45.631207,-21.021261,23.59454,2.0088625,-1.6507704,20.365744,16.992462,-55.73217,5.769163,55.61747,3.7525485,-2.250742,-5.658959
207,-152.47732543945312,-146.7513885498047,74.97762298583984,1.4833411200211715,-10.310334903040507,179.79830444076111,6.322886,-23.24116,-24.490461,39.655415,-21.436146,12.227967,-48.217422,-18.33666,-11.958841,107.296135,-19.985027,-15.000033,-15.676869,-1.1658648,20.54565,-22.631432,46.3436,-21.620543,21.705856,1.98032,-1.7244427,20.294403,20.951572,-55.406532,2.6241376,56.585037,3.0356395,-1.9089326,-5.0929565
208,-153.82382202148438,-147.94065856933594,74.99170684814453,0.8458850368722712,-9.674895648602947,-178.40171572887314,7.3586216,-23.87889,-25.702091,38.965714,-20.921633,14.047995,-49.393806,-16.9528,-14.506141,104.99077,-18.845024,-15.000033,-17.683361,-0.92366225,19.919256,-25.843325,46.887302,-22.107292,19.70086,2.1432517,-1.6769854,20.382177,24.624678,-54.92812,0.12083498,57.13283,2.5953147,-1.6362072,-4.699447
209,-155.2244873046875,-149.21478271484375,75.1294937133789,0.05945999924172876,-8.904853497701565,-177.06474378171157,8.346867,-24.01217,-26.591564,37.92436,-19.851511,15.000033,-50.566074,-15.045968,-16.729555,101.98995,-17.135107,-14.152823,-19.396255,-0.33301547,19.252352,-28.586395,47.229446,-22.438025,17.576736,2.5749035,-1.4238716,20.694014,28.161785,-54.45987,-1.7466644,57.037594,2.577715,-1.4219182,-4.5036483
210,-156.66818237304688,-150.54336547851562,75.3785171508789,-0.8997338520298959,-7.945306093297898,-176.00184735147738,9.147996,-23.67916,-27.219805,36.721695,-18.362068,15.000033,-51.688904,-12.862671,-19.000996,98.23478,-14.930076,-13.251222,-20.991005,0.6355997,18.517576,-30.938976,47.36902,-22.606947,15.3523655,3.2067006,-1.0413114,21.162931,31.59669,-54.06401,-3.149826,56.428646,2.7862825,-1.2268606,-4.4189425
211,-158.15106201171875,-151.9127655029297,75.70753479003906,-1.846208267546853,-6.896210315951523,-175.236219952164,9.819653,-23.24848,-27.414877,35.35949,-16.28869,15.000033,-52.550232,-10.74078,-21.297846,93.96363,-12.487219,-12.299886,-22.420265,1.7866803,17.749517,-32.828503,47.310043,-22.619183,13.098167,3.9393823,-0.65958405,21.679003,34.848145,-53.744473,-4.183622,55.53951,3.1495569,-1.0672625,-4.4031906
212,-159.6636505126953,-153.3282012939453,76.10551452636719,-2.7118505056123925,-5.793161102514648,-174.73080075552357,10.277223,-22.875,-27.071001,33.935,-13.498378,15.000033,-52.932846,-8.95172,-23.817451,89.35118,-10.020283,-11.318376,-23.68721,3.0230615,16.9363,-34.20404,47.067413,-22.501926,10.90356,4.6734605,-0.4132056,22.136482,37.79369,-53.472134,-4.9067516,54.626804,3.5876174,-0.96180373,-4.4282026
213,-161.2213897705078,-154.77728271484375,76.57589721679688,-3.6066495816169266,-4.5327319245223325,-174.5291808417922,10.1911125,-22.59396,-26.281876,32.811172,-9.712769,15.000033,-52.70788,-7.5547986,-26.97119,84.212364,-7.51229,-10.440893,-24.736183,4.496826,16.027693,-35.00862,46.63578,-22.196236,8.717746,5.4237285,-0.37302837,22.54943,40.503387,-53.24493,-5.2868104,53.590324,4.1397486,-0.9323567,-4.5369577
214,-162.81228637695312,-156.27731323242188,77.092041015625,-4.532174948598952,-3.1500505626908994,-174.64844542059708,9.670941,-22.342018,-25.082584,31.92767,-5.1222916,15.000033,-51.98845,-6.2062626,-30.57322,78.49025,-4.817208,-9.571843,-25.535828,6.1922107,15.0399885,-35.34284,46.01614,-21.738127,6.53895,6.225264,-0.4520402,22.961773,43.046997,-53.090755,-5.36415,52.343166,4.818365,-0.9672145,-4.7314515
215,-164.44544982910156,-157.81118774414062,77.62657165527344,-5.264560418123918,-1.8901355209757056,-174.9871265559866,9.390678,-22.037329,-23.269659,30.539356,-0.16705042,15.000033,-50.961235,-4.672495,-33.890873,72.58238,-1.9521233,-8.404688,-26.144047,7.751645,14.053818,-35.35248,45.241196,-21.284468,4.5013547,7.021367,-0.5541037,23.312366,45.286972,-52.99947,-5.2813005,51.156227,5.505608,-1.0314602,-4.9274282
216,-166.13232421875,-159.40513610839844,78.14117431640625,-5.576695691185657,-0.974434951785967,-175.4081756071154,10.169824,-21.574583,-20.613508,27.607079,4.8988404,15.000033,-49.84755,-2.930204,-36.169456,66.93936,1.0362229,-6.695169,-26.647686,8.816354,13.143286,-35.17507,44.362503,-20.997782,2.7286584,7.7467813,-0.58646303,23.53413,47.09657,-52.927723,-5.18234,50.27808,6.0790586,-1.0870377,-5.0502896
217,-167.85569763183594,-161.07962036132812,78.59467315673828,-5.3548952715972105,-0.40998548968143445,-175.87824988447642,12.953775,-20.878227,-16.68847,21.17949,11.24807,15.000033,-48.68281,-1.1398011,-37.18853,61.644524,4.3179193,-4.134985,-27.090885,9.278226,12.266525,-34.805984,43.407562,-20.91134,1.2016883,8.376004,-0.52062297,23.583601,48.48695,-52.853924,-5.128117,49.689526,6.5002875,-1.1382455,-5.0482125
218,-169.5509490966797,-162.6672821044922,78.99757385253906,-5.785167988884088,0.379044548738466,-176.07997635873016,16.553942,-19.622835,-14.535446,13.109723,18.370962,7.4197536,-47.26234,1.3312998,-38.533665,55.27208,8.315555,-1.1155394,-27.836777,10.406379,11.501807,-34.198822,42.37645,-20.955864,-0.15631104,8.924714,-0.41137898,23.505398,49.53192,-52.773464,-5.0676937,49.261086,6.823365,-1.1996903,-4.9822125
219,-171.19830322265625,-164.17369079589844,79.30266571044922,-6.969205595390725,1.4058646135177346,-175.84202485214365,19.317966,-18.121899,-13.88664,6.9284267,23.83071,-3.313845,-45.716972,4.416012,-40.223007,47.907127,12.5853195,1.8410754,-29.020287,12.292025,10.952674,-33.452583,41.274784,-21.144163,-1.285974,9.388627,-0.28543305,23.346697,50.279488,-52.660194,-5.0206795,49.009026,7.072907,-1.2483687,-4.9351535
220,-172.80979919433594,-165.6572265625,79.51831817626953,-7.8492349149601335,2.3703139156601885,-175.35981951855678,20.34037,-17.453867,-13.312753,5.009772,26.165329,-11.828438,-44.246082,7.1764145,-41.18664,40.81228,16.256361,4.250739,-30.302687,13.852834,10.378283,-32.57081,40.12009,-21.481142,-2.1772807,9.795705,-0.1764041,23.166271,50.714493,-52.450207,-4.93266,48.99666,7.259381,-1.2623531,-5.0168796
221,-174.3914794921875,-167.1439971923828,79.64569091796875,-8.052874557342106,3.1948672514403795,-174.69595181287667,20.946352,-17.478819,-11.664151,4.8925405,26.653791,-15.000033,-43.006622,9.152761,-40.983982,34.686157,18.912247,5.970597,-31.536873,14.746601,9.605888,-31.626749,38.95817,-22.077272,-2.786004,10.079966,-0.08463795,22.94933,50.835175,-52.081398,-4.828718,49.28497,7.408214,-1.2308934,-5.3579965
222,-175.98117065429688,-168.6697540283203,79.70574951171875,-7.6546749126411875,3.897130235628416,-173.85955933845798,21.838737,-17.906504,-9.194526,4.881913,26.573603,-15.000033,-41.94286,10.285521,-39.8673,29.633024,20.702883,7.248625,-32.737637,15.04797,8.646833,-30.496561,37.77521,-22.892466,-3.2279572,10.315675,0.008362874,22.689028,50.634674,-51.535305,-4.7155113,49.82115,7.4837766,-1.1711535,-5.8887787
223,-177.5794677734375,-170.18618774414062,79.75717163085938,-6.9293685977911,4.331532781060084,-173.0211770925833,23.051561,-18.532448,-7.4421635,4.887999,26.291744,-15.000033,-40.601894,10.904338,-38.469387,25.334234,21.92441,8.108322,-33.750233,14.919482,7.711902,-29.235502,36.576572,-23.849283,-3.4535732,10.4763155,0.081348546,22.429512,50.132828,-50.816685,-4.53307,50.54797,7.4167066,-1.102618,-6.4176564
224,-179.16502380371094,-171.65731811523438,79.77938079833984,-6.032363829547691,4.414738587250695,-172.31734153812764,24.454573,-19.256315,-6.63138,4.980227,26.087769,-15.000033,-38.826923,11.073916,-37.31312,21.939356,22.684164,8.665315,-34.47738,14.439984,6.952353,-27.787548,35.33375,-24.810709,-3.505364,10.622705,0.123600096,22.220795,49.347107,-49.96081,-4.237879,51.381374,7.146256,-1.0447415,-6.7396007
225,-180.77317810058594,-173.11558532714844,79.82195281982422,-5.0519943392231035,4.034856363363265,-171.8414458346566,26.085363,-20.097181,-7.4857206,5.2717905,25.806528,-15.000033,-36.449364,10.831124,-36.71147,19.472216,22.85556,8.7755375,-34.88953,13.607245,6.491048,-26.054756,34.01817,-25.733843,-3.3996234,10.758376,0.15652928,22.05449,48.194176,-48.97047,-3.8818798,52.44971,6.5959864,-0.9722207,-6.72212
226,-182.39291381835938,-174.5577392578125,79.87931823730469,-4.0566149401733735,3.3110086768983455,-171.54222437955946,25.363588,-21.319965,-8.810324,10.886152,22.577093,-15.000033,-33.699814,10.258769,-36.454037,17.80868,22.444504,8.51763,-35.045986,12.537755,6.2781157,-24.05652,32.60652,-26.699245,-3.1281998,10.918556,0.17916662,21.913748,46.728176,-47.84455,-3.5232544,53.733967,5.827478,-0.886917,-6.4882674
227,-184.006103515625,-175.97317504882812,79.90013885498047,-3.250983129753446,2.529426312898176,-171.2712610236885,24.035622,-22.393461,-9.931959,17.719364,18.78627,-15.000033,-30.97085,9.588436,-36.37763,16.71188,21.843922,8.267523,-35.02439,11.577482,6.212807,-22.174463,31.133434,-27.818129,-2.4828029,11.000752,0.13788933,21.811008,45.20347,-46.63709,-3.1406531,54.945892,5.003233,-0.84466606,-6.204541
228,-185.6038360595703,-177.3776397705078,79.83623504638672,-2.7308929947158544,1.8808621433076353,-170.98182252795044,22.560844,-22.81643,-9.700382,24.448532,15.201678,-15.000033,-28.571377,9.015881,-36.170082,16.123207,21.389124,8.321744,-34.847343,10.916765,6.221522,-20.560898,29.633932,-29.097076,-1.4094058,11.019248,-0.014034846,21.776793,43.750923,-45.437546,-2.6026292,55.842255,4.2895665,-0.8949935,-6.0405445
229,-187.17193603515625,-178.7752227783203,79.67980194091797,-2.4643463341527347,1.3003751133976162,-170.68697348226632,21.113998,-22.285946,-7.616714,30.987017,11.760699,-15.000033,-26.392721,8.5302515,-35.90947,16.173624,21.671103,9.26013,-34.543987,10.482979,6.327005,-19.120546,28.131939,-30.478197,0.13218684,10.876763,-0.3295062,21.876537,42.308315,-44.293087,-1.7174331,56.43998,3.7001874,-1.0676521,-5.9944305
230,-188.70755004882812,-180.17799377441406,79.43572235107422,-2.4053915963029837,0.6990158727526578,-170.393258393054,19.68254,-20.913183,-4.505828,37.68262,8.247382,-15.000033,-24.27462,8.070357,-35.67116,16.83857,22.33453,10.710622,-34.166462,10.179638,6.5760374,-17.68281,26.633518,-31.901127,2.0390534,10.632629,-0.7686091,22.081924,40.716732,-43.209297,-0.49965334,56.917774,3.1789246,-1.327356,-5.976323
231,-190.22528076171875,-181.58067321777344,79.11133575439453,-2.476047055278833,0.13752287475893543,-170.19752753675476,18.23134,-18.893116,-1.0054162,44.4148,4.813881,-15.000033,-22.399508,7.6646013,-34.987915,18.04552,22.202301,11.517588,-33.598694,10.001496,6.882677,-16.440966,25.189663,-33.3782,4.279244,10.385128,-1.2461522,22.271963,38.9587,-42.221954,0.88682365,57.29579,2.786134,-1.6210098,-6.0245576
232,-191.73953247070312,-182.9796600341797,78.71330261230469,-2.6115129569341886,-0.32601546446525315,-170.20253923577363,16.697056,-16.50121,2.2570586,51.050556,1.6089517,-15.000033,-20.948084,7.3635335,-33.427963,19.69587,20.140526,10.4920845,-32.738277,9.954008,7.186542,-15.54039,23.865803,-34.881462,6.7635164,10.240838,-1.6724323,22.333603,37.010906,-41.37992,2.2771356,57.56949,2.5792117,-1.8950747,-6.1730328
233,-193.19168090820312,-184.32786560058594,78.27945709228516,-2.811760175556673,-0.6825699359774497,-170.43597357437974,15.080507,-13.7077875,5.281374,57.68195,-1.4223309,-15.000033,-20.26748,7.348834,-30.160133,22.235819,15.193239,6.2527437,-31.57528,10.066138,7.473241,-14.958166,22.712059,-36.40233,9.460239,10.226349,-2.043204,22.200048,34.844345,-40.697617,3.6944475,57.691837,2.6647778,-2.139925,-6.4305167
234,-194.6376953125,-185.74383544921875,77.73835754394531,-2.9145104510579887,-0.957342614296952,-170.78869437695303,13.549383,-10.361102,8.669074,64.28206,-4.276947,-13.623659,-20.629868,7.623477,-25.19368,26.277277,8.218746,-0.32832122,-30.236334,10.174257,7.691271,-14.558864,21.744545,-37.88866,12.317768,10.262733,-2.39418,21.957464,32.430702,-40.16418,5.250894,57.677856,2.9861236,-2.3845217,-6.7644315
235,-196.0721893310547,-187.22149658203125,77.10209655761719,-2.950657280115608,-1.2078584862826431,-171.27643268051384,12.15851,-6.807806,11.798877,70.71818,-6.9187007,-11.8206415,-21.36763,8.457975,-19.753502,30.723251,1.2201993,-7.0320387,-28.749353,10.231342,7.9407187,-14.329523,20.978167,-39.238564,15.229043,10.284093,-2.6959856,21.720755,29.742365,-39.80085,6.920191,57.61254,3.354381,-2.633189,-7.1479874
236,-197.4127655029297,-188.6922149658203,76.4323501586914,-2.949307862037188,-1.4398486897691802,-171.95485683350762,10.81812,-3.334535,14.401036,76.86078,-9.282459,-9.929121,-21.68224,9.379085,-15.393831,34.444466,-4.55266,-11.443248,-27.106363,10.241075,8.283133,-14.24781,20.427631,-40.336594,18.07556,10.224929,-2.9215586,21.601725,26.73533,-39.644142,8.680537,57.580227,3.5833297,-2.8858128,-7.5477514
237,-198.6944580078125,-190.15687561035156,75.73932647705078,-2.892702869879907,-1.5782419082593162,-172.86272408306755,9.312924,-0.012369867,16.562319,82.87507,-11.304816,-7.859038,-21.367332,9.643081,-12.817713,37.141834,-9.707123,-12.540545,-25.25108,10.248767,8.648238,-14.348744,20.120777,-41.200783,20.854805,9.995749,-3.0691276,21.60921,23.339695,-39.719147,10.624668,57.569775,3.6071951,-3.139768,-7.9598064
238,-199.95660400390625,-191.6198272705078,75.0156478881836,-2.8203224580967574,-1.6247006051299524,-174.0022016391427,7.6658564,3.312735,18.43055,88.851845,-13.097559,-5.5785985,-20.808805,9.319964,-11.310865,39.358364,-14.968359,-11.652605,-23.21453,10.311704,9.03543,-14.566567,20.076021,-41.82683,23.543158,9.656675,-3.1527288,21.690615,19.524704,-40.004173,12.812387,57.545155,3.5488176,-3.390872,-8.382704
239,-201.15750122070312,-193.06968688964844,74.29270935058594,-2.866099026911914,-1.6891614704556766,-175.38944621782304,6.056546,6.705186,19.933626,94.54429,-14.819798,-3.3993263,-20.173382,8.7942095,-10.283913,41.314804,-19.80611,-9.89738,-21.090754,10.502749,9.599186,-14.741101,20.286484,-42.075798,26.00657,9.371263,-3.1724114,21.862942,15.301179,-40.45617,15.182019,57.558228,3.503189,-3.6345086,-8.791835
