unveil-humanoid-operators/unveil-humanoid-operators.github.io/feature-analysis-animation/data/feature_matrix_instances/age_waist_mean_vel_jogging_A035_jog_sideway_045_stop_002__A035.csv
Frame,root_translateX,root_translateY,root_translateZ,root_rotateX,root_rotateY,root_rotateZ,left_hip_pitch_joint_dof,left_hip_roll_joint_dof,left_hip_yaw_joint_dof,left_knee_joint_dof,left_ankle_pitch_joint_dof,left_ankle_roll_joint_dof,right_hip_pitch_joint_dof,right_hip_roll_joint_dof,right_hip_yaw_joint_dof,right_knee_joint_dof,right_ankle_pitch_joint_dof,right_ankle_roll_joint_dof,waist_yaw_joint_dof,waist_roll_joint_dof,waist_pitch_joint_dof,left_shoulder_pitch_joint_dof,left_shoulder_roll_joint_dof,left_shoulder_yaw_joint_dof,left_elbow_joint_dof,left_wrist_roll_joint_dof,left_wrist_pitch_joint_dof,left_wrist_yaw_joint_dof,right_shoulder_pitch_joint_dof,right_shoulder_roll_joint_dof,right_shoulder_yaw_joint_dof,right_elbow_joint_dof,right_wrist_roll_joint_dof,right_wrist_pitch_joint_dof,right_wrist_yaw_joint_dof
0,-0.8999999761581421,2.4734716415405273,76.8937759399414,1.7773299377651384,-1.1042322960700608,-82.09660704203367,-5.297268,7.6481404,6.0908723,19.688011,-13.713225,-10.014419,-8.872947,-10.840365,-7.4860353,27.672272,-17.241173,8.584839,-1.2708066,0.33480358,4.231944,5.1072273,24.393005,-34.793457,47.61703,6.752814,2.666415,-3.0823448,-1.1064188,-23.883684,42.700687,44.973198,11.804475,27.023554,-2.2608745
1,-0.9219683408737183,2.4891693592071533,76.88927459716797,1.7421057331420609,-1.0543342171978891,-81.95413300517129,-5.6053543,7.6748414,5.899283,20.048944,-13.758635,-9.984192,-8.975321,-10.850017,-7.6516385,27.802748,-17.218504,8.553737,-1.2406455,0.36813462,4.220739,5.1245837,24.41975,-34.707333,47.669907,6.7544646,2.6411557,-3.078091,-1.1543906,-23.921974,42.659977,44.746197,11.336324,27.031145,-2.3474035
2,-0.9464520812034607,2.509145736694336,76.88398742675781,1.708437229336667,-1.0067950824642764,-81.81915207037399,-5.901637,7.7029433,5.7149596,20.399258,-13.804589,-9.957611,-9.077658,-10.85723,-7.811102,27.936255,-17.19714,8.522165,-1.2139091,0.40079615,4.2171483,5.166992,24.465431,-34.606953,47.690876,6.7657776,2.617575,-3.080918,-1.1871741,-23.991184,42.62413,44.481277,10.850364,27.043896,-2.4121249
3,-0.9723901748657227,2.53745698928833,76.87910461425781,1.6719667914741416,-0.953963578564194,-81.66921550061961,-6.2209597,7.726053,5.515658,20.768318,-13.847766,-9.925356,-9.181034,-10.868798,-7.983197,28.064627,-17.173485,8.492033,-1.1888247,0.4383485,4.2188544,5.1981606,24.512354,-34.507454,47.703373,6.7590795,2.5918548,-3.0774453,-1.2216977,-24.067108,42.5799,44.204815,10.411531,27.053497,-2.5164008
4,-1.0029475688934326,2.5687034130096436,76.8740234375,1.6330937096871698,-0.8885423903057563,-81.48166811188005,-6.59728,7.737914,5.2791367,21.183443,-13.883479,-9.878326,-9.28602,-10.891314,-8.187112,28.179651,-17.144812,8.465269,-1.1727921,0.48690373,4.231917,5.2054167,24.557148,-34.40075,47.69871,6.7141786,2.560533,-3.0585692,-1.2765576,-24.147203,42.522976,43.922035,10.092087,27.053242,-2.7202191
5,-1.0339667797088623,2.605611562728882,76.87025451660156,1.5885120556520196,-0.8144817151831352,-81.25681170631557,-7.034949,7.743671,5.0039043,21.663633,-13.921614,-9.809614,-9.384973,-10.91896,-8.423446,28.277575,-17.11121,8.442592,-1.165826,0.5492304,4.255578,5.1819434,24.594656,-34.290882,47.69144,6.6056495,2.5266337,-3.0243247,-1.359556,-24.22132,42.461926,43.64141,9.89881,27.03938,-3.0616243
6,-1.0693053007125854,2.6463394165039062,76.86622619628906,1.5389880955171644,-0.7335382255929527,-81.00455711469439,-7.516054,7.7436557,4.700529,22.187601,-13.959283,-9.725555,-9.478495,-10.950379,-8.683881,28.360023,-17.072363,8.422763,-1.1672124,0.6235544,4.2958083,5.1504607,24.641747,-34.169605,47.65327,6.452516,2.490966,-2.9819038,-1.4461466,-24.322983,42.395073,43.320778,9.802678,27.018164,-3.499781
7,-1.0942316055297852,2.7008256912231445,76.86013793945312,1.4915930589214015,-0.6349326527513155,-80.71706914218069,-8.045839,7.7232676,4.364828,22.731176,-13.978052,-9.637029,-9.5866375,-11.000166,-8.972497,28.442017,-17.03192,8.404554,-1.1770053,0.7045738,4.342777,5.0958953,24.685236,-34.042202,47.596436,6.2954965,2.4455643,-2.9234746,-1.5413276,-24.430525,42.302555,42.994083,9.80084,26.991938,-3.9806972
8,-1.1113951206207275,2.7561371326446533,76.8531723022461,1.455212527964263,-0.5081411256879861,-80.38621387842966,-8.62599,7.667473,3.993529,23.263908,-13.955889,-9.555495,-9.726822,-11.083396,-9.293526,28.53294,-16.990595,8.386887,-1.1971794,0.7885648,4.395324,5.016375,24.72341,-33.90409,47.508366,6.177511,2.3825755,-2.8438568,-1.6535661,-24.54604,42.174488,42.673973,9.908543,26.964338,-4.4490576
9,-1.1340800523757935,2.8274567127227783,76.84440612792969,1.426149191793053,-0.350242840593345,-80.0093666817881,-9.268774,7.5779543,3.5757809,23.803783,-13.900067,-9.478792,-9.899787,-11.19854,-9.6523695,28.632614,-16.950586,8.364327,-1.2289379,0.8793869,4.44936,4.9096847,24.756266,-33.76959,47.394756,6.118539,2.287744,-2.7318788,-1.7816837,-24.670565,42.009632,42.360672,10.151598,26.938631,-4.922624
10,-1.153562068939209,2.902200698852539,76.84107208251953,1.403114528161797,-0.16712314170088655,-79.59107393107207,-9.967895,7.45901,3.117918,24.357237,-13.8174515,-9.40316,-10.09755,-11.34008,-10.04456,28.737589,-16.911282,8.3393135,-1.270797,0.97783375,4.5068994,4.776176,24.783682,-33.63725,47.260406,6.092263,2.1692753,-2.59343,-1.9162863,-24.804022,41.809692,42.04206,10.511567,26.9102,-5.4195733
11,-1.170441746711731,2.991724967956543,76.83930206298828,1.3950777624230475,0.038934693350990826,-79.13401140840276,-10.701061,7.2996354,2.642438,24.884275,-13.688657,-9.339053,-10.323455,-11.51828,-10.460781,28.85286,-16.868887,8.322749,-1.3207105,1.0745673,4.5749636,4.617418,24.802883,-33.477238,47.09386,6.073488,2.053073,-2.4491637,-2.0590613,-24.949074,41.571404,41.720417,10.939135,26.870934,-5.885941
12,-1.1833853721618652,3.081411123275757,76.8453140258789,1.411283497403987,0.2653106245364023,-78.64045939674074,-11.444272,7.090808,2.1717849,25.340963,-13.494565,-9.298986,-10.58287,-11.743308,-10.890368,28.986515,-16.821714,8.325505,-1.3755753,1.161665,4.662533,4.433701,24.809408,-33.25911,46.88254,6.0385876,1.9650658,-2.3193347,-2.224437,-25.109657,41.301186,41.4031,11.398905,26.814548,-6.26768
13,-1.1973594427108765,3.184098720550537,76.8506851196289,1.451751100187423,0.5154062709438539,-78.11066871778105,-12.200638,6.8375435,1.7077798,25.717585,-13.234769,-9.289835,-10.882988,-12.015911,-11.333292,29.143555,-16.766682,8.3541155,-1.4391807,1.2391107,4.76708,4.237897,24.797626,-32.94889,46.617493,6.0103307,1.9147047,-2.215785,-2.3923638,-25.286577,40.970016,41.06822,11.877063,26.739887,-6.531742
14,-1.209135890007019,3.3060855865478516,76.85531616210938,1.5137746828137248,0.7884029459075788,-77.54323555298514,-12.979121,6.544376,1.2402822,26.035887,-12.919078,-9.308303,-11.219235,-12.33226,-11.792952,29.320969,-16.706577,8.401481,-1.5097364,1.312112,4.8872104,4.0193806,24.76671,-32.57291,46.31223,5.992672,1.8871439,-2.1249022,-2.5897563,-25.48168,40.60321,40.73781,12.418686,26.651142,-6.712709
15,-1.2223180532455444,3.438972234725952,76.86268615722656,1.6011451972465391,1.0752854310301103,-76.93874019112114,-13.769377,6.2036858,0.7722875,26.308552,-12.539649,-9.353832,-11.575194,-12.695758,-12.2654,29.508047,-16.644981,8.45791,-1.5876938,1.3788981,5.025651,3.7561154,24.719889,-32.182407,45.988632,5.9317374,1.8712715,-2.0302606,-2.7867458,-25.69768,40.218235,40.401104,12.975577,26.55195,-6.8576937
16,-1.2326991558074951,3.593468189239502,76.87199401855469,1.7176151263542374,1.3669504223639137,-76.2975734984201,-14.563486,5.8076363,0.306187,26.55083,-12.090331,-9.427666,-11.934445,-13.109515,-12.746708,29.693617,-16.584986,8.5137615,-1.6713328,1.4370252,5.185443,3.425748,24.663273,-31.831074,45.666378,5.7727485,1.8561764,-1.915452,-2.955309,-25.939243,39.832905,40.048912,13.50274,26.44542,-7.013558
17,-1.24105966091156,3.763277053833008,76.88534545898438,1.8696392024362327,1.6620816338055895,-75.61277019802081,-15.378551,5.3366365,-0.20507054,26.774488,-11.564261,-9.476651,-12.295986,-13.581688,-13.236607,29.873821,-16.525621,8.565909,-1.7536169,1.484208,5.380878,3.020819,24.598198,-31.528193,45.334007,5.45577,1.8530695,-1.7509164,-3.1331594,-26.211493,39.46562,39.69899,14.055794,26.327274,-7.20502
18,-1.2473891973495483,3.9463069438934326,76.90184020996094,2.054723490434781,1.9638222661735385,-74.88603692155945,-16.212976,4.805555,-0.748129,26.963125,-10.96461,-9.529055,-12.666287,-14.108734,-13.736098,30.053743,-16.46511,8.619601,-1.8190359,1.5235581,5.6188226,2.537472,24.52538,-31.261972,44.98158,5.0232034,1.8623427,-1.5525074,-3.5163612,-26.525047,39.221497,39.491116,14.8020115,26.19419,-7.4007416
19,-1.2534865140914917,4.128584384918213,76.91738891601562,2.262042133183095,2.2693900455595033,-74.13127852964905,-17.034246,4.2584515,-1.2316502,27.093863,-10.306623,-9.7064905,-13.042535,-14.675741,-14.242644,30.242485,-16.408361,8.677491,-1.9012123,1.5576961,5.860902,2.0091352,24.448952,-31.012236,44.630497,4.57689,1.8569943,-1.3767056,-3.7745552,-26.869726,38.92713,39.19272,15.42199,26.06031,-7.5679183
20,-1.254149317741394,4.3089470863342285,76.93771362304688,2.4811281751024477,2.576534471893239,-73.36222958543534,-17.811419,3.7366319,-1.5675676,27.143454,-9.613395,-10.126053,-13.425437,-15.268832,-14.753209,30.455015,-16.364286,8.742202,-1.980486,1.589444,6.096324,1.4176704,24.380768,-30.810835,44.303345,4.2104406,1.8121519,-1.2761598,-4.0355034,-27.249517,38.673477,38.91689,15.977357,25.93225,-7.6693697
21,-1.2535895109176636,4.489508152008057,76.958740234375,2.7217242257443215,2.900236768531475,-72.57002748045313,-18.593466,3.202263,-1.8013802,27.145359,-8.882879,-10.703655,-13.820666,-15.898139,-15.27667,30.665983,-16.318453,8.812684,-2.0682378,1.6109947,6.3142076,0.7706756,24.326567,-30.65084,43.991413,3.9334238,1.7161185,-1.2862338,-4.205713,-27.657639,38.39913,38.593956,16.402649,25.814266,-7.7009277
22,-1.2548103332519531,4.685726642608643,76.97756958007812,2.9866115622806197,3.235031491682455,-71.75132110173554,-19.384216,2.652999,-1.9630295,27.096224,-8.120741,-11.421372,-14.226444,-16.566912,-15.810106,30.879093,-16.27253,8.887755,-2.1379457,1.6218543,6.5418963,0.049229823,24.289833,-30.548862,43.678574,3.6954203,1.5857048,-1.3703368,-4.581997,-28.106035,38.27467,38.440304,16.951948,25.697224,-7.6772637
23,-1.2586671113967896,4.877618312835693,76.9852066040039,3.2524665067059155,3.5483313687197313,-70.92905639694362,-20.087368,2.1784503,-1.943587,26.92865,-7.378055,-12.482164,-14.624963,-17.247782,-16.335712,31.138147,-16.251593,8.96969,-2.2202415,1.6344703,6.7715125,-0.696103,24.273022,-30.466433,43.3642,3.5145998,1.438175,-1.4836779,-4.830753,-28.584723,38.12614,38.198097,17.326494,25.58701,-7.6027036
24,-1.264005422592163,5.074460506439209,76.98334503173828,3.4952963195733484,3.8091806943258057,-70.12612663038745,-20.611021,1.8609673,-1.6317066,26.590137,-6.7153482,-14.077004,-14.996209,-17.91332,-16.836838,31.480108,-16.276094,9.060536,-2.2891593,1.6610721,7.0216994,-1.4728695,24.283981,-30.424847,43.054714,3.3992872,1.2908455,-1.5757962,-5.1348243,-29.1052,38.081497,38.003895,17.643454,25.479685,-7.474682
25,-1.2331434488296509,5.281786918640137,76.96749877929688,3.902767895984497,4.007812326037953,-69.29175755211742,-20.696737,1.3665769,-0.7026187,25.53984,-5.9129276,-15.000033,-15.431006,-18.85001,-17.224075,32.094143,-16.433985,9.237381,-2.4075089,1.5228914,7.270555,-2.2644234,24.321955,-30.411528,42.757996,3.3718953,1.1403065,-1.6631176,-5.4504886,-29.592827,38.113197,37.875225,17.806465,25.372396,-7.268288
26,-1.1544617414474487,5.482367992401123,76.935791015625,4.521435041972169,4.1676522832848795,-68.38619071293611,-20.409182,0.578815,0.7828398,23.793465,-4.903051,-15.000033,-15.961286,-20.129026,-17.495363,32.97853,-16.713982,9.5108595,-2.5892122,1.2069558,7.540401,-3.0731168,24.393476,-30.426907,42.41244,3.417683,0.9799751,-1.7667649,-5.7453,-30.226938,38.22132,37.658627,17.931904,25.277475,-6.988281
27,-1.0818538665771484,5.678175926208496,76.8858642578125,5.102425755442145,4.305079547875931,-67.46957467880459,-20.180391,-0.09928395,2.433805,22.269157,-4.0276847,-15.000033,-16.473112,-21.37866,-17.767427,33.887814,-16.994219,9.780316,-2.7898736,0.9158594,7.8038435,-3.9126225,24.496655,-30.483946,42.069283,3.4999995,0.82380676,-1.8338939,-6.052412,-30.903996,38.397293,37.44809,17.982273,25.185005,-6.691101
28,-1.02570378780365,5.869263648986816,76.82347869873047,5.608078643142382,4.431719912015615,-66.56063968617343,-20.31538,-0.5104074,4.0775895,21.651897,-3.4984844,-15.000033,-16.960608,-22.526064,-18.04897,34.78267,-17.245335,10.013306,-3.0068884,0.6676455,8.050024,-4.779834,24.638742,-30.58043,41.73737,3.58334,0.6849876,-1.8158674,-6.3533983,-31.61629,38.624386,37.22363,17.946482,25.091475,-6.434099
29,-1.0000889301300049,6.054294586181641,76.75454711914062,6.048566738167198,4.538525722764797,-65.66107820677489,-20.893349,-0.6164472,5.6553645,22.18029,-3.3868115,-15.000033,-17.422504,-23.577274,-18.33322,35.68566,-17.475828,10.200659,-3.2353463,0.4432146,8.292119,-5.682966,24.828642,-30.743263,41.410942,3.6832395,0.57230645,-1.6725155,-6.6936474,-32.358578,38.94908,37.015564,17.829662,24.997128,-6.229791
30,-0.9953823685646057,6.235160827636719,76.68769836425781,6.448014699274548,4.617391186355958,-64.77055391171734,-21.718586,-0.47589678,7.2751365,23.458664,-3.5522363,-15.000033,-17.867212,-24.578342,-18.604992,36.631386,-17.710835,10.362701,-3.4774098,0.22455885,8.536227,-6.6085744,25.067928,-30.960026,41.07528,3.8093998,0.47771338,-1.4404018,-7.034651,-33.125854,39.34344,36.797173,17.603699,24.902359,-6.0501657
31,-0.9908121824264526,6.403719425201416,76.61158752441406,6.805482776784182,4.676377016676591,-63.9105006849381,-22.648458,-0.06428961,9.024884,25.19923,-3.8973262,-15.000033,-18.299683,-25.523827,-18.850292,37.593914,-17.945738,10.513998,-3.7154384,0.016565192,8.773845,-7.542226,25.351925,-31.189825,40.731335,3.9162807,0.3891629,-1.1839303,-7.411007,-33.917973,39.789642,36.601784,17.345415,24.801865,-5.888388
32,-0.9840281009674072,6.571690082550049,76.52117919921875,7.1245740080815825,4.7278865928213465,-63.09839789906805,-23.552868,0.63705784,10.999268,27.136024,-4.3288245,-15.000033,-18.73171,-26.415983,-19.054876,38.55111,-18.176022,10.670174,-3.9354365,-0.17718671,8.993993,-8.471588,25.672554,-31.389198,40.382668,3.960472,0.29342988,-0.96722466,-7.872006,-34.73648,40.282883,36.46979,17.146048,24.690643,-5.738097
33,-0.9770461320877075,6.740211486816406,76.41219329833984,7.40214031651298,4.7728300436126085,-62.333184064857676,-24.383692,1.7409266,13.424743,29.298347,-4.899019,-15.000033,-19.161081,-27.25383,-19.22766,39.50637,-18.409002,10.830535,-4.1394005,-0.35077348,9.193274,-9.407561,26.027344,-31.57705,40.04517,3.9129984,0.18819407,-0.80528975,-8.4418745,-35.585785,40.86903,36.423447,17.019117,24.555029,-5.585439
34,-0.9618426561355591,6.89469575881958,76.29182434082031,7.6199679921556305,4.793442964706042,-61.628268873442025,-25.129194,3.2572792,16.147137,31.77854,-5.64382,-15.000033,-19.568335,-28.007278,-19.36935,40.46714,-18.648327,10.985081,-4.342026,-0.4939118,9.377478,-10.327697,26.415854,-31.742216,39.715603,3.80813,0.07925287,-0.6668753,-8.799118,-36.455124,41.33632,36.224117,16.693455,24.405046,-5.442874
35,-0.938214898109436,7.042890548706055,76.1649169921875,7.773241319136098,4.783283208083642,-61.010022307084725,-25.75826,5.0064654,18.7082,34.414444,-6.4478765,-15.000033,-19.949615,-28.65882,-19.453154,41.416435,-18.88039,11.1396055,-4.478427,-0.6019173,9.584175,-11.258453,26.831795,-31.878311,39.380333,3.6818078,-0.0341964,-0.5385382,-9.286351,-37.352962,41.846024,36.110394,16.460348,24.263714,-5.3287463
36,-0.9035249948501587,7.187881946563721,76.03031158447266,7.864556792219402,4.743880560108194,-60.491703014323924,-26.302658,6.766652,20.663076,37.034298,-7.172949,-15.000033,-20.308893,-29.200884,-19.458767,42.336384,-19.089167,11.301845,-4.5553813,-0.67495817,9.813697,-12.163482,27.267075,-31.909706,39.020035,3.5853088,-0.15400313,-0.4119875,-9.809864,-38.2678,42.276516,36.00598,16.26343,24.158594,-5.2714534
37,-0.8651405572891235,7.322030544281006,75.88597106933594,7.887101477633988,4.682880110818466,-60.08498279620676,-26.821285,8.513712,21.924965,39.65536,-7.778563,-15.000033,-20.659733,-29.610794,-19.367212,43.21935,-19.264292,11.475683,-4.5630865,-0.70950365,10.055196,-13.052393,27.719934,-31.844643,38.64994,3.5252643,-0.28490835,-0.29979718,-10.329335,-39.19639,42.61206,35.902428,16.04599,24.09215,-5.2292295
38,-0.8222817182540894,7.465314865112305,75.72982025146484,7.8397667311697505,4.598265305390592,-59.77996512612058,-27.307878,10.317565,22.705595,42.312477,-8.316523,-15.000033,-20.997118,-29.896494,-19.19798,44.079853,-19.41925,11.658403,-4.505148,-0.70244044,10.309499,-13.938538,28.191193,-31.710358,38.282623,3.478177,-0.42490873,-0.20086576,-10.878983,-40.140324,42.900036,35.82745,15.833174,24.051918,-5.2040043
39,-0.7689969539642334,7.604403972625732,75.56463623046875,7.7401814623989935,4.4875410892648855,-59.54252445932855,-27.761288,12.072679,23.027428,44.875957,-8.769517,-15.000033,-21.306654,-30.102114,-18.997536,44.928402,-19.568413,11.847807,-4.4163413,-0.6649586,10.575665,-14.79446,28.677828,-31.46678,37.905365,3.4505253,-0.56535375,-0.08486524,-11.414136,-41.093605,43.057846,35.72875,15.647414,24.042696,-5.288367
40,-0.7080684304237366,7.741023063659668,75.3906478881836,7.610906088105921,4.351647765723586,-59.33351453586047,-28.189484,13.677498,22.927376,47.235157,-9.129768,-15.000033,-21.579996,-30.28284,-18.810194,45.779762,-19.726978,12.041665,-4.3288474,-0.61251616,10.850168,-15.6027975,29.175709,-31.083992,37.51124,3.4457211,-0.6976739,0.078958035,-11.911038,-42.04941,43.015152,35.573463,15.530781,24.069654,-5.573891
41,-0.6198024749755859,7.884599208831787,75.20670318603516,7.555745170718644,4.231389535419105,-59.054507304851,-28.67187,14.924397,22.41299,49.295757,-9.264351,-14.576318,-21.88677,-30.610909,-18.635622,46.684795,-19.905369,12.272146,-4.3340483,-0.6366049,11.072839,-16.358906,29.681057,-30.544638,37.10886,3.4969933,-0.8268981,0.30855778,-12.353733,-43.00346,42.736668,35.365257,15.413907,24.146513,-6.0389075
42,-0.5169393420219421,8.04258918762207,75.01556396484375,7.5412153196954135,4.1224829094497935,-58.74184575243793,-29.219576,15.9159565,21.588142,51.158337,-9.218386,-13.438815,-22.220463,-31.025602,-18.45191,47.617744,-20.085762,12.533948,-4.3921256,-0.7066981,11.25375,-17.07915,30.194496,-29.874062,36.711777,3.5914943,-0.9551147,0.58526427,-12.751591,-43.956764,42.260796,35.12851,15.30475,24.266945,-6.6497645
43,-0.4030129909515381,8.200072288513184,74.81393432617188,7.494634888924896,3.997024448401883,-58.465643993896364,-29.749641,16.834984,20.53052,52.884098,-9.186679,-12.445834,-22.530659,-31.401243,-18.26152,48.539974,-20.26353,12.798893,-4.43597,-0.7609162,11.431104,-17.770845,30.719635,-29.100145,36.316505,3.665639,-1.0696614,0.8839327,-13.09783,-44.909832,41.61306,34.84635,15.346181,24.403164,-7.4811134
44,-0.27369585633277893,8.354938507080078,74.6059799194336,7.4284604095215006,3.856890188190667,-58.22404427922712,-30.181908,17.759367,19.515877,54.451115,-9.311527,-11.612247,-22.82695,-31.751846,-18.051683,49.449432,-20.435095,13.069565,-4.4598746,-0.80788356,11.601725,-18.442127,31.262102,-28.252796,35.917652,3.6547465,-1.1581115,1.1791244,-13.388496,-45.864067,40.820312,34.50233,15.682548,24.523048,-8.608294
45,-0.13046453893184662,8.509857177734375,74.38971710205078,7.345598132629343,3.6995147031630067,-58.01675505064658,-30.498812,18.705471,18.56338,55.848278,-9.669413,-10.961248,-23.12246,-32.085762,-17.811049,50.37421,-20.601421,13.344672,-4.467867,-0.85190064,11.76372,-19.076363,31.821682,-27.307796,35.516983,3.545297,-1.2144183,1.477868,-13.607458,-46.817432,39.8505,34.086044,16.338161,24.619751,-10.120116
46,0.02503805235028267,8.667840003967285,74.16127014160156,7.241765844429007,3.525241003158592,-57.8440224474476,-30.74783,19.634111,17.542374,57.09913,-10.177253,-10.4807825,-23.40986,-32.395454,-17.548594,51.305878,-20.763632,13.623959,-4.4629207,-0.89008033,11.916314,-19.675694,32.399395,-26.261583,35.12059,3.3685923,-1.2469767,1.7889252,-13.752663,-47.76989,38.698265,33.610508,17.242067,24.6899,-11.954695
47,0.20136898756027222,8.824234008789062,73.93144226074219,7.11656413689184,3.340501402724103,-57.70416221905042,-30.942913,20.551832,16.501741,58.233944,-10.742979,-10.13081,-23.667425,-32.671505,-17.282793,52.191647,-20.920227,13.911375,-4.437686,-0.9173321,12.0611725,-20.26419,33.00467,-25.16794,34.71335,3.131805,-1.2652905,2.0885081,-13.843796,-48.72526,37.430622,33.089893,18.3958,24.700895,-13.960988
48,0.3938787281513214,8.984468460083008,73.69985961914062,6.969733722225958,3.151726042001057,-57.595710922457684,-31.095896,21.466183,15.492355,59.28365,-11.273935,-9.869679,-23.875837,-32.905792,-17.03072,52.982018,-21.070932,14.210417,-4.3878803,-0.9292744,12.199941,-20.857552,33.652058,-24.076406,34.27195,2.8417027,-1.2783049,2.3529975,-13.903002,-49.68815,36.117085,32.536495,19.796494,24.622547,-15.987343
49,0.5896373391151428,9.150120735168457,73.4702377319336,6.798266498572239,2.9465941361631462,-57.523647879301926,-31.17598,22.399357,14.534447,60.245106,-11.77689,-9.713019,-24.020105,-33.092987,-16.791742,53.678722,-21.216637,14.526041,-4.3164783,-0.9256898,12.3502245,-21.420197,34.343098,-22.920666,33.753746,2.5168755,-1.281818,2.5735576,-13.942472,-50.657486,34.744434,31.946821,21.66629,24.397778,-18.156328
50,0.79720139503479,9.323118209838867,73.2428970336914,6.603981120807784,2.7262292899668656,-57.48661643076088,-31.18862,23.34617,13.601928,61.110218,-12.292362,-9.674636,-24.114626,-33.24077,-16.558552,54.30639,-21.35693,14.854397,-4.2325687,-0.90762866,12.504274,-21.933279,35.080513,-21.687168,33.16933,2.1468427,-1.2730801,2.7628222,-13.948972,-51.630936,33.293026,31.318516,23.921158,24.016438,-20.482952
51,1.0117701292037964,9.502545356750488,73.02354431152344,6.356055829823291,2.536579109037167,-57.497740871175715,-31.2225,24.323427,12.660825,61.90854,-12.77431,-9.72034,-24.196283,-33.292595,-16.372028,54.823624,-21.479784,15.000033,-4.1120334,-0.8373268,12.618215,-22.431297,35.8846,-20.503853,32.55896,1.6965348,-1.2634047,2.9291449,-13.910611,-52.609756,31.81713,30.661243,26.104628,23.562313,-22.659742
52,1.230391263961792,9.684788703918457,72.81383514404297,6.0743816765915115,2.3971422151936963,-57.53897544742676,-31.322208,25.270113,11.703532,62.648884,-13.173507,-9.799828,-24.282888,-33.27682,-16.232779,55.215847,-21.583704,15.000033,-3.9602716,-0.72898155,12.669143,-22.951004,36.78248,-19.504133,31.953362,1.1289322,-1.2635757,3.080026,-13.824506,-53.5923,30.369406,29.985676,27.778738,23.171295,-24.396648
53,1.4687135219573975,9.876028060913086,72.61321258544922,5.779546387400754,2.2946162671597286,-57.596109106232056,-31.47835,26.155123,10.730076,63.349434,-13.494895,-9.844862,-24.3579,-33.232395,-16.120745,55.48823,-21.685541,15.000033,-3.7997494,-0.6091808,12.668685,-23.487461,37.780457,-18.639835,31.327147,0.39826894,-1.2727431,3.2215412,-13.744852,-54.5681,28.923862,29.31952,28.876219,22.916473,-25.528858
54,1.7176541090011597,10.081573486328125,72.41853332519531,5.470241986250433,2.217283266953963,-57.67335728003969,-31.655449,26.991444,9.755373,63.99665,-13.758676,-9.897335,-24.412912,-33.15726,-16.030828,55.651222,-21.782759,15.000033,-3.63135,-0.48198178,12.630303,-24.013964,38.87846,-17.867884,30.657675,-0.46762273,-1.2859974,3.3467596,-13.677245,-55.530006,27.475002,28.661562,29.627348,22.75744,-26.253515
55,1.9800140857696533,10.291925430297852,72.23609161376953,5.162893257440593,2.172778455453405,-57.76118211239945,-31.834612,27.742086,8.811458,64.545265,-13.941631,-10.061164,-24.465029,-33.074963,-15.956326,55.711304,-21.854954,15.000033,-3.4463892,-0.35696593,12.548411,-24.563833,40.0984,-17.345346,29.987545,-1.4074287,-1.3077801,3.4422138,-13.550829,-56.482685,26.102604,27.976524,30.049484,22.675255,-26.832132
56,2.2591323852539062,10.512210845947266,72.06407928466797,4.872938848425458,2.1693106200107386,-57.85018799024687,-31.999043,28.372442,7.930247,64.9539,-14.024319,-10.44004,-24.530878,-33.011475,-15.890665,55.675182,-21.881588,15.000033,-3.2302272,-0.24709657,12.419391,-25.12789,41.462418,-17.208546,29.305984,-2.3469243,-1.3410807,3.4948864,-13.274815,-57.429676,24.865484,27.214436,30.156147,22.644312,-27.522232
57,2.5505881309509277,10.743022918701172,71.90965270996094,4.603475923344091,2.2128468705083093,-57.94223170885399,-32.150192,28.90301,7.1304626,65.23175,-13.969658,-11.097617,-24.61824,-32.96818,-15.834326,55.544434,-21.892378,15.000033,-2.984471,-0.15306133,12.233744,-25.85587,43.000687,-17.592781,28.711569,-3.46422,-1.37811,3.50711,-12.8729515,-58.36971,23.748903,26.393036,29.89162,22.680565,-28.36327
58,2.854011297225952,10.986750602722168,71.77780151367188,4.3472107234364445,2.2979136716165764,-58.04105428270046,-32.2909,29.342129,6.3947225,65.3994,-13.808155,-11.967228,-24.717747,-32.934288,-15.788523,55.315777,-21.886206,15.000033,-2.7064333,-0.08237016,11.999085,-26.670786,44.702618,-18.389675,28.105942,-4.726932,-1.4172773,3.4828043,-12.356133,-59.290936,22.699286,25.514448,29.267025,22.800732,-29.225721
59,3.177271842956543,11.2410249710083,71.6675796508789,4.104910649033399,2.415509104292861,-58.139611384482876,-32.407734,29.641779,5.700576,65.434044,-13.624715,-12.955749,-24.817896,-32.91247,-15.749935,54.983086,-21.793966,15.000033,-2.4110162,-0.050405808,11.753022,-27.542467,46.530594,-19.504713,27.469917,-5.840169,-1.4723326,3.4068313,-11.669188,-60.191612,21.761442,24.507008,28.40109,22.97748,-30.115782
60,3.5214223861694336,11.507646560668945,71.58699798583984,3.8764267539902217,2.5563874579139427,-58.230971816187605,-32.48551,29.75752,5.0277624,65.310455,-13.500685,-13.966556,-24.907784,-32.8998,-15.716095,54.539173,-21.546177,15.000033,-2.1085043,-0.06108332,11.523636,-28.384018,48.43279,-20.809645,26.750322,-6.4875507,-1.5565933,3.2684512,-10.756683,-61.075554,20.98856,23.314066,27.415274,23.178833,-31.042847
61,3.8820877075195312,11.789583206176758,71.53702545166016,3.6640955487735956,2.7237897292048725,-58.318085515243084,-32.526443,29.67733,4.3615475,65.023476,-13.478278,-15.000033,-25.008116,-32.899887,-15.670285,54.005787,-21.140581,15.000033,-1.7817825,-0.10403045,11.299963,-29.291634,50.41807,-22.424889,25.991482,-6.447102,-1.6893739,3.0369353,-9.592391,-61.973576,20.453321,21.91317,26.281677,23.470531,-32.170765
62,4.272765159606934,12.098587036132812,71.52677154541016,3.548240023167579,2.9496534083941968,-58.349706496926764,-32.557053,29.41176,4.0300603,64.571495,-13.484758,-15.000033,-25.170364,-33.027283,-15.590461,53.383385,-20.592163,15.000033,-1.4795778,-0.23665929,11.039385,-30.286884,52.49017,-24.368458,25.193352,-5.925124,-1.8631436,2.7309556,-8.192569,-62.894318,20.094807,20.335047,24.965921,23.856869,-33.44201
63,4.689445495605469,12.42487621307373,71.5574951171875,3.5556514418822376,3.2371650431816663,-58.2983867436046,-32.57303,28.863016,3.820359,63.936127,-13.459045,-15.000033,-25.370289,-33.326412,-15.498453,52.653065,-19.899984,15.000033,-1.2793596,-0.5020322,10.752368,-31.185772,54.5778,-26.33326,24.297216,-5.2351475,-2.056935,2.4155965,-6.5824256,-63.805458,19.779755,18.609156,23.568197,24.20014,-34.538776
64,5.130119800567627,12.760993957519531,71.6300277709961,3.5568982304045624,3.530076608377013,-58.23910088562928,-32.535187,28.197477,3.6534617,63.167732,-13.391267,-15.000033,-25.470001,-33.616165,-15.472212,51.728012,-19.043127,15.000033,-1.1510886,-0.7653047,10.510978,-31.758387,56.587135,-27.96479,23.261599,-4.667859,-2.24648,2.1551917,-4.8307643,-64.664795,19.420195,16.79775,22.177498,24.345129,-35.14752
65,5.596798419952393,13.113329887390137,71.74452209472656,3.5633080917567055,3.837492132093929,-58.170892852962844,-32.44941,27.379837,3.5237756,62.249275,-13.298904,-15.000033,-25.487352,-33.909607,-15.504879,50.613125,-18.035183,15.000033,-1.0733451,-1.0359172,10.288955,-31.99274,58.490772,-29.252502,22.104094,-4.122707,-2.4286072,1.9652566,-2.92204,-65.48713,19.09138,14.883815,20.735754,24.215218,-35.176704
66,6.088109970092773,13.478774070739746,71.90316772460938,3.575862240509075,4.160404719742543,-58.09647400718168,-32.320087,26.412947,3.4180465,61.178036,-13.19755,-15.000033,-25.438961,-34.202843,-15.583578,49.32814,-16.879988,15.000033,-1.0256441,-1.3011998,10.0720415,-31.972914,60.301434,-30.321848,20.885878,-3.4778397,-2.6191025,1.8160753,-0.8514345,-66.2956,18.834894,12.875976,19.21993,23.881735,-34.809544
67,6.612875461578369,13.850778579711914,72.099609375,3.5627217859013824,4.4753038881823155,-58.018862162800545,-32.130955,25.386911,3.3408334,59.973694,-13.012995,-15.000033,-25.267673,-34.458954,-15.737644,47.849354,-15.5393505,15.000033,-1.0486679,-1.5094374,9.890323,-31.599401,61.981403,-31.017687,19.660192,-2.9904912,-2.817933,1.704824,1.2741947,-67.03892,18.540262,10.88738,17.770025,23.400864,-34.14943
68,7.160892486572266,14.233051300048828,72.33116912841797,3.4940326796697305,4.759934383191666,-57.9393869535541,-31.868076,24.389034,3.303153,58.65779,-12.666826,-15.000033,-24.919947,-34.64374,-15.995273,46.15698,-13.976327,15.000033,-1.1829174,-1.6170142,9.769512,-30.76802,63.47705,-31.180523,18.49081,-2.9050388,-3.0223587,1.6234123,3.326827,-67.63268,18.113586,9.046736,16.507978,22.833527,-33.293545
69,7.732611656188965,14.632908821105957,72.60042572021484,3.3863601555349843,5.019687428791634,-57.837923155321164,-31.50838,23.372152,3.3627853,57.13823,-12.048616,-15.000033,-24.372793,-34.777275,-16.387533,44.207245,-12.1805105,15.000033,-1.4519033,-1.6459807,9.692253,-29.432749,64.74701,-30.813808,17.41751,-3.4056556,-3.24475,1.5986981,5.2724266,-68.01672,17.571058,7.388549,15.376198,22.06537,-32.101807
70,8.334933280944824,15.047561645507812,72.90177917480469,3.2472590600891538,5.262767286778355,-57.72015071119319,-31.06637,22.31085,3.4931579,55.42689,-11.219278,-15.000033,-23.65966,-34.862972,-16.889963,42.027546,-10.173461,15.000033,-1.8074003,-1.6257685,9.634868,-27.709484,65.77639,-30.060118,16.473263,-4.3139973,-3.4791515,1.6203078,7.1217055,-68.18412,17.014187,5.895864,14.330688,21.089834,-30.58697
71,8.96215534210205,15.468905448913574,73.22991180419922,3.035637397208347,5.474086187455686,-57.622219216049864,-30.587769,21.318909,3.5908954,53.712795,-10.363752,-15.000033,-22.818123,-34.844913,-17.445621,39.703407,-7.963741,15.000033,-2.1909025,-1.5299132,9.612229,-25.76896,66.54402,-29.001774,15.718457,-5.337064,-3.6941745,1.6233792,8.791081,-68.12676,16.505556,4.6204624,13.5002985,20.149948,-29.056477
72,9.607443809509277,15.892765998840332,73.5771484375,2.712420256250257,5.641012691923869,-57.576305814308334,-30.123981,20.510136,3.5657911,52.195507,-9.668428,-15.000033,-21.89376,-34.67531,-17.994493,37.32395,-5.559968,15.000033,-2.5500407,-1.3331989,9.641648,-23.793413,67.029175,-27.722736,15.204735,-6.1778245,-3.8571203,1.5416782,10.199417,-67.84233,16.09945,3.610352,12.984781,19.505722,-27.79641
73,10.266898155212402,16.319181442260742,73.93037414550781,2.212229126728418,5.767348922807071,-57.59928659874599,-29.736736,19.925783,3.290563,50.960682,-9.075371,-15.000033,-20.825794,-34.288452,-18.668617,34.766113,-2.744184,15.000033,-2.8761733,-0.9797716,9.739855,-21.822514,67.16685,-26.204725,14.967234,-6.809477,-3.9447777,1.3193438,11.28072,-67.30152,15.829442,2.8870072,12.822258,19.276646,-26.814537
74,10.928954124450684,16.749195098876953,74.2862319946289,1.5758310359788108,5.861777041288544,-57.66133525975392,-29.404789,19.501202,2.8703513,49.92398,-8.529895,-15.000033,-19.641525,-33.72068,-19.436592,32.040512,0.41753134,15.000033,-3.1931794,-0.50027514,9.881666,-19.919226,66.92091,-24.576452,15.029765,-7.359724,-3.977241,0.9970768,12.038604,-66.49643,15.724686,2.4570248,12.9270935,19.324612,-25.961199
75,11.595924377441406,17.183534622192383,74.6345443725586,0.922576786082758,5.919852045973812,-57.72715077920333,-29.046202,19.188742,2.5697908,49.019394,-8.236749,-15.000033,-18.515753,-33.09796,-19.993294,29.44768,3.4768689,15.000033,-3.4950113,0.0014948554,10.0228615,-18.2925,66.347626,-23.125977,15.416127,-7.77345,-3.989279,0.66019535,12.54161,-65.47474,15.785615,2.323832,13.212869,19.529308,-25.284452
76,12.294034957885742,17.623151779174805,74.94202423095703,0.37412226250555125,5.936599054391288,-57.76876707711937,-28.560717,18.942364,2.6598969,48.1575,-8.392639,-15.000033,-17.611107,-32.571667,-20.03714,27.302786,5.965662,15.000033,-3.7715952,0.41634053,10.124688,-17.084816,65.559784,-22.076643,16.118155,-8.019817,-4.0173597,0.4026805,12.905684,-64.30705,15.964962,2.455471,13.615233,19.76637,-24.837563
77,13.015029907226562,18.06032943725586,75.19432067871094,-0.03202699047206113,5.9089294845717575,-57.7806509583918,-27.829166,18.7907,3.3401403,47.251186,-9.198155,-15.000033,-16.92429,-32.238476,-19.546156,25.553915,7.9239154,15.000033,-4.02958,0.71017,10.184571,-16.24035,64.60559,-21.36138,17.106537,-8.107787,-4.067191,0.25914466,13.223371,-63.01067,16.185041,2.8053641,14.167584,20.072935,-24.681631
78,13.743223190307617,18.47182273864746,75.38381958007812,-0.3494173965993054,5.844691237981371,-57.78350539269152,-26.901937,18.725567,4.468951,46.338074,-10.515218,-15.000033,-16.421532,-32.052635,-18.641775,24.160727,9.5128565,15.000033,-4.26614,0.9277389,10.230303,-15.652201,63.48556,-20.83465,18.338144,-8.076531,-4.121684,0.18133682,13.497531,-61.577354,16.406303,3.341167,14.907792,20.48995,-24.777443
79,14.481261253356934,18.89034080505371,75.52918243408203,-0.43383043357593026,5.798273871557513,-57.71433935923285,-25.926783,18.4421,5.939487,45.400707,-11.948312,-14.553323,-16.265085,-32.16475,-17.228994,23.460712,10.477755,15.000033,-4.5357857,0.9316258,10.216651,-15.312915,62.269863,-20.533154,19.763767,-7.950979,-4.1846485,0.1453964,13.7137165,-60.04417,16.636343,4.0400987,15.79021,20.8956,-25.030418
80,15.227550506591797,19.333707809448242,75.65158081054688,-0.38621609717145483,5.750509325873018,-57.621392178813835,-25.08207,17.915945,7.4349446,44.599365,-13.2010975,-13.210768,-16.406332,-32.340794,-15.306673,23.554098,10.6441555,15.000033,-4.786348,0.8052368,10.1878605,-15.224055,61.06113,-20.514946,21.332859,-7.787075,-4.257292,0.1319629,13.871208,-58.46591,16.87588,4.864848,16.781586,21.168455,-25.34375
81,15.95004653930664,19.77919578552246,75.71695709228516,-0.2578311911130121,5.665926394927021,-57.525364177052026,-24.410631,17.230978,8.726137,44.03188,-14.207002,-11.840734,-16.794157,-32.320316,-12.451207,24.391123,9.762714,15.000033,-5.020321,0.57272774,10.189597,-15.328738,59.922073,-20.716177,23.016987,-7.6157503,-4.3662214,0.12032305,13.99954,-56.854233,17.073599,5.7872643,17.9131,21.245766,-25.705124
82,16.649124145507812,20.231281280517578,75.72364044189453,-0.04440505823339087,5.549579841758491,-57.43124515588415,-23.829811,16.443174,9.955173,43.63425,-15.138763,-10.4456625,-17.374933,-32.12797,-8.860947,25.842598,8.065911,15.000033,-5.2385516,0.2251874,10.217972,-15.488983,58.862225,-21.001972,24.737095,-7.4262524,-4.4984694,0.12831508,14.134061,-55.1984,17.207111,6.7851515,19.199856,21.19432,-26.15575
83,17.334585189819336,20.707361221313477,75.70417022705078,0.18815173290788545,5.428229523839939,-57.37459730796062,-23.330942,15.620644,11.085102,43.34935,-16.06163,-9.114356,-18.02045,-31.889015,-5.4984107,27.753576,6.124031,15.000033,-5.4099193,-0.17422749,10.268932,-15.708912,57.911034,-21.411755,26.458405,-7.2610335,-4.594319,0.19283208,14.23481,-53.53525,17.35557,7.837722,20.592182,21.089529,-26.682343
84,18.008821487426758,21.208768844604492,75.66725158691406,0.36567242743841805,5.3199225576705285,-57.38407260956473,-22.905611,14.837461,12.0629,43.136253,-17.047602,-7.9469714,-18.640917,-31.793842,-3.2767408,29.976742,4.459407,15.000033,-5.5000253,-0.5529491,10.335882,-15.9414215,57.09103,-21.965797,28.111998,-7.143246,-4.597002,0.35327673,14.272461,-51.914234,17.601389,8.924171,22.06372,21.005747,-27.279593
85,18.66240882873535,21.732091903686523,75.59194946289062,0.43079534872551534,5.232559833074237,-57.48729475313869,-22.564602,14.158162,12.834134,42.99053,-18.13895,-6.9951863,-19.237577,-31.907269,-2.4523714,32.50356,3.140488,15.000033,-5.501695,-0.8531664,10.429044,-16.173864,56.417233,-22.65228,29.675148,-7.0843997,-4.4669805,0.64254254,14.228518,-50.3656,17.947336,10.027495,23.75455,20.9265,-28.003016
86,19.294937133789062,22.261476516723633,75.47467041015625,0.3887391580481001,5.15930541755048,-57.67502286177153,-22.337498,13.600209,13.422972,42.97689,-19.298338,-6.2009873,-19.891209,-32.16435,-2.5053911,35.454315,1.8512174,14.973684,-5.4400287,-1.0748149,10.556549,-16.39988,55.88944,-23.43898,31.163576,-7.0858393,-4.2423224,1.0305847,14.12041,-48.89141,18.364002,11.142817,25.650536,20.81104,-28.837265
87,19.91659164428711,22.80738639831543,75.31855773925781,0.34251528094102834,5.068918125184367,-57.87785698076595,-22.181892,13.051406,13.917568,43.088013,-20.445992,-5.4840183,-20.595812,-32.72053,-3.2193015,38.83827,0.52768385,14.493512,-5.3700347,-1.3189571,10.721639,-16.558943,55.49839,-24.302794,32.55457,-7.135604,-3.9846232,1.4603738,13.967674,-47.494946,18.888132,12.277955,27.49781,20.707531,-29.680101
88,20.51999282836914,23.366539001464844,75.13130950927734,0.28916174681526047,4.956620971158241,-58.0740682748352,-22.126328,12.540599,14.365027,43.40282,-21.544716,-4.788672,-21.309809,-33.549274,-4.347611,42.562473,-0.85068315,13.569992,-5.301291,-1.573469,10.90992,-16.59121,55.22907,-25.220058,33.83335,-7.2199826,-3.7556176,1.8753983,13.764418,-46.17742,19.574106,13.456738,29.050098,20.676947,-30.436892
89,21.109113693237305,23.93558120727539,74.92353820800781,0.21452328931219372,4.784845377026927,-58.28326773745002,-22.16698,12.102755,14.766502,43.9982,-22.618591,-4.117303,-21.990873,-34.80312,-6.1178284,46.747597,-2.359157,11.971413,-5.224105,-1.8251476,11.1609955,-16.527992,55.096954,-26.282213,35.029266,-7.3630495,-3.543636,2.315765,13.43748,-44.957813,20.509672,14.747942,30.37105,20.766153,-31.128622
90,21.680830001831055,24.50835418701172,74.69580078125,0.13188849072335632,4.562438695422078,-58.50178987219601,-22.288607,11.706581,15.105768,44.815647,-23.674242,-3.48331,-22.55499,-36.551678,-8.516341,51.379402,-4.043446,9.858071,-5.151947,-2.086028,11.469213,-16.379276,55.10328,-27.466879,36.142056,-7.5629015,-3.3274477,2.7921612,12.9963455,-43.832428,21.660585,16.131191,31.567001,20.93992,-31.80237
91,22.233386993408203,25.073444366455078,74.45420837402344,0.07059483479006379,4.3578748564521685,-58.67903593608606,-22.504372,11.292668,15.403539,45.726067,-24.645256,-2.8531415,-22.92649,-38.52196,-11.047624,56.133076,-5.8224273,7.5464435,-5.121617,-2.3764794,11.7535715,-16.05917,55.203327,-28.576141,37.118793,-7.7549477,-3.151598,3.2025938,12.569659,-42.76054,22.88308,17.486687,32.43951,21.152056,-32.401054
92,22.76211929321289,25.616052627563477,74.1994400024414,0.05628803121075173,4.24443965790725,-58.769944187533966,-22.833666,10.807721,15.682185,46.602722,-25.465786,-2.1957297,-23.133821,-40.33752,-13.224753,60.688824,-7.521333,5.4161468,-5.158093,-2.711784,11.928173,-15.495336,55.33646,-29.417166,37.921005,-7.860839,-3.0588477,3.4454362,12.285506,-41.694134,24.025515,18.700212,32.770386,21.3621,-32.860535
93,23.262481689453125,26.1386661529541,73.95018005371094,0.1338679865008229,4.261792106782952,-58.73377795311197,-23.345743,10.201111,15.951663,47.463634,-26.096972,-1.4869453,-23.279726,-41.992638,-15.051827,65.10674,-9.058132,3.4950771,-5.2753477,-3.126272,11.955517,-14.725793,55.474953,-29.986963,38.589043,-7.7901797,-3.0795522,3.4316156,12.158386,-40.600315,25.07006,19.819826,32.308144,21.571741,-33.13758
94,23.75737190246582,26.65799903869629,73.71495056152344,0.27435186773357717,4.366143326317619,-58.60744618177447,-24.014593,9.519334,16.207752,48.359726,-26.577393,-0.750839,-23.336525,-43.56347,-16.783396,69.51479,-10.479625,1.6527791,-5.440729,-3.5978203,11.874624,-13.806122,55.62265,-30.399197,39.167873,-7.5891523,-3.1859264,3.238602,12.10902,-39.4801,26.093357,20.919672,31.215117,21.806526,-33.268005
95,24.2740535736084,27.166873931884766,73.50784301757812,0.38981078832739857,4.510037661176639,-58.46501726841602,-24.72259,8.861299,16.4494,49.22109,-26.963161,-0.029253395,-23.25478,-44.73415,-18.304626,73.68488,-11.728272,0.075016834,-5.6044497,-4.051805,11.712733,-12.689528,55.76429,-30.63578,39.621933,-7.3839984,-3.3324602,3.0140364,12.136921,-38.351448,27.07588,21.905241,29.893448,22.06353,-33.306347
96,24.80727195739746,27.66415786743164,73.33829498291016,0.3905596216010528,4.647290633054207,-58.3815550705361,-25.34976,8.324867,16.669388,49.977108,-27.311567,0.6382179,-23.02589,-45.193623,-19.48425,77.38173,-12.744153,-1.0506756,-5.7211704,-4.4038157,11.502956,-11.318623,55.876583,-30.662767,39.906624,-7.2951717,-3.472153,2.9043279,12.250455,-37.251263,27.990664,22.666409,28.748829,22.339983,-33.309677
97,25.350645065307617,28.148862838745117,73.19913482666016,0.2207666221737265,4.803817966902641,-58.36310614332727,-25.927925,7.9678593,16.828445,50.64207,-27.632029,1.2242754,-22.738201,-44.750732,-20.245354,80.54721,-13.43147,-1.6452798,-5.7971234,-4.5911417,11.228193,-9.66087,55.935257,-30.45656,40.015995,-7.338518,-3.602047,2.9530895,12.480014,-36.206593,28.809126,23.138725,27.77543,22.684566,-33.262417
98,25.90292739868164,28.606367111206055,73.0897216796875,-0.06626131238926666,4.9945146129318365,-58.377310481623695,-26.504269,7.735251,16.938757,51.24978,-27.89964,1.7550834,-22.47504,-43.5463,-20.67542,83.29939,-13.813175,-1.7713729,-5.846162,-4.65253,10.88134,-7.766637,55.92828,-30.045675,39.980392,-7.450486,-3.7451897,3.0812466,12.831135,-35.23053,29.544111,23.361252,26.804049,23.082386,-33.14186
99,26.469867706298828,29.04352569580078,73.01795196533203,-0.39544651047997653,5.15570376596267,-58.4400966626272,-26.977976,7.552531,17.068213,51.75696,-28.118643,2.2736418,-22.211699,-41.79625,-20.880117,85.65845,-14.025694,-1.4651402,-5.831615,-4.655852,10.513787,-5.6998334,55.84982,-29.472837,39.799786,-7.629268,-3.8931816,3.2500906,13.263784,-34.34293,30.237185,23.383638,26.010847,23.438951,-33.00122
100,27.052528381347656,29.464975357055664,72.97370147705078,-0.6915240618352854,5.222461759202974,-58.56618532629183,-27.243858,7.3431754,17.286444,52.110672,-28.293694,2.823253,-21.896227,-39.734715,-20.961731,87.648,-14.212373,-0.78358626,-5.7239237,-4.6688876,10.180244,-3.5336912,55.699604,-28.789728,39.481426,-7.885593,-4.0372767,3.4214654,13.743664,-33.5664,30.927494,23.24612,25.570673,23.661512,-32.899662
101,27.648008346557617,29.888439178466797,72.95024108886719,-0.9482893221376094,5.138257151405486,-58.76047670453368,-27.230936,7.1067557,17.60449,52.315884,-28.453785,3.4112766,-21.457087,-37.32365,-20.893976,89.24634,-14.420708,0.3530437,-5.515959,-4.703587,9.921152,-1.2692678,55.47487,-28.022833,39.033157,-8.263865,-4.191801,3.6023755,14.26948,-32.925613,31.633308,22.90916,25.790472,23.687881,-32.93304
102,28.253141403198242,30.31623649597168,72.94713592529297,-1.1997211972570652,4.948233070126264,-59.01206708355024,-27.009794,6.8726254,17.98705,52.3926,-28.584068,4.0181108,-20.942818,-34.480305,-20.659227,90.4523,-14.613416,1.9332747,-5.221169,-4.719325,9.7052145,1.1113608,55.163708,-27.157377,38.44342,-8.747551,-4.3568993,3.8072152,14.883808,-32.42838,32.31887,22.328756,26.493822,23.582388,-33.045486
103,28.86614227294922,30.751663208007812,72.96588134765625,-1.4247619674142131,4.739516848720005,-59.30943834592801,-26.69255,6.6053586,18.435804,52.32033,-28.622622,4.647111,-20.464005,-31.398832,-20.357418,91.32397,-14.796988,3.742962,-4.837597,-4.712595,9.478537,3.5675004,54.752384,-26.179335,37.68628,-9.247314,-4.5026865,4.009674,15.584804,-32.063984,32.95642,21.572021,27.152374,23.443436,-33.070557
104,29.4956111907959,31.19269561767578,73.01116180419922,-1.6022435011566398,4.600900033509513,-59.64244070089826,-26.387615,6.272421,18.954098,52.07209,-28.509367,5.299632,-20.13259,-28.280107,-20.072893,91.918106,-14.95245,5.5722685,-4.3628554,-4.686513,9.183205,6.055992,54.225735,-25.077831,36.738625,-9.671478,-4.5983386,4.1846914,16.364073,-31.808979,33.51947,20.71673,27.2365,23.37414,-32.84883
105,30.136051177978516,31.636512756347656,73.09494018554688,-1.7098949080923767,4.557376013100007,-60.013223996991876,-26.092655,5.8463984,19.575008,51.605625,-28.2587,5.9913,-20.000599,-25.116224,-19.74169,92.238045,-15.063613,7.429916,-3.7865603,-4.6628814,8.784844,8.5709095,53.566277,-23.839682,35.554672,-9.977603,-4.633295,4.3447328,17.243784,-31.647556,33.983124,19.74788,26.626945,23.356813,-32.32472
106,30.787519454956055,32.08893966674805,73.20946502685547,-1.7582452184550237,4.560068107081501,-60.423551971855275,-25.753862,5.342291,20.29008,50.938503,-27.893091,6.717063,-19.978498,-21.858686,-19.342588,92.26035,-15.15445,9.3895035,-3.111899,-4.64291,8.317857,11.116075,52.7641,-22.496351,34.160538,-10.206395,-4.6251297,4.500168,18.219522,-31.577654,34.363823,18.647963,25.59086,23.341831,-31.59086
107,31.449508666992188,32.55451583862305,73.3508529663086,-1.7771392717353343,4.588396389457471,-60.86455536557033,-25.410427,4.797719,21.039518,50.153217,-27.370363,7.446148,-19.985428,-18.64332,-18.995897,92.005424,-15.23686,11.347539,-2.3668964,-4.6005063,7.827946,13.60659,51.827404,-21.150457,32.684948,-10.430749,-4.584529,4.62404,19.214443,-31.596352,34.715145,17.51227,24.184628,23.37769,-30.708849
108,32.11865234375,33.038490295410156,73.52135467529297,-1.7979322679456826,4.622384324538003,-61.328386822366944,-25.100204,4.2534966,21.766323,49.33364,-26.64995,8.146842,-19.95289,-15.600548,-18.809021,91.48414,-15.306576,13.201164,-1.5596427,-4.510642,7.352721,16.028208,50.763317,-19.848454,31.203503,-10.678754,-4.521796,4.686819,20.18256,-31.69221,35.070164,16.425055,22.450369,23.51309,-29.732454
109,32.79737854003906,33.53136444091797,73.72327423095703,-1.8221365771206346,4.678715705196181,-61.83672988150629,-24.816126,3.695028,22.470688,48.43131,-25.745712,8.831795,-19.910107,-12.745926,-18.773983,90.6921,-15.390644,14.88981,-0.67199224,-4.375558,6.872098,18.387873,49.572823,-18.599947,29.679676,-11.020349,-4.431087,4.674293,21.123533,-31.858044,35.43429,15.388863,20.09854,23.79935,-28.576647
110,33.468040466308594,34.02665328979492,73.95606231689453,-1.8743137291465093,4.774738028712028,-62.41193095009072,-24.577908,3.1772783,23.174507,47.469315,-24.690199,9.490885,-19.794447,-10.29764,-19.304838,89.617386,-15.42685,15.000033,0.32027966,-4.1917744,6.359016,20.725452,48.24566,-17.365772,28.048996,-11.390866,-4.3087564,4.605529,22.073969,-32.089054,35.78114,14.367675,17.184584,24.158278,-27.223867
111,34.126487731933594,34.530879974365234,74.21800231933594,-2.134494653048151,4.939510896881709,-63.129612023384695,-24.555132,3.006656,23.856447,46.77389,-23.553602,10.061069,-19.707253,-7.799314,-20.012032,88.187035,-15.236871,15.000033,1.4343679,-3.77506,5.790805,22.779055,46.82537,-16.306446,26.603722,-11.818149,-4.170978,4.5018196,22.921993,-32.389072,36.18041,13.445859,14.28627,24.47209,-25.845589
112,34.78213119506836,35.058204650878906,74.49512481689453,-2.3982231608014337,5.052932905974036,-63.80826359184421,-24.588425,2.9007864,24.547394,46.245285,-22.193657,10.568182,-19.485006,-5.4615045,-20.787409,86.47764,-14.808233,15.000033,2.5671592,-3.3279111,5.283145,24.736261,45.308136,-15.297989,25.257242,-12.045802,-4.0298615,4.378892,23.69906,-32.7406,36.586754,12.645134,11.999002,24.66474,-24.626421
113,35.4273681640625,35.59273910522461,74.79443359375,-2.703307382124964,5.122850297003869,-64.47783049901149,-24.707155,2.91761,25.230698,45.922745,-20.614704,11.053109,-19.082756,-3.2644632,-21.724333,84.43162,-14.034793,15.000033,3.7322836,-2.8118305,4.826823,26.56729,43.712482,-14.35454,24.023264,-12.041114,-3.8813667,4.225282,24.343506,-33.14096,37.058437,12.009137,10.422987,24.7688,-23.613794
114,36.0670280456543,36.124717712402344,75.11341094970703,-3.0246236758498046,5.163249390427738,-65.14633362965918,-24.886013,3.0110195,25.923784,45.729576,-18.827787,11.532369,-18.538715,-1.1863579,-22.755388,82.0591,-12.984518,15.000033,4.9325304,-2.2545984,4.4043345,28.28819,42.046062,-13.463824,22.861494,-11.887871,-3.7201307,4.0338073,24.869871,-33.58634,37.586414,11.514985,9.26813,24.835648,-22.717812
115,36.71920394897461,36.657135009765625,75.44904327392578,-3.2990451676961965,5.151269457890708,-65.74837665243963,-25.084492,3.114561,26.654085,45.64227,-16.804905,11.937578,-17.89702,0.77081746,-23.68593,79.462234,-11.821097,15.000033,6.069846,-1.7186327,4.0584607,29.83281,40.32109,-12.644695,21.902987,-11.718636,-3.5598598,3.828414,25.274551,-34.06353,38.135227,11.158783,8.545035,24.8429,-21.93455
116,37.370574951171875,37.18954849243164,75.7877197265625,-3.47178712576158,5.064320284357502,-66.21798463042225,-25.264711,3.1721377,27.437012,45.64245,-14.51283,12.190914,-17.198755,2.6004841,-24.339409,76.7468,-10.71572,15.000033,7.0465446,-1.2547088,3.8370945,31.11443,38.556664,-11.92514,21.301208,-11.675276,-3.4135613,3.6349075,25.548292,-34.55274,38.669704,10.944992,8.263837,24.765936,-21.259731
117,38.02030563354492,37.72829055786133,76.1340103149414,-3.5573324891053795,4.871511036025492,-66.55494251289225,-25.390572,3.20628,28.319248,45.751938,-11.951021,12.400964,-16.40909,4.37016,-24.660982,73.877716,-9.7061825,15.000033,7.8838863,-0.83750504,3.7749283,32.147602,36.75897,-11.294312,21.116125,-11.799596,-3.282688,3.4210615,25.672926,-35.041714,39.20335,10.9082985,8.583101,24.57695,-20.716042
118,38.66587448120117,38.27108383178711,76.48300170898438,-3.5920329137870106,4.596473599033446,-66.7924177514233,-25.49348,3.2592976,29.263596,45.97025,-9.125067,12.561267,-15.501082,6.075298,-24.770832,70.805435,-8.696832,15.000033,8.624749,-0.43364275,3.8385093,32.966766,34.93356,-10.729838,21.266499,-12.018029,-3.159089,3.1871696,25.64232,-35.523605,39.754097,11.056279,9.443214,24.309011,-20.294834
119,39.29154968261719,38.81974792480469,76.82975769042969,-3.5580166718097996,4.299913904161571,-66.91498950520489,-25.648712,3.2899318,30.136753,46.245426,-5.9995995,12.400843,-14.533053,7.5929475,-24.773214,67.62232,-7.6664944,15.000033,9.209407,-0.08139201,3.9767025,33.528076,33.10746,-10.236109,21.689014,-12.29883,-3.0405,3.007799,25.47547,-35.981327,40.28666,11.346676,10.523548,24.023014,-19.944767
120,39.896358489990234,39.3576774597168,77.16883850097656,-3.4356776800643076,4.042407925778482,-66.90589291061072,-25.943983,3.231248,30.776873,46.522068,-2.5345526,11.624401,-13.571936,8.798966,-24.7832,64.42826,-6.5960593,15.000033,9.588133,0.17210805,4.139277,33.79378,31.324612,-9.8191,22.31888,-12.615858,-2.9250648,2.9573984,25.201658,-36.391045,40.752075,11.738466,11.500448,23.776121,-19.617168
121,40.48420333862305,39.89714050292969,77.49491882324219,-3.2116370520455226,3.8434936350730045,-66.74317080169172,-26.494638,3.091932,31.160448,46.913795,1.5180941,10.130106,-12.602838,9.608578,-24.933468,61.202774,-5.491611,15.000033,9.755964,0.3005896,4.316796,33.74249,29.60932,-9.469506,23.213478,-13.039116,-2.7813907,3.075642,24.83099,-36.720406,41.117146,12.249924,12.370918,23.556091,-19.274696
122,41.06515884399414,40.44175720214844,77.80501556396484,-2.900191709766555,3.673549428189846,-66.43997809609375,-27.269133,2.8102834,31.251596,47.383232,6.038182,7.9488583,-11.610235,10.11324,-25.183672,57.913635,-4.371883,15.000033,9.755521,0.32249776,4.5291915,33.414593,27.973476,-9.175006,24.378614,-13.569854,-2.6208463,3.317262,24.349916,-36.95219,41.401287,12.91761,13.270889,23.339798,-18.948353
123,41.637237548828125,40.99449920654297,78.08435821533203,-2.5138258217595952,3.518765662083663,-66.0286513472537,-28.142572,2.1966472,30.8573,47.671303,10.4862385,4.970801,-10.669163,10.430792,-25.382244,54.658478,-3.2461011,15.000033,9.609168,0.24843875,4.770669,32.875618,26.448969,-8.938052,25.6624,-14.084034,-2.5055583,3.6273725,23.76157,-37.091537,41.63274,13.713212,14.093784,23.16529,-18.698399
124,42.205997467041016,41.5509033203125,78.33106994628906,-2.0688700342842763,3.36316654733866,-65.54504468141657,-28.967787,1.0994123,29.839684,47.54891,14.308479,1.1522784,-9.852596,10.6589775,-25.358267,51.543575,-2.1157973,15.000033,9.347311,0.09226756,5.036591,32.192997,25.076757,-8.771792,26.906195,-14.464417,-2.4952097,3.9484835,23.084902,-37.158833,41.833004,14.584692,14.737418,23.068037,-18.586462
125,42.76034927368164,42.11531066894531,78.53001403808594,-1.5729621810292516,3.2276889622635196,-65.00178368527084,-29.758713,-0.67004806,27.880503,46.892654,17.591152,-4.249589,-9.126641,10.772313,-25.176565,48.447433,-0.8848703,15.000033,8.991187,-0.16023213,5.300342,31.355316,23.881638,-8.680856,28.116533,-14.679276,-2.6360629,4.2515984,22.343863,-37.161335,41.988693,15.512036,15.150341,23.076738,-18.634699
126,43.310638427734375,42.67524337768555,78.67231750488281,-1.0088457104869364,3.104473561166776,-64.38285214493379,-30.528994,-3.043136,25.10339,45.912865,20.285568,-11.055496,-8.479577,10.710044,-24.900059,45.392345,0.39752454,15.000033,8.544968,-0.5235603,5.573168,30.346478,22.86422,-8.667146,29.348333,-14.806991,-2.8830326,4.5687685,21.559885,-37.09584,42.068615,16.49489,15.398092,23.162764,-18.8103
127,43.8922004699707,43.258453369140625,78.74301147460938,-0.3496909216081023,2.9461642722772785,-63.66952336264731,-30.858465,-5.001387,23.49681,44.864265,21.949762,-15.000033,-8.073547,10.420576,-24.363066,42.83303,1.4711354,15.000033,8.059087,-1.0208286,5.9060335,29.267708,22.167086,-8.765318,30.431301,-14.965687,-3.141601,4.910503,20.832302,-37.00006,42.022724,17.40896,15.574921,23.271473,-19.090956
128,44.527835845947266,43.86690139770508,78.73721313476562,0.5918636074752273,2.823619445930534,-62.62309116825812,-30.6721,-6.293941,23.89365,43.60011,22.812859,-15.000033,-8.315113,9.536471,-23.563564,41.53398,1.923245,15.000033,7.187196,-1.7070497,6.2240934,28.046942,21.430023,-8.969761,31.506311,-15.033962,-3.37432,5.370078,19.983553,-36.85358,41.940197,18.456177,15.711038,23.359697,-19.453438
129,45.13947677612305,44.46310806274414,78.68612670898438,1.1848194917080026,2.5930790466281057,-61.85015848703808,-30.605768,-7.099044,23.64916,42.902332,21.91865,-15.000033,-8.859766,9.028673,-22.256735,40.720318,2.54629,13.492899,6.5564475,-2.0803232,6.6084595,26.768038,20.900711,-9.28752,32.39691,-15.113939,-3.5456164,5.9081535,19.125631,-36.712982,41.789406,19.449114,15.838682,23.424915,-19.927612
130,45.66487121582031,45.04214096069336,78.59965515136719,1.3386675375967685,2.412440265491008,-61.40441215939389,-30.869556,-7.192509,22.90832,42.9061,19.50097,-15.000033,-9.658263,8.752234,-21.630333,40.176746,3.464607,7.3490653,6.2248106,-2.0896695,6.925488,25.3815,20.56314,-9.733747,33.16345,-15.188889,-3.694896,6.511281,18.284546,-36.579918,41.54033,20.382278,15.923031,23.491083,-20.513407
131,46.16669464111328,45.62561798095703,78.49088287353516,1.4414644962938539,2.209924683711278,-61.024291834073615,-31.125134,-7.007915,22.263529,43.134335,16.613667,-15.000033,-10.554002,8.353161,-21.200403,40.232376,3.8400311,1.0102763,5.9654474,-2.0590475,7.2756596,23.919405,20.373375,-10.266093,33.825333,-15.295511,-3.8153896,7.169849,17.465843,-36.46924,41.205246,21.25162,16.025331,23.533348,-21.158125
132,46.68159103393555,46.24734878540039,78.30677032470703,1.6653977784557037,2.028230516824716,-60.64096144586334,-31.345095,-6.596061,22.262215,43.501045,14.117367,-15.000033,-11.258456,7.6726813,-21.117939,40.753887,3.0688608,-4.0517907,5.7066374,-2.1402206,7.629695,22.433203,20.277534,-10.819969,34.393494,-15.459992,-3.9014943,7.8741875,16.655104,-36.407616,40.81948,22.052568,16.213217,23.527214,-21.811035
133,47.19503402709961,46.902523040771484,78.06681060791016,2.099617470910289,1.8705108535981352,-60.230846075375986,-31.470009,-5.960936,23.192368,43.961094,12.178434,-15.000033,-11.612831,6.6349463,-21.34761,41.761158,0.7251672,-7.3758373,5.402217,-2.4032414,7.990063,20.935904,20.247581,-11.386048,34.835007,-15.63854,-3.9412038,8.647077,15.844812,-36.42717,40.403282,22.771229,16.539875,23.436724,-22.50188
134,47.729949951171875,47.56932830810547,77.7332534790039,2.6526903096186696,1.7101777323225074,-59.83291309119755,-31.492962,-5.091647,24.724863,44.55316,10.350281,-15.000033,-11.73847,5.395667,-21.649,43.14587,-2.7497618,-9.655031,5.075938,-2.7596948,8.376706,19.397684,20.275747,-11.982015,35.164543,-15.818447,-3.9448993,9.487334,15.032378,-36.545815,39.95721,23.394743,16.965445,23.283907,-23.242805
135,48.28794860839844,48.25857162475586,77.32496643066406,3.2237182852793818,1.540150718671954,-59.47496120919448,-31.486279,-4.0520344,26.436487,45.323566,8.560602,-15.000033,-11.751446,4.1442657,-21.824734,44.57373,-6.644105,-11.151994,4.7568016,-3.1196516,8.79025,17.81697,20.341457,-12.573817,35.464615,-16.068594,-3.9426165,10.349459,14.215931,-36.764,39.486355,23.916916,17.408092,23.131273,-23.957222
136,48.84661102294922,48.94521713256836,76.89116668701172,3.708714323594817,1.3563182244874297,-59.18365791717858,-31.544954,-2.8927019,27.900747,46.31276,6.7451262,-15.000033,-11.792575,3.0711927,-21.721926,45.76247,-10.252446,-12.18169,4.468423,-3.389748,9.230231,16.19603,20.420174,-13.122614,35.820915,-16.451427,-3.9665942,11.189787,13.361026,-37.072296,39.012897,24.365738,17.799074,23.04382,-24.57178
137,49.39701461791992,49.64225769042969,76.44294738769531,4.120392333332899,1.1147381122885685,-58.97661255071767,-31.663277,-1.6183969,29.061949,47.588417,4.8739414,-15.000033,-11.847241,2.165587,-21.282694,46.713966,-13.535846,-12.682576,4.2160616,-3.5707161,9.739441,14.512007,20.500628,-13.624465,36.275047,-17.059402,-4.039211,12.032421,12.452606,-37.46728,38.541206,24.738026,18.096266,23.06039,-25.001919
138,49.92137908935547,50.34656524658203,75.982421875,4.4953166435334415,0.8291959180713167,-58.84165493293286,-31.78681,-0.18716927,30.121628,49.105778,2.9829493,-15.000033,-11.852521,1.3022828,-20.673735,47.578403,-16.800062,-12.580304,3.9837942,-3.6937764,10.306551,12.768684,20.585888,-14.09413,36.789764,-17.823544,-4.1467743,12.890733,11.482795,-37.952908,38.0817,25.049345,18.35372,23.142136,-25.310549
139,50.4279670715332,51.05855941772461,75.52886962890625,4.781598818133922,0.5972701817806156,-58.72949356532137,-31.971813,1.3933864,31.048084,50.710506,1.1381456,-15.000033,-11.90489,0.5032118,-20.07152,48.32294,-19.879118,-12.184273,3.7246015,-3.725524,10.836282,11.019604,20.673248,-14.512195,37.323982,-18.56199,-4.262089,13.703993,10.48608,-38.51808,37.632984,25.318647,18.60516,23.235626,-25.646782
140,50.96326446533203,51.77145767211914,75.08309173583984,4.972451351696579,0.5482629090768149,-58.52287850934824,-32.234955,3.1446428,32.200897,52.19302,-0.5552758,-13.793116,-12.170766,-0.28271088,-19.645546,48.98678,-22.642704,-11.77058,3.3351734,-3.670631,11.201047,9.312938,20.758192,-14.863264,37.842346,-19.092937,-4.3515882,14.414416,9.454189,-39.145973,37.216312,25.60503,18.906021,23.284443,-26.158464
141,51.49466323852539,52.487361907958984,74.66767883300781,4.922883959963719,0.7150989481576364,-58.31120019121314,-32.746296,5.152973,33.124126,53.68401,-2.2048523,-12.390384,-12.599162,-0.8089406,-19.382202,49.33648,-24.947203,-11.376641,2.8919597,-3.3848763,11.391981,7.598476,20.83677,-15.168703,38.42228,-19.380795,-4.4007516,15.048555,8.352878,-39.82005,36.846268,25.947805,19.233257,23.278736,-26.894144
142,51.9930534362793,53.21438217163086,74.29325103759766,4.687636633108526,1.0362680894627825,-58.1066613029265,-33.458473,7.370869,33.813995,55.21988,-3.8140128,-10.89723,-13.136834,-1.1443398,-19.223248,49.446625,-26.909256,-10.876525,2.4057996,-2.9117389,11.462267,5.8599453,20.9145,-15.436138,39.073128,-19.514814,-4.4240685,15.6263075,7.1604857,-40.53575,36.53301,26.352718,19.57886,23.243252,-27.771955
143,52.474151611328125,53.9259033203125,73.94585418701172,4.376463583592826,1.3866939649807408,-57.92644950022175,-34.179604,9.666367,34.352238,56.724716,-5.3167043,-9.457562,-13.694811,-1.4241037,-19.139212,49.51264,-28.634655,-10.371959,1.9037141,-2.3688915,11.491526,4.204929,21.004536,-15.619341,39.649,-19.500856,-4.4262815,16.076345,5.9327564,-41.286057,36.2662,26.788012,19.992443,23.17241,-28.746561
144,52.99250411987305,54.581581115722656,73.618896484375,4.098581685978763,1.6405190324932626,-57.78629310170858,-34.711548,11.913558,34.84232,58.128696,-6.647947,-8.215604,-14.185919,-1.7786505,-19.095005,49.726894,-30.222876,-9.955973,1.3980978,-1.8819705,11.549436,2.7626605,21.120735,-15.65593,39.99095,-19.346012,-4.41203,16.323854,4.90305,-42.051205,35.919804,27.09083,20.404924,23.061768,-29.77437
145,53.531490325927734,55.19028854370117,73.30218505859375,3.858603783233036,1.7660095649848913,-57.690844519130366,-35.00532,14.1383,35.338814,59.46572,-7.7906456,-7.2042313,-14.574098,-2.2226224,-19.124893,50.12907,-31.70615,-9.67884,0.9092572,-1.469369,11.64265,1.5972933,21.263481,-15.499003,40.033836,-18.973183,-4.351015,16.284306,3.968583,-42.827457,35.57277,27.37974,20.895144,22.889235,-30.887548
146,54.079830169677734,55.774314880371094,73.00000762939453,3.6054336623521785,1.829214468141108,-57.63245234690836,-35.163635,16.399137,35.797718,60.756447,-8.772279,-6.342985,-14.909371,-2.689393,-19.224821,50.617966,-33.028633,-9.476089,0.41865212,-1.0737096,11.732693,0.6412795,21.43212,-15.185538,39.862404,-18.406078,-4.251667,16.015263,3.0893936,-43.608616,35.237823,27.66626,21.43495,22.660143,-32.093407
147,54.61824035644531,56.35309982299805,72.72969818115234,3.3657992016792124,1.8505888539095412,-57.60633181946419,-35.218243,18.613827,36.196156,61.92068,-9.598543,-5.5995665,-15.238422,-3.1880925,-19.299822,51.179325,-34.15758,-9.2700205,-0.062267777,-0.7091204,11.834794,-0.22651531,21.648996,-14.842553,39.557972,-17.814274,-4.176886,15.662159,2.2569597,-44.38798,34.88046,27.884598,22.03831,22.408222,-33.301666
148,55.14655685424805,56.92564392089844,72.49962615966797,3.1676878679476754,1.8508529240496527,-57.607113572289606,-35.202717,20.697748,36.502865,62.877563,-10.275339,-4.9497952,-15.610263,-3.7289732,-19.256485,51.799355,-35.058807,-8.988092,-0.512723,-0.3962182,11.967644,-1.1251092,21.950287,-14.609427,39.191116,-17.375326,-4.1834226,15.371408,1.4559963,-45.161495,34.465042,27.979044,22.73449,22.167677,-34.422367
149,55.66230392456055,57.49615478515625,72.31031036376953,3.0152119490774956,1.8072539495524678,-57.63993026519527,-35.099857,22.65419,36.719257,63.606106,-10.759776,-4.400152,-16.029861,-4.3087544,-19.063772,52.519123,-35.701187,-8.656262,-0.924257,-0.14906445,12.169163,-2.0719182,22.36568,-14.520172,38.73666,-17.146257,-4.309681,15.136998,0.6865371,-45.921505,33.95441,27.940123,23.586853,21.956572,-35.477707
150,56.17705154418945,58.066184997558594,72.159423828125,2.897217929783129,1.7177905363356094,-57.704654689310104,-34.904953,24.521156,36.8703,64.1548,-11.061808,-3.9574523,-16.479622,-4.9246254,-18.766651,53.33572,-36.111782,-8.307881,-1.2986171,0.030410198,12.420364,-3.0008085,22.897594,-14.514582,38.149403,-17.043224,-4.5130653,14.894048,-0.026420677,-46.663803,33.353058,27.79313,24.558914,21.748896,-36.498734
151,56.695152282714844,58.64836120605469,72.03955078125,2.8190918907576727,1.6347944056832353,-57.787775088113094,-34.675457,26.263065,36.95293,64.54733,-11.267617,-3.5996017,-16.969627,-5.584447,-18.390663,54.15799,-36.34466,-7.878458,-1.6380512,0.14363356,12.653518,-3.8987963,23.535034,-14.582571,37.466667,-17.02807,-4.725839,14.700533,-0.6428097,-47.39171,32.681747,27.515867,25.52115,21.518076,-37.408928
152,57.22433853149414,59.23788070678711,71.95655059814453,2.7865899904462665,1.6105923734734162,-57.875880560960645,-34.47253,27.84158,36.960278,64.80986,-11.466853,-3.3036788,-17.513409,-6.2956285,-17.962383,54.903435,-36.45163,-7.300077,-1.9416503,0.19761929,12.800527,-4.7621965,24.258326,-14.719638,36.736603,-17.059662,-4.881948,14.615993,-1.1234497,-48.114273,31.96093,27.084475,26.345963,21.244627,-38.13147
153,57.76790237426758,59.81669616699219,71.90626525878906,2.822482629646228,1.6672412546619926,-57.986402516692856,-34.312508,29.217365,36.886463,64.90541,-11.684604,-3.0724769,-18.160637,-7.0783644,-17.43775,55.604748,-36.420654,-6.5140243,-2.207193,0.1863822,12.840658,-5.608186,25.06341,-14.965633,35.975708,-17.137978,-4.97379,14.710372,-1.4999686,-48.841106,31.183924,26.511663,27.061302,20.913189,-38.60175
154,58.319252014160156,60.39469909667969,71.88919830322266,2.9170686690002694,1.774524255047438,-58.11860624590167,-34.168243,30.418797,36.732655,64.838745,-11.874099,-2.916314,-18.889765,-7.9145546,-16.812866,56.285797,-36.23604,-5.567191,-2.4354472,0.11484286,12.810502,-6.443572,25.94886,-15.315298,35.164387,-17.27871,-5.0345664,14.934046,-1.7715863,-49.574577,30.337738,25.79662,27.719303,20.546522,-38.87599
155,58.87096405029297,60.97361373901367,71.89754486083984,3.026981363722914,1.9067076301716857,-58.232442280306266,-34.033554,31.5114,36.50416,64.69347,-12.015441,-2.8205523,-19.601316,-8.758016,-16.180334,56.846775,-35.93892,-4.548051,-2.6344516,0.008982105,12.726814,-7.2438765,26.892525,-15.690329,34.297947,-17.45884,-5.0603724,15.169912,-1.8518381,-50.31334,29.434958,24.89446,28.225904,20.185131,-39.060802
156,59.430419921875,61.543678283691406,71.93086242675781,3.1083855161171683,2.0377760394878943,-58.288232374212164,-33.902637,32.559788,36.2049,64.55004,-12.087165,-2.7719631,-20.194523,-9.568641,-15.6377125,57.190983,-35.572147,-3.5460129,-2.8165724,-0.10048432,12.604839,-7.9825273,27.863024,-16.004398,33.378765,-17.649761,-5.047639,15.301906,-1.6635362,-51.05358,28.496675,23.768444,28.488014,19.866356,-39.264416
157,59.9895133972168,62.098045349121094,71.99028015136719,3.1468678811895936,2.171849501277924,-58.2679704787771,-33.798412,33.585854,35.826103,64.43016,-12.093638,-2.7938735,-20.656832,-10.347438,-15.216773,57.308834,-35.14968,-2.569843,-2.9933393,-0.19508666,12.430402,-8.67112,28.846462,-16.235146,32.435944,-17.853996,-4.9958787,15.32108,-1.1810112,-51.79368,27.50451,22.38528,28.48819,19.588974,-39.532993
158,60.556365966796875,62.63459396362305,72.07847595214844,3.166618785611057,2.319071466963058,-58.195662863091506,-33.721546,34.553032,35.365032,64.28913,-12.041644,-2.8845286,-21.030556,-11.11594,-14.863785,57.24708,-34.6548,-1.5749146,-3.1576269,-0.28662062,12.199154,-9.325892,29.844357,-16.428312,31.47518,-18.075264,-4.9083796,15.28403,-0.44519162,-52.535316,26.450266,20.775314,28.27752,19.338926,-39.807713
159,61.125606536865234,63.155738830566406,72.2033462524414,3.1823252151921064,2.4621071280525513,-58.094079375559716,-33.632328,35.439907,34.836452,64.11079,-11.915768,-2.9922004,-21.29802,-11.86956,-14.551796,56.996826,-34.07929,-0.57354534,-3.2955148,-0.39014253,11.940221,-9.924197,30.847748,-16.593363,30.46604,-18.286179,-4.787009,15.173915,0.51620203,-53.27755,25.375328,18.997015,27.868315,19.136389,-40.04177
160,61.702083587646484,63.6553840637207,72.36669921875,3.2078924123744725,2.583761753464591,-57.98618294441608,-33.489674,36.22626,34.25482,63.880768,-11.701563,-3.0661173,-21.443878,-12.601385,-14.255433,56.547848,-33.410202,0.4200167,-3.3990865,-0.5195042,11.679764,-10.438638,31.842825,-16.729229,29.380077,-18.455608,-4.634015,14.974159,1.6575935,-54.01734,24.340635,17.122997,27.272966,18.999655,-40.18779
161,62.28144073486328,64.15048217773438,72.56504821777344,3.243665979445195,2.6703662238840873,-57.86130994589696,-33.27291,36.917187,33.62174,63.605053,-11.399197,-3.1230476,-21.445532,-13.311325,-13.982613,55.891357,-32.653473,1.4045826,-3.470442,-0.6776435,11.421469,-10.860094,32.819717,-16.800518,28.188414,-18.59079,-4.4272366,14.674188,3.0048213,-54.751728,23.360968,15.129452,26.458984,18.935753,-40.280727
162,62.872962951660156,64.63837432861328,72.79987335205078,3.2834948760842977,2.734290939009636,-57.71333619190712,-33.004887,37.520767,32.931667,63.287464,-11.014562,-3.1796365,-21.314964,-14.004596,-13.742301,55.035072,-31.81225,2.3835542,-3.5188186,-0.8544222,11.149176,-11.198501,33.778786,-16.805523,26.918776,-18.696356,-4.1739993,14.285861,4.5609593,-55.47824,22.412481,13.002347,25.433632,18.932695,-40.331078
163,63.467342376708984,65.12992095947266,73.06503295898438,3.3307090387760865,2.796699305222202,-57.569932771606005,-32.710285,38.024025,32.185627,62.9229,-10.552754,-3.1844356,-21.094604,-14.682065,-13.509855,53.99984,-30.869041,3.3544645,-3.548307,-1.0438347,10.858395,-11.458039,34.72283,-16.794773,25.630653,-18.738977,-3.9222,13.826558,6.236556,-56.19423,21.506094,10.836876,24.266418,18.976688,-40.253075
164,64.0815200805664,65.60978698730469,73.36418914794922,3.3880228566997714,2.8789728043516485,-57.45867121382907,-32.415314,38.415207,31.38372,62.510864,-10.020507,-3.0855296,-20.832033,-15.341876,-13.260288,52.808636,-29.80595,4.3158607,-3.5650187,-1.2411792,10.542228,-11.638889,35.65413,-16.817078,24.382536,-18.683868,-3.7205896,13.313167,7.9257255,-56.894775,20.66896,8.74029,23.025675,19.049177,-39.960636
165,64.71299743652344,66.0892105102539,73.69271087646484,3.473532213191162,2.9929921387477068,-57.38290659769191,-32.12899,38.68159,30.526548,62.06934,-9.391824,-2.8347826,-20.553373,-15.991367,-12.98432,51.459473,-28.630503,5.2701855,-3.5590456,-1.470113,10.174798,-11.755836,36.58172,-16.891788,23.16707,-18.53556,-3.5777106,12.699711,9.612108,-57.587513,19.95257,6.7205167,21.628859,19.16796,-39.3827
166,65.34778594970703,66.57731628417969,74.05043029785156,3.580549806818225,3.125261386247233,-57.328815830467946,-31.830093,38.833767,29.619213,61.59773,-8.67512,-2.4693737,-20.23502,-16.624243,-12.696071,49.94248,-27.342476,6.217997,-3.5376217,-1.7280699,9.76523,-11.791974,37.506584,-16.978987,21.954664,-18.30936,-3.4713678,11.993613,11.326532,-58.272446,19.350067,4.7402897,20.069168,19.31976,-38.577415
167,65.99706268310547,67.06868743896484,74.43470001220703,3.677491389478471,3.2590135847771564,-57.299357547834006,-31.491116,38.89112,28.675373,61.057743,-7.9252048,-2.0652745,-19.853012,-17.215878,-12.4033985,48.263367,-25.898958,7.1565914,-3.527622,-1.9736236,9.356746,-11.715603,38.415646,-17.047176,20.78974,-17.988644,-3.4070497,11.291423,13.025335,-58.926094,18.808321,2.8473454,18.526525,19.441662,-37.656193
168,66.65713500976562,67.56243896484375,74.84278869628906,3.732013872072098,3.3774685506780386,-57.29726572045315,-31.08643,38.8726,27.705095,60.409447,-7.1970816,-1.6994787,-19.382704,-17.739582,-12.113917,46.42653,-24.256336,8.083717,-3.5477898,-2.1665905,8.988866,-11.516853,39.288494,-17.082659,19.740196,-17.555305,-3.3907166,10.691656,14.657696,-59.511017,18.277584,1.1013623,17.178925,19.481575,-36.73417
169,67.32947540283203,68.06352996826172,75.27271270751953,3.73725476368926,3.477303347346758,-57.33248489431386,-30.587507,38.829887,26.769676,59.67292,-6.4719133,-1.3395644,-18.811241,-18.16176,-11.822304,44.39072,-22.40448,9.018442,-3.5754244,-2.3115637,8.656033,-11.240275,40.116272,-17.114721,18.843319,-16.905012,-3.4377155,10.199671,16.210512,-60.011406,17.771328,-0.48901954,16.002853,19.44745,-35.751495
170,68.0186538696289,68.5720443725586,75.72843170166016,3.7101445123745718,3.5668994490468515,-57.400263362354416,-30.014124,38.738834,25.84515,58.862247,-5.7339745,-0.96128076,-18.158615,-18.493864,-11.525203,42.164433,-20.360043,9.9572935,-3.5960875,-2.4301841,8.335266,-10.912801,40.90017,-17.168236,18.096306,-16.076801,-3.5441475,9.773163,17.689558,-60.427452,17.325954,-1.928558,14.9169,19.359653,-34.677357
171,68.71417999267578,69.08329772949219,76.20520782470703,3.654209845591199,3.6472809152252297,-57.4820899578415,-29.409563,38.503647,24.810654,57.927605,-5.0451303,-0.655242,-17.456762,-18.778912,-11.230615,39.839535,-18.123955,10.864537,-3.6392748,-2.5091116,8.038735,-10.488014,41.632168,-17.219706,17.500517,-15.260829,-3.6829677,9.440091,19.061289,-60.73796,16.936596,-3.1705253,14.015734,19.198565,-33.675114
172,69.41339874267578,69.61007690429688,76.6957015991211,3.5731338608212657,3.719368728293136,-57.55893200835726,-28.81175,38.028885,23.544176,56.824318,-4.465401,-0.5115651,-16.740847,-19.060228,-10.948936,37.511597,-15.697372,11.703611,-3.730483,-2.5373092,7.7777886,-9.930523,42.302036,-17.252748,17.065996,-14.645214,-3.823535,9.226898,20.289957,-60.9121,16.59719,-4.1616073,13.387318,18.951649,-32.90676
173,70.1337661743164,70.1371841430664,77.19808197021484,3.4509301620033423,3.7736113245308593,-57.628550336199865,-28.16888,37.321514,22.054115,55.5128,-4.0711846,-0.54885274,-15.965645,-19.304626,-10.695401,35.11055,-13.0212345,12.499655,-3.87616,-2.4941082,7.5582347,-9.260367,42.915516,-17.341032,16.82279,-14.311083,-3.9755561,9.208642,21.365704,-60.92734,16.321642,-4.8778286,13.076867,18.566538,-32.42408
174,70.86600494384766,70.68309783935547,77.7045669555664,3.2911907885948923,3.811991074050147,-57.700409951133885,-27.458887,36.428684,20.397476,54.02926,-3.813872,-0.71389246,-15.148026,-19.48471,-10.458574,32.634678,-10.116033,13.256649,-4.0469823,-2.4008346,7.369223,-8.518116,43.47535,-17.499134,16.778128,-14.142681,-4.144584,9.350342,22.28671,-60.7775,16.128891,-5.329119,13.015808,18.077745,-32.133045
175,71.61099243164062,71.24032592773438,78.20374298095703,3.126211636467236,3.853121256226658,-57.77365488457564,-26.74972,35.316605,18.53064,52.44226,-3.5700839,-0.9870787,-14.418756,-19.659145,-10.214643,30.290262,-7.107691,13.902059,-4.220674,-2.3028266,7.198979,-7.725444,43.963303,-17.628996,16.932558,-14.045008,-4.2940984,9.509176,23.024319,-60.460625,16.025614,-5.5169315,13.123122,17.604155,-31.975847
176,72.36734771728516,71.80760192871094,78.68012237548828,2.9875819314987067,3.916111008823713,-57.848082459751176,-26.102749,33.95115,16.412518,50.8233,-3.2192883,-1.3496895,-13.911681,-19.903187,-9.9439,28.297089,-4.1336656,14.361524,-4.3795996,-2.2403364,7.0356736,-6.8934116,44.35086,-17.620956,17.28343,-13.919743,-4.3880568,9.53996,23.549988,-59.982494,16.016035,-5.443016,13.320504,17.263203,-31.896528
177,73.13121795654297,72.38523864746094,79.14134979248047,2.8697614293058917,4.011736523542556,-57.915939754261146,-25.519709,32.271694,13.926697,49.162018,-2.8114195,-1.7284893,-13.628474,-20.285648,-9.729142,26.605305,-0.985243,14.65509,-4.544109,-2.199016,6.8751006,-5.986777,44.60162,-17.413012,17.84843,-13.732973,-4.406879,9.385337,23.853176,-59.332783,16.089197,-5.0799446,13.576014,17.073849,-31.908566
178,73.9043197631836,72.96936798095703,79.58599090576172,2.757487568925592,4.128353495624525,-57.98287817913521,-24.921835,30.331686,11.148332,47.440735,-2.3933516,-2.14285,-13.544018,-20.749407,-9.557994,25.190039,2.2991626,14.7843075,-4.7102222,-2.155804,6.7202353,-5.0323205,44.709488,-17.088346,18.644987,-13.527214,-4.3742857,9.124774,23.954569,-58.514523,16.244059,-4.429793,13.930451,16.978914,-32.029346
179,74.67933654785156,73.57550048828125,80.00031280517578,2.6701517163404236,4.251960834558623,-58.06733330520804,-24.261986,28.254236,8.311819,45.70417,-1.8347182,-2.7288103,-13.712683,-21.213215,-9.27796,24.25139,5.231702,14.66579,-4.827179,-2.1400995,6.5700617,-4.1099987,44.700085,-16.741138,19.64905,-13.321883,-4.319014,8.820364,23.886824,-57.56597,16.48539,-3.5507128,14.425492,16.9801,-32.214157
180,75.45042419433594,74.18451690673828,80.36895751953125,2.631277641919606,4.367655133789585,-58.18587967798104,-23.51686,26.148079,5.632088,43.979942,-1.0036608,-3.6393342,-14.133838,-21.626991,-8.744059,23.908815,7.361043,14.248648,-4.860929,-2.1839585,6.4303102,-3.2888067,44.621384,-16.44743,20.826464,-13.15637,-4.2681513,8.53464,23.682983,-56.54655,16.815828,-2.5165665,15.114574,17.078342,-32.42292
181,76.2156753540039,74.79745483398438,80.67656707763672,2.665165604042116,4.485168976287395,-58.34579638643868,-22.685371,23.93632,3.0252562,42.20446,0.26207173,-5.066195,-14.820396,-22.066721,-8.012538,24.170128,8.594095,13.39509,-4.817177,-2.313037,6.2957597,-2.4786937,44.486008,-16.130552,22.122324,-13.039919,-4.215742,8.269946,23.364887,-55.482212,17.211842,-1.3533328,16.052435,17.31537,-32.69008
182,76.97366333007812,75.41044616699219,80.92536163330078,2.7604581001655504,4.605161795218891,-58.5355609771745,-21.763084,21.583897,0.38359737,40.362286,1.8287053,-6.907042,-15.711068,-22.558847,-7.1377635,24.894434,9.226205,12.199577,-4.731775,-2.506785,6.1778708,-1.6622664,44.293842,-15.760124,23.550116,-12.980629,-4.148618,7.995028,22.938173,-54.376465,17.653893,-0.056219123,17.220724,17.672289,-33.033653
183,77.72607421875,76.0362548828125,81.13054656982422,2.8831809440139464,4.697672446197478,-58.74157078510876,-20.763985,19.25504,-2.1220453,38.548576,3.4036193,-8.873186,-16.646996,-22.954048,-5.9808574,25.902636,9.420974,10.980398,-4.604901,-2.731955,6.1013346,-0.832501,44.06526,-15.3818035,25.033575,-12.945758,-4.0887647,7.7262907,22.433235,-53.251755,18.136293,1.344935,18.567066,18.058867,-33.38748
184,78.48138427734375,76.66126251220703,81.27720642089844,2.992939965538736,4.734292138733706,-58.94978779375098,-19.735373,17.118965,-4.299035,36.869644,4.721201,-10.656997,-17.478308,-23.081484,-4.4105115,27.041,9.31091,10.055735,-4.4450183,-2.9455538,6.094456,-0.047991004,43.839706,-15.077092,26.548307,-12.941628,-4.056628,7.4817104,21.875685,-52.14183,18.65888,2.8105505,20.04146,18.3881,-33.68323
185,79.21988677978516,77.29222106933594,81.35995483398438,3.084112057709545,4.691266763040354,-59.16269270815914,-18.67195,15.103528,-6.2666426,35.276474,5.849544,-12.372605,-18.185532,-22.706388,-1.9582378,28.329222,8.74608,9.523405,-4.2563305,-3.1403105,6.184399,0.7196046,43.639538,-14.836537,28.071194,-13.001576,-4.0742307,7.2706857,21.280634,-51.063072,19.202787,4.331303,21.739334,18.633253,-33.910187
186,79.9509048461914,77.92534637451172,81.39415740966797,3.1647018704326806,4.588331277265069,-59.384070046665464,-17.581167,13.159415,-8.083987,33.732483,6.8999,-14.119081,-18.809338,-21.894638,1.1317425,29.886793,7.683569,9.231911,-4.0446677,-3.322981,6.358239,1.5001024,43.464165,-14.6165695,29.604822,-13.13465,-4.122922,7.0809774,20.651846,-50.014374,19.759657,5.9003663,23.662916,18.841446,-34.10369
187,80.68429565429688,78.57722473144531,81.38423156738281,3.2249674168752827,4.4681441969944515,-59.60162490528616,-16.579514,11.492007,-9.262005,32.375336,7.717275,-15.000033,-19.325077,-20.995668,3.933494,31.67171,6.3998404,9.121296,-3.812,-3.4793525,6.573237,2.2936616,43.310993,-14.41838,31.118061,-13.282231,-4.163953,6.9001603,19.999977,-49.00049,20.347374,7.486857,25.622492,19.04071,-34.261654
188,81.42486572265625,79.24127197265625,81.3318099975586,3.3258246100059434,4.374753895607506,-59.792578805632665,-15.751428,10.175734,-9.488606,31.264162,8.20339,-15.000033,-19.80469,-20.507408,5.6192393,33.64276,5.1788077,9.1322565,-3.577202,-3.6751394,6.7801337,3.0530694,43.181377,-14.271725,32.621964,-13.40482,-4.1595693,6.716662,19.333258,-48.02935,20.98852,9.05685,27.428934,19.260107,-34.383476
189,82.1516342163086,79.91134643554688,81.22278594970703,3.314056210835349,4.322640752088506,-59.988925828869036,-15.2438,9.396654,-8.868217,30.628868,8.364162,-15.000033,-20.212637,-20.44164,5.8170314,35.66289,4.0862746,9.309578,-3.3116193,-3.7674215,6.9803166,3.7618017,43.070206,-14.177552,34.125572,-13.529283,-4.1103125,6.516694,18.6327,-47.103287,21.681768,10.624245,29.109482,19.504412,-34.44306
190,82.85062408447266,80.58553314208984,81.07475280761719,3.237739906041692,4.290129704636943,-60.1886882066685,-14.964662,8.999922,-7.53199,30.356401,8.236668,-15.000033,-20.599426,-20.690046,5.0708323,37.84599,2.9482355,9.621753,-3.0148392,-3.7996497,7.1871586,4.4756255,42.96952,-14.103466,35.598194,-13.644633,-4.032762,6.31029,17.909338,-46.21919,22.413706,12.194226,30.742823,19.763348,-34.44997
191,83.5545425415039,81.27998352050781,80.87812805175781,3.1837866659641585,4.273993493232369,-60.370746633907025,-14.736053,8.7844925,-5.59981,30.198147,7.6296897,-14.246946,-21.075592,-21.284431,3.78725,40.351753,1.7991356,9.798305,-2.7041545,-3.8480687,7.3913026,5.175661,42.88848,-14.08052,37.05341,-13.699039,-3.9135702,6.1232986,17.19067,-45.382347,23.203926,13.727693,32.221,20.041536,-34.457382
192,84.25779724121094,81.9842529296875,80.62708282470703,3.0552262789241853,4.278946647690197,-60.54550967914308,-14.470259,8.661961,-3.7177498,30.051365,6.2903924,-13.290767,-21.68612,-22.012165,2.2401717,43.255913,0.70265186,9.517343,-2.3794377,-3.8198524,7.594374,5.7448173,42.855724,-14.206482,38.584583,-13.698925,-3.7398255,5.9830055,16.484562,-44.605755,24.085417,15.187645,33.43824,20.340488,-34.518097
193,84.95726013183594,82.7026138305664,80.29866790771484,2.812884109882377,4.319127481902449,-60.73087037980158,-14.11908,8.66379,-1.9732947,29.83742,3.930397,-12.516886,-22.472939,-22.933575,0.30075768,46.67323,-0.3393386,8.60818,-1.9931601,-3.6834116,7.7735567,6.324926,42.86133,-14.396482,40.05746,-13.521138,-3.4899714,5.900061,15.832598,-43.893173,25.045044,16.552084,34.41278,20.671637,-34.668278
194,85.65147399902344,83.42603302001953,79.8941650390625,2.492170028406345,4.384389310161531,-60.916460419548294,-13.745998,8.806759,-0.151863,29.648401,0.7496938,-11.757509,-23.320255,-24.181427,-2.1118891,50.50399,-1.3899335,7.203988,-1.5790657,-3.46935,7.94566,6.84872,42.909576,-14.676618,41.536423,-13.249365,-3.1773608,5.857852,15.196153,-43.247814,26.09215,17.839296,35.18889,21.02974,-34.872513
195,86.31734466552734,84.15518188476562,79.45703887939453,2.1601150963167206,4.444296179203385,-61.06001533453848,-13.458738,8.931374,1.5127344,29.611536,-2.7119467,-11.042964,-24.079754,-25.628195,-4.6306033,54.51879,-2.4895122,5.4985695,-1.1620811,-3.2536292,8.127168,7.453529,42.990005,-14.953638,42.91535,-12.88965,-2.8366168,5.831533,14.598552,-42.650074,27.193424,19.052908,35.704582,21.394823,-35.063896
196,86.95623016357422,84.87623596191406,78.99951934814453,1.876295964170964,4.472586784214036,-61.122860791330886,-13.382452,8.907805,2.8046978,29.864878,-5.922199,-10.3628435,-24.648668,-27.071596,-6.8986697,58.48334,-3.6354456,3.7330465,-0.82510185,-3.101396,8.358793,7.94179,43.137405,-15.368752,44.38009,-12.651843,-2.5052855,5.806431,13.980198,-42.08679,28.375546,20.219296,35.888176,21.746424,-35.178463
197,87.55646514892578,85.59011840820312,78.51567077636719,1.6401680772476734,4.435126028856263,-61.100257845376206,-13.558493,8.738255,3.6480906,30.48012,-8.84346,-9.684768,-25.016579,-28.496056,-8.93486,62.447815,-4.8140864,1.8170671,-0.52587646,-3.0306232,8.665616,8.475698,43.360992,-15.837581,45.78568,-12.4118595,-2.1872816,5.768446,13.355255,-41.53675,29.673792,21.364536,35.75302,22.109325,-35.21682
198,88.13246154785156,86.30380249023438,78.0002212524414,1.4209691937413729,4.356400819007548,-61.012395323248526,-13.959168,8.484767,4.177789,31.40984,-11.728465,-8.954978,-25.21565,-29.952414,-10.904789,66.48297,-6.0248613,-0.30982748,-0.2642379,-3.0100553,9.029404,9.001124,43.673233,-16.383839,47.179497,-12.185211,-1.8643956,5.730179,12.699718,-40.99379,31.10189,22.497498,35.31604,22.48379,-35.20293
199,88.68952941894531,87.00440216064453,77.45696258544922,1.2333564922712288,4.300470279561534,-60.86221257179493,-14.592859,8.124338,4.5018077,32.591213,-14.481453,-8.15977,-25.288649,-31.278606,-12.670872,70.405754,-7.2267947,-2.3110542,-0.036250405,-3.0436974,9.375765,9.575186,44.0443,-16.921051,48.51623,-12.019449,-1.5357724,5.700963,12.103027,-40.439705,32.497787,23.556992,34.507687,22.816639,-35.093212
200,89.23621368408203,87.67498779296875,76.89633178710938,1.0959491836329707,4.33303203446602,-60.6530556092355,-15.451272,7.6497374,4.7247906,33.95086,-17.015926,-7.3283734,-25.316238,-32.30276,-14.095076,74.04189,-8.35994,-3.8340611,0.16425319,-3.1341763,9.6291,10.235025,44.426685,-17.376234,49.769047,-11.958229,-1.2024347,5.6935987,11.641782,-39.861378,33.699547,24.492342,33.257763,23.052578,-34.8453
201,89.75733947753906,88.33343505859375,76.31968688964844,1.025800781620602,4.4867328005216365,-60.353425613215386,-16.562998,7.045294,4.8070226,35.501614,-19.368656,-6.498198,-25.376694,-32.946655,-15.109928,77.37872,-9.373251,-4.7000227,0.3259685,-3.276324,9.771398,10.95555,44.800346,-17.770048,50.96695,-12.032163,-0.8562224,5.697798,11.37554,-39.249416,34.655148,25.304323,31.294401,23.182089,-34.417202
202,90.28060150146484,88.97835540771484,75.7633056640625,1.0100241070501492,4.724440664588705,-59.97515169581754,-17.899715,6.329979,4.724384,37.261684,-21.579435,-5.675915,-25.470825,-33.256596,-15.818019,80.50859,-10.273866,-5.079825,0.4649284,-3.4656553,9.83782,11.691495,45.17058,-18.158564,52.14792,-12.20673,-0.5032601,5.7187357,11.191388,-38.612114,35.483868,26.069855,28.768414,23.214123,-33.84366
203,90.83887481689453,89.62818145751953,75.2601547241211,1.018929670571612,5.0070531259199615,-59.585747347856255,-19.345604,5.5635405,4.6071615,39.13645,-23.560425,-4.8478026,-25.565292,-33.25878,-16.340677,83.39849,-11.076927,-5.1476593,0.60370964,-3.6985064,9.821055,12.519292,45.51137,-18.460287,53.26116,-12.401885,-0.16541891,5.788637,11.105203,-37.95788,36.16677,26.695585,26.117449,23.129566,-33.207146
204,91.41694641113281,90.29254913330078,74.7763671875,1.0213230526179669,5.294805040754311,-59.252494567985394,-20.793047,4.8089066,4.58255,41.02594,-25.212704,-3.9963999,-25.614508,-32.992973,-16.79324,86.0059,-11.799192,-5.0893254,0.7773031,-3.9637992,9.714734,13.551656,45.775826,-18.536802,54.221153,-12.478883,0.13594583,5.937191,11.104804,-37.30544,36.69348,27.11316,23.807396,22.925362,-32.58962
205,91.98844146728516,90.92272186279297,74.32511138916016,1.0100549369902876,5.642312682073462,-58.96671613795731,-22.35095,4.073334,4.6737,43.00457,-26.455362,-3.0804377,-25.701952,-32.382336,-17.129587,88.2994,-12.388945,-4.848598,0.9567703,-4.262995,9.453881,14.812951,45.92692,-18.324234,55.0484,-12.395838,0.37814477,6.2311964,11.188425,-36.670204,37.03969,27.28029,21.812563,22.564526,-31.94511
206,92.56613159179688,91.5133056640625,73.9251937866211,0.9976750871524972,6.049539991184208,-58.70179899472975,-24.02167,3.3426025,4.8232455,45.08956,-27.366064,-2.1116915,-25.844536,-31.422003,-17.329971,90.30752,-12.858731,-4.350896,1.0601732,-4.5808797,9.079759,16.026001,46.00625,-18.180153,55.965576,-12.481343,0.570661,6.6554227,11.272398,-36.076645,37.29543,27.258776,19.955223,22.062399,-31.271555
207,93.16974639892578,92.08784484863281,73.57515716552734,0.9831452465727518,6.393440208244832,-58.49758453087123,-25.549517,2.6424086,5.0341306,47.08561,-28.067816,-1.1589279,-25.88331,-30.278643,-17.53353,92.06954,-13.315232,-3.774616,1.2506156,-4.893166,8.6987095,17.411348,45.973797,-17.832687,56.70505,-12.393654,0.7561673,7.062793,11.463523,-35.532204,37.41823,27.05709,18.465826,21.519503,-30.688162
208,93.78620910644531,92.65589904785156,73.2718276977539,0.9648085242451045,6.550988104612375,-58.39312977617126,-26.689777,1.9910914,5.3039894,48.79603,-28.673641,-0.30675966,-25.652206,-29.12986,-17.866877,93.623146,-13.853498,-3.3118882,1.5169927,-5.1690297,8.461591,18.847149,45.85318,-17.47103,57.31056,-12.295584,0.9638042,7.3469915,11.604097,-35.069164,37.58032,26.787447,17.615698,21.043339,-30.313375
209,94.41384887695312,93.20710754394531,73.01314544677734,0.9486013133947031,6.43048971648987,-58.389267856006875,-27.337324,1.375467,5.61291,50.18972,-29.157585,0.37562722,-25.0438,-27.984407,-18.318739,94.965546,-14.513557,-3.0587523,1.8740834,-5.406018,8.468839,20.283113,45.6589,-17.15388,57.802864,-12.215104,1.2156377,7.4443407,11.71516,-34.706173,37.781864,26.411396,17.70096,20.640945,-30.261072
210,95.04290771484375,93.74948120117188,72.78551483154297,0.9340959369442754,6.115677611091873,-58.466390985039226,-27.644737,0.78539175,5.9694223,51.359833,-29.466154,0.9402482,-24.170694,-26.770586,-18.81944,96.078896,-15.228877,-2.9148102,2.3133276,-5.6130724,8.6297035,21.754025,45.384064,-16.823704,58.178032,-12.111421,1.4902127,7.4247723,11.84984,-34.44821,37.959797,25.876287,18.507133,20.270933,-30.423481
211,95.67436218261719,94.2817153930664,72.5886459350586,0.9120218226008602,5.746785514577549,-58.63381493977778,-27.755823,0.23697047,6.412125,52.2863,-29.66807,1.4765612,-23.192192,-25.548689,-19.40399,96.97488,-15.92835,-2.7872872,2.8140047,-5.7776265,8.800789,23.272669,45.025497,-16.502106,58.427067,-12.031095,1.7525326,7.3789697,11.98974,-34.299072,38.126793,25.2151,19.50206,19.97485,-30.586945
212,96.3213882446289,94.80726623535156,72.42869567871094,0.8726584180382253,5.4648275416128085,-58.90089660632412,-27.8179,-0.25054258,6.978545,52.956112,-29.829695,2.0766695,-22.267881,-24.382711,-20.109526,97.66889,-16.545824,-2.580841,3.378292,-5.8919225,8.833454,24.891262,44.56551,-16.13949,58.503025,-11.941774,1.9690194,7.392375,12.118904,-34.258755,38.284077,24.474525,20.172205,19.801556,-30.546253
213,96.99220275878906,95.33474731445312,72.31189727783203,0.8199923217763355,5.300734733608451,-59.28357332343865,-27.839195,-0.66090655,7.70492,53.33924,-29.983303,2.75784,-21.39042,-23.386406,-21.022888,98.19116,-17.130835,-2.3797076,3.995902,-5.968853,8.687177,26.595272,43.99343,-15.756028,58.39718,-11.906718,2.1377912,7.5044837,12.205933,-34.328804,38.452156,23.67578,20.52314,19.79585,-30.238676
214,97.67687225341797,95.8737564086914,72.23854064941406,0.7575369116246407,5.181308360882403,-59.77213125142262,-27.759645,-1.0098009,8.561731,53.453495,-30.081934,3.4754071,-20.48623,-22.498953,-22.08432,98.52584,-17.691757,-2.2010016,4.6703787,-6.010164,8.438721,28.371746,43.298855,-15.350371,58.120304,-11.890787,2.2739909,7.6653895,12.305891,-34.508076,38.604176,22.766354,20.76057,19.925585,-29.781
215,98.37767791748047,96.42240905761719,72.20452117919922,0.6760331286686367,5.091302741037305,-60.33846540064661,-27.619167,-1.3210078,9.484393,53.35924,-30.07808,4.232304,-19.622234,-21.529657,-23.118568,98.62063,-18.10793,-1.8467673,5.37644,-5.994706,8.128412,30.17031,42.491184,-15.013626,57.74538,-11.895968,2.366687,7.8419747,12.365822,-34.801857,38.78078,21.777115,20.749966,20.119326,-29.240557
216,99.0998764038086,96.96977996826172,72.21212768554688,0.5673063393100582,5.01575991472519,-60.95441358725271,-27.451757,-1.6162761,10.413156,53.117115,-29.930882,5.0274124,-18.875696,-20.294487,-23.953167,98.42032,-18.260633,-1.1208636,6.0829096,-5.9016395,7.792822,31.937567,41.593555,-14.854533,57.357044,-11.945304,2.4049835,8.00092,12.396053,-35.212643,38.989647,20.690722,20.309635,20.302853,-28.682602
217,99.83761596679688,97.5263671875,72.26155853271484,0.4346807425793862,4.960952611198257,-61.6428145375768,-27.233067,-1.8951031,11.377619,52.69341,-29.663322,5.8840375,-18.279987,-18.78069,-24.556713,97.91996,-18.117727,0.027642207,6.800207,-5.737044,7.4195514,33.693172,40.620785,-14.952761,56.954468,-12.116629,2.3606207,8.1479845,12.400281,-35.746964,39.22965,19.462948,19.235313,20.487085,-28.051506
218,100.5825424194336,98.08954620361328,72.3542251586914,0.28342799522918755,4.930680407570401,-62.408511307014265,-26.951157,-2.1477306,12.398274,52.07855,-29.292505,6.796631,-17.79541,-17.084015,-25.011494,97.1455,-17.760042,1.4951166,7.548705,-5.5149446,6.992026,35.433548,39.577724,-15.270067,56.513233,-12.387979,2.247924,8.295025,12.372288,-36.4099,39.49722,18.113293,17.684326,20.687622,-27.328878
219,101.34054565429688,98.66202545166016,72.48980712890625,0.10780384997901736,4.905836801657851,-63.19570252172961,-26.646883,-2.3866246,13.40273,51.354034,-28.769615,7.7197943,-17.392288,-15.186225,-25.314753,96.08692,-17.250425,3.2479084,8.311961,-5.225694,6.539133,37.10336,38.472538,-15.695658,56.062496,-12.608025,2.1221132,8.413125,12.387926,-37.189575,39.75184,16.66286,15.965647,20.842817,-26.640337
220,102.10730743408203,99.23030853271484,72.66119384765625,-0.09688765825977211,4.866930613191872,-63.94871806830773,-26.362957,-2.6227996,14.323963,50.608505,-28.049852,8.604512,-17.037733,-13.072072,-25.464684,94.73357,-16.653841,5.246707,9.071782,-4.8622108,6.0927873,38.650272,37.31674,-16.114233,55.626675,-12.633985,2.039755,8.47346,12.524397,-38.0619,39.948082,15.137584,14.38308,20.90406,-26.118769
221,102.88623809814453,99.7923355102539,72.86235046386719,-0.34646802525214826,4.816964071137684,-64.67116959264366,-26.078152,-2.8585958,15.150225,49.80158,-27.16309,9.465454,-16.742157,-10.6383505,-25.403019,93.0313,-15.949493,7.6310635,9.828201,-4.4173865,5.6387186,40.096302,36.11603,-16.525465,55.201748,-12.420013,2.0324879,8.467828,12.803552,-39.01246,40.079987,13.5037365,12.906081,20.869217,-25.81106
222,103.67134857177734,100.3580551147461,73.09886169433594,-0.6288056588843315,4.760751835189451,-65.38499353534947,-25.767477,-3.100026,15.928169,48.902035,-26.134308,10.321641,-16.49703,-7.941868,-25.13539,91.00078,-15.176784,10.362135,10.608231,-3.9097853,5.174716,41.448368,34.88699,-16.98666,54.773914,-12.051115,2.0662272,8.409647,12.731922,-40.0617,40.39034,12.077253,11.69943,20.763582,-25.640282
223,104.46183776855469,100.93115234375,73.35933685302734,-0.9082504221601074,4.682051671869665,-66.06144069155351,-25.47221,-3.3592055,16.67753,48.0084,-24.906628,11.134405,-16.236708,-5.2128515,-24.763046,88.74027,-14.45635,13.119243,11.372835,-3.3666527,4.730637,42.710114,33.61673,-17.396553,54.322224,-11.56176,2.1004486,8.298839,12.9306,-41.16583,40.55392,10.5091095,10.487213,20.598011,-25.580034
224,105.24011993408203,101.50790405273438,73.63723754882812,-1.1538494840227034,4.569631506726544,-66.6771574337151,-25.248554,-3.6197107,17.411568,47.237923,-23.415693,11.864118,-15.857666,-2.786373,-24.574833,86.35249,-13.858056,15.000033,12.129224,-2.817961,4.3500752,43.833233,32.3225,-17.698603,53.84593,-10.998979,2.0934615,8.138298,13.322997,-42.300037,40.57258,8.95089,9.452313,20.375814,-25.586864
225,105.97889709472656,102.09333038330078,73.9345474243164,-1.5655312028911947,4.5150198564992525,-67.38972182950664,-25.3057,-3.5595696,18.10557,46.84074,-21.765263,12.532454,-15.391815,-0.59673643,-24.88977,83.727104,-13.251677,15.000033,13.048661,-2.1020713,3.902796,44.83506,31.017471,-17.857536,53.311066,-10.285815,2.0439763,7.907589,13.639743,-43.459816,40.563587,7.6218553,8.8270445,20.04981,-25.689514
226,106.71759796142578,102.679931640625,74.25482940673828,-2.0106070574164394,4.456574551253119,-68.10052517731194,-25.467718,-3.412379,18.776468,46.58698,-19.90185,13.188712,-14.922524,1.6547121,-25.047482,80.858284,-12.653507,15.000033,14.029319,-1.3260304,3.4531875,45.74513,29.70239,-17.897655,52.714504,-9.429483,1.9691503,7.6107545,13.900069,-44.6364,40.53538,6.4681764,8.504467,19.63493,-25.897972
227,107.45407104492188,103.27142333984375,74.58946228027344,-2.3723641938482958,4.346127845906328,-68.71268545669781,-25.652111,-3.3164957,19.462013,46.399807,-17.7561,13.7046385,-14.35727,3.7262547,-25.096575,77.882454,-12.082655,15.000033,14.94414,-0.60544163,3.0887306,46.544205,28.385647,-17.843697,52.089813,-8.600946,1.8588187,7.285447,14.276787,-45.803463,40.41735,5.3585997,8.278397,19.223047,-26.136646
228,108.18698120117188,103.86650848388672,74.93113708496094,-2.635210391394236,4.185450424435053,-69.20909770523616,-25.877611,-3.251859,20.1851,46.317463,-15.308751,13.924026,-13.663528,5.471504,-25.139606,74.900055,-11.493222,15.000033,15.756668,0.026335582,2.8330166,47.203815,27.092054,-17.731169,51.470417,-7.9742265,1.7063665,6.9675646,14.683582,-46.937138,40.26369,4.33873,8.106675,18.903624,-26.324446
229,108.90872192382812,104.46281433105469,75.27220153808594,-2.821765534380612,3.9689865661522243,-69.59943291327929,-26.193487,-3.1686244,20.996414,46.45624,-12.521855,14.041739,-12.795779,6.884007,-25.262224,71.86033,-10.854214,15.000033,16.487171,0.5933148,2.6915483,47.73579,25.844711,-17.548101,50.825607,-7.572409,1.4888871,6.6158295,15.055936,-48.01969,40.123253,3.474332,8.031211,18.698826,-26.489082
230,109.61373138427734,105.06148529052734,75.6135025024414,-2.9471217640467993,3.706670550514601,-69.89727017274544,-26.583292,-3.0687869,21.852198,46.758675,-9.4073925,14.058867,-11.788484,8.059025,-25.424131,68.7259,-10.166491,15.000033,17.160776,1.1125312,2.6440983,48.164055,24.64954,-17.27661,50.13328,-7.316077,1.2209471,6.2234116,15.378107,-49.038307,39.993008,2.7940018,8.0899935,18.559057,-26.654415
231,110.31511688232422,105.65422821044922,75.9525146484375,-2.9883052963538956,3.4259796109935174,-70.09364021295194,-26.983515,-3.046023,22.59445,47.000893,-6.0083156,13.507926,-10.7309,8.999513,-25.565538,65.60912,-9.431966,15.000033,17.742085,1.5410514,2.6749578,48.4819,23.500467,-16.938107,49.44259,-7.224708,0.95503885,5.8773417,15.684175,-49.974735,39.830837,2.2575338,8.199186,18.467886,-26.736944
232,110.99822235107422,106.25180053710938,76.28001403808594,-2.9195853762868094,3.153779105062615,-70.17774551667848,-27.344824,-3.2382002,23.020329,46.962296,-2.3692875,11.887591,-9.713341,9.68704,-25.636366,62.636505,-8.66306,15.000033,18.199175,1.8336354,2.7727413,48.67253,22.389395,-16.55731,48.81207,-7.3149033,0.7429635,5.6664987,15.912656,-50.8138,39.643173,1.8862723,8.330644,18.409336,-26.64969
233,111.67098236083984,106.84529876708984,76.59162902832031,-2.707644166468559,2.8987319574569734,-70.11797798505812,-27.72507,-3.7722633,22.98923,46.61925,1.7657344,8.785058,-8.750672,10.016826,-25.712019,59.887253,-7.911278,15.000033,18.505323,1.9529839,2.9452956,48.73742,21.301956,-16.079006,48.239468,-7.6309185,0.6014017,5.630027,16.137426,-51.528893,39.364967,1.6566764,8.404621,18.401129,-26.288013
234,112.34381103515625,107.43804168701172,76.88165283203125,-2.373643744864535,2.648110512821882,-69.92974193369317,-28.173613,-4.6908965,22.464125,46.07995,6.2413507,4.3970327,-7.812844,10.011504,-25.856802,57.310326,-7.1752977,15.000033,18.683836,1.9273105,3.197573,48.677197,20.24322,-15.504047,47.710163,-8.146395,0.5005432,5.7184596,16.266918,-52.112507,39.06946,1.6416224,8.4929495,18.445393,-25.720118
235,113.0111312866211,108.04015350341797,77.13785552978516,-1.9725739048876223,2.3951694175383054,-69.67248675047928,-28.613981,-5.9672947,21.438272,45.34385,10.386607,-0.83825177,-6.9213314,9.832849,-25.989058,54.840015,-6.391016,15.000033,18.75684,1.8102814,3.509136,48.495182,19.22639,-14.930445,47.254066,-8.7744,0.42235297,5.884993,16.257866,-52.572357,38.843754,1.8293741,8.642593,18.503025,-25.12953
236,113.66426849365234,108.6558609008789,77.3492660522461,-1.5658633631303218,2.132875262354021,-69.41017776301973,-28.927366,-7.4515653,20.04068,44.41152,13.610417,-6.35104,-6.091172,9.649518,-25.99944,52.396317,-5.4781933,15.000033,18.758696,1.6613461,3.8587587,48.193447,18.271608,-14.461614,46.89953,-9.429752,0.3497423,6.081981,16.050007,-52.932053,38.77735,2.2129736,8.921125,18.535786,-24.699697
237,114.2990493774414,109.2748031616211,77.5177230834961,-1.1938873205542548,1.882328719094284,-69.18250028666382,-29.02928,-9.119879,18.177917,43.134514,15.926819,-12.692915,-5.2867703,9.547874,-25.901754,49.759552,-4.179872,15.000033,18.733587,1.4987947,4.212419,47.782356,17.38404,-14.088549,46.653084,-10.17999,0.27871963,6.327822,15.667796,-53.202675,38.866898,2.7801714,9.347222,18.533121,-24.464294
238,114.9775619506836,109.92223358154297,77.61026763916016,-0.6212960469595827,1.7040396779820353,-68.78560355404122,-28.64312,-10.309828,18.133484,41.312233,17.826843,-15.000033,-4.7361465,9.065448,-25.824514,47.41717,-2.8219318,15.000033,18.513458,1.1181448,4.585666,47.275566,16.561384,-13.7753315,46.481735,-11.042283,0.21585537,6.638143,15.137577,-53.390255,39.065815,3.5267057,9.89903,18.516222,-24.329752
239,115.68524932861328,110.59059143066406,77.62165069580078,0.20958533458953704,1.5683688380992253,-68.12577372531737,-28.01074,-11.33846,19.16555,39.16865,19.44319,-15.000033,-4.5501947,8.066295,-25.750229,45.80323,-1.9018883,15.000033,17.986383,0.48241422,5.0149765,46.66732,15.810958,-13.581235,46.36718,-11.861122,0.16315532,6.95692,14.491136,-53.514706,39.348217,4.395049,10.540601,18.493374,-24.294231
240,116.38520050048828,111.24683380126953,77.59600830078125,0.9601401229229211,1.276857231245522,-67.51160574377414,-27.477268,-12.305785,19.648954,37.540512,20.131294,-15.000033,-4.410205,7.065055,-25.420311,44.746185,-1.5683662,15.000033,17.442554,-0.0366475,5.5831065,45.911583,15.1483755,-13.553863,46.322163,-12.486384,0.12644309,7.2196164,13.724091,-53.58999,39.71209,5.3376646,11.260624,18.472637,-24.361746
241,116.99808502197266,111.89327239990234,77.53376007080078,1.157309378296713,1.0589942483365538,-67.38487578464331,-27.73982,-12.44662,19.217419,37.383717,18.924877,-15.000033,-4.46288,6.432144,-25.616795,44.021755,-1.491016,11.038721,17.30597,-0.091443144,5.971862,44.982643,14.584439,-13.708697,46.366386,-12.846719,0.11948035,7.396776,12.83867,-53.622,40.165874,6.3363013,12.076394,18.453651,-24.574
