unveil-humanoid-operators/unveil-humanoid-operators.github.io/feature-analysis-animation/data/feature_matrix_instances/age_waist_rom_jogging_A072_jog_ff_loop_360_001__A072.csv
Frame,root_translateX,root_translateY,root_translateZ,root_rotateX,root_rotateY,root_rotateZ,left_hip_pitch_joint_dof,left_hip_roll_joint_dof,left_hip_yaw_joint_dof,left_knee_joint_dof,left_ankle_pitch_joint_dof,left_ankle_roll_joint_dof,right_hip_pitch_joint_dof,right_hip_roll_joint_dof,right_hip_yaw_joint_dof,right_knee_joint_dof,right_ankle_pitch_joint_dof,right_ankle_roll_joint_dof,waist_yaw_joint_dof,waist_roll_joint_dof,waist_pitch_joint_dof,left_shoulder_pitch_joint_dof,left_shoulder_roll_joint_dof,left_shoulder_yaw_joint_dof,left_elbow_joint_dof,left_wrist_roll_joint_dof,left_wrist_pitch_joint_dof,left_wrist_yaw_joint_dof,right_shoulder_pitch_joint_dof,right_shoulder_roll_joint_dof,right_shoulder_yaw_joint_dof,right_elbow_joint_dof,right_wrist_roll_joint_dof,right_wrist_pitch_joint_dof,right_wrist_yaw_joint_dof
0,-0.0001763016771292314,2.675658941268921,80.03406524658203,3.6808741030067944,-7.352601492189024,-98.77963072265607,7.282628,-6.198669,4.2796097,49.73112,-0.6659579,-5.5079207,-13.509008,-1.1381646,9.658229,7.963329,14.249873,15.000033,-4.7909794,-1.9017262,16.068043,8.56573,38.556267,-12.873519,4.874474,-23.26714,-1.3421805,0.73106104,19.629152,-15.033527,10.125849,37.9212,17.044033,10.328563,-4.9521437
1,0.15867984294891357,4.080816268920898,79.91315460205078,3.14722800398016,-7.23914027320142,-99.24518860260228,7.1449575,-5.5900764,4.319301,48.20878,-1.4280082,-3.522283,-15.003122,-0.20880213,9.443798,12.590231,11.671808,15.000033,-4.2968163,-1.4610233,16.301992,9.262335,38.33501,-12.723838,4.6285357,-22.772287,-1.5097486,0.7447701,18.257767,-15.018197,10.57773,38.318935,16.66305,10.180395,-5.215995
2,0.3069671094417572,5.485124111175537,79.73761749267578,2.695865835577905,-7.151141465177071,-99.70455345665297,7.0655107,-5.1522584,4.3259044,46.584885,-2.0937495,-1.4920683,-16.370089,0.5897473,9.370948,16.943232,9.199801,15.000033,-3.873962,-1.0615623,16.53342,9.94904,37.953632,-12.526106,4.4342575,-22.17148,-1.69905,0.7123642,16.887632,-15.042948,11.063169,38.714996,16.288197,10.038737,-5.506559
3,0.4504218101501465,6.883896827697754,79.5188217163086,2.3279895848330874,-7.069118758028191,-100.13313303817286,6.925247,-4.826486,4.3821,45.09709,-3.038979,0.36715606,-17.720057,1.1744456,9.126635,21.415073,6.696835,15.000033,-3.488519,-0.71277094,16.746246,10.572819,37.484303,-12.360506,4.3569794,-21.567953,-1.8484672,0.71461034,15.504337,-15.104078,11.539367,39.099876,15.915085,9.893572,-5.792025
4,0.5666142702102661,8.283357620239258,79.24174499511719,1.9735099735097232,-6.990832701804293,-100.51235353651347,6.6168,-4.456375,4.5328703,44.02485,-4.660379,1.8109221,-19.02007,1.4756812,8.2946615,26.129765,4.1576815,14.727389,-3.123512,-0.35263103,16.946802,11.084946,36.980946,-12.276949,4.476201,-21.054226,-1.8924426,0.82158476,14.069011,-15.195807,11.98476,39.483105,15.536128,9.73243,-6.04967
5,0.6690462231636047,9.700257301330566,78.9111328125,1.5759329982506984,-6.917171313623899,-100.84304840905617,6.1515102,-3.9267166,4.799516,43.434246,-7.305024,2.7423139,-20.307142,1.3952061,6.4571476,31.250853,1.4878595,13.381747,-2.7722325,0.050206754,17.140015,11.504086,36.472748,-12.276992,4.797642,-20.691595,-1.8006468,1.0877402,12.553003,-15.308902,12.394313,39.87238,15.130719,9.545391,-6.2656684
6,0.7755926251411438,11.106354713439941,78.54401397705078,1.2117547588305486,-6.839366560914565,-101.12869844194404,5.58587,-3.3630168,5.1499515,43.118797,-10.62181,3.3212447,-21.578987,0.8591877,4.15339,36.706703,-1.3403852,11.889863,-2.435034,0.42332864,17.318695,11.857048,35.97259,-12.340709,5.2591095,-20.443886,-1.610516,1.4679475,10.985522,-15.432663,12.775341,40.25883,14.707868,9.340361,-6.4510083
7,0.8823017477989197,12.523719787597656,78.1546630859375,0.9327729892904845,-6.748979773258257,-101.36287942067366,4.87093,-2.8577287,5.5319014,43.009426,-13.995178,3.6590667,-22.726255,-0.07109061,1.8485031,42.22855,-4.1914716,10.258866,-2.1000428,0.72288233,17.475542,12.122611,35.496655,-12.478988,5.829606,-20.242128,-1.3582761,1.8824476,9.41114,-15.563483,13.122301,40.632286,14.302219,9.130864,-6.6219864
8,0.9819391369819641,13.947097778320312,77.75213623046875,0.792843064869114,-6.636608450964669,-101.54122077200707,3.952863,-2.5068727,5.8963184,43.052216,-16.825747,3.873313,-23.675554,-1.252139,-0.027750539,47.563343,-6.9151664,8.525728,-1.7510211,0.90679014,17.603247,12.268236,35.06204,-12.708724,6.486545,-20.02025,-1.0803834,2.252435,7.880546,-15.700587,13.425841,40.97574,13.949525,8.931009,-6.79374
9,1.06760835647583,15.357121467590332,77.3576889038086,0.8268726181036952,-6.471176186564555,-101.65912645456052,2.761379,-2.3249962,6.3138638,43.286026,-19.013777,3.9924676,-24.49351,-2.7174244,-1.517286,52.804546,-9.548053,6.5361953,-1.3773115,0.9420322,17.685225,12.253562,34.688187,-13.056768,7.250947,-19.802944,-0.7501222,2.5529609,6.390721,-15.840693,13.667695,41.26511,13.67383,8.743159,-6.985926
10,1.1447426080703735,16.759061813354492,76.95646667480469,0.9933044954676229,-6.266266202258645,-101.72167377141216,1.3377242,-2.2378159,6.8020396,43.741016,-20.870268,3.972425,-25.186058,-4.4612594,-2.784027,58.03959,-12.158779,4.332265,-0.9772183,0.85706747,17.734903,12.095051,34.380363,-13.51387,8.126999,-19.624722,-0.3610544,2.8319128,4.929434,-15.980483,13.845143,41.507004,13.449269,8.559461,-7.184189
11,1.2120482921600342,18.151588439941406,76.55805969238281,1.228279717727164,-6.076111261541535,-101.74102553003539,-0.20701824,-2.2156668,7.227341,44.351948,-22.42094,3.8209689,-25.647575,-6.2101793,-3.656673,63.026012,-14.603226,2.2777948,-0.55050343,0.7062978,17.786041,11.877743,34.122746,-14.030108,9.043354,-19.41925,0.021266723,3.1178322,3.5281122,-16.124357,13.978815,41.737614,13.2376585,8.378425,-7.3526506
12,1.2756502628326416,19.527128219604492,76.17135620117188,1.4680400206730349,-5.953668063030323,-101.73067042331115,-1.7624514,-2.2340837,7.453482,45.049377,-23.686398,3.5431838,-25.800943,-7.6781454,-4.0137515,67.54013,-16.706804,0.7477362,-0.10661587,0.55323094,17.869091,11.68337,33.88826,-14.551374,9.939916,-19.11764,0.33238178,3.4345527,2.2076354,-16.28196,14.106237,42.0013,13.004333,8.199576,-7.455623
13,1.3396289348602295,20.898487091064453,75.7974624633789,1.6854305707235717,-5.916591729138606,-101.66919879896726,-3.373384,-2.3036635,7.3501496,45.926285,-24.646309,3.0496378,-25.646711,-8.738744,-3.8380525,71.57685,-18.358446,-0.08109188,0.3307766,0.4283925,17.998243,11.501861,33.657185,-15.086044,10.847316,-18.682606,0.5601163,3.8025348,0.9591683,-16.460176,14.237539,42.31654,12.744266,8.009399,-7.4963984
14,1.4068477153778076,22.247629165649414,75.43748474121094,1.9172683588368205,-5.934411924659545,-101.56055606998167,-5.077989,-2.4333694,7.0286474,46.991997,-25.30492,2.3701382,-25.248402,-9.511665,-3.2808604,75.27476,-19.643545,-0.40661347,0.76607406,0.30722156,18.151281,11.30391,33.424606,-15.648659,11.789403,-18.145943,0.73889846,4.2012224,-0.23327234,-16.66179,14.369421,42.667465,12.4774,7.8129864,-7.48993
15,1.4766907691955566,23.571001052856445,75.09187316894531,2.17594517261495,-5.9891898508473025,-101.45477429787324,-6.7583065,-2.595767,6.707294,48.05016,-25.718168,1.6859281,-24.62786,-10.086937,-2.4842422,78.62043,-20.675638,-0.41157186,1.2265756,0.17331183,18.303114,11.146614,33.186653,-16.19155,12.695081,-17.543652,0.8747157,4.590538,-1.3628271,-16.889242,14.528001,43.047935,12.210349,7.6368504,-7.4171147
16,1.538172960281372,24.880475997924805,74.7757797241211,2.480534038011513,-6.061719523147336,-101.40111544156281,-8.294349,-2.7533996,6.598021,48.893097,-25.935883,1.1772538,-23.807775,-10.567933,-1.5715364,81.590004,-21.569368,-0.290451,1.7325242,0.008586498,18.43109,11.094572,32.941406,-16.658716,13.487291,-16.911936,0.9728592,4.9288645,-2.4251568,-17.142973,14.745083,43.450787,11.951515,7.5073595,-7.2592645
17,1.6014386415481567,26.17877769470215,74.49824523925781,2.855261077627972,-6.158597015709012,-101.42830124405597,-9.700106,-2.8819022,6.801308,49.57659,-25.926607,0.91360587,-22.77765,-10.926679,-0.47396418,84.192215,-22.360563,-0.005862517,2.3097553,-0.21322514,18.548708,11.169585,32.69127,-17.033018,14.132477,-16.198757,1.0245582,5.204466,-3.4351864,-17.428125,15.032629,43.90919,11.7080345,7.4179835,-6.9866223
18,1.6448808908462524,27.467575073242188,74.25650787353516,3.2816521381356103,-6.285493816401791,-101.50454486612115,-11.026201,-2.9936044,7.18012,50.168026,-25.67603,0.78597784,-21.520613,-11.124824,0.8100297,86.44296,-22.990858,0.52579606,2.9327247,-0.47229278,18.66405,11.338806,32.437607,-17.339405,14.675642,-15.406512,1.0305505,5.4386106,-4.393972,-17.7442,15.385424,44.41641,11.47756,7.358369,-6.6163077
19,1.6807224750518799,28.743383407592773,74.06159973144531,3.7115616591690226,-6.421790615379075,-101.58654707167719,-12.210697,-3.103317,7.589098,50.482212,-25.26117,0.710415,-20.0603,-11.2639065,2.0810418,88.31687,-23.425621,1.1669648,3.5487633,-0.7228213,18.743822,11.612493,32.17458,-17.578695,15.133361,-14.637159,1.0086619,5.639709,-5.274093,-18.080122,15.800728,44.906918,11.248671,7.3489904,-6.200872
20,1.71123206615448,29.998332977294922,73.91666412353516,4.09992585058004,-6.547752306912831,-101.63124355764239,-13.184821,-3.2330515,7.884069,50.32853,-24.757215,0.60890186,-18.434141,-11.446029,3.1546597,89.78543,-23.62042,1.774275,4.1014285,-0.9222852,18.75274,11.986499,31.894827,-17.753613,15.53753,-13.997935,0.9761023,5.8152537,-6.0571804,-18.421183,16.277052,45.32426,11.0078945,7.4097543,-5.794789
21,1.7398208379745483,31.23883819580078,73.82431030273438,4.439576069192261,-6.661430418481086,-101.63558095311109,-13.890036,-3.3997786,8.03166,49.59981,-24.254305,0.47361565,-16.616093,-11.70804,4.002563,90.8325,-23.599997,2.3239841,4.58277,-1.0720048,18.663168,12.499107,31.589653,-17.840078,15.881806,-13.517575,0.9164505,5.9577084,-6.753915,-18.76403,16.84439,45.693245,10.746941,7.570195,-5.380255
22,1.7609825134277344,32.468223571777344,73.78602600097656,4.75278013726567,-6.773469789495235,-101.61913015496918,-14.3725815,-3.5847154,8.101627,48.41464,-23.688906,0.35043684,-14.608445,-11.997553,4.720549,91.47803,-23.367783,2.8802638,5.014448,-1.1943684,18.497301,13.131231,31.258236,-17.844732,16.165962,-13.137499,0.8257078,6.0658307,-7.3811035,-19.111025,17.497988,46.04423,10.470491,7.810065,-4.940319
23,1.774308681488037,33.699623107910156,73.80484008789062,5.040449919083244,-6.882301227247776,-101.57359457191782,-14.716118,-3.7660825,8.109722,46.917347,-22.905455,0.24160326,-12.501341,-12.271684,5.323537,91.74543,-22.83816,3.4338996,5.395184,-1.2785962,18.292223,13.815496,30.905628,-17.816338,16.4067,-12.823589,0.7401938,6.157866,-7.9181347,-19.45357,18.169296,46.321568,10.183188,8.075291,-4.5303316
24,1.7861390113830566,34.926612854003906,73.88182067871094,5.299214362244483,-6.98617192184787,-101.4907899907272,-15.005926,-3.9307544,8.076188,45.252956,-21.747583,0.14063582,-10.385623,-12.485327,5.8302445,91.662704,-21.930157,3.9778738,5.7298326,-1.3162355,18.082514,14.486134,30.541786,-17.807985,16.619432,-12.540324,0.69689363,6.2535596,-8.34638,-19.780985,18.783508,46.476646,9.886978,8.31209,-4.2068696
25,1.7949597835540771,36.167388916015625,74.0208740234375,5.5601166503571475,-7.0841240648855175,-101.37088752247236,-15.2881775,-4.1161203,8.039794,43.500202,-20.180033,0.06524251,-8.260351,-12.709213,6.2367606,91.22536,-20.57995,4.483414,6.022367,-1.3378986,17.866121,15.134732,30.173569,-17.828804,16.807068,-12.297444,0.71577877,6.3745956,-8.657348,-20.08483,19.327953,46.488594,9.54269,8.532746,-3.9874592
26,1.7942838668823242,37.42890167236328,74.22653198242188,5.811982172899527,-7.176730355398037,-101.21831800464089,-15.507625,-4.3293185,7.9885545,41.565388,-18.282495,0.009107055,-6.093352,-12.927052,6.5464497,90.42916,-18.843327,4.964626,6.276256,-1.3406545,17.62551,15.791648,29.802862,-17.859163,16.960575,-12.111432,0.77407354,6.506314,-8.865016,-20.367102,19.830547,46.39417,9.158128,8.756764,-3.8417566
27,1.7964152097702026,38.71672058105469,74.49341583251953,5.989847578269524,-7.265138644381731,-101.03034563172287,-15.596502,-4.5126386,7.864071,39.32542,-16.065739,-0.07465181,-3.925574,-12.961684,6.800238,89.30104,-16.821218,5.481756,6.4949784,-1.2602172,17.373281,16.435032,29.434156,-17.91251,17.08774,-11.963443,0.84416366,6.6137967,-8.976717,-20.63195,20.277048,46.220966,8.811596,8.942707,-3.7552779
28,1.795563817024231,40.012332916259766,74.81719970703125,6.031058464338806,-7.349472637897924,-100.8037496804521,-15.491223,-4.598522,7.598732,36.66121,-13.542006,-0.23342308,-1.7994677,-12.636685,7.052036,87.867516,-14.617437,6.0965075,6.685495,-1.0306449,17.121737,17.032284,29.075191,-18.008615,17.204828,-11.838759,0.8980317,6.6629744,-8.99148,-20.884272,20.647657,45.988453,8.580963,9.048964,-3.7132027
29,1.7862584590911865,41.33393096923828,75.18682098388672,5.9214255071588635,-7.442749529046061,-100.51936036917324,-15.135249,-4.5926986,7.118337,33.475723,-10.752484,-0.46766362,0.3105474,-11.880163,7.335125,86.0776,-12.107551,6.8748775,6.852526,-0.6259449,16.882904,17.554144,28.729065,-18.171112,17.33351,-11.737914,0.9290358,6.6372423,-8.863108,-21.126118,20.889389,45.668354,8.463398,9.037193,-3.7347827
30,1.7718461751937866,42.67268753051758,75.59185791015625,5.692102846790503,-7.538398347407983,-100.18356666180777,-14.584733,-4.5085588,6.4670677,29.872698,-7.6895556,-0.75525033,2.4099016,-10.786508,7.6664224,83.942215,-9.302221,7.7807717,6.997707,-0.08176915,16.64618,18.0187,28.397629,-18.389248,17.461098,-11.670774,0.95138574,6.5583353,-8.595902,-21.358774,21.017406,45.249893,8.425202,8.939643,-3.8198643
31,1.7533235549926758,44.01667785644531,76.02294158935547,5.352810265132517,-7.606113160045432,-99.83073164161615,-13.950866,-4.29548,5.748851,26.026402,-4.283251,-1.1128452,4.4259715,-9.450024,8.073159,81.57777,-6.5091333,8.713348,7.1186194,0.56620044,16.390247,18.481651,28.088331,-18.617294,17.53823,-11.631444,0.96951276,6.448655,-8.278951,-21.589005,21.12418,44.79076,8.500586,8.821376,-3.925394
32,1.7273061275482178,45.37085723876953,76.45463562011719,4.920410410311551,-7.615730177385128,-99.49550596614992,-13.354683,-3.926034,5.0726037,22.108393,-0.4546849,-1.560775,6.284611,-7.990213,8.5591545,79.10094,-4.0265846,9.552696,7.209193,1.275399,16.096245,19.008432,27.810022,-18.801907,17.50608,-11.613663,0.98805094,6.3295126,-8.00203,-21.823843,21.306637,44.34557,8.724645,8.747048,-4.008247
33,1.7077397108078003,46.74318313598633,76.88011169433594,4.3707966737136745,-7.557527140292873,-99.16974463151485,-12.805063,-3.4050274,4.1841803,17.978872,4.221199,-1.8609936,7.985337,-6.3092723,9.195021,76.47349,-1.815265,10.297867,7.25814,2.070399,15.742974,19.64773,27.559694,-18.920504,17.335659,-11.645772,1.0060048,6.2059727,-7.759703,-22.066149,21.596014,43.927074,9.160387,8.738845,-4.0969157
34,1.6909208297729492,48.13300704956055,77.28958129882812,3.7692540319218817,-7.436732034914411,-98.829772432436,-12.35746,-2.8354523,3.1551604,13.751185,9.504358,-2.072295,9.558698,-4.4917116,9.974793,73.66602,0.23082882,10.997379,7.258831,2.8918653,15.349601,20.364006,27.334707,-18.988008,17.053247,-11.717816,1.0215876,6.0646906,-7.517737,-22.311611,21.9436,43.50351,9.774534,8.759896,-4.203455
35,1.6579416990280151,49.53597640991211,77.66338348388672,3.195125527797353,-7.256154990321159,-98.49947964557343,-12.103463,-2.276567,2.4903417,9.856323,14.537391,-2.6896348,10.97673,-2.8512015,10.7308655,70.80084,1.9410105,11.569716,7.2219906,3.64299,14.958695,21.092098,27.15072,-19.012684,16.68607,-11.77622,1.0387521,5.9006076,-7.3230057,-22.556646,22.328112,43.065273,10.457999,8.787012,-4.257982
36,1.6035653352737427,50.94478225708008,77.92589569091797,2.4135019108607265,-7.04651593120596,-98.24594215779274,-12.955017,-1.3602428,2.5263546,8.624331,17.454777,-4.288636,12.222302,-1.3444552,11.239708,67.998665,3.1658852,11.854095,7.1923723,4.5577455,14.593117,21.809875,27.029325,-19.001932,16.219595,-11.770275,1.0650643,5.711668,-7.22058,-22.8073,22.733685,42.6058,11.099416,8.799623,-4.1841574
37,1.5114679336547852,52.38209533691406,78.12519073486328,1.522096434624553,-6.818926340516925,-98.13797961076217,-13.223359,-0.14762744,3.7973766,6.610691,19.806246,-7.7848616,13.303997,-0.106674656,11.476613,65.12389,3.8412008,11.861233,7.2284555,5.527844,14.270955,22.597628,26.9901,-18.934626,15.589513,-11.690532,1.1116781,5.5109754,-7.205774,-23.068405,23.194622,42.1026,11.703906,8.800318,-3.9520762
38,1.429531455039978,53.86053466796875,78.30459594726562,0.5010115262338565,-6.577922891957846,-98.14408390998236,-13.694422,1.3765972,5.9122877,5.3397717,21.109024,-12.657117,14.262981,1.0236427,11.534077,62.140465,4.076295,11.662344,7.310842,6.5816293,13.986081,23.474215,27.037296,-18.802462,14.7803335,-11.569819,1.1739,5.2954464,-7.2516847,-23.3397,23.70528,41.552696,12.320254,8.801491,-3.602753
39,1.3936915397644043,55.38928985595703,78.42708587646484,-0.2875613377236437,-6.334095971511862,-98.07064488304799,-14.567963,2.6958542,8.72746,5.153116,21.487125,-15.000033,15.119999,1.7233295,11.432392,59.229115,4.0553856,11.41657,7.266559,7.3804817,13.822293,24.291588,27.171185,-18.641026,13.882188,-11.419243,1.2332574,5.0337687,-7.361773,-23.614191,24.184248,40.964867,12.905759,8.799255,-3.1683438
40,1.3516253232955933,56.97380828857422,78.47915649414062,-0.66727097185678,-6.078104409372527,-97.8309139937202,-15.371664,3.4957066,10.802427,4.978427,21.871063,-15.000033,15.803652,1.8935983,11.157618,56.553192,4.0614777,11.1261015,7.029195,7.7399263,13.827252,24.842289,27.391792,-18.507944,13.04076,-11.252388,1.2675735,4.693045,-7.5403023,-23.875149,24.54066,40.35397,13.41704,8.785958,-2.6849952
41,1.2698981761932373,58.614051818847656,78.5359878540039,-0.7126032926588284,-5.845850762271971,-97.54322913971292,-16.101585,3.9455507,10.765773,4.9803457,22.201412,-15.000033,16.272335,1.5859543,10.623672,54.082664,4.3897862,10.653449,6.709458,7.712897,14.045466,25.000055,27.716707,-18.43772,12.326935,-11.045441,1.2732315,4.202237,-7.8201246,-24.097143,24.74028,39.721275,13.808634,8.749971,-2.0990825
42,1.1556192636489868,60.28858947753906,78.58428955078125,-0.5247187511060954,-5.6138583013858705,-97.21300743268036,-16.77557,4.121097,9.441912,5.094114,22.427238,-15.000033,16.540352,0.907278,9.810977,51.75585,4.829249,10.023791,6.3192625,7.391632,14.408264,24.876823,28.153807,-18.413893,11.67105,-10.806674,1.2598563,3.6010675,-8.193224,-24.274467,24.824135,39.08119,14.10817,8.6952715,-1.4138987
43,1.024721622467041,62.0009651184082,78.59707641601562,-0.15696300287790368,-5.3635579878641435,-96.81389989302602,-17.413015,3.98581,7.69166,5.2083726,22.633766,-14.603784,16.658422,0.06492892,8.946419,49.607376,5.048972,9.334215,5.8550763,6.8533916,14.841703,24.578165,28.677677,-18.420734,11.05384,-10.591367,1.2222325,3.0191252,-8.606429,-24.418108,24.815088,38.46848,14.383552,8.633793,-0.7559661
44,0.9280506372451782,63.70234680175781,78.52446746826172,0.23887095665884775,-5.108727010829183,-96.43772929162151,-18.022018,3.7044635,6.6267366,5.3706326,22.667875,-12.584618,16.68819,-0.6485817,8.376452,47.695267,4.715515,8.648471,5.4289722,6.299729,15.300883,24.167892,29.241718,-18.445929,10.500798,-10.447532,1.1520327,2.5839744,-9.004226,-24.54413,24.736164,37.908634,14.707104,8.577547,-0.25490746
45,0.8445435166358948,65.40697479248047,78.39332580566406,0.4744215720092323,-4.876989915241292,-96.1869026277948,-19.53468,3.6371622,5.286822,7.6621623,21.26593,-11.527592,16.66901,-0.9427935,8.30008,45.868683,3.9872136,7.8154826,5.1243467,5.934459,15.811187,23.600426,29.811195,-18.489035,10.047883,-10.375398,1.0265092,2.3319008,-9.38817,-24.66443,24.574554,37.371258,15.12817,8.53553,0.05716712
46,0.7633510231971741,67.12020111083984,78.23904418945312,0.6705813778744792,-4.659381647576083,-96.00004501287317,-21.34877,3.5504212,3.625549,10.792329,19.18291,-10.765765,16.550562,-1.056993,8.532032,44.16271,2.9633496,6.839923,4.867355,5.622045,16.390558,22.838264,30.377344,-18.562635,9.705329,-10.339059,0.8554082,2.1936424,-9.7823305,-24.784374,24.334427,36.851295,15.601965,8.49974,0.24839993
47,0.7007866501808167,68.8583984375,78.00838470458984,0.8621680957444742,-4.435982689413032,-95.88912876173804,-23.134176,3.4307313,1.9744817,14.047287,16.936676,-10.155786,16.277206,-1.1138767,8.901665,42.696617,1.4565785,5.841994,4.677122,5.3146753,16.985865,21.939098,30.933512,-18.669474,9.478589,-10.333909,0.67815447,2.1366785,-10.176314,-24.905495,24.069347,36.421246,16.058462,8.455036,0.33693486
48,0.6494810581207275,70.60330200195312,77.7134017944336,1.075974219809514,-4.188132949852363,-95.86888116943213,-24.927898,3.3112373,0.6389689,17.484516,14.645767,-9.560932,15.802963,-1.2235762,9.240202,41.567432,-0.71307623,4.9511194,4.5724945,4.969784,17.544725,20.960443,31.474691,-18.808352,9.375167,-10.35767,0.5341065,2.1275964,-10.566839,-25.02453,23.837177,36.158745,16.428524,8.386035,0.34052867
49,0.5891261100769043,72.32794189453125,77.38361358642578,1.3677222919560248,-3.908492171635557,-95.99408540273056,-26.751501,3.1450431,-0.38124648,21.154152,12.3022995,-9.00014,15.142081,-1.4600697,9.602834,40.7751,-3.8840032,4.1618133,4.6095753,4.5299287,18.055899,19.905926,31.99699,-18.981432,9.405755,-10.437828,0.42584652,2.1878371,-10.96134,-25.137817,23.660292,36.09415,16.724571,8.274143,0.21940364
50,0.5277988314628601,74.04700469970703,77.02208709716797,1.713449645458174,-3.6064345386935877,-96.23929337396316,-28.588888,2.9422283,-1.2078546,25.037611,9.847326,-8.52294,14.313647,-1.7526119,10.067088,40.25845,-7.851833,3.414926,4.756893,4.024703,18.549484,18.747158,32.496563,-19.185778,9.567397,-10.564425,0.33483478,2.3238132,-11.369504,-25.243101,23.512218,36.192158,16.972948,8.13037,-0.021983229
51,0.4635851979255676,75.76214599609375,76.63937377929688,2.022796006085878,-3.2923340867191886,-96.50326281664714,-30.389791,2.8339543,-1.7403015,29.009394,7.3655405,-8.050711,13.281491,-1.988176,10.485425,40.02354,-11.993275,2.7672458,4.90539,3.551439,19.03611,17.505697,32.969135,-19.408201,9.836826,-10.67453,0.26864767,2.479963,-11.7910595,-25.337284,23.374977,36.431515,17.125475,7.985405,-0.2996969
52,0.4053017497062683,77.44698333740234,76.2486572265625,2.1982074061597396,-2.980456948120859,-96.68676895243759,-32.094433,2.9721267,-1.8940564,32.9253,4.9477897,-7.4991536,12.01566,-2.061305,10.69217,40.074184,-15.69219,2.2774174,4.944297,3.209706,19.525608,16.213526,33.4106,-19.627323,10.183984,-10.70172,0.23556374,2.6009028,-12.229196,-25.417461,23.232939,36.793816,17.134478,7.8708944,-0.5304243
53,0.35654711723327637,79.13858032226562,75.85601806640625,2.168029347741154,-2.6752590564458054,-96.76034183877469,-33.73058,3.5058672,-1.5925785,36.831303,2.5594273,-6.8531528,10.473821,-1.9219577,10.535904,40.44652,-18.914227,1.9711075,4.8262577,3.0734212,20.03746,14.839434,33.826054,-19.842546,10.623878,-10.621005,0.24656595,2.6794121,-12.728922,-25.481985,23.097338,37.296932,16.949331,7.7921596,-0.71094954
54,0.3055008351802826,80.83769989013672,75.47297668457031,1.9982707118744083,-2.3735654297489712,-96.778085312245,-35.299973,4.365907,-0.93073404,40.76109,0.17110592,-6.1422524,8.678324,-1.6540028,10.11172,41.13889,-21.963575,1.8139368,4.6103764,3.070807,20.566132,13.388813,34.21741,-20.052206,11.158243,-10.469844,0.29481113,2.7432315,-13.278157,-25.5307,22.97165,37.944965,16.607574,7.734534,-0.8808258
55,0.2645811140537262,82.52093505859375,75.1160888671875,1.8047985504544564,-2.077865628180125,-96.76757368150301,-36.708126,5.3713436,-0.08137045,44.561844,-2.1252909,-5.3502345,6.70232,-1.3548421,9.616368,42.09004,-24.73421,1.7808394,4.345202,3.0853405,21.082108,11.949856,34.57207,-20.23045,11.735179,-10.272878,0.36180842,2.7892115,-13.791064,-25.562422,22.828892,38.695522,16.19532,7.700043,-1.0214458
56,0.23823976516723633,84.18559265136719,74.78106689453125,1.6987670784325608,-1.7889787171719602,-96.75557916717979,-37.868824,6.319076,0.8005014,48.084312,-4.2390637,-4.4672513,4.623162,-1.1126074,9.255153,43.23359,-27.11019,1.8476402,4.0782294,3.001909,21.55057,10.600735,34.869743,-20.3558,12.317397,-10.053961,0.42829877,2.8127074,-14.183561,-25.575039,22.647211,39.50875,15.799535,7.6895237,-1.1135418
57,0.21984829008579254,85.8116455078125,74.4600601196289,1.7115519570069346,-1.4554841377069534,-96.78082672523699,-38.81105,7.245507,1.8199843,51.32722,-6.1575394,-3.401001,2.3624978,-0.91882133,9.119813,44.592766,-29.064209,2.0688992,3.829708,2.7840943,21.932306,9.353035,35.089596,-20.392962,12.926146,-9.794809,0.5094798,2.7815645,-14.477823,-25.566307,22.443953,40.404037,15.411493,7.724924,-1.1302574
58,0.2059551179409027,87.38813018798828,74.15946960449219,1.7797580304154101,-1.0944836383786205,-96.81704504323875,-39.552433,8.231496,3.010655,54.371574,-7.946136,-2.1838179,-0.08500345,-0.7349432,9.077285,46.188198,-30.661793,2.4426568,3.5610666,2.4997973,22.251072,8.157015,35.22918,-20.357872,13.597318,-9.486061,0.6074229,2.7064366,-14.715333,-25.536009,22.235847,41.405003,14.996335,7.7978,-1.0904838
59,0.187558114528656,88.91181182861328,73.88594818115234,1.8877921156461708,-0.8058436321925828,-96.79406654815311,-40.01095,9.115572,4.134973,57.193672,-9.620285,-1.0028098,-2.5278525,-0.59682816,9.013012,47.937344,-31.91374,2.857598,3.244867,2.1893964,22.559656,7.0283504,35.298363,-20.307077,14.281999,-9.1512575,0.6840488,2.6482654,-14.829786,-25.487171,21.990425,42.474564,14.60085,7.863682,-1.0418351
60,0.17112796008586884,90.38894653320312,73.6452865600586,2.0132437555806626,-0.6881770120241893,-96.64352637346909,-40.127953,9.722932,4.9684577,59.775723,-11.174398,-0.05033131,-4.777638,-0.5468487,8.822249,49.75919,-32.829117,3.2026265,2.859505,1.8907596,22.912785,5.9270716,35.318066,-20.328136,14.969021,-8.840971,0.70179224,2.6694534,-14.745937,-25.425371,21.671085,43.563984,14.2722025,7.8795185,-1.0310152
61,0.14893405139446259,91.82982635498047,73.42691040039062,2.184061115643206,-0.8049476180525049,-96.33835762318391,-39.822926,9.954124,5.5112367,62.07206,-12.588159,0.6248767,-6.7923355,-0.63262475,8.469014,51.740524,-33.35523,3.434832,2.4168575,1.5725869,23.360823,4.8501544,35.29387,-20.452503,15.668899,-8.513819,0.625522,2.8226337,-14.4075575,-25.350393,21.22589,44.69262,14.030925,7.8047476,-1.0488774
62,0.13678517937660217,93.23971557617188,73.2313461303711,2.4035763887267465,-1.089429796829456,-95.92035712080973,-39.166008,9.900469,5.886988,64.11344,-13.855166,1.1175721,-8.669085,-0.82326084,8.027086,53.882492,-33.50342,3.6229162,1.9383175,1.2227273,23.859022,3.7883554,35.224194,-20.659124,16.39681,-8.17476,0.48508042,3.0647945,-13.846723,-25.261595,20.676756,45.856895,13.849031,7.6732426,-1.0749172
63,0.12991829216480255,94.63199615478516,73.05725860595703,2.60566228680718,-1.444434314864507,-95.42425382471626,-38.334515,9.669785,6.063868,65.99317,-14.981013,1.4491701,-10.429525,-1.0463548,7.5567374,55.972095,-33.37362,3.8245847,1.4217515,0.905458,24.318674,2.7695882,35.120327,-20.92833,17.078724,-7.9130383,0.34032047,3.314491,-13.119999,-25.168125,20.095285,46.976357,13.702731,7.553372,-1.1385236
64,0.14281843602657318,95.99109649658203,72.90776062011719,2.731924383723288,-1.7720678896612156,-94.88230704718377,-37.501953,9.370259,6.0117726,67.80121,-15.971819,1.6406176,-12.09571,-1.22869,7.111881,57.79425,-33.069027,4.0980206,0.86125237,0.6872534,24.657347,1.8178601,35.003124,-21.236921,17.638777,-7.825176,0.24946111,3.489158,-12.280455,-25.085432,19.54885,47.96298,13.567216,7.5137863,-1.2686325
65,0.16272597014904022,97.3193130493164,72.78486633300781,2.7664348515555677,-2.055630571366544,-94.27605912936771,-36.70092,8.930697,5.666733,69.53615,-16.791492,1.652185,-13.718061,-1.3521872,6.71572,59.391197,-32.504528,4.4920053,0.23568204,0.5895785,24.87059,0.9712107,34.882477,-21.563534,18.016262,-7.9865246,0.25394374,3.58012,-11.32196,-25.022152,19.040789,48.801544,13.423435,7.5993953,-1.5066793
66,0.1897803246974945,98.62310791015625,72.6880874633789,2.743536320770868,-2.3426206112462356,-93.59682891829375,-35.84283,8.31822,5.081026,71.162224,-17.44812,1.481896,-15.271318,-1.44989,6.338556,60.840446,-31.66396,4.976931,-0.44775313,0.576526,25.006325,0.21735361,34.76079,-21.91676,18.246952,-8.335529,0.31369662,3.6253383,-10.217291,-24.976341,18.536854,49.520004,13.293289,7.7655926,-1.8236104
67,0.21413911879062653,99.88961791992188,72.61482238769531,2.6663116295765237,-2.6305099799181515,-92.89082901532493,-34.912827,7.696973,4.3990784,72.70768,-18.011732,1.2062168,-16.664719,-1.5325836,5.951123,61.983547,-30.750053,5.4829745,-1.1444279,0.6304554,25.061476,-0.45922256,34.648937,-22.306953,18.364922,-8.746398,0.36500195,3.6132233,-8.982344,-24.947495,18.039595,50.09422,13.216533,7.946596,-2.1430304
68,0.23861925303936005,101.1139144897461,72.56257629394531,2.5421782898147507,-2.9171290844188986,-92.20429098732671,-33.898163,7.232573,3.7622209,74.19731,-18.55041,0.90459245,-17.809319,-1.6186672,5.521212,62.66638,-29.963081,5.9258366,-1.8098367,0.7314233,25.032444,-1.0561657,34.561317,-22.735712,18.386517,-9.089386,0.34483695,3.5308344,-7.631463,-24.934072,17.553137,50.498043,13.231366,8.075741,-2.3884466
69,0.2700117826461792,102.31471252441406,72.53092193603516,2.348997451251148,-3.2016775484196414,-91.5111421919134,-32.80918,6.9451184,3.1548038,75.66211,-19.077484,0.56802905,-18.646177,-1.7162863,5.0060787,62.79638,-29.368334,6.292711,-2.467089,0.90310323,24.899696,-1.5718682,34.514294,-23.224632,18.294405,-9.400818,0.23205388,3.3441703,-6.1486325,-24.940042,17.081861,50.724785,13.368427,8.125472,-2.519684
70,0.3035399317741394,103.49343872070312,72.52702331542969,2.0920415033210307,-3.483523578348831,-90.79888198541617,-31.642567,6.7487817,2.5310323,77.07767,-19.560768,0.16131781,-19.236397,-1.82094,4.433469,62.476994,-28.854214,6.6123343,-3.125005,1.1454003,24.679173,-2.0016015,34.512028,-23.764723,18.070822,-9.734313,0.06401894,3.0692377,-4.52437,-24.962643,16.615284,50.77673,13.599996,8.134528,-2.5820432
71,0.33742085099220276,104.64895629882812,72.54239654541016,1.8241377854242178,-3.7621293093616166,-90.13391562561063,-30.368229,6.6519737,1.9816438,78.37815,-19.994087,-0.27155912,-19.66644,-1.9351568,3.8720093,61.845802,-28.349749,6.856056,-3.7225783,1.397801,24.413883,-2.3385098,34.54755,-24.307384,17.73872,-9.982868,-0.13589919,2.7675664,-2.8038101,-24.988527,16.152239,50.664146,13.879238,8.135009,-2.629437
72,0.38271063566207886,105.78892517089844,72.58637237548828,1.5931205431152693,-4.03900439547645,-89.58350667277517,-28.95875,6.665906,1.5933466,79.49661,-20.366863,-0.68341285,-20.020504,-2.056064,3.3897455,61.03718,-27.782412,6.99798,-4.204915,1.597775,24.141407,-2.5836446,34.60895,-24.802616,17.335894,-10.039881,-0.34669867,2.5014253,-1.0449574,-24.998354,15.700654,50.412006,14.158931,8.157406,-2.718597
73,0.42865151166915894,106.91500854492188,72.66893005371094,1.4129423089490372,-4.33055807092052,-89.15415446487489,-27.384436,6.8472266,1.4133866,80.44771,-20.69697,-1.0264506,-20.26634,-2.1923833,2.9463933,60.034565,-27.207014,6.993225,-4.5575724,1.7319658,23.85447,-2.7601876,34.697456,-25.272257,16.875965,-9.8129225,-0.58921736,2.2716591,0.7762949,-24.9816,15.267118,50.002026,14.454695,8.203168,-2.8828223
74,0.4830586612224579,108.04460906982422,72.78234100341797,1.2554032892330413,-4.632524040531765,-88.81419420323067,-25.665987,7.167484,1.3927096,81.25264,-20.976685,-1.336058,-20.372286,-2.3338854,2.516035,58.781437,-26.637455,6.8687754,-4.8112183,1.8278857,23.533329,-2.858,34.816223,-25.72894,16.342533,-9.375032,-0.86797094,2.0527728,2.662178,-24.937248,14.854617,49.448997,14.78056,8.255764,-3.0890818
75,0.5470665693283081,109.1781997680664,72.92928314208984,1.1207801246279734,-4.917435140315561,-88.57485551177227,-23.855873,7.5109544,1.4679499,81.854416,-21.163036,-1.688058,-20.423927,-2.4472659,2.1869922,57.351223,-25.939,6.7086916,-4.9871283,1.8842555,23.193966,-2.8421555,34.953342,-26.109007,15.746169,-8.873191,-1.1375107,1.8665268,4.5177464,-24.85935,14.470395,48.830547,15.082665,8.319395,-3.2965164
76,0.6253875494003296,110.3202133178711,73.11740112304688,1.0114937892927227,-5.157437336925244,-88.44683910447137,-22.008968,7.762519,1.571664,82.19843,-21.214909,-2.1576111,-20.510136,-2.5026298,2.048575,55.816414,-24.974855,6.5949144,-5.1123347,1.8995111,22.84996,-2.680159,35.089977,-26.344088,15.107401,-8.451617,-1.3512628,1.7322011,6.2357697,-24.741648,14.131145,48.237858,15.308412,8.397972,-3.4663162
77,0.7185149788856506,111.46068572998047,73.34297943115234,0.9260369225152604,-5.343565480599228,-88.4745186144129,-20.10507,7.926328,1.7086276,82.25841,-21.101084,-2.8404036,-20.67921,-2.4462945,2.1628652,54.215485,-23.718887,6.531922,-5.149396,1.8749182,22.490425,-2.3533037,35.21413,-26.401394,14.412476,-8.06719,-1.4963176,1.6525503,7.802229,-24.5857,13.87163,47.686207,15.417264,8.506232,-3.599302
78,0.8260700106620789,112.6153335571289,73.60391235351562,0.8657803521487522,-5.491967587548541,-88.63812881866791,-18.1298,8.042375,1.9054184,82.06878,-20.853714,-3.669034,-20.874525,-2.297431,2.4575438,52.496143,-22.240427,6.482634,-5.1050963,1.8102621,22.110222,-1.8858578,35.325584,-26.316315,13.66976,-7.664453,-1.5972073,1.6162051,9.2595,-24.39699,13.681574,47.14149,15.446412,8.637143,-3.7154498
79,0.9521358609199524,113.7820816040039,73.90036010742188,0.8354671482950612,-5.61182640699,-88.85278175815755,-16.15491,8.060686,2.116143,81.672745,-20.529018,-4.4722567,-21.033215,-2.139564,2.8294032,50.602924,-20.54248,6.4627147,-5.06751,1.703988,21.72994,-1.3138252,35.422146,-26.130295,12.93405,-7.3680706,-1.6628606,1.6208571,10.587856,-24.176865,13.503277,46.62148,15.458126,8.7619,-3.8044472
80,1.083575963973999,114.9643783569336,74.23004150390625,0.8347618951767412,-5.711458207010666,-89.03350781315652,-14.252437,7.942081,2.289048,81.11357,-20.178095,-5.078045,-21.09243,-2.0652936,3.1819036,48.477444,-18.630154,6.487541,-5.1216145,1.5571982,21.367762,-0.6575371,35.49881,-25.882397,12.248306,-7.2921214,-1.7025791,1.6644685,11.769016,-23.921644,13.277129,46.144814,15.5136175,8.851173,-3.8557649
81,1.2390062808990479,116.14801025390625,74.59204864501953,0.8617600492536919,-5.787818175430676,-89.16128926299504,-12.439939,7.6701126,2.375439,80.390236,-19.816729,-5.3950257,-21.046722,-2.1000574,3.5089722,46.11004,-16.520666,6.5477767,-5.302434,1.3746872,21.02409,0.094465956,35.5501,-25.561232,11.614623,-7.495708,-1.70939,1.763538,12.786642,-23.624964,12.975645,45.72833,15.62556,8.895138,-3.8368313
82,1.4113880395889282,117.34640502929688,74.98216247558594,0.9143709477545044,-5.8373962740479035,-89.27998626739215,-10.684684,7.281141,2.4004323,79.48849,-19.412838,-5.525041,-20.929176,-2.196509,3.858617,43.530857,-14.206329,6.639205,-5.5549026,1.1577964,20.687235,0.9385177,35.572605,-25.1643,11.020855,-7.9059076,-1.6825576,1.9143898,13.656999,-23.286316,12.62839,45.359627,15.759513,8.90968,-3.7632227
83,1.6025142669677734,118.55684661865234,75.3927230834961,1.001540148740112,-5.867539584561021,-89.40068310119116,-8.984927,6.8216124,2.419826,78.43401,-18.946909,-5.5887847,-20.74186,-2.3448596,4.223966,40.7532,-11.658241,6.7841573,-5.830263,0.9064168,20.357187,1.800119,35.565235,-24.756388,10.51523,-8.453715,-1.6410795,2.08477,14.406376,-22.911503,12.265107,45.01585,15.908579,8.9051485,-3.6976511
84,1.8090318441390991,119.78486633300781,75.81626892089844,1.1311818194875851,-5.885411971978871,-89.53377439435302,-7.3404193,6.332912,2.4899929,77.25233,-18.396732,-5.710124,-20.485294,-2.5398245,4.6025534,37.783276,-8.841506,7.0051517,-6.075115,0.6209826,20.0339,2.5935402,35.52724,-24.41019,10.154444,-9.07103,-1.6036333,2.2432725,15.067754,-22.510468,11.908555,44.66933,16.065365,8.891429,-3.7017272
85,2.0206151008605957,121.01948547363281,76.24640655517578,1.2881138753752068,-5.894722872946905,-89.66532904927573,-5.742641,5.873775,2.6481166,75.93265,-17.78964,-5.88183,-20.146866,-2.7745686,5.0419254,34.58809,-5.6351233,7.1540494,-6.3066278,0.31736806,19.73207,3.297422,35.448162,-24.131544,9.974076,-9.787942,-1.5752734,2.3944347,15.6454525,-22.07833,11.5367365,44.31309,16.251982,8.857282,-3.8280149
86,2.237774133682251,122.27450561523438,76.67185974121094,1.4701137222937894,-5.888928550297688,-89.79664409333414,-4.1962185,5.4099445,2.8514202,74.46976,-17.127062,-6.057398,-19.75307,-3.0711954,5.53585,31.214447,-2.1128552,7.2684374,-6.5354524,-0.0015664415,19.442078,3.9478137,35.322063,-23.896868,9.9476795,-10.617557,-1.5475739,2.5518694,16.126333,-21.613531,11.139629,43.963497,16.463,8.801265,-4.0316534
87,2.46309494972229,123.54509735107422,77.08145904541016,1.7040322541216604,-5.860241682925931,-89.96004089195188,-2.7184486,4.8367248,3.0330582,72.8918,-16.350069,-6.301883,-19.344652,-3.454961,6.0225406,27.753092,1.4848144,7.656288,-6.7079544,-0.35725817,19.1333,4.521525,35.163563,-23.736637,10.055485,-11.487165,-1.5176631,2.6967716,16.524782,-21.136797,10.760973,43.61307,16.651413,8.750381,-4.2272058
88,2.6940550804138184,124.82312774658203,77.46217346191406,2.025275782877436,-5.804305904424865,-90.18425758969093,-1.3222867,4.042605,3.1206465,71.2207,-15.396898,-6.674785,-18.924894,-3.9358366,6.466059,24.222126,4.9554505,8.635854,-6.775129,-0.78075737,18.781277,5.029772,34.997105,-23.665426,10.242504,-12.318931,-1.481355,2.8110495,16.864534,-20.679667,10.442906,43.240646,16.774324,8.733609,-4.3264613
89,2.91072940826416,126.09831237792969,77.7932357788086,2.533927958928231,-5.7138229120616355,-90.47552612440415,0.022122258,2.9013166,3.1210003,69.40325,-14.235313,-7.2967334,-18.349014,-4.605195,6.9682984,20.177914,8.710066,10.710548,-6.7367554,-1.3734258,18.353466,5.4987316,34.84168,-23.690744,10.516286,-13.141808,-1.4414085,2.90944,17.19585,-20.253,10.1844425,42.805744,16.821198,8.774257,-4.297718
90,3.124554395675659,127.36196899414062,78.06177520751953,3.2198051190568595,-5.606710084718591,-90.80468190708703,1.3385147,1.4538695,3.0430577,67.41773,-12.889078,-8.094017,-17.573887,-5.4628353,7.6169806,15.601362,12.771273,13.618258,-6.634608,-2.1364706,17.888836,5.955828,34.70196,-23.781183,10.856202,-13.984441,-1.3972142,2.994983,17.504707,-19.852583,9.969985,42.308983,16.821375,8.8549185,-4.1877155
91,3.3207225799560547,128.623046875,78.24308013916016,3.8307774755178703,-5.536618680138589,-91.16507852961347,2.609511,0.0093389405,2.768361,65.42172,-11.451014,-8.88954,-16.642061,-6.260556,7.7510495,10.955608,16.473948,15.000033,-6.4751716,-2.8400178,17.504547,6.390406,34.584457,-23.894102,11.185172,-14.784986,-1.3376677,3.0298746,17.721867,-19.49069,9.82762,41.78526,16.79272,8.944904,-4.0251417
92,3.5075645446777344,129.8896026611328,78.39107513427734,4.217480767993681,-5.521507247873849,-91.54203319278747,3.773002,-1.2491708,2.270642,63.544983,-9.977189,-9.434911,-15.735745,-6.8426924,7.352637,6.913821,19.074148,15.000033,-6.2726717,-3.3236642,17.272287,6.789478,34.49268,-23.985233,11.426709,-15.483892,-1.2515631,2.9764943,17.767706,-19.191704,9.789308,41.278095,16.75678,9.014017,-3.8358998
93,3.7300634384155273,131.19375610351562,78.51840209960938,4.511411289835997,-5.4994525533228,-91.92295076580575,4.7421656,-2.5656865,1.5310447,61.732353,-8.221289,-9.653572,-15.98388,-7.2412987,6.985803,5.701,18.989824,15.000033,-6.0478663,-3.682261,17.12005,7.1438293,34.419918,-24.05725,11.567122,-16.108856,-1.1101193,2.823104,17.608316,-18.977795,9.8713045,40.80325,16.7258,9.069384,-3.580056
94,3.9815022945404053,132.52682495117188,78.60079193115234,4.714991433545043,-5.465610636720761,-92.32632566671198,5.5561266,-3.9023874,0.5850858,59.95787,-6.240276,-9.679168,-16.674192,-7.543545,6.536267,5.683322,17.398558,15.000033,-5.791328,-3.9203842,17.025919,7.4731,34.36251,-24.118214,11.635113,-16.680708,-0.92665416,2.5905411,17.285,-18.859777,10.061628,40.33395,16.696634,9.12494,-3.2519274
95,4.239217758178711,133.8867645263672,78.64574432373047,4.8088780163730025,-5.415859407513181,-92.73608990973808,6.219818,-5.046471,-0.35683426,58.216354,-4.3597646,-9.419265,-17.2342,-7.760672,6.079075,5.7285314,15.573033,15.000033,-5.5088463,-4.028652,16.993881,7.773069,34.313698,-24.155098,11.644334,-17.128922,-0.75561774,2.2952285,16.79102,-18.822332,10.337871,39.89635,16.658384,9.155252,-2.9284556
96,4.498781204223633,135.28851318359375,78.6546859741211,4.788445028467647,-5.344944675444837,-93.13719414466549,6.7249126,-5.8127646,-1.0615121,56.499733,-2.9041066,-8.763644,-17.613062,-7.835812,5.7856426,5.8096023,14.203884,15.000033,-5.2356644,-4.0210037,17.016293,8.057064,34.2446,-24.120855,11.622609,-17.369835,-0.65199435,1.9470977,16.080002,-18.849644,10.720058,39.555466,16.605448,9.131187,-2.6980445
97,4.770623683929443,136.72198486328125,78.62659454345703,4.643735436431129,-5.242761680471449,-93.535578357604,7.006236,-6.164657,-1.4441819,54.804188,-1.7710891,-7.540093,-17.80139,-7.749965,5.817851,5.927117,13.446987,15.000033,-4.9484873,-3.8815851,17.106518,8.310355,34.15867,-24.012278,11.5344715,-17.364552,-0.63954544,1.4905365,15.152511,-18.958036,11.209334,39.27214,16.560007,9.034012,-2.5625637
98,5.0680341720581055,138.18023681640625,78.56489562988281,4.3662506521870705,-5.1206477173045695,-93.94650271364463,7.074944,-6.189454,-1.5955508,53.169064,-0.8886457,-5.8564234,-18.64933,-7.411938,6.144614,7.8487954,12.017458,14.95892,-4.6407228,-3.5946054,17.263035,8.535398,34.056545,-23.841934,11.388475,-17.158306,-0.6889014,0.9362658,14.01812,-19.141989,11.811566,39.036617,16.520199,8.881842,-2.4860132
99,5.346009254455566,139.65756225585938,78.45958709716797,3.9143972836234506,-5.013429283708547,-94.36958501472397,7.038617,-5.873928,-1.5823094,51.674084,-0.64787674,-4.0537314,-19.926807,-6.7435737,6.2100086,11.131313,10.060122,13.596161,-4.3232074,-3.1334147,17.487528,8.754431,33.94472,-23.639448,11.233702,-16.820148,-0.777283,0.4014195,12.74566,-19.380705,12.473675,38.847805,16.444334,8.712996,-2.4731195
100,5.620712757110596,141.14312744140625,78.2955551147461,3.4627493331053816,-4.9111714940315,-94.75762870335141,6.9921374,-5.485965,-1.4560257,50.227715,-1.2892549,-2.391612,-21.152315,-6.083785,6.125742,14.649608,8.071066,12.473997,-4.036067,-2.65363,17.723806,8.966945,33.83171,-23.452644,11.131639,-16.424023,-0.8803039,0.0070556183,11.399136,-19.6474,13.130433,38.719105,16.284405,8.563396,-2.5279953
101,5.897141456604004,142.62948608398438,78.07272338867188,2.96051222041858,-4.8240694972154525,-95.10265238877166,7.0532618,-4.989728,-1.2956057,48.667255,-3.1216543,-0.8955257,-22.335337,-5.3669763,5.899127,18.48433,6.0024657,11.700231,-3.7852006,-2.1124563,17.985733,9.187752,33.722477,-23.278738,11.078584,-15.953416,-1.0163542,-0.21800931,9.960322,-19.93033,13.785472,38.670403,15.994979,8.439221,-2.681435
102,6.175548076629639,144.1300048828125,77.80171203613281,2.407131383356181,-4.748170406132661,-95.4141317392076,7.153441,-4.402431,-1.0973186,47.019306,-5.8983636,0.5205408,-23.549946,-4.591313,5.597683,22.797653,3.8133268,11.107635,-3.5557353,-1.5105467,18.282423,9.40307,33.6201,-23.106146,11.052153,-15.383571,-1.1892084,-0.3341281,8.403391,-20.226177,14.463997,38.6988,15.606312,8.321894,-2.9231086
103,6.444994926452637,145.63108825683594,77.48876953125,1.908227027963133,-4.664266790755053,-95.7009347281881,7.1176147,-3.8725634,-0.8089049,45.545734,-9.071622,1.7377844,-24.803183,-3.9475472,5.144479,27.480381,1.5436543,10.549809,-3.3208067,-0.9474634,18.576351,9.564562,33.532444,-22.978237,11.089174,-14.773427,-1.3500949,-0.35413393,6.787947,-20.520493,15.124505,38.781666,15.179311,8.210462,-3.1957939
104,6.700049877166748,147.13363647460938,77.14228820800781,1.5723263925328343,-4.553077589892249,-95.97008662104139,6.772739,-3.5113773,-0.34789288,44.516052,-12.089841,2.6858983,-26.091274,-3.6457946,4.4814987,32.41944,-0.76162386,9.869672,-3.0433047,-0.5250168,18.832714,9.618515,33.469467,-22.949934,11.226782,-14.180625,-1.450135,-0.28991523,5.183975,-20.791767,15.709578,38.891872,14.77079,8.102024,-3.442244
105,6.932790756225586,148.6346893310547,76.77072143554688,1.4530197973241274,-4.4056940099331925,-96.2518215275387,6.0537386,-3.2984474,0.4885386,44.06493,-15.014722,3.3964133,-27.48287,-3.8316104,3.5384169,37.775993,-3.1834316,8.992116,-2.680992,-0.30022645,19.051472,9.527897,33.445774,-23.054281,11.477358,-13.599035,-1.4683235,-0.09752133,3.5648441,-21.028564,16.201778,39.043686,14.358052,7.9956493,-3.6670177
106,7.180736064910889,150.13134765625,76.3953628540039,1.4844519902914322,-4.232210964176948,-96.53204536682952,5.064365,-3.1530414,1.6116797,44.0223,-18.06052,3.913854,-28.925919,-4.4398212,2.4180527,43.523697,-5.722088,7.964405,-2.2504854,-0.21416666,19.252565,9.319737,33.466854,-23.268805,11.819816,-13.010512,-1.4300246,0.21622108,1.9131485,-21.230568,16.61492,39.247986,13.915484,7.891332,-3.895199
107,7.418652057647705,151.6238250732422,76.02830505371094,1.5856282540670263,-4.04202185502081,-96.75203398379442,3.868867,-3.0765393,2.6879535,44.232407,-20.925604,4.212423,-30.23517,-5.329006,1.3218217,49.272602,-8.21441,6.831097,-1.803853,-0.19344215,19.429409,9.029068,33.524963,-23.565174,12.249264,-12.453981,-1.3576024,0.5623658,0.30668256,-21.398958,16.938358,39.479416,13.493545,7.785497,-4.1022987
108,7.637431621551514,153.1210479736328,75.6634521484375,1.6801874204494491,-3.8438812213787736,-96.8541197583275,2.530143,-3.075517,3.3897297,44.533825,-23.303385,4.2673497,-31.243128,-6.2943983,0.40912035,54.649788,-10.486402,5.6696033,-1.3930346,-0.15878086,19.570374,8.690985,33.60359,-23.916368,12.766568,-11.9623575,-1.2759253,0.85215706,-1.1780518,-21.538654,17.161985,39.716034,13.142048,7.673988,-4.2635326
109,7.839044094085693,154.57911682128906,75.31163024902344,1.7409170785917478,-3.5994604156388115,-96.79089473439136,0.9508874,-3.1557684,3.5779226,44.97624,-25.111765,3.9735093,-31.974703,-7.328784,-0.40811715,59.68443,-12.524521,4.418061,-1.0520743,-0.07459781,19.636847,8.251566,33.698868,-24.36263,13.423351,-11.560604,-1.1817008,1.0656549,-2.5304308,-21.654127,17.265518,39.94267,12.891305,7.548029,-4.384056
110,8.029434204101562,156.00869750976562,74.9808120727539,1.8079929897135567,-3.3186761730242136,-96.6040923846899,-0.8711623,-3.3051999,3.4700956,45.62443,-26.51571,3.3891907,-32.492245,-8.495804,-1.1779406,64.55445,-14.420697,3.0698485,-0.7449542,0.016573763,19.646126,7.7014027,33.80922,-24.90738,14.212051,-11.225496,-1.0666006,1.2502799,-3.7848535,-21.750496,17.254902,40.17442,12.708643,7.411454,-4.4730883
111,8.216641426086426,157.4138641357422,74.67399597167969,1.9052680446158348,-3.0810873738781948,-96.37616839468386,-2.7275317,-3.5121562,3.267961,46.33994,-27.586414,2.7329237,-32.711388,-9.639011,-1.7307628,69.12532,-16.147608,1.821558,-0.42244545,0.08276339,19.666918,7.1541324,33.914463,-25.457375,15.041623,-10.912556,-0.9487463,1.4154271,-4.93519,-21.831453,17.171642,40.433273,12.552464,7.2802186,-4.511839
112,8.394989013671875,158.80702209472656,74.38774871826172,2.049672688613994,-2.964711811204666,-96.18896697350087,-4.411818,-3.7551405,3.1598427,46.98126,-28.396059,2.2211726,-32.562164,-10.584446,-1.9214619,73.25623,-17.660625,0.8834156,-0.04638623,0.09716356,19.764252,6.7246394,33.98675,-25.912138,15.8330965,-10.574181,-0.8463843,1.5669667,-5.992119,-21.900349,17.075346,40.75604,12.38515,7.1698728,-4.4827676
113,8.572574615478516,160.19029235839844,74.13127136230469,2.2360793842245474,-3.0301835481658395,-96.04757466105906,-5.9080715,-4.0203533,3.1397943,47.651665,-28.935135,1.8950294,-31.96998,-11.2282095,-1.719812,76.9378,-18.92676,0.37643915,0.35720664,0.06308216,19.991468,6.474081,34.002785,-26.208864,16.572632,-10.134551,-0.7743364,1.6828895,-7.00202,-21.944935,16.990456,41.203102,12.16696,7.077773,-4.3646455
114,8.75174331665039,161.54837036132812,73.91419982910156,2.4498921803556173,-3.2217552010589006,-95.91474991675376,-7.316343,-4.3170314,3.1169794,48.379898,-29.179075,1.6447568,-30.999071,-11.641159,-1.2594749,80.25015,-19.957508,0.19787948,0.8228491,0.021520084,20.29422,6.2411323,33.963444,-26.502766,17.37127,-9.654056,-0.7236175,1.7790188,-7.8857937,-21.99704,16.836153,41.697205,11.930194,7.0005965,-4.1657596
115,8.923124313354492,162.8667755126953,73.75003814697266,2.7063956204113535,-3.4407274148344564,-95.80744696209062,-8.608722,-4.6493087,3.1450386,48.917137,-29.180616,1.4591004,-29.79242,-11.91418,-0.6465961,83.17701,-20.77516,0.2246599,1.3025619,-0.0520615,20.580614,6.1102867,33.86274,-26.703232,18.161413,-9.201686,-0.66716033,1.8697426,-8.706859,-22.043148,16.729963,42.25361,11.746301,6.942981,-3.937859
116,9.095677375793457,164.1221466064453,73.64340209960938,3.0174765992856383,-3.588719793411519,-95.7426054286483,-9.755225,-5.0188956,3.278752,49.009693,-28.989138,1.3285381,-28.499523,-12.146906,0.029210133,85.6979,-21.400406,0.32652462,1.7979999,-0.17705207,20.75768,6.0826774,33.71192,-26.811356,18.920547,-8.879026,-0.5802078,1.9849988,-9.465399,-22.083456,16.730885,42.8421,11.685725,6.9123173,-3.7276661
117,9.24975872039795,165.40489196777344,73.56672668457031,3.4142687414411594,-3.6322198853328516,-95.74233339244329,-10.754936,-5.433774,3.5795197,48.58595,-28.630548,1.2730479,-27.154222,-12.343971,0.8101698,87.82498,-21.874472,0.49826688,2.3378422,-0.39341238,20.790613,6.2064133,33.51742,-26.80236,19.598927,-8.66962,-0.45173806,2.1320636,-10.149189,-22.117775,16.844902,43.468468,11.784893,6.9157443,-3.547885
118,9.391227722167969,166.66416931152344,73.55564880371094,3.8784695822353576,-3.6258758763625973,-95.79070338222678,-11.62395,-5.877217,3.9959729,47.777233,-28.072172,1.2908583,-25.678375,-12.457292,1.7057039,89.568825,-22.17219,0.8051202,2.9093387,-0.6829033,20.737196,6.4494553,33.282085,-26.693975,20.231495,-8.549374,-0.29659444,2.2954261,-10.760022,-22.143782,17.046001,44.140472,12.000633,6.9485407,-3.373522
119,9.540196418762207,167.90487670898438,73.6028823852539,4.352115915366832,-3.603472535017126,-95.8481390251324,-12.35088,-6.3188987,4.415556,46.631794,-27.274754,1.34226,-24.064634,-12.51243,2.5947623,90.90719,-22.20832,1.2157749,3.460973,-0.98037434,20.639702,6.7763944,33.002983,-26.514465,20.854515,-8.557103,-0.12917648,2.470417,-11.31322,-22.16335,17.3352,44.829494,12.284561,7.0009446,-3.1933568
120,9.690585136413574,169.12278747558594,73.70361328125,4.777511838490929,-3.599782892083219,-95.8754317574559,-12.91837,-6.7391105,4.7284617,45.19678,-26.199234,1.3866252,-22.310919,-12.535012,3.3625991,91.81629,-21.895681,1.6949713,3.9398663,-1.2158031,20.53837,7.128836,32.674187,-26.301437,21.522697,-8.742881,0.036943756,2.6525383,-11.825216,-22.179728,17.715054,45.505367,12.5894375,7.0633664,-2.9964023
121,9.848976135253906,170.3353729248047,73.86729431152344,5.169852287428078,-3.6315691105554557,-95.87074472181277,-13.300607,-7.1754565,4.9306254,43.467678,-24.855198,1.4323168,-20.369287,-12.573218,4.0023365,92.27483,-21.213495,2.2693658,4.3342543,-1.398041,20.436657,7.5014052,32.28987,-26.065153,22.257605,-9.22046,0.18571302,2.8630593,-12.302879,-22.19794,18.218351,46.172974,12.932081,7.154833,-2.7766547
122,9.99983024597168,171.54373168945312,74.08672332763672,5.548435614546998,-3.6784487595197484,-95.85263938543953,-13.50455,-7.6313953,5.073868,41.417763,-23.254345,1.4946207,-18.262735,-12.591779,4.5727825,92.30261,-20.204702,2.9452574,4.6731167,-1.5500733,20.312634,7.918297,31.845936,-25.790298,23.03128,-9.926395,0.32612932,3.0978754,-12.733766,-22.220173,18.831465,46.84247,13.328257,7.2744727,-2.5411966
123,10.135571479797363,172.76512145996094,74.37510681152344,5.860772077488812,-3.718761797955201,-95.81272258615307,-13.561878,-8.04076,5.135725,39.062027,-21.361418,1.5416754,-16.101917,-12.481338,5.07216,91.93952,-18.874355,3.6615348,4.9664636,-1.6211056,20.16662,8.340567,31.34001,-25.4867,23.84648,-10.655892,0.48168203,3.3149152,-13.105108,-22.244148,19.484404,47.490337,13.728774,7.3813815,-2.2976637
124,10.291213035583496,173.98660278320312,74.72382354736328,6.05359045286704,-3.7304830483595053,-95.74256129587091,-13.50683,-8.334056,5.090957,36.415203,-19.140347,1.5425383,-13.999519,-12.13526,5.506919,91.22674,-17.22755,4.356844,5.2266655,-1.5615855,19.996893,8.71752,30.77235,-25.172012,24.713583,-11.210307,0.6804218,3.4734924,-13.405457,-22.267504,20.104774,48.096504,14.082994,7.43409,-2.053241
125,10.450150489807129,175.21018981933594,75.13127899169922,6.134876360587785,-3.703640923276211,-95.6277727008967,-13.348951,-8.521869,4.923134,33.459545,-16.583254,1.5043085,-11.979429,-11.568969,5.8828316,90.14763,-15.125165,4.9945908,5.4555497,-1.3725206,19.799217,9.035233,30.133604,-24.84485,25.649755,-11.520665,0.9568932,3.5717933,-13.616874,-22.290024,20.660952,48.658524,14.360266,7.401453,-1.7831736
126,10.572565078735352,176.45730590820312,75.57676696777344,6.121965819633271,-3.650379025135096,-95.47734544807395,-13.072076,-8.629833,4.6493635,30.198545,-13.711513,1.4380203,-9.992247,-10.814152,6.2255564,88.69668,-12.615635,5.6207337,5.649871,-1.069141,19.571268,9.300974,29.421227,-24.50903,26.662285,-11.703042,1.2885344,3.6289437,-13.750567,-22.31423,21.191753,49.1887,14.591341,7.311731,-1.4919914
127,10.69761848449707,177.6975860595703,76.06201171875,5.979147925596183,-3.5809622324790755,-95.3178883977448,-12.683635,-8.606164,4.293079,26.690514,-10.535488,1.3191783,-8.042181,-9.791891,6.580938,86.93096,-9.985294,6.296509,5.8185697,-0.62913495,19.314314,9.5418625,28.65119,-24.168646,27.705132,-11.81325,1.618446,3.6348639,-13.836832,-22.342001,21.729963,49.68652,14.821356,7.2131667,-1.2298652
128,10.828154563903809,178.94338989257812,76.5654525756836,5.679830548118136,-3.504880796584049,-95.1750861216604,-12.20061,-8.398704,3.8756707,23.001383,-7.0648856,1.124154,-6.132429,-8.43856,7.000347,84.90577,-7.523826,7.0775948,5.9707594,-0.039449554,19.03281,9.784559,27.853079,-23.8276,28.725227,-11.915797,1.8901073,3.580148,-13.902349,-22.373987,22.305351,50.146267,15.093699,7.153691,-1.0461841
129,10.948763847351074,180.19967651367188,77.06733703613281,5.188361411010579,-3.437927125076953,-95.03668030426071,-11.577132,-7.990268,3.1542227,19.017258,-3.1339042,1.1539321,-4.227337,-6.637512,7.5502143,82.56176,-5.1513166,8.049285,6.1046143,0.73295027,18.73687,10.051226,27.03362,-23.446873,29.714241,-12.019732,2.0981615,3.4361477,-13.922558,-22.408588,22.918604,50.546577,15.407269,7.1528077,-1.0013092
130,11.05760669708252,181.47003173828125,77.56226348876953,4.5804581977856484,-3.3639745351861943,-94.88727645528746,-10.912197,-7.4358993,2.239659,14.8879175,1.1403778,1.3292258,-2.3392239,-4.525526,8.257104,79.90174,-2.7936382,9.168408,6.21113,1.6139792,18.42447,10.330599,26.193527,-23.029589,30.679354,-12.094575,2.2707965,3.2146711,-13.894794,-22.443115,23.555185,50.893864,15.74485,7.1811366,-1.0538425
131,11.155927658081055,182.7452392578125,78.03303527832031,3.94517421654417,-3.250036172349033,-94.75506680643878,-10.353364,-6.78324,1.598279,10.9339075,5.388422,1.0401154,-0.53958094,-2.4017367,9.066657,77.06255,-0.7275825,10.2600765,6.296286,2.4941478,18.085974,10.596873,25.367346,-22.64736,31.588049,-12.159796,2.4024003,2.9691017,-13.866655,-22.473677,24.213642,51.21107,16.120575,7.2144074,-1.0988204
132,11.243753433227539,184.0263671875,78.44878387451172,3.2468672732534545,-3.0767743049786853,-94.68535189648166,-9.969221,-5.9676433,1.5701193,7.3889604,9.284284,-0.36052847,1.1075312,-0.43062732,9.8388195,74.16148,0.81000584,11.095316,6.3837414,3.3947701,17.709719,10.858262,24.60911,-22.36705,32.372684,-12.240236,2.490366,2.75474,-13.879224,-22.49891,24.890182,51.51645,16.548632,7.229968,-1.0269907
133,11.318178176879883,185.29574584960938,78.76668548583984,2.1866205149648974,-2.834312412658616,-94.74003111566039,-10.538357,-4.648756,2.3826802,5.8253183,12.064372,-3.7919009,2.6054623,1.7083852,10.514923,71.11713,1.6633502,11.526086,6.534422,4.6021147,17.232986,11.209063,23.955696,-22.18509,32.956345,-12.401195,2.5295885,2.595708,-13.907657,-22.5223,25.607115,51.801296,17.094511,7.2205787,-0.80199945
134,11.368841171264648,186.5762176513672,79.03043365478516,0.9563036119594045,-2.557954203731939,-94.90401442659004,-11.748733,-3.0402813,3.633867,5.640849,14.071864,-8.717303,4.0143843,3.8943982,11.227887,67.82081,2.0831413,11.689449,6.75019,5.9272475,16.716541,11.653029,23.416702,-22.064352,33.341557,-12.623594,2.527375,2.457601,-13.9244175,-22.541218,26.345663,52.03599,17.729641,7.202558,-0.48148856
135,11.413610458374023,187.89581298828125,79.26840209960938,-0.1343499419878826,-2.287254162717144,-95.11205348862774,-12.822102,-1.5130401,4.847571,5.4818826,15.757515,-13.593371,5.3243837,5.711729,11.933977,64.49239,2.3220105,11.715359,6.967567,7.064743,16.282038,12.070283,23.002369,-22.026655,33.579967,-12.81112,2.5002007,2.3100946,-13.972513,-22.548313,27.045721,52.220337,18.32813,7.1875706,-0.09492168
136,11.488424301147461,189.265625,79.46806335449219,-0.7189842553927678,-2.042093588067074,-95.22755837904371,-13.633283,-0.53926665,6.2726493,5.3137684,16.972668,-15.000033,6.4933896,6.6817975,12.510089,61.420467,2.5528803,11.783934,7.055494,7.6790924,16.03998,12.344118,22.720062,-22.105951,33.722485,-12.871153,2.4655173,2.1247337,-14.091964,-22.537918,27.644606,52.359783,18.759619,7.185017,0.33121166
137,11.54591178894043,190.6928253173828,79.63389587402344,-0.8245635918655868,-1.7881802027639435,-95.29412552470814,-14.179213,0.067004666,7.517133,5.2273664,17.60324,-15.000033,7.422267,6.8162484,12.797479,58.6151,2.8382187,11.894359,7.0519676,7.7599483,15.990614,12.430743,22.598495,-22.353615,33.754295,-12.797737,2.427736,1.8811955,-14.3161,-22.50282,28.123278,52.449306,18.964754,7.2086864,0.8440404
138,11.577075958251953,192.17242431640625,79.77721405029297,-0.6965357351011929,-1.5220167795203166,-95.38982373503221,-14.530253,0.5540518,8.527489,5.2270036,17.78196,-15.000033,8.142984,6.476307,12.830489,55.921494,3.1164682,11.959339,7.0380936,7.546948,16.072351,12.377466,22.619167,-22.741024,33.67825,-12.632202,2.3761098,1.5955696,-14.610855,-22.449026,28.510368,52.480488,19.020142,7.247708,1.4392854
139,11.589438438415527,193.6848907470703,79.89264678955078,-0.452958358241492,-1.287299365787124,-95.48811924036794,-14.749405,0.89974695,9.049047,5.2843175,17.71666,-15.000033,8.749714,5.911329,12.691649,53.32967,3.4666648,11.914594,7.0145626,7.1714487,16.262424,12.218715,22.780725,-23.207987,33.541798,-12.380937,2.3066034,1.300019,-14.940684,-22.339209,28.80288,52.50396,18.994116,7.264114,2.005047
140,11.597774505615234,195.2103271484375,79.95735931396484,-0.19786862470334776,-1.1179294325819735,-95.53722094940436,-14.902934,1.0834618,8.834534,5.352454,17.604992,-15.000033,9.3171425,5.330934,12.451483,50.862164,3.9451187,11.687387,6.950158,6.769146,16.554031,11.972138,23.036253,-23.668367,33.39827,-12.017915,2.2139175,1.0166048,-15.217214,-22.215704,28.98016,52.469505,18.956509,7.2343755,2.4417381
141,11.610732078552246,196.7411346435547,79.95752716064453,0.09979052059867664,-1.0562431196712216,-95.48228154730326,-14.997858,1.031559,7.7312775,5.473144,17.38082,-14.119807,9.871991,4.716514,12.110731,48.594425,4.821298,11.343569,6.7868114,6.339025,17.000914,11.577683,23.365349,-24.141218,33.282684,-11.44452,2.0760722,0.72265077,-15.433972,-22.08807,29.009882,52.33733,18.87779,7.144089,2.7233286
142,11.638799667358398,198.27871704101562,79.90473175048828,0.441403974701489,-1.0668944823943398,-95.36556020682994,-15.026839,0.84992266,5.8727946,5.673419,16.95338,-12.569274,10.350531,4.0198865,11.616136,46.54319,5.942001,10.883426,6.5617037,5.8645415,17.57942,11.019481,23.763594,-24.664791,33.185898,-10.694583,1.8979744,0.41700956,-15.620311,-21.959755,28.907875,52.11989,18.738642,7.0111465,2.90423
143,11.670635223388672,199.83128356933594,79.82252502441406,0.7876626329574863,-1.0671999382256963,-95.26284726401174,-16.048046,0.72242594,3.7414672,8.055811,15.332609,-11.0248165,10.690694,3.2703319,10.986811,44.655914,6.7067175,10.172101,6.36257,5.3642683,18.168152,10.37877,24.203796,-25.196648,33.114746,-9.952031,1.7140259,0.16344658,-15.768753,-21.837315,28.750607,51.89471,18.632452,6.8568773,2.9973297
144,11.713035583496094,201.3671417236328,79.70320892333984,1.110983733383196,-0.9728811197286943,-95.253042099737,-17.77274,0.6127338,1.9588153,11.887642,13.039012,-9.842496,10.83837,2.4932332,10.272575,42.904335,6.482051,9.099772,6.2716293,4.8542747,18.647594,9.7336,24.64617,-25.682186,33.091015,-9.392854,1.5597931,0.023366585,-15.881852,-21.727133,28.625444,51.748924,18.653076,6.7026024,3.014765
145,11.759162902832031,202.89175415039062,79.50331115722656,1.4695106909989073,-0.7347466126267569,-95.37132629749935,-19.486515,0.39839444,0.6203235,15.59426,10.964717,-9.159935,10.7726965,1.5861505,9.473714,41.247784,4.959488,7.4388585,6.324938,4.276653,18.960346,9.071516,25.06231,-26.13816,33.161896,-9.056991,1.4346242,0.057586934,-15.96582,-21.634945,28.582382,51.713444,18.905573,6.5313168,2.9186
146,11.801702499389648,204.4060516357422,79.24307250976562,1.8626546214245312,-0.40658738769578984,-95.56893681240494,-21.256514,0.08853718,-0.55320054,19.424335,8.903942,-8.761358,10.532199,0.6025692,8.641624,39.728878,2.4934075,5.370919,6.4616866,3.644979,19.180275,8.34451,25.442982,-26.57759,33.33587,-8.840317,1.3224462,0.21923642,-16.026316,-21.56197,28.57905,51.749424,19.313099,6.3385434,2.716168
147,11.846309661865234,205.92098999023438,78.94505310058594,2.211496736896463,-0.05644403456212744,-95.7973982261611,-23.028006,-0.16029735,-1.4750243,23.39435,6.794125,-8.461482,10.152062,-0.25262174,7.902514,38.423748,-0.5292625,3.3831463,6.6178412,3.051051,19.386992,7.5736547,25.781677,-26.938906,33.58185,-8.704688,1.2355262,0.40637398,-16.065632,-21.501717,28.566576,51.83696,19.706955,6.1656704,2.4852042
148,11.908478736877441,207.4279327392578,78.60368347167969,2.423960684758168,0.24327600664570528,-96.01577016672057,-24.71597,-0.17298916,-2.0791879,27.446203,4.601242,-8.080238,9.674643,-0.8082932,7.3266096,37.36817,-3.6802132,1.9014575,6.730537,2.5968451,19.658297,6.7897243,26.075567,-27.152752,33.863747,-8.611053,1.1859893,0.51671165,-16.094162,-21.44271,28.501064,51.966557,19.915865,6.0556817,2.3017366
149,11.963875770568848,208.93792724609375,78.23536682128906,2.489618165703694,0.4519178319503542,-96.23694961814213,-26.291271,0.11762979,-2.3054879,31.607714,2.2619367,-7.6045246,9.1242285,-1.0795239,6.84858,36.592567,-7.0922804,0.96014214,6.8086386,2.295035,20.03491,5.981227,26.327593,-27.18655,34.19202,-8.572567,1.1928499,0.49402717,-16.119385,-21.370047,28.352375,52.142277,19.852335,6.040065,2.1826441
150,12.015389442443848,210.44744873046875,77.86099243164062,2.4646191979451095,0.614125923266324,-96.47742234793951,-27.785528,0.6331196,-2.214119,35.85963,-0.17324018,-7.1132655,8.465883,-1.1840345,6.4420033,36.04989,-10.884454,0.30049884,6.8749785,2.081446,20.467218,5.146884,26.54078,-27.071844,34.579994,-8.599919,1.2440155,0.40265352,-16.148603,-21.278885,28.156324,52.387093,19.620255,6.088721,2.0864527
151,12.05702018737793,211.96742248535156,77.46954345703125,2.3511612696724487,0.7827138137629983,-96.7047844067516,-29.206266,1.3346568,-1.9364454,40.07618,-2.5612628,-6.563903,7.6597495,-1.1235814,6.1831775,35.634975,-14.595102,-0.09910197,6.888847,1.950369,20.897526,4.326999,26.712875,-26.838947,35.00012,-8.655766,1.3048515,0.32140344,-16.185831,-21.175543,27.96681,52.7116,19.337784,6.1546946,2.0005183
152,12.095906257629395,213.46795654296875,77.09014892578125,2.149435460823442,1.010909810500426,-96.88666689800063,-30.568472,2.181944,-1.6064719,44.140015,-4.7651196,-5.909542,6.680791,-0.89332426,6.1423726,35.22477,-17.759869,-0.22818345,6.808477,1.8993798,21.26838,3.5605843,26.83784,-26.517975,35.42632,-8.700571,1.3403713,0.32877398,-16.230177,-21.074226,27.836468,53.11879,19.124472,6.191361,1.9119978
153,12.136833190917969,214.95648193359375,76.73834228515625,1.8058336263565766,1.3554282608256791,-97.02876136915636,-31.965195,3.3035014,-1.1760477,48.12251,-6.790014,-5.091829,5.462027,-0.3929033,6.4450393,34.74224,-20.23574,0.10567991,6.6094756,1.9808286,21.548302,2.8453534,26.908306,-26.080364,35.853127,-8.73288,1.3409902,0.44766915,-16.32887,-20.992218,27.799599,53.606316,19.002064,6.1885285,1.819979
154,12.20281982421875,216.4320526123047,76.40562438964844,1.3412855133061174,1.7708734543887317,-97.14396764326794,-33.35915,4.6972,-0.6298679,52.065346,-8.715972,-4.131204,4.052608,0.33361432,6.964331,34.255352,-22.278936,0.8559587,6.314839,2.1813745,21.778053,2.1675363,26.922924,-25.514215,36.29862,-8.766766,1.3245018,0.6354178,-16.456205,-20.932917,27.818888,54.15716,18.913738,6.1720123,1.7299876
155,12.300530433654785,217.86151123046875,76.09220886230469,0.8647122707715073,2.1604204975799175,-97.20986945201473,-34.58211,6.107231,-0.13007349,55.816772,-10.516897,-3.1078494,2.6141787,1.0824951,7.4165683,33.831673,-24.013351,1.6863776,5.9586782,2.40037,22.003992,1.5382609,26.88637,-24.887266,36.77773,-8.790112,1.2974985,0.87189656,-16.504412,-20.888338,27.840042,54.758694,18.86176,6.1491137,1.6389891
156,12.40537166595459,219.25540161132812,75.7938461303711,0.49116580256746245,2.4313744080983852,-97.20121077564626,-35.467606,7.248,0.19554637,59.216732,-12.15122,-2.121912,1.2801949,1.6429862,7.5562916,33.56199,-25.575966,2.2466598,5.5873632,2.525948,22.268675,0.9572515,26.812258,-24.290075,37.30132,-8.796044,1.2674308,1.1378889,-16.354162,-20.84911,27.797087,55.391468,18.845963,6.1264076,1.5465579
157,12.506863594055176,220.62301635742188,75.51441192626953,0.2770240526808784,2.5492369572880436,-97.10952033515355,-35.96331,8.006071,0.3610528,62.262238,-13.590337,-1.1476457,0.091417216,1.9204113,7.301225,33.461514,-27.074295,2.395476,5.2000527,2.4942381,22.596348,0.42017555,26.681004,-23.702148,37.90222,-8.759592,1.227426,1.452745,-15.998438,-20.789263,27.692247,56.101467,18.888517,6.0816503,1.4445809
158,12.596087455749512,221.94776916503906,75.27378845214844,0.15414675859120053,2.5701038391364466,-96.94725989750684,-36.165764,8.524924,0.44998425,65.039825,-14.859643,-0.16299771,-1.0373609,2.0367541,6.814388,33.497974,-28.424057,2.3291574,4.7995257,2.368742,22.950632,-0.099052794,26.502625,-23.130568,38.578495,-8.703599,1.1775583,1.8217937,-15.477729,-20.712944,27.533422,56.881176,18.975706,6.0182347,1.3382125
159,12.670302391052246,223.23629760742188,75.08985137939453,0.04693317851305943,2.5388281905430405,-96.72126440518984,-36.13175,8.894902,0.45673645,67.51909,-15.981209,0.71414024,-2.1605258,2.1054242,6.235053,33.67479,-29.466373,2.1970508,4.3523965,2.2303672,23.282528,-0.56857103,26.281202,-22.591185,39.276012,-8.647591,1.133653,2.1929042,-14.838459,-20.625158,27.369156,57.70782,19.065237,5.9792314,1.2383635
160,12.739217758178711,224.48226928710938,74.9697265625,-0.11965727252674783,2.500238230112708,-96.43841181380871,-35.92016,9.207589,0.3742676,69.667435,-16.97439,1.3656158,-3.3321955,2.2401829,5.691052,33.990784,-30.037003,2.1508834,3.8301663,2.1621017,23.545986,-0.96451443,26.026525,-22.11076,39.94424,-8.619006,1.1107677,2.5155895,-14.118907,-20.537603,27.237146,58.55116,19.1132,6.00795,1.1562335
161,12.812460899353027,225.6953887939453,74.92039489746094,-0.41084465396860337,2.4515082073811816,-96.05704731659631,-35.545567,9.45302,0.112385884,71.489586,-17.809652,1.7236985,-4.621398,2.5207593,5.1584506,34.594177,-30.023499,2.2159855,3.1893435,2.2394686,23.758396,-1.267998,25.735739,-21.65295,40.55734,-8.58693,1.112087,2.7713199,-13.325839,-20.460054,27.153181,59.445244,19.146595,6.0918584,1.0954458
162,12.899497032165527,226.89234924316406,74.93560791015625,-0.7711593546327877,2.376349610221484,-95.58815061092771,-34.980587,9.587025,-0.2754847,73.00635,-18.481638,1.8563195,-5.987315,2.8658836,4.58609,35.441982,-29.539545,2.3160903,2.4552007,2.400714,23.939274,-1.4953446,25.405865,-21.217878,41.14205,-8.550664,1.1299312,2.9877064,-12.434763,-20.394207,27.096394,60.381794,19.17755,6.2169147,1.0506046
163,13.012589454650879,228.05230712890625,75.01519012451172,-1.0948041724202766,2.2975901144252093,-95.11755330736369,-34.21819,9.650894,-0.5860611,74.20294,-19.04699,1.8511997,-7.3153105,3.1526768,4.0586276,36.242332,-28.75849,2.4540744,1.7100708,2.5263073,24.047174,-1.6639671,25.05337,-20.885588,41.709984,-8.578422,1.1628729,3.184121,-11.429538,-20.339664,27.04059,61.2587,19.145233,6.4243875,1.0200617
164,13.148061752319336,229.1686248779297,75.15277862548828,-1.2760125076504738,2.2352139786706733,-94.7312925294495,-33.251465,9.68493,-0.62161285,75.060875,-19.560986,1.798174,-8.480996,3.2628207,3.6662476,36.68927,-27.846611,2.6353695,1.0413096,2.4959278,24.037722,-1.788499,24.70789,-20.738499,42.264194,-8.744137,1.209729,3.3800085,-10.289874,-20.293947,26.950737,61.967747,18.98528,6.7552624,1.0038143
165,13.293123245239258,230.23928833007812,75.35453796386719,-1.2654467005035994,2.1980419687613133,-94.46769112736524,-32.031673,9.659456,-0.2942577,75.521255,-20.073187,1.6814944,-9.489509,3.145371,3.461976,36.76627,-26.815735,2.896962,0.48034588,2.2521389,23.882038,-1.8405246,24.389593,-20.80923,42.80017,-9.150441,1.2814516,3.5916283,-9.007648,-20.251453,26.797226,62.527203,18.635214,7.2875023,1.065039
166,13.42428207397461,231.2938690185547,75.60771942138672,-1.1268911235342287,2.172188265119835,-94.27674736004306,-30.581432,9.553028,0.2797617,75.611275,-20.53894,1.4676114,-10.387031,2.8705401,3.4027016,36.607914,-25.586647,3.23211,-0.0134479925,1.864169,23.608438,-1.8093104,24.10221,-21.051708,43.29599,-9.737922,1.3749517,3.8043666,-7.5866776,-20.208986,26.588255,62.96617,18.139008,7.9755664,1.1889381
167,13.534064292907715,232.28805541992188,75.91851043701172,-0.9238057286201055,2.142618029652746,-94.11177136518859,-29.000391,9.416097,0.9885387,75.44099,-20.872293,1.2187136,-11.112595,2.5058303,3.4295986,36.141335,-24.18966,3.5723166,-0.46299616,1.3993627,23.258045,-1.7348933,23.853123,-21.426752,43.72745,-10.340221,1.4693823,3.9904203,-6.029998,-20.170221,26.351206,63.195183,17.597607,8.677322,1.2564752
168,13.623229026794434,233.2609405517578,76.2729263305664,-0.7189269036412156,2.0945593783189604,-93.92621943551885,-27.384531,9.305315,1.7235203,75.121994,-20.989748,0.99708486,-11.612334,2.1266496,3.4732041,35.295895,-22.650806,3.8372552,-0.88876283,0.9233252,22.875353,-1.6546869,23.650517,-21.894667,44.064167,-10.788697,1.5455313,4.120077,-4.3348694,-20.142689,26.112505,63.116547,17.118357,9.254554,1.1439708
169,13.716798782348633,234.23497009277344,76.65987396240234,-0.5283698389678017,1.9990206440277523,-93.70565794471761,-25.686045,9.266728,2.5002942,74.64307,-20.861053,0.79799575,-11.798883,1.7838768,3.5057213,33.949375,-20.968443,3.9846354,-1.2894126,0.44656354,22.472906,-1.5843931,23.510445,-22.521461,44.30586,-11.100291,1.6083604,4.200571,-2.4377186,-20.131954,25.90488,62.61144,16.64843,9.710863,0.7298207
170,13.813361167907715,235.2023162841797,77.07386779785156,-0.31822338441399045,1.8720466588032239,-93.4759494050355,-23.876612,9.248114,3.364606,73.95677,-20.532541,0.59532225,-11.73321,1.4475448,3.5479946,32.17775,-19.132217,4.0576444,-1.6522144,-0.06709533,22.034525,-1.4930214,23.436874,-23.300398,44.448925,-11.347987,1.6668912,4.2393584,-0.34663478,-20.134455,25.692839,61.73559,16.164364,10.112954,0.10934323
171,13.922719955444336,236.1632537841797,77.50946044921875,-0.07625382334442163,1.7667217687572319,-93.25023782193846,-22.085852,9.170856,4.251269,73.126976,-20.037447,0.41899106,-11.585101,1.0768327,3.5978105,30.203556,-17.149298,4.100186,-1.9864274,-0.62086475,21.560226,-1.3547398,23.412785,-24.080467,44.464798,-11.444341,1.7093345,4.207681,1.8247334,-20.143417,25.407917,60.665977,15.812407,10.413924,-0.52168274
172,14.038844108581543,237.1163330078125,77.96549987792969,0.20905448818698247,1.736497910563694,-93.04104483171136,-20.445454,8.965687,5.090712,72.21652,-19.409414,0.2991678,-11.529386,0.62369514,3.661769,28.255968,-15.026922,4.151811,-2.3108568,-1.2131702,21.046118,-1.147489,23.409588,-24.705631,44.332745,-11.297397,1.7224281,4.0780954,3.95102,-20.150818,24.995995,59.595226,15.737913,10.560328,-0.9698469
173,14.176281929016113,238.0443115234375,78.44268035888672,0.5702259962579305,1.7865132529869618,-92.84773726577608,-18.95467,8.609595,5.903999,71.215164,-18.610168,0.30645266,-11.574047,0.036709182,3.7613149,26.34776,-12.754019,4.226374,-2.6345496,-1.871108,20.473183,-0.85632443,23.40667,-25.120518,44.016823,-10.743083,1.7016768,3.761563,6.084814,-20.153244,24.392115,58.49229,16.009577,10.437119,-1.1815158
174,14.321085929870605,238.98239135742188,78.92562103271484,0.9896995245429572,1.8919594041220362,-92.66433366048922,-17.561909,8.150194,6.70956,70.10034,-17.63866,0.40455866,-11.658679,-0.6185728,3.878597,24.387749,-10.336067,4.2967887,-2.952803,-2.5766304,19.846123,-0.5120314,23.401947,-25.412401,43.55847,-9.869011,1.6466396,3.3032036,8.260166,-20.148817,23.644299,57.286976,16.539385,10.103995,-1.2607335
175,14.476032257080078,239.93565368652344,79.39424133300781,1.4030600602671182,2.062309186026083,-92.49523880288238,-16.324,7.6328096,7.431597,68.92239,-16.589481,0.4620348,-11.847501,-1.2382854,3.9748075,22.450438,-7.8062115,4.335929,-3.2685466,-3.2616138,19.192207,-0.16327514,23.39562,-25.640066,43.058933,-8.965204,1.554651,2.8774984,10.307352,-20.13356,22.881378,56.139103,17.237003,9.765428,-1.2534642
176,14.635363578796387,240.94235229492188,79.82644653320312,1.7445709582965943,2.307626746639803,-92.34519127186944,-15.296414,7.105731,7.9928203,67.730034,-15.556525,0.34582767,-12.195762,-1.7441373,4.0175266,20.615618,-5.196825,4.318214,-3.5895119,-3.8597,18.536074,0.1507625,23.389063,-25.853025,42.616238,-8.318712,1.4325043,2.6574502,12.044411,-20.103697,22.243761,55.226063,18.011734,9.624031,-1.2124969
177,14.801563262939453,241.9401397705078,80.25420379638672,1.9960480931499094,2.6906744153400526,-92.21853888640557,-14.556149,6.576479,8.37363,66.53513,-14.50876,-0.06120819,-12.770886,-2.149363,4.0139823,18.78634,-2.2263777,4.183034,-3.9414577,-4.3512373,17.823109,0.4388143,23.384666,-26.048258,42.24713,-7.99937,1.2541261,2.7114248,13.425123,-20.062122,21.77701,54.62193,19.000013,9.751952,-1.152182
178,14.976223945617676,242.93472290039062,80.66439819335938,2.181932165739351,3.1908517794965103,-92.11446703351436,-14.056556,6.043021,8.606757,65.31582,-13.422105,-0.66641575,-13.54253,-2.504825,3.9802916,16.998135,1.0118208,3.9623134,-4.3087325,-4.758938,17.05538,0.71420705,23.381502,-26.20831,41.905216,-7.8563194,1.029577,2.9399984,14.540495,-20.011314,21.405676,54.238,20.19367,10.035523,-1.0523757
179,15.152576446533203,243.9269561767578,81.04383087158203,2.307964502597051,3.6897606043159534,-92.02823428828856,-13.662961,5.530507,8.698896,64.07193,-12.399868,-1.2834574,-14.372517,-2.8158343,3.9085426,15.449751,3.9566734,3.7778974,-4.6603284,-5.0981293,16.3414,0.9699948,23.37667,-26.328453,41.5837,-7.8376203,0.8233384,3.2597737,15.387295,-19.960508,21.126526,54.032673,21.294,10.395283,-0.91745776
180,15.33515453338623,244.9420623779297,81.36467742919922,2.400462912720569,4.062075594156952,-91.95070817834828,-13.224096,5.0415325,8.669823,62.789413,-11.532628,-1.7173029,-15.094683,-3.0965817,3.801713,14.301052,6.066458,3.7546299,-4.9359612,-5.404988,15.794651,1.1646118,23.364603,-26.447971,41.301098,-7.901557,0.6991849,3.5914905,15.9850645,-19.898024,20.900236,53.956177,21.989206,10.7499695,-0.7433186
181,15.52554702758789,245.964599609375,81.63539123535156,2.493228582170797,4.2747400150168655,-91.85718913162516,-12.687296,4.4797406,8.455592,61.411995,-10.920802,-2.0089843,-15.583587,-3.3965166,3.6298983,13.337246,7.200868,4.066524,-5.1754885,-5.723615,15.445116,1.3176329,23.341856,-26.538612,41.058094,-8.078567,0.69613785,3.9698896,16.305418,-19.831799,20.770061,54.04608,22.180014,11.130654,-0.49907833
182,15.712799072265625,247.00038146972656,81.8715591430664,2.5817056959210416,4.386857602995557,-91.75475386509042,-12.1177,3.864496,8.074868,59.957535,-10.485557,-2.2186115,-15.925769,-3.7234552,3.4101956,12.52002,7.6650496,4.606179,-5.383205,-6.0445933,15.235966,1.4263233,23.30732,-26.609617,40.862385,-8.379529,0.7703168,4.420323,16.356354,-19.761093,20.731388,54.317085,22.030674,11.560214,-0.19128175
183,15.890934944152832,248.0468292236328,82.06394958496094,2.6311412200823394,4.411611674793658,-91.68130030174423,-11.550081,3.3668702,7.677478,58.532574,-10.046267,-2.1853654,-16.261843,-4.007582,3.2081997,12.248777,7.595048,5.074021,-5.5108294,-6.3329754,15.148838,1.4819229,23.261969,-26.670528,40.69928,-8.717241,0.863039,4.8417463,16.161983,-19.69167,20.752014,54.70401,21.65109,11.944016,0.12874736
184,16.067035675048828,249.11517333984375,82.22129821777344,2.598979558436479,4.366585994156094,-91.67822531619787,-11.032404,3.1601284,7.4209394,57.25099,-9.424265,-1.7595001,-16.737585,-4.163172,3.0953882,12.922382,7.1347604,5.1745167,-5.5066233,-6.54274,15.166728,1.4772853,23.209377,-26.731312,40.547318,-9.005895,0.9179036,5.131919,15.752519,-19.637592,20.794641,55.12903,21.153975,12.191043,0.4081901
185,16.24200439453125,250.20010375976562,82.34130096435547,2.465253409267607,4.246244537056427,-91.77147908983025,-10.605384,3.3727152,7.457471,56.206104,-8.52218,-0.726946,-17.44742,-4.116,3.2452648,14.800898,6.219741,4.7120414,-5.336704,-6.6505237,15.321975,1.397201,23.159613,-26.802845,40.374496,-9.260976,0.9165562,5.2549577,15.104992,-19.61018,20.847189,55.59233,20.446634,12.26151,0.66507685
186,16.428861618041992,251.3072509765625,82.41033172607422,2.269594309468317,4.040976550232087,-91.9312228699379,-10.23686,3.8712656,7.7046056,55.325497,-7.4725833,0.7819846,-18.272863,-3.932754,3.5789082,17.579275,4.8318386,3.8883018,-5.032538,-6.6966333,15.622374,1.2588074,23.124067,-26.879183,40.17724,-9.520689,0.8928401,5.26584,14.232313,-19.606989,20.917646,56.099785,19.510565,12.209858,0.9175732
187,16.629146575927734,252.42431640625,82.43279266357422,2.051863722255598,3.764697197991455,-92.11591630671373,-9.876234,4.4378285,7.95659,54.480785,-6.4339733,2.3905256,-19.038101,-3.7469792,3.7936773,20.802925,3.1847763,3.0010786,-4.656603,-6.7199135,15.997429,1.0866174,23.068213,-26.933002,40.0268,-9.720154,0.86603904,5.2027874,13.191651,-19.620232,21.027857,56.619328,18.582232,12.086278,1.1043738
188,16.823110580444336,253.54444885253906,82.4020767211914,1.8335205478618037,3.4376126297382497,-92.28867153274587,-9.480676,4.862946,7.973724,53.536865,-5.5444183,3.7028382,-19.613766,-3.6942942,3.5780168,24.103004,1.4496177,2.336125,-4.257573,-6.737594,16.393282,0.9373411,22.998724,-26.93889,39.922825,-9.807952,0.8591933,5.0975847,12.080981,-19.673182,21.171417,57.051453,17.889927,11.952245,1.180287
189,17.011760711669922,254.65106201171875,82.31602478027344,1.6098603104110638,3.036226246469569,-92.45522680255203,-9.046041,5.1261263,7.67593,52.467613,-4.6219954,4.7461076,-19.930424,-3.8208466,2.8149862,27.443068,-0.44525975,2.030138,-3.8409503,-6.7463584,16.836918,0.8307864,22.91375,-26.865671,39.85116,-9.76873,0.8806732,4.9136434,10.898984,-19.782963,21.381926,57.361618,17.514832,11.81098,1.0871706
190,17.20049285888672,255.76324462890625,82.17684936523438,1.3645065352875283,2.562575189321471,-92.63179061216134,-8.604139,5.3337007,7.186325,51.345516,-3.6635091,5.680822,-20.08769,-4.0820603,1.6886703,31.048832,-2.5822353,1.8905884,-3.3802722,-6.7265873,17.346952,0.746535,22.822712,-26.732971,39.795086,-9.634018,0.91801673,4.647762,9.612389,-19.943235,21.643333,57.58363,17.327055,11.63878,0.86859083
191,17.386613845825195,256.86700439453125,81.99221801757812,1.0991086354363075,2.0773337694183254,-92.79810202503151,-8.15608,5.454304,6.5345845,50.165047,-3.0418105,6.2917047,-20.21549,-4.4911833,0.33976248,34.978413,-4.822117,1.7028099,-2.8952084,-6.667201,17.847946,0.68218946,22.726225,-26.575382,39.76692,-9.41606,0.96063894,4.3824687,8.261755,-20.154694,21.907396,57.726227,17.251953,11.457467,0.6341669
192,17.57159996032715,257.94903564453125,81.74488067626953,0.8195988266124288,1.6391317297096213,-92.93277267105812,-7.689203,5.450312,5.7415333,48.90578,-3.11689,6.3603706,-20.420404,-5.063966,-1.0797268,39.2532,-7.013655,1.2513664,-2.4008138,-6.5656066,18.265324,0.6287793,22.62669,-26.436958,39.782272,-9.130166,0.99869376,4.201053,6.8915095,-20.421726,22.120298,57.799694,17.212782,11.289036,0.49330872
193,17.768627166748047,259.0127868652344,81.43292999267578,0.4889094758746554,1.2623338806750186,-93.02982827485697,-7.1069145,5.287427,4.6635575,47.390392,-4.0738225,5.648104,-20.72815,-5.917044,-2.7554154,44.00531,-9.213617,0.34127346,-1.8880326,-6.388096,18.565853,0.58727795,22.51768,-26.336891,39.876385,-8.772429,1.0319743,4.1255927,5.524458,-20.751038,22.268337,57.799442,17.258614,11.136296,0.4924269
194,17.96111488342285,260.10845947265625,81.04602813720703,0.11702446665856514,0.913348386019292,-93.09912321463327,-6.4179945,5.031328,3.3571572,45.648838,-5.667183,4.359115,-21.022726,-7.0715156,-4.637637,49.154934,-11.498235,-0.9130781,-1.3516196,-6.1475654,18.792332,0.55383193,22.395092,-26.256763,40.038208,-8.338534,1.0648265,4.1125126,4.1411204,-21.145214,22.37998,57.71795,17.406109,10.989054,0.56957126
195,18.155704498291016,261.1983642578125,80.60406494140625,-0.2193890914196441,0.5802445887096541,-93.1435139509365,-5.773909,4.7782106,2.1393073,43.97297,-7.609906,2.929356,-21.22644,-8.33589,-6.2548237,54.40202,-13.717122,-2.2316072,-0.8135112,-5.915542,18.984756,0.5198989,22.270895,-26.179363,40.205936,-7.84265,1.0959626,4.145738,2.7200322,-21.601646,22.46903,57.563774,17.530624,10.849856,0.6706643
196,18.334259033203125,262.2796630859375,80.11618041992188,-0.4404044176148435,0.2534092817755969,-93.16746146786782,-5.34478,4.575754,1.2954773,42.678608,-9.624865,1.7587701,-21.31468,-9.446413,-7.1937804,59.459408,-15.670903,-3.2845447,-0.29322332,-5.767456,19.187292,0.48521784,22.167688,-26.085762,40.30343,-7.3007803,1.1249685,4.208418,1.2402056,-22.111502,22.547945,57.3415,17.507439,10.720689,0.741158
197,18.507781982421875,263.36285400390625,79.59957122802734,-0.5140182319370684,-0.08580039374026821,-93.19279872128676,-5.1513433,4.4072375,0.92216384,41.86852,-11.831506,0.89483297,-21.335976,-10.262451,-7.3368335,64.382164,-17.278164,-3.9881673,0.21929957,-5.7398725,19.420132,0.4770704,22.107624,-25.972363,40.268265,-6.6779194,1.166787,4.312739,-0.33523735,-22.67486,22.639805,57.053036,17.265505,10.602799,0.7860056
198,18.684911727905273,264.444580078125,79.07423400878906,-0.4890903468498538,-0.42503144404055393,-93.21294149483477,-5.126181,4.2448444,0.861266,41.384697,-14.320513,0.13196602,-21.307253,-10.855172,-6.9769034,69.28602,-18.619297,-4.4575253,0.7271685,-5.7941747,19.662111,0.50890625,22.096918,-25.84092,40.124443,-5.9842033,1.2204214,4.4591794,-1.989522,-23.289883,22.74122,56.694233,16.884384,10.49473,0.82779783
199,18.861011505126953,265.5295715332031,78.55699920654297,-0.40110982780690085,-0.7273102905939788,-93.1916982904835,-5.31228,4.0849476,0.9822355,41.167843,-16.784853,-0.5284651,-21.181517,-11.253049,-6.356104,73.98367,-19.722939,-4.6423473,1.2069398,-5.89707,19.893496,0.5557359,22.131968,-25.682762,39.93512,-5.2994785,1.260221,4.615579,-3.6688223,-23.941936,22.818901,56.27275,16.46371,10.392507,0.8360935
200,19.022762298583984,266.611328125,78.05487823486328,-0.2878329421530522,-0.9564841376449738,-93.09219219654445,-5.7473426,3.923648,1.1491258,41.15209,-18.916578,-1.0783241,-20.914934,-11.517453,-5.695969,78.29205,-20.629356,-4.5129876,1.6379287,-6.0159507,20.09215,0.58126146,22.203905,-25.495796,39.777496,-4.7043786,1.2586238,4.7516627,-5.319594,-24.608849,22.832039,55.803448,16.09916,10.291319,0.7790434
201,19.149484634399414,267.6954650878906,77.56681823730469,-0.13377443192013114,-1.0923626789813372,-92.88643859018379,-6.4809103,3.7615917,1.3936267,41.36239,-20.677435,-1.4928026,-20.50955,-11.613592,-4.977765,82.191154,-21.352802,-3.9440439,2.0057797,-6.1706815,20.242302,0.55796343,22.31453,-25.280602,39.67241,-4.2160516,1.1927762,4.84681,-6.9507275,-25.277704,22.766691,55.28878,15.805741,10.186124,0.6055059
202,19.260284423828125,268.7667236328125,77.08696746826172,0.07048941604905934,-1.1594947002155764,-92.60189272034026,-7.48653,3.5992622,1.751741,41.834408,-22.232359,-1.7839825,-19.974174,-11.498311,-4.1488495,85.79126,-21.89379,-2.9644492,2.3289196,-6.373076,20.356369,0.5071289,22.467175,-25.042246,39.589336,-3.7926886,1.0816547,4.923943,-8.591303,-25.948067,22.64294,54.741356,15.532667,10.078992,0.3432215
203,19.3681640625,269.8450927734375,76.61492156982422,0.2839604341177618,-1.189367591220733,-92.28321960781463,-8.677685,3.4277356,2.0945787,42.50236,-23.570448,-1.996999,-19.283125,-11.261436,-3.3435736,89.09223,-22.263708,-1.8060466,2.6355057,-6.581079,20.451092,0.46416208,22.648603,-24.782661,39.533363,-3.4211357,0.96000236,5.0179567,-10.219188,-26.618921,22.470198,54.195877,15.2738905,9.975079,0.079460025
204,19.47566795349121,270.9139709472656,76.16028594970703,0.47100973874553126,-1.2123493766752556,-91.97410056863642,-9.96356,3.2323961,2.2976384,43.29489,-24.675222,-2.177491,-18.423805,-11.00804,-2.6775172,92.082245,-22.452284,-0.7164954,2.9530287,-6.751097,20.53964,0.45160142,22.83469,-24.50731,39.52591,-3.0877295,0.8619066,5.164276,-11.819631,-27.290138,22.264883,53.694984,15.02604,9.878815,-0.09769841
205,19.593883514404297,271.99560546875,75.72337341308594,0.6172234108283919,-1.2182344417763504,-91.65009420602654,-11.413188,2.9851696,2.2641845,44.30562,-25.52575,-2.345791,-17.390385,-10.764158,-2.1758754,94.76242,-22.45855,0.27450386,3.2658944,-6.8642826,20.617817,0.44375208,23.00302,-24.21244,39.611713,-2.7651017,0.77774805,5.372899,-13.40181,-27.960093,21.984592,53.26057,14.777718,9.802372,-0.15959872
206,19.714393615722656,273.05535888671875,75.32315063476562,0.745383109678876,-1.1980130552284312,-91.29875944374501,-13.038365,2.6915894,2.0810094,45.52821,-26.133253,-2.4869738,-16.197395,-10.47613,-1.770531,97.13757,-22.278345,1.282988,3.566779,-6.940311,20.673502,0.41704997,23.147846,-23.904366,39.798782,-2.4645236,0.69419754,5.6269946,-14.97998,-28.629759,21.647152,52.882595,14.53469,9.739202,-0.15386567
207,19.83757209777832,274.0947265625,74.968994140625,0.8706245100960518,-1.1827765879064496,-90.98186629277409,-14.659592,2.3893287,1.900515,46.735977,-26.525314,-2.5891829,-14.875849,-10.142334,-1.4146315,99.19368,-21.875248,2.275177,3.8936858,-6.994072,20.710926,0.4067886,23.27121,-23.596058,40.040634,-2.2264616,0.6398406,5.919562,-16.546955,-29.299847,21.361925,52.548332,14.322553,9.666825,-0.10706834
208,19.956966400146484,275.12353515625,74.6598892211914,1.0074120602392123,-1.2030035766582075,-90.76090342348155,-16.101974,2.1261218,1.8704736,47.705322,-26.728895,-2.6319218,-13.457188,-9.767242,-1.0530306,100.91339,-21.209803,3.2198427,4.280908,-7.041548,20.736683,0.45541137,23.38009,-23.29455,40.2821,-2.092557,0.64293504,6.242358,-18.089884,-29.966541,21.234253,52.235264,14.166027,9.562913,-0.046974123
209,20.0683536529541,276.1387939453125,74.3963851928711,1.1654093817340585,-1.2739714688270416,-90.65890149081568,-17.34134,1.922791,2.051071,48.438557,-26.741621,-2.5745714,-11.925265,-9.362085,-0.6515316,102.30088,-20.212355,4.0866737,4.7459583,-7.0937567,20.766853,0.57101345,23.48216,-22.997795,40.516205,-2.0666647,0.7294661,6.609895,-19.622522,-30.626781,21.28456,51.95753,14.071159,9.410299,0.039161906
210,20.171707153320312,277.1513977050781,74.1817398071289,1.3352500998872938,-1.3763272398275592,-90.63983318510013,-18.465687,1.758052,2.3518264,49.03155,-26.54677,-2.4398801,-10.284827,-8.928613,-0.22778909,103.36354,-18.90515,4.898005,5.264144,-7.1424785,20.79598,0.7385628,23.578533,-22.6989,40.75941,-2.1314166,0.8773064,7.0196633,-21.161583,-31.274757,21.471418,51.7247,14.033545,9.224226,0.1589788
211,20.27288055419922,278.1545104980469,74.01936340332031,1.5051302509481312,-1.4883614059535486,-90.67755572872457,-19.465347,1.6197327,2.6938956,49.39885,-26.151655,-2.2937272,-8.601728,-8.462535,0.19130385,104.087006,-17.385101,5.6900334,5.807409,-7.176865,20.797522,0.97216284,23.66424,-22.392529,40.988537,-2.2900681,1.0421389,7.438378,-22.661316,-31.895596,21.774616,51.478615,14.039878,9.031268,0.2753069
212,20.353824615478516,279.1575622558594,73.92081451416016,1.6629272266417412,-1.5883873340603871,-90.74611889443061,-20.33046,1.492092,2.9990385,49.459713,-25.567488,-2.1993074,-6.943123,-7.960767,0.580551,104.46077,-15.75381,6.4968405,6.3449097,-7.1900406,20.741068,1.2837892,23.731926,-22.072605,41.188114,-2.545178,1.1794667,7.8336477,-24.093279,-32.473534,22.185917,51.18307,14.082057,8.8567915,0.34912768
213,20.431344985961914,280.1545715332031,73.87918090820312,1.8158718044696969,-1.6775984957967114,-90.84778232131119,-21.053217,1.3636125,3.2586904,49.208878,-24.805086,-2.1885366,-5.3079534,-7.41942,0.95926535,104.4839,-13.894373,7.3179045,6.8725505,-7.1971936,20.613445,1.6778659,23.779696,-21.73937,41.379414,-2.9582498,1.2845871,8.210326,-25.501585,-33.00569,22.771376,50.882736,14.227034,8.696098,0.36263204
214,20.513797760009766,281.1297912597656,73.90664672851562,1.9677273908756026,-1.7639371947196134,-90.99358484037944,-21.638474,1.2424347,3.511701,48.68372,-23.856329,-2.2181647,-3.6776567,-6.8483095,1.3504672,104.16746,-11.79342,8.134751,7.401601,-7.2027397,20.42964,2.147573,23.807867,-21.39181,41.56751,-3.50591,1.376421,8.5827,-26.914295,-33.492188,23.530552,50.606842,14.4665785,8.538119,0.3363415
215,20.583412170410156,282.1062927246094,74.0007553100586,2.1045749325961536,-1.8360560998172333,-91.17095983260843,-22.091127,1.1391895,3.7531517,47.862637,-22.703108,-2.2375572,-2.090988,-6.2736917,1.7322206,103.52125,-9.715794,8.944879,7.924187,-7.184048,20.195616,2.6940663,23.807623,-21.02204,41.712196,-4.0605116,1.4474832,8.930962,-28.195297,-33.916782,24.292696,50.234097,14.631824,8.397456,0.28816038
216,20.644329071044922,283.06646728515625,74.16616821289062,2.2135507669532695,-1.882419568625019,-91.36704045411808,-22.41663,1.0642813,3.9799242,46.72269,-21.325935,-2.1961362,-0.58781606,-5.730995,2.0785887,102.55605,-7.9281936,9.7360935,8.44714,-7.121489,19.922829,3.2993329,23.772167,-20.638136,41.78365,-4.4953127,1.4921166,9.238041,-29.31733,-34.26851,24.962246,49.74439,14.626037,8.288051,0.23528211
217,20.717121124267578,284.0551452636719,74.39317321777344,2.3053593459351904,-1.8996326194483073,-91.58681513616014,-22.622803,1.0172304,4.2128267,45.284336,-19.735418,-2.0359325,0.8300088,-5.250594,2.391464,101.25217,-6.470799,10.504924,8.977903,-7.0189466,19.607454,3.9691372,23.694176,-20.225744,41.770687,-4.771201,1.5038991,9.494371,-30.266027,-34.540024,25.512148,49.12808,14.309478,8.215339,0.20906477
218,20.77696418762207,285.0489501953125,74.6783447265625,2.3830261666681496,-1.8930128312617296,-91.83417523923004,-22.703619,0.9902321,4.4563985,43.551388,-17.937275,-1.7960722,2.180872,-4.832237,2.6858397,99.61788,-5.2168164,11.237703,9.514025,-6.890621,19.241508,4.7003827,23.573578,-19.794273,41.70129,-4.9578285,1.488895,9.712013,-31.086805,-34.735928,26.010668,48.43347,13.784461,8.169677,0.18973482
219,20.839120864868164,286.0468444824219,75.01689910888672,2.434904428809313,-1.8641792341681822,-92.09420717688127,-22.643631,0.9838887,4.6814694,41.477207,-15.905648,-1.5717456,3.4597187,-4.4667916,2.960536,97.701515,-4.184609,11.912144,10.041876,-6.7277675,18.82907,5.469351,23.414385,-19.379631,41.59731,-5.0908046,1.4612036,9.9048395,-31.784126,-34.861416,26.465788,47.674774,13.285593,8.144326,0.117993675
220,20.906492233276367,287.0649719238281,75.4036636352539,2.445669759929949,-1.8152129568041149,-92.35274183639945,-22.426666,0.99894416,4.8519187,39.008026,-13.60964,-1.458749,4.657085,-4.148047,3.1948776,95.54963,-3.3890398,12.488665,10.549447,-6.519907,18.373133,6.251668,23.223911,-19.019732,41.48083,-5.2078757,1.4346673,10.086641,-32.322914,-34.923004,26.854046,46.83275,13.02177,8.134452,-0.064537324
221,20.96768569946289,288.0955505371094,75.83433532714844,2.426788052858622,-1.754220778926747,-92.61198220918331,-21.992556,1.0063671,4.941309,36.034122,-11.068357,-1.45231,5.787585,-3.9250154,3.3703864,93.12947,-2.9219215,12.9404745,11.054014,-6.2761755,17.884106,7.0387673,23.005184,-18.722088,41.356888,-5.2907357,1.4074242,10.269681,-32.683765,-34.922226,27.146053,45.877224,13.104602,8.178131,-0.43029556
222,21.024972915649414,289.14300537109375,76.28821563720703,2.381927415894079,-1.6777941154381708,-92.87772728552218,-21.367002,1.0183527,4.968664,32.615738,-8.291112,-1.5106351,6.8525896,-3.7900875,3.484711,90.43203,-2.746272,13.277476,11.557047,-5.99661,17.355345,7.8468027,22.75736,-18.468473,41.20882,-5.329067,1.3746812,10.443161,-32.85538,-34.860382,27.333576,44.79935,13.386497,8.264161,-0.92937535
223,21.071619033813477,290.20703125,76.76030731201172,2.276095125622568,-1.5711286332858265,-93.140940202821,-20.667059,1.0937375,4.958274,28.952644,-5.229428,-1.6769559,7.8286285,-3.656927,3.549662,87.52703,-2.6865833,13.525644,12.03247,-5.658078,16.775465,8.67204,22.49072,-18.26484,41.02924,-5.3792105,1.3456119,10.588171,-32.93668,-34.75429,27.512964,43.70544,13.772316,8.314225,-1.4349778
224,21.116867065429688,291.26611328125,77.2367172241211,2.079212418778793,-1.4193946544838647,-93.3911529970219,-20.016945,1.2839916,4.933517,25.247204,-1.8302935,-1.9965105,8.687227,-3.4368355,3.5823197,84.4887,-2.5681329,13.711921,12.452298,-5.2372994,16.133589,9.519871,22.21621,-18.111967,40.80129,-5.4964385,1.3294879,10.684086,-32.970215,-34.62244,27.741096,42.651855,14.131923,8.25323,-1.817797
225,21.16448402404785,292.34381103515625,77.70572662353516,1.7619819403635997,-1.2129628316773744,-93.61417454780805,-19.477745,1.5602102,4.6365404,21.486961,2.159104,-2.2001112,9.405097,-3.1114333,3.5655053,81.29861,-2.383336,13.798533,12.810775,-4.702781,15.40593,10.398864,21.933723,-18.03308,40.53027,-5.7086353,1.3326029,10.758887,-32.931305,-34.478157,28.010393,41.59212,14.462508,8.038649,-2.060093
226,21.20623207092285,293.4233093261719,78.16654205322266,1.3707833383977572,-0.9563980987562842,-93.81429343194655,-19.027313,1.8972994,4.1510696,17.667742,6.5911803,-2.3552284,10.003686,-2.7417316,3.4941642,77.92529,-2.2182763,13.79602,13.125197,-4.0951233,14.607825,11.301223,21.64165,-18.018757,40.218407,-5.9823875,1.3486283,10.811535,-32.77229,-34.323826,28.26904,40.477894,14.80696,7.7202435,-2.222651
227,21.2401123046875,294.5166931152344,78.60514068603516,0.9484252367460362,-0.6658242079299944,-94.0142057246028,-18.584915,2.3315098,3.9477782,13.849898,10.998369,-3.0345075,10.523082,-2.3370373,3.4105172,74.42396,-2.035752,13.795643,13.409234,-3.4717255,13.796494,12.210428,21.356052,-18.021044,39.834484,-6.2823296,1.3690971,10.778301,-32.58747,-34.16473,28.573889,39.430553,15.169414,7.3635993,-2.2920287
228,21.265888214111328,295.6177062988281,79.005615234375,0.46097897084700423,-0.3806794879728257,-94.26231847139145,-17.948175,2.9453015,4.4153857,9.913753,15.017737,-4.8469186,11.02632,-1.8219792,3.3683772,70.82574,-1.7760968,13.864488,13.692706,-2.8028374,13.030967,13.132659,21.096518,-17.986784,39.326256,-6.575005,1.3880147,10.593044,-32.470943,-34.003284,28.987946,38.572464,15.552393,7.0345783,-2.2528393
229,21.28099822998047,296.7068176269531,79.3146743774414,-0.37357177032813704,-0.12913151023734598,-94.67114623013813,-16.939964,4.042549,5.9185834,5.5656595,18.701256,-8.820023,11.569592,-0.8879384,3.418782,67.0297,-1.3739399,14.026993,14.04514,-1.7942101,12.252444,14.172487,20.865662,-17.887203,38.60629,-6.894691,1.4135264,10.200129,-32.44473,-33.846107,29.577908,37.909515,15.9941435,6.7089047,-2.0757608
230,21.271398544311523,297.79193115234375,79.53319549560547,-1.4874907986415313,0.08743523450590177,-95.20896282017539,-17.767012,5.6900287,7.875774,5.363053,19.930637,-14.40797,12.154075,0.3717015,3.5754156,63.001484,-0.84713936,14.246554,14.456771,-0.5100814,11.466147,15.316195,20.658762,-17.74754,37.699314,-7.2458954,1.450142,9.645166,-32.468204,-33.691544,30.305086,37.38692,16.491854,6.3688345,-1.7743506
231,21.335460662841797,298.92620849609375,79.71827697753906,-2.1301422427774095,0.312921216772006,-95.48477381097082,-18.49357,6.675996,11.33073,5.0488772,21.131418,-15.000033,12.723743,1.1093376,3.7177606,59.043888,-0.44235942,14.645845,14.61448,0.34518677,10.84771,16.438799,20.483383,-17.609373,36.688087,-7.559996,1.4902432,9.017221,-32.51448,-33.5379,31.064955,37.02841,16.958897,6.0919986,-1.3851756
232,21.36219596862793,300.1202392578125,79.89207458496094,-2.490189148284826,0.5389128827602447,-95.59819990084198,-19.117834,7.3332725,13.708146,4.800748,22.181335,-15.000033,13.206895,1.5698888,3.7774405,55.175304,-0.050929517,14.873228,14.648496,0.86243933,10.423477,17.337818,20.35181,-17.490454,35.72469,-7.7569284,1.5155965,8.3993845,-32.555878,-33.352787,31.741598,36.849953,17.299095,5.9450026,-0.9719474
233,21.319950103759766,301.3602294921875,80.04273986816406,-2.584888841975971,0.7358517035949518,-95.629435838549,-19.56477,7.765315,14.494429,4.728067,22.79625,-15.000033,13.653645,1.7990139,3.8018298,51.256145,0.32447568,14.864338,14.635846,1.0314366,10.247128,17.983604,20.302992,-17.3883,34.786327,-7.841301,1.5256736,7.7550144,-32.611557,-33.116062,32.303997,36.885956,17.447107,5.977694,-0.49624693
234,21.218528747558594,302.63800048828125,80.17198181152344,-2.4886818714956065,0.9053112809884472,-95.59994148801802,-19.86321,8.015901,14.350404,4.786424,23.02982,-15.000033,14.078296,1.8776408,3.800609,47.249783,0.7210258,14.7097,14.571055,0.9440503,10.266418,18.478806,20.346558,-17.28601,33.807037,-7.8541527,1.5279841,7.0550404,-32.69259,-32.821148,32.809086,37.13192,17.45695,6.137607,0.051462106
235,21.092201232910156,303.9333190917969,80.25287628173828,-2.2612271603867,1.0132627866699966,-95.50240217107363,-20.076685,8.027295,13.503956,4.9853215,23.041704,-15.000033,14.466431,1.8461533,3.7615967,43.41077,1.1785219,14.433852,14.490106,0.6841913,10.45041,18.792149,20.469784,-17.221252,32.89137,-7.781275,1.514095,6.400453,-32.726524,-32.47851,33.228436,37.529922,17.41135,6.339402,0.572014
236,20.97577476501465,305.23834228515625,80.27716064453125,-1.9929891846771168,1.0198628381926957,-95.33854206862642,-20.230236,7.8140936,12.216144,5.290163,22.980364,-15.000033,14.789224,1.7744521,3.672649,40.007042,1.7480958,14.044738,14.444572,0.37785366,10.765511,18.881948,20.647152,-17.246016,32.155457,-7.6067038,1.4741902,5.8959,-32.623085,-32.11592,33.52156,38.00237,17.393127,6.5018144,0.9676145
237,20.86733627319336,306.5573425292969,80.24925231933594,-1.8250735735361852,0.8172706429973526,-95.09227094463037,-20.867788,7.6203504,10.098651,7.082089,22.091364,-15.000033,15.155371,1.844882,3.5464709,36.866913,2.9062533,13.59633,14.489603,0.20170695,11.262695,18.666904,20.866888,-17.43419,31.6876,-7.2777286,1.3876019,5.5863976,-32.327183,-31.769213,33.643955,38.549034,17.450924,6.61506,1.203241
238,20.762510299682617,307.90966796875,80.16053009033203,-1.7352165199081515,0.44660845448445263,-94.7817204164691,-22.487091,7.4599195,7.058123,11.405921,19.77949,-15.000033,15.539767,2.0306597,3.3815875,33.930473,4.4759026,13.048922,14.615148,0.12342052,11.936733,18.17031,21.126257,-17.767853,31.424736,-6.817383,1.2632631,5.4141793,-31.864859,-31.458498,33.613426,39.16197,17.540812,6.7227783,1.3373405
239,20.65571403503418,309.25738525390625,80.05952453613281,-1.695922212668091,0.03130934186620331,-94.50752267851124,-23.967548,7.140269,3.9285047,15.646673,17.480997,-15.000033,15.810003,2.235786,3.1825612,31.502825,5.631421,12.232342,14.805551,0.106696,12.681779,17.542463,21.40186,-18.154026,31.23504,-6.3228316,1.1383545,5.331503,-31.291842,-31.189554,33.511814,39.775265,17.608294,6.826522,1.419638
240,20.533309936523438,310.57928466796875,79.94303131103516,-1.5675326752389886,-0.2896367567729554,-94.33387291822707,-25.384716,6.667417,1.4325788,19.711014,15.304046,-15.000033,15.796007,2.251545,2.9458373,29.96244,5.498131,11.016301,14.996624,0.0057355966,13.406013,16.932648,21.66165,-18.480556,30.995403,-5.8826365,1.0487056,5.2904425,-30.696625,-30.953001,33.444088,40.353203,17.605667,6.9264235,1.4975958
241,20.431150436401367,311.9464111328125,79.7221450805664,-1.252470085566597,-0.4405628904858795,-94.32973507471658,-26.882713,5.9998064,-0.3719959,23.751556,13.171171,-14.991427,15.342703,1.9567078,2.746783,29.686436,3.561989,9.081073,15.223791,-0.28694654,14.064956,16.347414,21.883444,-18.712992,30.712662,-5.487131,1.0017104,5.305268,-30.11151,-30.72987,33.448467,40.92923,17.51479,7.0089784,1.5456946
