unveil-humanoid-operators/unveil-humanoid-operators.github.io/feature-analysis-animation/data/feature_matrix_instances/age_waist_mean_vel_jogging_A070_jog_arc_cw_stop_003__A070.csv
Frame,root_translateX,root_translateY,root_translateZ,root_rotateX,root_rotateY,root_rotateZ,left_hip_pitch_joint_dof,left_hip_roll_joint_dof,left_hip_yaw_joint_dof,left_knee_joint_dof,left_ankle_pitch_joint_dof,left_ankle_roll_joint_dof,right_hip_pitch_joint_dof,right_hip_roll_joint_dof,right_hip_yaw_joint_dof,right_knee_joint_dof,right_ankle_pitch_joint_dof,right_ankle_roll_joint_dof,waist_yaw_joint_dof,waist_roll_joint_dof,waist_pitch_joint_dof,left_shoulder_pitch_joint_dof,left_shoulder_roll_joint_dof,left_shoulder_yaw_joint_dof,left_elbow_joint_dof,left_wrist_roll_joint_dof,left_wrist_pitch_joint_dof,left_wrist_yaw_joint_dof,right_shoulder_pitch_joint_dof,right_shoulder_roll_joint_dof,right_shoulder_yaw_joint_dof,right_elbow_joint_dof,right_wrist_roll_joint_dof,right_wrist_pitch_joint_dof,right_wrist_yaw_joint_dof
0,-1.6814868450164795,1.0098975896835327,78.080810546875,3.183467460166646,1.672367137985941,-36.30380390779065,12.36754,4.9172297,11.587385,20.394875,0.6515746,-13.793165,-26.575441,-5.35822,-15.802233,51.494854,-5.871473,-8.993455,-16.60205,-1.3622949,8.845115,-0.8601197,15.844066,-20.551344,-28.762684,13.344687,-7.7178674,5.7979765,29.669657,-12.80149,18.419819,-44.14824,-7.9502153,-3.4506166,17.994848
1,-0.8003180623054504,0.16962899267673492,78.50076293945312,3.3352242319399346,2.116646783192917,-36.75759114661976,12.670733,4.682903,11.080283,19.669537,4.399092,-14.736405,-26.297573,-4.4017305,-15.494267,46.68647,-3.7001686,-7.876769,-17.119434,-1.207741,8.1471615,-0.89456093,15.996292,-21.142477,-28.984684,12.841312,-7.672303,5.7727785,30.307074,-12.817292,18.283617,-44.35476,-8.205191,-3.4403093,17.770985
2,0.09061077982187271,-0.6565081477165222,78.88082885742188,3.6402548126431062,2.5948215090180917,-37.16122555914938,13.018137,4.228264,10.671881,18.691422,8.360206,-15.000033,-26.080292,-3.6044114,-15.035206,41.864086,-1.5014805,-6.686524,-17.677254,-1.1972138,7.384865,-0.8967533,16.221025,-21.765512,-29.274036,12.279818,-7.6162515,5.819133,30.95695,-12.802049,18.137241,-44.569584,-8.456866,-3.4351559,17.558432
3,0.9942104816436768,-1.4782251119613647,79.21737670898438,4.001026253147364,3.055641746685684,-37.56093840238582,13.416162,3.71388,10.294821,17.67263,12.152816,-15.000033,-25.83933,-2.8841634,-14.517444,37.204132,0.5571041,-5.518194,-18.207151,-1.2383568,6.6225677,-0.8523,16.498007,-22.370657,-29.60507,11.784304,-7.5677757,5.7871184,31.58379,-12.760582,17.98856,-44.781723,-8.712173,-3.4244528,17.348715
4,1.9060472249984741,-2.3005871772766113,79.4920883178711,4.456510505884369,3.4760562405696147,-37.95514858211715,13.904415,3.0974112,9.856049,16.629885,15.509993,-15.000033,-25.602348,-2.3427148,-13.966201,33.04046,2.2415817,-4.431576,-18.667774,-1.3609248,5.858809,-0.76389074,16.816172,-22.934702,-29.947554,11.475783,-7.5409007,5.5367537,32.17475,-12.69516,17.823524,-45.001316,-8.970969,-3.39895,17.136003
5,2.8240811824798584,-3.129481077194214,79.70964050292969,5.035187254758753,3.86486784895565,-38.326071344293666,14.527081,2.32988,9.290479,15.468037,18.395983,-15.000033,-25.388323,-2.0223026,-13.365153,29.394304,3.4309907,-3.4071789,-19.06437,-1.5733887,5.0629025,-0.64568144,17.17386,-23.467058,-30.278948,11.436381,-7.5287933,4.985912,32.762833,-12.606665,17.631088,-45.24675,-9.261599,-3.3525875,16.910572
6,3.7586100101470947,-3.9475646018981934,79.8735580444336,5.6920924801355275,4.230897187981889,-38.675116847688656,15.253083,1.4729818,8.631273,14.219402,20.94598,-15.000033,-25.182467,-1.8580135,-12.750238,26.093822,4.278242,-2.4339151,-19.418934,-1.8421636,4.2489934,-0.50379145,17.566515,-23.975534,-30.610758,11.587757,-7.52995,4.2211504,33.34538,-12.497221,17.418688,-45.51028,-9.57422,-3.2907312,16.677843
7,4.681676387786865,-4.762487888336182,79.9819107055664,6.3587529131649045,4.5532676649672705,-39.03320246125642,15.998986,0.6345375,7.9864264,13.103541,23.144403,-15.000033,-24.982227,-1.7891917,-12.224168,23.217226,4.9472775,-1.5783974,-19.710922,-2.137206,3.4829378,-0.33091694,17.979494,-24.435421,-30.953522,11.80808,-7.564902,3.3556452,33.856808,-12.370673,17.19906,-45.763493,-9.850858,-3.22199,16.45527
8,5.590091705322266,-5.570860385894775,80.03985595703125,6.9769442185527035,4.811075669243431,-39.439033322403155,16.663515,-0.09337572,7.4786143,12.370497,24.964777,-15.000033,-24.806976,-1.7592448,-11.868815,20.898026,5.5800333,-0.9012342,-19.914282,-2.4387877,2.8264334,-0.1207734,18.391888,-24.820255,-31.31213,11.977432,-7.6512237,2.501106,34.22915,-12.231772,16.989407,-45.97066,-10.0339365,-3.1553965,16.258572
9,6.487773895263672,-6.374983310699463,80.05525207519531,7.566761300734706,5.010893615810512,-39.903747965312846,17.235031,-0.72891986,7.1530633,12.02731,26.437706,-15.000033,-24.681274,-1.7895464,-11.685294,19.18094,6.220992,-0.26791787,-20.014137,-2.7671285,2.2662172,0.10979827,18.78719,-25.120031,-31.672949,12.101559,-7.8248715,1.6125637,34.45398,-12.084371,16.782381,-46.134552,-10.105704,-3.0838115,16.089106
10,7.377706527709961,-7.181760787963867,80.03194427490234,8.153604992029058,5.161100541465779,-40.418317536086924,17.73243,-1.3050759,6.951285,12.028406,27.554522,-15.000033,-24.617609,-1.893878,-11.626404,18.040667,6.770898,0.30900326,-20.016747,-3.1314657,1.7750139,0.34601334,19.158815,-25.351347,-32.01033,12.23416,-8.0677,0.65115637,34.565533,-11.929753,16.57439,-46.263233,-10.09706,-3.0060797,15.936267
11,8.262823104858398,-7.985342979431152,79.96510314941406,8.688268882576462,5.245563525838501,-40.99727476793384,18.12005,-1.765721,6.84599,12.489091,28.250288,-15.000033,-24.622587,-2.0072904,-11.692151,17.525076,7.144958,0.5468088,-19.917871,-3.4994817,1.3916498,0.59455043,19.50253,-25.532328,-32.31044,12.328655,-8.311634,-0.26235163,34.559376,-11.772105,16.378971,-46.329643,-10.023883,-2.9410338,15.801153
12,9.133852005004883,-8.797250747680664,79.8516845703125,9.117644902301835,5.24920169778338,-41.6504880335975,18.374203,-2.061933,6.798148,13.487387,28.463938,-15.000033,-24.698948,-2.0685863,-11.892079,17.675714,7.2569904,0.16077125,-19.718508,-3.8312519,1.1556901,0.8682482,19.8164,-25.678669,-32.567127,12.340891,-8.48669,-1.0075068,34.432766,-11.617452,16.210339,-46.31007,-9.901704,-2.9071636,15.683846
13,9.992512702941895,-9.62071418762207,79.68508911132812,9.427097446844122,5.159527745590384,-42.383316067766465,18.49216,-2.186297,6.800715,15.074671,28.126717,-15.000033,-24.88995,-2.0646229,-12.310354,18.566513,7.3139043,-1.008492,-19.41384,-4.114323,1.0874985,1.1703483,20.099228,-25.792484,-32.783855,12.246707,-8.582547,-1.5665511,34.186203,-11.471817,16.072065,-46.20766,-9.69792,-2.916974,15.581924
14,10.831206321716309,-10.44053840637207,79.4655532836914,9.64995493723752,4.9838024294131795,-43.17491080761973,18.51077,-2.165125,6.8348837,17.142784,27.305542,-15.000033,-25.153017,-2.0445485,-12.944536,20.107588,7.311933,-2.7855804,-19.019087,-4.368522,1.166118,1.4952303,20.349346,-25.865858,-32.96416,12.075581,-8.631159,-1.9998989,33.83036,-11.337769,15.954701,-46.04395,-9.415324,-2.957823,15.494928
15,11.658854484558105,-11.267749786376953,79.190673828125,9.800420469719192,4.736028628334154,-43.99244601994567,18.471745,-2.0132923,6.841756,19.507929,26.147232,-15.000033,-25.350916,-2.0198843,-13.660906,22.066065,6.864337,-4.9505177,-18.56897,-4.594671,1.3694059,1.8461049,20.564814,-25.899153,-33.10428,11.865518,-8.626133,-2.3037443,33.375443,-11.214716,15.853929,-45.82072,-9.122835,-3.0103974,15.426349
16,12.452579498291016,-12.107148170471191,78.87732696533203,9.885111799018627,4.434043903160853,-44.81240203998271,18.404129,-1.7515247,6.783038,22.00709,24.793356,-15.000033,-25.371977,-1.9671198,-14.277383,24.246613,5.565018,-7.278928,-18.088284,-4.7873363,1.6733625,2.2244918,20.7432,-25.893883,-33.19692,11.654599,-8.562049,-2.473545,32.827896,-11.09936,15.765071,-45.533695,-8.88969,-3.0554428,15.379959
17,13.231374740600586,-12.937943458557129,78.51384735107422,9.878190627880274,4.058982321103645,-45.6539667992267,18.356073,-1.4221969,6.591868,24.608839,23.155485,-15.000033,-25.19919,-1.830157,-14.734597,26.817976,3.027249,-10.04428,-17.55767,-4.919593,2.1039495,2.6399505,20.877565,-25.851086,-33.258667,11.436403,-8.399459,-2.474107,32.197926,-10.993469,15.68106,-45.187153,-8.72034,-3.0929763,15.386097
18,14.008134841918945,-13.763006210327148,78.09794616699219,9.78426880281615,3.606244294271675,-46.5173466986779,18.31961,-1.031626,6.3066587,27.352404,21.229399,-15.000033,-24.88021,-1.5365595,-15.030069,29.748552,-0.3776775,-13.244758,-16.971745,-4.980225,2.6604033,3.0643022,20.93772,-25.780096,-33.254917,11.201877,-8.155676,-2.3201942,31.505342,-10.9270935,15.599955,-44.8081,-8.5742235,-3.1301851,15.422236
19,14.817173957824707,-14.576194763183594,77.62909698486328,9.767626206277551,3.08834292316337,-47.28687677465464,18.289991,-0.6870162,5.988724,30.071867,19.352451,-15.000033,-24.504349,-1.2713331,-14.837135,32.84657,-4.1044497,-15.000033,-16.44877,-5.129006,3.2723668,3.513635,20.981995,-25.665373,-33.19827,10.964861,-7.9101057,-2.0773413,30.682066,-10.845223,15.538359,-44.33623,-8.476646,-3.1624503,15.44693
20,15.615071296691895,-15.373249053955078,77.13883972167969,9.88258622463039,2.552575676095468,-47.921185943699825,18.175049,-0.3430635,5.766334,32.771515,17.754894,-15.000033,-24.086597,-1.1562674,-14.301988,35.751823,-7.5684237,-15.000033,-16.02803,-5.4204807,3.8692093,3.9434633,21.00159,-25.513205,-33.01445,10.755348,-7.741851,-1.8177435,29.702896,-10.726064,15.510893,-43.743847,-8.4484625,-3.1835494,15.401509
21,16.37209129333496,-16.172304153442383,76.61756896972656,9.872510001809234,2.0687019000608076,-48.598349342120805,17.873264,0.3512514,5.8944416,35.721966,16.36765,-15.000033,-23.515594,-0.8293894,-13.77412,38.061222,-10.615981,-15.000033,-15.519441,-5.611015,4.4862084,4.327359,20.969748,-25.338678,-32.68247,10.480375,-7.658162,-1.5461597,28.612349,-10.602407,15.502976,-43.075718,-8.450823,-3.1749926,15.255252
22,17.091575622558594,-16.969655990600586,76.06170654296875,9.74692500927366,1.6096200506504863,-49.30776958901515,17.447964,1.3258315,6.255305,38.86683,15.084074,-15.000033,-22.842325,-0.35157794,-13.191605,40.11216,-13.620871,-15.000033,-14.938224,-5.703492,5.143098,4.6874785,20.890211,-25.13601,-32.23489,10.158384,-7.622803,-1.2305397,27.414118,-10.478266,15.510816,-42.33832,-8.485492,-3.1456373,15.041191
23,17.77760124206543,-17.76312828063965,75.49787902832031,9.500058282450635,1.2017296324047695,-49.99504031661594,16.845901,2.5397067,6.6622334,42.152706,13.775924,-15.000033,-22.138836,0.23702134,-12.680295,41.964584,-16.452194,-15.000033,-14.336883,-5.6800594,5.7867174,5.00391,20.743372,-24.909536,-31.618313,10.002571,-7.6458993,-0.89252204,26.078077,-10.327906,15.543618,-41.495224,-8.618039,-3.1283126,14.782576
24,18.428234100341797,-18.542736053466797,74.93876647949219,9.128267904161259,0.8711430183741787,-50.60580194345818,16.004732,3.9425058,6.9200563,45.527485,12.322297,-15.000033,-21.463394,0.9138057,-12.381859,43.637012,-18.952211,-15.000033,-13.760369,-5.517045,6.3779874,5.2817054,20.53885,-24.675953,-30.83094,10.219354,-7.7333107,-0.5342419,24.626778,-10.176874,15.592664,-40.584652,-8.890457,-3.1551888,14.4869
25,19.056209564208984,-19.32564353942871,74.4017105102539,8.575910783225234,0.6385124017050283,-51.119711051077516,14.856114,5.5849605,6.905177,49.076233,10.673848,-15.000033,-20.838057,1.7401929,-12.374947,45.0984,-21.02559,-15.000033,-13.242548,-5.167829,6.902634,5.527644,20.270618,-24.417456,-29.851028,10.875435,-7.8825502,-0.14595324,23.028355,-10.026227,15.661537,-39.569572,-9.399295,-3.2598362,14.136959
26,19.66889190673828,-20.113710403442383,73.89288330078125,7.851215782642414,0.48408347075437713,-51.567155931881096,13.462021,7.4647703,6.6947236,52.76653,8.922536,-15.000033,-20.22963,2.7103684,-12.565891,46.345238,-22.773026,-15.000033,-12.75467,-4.6462708,7.383125,5.7404313,19.936474,-24.133116,-28.695396,11.858006,-8.0858135,0.275152,21.30251,-9.874161,15.743428,-38.4713,-10.090004,-3.4135008,13.728853
27,20.27991485595703,-20.89102554321289,73.41999816894531,7.048586212678005,0.37237225193814066,-51.9718799022726,11.930846,9.456273,6.3921447,56.401722,7.137671,-15.000033,-19.582207,3.727526,-12.852772,47.361465,-24.282413,-15.000033,-12.257349,-4.031427,7.8298416,5.91433,19.543419,-23.846903,-27.407772,13.107491,-8.340311,0.70706594,19.5152,-9.725615,15.827865,-37.376144,-10.7921,-3.5556858,13.298603
28,20.882719039916992,-21.649362564086914,72.99728393554688,6.2665765251434244,0.2668870916539447,-52.35931499519996,10.360934,11.453338,6.118211,59.810036,5.360004,-15.000033,-18.838661,4.6994877,-13.137601,48.129147,-25.63785,-15.000033,-11.710844,-3.4055088,8.255413,6.0517793,19.104477,-23.581282,-26.036478,14.5641365,-8.645019,1.1300346,17.726799,-9.588973,15.911458,-36.362423,-11.331821,-3.6289625,12.883853
29,21.476144790649414,-22.38605308532715,72.62767028808594,5.528509436008858,0.17667126694850238,-52.7327565061722,8.727007,13.511843,5.936154,63.021385,3.54533,-15.000033,-17.993464,5.5977864,-13.438469,48.62321,-26.83928,-15.000033,-11.110572,-2.7914255,8.654213,6.1405373,18.616972,-23.334929,-24.507141,16.259651,-9.034651,1.6198627,15.897984,-9.468981,16.003954,-35.405853,-11.664461,-3.6009676,12.478205
30,22.071548461914062,-23.117748260498047,72.31193542480469,4.785393743348738,0.11138401754553756,-53.08639832573797,6.9924383,15.8176565,5.9747834,66.12415,1.6553066,-14.3795,-17.063936,6.4813533,-13.787246,48.842552,-27.83735,-15.000033,-10.470279,-2.14028,9.02662,6.1947565,18.080122,-23.094585,-22.834595,18.214231,-9.489877,2.171129,14.01691,-9.36689,16.102898,-34.484505,-11.879075,-3.509625,12.067289
31,22.670509338378906,-23.83350944519043,72.05976867675781,4.44066458546377,0.07393254926958912,-53.343929932068676,5.197345,18.165152,6.743072,68.93955,-0.19425213,-11.924531,-16.2323,6.8680873,-13.975091,49.230778,-28.869022,-15.000033,-9.870237,-1.8316594,9.277679,6.26718,17.524454,-22.856756,-21.212626,20.345552,-9.9403925,2.639578,12.17222,-9.27984,16.20928,-33.671528,-12.000258,-3.4062803,11.6713295
32,23.254629135131836,-24.55264663696289,71.86163330078125,4.13063999593319,0.0016855007421995483,-53.58729491261653,3.409667,20.363255,7.380662,71.48609,-2.04567,-9.397126,-15.281455,7.257064,-14.071986,49.41427,-29.743673,-15.000033,-9.2376795,-1.5290786,9.528942,6.4230876,16.995043,-22.624207,-19.86181,22.561134,-10.323407,2.883628,10.444094,-9.21005,16.320616,-33.03473,-12.052077,-3.3397663,11.318825
33,23.821889877319336,-25.288841247558594,71.71460723876953,3.803811465101084,-0.13378317770269296,-53.83036923983294,1.6217887,22.48531,7.894923,73.8286,-3.9407437,-6.6591206,-14.139833,7.7278857,-14.060277,49.308533,-30.457594,-15.000033,-8.556811,-1.1893022,9.817404,6.7064786,16.522743,-22.375145,-18.829952,25.042036,-10.642342,2.8662548,8.826519,-9.1554575,16.463823,-32.573048,-11.977836,-3.3115091,11.006185
34,24.381324768066406,-26.033857345581055,71.61540222167969,3.480792261247799,-0.3082575707834725,-54.063318132641086,-0.20469259,24.538403,8.324073,75.989685,-5.914166,-3.7451355,-12.840208,8.234829,-13.974311,48.932365,-31.00683,-15.000033,-7.841779,-0.83792895,10.125711,7.1078515,16.116087,-22.109667,-18.051945,27.755209,-10.939671,2.6699004,7.269411,-9.112064,16.650686,-32.24503,-11.7821865,-3.3003657,10.72187
35,24.932037353515625,-26.776548385620117,71.5656967163086,3.2128147197267154,-0.47903504025889804,-54.27165761509787,-2.0597947,26.316317,8.620377,77.835526,-7.8590345,-1.0156325,-11.489525,8.6930275,-13.838505,48.403305,-31.370686,-15.000033,-7.123455,-0.5224191,10.40598,7.6089797,15.786931,-21.863733,-17.57255,30.283371,-11.219781,2.3226767,5.7876415,-9.08067,16.861992,-32.056995,-11.580319,-3.3208635,10.480628
36,25.4854793548584,-27.544605255126953,71.5679702758789,3.0472787308723297,-0.6032968078259723,-54.44209842364119,-3.9266946,27.63378,8.767036,79.23447,-9.637622,1.1788772,-10.194197,9.020956,-13.683375,47.837185,-31.526793,-15.000033,-6.428272,-0.28912944,10.6150875,8.192208,15.549492,-21.676548,-17.438862,32.207653,-11.478927,1.8497096,4.40348,-9.066645,17.072056,-32.02763,-11.487018,-3.3867664,10.297613
37,26.025367736816406,-28.314945220947266,71.62586212158203,2.992223402212217,-0.6611065830520136,-54.56800307568786,-5.838421,28.474215,8.804533,80.19025,-11.22993,2.7843513,-8.985631,9.197713,-13.520966,47.25526,-31.48384,-15.000033,-5.7649665,-0.14197795,10.739774,8.883736,15.423085,-21.551037,-17.760614,33.46902,-11.719419,1.1404855,3.1047163,-9.074823,17.280626,-32.19568,-11.550596,-3.5099084,10.188251
38,26.560440063476562,-29.09601593017578,71.74618530273438,3.0207456071580263,-0.6778202311863794,-54.65758586509544,-7.7797875,28.93742,8.787948,80.76378,-12.667279,3.9831417,-7.8050385,9.265948,-13.339869,46.60021,-31.251009,-15.000033,-5.1080265,-0.06290738,10.811045,9.688695,15.414179,-21.480219,-18.495731,34.26396,-11.940341,0.21559481,1.8934658,-9.100947,17.494392,-32.546494,-11.700287,-3.6806629,10.1425085
39,27.100997924804688,-29.878515243530273,71.93280792236328,3.123902627923444,-0.6788763810540931,-54.72092849536438,-9.652471,29.036242,8.741152,80.91053,-13.874041,4.788803,-6.6245036,9.242815,-13.13974,45.87417,-30.80998,-15.000033,-4.4546685,-0.05466224,10.84859,10.552828,15.481023,-21.463371,-19.431074,34.56989,-12.12398,-0.7156671,0.7984202,-9.137776,17.720432,-33.00426,-11.877557,-3.8782465,10.131029
40,27.63504981994629,-30.682653427124023,72.1702651977539,3.292983575760385,-0.6892897286169449,-54.76807140787383,-11.358349,28.78609,8.682067,80.58536,-14.776145,5.2145844,-5.4166903,9.144809,-12.919394,45.078636,-30.14119,-15.000033,-3.8116739,-0.13181418,10.893246,11.489164,15.650965,-21.480719,-20.459354,34.34255,-12.244294,-1.4331915,-0.13258131,-9.198323,17.977829,-33.542328,-12.015527,-4.0803943,10.112544
41,28.169164657592773,-31.50829315185547,72.45992279052734,3.5384206635232642,-0.7159337016003443,-54.79598944304645,-12.874925,28.115067,8.596918,79.738045,-15.31236,5.1327667,-4.1760373,8.962042,-12.6682415,44.21863,-29.245266,-15.000033,-3.1267345,-0.29285613,10.933475,12.380135,15.877163,-21.62822,-21.452532,33.395374,-12.275806,-1.8872586,-0.8806376,-9.266786,18.191074,-34.16652,-12.14662,-4.299234,10.11775
42,28.710437774658203,-32.355838775634766,72.79656219482422,3.855185389552641,-0.7470072876264161,-54.802216432799625,-14.231349,27.065622,8.507364,78.39912,-15.523184,4.5892506,-2.917751,8.692794,-12.394541,43.293766,-28.131304,-15.000033,-2.4196537,-0.52606887,10.960102,13.259546,16.159233,-21.87356,-22.499878,31.813438,-12.227777,-2.1954527,-1.4751738,-9.347228,18.382046,-34.888023,-12.291021,-4.540089,10.151791
43,29.250282287597656,-33.24162673950195,73.18441009521484,4.21116780699015,-0.7797865383855016,-54.797087609797714,-15.413692,25.816555,8.468597,76.64573,-15.494537,3.8519182,-1.6471145,8.366702,-12.125463,42.301018,-26.79333,-15.000033,-1.6924098,-0.80399257,10.9757595,14.1450205,16.476728,-22.149282,-23.5578,30.011868,-12.125125,-2.378865,-1.9004747,-9.44204,18.574112,-35.657055,-12.375987,-4.7780128,10.185191
44,29.81163215637207,-34.14296340942383,73.61885833740234,4.575999614616918,-0.8108205195322958,-54.79048448299194,-16.414816,24.534529,8.530837,74.556854,-15.312997,3.1814342,-0.36780334,8.012277,-11.88703,41.2356,-25.22401,-15.000033,-0.9492834,-1.0988152,10.97829,15.047819,16.795258,-22.387367,-24.569418,28.40913,-11.998574,-2.4622173,-2.1432743,-9.5532055,18.790998,-36.4186,-12.329502,-4.987615,10.189064
45,30.383705139160156,-35.067317962646484,74.0822982788086,4.9572303923944725,-0.8585709937264916,-54.77454417691061,-17.202309,23.174026,8.697437,72.1032,-14.992386,2.6067884,0.9522267,7.6223993,-11.678945,40.077755,-23.400154,-15.000033,-0.19105783,-1.413528,10.978108,15.948876,17.089106,-22.59378,-25.493433,27.052813,-11.843946,-2.413177,-2.1814272,-9.684412,19.038485,-37.170612,-12.098849,-5.163416,10.127971
46,30.96360206604004,-36.00554275512695,74.57308197021484,5.362758730946168,-0.9191740683883476,-54.747143769518864,-17.781618,21.67067,8.932886,69.2498,-14.48951,1.9950627,2.2995105,7.188484,-11.49257,38.845444,-21.337019,-15.000033,0.5809065,-1.7509265,10.969241,16.827774,17.351124,-22.796986,-26.336115,25.750105,-11.660811,-2.2353897,-2.0282009,-9.840421,19.301754,-37.932465,-11.736066,-5.3184385,10.026549
47,31.558168411254883,-36.95885467529297,75.08234405517578,5.765009214757526,-0.954735076542796,-54.72467335215142,-18.209724,20.148369,9.23293,66.067635,-13.802125,1.3563634,3.6014185,6.7367024,-11.340875,37.591232,-19.083534,-15.000033,1.359598,-2.0871613,10.92216,17.696568,17.574835,-22.962816,-27.109686,24.558212,-11.483391,-2.0107622,-1.72093,-10.024264,19.57486,-38.691288,-11.327869,-5.4544992,9.94717
48,32.15562438964844,-37.93462371826172,75.59587097167969,6.1378982962154796,-0.9261178485065031,-54.72278021307252,-18.544228,18.721664,9.601715,62.62496,-12.924855,0.6980862,4.7871284,6.2925243,-11.235669,36.362938,-16.683558,-15.000033,2.1335528,-2.4030116,10.805485,18.574959,17.753569,-23.052088,-27.832914,23.534723,-11.342059,-1.8232737,-1.3037109,-10.237334,19.855944,-39.424526,-10.960966,-5.572432,9.95224
49,32.765045166015625,-38.93056869506836,76.11518096923828,6.494789391257825,-0.8198551023552613,-54.738881277853366,-18.762815,17.388376,10.123677,58.851387,-11.886888,0.036189884,5.853113,5.8393307,-11.187027,35.129456,-14.088398,-15.000033,2.9075751,-2.7164245,10.606716,19.465504,17.876938,-23.051805,-28.494719,22.742668,-11.249547,-1.6951666,-0.73834515,-10.47973,20.142838,-40.15175,-10.650643,-5.668455,10.065241
50,33.38279342651367,-39.93302536010742,76.62305450439453,6.842502702208564,-0.6571688247444769,-54.764955879707564,-18.836157,16.059772,10.771107,54.71915,-10.666216,-0.6571196,6.829042,5.3709674,-11.188417,33.885605,-11.29432,-15.000033,3.6808362,-3.0337543,10.34278,20.354628,17.940113,-22.984138,-29.084393,22.137688,-11.187333,-1.5858136,-0.017751183,-10.753754,20.432554,-40.876217,-10.3543625,-5.7427115,10.251267
51,33.99513244628906,-40.9501838684082,77.11556243896484,7.170966384710215,-0.45528471429955575,-54.801440828823424,-18.80909,14.695044,11.3898115,50.352947,-9.173814,-1.4228835,7.6926436,4.894763,-11.224275,32.737846,-8.421366,-14.953774,4.4254475,-3.3442519,10.0313425,21.241947,17.94909,-22.861391,-29.619606,21.615902,-11.136556,-1.4833091,0.7665838,-11.063206,20.72585,-41.554516,-10.070888,-5.8010383,10.483591
52,34.61817932128906,-41.9670295715332,77.58738708496094,7.521713425383441,-0.24299654856601563,-54.8342150693528,-18.691202,13.200367,11.845114,45.82241,-7.3075686,-2.2663429,8.41315,4.337209,-11.189421,31.852272,-5.626385,-14.212151,5.1004243,-3.6810734,9.704304,22.134771,17.917,-22.692785,-30.133095,21.07091,-11.078648,-1.3740643,1.5240812,-11.409829,21.02753,-42.150036,-9.797902,-5.849338,10.734131
53,35.248191833496094,-42.984012603759766,78.0309829711914,7.8030164759799785,0.026042648550158504,-54.89786726585315,-18.563585,11.699029,12.03686,41.10437,-4.920177,-3.1231365,8.980281,3.8548698,-11.142995,31.08716,-2.7300882,-13.465329,5.7509522,-3.9667423,9.31447,23.042183,17.85101,-22.475975,-30.634665,20.493513,-11.020675,-1.2535093,2.2601833,-11.796042,21.33747,-42.659195,-9.574846,-5.915327,11.023766
54,35.86807632446289,-44.0233039855957,78.4320068359375,8.029942352928895,0.3496144660465798,-54.98800178340988,-18.377378,10.183108,12.030164,36.137432,-2.0939598,-4.002033,9.413724,3.434181,-11.0804405,30.407146,0.28833738,-12.699282,6.3823757,-4.2185845,8.865578,23.966288,17.751577,-22.206718,-31.123896,19.930998,-10.9677725,-1.1269408,3.0177994,-12.222412,21.650803,-43.10952,-9.387982,-5.987028,11.357398
55,36.49318313598633,-45.07756042480469,78.79171752929688,8.166641855192031,0.6759856227392843,-55.111787680154585,-18.090994,8.717237,11.794073,31.102121,0.8602627,-5.0971537,9.785245,3.136011,-10.974332,29.828665,3.2217376,-11.950748,6.968116,-4.3907485,8.407565,24.910006,17.624645,-21.888418,-31.616903,19.361547,-10.898813,-0.99437857,3.7563887,-12.686006,21.968786,-43.501694,-9.156097,-6.0103693,11.684757
56,37.11246109008789,-46.13128662109375,79.10008239746094,8.166022615465915,0.9508676402683387,-55.280705843825736,-17.654982,7.394207,11.299629,26.160685,3.6462715,-6.603834,10.180691,3.0293875,-10.805892,29.349083,5.8691106,-11.259317,7.485751,-4.425283,7.9910073,25.880314,17.4796,-21.523539,-32.134678,18.76222,-10.792217,-0.8548318,4.432606,-13.181798,22.29406,-43.833935,-8.79899,-5.930536,11.956605
57,37.7248649597168,-47.18882369995117,79.34569549560547,7.9552612574107435,1.163073092603725,-55.51350691399291,-17.012556,6.3367105,10.496912,21.182552,6.239379,-8.686791,10.658851,3.201226,-10.574407,28.872168,8.269343,-10.642558,7.940048,-4.248159,7.610013,26.919554,17.3218,-21.098295,-32.7123,18.115679,-10.645148,-0.69082034,5.0257874,-13.710512,22.642681,-44.074764,-8.260613,-5.7219486,12.152276
58,38.33564376831055,-48.251708984375,79.5356216430664,7.512535032602354,1.3265845822322486,-55.819951292179006,-16.15307,5.579449,9.384419,16.057005,8.81532,-11.210506,11.222539,3.6651745,-10.289454,28.339394,10.549697,-10.091386,8.359635,-3.8387372,7.246834,28.025784,17.150578,-20.615536,-33.350212,17.43537,-10.467453,-0.5050119,5.563502,-14.275009,23.00812,-44.24062,-7.596267,-5.4160314,12.300752
59,38.9482421875,-49.305419921875,79.66181182861328,6.868970608374916,1.4254629063958169,-56.19694548753012,-15.12658,5.1131306,8.028841,11.032678,11.329806,-13.912316,11.869549,4.3736043,-9.954598,27.813269,12.636856,-9.607438,8.758757,-3.2172852,6.9322505,29.141693,16.966757,-20.10634,-34.023205,16.74615,-10.256274,-0.32658705,6.0759535,-14.871544,23.35783,-44.404648,-6.8932633,-5.0437,12.426596
60,39.5666618347168,-50.339447021484375,79.73214721679688,6.352357520569174,1.4286820872247068,-56.53169138677326,-13.801013,4.4915085,6.9755177,5.957107,13.922934,-15.000033,12.409256,4.8852696,-9.626173,27.837366,14.168926,-9.082344,9.04971,-2.6755872,6.74425,30.21363,16.77238,-19.607649,-34.70413,16.073889,-10.006764,-0.18417454,6.5939546,-15.494818,23.655703,-44.637974,-6.239327,-4.635357,12.560732
61,40.19662857055664,-51.35757827758789,79.7563705444336,5.7992513768680825,1.3722429608127218,-56.91002723992293,-14.503488,4.1597457,5.7912397,5.7079096,13.981357,-15.000033,12.8987055,5.47052,-9.148865,28.156008,15.292144,-8.587174,9.32117,-2.0719035,6.6342716,31.228859,16.56813,-19.110676,-35.377945,15.40661,-9.682647,-0.0890333,7.085671,-16.137623,23.90788,-44.906464,-5.6059637,-4.161527,12.685639
62,40.809104919433594,-52.368873596191406,79.73888397216797,5.248977577634032,1.2693452384748505,-57.320858860878346,-15.063125,3.8323486,4.4829435,5.584467,13.942146,-15.000033,13.311726,6.0727544,-8.579702,28.800201,16.010551,-8.119076,9.550009,-1.4660059,6.587028,32.20411,16.355684,-18.599264,-36.043694,14.735084,-9.297881,-0.02284062,7.532666,-16.7911,24.132174,-45.17266,-4.964352,-3.620538,12.78988
63,41.40834045410156,-53.37800979614258,79.68263244628906,4.788107187833649,1.1243727741966811,-57.739501826252265,-15.432981,3.4542015,3.2111294,5.5267615,13.939699,-15.000033,13.645792,6.490937,-8.174816,29.795876,16.328348,-7.6769886,9.754956,-0.9794112,6.5817738,33.080612,16.209322,-18.118021,-36.63185,14.088606,-8.916598,0.048944574,7.856167,-17.242922,24.285341,-45.284416,-4.4330935,-3.0878527,12.966147
64,42.00389862060547,-54.37809371948242,79.58621215820312,4.458859961193793,0.9429377630002748,-58.14684203207375,-15.578863,3.0219026,2.1329398,5.487081,14.12971,-15.000033,13.911561,6.565322,-8.186648,31.140736,16.266321,-7.278905,9.832886,-0.60064244,6.6767545,33.879078,16.051428,-17.59355,-37.18202,13.481259,-8.630147,0.09689295,8.239034,-17.75471,24.44159,-45.564396,-4.0529585,-2.6409323,13.149739
65,42.58399963378906,-55.37547302246094,79.4552230834961,4.2708611052615195,0.7221188371346984,-58.53243993145947,-15.483315,2.4943366,1.3352251,5.418639,14.83489,-15.000033,14.152121,6.2309027,-8.740517,32.820236,15.755665,-6.857239,9.824056,-0.34814987,6.860429,34.558887,15.92181,-17.084826,-37.65214,12.898343,-8.453114,0.15558867,8.646637,-18.219774,24.537487,-45.9398,-3.8762927,-2.2878113,13.432489
66,43.15629577636719,-56.3582649230957,79.27579498291016,4.166393746510357,0.47440517337844457,-58.88743914552473,-15.215955,1.9253383,0.72169214,5.3877535,15.872749,-15.000033,14.348692,5.592343,-9.706726,34.820316,14.8243475,-6.4614635,9.714049,-0.17175832,7.1060414,35.15202,15.823726,-16.578035,-38.068264,12.331884,-8.344006,0.21452358,9.048703,-18.634083,24.589178,-46.365833,-3.8550022,-1.9920107,13.788917
67,43.70398712158203,-57.33375549316406,79.05268859863281,4.14763708682312,0.21966098046151628,-59.20159835667776,-14.801424,1.3795346,0.18374866,5.3977823,16.727186,-15.000033,14.44394,4.6829176,-10.938091,37.101517,13.666202,-6.274424,9.501255,-0.07813524,7.390658,35.622482,15.757201,-16.079792,-38.396915,11.842833,-8.278401,0.24446279,9.475474,-19.008774,24.601028,-46.838844,-3.9415846,-1.765009,14.14132
68,44.218990325927734,-58.32347106933594,78.78321075439453,4.273380085660949,-0.03946246180901579,-59.48968350227463,-14.206747,0.8580994,-0.36775476,5.3895698,16.955334,-15.000033,14.388621,3.4842558,-12.251008,39.670547,12.430595,-6.449829,9.23619,-0.13966277,7.6970987,35.891956,15.74029,-15.63041,-38.54458,11.50419,-8.226716,0.23212169,9.888331,-19.255598,24.563087,-47.234646,-4.104117,-1.6172734,14.436989
69,44.688961029052734,-59.343727111816406,78.479248046875,4.583354698106432,-0.28099313831066003,-59.71950370288481,-13.509365,0.34760785,-1.0993184,5.4867344,16.459791,-15.000033,14.193316,1.9179859,-13.774774,42.50339,11.113206,-7.156747,8.861311,-0.40624687,8.024633,35.979057,15.76433,-15.179747,-38.539795,11.376674,-8.207189,0.1489105,10.334508,-19.422743,24.500967,-47.63963,-4.3819356,-1.5734596,14.649993
70,45.13506317138672,-60.300506591796875,78.24667358398438,5.139242072133304,-0.5211143373187607,-59.902976192817846,-12.679664,-0.303994,-1.8898383,5.6262164,15.640079,-15.000033,13.917046,-0.099602036,-15.496524,45.62693,9.611391,-8.243172,8.3701935,-0.9425826,8.424011,35.949837,15.859591,-14.676186,-38.471363,11.375601,-8.2323065,-3.2493266e-05,10.858224,-19.584188,24.415518,-48.158207,-4.7556677,-1.6255401,14.791425
71,45.57349395751953,-61.254905700683594,77.9687271118164,5.738782049071565,-0.7733292775110404,-60.077672085189576,-11.812178,-0.9678639,-2.5817986,5.9397054,14.513495,-15.000033,13.598067,-2.2146003,-17.114912,48.880604,8.088035,-9.447462,7.8684535,-1.5327524,8.854502,35.829,16.102697,-14.24104,-38.371716,11.392935,-8.252463,-0.1445521,11.461675,-19.705595,24.25137,-48.73226,-5.128725,-1.7239267,14.867808
72,46.028953552246094,-62.264305114746094,77.54953002929688,6.269494165206029,-1.066151300573734,-60.29971792330507,-12.285074,-1.643746,-2.9058514,9.3986845,11.430573,-15.000033,13.232592,-4.169384,-18.318985,52.169716,6.6915026,-10.480692,7.408888,-2.0336313,9.293426,35.580894,16.406769,-13.924318,-38.155537,11.355069,-8.232925,-0.29327846,12.01882,-19.695673,24.005154,-49.154022,-5.4071655,-1.8206376,14.925216
73,46.51465606689453,-63.236934661865234,77.06600952148438,6.65472649907747,-1.4398989690452462,-60.580312108136376,-13.144534,-2.130741,-2.7218802,14.2314005,6.979631,-14.826726,12.84743,-5.8593793,-19.084373,55.506924,5.528706,-11.298985,6.9773803,-2.3574474,9.774414,35.26604,16.772749,-13.689357,-37.882923,11.263358,-8.17242,-0.47880948,12.558366,-19.596497,23.692928,-49.483154,-5.547904,-1.9137434,14.936573
74,47.033817291259766,-64.15514373779297,76.54283905029297,7.146170895351288,-1.9102190454165235,-60.87252460870477,-13.449233,-2.644377,-1.9314679,18.467424,2.2391565,-13.22786,12.429653,-7.6176047,-19.513676,59.042603,4.445422,-11.936638,6.5257473,-2.748294,10.351845,34.86651,17.201645,-13.526596,-37.55147,11.16213,-8.088168,-0.69932103,13.112676,-19.428844,23.316914,-49.772926,-5.6080136,-2.0239594,14.900018
75,47.53413391113281,-65.04534149169922,75.98908233642578,7.5535589633241615,-2.344729557621873,-61.20168322723581,-13.669989,-2.9628031,-1.1568313,22.55117,-2.5612078,-12.014229,11.849868,-9.135545,-19.65071,62.543163,3.4260552,-12.479325,6.0859246,-3.061335,10.899772,34.317295,17.684513,-13.457585,-37.109093,10.98288,-7.9770255,-0.89918315,13.6563835,-19.194212,22.88756,-49.989426,-5.6203165,-2.1416602,14.83307
76,48.01968765258789,-65.92150115966797,75.40501403808594,7.900327444252082,-2.663162445909577,-61.55870060868162,-13.904093,-3.1867275,-0.46024522,26.243483,-6.8049693,-10.998037,10.985489,-10.38497,-19.481943,65.94871,2.3413112,-12.904884,5.6525893,-3.336968,11.359608,33.567455,18.205368,-13.5058365,-36.51729,10.661292,-7.834727,-1.024372,14.154029,-18.887022,22.415743,-50.085293,-5.6214476,-2.2554302,14.762655
77,48.49079132080078,-66.77395629882812,74.81922149658203,8.204476646867171,-2.833731577419165,-61.92589982586866,-14.223305,-3.3426008,0.22013883,29.553175,-10.382868,-10.1836815,9.731587,-11.300624,-18.891987,69.33434,1.1217859,-13.146432,5.210715,-3.5981107,11.708321,32.572144,18.752506,-13.691686,-35.728237,10.012993,-7.6337385,-1.0736257,14.5798645,-18.498049,21.89326,-50.048588,-5.602626,-2.348949,14.690104
78,48.91791915893555,-67.60122680664062,74.23410034179688,8.47343554809092,-2.8957102439438813,-62.30467575648504,-14.578482,-3.3838928,0.9472758,32.61509,-13.62426,-9.636246,8.144024,-11.901635,-17.939463,72.7368,-0.16590725,-13.198947,4.757794,-3.8452122,11.974456,31.35504,19.321947,-13.997521,-34.7645,9.130774,-7.386706,-1.0717764,14.944967,-18.024487,21.324879,-49.890354,-5.5516624,-2.4331357,14.605125
79,49.317527770996094,-68.42443084716797,73.67339324951172,8.708196170106868,-2.8771487547957584,-62.7163097061623,-14.875492,-3.3291605,1.6670275,35.356594,-16.55115,-9.255755,6.3473425,-12.313245,-16.86307,76.035904,-1.4439931,-13.1564245,4.306699,-4.0785837,12.176809,29.974543,19.906622,-14.390568,-33.699577,8.365085,-7.1510763,-1.0070375,15.267413,-17.470497,20.74409,-49.587605,-5.500182,-2.536932,14.516042
80,49.68987274169922,-69.23687744140625,73.15448760986328,8.91032752859257,-2.8067385041700454,-63.18364646932385,-15.019543,-3.210943,2.3193464,37.69479,-19.175154,-8.945173,4.4637713,-12.697441,-15.884031,79.10571,-2.6289217,-13.133582,3.8687768,-4.2976007,12.334057,28.494768,20.496244,-14.838829,-32.60718,8.066311,-6.9835944,-0.8724617,15.568734,-16.845549,20.183508,-49.12259,-5.479666,-2.689189,14.429971
81,50.043582916259766,-70.04255676269531,72.69557189941406,9.07951974636998,-2.652934844276458,-63.72031992844967,-15.022751,-3.0370548,2.9064932,39.590393,-21.476933,-8.695395,2.4323065,-13.106539,-14.98401,81.96625,-3.6475027,-13.155345,3.444402,-4.494906,12.417163,26.869652,21.087677,-15.371679,-31.417503,8.347072,-6.898084,-0.64114726,15.826089,-16.15063,19.630642,-48.439163,-5.453954,-2.937847,14.350744
82,50.37530517578125,-70.85491180419922,72.30281829833984,9.221179122716624,-2.4124876716942336,-64.31058201726174,-14.929869,-2.8010442,3.477822,41.105366,-23.461933,-8.550631,0.21289805,-13.479152,-14.062416,84.67355,-4.561007,-13.176898,3.026742,-4.682116,12.429017,25.092768,21.673897,-15.997559,-30.134441,9.012929,-6.861311,-0.32594526,16.046522,-15.386957,19.069647,-47.572605,-5.421748,-3.2551262,14.274134
83,50.6908073425293,-71.67630004882812,71.96882629394531,9.344513256098708,-2.156751205542095,-64.93414732967518,-14.686588,-2.5256743,4.039341,42.285294,-25.162075,-8.496606,-2.0441117,-13.838734,-13.205465,87.14621,-5.480258,-13.23015,2.6093476,-4.8838105,12.434966,23.28895,22.234749,-16.648224,-28.93185,9.95658,-6.8582716,0.014095211,16.290867,-14.572138,18.5376,-46.643345,-5.466142,-3.5557508,14.191714
84,50.98699951171875,-72.50437927246094,71.6968765258789,9.460114544308512,-1.9572174741815118,-65.57171421530289,-14.23813,-2.2360125,4.594626,43.174335,-26.608244,-8.515844,-4.189376,-14.217118,-12.501253,89.30179,-6.516145,-13.350639,2.175409,-5.120549,12.498514,21.579794,22.745546,-17.245674,-27.96633,11.074909,-6.8775635,0.3128295,16.610386,-13.735773,18.085304,-45.767536,-5.6685905,-3.7530231,14.089007
85,51.23678970336914,-73.34603118896484,71.47843170166016,9.589213366042005,-1.8404320906106857,-66.23393607677559,-13.54507,-1.9460875,5.1741157,43.761673,-27.79663,-8.625466,-6.200158,-14.705896,-11.985352,91.16527,-7.748922,-13.616786,1.7158,-5.405188,12.657308,19.955976,23.188951,-17.780107,-27.212473,12.549275,-6.911829,0.54209906,17.028612,-12.884967,17.732634,-44.938004,-6.1129313,-3.819481,13.896324
86,51.47817611694336,-74.20195007324219,71.33798217773438,9.723020490273962,-1.7656355520500557,-66.9260757876803,-12.645,-1.650364,5.7785015,44.03044,-28.71305,-8.82576,-8.156627,-15.28106,-11.5984955,92.76462,-9.099642,-13.999204,1.2268617,-5.7188234,12.86658,18.3597,23.560488,-18.281864,-26.585148,14.371986,-6.967581,0.7328701,17.508392,-12.024123,17.464193,-44.103027,-6.7327056,-3.7997634,13.636902
87,51.69835662841797,-75.08426666259766,71.2694091796875,9.827484049844081,-1.7044914189016904,-67.62082602702769,-11.596176,-1.3416337,6.3625445,44.00906,-29.369087,-9.076361,-10.061084,-15.803583,-11.295972,94.01908,-10.438719,-14.36805,0.7011018,-6.027282,13.068059,16.83339,23.859892,-18.736008,-26.148983,16.156166,-7.059693,0.9076259,18.021889,-11.188166,17.28046,-43.33304,-7.3799257,-3.717692,13.428211
88,51.89542007446289,-75.96914672851562,71.2695083618164,9.867979667641455,-1.6298372582978502,-68.290207440273,-10.457145,-1.0073379,6.8774524,43.727604,-29.77682,-9.338312,-11.910028,-16.137312,-11.046054,94.84772,-11.636199,-14.596554,0.12756605,-6.2922907,13.209026,15.42653,24.09007,-19.119482,-25.976843,17.512928,-7.205862,1.0897819,18.553335,-10.432561,17.183302,-42.713364,-7.9021535,-3.6001499,13.378329
89,52.07110595703125,-76.86903381347656,71.33343505859375,9.8355127181658,-1.54942292677362,-68.92422324327288,-9.214347,-0.6368608,7.3110957,43.16198,-29.943073,-9.619731,-13.706719,-16.26063,-10.864939,95.233475,-12.67665,-14.67098,-0.51435333,-6.50896,13.2932205,14.167907,24.247955,-19.39805,-26.133541,18.339338,-7.446066,1.2682537,19.118177,-9.803621,17.204073,-42.3021,-8.366077,-3.4166815,13.489645
90,52.23141860961914,-77.77997589111328,71.46586608886719,9.749021353798167,-1.4750853552662557,-69.53814400455322,-7.847357,-0.2386866,7.6912074,42.307064,-29.859304,-9.9367895,-15.445087,-16.251425,-10.776542,95.21543,-13.621341,-14.65493,-1.2238945,-6.6822386,13.349291,13.032686,24.330627,-19.582308,-26.569893,18.841995,-7.7646456,1.4385185,19.743362,-9.312943,17.33991,-42.08105,-8.803755,-3.1657894,13.694009
91,52.370906829833984,-78.69207763671875,71.65642547607422,9.61542568746068,-1.3865328437478301,-70.14216538479417,-6.404519,0.17326479,8.026685,41.223854,-29.515001,-10.263805,-17.102962,-16.12738,-10.763879,94.79431,-14.453533,-14.537909,-1.9720085,-6.790213,13.364389,11.989352,24.345198,-19.722748,-27.19363,19.097824,-8.094845,1.6341426,20.43378,-8.958489,17.530153,-42.02553,-9.012969,-2.9180055,13.996278
92,52.50560760498047,-79.62725830078125,71.91149139404297,9.4410668419482,-1.2632316607913412,-70.74670054105859,-4.93293,0.5854499,8.32469,39.970276,-28.898094,-10.574896,-18.658354,-15.904656,-10.808231,93.9721,-15.157809,-14.310067,-2.722526,-6.8125663,13.328217,11.005087,24.305696,-19.87562,-27.917109,19.181637,-8.368062,1.889429,21.1999,-8.728498,17.708319,-42.117737,-8.792952,-2.7409484,14.403851
93,52.639060974121094,-80.58525085449219,72.22588348388672,9.216343038191882,-1.0960136365954554,-71.34240191505249,-3.42542,0.99477696,8.567631,38.49778,-28.009775,-10.879391,-20.122257,-15.535533,-10.890614,92.71445,-15.754104,-13.874418,-3.4745219,-6.737791,13.236873,10.07993,24.223707,-20.058954,-28.792482,19.053053,-8.561147,2.2477062,22.068588,-8.628022,17.853188,-42.393784,-7.9538403,-2.664951,14.986841
94,52.76814270019531,-81.56851196289062,72.58514404296875,8.94156576631926,-0.8990804205777944,-71.92767287659039,-1.8660988,1.4054056,8.757198,36.797924,-26.85419,-11.186443,-21.4896,-15.038486,-11.029538,91.024925,-16.24652,-13.2714815,-4.2311797,-6.5774136,13.101174,9.2168255,24.094538,-20.254913,-29.831482,18.69287,-8.714063,2.6813068,23.035141,-8.65061,17.985138,-42.856606,-6.647333,-2.634014,15.724107
95,52.88581848144531,-82.5726547241211,72.98741912841797,8.637252368121421,-0.6860550126175218,-72.52537786829957,-0.29231858,1.8153472,8.927969,34.997063,-25.42862,-11.466259,-22.716621,-14.516245,-11.260354,88.96336,-16.595844,-12.6889925,-4.97534,-6.349712,12.9383955,8.42799,23.928972,-20.440762,-30.936954,18.198776,-8.851819,3.1194906,24.060688,-8.77594,18.113966,-43.439438,-5.182437,-2.5918458,16.478828
96,52.99136734008789,-83.60730743408203,73.43109893798828,8.32264604161929,-0.46962536484748524,-73.15990948555587,1.2571431,2.2255814,9.114284,33.226463,-23.733732,-11.686639,-23.761137,-14.05302,-11.621033,86.58953,-16.76102,-12.30217,-5.6812663,-6.0762672,12.759614,7.710589,23.73729,-20.604258,-31.993755,17.669786,-8.996208,3.4906962,25.094074,-8.961922,18.243464,-44.057137,-3.8765557,-2.4989123,17.12003
97,53.08115005493164,-84.67210388183594,73.90228271484375,7.987392066264324,-0.2581677398449313,-73.84393224640831,2.8090017,2.643155,9.30486,31.471338,-21.753143,-11.825039,-24.58874,-13.658471,-12.180805,83.8712,-16.71887,-12.150493,-6.33002,-5.7534566,12.570544,7.055689,23.52807,-20.758932,-32.994045,17.071297,-9.159513,3.8092446,26.128908,-9.182852,18.364779,-44.701458,-2.7327352,-2.344923,17.663923
98,53.16191482543945,-85.76555633544922,74.39582824707031,7.625537125917303,-0.04443247115752667,-74.56615528271455,4.359432,3.0669885,9.49023,29.702412,-19.50497,-11.898391,-25.218245,-13.257307,-12.911588,80.78725,-16.502695,-12.118586,-6.9275594,-5.380961,12.363067,6.464692,23.30691,-20.91158,-33.98939,16.369886,-9.327652,4.1020126,27.174221,-9.43189,18.471384,-45.388107,-1.6188421,-2.155736,18.172758
99,53.225093841552734,-86.88374328613281,74.90434265136719,7.264027445477217,0.18310822156243986,-75.31551160402108,5.824249,3.4827764,9.70185,28.031534,-17.042828,-11.926311,-25.695663,-12.797478,-13.697385,77.41344,-16.14545,-12.139199,-7.487737,-4.987909,12.124335,5.950214,23.081207,-21.035301,-34.95266,15.664714,-9.479264,4.3159165,28.192896,-9.691384,18.575855,-46.053623,-0.65096664,-1.961826,18.585754
100,53.263694763183594,-88.01799011230469,75.42386627197266,6.930201493332155,0.43660134567809517,-76.08020899829847,7.1250587,3.8771412,9.96972,26.563108,-14.412435,-11.9305525,-26.070583,-12.242334,-14.41663,73.82091,-15.680308,-12.157938,-8.026783,-4.606348,11.839495,5.5275774,22.860428,-21.10038,-35.85803,15.054183,-9.59102,4.397755,29.139973,-9.93626,18.695864,-46.62421,0.052748844,-1.79704,18.84554
101,53.28702163696289,-89.17743682861328,75.94495391845703,6.620151958110974,0.7248200619899714,-76.87772056357471,8.254611,4.260319,10.313734,25.308779,-11.571754,-11.912749,-26.344467,-11.570967,-15.065901,69.95462,-15.140502,-12.265374,-8.533121,-4.2425237,11.497846,5.2186794,22.651525,-21.07597,-36.719837,14.57403,-9.643399,4.283712,29.991035,-10.1481285,18.854868,-47.054394,0.38742602,-1.6754138,18.916231
102,53.29722595214844,-90.35426330566406,76.47024536132812,6.325218234954245,1.038435812862954,-77.71058284454061,9.241074,4.6346684,10.709237,24.243185,-8.524578,-11.861209,-26.489979,-10.791839,-15.698772,65.79385,-14.504488,-12.446005,-8.9977255,-3.8907418,11.107845,5.0125723,22.460321,-20.984259,-37.550888,14.166392,-9.649499,4.019691,30.757679,-10.322777,19.040428,-47.371277,0.4344542,-1.5829182,18.844864
103,53.287261962890625,-91.53555297851562,76.97559356689453,6.066548547282801,1.3639904917469896,-78.54098316638687,10.070073,4.9776917,11.116083,23.392845,-5.3723445,-11.783916,-26.521606,-9.932968,-16.267086,61.4558,-13.712508,-12.500555,-9.44098,-3.5634477,10.682528,4.8727193,22.294565,-20.877493,-38.319668,13.789691,-9.6347885,3.7183702,31.454447,-10.456621,19.215807,-47.61319,0.35615417,-1.5109705,18.697214
104,53.26014709472656,-92.72371673583984,77.45194244384766,5.865709713129991,1.689487915381783,-79.32900885900922,10.728139,5.269422,11.492559,22.781233,-2.2063882,-11.69307,-26.458397,-9.038222,-16.715937,57.048935,-12.69509,-12.244383,-9.881299,-3.275356,10.23529,4.765183,22.171425,-20.81275,-39.002045,13.400933,-9.624908,3.4957142,32.095226,-10.538886,19.340778,-47.820038,0.31458372,-1.4510045,18.541666
105,53.23373031616211,-93.9261245727539,77.90668487548828,5.720041650948641,2.033651675733241,-80.06816453320725,11.163312,5.5260277,11.869177,22.43793,1.1087261,-11.554122,-26.30072,-8.0625725,-16.95572,52.440536,-11.326351,-11.575843,-10.329312,-3.0225723,9.755026,4.7073684,22.115225,-20.791466,-39.608917,12.985087,-9.633492,3.389167,32.678715,-10.558088,19.414139,-47.991474,0.32013315,-1.3889216,18.36591
106,53.20984649658203,-95.14295959472656,78.33145141601562,5.62028549395373,2.398701300110035,-80.77342748834822,11.402229,5.759904,12.24295,22.326805,4.5898385,-11.39762,-26.032694,-7.0130477,-17.017435,47.590385,-9.65932,-10.628055,-10.785639,-2.788062,9.23376,4.6949625,22.0805,-20.783384,-40.12336,12.572495,-9.647186,3.3261335,33.210495,-10.547,19.459915,-48.125767,0.29915357,-1.3328248,18.135399
107,53.18461608886719,-96.36203002929688,78.71414184570312,5.577408794053905,2.749664243159259,-81.43442898822845,11.558265,5.9372683,12.518105,22.351982,7.9707174,-11.333331,-25.66436,-6.0187993,-17.033018,42.760246,-7.889898,-9.572572,-11.24141,-2.5883684,8.703209,4.71776,22.067808,-20.798237,-40.568928,12.168945,-9.646061,3.2822587,33.69161,-10.51115,19.46598,-48.235306,0.28834274,-1.3090277,17.901955
108,53.16565704345703,-97.57615661621094,79.04774475097656,5.60292056264473,3.051143953848862,-82.04253878165943,11.752619,6.01337,12.600049,22.406523,10.982344,-11.461197,-25.22181,-5.2056003,-17.151201,38.234314,-6.2184777,-8.573698,-11.646611,-2.4515705,8.185514,4.7057624,22.078182,-20.898043,-40.912403,11.78459,-9.607172,3.2396405,34.11645,-10.387558,19.39638,-48.299088,0.31016496,-1.34292,17.737753
109,53.14511489868164,-98.80178833007812,79.33172607421875,5.716781509973065,3.30229040381496,-82.58139084972211,12.0327,5.930878,12.417666,22.38737,13.625855,-11.842536,-24.692717,-4.627445,-17.446766,33.983105,-4.6185274,-7.6131315,-12.04105,-2.3829916,7.6813807,4.707387,22.127048,-21.057838,-41.20409,11.414519,-9.511044,3.202776,34.503593,-10.219895,19.246529,-48.346348,0.41741022,-1.46351,17.654419
110,53.11968231201172,-100.04322814941406,79.56611633300781,5.91086088973056,3.521684972004764,-83.05651491837187,12.349827,5.7067137,12.019788,22.330292,16.038736,-12.431621,-24.084171,-4.2073255,-17.83404,29.880419,-2.99858,-6.6202445,-12.430872,-2.37163,7.1779113,4.7293406,22.211596,-21.267569,-41.43557,11.056425,-9.373613,3.181375,34.850986,-10.012768,19.031267,-48.377773,0.5813635,-1.6498264,17.617987
111,53.107147216796875,-101.28466796875,79.74933624267578,6.152550900881121,3.703199786632037,-83.49502490378678,12.683646,5.4079533,11.5104475,22.334944,18.154306,-13.141563,-23.464348,-3.8838665,-18.237467,26.101303,-1.478691,-5.6827173,-12.785883,-2.4057856,6.7000813,4.7613397,22.322433,-21.512848,-41.612186,10.71114,-9.230623,3.158644,35.12713,-9.769782,18.78223,-48.391743,0.730049,-1.8544874,17.596321
112,53.09414291381836,-102.5238265991211,79.8816909790039,6.405719609291095,3.840802797875048,-83.9251315421603,13.004334,5.115431,11.010781,22.522741,19.899548,-13.865877,-22.901194,-3.6107485,-18.58573,22.841106,-0.1969552,-4.896757,-13.0776,-2.4694128,6.2733026,4.791303,22.44516,-21.777933,-41.729946,10.3801365,-9.117963,3.115789,35.302597,-9.497675,18.533688,-48.388664,0.79217476,-2.0302718,17.55462
113,53.08327102661133,-103.74566650390625,79.9714126586914,6.740299622709611,3.9533311429407676,-84.32958749545594,13.322836,4.7657557,10.5664625,22.828985,21.26262,-14.56234,-22.523232,-3.5249348,-18.850508,20.348003,0.6649862,-4.2986813,-13.323524,-2.6185358,5.8574395,4.798631,22.570646,-22.072104,-41.776966,10.038801,-9.034964,3.038022,35.384483,-9.198353,18.27836,-48.383602,0.7370575,-2.1625829,17.479258
114,53.0719108581543,-104.96785736083984,80.0132827758789,7.133547817939552,4.040673960208191,-84.70856916312903,13.634531,4.401967,10.241918,23.267275,22.260336,-15.000033,-22.286108,-3.6136975,-19.090399,18.51335,1.1920713,-3.843786,-13.524069,-2.8209078,5.45459,4.7828193,22.695156,-22.401482,-41.742325,9.697151,-8.966143,2.934993,35.38433,-8.872729,18.00121,-48.36878,0.60736024,-2.2770402,17.388426
115,53.05825424194336,-106.17852020263672,80.01178741455078,7.509055467436295,4.087763982194289,-85.09205059597458,13.904563,4.144264,10.148134,23.950531,22.948286,-15.000033,-22.109024,-3.754331,-19.307934,17.191904,1.5548669,-3.4880636,-13.65116,-3.0230625,5.1093006,4.7634497,22.812012,-22.743143,-41.630665,9.408466,-8.925695,2.8230188,35.2831,-8.53122,17.725409,-48.313316,0.44101876,-2.386837,17.294926
116,53.03556823730469,-107.3751449584961,79.95004272460938,7.820022413637073,4.084368399956247,-85.50255018415909,14.106722,4.018754,10.150526,24.929255,23.416283,-15.000033,-21.941303,-3.8595753,-19.488808,16.29225,1.9027649,-3.1840568,-13.690213,-3.203171,4.8523917,4.76804,22.913574,-23.06798,-41.453335,9.226015,-8.928548,2.716942,35.063175,-8.191992,17.476044,-48.18995,0.27735242,-2.505535,17.209145
117,52.99691390991211,-108.5673828125,79.83294677734375,8.090203336619782,4.0150311959889855,-85.92269557711643,14.242375,4.022531,10.269603,26.240192,23.723568,-15.000033,-21.716892,-3.9463654,-19.644962,15.679586,2.5043306,-2.6326861,-13.654707,-3.3864799,4.6920304,4.80162,22.995733,-23.371876,-41.206017,9.166127,-9.006067,2.608554,34.7455,-7.8686686,17.255453,-48.030193,0.12926657,-2.6441352,17.138813
118,52.951080322265625,-109.74726867675781,79.66149139404297,8.327231597071602,3.8895804897307347,-86.35356349132266,14.31671,4.15577,10.471908,27.86388,23.802485,-15.000033,-21.482067,-4.0380373,-19.77563,15.447037,3.1961646,-1.9566612,-13.549425,-3.5673254,4.614522,4.856465,23.056612,-23.661486,-40.88751,9.200304,-9.142305,2.4918225,34.33943,-7.566013,17.054163,-47.845802,-0.021333292,-2.7935815,17.07077
119,52.905433654785156,-110.9291763305664,79.43242645263672,8.465455617742935,3.7369439316557056,-86.84016804311175,14.324301,4.462794,10.709155,29.740736,23.559818,-15.000033,-21.348867,-4.0667224,-19.855982,15.832546,3.4868016,-1.7356055,-13.348232,-3.6770253,4.617177,4.9410243,23.09221,-23.925219,-40.516933,9.314281,-9.281456,2.3846786,33.81149,-7.291441,16.878616,-47.588417,-0.18313234,-2.9375472,16.9852
120,52.85921859741211,-112.10736083984375,79.14978790283203,8.449308554882624,3.5829019987220074,-87.42254095435668,14.272743,4.9543786,10.934605,31.780869,22.920238,-15.000033,-21.42475,-3.9733036,-19.863928,17.06244,2.902977,-2.549103,-13.032411,-3.6552532,4.695921,5.066986,23.097662,-24.14846,-40.115013,9.494119,-9.367632,2.3041434,33.12929,-7.054311,16.73724,-47.21125,-0.36434695,-3.0596516,16.861439
121,52.786224365234375,-113.26236724853516,78.83950805664062,8.251216480603988,3.4260292264244265,-88.1227361876495,14.189965,5.619697,11.146738,33.96517,21.770922,-15.000033,-21.872984,-3.7247367,-19.719524,19.520462,1.1904542,-5.047788,-12.582737,-3.4680686,4.860951,5.2473397,23.067434,-24.326344,-39.696857,9.756667,-9.368352,2.2467146,32.28494,-6.8607183,16.627108,-46.703278,-0.56605077,-3.1604917,16.695377
122,52.713096618652344,-114.39540100097656,78.48059844970703,7.958390445750537,3.2332521271299375,-88.89709713427231,14.109758,6.375263,11.3437195,36.273582,20.21653,-15.000033,-22.550117,-3.3239923,-19.399584,22.857405,-1.2081355,-8.752304,-12.037644,-3.2026799,5.1117496,5.477078,23.00141,-24.462656,-39.253098,10.103123,-9.318876,2.2022882,31.308615,-6.7127714,16.55012,-46.107044,-0.7832195,-3.2466166,16.49392
123,52.63833236694336,-115.5279769897461,78.07308197021484,7.647943222551239,2.996070081798802,-89.69799815588898,14.018862,7.1571717,11.497155,38.66175,18.490795,-15.000033,-23.132074,-2.7599802,-18.985197,26.262846,-3.8003938,-12.549246,-11.454899,-2.939109,5.4262733,5.741591,22.903948,-24.554224,-38.757286,10.495657,-9.265563,2.180684,30.215239,-6.612881,16.521933,-45.437645,-1.0141973,-3.3111057,16.252748
124,52.58330535888672,-116.66717529296875,77.61046600341797,7.367314883251538,2.7197293886496157,-90.48244921211027,13.8808155,7.9366903,11.586961,41.107685,16.816057,-15.000033,-23.359713,-2.128893,-18.551878,29.139956,-6.33235,-15.000033,-10.887038,-2.7227697,5.7809434,6.0324507,22.784739,-24.595718,-38.196636,10.894835,-9.255086,2.1961076,29.012094,-6.5650625,16.558578,-44.709404,-1.2551402,-3.3474932,15.966475
125,52.53902816772461,-117.79582214355469,77.11395263671875,7.276136107771428,2.343303502101714,-91.1893595089313,13.784236,8.506295,11.591558,43.516678,15.254892,-15.000033,-23.194738,-1.8164132,-18.005394,31.775906,-9.250738,-15.000033,-10.402929,-2.708592,6.1958704,6.3428054,22.639236,-24.584972,-37.573006,11.278679,-9.290508,2.2484138,27.69406,-6.5659833,16.674974,-43.911808,-1.5128368,-3.343388,15.607601
126,52.46060562133789,-118.8917007446289,76.58053588867188,7.0837489471662805,1.964452436803323,-91.99151485134709,13.630759,9.270095,11.778546,46.105927,13.584619,-14.662971,-22.743269,-1.3282312,-17.576496,34.109226,-12.462696,-15.000033,-9.825172,-2.608634,6.6590443,6.6948795,22.475422,-24.519152,-36.91444,11.669328,-9.349568,2.335387,26.259768,-6.6157727,16.866558,-43.05127,-1.7827474,-3.3054209,15.184285
127,52.36264419555664,-119.96163177490234,76.0240249633789,6.745888567039187,1.6253205273324487,-92.8231823633111,13.309634,10.237672,11.945054,48.862522,11.881113,-14.248306,-22.188839,-0.6551915,-17.25697,36.203465,-15.6084175,-15.000033,-9.213237,-2.3671813,7.127614,7.084535,22.286974,-24.40152,-36.183064,12.099654,-9.442951,2.462343,24.6961,-6.7128673,17.106724,-42.120808,-2.0519662,-3.2561686,14.751101
128,52.25469970703125,-121.00404357910156,75.47574615478516,6.227673728415796,1.363349979052072,-93.61366559402926,12.719603,11.455405,11.995843,51.767937,10.222207,-13.734723,-21.680952,0.22555369,-17.04908,38.044506,-18.274696,-15.000033,-8.6293335,-1.9384217,7.558972,7.500967,22.061554,-24.23896,-35.337795,12.60417,-9.581037,2.6334834,22.996422,-6.8553777,17.366282,-41.12626,-2.307974,-3.2191544,14.3619795
129,52.14523696899414,-122.0291748046875,74.95285034179688,5.521972375744998,1.2114606623423936,-94.34395067418389,11.799344,12.990651,11.943104,54.862835,8.676661,-13.037388,-21.300768,1.3165277,-16.954607,39.6665,-20.36022,-15.000033,-8.097159,-1.3221251,7.91039,7.9334607,21.787716,-24.034786,-34.35569,13.244071,-9.804141,2.8651588,21.129625,-7.0422406,17.636007,-40.047363,-2.600126,-3.192802,14.05397
130,52.02042007446289,-123.0442886352539,74.45849609375,4.615201665059981,1.1323247612698437,-95.05761072169992,10.624488,14.800923,11.767819,58.130554,7.195444,-12.254898,-20.912256,2.6203127,-16.96317,41.033394,-22.080957,-15.000033,-7.573973,-0.5087855,8.216378,8.372893,21.460663,-23.79215,-33.24843,13.987184,-10.092658,3.1502676,19.118147,-7.27094,17.92386,-38.906094,-2.9185245,-3.1681387,13.789651
131,51.896690368652344,-124.04371643066406,73.98760223388672,3.68316623962187,1.091622150544365,-95.72577882761951,9.270019,16.62623,11.4959545,61.385796,5.737858,-11.39974,-20.495447,3.9035106,-16.993813,42.24294,-23.590431,-15.000033,-7.072861,0.34527123,8.485937,8.812298,21.0797,-23.515574,-32.013203,14.726604,-10.368616,3.4550357,17.033455,-7.533525,18.233143,-37.753567,-3.1621642,-3.1588514,13.509285
132,51.76035690307617,-125.03575134277344,73.54756927490234,2.926923111924996,1.0616806803771197,-96.31252478610917,7.792161,18.209156,11.177629,64.46326,4.252635,-10.451754,-20.068438,4.921117,-16.977457,43.41166,-25.036192,-15.000033,-6.61127,1.0561423,8.727751,9.249156,20.648153,-23.210087,-30.650076,15.3541155,-10.555513,3.7426908,14.941144,-7.8204927,18.569592,-36.634533,-3.2308784,-3.178169,13.156435
133,51.62444305419922,-126.00059509277344,73.15750122070312,2.407712865736407,1.0599984862177068,-96.8112621731873,6.1592765,19.513577,10.821565,67.374504,2.6773622,-9.343796,-19.686987,5.6262794,-16.923016,44.582333,-26.420223,-15.000033,-6.2013288,1.5584825,8.931988,9.695506,20.157896,-22.854948,-29.08912,15.839985,-10.636265,4.0072207,12.782002,-8.1307125,18.9725,-35.48327,-3.0083191,-3.249822,12.681019
134,51.53007507324219,-126.95040893554688,72.8287353515625,2.0172703452395884,1.0958709952200378,-97.23940608031087,4.3382716,20.671713,10.386902,70.20278,1.0404512,-8.096185,-19.333511,6.1674075,-16.883389,45.67632,-27.660572,-15.000033,-5.831525,1.9514467,9.104825,10.149485,19.606491,-22.453138,-27.351826,16.241592,-10.652516,4.2619553,10.544145,-8.462026,19.430202,-34.30364,-2.5794344,-3.3635445,12.1259365
135,51.45338821411133,-127.86894226074219,72.55364990234375,1.7135571362808348,1.1311579331480914,-97.60044508184522,2.3934278,21.678682,9.879107,72.87945,-0.5687781,-6.8114457,-18.916847,6.5981297,-16.855764,46.61142,-28.767307,-15.000033,-5.4764686,2.2860334,9.280682,10.591329,19.016247,-22.050129,-25.577776,16.580425,-10.616161,4.501988,8.35565,-8.799104,19.87471,-33.222656,-2.1447089,-3.4793189,11.577319
136,51.381080627441406,-128.76632690429688,72.33430480957031,1.455108580336678,1.1268926823517553,-97.89728873224117,0.39554244,22.53159,9.31788,75.33071,-2.0534651,-5.5913496,-18.342089,6.9645734,-16.830887,47.303455,-29.751295,-15.000033,-5.106899,2.6064494,9.490685,11.006097,18.427277,-21.696045,-23.916779,16.875957,-10.53701,4.7290483,6.3348503,-9.123047,20.235546,-32.34847,-1.9068965,-3.5518477,11.126931
137,51.291893005371094,-129.66180419921875,72.16204071044922,1.2468904485914156,1.0578627386512094,-98.11945338064675,-1.652984,23.267988,8.748002,77.59709,-3.3835661,-4.3682227,-17.556253,7.253856,-16.816607,47.72272,-30.634878,-15.000033,-4.716343,2.8963873,9.763411,11.40257,17.862162,-21.392027,-22.347208,17.1251,-10.374742,4.975759,4.472217,-9.420338,20.511322,-31.65853,-1.8913934,-3.553685,10.789266
138,51.19211196899414,-130.55160522460938,72.04288482666016,1.1078393946042497,0.9508551839739323,-98.26811273137098,-3.7832227,23.87678,8.163067,79.70124,-4.6166453,-3.1111128,-16.615168,7.455422,-16.820503,47.908688,-31.403227,-15.000033,-4.3166313,3.1277835,10.075373,11.802062,17.328344,-21.11726,-20.83342,17.313332,-10.135892,5.2385507,2.6991787,-9.688476,20.7381,-31.080618,-2.0017817,-3.510989,10.526692
139,51.073211669921875,-131.43112182617188,71.97819519042969,1.0158789562809634,0.8438859836926682,-98.36456186074571,-5.9702015,24.282387,7.519869,81.54182,-5.772897,-1.9812574,-15.586994,7.611967,-16.825768,47.885605,-32.012615,-15.000033,-3.909542,3.3259192,10.379307,12.217378,16.850637,-20.885183,-19.508265,17.443052,-9.899795,5.469013,1.0418612,-9.930098,20.905998,-30.642342,-2.257998,-3.4565878,10.352184
140,50.955562591552734,-132.3053741455078,71.96597290039062,0.9479669280408219,0.7747941536290629,-98.42958482091537,-8.187024,24.40635,6.781806,83.019714,-6.864271,-1.1456945,-14.541877,7.7619143,-16.812658,47.680332,-32.41892,-15.000033,-3.4938514,3.5153053,10.631685,12.666843,16.465794,-20.712574,-18.519026,17.51416,-9.744752,5.6228857,-0.46406826,-10.150361,20.999306,-30.386635,-2.6782322,-3.4241912,10.277841
141,50.828189849853516,-133.17694091796875,72.00794982910156,0.8951296183284387,0.7471791273604088,-98.44381861947808,-10.478456,24.17236,5.881697,84.15089,-7.9295955,-0.651388,-13.479781,7.9025736,-16.791899,47.282356,-32.631104,-15.000033,-3.0851207,3.7070594,10.839642,13.168919,16.211369,-20.618538,-17.967455,17.523432,-9.684987,5.706824,-1.8153387,-10.350513,20.989534,-30.360445,-3.3635228,-3.421209,10.361842
142,50.69285583496094,-134.0428924560547,72.100830078125,0.8686693948089074,0.7425643757869281,-98.40459654724629,-12.822153,23.638277,4.8937626,84.97637,-8.938599,-0.40882736,-12.367604,8.015449,-16.767546,46.68355,-32.668335,-15.000033,-2.6754696,3.877549,11.0278225,13.7358675,16.098988,-20.588638,-17.793472,17.459202,-9.67828,5.7460003,-3.0279415,-10.529233,20.893269,-30.53636,-4.269088,-3.4344447,10.579565
143,50.53961944580078,-134.91688537597656,72.24739074707031,0.8766931503623306,0.7654234226660709,-98.35784976695507,-15.090721,22.939535,3.989956,85.425674,-9.798353,-0.3791466,-11.224162,8.110121,-16.7087,45.916294,-32.50339,-15.000033,-2.2318335,4.0015492,11.178218,14.372806,16.11659,-20.585974,-17.897978,17.311468,-9.719032,5.7204366,-4.0960956,-10.6909275,20.761274,-30.848883,-5.194514,-3.4647892,10.817685
144,50.36244201660156,-135.8029327392578,72.45305633544922,0.9276551984359661,0.8203816636441382,-98.34976002531478,-17.166336,22.223595,3.3315327,85.42815,-10.423395,-0.5198913,-10.071817,8.192607,-16.584902,45.021633,-32.114162,-15.000033,-1.7230062,4.057976,11.271717,15.077053,16.235939,-20.572584,-18.17043,17.075466,-9.80235,5.6074195,-5.0100126,-10.845138,20.644548,-31.232391,-5.9396143,-3.5078015,10.961227
145,50.17159652709961,-136.69796752929688,72.71021270751953,1.0137578759076824,0.927568176398621,-98.37747245080843,-19.080475,21.455442,2.8755856,84.95108,-10.771788,-0.9376637,-8.91842,8.280272,-16.39361,43.96317,-31.4859,-15.000033,-1.1459396,4.06115,11.286365,15.832813,16.447289,-20.562836,-18.619389,16.71765,-9.960694,5.368237,-5.7538934,-10.997758,20.541075,-31.718834,-6.5203347,-3.5639052,10.973409
146,49.965797424316406,-137.6143798828125,73.02074432373047,1.1310091469145351,1.0774814689642362,-98.42185964177384,-20.868124,20.601978,2.5664215,84.029686,-10.89852,-1.6126914,-7.7532983,8.360437,-16.14727,42.74232,-30.636051,-15.000033,-0.51704544,4.0216303,11.238868,16.636953,16.748785,-20.566767,-19.27717,16.254148,-10.184174,5.0191402,-6.3343897,-11.150998,20.427036,-32.33118,-7.020075,-3.6321945,10.914231
147,49.75318145751953,-138.54835510253906,73.37974548339844,1.295189347011027,1.2318749167192713,-98.50294006426921,-22.429764,19.802778,2.5267189,82.687546,-10.848647,-2.3315544,-6.5620093,8.395391,-15.836637,41.430695,-29.57043,-15.000033,0.1649397,3.914214,11.166599,17.499931,17.112001,-20.541117,-20.050594,15.760242,-10.406351,4.6208253,-6.7674546,-11.31131,20.321089,-32.996754,-7.341375,-3.703316,10.813488
148,49.534751892089844,-139.51968383789062,73.78910827636719,1.5229758672271658,1.3536023698775035,-98.64007769737073,-23.668222,19.183958,2.8789222,80.94873,-10.662142,-2.8920581,-5.3348103,8.344826,-15.454229,40.106754,-28.297848,-15.000033,0.89553785,3.717641,11.1035385,18.425333,17.490389,-20.438648,-20.830734,15.318512,-10.56452,4.232705,-7.073649,-11.489425,20.248186,-33.634377,-7.3873844,-3.7685788,10.700988
149,49.306392669677734,-140.5030517578125,74.23811340332031,1.830295095316755,1.4286361077568883,-98.84896951897635,-24.501839,18.832117,3.7973135,78.759995,-10.362731,-3.3232675,-4.059219,8.189581,-14.969619,38.784336,-26.813284,-15.000033,1.6922864,3.4244742,11.057233,19.39819,17.847305,-20.240917,-21.584063,14.952007,-10.638628,3.7989297,-7.2465014,-11.699749,20.209917,-34.234924,-7.0584955,-3.833554,10.553688
150,49.08900451660156,-141.51473999023438,74.72932434082031,2.205321864773747,1.480139346392289,-99.11347259818497,-24.985558,18.616186,5.178156,76.12194,-9.912078,-3.744966,-2.754299,7.9458413,-14.399839,37.437687,-25.118681,-15.000033,2.5456252,3.0581865,11.008349,20.39582,18.170492,-19.978085,-22.328583,14.629829,-10.666096,3.3052912,-7.27393,-11.949082,20.196753,-34.837997,-6.430461,-3.9012473,10.36306
151,48.867366790771484,-142.5534210205078,75.25196075439453,2.623345178401438,1.5266875323793316,-99.4049110284102,-25.227884,18.35351,6.741784,73.142296,-9.289035,-4.0625005,-1.458779,7.6229553,-13.816624,36.09577,-23.25111,-15.000033,3.410829,2.6450355,10.948974,21.408888,18.45109,-19.676146,-23.031197,14.354706,-10.673193,2.8758037,-7.168706,-12.233516,20.215082,-35.434776,-5.669535,-3.9588535,10.18143
152,48.649871826171875,-143.60354614257812,75.7974624633789,3.056371290016578,1.5864030263601356,-99.6949400947082,-25.356894,17.89119,8.189617,69.92931,-8.484136,-4.162816,-0.20955044,7.236644,-13.29185,34.784637,-21.243876,-15.000033,4.241073,2.2109654,10.869933,22.43046,18.68279,-19.357113,-23.665209,14.128477,-10.687402,2.6342165,-6.9470463,-12.53898,20.273035,-36.012234,-4.943432,-3.99182,10.060911
153,48.421607971191406,-144.6731414794922,76.35397338867188,3.537148893174317,1.6580004368293935,-99.9829269240607,-25.379051,17.201172,9.551467,66.46791,-7.511659,-3.7883782,1.002773,6.736113,-12.818865,33.49859,-19.081097,-14.880728,5.0389285,1.7201209,10.775894,23.45303,18.857267,-19.021877,-24.207281,13.9950075,-10.716315,2.6463203,-6.591406,-12.856452,20.372879,-36.55277,-4.194489,-3.984312,10.008198
154,48.19720458984375,-145.76551818847656,76.91439819335938,4.15651751152802,1.715684140924134,-100.24421041986014,-25.18692,16.2407,11.011132,62.666294,-6.377307,-3.0384796,2.162735,5.965685,-12.380881,32.36467,-16.832497,-14.255668,5.7830057,1.0874306,10.694036,24.474148,18.970577,-18.660025,-24.664116,13.942771,-10.747486,2.8340125,-6.105224,-13.186117,20.50792,-37.056118,-3.3723462,-3.9474108,10.000007
155,47.96558380126953,-146.86866760253906,77.46317291259766,4.757685249119029,1.7845313669635001,-100.501748279499,-24.875822,15.139962,12.326182,58.62876,-5.0956855,-2.401737,3.2494574,5.1882496,-11.985827,31.304457,-14.474729,-13.605668,6.475561,0.46282518,10.587748,25.505207,19.029581,-18.269903,-25.070713,13.889487,-10.777411,3.1046712,-5.5459304,-13.527166,20.675474,-37.5312,-2.6546082,-3.9041317,10.046584
156,47.730628967285156,-147.97689819335938,77.9906005859375,5.264767335693041,1.871045513944974,-100.74545576644859,-24.490995,13.931117,13.300118,54.390537,-3.6311991,-2.3264449,4.2376547,4.4952526,-11.670582,30.34394,-12.043657,-12.956751,7.086754,-0.08039157,10.439256,26.560123,19.047594,-17.849459,-25.462147,13.750806,-10.802957,3.3674781,-4.9694104,-13.876345,20.873167,-37.986122,-2.2186267,-3.8779972,10.158764
157,47.479801177978516,-149.1055450439453,78.49825286865234,5.677819579066783,1.9765963118713805,-100.96708724554952,-23.994024,12.575271,13.860791,49.791737,-1.8375984,-2.9317226,5.1337566,3.8818145,-11.462871,29.457888,-9.470376,-12.3174,7.6113405,-0.5499082,10.243641,27.662315,19.032497,-17.390099,-25.852566,13.487959,-10.831672,3.6329737,-4.3638163,-14.229355,21.09937,-38.428764,-2.1391585,-3.8711383,10.373688
158,47.210147857666016,-150.23744201660156,78.97492980957031,6.0272107352571,2.095480764850693,-101.17656639077751,-23.353146,11.080728,14.077324,44.814335,0.25803062,-3.9679232,5.955396,3.320148,-11.326092,28.63383,-6.7515306,-11.6733465,8.0663,-0.978071,10.010424,28.805067,18.98577,-16.890812,-26.235931,13.148639,-10.862976,3.9403777,-3.7054627,-14.584801,21.35253,-38.857346,-2.3138378,-3.8735452,10.676823
159,46.94010925292969,-151.37725830078125,79.41339874267578,6.274874856717309,2.222611440102812,-101.39357653841398,-22.627964,9.575044,13.958976,39.70958,2.4449027,-5.325642,6.710822,2.8743985,-11.202869,27.887598,-4.0120635,-11.016633,8.45791,-1.3209102,9.740129,29.961313,18.912664,-16.35921,-26.627663,12.776246,-10.881189,4.2421308,-3.0384855,-14.94511,21.631292,-39.262085,-2.6520271,-3.890589,11.001903
160,46.65343475341797,-152.5285186767578,79.7928466796875,6.381118963825066,2.353018283454729,-101.63880232935074,-21.885626,8.200996,13.537354,34.743336,4.5028996,-6.892056,7.4159355,2.6095471,-11.039356,27.221169,-1.3715719,-10.338041,8.795201,-1.531959,9.432674,31.105827,18.820456,-15.804584,-27.048088,12.413471,-10.869616,4.491402,-2.4060788,-15.315018,21.934937,-39.63598,-3.0621653,-3.9262376,11.282318
161,46.36028289794922,-153.68019104003906,80.1202163696289,6.298663600076933,2.493596033665935,-101.92866035088919,-21.11225,7.0353484,12.780535,29.843182,6.376785,-8.716792,8.073678,2.5812593,-10.840239,26.587654,1.2651757,-9.678435,9.09673,-1.5685406,9.064566,32.264854,18.710909,-15.211954,-27.511751,12.076134,-10.828653,4.680261,-1.8146337,-15.701736,22.275301,-39.980286,-3.5807757,-3.980906,11.510691
162,46.0615234375,-154.83798217773438,80.39273834228516,6.033291654566173,2.636286193988045,-102.26105573197306,-20.229086,6.063454,11.6810465,24.838242,8.209045,-10.820033,8.714992,2.7773914,-10.619834,25.938871,3.9552758,-9.028237,9.367044,-1.4362369,8.64578,33.44808,18.581646,-14.5826235,-28.02211,11.737819,-10.764569,4.8344407,-1.2360284,-16.10821,22.646185,-40.308323,-4.234152,-4.053233,11.718507
163,45.76689529418945,-155.9904022216797,80.61432647705078,5.6233260075119516,2.754199731309856,-102.62909978248204,-19.23086,5.298913,10.3276825,19.883324,10.052063,-13.047105,9.40386,3.1624684,-10.339448,25.261284,6.5247297,-8.301382,9.596836,-1.1566548,8.225331,34.605057,18.43574,-13.95447,-28.567154,11.377598,-10.668161,4.9580274,-0.6611378,-16.530027,23.020025,-40.632595,-4.915166,-4.141813,11.896768
164,45.47477722167969,-157.14190673828125,80.77857208251953,5.253580667422657,2.8201270657720476,-102.96179024690171,-18.014889,4.5551925,8.962274,14.903588,12.086778,-15.000033,10.09371,3.501297,-9.995612,24.806017,8.641327,-7.362194,9.713696,-0.8900196,7.8705306,35.690895,18.28132,-13.369925,-29.14112,10.974317,-10.529694,5.055979,-0.08391257,-16.95982,23.368135,-40.96189,-5.517213,-4.243916,12.039182
165,45.20702362060547,-158.29458618164062,80.88977813720703,4.837023525392744,2.827487849756226,-103.2949603866273,-16.632498,3.9065073,7.823558,9.97986,14.269794,-15.000033,10.885702,3.9134216,-9.516407,24.392801,10.314948,-6.097469,9.75165,-0.5336852,7.5745993,36.736668,18.121367,-12.829867,-29.770836,10.527789,-10.328036,5.1436024,0.4657931,-17.39612,23.700294,-41.278683,-6.0692463,-4.3707824,12.139812
166,44.94012451171875,-159.44015502929688,80.94961547851562,4.289755975199068,2.786988582452743,-103.67443793841603,-15.447127,3.5264802,6.405362,5.8445334,16.156761,-15.000033,11.8017845,4.510368,-8.913671,23.910715,11.711508,-4.622576,9.754668,-0.031204075,7.3094573,37.75453,17.958069,-12.317786,-30.449816,10.045997,-10.074175,5.215154,0.98858106,-17.836946,24.027378,-41.579384,-6.6087365,-4.5188084,12.202752
167,44.6709098815918,-160.58485412597656,80.95933532714844,3.7366840657911555,2.70556672459792,-104.07389123905884,-15.913759,3.4226582,4.912968,5.6606,16.093712,-15.000033,12.6951885,5.102771,-8.284236,23.625792,12.805849,-3.1328416,9.715859,0.4943008,7.096352,38.668915,17.806076,-11.847161,-31.112387,9.519666,-9.80586,5.243439,1.5268478,-18.272554,24.324743,-41.878708,-7.044648,-4.6628447,12.239933
168,44.391883850097656,-161.70169067382812,80.93602752685547,3.2614087127718414,2.5951459135060837,-104.46231027643056,-16.202263,3.3016596,3.7359314,5.574337,16.15279,-15.000033,13.424539,5.5583158,-7.745994,23.773954,13.598569,-1.8391137,9.625331,0.95654905,6.944787,39.404633,17.689203,-11.435353,-31.695765,8.937818,-9.559248,5.203895,2.1305761,-18.687479,24.562155,-42.197586,-7.2859564,-4.7781343,12.265254
169,44.111122131347656,-162.81661987304688,80.87431335449219,2.9188957507964686,2.452772654055569,-104.8213875063002,-16.24968,3.094944,2.9868557,5.4622846,16.520792,-15.000033,13.931471,5.8308005,-7.259236,24.484457,14.060799,-0.70950425,9.491298,1.2807649,6.828452,39.93421,17.656618,-11.115548,-32.167267,8.216014,-9.3087635,5.098855,2.7005274,-18.911,24.719692,-42.352757,-7.29098,-4.8557343,12.336933
170,43.834529876708984,-163.92750549316406,80.76322937011719,2.6109052679259506,2.303934879406416,-105.14225877886508,-16.17529,2.9129632,2.494363,5.43398,17.100029,-15.000033,14.262429,6.0447783,-6.8381834,25.60642,14.212941,0.31908393,9.230698,1.5799992,6.751139,40.37917,17.658861,-10.793195,-32.658665,7.358937,-9.0526085,4.9139194,3.320651,-19.15367,24.886019,-42.557045,-7.088509,-4.9060583,12.365167
171,43.54957580566406,-165.02671813964844,80.62342834472656,2.4376035362048425,2.154103222625122,-105.41875105843214,-15.942868,2.6944997,2.2401435,5.394688,17.724415,-15.000033,14.399836,6.023018,-6.6572227,27.163012,14.018091,1.133809,8.891839,1.754291,6.734456,40.64903,17.712986,-10.516354,-33.055836,6.560613,-8.835143,4.6905837,4.036166,-19.439226,24.99661,-42.83866,-6.7835875,-4.9473805,12.351077
172,43.23078918457031,-166.11146545410156,80.44688415527344,2.409167027741559,2.0193432602395096,-105.64825675670787,-15.587816,2.471835,2.1348293,5.3709326,18.15155,-15.000033,14.364189,5.6900496,-6.8846264,29.066374,13.505616,1.5967764,8.50856,1.7806387,6.742857,40.653137,17.813538,-10.329334,-33.215664,6.032013,-8.699966,4.4659,4.7582664,-19.655756,25.013912,-43.039368,-6.5076547,-4.9952283,12.338689
173,42.881160736083984,-167.16966247558594,80.23939514160156,2.569994376547053,1.9196100199110662,-105.81141472147354,-15.143056,2.21425,2.2931173,5.3816237,18.598465,-15.000033,14.162441,4.9436994,-7.649188,31.309889,12.597917,1.6281804,8.048051,1.6051854,6.774888,40.382595,17.965054,-10.209284,-33.128925,5.831902,-8.700161,4.2386446,5.508781,-19.811651,24.940292,-43.183903,-6.2660866,-5.0702114,12.333372
174,42.50167465209961,-168.201904296875,79.98999786376953,2.932304202798092,1.8287187638053293,-105.92666155322722,-14.558074,1.8463209,2.711774,5.3915,19.13459,-15.000033,13.824399,3.781908,-8.796831,33.92116,11.308605,1.3066057,7.5204663,1.2242855,6.8442,39.86395,18.167585,-10.159579,-32.83427,5.855969,-8.799584,3.9958296,6.2796392,-19.905655,24.792797,-43.263737,-6.005368,-5.158624,12.3289385
175,42.152469635009766,-169.1937713623047,79.76519012451172,3.376948244680529,1.7105403182356844,-106.04028833720906,-13.843921,1.4251784,3.0912325,5.4992685,19.250286,-15.000033,13.417281,2.381854,-10.081579,36.78847,9.842088,0.7154191,7.069582,0.7339019,6.972387,39.18065,18.59063,-10.219098,-32.477043,5.970625,-8.909962,3.7801945,7.202282,-19.976566,24.49525,-43.43557,-5.733763,-5.2276483,12.290873
176,41.825016021728516,-170.1752471923828,79.52986907958984,3.7975543586558813,1.527457178638133,-106.19842989679279,-12.973976,1.02165,3.1742306,5.7397184,18.461933,-15.000033,12.987794,0.9241529,-11.273066,39.820747,8.400303,-0.057156608,6.6131344,0.25954437,7.148821,38.451897,19.057959,-10.304834,-32.093533,6.1466026,-8.956533,3.53776,8.026149,-19.966677,24.230482,-43.476917,-5.4941688,-5.2343135,12.188384
177,41.469505310058594,-171.16860961914062,79.17792510986328,4.113757246535665,1.2418595726517931,-106.41618719986243,-13.854319,0.8081688,2.6900816,10.38858,14.1032295,-15.000033,12.60435,-0.53688776,-12.4480095,42.999313,7.021564,-1.1474298,6.1665845,-0.113886155,7.3994927,37.7007,19.573559,-10.405261,-31.710316,6.4347744,-8.919149,3.223274,8.796018,-19.90036,23.994038,-43.42693,-5.3105636,-5.1548514,11.988126
178,41.09207534790039,-172.1723175048828,78.72210693359375,4.248684397115664,0.8619852860333475,-106.69847775719627,-14.9906645,0.7476668,1.8795764,16.205822,8.305801,-15.000033,12.297903,-1.9204057,-13.667896,46.264626,5.646109,-2.5958257,5.743911,-0.30455846,7.7249613,36.891747,20.13837,-10.5455885,-31.305012,6.8539214,-8.841493,2.8553886,9.54994,-19.794077,23.751547,-43.320847,-5.160594,-5.012552,11.717886
179,40.76078796386719,-173.1548309326172,78.21751403808594,4.381497603507228,0.43258933984810144,-106.99251184371204,-15.752261,0.56425196,1.5227305,21.449606,2.6760051,-13.4042,11.946704,-3.332999,-14.699816,49.68035,4.2263536,-4.0503855,5.3097553,-0.46795997,8.117747,36.005352,20.74151,-10.75979,-30.877577,7.2743416,-8.736677,2.518243,10.2629,-19.663727,23.490803,-43.179176,-4.993879,-4.8429317,11.4296255
180,40.47658920288086,-174.13186645507812,77.68303680419922,4.698096759715208,0.04045976242411414,-107.26452848946923,-16.072107,0.13194968,1.7802632,25.495333,-1.877872,-10.880996,11.386126,-4.8519316,-15.319428,53.254116,2.7791312,-5.181362,4.839346,-0.8026413,8.524612,34.99261,21.366295,-11.069211,-30.389347,7.5659776,-8.618581,2.2924986,10.887249,-19.514935,23.214767,-42.994247,-4.760887,-4.684555,11.167283
181,40.19200897216797,-175.08705139160156,77.10527038574219,5.025346666056762,-0.26995221388924595,-107.55978033403194,-16.221087,-0.121283755,2.4107332,28.79306,-5.5308013,-9.378252,10.57231,-6.222312,-15.519188,56.902687,1.4130566,-6.023062,4.3767195,-1.1613654,8.896351,33.817673,22.001387,-11.478991,-29.799274,7.6504073,-8.476736,2.1789935,11.4003725,-19.34731,22.928617,-42.732685,-4.391309,-4.5488214,10.910008
182,39.90913772583008,-176.00405883789062,76.50879669189453,5.377425754280818,-0.5292182207508679,-107.87136462932237,-16.261488,-0.20722686,3.2931454,31.706327,-8.841319,-8.513158,9.54467,-7.495504,-15.413807,60.671795,0.09641229,-6.684378,3.9096496,-1.5537753,9.253945,32.490475,22.642365,-11.977052,-29.1176,7.612931,-8.309043,2.13882,11.825255,-19.160778,22.634033,-42.40576,-3.9296458,-4.4173703,10.640018
183,39.639949798583984,-176.8983917236328,75.9090576171875,5.720556637019078,-0.7248657201604333,-108.2175814392338,-16.222767,-0.18174787,4.243533,34.307705,-11.917253,-7.993707,8.309924,-8.583074,-15.015552,64.41286,-1.1372414,-7.151101,3.4515054,-1.9464866,9.575945,31.029217,23.280579,-12.556002,-28.37565,7.568321,-8.141723,2.19297,12.172225,-18.950071,22.337172,-42.051067,-3.4995708,-4.283758,10.404249
184,39.37390899658203,-177.75729370117188,75.31180572509766,6.0157526156901,-0.8464535838698353,-108.61885455028536,-16.127064,-0.1339219,5.060629,36.638763,-14.830843,-7.5316467,6.8752728,-9.398183,-14.340176,67.97949,-2.2538228,-7.4187393,3.0151703,-2.29896,9.842103,29.45626,23.904919,-13.20713,-27.605856,7.632663,-8.00059,2.3610399,12.447733,-18.708046,22.04515,-41.707005,-3.2263827,-4.139431,10.252606
185,39.09981155395508,-178.58819580078125,74.73062896728516,6.254371915953591,-0.875048809194631,-109.08899177368167,-15.997532,-0.081256956,5.708309,38.700592,-17.603407,-7.1256213,5.174981,-9.840932,-13.268773,71.3962,-3.2274177,-7.3688655,2.6047645,-2.6030693,10.038011,27.74836,24.510061,-13.948211,-26.77999,7.821465,-7.889616,2.6978827,12.595902,-18.433235,21.767149,-41.33676,-3.075804,-3.965289,10.1922455
186,38.820350646972656,-179.40948486328125,74.18128204345703,6.458786012725929,-0.820430938951733,-109.61247526715348,-15.826692,0.033592165,6.3095984,40.496735,-20.206766,-6.904962,3.2250087,-9.946371,-11.864193,74.74313,-4.096246,-7.017891,2.2098515,-2.8836465,10.178676,25.907818,25.08853,-14.775466,-25.904785,8.077687,-7.794429,3.1763892,12.631137,-18.125225,21.495106,-40.935715,-3.0060508,-3.7703457,10.200821
187,38.53168869018555,-180.21470642089844,73.67947387695312,6.627847407478741,-0.7164586566087797,-110.1680214043207,-15.580835,0.20082468,6.888883,42.036526,-22.612904,-6.7766933,1.156188,-9.859868,-10.402896,77.940926,-4.910199,-6.5848722,1.8177632,-3.1462018,10.288195,24.001513,25.623167,-15.641462,-25.061857,8.411575,-7.712808,3.6909103,12.655476,-17.77777,21.21624,-40.572037,-3.1314116,-3.5874512,10.284396
188,38.2342529296875,-181.00357055664062,73.22425079345703,6.7666437209795856,-0.5970560531395128,-110.7349894493002,-15.225356,0.4007994,7.466957,43.32245,-24.789188,-6.6461363,-0.91588277,-9.766764,-9.140431,80.90433,-5.704475,-6.3149247,1.4092721,-3.3955047,10.387502,22.0977,26.094744,-16.492487,-24.326166,8.8374,-7.6436744,4.1321015,12.757552,-17.38079,20.92895,-40.300297,-3.567166,-3.4498641,10.449544
189,37.912479400634766,-181.78564453125,72.82877349853516,6.876427203151256,-0.4460758862760644,-111.32411802408423,-14.758054,0.632017,8.08248,44.327972,-26.749842,-6.4798417,-3.0424206,-9.699626,-8.054949,83.65561,-6.433577,-6.2771816,0.9728464,-3.6331978,10.457162,20.181368,26.497036,-17.330393,-23.666708,9.426778,-7.5813046,4.50204,12.9050865,-16.928417,20.6464,-40.097374,-4.4708843,-3.372049,10.744556
190,37.572208404541016,-182.56884765625,72.48924255371094,6.956580578008882,-0.25409018544419903,-111.94128235115437,-14.193205,0.8977405,8.72409,45.056404,-28.501875,-6.3343005,-5.264194,-9.587855,-7.0331697,86.226494,-7.0856977,-6.35568,0.5126019,-3.856944,10.491493,18.2321,26.828438,-18.164564,-23.053734,10.154547,-7.5262685,4.844844,13.052319,-16.421425,20.372509,-39.926796,-5.743204,-3.3408208,11.152913
191,37.20343017578125,-183.36178588867188,72.20649719238281,7.010512243793757,-0.06515174107446468,-112.55945040537138,-13.520687,1.1764822,9.337425,45.55137,-30.000277,-6.239404,-7.464988,-9.496422,-6.171916,88.53609,-7.73554,-6.5365024,0.028702682,-4.0646935,10.528898,16.30865,27.078949,-18.952324,-22.55674,10.894114,-7.4910307,5.1115947,13.260186,-15.859164,20.102152,-39.82051,-7.1106043,-3.3447292,11.581862
192,36.81843185424805,-184.15162658691406,71.98413848876953,7.040058657118469,0.07649987546044301,-113.15146621675353,-12.730391,1.4495018,9.869673,45.855656,-31.19758,-6.2258573,-9.530747,-9.504564,-5.5679116,90.503975,-8.464881,-6.8162913,-0.48240715,-4.254575,10.605587,14.466323,27.236946,-19.652258,-22.231657,11.521402,-7.4915175,5.2507906,13.583934,-15.241312,19.838608,-39.803406,-8.300328,-3.364574,11.938851
193,36.4116325378418,-184.9167938232422,71.82722473144531,7.05589254614383,0.1434761527405871,-113.71319968048516,-11.809802,1.7039258,10.310334,45.991848,-32.08094,-6.2969546,-11.448787,-9.683349,-5.2487535,92.14524,-9.317762,-7.238055,-1.0252365,-4.4315686,10.753004,12.680631,27.29499,-20.257229,-22.067911,12.022474,-7.554439,5.205831,14.059379,-14.553129,19.572744,-39.90956,-9.350418,-3.4059243,12.204216
194,35.974273681640625,-185.6821746826172,71.74649810791016,7.055475797366714,0.1634928974727566,-114.2581759496449,-10.768162,1.9492029,10.694464,45.9314,-32.67247,-6.434102,-13.28172,-9.9996,-5.150466,93.49108,-10.24389,-7.802345,-1.5991696,-4.594942,10.937435,10.9199295,27.255774,-20.795229,-22.009518,12.46169,-7.668565,5.01579,14.636746,-13.791045,19.317814,-40.09645,-10.372694,-3.472425,12.427021
195,35.52330780029297,-186.44569396972656,71.7418212890625,7.0235676000137435,0.1747517515249677,-114.78574681476444,-9.629408,2.2016814,11.03426,45.641563,-32.978092,-6.6338787,-15.026142,-10.373107,-5.2332306,94.480316,-11.180329,-8.433242,-2.1986535,-4.7321644,11.100162,9.231789,27.126774,-21.280302,-22.054544,12.83315,-7.793095,4.772585,15.254284,-12.982755,19.107098,-40.293083,-11.201727,-3.5355976,12.61617
196,35.0439567565918,-187.21075439453125,71.80915069580078,6.943480243172154,0.21524694187127574,-115.29474721877297,-8.417915,2.4757817,11.33872,45.09053,-33.00793,-6.8909707,-16.677273,-10.715947,-5.4604545,95.050285,-12.056776,-9.0443125,-2.8196986,-4.825766,11.189091,7.6702843,26.917713,-21.718742,-22.209927,13.128436,-7.8861966,4.567857,15.8665,-12.177216,18.969517,-40.450176,-11.666095,-3.5661514,12.775115
197,34.54524612426758,-187.98614501953125,71.95091247558594,6.802891510448414,0.29734609835152503,-115.76424954145614,-7.1438603,2.7807574,11.593169,44.253807,-32.76761,-7.2162185,-18.24,-11.045787,-5.8909917,95.17076,-12.912518,-9.641542,-3.4754643,-4.8578143,11.201017,6.2445507,26.62749,-22.102524,-22.533804,13.364895,-7.9298687,4.410358,16.52345,-11.404826,18.908682,-40.620735,-11.59648,-3.5412705,12.856898
198,34.0159797668457,-188.7615203857422,72.1549301147461,6.610012376432073,0.3986036714958522,-116.20185249431397,-5.7955213,3.1079226,11.797979,43.156986,-32.25311,-7.6077366,-19.703272,-11.388033,-6.53384,94.87621,-13.767779,-10.247564,-4.1656737,-4.8283215,11.169703,4.9325714,26.254786,-22.428368,-23.012676,13.538253,-7.9492188,4.2575245,17.257576,-10.671985,18.911276,-40.8513,-11.1140785,-3.4775555,12.86299
199,33.46502685546875,-189.56112670898438,72.42615509033203,6.380586166186488,0.5051530190615868,-116.64964570305347,-4.364812,3.446035,11.985368,41.843628,-31.452015,-8.043022,-21.034517,-11.671087,-7.2868075,94.19358,-14.526813,-10.811168,-4.8623314,-4.7485814,11.100077,3.7466996,25.813244,-22.708473,-23.553242,13.608901,-7.965656,4.1245165,18.00121,-9.997967,18.969706,-41.08025,-10.483929,-3.4047582,12.870826
200,32.89054489135742,-190.3703155517578,72.7569808959961,6.1313834971936565,0.6030562522020307,-117.14982725375961,-2.8420982,3.7803578,12.187174,40.353844,-30.348866,-8.498979,-22.208971,-11.82778,-8.045627,93.153534,-15.091673,-11.288308,-5.537869,-4.632078,10.999677,2.7088215,25.32532,-22.950136,-24.078716,13.533798,-8.00004,4.027786,18.692991,-9.408188,19.073797,-41.26162,-9.96792,-3.3514256,12.955829
201,32.29249572753906,-191.1927490234375,73.1357192993164,5.859010500302456,0.6817057811691091,-117.71549748119013,-1.1777081,4.101055,12.397206,38.62005,-28.94103,-8.985623,-23.208628,-11.841133,-8.812961,91.7335,-15.4438095,-11.661945,-6.1927247,-4.4775558,10.883373,1.8558133,24.802738,-23.132252,-24.625076,13.243659,-8.066435,3.9833777,19.332617,-8.924521,19.239742,-41.411133,-9.574085,-3.319464,13.126488
202,31.671480178833008,-192.0335235595703,73.5593490600586,5.5563773785391515,0.7499637582171101,-118.32421174463951,0.6048445,4.4119244,12.5983,36.647728,-27.234459,-9.50798,-24.042969,-11.736409,-9.644426,89.92264,-15.634032,-11.950538,-6.8429103,-4.27565,10.751583,1.1852765,24.24889,-23.24756,-25.244461,12.776198,-8.150449,3.9813035,19.961523,-8.552986,19.466604,-41.568497,-9.176009,-3.2934725,13.338235
203,31.014854431152344,-192.8936309814453,74.02510070800781,5.237414884925394,0.8233971907689034,-118.96510872598647,2.4021215,4.7160625,12.803895,34.598415,-25.235277,-10.034001,-24.733982,-11.515383,-10.50718,87.77058,-15.666997,-12.168981,-7.4806175,-4.0316687,10.59016,0.65617615,23.676853,-23.326359,-25.88192,12.2463,-8.2295265,3.9996805,20.579433,-8.287978,19.715971,-41.724243,-8.835006,-3.2764702,13.588703
204,30.33069610595703,-193.77130126953125,74.52185821533203,4.917261903319929,0.9177404467497192,-119.62751758389648,4.110525,5.0167575,13.026964,32.635746,-22.950151,-10.529626,-25.305645,-11.183717,-11.364583,85.324554,-15.547172,-12.334954,-8.093128,-3.7557411,10.383886,0.22598507,23.10531,-23.403637,-26.483686,11.76741,-8.280094,4.0185614,21.18479,-8.115665,19.945292,-41.863373,-8.61458,-3.272924,13.879878
205,29.626869201660156,-194.6558837890625,75.03767395019531,4.59050176582256,1.01774509243687,-120.33111209752941,5.766148,5.313471,13.271229,30.744196,-20.347889,-10.980064,-25.731163,-10.744674,-12.233123,82.55584,-15.269104,-12.5023775,-8.666975,-3.4538243,10.144866,-0.078713976,22.546385,-23.471489,-27.067019,11.359594,-8.282934,4.0430193,21.761627,-8.029914,20.149689,-41.97474,-8.568359,-3.3005202,14.247509
206,28.89873695373535,-195.5430908203125,75.56654357910156,4.2557818273933234,1.1196868887645177,-121.07645296946703,7.393184,5.5974903,13.520162,28.878445,-17.44808,-11.400322,-26.004862,-10.1860695,-13.117134,79.44939,-14.836505,-12.6395645,-9.208438,-3.128065,9.87854,-0.23857847,22.005306,-23.51571,-27.666597,10.962744,-8.254067,4.0834036,22.310217,-8.028354,20.348415,-42.064907,-8.651589,-3.3537223,14.6818495
207,28.144657135009766,-196.43650817871094,76.09808349609375,3.935807139501006,1.2571177061844059,-121.8241767444737,8.873587,5.8620615,13.753865,27.15296,-14.328789,-11.802597,-26.187073,-9.502656,-13.954894,76.06696,-14.259485,-12.644462,-9.731285,-2.7859511,9.558798,-0.31043178,21.491478,-23.56413,-28.251024,10.568485,-8.22198,4.127908,22.85387,-8.098268,20.530855,-42.142136,-8.782656,-3.402457,15.119101
208,27.365276336669922,-197.33175659179688,76.62602996826172,3.654067670693491,1.4651873932883717,-122.53421966650814,10.091643,6.102886,13.950503,25.677845,-11.062321,-12.204996,-26.342049,-8.701513,-14.678624,72.46484,-13.544604,-12.422218,-10.246414,-2.435642,9.158399,-0.35369083,21.015535,-23.65014,-28.785093,10.16823,-8.214553,4.165581,23.416586,-8.217205,20.685144,-42.21507,-8.881067,-3.4157097,15.497459
209,26.57729148864746,-198.23663330078125,77.14427947998047,3.40184635222427,1.7758692909604805,-123.2001659690469,10.98089,6.347126,14.13133,24.502697,-7.5507584,-12.604379,-26.49214,-7.762738,-15.267618,68.56473,-12.702485,-11.980798,-10.760819,-2.0710003,8.64313,-0.3612708,20.584661,-23.773607,-29.256544,9.745924,-8.243709,4.198153,23.98686,-8.371859,20.80867,-42.263824,-8.950168,-3.380899,15.833163
210,25.773874282836914,-199.13812255859375,77.64921569824219,3.176887186754868,2.1633802567517515,-123.84166083293519,11.611932,6.5852017,14.278282,23.566051,-3.7964365,-13.0157175,-26.597647,-6.7106013,-15.735036,64.35139,-11.722993,-11.372827,-11.263456,-1.6999285,8.03493,-0.30670032,20.202808,-23.923317,-29.689783,9.308933,-8.29226,4.2312236,24.54953,-8.55806,20.904778,-42.278175,-9.029409,-3.3167627,16.154024
211,24.949066162109375,-200.03904724121094,78.12925720214844,3.0080419177723026,2.578236254912847,-124.45358498134632,12.076635,6.7634196,14.308032,22.807964,-0.011130931,-13.4915495,-26.63483,-5.625414,-16.06825,59.970764,-10.5784235,-10.583107,-11.73885,-1.350491,7.388243,-0.22331376,19.875032,-24.118898,-30.098627,8.8831215,-8.344056,4.2598867,25.123455,-8.764657,20.967299,-42.28159,-9.093698,-3.2380342,16.416952
212,24.127574920654297,-200.9400177001953,78.58128356933594,2.9236033929229075,2.9721904937438652,-125.0305221708683,12.478742,6.824097,14.143152,22.144583,3.6040952,-14.079966,-26.583952,-4.582632,-16.257336,55.569286,-9.241304,-9.594218,-12.169342,-1.0514374,6.7557673,-0.1498517,19.60647,-24.384146,-30.489426,8.493928,-8.382489,4.280232,25.726336,-8.975443,20.986696,-42.291122,-9.118248,-3.1597586,16.580832
213,23.311941146850586,-201.8410186767578,78.99501037597656,3.000228803044972,3.3809068370468935,-125.53696986461344,12.819539,6.6577654,13.754905,21.424282,7.222753,-14.8033495,-26.502314,-3.6406555,-16.190891,51.107292,-7.6174903,-8.303248,-12.580472,-0.8668263,6.0822372,-0.0954955,19.40512,-24.75044,-30.851837,8.138555,-8.404512,4.3208346,26.362703,-9.177735,20.95883,-42.293156,-9.110432,-3.0794842,16.624096
214,22.487648010253906,-202.75942993164062,79.37428283691406,3.2453938218109326,3.8247546875372973,-125.96979885459832,13.089968,6.274436,13.348872,20.624857,10.930154,-15.000033,-26.40646,-2.8235078,-15.857303,46.56004,-5.771624,-6.7500086,-12.981222,-0.8011769,5.341871,-0.041888274,19.274338,-25.202196,-31.184702,7.80482,-8.417828,4.376115,27.01748,-9.365989,20.885345,-42.273335,-9.081629,-2.9917703,16.57716
215,21.674367904663086,-203.68521118164062,79.71127319335938,3.5782945429267055,4.233133442822064,-126.37114027548341,13.375183,5.8018074,12.919144,19.866657,14.399343,-15.000033,-26.220003,-2.1296303,-15.421726,42.100132,-3.9085746,-5.131122,-13.337483,-0.8066642,4.627438,0.0141534535,19.20824,-25.691187,-31.513447,7.5062604,-8.421989,4.3896976,27.681408,-9.536299,20.766966,-42.256077,-9.014169,-2.9067888,16.476635
216,20.867286682128906,-204.61721801757812,79.99512481689453,3.977887426863247,4.548242765880435,-126.76468166206499,13.756511,5.2711964,12.451776,19.21287,17.344965,-15.000033,-25.921875,-1.6236817,-15.039736,37.970585,-2.2485151,-3.6205187,-13.63701,-0.890067,4.005678,0.07354608,19.196241,-26.166231,-31.857483,7.257896,-8.416301,4.30223,28.338936,-9.681181,20.608267,-42.255146,-8.891994,-2.8346422,16.35871
217,20.05672836303711,-205.54855346679688,80.21614074707031,4.4551794715666935,4.747117847490699,-127.14211802425683,14.279768,4.6595716,11.882817,18.646286,19.702213,-15.000033,-25.474443,-1.3102312,-14.733515,34.134003,-0.7989716,-2.1608295,-13.886448,-1.0608693,3.4885259,0.11860691,19.228645,-26.633501,-32.206715,7.0891933,-8.382793,4.084906,29.003895,-9.795691,20.398556,-42.270123,-8.693928,-2.769878,16.224823
218,19.252368927001953,-206.48057556152344,80.3768539428711,5.007631224158003,4.863155989709622,-127.49585059785284,14.894152,3.9688213,11.215255,18.151405,21.631062,-15.000033,-24.902714,-1.143701,-14.45093,30.480244,0.5539591,-0.691269,-14.10377,-1.3070089,3.038967,0.14263684,19.288939,-27.097925,-32.529938,6.9874105,-8.328237,3.7609546,29.658894,-9.877843,20.151329,-42.271183,-8.4414015,-2.709173,16.058012
219,18.451122283935547,-207.4108123779297,80.48639678955078,5.589662908842516,4.925428896455684,-127.85208548662742,15.510476,3.2707508,10.576021,17.838776,23.163813,-15.000033,-24.304056,-1.1010542,-14.256699,27.185019,1.765656,0.6296419,-14.201965,-1.586867,2.6785674,0.14353432,19.419754,-27.628477,-32.874428,6.898984,-8.283961,3.4119864,30.385136,-9.983186,19.80699,-42.396748,-8.133994,-2.6714146,15.865213
220,17.66868019104004,-208.33213806152344,80.53899383544922,6.15497631984362,4.962353343134448,-128.23940265658536,16.036783,2.6389856,10.098677,17.821413,24.331684,-15.000033,-23.78446,-1.1551259,-14.216772,24.449461,2.7846842,1.6459929,-14.277035,-1.8852986,2.3726583,0.17472646,19.550316,-28.0422,-33.182907,6.7799325,-8.29133,2.9938073,30.960634,-10.049279,19.51568,-42.43182,-7.875058,-2.663345,15.661446
221,16.886690139770508,-209.23867797851562,80.53340911865234,6.728993472098715,4.987197094757177,-128.6617729547648,16.44725,2.0711815,9.8684635,18.147726,25.182201,-15.000033,-23.363562,-1.3471563,-14.375357,22.298443,3.5890028,2.482158,-14.260816,-2.217888,2.1233766,0.19572337,19.721779,-28.422655,-33.482544,6.619763,-8.368939,2.5161426,31.47436,-10.097328,19.203924,-42.479923,-7.63993,-2.7001817,15.444879
222,16.10608673095703,-210.12599182128906,80.47874450683594,7.319471851109471,4.985390675225586,-129.11255482532388,16.766136,1.5678698,9.797292,18.817184,25.664104,-15.000033,-23.011782,-1.6561861,-14.701139,20.674385,4.1989636,3.1744068,-14.179935,-2.5892289,1.9277463,0.19957338,19.903994,-28.752563,-33.741375,6.446025,-8.49474,1.9553784,31.904919,-10.114468,18.891315,-42.49292,-7.422268,-2.7703795,15.211346
223,15.329813957214355,-211.00192260742188,80.36936950683594,7.846608904263595,4.950063360881718,-129.6067243951305,16.971891,1.1967186,9.760721,19.852516,25.65544,-15.000033,-22.773214,-1.966713,-15.144298,19.682909,4.5980587,3.4286008,-14.015593,-2.9353085,1.8125517,0.22021973,20.089033,-29.038555,-33.955597,6.257379,-8.635424,1.3879423,32.242363,-10.106671,18.586182,-42.464302,-7.222023,-2.8568218,14.974094
224,14.55068588256836,-211.86277770996094,80.2110824584961,8.22905171591306,4.876322700057235,-130.15588076471937,17.057924,0.99736637,9.631009,21.220972,25.052233,-15.000033,-22.690739,-2.1731727,-15.656696,19.4304,4.7619843,2.9449828,-13.763061,-3.187402,1.8005583,0.3000055,20.26484,-29.271433,-34.122047,6.053511,-8.758793,0.88448864,32.467056,-10.084009,18.308052,-42.380093,-7.0420423,-2.9414537,14.744521
225,13.764505386352539,-212.71743774414062,79.99754333496094,8.427179799818195,4.763415625217627,-130.76959884733807,17.008005,0.93251926,9.261749,22.943302,23.636564,-15.000033,-22.828913,-2.2389352,-16.30394,20.005337,4.877392,1.4763026,-13.404346,-3.3053467,1.9044358,0.43773878,20.42198,-29.450375,-34.235065,5.795427,-8.87303,0.42829865,32.595917,-10.054261,18.053356,-42.258774,-6.8812695,-3.0214267,14.522349
226,12.966863632202148,-213.56259155273438,79.7276382446289,8.501015226252992,4.612410849053951,-131.4333766571784,16.853521,0.95914334,8.7429905,24.965895,21.550776,-15.000033,-23.136559,-2.252325,-17.105202,21.321823,4.897516,-0.7703876,-12.953729,-3.3345923,2.1043177,0.6063631,20.55207,-29.578808,-34.28107,5.4988475,-8.989371,-0.010699547,32.63987,-10.021607,17.816483,-42.108326,-6.736858,-3.1049774,14.299181
227,12.16513442993164,-214.37413024902344,79.42070770263672,8.519918375564272,4.41881865703821,-132.12010634180228,16.664026,1.091491,8.302992,27.129946,19.243122,-15.000033,-23.474283,-2.2805753,-17.917734,23.206083,4.4581795,-3.407911,-12.454665,-3.3381908,2.3785717,0.81884444,20.659042,-29.657978,-34.266403,5.2457094,-9.081374,-0.3766879,32.572052,-9.989184,17.608654,-41.899376,-6.6089244,-3.1910799,14.077052
228,11.362269401550293,-215.17250061035156,79.06098937988281,8.542872581196088,4.1785774177656325,-132.80757516870273,16.501394,1.3648751,8.171857,29.299532,17.14186,-15.000033,-23.711926,-2.3489602,-18.548199,25.487417,3.1958857,-6.039631,-11.949296,-3.3691993,2.7077205,1.0854768,20.740932,-29.683836,-34.193012,5.1182632,-9.1243725,-0.61622137,32.36214,-9.9647045,17.443716,-41.60102,-6.4991293,-3.2783525,13.856831
229,10.568962097167969,-215.97216796875,78.65019989013672,8.604223533760056,3.8599679660308133,-133.50442469484946,16.462137,1.7470839,8.452797,31.382153,15.301078,-15.000033,-23.867474,-2.4751384,-18.866072,28.435127,0.7235407,-8.841348,-11.436184,-3.460268,3.1052196,1.3916322,20.762327,-29.663841,-34.01426,5.174796,-9.108842,-0.68979955,32.043877,-9.960747,17.33766,-41.22814,-6.400258,-3.373531,13.6281185
230,9.782485008239746,-216.75350952148438,78.19580841064453,8.676217174788933,3.467900250831002,-134.21355628593994,16.499386,2.2189176,9.007438,33.46672,13.511505,-15.000033,-23.967165,-2.54451,-18.902508,31.93335,-2.583187,-11.916261,-10.88504,-3.5800397,3.5948534,1.7697239,20.77277,-29.60588,-33.80777,5.350959,-9.049285,-0.6284094,31.61246,-9.961746,17.243738,-40.793106,-6.298838,-3.47656,13.41179
231,9.0013427734375,-217.55397033691406,77.69376373291016,8.695821180740474,3.063976714994923,-134.91285255901278,16.438099,2.8796258,9.712966,35.7272,11.794383,-15.000033,-23.953293,-2.402062,-18.739155,35.356365,-6.0326524,-14.764867,-10.337039,-3.6585824,4.123952,2.2056496,20.773905,-29.477467,-33.568764,5.572284,-8.960248,-0.50356084,31.00448,-9.970707,17.190233,-40.25835,-6.225776,-3.570792,13.197533
232,8.244028091430664,-218.36256408691406,77.1787109375,8.800973935470562,2.6339162955997626,-135.44475962808957,16.21567,3.5779097,10.320996,38.135563,10.292914,-15.000033,-23.828676,-2.377511,-18.196589,38.49021,-9.209217,-15.000033,-9.943073,-3.8141265,4.655887,2.6477346,20.757252,-29.290632,-33.25948,5.7687707,-8.854661,-0.36894083,30.204508,-9.992732,17.194029,-39.630512,-6.2126756,-3.6406627,12.970605
233,7.477815628051758,-219.1490478515625,76.63722229003906,8.687424482596947,2.2894692576621516,-136.0022822771597,15.6795845,4.753561,11.090846,41.02042,8.970172,-15.000033,-23.504393,-2.0507998,-17.803171,40.86542,-11.8967285,-15.000033,-9.56322,-3.7594793,5.1628284,3.1235487,20.697233,-28.983541,-32.868824,6.0402102,-8.767673,-0.21455094,29.173826,-10.054542,17.29152,-38.891026,-6.2733254,-3.667413,12.737277
234,6.722390651702881,-219.89431762695312,76.08766174316406,8.3620558953345,2.009921062979278,-136.60284439809294,14.939409,6.3671513,12.043896,44.260536,7.784231,-15.000033,-23.040323,-1.4660642,-17.483376,42.827435,-14.441239,-15.000033,-9.105737,-3.500949,5.664151,3.584991,20.604548,-28.660551,-32.38069,6.388465,-8.677812,0.010581577,28.002468,-10.130856,17.410254,-38.10488,-6.379553,-3.6670494,12.50534
235,5.952441692352295,-220.58004760742188,75.54561614990234,7.868214134412613,1.7921548129288192,-137.2037813825186,14.008195,8.242967,12.905502,47.69016,6.5450706,-15.000033,-22.4903,-0.7024963,-17.252954,44.468597,-16.796356,-15.000033,-8.630466,-3.0736988,6.1347213,4.0519886,20.470226,-28.28143,-31.83718,6.587411,-8.526941,0.19831654,26.66364,-10.229063,17.572023,-37.24633,-6.5170746,-3.663528,12.238013
236,5.175437927246094,-221.22586059570312,75.02752685546875,7.252755850301292,1.6322692434291624,-137.76433569488006,12.866846,10.188883,13.397041,51.159462,5.055329,-15.000033,-21.898243,0.19076933,-17.142982,45.837452,-18.885088,-15.000033,-8.16613,-2.5164688,6.555746,4.5255866,20.294518,-27.846067,-31.280134,6.4126105,-8.257145,0.25770268,25.167332,-10.354317,17.774908,-36.325153,-6.664369,-3.6825035,11.898909
237,4.3831610679626465,-221.85520935058594,74.52770233154297,6.440186523393062,1.5551438576416186,-138.28251647991718,11.417796,12.262625,13.358842,54.756012,3.1704469,-15.000033,-21.277935,1.325096,-17.21521,46.86225,-20.620049,-15.000033,-7.7210493,-1.7543602,6.910646,5.0101547,20.069931,-27.329405,-30.714277,5.670602,-7.794467,0.11176213,23.474232,-10.517101,18.024115,-35.327976,-6.867371,-3.7434745,11.464027
238,3.608800172805786,-222.49954223632812,74.04546356201172,5.4253648881605265,1.5512021112899874,-138.7794745991324,9.687619,14.506654,12.911417,58.49061,1.0547793,-15.000033,-20.606037,2.7007818,-17.42919,47.532276,-22.052319,-15.000033,-7.283626,-0.7840449,7.2122087,5.50867,19.79331,-26.735712,-30.12245,4.5291314,-7.1852927,-0.1660875,21.605883,-10.718823,18.316519,-34.278664,-7.118598,-3.8276293,10.951696
239,2.8605716228485107,-223.1385498046875,73.59449005126953,4.367475931053325,1.5676844108072938,-139.25059961107334,7.812911,16.706844,12.217167,62.125267,-1.0482049,-15.000033,-19.862965,4.1210527,-17.67994,47.95445,-23.297201,-15.000033,-6.8530145,0.24149963,7.48877,6.0231166,19.471165,-26.103695,-29.513931,3.3040752,-6.5557227,-0.44692153,19.655636,-10.950321,18.646725,-33.238693,-7.316592,-3.903659,10.390131
