unveil-humanoid-operators/unveil-humanoid-operators.github.io/feature-analysis-animation/data/feature_matrix_instances/age_ankle_rom_jogging_turning_A414.csv
Frame,root_translateX,root_translateY,root_translateZ,root_rotateX,root_rotateY,root_rotateZ,left_hip_pitch_joint_dof,left_hip_roll_joint_dof,left_hip_yaw_joint_dof,left_knee_joint_dof,left_ankle_pitch_joint_dof,left_ankle_roll_joint_dof,right_hip_pitch_joint_dof,right_hip_roll_joint_dof,right_hip_yaw_joint_dof,right_knee_joint_dof,right_ankle_pitch_joint_dof,right_ankle_roll_joint_dof,waist_yaw_joint_dof,waist_roll_joint_dof,waist_pitch_joint_dof,left_shoulder_pitch_joint_dof,left_shoulder_roll_joint_dof,left_shoulder_yaw_joint_dof,left_elbow_joint_dof,left_wrist_roll_joint_dof,left_wrist_pitch_joint_dof,left_wrist_yaw_joint_dof,right_shoulder_pitch_joint_dof,right_shoulder_roll_joint_dof,right_shoulder_yaw_joint_dof,right_elbow_joint_dof,right_wrist_roll_joint_dof,right_wrist_pitch_joint_dof,right_wrist_yaw_joint_dof
0,0.20496468245983124,1.4388158321380615,74.02764892578125,-1.857249996921652,9.523431071333224,-91.51944048093229,-42.210182,11.644827,7.2198853,81.382256,-20.13526,-1.8775406,-11.01314,-3.9784145,-11.05427,37.27835,-33.22001,2.8413196,3.9797602,1.5836973,21.038261,52.39511,38.926804,-22.337751,-1.4552004,0.6639993,-6.031847,18.097803,-10.395287,-18.272423,24.141842,-0.28691962,10.004968,-5.540931,-13.902367
1,0.19247688353061676,0.04834072291851044,74.28670501708984,-1.4581119022650162,9.46466012867504,-91.44003098340777,-42.24037,11.446211,8.495626,77.36916,-19.648426,-1.9678111,-8.927857,-4.317506,-11.047027,35.561543,-32.32562,3.1299746,4.6205826,1.0188801,20.616693,53.563507,38.985146,-21.65161,-2.6527724,-0.21983393,-6.086982,17.312729,-10.953457,-18.446625,24.689243,-3.1616657,8.833531,-5.201575,-13.549277
2,0.18857160210609436,-1.355141043663025,74.55284881591797,-1.0499929337595952,9.407714289904893,-91.36893751729436,-42.261265,11.266998,9.852173,73.34839,-19.191988,-2.0591774,-6.809117,-4.6605344,-11.039053,33.76156,-31.467796,3.4202397,5.241296,0.443971,20.21873,54.812664,39.01838,-20.925644,-3.8919027,-1.1107677,-6.140461,16.486187,-11.498287,-18.702631,25.27578,-6.162306,7.672461,-4.8652153,-13.208273
3,0.20427961647510529,-2.773926019668579,74.8275375366211,-0.6648031379805919,9.340498578514007,-91.27991473584065,-42.171947,10.946614,11.0922575,69.19873,-18.674786,-2.2298026,-4.7571588,-4.997561,-11.054502,32.138298,-30.54284,3.7199304,5.8414135,-0.0954742,19.841059,55.977314,39.005016,-20.201593,-5.137823,-1.9732513,-6.167155,15.706625,-11.871012,-19.015665,25.844479,-9.226378,6.573295,-4.541327,-12.845401
4,0.22559866309165955,-4.208182334899902,75.09683227539062,-0.33597372617435034,9.249851182984543,-91.14667019272008,-41.87428,10.348106,11.998461,64.79347,-18.013102,-2.5365212,-2.8713672,-5.315897,-11.112881,30.951988,-29.446903,4.034644,6.3901944,-0.56226176,19.486843,56.933662,38.898872,-19.476513,-6.3819275,-2.758156,-6.147572,15.049698,-11.925203,-19.372602,26.37166,-12.301262,5.6005406,-4.2391386,-12.435734
5,0.25447332859039307,-5.658609867095947,75.35447692871094,-0.04859670626533926,9.12817371241049,-90.94460233161995,-41.316887,9.396022,12.48221,59.94802,-17.122185,-2.9465008,-1.1157578,-5.630575,-11.231848,30.185566,-28.12336,4.38224,6.8679276,-0.97121835,19.160517,57.742332,38.65308,-18.709227,-7.6736283,-3.415626,-6.0648875,14.5446825,-11.656255,-19.77511,26.862637,-15.406978,4.741857,-3.9568224,-11.955834
6,0.303277850151062,-7.144779682159424,75.59911346435547,0.20105912253463049,8.979237306223563,-90.69655951434417,-40.54642,8.233562,12.624183,54.74937,-16.06455,-3.3955445,0.54876846,-5.933803,-11.384613,29.72257,-26.632515,4.7440405,7.2464604,-1.3337862,18.864452,58.244717,38.274403,-17.963089,-8.821027,-4.057617,-5.942642,14.144273,-11.185967,-20.217762,27.372248,-18.528767,3.9693377,-3.6911712,-11.4287405
7,0.3683178424835205,-8.644584655761719,75.8292465209961,0.3670541968943633,8.808487422326298,-90.45060381966987,-39.607193,7.0510626,12.471915,49.47456,-14.97022,-3.894092,2.0311267,-6.1824546,-11.517328,29.656216,-25.03289,5.0676775,7.5758686,-1.5949236,18.577902,58.51748,37.7562,-17.273746,-9.898526,-4.5858526,-5.818783,13.822876,-10.495968,-20.68835,27.864826,-21.566988,3.318425,-3.4500835,-10.893873
8,0.44901952147483826,-10.14889907836914,76.04402160644531,0.40438699459537886,8.622920758398866,-90.25430041450124,-38.5558,6.0116405,12.096854,44.4125,-13.963298,-4.479413,3.2396567,-6.335972,-11.580346,30.079557,-23.383488,5.304695,7.8815694,-1.7064124,18.283443,58.508396,37.10247,-16.703236,-10.86761,-4.9785323,-5.7318316,13.549376,-9.589241,-21.166334,28.329006,-24.41166,2.825325,-3.2401044,-10.393643
9,0.5540784001350403,-11.660530090332031,76.22826385498047,0.25867422612591295,8.42202149309526,-90.1170744352653,-37.333553,5.0952053,11.395397,39.35037,-12.998855,-5.3229227,4.1987,-6.3296146,-11.569938,30.963593,-21.630737,5.4291334,8.179212,-1.6082512,17.956717,58.192463,36.314434,-16.26113,-11.689856,-5.2200074,-5.712465,13.323925,-8.422908,-21.633904,28.776722,-27.122091,2.5382764,-3.0468628,-9.9323015
10,0.6708219051361084,-13.17579174041748,76.38375091552734,-0.04663422384777077,8.197055882768062,-90.02363947959142,-35.895405,4.277123,10.368085,34.17728,-12.01464,-6.3455033,4.9604526,-6.1865206,-11.506259,32.246883,-19.7504,5.4681377,8.456824,-1.3308111,17.611374,57.609776,35.39189,-15.901702,-12.387805,-5.331615,-5.7356815,13.159073,-7.033985,-22.085348,29.216682,-29.701569,2.419355,-2.8681178,-9.489866
11,0.7997665405273438,-14.694209098815918,76.50199127197266,-0.4280568502367767,7.949082958697586,-89.9776148454063,-34.37449,3.6524267,9.279674,29.401457,-11.1257305,-7.250735,5.4653797,-6.012351,-11.386249,33.982544,-17.848846,5.4586496,8.69096,-0.9744794,17.282295,56.796165,34.34473,-15.601099,-13.006329,-5.3594065,-5.755635,13.041808,-5.554611,-22.518824,29.635519,-31.941442,2.3799312,-2.728083,-9.071745
12,0.9316661357879639,-16.206008911132812,76.58897399902344,-0.7753466215999004,7.692315220325444,-89.96850381907556,-32.974045,3.2443705,8.418645,25.622532,-10.478176,-7.76471,5.63519,-5.945894,-11.215795,36.243935,-16.043045,5.4402275,8.846865,-0.66584927,16.99779,55.773487,33.190712,-15.339334,-13.582028,-5.3568444,-5.7260237,12.959636,-4.114231,-22.932308,30.017593,-33.63616,2.332242,-2.652153,-8.683578
13,1.0665843486785889,-17.708581924438477,76.63536071777344,-1.0619549678897933,7.456315498815617,-89.98513152608574,-31.812466,3.0293007,7.8836975,23.050257,-10.243072,-7.866284,5.3511724,-6.0350738,-10.97644,39.23776,-14.228046,5.436973,8.928338,-0.42889073,16.73823,54.52844,31.927725,-15.10828,-14.118494,-5.335045,-5.619142,12.920186,-2.6843848,-23.315798,30.344305,-34.761982,2.3202932,-2.6956065,-8.320741
14,1.203727126121521,-19.200529098510742,76.64899444580078,-1.3064446100071496,7.243943654165369,-90.01558962643185,-30.842878,2.918737,7.5458455,21.443003,-10.339551,-7.7127566,4.674014,-6.2487926,-10.689751,42.86379,-12.387637,5.4292088,8.930893,-0.239471,16.482708,53.071667,30.553303,-14.8925705,-14.599006,-5.2722754,-5.465439,12.92661,-1.2330933,-23.658829,30.63579,-35.39995,2.3718429,-2.8272924,-7.982983
15,1.3560309410095215,-20.65226173400879,76.66099548339844,-1.4419887262044326,7.038597583442497,-90.03849118800808,-30.055153,2.7950158,7.356767,20.772753,-10.55514,-7.295082,3.7741804,-6.6405535,-10.417385,46.769814,-10.792442,5.3934693,8.8041115,-0.17500065,16.253632,51.459965,29.095867,-14.66518,-15.0411005,-5.171809,-5.3047776,12.959071,0.12924735,-23.958096,30.925322,-35.505684,2.3711886,-2.9454825,-7.683863
16,1.5071219205856323,-22.073320388793945,76.63725280761719,-1.4129350144269934,6.817692985870165,-90.03953090219046,-29.424307,2.5640213,7.2646394,21.00394,-10.672652,-6.594605,2.8254128,-7.2524385,-10.209708,50.61305,-9.718403,5.30387,8.516182,-0.30099568,16.07775,49.748196,27.605766,-14.407486,-15.477092,-5.041054,-5.1758957,12.99897,1.3113285,-24.215933,31.229328,-35.0524,2.2017405,-2.9496458,-7.437011
17,1.6380356550216675,-23.490894317626953,76.5494384765625,-1.181126908011355,6.579200740616816,-90.02397702748941,-28.99801,2.2096548,7.2957473,22.423822,-10.40704,-5.4151006,1.8572067,-8.136586,-10.062566,54.424915,-9.239505,5.1926274,8.085828,-0.6668273,15.946798,47.966846,26.113214,-14.107964,-15.945566,-4.89338,-5.098458,13.047501,2.334485,-24.436066,31.52448,-34.007164,1.7868748,-2.7684135,-7.211122
18,1.7485624551773071,-24.90007209777832,76.38790893554688,-0.8125285891890366,6.313549900156631,-90.01703844906106,-28.7242,1.8312336,7.4860115,24.894531,-9.92382,-3.8214493,0.81065595,-9.22549,-9.91889,58.339687,-9.208836,5.0534477,7.5620017,-1.196785,15.859201,46.091743,24.627865,-13.774362,-16.448172,-4.7345304,-5.046954,13.116936,3.26461,-24.617855,31.790321,-32.416023,1.2025123,-2.4717655,-7.0086527
19,1.8522809743881226,-26.319412231445312,76.16558074951172,-0.39756409697148576,5.995886536869883,-90.02714713173621,-28.436983,1.4838129,7.774693,27.748384,-9.679909,-2.189177,-0.29363048,-10.393534,-9.760281,62.197823,-9.58522,4.809085,6.9584064,-1.7800137,15.844109,44.086723,23.178896,-13.425937,-16.96097,-4.5628676,-4.991293,13.205395,4.081317,-24.762188,32.03636,-30.36388,0.56155384,-2.1699643,-6.892712
20,1.9566690921783447,-27.6949520111084,75.89864349365234,0.012608734484214068,5.623362290442661,-90.0410530432443,-28.028229,1.1474639,8.064136,30.396027,-10.168687,-0.9038768,-1.4673886,-11.556213,-9.584734,65.86335,-10.332659,4.3956895,6.27673,-2.3475087,15.917774,41.906548,21.8072,-13.084438,-17.454266,-4.3824368,-4.90347,13.311501,4.7742267,-24.868393,32.26265,-27.943514,-0.022742085,-1.9720187,-6.9299183
21,2.0589892864227295,-29.037744522094727,75.59129333496094,0.4329110598518068,5.164293362430237,-90.05318449867852,-27.557955,0.78377944,8.322291,32.98878,-11.787151,-0.07761608,-2.7151635,-12.710865,-9.354179,69.422104,-11.606827,3.7716618,5.530892,-2.9181914,16.11499,39.540974,20.529434,-12.761943,-17.962345,-4.232035,-4.791182,13.44451,5.3589926,-24.93532,32.420525,-25.142904,-0.70449996,-1.9207462,-7.094421
22,2.1489274501800537,-30.351947784423828,75.24578857421875,0.8924420283842573,4.6389805875757135,-90.06693621766223,-27.073542,0.38098058,8.579151,35.76089,-14.192307,0.49074164,-4.047385,-13.884809,-9.071278,72.927216,-13.3785515,2.9971251,4.7351294,-3.5333707,16.403158,37.00301,19.352167,-12.455679,-18.490927,-4.109142,-4.663977,13.606754,5.870005,-24.96449,32.501926,-21.948072,-1.4826411,-1.9506669,-7.3667583
23,2.2355690002441406,-31.665340423583984,74.89083862304688,1.3841290203145085,4.134032639341857,-90.06962886338533,-26.500881,-0.08077445,8.826323,38.329834,-16.804577,0.8795973,-5.506469,-15.075801,-8.801986,76.20628,-15.341118,2.1633627,3.8859923,-4.1781635,16.68957,34.287506,18.308783,-12.168636,-18.973291,-3.9584627,-4.494317,13.786028,6.327138,-24.95997,32.559917,-18.445051,-2.0119457,-2.0082622,-7.823294
24,2.323796510696411,-32.95030212402344,74.54069519042969,1.9029928542662329,3.7344033774485887,-90.04818978874223,-25.761219,-0.6183078,9.061248,40.304054,-19.038342,1.1695942,-7.139317,-16.306465,-8.616007,79.08637,-17.191126,1.3473947,2.9877489,-4.834628,16.884636,31.395382,17.447197,-11.912665,-19.362001,-3.7316954,-4.2541714,13.973128,6.760324,-24.925968,32.635704,-14.717453,-1.9474591,-2.0464392,-8.538254
25,2.4110305309295654,-34.260353088378906,74.2322006225586,2.5262257191556756,3.49052404260097,-89.9967663841455,-24.842354,-1.3183434,9.3385105,41.52612,-20.760475,1.3484848,-9.051487,-17.745575,-8.531425,81.60684,-18.953953,0.51936764,2.0563226,-5.5733333,16.96224,28.21432,16.80843,-11.755149,-19.611876,-3.4044228,-3.9097452,14.217837,7.1850853,-24.845673,32.697384,-10.593017,-1.0199778,-2.0816746,-9.631354
26,2.4591445922851562,-35.56502914428711,73.97406768798828,3.2352877354980207,3.3496552982906795,-89.91914750866414,-23.800564,-2.150995,9.646538,42.240658,-22.282402,1.3878303,-11.203269,-19.336178,-8.494316,83.834435,-20.75932,-0.34815273,1.1139386,-6.3825393,16.958897,24.783588,16.395216,-11.70703,-19.78156,-3.030205,-3.4836056,14.521196,7.625473,-24.714136,32.69579,-6.1073933,0.52456504,-2.1634247,-11.019494
27,2.5052995681762695,-36.858760833740234,73.75994873046875,3.8808356022043284,3.2405592768795226,-89.81553905237232,-22.651474,-2.9539592,9.881979,42.653305,-23.683187,1.3438648,-13.42052,-20.777393,-8.4955635,85.6417,-22.4571,-1.1803654,0.16384874,-7.1161246,16.893175,21.31994,16.187328,-11.708373,-19.962784,-2.6688633,-3.0333226,14.795454,8.112616,-24.569506,32.656494,-1.6585141,2.2624464,-2.2896001,-12.481894
28,2.5585851669311523,-38.165103912353516,73.59870910644531,4.3136840833154615,3.091477956677108,-89.6869704490804,-21.40372,-3.562433,9.9481125,42.96871,-25.041668,1.2728331,-15.520153,-21.775465,-8.555622,86.90905,-23.891943,-1.9027115,-0.80104494,-7.6269927,16.799889,18.023016,16.153172,-11.702314,-20.225359,-2.3693533,-2.6181974,14.944959,8.670328,-24.478863,32.622932,2.3407822,3.7808428,-2.4270902,-13.814381
29,2.6126110553741455,-39.51366424560547,73.47489166259766,4.464379437933159,2.8829624873387543,-89.54085917365292,-20.037416,-3.9019608,9.816252,43.228065,-26.39353,1.1680958,-17.46704,-22.254486,-8.752104,87.58575,-25.023941,-2.5561125,-1.7917956,-7.827079,16.719284,14.8108,16.274918,-11.750426,-20.485312,-2.148111,-2.2336936,14.978616,9.283887,-24.489851,32.635643,5.930189,5.262499,-2.521393,-15.165404
30,2.6751549243927,-40.8824462890625,73.38088989257812,4.421813916938131,2.652925816709359,-89.37295558097247,-18.5475,-4.063079,9.5503,43.32712,-27.694885,1.0100543,-19.340881,-22.380878,-9.091089,87.74205,-25.927664,-3.1586356,-2.8038762,-7.8002095,16.648766,11.584339,16.538853,-11.903603,-20.710781,-1.9733005,-1.8580035,14.932473,9.9764595,-24.617233,32.66163,9.229229,6.851257,-2.6120868,-16.587612
31,2.7480900287628174,-42.21542739868164,73.29786682128906,4.27469878310909,2.415267106019454,-89.16778140544191,-16.963793,-4.1278486,9.193358,43.254597,-28.905533,0.8351348,-21.12593,-22.235155,-9.495139,87.4368,-26.617197,-3.6042838,-3.825918,-7.657003,16.563694,8.498426,16.920885,-12.091936,-21.011658,-1.8109497,-1.525462,14.745978,10.813805,-24.879324,32.642563,11.9523,8.0774555,-2.7527611,-17.742424
32,2.803222894668579,-43.55937576293945,73.23819732666016,4.111827476257221,2.1841406811319426,-88.90986690390699,-15.316427,-4.1809034,8.782565,42.998894,-29.984043,0.67946196,-22.811272,-21.899014,-9.876858,86.72991,-27.107344,-3.790906,-4.855709,-7.5048823,16.43286,5.7066345,17.396177,-12.237528,-21.495657,-1.6223519,-1.2708964,14.353183,11.859425,-25.295933,32.52447,13.806438,8.471616,-2.9640143,-18.294746
33,2.8572545051574707,-44.907020568847656,73.20211791992188,3.9408671698943816,1.9460714345520025,-88.56336842462892,-13.586241,-4.2381034,8.285583,42.530487,-30.959778,0.5572407,-24.405937,-21.34607,-10.200058,85.611916,-27.399471,-3.6485827,-5.924952,-7.355107,16.259474,3.1921678,17.957632,-12.320019,-22.165823,-1.3311844,-1.1073755,13.661823,13.171651,-25.902456,32.26286,14.549811,7.4954543,-3.2600062,-17.986837
34,2.916020393371582,-46.265811920166016,73.19103240966797,3.7208806874938127,1.699430468484643,-88.14496073779931,-11.763682,-4.2526293,7.695613,41.867756,-31.843723,0.45370787,-25.907133,-20.572908,-10.513681,84.05251,-27.494503,-3.2559023,-7.0208244,-7.147789,16.070274,0.84589416,18.600456,-12.419243,-22.935827,-0.9784634,-1.0222566,12.728659,14.754902,-26.710245,31.869337,14.333974,5.5480943,-3.6248734,-17.061565
35,2.97465443611145,-47.636722564697266,73.20813751220703,3.46675297716401,1.475621196214306,-87.71990130405518,-9.895643,-4.2148504,7.08552,41.069366,-32.564342,0.35552108,-27.290585,-19.685686,-10.846889,82.08139,-27.399397,-2.7305198,-8.0869875,-6.882032,15.860567,-1.2946659,19.304535,-12.574706,-23.788593,-0.6942295,-1.0075866,11.709429,16.556524,-27.6833,31.383621,13.497119,3.5639696,-4.0160656,-15.929705
36,3.03041410446167,-49.03034973144531,73.25292205810547,3.1938249274934636,1.3059258753994856,-87.35404353633571,-8.02888,-4.115762,6.528707,40.188755,-33.04901,0.2394987,-28.529093,-18.778225,-11.233506,79.72585,-27.115993,-2.1836808,-9.084636,-6.5567513,15.61644,-3.1537204,20.047173,-12.78527,-24.736443,-0.59858,-1.04718,10.755118,18.46638,-28.753736,30.871042,12.442457,2.4648213,-4.3432794,-14.993386
37,3.0810773372650146,-50.451927185058594,73.33021545410156,2.889933164517429,1.2205449049976511,-87.03044828361276,-6.149776,-3.9350185,6.009034,39.121674,-33.30232,0.089577995,-29.644836,-17.848751,-11.710608,76.9471,-26.645397,-1.6137255,-10.04718,-6.1541986,15.294046,-4.6947722,20.833612,-12.982505,-25.815598,-0.7652709,-1.1686918,9.822805,20.440042,-29.87755,30.36202,11.223869,2.599944,-4.5438886,-14.317085
38,3.1355485916137695,-51.89926528930664,73.44620513916016,2.5546060973923828,1.1955651909858298,-86.72551370336392,-4.243144,-3.679961,5.501025,37.876305,-33.354874,-0.08646898,-30.632502,-16.854942,-12.242078,73.73301,-25.986649,-0.9709453,-10.994329,-5.6823235,14.910747,-5.9405055,21.675669,-13.148076,-27.02648,-1.110254,-1.3611248,8.854755,22.495049,-31.04112,29.823528,9.7199335,3.4275773,-4.6590405,-13.69613
39,3.191859245300293,-53.36488342285156,73.59977722167969,2.220026625590504,1.1799854056313106,-86.4963028394019,-2.3578494,-3.387005,5.062405,36.683334,-33.1709,-0.27828628,-31.420225,-15.81312,-12.760799,70.14148,-25.142366,-0.28920022,-11.876909,-5.1775866,14.536142,-6.8738594,22.559916,-13.328358,-28.345648,-1.505483,-1.5491229,7.9761543,24.578209,-32.215458,29.244078,8.1044235,4.516935,-4.727518,-13.125054
40,3.255056142807007,-54.85297393798828,73.78865814208984,1.9172619670292843,1.1218302828051043,-86.3999483651449,-0.5405551,-3.0969117,4.7492723,35.770134,-32.71177,-0.47525904,-31.937752,-14.734593,-13.201484,66.23025,-24.112858,0.3959359,-12.645278,-4.6790595,14.230957,-7.477599,23.45897,-13.570593,-29.73236,-1.8091512,-1.6625063,7.308501,26.5985,-33.36194,28.63084,6.591829,5.438994,-4.7993956,-12.599777
41,3.319342851638794,-56.3555793762207,74.00323486328125,1.6295482110546822,1.0158331743903084,-86.47023530095527,1.2462585,-2.7933562,4.5769897,35.110516,-31.972435,-0.6379179,-32.134895,-13.595303,-13.631819,61.84996,-22.915594,1.0412691,-13.263843,-4.164477,13.993081,-7.8086996,24.3765,-13.895339,-31.196012,-1.9755666,-1.6459471,6.9256096,28.528543,-34.459362,27.988398,5.2726994,6.1244965,-4.877406,-12.137948
42,3.383535623550415,-57.889915466308594,74.23035430908203,1.3506927538545042,0.8831866265446661,-86.67020207967154,3.0114942,-2.4677198,4.5113664,34.611053,-30.969872,-0.7821789,-32.04087,-12.377869,-14.052686,56.989536,-21.529743,1.6814265,-13.759111,-3.6300883,13.789575,-7.852699,25.32446,-14.259015,-32.745678,-2.0687678,-1.549646,6.743498,30.380352,-35.500523,27.320255,4.0740495,6.776749,-4.9437017,-11.737405
43,3.450286865234375,-59.43756103515625,74.47015380859375,1.1271910213552485,0.7119164341706878,-86.95076370427223,4.670988,-2.1762383,4.527743,34.394295,-29.696938,-0.97490114,-31.710176,-11.111765,-14.292696,51.92014,-19.900812,2.3932555,-14.182842,-3.142307,13.627896,-7.4792027,26.2781,-14.601593,-34.330643,-2.1041615,-1.4644688,6.643011,32.10296,-36.46643,26.654991,2.9778252,7.3698907,-5.022675,-11.3643055
44,3.515733003616333,-61.005157470703125,74.71237182617188,1.0052020216178341,0.49186813345231084,-87.26226097134372,6.144656,-1.9801016,4.597344,34.576904,-28.141615,-1.2832696,-31.204206,-9.8468,-14.172035,46.928993,-17.981688,3.2440627,-14.578679,-2.7629614,13.509742,-6.5843067,27.19106,-14.875567,-35.870617,-2.088033,-1.4809797,6.499133,33.583652,-37.335285,26.048294,2.0269735,7.9039826,-5.138684,-10.985359
45,3.5639662742614746,-62.6024169921875,74.9540023803711,1.007736360811231,0.20737028682950212,-87.62064826111524,7.465224,-1.9383382,4.735769,35.17729,-26.228233,-1.5684305,-30.469841,-8.540389,-13.527141,41.827404,-15.655024,4.2939434,-14.954492,-2.5127335,13.426898,-5.1457114,28.044031,-15.100325,-37.38425,-1.9681481,-1.6743414,6.2783523,35.043236,-38.077286,25.439024,1.0757322,8.158971,-5.307722,-10.56672
46,3.615224838256836,-64.20747375488281,75.18794250488281,1.1179341356695869,-0.13508082120441267,-88.03822731405047,8.672577,-2.0280533,4.9389153,36.114357,-23.973774,-1.8464197,-29.458492,-7.2281446,-12.451545,36.51259,-12.976531,5.4806542,-15.195063,-2.3689103,13.378936,-3.3803248,28.83703,-15.405005,-38.776226,-1.7441746,-1.9773909,6.0432725,35.7458,-38.742535,25.066963,0.75856745,8.5894785,-5.5238757,-10.130417
47,3.669684410095215,-65.81969451904297,75.4036865234375,1.3135804041501922,-0.5054784306403877,-88.46425628727981,9.691411,-2.1937153,5.139428,37.36622,-21.513,-2.4222188,-28.284649,-6.0730233,-11.166847,31.465416,-10.185829,6.695319,-15.441995,-2.3198566,13.338684,-1.1481053,29.547987,-15.572143,-40.01318,-1.5026356,-2.2726083,5.7889824,36.551014,-39.27039,24.67922,0.2898251,8.858818,-5.749933,-9.744981
48,3.721843719482422,-67.43586730957031,75.59412384033203,1.5683019452358176,-0.8698483063669107,-88.85457403202926,10.433432,-2.3810198,5.2585616,38.937378,-18.996038,-3.603915,-27.121817,-5.1999855,-9.924887,27.237583,-7.540029,7.8434916,-15.640791,-2.3427582,13.294435,1.4156425,30.134718,-15.626085,-40.896164,-1.3284085,-2.438571,5.523194,37.00657,-39.659424,24.423054,-0.004659548,9.366271,-5.9619427,-9.461526
49,3.7649292945861816,-69.04293823242188,75.75884246826172,1.9234820324195185,-1.2197505447989585,-89.21062522678898,10.868451,-2.6866915,5.2522955,40.92167,-16.189503,-5.8526015,-25.994938,-4.63106,-8.742283,23.818184,-4.786062,9.323438,-15.797223,-2.4749389,13.212305,4.3575206,30.539383,-15.570849,-41.422966,-1.2072735,-2.3935003,5.099432,37.15354,-39.884357,24.287699,-0.17691264,10.160725,-6.160598,-9.29009
50,3.8008413314819336,-70.6451187133789,75.89118957519531,2.373656000650057,-1.5648428230401912,-89.56374395332429,11.013978,-3.1779385,5.117496,43.351967,-13.176784,-8.929306,-24.88423,-4.269628,-7.4892483,21.048685,-1.9384221,11.074471,-15.84833,-2.7013423,13.083481,7.5321403,30.73741,-15.558072,-41.527023,-1.0991427,-2.2177024,4.552117,36.949615,-39.942966,24.283226,-0.12449724,11.187084,-6.359248,-9.200019
51,3.8439950942993164,-72.23743438720703,75.99073791503906,2.780717821384191,-1.885938436497064,-89.92526442795614,10.843469,-3.6617508,4.89904,46.14624,-10.577321,-12.080713,-23.962265,-4.0070457,-6.293038,19.34439,0.33071676,12.302123,-15.780629,-2.8799171,12.916634,10.735607,30.740217,-15.648932,-41.03026,-1.055745,-2.0339813,4.154346,36.756996,-39.819614,24.309437,-0.07912473,12.148812,-6.545019,-9.199522
52,3.8922295570373535,-73.822265625,76.06342315673828,2.9873766341935752,-2.1645400833181085,-90.30073459785727,10.36259,-3.837168,4.709829,49.154808,-8.9221,-14.499712,-23.390978,-3.7243197,-5.358167,19.09657,1.3909999,12.189719,-15.499676,-2.848292,12.75366,13.691329,30.59743,-15.965816,-39.739845,-1.1315057,-1.9627062,4.1887403,36.22698,-39.565495,24.482582,0.29809088,13.145656,-6.711131,-9.285628
53,3.948772430419922,-75.37310791015625,76.10107421875,2.9931573240379588,-2.370958605361412,-90.68980455032815,9.555543,-3.6223958,4.7677054,52.3959,-8.286203,-15.000033,-23.456787,-3.461304,-4.7616987,21.039934,0.8668368,9.948232,-15.043939,-2.5846148,12.570178,16.54657,30.32066,-16.507729,-37.68871,-1.4536707,-2.01218,4.804123,35.500557,-39.189137,24.758554,0.8503053,14.03563,-6.8670754,-9.446078
54,3.998729944229126,-76.90729522705078,76.09883117675781,2.8930659089224857,-2.555461438724463,-91.06323523409054,8.497953,-3.154243,4.8397493,55.85867,-8.341637,-15.000033,-23.890282,-3.2094147,-4.4360714,24.571606,-0.65748745,6.191142,-14.456293,-2.2062862,12.36503,19.371986,29.90966,-17.258474,-34.9532,-1.9641562,-2.136377,5.8291664,34.673336,-38.683678,25.087303,1.4934314,14.860825,-7.014031,-9.6847315
55,4.042724609375,-78.44705963134766,76.02847290039062,2.729990592227768,-2.7809569297813654,-91.37530078899493,7.312233,-2.414235,4.906958,59.276333,-8.899013,-15.000033,-24.21383,-2.9082673,-4.3046217,28.387838,-2.5523052,2.2447035,-13.76993,-1.7911624,12.174119,21.994373,29.41318,-18.122683,-31.550097,-2.4442687,-2.3746037,7.078165,33.73029,-38.067703,25.484121,2.2998166,15.744335,-7.1322317,-10.034398
56,4.046056270599365,-79.97871398925781,75.91264343261719,2.578317959035717,-3.055245692958812,-91.58733355620214,6.0498743,-1.3622692,5.1162796,62.380375,-9.74977,-15.000033,-24.169708,-2.6187615,-4.2435646,31.550602,-4.4694657,-0.54594713,-13.042084,-1.4391885,11.99111,24.32183,28.899246,-18.934696,-27.560303,-2.6833403,-2.7574806,8.38529,32.71452,-37.36396,25.957592,3.2696114,16.7649,-7.2050834,-10.529064
57,4.021490097045898,-81.47996520996094,75.76483154296875,2.360466211576595,-3.3669553021790954,-91.72418793514294,4.667127,0.22614224,5.5477195,65.27786,-11.038092,-15.000033,-23.759111,-2.311754,-4.249596,34.04827,-6.649476,-1.7443466,-12.257986,-1.0862855,11.843575,26.447704,28.401749,-19.635962,-22.891111,-2.5681849,-3.3867152,9.870731,31.523388,-36.58287,26.577553,4.4166217,18.148952,-7.242854,-11.171063
58,3.965939521789551,-82.94200897216797,75.5846176147461,2.0220461547885127,-3.7020961312458858,-91.81379961788598,3.1409667,2.3263905,6.049854,68.07245,-12.815493,-15.000033,-23.145048,-1.9641147,-4.374174,36.394894,-9.270011,-2.1090496,-11.399764,-0.6663234,11.730056,28.51673,27.929008,-20.247416,-17.658066,-2.2318208,-4.20718,11.592491,30.1722,-35.721752,27.311768,5.7146497,19.798155,-7.264622,-11.946093
59,3.9021520614624023,-84.37335205078125,75.37052917480469,1.6615298054396674,-4.054911652502122,-91.83024918905097,1.518598,4.6311264,6.463282,70.5248,-14.758684,-15.000033,-22.377825,-1.6740628,-4.5946016,38.58088,-12.001637,-2.103458,-10.509289,-0.2686355,11.615654,30.509743,27.517813,-20.705036,-12.268607,-1.8443269,-5.0114822,13.3020115,28.839273,-34.79171,28.0335,7.1291428,21.314196,-7.2638125,-12.861549
60,3.8141331672668457,-85.79865264892578,75.14627838134766,1.410355043530858,-4.4208332546018285,-91.73683732659885,-0.1694397,6.784913,6.663684,72.39022,-16.535273,-15.000033,-21.49042,-1.5415317,-4.8641257,40.554108,-14.488188,-2.1798882,-9.637357,-0.026367834,11.47512,32.401245,27.221918,-20.936247,-7.125697,-1.599196,-5.6042686,14.750746,27.681871,-33.817776,28.638964,8.628175,22.309982,-7.221076,-13.925085
61,3.74064302444458,-87.20399475097656,74.9499740600586,1.4411321629821658,-4.777615804465779,-91.46723063482911,-2.0277455,8.652303,6.812186,73.62176,-18.163008,-14.246791,-20.517862,-1.7718074,-5.1026187,42.330875,-16.769321,-2.3386338,-8.83159,-0.11937819,11.309483,34.19534,27.055061,-20.921415,-2.0816116,-1.5892047,-5.889554,16.016588,26.70627,-32.789696,29.087128,10.313585,22.597294,-7.0804577,-15.316058
62,3.6604247093200684,-88.59321594238281,74.80240631103516,1.587532915348761,-5.144742374787145,-91.07719065633813,-4.052052,10.450928,6.8849583,74.3698,-19.817968,-13.043168,-19.391623,-2.1892517,-5.39672,43.8656,-18.957336,-2.3913517,-8.030326,-0.38922033,11.1719265,35.94087,27.024157,-20.66931,2.9515305,-1.7212675,-5.9906845,17.189032,25.835958,-31.703093,29.444742,12.15459,22.41775,-6.8461237,-16.967806
63,3.554158926010132,-90.01594543457031,74.71485900878906,1.7852725935094267,-5.533254933903208,-90.60792394555476,-6.0934396,12.106897,6.876656,74.571724,-21.268559,-11.904094,-18.17447,-2.7178042,-5.7858744,45.304413,-20.959616,-2.4090967,-7.2382236,-0.78720754,11.027082,37.68803,27.184195,-20.130518,7.465108,-1.9282024,-6.052031,18.041887,25.100681,-30.61472,29.796074,13.899002,22.02822,-6.5903516,-18.52512
64,3.4426472187042236,-91.4344482421875,74.65922546386719,1.9756323545770493,-5.952514817722393,-90.09856800416235,-7.9910836,13.596321,6.8580027,74.170944,-22.271961,-11.092635,-16.927607,-3.2781613,-6.3036485,46.789864,-22.68022,-2.4626665,-6.468953,-1.2603785,10.847107,39.519474,27.61149,-19.250528,10.901063,-2.1560283,-6.2139206,18.352676,24.556139,-29.619984,30.222176,15.245555,21.698374,-6.4074693,-19.63954
65,3.3063206672668457,-92.8597640991211,74.628173828125,2.1537203060534496,-6.409859173709185,-89.53433899936182,-9.745081,14.947961,6.8527665,73.09467,-22.746468,-10.703402,-15.527222,-3.8364437,-6.991022,48.15231,-24.18933,-2.584605,-5.7296343,-1.8195664,10.604339,41.604504,28.372034,-17.942547,12.954226,-2.475227,-6.5536733,17.87446,24.316738,-28.788485,30.757105,15.9937,21.655485,-6.3179827,-20.165655
66,3.154376983642578,-94.28179931640625,74.61940002441406,2.3453336683736117,-6.900543658194864,-88.90349622161733,-11.413007,16.17308,6.8552046,71.393135,-22.823416,-10.581055,-13.977558,-4.42467,-7.8245482,49.380173,-25.504604,-2.732152,-5.00358,-2.493571,10.354123,43.96692,29.457436,-16.22559,13.85931,-2.9337108,-6.965134,16.773087,24.38766,-28.134026,31.343792,16.21997,21.733248,-6.275416,-20.309471
67,2.9919960498809814,-95.69889068603516,74.61017608642578,2.5447078112944506,-7.414122841719877,-88.24942145196711,-12.912518,17.239506,6.9002037,69.19556,-22.575426,-10.607121,-12.528503,-5.068856,-8.733908,50.846363,-26.449352,-2.8666887,-4.2388673,-3.2445736,10.177766,46.67402,30.773754,-14.128233,13.689994,-3.3160872,-7.3157144,15.442104,24.684958,-27.661333,31.896162,16.037376,21.608206,-6.283559,-20.25101
68,2.822721481323242,-97.11058044433594,74.59805297851562,2.740134617930927,-7.939094210929229,-87.61509071119106,-14.163189,18.114704,7.022579,66.63283,-22.079502,-10.666469,-11.42946,-5.8073034,-9.643946,52.92547,-26.848822,-2.9533648,-3.5099432,-4.032071,10.157103,48.814743,32.285393,-11.953334,13.448835,-3.7977536,-7.509393,14.297228,24.987553,-27.389929,32.439873,15.64367,20.950907,-6.3477197,-20.176283
69,2.6655144691467285,-98.50349426269531,74.58080291748047,2.947532399711535,-8.471512427404866,-86.98812253271358,-15.131937,18.884642,7.4193096,63.61816,-21.43998,-10.577844,-10.731719,-6.651931,-10.521714,55.82341,-26.65715,-3.1640904,-2.7079852,-4.8773866,10.287249,51.052444,33.914635,-9.399614,12.464167,-3.964797,-7.474636,13.3631315,25.40281,-27.342718,32.973965,14.902304,19.42012,-6.4650707,-20.097095
70,2.5317940711975098,-99.86653137207031,74.55736541748047,3.167605539581396,-9.017245236000754,-86.35296345157589,-15.8459215,19.524666,8.037465,60.118988,-20.597263,-10.464759,-10.290179,-7.594668,-11.404381,59.285217,-25.964836,-3.465991,-1.8919407,-5.786233,10.533769,53.289642,35.637646,-6.4490676,10.841831,-3.992063,-7.2953253,12.442747,25.951626,-27.534483,33.534756,13.781414,17.276554,-6.636662,-19.93355
71,2.431509256362915,-101.19993591308594,74.52525329589844,3.3629158366411627,-9.57655848566269,-85.74794723022566,-16.331848,19.85755,8.508426,56.34456,-19.370358,-10.647947,-10.074188,-8.656512,-12.305146,63.033184,-24.808939,-3.52982,-1.0869739,-6.6448183,10.885762,55.333153,37.371307,-3.3382862,8.959073,-4.035839,-7.0843177,11.614692,26.61078,-27.932884,33.906887,12.47751,15.091565,-6.8684006,-19.721533
72,2.362147808074951,-102.51036071777344,74.48677825927734,3.4916024744394023,-10.149060177325264,-85.21097741446636,-16.624264,19.740997,8.418332,52.494507,-17.572142,-11.422421,-10.063905,-9.848709,-13.221692,66.825165,-23.240267,-3.0373895,-0.33980265,-7.3205914,11.325637,56.901047,39.027103,-0.37980658,7.260984,-4.2213445,-6.9535723,10.971364,27.31138,-28.486263,33.88813,11.240946,13.423653,-7.161449,-19.49425
73,2.324491262435913,-103.79481506347656,74.42361450195312,3.5214943487488273,-10.741830258274655,-84.7431063339536,-16.635632,19.047174,7.486249,48.32148,-14.9912195,-13.20916,-10.319719,-11.195427,-14.168294,70.83175,-20.78902,-1.6320618,0.2942807,-7.7613683,11.871267,57.865597,40.581875,2.337548,5.8726635,-4.631441,-6.96336,10.5525055,28.057278,-29.172474,33.405052,10.086879,12.340432,-7.5748672,-19.2211
74,2.3378119468688965,-105.06057739257812,74.33287048339844,3.596242188074683,-11.330588113590055,-84.26674136607382,-16.324987,17.745789,6.027869,43.689896,-11.769671,-15.000033,-10.895311,-12.80899,-15.012357,75.230675,-17.640526,0.4438938,0.757956,-8.147389,12.492951,58.319275,42.06781,4.920671,4.613101,-5.1435885,-7.0472617,10.312663,28.826439,-29.99899,32.587337,8.953458,11.559789,-8.088084,-18.896612
75,2.4085776805877686,-106.30779266357422,74.21041870117188,3.9436016864377677,-11.881958463588662,-83.71915643866252,-15.784896,15.875987,4.5957203,38.96823,-8.195137,-15.000033,-11.7551985,-14.847085,-15.524792,79.768974,-14.821874,2.648682,0.9981273,-8.708369,13.115272,58.30477,43.49702,7.330741,3.460948,-5.5631247,-7.1267805,10.218184,29.485767,-30.952332,31.566875,7.9969125,11.111488,-8.576643,-18.58657
76,2.4773037433624268,-107.55276489257812,74.0295639038086,4.158393396692173,-12.460450782599473,-83.32489553712333,-15.241185,14.415267,3.0166247,35.063572,-4.811086,-15.000033,-12.585576,-16.678545,-15.887251,83.82752,-13.185515,4.1470957,1.2377506,-9.012756,13.760203,57.85747,44.869385,9.512724,2.397045,-5.687518,-7.1235533,10.242819,29.885067,-32.014774,30.480759,7.404853,11.015408,-8.915341,-18.353222
77,2.548670530319214,-108.79069519042969,73.78636932373047,4.249005008202834,-13.043958388242833,-83.09899077990933,-14.866651,13.259481,1.0834805,32.02709,-1.0626615,-15.000033,-13.363654,-18.436546,-16.249382,87.42493,-13.161695,4.6905284,1.4254247,-9.06941,14.394258,56.94699,46.201622,11.413529,1.4533422,-5.3200006,-7.0275617,10.407173,29.968607,-33.170483,29.292429,7.2603564,11.381087,-9.0521555,-18.196833
78,2.64928936958313,-110.0291748046875,73.47787475585938,4.278592119348062,-13.622939498426758,-82.98655507899136,-14.592501,12.188726,-1.1881578,29.650864,3.0484889,-15.000033,-14.187153,-20.253298,-16.588219,90.76431,-14.199071,4.678909,1.5200264,-8.95953,15.026757,55.58205,47.514675,13.064088,0.59147805,-4.6091847,-6.8727474,10.71691,29.797867,-34.415348,27.97599,7.4887624,12.155091,-9.058236,-18.088217
79,2.757098436355591,-111.21669006347656,73.12971496582031,4.263795047409248,-14.200305640324693,-82.92720607311941,-14.392005,11.367335,-3.2183135,28.29218,6.286904,-15.000033,-15.084869,-22.040762,-16.796036,93.68831,-15.751918,4.375464,1.575851,-8.712706,15.655476,53.83594,48.80235,14.538554,-0.28032073,-3.863536,-6.6527414,11.122071,29.372461,-35.754875,26.712576,8.061514,13.111242,-8.995357,-18.048817
80,2.8817739486694336,-112.32511901855469,72.8416748046875,4.191786875928018,-14.788174761629188,-82.8729302604077,-14.194104,10.971922,-4.421586,28.21396,7.4317927,-15.000033,-16.08799,-23.671366,-16.778334,96.02381,-17.253569,4.0294213,1.6400503,-8.336485,16.28432,51.78777,50.034134,15.922179,-1.2550303,-3.3807952,-6.363215,11.572704,28.661999,-37.1998,25.710468,8.959702,14.026045,-8.927159,-18.100014
81,3.0200326442718506,-113.43672180175781,72.42034912109375,4.017189024583833,-15.38335597024961,-82.8349507003364,-13.959256,11.192665,-4.3570685,29.793304,5.525075,-15.000033,-17.31068,-25.188852,-16.582209,97.88293,-18.850128,3.4823668,1.6994888,-7.7804117,16.900208,49.352207,51.17829,17.241348,-2.3769336,-3.221504,-5.993781,12.086052,27.554674,-38.781193,25.068455,10.340769,14.969422,-8.852186,-18.243183
82,3.1528332233428955,-114.54480743408203,71.9034423828125,3.7564071543729214,-15.984548575704766,-82.83634340873752,-13.718025,11.948913,-3.4315097,32.749447,1.4232439,-15.000033,-18.73778,-26.592686,-16.22843,99.29801,-20.730947,2.6992116,1.7046126,-7.065766,17.503975,46.549454,52.2247,18.473959,-3.6201427,-3.216465,-5.5508137,12.678783,25.99748,-40.513325,24.761885,12.200074,16.048061,-8.748429,-18.474478
83,3.2829079627990723,-115.65562438964844,71.31531524658203,3.473273608240706,-16.61080079404253,-82.84716869566208,-13.503883,12.990452,-2.3472853,36.355423,-3.3565457,-15.000033,-20.196758,-27.703379,-15.621543,99.967545,-22.37051,2.0820496,1.6434219,-6.2974234,18.119402,43.60031,53.171474,19.624184,-4.956813,-3.31448,-5.0594783,13.302116,24.22533,-42.349686,24.719406,14.134851,16.992205,-8.644457,-18.799818
84,3.397219181060791,-116.7216567993164,70.76094055175781,3.220913858104264,-17.27476328673956,-82.83001918418559,-13.387143,13.927133,-1.7972353,39.891075,-7.2640123,-15.000033,-21.493803,-28.362556,-14.7132225,99.58977,-23.237259,2.006078,1.5300021,-5.573672,18.779251,40.71615,54.031765,20.698906,-6.376301,-3.4646451,-4.5428762,13.904682,22.204231,-44.224308,24.977459,15.975709,17.648794,-8.568234,-19.217314
85,3.4866623878479004,-117.76959991455078,70.18394470214844,3.002530564787114,-18.040256987354326,-82.82280055549002,-13.346661,14.60004,-1.9566158,43.320534,-10.049927,-15.000033,-22.64214,-28.420631,-13.371745,97.97771,-22.983072,2.7324896,1.4012877,-4.920853,19.563736,37.827744,54.835033,21.811535,-7.951483,-3.708903,-3.9445002,14.495309,19.88149,-46.09739,25.66019,17.845816,17.84012,-8.518168,-19.866844
86,3.535543441772461,-118.78844451904297,69.59430694580078,2.79547628170628,-18.878661435592058,-82.823826781087,-13.34479,15.135893,-2.3997707,46.969383,-12.492624,-15.000033,-23.658768,-27.977695,-11.699714,95.32524,-21.974638,4.007754,1.2480465,-4.30543,20.4325,34.830254,55.587864,22.905664,-9.668661,-4.0580134,-3.2734163,15.097101,17.148237,-47.940926,26.804731,19.85539,17.71682,-8.476683,-20.698217
87,3.548144817352295,-119.805908203125,69.04885864257812,2.599704786011907,-19.6607599913759,-82.73553279236343,-13.449313,15.517006,-2.9152694,50.651512,-14.56931,-15.000033,-24.347292,-27.27118,-10.016761,91.89674,-20.758024,5.4182906,1.0109107,-3.7222142,21.225643,31.897726,56.252377,23.741062,-11.374497,-4.4201264,-2.6493568,15.681,14.251606,-49.672043,28.09935,21.576496,17.435205,-8.443629,-21.426031
88,3.542351007461548,-120.83609008789062,68.57862854003906,2.41005660355763,-20.25765520154502,-82.46492050836882,-13.754139,15.798554,-3.36685,54.19237,-16.230616,-15.000033,-24.559708,-26.58567,-8.636683,87.94871,-19.864302,6.534237,0.659805,-3.154454,21.796646,29.229063,56.775745,24.102217,-12.937936,-4.6991405,-2.1878726,16.21404,11.514066,-51.205784,29.129604,22.591652,17.11081,-8.428907,-21.76215
89,3.537648916244507,-121.88782501220703,68.20789337158203,2.1670150753535062,-20.616345142194994,-81.91285004621587,-14.271589,16.050291,-3.8113487,57.48755,-17.514482,-15.000033,-24.120716,-25.859674,-7.6357594,82.66197,-19.192192,7.21246,0.1471741,-2.5672371,22.073847,26.755394,57.111847,23.917564,-14.370635,-4.901812,-1.9370048,16.774748,9.080387,-52.497128,29.673346,22.818113,16.669252,-8.483553,-21.550426
90,3.5388779640197754,-122.96560668945312,67.90866088867188,1.8893988859719746,-20.808797618531276,-81.15688226739123,-14.962845,16.243153,-4.33849,60.652683,-18.420958,-15.000033,-23.118505,-25.02822,-6.8241043,76.17993,-18.58632,7.669103,-0.45278367,-1.9637907,22.166866,24.419613,57.263348,23.322529,-15.760055,-5.054258,-1.8251799,17.353052,6.827357,-53.564514,29.867397,22.503317,16.037104,-8.599854,-20.971754
91,3.5567212104797363,-124.03006744384766,67.64479064941406,1.6823288702924717,-20.897299921465166,-80.37178043712983,-15.854793,16.322878,-4.906072,63.84801,-18.8343,-15.000033,-21.911076,-24.370155,-6.142145,70.22927,-18.414598,8.017481,-1.0033535,-1.3902205,22.194952,22.508749,57.25724,22.477032,-17.102446,-5.1018977,-1.7891915,17.776525,4.642574,-54.44402,29.870295,21.760271,15.34323,-8.7069025,-20.246315
92,3.5782482624053955,-125.07349395751953,67.3984375,1.6525401593342868,-20.947517630165613,-79.7303311489419,-16.975666,16.227398,-5.453776,67.245834,-18.64535,-15.000033,-20.919743,-24.141851,-5.56771,66.53552,-18.985287,8.4016,-1.3712233,-0.89962924,22.273754,21.311138,57.140156,21.542831,-18.387926,-4.993385,-1.7673451,17.868391,2.4201612,-55.17883,29.846016,20.673029,14.720928,-8.721813,-19.591042
93,3.597553014755249,-126.08979797363281,67.14486694335938,1.8594536070711858,-20.96146862195263,-79.18166311469317,-18.46673,15.761582,-6.122247,71.06657,-17.587603,-15.000033,-20.187744,-24.549452,-5.2330794,65.95252,-20.66695,8.915787,-1.6136389,-0.5615985,22.367641,21.089247,56.9479,20.544481,-19.753822,-4.7159905,-1.7783515,17.512114,0.17398344,-55.77861,29.7784,19.098116,14.193366,-8.628731,-18.949488
94,3.6031830310821533,-127.1007080078125,66.83982849121094,2.2428343804498065,-20.912470424289474,-78.66652767112669,-20.25948,14.980797,-6.8714404,75.166985,-15.792119,-15.000033,-19.566385,-25.426811,-5.113771,67.43045,-23.168835,9.48439,-1.7829686,-0.34001654,22.428175,21.714243,56.685722,19.469452,-21.179848,-4.3075814,-1.8494112,16.823004,-2.0599172,-56.23914,29.615088,17.045433,13.707405,-8.472655,-18.247381
95,3.613739013671875,-128.01971435546875,66.50203704833984,2.730251246167225,-20.824376369587593,-78.34576474473253,-22.071314,14.251795,-7.358895,79.152115,-13.738801,-15.000033,-19.17655,-26.43752,-4.96714,69.77401,-25.776787,10.009401,-1.7462906,-0.13261276,22.549002,22.849699,56.35215,18.400347,-22.409565,-3.7902455,-1.9324964,15.967882,-4.3579817,-56.583744,29.47808,14.80574,13.284143,-8.246391,-17.67262
96,3.641827344894409,-128.80218505859375,66.15345764160156,3.2322511449307756,-20.71754437467932,-78.38035635996856,-23.64476,14.015159,-7.2836537,82.638626,-11.921594,-15.000033,-19.145206,-27.197803,-4.563785,71.77105,-27.763693,10.386745,-1.3834513,0.17199518,22.821745,24.142914,55.92105,17.412804,-23.17586,-3.1970186,-1.9764575,15.112803,-6.8190227,-56.839245,29.519335,12.670008,12.958529,-7.9408236,-17.413252
97,3.7164018154144287,-129.4878692626953,65.8311996459961,3.714361327658469,-20.565634960503385,-78.8700716019771,-25.04475,14.638486,-6.449949,85.65578,-10.206074,-15.000033,-19.639296,-27.548807,-3.8317218,73.288445,-28.862879,10.560142,-0.6101624,0.6904874,23.271807,25.58136,55.34898,16.492434,-23.445845,-2.430369,-1.9345387,14.122023,-9.609242,-57.036198,29.85998,10.69209,12.745038,-7.5295873,-17.61688
98,3.829017162322998,-130.13694763183594,65.578369140625,4.19707969100478,-20.35979262473797,-79.70992686884708,-26.373692,15.917084,-5.1164284,88.4037,-8.426726,-15.000033,-20.537342,-27.658314,-2.9105792,74.9088,-29.490955,10.585317,0.46295208,1.3828552,23.823269,27.322609,54.61462,15.595693,-23.352789,-1.4950914,-1.8594875,12.958292,-12.646498,-57.165367,30.42116,8.707023,12.649506,-7.0197053,-18.158707
99,3.9480538368225098,-130.78277587890625,65.37872314453125,4.704063157715046,-20.149361569070326,-80.7546077831505,-27.432646,17.385439,-3.6473122,90.75324,-7.041589,-15.000033,-21.545506,-27.629599,-1.8930517,76.48139,-29.929451,10.536794,1.6805222,2.1073542,24.430279,29.237165,53.72997,14.734483,-22.87404,-0.5869945,-1.8324697,11.937581,-15.632269,-57.179417,31.0171,6.680959,12.678521,-6.4520535,-18.814613
100,4.058032989501953,-131.4446563720703,65.21035766601562,5.2860643007576,-19.985968368428306,-81.85601822643143,-28.03232,18.495024,-2.3412342,92.52201,-6.4801393,-15.000033,-22.373295,-27.608425,-0.8532403,77.84574,-30.455229,10.488292,2.8974602,2.6756117,25.07152,31.187014,52.738422,13.923172,-21.974354,0.08826996,-1.9154912,11.382091,-18.27498,-57.019196,31.458279,4.609158,12.819433,-5.8700833,-19.356773
101,4.151416778564453,-132.1074676513672,65.06415557861328,6.026548727494826,-19.93844591811206,-83.09235694717863,-27.979004,18.985361,-1.196374,93.62877,-7.070067,-15.000033,-22.965351,-27.626854,0.30145982,78.983116,-31.100975,10.432898,4.190405,3.014794,25.858734,33.167133,51.66759,13.096533,-20.532137,0.3953434,-2.1010828,11.510231,-20.537561,-56.639584,31.664772,2.4970605,13.148763,-5.25821,-19.802946
102,4.242671012878418,-132.75668334960938,64.95185852050781,6.88915840319743,-19.952276177039163,-84.50200451055107,-27.437195,19.113325,-0.035918932,94.162636,-8.497949,-15.000033,-23.468801,-27.630596,1.5828309,79.9661,-31.732676,10.344223,5.6220593,3.225492,26.76405,35.1817,50.539406,12.214086,-18.557045,0.46367964,-2.353215,12.112221,-22.552742,-56.031933,31.728395,0.3972359,13.626537,-4.6066527,-20.248251
103,4.331642150878906,-133.39988708496094,64.88248443603516,7.763186817103839,-19.902106351321986,-85.87423371737424,-26.778696,19.089144,1.111841,94.20064,-10.237052,-15.000033,-23.915424,-27.652952,2.815077,80.78971,-32.375214,10.2665205,7.0199676,3.3369975,27.570402,37.13907,49.39682,11.361442,-16.22089,0.4693124,-2.6828084,12.876327,-24.273716,-55.20573,31.723488,-1.6373868,14.060702,-3.967111,-20.578281
104,4.389468193054199,-134.05235290527344,64.8512191772461,8.527305409876417,-19.670741399696926,-86.98962529939497,-26.356537,19.144367,2.2200787,93.822395,-11.760134,-15.000033,-24.343,-27.740227,3.8263128,81.44962,-33.05748,10.245422,8.217062,3.3435283,28.069263,38.968296,48.285954,10.653698,-13.714542,0.5738004,-3.0940435,13.494391,-25.632656,-54.18881,31.694088,-3.580488,14.250724,-3.387575,-20.668497
105,4.4281206130981445,-134.72268676757812,64.84708404541016,9.226955865162054,-19.19518383841967,-87.81850987387233,-26.261322,19.162771,3.3016224,92.94069,-13.130201,-15.000033,-24.85218,-27.951565,4.6745,81.93413,-33.785885,10.304532,9.230647,3.1504877,28.219992,40.625977,47.216206,10.080279,-10.922774,0.7849994,-3.6360233,13.981958,-26.621939,-52.975323,31.56932,-5.448588,14.11575,-2.8843527,-20.41067
106,4.451310634613037,-135.4016571044922,64.8594970703125,9.892933704265022,-18.55561428850032,-88.46381874737415,-26.305597,19.084503,4.3466454,91.54394,-14.558436,-15.000033,-25.398481,-28.247953,5.418989,82.248764,-34.544476,10.413478,10.137607,2.7616556,28.13819,42.17234,46.182304,9.6118765,-7.7969565,1.0067682,-4.285936,14.4801235,-27.246433,-51.573658,31.335072,-7.281414,13.754241,-2.4334502,-19.883749
107,4.445042610168457,-136.09507751464844,64.8783950805664,10.401835242377045,-17.855850439855445,-88.9022411416546,-26.392548,19.225233,5.337959,89.82698,-15.743962,-15.000033,-25.80408,-28.54882,5.8947105,82.41625,-35.331787,10.54407,10.892602,2.31954,27.873632,43.706356,45.201145,9.344455,-4.702054,1.2444712,-4.939961,14.868312,-27.55428,-50.0401,31.129757,-9.008579,13.263046,-2.0155766,-19.245058
108,4.410739898681641,-136.79344177246094,64.89888000488281,10.63796105886826,-17.200247921349067,-89.11204769752479,-26.414034,19.893606,6.3020225,87.98689,-16.378574,-15.000033,-25.89286,-28.783253,5.9400764,82.466385,-36.14376,10.671867,11.443283,1.9639817,27.473307,45.298847,44.29101,9.364167,-1.985519,1.4944609,-5.496189,15.021721,-27.54055,-48.454876,31.062063,-10.606346,12.748668,-1.6070787,-18.65752
109,4.351191520690918,-137.5186767578125,64.93304443359375,10.518099916535133,-16.570378225492174,-89.0879992804518,-26.383837,21.454098,7.422662,85.994835,-16.181684,-15.000033,-25.573135,-28.883404,5.42527,82.2798,-37.057724,10.803543,11.798558,1.7792284,26.887548,46.919052,43.45186,9.733269,0.33453494,1.7551227,-5.942641,14.800635,-27.065275,-46.869526,31.08059,-12.233918,12.201641,-1.1701303,-18.112087
110,4.270155906677246,-138.27239990234375,64.9835433959961,10.1424349615376,-15.932963239153477,-88.85259195317447,-26.303173,23.61126,8.735122,83.77611,-15.408958,-15.000033,-24.948626,-28.908655,4.476926,81.88417,-38.04778,10.9557905,11.997802,1.6721517,26.133871,48.543873,42.670254,10.39906,2.387424,2.0205102,-6.3303614,14.301859,-26.143967,-45.310932,31.115488,-13.923132,11.621019,-0.72579986,-17.537441
111,4.170894145965576,-139.04339599609375,65.04261779785156,9.663062089623297,-15.36403877343866,-88.4188354865384,-26.076773,25.691103,10.0014305,81.44936,-14.53884,-15.000033,-24.123663,-28.978575,3.298879,81.51211,-38.95683,11.115858,12.018105,1.5330945,25.360022,50.15957,41.950287,11.233532,4.1258254,2.276271,-6.653517,13.754445,-24.848158,-43.809357,31.199205,-15.562572,11.042256,-0.33179817,-17.017914
112,4.083271026611328,-139.83392333984375,65.10523223876953,9.222909741649291,-14.930208631082488,-87.78663175366859,-25.661629,27.05012,10.886218,79.119255,-14.009434,-15.000033,-23.209845,-29.221106,2.0800152,81.40775,-39.62955,11.265998,11.829969,1.2532659,24.69638,51.743954,41.310425,12.104261,5.518625,2.5076282,-6.9043055,13.390152,-23.340574,-42.402477,31.39542,-16.964102,10.559226,-0.044500627,-16.638506
113,3.9952988624572754,-140.62733459472656,65.16017150878906,8.831816798869312,-14.661476890859017,-86.89086169918906,-25.065346,27.473604,11.131887,76.69393,-13.758273,-15.000033,-22.12425,-29.675688,0.8010205,81.57012,-40.074043,11.41675,11.39219,0.8062713,24.16674,53.32247,40.774654,13.021579,6.538085,2.7478893,-7.0552,13.307262,-21.539135,-41.123558,31.730465,-18.169716,10.210996,0.100566596,-16.496597
114,3.9172921180725098,-141.43394470214844,65.21307373046875,8.415014216084629,-14.510303921424288,-85.75318243868276,-24.336199,27.344889,10.893076,74.148544,-13.594722,-15.000033,-20.826885,-30.251959,-0.6339576,81.891754,-40.35959,11.566271,10.758006,0.2710472,23.700079,54.87511,40.34885,14.031079,7.215805,2.9909217,-7.1178637,13.370301,-19.368055,-39.9889,32.146786,-19.27815,9.9666815,0.14375788,-16.528776
115,3.85360050201416,-142.23873901367188,65.26695251464844,7.987787355159356,-14.427445984975984,-84.49884393731786,-23.511642,26.943083,10.399637,71.68486,-13.747537,-15.000033,-19.499063,-30.896257,-2.150478,82.46187,-40.413685,11.67101,10.0241585,-0.3033546,23.286148,56.269264,40.03115,15.0396595,7.653551,3.1601741,-7.143379,13.462068,-16.9491,-38.99486,32.574665,-20.217527,9.770341,0.13878097,-16.587019
116,3.78908634185791,-143.05824279785156,65.31076049804688,7.566974971094392,-14.36482654781876,-83.24880333025311,-22.634922,26.534939,9.903757,69.502975,-14.44045,-15.000033,-18.325768,-31.56975,-3.6687262,83.366615,-40.172283,11.685086,9.278122,-0.8692314,22.907688,57.38275,39.819046,15.945767,7.951874,3.1820972,-7.1836133,13.46796,-14.419494,-38.123226,32.95691,-20.896357,9.565327,0.14090668,-16.524174
117,3.743675708770752,-143.90145874023438,65.3396224975586,7.128401721371298,-14.341939592010911,-82.00455375827283,-21.584276,26.148434,9.459564,67.60642,-16.049242,-15.000033,-17.269268,-32.28579,-5.21964,84.67228,-39.595516,11.619934,8.509268,-1.391575,22.547447,58.23315,39.712994,16.738903,8.099724,2.9161897,-7.247252,13.316001,-11.748045,-37.368225,33.327065,-21.32146,9.360216,0.1684821,-16.267607
118,3.6921918392181396,-144.73568725585938,65.33414459228516,6.6672623071610495,-14.374082890340654,-80.71163405179145,-20.381878,25.664103,8.913433,65.904236,-18.345701,-15.000033,-16.240313,-33.06689,-6.821775,86.320015,-38.735073,11.469825,7.678721,-1.9034905,22.21584,58.866623,39.72298,17.467829,8.074971,2.441124,-7.3070135,13.080227,-8.900477,-36.729572,33.717464,-21.51218,9.175398,0.18936989,-15.90968
119,3.6212730407714844,-145.54977416992188,65.31505584716797,6.24904782454154,-14.411063050661273,-79.40543975364383,-19.295723,25.120481,8.231942,64.46146,-20.648262,-15.000033,-15.360539,-33.917896,-8.371913,88.21315,-37.665325,11.163693,6.8278165,-2.4596517,21.928305,59.226833,39.86224,18.121765,7.9444437,2.013892,-7.362632,12.865317,-6.018121,-36.18673,34.069412,-21.374786,8.976779,0.18213427,-15.55109
120,3.5135507583618164,-146.3326416015625,65.292236328125,5.932231972474045,-14.404223086625613,-78.12065033337261,-18.58487,24.55754,7.4028378,63.344994,-22.281868,-15.000033,-14.76102,-34.8511,-9.769354,90.255356,-36.458694,10.634098,5.994397,-3.1166115,21.693506,59.250248,40.15061,18.68498,7.7841954,1.8882315,-7.4169183,12.777484,-3.245286,-35.706097,34.326492,-20.81304,8.725258,0.12525043,-15.29017
121,3.371222972869873,-147.0994873046875,65.2663803100586,5.734897480427332,-14.353056478810519,-76.86672381432854,-18.377367,24.001833,6.397778,62.69938,-23.013319,-15.000033,-14.482969,-36.049732,-11.134121,92.56547,-34.927383,9.835849,5.1862082,-3.8955538,21.51238,58.88768,40.605824,19.13308,7.5890255,2.20988,-7.489099,12.855132,-0.5132595,-35.246494,34.475018,-19.798973,8.483677,0.03105944,-15.164901
122,3.198679208755493,-147.85470581054688,65.2410888671875,5.632136809402947,-14.28785574173911,-75.61949468786898,-18.501684,23.417404,5.254644,62.453915,-23.231394,-15.000033,-14.429861,-37.515556,-12.473767,95.15846,-33.12979,8.763542,4.3782125,-4.7724776,21.360054,58.17724,41.236538,19.470207,7.350177,2.8090425,-7.5710926,13.038655,2.19696,-34.790913,34.56149,-18.334866,8.240456,-0.09480363,-15.115946
123,3.033703088760376,-148.59878540039062,65.20259094238281,5.616665959353902,-14.204990733782493,-74.36645335160848,-18.770273,22.770985,4.0786014,62.35106,-23.180098,-15.000033,-14.56805,-38.955864,-13.52358,97.76616,-31.488232,7.464147,3.5575948,-5.732204,21.20755,57.160526,42.048058,19.71853,7.152575,3.465015,-7.626237,13.286718,4.67542,-34.352406,34.60872,-16.374247,7.842444,-0.2847792,-15.09872
124,2.846036672592163,-149.3419647216797,65.16939544677734,5.673798295212657,-14.09356125164612,-73.10573732224645,-18.998877,22.04966,2.9656596,62.127167,-23.103941,-15.000033,-14.923824,-40.000046,-14.00278,100.09795,-30.378193,6.0599174,2.7252553,-6.742075,21.028112,55.86928,43.04246,19.892962,7.072858,3.959182,-7.619814,13.557759,6.735617,-33.967335,34.61118,-13.900327,7.139706,-0.5709952,-15.074993
125,2.619611978530884,-150.0782928466797,65.13825988769531,5.841010070162888,-13.924672892922102,-71.8333767082722,-19.195328,21.214672,1.9357227,61.751907,-22.996387,-15.000033,-15.657996,-40.492115,-13.716721,102.145294,-29.903872,4.359681,1.8787023,-7.849249,20.803251,54.29547,44.231873,19.974873,7.1162624,4.2907953,-7.550213,13.836453,8.474651,-33.6519,34.52645,-10.886864,5.734126,-0.9993433,-15.018364
126,2.374166488647461,-150.8052520751953,65.11681365966797,6.105305798435989,-13.711847629469544,-70.55854903246812,-19.439423,20.301525,0.94258475,61.35183,-22.75189,-15.000033,-16.764614,-40.57065,-12.861839,104.0304,-29.812412,2.4220343,1.0357671,-9.0254755,20.537663,52.36687,45.614098,19.912586,7.25966,4.551046,-7.4338527,14.148164,9.99963,-33.415794,34.321404,-7.3910394,3.824414,-1.5418053,-14.97744
127,2.1206300258636475,-151.52548217773438,65.1141357421875,6.368788969359751,-13.502159841765678,-69.30365146797254,-19.666298,19.422344,-0.03335345,60.90239,-22.468262,-15.000033,-18.046597,-40.264553,-11.688255,105.656395,-29.909061,0.82685184,0.23351423,-10.117404,20.260118,50.016052,47.15741,19.667625,7.5248995,4.666085,-7.266388,14.512478,11.155445,-33.304817,33.985302,-3.5481663,2.158655,-2.1207476,-15.02099
128,1.871084451675415,-152.2227020263672,65.11549377441406,6.530349498618841,-13.338346207391359,-68.09050173949524,-19.812763,18.686018,-1.0162693,60.38128,-22.245577,-15.000033,-19.287659,-39.636627,-10.440722,106.92639,-30.031128,0.15311453,-0.49701148,-10.981745,20.02186,47.19717,48.811016,19.218508,7.9159,4.570389,-7.045593,14.947933,11.791707,-33.390568,33.514706,0.47940195,1.4873362,-2.6583142,-15.199251
129,1.6132311820983887,-152.8916473388672,65.11796569824219,6.54866660586038,-13.217489016410923,-66.93389647782217,-19.852623,18.143566,-2.0114908,59.752678,-22.130508,-15.000033,-20.461884,-38.440407,-9.069988,107.7653,-30.20792,0.82606244,-1.1855717,-11.579825,19.84486,43.857605,50.55049,18.492947,8.502115,4.192775,-6.768042,15.606709,11.816196,-33.750645,33.003784,4.778246,2.2747335,-3.156253,-15.534049
130,1.3646197319030762,-153.54220581054688,65.12378692626953,6.4768430017424174,-13.119828706005386,-65.81800578902076,-19.821266,17.729822,-3.0142438,59.036465,-22.06501,-15.000033,-21.608198,-36.736557,-7.5376897,108.25556,-30.564573,2.4436834,-1.8370286,-11.983584,19.728975,39.97755,52.35133,17.471361,9.250286,3.5834641,-6.445801,16.43474,11.397995,-34.423378,32.40769,9.286225,4.051206,-3.663037,-15.982582
131,1.123462438583374,-154.15963745117188,65.12174987792969,6.368368628515926,-13.064504133583474,-64.71796652450621,-19.75675,17.379318,-4.0326777,58.305065,-21.995525,-15.000033,-22.636238,-35.08381,-6.073978,108.525345,-31.09136,4.312267,-2.4013805,-12.242195,19.698528,35.62289,54.153397,16.24609,9.987057,2.8764029,-6.0948114,17.135935,10.754993,-35.411945,31.54144,13.631836,6.1639977,-4.171393,-16.485374
132,0.8634777069091797,-154.75221252441406,65.10738372802734,6.267713538570189,-13.065498708572024,-63.61019237542328,-19.699568,17.028624,-5.0703936,57.63004,-21.865458,-15.000033,-23.525784,-34.020157,-4.841271,108.689926,-31.69281,5.7584352,-2.8541663,-12.422372,19.770458,30.936623,55.885723,14.9596195,10.5062685,2.2300398,-5.7197304,17.408163,10.05754,-36.69915,30.247839,17.485767,7.959698,-4.6566577,-16.989204
133,0.5997052192687988,-155.32261657714844,65.0844955444336,6.1529857995598185,-13.146242823647441,-62.47897314479566,-19.673872,16.68037,-6.161173,57.076103,-21.686161,-15.000033,-24.278091,-33.849567,-4.0004,108.757576,-32.344074,6.543719,-3.2125282,-12.537493,19.97321,25.834284,57.459953,13.638605,10.736952,1.6964877,-5.3010826,17.073795,9.303438,-38.28093,28.397337,20.904287,9.540636,-5.0756116,-17.581991
134,0.29950419068336487,-155.8623504638672,65.04589080810547,6.007966245497614,-13.288982016963661,-61.33858784059993,-19.658073,16.36077,-7.2896514,56.590782,-21.477701,-15.000033,-24.956749,-34.236744,-3.3758657,108.66509,-33.054455,7.0464077,-3.5567455,-12.586984,20.28796,20.37682,58.8543,12.269385,10.730317,1.236499,-4.8367505,16.327572,8.378296,-40.181694,26.17328,24.044577,11.16312,-5.4558473,-18.24716
135,-0.02811978943645954,-156.38226318359375,64.98854064941406,5.889222312831431,-13.44788623149885,-60.21353286911842,-19.62679,16.046364,-8.384338,56.072014,-21.195545,-15.000033,-25.650114,-34.7307,-2.6112509,108.41169,-33.744423,7.535562,-3.9437797,-12.59934,20.64985,14.900808,60.139,10.909868,10.4878235,0.87197,-4.3543687,15.420483,7.280183,-42.407303,23.874382,26.752016,12.398763,-5.8461123,-18.788767
136,-0.38567784428596497,-156.89724731445312,64.93285369873047,5.857929315933974,-13.581844208689178,-59.12845148641811,-19.55272,15.712295,-9.375847,55.416874,-20.796358,-15.000033,-26.420742,-34.891163,-1.363385,108.00357,-34.348938,8.268484,-4.3862348,-12.5978,20.996881,9.713091,61.437992,9.59499,10.01625,0.5983565,-3.8812804,14.593614,6.0163865,-44.93434,21.763788,28.874228,12.809682,-6.2790356,-19.014406
137,-0.7897921800613403,-157.4101104736328,64.87875366210938,5.9340301783234315,-13.69755720555777,-58.054388265165734,-19.459755,15.322072,-10.278302,54.643936,-20.284464,-15.000033,-27.27734,-34.712368,0.4584441,107.4392,-34.903606,9.2584915,-4.886473,-12.638024,21.307772,4.7179904,62.80998,8.254036,9.269782,0.4113738,-3.4207556,13.731552,4.5119367,-47.730076,19.835222,30.451506,12.044171,-6.777552,-18.791037
138,-1.223933458328247,-157.93161010742188,64.83863830566406,6.085886667342137,-13.81798481076103,-56.98678015375474,-19.355888,14.899031,-11.125356,53.799633,-19.683254,-15.000033,-28.148119,-34.39649,2.6513271,106.72498,-35.451363,10.371387,-5.4227915,-12.712457,21.592852,-0.30721897,64.25402,6.7567506,8.313456,0.28268668,-2.9601471,12.76051,2.6809382,-50.767727,18.07065,31.650406,10.416563,-7.3249626,-18.254288
139,-1.685063362121582,-158.45274353027344,64.8210678100586,6.298388454808921,-13.927309639867076,-55.98931716639496,-19.174524,14.509392,-11.86654,52.793648,-18.956427,-15.000033,-28.926683,-33.828976,5.1003017,105.87365,-35.94731,11.639446,-5.9188557,-12.736514,21.850311,-5.2908807,65.8243,5.0229363,7.320143,0.16087805,-2.500348,11.975993,0.5313477,-54.012016,16.667667,32.48888,8.482991,-7.8917956,-17.614399
140,-2.164076566696167,-158.98190307617188,64.83995056152344,6.55532410911831,-14.007067540645734,-55.125135401625705,-18.853895,14.216144,-12.45528,51.542057,-18.078386,-15.000033,-29.503284,-32.90293,7.6890535,104.90401,-36.35354,13.099438,-6.2923174,-12.63265,22.083294,-10.126871,67.60429,3.02244,6.442424,-0.023773262,-2.0388057,11.667599,-1.960824,-57.40099,15.844363,32.983463,6.806517,-8.431242,-17.075787
141,-2.675842761993408,-159.50820922851562,64.89177703857422,6.875285524667302,-14.062588776423022,-54.42318738942427,-18.368553,14.01394,-12.857749,50.028324,-17.0657,-15.000033,-29.843536,-31.556417,10.5113325,103.78785,-36.689045,14.83231,-6.546796,-12.411083,22.297226,-14.799478,69.73321,0.66553175,5.6098194,-0.22484615,-1.5199614,11.997486,-5.0246997,-60.922935,15.86976,33.12189,5.4102407,-8.9533415,-16.694
142,-3.2564857006073,-160.05697631835938,64.9946517944336,6.920502177374076,-14.021744957459227,-53.992848100933394,-17.837667,14.364504,-13.223966,48.32557,-15.970445,-15.000033,-30.01059,-29.600502,12.878596,102.54007,-36.94467,15.000033,-6.572885,-11.779261,22.480051,-19.501953,72.21941,-2.1271539,4.7602444,-0.5002962,-0.9653806,12.785546,-8.868085,-64.522766,16.845161,32.932255,4.049175,-9.484403,-16.365604
143,-3.8809635639190674,-160.6214599609375,65.12870025634766,6.901032052629402,-13.972895244251873,-53.644705868372746,-17.200377,14.902241,-13.534664,46.40413,-14.6981735,-15.000033,-29.810482,-27.353708,15.109315,101.23153,-37.16878,15.000033,-6.4543653,-11.004132,22.689997,-24.335503,74.91405,-5.2523727,3.9919837,-1.0222768,-0.48800492,13.796595,-13.416986,-68.04185,18.645891,32.457817,2.8516092,-9.981541,-16.053905
144,-4.531488418579102,-161.2029266357422,65.30089569091797,6.882572213785932,-13.929384109605648,-53.29419579689748,-16.461763,15.504269,-13.800566,44.239246,-13.17648,-15.000033,-29.20738,-25.041641,17.137966,99.93306,-37.36359,15.000033,-6.181567,-10.174226,22.95081,-29.252552,77.61223,-8.454558,3.3630023,-1.8871914,-0.19942982,14.792784,-18.503784,-71.30815,21.014658,31.75518,1.8959261,-10.401921,-15.73503
145,-5.212844371795654,-161.79684448242188,65.50685119628906,6.8238589362540125,-13.894066215763319,-53.00465508266953,-15.577335,16.248606,-14.002178,41.810913,-11.447546,-15.000033,-28.172045,-22.43506,19.071074,98.623405,-37.524338,15.000033,-5.6899896,-9.206422,23.278986,-34.18016,80.25075,-11.597331,2.8962495,-3.0958238,-0.16792686,15.773592,-24.12878,-74.27537,23.90712,30.806652,1.1662836,-10.720703,-15.407722
146,-5.927746772766113,-162.4097442626953,65.7534408569336,6.746824548736127,-13.878054658235579,-52.76389153749032,-14.540912,17.093132,-14.121634,39.127804,-9.522462,-15.000033,-26.712784,-19.580578,20.998114,97.278305,-37.674732,15.000033,-5.0066395,-8.098162,23.670305,-39.104412,82.86249,-14.734522,2.4694557,-4.490416,-0.33268064,16.817888,-30.332373,-76.95814,27.399948,29.50398,0.56499547,-10.958472,-15.102215
147,-6.67278528213501,-163.03631591796875,66.03551483154297,6.737372361807245,-13.850006797699935,-52.44048661457229,-13.472308,17.867096,-14.169628,36.22104,-7.2684155,-15.000033,-25.002462,-16.991177,22.73909,95.94618,-37.782078,15.000033,-4.1908965,-6.959402,24.067305,-43.998478,85.36167,-17.83405,1.9798948,-5.89688,-0.60229653,17.807693,-36.925323,-79.29068,31.317133,27.85376,0.031746577,-11.141204,-14.846221
148,-7.457749366760254,-163.682861328125,66.33934020996094,6.879256527247698,-13.752815900560504,-51.93189374722297,-12.518491,18.427765,-14.1489935,33.130623,-4.560083,-15.000033,-23.310638,-15.124473,24.068316,94.67408,-37.76606,15.000033,-3.2545028,-5.869715,24.378187,-48.840096,87.57564,-20.875124,1.3749481,-7.096733,-0.87303615,18.624756,-43.641933,-81.1969,35.40198,25.937307,-0.5267548,-11.295943,-14.668266
149,-8.272433280944824,-164.3391571044922,66.67070007324219,7.140531082698583,-13.554715650394694,-51.276594406465634,-11.67235,18.868078,-14.119995,29.786098,-1.4004868,-15.000033,-21.762224,-13.971125,24.856585,93.57673,-37.503773,15.000033,-2.115862,-4.7566576,24.525211,-53.773506,89.35135,-23.979158,0.77049094,-8.106231,-1.1082239,19.233181,-50.395706,-82.65038,39.564297,23.858732,-1.1580139,-11.451872,-14.602312
150,-9.11933708190918,-164.99932861328125,67.01937103271484,7.485880897797769,-13.267097810041081,-50.53610187603467,-10.895014,19.228395,-14.038995,26.211695,2.139331,-15.000033,-20.309494,-13.259715,25.21003,92.58757,-37.01532,15.000033,-0.7134075,-3.5626605,24.474796,-59.02721,90.64224,-27.39407,0.33758923,-8.9456835,-1.3562827,19.687786,-57.20529,-83.65923,43.88219,21.692558,-1.8052185,-11.586899,-14.616683
151,-9.995019912719727,-165.6658477783203,67.37836456298828,7.97797182544661,-12.882362980911742,-49.65787784387565,-10.308949,19.329563,-13.76354,22.595043,6.1005063,-15.000033,-18.995743,-13.022277,25.21152,91.47795,-36.408314,15.000033,0.9190619,-2.3863637,24.216433,-64.70695,91.48096,-31.296932,0.13661815,-9.4615345,-1.6352543,20.026438,-63.894108,-84.18909,48.25024,19.524778,-2.4229646,-11.653616,-14.641333
152,-10.892631530761719,-166.33346557617188,67.73963165283203,8.682624566448755,-12.397388842152264,-48.586707472556654,-10.040355,19.025856,-13.173589,19.11035,10.536709,-15.000033,-17.842619,-13.298591,24.931232,90.02259,-35.81097,15.000033,2.7262871,-1.3568922,23.768013,-70.82016,91.95934,-35.77044,0.18852402,-9.512098,-1.9629068,20.291758,-70.21157,-84.218285,52.466763,17.412783,-2.9526389,-11.606553,-14.61386
153,-11.8143310546875,-166.99301147460938,68.08818817138672,9.69923343508115,-11.803876588139737,-47.27155597822694,-10.22646,18.310684,-12.224086,15.703832,16.097506,-15.000033,-16.819702,-14.187585,24.327892,88.22183,-34.96823,15.000033,4.656757,-0.6022132,23.143877,-77.35724,92.170616,-40.80196,0.5042954,-8.911942,-2.3451602,20.490135,-75.93062,-83.73744,56.217518,15.295535,-3.297054,-11.408584,-14.536947
154,-12.744786262512207,-167.65638732910156,68.44169616699219,10.973754910768038,-11.143973811110351,-45.73657527905043,-10.793443,17.28705,-11.04648,12.359103,22.530123,-15.000033,-15.87154,-15.662275,23.273575,86.20513,-33.95981,15.000033,6.702645,-0.112126485,22.405922,-84.25782,92.1751,-46.321457,1.0872854,-7.882452,-2.7685683,20.637417,-80.84064,-82.77133,59.249954,13.194059,-3.4964356,-11.094233,-14.451228
155,-13.692036628723145,-168.3211212158203,68.79290008544922,12.324302989015184,-10.495371220449766,-44.041058740546596,-11.447016,16.055773,-9.764837,9.07715,28.651678,-15.000033,-14.951005,-17.599981,21.66798,83.92592,-33.41844,15.000033,8.850262,0.22234757,21.645428,-91.3318,92.000275,-52.209904,1.9324632,-6.8640356,-3.2236238,20.778217,-84.81263,-81.386894,61.533314,11.261114,-3.689992,-10.722785,-14.340888
156,-14.591564178466797,-168.98046875,69.07962799072266,13.265765491599392,-10.029790464746577,-42.412736515203584,-14.154597,14.715406,-9.215957,10.990302,30.000067,-15.000033,-13.828345,-19.50915,19.321404,81.32408,-33.998837,15.000033,11.18814,0.90672004,20.969917,-98.32662,91.65718,-58.294376,3.0583615,-6.308313,-3.6992118,20.93592,-87.920166,-79.669945,63.25358,9.631028,-3.9951472,-10.364138,-14.163195
157,-15.478697776794434,-169.6757049560547,69.3150863647461,13.736586668992453,-9.619867276275507,-40.658787542533624,-16.393333,13.713447,-8.573486,12.198754,30.000067,-15.000033,-12.318318,-21.635166,15.4120035,77.86771,-36.33164,13.741786,13.621953,1.9501431,20.163923,-104.96803,91.160225,-64.289986,4.390273,-6.3722715,-4.203631,21.12503,-90.18904,-77.67967,64.430214,8.255707,-4.4531164,-9.986996,-13.888295
158,-16.41354751586914,-170.4171600341797,69.52848815917969,13.918925564082063,-9.183247649630548,-38.73792309790223,-17.862782,13.085092,-7.714332,11.529477,30.000067,-15.000033,-10.2672,-23.724371,10.091603,73.71947,-40.011547,11.157455,16.129246,3.1600251,19.141813,-111.01846,90.55006,-69.926285,5.8951163,-6.7821026,-4.7414484,21.30528,-91.67979,-75.46406,65.03128,7.036659,-5.0202627,-9.57061,-13.528527
159,-17.382976531982422,-171.19195556640625,69.73079681396484,14.12519697350988,-8.731002445366594,-36.831723976142044,-18.976498,12.594884,-6.7271347,10.261475,30.000067,-15.000033,-8.079008,-25.48289,4.6582932,69.7375,-43.91879,9.104667,18.750986,4.236047,18.0779,-116.33453,89.88386,-75.07169,7.6025286,-7.2920504,-5.3108964,21.438404,-92.57772,-73.08679,65.22817,6.0582504,-5.676132,-9.177458,-13.150747
160,-18.390380859375,-171.9756622314453,69.885498046875,14.453892273343412,-8.27828915050523,-35.128084367980875,-19.883661,12.213376,-5.676696,9.251527,30.000067,-15.000033,-6.441284,-26.596283,0.15431044,66.80059,-46.842445,7.431617,21.535149,5.093616,17.13596,-120.89235,89.21699,-79.713684,9.550438,-7.664218,-5.909571,21.502949,-93.07408,-70.61196,65.221825,5.4076905,-6.387417,-8.865564,-12.838049
161,-19.43833351135254,-172.74603271484375,70.04401397705078,14.971684880919684,-7.7815587884620525,-33.713023535909585,-20.396902,11.779741,-4.6736994,8.295721,30.000067,-15.000033,-5.9143753,-27.161736,-2.9032276,65.25656,-48.425285,5.870724,24.651026,5.742042,16.370106,-124.74587,88.59127,-83.86471,11.812128,-7.768849,-6.5701284,21.480806,-93.19427,-68.08531,65.062386,5.08726,-7.128448,-8.626098,-12.642645
162,-20.54918670654297,-173.50137329101562,70.23100280761719,15.612841007571186,-7.2524380304400875,-32.46310226272907,-20.40239,11.223325,-3.6224692,6.9730744,30.000067,-15.000033,-6.213314,-27.488144,-5.0748796,64.60071,-49.283123,4.3529186,28.037127,6.276651,15.692902,-127.89404,88.033936,-87.52455,14.313258,-7.7469964,-7.282517,21.380775,-92.987366,-65.54477,64.819534,5.0085316,-7.9116535,-8.432273,-12.50457
163,-21.713336944580078,-174.26385498046875,70.41749572753906,16.341560796207293,-6.79020052398403,-31.235946022599475,-19.969217,10.561791,-2.2325337,5.4966836,30.000067,-15.000033,-6.8667526,-27.761972,-6.826813,64.447464,-49.671215,2.8653324,31.374968,6.703021,15.122994,-130.28944,87.57029,-90.714035,16.88196,-7.7778783,-7.981993,21.231369,-92.63644,-63.03556,64.67443,5.1407895,-8.743122,-8.313305,-12.351511
164,-22.915189743041992,-175.03697204589844,70.612548828125,17.139834547613663,-6.503066343548658,-29.90127986817975,-19.632864,9.804747,-0.3030363,5.0710115,29.323711,-15.000033,-7.3677793,-28.143618,-8.616356,64.40712,-49.83818,1.4474692,34.35175,7.018035,14.720406,-131.8641,87.227264,-93.417694,19.347717,-8.039621,-8.60429,21.059671,-92.29872,-60.60292,64.76351,5.466074,-9.621456,-8.299838,-12.117246
165,-24.119232177734375,-175.79702758789062,70.81404876708984,18.11889152865389,-6.413175036659066,-28.615805911780008,-18.995605,8.935421,2.5254326,5.1522818,28.292353,-15.000033,-7.8901324,-28.782125,-10.143309,64.75537,-49.727783,0.1493095,37.045975,7.2247534,14.701682,-132.5,87.05661,-95.575745,21.837511,-8.675558,-9.159807,20.923271,-91.99146,-58.278873,65.104225,5.945236,-10.578071,-8.478951,-11.731239
166,-25.313264846801758,-176.5829315185547,71.0420913696289,19.28572634886393,-6.48134703175682,-27.391058756641577,-18.986418,8.052033,5.834438,7.723714,25.782671,-15.000033,-8.633787,-29.63885,-11.268411,65.56786,-49.214394,-1.1108224,39.587208,7.4005747,15.042002,-132.21378,87.101944,-97.11763,24.35076,-9.5508,-9.675826,20.78635,-91.63961,-56.08542,65.63342,6.5843334,-11.584521,-8.810484,-11.252882
167,-26.45726203918457,-177.41595458984375,71.27605438232422,20.349116117967903,-6.710583184013274,-25.9598043255914,-20.056343,7.629332,9.076289,13.444836,21.622204,-15.000033,-9.11628,-30.482986,-12.629651,66.30045,-48.553116,-2.3533993,41.825935,7.6827826,15.397578,-131.13766,87.3579,-98.00415,26.522928,-10.413283,-10.108256,20.55135,-91.24326,-54.050358,66.331795,7.4347363,-12.558638,-9.130571,-10.815187
168,-27.527299880981445,-178.32774353027344,71.50083923339844,21.018694817672777,-7.081260827422802,-24.01808572822568,-21.017534,7.740047,11.92305,19.317944,17.64811,-15.000033,-8.843999,-31.07245,-14.916511,66.4153,-48.008904,-3.5801308,43.593655,8.091892,15.406016,-129.4411,87.77258,-98.249756,28.009611,-11.007636,-10.409114,20.133272,-90.79408,-52.205334,67.1707,8.538596,-13.422939,-9.269007,-10.550606
169,-28.533803939819336,-179.2950439453125,71.73222351074219,21.23107211416396,-7.563300425062236,-21.359938723985366,-21.948061,8.358266,14.925554,25.342913,14.028742,-13.910992,-7.639176,-31.3983,-18.45,65.7454,-47.636272,-4.7819986,44.77027,8.4962845,14.961769,-127.080826,88.28769,-97.835884,28.704678,-11.324105,-10.554484,19.466509,-90.20501,-50.580807,68.127525,9.926436,-14.177548,-9.1283045,-10.543175
170,-29.48923110961914,-180.31028747558594,71.96952819824219,21.20880295765038,-8.141233426650425,-18.09533498344561,-22.699375,9.29328,18.241474,31.478567,10.603514,-11.758638,-5.822892,-31.654356,-22.839254,64.63011,-47.29383,-5.9038434,45.4076,8.760028,14.333322,-123.99955,88.86235,-96.7576,28.822079,-11.481575,-10.56854,18.621992,-89.46773,-49.196404,69.19078,11.521385,-14.84929,-8.808934,-10.708989
171,-30.391874313354492,-181.37051391601562,72.21300506591797,20.986927553509197,-8.803904173562403,-14.457750316721127,-23.253078,10.387755,20.900362,37.600533,7.2832327,-9.6308365,-3.637395,-31.684088,-27.697014,63.23018,-46.947704,-6.925858,45.683132,8.95784,13.64792,-120.42582,89.44872,-95.14239,28.517008,-11.413031,-10.478894,17.725521,-88.682655,-48.062332,70.32654,13.20882,-15.408714,-8.436669,-10.930482
172,-31.2376766204834,-182.46864318847656,72.44325256347656,20.757098928948608,-9.567089737504455,-10.581890501339844,-23.582876,11.23358,22.410927,43.317165,4.173821,-7.6413293,-1.3435887,-31.638906,-32.63911,61.766403,-46.571384,-7.7555623,45.663612,9.033175,13.114933,-116.671265,90.002945,-93.21794,27.968971,-11.064541,-10.316347,16.897156,-87.95135,-47.184055,71.492165,14.877896,-15.830662,-8.141399,-11.08737
173,-32.02029800415039,-183.5985107421875,72.64421081542969,20.56149616817003,-10.460911953164187,-6.374439041051752,-23.832022,11.421976,22.417953,48.633266,1.4016494,-5.9145656,1.1112853,-31.577278,-37.68983,60.23372,-46.20757,-8.324879,45.266373,8.905799,12.786125,-112.986176,90.490845,-91.23455,27.172533,-10.32155,-10.057995,16.145723,-87.30436,-46.57249,72.65354,16.515844,-16.17502,-7.960802,-11.160993
174,-32.7494010925293,-184.73573303222656,72.82173156738281,20.278963352580327,-11.457396908375586,-1.7776733288259055,-24.11302,11.088085,21.335274,53.782673,-1.0448784,-4.416963,3.7982595,-31.368011,-43.00257,58.53161,-45.843067,-8.694158,44.46734,8.577056,12.542632,-109.43279,90.89798,-89.316956,26.098549,-9.272173,-9.704728,15.403199,-86.6539,-46.237713,73.787994,18.142275,-16.434988,-7.825476,-11.213275
175,-33.44035339355469,-185.87339782714844,72.97294616699219,19.85989879272692,-12.491561106297663,3.0283600056729263,-24.366465,10.672621,19.809528,58.724857,-3.2775147,-3.0335765,6.5096765,-30.93145,-48.412857,56.736294,-45.38123,-8.9615555,43.41879,8.123126,12.330374,-106.00103,91.232414,-87.471954,24.88995,-8.165235,-9.321132,14.676909,-85.936485,-46.180183,74.87895,19.709602,-16.492035,-7.7061467,-11.242324
176,-34.08904266357422,-187.0057830810547,73.126220703125,19.26523079333119,-13.496708775756305,7.867721740023333,-24.509737,10.70401,18.430748,63.393085,-5.4464726,-1.6109796,9.033108,-30.224035,-53.75129,54.926277,-44.723644,-9.2229,42.27403,7.63537,12.103922,-102.600334,91.51169,-85.61894,23.673908,-7.243931,-8.96655,13.981275,-85.1095,-46.392952,75.937004,21.1866,-16.22692,-7.5739655,-11.244402
177,-34.71337127685547,-188.11428833007812,73.28950500488281,18.437541949300954,-14.472818156302445,12.762102211390756,-24.538805,11.370295,17.154285,67.98835,-7.636424,-0.047900014,11.3709755,-29.1822,-59.09427,53.091915,-43.8871,-9.512597,41.015823,7.1860595,11.822112,-99.19398,91.75063,-83.71598,22.471533,-6.5721383,-8.654387,13.339165,-84.289566,-46.875946,77.035286,22.553497,-15.476623,-7.4321427,-11.179736
178,-35.30148696899414,-189.2040557861328,73.46873474121094,17.39803991227525,-15.413712621831802,17.807796397080278,-24.494093,12.395563,15.717808,72.47254,-9.766239,1.5592641,13.561825,-27.837448,-64.454956,51.173214,-42.897816,-9.769663,39.58217,6.722249,11.498289,-95.79839,91.957954,-81.7821,21.205212,-6.0075507,-8.349933,12.738215,-83.49724,-47.628906,78.17956,23.841932,-14.348599,-7.289956,-11.059728
179,-35.85538864135742,-190.29074096679688,73.6727066040039,16.24376905560898,-16.25493790668024,22.94066023276816,-24.368618,13.680271,14.350062,76.41954,-11.761221,3.0932593,15.476684,-26.344555,-69.59432,49.190086,-41.681175,-9.952699,38.057903,6.15257,11.177066,-92.37259,92.13854,-79.79265,19.8479,-5.484348,-8.038174,12.145902,-82.54077,-48.638603,79.27576,25.112427,-13.131717,-7.1316233,-10.961457
180,-36.35982131958008,-191.36582946777344,73.92329406738281,15.086194203193473,-16.95080463658016,28.090284825195216,-24.153755,15.125913,13.303552,79.4152,-13.541421,4.4368043,17.031225,-24.904072,-74.305466,47.196037,-40.17699,-10.026498,36.52591,5.383902,10.900586,-88.851524,92.29505,-77.69557,18.370111,-4.9343634,-7.706235,11.529553,-81.19765,-49.884502,80.20195,26.438358,-12.117015,-6.9469514,-10.966138
181,-36.83818435668945,-192.40745544433594,74.24420928955078,13.943316307901158,-17.46675337843977,33.26109177267005,-23.802336,16.943773,12.758407,81.33615,-15.138992,5.6101465,18.25927,-23.503176,-78.8424,45.113815,-38.36249,-9.937342,35.00261,4.3672123,10.613207,-85.20358,92.43295,-75.472305,16.75508,-4.307689,-7.3646803,10.883238,-79.434395,-51.35962,80.96013,27.874107,-11.287478,-6.714715,-11.1552515
182,-37.304683685302734,-193.4032440185547,74.6492919921875,12.781412673477375,-17.835104107423707,38.48705380191482,-23.334423,19.128458,12.576681,82.42674,-16.576775,6.657207,19.2091,-22.11802,-83.23992,42.966503,-36.27804,-9.725592,33.443066,3.1633894,10.291992,-81.44848,92.55448,-73.12696,15.008122,-3.6440725,-7.016489,10.222177,-77.30389,-53.061066,81.53791,29.387417,-10.541151,-6.4535975,-11.474342
183,-37.755706787109375,-194.36483764648438,75.12663269042969,11.641110829011073,-18.131504456433767,43.743886174222006,-22.841272,21.24876,12.549991,82.838234,-17.748512,7.5002337,19.892593,-20.978897,-87.00097,40.99604,-33.973804,-9.50999,31.836138,1.8309329,10.036715,-77.59747,92.65381,-70.641556,13.136694,-3.0101697,-6.639523,9.546889,-74.72629,-54.97247,81.813805,30.924604,-9.990514,-6.2128315,-11.802321
184,-38.202571868896484,-195.28860473632812,75.66000366210938,10.55468294062622,-18.436709577769896,49.015378453480494,-22.417784,22.869175,12.463045,82.71878,-18.551334,8.076882,20.36044,-20.327133,-89.64689,39.464966,-31.507917,-9.420705,30.17859,0.42219856,9.959598,-73.65605,92.72248,-67.99327,11.148108,-2.471376,-6.211334,8.860893,-71.57178,-57.066414,81.62657,32.432472,-9.778805,-6.0368776,-12.019127
185,-38.6605224609375,-196.18240356445312,76.22178649902344,9.57026931373722,-18.78505063537012,54.27494768750615,-22.059793,23.836714,12.2414055,81.91942,-18.80111,8.299837,20.583052,-20.336695,-91.096695,38.525402,-28.917025,-9.686777,28.523073,-1.0985496,10.11999,-69.6538,92.76007,-65.22091,9.044502,-2.0698144,-5.7238173,8.149635,-67.709145,-59.32396,80.92821,33.99438,-9.93554,-5.964246,-12.134802
186,-39.13509750366211,-197.02085876464844,76.7924575805664,8.660930774466417,-19.149641100607877,59.5574627272637,-21.717089,24.396585,12.024167,80.43943,-18.61353,8.246178,20.588549,-20.906572,-91.64618,38.075012,-26.201178,-10.215133,26.876406,-2.7640095,10.459243,-65.62302,92.766754,-62.35877,6.8095913,-1.7626818,-5.1889277,7.421756,-63.053387,-61.73468,79.642334,35.58284,-10.398815,-5.959483,-12.218646
187,-39.63922119140625,-197.79000854492188,77.38568878173828,7.740392993337228,-19.511980171953383,64.95074244214308,-21.414648,24.699984,11.908383,78.63897,-18.338875,8.105983,20.499557,-21.85918,-91.35374,37.972363,-23.33495,-10.657699,25.172821,-4.5119624,10.926425,-61.546947,92.73002,-59.360268,4.421278,-1.4890348,-4.616461,6.7214723,-57.503597,-64.27589,77.54221,36.953068,-11.150738,-5.951196,-12.2351265
188,-40.187782287597656,-198.49746704101562,77.98719787597656,6.721181806872871,-19.834555591014574,70.54895446656464,-21.184135,24.894068,11.990758,76.87409,-18.317507,8.060707,20.42757,-23.011347,-90.226006,38.04913,-20.25016,-10.65392,23.343319,-6.2581487,11.475684,-57.353596,92.631,-56.131847,1.8511989,-1.1868825,-4.01959,6.098109,-50.916977,-66.907776,74.36825,37.842445,-12.167172,-5.867132,-12.134956
189,-40.78038787841797,-199.1436767578125,78.59326934814453,5.652026251959847,-20.12496941524205,76.4102311950591,-20.995657,24.813335,12.206534,75.07168,-18.629335,8.064536,20.48523,-24.542078,-88.292725,38.326397,-16.787455,-10.029202,21.365488,-7.9959064,12.187542,-52.94826,92.45115,-52.61599,-0.9849238,-0.9162614,-3.3809035,5.640236,-42.991943,-69.56443,69.88878,38.198635,-13.647338,-5.6795053,-11.835827
190,-41.426597595214844,-199.72891235351562,79.19186401367188,4.5755152082296515,-20.372786598244808,82.49388677320948,-20.831955,24.424301,12.548523,73.08532,-19.095358,8.059034,20.447727,-26.511791,-85.41736,38.843384,-12.9668,-9.024998,19.280958,-9.724837,13.074206,-48.284477,92.174866,-48.798275,-4.0627728,-0.6953445,-2.7082326,5.331646,-33.46739,-72.14915,63.96265,38.001175,-15.486918,-5.4320583,-11.350438
191,-42.128074645996094,-200.26528930664062,79.76410675048828,3.401682001882801,-20.47772402917377,88.74554417351588,-20.759884,24.06786,13.20135,71.160774,-19.65595,8.183253,19.970846,-28.468727,-81.33158,39.395542,-8.986843,-7.822814,17.065552,-11.336551,13.960358,-43.307888,91.77218,-44.625134,-7.234138,-0.40029553,-2.0543294,5.0707927,-22.326694,-74.51251,56.54342,37.06407,-17.186869,-5.164888,-10.743876
192,-42.89445114135742,-200.76251220703125,80.29856872558594,2.0439327841791606,-20.317089038835856,95.1084732617444,-20.858889,24.088688,14.347377,69.55848,-20.254023,8.55436,18.818277,-29.83866,-75.80936,39.750214,-5.0801773,-6.5213447,14.633823,-12.711914,14.626071,-37.925797,91.195435,-40.02667,-10.332629,0.10772686,-1.4747428,4.7451982,-9.824986,-76.43434,47.840225,35.32224,-18.25627,-4.9211545,-10.078516
193,-43.7097282409668,-201.2439727783203,80.77677154541016,0.4840632928321163,-19.75813822508976,101.6602790006496,-21.146019,24.773315,16.398413,68.42705,-20.964548,9.300649,17.00871,-30.309578,-68.35869,39.63397,-1.0991298,-4.7029133,11.758155,-13.843154,14.89099,-32.00616,90.357506,-34.959824,-13.345222,0.99678636,-0.9571513,4.289846,3.46296,-77.63038,38.501434,32.926846,-18.526512,-4.715339,-9.335118
194,-44.56199264526367,-201.69161987304688,81.19402313232422,-1.1804220904389247,-18.815719702941266,108.3656027199378,-21.54688,25.878952,19.161407,67.61915,-21.814917,10.282948,14.84243,-29.83636,-59.258324,39.1485,2.9377322,-2.273135,8.369876,-14.757857,14.716318,-25.595612,89.1746,-29.58931,-16.296947,2.240983,-0.4865794,3.7455752,16.429766,-77.86882,29.668213,30.321726,-18.32437,-4.543144,-8.470429
195,-45.44225311279297,-202.14450073242188,81.53895568847656,-2.9041170513943144,-17.607795087517548,115.02018935622297,-22.044662,26.99467,21.868168,66.94266,-22.652445,11.231201,12.704196,-28.329994,-49.66747,38.677948,6.561071,0.160828,4.677955,-15.419333,14.1634035,-19.11363,87.61175,-24.33793,-19.081623,3.6970437,-0.11093562,3.1217911,27.776138,-77.12517,22.48597,27.984467,-17.939512,-4.4063373,-7.559457
196,-46.35649871826172,-202.59767150878906,81.85371398925781,-4.671828894472906,-16.28598849463782,121.46101671843827,-22.706285,27.723063,23.70107,66.201164,-23.289099,11.910923,10.840248,-25.972546,-40.772503,38.69103,9.403836,1.9174216,0.96443045,-15.823203,13.407094,-13.155835,85.685394,-19.732225,-21.564367,5.1683884,0.12364783,2.4427812,36.787807,-75.55701,17.517223,26.242163,-17.613897,-4.307129,-6.6781354
197,-47.30349349975586,-203.06777954101562,82.11395263671875,-6.6046451876951595,-14.842228281583296,127.75435859078594,-23.745213,27.98319,24.262913,65.43152,-23.558289,12.316439,8.961264,-22.392385,-31.966097,39.345177,11.484747,2.562232,-2.7072835,-15.945212,12.523618,-8.135532,83.39602,-16.132874,-23.654533,6.623765,0.1729601,1.6544664,43.595722,-73.33158,14.587253,25.08189,-17.271568,-4.246916,-5.863022
198,-48.29393768310547,-203.5340118408203,82.30776977539062,-8.6685193130304,-13.201663985618493,133.98124148894286,-25.09273,28.013306,23.994518,64.71618,-23.586275,12.583919,7.2714114,-17.573824,-23.155762,40.540447,13.063011,2.6381798,-6.3098245,-15.831843,11.6209135,-4.2975364,80.76838,-13.71688,-25.35196,8.151495,0.067677446,0.7415857,48.77378,-70.59955,13.198815,24.33614,-16.838852,-4.204748,-5.123005
199,-49.3078498840332,-203.988525390625,82.45026397705078,-10.625828522396926,-11.457997461676626,140.03963757588497,-26.402412,27.860348,23.354946,63.890965,-23.601126,12.7106285,6.2172303,-12.63121,-15.987604,42.237804,14.170111,2.7861729,-9.632856,-15.638115,10.89637,-1.7619396,77.92559,-12.492309,-26.606873,9.661753,-0.11637449,-0.17036934,52.86584,-67.52781,12.846483,23.933134,-16.501516,-4.1631856,-4.455932
200,-50.33091735839844,-204.46011352539062,82.54550170898438,-12.243283457366848,-9.728603985209334,145.8251396889115,-27.35127,27.575283,22.83498,62.805416,-23.839088,12.695351,5.8361287,-8.97719,-11.877617,44.367336,14.701202,3.4395502,-12.512949,-15.552866,10.429305,-0.42852795,75.02339,-12.272501,-27.37301,11.03598,-0.28972247,-0.93846804,56.24685,-64.27394,13.193353,23.833212,-16.431477,-4.1134806,-3.8470466
201,-51.36368942260742,-204.94000244140625,82.56981658935547,-13.512749243708392,-8.094967220350904,151.39573860843655,-27.835474,27.087248,22.49518,61.36984,-24.487667,12.482948,5.9893804,-7.326303,-11.699075,46.90664,14.549351,4.708352,-14.996767,-15.670939,10.171243,0.08054861,72.14706,-12.694782,-27.63579,12.178704,-0.4139018,-1.4800148,59.19259,-60.881626,13.966269,24.015144,-16.563946,-4.0559893,-3.241441
202,-52.392547607421875,-205.45721435546875,82.51219177246094,-14.557817410517568,-6.507090368232125,156.83390427500214,-28.020037,26.39137,22.1307,59.676662,-25.387184,12.1132965,6.3650193,-7.1174173,-14.365318,49.933395,13.782843,6.069671,-17.16058,-15.9454365,10.085791,0.10997017,69.31148,-13.402247,-27.477703,13.096728,-0.5185729,-1.8355036,61.8674,-57.35132,14.993531,24.318796,-16.801842,-3.9986145,-2.6400163
203,-53.417362213134766,-205.9857635498047,82.4012680053711,-15.362785416187863,-4.915025267106986,162.06765433159393,-28.024136,25.641039,21.814774,57.855778,-26.242743,11.713462,6.7419453,-7.921427,-18.31951,53.485306,12.533829,6.9293494,-18.954248,-16.338297,10.173002,-0.21955787,66.543465,-14.191957,-26.976469,13.830548,-0.61326796,-2.054227,64.27021,-53.757675,16.280468,24.597012,-17.329931,-3.9526982,-2.1057887
204,-54.43170166015625,-206.52000427246094,82.24578857421875,-15.902460786803159,-3.2827858015678757,167.00359495729072,-27.976717,24.985674,21.627756,56.04068,-26.754349,11.388173,6.861976,-9.260091,-21.982054,57.529377,10.909147,6.804887,-20.228813,-16.768047,10.474641,-0.912585,63.86632,-15.028823,-26.247087,14.43857,-0.7094679,-2.1754537,66.0865,-50.297356,18.115086,24.937384,-18.032215,-3.9244168,-1.710035
205,-55.4486083984375,-207.07716369628906,82.0482406616211,-16.16363578133754,-1.6322754498042729,171.69042722047433,-27.877674,24.54298,21.776043,54.25482,-26.94179,11.320902,6.7898645,-11.307089,-25.425594,62.125603,8.784422,5.3635273,-21.168568,-17.284174,10.910258,-1.9012321,61.30354,-15.771287,-25.17307,14.887051,-0.8189508,-2.2246716,67.432106,-47.03921,20.53175,25.246666,-19.180376,-3.9162967,-1.4081271
206,-56.44437789916992,-207.6597900390625,81.8042984008789,-16.178706574684497,-0.019863772842439106,176.2080867906406,-27.6703,24.176472,22.15599,52.42877,-26.928303,11.380519,6.8703566,-14.236907,-29.266762,67.22073,6.0617266,2.932807,-21.826128,-17.906729,11.468575,-2.8883758,58.861237,-16.248457,-23.890314,15.199103,-0.9247065,-2.1595063,68.34189,-43.988003,23.426764,25.606676,-20.577948,-3.9244945,-1.1653527
207,-57.42810821533203,-208.2721710205078,81.49773406982422,-15.996823737583727,1.539267331663327,-179.5321060546107,-27.414154,23.680143,22.387684,50.55817,-26.568342,11.210302,6.9657674,-17.51144,-32.726364,72.54136,2.9502497,0.12137639,-22.194706,-18.526377,12.106379,-3.8149884,56.558083,-16.427595,-22.406157,15.318664,-1.0065528,-1.9500539,68.85188,-41.16385,26.41038,25.99917,-21.982027,-3.9551663,-1.0303395
208,-58.40740203857422,-208.9207000732422,81.1234130859375,-15.673919495641387,3.0358498805070484,-175.6402955161401,-27.164465,22.871517,22.082651,48.632397,-25.716112,10.474303,6.7201614,-20.621992,-35.035427,77.82584,-0.24407221,-2.4644527,-22.250698,-19.015036,12.776932,-4.677383,54.403435,-16.339834,-20.703289,15.183402,-1.0442572,-1.5577353,69.018616,-38.603954,29.090303,26.358393,-23.15475,-4.0122128,-1.0518553
209,-59.385223388671875,-209.59060668945312,80.65866088867188,-15.25114901073485,4.463076838888933,-172.162029134257,-26.86385,21.750992,21.041983,46.41258,-23.769392,8.738328,5.873049,-23.546427,-35.997223,83.13829,-3.5066326,-4.818351,-21.939579,-19.297499,13.490642,-5.47043,52.38092,-15.945811,-18.824306,14.673494,-1.0279132,-0.90836996,68.79062,-36.366405,31.558321,26.487255,-24.058472,-4.107283,-1.2602619
210,-60.37773513793945,-210.2877655029297,80.10343933105469,-14.724911563932858,5.822393704162317,-169.0201368262893,-26.476204,20.383888,19.446276,43.95395,-21.032125,6.295489,4.451764,-26.474485,-35.921787,88.552124,-6.9386473,-7.161585,-21.34796,-19.41008,14.233339,-6.1448026,50.499676,-15.209248,-16.789223,13.866642,-0.98360693,-0.044979993,68.18492,-34.469517,33.929802,26.400635,-24.795818,-4.2293363,-1.614782
211,-61.38172912597656,-211.0060272216797,79.46190643310547,-14.086315773279976,7.118011298901977,-166.1538715439335,-26.082487,18.741192,17.543196,41.705463,-18.727055,3.915553,2.3928998,-29.249193,-34.82284,93.834595,-10.308727,-9.246295,-20.623165,-19.400078,14.938948,-6.666102,48.80681,-14.224285,-14.570198,12.989935,-0.938365,0.9070731,67.3625,-32.891068,35.85459,26.326447,-25.365917,-4.348023,-2.0677838
212,-62.40611267089844,-211.7493133544922,78.74344635009766,-13.327628608412601,8.346383580006945,-163.5089324825385,-25.806454,16.854477,15.679762,40.168118,-18.039362,2.3955126,-0.3298524,-31.713861,-32.766937,98.760445,-13.370405,-10.848289,-19.866274,-19.327217,15.569357,-7.0523834,47.351204,-13.138506,-12.130761,12.253091,-0.9059112,1.8310889,66.48148,-31.593657,36.97937,26.497879,-25.786047,-4.4334645,-2.5791898
213,-63.43577575683594,-212.49618530273438,77.95706176757812,-12.403371170166151,9.54490148027141,-161.1228238970071,-25.794218,14.510212,13.868832,39.592175,-19.70156,2.1775565,-3.9124298,-33.868275,-29.533897,103.4203,-15.983989,-11.845631,-19.04411,-19.219852,16.038342,-7.325066,46.157345,-11.993378,-9.443631,11.581367,-0.880132,2.7584112,65.55542,-30.567068,37.102356,26.87141,-26.07811,-4.4862537,-3.1542225
214,-64.41417694091797,-213.28456115722656,77.19815063476562,-11.371753169926125,10.698171083524079,-159.0033063924946,-26.066456,11.735285,11.941492,39.78739,-22.907082,2.903191,-8.376771,-35.597057,-25.14811,107.87077,-18.236856,-12.383373,-18.075935,-19.044075,16.416676,-7.509562,45.21938,-10.778287,-6.5545497,10.884192,-0.85311544,3.743353,64.48795,-29.835396,36.470966,27.341993,-26.25648,-4.519587,-3.8178048
215,-65.36831665039062,-214.05682373046875,76.41183471679688,-10.350437192876129,11.72256649781724,-157.0707374757417,-26.55294,8.913575,10.061348,40.592937,-26.486061,4.084983,-13.397689,-36.672585,-20.15618,111.90102,-20.263481,-12.679534,-16.978779,-18.79845,16.894861,-7.674542,44.52866,-9.583644,-3.4962258,10.339208,-0.82435316,4.7038717,63.268543,-29.416967,35.411064,28.061647,-26.322548,-4.522754,-4.564772
216,-66.23408508300781,-214.7901611328125,75.61564636230469,-9.437022652775672,12.539468882389762,-155.24927405282014,-27.042515,6.4977536,8.481652,41.72847,-29.337498,5.0356045,-18.60849,-36.991814,-15.138135,115.31678,-22.188848,-12.9384365,-15.779915,-18.486023,17.650644,-7.915197,44.073322,-8.514284,-0.27351278,10.126012,-0.78463054,5.558617,61.891182,-29.313032,34.248997,29.193836,-26.267485,-4.48667,-5.389323
217,-67.00454711914062,-215.46731567382812,74.8358383178711,-8.595342037197405,13.1284508959226,-153.59776816665007,-27.551432,4.6246505,7.42019,43.348167,-31.259985,5.456574,-24.175636,-36.3589,-9.809528,118.21116,-24.045986,-13.113048,-14.4084215,-18.152605,18.752354,-8.475303,43.866615,-7.598417,3.3185492,10.503646,-0.6556671,6.2777634,60.32357,-29.510216,32.91492,30.916866,-26.01081,-4.371408,-6.384707
218,-67.7667465209961,-216.13064575195312,74.12835693359375,-7.801830194081233,13.53721564617415,-152.13711784141958,-28.10496,3.0732315,6.708741,45.494106,-32.848236,5.650116,-29.95049,-34.801853,-4.280203,120.69371,-25.743523,-13.145236,-12.858584,-17.774073,20.1039,-9.303046,43.91325,-6.841033,7.258275,11.29851,-0.4507564,6.9105744,58.593006,-30.013796,31.312151,33.103428,-25.579317,-4.2028036,-7.526645
219,-68.5880355834961,-216.8295440673828,73.57380676269531,-7.15467637863981,13.792482948824318,-150.7326672010815,-28.430473,1.8085518,6.0483727,47.645172,-34.258087,5.7583227,-35.264854,-32.815815,0.48662847,122.572,-27.192493,-13.178883,-11.294589,-17.259377,21.613113,-10.024182,44.171185,-6.2833257,11.199223,12.045589,-0.30277124,7.4875135,56.781746,-30.845419,29.737055,35.449768,-25.117783,-4.064891,-8.62998
220,-69.46929168701172,-217.5494842529297,73.16146850585938,-6.752144825777238,13.926274313979917,-149.2505329664309,-28.268482,0.75537056,5.1515408,49.24465,-35.613136,5.916688,-39.705982,-31.066574,3.7489088,123.60078,-28.298567,-13.371783,-9.909725,-16.528803,23.166456,-10.250364,44.57713,-5.9338336,14.809339,12.288155,-0.3559325,8.032536,54.95755,-32.029686,28.492754,37.645027,-24.767029,-4.030886,-9.50979
221,-70.43909454345703,-218.3005828857422,72.85746002197266,-6.638722525488463,13.936650553106546,-147.6144456444037,-27.461224,-0.13098194,3.8547647,50.01476,-36.93398,6.1478477,-43.28796,-30.03694,5.3128138,123.65063,-29.094873,-13.904671,-8.755389,-15.547569,24.775402,-9.988702,45.09942,-5.770541,18.205505,11.7102165,-0.74002403,8.610604,53.072647,-33.59042,27.798925,39.68794,-24.679985,-4.131274,-10.035068
222,-71.47593688964844,-219.15089416503906,72.6209487915039,-6.768312260781201,13.830037740374962,-145.91210673385814,-26.173908,-0.7795039,2.3210723,50.285046,-38.15438,6.390869,-46.312267,-29.46226,5.6766205,122.833336,-29.637285,-14.643264,-7.7808843,-14.360193,26.45976,-9.379191,45.745667,-5.7385144,21.50258,10.641882,-1.3623772,9.170546,51.064587,-35.516605,27.508512,41.694954,-24.725313,-4.312596,-10.330118
223,-72.57926940917969,-220.0886688232422,72.4310073852539,-7.094768308611093,13.653550038769481,-144.2510360137709,-24.648186,-1.1378711,0.7784689,50.408432,-39.25831,6.646084,-48.871384,-28.870737,5.3174143,121.2506,-29.872507,-15.000033,-7.0104175,-13.019174,28.119614,-8.234192,46.505226,-5.795414,24.37017,9.601927,-2.0299225,9.565434,48.98208,-37.76311,27.342665,43.550724,-24.635654,-4.522954,-10.59207
224,-73.70609283447266,-221.0804901123047,72.2938232421875,-7.56786617951661,13.448618570563976,-142.74085886915393,-23.125856,-1.1625483,-0.5340578,50.7144,-40.216984,6.899543,-51.091545,-27.956066,4.5498,119.009796,-29.728779,-15.000033,-6.4442883,-11.5839615,29.664257,-6.419825,47.356766,-5.9446387,26.51366,9.113878,-2.5380616,9.6681185,46.911648,-40.284298,26.985643,45.167137,-24.154663,-4.7168393,-11.02159
225,-74.8192138671875,-222.09181213378906,72.20343780517578,-8.25071564684065,13.432750984312657,-141.4672894831216,-21.847075,-0.7765423,-1.5654832,51.181282,-41.048916,7.1587124,-53.331223,-26.731487,3.3036091,116.07518,-29.23423,-15.000033,-6.1695147,-10.08765,29.793802,-4.1914034,48.277958,-7.1813307,28.885435,9.563679,-2.7950733,9.291408,44.812416,-43.19447,27.250444,47.388363,-23.085308,-4.915382,-11.619734
226,-75.91693878173828,-223.1129608154297,72.14111328125,-9.16071710769446,13.350849809389294,-140.33281661604968,-20.43875,0.0043290956,-2.436285,51.664833,-41.794548,7.4163136,-55.157104,-25.35593,1.5197816,112.37257,-28.492508,-14.808937,-5.967443,-8.389909,29.793802,-1.7375135,49.297394,-8.997822,30.926836,10.585885,-2.926606,8.577724,42.72175,-46.42165,27.630527,49.500484,-21.676687,-5.1577444,-12.34803
227,-77.00941467285156,-224.13511657714844,72.11270141601562,-10.09824271605006,13.305256147568393,-139.27486122966886,-19.09807,0.9584205,-3.105614,52.239014,-42.285862,7.6510663,-56.671673,-23.839579,-0.33260366,108.01996,-27.354954,-13.930549,-5.91062,-6.6964374,29.793802,1.1242974,50.361122,-10.803218,32.382286,11.601209,-3.047302,7.8452272,40.58675,-49.802937,27.754656,51.22547,-20.049694,-5.4229407,-13.021226
228,-78.112060546875,-225.16749572753906,72.124755859375,-10.868124359890993,13.423105481414181,-138.24126510732734,-18.047577,1.8593342,-3.541444,52.984898,-42.3471,7.8393297,-58.02979,-22.348436,-2.0154114,103.1266,-25.666628,-12.596118,-6.088676,-5.228033,29.793802,4.5880775,51.36654,-12.05367,33.113155,12.058709,-3.2501397,7.4184823,38.391632,-53.13249,27.188543,52.425873,-18.39142,-5.667908,-13.4640875
229,-79.23682403564453,-226.23257446289062,72.17190551757812,-11.462584783815439,13.78233486727248,-137.26830529811232,-17.378172,2.689159,-3.6711543,53.921516,-41.936348,8.024371,-59.345837,-20.79611,-3.4561918,97.55868,-23.400776,-10.753477,-6.57651,-4.0282083,29.793802,8.894648,52.27891,-12.662897,32.914265,11.775438,-3.5548964,7.475871,35.917114,-56.306736,25.645271,53.3915,-16.64078,-5.815035,-13.768431
230,-80.37532806396484,-227.3378143310547,72.24369049072266,-11.960616052559926,14.298445669433605,-136.36537051972078,-16.942724,3.5323474,-3.5298994,54.98933,-41.131344,8.191812,-60.552658,-19.20151,-4.6869135,91.288414,-20.697962,-8.48943,-7.2832336,-2.9981115,29.793802,13.810015,53.097614,-12.977836,31.983936,11.099106,-3.9121363,7.8226256,33.160984,-59.329964,23.401896,54.352543,-14.783619,-5.8961406,-14.02289
231,-81.52877044677734,-228.4771270751953,72.31497192382812,-12.297185816542619,14.845775848255045,-135.44067101308337,-16.604815,4.309067,-3.25291,56.182934,-39.948723,8.232023,-61.5015,-17.759426,-5.5826516,84.59094,-17.621424,-5.9194255,-8.014187,-2.1006107,29.793802,18.78514,53.736877,-13.147884,30.806723,10.278372,-4.297884,8.226307,30.472157,-62.128975,20.800148,55.118176,-13.023886,-6.013538,-14.058778
232,-82.6843032836914,-229.6377716064453,72.3747787475586,-12.418032178887355,15.299044369957237,-134.39991447127235,-16.22725,4.9423623,-2.9839468,57.46307,-38.39383,8.04629,-62.014473,-16.597267,-6.0830398,77.69102,-14.154775,-3.1055086,-8.567546,-1.262553,29.793802,23.290073,54.09523,-13.289465,29.85228,9.589099,-4.6777673,8.46303,28.218134,-64.59218,18.130665,55.506306,-11.568612,-6.2628036,-13.725709
233,-83.88877868652344,-230.81967163085938,72.43627166748047,-12.280698942634984,15.648362054466496,-133.22258518249043,-15.778875,5.3586364,-2.7323081,58.79006,-36.437973,7.695788,-61.96525,-15.650908,-6.235932,70.24247,-9.9274235,0.29055974,-8.91577,-0.509024,29.793802,27.277603,54.07678,-13.367396,29.179867,9.069508,-5.0497375,8.528249,26.358404,-66.608604,15.314953,55.51809,-10.545872,-6.7113066,-12.828503
234,-85.16040802001953,-232.0360870361328,72.47525787353516,-11.924210117101092,15.932838809749658,-131.9478719507953,-15.320435,5.6017313,-2.4461524,60.177666,-34.085205,7.1845093,-61.41639,-14.80654,-5.942028,62.158188,-5.04878,4.238977,-9.149252,0.14774217,29.793802,30.907686,53.692497,-13.428623,28.651396,8.626776,-5.4289613,8.545913,24.600742,-68.18469,12.306723,55.414635,-9.834622,-7.291468,-11.54614
235,-86.48594665527344,-233.2787322998047,72.49029541015625,-11.418916626214784,16.10441255258585,-130.5724149781339,-14.863825,5.7577915,-2.196722,61.687138,-31.386179,6.346595,-60.46325,-14.1268425,-5.094407,54.075974,-0.16170225,8.118821,-9.264885,0.77701473,29.793802,34.10152,53.054653,-13.57623,28.35679,8.314914,-5.799294,8.478822,23.002737,-69.42821,9.395655,55.280907,-9.252385,-7.8968105,-10.273146
236,-87.84429168701172,-234.538818359375,72.47283172607422,-10.836901731338434,16.120804566601734,-129.09715768300512,-14.420122,5.900067,-2.069987,63.390762,-28.391884,5.03295,-59.235508,-13.715356,-3.7643976,46.7058,4.1391397,11.278108,-9.276941,1.4290847,29.793802,36.855488,52.30969,-13.83942,28.337006,8.160504,-6.1436806,8.280187,21.618246,-70.47349,6.904062,55.149,-8.596356,-8.418071,-9.378248
237,-89.23538208007812,-235.81393432617188,72.42350769042969,-10.165225714363398,15.953477621885215,-127.51820366167796,-13.951251,5.934039,-2.1830614,65.292244,-24.882322,2.9967191,-57.691273,-13.534929,-1.8344433,39.902424,7.895458,13.580396,-9.179979,2.0882442,29.793802,39.227684,51.486385,-14.1285925,28.571495,8.165793,-6.458751,7.8607697,20.483936,-71.35719,4.9388504,54.94737,-7.7611775,-8.841166,-8.9279585
238,-90.6663589477539,-237.1028594970703,72.3288345336914,-9.42047399981263,15.617440406497076,-125.85684482212082,-13.461196,5.8130083,-2.5462654,67.397804,-20.951504,0.3454515,-55.765812,-13.605938,0.3518386,33.344376,11.459499,15.000033,-8.988131,2.7375302,29.793802,41.3654,50.55583,-14.343258,28.937437,8.272636,-6.7534866,7.254802,19.482504,-72.062164,3.4018188,54.64917,-6.833998,-9.2288475,-8.703991
239,-92.1322021484375,-238.37713623046875,72.19937133789062,-8.755323700138474,15.155119281266257,-124.17670567219373,-13.045417,5.763176,-3.0613542,69.80582,-17.1111,-2.5102198,-53.69161,-13.982947,1.8752836,27.643196,14.70477,15.000033,-8.720534,3.4541101,29.793802,43.39219,49.587975,-14.479584,29.320765,8.410258,-7.0280447,6.5982203,18.498056,-72.62941,2.2599885,54.304016,-5.900337,-9.584167,-8.637749
