unveil-humanoid-operators/unveil-humanoid-operators.github.io/feature-analysis-animation/data/feature_matrix_instances/age_ankle_rom_walking_A237_walk_arc_cw_loop_R_003__A237.csv
Frame,root_translateX,root_translateY,root_translateZ,root_rotateX,root_rotateY,root_rotateZ,left_hip_pitch_joint_dof,left_hip_roll_joint_dof,left_hip_yaw_joint_dof,left_knee_joint_dof,left_ankle_pitch_joint_dof,left_ankle_roll_joint_dof,right_hip_pitch_joint_dof,right_hip_roll_joint_dof,right_hip_yaw_joint_dof,right_knee_joint_dof,right_ankle_pitch_joint_dof,right_ankle_roll_joint_dof,waist_yaw_joint_dof,waist_roll_joint_dof,waist_pitch_joint_dof,left_shoulder_pitch_joint_dof,left_shoulder_roll_joint_dof,left_shoulder_yaw_joint_dof,left_elbow_joint_dof,left_wrist_roll_joint_dof,left_wrist_pitch_joint_dof,left_wrist_yaw_joint_dof,right_shoulder_pitch_joint_dof,right_shoulder_roll_joint_dof,right_shoulder_yaw_joint_dof,right_elbow_joint_dof,right_wrist_roll_joint_dof,right_wrist_pitch_joint_dof,right_wrist_yaw_joint_dof
0,-0.8465932011604309,-1.857061505317688,77.37788391113281,0.3187021006491366,3.1117920480886347,73.7408976881347,-26.977669,20.186523,12.330562,72.139984,-10.402521,2.3519304,-6.5665417,2.1517444,-16.321926,20.235308,-18.462059,-7.1358767,-1.0589689,1.8265,6.9059563,2.8542445,18.692678,-21.377068,52.05354,14.242399,2.5950696,-6.579015,-0.44957384,-18.588276,16.481321,47.247013,-3.333047,2.1276512,-2.7490237
1,-0.6361457705497742,-1.16371488571167,77.44029998779297,0.439835555768243,3.0865790435327436,73.33544588465769,-27.602755,19.121647,11.981633,69.27832,-9.91312,1.5684887,-5.5185657,2.242624,-15.859263,19.286028,-18.484993,-6.9432554,-0.80174756,1.599831,6.903891,3.2605433,18.712059,-21.275944,52.034187,14.300633,2.5727088,-6.8618793,-0.76517636,-18.718718,16.484808,46.948326,-3.068269,2.1480365,-2.9594107
2,-0.42672091722488403,-0.477067768573761,77.48347473144531,0.5608384435033729,3.05194170648841,72.92959346710076,-28.201122,18.068686,11.618083,66.43623,-9.451547,0.79542017,-4.4495254,2.3304663,-15.393407,18.324297,-18.508066,-6.7608304,-0.54365265,1.4010401,6.92052,3.6732337,18.707325,-21.170118,52.0085,14.3624115,2.5508165,-7.154029,-1.042158,-18.9184,16.492424,46.586414,-2.7653468,2.1785948,-3.1593735
3,-0.21383196115493774,0.20071440935134888,77.50414276123047,0.6665722082707904,3.0306811718337774,72.51857999575854,-28.74037,17.048048,11.248042,63.476353,-8.957946,0.040792987,-3.4000385,2.4229977,-14.931006,17.382013,-18.539133,-6.582427,-0.28548792,1.2383008,6.9342985,4.070163,18.684525,-21.067047,51.980026,14.422862,2.519731,-7.4342847,-1.2918711,-19.15868,16.500715,46.185673,-2.4805079,2.1943913,-3.3453457
4,0.00405852822586894,0.8865248560905457,77.51224517822266,0.742623394919381,3.045512287199994,72.09782630837255,-29.188238,16.081827,10.875866,60.26012,-8.375252,-0.6860618,-2.4085624,2.5287886,-14.478117,16.48541,-18.583488,-6.4011974,-0.03418733,1.1202103,6.9261894,4.439149,18.653603,-20.965092,51.94048,14.4773245,2.46896,-7.6842136,-1.5248394,-19.423496,16.513315,45.76249,-2.26492,2.1711016,-3.511438
5,0.22059397399425507,1.5794286727905273,77.50605773925781,0.7839080563117241,3.1063225318245773,71.66047134657397,-29.54011,15.196509,10.517114,56.744617,-7.7084146,-1.3703382,-1.4897822,2.6520128,-14.036014,15.639199,-18.638472,-6.2106857,0.21454944,1.0465795,6.8855605,4.7843246,18.623304,-20.86553,51.874176,14.54021,2.3922386,-7.914024,-1.7471818,-19.705366,16.53612,45.324547,-2.1324258,2.084551,-3.6567273
6,0.4340135157108307,2.263737201690674,77.48020935058594,0.79964162591168,3.1993723223583537,71.20993009616397,-29.806036,14.3762665,10.161467,52.989807,-6.977252,-2.0176947,-0.6186174,2.787762,-13.599826,14.822227,-18.698114,-6.014762,0.46213117,1.0033007,6.822706,5.1153417,18.597202,-20.76704,51.784622,14.6073885,2.2968397,-8.12926,-1.9622891,-19.998535,16.566576,44.875404,-2.059974,1.9533123,-3.7868009
7,0.6568145751953125,2.95355224609375,77.444091796875,0.7952282983903781,3.3117465814118647,70.75670482476643,-29.97605,13.585488,9.768535,49.014343,-6.14781,-2.6457214,0.21888356,2.9298892,-13.166523,14.037245,-18.769325,-5.822069,0.69698083,0.9814054,6.7514195,5.4293065,18.576359,-20.663109,51.688084,14.647098,2.192657,-8.305474,-2.170861,-20.29314,16.59574,44.41657,-2.0415685,1.8179286,-3.9037633
8,0.8775545954704285,3.641510009765625,77.39229583740234,0.7759870227387391,3.4302847501616514,70.31088302868847,-30.035639,12.794492,9.295785,44.826523,-5.1881423,-3.2686732,1.0399058,3.0740259,-12.732786,13.281377,-18.858387,-5.642199,0.9079292,0.97167045,6.6851916,5.723299,18.560583,-20.546047,51.603165,14.6293545,2.0894063,-8.417692,-2.3780663,-20.579088,16.615149,43.95617,-2.0711722,1.7185925,-4.010703
9,1.102423071861267,4.3438215255737305,77.3260269165039,0.7430563948155622,3.558143547590304,69.87178379176059,-29.967007,12.022862,8.718893,40.336216,-4.033266,-3.8790119,1.8390805,3.2194393,-12.290135,12.5522175,-18.960226,-5.473373,1.0948204,0.970057,6.6225824,5.9954133,18.551079,-20.410612,51.532986,14.534578,1.9795257,-8.448091,-2.5925214,-20.849792,16.629772,43.49877,-2.1781635,1.6680154,-4.11205
10,1.3289463520050049,5.0378336906433105,77.24199676513672,0.6898322774765892,3.6971775630325214,69.43148320847114,-29.76057,11.299095,8.056845,35.5313,-2.706572,-4.463575,2.6172132,3.374067,-11.839075,11.84367,-19.070517,-5.3133044,1.265026,0.9816446,6.5589523,6.249551,18.549677,-20.25984,51.468678,14.383524,1.861365,-8.413563,-2.8163462,-21.104662,16.643105,43.049553,-2.3578448,1.6440207,-4.2067914
11,1.5589791536331177,5.737355709075928,77.1407241821289,0.608072470033055,3.8302670460174135,68.98647030116423,-29.408707,10.621236,7.3330574,30.521894,-1.3038872,-5.021743,3.3984852,3.5484774,-11.38838,11.15523,-19.193924,-5.170711,1.4216634,1.0169703,6.5062895,6.488807,18.555391,-20.101133,51.410683,14.205039,1.7542049,-8.341583,-3.0375638,-21.341333,16.6422,42.608345,-2.5529046,1.6343006,-4.288708
12,1.7938232421875,6.433132171630859,77.01773071289062,0.48481414432899556,3.9374211102708765,68.53033076293458,-28.905687,10.002112,6.5716915,25.418343,0.07842597,-5.5487504,4.2128296,3.7590656,-10.9429035,10.480737,-19.331608,-5.054289,1.5718038,1.0914974,6.4782095,6.714049,18.56589,-19.943434,51.362778,14.027051,1.6774249,-8.258472,-3.2446861,-21.557703,16.613316,42.176548,-2.7067978,1.6266524,-4.351423
13,2.0263779163360596,7.137674331665039,76.87580108642578,0.3069204859251663,4.007273675427005,68.05135844379704,-28.214067,9.4827385,5.71394,20.098637,1.4177339,-5.845791,5.0920463,4.025872,-10.493396,9.783336,-19.475088,-4.974468,1.7226931,1.2199279,6.4818835,6.929409,18.579128,-19.785511,51.32611,13.836415,1.6372865,-8.160673,-3.4388347,-21.75254,16.551556,41.754154,-2.8151884,1.6213104,-4.3854156
14,2.267153263092041,7.851669788360596,76.7145767211914,0.05101481785050757,4.029951040825601,67.52810717838746,-27.317059,9.144898,4.7732625,14.529506,2.775926,-5.9575834,6.0673847,4.3797445,-10.008802,9.009972,-19.590164,-4.9297895,1.896215,1.4250381,6.5274525,7.134414,18.594385,-19.625032,51.29843,13.624209,1.6234112,-8.037195,-3.625685,-21.927797,16.464174,41.34279,-2.9054444,1.6238836,-4.395392
15,2.5127577781677246,8.577108383178711,76.52733612060547,-0.31862846837516823,3.9821471661564107,66.930383896695,-26.169464,9.050694,3.899736,8.803775,4.238639,-6.2617273,7.182319,4.862641,-9.450461,8.112888,-19.630798,-4.9118886,2.1285524,1.7382379,6.632922,7.3233924,18.610151,-19.467175,51.28429,13.428978,1.6314858,-7.900803,-3.809815,-22.07409,16.35665,40.963306,-2.9754272,1.6296272,-4.3991137
16,2.7614691257476807,9.307655334472656,76.3111343383789,-0.8054485810955881,3.8568385780173595,66.248412644562,-26.312881,9.263063,3.0018826,6.290396,4.158452,-7.1454124,8.198769,5.429446,-8.81888,7.609176,-19.847776,-4.9015536,2.4405534,2.1765563,6.8155346,7.4995193,18.628927,-19.316154,51.258663,13.285794,1.655018,-7.7724853,-3.9562664,-22.234299,16.228716,40.571335,-2.9995375,1.6363046,-4.4044642
17,3.0075604915618896,10.034708023071289,76.06977081298828,-1.4031802613969142,3.6578112787012538,65.47188025479753,-27.368393,9.659816,2.2202768,6.10839,3.0045893,-8.902108,9.081061,6.0683603,-8.119695,7.565097,-20.28248,-4.8906517,2.83655,2.71103,7.044488,7.6503325,18.642166,-19.165743,51.26758,13.224313,1.7019672,-7.639554,-4.122978,-22.334282,16.096205,40.25654,-2.9973385,1.6402533,-4.423457
18,3.2444026470184326,10.789270401000977,75.79025268554688,-2.0601991340683155,3.4384626973425068,64.65459808768813,-28.403988,10.110791,1.6155784,6.1036167,1.8196644,-11.257078,9.992108,6.74141,-7.382296,7.548176,-20.726408,-4.8640842,3.2640173,3.3057692,7.294042,7.7863693,18.660732,-19.003126,51.269794,13.2209835,1.7677786,-7.508349,-4.254229,-22.440718,15.94532,39.919525,-2.9472232,1.645525,-4.4386144
19,3.477569341659546,11.526862144470215,75.53548431396484,-2.646513450240088,3.2019483618802265,63.875280170247876,-29.263391,10.50272,1.13602,6.068156,0.6933661,-13.774646,10.908988,7.318625,-6.6532216,7.5425315,-21.128042,-4.8242574,3.6545434,3.837048,7.559224,7.8794312,18.681711,-18.865591,51.302116,13.230219,1.8404614,-7.377344,-4.3686743,-22.531137,15.778388,39.61289,-2.8680038,1.6472569,-4.4715443
20,3.698324680328369,12.263384819030762,75.2977523803711,-3.079678301329012,2.964810911501712,63.26599077937231,-29.943428,10.616543,0.6807916,6.0844555,-0.4161292,-15.000033,11.813387,7.687153,-6.0413227,7.5723963,-21.494205,-4.7329764,3.883647,4.2419415,7.8451242,7.917465,18.704588,-18.773218,51.367455,13.213331,1.9097667,-7.24685,-4.4600086,-22.60316,15.592945,39.339542,-2.7762525,1.6453754,-4.5412097
21,3.894705295562744,13.008997917175293,75.06658935546875,-3.403545845007626,2.713930918209269,62.82404436568366,-30.423424,10.420313,0.17098765,6.1495423,-1.6499403,-15.000033,12.719083,7.892635,-5.530523,7.6418543,-21.844152,-4.5917997,3.973013,4.5736823,8.195997,7.8911076,18.740923,-18.737373,51.43133,13.158855,1.9725223,-7.1330714,-4.471446,-22.687992,15.328751,39.003113,-2.682477,1.6503426,-4.6288085
22,4.0831804275512695,13.740398406982422,74.84199523925781,-3.709716789700063,2.46353313936856,62.46058701976884,-30.730955,10.133616,-0.37691393,6.2276917,-2.9759529,-15.000033,13.617218,8.064128,-5.051773,7.7247205,-22.159899,-4.4380946,3.9763525,4.8986893,8.547731,7.8131194,18.778358,-18.744246,51.541218,13.076812,2.0327382,-7.021799,-4.5174074,-22.746557,15.064216,38.762287,-2.564916,1.6492751,-4.7485843
23,4.263720512390137,14.453679084777832,74.64222717285156,-3.956498422523334,2.276170332513907,62.193098534322665,-30.899685,9.816518,-0.9106845,6.2944446,-4.060821,-15.000033,14.443465,8.174048,-4.6581855,7.815405,-22.402048,-4.2760425,3.9311514,5.150939,8.865817,7.6506057,18.832935,-18.813278,51.68793,12.997708,2.0956297,-6.9076676,-4.4255414,-22.79524,14.72384,38.43862,-2.4407418,1.6465049,-4.8935122
24,4.461668968200684,15.142602920532227,74.4705581665039,-4.099541682499954,2.211355511758504,62.04118239348818,-30.957613,9.534109,-1.3496891,6.3257494,-4.495483,-15.000033,15.137568,8.194922,-4.406278,7.9072037,-22.530579,-4.1098657,3.7976882,5.2820053,9.05901,7.434932,18.894394,-18.929544,51.89227,12.936045,2.1569448,-6.780101,-4.30406,-22.815432,14.383965,38.21346,-2.2847927,1.6060392,-5.0718255
25,4.690492630004883,15.812862396240234,74.33529663085938,-4.122031330925908,2.3080135024040325,62.06033882809448,-30.856836,9.32676,-1.6479244,6.3042216,-4.0174375,-15.000033,15.438349,8.106177,-4.3763037,8.454133,-22.79431,-3.9451606,3.5196674,5.262968,9.10735,7.1347957,18.959295,-19.09518,52.193398,12.890586,2.2028751,-6.624311,-4.0976295,-22.802494,14.044328,38.013107,-2.1054168,1.5298933,-5.3110213
26,4.9474873542785645,16.47553825378418,74.22823333740234,-4.030472372358052,2.527137497222396,62.23044531593419,-30.597076,9.114249,-1.8631833,6.2332063,-2.8297634,-15.000033,15.250955,7.8895607,-4.5549707,9.739448,-23.354336,-3.7778342,3.1630027,5.106443,9.049171,6.7428646,19.060936,-19.368586,52.559208,12.834206,2.2423537,-6.449732,-3.8048263,-22.743057,13.621204,37.845947,-1.9254658,1.4176662,-5.5834546
27,5.207944393157959,17.128328323364258,74.16085815429688,-3.830663062168691,2.809541782239888,62.44715271327096,-30.269613,8.81327,-2.0581014,6.128749,-1.2221361,-15.000033,14.900687,7.5392838,-4.8278246,11.219286,-23.884752,-3.599039,2.755088,4.836213,8.916051,6.3290553,19.150002,-19.636143,52.94762,12.816568,2.2973683,-6.2817936,-3.4707866,-22.664173,13.24068,37.732628,-1.7023835,1.2947937,-5.8753557
28,5.445316791534424,17.79094696044922,74.13492584228516,-3.5500557552385197,3.1075349707025963,62.599909671099105,-30.007673,8.373276,-2.2471714,6.0727315,0.482375,-15.000033,14.387408,7.0434494,-5.1187067,13.0320425,-24.429346,-3.3912222,2.4517558,4.472298,8.728662,5.9163294,19.256113,-19.928167,53.29415,12.841457,2.4019291,-6.1413727,-3.0879936,-22.539026,12.844683,37.69808,-1.4510012,1.1710899,-6.1382985
29,5.683268070220947,18.49589729309082,74.10517883300781,-3.179370697249761,3.441869227885382,62.64391531986422,-29.838568,7.7930074,-2.36336,6.052962,2.4191911,-15.000033,13.7023945,6.387947,-5.384933,15.183113,-25.029198,-3.1483667,2.2379272,4.0035415,8.464037,5.553244,19.363302,-20.171768,53.583443,12.962343,2.5712116,-6.0397286,-2.712082,-22.37251,12.522257,37.776733,-1.112842,1.0450407,-6.3935804
30,5.926740646362305,19.220558166503906,74.08837127685547,-2.68701980528044,3.8270532541207385,62.63144059763721,-29.656843,7.108003,-2.3842144,5.9869742,4.702434,-15.000033,12.863825,5.5568233,-5.648323,17.579727,-25.63117,-2.8788877,2.0451384,3.41017,8.121776,5.224833,19.450163,-20.356817,53.844788,13.168153,2.7848828,-5.9647217,-2.3428273,-22.18997,12.2921,37.95356,-0.69210553,0.91236037,-6.654156
31,6.174924373626709,19.95365333557129,74.08577728271484,-2.1440355533007307,4.214070120362575,62.5807304091846,-29.47081,6.396136,-2.3798594,5.9798193,6.928477,-15.000033,11.944723,4.6255455,-5.9088984,20.159893,-26.12925,-2.5881023,1.8547775,2.7712193,7.747737,4.945307,19.513544,-20.470053,54.044468,13.401516,3.0176044,-5.9107175,-1.9863474,-22.005526,12.148487,38.234627,-0.26412475,0.7870178,-6.887533
32,6.422365665435791,20.69472885131836,74.09707641601562,-1.5300610133295198,4.561668554226018,62.53247951116475,-29.195417,5.6234927,-2.371971,5.9318614,8.794676,-15.000033,10.964068,3.5580182,-6.200165,22.974302,-26.481066,-2.2587464,1.6462787,2.0473266,7.378906,4.705997,19.576754,-20.520893,54.170834,13.59854,3.2446816,-5.867686,-1.655449,-21.765678,12.060851,38.653,0.069144,0.67969465,-7.0706377
33,6.677303314208984,21.44841766357422,74.09944152832031,-0.91816610318019,4.849939662614401,62.465337384392924,-28.874872,4.856101,-2.4486883,5.96528,10.219626,-15.000033,10.022874,2.451563,-6.508947,25.901848,-26.67181,-1.8847613,1.4101865,1.2894541,7.0116415,4.5622935,19.654467,-20.44484,54.173767,13.797515,3.4919436,-5.857551,-1.4004086,-21.42703,12.084351,39.279526,0.30778423,0.5831655,-7.219944
34,6.943155288696289,22.219562530517578,74.09765625,-0.23355310121069672,5.097466406809845,62.38211188476755,-28.485603,4.013732,-2.5173342,6.007273,11.405352,-14.955913,9.084676,1.2222372,-6.8325634,28.996529,-26.75023,-1.4468806,1.1476375,0.4769968,6.6528854,4.5046415,19.712461,-20.259735,54.051655,14.012822,3.7581928,-5.8848495,-1.150179,-21.1167,12.209742,39.99941,0.5366662,0.501108,-7.3255568
35,7.186445713043213,22.982376098632812,74.10660552978516,0.51922289037495,5.2882037621315305,62.29359101647781,-28.026941,3.0910196,-2.39345,6.0768976,12.259987,-14.326983,8.12152,-0.1326706,-7.1413403,32.275547,-26.611498,-0.96129805,0.8694915,-0.38400483,6.338278,4.468798,19.758966,-20.04227,53.880287,14.156158,3.9872346,-5.903372,-0.9033644,-20.816088,12.372431,40.787994,0.69106054,0.44969574,-7.3690286
36,7.424344062805176,23.74357795715332,74.12881469726562,1.3022305221013166,5.417428617766211,62.20361555399798,-27.504766,2.1691518,-2.1123607,6.1788306,12.692797,-13.596741,7.0970774,-1.5664203,-7.4005747,35.729683,-26.128443,-0.4702754,0.58377844,-1.2646278,6.096176,4.4043984,19.809422,-19.858456,53.717785,14.139,4.1224146,-5.8699927,-0.65785956,-20.508469,12.516222,41.612507,0.7127372,0.44545993,-7.331603
37,7.66508674621582,24.497724533081055,74.16048431396484,2.14429029258664,5.4721024245193775,62.15301534962319,-28.094263,1.1684093,-1.6775792,8.84649,11.204855,-12.716361,6.01708,-3.1227455,-7.631369,39.419975,-25.209082,0.07548485,0.27212906,-2.2046099,5.935334,4.307142,19.87657,-19.716116,53.57263,13.906987,4.1326957,-5.7627163,-0.39495304,-20.175217,12.616355,42.491524,0.5422137,0.4888785,-7.1851854
38,7.916049480438232,25.25751495361328,74.19497680664062,3.0276290169288878,5.458012075137226,62.1198140104931,-28.509243,0.17596452,-1.1058404,11.3498745,9.319075,-11.749385,4.9152646,-4.761654,-7.8230157,43.29065,-23.919819,0.6773912,-0.05177558,-3.194529,5.8367248,4.2005296,19.964643,-19.588882,53.412045,13.514149,4.0536942,-5.6089034,-0.12285729,-19.810165,12.69721,43.4384,0.21621008,0.5704006,-6.948273
39,8.161958694458008,26.021114349365234,74.24124145507812,3.882207257093375,5.395036717816623,62.025121323836906,-28.748781,-0.7197235,-0.4622519,13.628932,7.345646,-10.769661,3.7650669,-6.3761063,-7.902109,47.22857,-22.40552,1.2291682,-0.34116134,-4.154187,5.799038,4.077217,20.07502,-19.492702,53.228508,13.032301,3.9286003,-5.4399858,0.12075652,-19.426193,12.779128,44.409573,-0.17493932,0.69149816,-6.6710496
40,8.40063190460205,26.772016525268555,74.3019790649414,4.641008416436667,5.3074626193814,61.79173301735871,-28.769903,-1.4448284,0.21096668,15.517374,5.659307,-9.841876,2.5224757,-7.873277,-7.805464,51.139767,-20.815733,1.6163977,-0.5480945,-5.001998,5.8240786,3.9299304,20.205206,-19.445591,53.014046,12.534112,3.8011794,-5.2869005,0.3068106,-19.048647,12.878278,45.35353,-0.53818053,0.8555818,-6.4021955
41,8.62675952911377,27.508962631225586,74.36687469482422,5.293884965114008,5.190226415823007,61.38737377378591,-28.531218,-1.9999809,0.9316278,16.933071,4.370066,-8.943363,1.1096673,-9.231358,-7.4341536,55.159214,-19.161364,1.730146,-0.6449221,-5.7129292,5.9412727,3.757303,20.347021,-19.44869,52.74936,11.957784,3.6676471,-5.1692867,0.44225046,-18.690466,12.958512,46.25324,-0.88856643,1.0816193,-6.1448755
42,8.83691120147705,28.231626510620117,74.43511962890625,5.877945860034184,5.041288136842509,60.8601425189666,-28.094933,-2.4414508,1.7117275,18.02423,3.252205,-8.053747,-0.45521325,-10.50329,-6.857788,59.30556,-17.375801,1.6541109,-0.6615898,-6.32686,6.1433153,3.5603695,20.496439,-19.496338,52.445625,11.292599,3.509153,-5.0677514,0.54795986,-18.351442,13.0225115,47.125546,-1.2584265,1.3618531,-5.8728967
43,9.046688079833984,28.925790786743164,74.49540710449219,6.398481317118517,4.89036188670407,60.256599865340334,-27.542646,-2.7877016,2.5172958,18.896637,2.223903,-7.23251,-2.081405,-11.730336,-6.269398,63.32747,-15.501238,1.5376325,-0.64362234,-6.8588586,6.3768363,3.336757,20.65868,-19.596226,52.13917,10.683958,3.347395,-4.9541254,0.6163212,-18.039133,13.147778,47.968636,-1.5774497,1.661761,-5.5919847
44,9.263699531555176,29.62149429321289,74.54811096191406,6.860535969019452,4.765293006592154,59.62254934493865,-26.953547,-3.05541,3.3161263,19.64956,1.2082946,-6.5385585,-3.6863365,-12.971436,-5.8526692,67.002106,-13.591964,1.5103239,-0.6395625,-7.325779,6.588657,3.0911202,20.84292,-19.751684,51.857426,10.277297,3.203877,-4.800782,0.63864416,-17.766277,13.414255,48.78062,-1.7722374,1.947792,-5.3084607
45,9.483346939086914,30.32281494140625,74.59903717041016,7.276538544117103,4.671742552226307,58.92310548770638,-26.329937,-3.2437394,4.161827,20.28726,0.19009419,-5.9937863,-5.3144536,-14.287014,-5.5802574,70.35198,-11.422541,1.6267812,-0.6431459,-7.738796,6.7754188,2.8426023,21.056759,-19.960583,51.567883,10.094032,3.0825732,-4.5953503,0.5807677,-17.546442,13.883326,49.578686,-1.7500182,2.23398,-5.0329375
46,9.692425727844238,31.007131576538086,74.6532211303711,7.646624681922744,4.595688105028052,58.154485046868,-25.634783,-3.3688824,5.0606117,20.752546,-0.77798134,-5.560876,-7.0120287,-15.671773,-5.371613,73.50976,-9.056761,1.7585915,-0.6467789,-8.090145,6.9631214,2.595217,21.298157,-20.213648,51.25263,10.0617,2.9729004,-4.3568344,0.46013728,-17.378103,14.506015,50.352295,-1.5678767,2.5327246,-4.758327
47,9.897507667541504,31.662845611572266,74.71459197998047,7.957299388917732,4.532152197299039,57.41074299633173,-24.906973,-3.4660087,5.9090137,21.090286,-1.682511,-5.2094393,-8.690698,-17.105986,-5.3405385,76.430244,-6.9995236,1.7616632,-0.6938523,-8.372173,7.1411653,2.3245127,21.559835,-20.509317,50.967216,10.184988,2.8755145,-4.102456,0.34524933,-17.246258,15.190724,51.058735,-1.3788445,2.8073778,-4.4645715
48,10.10378360748291,32.314247131347656,74.79554748535156,8.189325128342256,4.476166022686776,56.77832516467388,-24.173767,-3.5533612,6.60275,21.336437,-2.513443,-4.91154,-10.236627,-18.560993,-5.6123247,79.04472,-5.753838,1.5163568,-0.8174232,-8.574072,7.297159,1.9983145,21.832817,-20.851803,50.77607,10.467657,2.791486,-3.8478463,0.3020443,-17.130026,15.842032,51.658222,-1.3395973,3.019874,-4.1318398
49,10.319149017333984,32.95188903808594,74.88948822021484,8.322153308253561,4.432771800941256,56.29292692659749,-23.459034,-3.6196961,7.100851,21.504997,-3.2680466,-4.67931,-11.577459,-20.13493,-6.371874,81.35268,-5.621977,1.0123297,-1.0385798,-8.679345,7.4155097,1.581985,22.117022,-21.29102,50.730892,10.975021,2.7067428,-3.5608258,0.32139242,-17.024458,16.473164,52.169247,-1.4667306,3.1427398,-3.7342741
50,10.545745849609375,33.594017028808594,74.99559783935547,8.367344528801878,4.399608178417066,55.903932915564035,-22.746035,-3.6513186,7.4652195,21.586254,-3.9579484,-4.521561,-12.747498,-21.81342,-7.5200567,83.39656,-6.302662,0.3271574,-1.3308235,-8.698883,7.5049567,1.0911804,22.412338,-21.817522,50.796486,11.682868,2.6285253,-3.2423134,0.3703431,-16.931273,17.1153,52.612003,-1.6896192,3.2001421,-3.2908416
51,10.787858009338379,34.22494888305664,75.1068344116211,8.3524168242971,4.362720551029509,55.56984047169898,-22.00973,-3.6541336,7.741546,21.5916,-4.598897,-4.408519,-13.805951,-23.376257,-8.765213,85.16804,-7.388286,-0.50136286,-1.6579747,-8.663087,7.5864606,0.5703467,22.709465,-22.344181,50.9105,12.46259,2.588059,-2.9575455,0.47345045,-16.840233,17.702822,52.95673,-2.0356956,3.2293575,-2.850315
52,11.052446365356445,34.84977722167969,75.22804260253906,8.307534531848562,4.309573946265502,55.24782999612108,-21.222713,-3.6375442,7.976892,21.523932,-5.2024703,-4.310918,-14.848795,-24.602669,-9.814982,86.6501,-8.453202,-1.4494778,-1.9820373,-8.6056385,7.6773534,0.06096041,22.996992,-22.783787,51.0191,13.188536,2.6134822,-2.7709072,0.65510654,-16.737066,18.168715,53.179928,-2.5360813,3.2672753,-2.46269
53,11.330650329589844,35.460105895996094,75.34915924072266,8.218601602660387,4.235749486521143,54.94467414040436,-20.399944,-3.5852852,8.153654,21.4237,-5.7885523,-4.2319436,-15.921708,-25.395592,-10.622153,87.82716,-9.531817,-2.6589565,-2.3059692,-8.515183,7.777134,-0.43991014,23.268995,-23.117958,51.145176,13.886129,2.7186167,-2.7004597,0.9386233,-16.609385,18.482988,53.25118,-3.336975,3.3279316,-2.1282403
54,11.609704971313477,36.0738410949707,75.48175811767578,8.074343707992586,4.151534870382381,54.67392340732807,-19.555119,-3.4877982,8.260128,21.281471,-6.3477683,-4.1878705,-16.994287,-25.842762,-11.333332,88.70552,-10.783929,-4.0615897,-2.642799,-8.380171,7.871795,-0.955326,23.527784,-23.394861,51.319748,14.604952,2.8835998,-2.711225,1.2968088,-16.458048,18.68813,53.207985,-4.379358,3.387,-1.8273882
55,11.890735626220703,36.68234634399414,75.61903381347656,7.9146338646721475,4.065481465410142,54.40488492001712,-18.653894,-3.376635,8.353082,21.019388,-6.8460174,-4.1664376,-18.06696,-26.0397,-11.951869,89.30252,-11.958469,-5.3484607,-2.9712985,-8.236352,7.959813,-1.4693438,23.77549,-23.622572,51.496063,15.258075,3.0845919,-2.7885494,1.6856934,-16.289558,18.82631,53.118595,-5.3855534,3.427355,-1.5792798
56,12.177247047424316,37.2822380065918,75.75967407226562,7.779511673114794,3.985151953337023,54.10816928404083,-17.659657,-3.2890368,8.4880295,20.55834,-7.248008,-4.1520076,-19.127872,-26.101906,-12.496524,89.63447,-12.807675,-6.227101,-3.2741702,-8.118169,8.041338,-1.9656235,24.014832,-23.805891,51.62386,15.756808,3.298485,-2.9169922,2.0617557,-16.112974,18.94116,53.047077,-6.0760665,3.4355295,-1.4033011
57,12.469605445861816,37.87821960449219,75.9054946899414,7.687918032470717,3.9094208115855045,53.77010654302797,-16.53976,-3.2480142,8.6885805,19.844795,-7.531733,-4.1320643,-20.172071,-26.0779,-12.987409,89.688614,-13.219312,-6.5834894,-3.5412605,-8.045347,8.120431,-2.4382725,24.245176,-23.924059,51.688725,16.070961,3.5487666,-3.1270452,2.4248846,-15.934296,19.03226,52.987213,-6.37646,3.4101744,-1.3098035
58,12.773212432861328,38.47034454345703,76.04985809326172,7.614954536019602,3.8351282537914577,53.409338833114674,-15.3174305,-3.2346025,8.922069,18.924244,-7.719066,-4.1135583,-21.206062,-25.910007,-13.42578,89.45959,-13.334057,-6.595447,-3.7871063,-7.992367,8.197253,-2.8940563,24.466278,-23.977684,51.713497,16.250996,3.8373973,-3.4154503,2.798075,-15.753032,19.083426,52.90471,-6.4326754,3.3610866,-1.2855476
59,13.082562446594238,39.06437301635742,76.1989517211914,7.536278972180202,3.7668302202757817,53.04623035249029,-14.045785,-3.225307,9.1600065,17.882069,-7.839587,-4.107458,-22.230125,-25.573761,-13.801268,88.97226,-13.287151,-6.410064,-4.0298395,-7.930593,8.26463,-3.3364708,24.683344,-24.003857,51.70533,16.328371,4.1108146,-3.7144048,3.16862,-15.571451,19.111109,52.826508,-6.2984447,3.2918227,-1.3152739
60,13.402575492858887,39.65678405761719,76.3441390991211,7.428423815453354,3.708570442303906,52.700468598809366,-12.775267,-3.195733,9.374981,16.79797,-7.9224505,-4.1262107,-23.24509,-25.044035,-14.09955,88.25272,-13.216371,-6.1742644,-4.2874866,-7.831964,8.317547,-3.7642255,24.90374,-24.037163,51.66453,16.333914,4.315417,-3.957104,3.5265205,-15.390654,19.131372,52.775085,-6.026485,3.2054062,-1.3827559
61,13.724655151367188,40.241058349609375,76.49016571044922,7.283362631429427,3.655665275144389,52.37605824334617,-11.496485,-3.1382089,9.561008,15.661879,-7.962256,-4.1765804,-24.262444,-24.258,-14.272267,87.287,-13.12323,-5.8860626,-4.5682936,-7.6898875,8.359472,-4.1710362,25.132822,-24.07459,51.5864,16.240774,4.4384804,-4.1421514,3.8688998,-15.211626,19.151674,52.759308,-5.5375347,3.0869462,-1.5035323
62,14.051217079162598,40.823699951171875,76.62736511230469,7.1154797530647995,3.6071924024638733,52.06401420757675,-10.187963,-3.067411,9.733549,14.438987,-7.947081,-4.248054,-25.274221,-23.25838,-14.336931,86.06455,-12.95223,-5.4860187,-4.862877,-7.5214806,8.393972,-4.554277,25.37153,-24.09898,51.463642,16.042585,4.509154,-4.3002234,4.2025065,-15.033864,19.162409,52.76255,-4.833887,2.938137,-1.6775129
63,14.379009246826172,41.40605545043945,76.75420379638672,6.936289622651697,3.572712616591903,51.76468909462117,-8.886334,-2.9914842,9.89852,13.181978,-7.9005494,-4.3289385,-26.254585,-22.18021,-14.3738165,84.618195,-12.75344,-5.03387,-5.1621575,-7.336497,8.416206,-4.922764,25.62048,-24.129116,51.29814,15.795794,4.5359397,-4.4124336,4.5304217,-14.856252,19.15176,52.77119,-4.093688,2.7876744,-1.8667539
64,14.720285415649414,41.97800827026367,76.87133026123047,6.756760734506649,3.562308693451858,51.477930403899144,-7.622756,-2.9190202,10.061114,11.93236,-7.8396,-4.407676,-27.178507,-21.15267,-14.465098,82.97767,-12.575309,-4.587417,-5.4544306,-7.1440473,8.420629,-5.290318,25.879614,-24.188847,51.095848,15.55491,4.526758,-4.459649,4.8553166,-14.677413,19.106571,52.773315,-3.4939127,2.6664374,-2.034987
65,15.064888954162598,42.54890060424805,76.9776611328125,6.573959140358849,3.5793267767111474,51.20473723194532,-6.3994603,-2.8473785,10.215111,10.684231,-7.76028,-4.4817624,-28.056288,-20.155418,-14.592996,81.134384,-12.41935,-4.1079335,-5.7367306,-6.939297,8.405945,-5.6626573,26.149487,-24.291874,50.856102,15.31913,4.4665947,-4.427349,5.1829796,-14.494262,19.007362,52.762527,-3.0676038,2.5851996,-2.1872735
66,15.405973434448242,43.11445999145508,77.06942749023438,6.385726313952558,3.6179757452765413,50.94549297298376,-5.198069,-2.7755916,10.359685,9.415082,-7.65166,-4.5544295,-28.88941,-19.144186,-14.722284,79.0706,-12.268553,-3.587872,-6.012811,-6.7222896,8.375444,-6.0353565,26.429708,-24.42716,50.578598,15.063963,4.356425,-4.3290467,5.510324,-14.305603,18.863232,52.747555,-2.7256417,2.527279,-2.3392916
67,15.749578475952148,43.680782318115234,77.15282440185547,6.200981997456817,3.675627011712315,50.69827482004034,-4.0153112,-2.7119827,10.5070095,8.130322,-7.5222125,-4.6249304,-29.651396,-18.200258,-14.910159,76.81692,-12.127058,-3.1231837,-6.282702,-6.5050583,8.33012,-6.4056005,26.717936,-24.57931,50.26952,14.807542,4.227772,-4.187578,5.8277802,-14.1140995,18.70475,52.736507,-2.4621959,2.4839926,-2.4713383
68,16.095312118530273,44.234554290771484,77.22015380859375,6.026455655265089,3.7501811743624596,50.46002193785513,-2.991856,-2.635427,10.67527,7.142719,-7.543551,-4.6952934,-30.315397,-17.393753,-15.218986,74.39936,-11.997811,-2.8037815,-6.5466595,-6.2966566,8.270125,-6.7718787,27.01114,-24.733543,49.936512,14.5669365,4.1124163,-4.0249767,6.1257257,-13.925983,18.563072,52.7373,-2.2713058,2.4467592,-2.563735
69,16.452341079711914,44.79486846923828,77.2728500366211,5.857144787670346,3.8412634155602796,50.22785996645734,-2.4179556,-2.4811025,10.886238,7.0820484,-8.049111,-4.7686496,-30.877443,-16.73896,-15.682548,71.82629,-11.896756,-2.67463,-6.806686,-6.0899086,8.196071,-7.129217,27.309284,-24.889318,49.57159,14.350494,4.015444,-3.8311915,6.4039235,-13.74666,18.442451,52.74732,-2.173072,2.418816,-2.6111367
70,16.81514549255371,45.34994888305664,77.31092071533203,5.690638255378802,3.950847547794527,50.00288510228587,-1.8680645,-2.3286166,11.112209,7.0243998,-8.548409,-4.8413568,-31.348845,-16.180607,-16.268059,69.07751,-11.813268,-2.6696208,-7.0630035,-5.879421,8.107819,-7.477815,27.612394,-25.050457,49.171364,14.148065,3.9206138,-3.5998523,6.6691236,-13.576217,18.32915,52.758965,-2.162084,2.403755,-2.6236222
71,17.177730560302734,45.90061569213867,77.33389282226562,5.539697717953064,4.080885669765048,49.78852268184499,-1.3452601,-2.1928816,11.337865,6.972121,-9.039076,-4.913868,-31.73126,-15.681837,-16.933552,66.13994,-11.709526,-2.7032118,-7.3117523,-5.680776,8.002673,-7.8230634,27.916157,-25.20664,48.75246,13.952917,3.828013,-3.3580494,6.918508,-13.415328,18.228128,52.777702,-2.1922078,2.3935332,-2.6046221
72,17.55784797668457,46.444759368896484,77.34586334228516,5.416629565763935,4.233172841374854,49.58881915703749,-0.8533014,-2.0881705,11.547311,6.926684,-9.517061,-4.9880023,-32.02542,-15.210047,-17.637135,62.994564,-11.54568,-2.6955862,-7.5508537,-5.5070047,7.878162,-8.1669035,28.213057,-25.342701,48.330196,13.762188,3.737883,-3.1327329,7.149834,-13.26339,18.14585,52.80802,-2.217226,2.3801072,-2.5573556
73,17.937255859375,46.989288330078125,77.3386001586914,5.32665914860818,4.4045136168814185,49.40475888639278,-0.38931155,-2.0222766,11.741719,6.8882117,-9.977324,-5.064992,-32.220036,-14.781571,-18.397673,59.6219,-11.340541,-2.6616538,-7.782352,-5.362235,7.7326317,-8.51221,28.499437,-25.458046,47.91345,13.576644,3.6487095,-2.9186168,7.3640337,-13.121641,18.082417,52.85686,-2.2340188,2.357928,-2.4678397
74,18.31800079345703,47.52265930175781,77.32270812988281,5.26101999037387,4.595138438660835,49.234210708075004,0.048403405,-1.985153,11.927903,6.8531613,-10.421619,-5.1461535,-32.31318,-14.38623,-19.233883,56.021076,-11.097982,-2.6216638,-8.006153,-5.2357655,7.566939,-8.860604,28.774708,-25.559982,47.49842,13.398749,3.560921,-2.7045758,7.5621376,-12.991303,18.034561,52.920345,-2.2640922,2.3324575,-2.339443
75,18.704410552978516,48.065757751464844,77.2890625,5.204256303193764,4.810729993850237,49.0758805678761,0.45014066,-1.9578358,12.097455,6.826494,-10.863745,-5.2348065,-32.321987,-13.957593,-20.101881,52.199696,-10.75744,-2.5136952,-8.216794,-5.1123633,7.3833427,-9.216512,29.035843,-25.648405,47.08585,13.224528,3.4775991,-2.5083816,7.740948,-12.87127,18.004478,52.989105,-2.297674,2.3123617,-2.2021081
76,19.109760284423828,48.60773468017578,77.23249053955078,5.147654484794574,5.055992637821116,48.92967718173742,0.8100063,-1.9292959,12.24236,6.8101616,-11.310216,-5.3333592,-32.26603,-13.444446,-20.947716,48.16433,-10.25522,-2.282365,-8.410084,-4.984099,7.1834335,-9.5892315,29.279387,-25.72654,46.682503,13.047849,3.4017901,-2.3473992,7.8957195,-12.760479,17.994448,53.05713,-2.3257914,2.3062181,-2.086388
77,19.4979248046875,49.13605880737305,77.1678237915039,5.104017591771683,5.337149051060572,48.801629917557406,1.121259,-1.9156089,12.349411,6.7930746,-11.754524,-5.448176,-32.143623,-12.841758,-21.713987,43.825375,-9.49081,-1.8719057,-8.590028,-4.8607216,6.9625807,-9.987694,29.501907,-25.79215,46.29124,12.876883,3.335961,-2.2274036,8.017334,-12.660332,18.014736,53.128063,-2.34393,2.3215082,-2.0006788
78,19.901363372802734,49.66108703613281,77.09281158447266,5.094043672028653,5.643081757465242,48.690556034739856,1.3853923,-1.9380492,12.430053,6.80374,-12.210116,-5.575666,-31.929022,-12.187167,-22.420765,39.165047,-8.502591,-1.3277959,-8.757574,-4.763682,6.724275,-10.408426,29.703133,-25.845705,45.914192,12.711999,3.2778687,-2.138008,8.111324,-12.570696,18.060997,53.204094,-2.357414,2.3520658,-1.9289892
79,20.307876586914062,50.1838264465332,77.00747680664062,5.095355905240287,5.9584860380139935,48.60086862402634,1.6355022,-1.9695861,12.491205,6.8161693,-12.666281,-5.708869,-31.567322,-11.468469,-23.173536,34.211823,-7.4034586,-0.75631225,-8.918874,-4.6742067,6.4784937,-10.841582,29.884232,-25.894142,45.553944,12.535065,3.2243147,-2.073318,8.194744,-12.489029,18.111614,53.27649,-2.3728657,2.3860989,-1.8649361
80,20.71993637084961,50.69930648803711,76.9161376953125,5.101549230899275,6.262850696780795,48.53700782733884,1.8993274,-1.9989465,12.54218,6.828272,-13.126637,-5.836443,-31.005222,-10.6817665,-24.069883,28.98897,-6.303168,-0.25640208,-9.07911,-4.587658,6.2379274,-11.280405,30.041899,-25.94563,45.2173,12.328816,3.1716692,-2.026981,8.288894,-12.410813,18.144882,53.333015,-2.3969004,2.4119961,-1.8017428
81,21.15116310119629,51.217872619628906,76.81158447265625,5.123559183487973,6.55022159081206,48.5156136131898,2.1816792,-2.0395045,12.574004,6.8382235,-13.595167,-5.9440713,-30.159054,-9.792891,-25.1609,23.241144,-5.1641984,0.12696166,-9.252848,-4.511886,6.003541,-11.735849,30.165716,-25.999813,44.91702,12.077449,3.118985,-2.0039618,8.401853,-12.338976,18.151176,53.36559,-2.4415452,2.4315405,-1.7355957
82,21.59882354736328,51.7353515625,76.68828582763672,5.221043427352271,6.784122389394088,48.582949563766306,2.513356,-2.1649878,12.535376,6.844494,-14.069562,-6.027737,-28.979675,-8.855428,-26.394787,16.876886,-3.8708951,0.4673737,-9.488023,-4.502204,5.798618,-12.213158,30.252935,-26.051756,44.655537,11.796447,3.067925,-2.0079708,8.532236,-12.279217,18.146053,53.372234,-2.497752,2.4509683,-1.6699243
83,22.052202224731445,52.25603485107422,76.5348892211914,5.4686669980492,6.8974613731244085,48.78972920086254,2.9619617,-2.463229,12.3689,6.843703,-14.542158,-6.0887613,-27.465485,-7.9889226,-27.729008,10.153792,-2.4014812,0.85417634,-9.822167,-4.6885834,5.669392,-12.675463,30.40559,-26.13868,44.367634,11.486062,3.0245633,-2.0376503,8.659826,-12.157082,18.123133,53.395668,-2.561136,2.4597218,-1.6165107
84,22.51258087158203,52.76203918457031,76.35511016845703,5.848059239058291,6.8903149661349445,49.113067383028664,3.5291214,-2.9081702,12.0818,6.8393536,-15.004969,-6.1468687,-27.236698,-8.05341,-28.910206,7.053827,-2.672589,1.3937955,-10.268105,-4.9806166,5.6056204,-13.129383,30.482815,-26.201107,44.130894,11.2365265,2.9799616,-2.069601,8.812072,-12.091126,18.127773,53.395874,-2.57877,2.458396,-1.5735308
85,22.99382781982422,53.263336181640625,76.15835571289062,6.2896739113833435,6.798025256278104,49.53914725820029,4.182138,-3.407469,11.689933,6.828932,-15.468866,-6.231343,-28.018461,-8.845236,-30.029058,6.8109994,-4.3817286,2.2316175,-10.757388,-5.3843894,5.5821013,-13.583614,30.613293,-26.340643,43.890194,10.991617,2.9435022,-2.1154635,8.980571,-11.96656,18.119387,53.414204,-2.5679135,2.4246802,-1.5549821
86,23.480796813964844,53.782440185546875,75.94742584228516,6.724917869958743,6.678687570233332,50.00801325047082,4.8579574,-3.8792877,11.250112,6.8313265,-15.941437,-6.3424964,-28.63992,-9.5857115,-31.273144,6.4419103,-5.988517,3.2584064,-11.27586,-5.760001,5.5648246,-14.018173,30.686007,-26.454351,43.672855,10.793444,2.9070632,-2.1718605,9.171255,-11.890151,18.132275,53.406887,-2.5180736,2.3720503,-1.5476977
87,23.98240852355957,54.301979064941406,75.746337890625,6.988088153845864,6.679984155045124,50.29595188361578,5.4400334,-4.132809,10.962415,6.8379984,-16.39223,-6.501489,-29.273466,-10.05267,-32.52978,6.246796,-7.393879,4.1415515,-11.61253,-5.955666,5.494249,-14.419043,30.739658,-26.54468,43.445755,10.611112,2.8712132,-2.2041698,9.298891,-11.822504,18.147007,53.444443,-2.4565945,2.3184254,-1.5437325
88,24.460832595825195,54.806488037109375,75.5611572265625,7.183488393967458,6.750800745654654,50.37200631769554,5.9736905,-4.3234,10.840672,6.8419337,-16.78166,-6.6501365,-29.742777,-10.330766,-33.69616,6.1522865,-8.287247,4.5940657,-11.770496,-6.079411,5.412411,-14.760348,30.777025,-26.570478,43.19699,10.449777,2.8348026,-2.1982703,9.33306,-11.75897,18.170586,53.544926,-2.4001763,2.2936292,-1.5364432
89,24.92432975769043,55.29240798950195,75.39125061035156,7.388993529823563,6.909695940113943,50.1913410786602,6.4361377,-4.544365,10.928589,6.8623147,-17.132158,-6.7704244,-29.961979,-10.433605,-34.818657,6.0967393,-8.5313425,4.516875,-11.730205,-6.20188,5.2946415,-15.02952,30.79428,-26.49791,42.920826,10.332235,2.7974443,-2.1530464,9.225856,-11.701,18.218046,53.756874,-2.321884,2.299795,-1.5223874
90,25.363231658935547,55.76388931274414,75.23033905029297,7.607204581234356,7.1303235614773826,49.823326270888515,6.8501916,-4.797231,11.17068,6.901461,-17.45802,-6.8749385,-29.974602,-10.387355,-35.906185,6.0767484,-8.295255,4.057023,-11.529661,-6.3224225,5.162318,-15.2572775,30.784632,-26.363642,42.6306,10.245367,2.7597728,-2.0785365,9.060895,-11.67739,18.274597,53.986458,-2.2196982,2.331967,-1.5018523
91,25.776142120361328,56.23822784423828,75.06824493408203,7.776317620376765,7.38258488803079,49.34022530175049,7.246645,-5.0151696,11.501796,6.9433036,-17.71786,-6.98052,-29.881618,-10.1809025,-36.771008,6.069706,-7.7159243,3.260213,-11.255497,-6.386753,5.026124,-15.377818,30.74903,-26.129335,42.309242,10.190417,2.7171938,-1.9805095,8.807187,-11.671529,18.361912,54.28682,-2.1458118,2.3776145,-1.4845779
92,26.182809829711914,56.727291107177734,74.9153060913086,7.845523044432243,7.6362703694196625,48.80575973974205,7.6527,-5.1370416,11.866604,6.992667,-17.885084,-7.1036096,-29.790838,-9.824833,-37.21405,6.0707355,-6.933705,2.1842885,-10.944239,-6.3596025,4.9132504,-15.406513,30.693312,-25.830353,41.974743,10.12443,2.6684453,-1.8588865,8.539173,-11.68,18.464148,54.578068,-2.158342,2.4388556,-1.4774207
93,26.597827911376953,57.20533752441406,74.79948425292969,7.718253210934377,7.946918173599156,48.119101649099115,8.028581,-5.048859,12.367172,7.0530825,-17.999535,-7.253999,-29.94043,-9.302279,-37.025963,6.542375,-6.096824,0.70575315,-10.550965,-6.128605,4.799733,-15.270646,30.584995,-25.342321,41.58071,10.111042,2.6173308,-1.7184517,8.158458,-11.710497,18.647867,54.959396,-2.280614,2.5092986,-1.5015793
94,27.03827667236328,57.69713592529297,74.71099853515625,7.442300424253539,8.315240530764997,47.26868665582759,8.368197,-4.8029065,13.011615,7.138,-18.068686,-7.421533,-30.041077,-8.494739,-36.394764,6.8901644,-4.85782,-1.1733268,-10.0926895,-5.709633,4.6632066,-14.984461,30.354162,-24.630333,41.181026,10.190151,2.5569417,-1.5557712,7.678155,-11.808361,18.95275,55.410675,-2.4564865,2.5979009,-1.5558052
95,27.50458335876465,58.167518615722656,74.66421508789062,7.095902909519357,8.690767463189482,46.382918857504386,8.704333,-4.4829264,13.675393,7.246501,-18.013695,-7.6127005,-30.09009,-7.606923,-35.604923,7.1544647,-3.4595332,-3.1992836,-9.541989,-5.2205534,4.520831,-14.710151,30.072277,-24.002075,40.860363,10.210244,2.4801285,-1.3529003,7.279148,-11.938646,19.177906,55.76641,-2.6828704,2.7045844,-1.5860909
96,27.99321174621582,58.628780364990234,74.64505004882812,6.781537188149211,9.003828851937635,45.609756213309616,9.090624,-4.1980143,14.213739,7.372608,-17.757196,-7.82953,-30.166803,-6.9203296,-34.91955,7.634052,-2.2986887,-5.110476,-9.065581,-4.765326,4.381043,-14.408104,29.764692,-23.459558,40.637665,10.14975,2.370324,-1.1160461,6.970632,-12.065624,19.310892,56.017242,-2.931694,2.8321264,-1.5829443
97,28.49878692626953,59.12592315673828,74.63571166992188,6.505301480181005,9.245685939629764,45.022887161229455,9.527441,-3.9436512,14.583865,7.5206203,-17.340805,-8.067305,-31.708471,-7.4877286,-34.208145,11.980188,-3.2153058,-6.909176,-8.732272,-4.3341107,4.2342324,-14.071749,29.425789,-23.014011,40.515205,9.993125,2.2113295,-0.82402486,6.751497,-12.18231,19.345963,56.171516,-3.2232537,3.0041938,-1.5379748
98,29.0384464263916,59.64582061767578,74.62785339355469,6.253170180767861,9.414478316471829,44.577224035687344,10.016198,-3.6950417,14.817835,7.6994424,-16.79097,-8.312287,-32.92815,-7.966027,-33.581287,15.64633,-3.7537475,-8.730246,-8.508998,-3.9167407,4.1005573,-13.6944275,29.050947,-22.627983,40.473484,9.772301,2.015196,-0.4874345,6.5886054,-12.286586,19.309254,56.265686,-3.5658731,3.2109253,-1.4657896
99,29.592266082763672,60.159271240234375,74.62602996826172,6.044874814829161,9.485177777071232,44.2085256027107,9.703844,-3.2352145,14.969438,9.831595,-17.010357,-8.570891,-33.8615,-8.393933,-33.019115,18.867907,-4.245131,-10.38653,-8.359985,-3.5549226,4.017262,-13.283609,28.643064,-22.26772,40.539444,9.521288,1.8070118,-0.15157448,6.463049,-12.378067,19.222008,56.309734,-3.9069948,3.4056172,-1.3872302
100,30.141014099121094,60.64292907714844,74.64311218261719,5.874528306730433,9.446047288102381,43.841832003887006,8.939265,-2.6563313,15.02363,13.188072,-17.511213,-8.848995,-34.461864,-8.713609,-32.510063,21.643543,-4.910308,-11.699164,-8.24114,-3.2647874,4.013011,-12.826471,28.205984,-21.885729,40.7178,9.283572,1.6132538,0.1383965,6.355578,-12.455704,19.10647,56.310608,-4.194455,3.5418634,-1.3226913
101,30.703908920288086,61.11094284057617,74.66738891601562,5.6945693968773154,9.293462174079131,43.43446098572892,8.1718445,-2.0422204,14.993214,16.848984,-17.79461,-9.163768,-34.69925,-8.864058,-32.048897,23.986237,-5.9069166,-12.536524,-8.144583,-3.00097,4.0950756,-12.2798,27.73101,-21.437973,41.03792,9.007573,1.3969896,0.42955023,6.2556915,-12.520793,18.966064,56.283607,-4.447316,3.5972397,-1.2790322
102,31.284439086914062,61.60008239746094,74.68314361572266,5.444632720999267,9.066530311200765,43.01397631868875,7.349277,-1.3235226,14.879018,20.825249,-17.919544,-9.52942,-34.63872,-8.831412,-31.66513,25.94272,-7.120789,-13.030561,-8.077185,-2.6859171,4.229268,-11.654746,27.211489,-20.949234,41.47485,8.698543,1.1591507,0.7270143,6.1648355,-12.577581,18.79392,56.22618,-4.6813006,3.599658,-1.2455127
103,31.876394271850586,62.096126556396484,74.6997299194336,5.118613981228423,8.812314014728566,42.61200469073151,6.425805,-0.49708736,14.637643,25.00744,-17.817137,-9.947238,-34.372543,-8.642004,-31.385145,27.554317,-8.36331,-13.396101,-8.020717,-2.3068771,4.3858647,-11.051111,26.666067,-20.495794,41.977867,8.456249,0.9849336,0.9246643,6.082934,-12.629051,18.596426,56.114815,-4.8400774,3.579067,-1.2166022
104,32.477317810058594,62.56818771362305,74.72187042236328,4.731207370713101,8.57206126267436,42.26295691690797,5.3565793,0.4145276,14.22108,29.297419,-17.414856,-10.4149275,-33.98978,-8.334332,-31.223402,28.85405,-9.43503,-13.8459425,-7.9602237,-1.8794086,4.5409102,-10.549398,26.130838,-20.145807,42.47987,8.378183,0.9608991,0.91551316,6.013084,-12.675814,18.37999,55.92365,-4.8688927,3.5651534,-1.1861398
105,33.08231735229492,63.01344680786133,74.7505874633789,4.281589276290414,8.350364823332523,41.9613662671252,4.112757,1.4051305,13.620787,33.761623,-16.617136,-11.00548,-33.476765,-7.8833594,-31.187946,29.783571,-10.274429,-14.458512,-7.8817534,-1.4211565,4.701943,-10.137309,25.631187,-19.884722,42.952396,8.503108,1.153379,0.6596721,5.9665604,-12.706372,18.129139,55.62425,-4.7193646,3.5761302,-1.1349062
106,33.6907844543457,63.43226623535156,74.77973937988281,3.7816061826427565,8.12781861534614,41.688491625779044,2.7433035,2.4177804,12.854099,38.376953,-15.471793,-11.7268505,-32.81203,-7.306088,-31.240198,30.381212,-11.00308,-15.000033,-7.794149,-0.947902,4.8786216,-9.757733,25.172195,-19.677954,43.40606,8.76935,1.5016654,0.214241,5.934975,-12.714782,17.847801,55.237747,-4.434017,3.5927105,-1.0720344
107,34.28609085083008,63.850337982177734,74.8079605102539,3.330919838281229,7.874256777184786,41.51636573846634,1.3509119,3.2790072,11.880754,42.892662,-14.10653,-12.445073,-32.07123,-6.841775,-31.304964,30.944113,-11.763935,-15.000033,-7.774843,-0.5313321,5.077495,-9.419225,24.762066,-19.558865,43.831585,9.122855,1.9010693,-0.38250703,5.8937526,-12.713222,17.577026,54.80704,-4.088827,3.5875359,-1.0313894
108,34.89258575439453,64.25140380859375,74.83162689208984,2.8982585367769644,7.63499754116574,41.38947498233422,-0.092027575,4.0242105,10.755824,47.2361,-12.737197,-13.054483,-31.330362,-6.391581,-31.397715,31.45545,-12.540216,-15.000033,-7.7762017,-0.12922318,5.2572627,-9.132086,24.411911,-19.564196,44.22011,9.505471,2.2474189,-1.0929121,5.8289623,-12.7226925,17.356623,54.363026,-3.7583683,3.5334816,-1.0442245
109,35.504295349121094,64.64796447753906,74.84910583496094,2.4666071172536372,7.408889516069722,41.341785739819976,-1.6690806,4.653515,9.337189,51.546963,-11.372641,-13.447699,-30.587917,-5.9503202,-31.556087,31.922934,-13.353026,-15.000033,-7.820533,0.27981648,5.4235024,-8.909682,24.134546,-19.718143,44.548683,9.925075,2.5659049,-1.9882387,5.7544928,-12.755641,17.20119,53.874725,-3.4132798,3.4178116,-1.1087774
110,36.101097106933594,65.05033111572266,74.85784149169922,2.0342678559097003,7.194522932257653,41.35627525855313,-3.3747807,5.161537,7.6773953,55.86965,-9.9356575,-13.729985,-29.8179,-5.496892,-31.772612,32.294533,-14.171159,-15.000033,-7.8944817,0.68521035,5.5857882,-8.731,23.932396,-19.992035,44.814327,10.402751,2.8895679,-3.0660186,5.68147,-12.810976,17.090725,53.3224,-3.0269308,3.2566123,-1.2064867
111,36.68717575073242,65.45185089111328,74.85165405273438,1.6434068720241053,7.0022292773781905,41.35458394474731,-5.0601373,5.555572,6.0821967,59.945786,-8.487148,-14.048735,-29.057888,-5.0541196,-31.95048,32.59915,-14.965719,-15.000033,-7.9494896,1.0434445,5.7312474,-8.554445,23.794416,-20.340496,45.036827,10.897064,3.129051,-4.1743264,5.5921164,-12.884148,17.016544,52.751244,-2.6763773,3.0657132,-1.3427888
112,37.26303482055664,65.84963989257812,74.8472900390625,1.3342673906409728,6.840968861422923,41.258126425190426,-6.596236,5.8908854,4.850497,63.55156,-7.104808,-14.517544,-28.346819,-4.6433315,-31.998287,32.868755,-15.709735,-15.000033,-7.9361663,1.3149248,5.844408,-8.346177,23.702549,-20.720093,45.24606,11.364353,3.1987226,-5.157595,5.464905,-12.9719095,16.968727,52.212975,-2.4399455,2.8610463,-1.5257065
113,37.82912063598633,66.2535400390625,74.85348510742188,1.1500362772262878,6.732475680780584,41.04835958586572,-7.9616256,6.224652,4.174752,66.63353,-5.637316,-15.000033,-27.745808,-4.311316,-31.878225,33.157726,-16.411062,-15.000033,-7.8406324,1.4687303,5.8964496,-8.127345,23.654768,-21.170658,45.464867,11.807992,3.0384078,-6.0143275,5.2766175,-13.076203,16.969805,51.734272,-2.3388286,2.6239996,-1.7814165
114,38.37529754638672,66.67107391357422,74.87930297851562,1.181132483795296,6.684389061627184,40.80000196700279,-9.2575035,6.574357,4.0885363,69.322525,-4.0689096,-15.000033,-27.328936,-4.2225924,-31.585773,33.630386,-17.16023,-15.000033,-7.7226086,1.4214025,5.864307,-7.918072,23.64917,-21.697144,45.689423,12.24489,2.7076795,-6.8092847,5.036203,-13.189551,17.020956,51.297478,-2.3333874,2.3537652,-2.1021895
115,38.917598724365234,67.07958221435547,74.9259262084961,1.211954609728717,6.6335359823158555,40.488208089759674,-10.510732,7.0476108,4.140763,71.779564,-2.8029737,-15.000033,-26.866709,-4.068202,-31.25427,33.96631,-17.836636,-15.000033,-7.5417657,1.3671755,5.839844,-7.695801,23.66357,-22.23106,45.90441,12.640916,2.30489,-7.4850793,4.809369,-13.328699,17.055094,50.83891,-2.403256,2.0954888,-2.4332957
116,39.46858596801758,67.47684478759766,74.98551940917969,1.1516471485028748,6.5334845724658726,40.115165007232264,-11.741034,7.632929,4.057765,74.07963,-2.1985953,-15.000033,-26.235374,-3.728553,-30.940956,34.034954,-18.397629,-15.000033,-7.325991,1.3708836,5.869708,-7.4027834,23.675777,-22.643177,46.09934,12.994641,1.9284605,-7.987538,4.5837617,-13.450447,17.056694,50.390324,-2.53594,1.8918775,-2.7436397
117,40.0310173034668,67.86121368408203,75.04546356201172,0.9712734367870711,6.357311802682211,39.663776526602845,-12.9309025,8.288941,3.7356172,76.2468,-2.5589461,-15.000033,-25.380812,-3.1522079,-30.649956,33.78584,-18.82682,-15.000033,-7.0462604,1.4627237,5.979912,-7.046912,23.673306,-22.949724,46.298637,13.3148575,1.5448371,-8.285718,4.3883595,-13.567057,16.987782,49.926804,-2.7771702,1.7554041,-3.0339484
118,40.61394500732422,68.23619842529297,75.1134033203125,0.724518199428312,6.133781246355386,39.13656066248661,-14.070701,8.994149,3.3021185,78.22368,-3.624657,-15.000033,-24.373714,-2.4056354,-30.342749,33.284866,-19.143412,-15.000033,-6.720777,1.5899739,6.1271086,-6.6430974,23.6601,-23.173428,46.521923,13.621898,1.1243058,-8.412278,4.1640067,-13.647914,16.896284,49.517513,-3.1259563,1.6623176,-3.3356974
119,41.19319152832031,68.6179428100586,75.19353485107422,0.6647317816257327,5.935197525555495,38.62923119289798,-15.203649,9.957996,3.5095372,79.89073,-4.8542733,-13.508802,-23.468615,-1.9030987,-29.915855,32.934956,-19.510788,-15.000033,-6.4062605,1.5418744,6.225507,-6.2164183,23.634827,-23.328117,46.743748,13.8741455,0.77052426,-8.405502,3.9466305,-13.71624,16.780724,49.11438,-3.4767044,1.6051917,-3.6135702
120,41.775367736816406,68.99950408935547,75.28228759765625,0.6304917718894488,5.769041545174867,38.12022324843628,-16.363062,10.95554,3.7764435,81.268936,-5.8490243,-12.007028,-22.574766,-1.4153657,-29.45855,32.51472,-19.83087,-14.980756,-6.065778,1.4794911,6.2931814,-5.7977185,23.56867,-23.412523,46.957188,14.04199,0.5859145,-8.303249,3.7648287,-13.81042,16.648415,48.67677,-3.722456,1.5765406,-3.8327703
121,42.357242584228516,69.3739242553711,75.38265228271484,0.5852228102406168,5.646535165235852,37.60553335262516,-17.57792,12.034278,4.0957875,82.37076,-6.5208983,-10.555733,-21.674095,-0.91244185,-28.99214,31.97492,-20.0753,-14.772368,-5.7242827,1.4147661,6.3185735,-5.337335,23.481365,-23.35912,47.125957,14.136838,0.63084304,-8.079842,3.560129,-13.876043,16.530647,48.27169,-3.8526294,1.589527,-3.996577
122,42.93577194213867,69.73966217041016,75.4858627319336,0.5443986868013317,5.546252100795378,37.07933854079116,-18.817785,13.185195,4.496113,83.20799,-7.114409,-9.023947,-20.753622,-0.3921978,-28.502592,31.323057,-20.254667,-14.5722885,-5.369467,1.3431143,6.318409,-4.861393,23.34904,-23.202005,47.292107,14.170549,0.83907527,-7.7243576,3.3553598,-13.935048,16.404627,47.878468,-3.9151428,1.6432648,-4.115349
123,43.51586151123047,70.0961685180664,75.59387969970703,0.5213582839494232,5.440613424414958,36.54314270092436,-20.021141,14.312476,4.9302835,83.76459,-7.6713,-7.4871635,-19.791178,0.11779625,-27.984539,30.59028,-20.38883,-14.370337,-5.012464,1.2485887,6.317222,-4.3758984,23.192257,-22.979342,47.459404,14.127145,1.1254581,-7.3131924,3.1397972,-13.987086,16.30153,47.507713,-3.91083,1.7022915,-4.2071395
124,44.0998420715332,70.44947052001953,75.71011352539062,0.5118667271849867,5.309945588061953,35.984895018759914,-21.13712,15.338777,5.345594,84.02994,-8.228135,-6.033635,-18.761242,0.6250669,-27.42892,29.770788,-20.47772,-14.163052,-4.652985,1.1397911,6.3344197,-3.8882408,23.023514,-22.725977,47.634243,13.994053,1.4038805,-6.9222474,2.9087546,-14.047398,16.254906,47.160152,-3.8357768,1.731688,-4.2879014
125,44.697044372558594,70.80919647216797,75.83753204345703,0.516862285477898,5.1448575743143286,35.39349841454103,-22.141064,16.275654,5.777313,83.98499,-8.794172,-4.6662,-17.646814,1.135303,-26.822292,28.853655,-20.517538,-13.950202,-4.2863035,1.0155131,6.380316,-3.3772497,22.846912,-22.417994,47.79267,13.741837,1.6920999,-6.5492415,2.6621575,-14.123735,16.28673,46.833546,-3.616258,1.7180452,-4.358277
126,45.29523849487305,71.17120361328125,75.97270965576172,0.5349682650531902,4.960581956116063,34.774244663866966,-23.06213,17.143198,6.251513,83.64211,-9.3475065,-3.362265,-16.462677,1.646856,-26.169743,27.835611,-20.50397,-13.734176,-3.9136193,0.8778376,6.4444456,-2.8361225,22.661514,-22.04303,47.92417,13.382709,2.020336,-6.161952,2.406301,-14.216548,16.37864,46.517757,-3.274722,1.681294,-4.4085145
127,45.8824348449707,71.52515411376953,76.10749816894531,0.5710544375505016,4.769297773549385,34.15126845476473,-23.928171,17.864126,6.700017,83.03055,-9.86353,-2.1635559,-15.237166,2.130932,-25.49564,26.756039,-20.456308,-13.511068,-3.5523877,0.7304434,6.520125,-2.2914677,22.473984,-21.652943,48.051613,12.969795,2.3215399,-5.792181,2.151539,-14.325203,16.50104,46.19474,-2.952129,1.6372473,-4.4374676
128,46.47331237792969,71.8880386352539,76.24382019042969,0.6283012562036491,4.583208455465413,33.548248378124725,-24.770504,18.367958,7.050868,82.18032,-10.31296,-1.1054515,-13.998278,2.5628154,-24.826693,25.65123,-20.393417,-13.277738,-3.2168584,0.5757767,6.6008067,-1.7713591,22.295267,-21.3034,48.197525,12.555665,2.5303771,-5.473287,1.9083588,-14.449143,16.620491,45.84771,-2.7903824,1.601634,-4.4441304
129,47.06879425048828,72.2387924194336,76.37788391113281,0.7079571499571207,4.397841346087904,32.97066355715064,-25.599087,18.626905,7.2719216,81.084595,-10.6922865,-0.16476801,-12.73064,2.9431934,-24.170527,24.499928,-20.307827,-13.035002,-2.9092684,0.41152897,6.6941314,-1.2753,22.133162,-20.998123,48.361942,12.121411,2.6181014,-5.2050924,1.6850221,-14.584352,16.720707,45.463737,-2.860293,1.5770471,-4.414288
130,47.651432037353516,72.58968353271484,76.50179290771484,0.8061389278084353,4.209410078943302,32.406064694239625,-26.394337,18.683826,7.408523,79.73175,-11.005706,0.6678918,-11.425064,3.2845063,-23.515097,23.288834,-20.19471,-12.784289,-2.6193228,0.2358266,6.8015757,-0.78889894,21.98899,-20.715403,48.529655,11.64784,2.6240878,-4.9750476,1.475581,-14.729053,16.817783,45.053425,-3.0770717,1.5551395,-4.352921
131,48.239864349365234,72.95518493652344,76.62126159667969,0.9177420004425516,4.031617783014037,31.851478123555683,-27.144249,18.582281,7.5001698,78.1417,-11.233138,1.341357,-10.126066,3.5815535,-22.859838,22.079185,-20.075937,-12.524357,-2.3435564,0.054850113,6.907993,-0.31774196,21.862991,-20.47058,48.69836,11.188674,2.5860732,-4.7985444,1.2706275,-14.886159,16.928354,44.632103,-3.3471215,1.5356619,-4.2871094
132,48.8265495300293,73.32393646240234,76.7337646484375,1.038183480875784,3.8780743711859906,31.30372465877919,-27.835827,18.367346,7.5868893,76.33079,-11.353077,1.8051666,-8.874822,3.8307064,-22.204102,20.925596,-19.972166,-12.254926,-2.0768275,-0.12442204,6.9987273,0.12928948,21.753542,-20.28096,48.867947,10.796633,2.5424447,-4.690201,1.0654497,-15.059436,17.066881,44.209675,-3.5770228,1.5189512,-4.2428718
133,49.41592788696289,73.68903350830078,76.83522033691406,1.1687096102996541,3.742688075586164,30.766973912721472,-28.456789,18.036425,7.662117,74.280396,-11.354887,2.022519,-7.65823,4.032515,-21.546663,19.81134,-19.875618,-11.9663725,-1.821923,-0.30244637,7.0767517,0.5463004,21.661077,-20.165796,49.048763,10.467173,2.4875267,-4.6563683,0.862282,-15.254771,17.241888,43.783142,-3.7558804,1.510348,-4.2291765
134,50.006019592285156,74.0540771484375,76.92171478271484,1.3090104125218596,3.6209321364179465,30.2405692126235,-29.0099,17.581194,7.7072663,71.983086,-11.24536,2.0347362,-6.4604864,4.192591,-20.889652,18.71463,-19.779827,-11.664306,-1.5788823,-0.4788472,7.149026,0.93660545,21.585276,-20.111801,49.238445,10.177523,2.4074795,-4.688903,0.66676885,-15.472381,17.443485,43.3427,-3.9274879,1.5083467,-4.230275
135,50.5945930480957,74.42079162597656,76.99302673339844,1.451333379404899,3.5289508508520067,29.71421508990535,-29.509937,17.03992,7.741126,69.47308,-11.031024,1.9090592,-5.3246064,4.3141985,-20.238197,17.691885,-19.712236,-11.371488,-1.3394563,-0.64760053,7.204783,1.3061093,21.522121,-20.085978,49.420532,9.955484,2.3284512,-4.7787757,0.47389477,-15.707862,17.658619,42.89624,-4.081922,1.5028802,-4.2364316
136,51.17788314819336,74.78162384033203,77.04164123535156,1.5881428885358544,3.4828101863823786,29.177716080290203,-29.971704,16.45151,7.781985,66.781204,-10.719095,1.7140605,-4.2909994,4.403086,-19.59693,16.793562,-19.696247,-11.110112,-1.0967166,-0.80356526,7.232626,1.6595912,21.465797,-20.055235,49.580547,9.828609,2.276226,-4.916258,0.27626342,-15.95422,17.875637,42.454914,-4.2095957,1.4838381,-4.2387586
137,51.76265335083008,75.13636016845703,77.07392883300781,1.7214647363325866,3.4962723007285854,28.6196249252404,-30.414589,15.831855,7.8258615,63.903778,-10.317304,1.4703618,-3.3931208,4.4517674,-18.961393,16.056446,-19.740877,-10.899019,-0.8422983,-0.9496242,7.21849,1.9937351,21.413292,-20.01938,49.722958,9.817538,2.260178,-5.11948,0.06753509,-16.209028,18.09713,42.023262,-4.313339,1.4454844,-4.2376766
138,52.35073471069336,75.49191284179688,77.0880126953125,1.8514674695423046,3.5571173092572597,28.04773735994827,-30.822538,15.173543,7.855331,60.820057,-9.820521,1.1509497,-2.6001747,4.46687,-18.331263,15.441708,-19.830069,-10.723111,-0.5832432,-1.086774,7.1713104,2.305032,21.364845,-19.99221,49.857777,9.904425,2.2654538,-5.385542,-0.1503224,-16.472904,18.328588,41.60027,-4.3979783,1.3941278,-4.238145
139,52.934776306152344,75.84505462646484,77.0870361328125,1.968434945864637,3.642306458289176,27.4810070452743,-31.162642,14.481911,7.8662815,57.53712,-9.219711,0.7529146,-1.8602922,4.472767,-17.717386,14.89322,-19.954657,-10.5521965,-0.33403015,-1.2077456,7.113382,2.5986178,21.320066,-19.96157,49.979095,10.060176,2.2806556,-5.672929,-0.37470126,-16.742868,18.562897,41.19088,-4.4562936,1.3377507,-4.2382455
140,53.52433395385742,76.19579315185547,77.0708236694336,2.0638723660598117,3.728290986893845,26.937775440481083,-31.400642,13.761215,7.8552575,54.054028,-8.505226,0.2731699,-1.120723,4.492185,-17.130013,14.351603,-20.103483,-10.355129,-0.10998587,-1.3060614,7.066423,2.8800094,21.27872,-19.91456,50.081284,10.255507,2.2950318,-5.9400754,-0.603849,-17.013512,18.793224,40.80153,-4.482125,1.2842327,-4.236609
141,54.12236404418945,76.54401397705078,77.0405502319336,2.1408466373259585,3.8128682352395584,26.420596738909357,-31.53161,13.026478,7.808465,50.336212,-7.6598177,-0.27729613,-0.37752545,4.5244813,-16.57006,13.806021,-20.277117,-10.111543,0.08538119,-1.3856717,7.0333104,3.1488628,21.242516,-19.850727,50.1609,10.526881,2.3083627,-6.1966634,-0.8441047,-17.282513,19.019917,40.429886,-4.463129,1.2343909,-4.2289534
142,54.720802307128906,76.88896179199219,76.99597930908203,2.201959580003162,3.905730494062349,25.918486888729937,-31.563644,12.286866,7.720889,46.372673,-6.690534,-0.8892609,0.3544001,4.563458,-16.03083,13.265025,-20.470709,-9.840572,0.26123622,-1.4498712,7.003456,3.4035828,21.21266,-19.775484,50.221355,10.874486,2.324909,-6.4580064,-1.0969483,-17.550064,19.246252,40.077324,-4.407567,1.1843323,-4.2179008
143,55.32695770263672,77.22776794433594,76.9344482421875,2.238463686119319,4.001615232270468,25.428688885673267,-31.486774,11.5421295,7.6018867,42.200787,-5.6200547,-1.5659866,1.0747726,4.6147118,-15.511831,12.752489,-20.686438,-9.569219,0.4233121,-1.4901665,6.978775,3.6492875,21.18645,-19.683678,50.266068,11.217995,2.3412473,-6.6911073,-1.3543633,-17.812618,19.469997,39.75661,-4.3384814,1.1348523,-4.2121253
144,55.93647384643555,77.56969451904297,76.86026000976562,2.239859430601294,4.093992617659619,24.948086376968067,-31.289,10.796626,7.4596753,37.848244,-4.468324,-2.3098595,1.8000253,4.6910963,-15.010036,12.259942,-20.914953,-9.326491,0.5777409,-1.4969139,6.9610167,3.8898695,21.159409,-19.569836,50.301517,11.47784,2.355094,-6.862275,-1.6117227,-18.065807,19.689774,39.48568,-4.2791767,1.0866877,-4.22101
145,56.54436492919922,77.91007995605469,76.7698974609375,2.19556559962395,4.1865905908203045,24.47254085279549,-30.971706,10.088639,7.245449,33.25004,-3.211941,-3.0729702,2.517364,4.80286,-14.52441,11.804093,-21.16427,-9.127893,0.7292798,-1.4617944,6.9477367,4.12065,21.128971,-19.430061,50.33264,11.6382265,2.366924,-6.958967,-1.8746552,-18.308264,19.908716,39.265545,-4.239974,1.0390245,-4.2500362
146,57.163692474365234,78.2530517578125,76.6611328125,2.102097581700667,4.272870025332458,23.994587355458428,-30.504606,9.446675,6.9621735,28.351982,-1.8288718,-3.8540232,3.2434933,4.959108,-14.045948,11.359167,-21.424154,-8.957814,0.88272285,-1.3800954,6.94497,4.3399796,21.094992,-19.26823,50.35817,11.739794,2.37857,-6.999614,-2.1468358,-18.54061,20.12744,39.09276,-4.2077756,0.99192464,-4.293488
147,57.793663024902344,78.59297943115234,76.53166198730469,1.9521555047787453,4.325476031068813,23.499207137603882,-29.819593,8.872451,6.6968284,23.177912,-0.3328167,-4.7245026,4.0455046,5.1791286,-13.552697,10.849437,-21.653936,-8.80113,1.0512577,-1.2400864,6.971854,4.559201,21.055746,-19.089243,50.373894,11.790366,2.390353,-6.9968886,-2.4178026,-18.762205,20.338293,38.977512,-4.1730504,0.94724387,-4.3438044
148,58.43893814086914,78.93623352050781,76.3821029663086,1.723802375971128,4.308698295190095,22.9592065406813,-28.83383,8.38487,6.537636,17.728765,1.2671106,-5.75983,5.01282,5.5010853,-13.009205,10.173663,-21.80005,-8.646109,1.2606683,-1.014133,7.0552573,4.7909627,21.008127,-18.8979,50.374176,11.798422,2.402722,-6.963531,-2.6765044,-18.971798,20.533615,38.929882,-4.1258984,0.90704894,-4.3926888
149,59.09083557128906,79.28868865966797,76.20262145996094,1.357109048309044,4.1865141530614975,22.317709832381723,-27.394077,8.067644,6.568251,11.7201605,3.0502796,-6.9513245,6.258179,6.0114875,-12.344574,9.180089,-21.791698,-8.502171,1.5587953,-0.6404241,7.222654,5.0520105,20.948126,-18.685335,50.351963,11.744249,2.413267,-6.884305,-2.9253502,-19.17194,20.72057,38.958073,-4.0607586,0.87010825,-4.436424
150,59.75611114501953,79.64330291748047,75.99176788330078,0.8218974939167022,3.9482203565413942,21.54425754310427,-26.133636,8.075588,6.664365,6.46078,4.327679,-8.25496,7.8269053,6.7406883,-11.512681,7.7973356,-21.585594,-8.386339,1.976891,-0.087367244,7.481607,5.3388195,20.8735,-18.452,50.307674,11.631099,2.4236205,-6.7590146,-3.1670008,-19.367975,20.901716,39.0552,-3.9841413,0.8372118,-4.4769344
151,60.43198013305664,80.00064086914062,75.76029968261719,0.2309559958242688,3.647411438980787,20.719340727830936,-27.102652,8.486558,6.4697347,6.227483,2.9548702,-9.680271,8.888178,7.375313,-10.678543,7.6796875,-22.031786,-8.263018,2.4536629,0.53465044,7.7830033,5.6197486,20.79068,-18.223156,50.258892,11.498735,2.4387064,-6.621198,-3.3908017,-19.551785,21.058626,39.212814,-3.9063818,0.8115376,-4.5187383
152,61.11080551147461,80.36225128173828,75.52232360839844,-0.30368920782697095,3.3454209098900067,19.946013150529787,-28.003492,8.842205,6.2098675,6.102115,1.6428024,-11.265514,9.937174,7.9127045,-9.8912,7.6099377,-22.474804,-8.121779,2.932438,1.0826883,8.066637,5.841052,20.74167,-18.061476,50.239937,11.370978,2.4660234,-6.5019507,-3.5963914,-19.651215,21.137064,39.46484,-3.8629973,0.79086995,-4.5701756
153,61.80595779418945,80.74004364013672,75.27288055419922,-0.772511295876675,3.046322939585749,19.235481817722267,-28.8863,9.038501,5.8233547,6.103286,0.34282067,-13.243754,10.990919,8.334825,-9.173705,7.5735326,-22.936323,-7.9469256,3.335187,1.5845511,8.357837,6.059153,20.67773,-17.867935,50.19582,11.282681,2.509325,-6.4141173,-3.785078,-19.767452,21.216698,39.741287,-3.827593,0.7872425,-4.630942
154,62.487186431884766,81.12718200683594,75.04082489013672,-1.1827478532596716,2.6935150253864277,18.57412832958009,-29.652664,9.05738,5.4137,6.1056905,-0.96721697,-15.000033,12.103926,8.66087,-8.505896,7.545938,-23.393696,-7.7470083,3.7144253,2.045931,8.693402,6.250309,20.61661,-17.701248,50.15473,11.191734,2.5675237,-6.335259,-3.9472928,-19.864105,21.251375,40.07614,-3.8137696,0.79353786,-4.6945014
155,63.150150299072266,81.53490447998047,74.82228088378906,-1.4612387732527503,2.3382645527145027,18.084062001993633,-30.273884,8.70506,5.038051,6.0875273,-2.191015,-15.000033,13.203546,8.792848,-8.008926,7.5656934,-23.842037,-7.4874434,3.9605594,2.4028678,9.034292,6.3991423,20.568535,-17.58253,50.1316,11.100553,2.6230159,-6.2672987,-4.0788713,-19.929672,21.238663,40.470356,-3.7830577,0.80154526,-4.7669334
156,63.80350112915039,81.92811584472656,74.62396240234375,-1.69509819055567,2.0674954396821987,17.692650652568688,-30.743523,8.389035,4.751859,6.0966444,-3.213734,-15.000033,14.191201,8.882102,-7.599489,7.593209,-24.196125,-7.237093,4.1138535,2.7326436,9.317367,6.504561,20.493557,-17.46474,50.122166,11.0581045,2.6556387,-6.216301,-4.1773586,-20.017185,21.198175,40.87109,-3.6780796,0.8103822,-4.840664
157,64.44751739501953,82.2999267578125,74.44469451904297,-1.9125604813365507,1.8968340128231662,17.426276466265193,-31.03155,8.092225,4.662104,6.1072288,-4.030792,-15.000033,15.046497,8.966624,-7.3020763,7.629852,-24.458271,-7.00079,4.1885505,3.040808,9.512077,6.5127945,20.435118,-17.432562,50.17609,11.020246,2.656056,-6.1817994,-4.2412014,-20.075384,21.100004,41.319603,-3.489839,0.8118899,-4.932756
158,65.08727264404297,82.66230773925781,74.27135467529297,-2.1258000025947505,1.7893293542910786,17.261222333486934,-31.150148,7.7526655,4.7195888,6.097313,-4.6506763,-15.000033,15.816831,9.05468,-7.0992804,7.67586,-24.649035,-6.7705884,4.1997237,3.3523803,9.658433,6.448181,20.376083,-17.459898,50.26566,10.99689,2.6376717,-6.161175,-4.2603583,-20.124357,20.940176,41.793415,-3.2472444,0.8131407,-5.033213
159,65.72671508789062,83.00391387939453,74.11447143554688,-2.3124231466879106,1.7528169562354652,17.157440804372357,-31.15395,7.398631,4.8088627,6.0914774,-4.909575,-15.000033,16.499146,9.122064,-6.9573536,7.727094,-24.746681,-6.5409136,4.124649,3.5991385,9.7188,6.412594,20.365892,-17.465176,50.336727,10.979098,2.6129057,-6.157562,-4.2536407,-20.128937,20.8539,42.309456,-2.9303498,0.8234639,-5.1680293
160,66.36567687988281,83.32586669921875,73.97501373291016,-2.4300479791303236,1.794950748349552,17.077846574987156,-31.061787,7.0476055,4.823396,6.0668573,-4.6139364,-15.000033,17.086775,9.1195755,-6.8499207,7.7857475,-24.732244,-6.3019433,4.062018,3.773447,9.703732,6.365447,20.345081,-17.467728,50.396748,11.003739,2.5986006,-6.1582108,-4.217479,-20.12836,20.705606,42.869545,-2.5990593,0.8339259,-5.2814035
161,67.00113677978516,83.6295394897461,73.87386322021484,-2.4669245647388984,1.936056240266947,17.04954959378996,-30.808952,6.7436113,4.744914,6.0380716,-3.5605567,-15.000033,17.555498,9.049394,-6.8056297,7.849844,-24.610779,-6.0588646,4.147357,3.8728085,9.599316,6.070843,20.257544,-17.591242,50.651096,11.1584,2.5833657,-6.1497383,-3.9775612,-20.093231,20.207773,43.3682,-2.389635,0.83404803,-5.317015
162,67.64248657226562,83.91654205322266,73.81170654296875,-2.4189672541714957,2.1794409088971918,17.09750296327853,-30.415424,6.4491687,4.5722904,6.014891,-1.9110608,-15.000033,17.897755,8.906606,-6.850567,7.918122,-24.384249,-5.812208,4.1002607,3.860188,9.36487,5.848284,20.18031,-17.664787,50.884247,11.338024,2.5683446,-6.1447062,-3.7225614,-20.034044,19.839912,43.923447,-2.077294,0.8446919,-5.3999577
163,68.30227661132812,84.1986312866211,73.78399658203125,-2.2448285594113266,2.4834487692267233,17.171074484087267,-30.006823,6.0609336,4.2534347,6.0062666,-0.04695011,-15.000033,18.15937,8.610823,-6.950524,8.013724,-24.050196,-5.5341787,3.9834921,3.7041173,9.076252,5.7207265,20.118269,-17.653381,51.006935,11.527773,2.5762796,-6.1458344,-3.476617,-19.96607,19.558752,44.51534,-1.7252189,0.8751222,-5.49303
164,68.97660064697266,84.50906372070312,73.77230834960938,-1.9536133833913623,2.8089728269793786,17.19040393615759,-29.695366,5.5142345,3.8082156,5.986838,1.7080889,-15.000033,17.645765,8.035893,-7.1414223,9.726591,-24.432793,-5.1934395,3.940239,3.417697,8.748369,5.54941,20.032616,-17.613153,51.15004,11.704681,2.621735,-6.1329193,-3.215299,-19.85948,19.281746,45.1561,-1.4379861,0.9331115,-5.5792656
165,69.65818786621094,84.83906555175781,73.77184295654297,-1.570915315333056,3.1147493708222793,17.062996955734302,-29.503475,4.8392344,3.2128081,6.0278625,3.3261108,-15.000033,16.849634,7.2643547,-7.245606,12.119099,-25.062357,-4.786476,3.99773,3.0251155,8.423076,5.466558,19.932314,-17.465485,51.170357,11.877903,2.7434402,-6.1184206,-2.9812777,-19.741512,19.11408,45.85435,-1.1276484,1.0320201,-5.6901383
166,70.34848022460938,85.18909454345703,73.79491424560547,-1.0008680951200777,3.460561604309924,16.86850945191477,-29.316366,3.9328399,2.5898545,5.9780927,5.039473,-14.635461,15.884397,6.2246065,-7.315052,14.825559,-25.748314,-4.2962837,4.0866776,2.4365714,8.063225,5.4422235,19.811867,-17.215513,51.11106,12.072246,2.914302,-6.1088924,-2.770672,-19.6152,19.027355,46.615368,-0.8014678,1.1575451,-5.815159
167,71.05722045898438,85.54940032958984,73.81721496582031,-0.3811141968156163,3.7807096224833647,16.620610500676158,-29.13389,2.9936938,2.0956016,6.0457644,6.632921,-13.859358,14.892345,5.0929503,-7.330724,17.68863,-26.3361,-3.778872,4.1784544,1.7915876,7.7035446,5.474128,19.668655,-16.913998,51.018635,12.213082,3.0894094,-6.07792,-2.5868366,-19.474258,19.048292,47.442196,-0.51666546,1.3126547,-5.9230304
168,71.78803253173828,85.92031860351562,73.85137939453125,0.37423041310940264,4.064950502360846,16.39915805290365,-28.770582,1.9781373,1.919296,5.937273,8.142877,-13.054716,13.830753,3.7708461,-7.375062,20.818348,-26.81372,-3.2485979,4.1923714,1.0078002,7.3467364,5.5503516,19.52062,-16.621794,50.937668,12.217658,3.2146285,-6.005473,-2.4262698,-19.31957,19.195522,48.32924,-0.32122067,1.4938511,-5.9836836
169,72.53713989257812,86.28874206542969,73.87574005126953,1.0947142944566335,4.280465067680316,16.15781868879323,-28.345852,1.1058434,2.0192544,5.9575553,9.490282,-12.304656,12.859976,2.4742985,-7.387837,23.966242,-27.087072,-2.7549863,4.128882,0.24541247,6.956619,5.701309,19.32906,-16.291256,50.89673,12.071647,3.2932472,-5.8667064,-2.386421,-19.081335,19.579544,49.45014,-0.18623634,1.6857836,-6.021648
170,73.29664611816406,86.65359497070312,73.89521026611328,1.872809081682824,4.456722806396007,15.892896316296676,-27.835773,0.25237873,2.339565,5.971175,10.768165,-11.614739,11.920273,1.0936611,-7.3684154,27.197397,-27.214693,-2.2564216,4.08666,-0.59145206,6.577037,5.9259834,19.202906,-15.996748,50.769455,11.760373,3.3450325,-5.7067676,-2.279427,-18.874502,20.049074,50.548565,-0.07840873,1.8991336,-6.0061417
171,74.04974365234375,87.02368927001953,73.9306411743164,2.6835161879299285,4.5891549356755075,15.647166738676944,-27.264494,-0.60157835,2.7762306,5.9991183,11.78231,-10.879015,10.977007,-0.33562222,-7.334454,30.524353,-27.09316,-1.7389202,3.9993696,-1.4710702,6.241501,6.179519,19.126966,-15.738637,50.618202,11.348007,3.3518746,-5.5358243,-2.1396391,-18.674555,20.529568,51.58034,-0.11143012,2.1576974,-5.924036
172,74.77971649169922,87.39409637451172,73.97942352294922,3.4964705658658333,4.671383081740102,15.460726819064226,-26.658978,-1.4721528,3.2173638,6.0653944,12.336531,-10.006439,9.996753,-1.7730178,-7.2985487,33.958694,-26.622137,-1.1901731,3.833048,-2.356472,5.98414,6.3927374,19.099707,-15.557625,50.51255,10.882168,3.2971737,-5.3635483,-1.9648596,-18.46288,20.909315,52.470413,-0.40343392,2.4845471,-5.755468
173,75.50799560546875,87.74651336669922,74.02838134765625,4.315685041946478,4.693865083498342,15.386021388844108,-26.19863,-2.4017618,3.6132092,6.5400605,12.080087,-8.951503,8.976527,-3.2228858,-7.2994537,37.560303,-25.725304,-0.6000975,3.551792,-3.2570665,5.8015,6.5519466,19.12787,-15.476908,50.482132,10.313799,3.1448998,-5.1638436,-1.7381637,-18.22092,21.150747,53.222595,-1.081784,2.913974,-5.471947
174,76.240966796875,88.08423614501953,74.07283782958984,5.136033874000899,4.6552115550868,15.386113059973002,-26.844185,-3.2915835,4.045119,9.476033,10.066543,-7.8016663,7.940911,-4.673353,-7.3072085,41.296528,-24.46947,0.02793618,3.188466,-4.172504,5.672459,6.685223,19.212488,-15.4762535,50.49598,9.637544,2.9138365,-4.940704,-1.4748061,-17.942356,21.311447,53.887993,-2.061562,3.417154,-5.0878773
175,76.97247314453125,88.4219741821289,74.12371063232422,5.911720203285118,4.562143880171153,15.364698568125002,-27.277363,-4.119246,4.4867973,12.082011,8.022979,-6.663934,6.881732,-6.0596747,-7.232077,45.071503,-22.981936,0.67878455,2.8147814,-5.0507417,5.6084023,6.7893867,19.344555,-15.53083,50.52838,8.966438,2.6709862,-4.7482743,-1.2150807,-17.642326,21.417671,54.453518,-3.1432552,3.9239814,-4.6486983
176,77.69412231445312,88.74689483642578,74.18199920654297,6.604480354627661,4.4268094479360975,15.229503001190846,-27.407148,-4.804211,4.9656696,14.164485,6.3077354,-5.6340737,5.774074,-7.33139,-6.9914565,48.812214,-21.398615,1.3316684,2.5032456,-5.8390923,5.6261578,6.8564224,19.507296,-15.61953,50.556396,8.413765,2.485242,-4.6380863,-0.9881831,-17.348183,21.492931,54.89119,-4.121484,4.3698936,-4.203538
177,78.38540649414062,89.068603515625,74.23988342285156,7.210864216637876,4.232809863431558,14.96562405864549,-27.178593,-5.3502984,5.505581,15.644902,5.01715,-4.705608,4.5743623,-8.462219,-6.4969025,52.638687,-19.730497,1.9564109,2.2679324,-6.51818,5.7703905,6.8710017,19.685524,-15.738466,50.579163,7.9961224,2.3689406,-4.6355987,-0.77786565,-17.0766,21.490301,55.149475,-5.019518,4.7711635,-3.7461152
178,79.0552978515625,89.37689971923828,74.29562377929688,7.751211189547783,3.985481856872448,14.62278784616499,-26.711557,-5.818313,6.0912356,16.745459,3.9131534,-3.8360572,3.281546,-9.476576,-5.818789,56.582985,-17.931194,2.5731344,2.0710742,-7.108638,6.0215216,6.8324976,19.875038,-15.902047,50.616558,7.660142,2.2885065,-4.70592,-0.5662304,-16.831738,21.412804,55.240776,-5.9166307,5.1514144,-3.2554834
179,79.7133560180664,89.69123840332031,74.3558120727539,8.23204643587095,3.73390541306139,14.209830763889055,-26.119,-6.215768,6.7043424,17.603804,2.91081,-3.059907,1.9262991,-10.426905,-5.112925,60.449207,-16.055893,3.2180831,1.9007118,-7.624982,6.3000717,6.7605853,20.075562,-16.112524,50.671707,7.4156094,2.2442186,-4.809625,-0.37720233,-16.62296,21.36068,55.22965,-6.6888776,5.4639826,-2.7648063
180,80.36882019042969,90.00647735595703,74.40389251708984,8.659866455801618,3.525624623305078,13.735076208516261,-25.513044,-6.541322,7.3258443,18.363857,1.9175612,-2.4136434,0.52965903,-11.383681,-4.527861,64.06061,-14.158715,3.9088056,1.7395993,-8.082237,6.5261064,6.680895,20.287811,-16.365435,50.74184,7.272877,2.2356284,-4.908766,-0.23654382,-16.462454,21.441736,55.182304,-7.207671,5.6651897,-2.3093002
181,81.02039337158203,90.31681060791016,74.44789123535156,9.051393701019874,3.3816479948589473,13.147821228591468,-24.899012,-6.778538,8.014059,19.024292,0.9063154,-1.9268714,-0.97190726,-12.400988,-4.015501,67.45028,-12.009575,4.723776,1.6095486,-8.494644,6.679392,6.620631,20.511066,-16.64881,50.796154,7.257911,2.2822177,-5.010791,-0.17401135,-16.366793,21.734632,55.112156,-7.3442707,5.7348943,-1.8819537
182,81.6698226928711,90.63087463378906,74.49431610107422,9.403636790659464,3.276472248887659,12.46509807344021,-24.225306,-6.9425197,8.7647295,19.520388,-0.07335349,-1.5708838,-2.5917776,-13.451557,-3.5104384,70.72138,-9.664831,5.5938444,1.4995023,-8.851222,6.8025203,6.565688,20.741777,-16.960236,50.838726,7.358548,2.3766236,-5.1319394,-0.1655193,-16.337683,22.175228,54.975986,-7.1902456,5.7055297,-1.4698058
183,82.30925750732422,90.94271850585938,74.55166625976562,9.693925069086808,3.1852246419094317,11.798325427743096,-23.516153,-7.070439,9.462402,19.89823,-1.0007857,-1.2973402,-4.225799,-14.521615,-3.154197,73.79846,-7.609982,6.3003035,1.3478009,-9.132292,6.90902,6.4770427,20.976912,-17.31295,50.920967,7.530869,2.478698,-5.2468667,-0.15347785,-16.356176,22.65015,54.75691,-6.9511952,5.6114745,-1.1000265
184,82.93275451660156,91.24404907226562,74.62064361572266,9.900362630038009,3.080811587544846,11.25692989034944,-22.799107,-7.1936026,9.991322,20.215176,-1.8575294,-1.0590509,-5.754848,-15.618292,-3.1105,76.59589,-6.3336277,6.6272497,1.0961818,-9.324614,7.0099545,6.3112817,21.216051,-17.725233,51.101177,7.7291083,2.548699,-5.3284163,-0.089146346,-16.394403,23.04288,54.45268,-6.8375764,5.4838047,-0.8032241
185,83.54911804199219,91.52894592285156,74.70301818847656,10.003658459657283,2.956713430481129,10.885573818540125,-22.089516,-7.307415,10.300802,20.494457,-2.64448,-0.86114734,-7.109527,-16.844908,-3.5505538,79.09498,-6.1124268,6.5166306,0.70543337,-9.41513,7.09621,6.042686,21.466589,-18.244736,51.4295,7.931385,2.5542674,-5.346165,0.010992297,-16.438524,23.361473,54.07805,-6.9016256,5.3123384,-0.57747614
186,84.16527557373047,91.8014144897461,74.80171203613281,10.023036876902385,2.824032390417964,10.622663393672457,-21.369686,-7.391965,10.460936,20.708364,-3.3725722,-0.72445714,-8.342645,-18.210684,-4.36051,81.35182,-6.652025,6.075545,0.21775165,-9.425668,7.163956,5.6946626,21.730944,-18.856642,51.867847,8.162515,2.5245955,-5.321166,0.12199799,-16.4864,23.64889,53.646236,-7.038883,5.085013,-0.41339335
187,84.79037475585938,92.06188201904297,74.91222381591797,9.989271721879343,2.6830692986542592,10.411334606891158,-20.606066,-7.4534693,10.535962,20.820614,-4.039952,-0.62676316,-9.50955,-19.560072,-5.287505,83.362976,-7.5774813,5.3499684,-0.29925668,-9.38965,7.230292,5.299986,21.999983,-19.48252,52.343945,8.447819,2.5122461,-5.302805,0.2760713,-16.52766,23.845139,53.158863,-7.2233157,4.8282247,-0.33307168
188,85.4326400756836,92.31478881835938,75.03334045410156,9.934299186187445,2.535415280069208,10.19417304905031,-19.763763,-7.498378,10.590858,20.79089,-4.6428905,-0.545504,-10.691047,-20.729836,-6.0804105,85.12306,-8.499915,4.3825326,-0.776403,-9.338394,7.309861,4.884979,22.260262,-20.046503,52.795387,8.81305,2.5691087,-5.3391137,0.50627726,-16.546715,23.888542,52.620075,-7.430974,4.56889,-0.35909393
189,86.06465148925781,92.55308532714844,75.16422271728516,9.850624514127956,2.3799798972101995,9.972852251376082,-18.846886,-7.5192447,10.617893,20.63295,-5.189701,-0.4792249,-11.926315,-21.665833,-6.706846,86.63123,-9.4598255,3.013352,-1.2081845,-9.266896,7.3998494,4.4367676,22.504444,-20.54659,53.260742,9.292864,2.6991854,-5.4431024,0.83173895,-16.531023,23.737497,52.020866,-7.7468863,4.2983475,-0.5178101
190,86.69586181640625,92.78015899658203,75.30303955078125,9.724027937377205,2.2182798449031846,9.771192132694337,-17.876005,-7.507449,10.592599,20.36879,-5.6834846,-0.44212013,-13.177802,-22.419373,-7.2900305,87.8866,-10.615185,1.3071029,-1.6266247,-9.159779,7.4896793,3.9429352,22.734133,-21.020475,53.768494,9.866744,2.8767428,-5.587977,1.2239449,-16.477934,23.435806,51.379807,-8.157389,4.0088468,-0.79418486
191,87.3304443359375,92.99783325195312,75.44857025146484,9.5780428263943,2.0556281582312232,9.564848376463344,-16.837084,-7.477968,10.556043,19.962118,-6.1061473,-0.43222228,-14.424481,-23.008657,-7.825935,88.87967,-11.739839,-0.3810301,-2.0221157,-9.036845,7.5803947,3.435414,22.950666,-21.444946,54.23945,10.48163,3.10869,-5.762533,1.6375588,-16.392958,23.053347,50.750217,-8.489934,3.7272358,-1.1480547
192,87.95573425292969,93.21971893310547,75.600341796875,9.437262896278314,1.896305716220767,9.33036170909797,-15.710476,-7.450026,10.547977,19.368656,-6.440637,-0.44440418,-15.639184,-23.477598,-8.323943,89.60069,-12.603579,-1.712082,-2.389658,-8.917659,7.6745224,2.949241,23.155344,-21.789135,54.58916,11.086266,3.4025977,-5.956066,2.0276182,-16.286499,22.663012,50.179626,-8.569553,3.4781995,-1.5369197
193,88.58544158935547,93.43589782714844,75.75897216796875,9.316241035540243,1.7361115873636281,9.047906058862846,-14.454777,-7.4438233,10.594314,18.524103,-6.6627684,-0.47408614,-16.814417,-23.882042,-8.818148,90.03997,-13.110375,-2.6057384,-2.7208226,-8.8130865,7.780573,2.499311,23.344913,-22.015646,54.784283,11.719427,3.8076036,-6.20961,2.3941762,-16.164375,22.26271,49.657516,-8.32759,3.2701352,-1.9767332
194,89.21165466308594,93.64167785644531,75.91961669921875,9.197841124589885,1.574654494093938,8.735692138880543,-13.091116,-7.445678,10.668762,17.467485,-6.78777,-0.52065057,-17.963171,-24.193869,-9.3145075,90.20412,-13.384906,-3.246126,-3.0266273,-8.706487,7.8950295,2.0679998,23.51894,-22.142551,54.870422,12.395043,4.302208,-6.517796,2.75807,-16.027441,21.825726,49.15962,-7.86194,3.0854974,-2.4780698
195,89.84054565429688,93.84410858154297,76.08428955078125,9.060180048324115,1.4211531032260905,8.427168443009915,-11.696298,-7.4322486,10.735357,16.31721,-6.8565655,-0.5819644,-19.08583,-24.33467,-9.784882,90.10212,-13.524237,-3.6987894,-3.3283315,-8.578481,8.004183,1.6405586,23.684862,-22.225414,54.879845,13.019637,4.7908325,-6.797384,3.1091695,-15.878616,21.384762,48.707664,-7.2463846,2.9085512,-2.9888918
196,90.47514343261719,94.031005859375,76.24453735351562,8.883430141559316,1.2848517900515055,8.154960798108979,-10.3499,-7.3777957,10.7608595,15.198224,-6.9133205,-0.65758455,-20.187761,-24.226955,-10.1919155,89.74429,-13.625279,-4.0254006,-3.646732,-8.414074,8.095526,1.2062331,23.854511,-22.31781,54.83888,13.4966345,5.1808057,-6.96273,3.4365573,-15.722229,20.973324,48.32329,-6.554484,2.7254639,-3.457482
197,91.09749603271484,94.20963287353516,76.39917755126953,8.66132911882261,1.1645532050782013,7.9270165229897,-9.060036,-7.2762523,10.733894,14.127691,-6.9609704,-0.74427277,-21.278988,-23.809551,-10.500956,89.11319,-13.6838045,-4.185948,-3.9878757,-8.210741,8.17178,0.7704782,24.034414,-22.420523,54.731888,13.82372,5.470161,-6.9915714,3.7411692,-15.557864,20.595078,48.011967,-5.727541,2.523258,-3.891197
198,91.7229995727539,94.38335418701172,76.55274200439453,8.407542856195743,1.0561468278518968,7.726197757413097,-7.785202,-7.14324,10.676009,13.038535,-6.9764347,-0.84054077,-22.355001,-23.14341,-10.737219,88.20596,-13.65502,-4.1666627,-4.3395915,-7.9816947,8.24021,0.3397382,24.225258,-22.509398,54.544422,14.039935,5.7032685,-6.928114,4.029186,-15.384785,20.23243,47.75872,-4.752375,2.3096926,-4.3086805
199,92.34996032714844,94.54872131347656,76.69788360595703,8.13464161075949,0.9648118041448249,7.547506287980787,-6.540841,-6.9857,10.605317,11.953939,-6.9777765,-0.949556,-23.399967,-22.342957,-10.945603,87.057396,-13.576605,-4.066534,-4.6949434,-7.736064,8.29694,-0.09016764,24.429213,-22.598053,54.298393,14.112024,5.8576164,-6.7847733,4.3014755,-15.205379,19.887363,47.54829,-3.7686071,2.1070154,-4.675269
200,92.9782485961914,94.71147918701172,76.83657836914062,7.852740483619819,0.8957917757492007,7.385481246157271,-5.332847,-6.81341,10.538008,10.874836,-6.974358,-1.0746977,-24.396685,-21.516745,-11.17327,85.702065,-13.486821,-3.9835231,-5.0452104,-7.4805884,8.338376,-0.52536386,24.648773,-22.702627,54.015976,14.005907,5.9100027,-6.5741878,4.559339,-15.024805,19.55999,47.36472,-2.9150336,1.940438,-4.957751
201,93.60587310791016,94.8624267578125,76.9661865234375,7.553175510187695,0.8461881268261331,7.238262963747707,-4.147293,-6.6170015,10.473563,9.780202,-6.9542956,-1.2227898,-25.348326,-20.622784,-11.394384,84.1317,-13.387297,-3.913448,-5.3877225,-7.205319,8.370459,-0.96568966,24.887333,-22.830168,53.695168,13.672632,5.822495,-6.278333,4.8077087,-14.845169,19.24057,47.19695,-2.1772058,1.8243142,-5.1398973
202,94.2298583984375,95.01007843017578,77.08183288574219,7.235913388984051,0.8145664724505097,7.109069775056582,-2.9832287,-6.3974175,10.40549,8.674302,-6.9180636,-1.386912,-26.25648,-19.633635,-11.590881,82.32929,-13.264758,-3.8177097,-5.7257686,-6.912116,8.395159,-1.4061912,25.145115,-22.971172,53.321278,13.145031,5.6152444,-5.8997416,5.0460496,-14.666049,18.930779,47.05204,-1.4960237,1.7462944,-5.242664
203,94.85350036621094,95.15260314941406,77.18746185302734,6.924319330323219,0.8078723817913116,6.999912873800345,-1.8528136,-6.1814814,10.3381815,7.565755,-6.8711877,-1.5507185,-27.10593,-18.671383,-11.823173,80.32147,-13.13128,-3.7381244,-6.0617504,-6.6232896,8.401386,-1.8495314,25.41845,-23.119724,52.902874,12.506975,5.351904,-5.4818034,5.271171,-14.488697,18.647919,46.937626,-0.944952,1.6934531,-5.289786
204,95.47415161132812,95.29067993164062,77.27572631835938,6.640265762474229,0.8339611015740035,6.9122997321324,-1.0526848,-5.9404464,10.303979,7.0727773,-7.137926,-1.7025204,-27.882212,-17.849825,-12.15519,78.13259,-12.997933,-3.7117436,-6.3972073,-6.3592353,8.376736,-2.300446,25.701256,-23.270021,52.452103,11.842057,5.0977693,-5.0654106,5.477707,-14.316939,18.41061,46.863586,-0.59689265,1.6521722,-5.305074
205,96.09439086914062,95.42147827148438,77.34744262695312,6.381278453202331,0.8964570505011455,6.843750987469108,-0.50968564,-5.6864996,10.29935,7.027613,-7.627724,-1.8408256,-28.585434,-17.178537,-12.610073,75.76202,-12.877316,-3.7470677,-6.733607,-6.1135783,8.31674,-2.7581923,25.990139,-23.420155,51.96573,11.12607,4.8527007,-4.634676,5.665025,-14.153128,18.227688,46.82911,-0.5239012,1.6256632,-5.279123
206,96.72144317626953,95.54869842529297,77.40193176269531,6.137116217394588,0.9912866390169562,6.793510100870813,-0.011082183,-5.4474673,10.298346,6.9865522,-8.107574,-1.9702555,-29.218615,-16.591555,-13.15485,73.194534,-12.760236,-3.8178732,-7.0694942,-5.8758044,8.227076,-3.222994,26.284815,-23.57297,51.443405,10.331655,4.5853987,-4.1771398,5.8342786,-13.999194,18.088802,46.83197,-0.6687033,1.6197526,-5.2054987
207,97.35192108154297,95.67496490478516,77.44287872314453,5.9161688874899845,1.1155639925288623,6.765209493512554,0.44972995,-5.234533,10.286767,6.9463906,-8.579666,-2.090301,-29.772404,-16.081514,-13.772555,70.432106,-12.624846,-3.9043148,-7.4029555,-5.654581,8.111694,-3.6988623,26.581442,-23.72723,50.897114,9.536769,4.317882,-3.7370477,5.9894333,-13.854301,17.98345,46.87035,-0.9097057,1.6244279,-5.110744
208,97.9793930053711,95.79900360107422,77.46732330322266,5.726902710489695,1.2663361234372004,6.762734779871043,0.86969197,-5.057658,10.251471,6.91945,-9.052808,-2.2019281,-30.238472,-15.642938,-14.446975,67.4745,-12.448876,-3.9903312,-7.7325325,-5.458262,7.973696,-4.1954,26.874773,-23.885296,50.345158,8.815788,4.074233,-3.356396,6.1332564,-13.715968,17.901585,46.944244,-1.1258295,1.629934,-5.021922
209,98.6103744506836,95.91456604003906,77.47614288330078,5.5718214136206905,1.4455237051180378,6.793648866712897,1.2496158,-4.9219065,10.182489,6.892549,-9.515362,-2.3177042,-30.60957,-15.293126,-15.202919,64.306915,-12.261795,-4.114238,-8.065025,-5.288866,7.8063173,-4.716055,27.163284,-24.05079,49.78955,8.161508,3.861157,-3.0364792,6.264407,-13.583557,17.847776,47.060528,-1.3179502,1.6338705,-4.942361
210,99.24168395996094,96.02399444580078,77.47114562988281,5.444649938792861,1.6544894385280362,6.853232453766101,1.5859374,-4.818564,10.0900345,6.8709955,-9.970437,-2.4366262,-30.8898,-15.010831,-16.045996,60.928917,-12.062528,-4.260487,-8.397801,-5.138628,7.6089287,-5.261363,27.446886,-24.225323,49.22827,7.540542,3.6674523,-2.7561812,6.380992,-13.457669,17.824331,47.21916,-1.5398874,1.6412246,-4.8593793
211,99.87377166748047,96.13040924072266,77.45140075683594,5.336469052176432,1.8886371597352567,6.9277828894924385,1.88757,-4.7356915,9.987604,6.8547945,-10.4289875,-2.5403953,-31.085886,-14.733535,-16.930754,57.349934,-11.777201,-4.333816,-8.714333,-4.99805,7.3938627,-5.8266745,27.719786,-24.398176,48.666485,6.999055,3.4926958,-2.522744,6.4846315,-13.338241,17.815987,47.411743,-1.7508687,1.6537844,-4.7759886
212,100.5059814453125,96.24131774902344,77.41453552246094,5.240022106259158,2.1423184581359123,7.003448090387534,2.1658404,-4.6642118,9.888894,6.843252,-10.897236,-2.6091068,-31.2062,-14.406151,-17.806456,53.575394,-11.330592,-4.244684,-8.998142,-4.8590236,7.173586,-6.4153433,27.973726,-24.563532,48.118744,6.5796146,3.3365989,-2.342284,6.5769405,-13.22571,17.807209,47.631115,-1.9109304,1.6734897,-4.695595
213,101.13582611083984,96.35035705566406,77.36013793945312,5.168160232277021,2.4170334506588618,7.086805341972294,2.4172788,-4.620123,9.785911,6.836362,-11.375154,-2.6312468,-31.256958,-14.029013,-18.63286,49.550037,-10.62632,-3.9240823,-9.251943,-4.7314944,6.945604,-7.0364976,28.202587,-24.72012,47.593075,6.3142896,3.2002535,-2.2221644,6.656382,-13.122007,17.798258,47.882145,-2.00175,1.7027901,-4.618879
214,101.7673110961914,96.45406341552734,77.2962417602539,5.128217542476437,2.7125814068831304,7.182804437222281,2.6387196,-4.611315,9.675556,6.835551,-11.859359,-2.6208425,-31.220823,-13.622073,-19.437836,45.250675,-9.70838,-3.4341817,-9.4825735,-4.6216264,6.7041383,-7.694522,28.405205,-24.87435,47.09186,6.1725063,3.0846658,-2.154678,6.723995,-13.02835,17.795061,48.166256,-2.047491,1.7404579,-4.5443773
215,102.40457153320312,96.5498275756836,77.22296905517578,5.104367473693987,3.019656983878336,7.27586122042668,2.8391173,-4.614805,9.577721,6.8571553,-12.365172,-2.5949183,-31.079258,-13.166737,-20.269953,40.739967,-8.710983,-2.8850012,-9.678609,-4.517241,6.4590096,-8.374707,28.580149,-25.023403,46.611565,6.111781,2.9890096,-2.123637,6.7847805,-12.942756,17.790276,48.472664,-2.0696197,1.78261,-4.4721785
216,103.04014587402344,96.64521789550781,77.14307403564453,5.063159562435502,3.3317684937980374,7.357152903172252,3.0391483,-4.590301,9.501335,6.879199,-12.884133,-2.5720727,-30.802528,-12.629508,-21.203533,36.054817,-7.760184,-2.387194,-9.835768,-4.3881464,6.219312,-9.066977,28.726336,-25.167599,46.15207,6.086389,2.9126503,-2.1132371,6.842769,-12.863046,17.77581,48.791714,-2.0912623,1.8253981,-4.4024615
217,103.68077850341797,96.73716735839844,77.05686950683594,4.9975131155013965,3.653157029965651,7.426560067482069,3.23469,-4.529611,9.450893,6.902135,-13.422948,-2.548931,-30.36019,-12.010414,-22.317844,31.08378,-6.886327,-2.0042987,-9.950361,-4.227574,5.985098,-9.779943,28.841711,-25.30208,45.71873,6.103634,2.8617342,-2.1328895,6.8997755,-12.787005,17.744364,49.120125,-2.1261342,1.8666669,-4.336925
218,104.32645416259766,96.82614135742188,76.9615707397461,4.934296367829712,3.972548267017546,7.504216461441127,3.434364,-4.466844,9.403712,6.924554,-13.976217,-2.5151548,-29.723387,-11.303807,-23.568167,25.726435,-5.9638243,-1.6527541,-10.051113,-4.0489693,5.759338,-10.517253,28.90437,-25.412277,45.323902,6.191292,2.8329494,-2.1858187,6.957665,-12.736027,17.713346,49.455574,-2.1528316,1.9106185,-4.2747
219,104.97731018066406,96.90897369384766,76.85041809082031,4.914526855265056,4.248959037572143,7.619407067538071,3.6828225,-4.451741,9.322847,6.9446416,-14.53385,-2.473563,-28.855877,-10.505667,-24.830545,20.037918,-4.8855014,-1.2272632,-10.156771,-3.9178376,5.566187,-11.2647915,28.954035,-25.536337,44.94583,6.3032002,2.8160133,-2.2499871,7.0207615,-12.681372,17.671764,49.805252,-2.162293,1.9590603,-4.2122827
220,105.63479614257812,96.98909759521484,76.718994140625,4.998285327001933,4.4297043293864915,7.816816039608288,4.034337,-4.556428,9.15698,6.9594574,-15.084001,-2.4225042,-27.720182,-9.6657,-25.975382,14.107578,-3.5639386,-0.63326424,-10.331914,-3.8947423,5.4322367,-11.98725,28.989876,-25.660158,44.569725,6.4214873,2.7980003,-2.3048995,7.0881786,-12.629998,17.64346,50.17045,-2.1322632,2.0168383,-4.1476536
221,106.29552459716797,97.06503295898438,76.55587005615234,5.236658563519661,4.46530465594893,8.167752142710011,4.539069,-4.8408356,8.835504,6.965903,-15.631079,-2.35334,-25.98049,-8.6981125,-27.038265,7.1618733,-1.6463089,0.20563132,-10.6238365,-4.0484524,5.378378,-12.709915,29.028439,-25.833649,44.207687,6.5317755,2.7810009,-2.355632,7.18646,-12.561045,17.603394,50.543262,-2.0467741,2.0856075,-4.0847945
222,106.97161102294922,97.1392593383789,76.3602066040039,5.604651123217616,4.388869305635873,8.644795431627884,5.16,-5.271359,8.3829565,6.968319,-16.177431,-2.2638464,-26.890144,-9.325549,-27.575073,6.787349,-3.160695,1.2594074,-11.029513,-4.3379073,5.3843017,-13.410856,29.060429,-26.004667,43.843643,6.6586637,2.7693586,-2.4144092,7.3006682,-12.498766,17.57467,50.921604,-1.9131666,2.1643302,-4.023505
223,107.66668701171875,97.20772552490234,76.15255737304688,5.97837386638333,4.327984437206619,9.07796586684745,5.7705326,-5.694352,7.958654,6.9747334,-16.711658,-2.1823442,-27.703558,-9.931465,-28.019632,6.448668,-4.5173635,2.292626,-11.38366,-4.6331496,5.378222,-14.079779,29.085093,-26.157488,43.469822,6.7909636,2.758156,-2.456336,7.385735,-12.433675,17.560667,51.33782,-1.7750263,2.2465086,-3.955845
224,108.36192321777344,97.2665023803711,75.9608154296875,6.191503486941644,4.386356818285055,9.303840053556126,6.2724247,-5.9116836,7.720034,6.989999,-17.225336,-2.1472182,-28.513857,-10.298547,-28.364632,6.375492,-5.6964517,3.1338353,-11.56386,-4.738752,5.3386564,-14.64842,29.090464,-26.20349,43.028675,6.9411507,2.742652,-2.4600723,7.386166,-12.39726,17.595661,51.803864,-1.6691266,2.3297482,-3.8722389
225,109.03729248046875,97.3276596069336,75.76226806640625,6.445688722768644,4.479414732791516,9.438958425190352,6.733374,-6.174832,7.5630016,7.004051,-17.715172,-2.107666,-29.144724,-10.623144,-28.568464,6.3598037,-6.6163473,3.9266524,-11.662382,-4.8866773,5.2733126,-15.221353,29.078901,-26.219765,42.63514,7.0908794,2.7165437,-2.4358194,7.3071375,-12.3628645,17.689838,52.363224,-1.5639088,2.3937342,-3.777664
226,109.68083190917969,97.3873519897461,75.56475067138672,6.740007076295183,4.595896820348129,9.510051338795469,7.1687365,-6.4807363,7.4630613,7.0170865,-18.187004,-2.0681264,-29.607643,-10.8914995,-28.648926,6.3419204,-7.3084445,4.699315,-11.701072,-5.0625563,5.2029066,-15.737119,29.054632,-26.180174,42.20157,7.2631845,2.6922507,-2.3901525,7.1898074,-12.345415,17.817501,52.951904,-1.4634169,2.4535022,-3.6723115
227,110.29777526855469,97.44378662109375,75.37771606445312,7.011562631395951,4.724275915959579,9.476602276104744,7.602547,-6.7676225,7.451205,7.029541,-18.619753,-2.040674,-29.880102,-11.044772,-28.68208,6.3160596,-7.627634,5.216971,-11.676182,-5.2130632,5.1326313,-16.174417,29.00272,-26.055397,41.768948,7.4356766,2.660378,-2.3117435,7.004553,-12.336952,17.999208,53.59337,-1.4048331,2.5355752,-3.555492
228,110.88661193847656,97.51158905029297,75.20113372802734,7.198693155967476,4.867230063369821,9.299046414664556,8.040186,-6.97452,7.560092,7.042277,-18.987463,-2.03627,-29.97271,-11.037619,-28.731989,6.3201327,-7.4484406,5.2436004,-11.5818405,-5.2697473,5.0680733,-16.458427,28.906473,-25.777046,41.305862,7.6221576,2.6196203,-2.1927454,6.747682,-12.34489,18.233658,54.263275,-1.4424905,2.6750255,-3.424998
229,111.4683837890625,97.58456420898438,75.04159545898438,7.284316205940762,5.020874949823613,8.894910265635565,8.4936495,-7.0894246,7.8597236,7.0544887,-19.309708,-2.051697,-29.792488,-10.808884,-28.818998,6.3578496,-6.547309,4.5944047,-11.315049,-5.225896,5.0527983,-16.588581,28.777874,-25.335165,40.759007,7.825585,2.5791047,-2.0348053,6.423072,-12.37639,18.501274,54.95732,-1.5946773,2.8764873,-3.2579126
230,112.05813598632812,97.6509780883789,74.9254379272461,7.178663239725709,5.268862570660535,8.197101245467383,8.882558,-6.9916854,8.433449,7.0875087,-19.612356,-2.1176054,-29.533737,-10.26414,-28.878605,6.627845,-5.1802783,3.391297,-10.820325,-4.9757032,5.033487,-16.570375,28.601755,-24.718243,40.14404,8.061928,2.533621,-1.8347354,6.0081835,-12.439156,18.834545,55.69864,-1.8274354,3.122297,-3.0667722
231,112.65878295898438,97.70045471191406,74.84404754638672,6.985173404848106,5.563127967554372,7.40720631231073,9.246419,-6.794481,9.097228,7.131376,-19.838018,-2.2178423,-29.245451,-9.598095,-28.89653,6.9090962,-3.6234763,1.9306829,-10.326392,-4.5680275,4.9649763,-16.415934,28.287683,-23.93749,39.56699,8.325425,2.467331,-1.5920013,5.565167,-12.584441,19.245396,56.404312,-2.1227,3.4162464,-2.8697257
232,113.298583984375,97.75446319580078,74.777099609375,6.740787487402268,5.8410143980947575,6.723377332865181,9.627827,-6.531953,9.667418,7.1876764,-19.93384,-2.3458273,-28.998701,-8.949111,-28.880678,7.1028824,-2.2229586,0.5214696,-9.857354,-4.1212034,4.883705,-16.249483,27.976273,-23.331886,39.039204,8.443664,2.3848176,-1.2902023,5.2866473,-12.728939,19.487062,56.873947,-2.5454903,3.7513378,-2.6483898
233,113.96025085449219,97.800537109375,74.732666015625,6.457807630616364,6.083169680459804,6.210587433547207,10.037016,-6.2172093,10.090744,7.253755,-19.911152,-2.4797072,-29.372097,-8.6709175,-28.729269,8.513298,-1.6977497,-0.8445972,-9.527391,-3.6392577,4.7871537,-16.009188,27.668211,-22.828033,38.520542,8.416786,2.2924309,-0.91660213,5.116773,-12.854016,19.601492,57.144535,-3.170949,4.181431,-2.4066062
234,114.63385009765625,97.83634185791016,74.72369384765625,6.1331613977277755,6.292099282218793,5.786962770141703,10.472295,-5.8474665,10.436749,7.33307,-19.78969,-2.6186993,-30.521225,-8.83993,-28.429941,11.729338,-2.1602604,-2.2776973,-9.276359,-3.1242814,4.6905875,-15.681106,27.361746,-22.372917,37.999733,8.283082,2.1897414,-0.48287562,5.0063534,-12.956284,19.631157,57.28496,-3.9679508,4.686636,-2.1432936
235,115.3362045288086,97.86449432373047,74.72854614257812,5.818189320583517,6.452654932630097,5.425541189718309,10.952031,-5.4777517,10.713169,7.4274826,-19.525871,-2.7830012,-31.376587,-8.910393,-28.158491,14.346955,-2.408753,-3.619115,-9.08933,-2.6344874,4.593511,-15.272481,27.055798,-21.97181,37.540543,8.086282,2.055448,-0.03392464,4.953906,-13.038263,19.605364,57.327633,-4.769666,5.1571827,-1.8868719
236,116.06988525390625,97.8925552368164,74.73992919921875,5.556839134376017,6.55725418693455,5.09511147737152,11.49027,-5.1563835,10.932714,7.5361595,-19.075237,-2.9953713,-31.983711,-8.956565,-27.902836,16.621483,-2.6342099,-4.691827,-8.94518,-2.2191992,4.490879,-14.799266,26.747158,-21.634094,37.2106,7.8667135,1.8690069,0.38626483,4.9626513,-13.10436,19.549585,57.298653,-5.4093404,5.4856515,-1.6698934
237,116.82962036132812,97.91122436523438,74.7594985961914,5.325282315016714,6.62027935003511,4.8014449946009705,12.080682,-4.8552365,11.101413,7.662916,-18.48466,-3.2740347,-32.325836,-8.958323,-27.675945,18.535467,-2.818275,-5.378945,-8.851789,-1.8495252,4.359127,-14.249813,26.42925,-21.374691,37.037266,7.5802093,1.5866836,0.8159684,5.0520234,-13.159136,19.453938,57.17396,-5.8861527,5.656036,-1.4949086
238,117.59274291992188,97.90740203857422,74.79336547851562,5.078321703742046,6.659228286533697,4.542313669413632,11.980498,-4.3747582,11.286695,9.360759,-18.577805,-3.6166174,-32.44742,-8.877,-27.47362,20.092659,-2.9434516,-5.804098,-8.799485,-1.4739904,4.197935,-13.626185,26.097443,-21.186016,36.98573,7.2256484,1.2306525,1.2624196,5.215158,-13.203632,19.308704,56.947334,-6.2732644,5.722995,-1.3496337
239,118.35380554199219,97.88213348388672,74.84318542480469,4.826109755776994,6.668378821036162,4.281758957874548,11.483023,-3.7884705,11.4647045,11.985581,-18.909569,-4.0012856,-32.42513,-8.730012,-27.268652,21.441486,-3.1378436,-6.1526213,-8.75122,-1.108775,4.0379286,-12.964089,25.753906,-21.041712,37.029404,6.9066663,0.8823997,1.636408,5.4099736,-13.239776,19.142374,56.678482,-6.5108695,5.687215,-1.2482215
240,119.115234375,97.84748840332031,74.90900421142578,4.57962291921021,6.638240571619256,3.9910848979049462,10.887954,-3.1742287,11.611966,14.883555,-19.032932,-4.405507,-32.324005,-8.532295,-27.04108,22.70806,-3.518739,-6.6084,-8.681545,-0.76991445,3.9134872,-12.290871,25.40577,-20.907495,37.13301,6.7244473,0.6256996,1.8493276,5.593664,-13.268238,18.985796,56.42395,-6.540096,5.549464,-1.2037032
241,119.87611389160156,97.81078338623047,74.97982025146484,4.339456334531903,6.564714022840721,3.6531673255117347,10.197233,-2.541046,11.7492485,18.101515,-18.955273,-4.857281,-32.1564,-8.276443,-26.763807,23.932024,-4.185138,-7.2250643,-8.590726,-0.45843682,3.8268285,-11.57911,25.054329,-20.761837,37.298664,6.6910214,0.46967542,1.8946216,5.7576118,-13.292579,18.856178,56.20368,-6.2947245,5.261028,-1.2313603
242,120.64704895019531,97.76838684082031,75.05830383300781,4.082881103618494,6.4583838768639374,3.289547835420003,9.434049,-1.8695631,11.859156,21.569237,-18.694098,-5.3629074,-31.88887,-7.937416,-26.463339,25.033428,-5.047928,-7.9026093,-8.498507,-0.14552933,3.760454,-10.816285,24.699076,-20.617414,37.53019,6.755652,0.3756316,1.8139043,5.921857,-13.31457,18.737673,55.98313,-5.8234143,4.8378787,-1.3168198
