unveil-humanoid-operators/unveil-humanoid-operators.github.io/feature-analysis-animation/data/feature_matrix_instances/age_waist_mean_vel_jogging_A056_jog_arc_cw_start_001__A056.csv
Frame,root_translateX,root_translateY,root_translateZ,root_rotateX,root_rotateY,root_rotateZ,left_hip_pitch_joint_dof,left_hip_roll_joint_dof,left_hip_yaw_joint_dof,left_knee_joint_dof,left_ankle_pitch_joint_dof,left_ankle_roll_joint_dof,right_hip_pitch_joint_dof,right_hip_roll_joint_dof,right_hip_yaw_joint_dof,right_knee_joint_dof,right_ankle_pitch_joint_dof,right_ankle_roll_joint_dof,waist_yaw_joint_dof,waist_roll_joint_dof,waist_pitch_joint_dof,left_shoulder_pitch_joint_dof,left_shoulder_roll_joint_dof,left_shoulder_yaw_joint_dof,left_elbow_joint_dof,left_wrist_roll_joint_dof,left_wrist_pitch_joint_dof,left_wrist_yaw_joint_dof,right_shoulder_pitch_joint_dof,right_shoulder_roll_joint_dof,right_shoulder_yaw_joint_dof,right_elbow_joint_dof,right_wrist_roll_joint_dof,right_wrist_pitch_joint_dof,right_wrist_yaw_joint_dof
0,1.6876564025878906,0.23259182274341583,77.66165161132812,-1.3486674465544841,6.686789502181193,-175.19287851776085,-10.075207,7.0292277,12.279189,21.978857,-19.147795,-3.7950723,-6.027028,-3.5583448,-7.4569516,16.51066,-16.079496,5.225129,-1.2112604,1.2210389,1.4425145,-2.5626888,18.734415,-44.09808,54.592373,4.4891367,5.2899704,4.69742,12.109519,-18.4061,22.787712,42.003468,3.6367865,8.024248,-3.5313535
1,1.6880959272384644,0.2268819808959961,77.65158081054688,-1.4586594990431523,6.7939036802669435,-175.17054501108876,-10.373322,7.1645136,12.163667,22.313597,-19.359606,-3.7687573,-6.0719438,-3.4262967,-7.5029335,16.337603,-16.013626,5.1917777,-1.2028863,1.3185867,1.4102025,-2.5500658,18.74342,-44.073086,54.525574,4.5260077,5.328965,4.6954355,12.103446,-18.420605,22.797672,41.900406,3.5781744,8.02867,-3.553696
2,1.6990270614624023,0.2165679782629013,77.64057159423828,-1.566913823581848,6.899065228846058,-175.14869585474932,-10.662993,7.296672,12.048862,22.634909,-19.562868,-3.7454958,-6.109767,-3.2944603,-7.5482054,16.154768,-15.943227,5.158359,-1.2006046,1.4169885,1.3800093,-2.5314147,18.753874,-44.038555,54.454,4.5700364,5.37098,4.6917825,12.097606,-18.443537,22.81668,41.794357,3.5182297,8.033701,-3.5769076
3,1.7170445919036865,0.2122969627380371,77.62244415283203,-1.6778049926625824,7.008275015090925,-175.12648529081662,-10.968374,7.4316235,11.930918,22.979168,-19.781239,-3.7160125,-6.159664,-3.1620252,-7.5949283,15.988548,-15.880558,5.1255407,-1.1958836,1.5181396,1.3475527,-2.5157552,18.760767,-44.00642,54.38513,4.606641,5.4061813,4.690184,12.091954,-18.462845,22.828081,41.685925,3.4662492,8.038275,-3.597513
4,1.737242341041565,0.20697471499443054,77.59872436523438,-1.7959068275988237,7.127544148447579,-175.10333862548475,-11.312958,7.575264,11.805847,23.380152,-20.036861,-3.671048,-6.2416644,-3.0281699,-7.6452303,15.867995,-15.839156,5.0939684,-1.1941893,1.6295043,1.3131937,-2.494259,18.767378,-43.965504,54.304497,4.629406,5.4246645,4.6920953,12.085191,-18.485046,22.828735,41.564453,3.438394,8.042089,-3.6109154
5,1.7533674240112305,0.1943657547235489,77.57115173339844,-1.9321876130071998,7.259427276383223,-175.07687592885097,-11.7160845,7.7422075,11.665618,23.868208,-20.348644,-3.6110675,-6.3529987,-2.8802247,-7.7067146,15.781032,-15.812688,5.06355,-1.2008324,1.7670242,1.2802758,-2.4605336,18.778456,-43.906754,54.198162,4.6376486,5.421355,4.6947284,12.083304,-18.522953,22.819313,41.4111,3.4464417,8.049773,-3.612056
6,1.7671332359313965,0.18307211995124817,77.5407485961914,-2.081263096781561,7.400538649632518,-175.04838744239044,-12.160165,7.9245214,11.514088,24.416777,-20.699465,-3.5400946,-6.485939,-2.7224586,-7.775705,15.720201,-15.797943,5.0338454,-1.2080702,1.9205639,1.2464263,-2.4237242,18.791548,-43.844463,54.079853,4.6316752,5.402155,4.698742,12.085336,-18.566223,22.797579,41.23946,3.4784746,8.059175,-3.6045814
7,1.7788245677947998,0.1690974086523056,77.50588989257812,-2.2228065388518163,7.547543137172978,-175.02216348488423,-12.614408,8.094383,11.364887,24.975136,-21.060474,-3.4543092,-6.6545677,-2.5800915,-7.838777,15.723324,-15.814539,5.0049496,-1.2097279,2.0643723,1.2083708,-2.387975,18.800406,-43.785564,53.963158,4.614359,5.3749323,4.7095547,12.083477,-18.596666,22.762405,41.07315,3.5165389,8.063034,-3.5965478
8,1.8022050857543945,0.14577150344848633,77.47024536132812,-2.3369305704178567,7.69754285488191,-175.00238681745876,-13.053369,8.226196,11.230946,25.50499,-21.403727,-3.3497503,-6.872924,-2.477544,-7.882248,15.826365,-15.880846,4.976977,-1.2084632,2.1868458,1.1739814,-2.3388019,18.81242,-43.71964,53.823753,4.590873,5.347474,4.72944,12.094774,-18.64122,22.715658,40.884365,3.553789,8.0572815,-3.5890415
9,1.8161200284957886,0.12355256825685501,77.43340301513672,-2.424757739623203,7.854522517785562,-174.98756669620164,-13.48847,8.3238,11.112956,26.018166,-21.725739,-3.2160656,-7.1512523,-2.4139256,-7.9061894,16.03969,-16.001266,4.9465103,-1.2001084,2.282296,1.1338563,-2.2873478,18.820078,-43.656086,53.678417,4.551935,5.317071,4.7709846,12.107953,-18.67568,22.653196,40.695026,3.5772274,8.036384,-3.5825698
10,1.8254326581954956,0.09052751213312149,77.39485168457031,-2.495260749561215,8.018582584775245,-174.97628152615928,-13.928259,8.398415,11.004796,26.530369,-22.040375,-3.0585155,-7.4797425,-2.3782856,-7.916468,16.342924,-16.165585,4.914302,-1.1875342,2.3607616,1.089897,-2.232129,18.82527,-43.591385,53.524826,4.4993353,5.281086,4.8283114,12.121935,-18.706402,22.57725,40.501522,3.5968807,8.004419,-3.5752678
11,1.8349647521972656,0.05957340449094772,77.35935974121094,-2.53934651542048,8.180575967231077,-174.9727379074968,-14.3382225,8.4330845,10.911229,26.998182,-22.345818,-2.896293,-7.8444085,-2.3813968,-7.908058,16.730772,-16.372879,4.887,-1.1673734,2.4229727,1.0566024,-2.163299,18.832664,-43.52281,53.34909,4.4505286,5.247369,4.8795195,12.161371,-18.763968,22.48654,40.272022,3.6287355,7.970096,-3.5691078
12,1.8475161790847778,0.020571591332554817,77.32166290283203,-2.5473843035350083,8.331177408069518,-174.98119487682752,-14.681375,8.410082,10.838022,27.374834,-22.638845,-2.7485685,-8.229734,-2.4349823,-7.875491,17.195654,-16.62103,4.8715444,-1.137529,2.4447572,1.028194,-2.0853817,18.834291,-43.459423,53.18755,4.4196606,5.2241707,4.9079733,12.191358,-18.80749,22.39985,40.073257,3.679767,7.9355574,-3.5815043
13,1.8443130254745483,-0.024852260947227478,77.28153228759766,-2.5172737933879294,8.466019561983037,-175.0012331365313,-14.942175,8.32286,10.783164,27.640493,-22.917807,-2.6260781,-8.624305,-2.5412765,-7.8195868,17.724642,-16.906883,4.8741736,-1.094023,2.4293623,1.011842,-1.9949874,18.831078,-43.3971,53.027424,4.4250503,5.224121,4.8823495,12.225104,-18.852324,22.314121,39.88745,3.772771,7.9027677,-3.6147273
14,1.8347253799438477,-0.06346874684095383,77.24517822265625,-2.453309734831924,8.590826218503556,-175.0309039978902,-15.141608,8.180827,10.745815,27.821589,-23.18414,-2.516519,-9.037801,-2.6945899,-7.741734,18.323402,-17.231401,4.8904777,-1.0398636,2.3839188,1.0047759,-1.8946587,18.821457,-43.33492,52.866215,4.45321,5.239118,4.8215117,12.267092,-18.904602,22.226124,39.7015,3.8976357,7.869486,-3.6624026
15,1.814902901649475,-0.12339340895414352,77.20381927490234,-2.353919595172637,8.71125533038922,-175.0721364153688,-15.301749,7.991035,10.733182,27.95047,-23.445135,-2.4043734,-9.489363,-2.8949587,-7.636209,19.0154,-17.600283,4.911521,-0.97892094,2.3031743,1.0019095,-1.7853453,18.805185,-43.276146,52.717163,4.4791927,5.246571,4.779714,12.311742,-18.956831,22.132078,39.522392,4.012214,7.835527,-3.7168295
16,1.7966551780700684,-0.18843792378902435,77.16275787353516,-2.21762062273788,8.83278298888691,-175.12669999044417,-15.443144,7.7594934,10.7524,28.055597,-23.7057,-2.2738583,-9.999623,-3.1428275,-7.4970636,19.826885,-18.020514,4.928097,-0.91419196,2.1827502,0.9994244,-1.6661443,18.78293,-43.22292,52.5894,4.479766,5.2240787,4.810928,12.356147,-19.004492,22.026594,39.352264,4.075379,7.8015714,-3.7695043
17,1.7718918323516846,-0.2514210641384125,77.12259674072266,-2.0432706096811417,8.963941529515727,-175.2000002393946,-15.572875,7.4840746,10.80316,28.134481,-23.97509,-2.1163642,-10.576447,-3.4359746,-7.3171277,20.751093,-18.48909,4.9330306,-0.8406003,2.020873,0.9892803,-1.5370709,18.75282,-43.182804,52.489956,4.453609,5.1654744,4.9418445,12.397229,-19.04698,21.911047,39.195145,4.0736365,7.767651,-3.8124082
18,1.748567819595337,-0.3152807056903839,77.0750961303711,-1.8300325191519409,9.099602292468273,-175.289144194229,-15.676917,7.1601195,10.882553,28.171303,-24.246456,-1.9418013,-11.20967,-3.7763858,-7.0988135,21.78011,-19.004955,4.9329085,-0.76028806,1.8138278,0.9753814,-1.3935047,18.722078,-43.149513,52.407146,4.41284,5.083351,5.139052,12.427517,-19.07533,21.791056,39.061676,4.0276265,7.732735,-3.8538363
19,1.7194877862930298,-0.3861847519874573,77.01896667480469,-1.5776288206396207,9.225197149342616,-175.38374545334773,-15.749967,6.7929196,10.9952755,28.185888,-24.506449,-1.7619516,-11.882107,-4.1670356,-6.8489003,22.91428,-19.564014,4.937196,-0.68149304,1.5645938,0.97322506,-1.2394397,18.690895,-43.112785,52.333508,4.3504314,4.9819245,5.3675423,12.461038,-19.09614,21.65783,38.93336,3.9522371,7.6976542,-3.9055736
20,1.694959044456482,-0.46437034010887146,76.9621353149414,-1.2854082977203822,9.326333106513147,-175.47362242897745,-15.787003,6.386907,11.145005,28.198454,-24.74163,-1.5909276,-12.574303,-4.6105404,-6.5746684,24.151056,-20.162363,4.95662,-0.60654694,1.278735,0.9987542,-1.087472,18.647923,-43.065968,52.272625,4.262055,4.8649597,5.5927906,12.520884,-19.119074,21.49366,38.782448,3.860698,7.663617,-3.977466
21,1.6513571739196777,-0.5415893793106079,76.89501953125,-0.9408088270925395,9.399501521063263,-175.5587838642916,-15.76954,5.9249644,11.341231,28.18219,-24.932325,-1.4210544,-13.288249,-5.1217513,-6.271084,25.506166,-20.810244,4.9925427,-0.5435921,0.94138795,1.0505989,-0.9143949,18.605314,-42.98765,52.204147,4.145933,4.726124,5.8152137,12.592628,-19.136875,21.30902,38.63585,3.7535233,7.623919,-4.0686502
22,1.6003690958023071,-0.6318909525871277,76.8202896118164,-0.5470428482310078,9.452416109125323,-175.643644563005,-15.704105,5.408567,11.578423,28.133514,-25.089243,-1.2489002,-14.025649,-5.6921544,-5.934818,26.963636,-21.501768,5.0417137,-0.48560652,0.556249,1.123727,-0.7265127,18.55944,-42.889935,52.136642,4.0054564,4.565142,6.0498633,12.67737,-19.15098,21.103039,38.4885,3.6244261,7.5807548,-4.1735435
23,1.5678808689117432,-0.7162635326385498,76.7271957397461,-0.12785806844185546,9.48677613051524,-175.72463931215466,-15.62725,4.8736935,11.837605,28.114443,-25.24899,-1.0927279,-14.776538,-6.290469,-5.576596,28.492252,-22.209671,5.1083226,-0.44448113,0.14031585,1.2240074,-0.5304466,18.52817,-42.781345,52.061695,3.8439364,4.3988395,6.2814655,12.763766,-19.156706,20.891191,38.324226,3.4822304,7.5460773,-4.3070173
24,1.5241564512252808,-0.7981020212173462,76.62104034423828,0.2918665302337635,9.504591469922099,-175.7982298691127,-15.575919,4.357579,12.100145,28.187492,-25.447144,-0.9704787,-15.534829,-6.885743,-5.2077694,30.068027,-22.910475,5.195512,-0.41345552,-0.28049055,1.3574768,-0.36178708,18.49954,-42.691032,52.005383,3.6643343,4.2420635,6.49681,12.868775,-19.15922,20.66058,38.10183,3.3303804,7.532986,-4.4780955
25,1.4951817989349365,-0.8745877146720886,76.49861907958984,0.7313654948165078,9.500782673427642,-175.86611355531886,-15.529411,3.837865,12.380986,28.322186,-25.68611,-0.8939756,-16.285908,-7.5003977,-4.820706,31.672155,-23.629812,5.308622,-0.40890893,-0.7293079,1.5254378,-0.19208084,18.487833,-42.599445,51.946598,3.4731972,4.106184,6.7044973,12.978303,-19.155996,20.437855,37.822475,3.161514,7.550048,-4.7021685
26,1.4465947151184082,-0.9489988684654236,76.36158752441406,1.1949191286826215,9.476118763426939,-175.92957649288277,-15.480208,3.305804,12.682607,28.50259,-25.949806,-0.850782,-17.037714,-8.139563,-4.4133034,33.3212,-24.370022,5.4450636,-0.4077531,-1.207594,1.7284411,-0.03359297,18.484507,-42.517353,51.892735,3.2672641,3.9803298,6.90722,13.113625,-19.148417,20.186388,37.482048,2.96633,7.5897603,-4.963123
27,1.397792100906372,-1.02194344997406,76.20854187011719,1.6378724166677088,9.44145901432082,-175.9844557168563,-15.483153,2.817855,12.972505,28.807236,-26.242393,-0.82366866,-17.817125,-8.750634,-4.0032997,35.04327,-25.071651,5.594408,-0.41833428,-1.6684352,1.9591165,0.09679714,18.493988,-42.451107,51.846916,3.032079,3.8486083,7.082743,13.25519,-19.134724,19.921541,37.109062,2.784288,7.63849,-5.247711
28,1.3553260564804077,-1.099034309387207,76.04171752929688,2.01602495520626,9.407388523787882,-176.02644931847934,-15.593645,2.429909,13.217966,29.316885,-26.570251,-0.79369235,-18.650888,-9.282355,-3.6101236,36.86766,-25.675632,5.747593,-0.44361836,-2.0686069,2.2118592,0.18254603,18.527933,-42.409836,51.805645,2.7549765,3.6958966,7.20718,13.386409,-19.110912,19.648949,36.73033,2.649441,7.681948,-5.540852
29,1.3132178783416748,-1.1685923337936401,75.86388397216797,2.3136508262508575,9.371001128385345,-176.0535246337108,-15.833706,2.1645818,13.410808,30.076958,-26.925667,-0.7564164,-19.52328,-9.717245,-3.2575006,38.782158,-26.198433,5.8952856,-0.49790776,-2.393934,2.4873629,0.23543492,18.588163,-42.370995,51.760582,2.4320533,3.5199628,7.2353845,13.498656,-19.07948,19.389013,36.34506,2.5824287,7.710758,-5.846773
30,1.2871829271316528,-1.2251112461090088,75.66831970214844,2.554565279101209,9.328209468470778,-176.0685122856462,-16.170853,1.9903021,13.570135,31.036026,-27.308065,-0.72246313,-20.428682,-10.083932,-2.9300027,40.782265,-26.663036,6.0438867,-0.5740277,-2.6685724,2.7885306,0.2624534,18.674929,-42.337364,51.708183,2.0705214,3.3293743,7.1917014,13.6023245,-19.040928,19.130957,35.940327,2.560694,7.73396,-6.170365
31,1.2669190168380737,-1.2685152292251587,75.45719146728516,2.752972658125123,9.288010476384729,-176.0743387463151,-16.575426,1.8822129,13.705668,32.123493,-27.731346,-0.69710404,-21.407642,-10.396104,-2.5874329,42.90853,-27.01962,6.207545,-0.6722914,-2.901879,3.108334,0.25263816,18.787033,-42.3287,51.658867,1.6781168,3.1236274,7.1562576,13.686684,-18.996569,18.873325,35.541927,2.565163,7.7647057,-6.5035667
32,1.2478433847427368,-1.30824613571167,75.23611450195312,2.923686790560164,9.25912308408546,-176.07382870228378,-17.019684,1.8153837,13.826959,33.272766,-28.21079,-0.6852256,-22.499723,-10.664849,-2.188921,45.20084,-27.218338,6.4023266,-0.7936138,-3.1033623,3.439668,0.19630115,18.920141,-42.362022,51.62402,1.2669028,2.901213,7.2091646,13.7407,-18.948128,18.61558,35.17513,2.5774832,7.8166842,-6.838488
33,1.228930950164795,-1.3557277917861938,74.9982681274414,3.058018616111647,9.240948557392061,-176.06405207731802,-17.5124,1.8005631,13.92723,34.50274,-28.763247,-0.6913949,-23.69271,-10.879731,-1.7415936,47.656876,-27.265312,6.657158,-0.93757594,-3.2637143,3.7864249,0.08894586,19.07154,-42.449635,51.60943,0.82357275,2.623964,7.378181,13.761315,-18.896843,18.35902,34.833225,2.6070716,7.896816,-7.1707735
34,1.2055411338806152,-1.4103076457977295,74.75813293457031,3.150561716644883,9.229667000622694,-176.04492472159447,-18.061516,1.8443782,14.004573,35.83419,-29.374971,-0.7141994,-24.97182,-11.030676,-1.2629781,50.261776,-27.182966,6.958256,-1.1026059,-3.3809009,4.1501894,-0.066545285,19.23989,-42.582848,51.612923,0.3486758,2.3035197,7.6175404,13.756285,-18.843727,18.101217,34.5066,2.658622,7.9965715,-7.505202
35,1.198188066482544,-1.4517122507095337,74.50431060791016,3.2222691547907703,9.229954000177278,-176.02349090503307,-18.638597,1.9162537,14.075655,37.20462,-30.01656,-0.748002,-26.370823,-11.126261,-0.72670144,53.033756,-26.942106,7.260436,-1.2898239,-3.4741695,4.5198183,-0.27034304,19.421217,-42.747814,51.635544,-0.12690258,2.0119355,7.898469,13.730084,-18.78793,17.839977,34.21561,2.709267,8.106251,-7.8471904
36,1.1804128885269165,-1.499611496925354,74.23811340332031,3.2947985531870834,9.246045762851315,-176.0066217018199,-19.2172,1.9869072,14.156762,38.555786,-30.660833,-0.785637,-27.920858,-11.1732,-0.106136546,55.986103,-26.514402,7.5198746,-1.4998664,-3.5636697,4.8834686,-0.5232221,19.60966,-42.929596,51.68064,-0.5720425,1.8221302,8.194042,13.686261,-18.728102,17.572376,33.983273,2.7354746,8.216765,-8.202425
37,1.1627254486083984,-1.5607649087905884,73.97216033935547,3.372961425911713,9.290964989923525,-175.99769757948718,-19.809906,2.0495546,14.256309,39.882652,-31.304886,-0.8160477,-29.663906,-11.180602,0.60061747,59.159004,-25.813337,7.7216625,-1.7364186,-3.6516306,5.233286,-0.82735264,19.796616,-43.130928,51.765278,-1.0027797,1.7645231,8.533458,13.603138,-18.667559,17.302223,33.829773,2.7110295,8.338952,-8.565975
38,1.1411818265914917,-1.6148086786270142,73.69554138183594,3.4451502804448464,9.358437831059213,-175.99279012120147,-20.426231,2.1216643,14.363199,41.21734,-31.964209,-0.8455265,-31.568167,-11.127991,1.3795576,62.531662,-24.879248,7.8969884,-1.9980774,-3.7266538,5.5762453,-1.1862876,19.977972,-43.35747,51.891407,-1.4270151,1.7952887,8.921491,13.486829,-18.607082,17.030102,33.73856,2.6562855,8.474005,-8.936973
39,1.1054506301879883,-1.6718391180038452,73.40424346923828,3.5071617664994865,9.424553167920934,-175.9879027372884,-21.031952,2.212016,14.463726,42.55219,-32.636097,-0.8919885,-33.55381,-10.969608,2.22838,66.02972,-23.867462,8.073714,-2.2760003,-3.789853,5.922015,-1.605649,20.15835,-43.60345,52.0421,-1.8054866,1.8779459,9.294554,13.380644,-18.541092,16.746681,33.68059,2.6136448,8.596985,-9.327185
40,1.069846749305725,-1.7203088998794556,73.10372161865234,3.554629228768002,9.465498483973143,-175.9792599439387,-21.593897,2.3285048,14.544783,43.880802,-33.320385,-0.97407085,-35.54023,-10.664874,3.1403096,69.58754,-22.93787,8.282212,-2.5613759,-3.8443952,6.2807775,-2.086014,20.348768,-43.861958,52.192375,-2.0978646,1.9778286,9.587924,13.324991,-18.459667,16.442331,33.629715,2.6246073,8.682543,-9.748715
41,1.027793049812317,-1.7586098909378052,72.79554748535156,3.5929265607974603,9.467165223520052,-175.9778339638883,-22.101006,2.4703374,14.619794,45.219315,-34.02795,-1.1074069,-37.556,-10.143875,4.189079,73.26769,-22.017847,8.518661,-2.8405154,-3.9026802,6.676929,-2.6241617,20.557707,-44.116062,52.328987,-2.2475998,2.1132987,9.752963,13.3152075,-18.353392,16.10324,33.582798,2.7039952,8.717646,-10.222671
42,0.9634226560592651,-1.7763035297393799,72.48486328125,3.619034570433361,9.444785645414274,-175.98256219938878,-22.572039,2.638,14.689334,46.567554,-34.757458,-1.279318,-39.611004,-9.420505,5.3292437,77.08302,-21.064943,8.792712,-3.120876,-3.9607637,7.0987444,-3.2146554,20.78798,-44.374413,52.454865,-2.291586,2.29645,9.833642,13.329109,-18.219997,15.738789,33.55935,2.825488,8.716516,-10.737231
43,0.876584529876709,-1.7773945331573486,72.1773681640625,3.6182718799914664,9.418661212382045,-175.97108082674652,-23.017883,2.837876,14.721879,47.892982,-35.485172,-1.465577,-41.606773,-8.601239,6.3835287,80.903595,-20.291382,9.14421,-3.4260201,-3.9995472,7.5019975,-3.8577893,21.043726,-44.67437,52.56873,-2.3336878,2.4830744,9.903677,13.383646,-18.0628,15.373425,33.564453,2.9676855,8.693489,-11.255313
44,0.7708532810211182,-1.758225440979004,71.87732696533203,3.578680433018325,9.40983481429606,-175.92068645181624,-23.449116,3.0721831,14.687459,49.159565,-36.18761,-1.6412232,-43.460236,-7.822518,7.1900663,84.60553,-19.917112,9.589978,-3.781186,-3.9999151,7.842814,-4.552622,21.32941,-45.053078,52.6659,-2.4794235,2.6282964,10.037102,13.499678,-17.885822,15.032899,33.59712,3.11215,8.663699,-11.739509
45,0.628680408000946,-1.7210830450057983,71.5885009765625,3.4983004750036986,9.422783411974448,-175.82540131502572,-23.887646,3.3488507,14.578104,50.40685,-36.879887,-1.7880577,-45.159184,-7.100324,7.7472396,88.22731,-20.11351,10.21291,-4.2014475,-3.9621818,8.110232,-5.309287,21.652443,-45.55212,52.79275,-2.8516643,2.670528,10.2261505,13.679565,-17.68798,14.721932,33.653904,3.277883,8.626166,-12.191622
46,0.4770044684410095,-1.6612814664840698,71.31550598144531,3.3853562557392047,9.448208732530327,-175.6977449627283,-24.31957,3.6599314,14.411616,51.63095,-37.568073,-1.9243001,-46.756207,-6.403067,8.127012,91.831894,-20.743526,10.954363,-4.6712346,-3.8968644,8.328344,-6.1198077,22.013834,-46.144466,52.92144,-3.3640075,2.6496377,10.439188,13.9162035,-17.4665,14.427981,33.73189,3.4670491,8.574252,-12.626845
47,0.30180755257606506,-1.5987051725387573,71.06874084472656,3.2465454296018885,9.485596443949632,-175.54205557880877,-24.706963,3.9809105,14.196538,52.7414,-38.20512,-2.0733898,-48.282726,-5.8174267,8.300192,95.33172,-21.542635,11.601434,-5.1696935,-3.8046193,8.504175,-6.9587297,22.405338,-46.76236,52.945553,-3.8058012,2.6727207,10.7163515,14.213049,-17.230927,14.14864,33.836388,3.6343038,8.514777,-13.028465
48,0.10249345749616623,-1.5317234992980957,70.85804748535156,3.0880793971926668,9.534109587294008,-175.36250499656495,-25.0117,4.288996,13.942054,53.649128,-38.745945,-2.2608423,-49.76937,-5.4240375,8.258796,98.62828,-22.234238,11.951381,-5.6783853,-3.6821027,8.645082,-7.7992535,22.813156,-47.330307,52.76367,-3.9624214,2.8479831,11.099378,14.57719,-16.99802,13.884614,33.967487,3.738065,8.456155,-13.3797
49,-0.11409913748502731,-1.4620076417922974,70.68730926513672,2.9049020503064815,9.595876717353262,-175.1367123911513,-25.24534,4.5803003,13.622467,54.36019,-39.19129,-2.4974113,-51.248913,-5.299328,7.969975,101.77019,-22.761364,11.873256,-6.219847,-3.5123525,8.743808,-8.662421,23.227911,-47.869556,52.406403,-3.6890378,3.2232254,11.591873,15.018769,-16.77697,13.637209,34.129524,3.7657926,8.400338,-13.676999
50,-0.34977805614471436,-1.3694727420806885,70.5603256225586,2.6985624971812148,9.671223654425459,-174.87016001783587,-25.42103,4.8637457,13.244662,54.913074,-39.56315,-2.7668774,-52.703686,-5.4098,7.475324,104.78707,-23.257645,11.479739,-6.7968984,-3.2984684,8.798864,-9.556353,23.646198,-48.404587,51.920338,-3.1303542,3.738813,12.170817,15.537358,-16.569033,13.409491,34.314835,3.7451727,8.344846,-13.92849
51,-0.6231871843338013,-1.2872374057769775,70.49468994140625,2.485505128306894,9.755578969633415,-174.60770523244318,-25.502005,5.1381416,12.865866,55.265923,-39.843826,-3.052873,-54.08843,-5.650781,6.878462,107.543015,-23.72413,10.944129,-7.364618,-3.0644758,8.826245,-10.435688,24.064602,-48.86498,51.231018,-2.5119793,4.3416376,12.839541,16.124838,-16.379498,13.208263,34.50283,3.6970637,8.291796,-14.135254
52,-0.9252249002456665,-1.2149872779846191,70.4818344116211,2.280609866888894,9.843524499471968,-174.3938322673409,-25.450771,5.4035296,12.54179,55.376556,-40.014477,-3.3386788,-55.362343,-5.908934,6.2734127,109.899025,-24.157808,10.450978,-7.8821726,-2.8324494,8.841525,-11.249373,24.482218,-49.17127,50.259686,-2.05497,4.97462,13.6061945,16.77201,-16.217878,13.04342,34.67212,3.644642,8.243123,-14.298328
53,-1.2398931980133057,-1.1325573921203613,70.51484680175781,2.081408589554949,9.931864153654464,-174.2259840579921,-25.266825,5.667099,12.265195,55.250465,-40.082497,-3.623629,-56.533207,-6.189249,5.647076,111.86182,-24.56547,10.027477,-8.350185,-2.5991962,8.850478,-12.000938,24.902985,-49.29207,48.953625,-1.7873328,5.6845264,14.561109,17.485771,-16.090588,12.920022,34.826893,3.5696747,8.203124,-14.420269
54,-1.5708433389663696,-1.0405069589614868,70.5974349975586,1.8827775752789973,10.022828444671326,-174.0836914121052,-24.965717,5.927394,12.012026,54.906178,-40.054363,-3.9130664,-57.618702,-6.540727,4.9657702,113.49145,-24.942146,9.589781,-8.791956,-2.352555,8.843703,-12.7025,25.331255,-49.263638,47.358604,-1.6062652,6.4812126,15.672614,18.268106,-15.999587,12.836773,34.97401,3.4723477,8.170203,-14.499574
55,-1.931870937347412,-0.9503231644630432,70.74337005615234,1.6947291892382261,10.117269903854924,-173.98418710627843,-24.535795,6.173221,11.811198,54.323402,-39.91164,-4.199659,-58.60434,-6.9028964,4.2825017,114.73329,-25.250984,9.162246,-9.199834,-2.1006064,8.814121,-13.323476,25.767494,-49.115242,45.546627,-1.5381646,7.2461934,16.770687,19.104406,-15.948813,12.789556,35.092487,3.402039,8.137147,-14.531051
56,-2.309070587158203,-0.8460648059844971,70.93338012695312,1.5267028235309925,10.216118639122508,-173.94497157510102,-23.967009,6.3937907,11.691145,53.48427,-39.634594,-4.477024,-59.47704,-7.2157187,3.6485815,115.53232,-25.455427,8.77141,-9.565989,-1.8503044,8.755617,-13.837643,26.209555,-48.87839,43.592316,-1.6037884,7.8588877,17.685843,19.980593,-15.943951,12.774101,35.15936,3.4082804,8.096768,-14.509376
57,-2.7145657539367676,-0.7413988709449768,71.17680358886719,1.3695966336801368,10.328635550331049,-173.96888839096013,-23.269352,6.59881,11.649179,52.38285,-39.23729,-4.7529573,-60.261566,-7.456664,3.0599346,115.85599,-25.542496,8.424582,-9.88455,-1.5874575,8.663847,-14.252857,26.656841,-48.54261,41.47183,-1.8665828,8.277369,18.411577,20.908915,-15.993423,12.796735,35.162354,3.5069537,8.054318,-14.425467
58,-3.1368613243103027,-0.6521013975143433,71.46881103515625,1.221034922088849,10.450277272432052,-174.0465518863323,-22.44389,6.7896447,11.671071,51.02989,-38.72238,-5.027848,-60.959026,-7.6561522,2.4907422,115.73943,-25.52817,8.114416,-10.161476,-1.3094333,8.544301,-14.575776,27.11046,-48.093502,39.15698,-2.2902596,8.565208,19.027971,21.894989,-16.0986,12.854461,35.10931,3.6729212,8.011981,-14.283621
59,-3.5772881507873535,-0.570258617401123,71.8031005859375,1.1004475953285862,10.561932081706628,-174.17757633043016,-21.46453,6.940373,11.769694,49.425377,-38.05921,-5.285954,-61.520912,-7.830901,1.9589248,115.22137,-25.420204,7.8439612,-10.403808,-1.0444018,8.405503,-14.780689,27.56787,-47.556374,36.718983,-2.737642,8.762894,19.493534,22.9141,-16.253237,12.924123,35.009575,3.8913033,7.957668,-14.098168
60,-4.029067516326904,-0.49448275566101074,72.1845703125,1.0274000567964867,10.644842191920137,-174.36161525668135,-20.30678,7.0233493,11.957569,47.570484,-37.210785,-5.5127,-61.89691,-7.9937286,1.4806271,114.34023,-25.226318,7.6142955,-10.617006,-0.8214994,8.255223,-14.848951,28.022425,-46.9617,34.236217,-3.075409,8.913286,19.766321,23.942259,-16.443995,12.981975,34.873478,4.1452293,7.8787713,-13.883871
61,-4.528669834136963,-0.4169099032878876,72.61210632324219,1.012865724357188,10.693388272737446,-174.61021314813027,-18.903973,7.007443,12.254921,45.34573,-36.182533,-5.696027,-62.07535,-8.150315,1.0639014,113.06875,-24.97481,7.4046373,-10.7851925,-0.6542726,8.09326,-14.777639,28.46611,-46.30652,31.7073,-3.2538958,9.003936,19.767221,24.986322,-16.66521,13.02726,34.70444,4.4605613,7.7615004,-13.632742
62,-5.0373454093933105,-0.3192446529865265,73.0605239868164,1.0424598162284597,10.719227360171995,-174.92092027952347,-17.288465,6.9064503,12.647942,42.782684,-34.984997,-5.8518815,-62.07524,-8.28607,0.6904088,111.39603,-24.659796,7.22169,-10.904882,-0.5259675,7.915487,-14.584785,28.894218,-45.58216,29.10809,-3.348083,9.021894,19.540977,26.055279,-16.917006,13.063841,34.49785,4.8329616,7.6166396,-13.341216
63,-5.565276145935059,-0.22117123007774353,73.54048919677734,1.098494278365308,10.728865005284247,-175.27262047217573,-15.58222,6.759544,13.099524,40.103245,-33.59199,-6.007639,-61.894,-8.387416,0.3393388,109.38936,-24.239866,7.107585,-11.000458,-0.4210292,7.723315,-14.278774,29.30322,-44.806156,26.48125,-3.4078948,9.009552,19.23114,27.127132,-17.189222,13.077975,34.25547,5.1999335,7.467355,-13.030582
64,-6.123809337615967,-0.12884727120399475,74.04316711425781,1.1644108279594239,10.72857818985131,-175.6439408996077,-13.910899,6.609002,13.574299,37.536354,-31.983124,-6.1876817,-61.531155,-8.44286,-0.005614503,107.11299,-23.671534,7.1028748,-11.093181,-0.3281124,7.5174117,-13.872253,29.6898,-44.002327,23.874607,-3.4831746,9.008674,18.981552,28.178274,-17.465706,13.053485,33.983105,5.4958553,7.3355722,-12.723488
65,-6.7032389640808105,-0.03929990157485008,74.56439208984375,1.2438631961082758,10.711479739222208,-176.04961987243615,-12.231348,6.4465714,14.105182,35.021355,-30.098087,-6.397764,-60.969803,-8.421496,-0.32170162,104.529305,-22.974882,7.2287416,-11.178661,-0.25563323,7.298822,-13.34981,30.048292,-43.164303,21.28617,-3.5614235,9.0295105,18.8246,29.204418,-17.73683,12.980777,33.681274,5.6572757,7.2266436,-12.40534
66,-7.2769269943237305,0.08105625957250595,75.0879898071289,1.3427874430366447,10.678269856842547,-176.49563178858094,-10.50538,6.2461643,14.695268,32.47461,-27.964851,-6.6239233,-60.209923,-8.335511,-0.6078738,101.61861,-22.169039,7.4558606,-11.241701,-0.20911211,7.066213,-12.719874,30.373955,-42.291367,18.702942,-3.6251743,9.049564,18.686056,30.216417,-18.000624,12.866131,33.35214,5.730569,7.1272664,-12.072782
67,-7.864439487457275,0.22435684502124786,75.60820770263672,1.4509749598955584,10.644825403110492,-176.94670541634414,-8.870306,6.033934,15.265407,30.107666,-25.695536,-6.8538404,-59.28367,-8.23857,-0.90749145,98.47321,-21.19943,7.7506795,-11.288459,-0.17656164,6.8160644,-12.027533,30.665413,-41.414684,16.15736,-3.7121453,9.061045,18.5497,31.21096,-18.25047,12.719404,33.0075,5.813126,7.0309615,-11.76554
68,-8.483269691467285,0.3592739999294281,76.1282730102539,1.559866690513888,10.626734880234665,-177.36699126170993,-7.466654,5.8477883,15.738164,28.144844,-23.407911,-7.0723667,-58.225777,-8.182792,-1.2635756,95.184456,-20.009865,8.084244,-11.325317,-0.14877747,6.5440006,-11.315551,30.922918,-40.56579,13.681614,-3.8576527,9.0568905,18.399576,32.18233,-18.474457,12.552784,32.66295,6.001989,6.932005,-11.523566
69,-9.092644691467285,0.5081438422203064,76.64327239990234,1.6809984963509257,10.627942597569882,-177.7580577708234,-6.306078,5.688207,16.111038,26.601122,-21.051182,-7.2953777,-57.03404,-8.217115,-1.7015009,91.7212,-18.542791,8.447348,-11.3475,-0.14082955,6.2450733,-10.596207,31.146002,-39.75567,11.28402,-4.067796,9.047656,18.244614,33.13195,-18.660982,12.356757,32.317913,6.32043,6.8283715,-11.372449
70,-9.709199905395508,0.6666508316993713,77.14968872070312,1.8179340723791704,10.63993290398651,-178.13562338945823,-5.3303437,5.547706,16.41804,25.39256,-18.598803,-7.515238,-55.69267,-8.2910795,-2.1920242,88.05093,-16.843067,8.861495,-11.348683,-0.15911232,5.9210477,-9.855499,31.332504,-38.97677,8.95466,-4.324542,9.033048,18.089258,34.05876,-18.805761,12.128611,31.973925,6.713503,6.722387,-11.286833
71,-10.336817741394043,0.8497999310493469,77.63408660888672,1.9519690187365384,10.657963959859925,-178.48455558064686,-4.5707765,5.461102,16.643717,24.591196,-16.20443,-7.685974,-54.21737,-8.310824,-2.6839252,84.25649,-15.003733,9.348974,-11.332737,-0.18310109,5.5771575,-9.09881,31.481504,-38.234333,6.701071,-4.626531,8.990035,17.909718,34.952873,-18.912022,11.888553,31.65035,7.161133,6.615214,-11.23006
72,-10.963741302490234,1.042749285697937,78.097412109375,2.063136387944386,10.677110587751933,-178.78921178614888,-4.054374,5.4649334,16.777124,24.261152,-14.018221,-7.7679105,-52.626648,-8.190724,-3.1175766,80.41523,-13.115091,9.927255,-11.305591,-0.1894188,5.219255,-8.331792,31.59311,-37.531654,4.5300612,-4.974463,8.895923,17.681973,35.806526,-18.987434,11.656784,31.362806,7.6443787,6.508527,-11.164885
73,-11.612560272216797,1.2388132810592651,78.52835083007812,2.1452212083901108,10.70997646762879,-179.03457467227295,-3.8063836,5.5714655,16.805517,24.402624,-11.976443,-7.7612715,-50.92228,-7.8913474,-3.446068,76.47226,-11.039077,10.663084,-11.284123,-0.16790842,4.8325405,-7.5415144,31.665981,-36.858566,2.4401987,-5.402057,8.72811,17.39319,36.625443,-19.032639,11.434126,31.105629,8.226317,6.3984337,-11.105743
74,-12.26761531829834,1.4509397745132446,78.92318725585938,2.2046433553284936,10.754107320097408,-179.23138261183968,-3.7935941,5.7668285,16.744164,24.960987,-10.0195265,-7.6988473,-49.09681,-7.46693,-3.6902404,72.399025,-8.780064,11.5220585,-11.263889,-0.12603796,4.4196577,-6.730574,31.69921,-36.21698,0.42841896,-5.896788,8.50562,17.05673,37.411556,-19.047226,11.213311,30.872234,8.895898,6.28566,-11.06368
75,-12.919532775878906,1.6673065423965454,79.275390625,2.238438495618617,10.782621723379071,-179.4019674164453,-3.957218,6.049504,16.624237,25.922651,-8.300501,-7.5881467,-47.156883,-6.9788733,-3.9024906,68.31288,-6.6373615,12.362474,-11.201151,-0.06870181,4.006661,-5.963852,31.687733,-35.671276,-1.4690634,-6.402459,8.266182,16.703094,38.168022,-19.032824,10.995098,30.669905,9.529503,6.179511,-10.997582
76,-13.586451530456543,1.8977142572402954,79.5869369506836,2.244971128333104,10.7677833196071,-179.56933156375698,-4.2402334,6.4181848,16.477026,27.279987,-6.9759855,-7.425617,-45.107212,-6.486238,-4.1533504,64.32786,-4.903361,13.040578,-11.111749,0.01569043,3.6487274,-5.183109,31.653677,-35.135113,-3.33031,-6.8248034,8.051755,16.313465,38.84802,-19.020021,10.7900305,30.51277,9.980554,6.091691,-10.862246
77,-14.242926597595215,2.1339385509490967,79.8453598022461,2.2149179427123795,10.705945856235132,-179.7321319262929,-4.6220436,6.908336,16.36047,29.004667,-6.067395,-7.234453,-42.880516,-5.971931,-4.4639726,60.317375,-3.6356983,13.702442,-10.970228,0.12338955,3.3335395,-4.422301,31.600449,-34.686108,-5.115619,-7.189373,7.848815,15.923762,39.482677,-19.010174,10.603789,30.400654,10.245038,6.0300765,-10.638285
78,-14.917601585388184,2.3683032989501953,80.0456314086914,2.14982335556013,10.609349822320592,-179.87994773797675,-5.1188884,7.505347,16.238432,31.077003,-5.481168,-7.0045547,-40.492245,-5.40805,-4.800024,56.24619,-2.6685789,14.35843,-10.81552,0.27253443,3.0565703,-3.640356,31.50136,-34.246998,-6.843338,-7.499768,7.6463633,15.49276,40.05923,-19.013592,10.428402,30.3259,10.374157,5.988883,-10.348827
79,-15.597115516662598,2.602944850921631,80.18058776855469,2.0659449170421724,10.476014119225127,179.9774289816164,-5.7303553,8.131587,16.00339,33.500942,-5.206445,-6.675907,-38.079006,-4.840175,-5.170178,52.388092,-1.96357,14.659426,-10.618513,0.43922338,2.8100145,-2.9141865,31.371775,-33.88531,-8.482329,-7.7558928,7.4722443,15.05409,40.593533,-19.032093,10.270249,30.260782,10.400543,5.9547353,-10.026531
80,-16.27238655090332,2.8420755863189697,80.24962615966797,1.976814287132336,10.304989272474039,179.8286834820668,-6.4609942,8.707635,15.550153,36.288147,-5.2349644,-6.1923447,-35.789154,-4.313453,-5.5929284,49.0521,-1.5010097,14.260962,-10.377912,0.61424893,2.6043413,-2.2573917,31.22993,-33.581276,-10.05845,-7.9324584,7.3581853,14.605085,41.071022,-19.072283,10.131315,30.185778,10.333454,5.914741,-9.7008095
81,-16.957927703857422,3.0810558795928955,80.25743103027344,1.879626139732054,10.086185815089603,179.67255970411125,-7.334478,9.259999,14.894354,39.544292,-5.637167,-5.3958807,-33.64985,-3.8262842,-6.0973563,46.3735,-1.2003318,12.872459,-10.096805,0.8031282,2.440605,-1.6518486,31.084305,-33.327892,-11.579138,-8.007633,7.318008,14.125142,41.49382,-19.142963,10.020839,30.10767,10.12079,5.875339,-9.349785
82,-17.624629974365234,3.3195719718933105,80.19779205322266,1.7648298300017635,9.825013228374207,179.5121387314348,-8.341481,9.805849,14.066668,43.216614,-6.3886313,-4.3648562,-31.61165,-3.3476925,-6.676998,44.223312,-1.1353723,10.748901,-9.781633,1.0145091,2.3167949,-1.0727671,30.938652,-33.114998,-13.057219,-7.9978147,7.331997,13.618547,41.860573,-19.246761,9.938642,30.032784,9.775511,5.838398,-8.96652
83,-18.26900291442871,3.5618021488189697,80.0802993774414,1.6394946374319062,9.544877542546766,179.343786746896,-9.443612,10.234185,12.994593,47.102924,-7.3434854,-3.4126506,-29.707195,-2.8785505,-7.285366,42.51934,-1.5131083,8.372695,-9.435757,1.2402399,2.2334924,-0.5344393,30.798552,-32.929462,-14.511243,-7.938295,7.3812184,13.124743,42.1572,-19.3849,9.876505,29.940403,9.410807,5.7859926,-8.604035
84,-18.897104263305664,3.7965548038482666,79.87896728515625,1.5173886117261295,9.268061088285124,179.16511057477504,-10.605393,10.415173,11.627534,51.0368,-8.369911,-2.8664086,-27.955313,-2.4210207,-7.850841,41.149746,-2.516149,6.235904,-9.06498,1.464553,2.1910322,-0.048496343,30.67055,-32.75678,-15.96234,-7.864317,7.4474516,12.683663,42.3677,-19.556166,9.829759,29.810902,9.140032,5.7022877,-8.315449
85,-19.517009735107422,4.017720699310303,79.60435485839844,1.4278829596150604,8.99176375084755,178.98903940690377,-11.824414,10.174405,9.845594,55.06538,-9.527552,-2.9459202,-26.325369,-2.0070772,-8.35338,40.097103,-4.3557606,4.3638177,-8.673006,1.6589793,2.1760507,0.3832809,30.562717,-32.61392,-17.424383,-7.792484,7.5433187,12.322966,42.508335,-19.760252,9.799513,29.643261,8.97185,5.561411,-8.098162
86,-20.111223220825195,4.247151851654053,79.25948333740234,1.3614345779543926,8.705980077722757,178.81395380641607,-13.106458,9.560041,7.767849,59.312668,-10.908859,-3.4753122,-24.814356,-1.6143874,-8.787377,39.40385,-6.875393,2.5484607,-8.259699,1.8324306,2.1939301,0.77480906,30.478973,-32.497402,-18.892845,-7.703052,7.6716638,12.015992,42.576653,-19.996656,9.791387,29.449219,8.852991,5.380071,-7.92936
87,-20.677032470703125,4.47304630279541,78.85250091552734,1.2808679653986759,8.422271011494647,178.61602530353002,-14.420668,8.790989,5.6999817,63.70739,-12.413193,-4.1790457,-23.468826,-1.185856,-9.113684,39.013695,-9.675896,0.9244732,-7.8235083,2.0184033,2.271152,1.1367242,30.4186,-32.363304,-20.362488,-7.577174,7.803106,11.721163,42.52976,-20.265182,9.80558,29.228256,8.803491,5.2074027,-7.8315954
88,-21.20446014404297,4.696380615234375,78.38531494140625,1.1486985147208524,8.152862043427085,178.37143124150117,-15.754853,8.126818,3.8992767,68.15787,-13.898427,-4.752042,-22.332655,-0.6817969,-9.320919,38.867146,-12.356522,-0.38274062,-7.3627496,2.252008,2.4325385,1.4796206,30.377916,-32.168056,-21.828789,-7.3948083,7.907533,11.396397,42.325695,-20.568636,9.840017,28.977858,8.84193,5.0927386,-7.8272257
89,-21.71047019958496,4.907627582550049,77.86810302734375,0.9457181750901653,7.867390969691281,178.098390985271,-17.115652,7.623071,2.3334808,72.75024,-15.345805,-5.11602,-21.40381,-0.122024015,-9.459993,39.010723,-14.884346,-1.2664539,-6.89085,2.5554786,2.716184,1.7679675,30.358871,-31.920801,-23.306004,-7.1941457,7.9761415,11.048012,41.97232,-20.907583,9.890778,28.675322,8.969934,5.0488877,-7.916259
90,-22.195911407470703,5.105968475341797,77.30511474609375,0.6958220019508387,7.570899481547879,177.80236713751202,-18.501207,7.164238,0.888208,77.49903,-16.822498,-5.4187484,-20.653955,0.4538958,-9.548812,39.442665,-17.439156,-1.8225844,-6.40674,2.9086735,3.0950322,2.0128922,30.36254,-31.63529,-24.793503,-6.9714074,8.024648,10.692722,41.483955,-21.282366,9.962472,28.329456,9.178698,5.0493565,-8.088331
91,-22.623281478881836,5.29063081741333,76.68685913085938,0.43073164159319594,7.328890729174108,177.44089941983017,-19.916533,6.786601,-0.35149476,82.1996,-18.289055,-5.6706085,-20.106413,1.0453984,-9.53603,40.069164,-19.960629,-2.2363946,-5.892408,3.2803085,3.4930856,2.2936308,30.380262,-31.27111,-26.262712,-6.6448517,8.058546,10.302831,40.825676,-21.696997,10.073592,27.985369,9.475043,5.0841794,-8.350196
92,-23.038101196289062,5.448663711547852,76.04208374023438,0.17877728712517205,7.206433122597433,176.96978342557023,-21.379383,6.5414414,-1.3120502,86.64868,-19.705946,-5.8730607,-19.786928,1.667006,-9.361765,40.79546,-22.38774,-2.6976156,-5.3327117,3.640409,3.8354707,2.6931484,30.39742,-30.783852,-27.68223,-6.129909,8.081759,9.84926,39.959995,-22.159702,10.248297,27.689407,9.8679695,5.142893,-8.7086935
93,-23.43864631652832,5.594959735870361,75.39112091064453,-0.06072498258050954,7.215533823222973,176.362546968525,-22.911121,6.514324,-1.9448924,90.87915,-21.061684,-5.988451,-19.704922,2.347051,-8.97507,41.595757,-24.800026,-3.2671409,-4.70976,3.9924576,4.1305737,3.192925,30.405811,-30.156574,-29.0814,-5.33176,8.082489,9.277947,38.846455,-22.685675,10.499429,27.4691,10.4497385,5.2357416,-9.183763
94,-23.83197784423828,5.712099552154541,74.75760650634766,-0.30526191849454515,7.323122364109652,175.64704742819856,-24.513151,6.6971,-2.3422198,94.983376,-22.377583,-5.9975004,-19.846994,3.077037,-8.43023,42.525936,-27.20063,-3.8509061,-4.047996,4.3550367,4.4057927,3.771094,30.403008,-29.403324,-30.459421,-4.316958,8.055758,8.61749,37.51055,-23.278927,10.82603,27.291481,11.193468,5.3593597,-9.766372
95,-24.216726303100586,5.843613147735596,74.15779113769531,-0.5515438025578977,7.526588206574072,174.86087618755352,-26.182123,6.9949803,-2.6335359,98.84239,-23.642836,-5.928816,-20.19894,3.8212848,-7.8242893,43.602734,-29.409382,-4.403647,-3.3917375,4.715712,4.6169696,4.4948716,30.379774,-28.533052,-31.73231,-3.2452278,8.018212,7.9634776,36.013664,-23.922655,11.229939,27.111795,11.927292,5.4856057,-10.419222
96,-24.58985137939453,5.986599922180176,73.58172607421875,-0.7958417093372092,7.822783347447861,174.04099147067663,-27.917088,7.2925267,-2.9313467,102.327324,-24.840214,-5.826968,-20.746792,4.539221,-7.256202,44.843018,-31.246502,-4.875618,-2.7745953,5.0568514,4.7205195,5.41511,30.32127,-27.568289,-32.803596,-2.2768097,7.993715,7.4113517,34.41937,-24.58828,11.705547,26.88868,12.474153,5.5906773,-11.10458
97,-24.955801010131836,6.141919136047363,73.0273666381836,-1.0867594672648857,8.30212549653504,173.15312236528436,-29.85717,7.6457286,-3.2918386,105.48144,-25.969221,-5.699077,-21.678696,5.2787104,-6.774422,46.379673,-32.590828,-5.2719994,-2.1477156,5.4085307,4.632669,6.5133185,30.208775,-26.507969,-33.62471,-1.3773834,7.936063,6.908234,32.655025,-25.265528,12.308059,26.724619,12.803664,5.6610737,-11.883668
98,-25.34794807434082,6.290414810180664,72.53490447998047,-1.4189490347425397,8.933358696963852,172.18824301894915,-31.969898,8.080815,-3.6585045,108.35045,-27.025076,-5.527688,-22.934439,6.04247,-6.3344936,48.160664,-33.565834,-5.6154633,-1.49927,5.762837,4.396468,7.746234,30.032242,-25.3635,-34.225212,-0.485968,7.85304,6.4287715,30.713,-25.949522,13.023411,26.610569,13.002264,5.7130117,-12.753043
99,-25.78630828857422,6.425836563110352,72.11983489990234,-1.6999915600988076,9.532243987496601,171.224279566822,-33.99581,8.435868,-3.9609652,110.7992,-27.975153,-5.3375206,-24.128443,6.715887,-5.889335,49.919716,-34.351048,-5.876323,-0.90454817,6.043031,4.163137,9.108523,29.789698,-24.199013,-34.622078,0.27906433,7.858003,6.1083736,28.773048,-26.611958,13.720851,26.326324,13.059352,5.776424,-13.578773
100,-26.256742477416992,6.551501274108887,71.74867248535156,-1.8286203784006303,9.91783775557181,170.34310336973908,-35.67419,8.56041,-4.1154585,112.692406,-28.783966,-5.151863,-24.877108,7.1850767,-5.3826075,51.387783,-35.121655,-6.017158,-0.42455938,6.172634,4.0859103,10.575689,29.484,-23.10163,-34.827316,0.80168587,8.068962,6.0826592,27.028996,-27.213476,14.24783,25.65683,12.954008,5.879722,-14.2277975
101,-26.75518035888672,6.666357040405273,71.44474029541016,-1.7182849680971863,10.013540057823352,169.54253758524283,-36.886482,8.376937,-4.035298,113.97116,-29.431631,-4.9724197,-25.073166,7.3686595,-4.7455926,52.56808,-35.93927,-5.9782343,-0.055847324,6.0645742,4.2484546,12.191828,29.093653,-22.066944,-34.787098,0.9703934,8.548039,6.418502,25.513775,-27.724745,14.513683,24.562956,12.562381,6.0309405,-14.669176
102,-27.284944534301758,6.778783321380615,71.22396087646484,-1.435176014859344,9.929056834178517,168.78789459233835,-37.796356,7.9891677,-3.7776928,114.71873,-29.927465,-4.792583,-24.916954,7.3474364,-4.027605,53.570557,-36.702076,-5.793942,0.26072213,5.779455,4.549787,13.888714,28.608818,-21.115164,-34.462337,0.8727778,9.226209,7.0349755,24.1503,-28.144108,14.581832,23.170687,11.917887,6.2151594,-14.972988
103,-27.860074996948242,6.901019096374512,71.09475708007812,-1.1039887376258588,9.762525795238668,168.11358458247489,-38.56073,7.5237746,-3.4664714,114.99321,-30.277082,-4.6153474,-24.48351,7.246365,-3.3426251,54.274952,-37.347164,-5.5661726,0.5379278,5.4615364,4.8709116,15.495219,28.073961,-20.345142,-33.912632,0.68727696,10.024779,7.8461027,22.959045,-28.485544,14.532353,21.514404,11.232337,6.4249616,-15.160308
104,-28.475475311279297,7.028578281402588,71.03949737548828,-0.8520024300195176,9.609114550834015,167.55506939880212,-39.331455,7.1023436,-3.2252736,114.85617,-30.49272,-4.445378,-23.855425,7.187147,-2.7966094,54.56711,-37.805954,-5.3998647,0.7796264,5.2494483,5.100586,16.883362,27.572266,-19.828056,-33.243248,0.5892048,10.867069,8.772169,21.961273,-28.76939,14.447124,19.610151,10.720565,6.652384,-15.250182
105,-29.08672332763672,7.175546169281006,71.03360748291016,-0.7094532541196465,9.463005225795905,167.14050937012098,-40.13454,6.74656,-3.0845792,114.29084,-30.574524,-4.271356,-23.000223,7.1764565,-2.435029,54.382618,-38.07996,-5.3286796,0.9432832,5.1671853,5.2469525,18.09097,27.176497,-19.58261,-32.506466,0.5022963,11.900223,10.044444,21.173618,-28.997423,14.316778,17.362238,10.390234,6.9391713,-15.221255
106,-29.71772575378418,7.345043182373047,71.1112289428711,-0.607982063604565,9.282656762905441,166.84462790403134,-40.883923,6.38957,-2.975105,113.2746,-30.524155,-4.100129,-21.897058,7.1534233,-2.1893935,53.80136,-38.1987,-5.3027005,1.0369132,5.126442,5.369054,19.228056,26.908724,-19.534052,-31.717598,0.3296469,13.1031685,11.652099,20.591446,-29.164045,14.1034565,14.768865,10.147714,7.272435,-15.070076
107,-30.369916915893555,7.5188307762146,71.25733184814453,-0.5303400458325191,9.10745060260107,166.6245690442489,-41.562546,6.022176,-2.8700273,111.85014,-30.355433,-3.959298,-20.648432,7.1339793,-1.9879879,52.92473,-38.13928,-5.2982907,1.1264006,5.102723,5.4338794,20.294847,26.771631,-19.59578,-30.940403,0.24471718,14.158235,13.134067,20.199844,-29.279694,13.85998,11.978802,10.059446,7.56472,-14.845885
108,-31.055545806884766,7.727916717529297,71.46711730957031,-0.46001086748298015,8.977530464163236,166.43691818885264,-42.15408,5.6370487,-2.744437,110.06211,-30.084072,-3.8760793,-19.358229,7.1313343,-1.7599139,51.85448,-37.88181,-5.2851763,1.2715638,5.0776887,5.407964,21.29561,26.752092,-19.680218,-30.2401,0.45985335,14.759601,14.00729,19.976454,-29.366486,13.646378,9.142976,10.195988,7.730785,-14.598787
109,-31.758352279663086,7.936646938323975,71.72019958496094,-0.4157263185334242,8.910160746648865,166.2997786430076,-42.677223,5.228777,-2.6184475,107.88689,-29.711416,-3.8316715,-18.007153,7.165452,-1.5117006,50.506233,-37.421165,-5.2535443,1.4576156,5.0828385,5.2603626,22.22833,26.850521,-19.77455,-29.615221,1.1441747,14.753258,14.032031,19.947683,-29.442339,13.473819,6.211999,10.717462,7.736806,-14.322981
110,-32.51629638671875,8.149882316589355,72.02024841308594,-0.3982572730238815,8.882772741283599,166.227524900873,-43.11699,4.800702,-2.492678,105.30812,-29.245243,-3.820453,-16.56026,7.219014,-1.2696495,48.866966,-36.76873,-5.2130823,1.6517025,5.119662,5.017501,23.104282,27.06822,-19.91107,-29.046652,2.1588972,14.321926,13.50141,20.118233,-29.510534,13.319018,3.1193976,11.550019,7.6368375,-13.999991
111,-33.26381301879883,8.379294395446777,72.35553741455078,-0.3635150518059902,8.876210596368972,166.17233269757193,-43.413975,4.3602304,-2.3155966,102.38302,-28.696766,-3.8872218,-15.0914135,7.2475243,-0.9964848,47.128937,-35.92763,-5.1582155,1.8857191,5.1292014,4.730174,23.9428,27.379396,-20.07494,-28.567966,3.2707598,13.67145,12.721673,20.430264,-29.571016,13.190318,-0.00421737,12.41139,7.4762616,-13.659252
112,-34.06047821044922,8.58671760559082,72.73987579345703,-0.2689025438410912,8.871365852093001,166.08570279732368,-43.513664,3.914834,-2.0401666,99.165794,-28.072643,-4.079585,-13.677534,7.2054796,-0.65804315,45.489964,-34.899372,-5.086081,2.1859655,5.0563145,4.447568,24.760893,27.74107,-20.245968,-28.200603,4.2640285,13.019539,11.981587,20.807844,-29.623749,13.106912,-3.0099478,13.017876,7.296041,-13.332613
113,-34.8771858215332,8.798948287963867,73.16060638427734,-0.09358806816046608,8.860537449444761,165.9570158310224,-43.37781,3.4618518,-1.6337081,95.6018,-27.336514,-4.480874,-12.300373,7.073847,-0.22716768,43.93457,-33.664303,-5.011389,2.5693903,4.884923,4.1683254,25.527027,28.130596,-20.434252,-27.924198,5.2056055,12.3613825,11.234929,21.25067,-29.673592,13.084976,-5.878339,13.320136,7.103454,-13.045589
114,-35.67178726196289,9.035453796386719,73.59284973144531,0.13571447878650691,8.855439107821468,165.8120606515916,-43.036816,2.9909866,-1.1322141,91.67394,-26.495796,-5.0448446,-10.9421425,6.878218,0.2646687,42.38664,-32.233242,-4.9298596,3.0113695,4.652603,3.869386,26.225407,28.54261,-20.647087,-27.707273,6.1754684,11.596183,10.365148,21.782227,-29.725075,13.116918,-8.673765,13.459605,6.8752584,-12.776289
115,-36.48160934448242,9.263117790222168,74.04953002929688,0.3892441901922354,8.865823555430435,165.65711268042656,-42.544243,2.5025961,-0.5985127,87.485115,-25.617645,-5.627401,-9.677278,6.641654,0.7662267,40.953922,-30.64865,-4.8154936,3.4751647,4.387509,3.566673,26.893934,28.955051,-20.858995,-27.545767,6.996364,10.816601,9.535772,22.355906,-29.778425,13.188447,-11.363463,13.436939,6.603639,-12.486933
116,-37.31591796875,9.489248275756836,74.51742553710938,0.6370802745849361,8.900753717445602,165.4979155269788,-41.956875,2.0037363,-0.09378346,83.13542,-24.769657,-6.080075,-8.573243,6.389148,1.2309606,39.74181,-28.95264,-4.645046,3.9208395,4.1203413,3.2736416,27.570444,29.336033,-21.042675,-27.43525,7.50436,10.123719,8.898873,22.916697,-29.832096,13.291713,-13.904358,13.251938,6.280909,-12.140666
117,-38.14503860473633,9.732881546020508,74.99533081054688,0.8797957950924885,8.967323084616535,165.33604110079472,-41.27455,1.5004373,0.39418712,78.57507,-23.957739,-6.337611,-7.6069136,6.1191607,1.6655854,38.705025,-27.09928,-4.3900886,4.3461003,3.855228,2.9792302,28.250889,29.66464,-21.20562,-27.359936,7.660757,9.54742,8.474769,23.451645,-29.893284,13.439745,-16.296368,12.896465,5.8947535,-11.711573
118,-39.000465393066406,9.942173957824707,75.47472381591797,1.1286129009154726,9.058330719210518,165.16821390620967,-40.467175,0.99108356,0.8829658,73.75958,-23.14781,-6.4832487,-6.755605,5.8276644,2.094227,37.81614,-25.08625,-4.0751863,4.763015,3.5854964,2.6795251,28.909122,29.934877,-21.359344,-27.30898,7.5698223,9.040054,8.173178,23.976555,-29.968658,13.638768,-18.547443,12.374671,5.4487977,-11.227373
119,-39.85813903808594,10.156397819519043,75.94527435302734,1.3703820263583257,9.1620150649093,164.99219391562406,-39.55393,0.47581092,1.3217801,68.79804,-22.341778,-6.5898304,-6.075427,5.5351663,2.4993293,37.1952,-23.012314,-3.7520783,5.155969,3.3241143,2.3970873,29.544556,30.137945,-21.482447,-27.26691,7.2845373,8.588322,7.977393,24.476566,-30.051718,13.872022,-20.623213,11.702826,4.9640875,-10.733089
120,-40.67378234863281,10.377664566040039,76.3871078491211,1.5893480873840553,9.265888100681485,164.80407407025896,-38.549145,-0.043142464,1.6595172,63.78076,-21.532532,-6.7326107,-5.6099844,5.2625303,2.8621163,36.93987,-20.962881,-3.4653535,5.512096,3.0841863,2.1534607,30.158522,30.264782,-21.553455,-27.21962,6.8599358,8.178037,7.8716216,24.931963,-30.129356,14.1240225,-22.484001,10.891265,4.462047,-10.272071
121,-41.491756439208984,10.603787422180176,76.81085205078125,1.7782814508400517,9.383854662529437,164.59495328411373,-37.444412,-0.5673017,1.8833435,58.591114,-20.69397,-6.935531,-5.3888125,5.0239987,3.1806316,37.06821,-18.889343,-3.2379045,5.8457274,2.8704062,1.9421055,30.751942,30.30089,-21.56548,-27.157476,6.2780123,7.8116884,7.849354,25.321592,-30.193127,14.398571,-24.111906,9.8193035,3.895526,-9.819716
122,-42.3244514465332,10.823331832885742,77.20903015136719,1.9431939207894586,9.514404944719663,164.3656216877798,-36.216415,-1.0889153,2.0168037,53.173267,-19.810934,-7.1559258,-5.353389,4.815043,3.468264,37.487633,-16.746458,-3.01541,6.1571,2.679003,1.7563066,31.326002,30.245111,-21.527946,-27.088142,5.526918,7.4931703,7.9147706,25.642538,-30.249674,14.711242,-25.51672,8.52179,3.2670026,-9.372253
123,-43.15681838989258,11.03986644744873,77.57279968261719,2.076267933518608,9.621191868481551,164.12588264205453,-34.882343,-1.5844749,2.0571082,47.75551,-18.914225,-7.374857,-5.430514,4.6459217,3.724229,38.163616,-14.647659,-2.7308064,6.4258037,2.5232291,1.6150873,31.855427,30.107748,-21.45975,-26.997059,4.6713257,7.209657,8.070645,25.9184,-30.289476,15.049799,-26.697052,7.2292914,2.6788695,-8.991436
124,-43.96076202392578,11.284770011901855,77.88753509521484,2.1697655837326884,9.668810957740442,163.88604334348523,-33.473125,-2.033014,2.0048351,42.59308,-18.041065,-7.5770535,-5.553514,4.527653,3.9472845,39.068893,-12.711048,-2.3323643,6.630382,2.412715,1.5381173,32.325977,29.913286,-21.372845,-26.887835,3.7693174,6.948405,8.322469,26.173328,-30.301037,15.404024,-27.656145,6.1706347,2.238778,-8.731302
125,-44.77423858642578,11.531838417053223,78.15321350097656,2.207582612590145,9.652185969430649,163.6467999035689,-31.960417,-2.4280825,1.8217427,37.60836,-17.182985,-7.765788,-5.7273483,4.489569,4.1262627,40.202057,-10.89269,-1.81185,6.776302,2.3559017,1.5363393,32.756607,29.675129,-21.256197,-26.76907,2.7604935,6.676537,8.7193365,26.424334,-30.268864,15.767261,-28.397367,5.3440356,1.9916259,-8.602655
126,-45.59976577758789,11.785046577453613,78.36909484863281,2.181707908969245,9.584410604856386,163.39795360078438,-30.333462,-2.756728,1.5160134,32.690887,-16.31375,-7.9541793,-5.9698606,4.5539017,4.2668767,41.562347,-9.154322,-1.1842719,6.883549,2.356376,1.600165,33.154415,29.397846,-21.108768,-26.653069,1.6353897,6.40475,9.245556,26.658413,-30.187576,16.1425,-28.919624,4.6410174,1.8804835,-8.566813
127,-46.415531158447266,12.04207992553711,78.52555847167969,2.104089266068342,9.46030983094254,163.1386503240612,-28.676933,-3.0044901,1.1663175,28.101202,-15.470273,-8.146428,-6.2502723,4.70477,4.3839784,43.14556,-7.630709,-0.45831794,6.948216,2.408797,1.7163259,33.4902,29.098356,-20.95681,-26.545555,0.5245376,6.1889176,9.813344,26.86177,-30.064257,16.530296,-29.21806,4.1292863,1.8618888,-8.599683
128,-47.22119140625,12.310648918151855,78.61954498291016,2.0016513827469753,9.2799836360463,162.87414299990357,-27.100609,-3.1810594,0.85906714,24.146719,-14.708578,-8.346457,-6.5533943,4.9006834,4.4891086,44.97402,-6.468611,0.3441436,6.9623446,2.4931347,1.8694261,33.74057,28.800344,-20.825699,-26.463427,-0.4457082,6.0902166,10.340109,27.02558,-29.91214,16.927761,-29.298145,3.882029,1.8908166,-8.681025
129,-48.037235260009766,12.581793785095215,78.6484375,1.9003901447686193,9.040743808136575,162.6153668955678,-25.639156,-3.3008008,0.63657814,20.942562,-14.123807,-8.522284,-6.9016976,5.13912,4.6372848,47.11785,-5.727436,1.2569145,6.915271,2.5835426,2.0611818,33.923843,28.515125,-20.718355,-26.42363,-1.2451464,6.149715,10.829607,27.151531,-29.735332,17.345179,-29.135757,4.04499,1.9604484,-8.839647
130,-48.84740447998047,12.836665153503418,78.61019134521484,1.8063217109722591,8.754197768441585,162.36892148284238,-24.282036,-3.3900828,0.46088535,18.382538,-13.692202,-8.687384,-7.3257403,5.4050283,4.7895694,49.592323,-5.3497753,2.2665124,6.8041778,2.6692126,2.291339,34.05338,28.24474,-20.620214,-26.42687,-1.9506704,6.3283944,11.326258,27.25079,-29.529919,17.778082,-28.743313,4.5418205,2.0903625,-9.078276
131,-49.6506233215332,13.095982551574707,78.50410461425781,1.7381865454873882,8.447788746460054,162.13830935460103,-23.09255,-3.4946744,0.2985934,16.478304,-13.306272,-8.894757,-7.8342934,5.5945063,4.8195524,52.355045,-5.305423,3.2642035,6.629718,2.730039,2.53858,34.096016,28.002136,-20.52908,-26.462162,-2.5992968,6.5706625,11.809574,27.325344,-29.29832,18.200981,-28.183071,5.116427,2.2752447,-9.338824
132,-50.43095779418945,13.350809097290039,78.32682037353516,1.7134935708664656,8.147459898577706,161.92430278909114,-22.134586,-3.6534898,0.11255384,15.248695,-12.860247,-9.184251,-8.432229,5.5916743,4.612592,55.36089,-5.5517335,4.1311164,6.3985057,2.7461305,2.784115,34.02041,27.807367,-20.443798,-26.51917,-3.2303014,6.820481,12.259406,27.38833,-29.046556,18.581558,-27.52681,5.512675,2.5125337,-9.56243
133,-51.18938064575195,13.611605644226074,78.07168579101562,1.704556453565706,7.83967917193922,161.70940691789394,-21.344627,-3.8549526,-0.17831957,14.594903,-12.126413,-9.837659,-9.0830965,5.3165364,4.0575624,58.62112,-6.098835,4.846345,6.126363,2.7437692,3.0332658,33.838882,27.67662,-20.366516,-26.636759,-3.9163675,7.085865,12.711374,27.451004,-28.77686,18.912481,-26.778648,5.70424,2.851015,-9.724398
134,-51.95033645629883,13.87964916229248,77.75084686279297,1.7377749921909873,7.521521196119693,161.50283886893254,-20.737965,-4.1128426,-0.53221613,14.575196,-11.249712,-10.728529,-9.801094,4.758616,3.2695923,62.179558,-6.959472,5.4267473,5.808442,2.6933866,3.291439,33.567493,27.615028,-20.297333,-26.815256,-4.62527,7.3884673,13.168129,27.514065,-28.486279,19.203617,-25.913788,5.8173943,3.2755928,-9.860094
135,-52.71904373168945,14.158577919006348,77.3670654296875,1.900061321510157,7.229044002470496,161.3399718936074,-20.472477,-4.4936333,-0.7888432,15.399989,-10.665446,-11.290241,-10.641799,3.9363203,2.4835968,66.00088,-8.087193,5.8244176,5.424446,2.505421,3.5430825,33.184723,27.623877,-20.231941,-27.006832,-5.233878,7.6955986,13.556585,27.572733,-28.17163,19.450611,-24.962029,5.82571,3.6904805,-9.999432
136,-53.459571838378906,14.388254165649414,76.97538757324219,2.257880151254065,6.9934770920135545,161.24914291019823,-20.686604,-5.0350604,-0.773845,17.243639,-10.779025,-10.959002,-11.6533575,2.9286218,1.9246273,70.02818,-9.4331255,6.0168786,4.9609222,2.1108444,3.7733893,32.66707,27.70197,-20.167719,-27.15752,-5.616634,7.977478,13.801047,27.624077,-27.830637,19.645975,-23.954237,5.702886,4.0003133,-10.171255
137,-54.186100006103516,14.638391494750977,76.52000427246094,2.867813165496833,6.804800291675204,161.22933815225375,-21.51822,-5.7720423,-0.35773253,20.471317,-11.771699,-9.22579,-12.83249,1.6923428,1.6369613,74.3599,-11.117166,5.9353504,4.4216866,1.4496188,3.9722192,32.02162,27.850384,-20.113548,-27.271254,-5.7128763,8.223107,13.84152,27.666044,-27.468496,19.802422,-22.90421,5.445203,4.1776557,-10.388704
138,-54.89590835571289,14.892721176147461,76.0088119506836,3.585366297893604,6.628206824166321,161.2415905755798,-22.7857,-6.5804086,0.32261634,24.754642,-13.306579,-6.53761,-14.103611,0.33042645,1.5084844,78.92667,-13.099625,5.608858,3.839835,0.67120886,4.159567,31.264332,28.069513,-20.072205,-27.38439,-5.5964484,8.453083,13.729191,27.71632,-27.090029,19.908928,-21.81076,5.064578,4.276463,-10.6325245
139,-55.562400817871094,15.138192176818848,75.44779205322266,4.22778474653741,6.472021916137078,161.27237708331168,-24.178658,-7.303245,1.0426016,29.269773,-15.037055,-3.7403424,-15.442083,-0.88168097,1.5103025,83.44695,-15.108978,5.188768,3.2335792,-0.034333054,4.355571,30.374653,28.355804,-20.035358,-27.482374,-5.340083,8.685133,13.553614,27.79302,-26.69253,19.923067,-20.674646,4.5564866,4.3233953,-10.882161
140,-56.17387771606445,15.391729354858398,74.80524444580078,4.693933748306649,6.364657071365047,161.33049773831294,-25.457115,-7.8552303,1.5988218,33.33318,-16.732134,-1.6515758,-16.86799,-1.7558826,1.617466,87.695595,-16.890974,4.8437624,2.6000788,-0.56169677,4.567605,29.323383,28.703531,-19.993721,-27.538734,-5.0169225,8.936495,13.404354,27.902483,-26.264185,19.809765,-19.483948,3.9155645,4.3441,-11.117762
141,-56.777984619140625,15.626769065856934,74.13360595703125,4.9795457727467545,6.305026365344671,161.45721367018504,-26.703817,-8.223341,1.9346411,37.106037,-18.560345,-0.4929292,-18.414917,-2.2194667,1.8215904,91.742714,-18.40495,4.604471,1.8945048,-0.9125065,4.835262,28.076048,29.11744,-19.904264,-27.562449,-4.655992,9.151191,13.228994,28.027058,-25.787838,19.535711,-18.258974,3.090745,4.278109,-11.268746
142,-57.36369323730469,15.858213424682617,73.47618103027344,5.168353770781268,6.291815165045857,161.646967262942,-28.031824,-8.46547,2.149487,40.9202,-20.636028,0.2004747,-20.082388,-2.393629,2.1143544,95.70221,-19.794971,4.4115996,1.1285031,-1.178213,5.1341047,26.650146,29.60132,-19.791231,-27.556025,-4.213985,9.338507,13.005472,28.15498,-25.25815,19.128475,-16.980577,2.09719,4.1337776,-11.3681345
143,-57.91801071166992,16.1129093170166,72.8885498046875,5.320951836627627,6.35936574336398,161.84662722080853,-29.292006,-8.630724,2.303663,44.440994,-22.710733,0.64426434,-21.8583,-2.4199743,2.4754753,99.41676,-21.073511,4.294075,0.36983788,-1.413801,5.3720484,25.087336,30.140947,-19.745747,-27.472916,-3.6553297,9.615588,12.865842,28.298481,-24.683647,18.648487,-15.578509,1.029128,4.0423713,-11.548544
144,-58.44534683227539,16.36951446533203,72.359375,5.496897825904185,6.540362869070531,162.00235612642004,-30.329391,-8.789544,2.4684236,47.308643,-24.51692,1.0428678,-23.734694,-2.4470992,2.906335,102.71945,-22.248802,4.2821712,-0.320112,-1.6619967,5.455957,23.419287,30.70696,-19.860117,-27.252373,-2.942633,10.102294,12.937792,28.477343,-24.081814,18.15936,-13.985887,-0.016240058,4.1392255,-11.939049
145,-58.97734832763672,16.619426727294922,71.87291717529297,5.7480276014579115,6.9321507534704825,162.14564209300784,-31.210701,-9.019923,2.6843605,49.40419,-25.981604,1.4050925,-25.851114,-2.528922,3.4525094,105.63077,-23.311464,4.448932,-0.97457296,-1.9302807,5.280342,21.510944,31.287643,-20.239775,-26.728476,-2.0415936,10.912264,13.354333,28.703693,-23.458958,17.653534,-12.091313,-1.1107422,4.404779,-12.62728
146,-59.557373046875,16.8748779296875,71.44921875,6.040557534245054,7.488073378254762,162.29506620898027,-31.998962,-9.278692,2.9262192,50.952106,-27.25372,1.632563,-28.177923,-2.5765626,4.0983925,108.2224,-24.249899,4.760353,-1.613915,-2.190815,4.9190555,19.36606,31.870335,-20.828348,-25.96771,-0.98633915,11.965166,14.0044155,28.976307,-22.814339,17.097979,-9.970968,-2.267585,4.7968216,-13.520017
147,-60.188682556152344,17.12569236755371,71.10122680664062,6.300389943398078,8.023693210027478,162.37420709360413,-32.526012,-9.469219,3.1658885,52.0892,-28.39359,1.7619523,-30.463448,-2.5410602,4.748519,110.4002,-25.055515,5.062236,-2.1756034,-2.4312115,4.5503454,17.241417,32.41354,-21.448524,-25.250433,0.16917048,13.087921,14.639851,29.283154,-22.164242,16.541336,-7.8363156,-3.2977314,5.414062,-14.475935
148,-60.83773422241211,17.431686401367188,70.84715270996094,6.449999886302784,8.354729176610476,162.3031135840474,-32.616203,-9.49105,3.3692243,52.945625,-29.454826,1.8306197,-32.457966,-2.3877008,5.3090844,112.066284,-25.714367,5.2006497,-2.614189,-2.638528,4.3538733,15.413071,32.867195,-21.897255,-24.848108,1.4006368,14.097751,15.004646,29.597647,-21.54284,16.050508,-5.8897195,-4.008256,6.344116,-15.362971
149,-61.501277923583984,17.741601943969727,70.68144226074219,6.453934188082917,8.385084438168557,162.0277530899819,-32.140182,-9.287447,3.528107,53.540184,-30.48615,1.8209113,-34.066017,-2.0823016,5.7723174,113.18035,-26.20501,5.1321616,-2.9135964,-2.8042302,4.423561,13.979062,33.187424,-22.097046,-24.808823,2.9560044,15.059004,14.978725,29.891897,-20.982813,15.682043,-4.1415386,-4.3923044,7.800095,-16.245779
150,-62.1805305480957,18.09311866760254,70.62154388427734,6.357843287760322,8.226230674772983,161.60134481382343,-31.212229,-8.926006,3.666909,53.80497,-31.446407,1.7248516,-35.43789,-1.662446,6.180883,113.79874,-26.527441,4.942047,-3.1330245,-2.9229975,4.6485686,12.791049,33.36588,-22.132885,-24.96375,4.801457,16.01665,14.683494,30.169868,-20.503782,15.4152975,-2.4896603,-4.5066543,9.66481,-17.181768
151,-62.82829666137695,18.459190368652344,70.64068603515625,6.212504783454557,8.004567051113845,161.10456161396715,-30.021969,-8.49537,3.7957315,53.73866,-32.253517,1.5926956,-36.689354,-1.20415,6.5158257,113.96055,-26.7059,4.669058,-3.3299456,-2.9879603,4.902831,11.746422,33.423893,-22.053791,-25.252903,6.4814487,16.753963,14.259479,30.470255,-20.118326,15.1936,-0.983463,-4.266513,11.51945,-18.039291
152,-63.50532913208008,18.844074249267578,70.75946044921875,6.064021181523327,7.848268008535493,160.6168527738923,-28.76115,-8.080033,3.9167206,53.33999,-32.824486,1.4720409,-37.932926,-0.7824815,6.757927,113.70608,-26.76889,4.351758,-3.5591714,-2.9992292,5.063567,10.76387,33.405567,-21.897692,-25.64714,7.5178046,17.069319,13.879256,30.838684,-19.83579,14.956226,0.31540257,-3.609629,12.945071,-18.681923
153,-64.18632507324219,19.2558536529541,70.95307922363281,5.910802703003756,7.772568833778137,160.14091053565718,-27.43295,-7.681324,4.0227857,52.56907,-33.16157,1.3848776,-39.204006,-0.39989787,6.887263,113.020355,-26.7181,3.9459734,-3.8213024,-2.9590733,5.120749,9.838604,33.348003,-21.635515,-26.191132,7.6332626,16.800915,13.615387,31.30432,-19.664196,14.687924,1.3411821,-2.3890994,13.876053,-19.055485
154,-64.87539672851562,19.6512393951416,71.20697784423828,5.731174030277924,7.715333106225689,159.64041957044384,-25.954979,-7.25496,4.1143413,51.444748,-33.30168,1.2978659,-40.42957,-0.024250373,6.908336,111.88617,-26.551966,3.451117,-4.089523,-2.8713875,5.1390424,9.035633,33.260487,-21.247507,-26.922573,7.1076427,16.099913,13.392975,31.851315,-19.601597,14.419027,2.1217062,-0.6890784,14.518343,-19.243723
155,-65.5853500366211,20.028705596923828,71.52861785888672,5.538885630104972,7.68963627661703,159.13558959791024,-24.390327,-6.8260655,4.1999025,50.048763,-33.21592,1.1736639,-41.55758,0.31509745,6.8412995,110.33817,-26.295744,2.9703197,-4.3731866,-2.7392101,5.107185,8.370847,33.14593,-20.787386,-27.80211,6.291351,15.242393,13.167931,32.462944,-19.635183,14.153548,2.7329977,1.1866264,14.866946,-19.295795
156,-66.31050872802734,20.40267562866211,71.91801452636719,5.347346842827106,7.709492158176369,158.64616384334778,-22.800024,-6.416026,4.286043,48.459297,-32.87714,0.97424775,-42.5402,0.591531,6.7106714,108.41135,-25.967073,2.6067872,-4.6758595,-2.564851,5.0121536,7.8479433,33.00096,-20.319569,-28.775927,5.5347342,14.503108,12.906572,33.12339,-19.741987,13.8901205,3.255058,2.931387,14.91635,-19.252756
157,-67.05877685546875,20.802499771118164,72.36891174316406,5.149428568142102,7.8022945133158625,158.17851995203853,-21.167866,-6.0246024,4.369783,46.578213,-32.28659,0.6330402,-43.392593,0.82696307,6.524262,106.06865,-25.58639,2.4170325,-4.9942493,-2.332861,4.8207474,7.470366,32.819786,-19.848389,-29.871176,4.8296695,13.930075,12.566618,33.861286,-19.913439,13.607801,3.6825686,4.5945635,14.533716,-19.045088
158,-67.81941986083984,21.20440673828125,72.85530853271484,4.935909208860847,7.953943098296348,157.72006941283055,-19.472048,-5.6440353,4.44858,44.394,-31.449984,0.17947158,-44.11558,1.0287306,6.262934,103.29982,-25.148344,2.3409557,-5.317224,-2.0437183,4.548481,7.2192516,32.602074,-19.35545,-31.09033,4.023778,13.3879385,12.175398,34.67325,-20.145803,13.307925,3.9897776,6.285985,13.778119,-18.647123
159,-68.58451843261719,21.61151695251465,73.37792205810547,4.720108436061953,8.115535180823905,157.26178792603554,-17.773767,-5.286906,4.528135,42.134575,-30.34306,-0.27230045,-44.64328,1.1518301,5.9152822,100.18007,-24.632488,2.3084207,-5.633415,-1.7288878,4.2556434,7.0727735,32.35212,-18.874344,-32.349148,3.2574952,12.872597,11.816409,35.491722,-20.417696,13.018699,4.2321606,7.788187,12.923423,-18.179781
160,-69.36149597167969,22.031574249267578,73.93707275390625,4.518826186495717,8.238238605023229,156.79588406759848,-16.137247,-4.961427,4.612565,40.04186,-28.956152,-0.5976032,-44.91476,1.1534358,5.472874,96.784744,-24.018366,2.2526197,-5.9280005,-1.42598,4.0006514,6.997539,32.077763,-18.445528,-33.55438,2.6687064,12.37748,11.575198,36.244595,-20.69479,12.766721,4.473524,8.876258,12.23236,-17.784449
161,-70.1559066772461,22.460643768310547,74.51911926269531,4.337035113302811,8.306820970324068,156.30756395398652,-14.533731,-4.6678867,4.7058525,38.113754,-27.247173,-0.70086426,-44.89346,0.99869347,4.92314,93.06779,-23.315338,2.1804,-6.1814632,-1.1507882,3.7981386,7.0011463,31.784208,-18.097345,-34.7063,2.3808966,11.925575,11.513647,36.91265,-20.956364,12.555443,4.7358775,9.410387,11.749192,-17.492155
162,-70.93365478515625,22.918498992919922,75.12632751464844,4.16798118118063,8.348041949378503,155.80489940758122,-12.952385,-4.400381,4.807792,36.2632,-25.250074,-0.6595745,-44.609028,0.73836297,4.2572083,89.004776,-22.53063,2.1287043,-6.3941336,-0.8909271,3.6167061,7.083082,31.474333,-17.816866,-35.84265,2.2913914,11.510168,11.577374,37.528,-21.196463,12.364797,4.9983587,9.526689,11.334002,-17.24086
163,-71.73821258544922,23.375293731689453,75.74860382080078,4.015482780059256,8.375695521158923,155.31401780280132,-11.485685,-4.154239,4.911763,34.61189,-23.070774,-0.60198087,-44.10819,0.44654018,3.5031652,84.704216,-21.642351,2.0876565,-6.5806193,-0.6485452,3.4456983,7.2011876,31.154728,-17.583776,-36.926,2.2022831,11.079402,11.676627,38.09406,-21.40352,12.183757,5.2621846,9.408837,10.968704,-17.03975
164,-72.52981567382812,23.84931182861328,76.37300109863281,3.883540005139105,8.404110096323267,154.86186230880176,-10.216812,-3.9271796,5.001705,33.264866,-20.80144,-0.6576967,-43.44715,0.18091036,2.7018144,80.272385,-20.626232,2.0327864,-6.7539907,-0.42762637,3.2742412,7.3124037,30.834877,-17.37862,-37.92134,1.9144241,10.581708,11.719079,38.613132,-21.563164,12.000475,5.5304937,9.237671,10.636773,-16.894054
165,-73.31517028808594,24.322078704833984,76.99405670166016,3.787819838702532,8.441075577220815,154.45454844834984,-9.153745,-3.7444334,5.071486,32.1991,-18.317366,-0.8262398,-42.639076,-0.14862677,1.8155357,75.671524,-19.440767,1.8123889,-6.915931,-0.25093448,3.098383,7.4051695,30.52257,-17.203213,-38.815994,1.361473,9.981736,11.694992,39.066525,-21.659996,11.816732,5.8208566,8.919094,10.354207,-16.812742
166,-74.10436248779297,24.80019187927246,77.59616088867188,3.724058371298768,8.478204410497048,154.07807579172186,-8.250661,-3.6005905,5.1191096,31.36699,-15.612645,-1.0574399,-41.659405,-0.54100925,0.8413459,70.86925,-18.112331,1.4806676,-7.053339,-0.117415324,2.9244032,7.499185,30.222094,-17.07055,-39.63388,0.6509374,9.315322,11.645047,39.45371,-21.689768,11.636013,6.1348557,8.396827,10.122174,-16.791035
167,-74.8868408203125,25.2877140045166,78.16690063476562,3.6647209090747657,8.50594167642145,153.73062697611095,-7.503302,-3.4520028,5.125815,30.824812,-12.950896,-1.4106843,-40.514088,-0.823254,-0.10123524,65.956085,-16.71082,1.3037938,-7.1616197,0.0073834574,2.7573273,7.6013536,29.936884,-16.97471,-40.389435,-0.15597397,8.637586,11.550949,39.80957,-21.659857,11.450018,6.4442596,7.9097514,9.903186,-16.811161
168,-75.65731811523438,25.785404205322266,78.69772338867188,3.5825446244947257,8.513524895923396,153.41084197489113,-6.902847,-3.2587624,5.072173,30.62241,-10.594219,-1.9414387,-39.21463,-0.8363369,-0.8679626,61.005,-15.289513,1.532795,-7.2415686,0.16014352,2.603408,7.7258673,29.669216,-16.903996,-41.106556,-0.9998927,8.003757,11.397608,40.169144,-21.584639,11.253446,6.717227,7.701158,9.6600685,-16.85443
169,-76.43499755859375,26.2972469329834,79.18405151367188,3.4579709915925023,8.5064604581981,153.1329530123384,-6.4245057,-3.0068433,4.9448895,30.652805,-8.487241,-2.7723782,-37.70964,-0.50915295,-1.3670056,55.822186,-13.746053,2.310417,-7.3150005,0.36701843,2.4599836,7.900597,29.41828,-16.841227,-41.789467,-1.9152074,7.399035,11.161642,40.532715,-21.466812,11.049536,6.962038,7.85926,9.369815,-16.956135
170,-77.23628234863281,26.80313491821289,79.6146240234375,3.316946374873401,8.485129598119995,152.8969105898959,-6.0561175,-2.7465005,4.7409043,30.893559,-6.5275497,-3.8607607,-36.006172,0.012315646,-1.6300434,50.38108,-12.071862,3.433128,-7.3836303,0.59751,2.3278272,8.119314,29.18448,-16.7899,-42.435894,-2.9196124,6.807058,10.8557005,40.88447,-21.30644,10.843102,7.185081,8.248915,9.056377,-17.110838
171,-78.02389526367188,27.322181701660156,79.97846984863281,3.199831090955961,8.43070838419982,152.6806717207323,-5.813516,-2.529087,4.475548,31.529371,-4.9023743,-4.9951024,-34.205395,0.56968766,-1.7102044,45.010944,-10.4503975,4.6441064,-7.4197116,0.80429626,2.2192256,8.347571,28.971735,-16.767895,-43.05489,-3.928824,6.2789936,10.524322,41.238686,-21.11958,10.630111,7.346282,8.781795,8.752353,-17.238346
172,-78.81604766845703,27.832284927368164,80.27095031738281,3.14159506866888,8.325851727744304,152.4601383671257,-5.727442,-2.3876252,4.184865,32.765163,-3.7934983,-5.9441934,-32.41832,1.0392083,-1.7013263,40.07255,-9.06569,5.7164965,-7.3958735,0.9468769,2.146276,8.555708,28.784885,-16.788591,-43.663425,-4.858647,5.86301,10.216097,41.610813,-20.932148,10.405495,7.4015136,9.375253,8.492471,-17.260536
173,-79.6117172241211,28.346899032592773,80.4896469116211,3.1577537973212078,8.153073271847724,152.24127424259427,-5.822228,-2.340337,3.853149,34.706184,-3.2733533,-6.630325,-30.613535,1.4634368,-1.5444803,35.53212,-7.9666963,6.732442,-7.319744,1.0159303,2.119449,8.764412,28.624695,-16.850477,-44.27786,-5.7075424,5.5897818,9.93358,42.029182,-20.759232,10.162927,7.315158,10.095538,8.299108,-17.162155
174,-80.40139770507812,28.85757064819336,80.62657928466797,3.238716298166087,7.923946953908572,152.03498257738224,-6.073852,-2.3695064,3.4958622,37.222977,-3.2245295,-7.160525,-28.746868,1.8668724,-1.2257241,31.2232,-7.046337,7.7709584,-7.21212,1.0248863,2.1320837,8.996583,28.489672,-16.935703,-44.900562,-6.5136075,5.4259906,9.660018,42.481865,-20.602219,9.910422,7.1070743,10.966533,8.152719,-16.984056
175,-81.18383026123047,29.36745834350586,80.68841552734375,3.3660692736580007,7.669921772903488,151.81847898158262,-6.4509244,-2.4238448,3.1998782,40.182007,-3.5395656,-7.570792,-26.945845,2.1620953,-0.9498658,27.375942,-6.2653255,8.637783,-7.062838,0.98395455,2.1680226,9.227799,28.381035,-17.02979,-45.517967,-7.2534556,5.321315,9.416964,42.921574,-20.465868,9.668994,6.817576,11.844339,8.026106,-16.733347
176,-81.95955657958984,29.85910987854004,80.67414855957031,3.503842698817925,7.426984480719764,151.56435128457056,-6.9302444,-2.4354353,3.0451689,43.466457,-4.1209354,-7.906576,-25.361544,2.3080938,-0.9380466,24.265024,-5.5983863,9.154678,-6.856365,0.9207848,2.208848,9.435105,28.300367,-17.120102,-46.12145,-7.9025645,5.2242956,9.225651,43.299686,-20.35809,9.457669,6.489985,12.585127,7.8905473,-16.416039
177,-82.71463775634766,30.34099006652832,80.59790802001953,3.6316776366284436,7.209818112564973,151.25398356468898,-7.5404654,-2.3736997,3.0631733,47.183907,-5.061505,-8.180554,-24.059122,2.3020062,-1.3479922,22.032784,-5.0233603,9.347303,-6.5917583,0.8561668,2.248801,9.640933,28.25812,-17.180367,-46.737774,-8.486541,5.1265645,9.111818,43.602077,-20.298903,9.283937,6.1312027,13.165925,7.7479477,-15.985997
178,-83.45442962646484,30.82908058166504,80.45023345947266,3.7412456479087544,7.007185869431986,150.89716299219484,-8.293336,-2.226379,3.2011368,51.376957,-6.390572,-8.362713,-22.987587,2.2302308,-2.0593464,20.572033,-4.589108,9.309469,-6.2565866,0.805514,2.2914045,9.823905,28.236437,-17.240822,-47.340008,-9.0027075,5.0521393,9.054401,43.857918,-20.267405,9.124639,5.725293,13.651729,7.611695,-15.454104
179,-84.1827621459961,31.312429428100586,80.22822570800781,3.8027928616822884,6.8174179087867195,150.5075584228842,-9.138722,-1.9483494,3.4013727,55.83327,-7.9138784,-8.444614,-22.134241,2.1917145,-2.878893,19.800232,-4.386763,8.95717,-5.862645,0.795314,2.3367615,9.982254,28.23244,-17.30887,-47.911537,-9.401425,4.995135,9.016766,44.055134,-20.264933,8.997562,5.2838736,14.059489,7.467103,-14.918696
180,-84.90068054199219,31.790021896362305,79.93964385986328,3.7938654313182987,6.6361240888702815,150.10140002333685,-10.01943,-1.5098921,3.6035867,60.333256,-9.431936,-8.420705,-21.48279,2.2670329,-3.6068387,19.628311,-4.503619,8.201519,-5.4273453,0.8441976,2.3856704,10.118471,28.24211,-17.387161,-48.43561,-9.632036,4.950599,8.959353,44.173138,-20.290007,8.925938,4.826929,14.404177,7.2975845,-14.478055
181,-85.62155151367188,32.252098083496094,79.58536529541016,3.7217628999798724,6.45878163915523,149.67705096564396,-10.920232,-0.8909974,3.8440835,64.90187,-10.925638,-8.270843,-21.05807,2.4495242,-4.2180743,20.12904,-4.8425717,6.958574,-4.9359865,0.9542599,2.4337225,10.232831,28.277353,-17.507952,-48.932243,-9.685128,4.9134693,8.907906,44.27616,-20.3791,8.9003525,4.2925935,14.739697,7.076254,-14.139319
182,-86.33252716064453,32.72816467285156,79.16983795166016,3.6023831840753915,6.284205532611809,149.23301230300456,-11.8488455,-0.114685684,4.1114173,69.62093,-12.490993,-7.996538,-20.856035,2.684844,-4.8087797,21.316088,-5.394041,5.288116,-4.434163,1.106184,2.483287,10.386983,28.345276,-17.606142,-49.44378,-9.589308,4.8864803,8.870774,44.307934,-20.564587,8.958027,3.7216897,15.061773,6.814489,-13.866373
183,-87.03765869140625,33.1859245300293,78.70360565185547,3.4241387695242937,6.112054042921948,148.78587756861097,-12.792989,0.76959026,4.28269,74.37006,-14.097966,-7.633921,-20.812027,2.9943223,-5.3489013,22.988579,-6.356623,3.3183405,-3.9376786,1.309953,2.5514112,10.560707,28.428045,-17.65447,-49.93199,-9.35485,4.8725486,8.806083,44.24131,-20.7987,9.072395,3.1294222,15.282764,6.568626,-13.660842
184,-87.71963500976562,33.6552848815918,78.18014526367188,3.171575394330042,5.945347412194146,148.34838956069,-13.749101,1.7049623,4.248805,79.02736,-15.712132,-7.2296405,-20.869925,3.4145393,-5.7874203,24.957167,-7.9411626,1.1738992,-3.4660473,1.5818244,2.649421,10.746574,28.523718,-17.626991,-50.370163,-8.9981165,4.8703256,8.689603,44.059196,-21.067839,9.220789,2.5169067,15.337834,6.3949122,-13.526328
185,-88.4088363647461,34.10401153564453,77.59693145751953,2.7981757356168684,5.761874132487726,147.91518463473454,-14.681644,2.7667058,4.019257,83.64818,-17.36643,-6.746559,-20.986181,4.0168943,-6.0404367,27.27723,-10.517141,-1.4028986,-3.0043888,1.965104,2.7800202,10.920834,28.633844,-17.538288,-50.76059,-8.467109,4.897491,8.514269,43.77467,-21.365454,9.406972,1.8904532,15.136038,6.3308706,-13.452147
186,-89.09043884277344,34.54488754272461,76.96542358398438,2.3396548568266864,5.56321373484719,147.48660146053817,-15.594072,3.9177856,3.6443539,88.264496,-19.064754,-6.186824,-21.19941,4.81564,-6.0898347,29.982832,-13.818172,-4.3994956,-2.5446236,2.424901,2.9348154,11.083461,28.760305,-17.405539,-51.108116,-7.771796,4.946862,8.294689,43.397068,-21.691328,9.634579,1.2436025,14.7331505,6.3381414,-13.4395
187,-89.71833801269531,34.98960876464844,76.32791900634766,1.8840311448118456,5.395963859069129,147.07617401031624,-16.566565,4.9473104,3.0899582,92.74386,-20.737694,-5.6668563,-21.581146,5.728948,-6.0177417,32.881927,-17.1632,-7.2655807,-2.1166174,2.8761613,3.1067822,11.272442,28.898542,-17.196095,-51.39012,-7.019311,4.9802785,8.035092,42.88565,-22.036282,9.891988,0.5725304,14.281864,6.3589115,-13.511917
188,-90.29425048828125,35.43528747558594,75.65493774414062,1.5099305059688708,5.311033660205827,146.69288104591985,-17.69048,5.6582,2.3284209,96.960815,-22.314697,-5.303711,-22.186672,6.5896473,-5.9642305,35.805927,-19.957575,-9.4184265,-1.746062,3.2423964,3.2889154,11.524223,29.041119,-16.877932,-51.586254,-6.3162737,4.960576,7.73928,42.198734,-22.387506,10.166847,-0.124472894,13.932679,6.3356795,-13.693719
189,-90.83407592773438,35.86221694946289,74.93984985351562,1.203882963780148,5.32006339975231,146.34914342718275,-19.029045,5.984323,1.2699351,101.00287,-23.797491,-5.148289,-23.165712,7.303325,-6.033258,39.004047,-22.134441,-10.62268,-1.4461509,3.5387933,3.5185444,11.771173,29.200413,-16.41301,-51.71365,-5.658087,4.839555,7.380171,41.309345,-22.732962,10.432981,-0.868916,13.762852,6.223952,-13.974474
190,-91.35086822509766,36.26732635498047,74.22066497802734,0.9206024402300083,5.403235121770259,146.03055660821968,-20.522903,6.0289507,-0.022849755,104.92298,-25.226269,-5.1517615,-24.444788,7.861871,-6.133983,42.575863,-24.076992,-11.261991,-1.1938236,3.8047805,3.7849867,12.023678,29.38199,-15.828512,-51.78052,-5.0014434,4.6476855,6.9690447,40.244736,-23.069616,10.700608,-1.6520975,13.674192,6.0636134,-14.345982
191,-91.8733901977539,36.6567268371582,73.55386352539062,0.6894773809102651,5.564598583133364,145.7058096909523,-22.093462,5.865353,-1.3417001,108.54445,-26.580772,-5.2578835,-25.750084,8.2339325,-6.158721,46.104446,-25.874811,-11.637434,-0.9595778,4.0022783,4.008151,12.416726,29.553175,-15.196328,-51.726337,-4.393005,4.4697003,6.5640326,39.044525,-23.398804,11.014486,-2.4299226,13.557966,5.9246793,-14.838187
192,-92.40306854248047,37.03843307495117,72.96714782714844,0.5452586742470658,5.804523283913821,145.34662666099845,-23.678532,5.581564,-2.4889367,111.68093,-27.824926,-5.392366,-26.800165,8.489013,-6.040377,49.0679,-27.567354,-11.955083,-0.7119739,4.093425,4.1052895,13.05712,29.655079,-14.601463,-51.461716,-3.8725843,4.393934,6.2132397,37.751366,-23.725475,11.418812,-3.1582234,13.307571,5.879732,-15.482352
193,-92.97344970703125,37.407196044921875,72.44762420654297,0.5267547049804991,6.215034952632336,144.90525893931945,-25.39886,5.1326423,-3.4270763,114.323975,-28.948267,-5.562352,-27.659937,8.702839,-5.7763715,51.33532,-29.1237,-12.133757,-0.39109987,4.032848,3.9691184,13.95174,29.622799,-14.065004,-50.83645,-3.5477955,4.2565274,5.778622,36.28122,-24.067833,11.982784,-3.713379,12.882929,5.981761,-16.464159
194,-93.57889556884766,37.790889739990234,71.9915771484375,0.5995583161063058,6.763721567801278,144.41007517370022,-27.262087,4.5101423,-4.2545285,116.56691,-29.948612,-5.7848167,-28.439274,8.877683,-5.447656,53.152897,-30.503271,-12.07209,-0.033970427,3.8739111,3.6649396,15.004889,29.43859,-13.56548,-49.87953,-3.348477,4.077389,5.2593384,34.653854,-24.430292,12.661203,-4.1654577,12.354249,6.1900873,-17.711523
195,-94.22229766845703,38.189334869384766,71.62042999267578,0.692975390868482,7.262638729724449,143.94784023744893,-29.053244,3.8714309,-5.0001707,118.36897,-30.7946,-5.9932013,-28.913538,9.022738,-5.1292567,54.514904,-31.71868,-11.897261,0.2640385,3.7197084,3.3700163,16.14921,29.129232,-13.144058,-48.76373,-3.0462523,4.2206845,4.9121227,33.073128,-24.791458,13.310662,-4.755626,11.771459,6.4347625,-18.864786
196,-94.89030456542969,38.608829498291016,71.35174560546875,0.7414234068665118,7.52330251292278,143.60486766405873,-30.55898,3.3740342,-5.7044287,119.68675,-31.454075,-6.121314,-28.860088,9.135809,-4.883741,55.42127,-32.779095,-11.745231,0.424284,3.66483,3.2619104,17.31008,28.748112,-12.854521,-47.671036,-2.4161987,5.0514517,5.002756,31.748049,-25.112658,13.779197,-5.716973,11.168932,6.636334,-19.56081
197,-95.57025146484375,39.070159912109375,71.18882751464844,0.7179650418907042,7.426975145737882,143.4382576575725,-31.669382,3.0588696,-6.4398246,120.48889,-31.879374,-6.1693864,-28.082296,9.207526,-4.759032,55.783195,-33.699856,-11.644056,0.3858136,3.7422714,3.4526584,18.512333,28.319492,-12.729633,-46.605747,-1.2897741,6.914339,5.6613154,30.745121,-25.350143,13.989036,-7.110227,10.4287615,6.7836227,-19.629486
198,-96.2724380493164,39.554176330566406,71.12422180175781,0.6626042062092664,7.095366153005177,143.39017052067348,-32.533035,2.850265,-7.1789927,120.80272,-32.0865,-6.1629953,-26.742601,9.255306,-4.7190285,55.626354,-34.470863,-11.54457,0.23680446,3.8833413,3.8257165,19.737818,27.850046,-12.778349,-45.463886,0.1400028,9.55597,6.6988993,29.958042,-25.494822,14.011481,-8.79305,9.550569,6.902244,-19.280878
199,-96.95365905761719,40.03731918334961,71.1349105834961,0.6138054979069374,6.700401477192103,143.37482609447426,-33.320217,2.7298062,-7.813494,120.67128,-32.144585,-6.0756803,-25.156054,9.302043,-4.6845136,55.121975,-35.059067,-11.458822,0.11063205,4.026264,4.2186136,20.877853,27.380568,-12.990196,-44.290848,1.5576588,12.437558,7.9295726,29.3275,-25.57674,13.925409,-10.693782,8.745237,6.9655333,-18.723763
200,-97.6657943725586,40.541996002197266,71.2296371459961,0.6097700309091334,6.415020949206455,143.30459125891028,-34.19493,2.6785486,-8.2300825,120.137146,-32.128563,-5.8839684,-23.636808,9.350736,-4.56537,54.446117,-35.434235,-11.377893,0.1337382,4.1102815,4.4716334,21.868385,26.969698,-13.328498,-43.180286,2.6651998,15.001309,9.228002,28.804043,-25.645613,13.814038,-12.765152,8.239564,6.957774,-18.169155
201,-98.36593627929688,41.05242919921875,71.38824462890625,0.6686130677169054,6.270709040148927,143.18048511351034,-35.204914,2.7103312,-8.368352,119.17569,-32.066975,-5.5584674,-22.208641,9.3696785,-4.339066,53.575165,-35.605186,-11.283719,0.3116945,4.116585,4.5561013,22.719963,26.673243,-13.841155,-42.217785,3.4881916,17.38971,10.849301,28.397224,-25.739809,13.682486,-15.099285,8.270096,6.861835,-17.64128
202,-99.07431030273438,41.5865364074707,71.5925064086914,0.7698662743823506,6.181295935393057,143.04029176851358,-36.24219,2.8289406,-8.278549,117.769356,-31.93478,-5.1253395,-20.72473,9.347724,-4.0396085,52.44603,-35.58889,-11.174974,0.5776831,4.0689178,4.5603867,23.507967,26.497562,-14.499038,-41.393322,4.0874276,19.802721,12.8299055,28.149494,-25.856258,13.497637,-17.72788,8.686019,6.695495,-17.04409
203,-99.77680206298828,42.1314582824707,71.84879302978516,0.8953311518221302,6.1436584714616975,142.85223469567086,-37.23037,3.0008943,-8.013171,115.979,-31.7325,-4.6461477,-19.245657,9.308808,-3.661256,51.182774,-35.35917,-11.051911,0.9438497,3.9713027,4.4993978,24.28602,26.413506,-15.134807,-40.663754,4.289556,21.7408,14.736336,28.044077,-25.97945,13.291604,-20.499842,9.12861,6.5019684,-16.408384
204,-100.503173828125,42.6870002746582,72.15824890136719,1.0252434396600136,6.155232145609991,142.58498340573612,-38.10285,3.198018,-7.631393,113.86557,-31.44941,-4.1737733,-17.830574,9.279116,-3.2017827,49.905144,-34.894665,-10.916571,1.4088087,3.8317432,4.387443,25.128094,26.37186,-15.567579,-39.99488,3.9958038,22.691475,16.10144,28.037836,-26.09023,13.113873,-23.246017,9.2328415,6.315316,-15.768823
205,-101.23258972167969,43.25831985473633,72.51182556152344,1.157575710037633,6.2393061065269135,142.21399458398355,-38.86663,3.4370532,-7.106295,111.408325,-31.086784,-3.6964436,-16.486822,9.275132,-2.6324189,48.577503,-34.18152,-10.771347,1.994628,3.636443,4.1964006,26.079504,26.341635,-15.715118,-39.385708,3.0594316,22.246538,16.73136,28.116741,-26.169365,12.989785,-25.9524,8.80554,6.145157,-15.134184
206,-101.95801544189453,43.83894348144531,72.89494323730469,1.3034677710971905,6.391661663113273,141.76341700038782,-39.52673,3.7247589,-6.4086027,108.58731,-30.663631,-3.2000642,-15.19216,9.271416,-1.9633567,47.16346,-33.2381,-10.608638,2.686522,3.386032,3.9218068,27.085367,26.317913,-15.689588,-38.828556,1.6541867,20.763395,16.83772,28.28334,-26.221313,12.901071,-28.671066,8.061609,5.964164,-14.488246
207,-102.70101165771484,44.431556701660156,73.3173828125,1.4605666847786616,6.567805249373866,141.27373842894747,-40.02291,4.0169315,-5.609511,105.45489,-30.198069,-2.735592,-13.961325,9.238805,-1.252407,45.783615,-32.089874,-10.42253,3.411851,3.1146545,3.6228068,28.111834,26.291449,-15.565999,-38.329273,0.16456048,18.887259,16.552555,28.507347,-26.280159,12.837716,-31.33567,7.2544603,5.749002,-13.8288355
208,-103.4454116821289,45.04329299926758,73.77452087402344,1.6264638043151654,6.722645939659566,140.7851692008329,-40.303963,4.2671328,-4.7866774,102.05814,-29.698101,-2.354752,-12.804323,9.152096,-0.55623305,44.553406,-30.76078,-10.210885,4.0863724,2.8514838,3.3522959,29.132828,26.254545,-15.408368,-37.889988,-1.0409442,17.258436,16.062748,28.710262,-26.363968,12.825927,-33.833485,6.6310954,5.48183,-13.160702
209,-104.19900512695312,45.655967712402344,74.25890350341797,1.7971062985402686,6.846607472374721,140.28450097573997,-40.35373,4.5020075,-3.9252357,98.37882,-29.143143,-2.051668,-11.702893,9.014153,0.14032395,43.46464,-29.206789,-9.966425,4.7394357,2.6042418,3.1164262,30.135038,26.208578,-15.216715,-37.510033,-1.9339758,15.938954,15.286955,28.894918,-26.453564,12.857863,-36.15021,6.250825,5.1547065,-12.458498
210,-104.95683288574219,46.26539993286133,74.75414276123047,1.9747518170995348,6.9639545049903155,139.75903285454186,-40.19482,4.7224717,-2.9929843,94.39564,-28.536087,-1.8116772,-10.661804,8.8385725,0.8572167,42.46996,-27.432829,-9.69507,5.3939066,2.3597386,2.890447,31.139593,26.150537,-14.958889,-37.19204,-2.711684,14.6346,14.182471,29.090508,-26.552387,12.930091,-38.34008,5.986976,4.781838,-11.730398
211,-105.71627807617188,46.86914825439453,75.25646209716797,2.1650947329465318,7.079575427070994,139.25022415704734,-39.849335,4.8458705,-2.0526094,90.143456,-27.91004,-1.6659402,-9.726227,8.617775,1.5412306,41.634068,-25.536716,-9.411039,5.9987526,2.1129112,2.6731033,32.103115,26.082077,-14.70309,-36.8857,-3.3252401,13.433567,13.040639,29.276918,-26.66539,13.037892,-40.382748,5.785996,4.3849463,-11.010859
212,-106.4856185913086,47.48575210571289,75.7691879272461,2.3730954740566923,7.197413133230889,138.79896776644833,-39.343704,4.7979426,-1.174384,85.64481,-27.293142,-1.6380166,-8.932652,8.346694,2.1393802,41.010323,-23.60968,-9.125375,6.5076566,1.8619682,2.4634817,32.974903,26.006939,-14.52195,-36.5353,-3.710838,12.415268,12.155278,29.440054,-26.795137,13.17143,-42.261406,5.593696,3.9847467,-10.333904
213,-107.24069213867188,48.100276947021484,76.26390838623047,2.606643922546537,7.32184920982245,138.41559668595107,-38.678772,4.570613,-0.36227226,80.8258,-26.694761,-1.728114,-8.2909,8.017024,2.6402285,40.60666,-21.621689,-8.859536,6.912387,1.6011552,2.2592387,33.743916,25.92892,-14.435833,-36.12863,-3.7609665,11.596513,11.611239,29.566788,-26.945753,13.326602,-43.969654,5.4128537,3.574296,-9.68386
214,-108.00300598144531,48.72085189819336,76.75019836425781,2.858776615918531,7.448886407778183,138.07734968769932,-37.840553,4.2050266,0.39883497,75.66866,-26.08664,-1.9171149,-7.7654653,7.6424794,3.0742307,40.373226,-19.529186,-8.591563,7.2404466,1.3376263,2.0636842,34.433872,25.849182,-14.40528,-35.69739,-3.5317402,10.925774,11.261927,29.669838,-27.117577,13.503656,-45.519768,5.269393,3.1485088,-9.049836
215,-108.77246856689453,49.33515930175781,77.20831298828125,3.1114717449842617,7.5694557203803,137.77620409174494,-36.851707,3.7121577,1.0555301,70.29519,-25.438988,-2.1880863,-7.335405,7.2532105,3.4497929,40.30708,-17.421772,-8.265925,7.498083,1.0870496,1.8843131,35.043987,25.768301,-14.411571,-35.241287,-3.1955278,10.378644,11.049161,29.77312,-27.303957,13.699272,-46.93565,5.1409745,2.7300916,-8.472165
216,-109.54519653320312,49.95637512207031,77.63713073730469,3.3427238693375503,7.674204779692028,137.50332154324988,-35.740974,3.1140945,1.5478064,64.82769,-24.728918,-2.5181,-6.9832864,6.8862233,3.7755904,40.411503,-15.393237,-7.830818,7.6952877,0.8685608,1.7275853,35.56983,25.687346,-14.438959,-34.75898,-2.925763,9.933551,10.91089,29.90034,-27.49479,13.906974,-48.233055,5.0019217,2.3416228,-7.9891925
217,-110.31430053710938,50.568641662597656,78.02664947509766,3.5542463614173223,7.763986936337906,137.26534929472453,-34.47591,2.3952956,1.8345449,59.117485,-23.909632,-2.869942,-6.6942506,6.5487185,4.056117,40.635925,-13.382595,-7.255106,7.830789,0.6803911,1.593533,36.00265,25.606037,-14.4974,-34.23742,-2.72786,9.605859,10.867576,30.046032,-27.684202,14.1305275,-49.411983,4.834303,1.9779158,-7.598082
218,-111.07290649414062,51.19298553466797,78.37640380859375,3.7483793241053904,7.839801256942672,137.06024272708683,-33.04384,1.592172,1.9224222,53.11093,-22.988825,-3.233595,-6.4640923,6.2417173,4.2956767,40.97267,-11.360502,-6.5576997,7.9058776,0.5203918,1.4800377,36.348858,25.52566,-14.588378,-33.683605,-2.5192914,9.401323,10.93813,30.198208,-27.870693,14.372385,-50.46545,4.650781,1.632582,-7.2798476
219,-111.82789611816406,51.83418273925781,78.67774963378906,3.9075908161230526,7.892630127031351,136.86558296149406,-31.498888,0.7980607,1.8390845,47.06503,-22.017885,-3.6374788,-6.2949615,5.991716,4.504112,41.492874,-9.47304,-5.7730184,7.9356217,0.402181,1.3914033,36.625336,25.4525,-14.684273,-33.126633,-2.3439593,9.284663,11.05623,30.365625,-28.052923,14.6185,-51.38578,4.472079,1.3239391,-7.0464516
220,-112.57622528076172,52.48595428466797,78.92721557617188,4.014374454926387,7.913195072313222,136.65922338835645,-29.900486,0.08671833,1.6296521,41.249935,-21.042988,-4.1322303,-6.1964393,5.820551,4.6825895,42.276497,-7.866284,-4.9496074,7.9354277,0.339807,1.3321469,36.851425,25.395742,-14.757058,-32.597897,-2.248698,9.219488,11.156899,30.561506,-28.228443,14.8553295,-52.17423,4.3195286,1.0726535,-6.91092
221,-113.31101989746094,53.130252838134766,79.10797882080078,4.0405206556330135,7.891434514378922,136.42995031400818,-28.16463,-0.54455984,1.2362828,35.46942,-20.004313,-4.852251,-6.178052,5.759528,4.8195167,43.35362,-6.5411973,-4.1321993,7.923234,0.3597536,1.3063616,37.028755,25.36139,-14.809697,-32.096596,-2.2608056,9.218964,11.244529,30.80546,-28.397009,15.089562,-52.84323,4.179747,0.89244235,-6.904874
222,-114.04792022705078,53.77954864501953,79.22260284423828,3.966339117331397,7.825818973378227,136.18027767222145,-26.253643,-1.0734948,0.6448304,29.586208,-18.860844,-5.7380166,-6.225371,5.82973,4.904282,44.67481,-5.425419,-3.3024426,7.9001293,0.48308644,1.316152,37.153706,25.351246,-14.855332,-31.616346,-2.3537052,9.294697,11.34848,31.092794,-28.560003,15.318566,-53.39653,4.0463486,0.77122146,-7.0099535
223,-114.79254913330078,54.429290771484375,79.2631607055664,3.7974666667306436,7.722951555179221,135.91314150253473,-24.336267,-1.4339861,-0.0013857884,24.03846,-17.718962,-6.580266,-6.3256335,6.0203004,4.931833,46.22203,-4.5632405,-2.4239314,7.851227,0.7082472,1.3611566,37.239048,25.367722,-14.882791,-31.18993,-2.4928656,9.40847,11.442163,31.399736,-28.714666,15.517598,-53.81988,3.9524143,0.6890266,-7.1656065
224,-115.52801513671875,55.078460693359375,79.23358917236328,3.5761325785046196,7.60022477036372,135.64459540581007,-22.642305,-1.6335288,-0.52945143,19.37422,-16.730473,-7.181544,-6.4870696,6.274926,4.899999,48.005253,-4.015935,-1.4535593,7.749399,0.99136037,1.4344431,37.293507,25.414764,-14.878205,-30.844385,-2.6436563,9.521888,11.498509,31.698893,-28.855106,15.665313,-54.09487,3.9280906,0.6255624,-7.310933
225,-116.24759674072266,55.71371841430664,79.13275146484375,3.3352090020099787,7.481423812836596,135.39094878938997,-21.266169,-1.7086817,-0.8366922,15.755543,-16.078814,-7.466252,-6.7395716,6.5591903,4.808777,50.049416,-3.8355436,-0.2604887,7.575609,1.2890352,1.5086857,37.316795,25.489529,-14.835438,-30.568043,-2.8068144,9.633011,11.509544,31.962646,-28.96878,15.775588,-54.178375,3.9804475,0.5725808,-7.453045
226,-116.95245361328125,56.32905197143555,78.95968627929688,3.1026917473484468,7.366778006115667,135.15957153278194,-20.132032,-1.7476406,-0.9924065,12.953775,-15.668853,-7.5701466,-7.117312,6.8272915,4.6467595,52.41537,-4.0147967,1.084785,7.327447,1.5747635,1.5848927,37.29498,25.58647,-14.761322,-30.33721,-2.9945676,9.75939,11.488131,32.196888,-29.054113,15.863513,-54.07404,4.0913076,0.541536,-7.615529
227,-117.63607025146484,56.9336051940918,78.7232666015625,2.9689072822201683,7.252518226781553,134.96729348154912,-19.295174,-1.895279,-1.0784813,11.077402,-15.29809,-7.580154,-7.6542587,6.9415307,4.409057,55.192165,-4.5398297,2.3355856,6.9920216,1.7636288,1.6917305,37.244442,25.74714,-14.65101,-30.19663,-3.2123947,9.889992,11.449252,32.43033,-29.129444,15.911164,-53.84814,4.2643995,0.5378343,-7.775692
228,-118.31503295898438,57.53614807128906,78.41741943359375,3.0126435358858026,7.130547119870833,134.82674795044423,-18.84029,-2.2661312,-1.1893278,10.310198,-14.803312,-7.560481,-8.357287,6.7780237,4.1054454,58.42736,-5.378374,3.249226,6.556095,1.8004832,1.846997,37.059605,25.879044,-14.538343,-30.039963,-3.386699,10.019021,11.36973,32.627857,-29.14943,15.906352,-53.477394,4.4725614,0.57737815,-7.8589277
229,-118.97502899169922,58.13752365112305,78.04906463623047,3.305891396347414,6.9990875079531065,134.743585518903,-18.836933,-2.9690876,-1.3846183,10.841075,-13.922601,-7.5650163,-9.235224,6.1913824,3.7035816,62.24825,-6.616341,3.6968637,6.040953,1.580509,2.06215,36.86769,26.164673,-14.39506,-30.055178,-3.6254463,10.151751,11.2848015,32.862522,-29.125017,15.820944,-53.03793,4.774316,0.6598056,-7.852267
230,-119.63478088378906,58.693355560302734,77.6556396484375,3.803366306730856,6.8600881857741225,134.70881480816183,-19.219387,-3.9327633,-1.5835788,12.498798,-12.800901,-7.552212,-10.24974,5.2398143,3.2582498,66.55915,-8.22901,3.8184166,5.4480925,1.1597843,2.311556,36.586224,26.499207,-14.249228,-30.120266,-3.8741987,10.292294,11.171502,33.086308,-29.030987,15.671644,-52.457222,5.1435437,0.7851384,-7.76127
231,-120.28414916992188,59.23530578613281,77.20875549316406,4.391093084560291,6.711383125299059,134.70749178936876,-19.901764,-4.9735837,-1.6697775,14.994598,-11.918204,-7.4393005,-11.338452,4.15162,2.9036438,71.08099,-10.016961,3.785078,4.8002033,0.6414277,2.600156,36.217148,26.890928,-14.091164,-30.220205,-4.1008267,10.419097,11.05261,33.295414,-28.870077,15.471409,-51.753265,5.507156,0.9390734,-7.6693654
232,-120.9253921508789,59.792320251464844,76.66627502441406,4.946214039797353,6.553068536055209,134.72655021309782,-20.848715,-5.884993,-1.5452114,18.163433,-11.820049,-7.110507,-12.454575,3.1905618,2.7367587,75.55408,-11.784649,3.780422,4.123005,0.14032762,2.9335628,35.75052,27.344128,-13.920376,-30.327196,-4.271083,10.510012,10.951568,33.48997,-28.6464,15.225297,-50.948917,5.7948165,1.1063503,-7.6584115
233,-121.5448226928711,60.32634353637695,76.05828857421875,5.420919914186757,6.332078810800267,134.75458859425524,-22.210089,-6.564921,-1.1433189,22.487724,-12.822114,-6.435077,-13.541066,2.475507,2.7693994,80.04848,-13.55841,3.8374903,3.4209192,-0.29384091,3.371085,35.22105,27.861324,-13.710042,-30.504913,-4.350312,10.5420475,10.823675,33.67769,-28.364792,14.908851,-50.10256,5.9918003,1.2994576,-7.7400646
234,-122.14288330078125,60.81830978393555,75.40853118896484,5.79375421016284,6.04912743993589,134.7792580156822,-23.888056,-7.02259,-0.5733318,27.806923,-14.540974,-5.512331,-14.600734,1.9722196,2.9044416,84.63386,-15.406824,3.8567162,2.704529,-0.63796234,3.9065473,34.630157,28.443409,-13.471958,-30.759874,-4.3687615,10.532678,10.674954,33.870937,-28.029604,14.516498,-49.204834,6.1371474,1.5224987,-7.873915
235,-122.7044906616211,61.302040100097656,74.69799041748047,6.069004894303172,5.805422287221552,134.80890436855103,-25.566935,-7.313041,0.005989907,33.137085,-16.541227,-4.5312233,-15.72653,1.632726,3.0810716,89.10169,-17.216204,3.844522,1.984858,-0.9020569,4.4317203,33.906635,29.088015,-13.266436,-30.961977,-4.3871,10.520055,10.604169,34.06442,-27.639061,14.094047,-48.15793,6.239634,1.7412127,-8.065436
236,-123.22650146484375,61.81932830810547,73.94950103759766,6.322885185065418,5.7159863511279,134.87023590713008,-27.015781,-7.581056,0.48489138,37.62275,-18.448313,-3.6762428,-17.043514,1.3336891,3.2778735,93.26325,-18.880867,3.8211815,1.2563516,-1.1631362,4.8212924,32.968876,29.791119,-13.1582,-30.96699,-4.4642577,10.541737,10.709122,34.24303,-27.18537,13.694785,-46.84998,6.3056574,1.9220628,-8.319105
237,-123.72480773925781,62.348018646240234,73.22420501708984,6.608443711592607,5.843062036603784,135.0415793757367,-28.337267,-7.927569,0.83766335,41.26879,-20.353947,-2.9453177,-18.647652,1.0089542,3.4741752,97.17367,-20.401417,3.8101892,0.44834593,-1.4765823,5.038688,31.741154,30.57083,-13.144965,-30.728207,-4.7781916,10.500419,11.0412655,34.398434,-26.65155,13.31735,-45.238018,6.4073033,1.964723,-8.597012
238,-124.18643188476562,62.88469314575195,72.57920837402344,6.919895504790586,6.124159444655115,135.2982952320518,-29.654203,-8.312622,1.1348544,44.54095,-22.434595,-2.2489886,-20.471455,0.70387775,3.707789,100.925804,-21.835989,3.8177307,-0.41480362,-1.8337059,5.137407,30.27098,31.43164,-13.217555,-30.321363,-5.2466683,10.407721,11.5435505,34.535572,-26.029156,12.935943,-43.37662,6.5140204,1.9165894,-8.904962
239,-124.6763687133789,63.402706146240234,72.01216125488281,7.247268476683565,6.488914748580741,135.51606721056856,-30.80005,-8.680047,1.4411463,47.33892,-24.473188,-1.6404287,-22.410467,0.44986516,4.0459104,104.37931,-23.149445,3.8249352,-1.2088448,-2.2222366,5.126449,28.658772,32.33204,-13.424227,-29.787485,-5.533128,10.469452,12.149052,34.653217,-25.333336,12.569105,-41.28966,6.478668,1.967297,-9.312841
240,-125.18539428710938,63.90117263793945,71.50289154052734,7.575942578813647,6.86687347647641,135.56895873459655,-31.600227,-8.965701,1.8210812,49.547047,-26.246696,-1.1723869,-24.366655,0.2829376,4.552577,107.38436,-24.2961,3.8107617,-1.8254743,-2.6194162,5.0204268,27.003748,33.199493,-13.801264,-29.150816,-5.293576,10.900931,12.783189,34.74582,-24.598398,12.246238,-39.000298,6.159089,2.3096774,-9.894741
241,-125.71287536621094,64.4161148071289,71.06380462646484,7.969215282468446,7.318809807191638,135.42510221136033,-32.05714,-9.197846,2.349644,51.05897,-27.701944,-0.8766504,-26.447605,0.19572234,5.36743,109.98302,-25.231983,3.8038611,-2.2644668,-3.051381,4.736863,25.22233,33.98284,-14.433637,-28.230556,-4.399201,11.922049,13.504404,34.7931,-23.855448,11.985795,-36.399643,5.4726753,3.0450125,-10.7280855
