unveil-humanoid-operators/unveil-humanoid-operators.github.io/feature-analysis-animation/data/feature_matrix_instances/age_ankle_rom_walking_A238_walk_ff_loop_360_R_003__A238.csv
Frame,root_translateX,root_translateY,root_translateZ,root_rotateX,root_rotateY,root_rotateZ,left_hip_pitch_joint_dof,left_hip_roll_joint_dof,left_hip_yaw_joint_dof,left_knee_joint_dof,left_ankle_pitch_joint_dof,left_ankle_roll_joint_dof,right_hip_pitch_joint_dof,right_hip_roll_joint_dof,right_hip_yaw_joint_dof,right_knee_joint_dof,right_ankle_pitch_joint_dof,right_ankle_roll_joint_dof,waist_yaw_joint_dof,waist_roll_joint_dof,waist_pitch_joint_dof,left_shoulder_pitch_joint_dof,left_shoulder_roll_joint_dof,left_shoulder_yaw_joint_dof,left_elbow_joint_dof,left_wrist_roll_joint_dof,left_wrist_pitch_joint_dof,left_wrist_yaw_joint_dof,right_shoulder_pitch_joint_dof,right_shoulder_roll_joint_dof,right_shoulder_yaw_joint_dof,right_elbow_joint_dof,right_wrist_roll_joint_dof,right_wrist_pitch_joint_dof,right_wrist_yaw_joint_dof
0,-0.23449794948101044,2.45632004737854,78.19315338134766,0.26709717888220597,-4.696680986310874,-85.82517370450017,9.585494,-0.19081439,22.328594,6.847108,-10.889419,1.2189947,-16.099113,-23.729805,-32.221287,56.95075,-22.306211,-0.51519734,-8.287766,-5.5986443,11.778757,-4.070824,19.32401,-41.085037,65.15889,19.244562,-5.2747254,-7.677303,3.4934864,-10.357843,20.39126,60.77674,-18.696877,-2.2385392,7.0884657
1,-0.2078685611486435,2.8179502487182617,78.22887420654297,0.2512697541011015,-4.739797248109177,-85.89612853955452,9.324771,-0.20664038,22.40753,6.8424587,-10.6475315,1.3717744,-15.836402,-24.233158,-31.913483,59.706333,-23.216623,-1.1371363,-8.442967,-5.6388764,11.591006,-3.9133003,19.361107,-41.140526,65.23287,19.35473,-5.312829,-7.869865,3.7065182,-10.3618,20.371183,60.928192,-18.698683,-2.3386621,7.2333407
2,-0.17676877975463867,3.1849822998046875,78.25496673583984,0.2318877403705155,-4.783365994807322,-85.96243515766321,9.06337,-0.21517076,22.482462,6.83857,-10.403169,1.5225221,-15.572677,-24.72926,-31.596893,62.476906,-24.133673,-1.7607118,-8.592345,-5.6747665,11.409502,-3.7527957,19.417915,-41.221004,65.288086,19.456715,-5.3484125,-8.081899,3.9434574,-10.372058,20.334011,61.039608,-18.702251,-2.4382727,7.403736
3,-0.1604977250099182,3.551227569580078,78.27618408203125,0.2215176766396365,-4.8257400317742425,-86.03668472593357,8.80383,-0.23135188,22.56583,6.832455,-10.160673,1.6731678,-15.283886,-25.205975,-31.266655,65.16983,-25.03593,-2.3752348,-8.720644,-5.718335,11.239307,-3.5640018,19.527727,-41.295033,65.26375,19.544722,-5.386169,-8.26891,4.1870084,-10.394821,20.291805,61.15169,-18.704702,-2.5416727,7.538008
4,-0.13372021913528442,3.909754753112793,78.28985595703125,0.23602307430164773,-4.865699649686822,-86.13203932005167,8.547477,-0.27045754,22.67107,6.8270555,-9.929406,1.8260756,-14.945987,-25.65034,-30.919739,67.68965,-25.899216,-2.969394,-8.827177,-5.7761054,11.066316,-3.3606324,19.638292,-41.315464,65.2011,19.630018,-5.4301085,-8.374074,4.4031305,-10.420064,20.281586,61.34147,-18.698736,-2.6477735,7.56303
5,-0.11826300621032715,4.266567230224609,78.298095703125,0.2801287029520793,-4.898275232825342,-86.2483715939083,8.291278,-0.33858886,22.801022,6.818349,-9.712444,1.983986,-14.547805,-26.082262,-30.589417,70.04198,-26.751205,-3.5856655,-8.902572,-5.851757,10.885662,-3.1443667,19.753164,-41.29493,65.09082,19.712381,-5.4785175,-8.372148,4.5997305,-10.451826,20.304964,61.61068,-18.69411,-2.7744615,7.4454217
6,-0.10075115412473679,4.62598991394043,78.29635620117188,0.34443096933313594,-4.925585121459375,-86.38000913544236,8.034083,-0.42700797,22.949106,6.810027,-9.507415,2.1455555,-14.104137,-26.500895,-30.267984,72.27048,-27.593075,-4.2146044,-8.9545765,-5.939338,10.69837,-2.9244921,19.862482,-41.245846,64.95738,19.793484,-5.530359,-8.292238,4.781382,-10.488788,20.351877,61.939835,-18.69049,-2.9148192,7.224948
7,-0.08296629041433334,4.982953071594238,78.29381561279297,0.42655118212112414,-4.957526037017189,-86.53227398342396,7.7865124,-0.5307376,23.114853,6.799978,-9.30515,2.306973,-13.632084,-26.863016,-29.895353,74.33952,-28.360107,-4.766627,-8.979979,-6.0319033,10.520279,-2.6959414,19.973946,-41.157288,64.79429,19.861511,-5.588778,-8.170715,4.946887,-10.531342,20.402544,62.31632,-18.671494,-3.034944,6.9516835
8,-0.06409705430269241,5.335531711578369,78.28784942626953,0.5201773571975619,-5.003240712272035,-86.71043483924362,7.558333,-0.6446858,23.297415,6.788429,-9.098778,2.464333,-13.149986,-27.124743,-29.413853,76.21284,-28.98517,-5.1484957,-8.971787,-6.1233582,10.363569,-2.4666045,20.079779,-41.0234,64.61878,19.906376,-5.657433,-8.042263,5.0904665,-10.573967,20.434847,62.739464,-18.62084,-3.1008136,6.673271
9,-0.0465238131582737,5.686936855316162,78.27764892578125,0.632191934278547,-5.066722052751146,-86.91907325345404,7.353943,-0.7743715,23.496908,6.7751317,-8.88562,2.6165016,-12.658546,-27.284897,-28.811766,77.89691,-29.46871,-5.3459787,-8.924845,-6.217687,10.230632,-2.235025,20.178402,-40.836956,64.429665,19.940145,-5.745128,-7.90829,5.213251,-10.613927,20.440722,63.21807,-18.516018,-3.1052945,6.372755
10,-0.03412871062755585,6.043612003326416,78.26345825195312,0.7611313874206469,-5.141990352749358,-87.15470727269148,7.168139,-0.9214055,23.713842,6.7593226,-8.66975,2.7661388,-12.149206,-27.363646,-28.126019,79.408806,-29.839449,-5.4025216,-8.841898,-6.317512,10.114618,-2.0017214,20.269312,-40.60467,64.22686,19.96433,-5.8474183,-7.7522593,5.3139267,-10.651604,20.43103,63.75866,-18.37195,-3.0690222,6.0325294
11,-0.019921232014894485,6.398019790649414,78.24445343017578,0.8978402632501891,-5.22453660919075,-87.41050491096154,6.9934435,-1.0720686,23.947725,6.7447324,-8.455379,2.9151855,-11.627009,-27.35038,-27.374384,80.72984,-30.075008,-5.3126936,-8.730989,-6.41299,10.014561,-1.7737589,20.351776,-40.342274,64.021904,19.948298,-5.9480953,-7.582323,5.393336,-10.687326,20.41316,64.333374,-18.229748,-2.9902565,5.7035017
12,0.002975806361064315,6.753951072692871,78.2223129272461,1.032759884944621,-5.309882152060123,-87.67963180018083,6.823993,-1.2140175,24.198544,6.7287583,-8.241496,3.0655737,-11.096928,-27.233744,-26.57373,81.83881,-30.151735,-5.0708823,-8.58808,-6.4945173,9.926315,-1.577148,20.407686,-40.080772,63.85314,19.86074,-6.030401,-7.4041843,5.449567,-10.715792,20.382357,64.93197,-18.133638,-2.8717175,5.4325337
13,0.021145056933164597,7.112064838409424,78.20005798339844,1.1653441832709042,-5.400873199362408,-87.9682637811285,6.663726,-1.3456024,24.473877,6.714054,-8.033465,3.2179637,-10.56422,-27.00119,-25.703945,82.73921,-30.053213,-4.6849313,-8.436736,-6.561654,9.8595915,-1.371488,20.469288,-39.781166,63.664646,19.68046,-6.091745,-7.2160516,5.474216,-10.75232,20.357224,65.547134,-18.097006,-2.7011406,5.2352896
14,0.03269558399915695,7.465278148651123,78.17574310302734,1.3012437766433247,-5.498362740770867,-88.27780256410615,6.515397,-1.4738997,24.771387,6.6982503,-7.828754,3.3717203,-10.021139,-26.65949,-24.76728,83.44103,-29.797836,-4.1522017,-8.243127,-6.6182456,9.808757,-1.194838,20.509535,-39.482838,63.50157,19.419933,-6.139476,-7.0122447,5.4803042,-10.781992,20.30435,66.19355,-18.103333,-2.4819942,5.0825596
15,0.05597894266247749,7.818657875061035,78.15557861328125,1.435268549882852,-5.5942435178403995,-88.59418248548718,6.364126,-1.5957814,25.075827,6.683252,-7.6206517,3.525791,-9.453862,-26.227303,-23.813244,83.93217,-29.425392,-3.4539828,-8.040622,-6.6630445,9.769603,-1.0185194,20.547058,-39.153126,63.334476,19.13257,-6.179343,-6.812611,5.46195,-10.817972,20.2735,66.845535,-18.11564,-2.235878,4.972053
16,0.07017989456653595,8.185112953186035,78.1338119506836,1.5660479233805722,-5.680556276396105,-88.90334387893543,6.197909,-1.709675,25.372953,6.6685963,-7.4025793,3.6812425,-8.849638,-25.725468,-22.888464,84.19906,-28.975235,-2.5732102,-7.8256173,-6.694652,9.733631,-0.85881245,20.576578,-38.817192,63.18462,18.855022,-6.2156334,-6.6318407,5.432453,-10.857909,20.273512,67.47758,-18.107944,-1.9848151,4.898527
17,0.08993435651063919,8.54839038848877,78.11251831054688,1.691580660152721,-5.7583392572472905,-89.20573618954171,6.01542,-1.8140409,25.661457,6.656287,-7.173591,3.8378289,-8.2003145,-25.154346,-21.991781,84.233345,-28.437683,-1.4659363,-7.578022,-6.711612,9.701985,-0.7391362,20.589539,-38.50859,63.077785,18.572388,-6.2500052,-6.4670253,5.3935614,-10.891598,20.285782,68.10681,-18.065624,-1.7170427,4.847529
18,0.10828118771314621,8.913283348083496,78.0931625366211,1.8138446892972129,-5.830828026738654,-89.50780701916484,5.82463,-1.9115148,25.948729,6.6434207,-6.9368005,3.9960387,-7.5122848,-24.5039,-21.096687,84.04446,-27.810587,-0.156675,-7.3313837,-6.713038,9.67832,-0.62133056,20.594234,-38.166264,62.976944,18.285706,-6.2809963,-6.3140564,5.327757,-10.934281,20.339552,68.74154,-17.99925,-1.4284592,4.8273997
19,0.11497446149587631,9.277815818786621,78.07130432128906,1.933070685507434,-5.893384623939513,-89.80290457993803,5.617465,-2.0008576,26.23175,6.633585,-6.693061,4.15452,-6.7952394,-23.782133,-20.212818,83.647255,-27.143278,1.2657934,-7.066991,-6.7050533,9.65352,-0.52545696,20.588684,-37.82081,62.89647,18.010044,-6.3042774,-6.1785297,5.2558546,-10.978787,20.414112,69.34339,-17.944551,-1.1472529,4.8592257
20,0.12237787991762161,9.652850151062012,78.05152130126953,2.0508719422810238,-5.941526050989129,-90.08459996742516,5.3903823,-2.0836287,26.507318,6.6234307,-6.441218,4.3118796,-6.059097,-23.000074,-19.350075,83.05609,-26.480682,2.7116096,-6.812173,-6.6902843,9.619142,-0.43217462,20.572723,-37.4337,62.821255,17.783478,-6.3171897,-6.068503,5.1760807,-11.032517,20.53733,69.88355,-17.926174,-0.9052871,4.9659433
21,0.12725846469402313,10.023786544799805,78.03226470947266,2.1668699502249376,-5.976363546084819,-90.35364197370238,5.143833,-2.1595023,26.776102,6.6140504,-6.181254,4.4671483,-5.301727,-22.150288,-18.490065,82.265976,-25.843319,4.1867814,-6.554776,-6.670411,9.575565,-0.34947672,20.546612,-37.008446,62.756805,17.622532,-6.3162475,-5.997969,5.0943446,-11.091787,20.696348,70.36445,-17.965479,-0.70756805,5.168297
22,0.12414507567882538,10.396597862243652,78.0101547241211,2.2833454119247554,-5.999684725158661,-90.6121766579665,4.8795457,-2.2288866,27.03862,6.6056876,-5.913062,4.6212873,-4.5152655,-21.238382,-17.62847,81.27312,-25.212587,5.721399,-6.280361,-6.6467032,9.527183,-0.28687388,20.514376,-36.56995,62.70764,17.50153,-6.303108,-5.9589643,5.0103517,-11.148034,20.8744,70.8005,-18.048193,-0.53936124,5.448434
23,0.12510675191879272,10.776460647583008,77.9873046875,2.3961135999469954,-6.008419540697632,-90.8550911551497,4.5933447,-2.2909153,27.29201,6.59694,-5.635213,4.7750473,-3.7046125,-20.294535,-16.794495,80.09246,-24.56751,7.262602,-6.04281,-6.612641,9.467418,-0.21180072,20.463875,-36.073326,62.6591,17.408768,-6.283865,-5.924836,4.9062967,-11.227011,21.129934,71.17605,-18.132603,-0.40049598,5.77471
24,0.11174237728118896,11.168157577514648,77.96703338623047,2.5046036541807024,-5.999244018069771,-91.0773748185577,4.2783875,-2.3442466,27.53326,6.5908914,-5.3476,4.929132,-2.8768709,-19.347889,-16.016087,78.73646,-23.882414,8.7594,-5.790845,-6.5738697,9.398488,-0.1654773,20.406206,-35.618965,62.627956,17.284174,-6.260856,-5.8686213,4.809416,-11.309727,21.400059,71.46235,-18.210445,-0.29286513,6.110329
25,0.09598863124847412,11.554356575012207,77.94998931884766,2.6062319960328835,-5.971237968848281,-91.27759544766207,3.9343925,-2.3867493,27.763979,6.5845294,-5.047058,5.083159,-2.0365808,-18.378798,-15.26848,77.19353,-23.163862,10.250057,-5.5283837,-6.533735,9.317011,-0.14389215,20.347475,-35.201885,62.615414,17.112217,-6.230602,-5.7853637,4.714159,-11.389501,21.702415,71.65607,-18.283989,-0.21002202,6.476594
26,0.08418431133031845,11.944272994995117,77.93074798583984,2.7027394573965364,-5.92615645814369,-91.45786175838155,3.556137,-2.4158409,27.984564,6.5957394,-4.7433476,5.2362366,-1.1781012,-17.387274,-14.537295,75.4597,-22.421953,11.738947,-5.275457,-6.4888334,9.223152,-0.13167076,20.280521,-34.782276,62.61436,16.923283,-6.1933603,-5.688423,4.6111183,-11.479396,22.058548,71.769455,-18.354488,-0.15339942,6.883084
27,0.06295893341302872,12.344978332519531,77.90318298339844,2.7976051326314897,-5.86509060009687,-91.61925317842861,3.1309342,-2.4283874,28.191381,6.656818,-4.4559784,5.3882666,-0.3030906,-16.428047,-13.86375,73.564354,-21.62521,13.130383,-5.026189,-6.441529,9.122246,-0.12934132,20.20999,-34.374584,62.60946,16.737091,-6.1571236,-5.580609,4.5012336,-11.573857,22.428589,71.81666,-18.415236,-0.13522536,7.271327
28,0.03787015751004219,12.75358772277832,77.87637329101562,2.8925533996323427,-5.788900085299497,-91.76224613803387,2.684347,-2.443527,28.379055,6.7090573,-4.157196,5.5406137,0.5823905,-15.552239,-13.290204,71.53783,-20.735592,14.333134,-4.7900977,-6.3930426,9.017634,-0.12716818,20.136105,-33.972416,62.582733,16.58023,-6.1300974,-5.464411,4.378319,-11.674248,22.79038,71.81563,-18.454386,-0.16699599,7.5829945
29,0.0049963961355388165,13.173873901367188,77.85047149658203,2.9412373766738873,-5.673434253852111,-91.92774757972718,2.104706,-2.3347843,28.578644,6.969053,-3.954597,5.671385,1.4429581,-14.731134,-12.912451,69.35535,-19.672447,15.000033,-4.5150986,-6.3028398,8.892582,-0.12937234,20.069141,-33.587734,62.532394,16.460636,-6.1109004,-5.3408713,4.2425675,-11.767802,23.136372,71.77051,-18.470863,-0.27330694,7.805009
30,-0.04349473863840103,13.592012405395508,77.8294677734375,2.951661539341018,-5.524154089741068,-92.10022172759896,1.4164788,-2.1223173,28.776085,7.3887334,-3.8203201,5.7836013,2.289572,-13.948368,-12.737742,67.00575,-18.462688,15.000033,-4.234206,-6.176789,8.748411,-0.12628861,20.001387,-33.195427,62.46069,16.371836,-6.0969296,-5.2086205,4.0909295,-11.86666,23.499088,71.671036,-18.463778,-0.440092,7.9690785
31,-0.10141274333000183,14.020225524902344,77.80509185791016,2.9799648457671943,-5.371265785050917,-92.233677090773,0.748267,-1.9609634,28.939493,7.720791,-3.6320724,5.9065275,3.1512654,-13.227144,-12.579792,64.531006,-17.213741,15.000033,-3.9787784,-6.0712705,8.610501,-0.1290579,19.937632,-32.82535,62.367992,16.286425,-6.091716,-5.067729,3.9262726,-11.96409,23.83988,71.52429,-18.445282,-0.6220783,8.076084
32,-0.14863203465938568,14.450660705566406,77.76964569091797,3.041099450583084,-5.2218113621726285,-92.32811603649296,0.1262406,-1.8808024,29.075464,7.917414,-3.3638792,6.0466285,4.025168,-12.566617,-12.386376,61.961308,-16.015038,15.000033,-3.7500122,-5.9994583,8.488729,-0.14066607,19.879961,-32.48765,62.25267,16.186283,-6.099714,-4.917499,3.7431543,-12.056866,24.136232,71.3416,-18.42118,-0.7737018,8.126566
33,-0.19609779119491577,14.88983154296875,77.72652435302734,3.134693286802508,-5.077246057907344,-92.38288600640695,-0.44563034,-1.8826118,29.184471,7.973079,-3.014008,6.206515,4.8987346,-11.962006,-12.151965,59.27862,-14.6972275,15.000033,-3.5412035,-5.9610763,8.382946,-0.16639116,19.833408,-32.1988,62.116722,16.058702,-6.123996,-4.751512,3.5446439,-12.136217,24.379194,71.1213,-18.398365,-0.88993055,8.111574
34,-0.24011780321598053,15.333436012268066,77.68602752685547,3.252625847600386,-4.933775128874118,-92.40465248974647,-0.97871834,-1.9519738,29.271376,7.9086766,-2.5945673,6.381659,5.770286,-11.422127,-11.914584,56.489697,-13.27982,15.000033,-3.3434465,-5.9521556,8.28906,-0.20530757,19.799927,-31.955093,61.961124,15.913915,-6.161207,-4.5723276,3.329702,-12.198356,24.575851,70.8655,-18.375032,-0.99284434,8.031995
35,-0.28194332122802734,15.783331871032715,77.63341522216797,3.4042475980789555,-4.791150585032296,-92.4038933093537,-1.4730589,-2.0955088,29.350803,7.722923,-2.103311,6.5683265,6.654981,-10.970899,-11.694671,53.658245,-12.135834,15.000033,-3.1689875,-5.9767094,8.211799,-0.24074231,19.771612,-31.715712,61.776455,15.774711,-6.207159,-4.393381,3.0863185,-12.25822,24.746109,70.58462,-18.337547,-1.0769002,7.9055524
36,-0.32572314143180847,16.250194549560547,77.56167602539062,3.600271705607826,-4.649540488963176,-92.39057197415764,-1.9291955,-2.3189466,29.436426,7.415833,-1.5387024,6.762605,7.5689974,-10.63442,-11.519546,50.84428,-11.633701,15.000033,-2.9993663,-6.0456805,8.1585655,-0.27833354,19.749832,-31.482428,61.56492,15.650248,-6.257666,-4.2271795,2.8151197,-12.313111,24.870138,70.28732,-18.28549,-1.1373025,7.747945
37,-0.38446518778800964,16.725154876708984,77.48253631591797,3.8335737957654907,-4.493678011622347,-92.38309642611873,-2.3910708,-2.5883603,29.550108,7.062383,-0.9381342,6.9592514,8.530488,-10.394158,-11.430066,47.96187,-11.961315,14.617977,-2.8104017,-6.1580486,8.110355,-0.3169153,19.7379,-31.268353,61.322342,15.537441,-6.3076773,-4.074737,2.5219479,-12.354895,24.927895,69.97743,-18.216454,-1.1609478,7.5481524
38,-0.4558030962944031,17.214275360107422,77.40716552734375,4.017673112381911,-4.28877199659031,-92.41927580912035,-3.0433884,-2.682946,29.705963,7.0293245,-0.47708213,7.1261277,9.470933,-10.1174555,-11.548453,44.974766,-12.8580265,13.058177,-2.568586,-6.233588,8.04137,-0.3627442,19.735773,-31.07597,61.057495,15.430713,-6.3620663,-3.9282286,2.2071402,-12.380673,24.929688,69.647995,-18.13212,-1.1542263,7.301599
39,-0.5387402772903442,17.719308853149414,77.32803344726562,4.1944565377820835,-4.084522105326135,-92.44418233171947,-3.7111614,-2.7636611,29.850876,6.9992366,0.0005290151,7.285993,10.376707,-9.870987,-11.758648,42.089737,-14.099175,11.492737,-2.323861,-6.308669,8.002318,-0.4251359,19.739742,-30.9,60.779083,15.331637,-6.42149,-3.791086,1.8568131,-12.395897,24.898409,69.31189,-18.040096,-1.1422737,7.031581
40,-0.619149923324585,18.24579429626465,77.23770141601562,4.3359603457351445,-3.8932601329449996,-92.45150634590058,-4.398142,-2.7934086,29.962215,7.0021143,0.4846149,7.4314623,11.205028,-9.650809,-12.114829,39.441185,-15.400532,10.277905,-2.087864,-6.3532634,8.020711,-0.511681,19.748835,-30.716158,60.491596,15.250237,-6.489205,-3.6687105,1.4545077,-12.408617,24.856548,68.97498,-17.95241,-1.1506218,6.7628894
41,-0.7107027173042297,18.794628143310547,77.14663696289062,4.468501223420739,-3.7186634968027845,-92.4500257273673,-5.0916934,-2.8080676,30.052147,7.0105133,0.9873787,7.5671635,11.977257,-9.509408,-12.7016945,37.04339,-16.82895,9.620787,-1.881459,-6.395372,8.117189,-0.59415466,19.77703,-30.458345,60.14658,15.222614,-6.574653,-3.5799937,0.9818134,-12.425851,24.805813,68.616455,-17.867836,-1.1812762,6.506027
42,-0.7941085696220398,19.361865997314453,77.0521240234375,4.598096084645021,-3.5510352132254583,-92.44292817979054,-5.7961464,-2.8161259,30.13079,7.0179844,1.5103457,7.696454,12.724402,-9.410843,-13.48432,34.76613,-18.449745,9.338715,-1.6415757,-6.442111,8.253679,-0.73257136,19.80608,-30.24961,59.82154,15.195101,-6.6707673,-3.5051587,0.4881498,-12.433908,24.703588,68.239944,-17.776552,-1.2235075,6.240402
43,-0.885144829750061,19.936023712158203,76.97040557861328,4.666145345434186,-3.3844218185048636,-92.41430240181852,-6.5365763,-2.7474864,30.170177,7.078568,2.0299585,7.811429,13.426099,-9.235722,-14.351304,32.51997,-19.972284,9.188284,-1.4264787,-6.4302416,8.431302,-0.8586226,19.85219,-30.025517,59.45762,15.175051,-6.7635627,-3.4348662,-0.06376938,-12.443458,24.620893,67.87707,-17.693453,-1.2804374,5.9694896
44,-0.9749462008476257,20.521974563598633,76.90248107910156,4.612603679483537,-3.2127213814599145,-92.34574729503534,-7.3400726,-2.5296445,30.137371,7.248106,2.5229232,7.9040833,14.054364,-8.867252,-15.177062,30.241266,-21.132387,8.897747,-1.2397782,-6.2914696,8.620851,-0.9934408,19.885815,-29.845852,59.115925,15.120508,-6.8379726,-3.3397038,-0.6601039,-12.457414,24.600988,67.55875,-17.619192,-1.3538353,5.687399
45,-1.0608155727386475,21.117916107177734,76.85520935058594,4.391292643897991,-3.0360232174132924,-92.22807156773673,-8.230729,-2.1049252,30.01493,7.5777264,2.96278,7.9813404,14.609994,-8.247308,-15.960821,27.887484,-21.847103,8.341515,-1.1323063,-5.9807553,8.837247,-1.0922927,19.923092,-29.643005,58.737022,15.036906,-6.8884387,-3.2278092,-1.3322268,-12.490859,24.689163,67.28559,-17.539341,-1.4536315,5.3964987
46,-1.1386269330978394,21.72304916381836,76.82656860351562,4.041119590722094,-2.8539859872150593,-92.07151623880677,-9.197245,-1.5237132,29.814451,8.028976,3.3680525,8.045914,15.1161995,-7.4325237,-16.762705,25.482494,-22.261501,7.6726284,-1.061406,-5.533106,9.07601,-1.2019,19.945381,-29.462774,58.365868,14.926302,-6.922896,-3.1006355,-2.053098,-12.53559,24.830471,67.03835,-17.457474,-1.57512,5.0969043
47,-1.2194923162460327,22.340566635131836,76.80326843261719,3.622917120680879,-2.6630723385184543,-91.88638984751937,-10.211569,-0.8770802,29.545506,8.526265,3.7813137,8.082032,15.571838,-6.4978175,-17.533525,23.08085,-22.470997,7.007299,-1.0557735,-5.000163,9.326722,-1.2682257,19.957626,-29.250643,57.973038,14.826427,-6.9532204,-2.958562,-2.8149433,-12.621917,25.067987,66.7963,-17.382288,-1.7001934,4.7997866
48,-1.295166254043579,22.961809158325195,76.78150177001953,3.203393764374913,-2.4617963629307686,-91.68553750875958,-11.2298,-0.26638928,29.224905,8.967469,4.2584543,8.072952,15.959707,-5.545813,-18.214294,20.766157,-22.57066,6.4514585,-1.0457739,-4.4516697,9.568705,-1.3415173,19.94281,-29.090818,57.63087,14.742573,-6.9868007,-2.7873728,-3.5766277,-12.728085,25.330866,66.56438,-17.359512,-1.8117495,4.50666
49,-1.3552740812301636,23.591144561767578,76.75782775878906,2.780481122584549,-2.2307106005194957,-91.46602062506327,-12.284846,0.31529716,28.864876,9.380205,4.7872844,8.064709,16.228992,-4.6093354,-18.77562,18.578333,-22.548677,5.992688,-1.057059,-3.8758957,9.783985,-1.4014783,19.888557,-28.952782,57.33533,14.671697,-7.0333247,-2.5623312,-4.353255,-12.872671,25.6874,66.358086,-17.376383,-1.9114054,4.1909823
50,-1.408011794090271,24.22985076904297,76.7267074584961,2.321666328220336,-1.9761462547131634,-91.2279987813485,-13.429029,0.93916726,28.45178,9.90468,5.292562,8.046204,16.392515,-3.6531243,-19.243387,16.48463,-22.369152,5.5605907,-1.0837672,-3.2432902,9.982858,-1.4640194,19.79542,-28.84653,57.090504,14.6040535,-7.0852795,-2.2936046,-5.1531672,-13.040099,26.119452,66.18524,-17.428425,-2.0061128,3.858432
51,-1.4433258771896362,24.864768981933594,76.68656158447266,1.8775555491346598,-1.7395531715797368,-90.98858742696608,-14.510393,1.5005248,27.982689,10.301268,5.892828,7.9185877,16.506006,-2.7328377,-19.63668,14.510403,-22.112782,5.1746564,-1.1081702,-2.6096659,10.2000475,-1.5329343,19.668749,-28.770535,56.889843,14.577059,-7.1284122,-2.0311255,-5.9486437,-13.227282,26.556252,66.00016,-17.52409,-2.0841017,3.57016
52,-1.478043794631958,25.49390411376953,76.64385223388672,1.4918692369369488,-1.5627414999916722,-90.76263169707904,-15.440258,1.9394535,27.452503,10.487119,6.625371,7.5789185,16.620096,-1.8997867,-19.973814,12.689732,-21.863325,4.8540087,-1.1070276,-2.028727,10.469748,-1.6179966,19.519287,-28.736021,56.728737,14.621552,-7.147634,-1.8247471,-6.7094707,-13.429895,26.911797,65.75729,-17.678925,-2.1337395,3.3866577
53,-1.5142736434936523,26.130664825439453,76.59899139404297,1.1918898091351056,-1.458715652620464,-90.53418435824373,-16.207685,2.2346375,26.936504,10.47321,7.5010004,7.09891,16.706572,-1.2141677,-20.253674,11.1208105,-21.671843,4.6237173,-1.0896848,-1.5262511,10.807639,-1.7170607,19.351912,-28.752123,56.603317,14.74055,-7.1362295,-1.6742145,-7.4355106,-13.647895,27.158846,65.44801,-17.935371,-2.14648,3.3400407
54,-1.5424315929412842,26.76658058166504,76.5528793334961,0.943302850485807,-1.4092955185125478,-90.29543941730743,-16.85888,2.433959,26.404196,10.320212,8.482071,6.4946923,16.73589,-0.6539363,-20.470987,9.795981,-21.504826,4.452277,-1.0675741,-1.0689216,11.197787,-1.8233163,19.167236,-28.815638,56.511784,14.916313,-7.1022334,-1.5580108,-8.1405735,-13.883803,27.341335,65.09514,-18.274195,-2.1297839,3.3931909
55,-1.5790026187896729,27.408187866210938,76.51290130615234,0.704251035389132,-1.4108064787050256,-90.07539443562243,-17.380198,2.573078,25.687262,9.996906,9.539691,5.5726366,16.75642,-0.13988918,-20.6364,8.597483,-21.315664,4.2825813,-1.0180464,-0.62277627,11.628604,-1.9365339,18.971756,-28.915888,56.445877,15.15124,-7.053368,-1.495235,-8.815774,-14.133946,27.477808,64.70288,-18.616285,-2.102019,3.5010808
56,-1.6058655977249146,28.036880493164062,76.47201538085938,0.4396041262339797,-1.4584939764933194,-89.90789707099978,-17.753344,2.6794124,24.622713,9.467341,10.639507,4.1393085,16.634766,0.33565643,-20.758522,7.8234673,-21.28177,4.0684595,-0.9132557,-0.16388103,12.086045,-2.05326,18.776545,-29.039715,56.39361,15.448731,-6.9974656,-1.5060108,-9.451078,-14.392328,27.585926,64.26733,-18.883856,-2.0729594,3.6198993
57,-1.6432461738586426,28.671401977539062,76.4334716796875,0.13441240254266157,-1.5743603100209467,-89.81695891127616,-17.896116,2.7279003,23.03298,8.534709,11.885064,1.9645523,16.277077,0.758982,-20.83108,7.7422853,-21.55204,3.8091228,-0.72978157,0.31987745,12.595713,-2.1733346,18.591509,-29.180622,56.34201,15.8339405,-6.9272776,-1.6114421,-10.054302,-14.655226,27.657042,63.777897,-19.075619,-2.0249352,3.7662916
58,-1.6950401067733765,29.2841739654541,76.39725494384766,-0.19458027773894163,-1.7568673834122368,-89.78110918617338,-17.806694,2.730048,21.042336,7.253527,13.214491,-0.80175245,15.985937,1.2256442,-20.856653,7.667336,-21.755362,3.5292387,-0.48805583,0.81540644,13.156781,-2.286352,18.419687,-29.342024,56.28639,16.296854,-6.8428903,-1.7981951,-10.628633,-14.921772,27.686504,63.237793,-19.226746,-1.9572493,3.9543264
59,-1.753251314163208,29.901100158691406,76.36734008789062,-0.5184988527389118,-1.962027117193331,-89.76221679742925,-17.596287,2.7445073,18.961924,5.9542828,14.36602,-3.7690928,15.720451,1.6930943,-20.868238,7.5979447,-21.882946,3.234356,-0.22897387,1.2934743,13.714334,-2.3811185,18.262167,-29.52857,56.231194,16.784771,-6.762954,-2.0329473,-11.167149,-15.190949,27.696888,62.684193,-19.315594,-1.915411,4.1311336
60,-1.8238000869750977,30.490663528442383,76.34722900390625,-0.8020630635172197,-2.141812688059199,-89.71519623900312,-17.829487,2.934354,17.089928,5.9112835,14.642253,-6.5391803,15.434594,2.1072252,-20.90726,7.5341334,-21.925568,2.9312305,0.0005670474,1.7163012,14.2137165,-2.449739,18.119095,-29.74402,56.18291,17.245089,-6.7058697,-2.2819493,-11.663355,-15.459822,27.71294,62.152676,-19.315138,-1.9442357,4.2431746
61,-1.892884612083435,31.072965621948242,76.35377502441406,-1.0537973583102342,-2.2924916303049483,-89.63990961912742,-17.976954,3.1058228,15.465421,5.904062,14.710631,-9.3083105,15.126883,2.4862313,-20.973274,7.469031,-21.870165,2.6002371,0.20191471,2.0852914,14.656177,-2.4946551,17.993841,-29.987123,56.129112,17.760944,-6.676655,-2.5772028,-12.122406,-15.727966,27.740206,61.6375,-19.192003,-2.069966,4.286338
62,-1.9565887451171875,31.646692276000977,76.38699340820312,-1.2706531185981926,-2.429083970511353,-89.54261670059812,-18.048254,3.2552145,13.970342,5.923601,14.613895,-12.168039,14.812527,2.836218,-21.066154,7.405066,-21.727066,2.2504206,0.38287106,2.3996124,15.062153,-2.5198307,17.888523,-30.254236,56.06903,18.328676,-6.6671925,-2.9227257,-12.547823,-15.995061,27.765657,61.12532,-18.967152,-2.2638674,4.2843695
63,-2.0194497108459473,32.2060661315918,76.43820190429688,-1.4177760081979605,-2.532344355271458,-89.3900289581457,-18.055653,3.3503833,12.726577,5.980486,14.397351,-14.550604,14.473816,3.0970569,-21.221478,7.348217,-21.51846,1.9270372,0.5071986,2.6284218,15.407474,-2.5227425,17.798723,-30.54555,56.02957,18.765223,-6.6724343,-3.2418134,-12.927044,-16.255905,27.777317,60.639248,-18.706858,-2.4883041,4.225083
64,-2.064582586288452,32.755733489990234,76.50617218017578,-1.4446096499533898,-2.583354653532982,-89.10162691676112,-18.002226,3.2812493,12.016248,6.030245,14.145216,-15.000033,14.090239,3.1713784,-21.520987,7.3291793,-21.280159,1.6964269,0.4912791,2.7390594,15.668732,-2.4987686,17.712593,-30.861015,56.040142,18.886677,-6.6836777,-3.456932,-13.255273,-16.506227,27.769045,60.213524,-18.477041,-2.7062309,4.0960855
65,-2.1151700019836426,33.28418731689453,76.5938949584961,-1.4192102459707474,-2.5740990053581965,-88.78716735098412,-18.374195,3.345414,11.367142,7.158852,13.207188,-15.000033,13.650906,3.1697628,-21.84148,7.308709,-20.968128,1.5166867,0.43801185,2.787316,15.82251,-2.458089,17.627077,-31.245481,56.12567,18.599297,-6.706926,-3.5447607,-13.537941,-16.741037,27.759333,59.86357,-18.269287,-2.9190052,3.8711777
66,-2.1697568893432617,33.807525634765625,76.69479370117188,-1.3904752164506493,-2.5209354669316,-88.48318949246944,-19.69291,3.692666,10.698905,10.4911785,10.988844,-14.868252,13.168642,3.1579363,-22.144373,7.285275,-20.579088,1.3568323,0.38731366,2.819502,15.885882,-2.4008222,17.54178,-31.685915,56.272625,18.015797,-6.742035,-3.5474102,-13.780839,-16.95984,27.747656,59.581745,-18.057741,-3.1434739,3.564484
67,-2.187697649002075,34.31707000732422,76.81092834472656,-1.3156846524861894,-2.457806964582442,-88.11745423722809,-20.889362,3.9901767,10.509785,13.746347,8.8357935,-13.386844,12.684379,3.0588808,-22.506039,7.287342,-20.174742,1.2473904,0.27309194,2.815088,15.905272,-2.3154347,17.447735,-32.09322,56.463573,17.267672,-6.772357,-3.4854286,-13.970901,-17.164206,27.694588,59.357338,-17.883055,-3.3638349,3.222493
68,-2.194187879562378,34.81082534790039,76.93199157714844,-1.2244740906642688,-2.4227622154705264,-87.77518222006125,-21.893078,4.38129,10.735296,16.908682,6.8856072,-11.946111,12.2410555,2.9289637,-22.842678,7.2863398,-19.78003,1.1508629,0.18432792,2.792665,15.925231,-2.206909,17.340918,-32.38379,56.699173,16.486425,-6.783632,-3.3783681,-14.097042,-17.34897,27.563377,59.17931,-17.774336,-3.5620492,2.8882673
69,-2.199343681335449,35.28802490234375,77.05428314208984,-1.0896840746968401,-2.421276271364693,-87.45358584930861,-22.664589,4.9099503,11.51722,19.98351,5.173115,-10.563433,11.846212,2.7389343,-23.157267,7.2822604,-19.395206,1.0772125,0.11568205,2.7298255,15.951727,-2.069485,17.214506,-32.527077,56.99616,15.439595,-6.7790856,-3.1728477,-14.158658,-17.508997,27.349146,59.067562,-17.747868,-3.7614264,2.5358157
70,-2.2106146812438965,35.76313018798828,77.17501831054688,-0.9263998580920288,-2.44269542468744,-87.14783378729408,-23.27054,5.6114955,12.7436285,23.11141,3.51208,-8.98849,11.48741,2.5017622,-23.452215,7.277435,-19.003038,1.0285449,0.057731245,2.6387582,15.966072,-1.9057554,17.066837,-32.56852,57.358723,14.148664,-6.769514,-2.8764908,-14.169798,-17.643764,27.077011,59.032898,-17.781445,-3.960932,2.152751
71,-2.2122983932495117,36.23480987548828,77.2917251586914,-0.7557377684627077,-2.4907333877053492,-86.86302489703765,-23.709124,6.457514,14.183815,26.23327,1.8759257,-7.3185496,11.16775,2.2509215,-23.725046,7.27034,-18.617794,0.98715717,0.020128457,2.5402317,15.973324,-1.7289218,16.905836,-32.536125,57.756985,13.125706,-6.744217,-2.6008234,-14.127713,-17.751196,26.739017,59.033417,-17.860268,-4.1061077,1.8034217
72,-2.206814765930176,36.688499450683594,77.40106964111328,-0.599504944475056,-2.5662805167448246,-86.6012933899865,-23.998726,7.3927665,15.611824,29.298218,0.2509193,-5.6589932,10.890193,2.0192552,-23.97679,7.2539587,-18.250788,0.9353317,0.009267697,2.4502244,15.977999,-1.5490948,16.746445,-32.4576,58.15407,12.880466,-6.6841993,-2.4580936,-14.037667,-17.83051,26.333727,59.032795,-17.962593,-4.143203,1.5520116
73,-2.2169578075408936,37.14694595336914,77.50420379638672,-0.4480591834022526,-2.677703302083206,-86.35731969531273,-24.1359,8.4335785,17.109915,32.366203,-1.3925773,-3.9412465,10.665337,1.7970117,-24.216969,7.2277513,-17.905489,0.8710153,0.02617763,2.3532965,15.991559,-1.3440884,16.597795,-32.27541,58.525936,13.744169,-6.5865827,-2.4783664,-13.885369,-17.875145,25.824045,59.015064,-18.118052,-4.031207,1.4207821
74,-2.217801570892334,37.57600784301758,77.60270690917969,-0.28789782752314785,-2.8205708882184473,-86.12751414221448,-24.098648,9.592119,18.749905,35.446278,-3.055705,-2.1331103,10.488996,1.5668919,-24.447302,7.192076,-17.574686,0.8039563,0.062115878,2.236898,16.010206,-1.1094004,16.462646,-31.993889,58.8804,15.377801,-6.460624,-2.6066551,-13.68045,-17.88077,25.224571,59.0035,-18.325039,-3.8081794,1.3741517
75,-2.2139828205108643,38.000450134277344,77.69381713867188,-0.13594260749169598,-2.9739116352517665,-85.9129384477469,-23.915064,10.776015,20.30082,38.4271,-4.680175,-0.40614527,10.333058,1.3452303,-24.6613,7.1518793,-17.259005,0.734497,0.10756361,2.1196887,16.014254,-0.8784442,16.347652,-31.731497,59.226936,17.287895,-6.3043623,-2.828062,-13.452276,-17.853437,24.601475,59.009396,-18.521177,-3.539175,1.3899757
76,-2.2258636951446533,38.41917037963867,77.77539825439453,-0.004545261545580682,-3.115395501578836,-85.71331542871728,-23.644365,11.881746,21.53919,41.21181,-6.188603,1.0616075,10.16787,1.1470929,-24.853367,7.1127253,-16.958582,0.66329616,0.15566857,2.0213537,15.983947,-0.68579954,16.261509,-31.61174,59.575012,18.9803,-6.112375,-3.1258428,-13.218115,-17.806583,24.013973,59.03143,-18.64508,-3.2890334,1.4464233
77,-2.230698347091675,38.828269958496094,77.8475112915039,0.1119055443612531,-3.241972674498807,-85.52325492368642,-23.317196,12.864238,22.431265,43.80335,-7.535031,2.2016425,9.992906,0.963574,-25.026268,7.0725775,-16.679245,0.59343964,0.20730138,1.9364178,15.91377,-0.54535186,16.2125,-31.699347,59.925507,20.449352,-5.8512,-3.4929318,-12.960048,-17.748943,23.442999,59.051846,-18.684504,-3.047455,1.5647693
78,-2.224114418029785,39.22304153442383,77.91569519042969,0.21977823568634627,-3.3620343263639514,-85.34082043718726,-22.93348,13.7640915,23.105188,46.275043,-8.751949,3.1118407,9.818477,0.7876702,-25.185171,7.0336223,-16.418753,0.5244196,0.2658971,1.8571311,15.81673,-0.43267938,16.202536,-31.921963,60.260967,21.915956,-5.5386505,-3.9445207,-12.662296,-17.684032,22.86076,59.055786,-18.670723,-2.7893324,1.7500027
79,-2.2246339321136475,39.624542236328125,77.97466278076172,0.30899814559847255,-3.4693318547737033,-85.17187052317189,-22.518303,14.5975685,23.587206,48.631325,-9.8663025,3.8578153,9.630624,0.6312914,-25.327736,6.9988923,-16.16768,0.4522101,0.33844104,1.7917619,15.696476,-0.3377306,16.2275,-32.210415,60.58288,23.223614,-5.243024,-4.4888005,-12.344787,-17.61458,22.30482,59.0543,-18.60994,-2.557206,1.9538555
80,-2.212859869003296,40.017879486083984,78.02735900878906,0.3661635375701918,-3.557340235557578,-85.02247270221017,-22.093699,15.382427,23.899248,50.872498,-10.907462,4.503913,9.416442,0.5087927,-25.4515,6.9710817,-15.91567,0.3725722,0.41062385,1.7534361,15.558699,-0.23333739,16.281101,-32.469414,60.875145,24.221325,-5.0275326,-5.132163,-12.036154,-17.552332,21.840973,59.058655,-18.498526,-2.3925576,2.1285577
81,-2.204083204269409,40.41505813598633,78.06982421875,0.3895011130157755,-3.6168877114680194,-84.89675565037183,-21.68211,16.10524,24.027536,53.005974,-11.853901,5.0122204,9.162922,0.42295074,-25.55119,6.9524746,-15.661908,0.28523716,0.4836209,1.7492049,15.394492,-0.12429324,16.36005,-32.695152,61.134815,24.859415,-4.9057064,-5.9396644,-11.739142,-17.504068,21.482996,59.06718,-18.314293,-2.3073015,2.274657
82,-2.186493396759033,40.802310943603516,78.10316467285156,0.3856844114978391,-3.6528216776959117,-84.78968538352659,-21.281433,16.752108,23.977123,55.039864,-12.692628,5.3602815,8.879158,0.36533672,-25.630638,6.9416394,-15.411844,0.19263825,0.5560436,1.7732074,15.20437,-0.019748418,16.463427,-32.923878,61.36861,25.223484,-4.84057,-6.8832545,-11.43816,-17.47043,21.206184,59.07093,-18.06133,-2.2781918,2.4142218
83,-2.162336587905884,41.18915939331055,78.13151550292969,0.35728801889218775,-3.680212894062978,-84.69376207245953,-20.870028,17.337923,23.795755,56.96652,-13.466324,5.635318,8.584048,0.3325858,-25.701103,6.9377832,-15.164525,0.09419452,0.6226061,1.8173426,15.005874,0.08968669,16.586231,-33.133854,61.588085,25.363283,-4.8157396,-7.82619,-11.13048,-17.450495,21.004406,59.073578,-17.779423,-2.2953718,2.531696
84,-2.1374876499176025,41.57194137573242,78.1511001586914,0.3079915354580227,-3.714461468753766,-84.60160939054397,-20.42457,17.879004,23.528368,58.77682,-14.217568,5.924537,8.295327,0.3212912,-25.773542,6.943356,-14.920669,-0.010715617,0.6753356,1.8751131,14.81643,0.21420489,16.721317,-33.300278,61.806046,25.329674,-4.8154707,-8.632072,-10.8167,-17.440603,20.876028,59.081947,-17.506845,-2.348992,2.610763
85,-2.1113951206207275,41.950523376464844,78.16473388671875,0.2313101773356177,-3.760318268788364,-84.51989632885204,-19.942318,18.382374,23.178755,60.487747,-14.948402,6.277799,8.019805,0.33815324,-25.8453,6.9554834,-14.67729,-0.12606603,0.7177228,1.9520556,14.638909,0.35303113,16.864664,-33.41978,62.03013,25.058313,-4.8460746,-9.292264,-10.501929,-17.440193,20.838106,59.10189,-17.23531,-2.456342,2.6350985
86,-2.080292224884033,42.33877944946289,78.16848754882812,0.12986045295653031,-3.8092765123382306,-84.44934781839855,-19.436718,18.829561,22.731337,62.098534,-15.633883,6.6345325,7.7462487,0.38235566,-25.91282,6.974126,-14.434133,-0.2501125,0.7506121,2.0505052,14.462658,0.4993494,17.014925,-33.503956,62.25797,24.547792,-4.9043036,-9.870005,-10.186946,-17.449654,20.88859,59.13356,-16.95037,-2.6162717,2.6172457
87,-2.0503756999969482,42.714176177978516,78.17188262939453,0.012661799479452935,-3.8567442191909307,-84.37446930926392,-18.904047,19.199142,22.204086,63.56737,-16.28144,6.919266,7.472085,0.439581,-25.985384,6.998957,-14.196465,-0.374413,0.7628093,2.1559663,14.285184,0.65379614,17.167477,-33.548134,62.49473,23.946388,-4.969479,-10.33441,-9.867813,-17.465311,20.99694,59.177002,-16.681808,-2.7916338,2.5834858
88,-2.0149245262145996,43.08246612548828,78.17204284667969,-0.11016459887853539,-3.8983130318001096,-84.27969553499763,-18.340515,19.473455,21.614218,64.8536,-16.901237,7.0578103,7.1959753,0.4973951,-26.07205,7.023078,-13.963883,-0.4910281,0.74331594,2.2552176,14.103705,0.8139128,17.316158,-33.5508,62.74902,23.40073,-5.0241103,-10.652798,-9.542109,-17.48024,21.134172,59.23486,-16.45653,-2.9449973,2.5589557
89,-1.9751230478286743,43.44741439819336,78.16663360595703,-0.23871853267329174,-3.9317592002653363,-84.16378361164558,-17.74311,19.657957,20.969833,65.96391,-17.505993,7.0268106,6.9149523,0.5586367,-26.171164,7.0488124,-13.742108,-0.60055786,0.6914594,2.3492448,13.915121,0.97850436,17.45672,-33.49682,63.032494,22.93858,-5.0703745,-10.820513,-9.214636,-17.491636,21.31267,59.317055,-16.27701,-3.0831802,2.5382175
90,-1.9428426027297974,43.8210334777832,78.15383911132812,-0.3771574569163298,-3.9599389518857735,-84.03392323616411,-17.113039,19.759586,20.26679,66.91941,-18.091076,6.8678823,6.6301174,0.6281398,-26.279163,7.0783234,-13.527255,-0.7063144,0.61160576,2.4439054,13.719917,1.1456717,17.588154,-33.393024,63.346115,22.485369,-5.1182237,-10.852356,-8.890042,-17.499823,21.543985,59.426605,-16.129946,-3.2203972,2.510449
91,-1.9040558338165283,44.193153381347656,78.13855743408203,-0.5192742668738209,-3.9852622337641783,-83.88743434355297,-16.450651,19.763214,19.505524,67.70057,-18.643044,6.6069565,6.348028,0.69432604,-26.402374,7.105684,-13.313792,-0.80422115,0.5022871,2.5314462,13.52049,1.3143076,17.70909,-33.26538,63.6808,22.041454,-5.1640673,-10.744522,-8.558934,-17.501087,21.789804,59.551643,-16.025656,-3.329911,2.492086
92,-1.857375144958496,44.55961227416992,78.12210083007812,-0.6575965476732423,-4.010707292399525,-83.72151810045129,-15.756903,19.65657,18.683504,68.287224,-19.148094,6.2698126,6.0726447,0.7468985,-26.547491,7.1293426,-13.09275,-0.89079386,0.36404547,2.6050882,13.318919,1.4792871,17.8183,-33.145588,64.03044,21.603554,-5.203926,-10.493139,-8.213243,-17.490858,22.0099,59.682846,-15.974273,-3.3851554,2.4993746
93,-1.8046756982803345,44.91853713989258,78.10767364501953,-0.7909369150398765,-4.036319800621822,-83.53124476798999,-15.033603,19.421124,17.769836,68.6801,-19.634975,5.845332,5.8060374,0.7844318,-26.721195,7.1502266,-12.865043,-0.95992243,0.19429995,2.663999,13.113116,1.6387333,17.914797,-33.049206,64.41273,21.129383,-5.252579,-10.026024,-7.850297,-17.465857,22.20365,59.820343,-15.98898,-3.3701885,2.5344172
94,-1.754770278930664,45.285648345947266,78.09136199951172,-0.9237979688942248,-4.060854712899953,-83.31998107500408,-14.27291,19.07427,16.780375,68.89089,-20.10772,5.332281,5.5451303,0.8119093,-26.917652,7.1704473,-12.634166,-1.0157284,-0.0008651735,2.7137718,12.90163,1.7864307,17.992353,-32.963997,64.83582,20.63438,-5.310639,-9.367738,-7.4724083,-17.428701,22.384743,59.969357,-16.060616,-3.3022256,2.5891004
95,-1.7045929431915283,45.64699172973633,78.07595825195312,-1.052723851155015,-4.086051298388072,-83.09741841464285,-13.463357,18.658716,15.778407,68.91792,-20.514616,4.7708616,5.2886124,0.82953304,-27.124994,7.189538,-12.398759,-1.0703642,-0.21762994,2.751395,12.6893835,1.9297909,18.059778,-32.865536,65.256584,20.202919,-5.3504505,-8.660897,-7.0832787,-17.377268,22.539742,60.1299,-16.172207,-3.2044218,2.6635273
96,-1.6572670936584473,46.00413131713867,78.06190490722656,-1.1765995190272343,-4.113248988548039,-82.87277645414328,-12.598066,18.216673,14.822985,68.75955,-20.801624,4.198753,5.0356455,0.83691484,-27.331457,7.2068825,-12.15782,-1.1358232,-0.44650033,2.7731493,12.480283,2.0687587,18.121725,-32.73538,65.640144,19.917982,-5.340302,-8.04726,-6.6855497,-17.308224,22.651361,60.303402,-16.305113,-3.100113,2.7574751
97,-1.6044139862060547,46.369380950927734,78.04964447021484,-1.2946516831474242,-4.142789377879877,-82.64211694321887,-11.680079,17.74043,13.889462,68.415565,-21.004877,3.6420014,4.7859726,0.83532715,-27.540321,7.2241855,-11.9130125,-1.2193959,-0.6720548,2.7938035,12.275332,2.175123,18.154047,-32.585365,66.01688,19.856567,-5.259569,-7.5480423,-6.2389197,-17.252567,22.688171,60.45351,-16.470871,-2.989031,2.8886971
98,-1.5458590984344482,46.73215103149414,78.03981018066406,-1.4067597072539055,-4.174118430876733,-82.40282658725903,-10.710371,17.220436,12.954351,67.88873,-21.139656,3.0800161,4.5445113,0.82685494,-27.755512,7.232439,-11.66025,-1.3141159,-0.9302684,2.7916677,12.071512,2.294597,18.18914,-32.382885,66.35824,19.961283,-5.1230497,-7.0976963,-5.800686,-17.161951,22.703068,60.638615,-16.672592,-2.860689,3.0430057
99,-1.4866392612457275,47.09074783325195,78.03048706054688,-1.5122414995904305,-4.206686795692067,-82.16621762728617,-9.682963,16.693731,12.073213,67.17699,-21.11554,2.4754398,4.297766,0.8025963,-27.966757,7.2553134,-11.409005,-1.4098783,-1.1922432,2.7774582,11.870096,2.4014723,18.215677,-32.17679,66.66793,20.09062,-4.9593716,-6.6908383,-5.352232,-17.059769,22.680256,60.825275,-16.882673,-2.725005,3.2050228
100,-1.4286956787109375,47.456974029541016,78.02143096923828,-1.609724659294061,-4.239988857548386,-81.94306668014337,-8.595709,16.194508,11.297812,66.27644,-20.84067,1.7857496,4.051844,0.76413447,-28.164108,7.2714276,-11.144454,-1.496722,-1.4571624,2.7477481,11.67081,2.5017207,18.239222,-31.977499,66.92563,20.11299,-4.7985473,-6.324632,-4.918364,-16.932587,22.63607,61.026554,-17.074167,-2.5909548,3.3509536
101,-1.3641457557678223,47.82204818725586,78.01590728759766,-1.6932703726870677,-4.279871945685532,-81.73358434109196,-7.432626,15.732189,10.645835,65.16688,-20.244154,0.95888805,3.8116744,0.7060333,-28.346485,7.2860184,-10.86957,-1.5708286,-1.7181613,2.7062986,11.482001,2.5894582,18.25436,-31.796677,67.12963,19.973108,-4.629582,-5.9690046,-4.4725337,-16.803709,22.553312,61.2078,-17.244284,-2.4553394,3.4895952
102,-1.290258765220642,48.193275451660156,78.0112075805664,-1.7664299573753488,-4.324272912337678,-81.53237348466807,-6.206016,15.283509,10.073609,63.855556,-19.391619,0.025278952,3.5277777,0.60354054,-28.519274,7.4151707,-10.6463585,-1.6368517,-1.9808257,2.6534185,11.301076,2.6667035,18.26097,-31.621193,67.28647,19.750216,-4.444274,-5.6350484,-4.012436,-16.670689,22.431328,61.373413,-17.406986,-2.3152854,3.62903
103,-1.220231294631958,48.56959533691406,78.0090560913086,-1.8315860590120112,-4.36157478432276,-81.3419223551858,-4.9567485,14.831396,9.541953,62.380386,-18.393354,-0.9347564,3.1779637,0.45820504,-28.681185,7.6733737,-10.480996,-1.6979667,-2.242019,2.596256,11.118217,2.7293165,18.261429,-31.456059,67.395065,19.503464,-4.277172,-5.3801966,-3.5537858,-16.537157,22.293926,61.533493,-17.546423,-2.1799796,3.7554235
104,-1.1329652070999146,48.940120697021484,78.00799560546875,-1.8975580846125857,-4.379820875440865,-81.16509920698812,-3.7237473,14.364121,9.016409,60.778816,-17.358128,-1.838181,2.787185,0.29915473,-28.830715,7.9605227,-10.318936,-1.7585809,-2.4984758,2.5445395,10.925238,2.775169,18.258932,-31.305826,67.44977,19.292898,-4.161836,-5.263257,-3.1036036,-16.4076,22.159937,61.68733,-17.649916,-2.0585234,3.8562632
105,-1.0482300519943237,49.32493209838867,77.99809265136719,-1.95939432308086,-4.380025595709704,-81.00134665798544,-2.509408,13.878578,8.49576,59.04069,-16.142124,-2.7187197,2.3536246,0.1201162,-28.966223,8.285208,-10.163793,-1.8208055,-2.748748,2.496062,10.723422,2.8032537,18.256119,-31.165852,67.44004,19.118193,-4.101728,-5.336944,-2.6570246,-16.28933,22.032907,61.830647,-17.705017,-1.9498163,3.9188404
106,-0.9611113667488098,49.722652435302734,77.98640441894531,-2.0144556885510854,-4.367078215831353,-80.84994155227025,-1.2973325,13.377554,7.9866457,57.153988,-14.744419,-3.604925,1.8881927,-0.078556515,-29.087988,8.63692,-10.010869,-1.8820064,-2.9953997,2.4563494,10.522207,2.8219125,18.252495,-31.03439,67.3543,18.952347,-4.080302,-5.5605226,-2.1899111,-16.208652,21.903444,61.927647,-17.714188,-1.8504256,3.9603267
107,-0.8575560450553894,50.12074661254883,77.97776794433594,-2.0704608295232187,-4.335067850889006,-80.71308063307819,-0.096502885,12.867096,7.4797277,55.15427,-13.487962,-4.397665,1.3837942,-0.28856957,-29.197163,9.012134,-9.860058,-1.9380597,-3.2378936,2.4083314,10.305575,2.8238926,18.248972,-30.921883,67.2371,18.81942,-4.0985303,-5.845209,-1.7615266,-16.09125,21.769772,62.062126,-17.712631,-1.764605,3.98661
108,-0.7520715594291687,50.52662658691406,77.96188354492188,-2.134020583392523,-4.278633031090904,-80.59365988007985,1.081936,12.365272,6.9758496,53.081722,-12.690617,-4.9907227,0.84288186,-0.49248955,-29.295357,9.385488,-9.700531,-1.9855518,-3.4795768,2.3758621,10.079079,2.8237863,18.245918,-30.83956,67.076004,18.735321,-4.1602225,-6.1101727,-1.350608,-15.985529,21.64123,62.18297,-17.69936,-1.6978245,4.0313034
109,-0.6407511234283447,50.93098831176758,77.93833923339844,-2.208601984825799,-4.189976712082875,-80.49431469410443,2.245882,11.8646145,6.4731293,50.934113,-12.507875,-5.303739,0.25562376,-0.6895066,-29.382082,9.761894,-9.537198,-2.0205748,-3.7209175,2.3701808,9.836639,2.8348777,18.241821,-30.785843,66.85404,18.72218,-4.2878585,-6.360552,-0.93728036,-15.921662,21.514198,62.261692,-17.667128,-1.6592225,4.1202145
110,-0.5250141620635986,51.35163116455078,77.90518188476562,-2.2886583488567513,-4.074983844296341,-80.41358811840954,3.3966055,11.367502,5.9804225,48.696224,-12.740702,-5.4017677,-0.3715545,-0.8851038,-29.456097,10.142233,-9.368777,-2.0458088,-3.955305,2.3769422,9.577783,2.8419514,18.236265,-30.762466,66.58647,18.763184,-4.472515,-6.6300645,-0.5363556,-15.867109,21.381813,62.33173,-17.618275,-1.6433927,4.2292833
111,-0.41327765583992004,51.791114807128906,77.86909484863281,-2.3754532909631814,-3.9466958781754915,-80.34670984663381,4.5145764,10.904319,5.519825,46.38356,-13.179139,-5.3982186,-1.023079,-1.076648,-29.51825,10.519996,-9.188165,-2.0679672,-4.1803694,2.393052,9.325034,2.8226104,18.227789,-30.77444,66.293045,18.821976,-4.671543,-6.8834357,-0.15636724,-15.806775,21.24079,62.395565,-17.571709,-1.6344786,4.326285
112,-0.27542707324028015,52.23430252075195,77.8297348022461,-2.4691059054893287,-3.8183485376547273,-80.28884522469406,5.580787,10.502057,5.114936,44.006634,-13.61244,-5.4125133,-1.6826019,-1.2612206,-29.569696,10.885171,-8.985833,-2.0939033,-4.423799,2.4256096,9.110471,2.7870448,18.219109,-30.789293,65.96005,18.869055,-4.84804,-7.0883565,0.19360648,-15.772154,21.133064,62.427692,-17.518759,-1.6167223,4.3875227
113,-0.14367157220840454,52.690895080566406,77.78373718261719,-2.5841618844525147,-3.684107946323188,-80.23618294648357,6.603658,10.16018,4.716583,41.482372,-14.003247,-5.488802,-2.3539953,-1.423395,-29.61603,11.23268,-8.758267,-2.1237326,-4.671135,2.4858308,8.926603,2.7130065,18.206385,-30.83391,65.602264,18.893017,-4.993505,-7.2490816,0.5165613,-15.740971,21.032572,62.436913,-17.47789,-1.5824335,4.392402
114,-0.01147434115409851,53.156517028808594,77.73013305664062,-2.713607061646125,-3.5406010815015545,-80.19208228623344,7.590242,9.856641,4.334167,38.82582,-14.453665,-5.571201,-3.0418622,-1.5692075,-29.655054,11.567115,-8.510289,-2.1546695,-4.9208937,2.5670886,8.762179,2.6088414,18.187983,-30.90625,65.21824,18.913492,-5.1278615,-7.3781166,0.81154054,-15.713707,20.939854,62.433,-17.44098,-1.5410436,4.3583694
115,0.1272629052400589,53.641395568847656,77.67139434814453,-2.8293892837564654,-3.403801576539678,-80.16271341664698,8.520818,9.582664,4.08243,36.187687,-14.958963,-5.6312175,-3.738044,-1.7316632,-29.67586,11.907812,-8.252398,-2.1896718,-5.184127,2.6363232,8.637886,2.4942093,18.172535,-30.972532,64.79859,18.93916,-5.2498727,-7.4554157,1.0691845,-15.698236,20.87365,62.414417,-17.398869,-1.5033964,4.3114266
116,0.26453959941864014,54.130859375,77.62017059326172,-2.9020418942866057,-3.2896586723211776,-80.15422929553348,9.3742285,9.328875,4.07556,33.7196,-15.514481,-5.6372876,-4.432962,-1.942393,-29.667177,12.270015,-7.9930873,-2.2318008,-5.425247,2.6577215,8.564661,2.336425,18.154139,-31.05593,64.38633,18.970314,-5.3578434,-7.456651,1.3067787,-15.683198,20.792524,62.37799,-17.363758,-1.4815935,4.2752647
117,0.3950195908546448,54.639793395996094,77.5704116821289,-2.9379820787810984,-3.202801362398989,-80.16572411051277,10.139556,9.1258745,4.391274,31.450544,-16.194492,-5.5877705,-5.130585,-2.1990085,-29.629728,12.670397,-7.73563,-2.3044767,-5.6220937,2.6356015,8.547776,2.1072104,18.119146,-31.178732,63.99801,19.016962,-5.445292,-7.3683395,1.5286189,-15.660355,20.660616,62.323437,-17.352102,-1.4817406,4.258292
118,0.5325107574462891,55.15106201171875,77.52345275878906,-2.946165628400619,-3.133954288154572,-80.19432758476974,10.833275,8.953185,4.9574556,29.288195,-16.967693,-5.508183,-5.835855,-2.4874897,-29.567696,13.096383,-7.474932,-2.3996482,-5.835362,2.5801613,8.584222,1.8710301,18.089005,-31.27207,63.57137,19.087877,-5.5165963,-7.2107224,1.7018914,-15.643972,20.557034,62.2598,-17.337105,-1.4955114,4.247153
119,0.6627975702285767,55.67792510986328,77.47545623779297,-2.9070716383093287,-3.0777245887659443,-80.24314288423004,11.4783125,8.731391,5.659009,27.197304,-17.673065,-5.396246,-6.5412188,-2.823214,-29.474089,13.521297,-7.2078676,-2.472127,-6.0138855,2.4736054,8.646209,1.5701395,18.040617,-31.418564,63.196247,19.137934,-5.579266,-6.98616,1.8659205,-15.618475,20.426842,62.19266,-17.332283,-1.5161368,4.2282715
120,0.7905640602111816,56.217193603515625,77.42765045166016,-2.7976433037128365,-3.028861373167041,-80.31533903858049,12.086807,8.391063,6.3743734,25.164806,-18.157251,-5.238268,-7.2396007,-3.2208045,-29.340445,13.918106,-6.9296494,-2.4758067,-6.2179427,2.2918556,8.72914,1.2911358,18.01711,-31.547352,62.80849,19.152605,-5.6443915,-6.7165375,1.998176,-15.598635,20.356169,62.12963,-17.30409,-1.5348803,4.193085
121,0.9226754307746887,56.75617980957031,77.39260864257812,-2.6082158914670166,-2.997879681379684,-80.41720344475914,12.665115,7.9226756,7.117399,23.192127,-18.367632,-4.9881167,-7.937603,-3.7010458,-29.149958,14.321334,-6.640423,-2.4369724,-6.3607955,2.0199492,8.8253565,0.93474185,17.98393,-31.780376,62.509647,19.09521,-5.710145,-6.367905,2.1361637,-15.553071,20.253248,62.076035,-17.28304,-1.5557939,4.1324177
122,1.0444880723953247,57.30208206176758,77.3636245727539,-2.35023541792404,-2.983308885353126,-80.54569157898395,13.200685,7.362907,7.9323807,21.285534,-18.39126,-4.657868,-8.637868,-4.250729,-28.907005,14.730535,-6.3412766,-2.3659046,-6.507184,1.6687526,8.950488,0.57213044,17.962711,-32.019814,62.21574,19.005291,-5.7747283,-5.9517584,2.2414849,-15.502864,20.185587,62.03069,-17.252268,-1.580209,4.055505
123,1.1713143587112427,57.86027145385742,77.34235382080078,-2.0397679962933295,-2.9625479926926177,-80.68986138505012,13.681147,6.7247734,8.73998,19.42938,-18.279251,-4.3127265,-9.325461,-4.8308682,-28.635715,15.065064,-6.0273767,-2.192369,-6.6238174,1.2532909,9.071236,0.16432448,17.944418,-32.31275,61.977234,18.878359,-5.8383822,-5.5102835,2.3371992,-15.416516,20.093834,62.006012,-17.227652,-1.6010106,3.960549
124,1.2975977659225464,58.423770904541016,77.3227310180664,-1.7032536878293025,-2.912301848006256,-80.83664888051565,14.087814,6.0331173,9.457435,17.621534,-18.08644,-4.0169,-9.984454,-5.3979435,-28.3651,15.245676,-5.6960382,-1.8466871,-6.756478,0.8051534,9.171688,-0.24234833,17.94046,-32.596767,61.757782,18.738829,-5.904824,-5.095647,2.4190135,-15.315879,20.008287,61.992752,-17.194191,-1.60986,3.8554072
125,1.4197272062301636,58.996212005615234,77.30611419677734,-1.3390489677953556,-2.81718162627782,-80.97678662581063,14.405775,5.293407,10.064747,15.84084,-17.78905,-3.7829227,-10.611874,-5.9552455,-28.121063,15.238856,-5.314012,-1.2959652,-6.8877287,0.3139383,9.234895,-0.67812306,17.951004,-32.91179,61.597492,18.553602,-5.9792156,-4.689596,2.4895394,-15.1726055,19.901535,62.011467,-17.14301,-1.6095464,3.7223103
126,1.5300086736679077,59.57838439941406,77.29022979736328,-0.9469024420805684,-2.6911407416258015,-81.1142860388221,14.628787,4.5219393,10.596346,14.120974,-17.379488,-3.572116,-11.212043,-6.512079,-27.888657,15.084542,-4.8926916,-0.5826646,-7.022697,-0.22237733,9.275098,-1.1337538,17.978193,-33.250732,61.477833,18.328981,-6.057079,-4.2784286,2.5381014,-14.990458,19.787642,62.06389,-17.079067,-1.6025496,3.5636196
127,1.6275478601455688,60.167266845703125,77.27401733398438,-0.5518076271366631,-2.555969711147901,-81.25558019485118,14.78534,3.7541907,11.055248,12.478944,-16.913406,-3.3746085,-11.763885,-7.0271673,-27.642454,14.784163,-4.480133,0.24960205,-7.1644897,-0.7675257,9.310254,-1.5916971,18.020601,-33.595753,61.368713,18.114035,-6.1310863,-3.9086823,2.57265,-14.781459,19.666443,62.1267,-17.04024,-1.5814838,3.4095478
128,1.7437996864318848,60.75935363769531,77.25624084472656,-0.18129033751929294,-2.4328258625215344,-81.40709747747955,14.896899,3.0183854,11.445877,10.954417,-16.457802,-3.1834369,-12.242923,-7.4611797,-27.359903,14.332931,-4.127035,1.1572474,-7.3139243,-1.2876015,9.357472,-2.0346425,18.0761,-33.928516,61.24004,17.960983,-6.1914907,-3.6268747,2.6039338,-14.555038,19.531527,62.17654,-17.070387,-1.5386194,3.289591
129,1.857728123664856,61.35490417480469,77.23643493652344,0.16746181973598057,-2.3186758136610104,-81.56233592179264,14.93883,2.309764,11.741102,9.594628,-16.03025,-3.0156713,-12.64368,-7.8134637,-27.03702,13.709007,-3.8335307,2.1795275,-7.482758,-1.7781224,9.417914,-2.4637117,18.144104,-34.252483,61.090153,17.874496,-6.232967,-3.4375832,2.6340623,-14.314292,19.37635,62.2087,-17.190004,-1.4645673,3.2045383
130,1.971892237663269,61.948490142822266,77.20699310302734,0.5053986025448599,-2.206334878928104,-81.71724266651326,14.900258,1.6179503,11.948393,8.39325,-15.609078,-2.8726408,-12.970639,-8.110641,-26.695255,12.91947,-3.5848942,3.3210537,-7.669081,-2.254974,9.485458,-2.8857057,18.224174,-34.574486,60.932625,17.831226,-6.260871,-3.3186982,2.6615613,-14.058739,19.204344,62.229576,-17.373049,-1.3657945,3.142607
131,2.0754008293151855,62.54424285888672,77.1736068725586,0.8288711954811534,-2.112590732993528,-81.88434896656324,14.839805,0.94912773,12.127021,7.2800336,-15.188655,-2.7245889,-13.219645,-8.3577585,-26.34893,12.012813,-3.4066753,4.4862957,-7.853351,-2.7151365,9.567739,-3.2964025,18.314613,-34.886364,60.762417,17.832333,-6.2811294,-3.2762992,2.6892571,-13.794361,19.032444,62.23229,-17.586102,-1.2581893,3.1148055
132,2.183922052383423,63.134883880615234,77.13470458984375,1.1331259665604052,-2.0520748490873353,-82.07683653662794,14.366693,0.4101939,12.332319,7.1600704,-15.273781,-2.544991,-13.391045,-8.556658,-26.0107,11.040115,-3.3214824,5.579913,-8.016214,-3.1527936,9.672272,-3.6901026,18.412851,-35.17547,60.572533,17.881939,-6.3001275,-3.3164523,2.721694,-13.531336,18.878517,62.2071,-17.794037,-1.1580958,3.1330276
133,2.2958719730377197,63.72503662109375,77.09236907958984,1.4017698747695748,-2.030917023960315,-82.29820857279992,13.930421,-0.083488986,12.593597,7.0870028,-15.387531,-2.3258328,-13.476856,-8.677594,-25.666481,9.987091,-3.3761108,6.558822,-8.1565,-3.547363,9.812033,-4.0660768,18.516672,-35.4163,60.351063,18.004871,-6.3203692,-3.4827926,2.7628708,-13.276022,18.731833,62.132908,-18.011219,-1.0472591,3.2122953
134,2.3987109661102295,64.30213928222656,77.04862213134766,1.6461468165870605,-2.0425449749244433,-82.54305826477935,13.537746,-0.5549193,12.881413,7.0229707,-15.490617,-2.0836062,-13.478121,-8.737979,-25.31829,8.838849,-3.5462506,7.475089,-8.282692,-3.9079032,9.982922,-4.42708,18.625723,-35.61997,60.104465,18.192127,-6.339154,-3.757864,2.8139076,-13.028417,18.58939,62.01375,-18.245977,-0.92513746,3.3442433
135,2.5127525329589844,64.87561798095703,77.00165557861328,1.9083152280071838,-2.0832631052887765,-82.81736459085398,13.164769,-1.0414835,13.191304,7.0032077,-15.570899,-1.8193988,-13.398793,-8.802597,-24.992853,7.6100535,-3.7221158,8.381817,-8.3834715,-4.28229,10.166332,-4.773709,18.740822,-35.830593,59.853935,18.396795,-6.3551455,-4.0560207,2.8749309,-12.79147,18.478266,61.8786,-18.45766,-0.8339768,3.5041552
136,2.630110502243042,65.45410919189453,76.960205078125,2.207291446297599,-2.1453642685392906,-83.11987327343479,12.822066,-1.5608456,13.513481,6.9804215,-15.572421,-1.5376046,-13.616692,-9.0819235,-24.672762,7.1706257,-4.23805,9.338766,-8.455404,-4.692294,10.344058,-5.103854,18.861868,-36.09064,59.616318,18.572407,-6.3655868,-4.29218,2.9470456,-12.569119,18.426613,61.754475,-18.603096,-0.8157513,3.6678631
137,2.741928815841675,66.01299285888672,76.92188262939453,2.5836058835597737,-2.2463956977691515,-83.45195710629302,12.53177,-2.1692865,13.843164,6.954903,-15.4796295,-1.2154235,-13.981151,-9.538705,-24.295628,7.1344056,-4.899421,10.471846,-8.496959,-5.1776466,10.523179,-5.4168744,18.988548,-36.42666,59.37811,18.734467,-6.3559074,-4.454751,3.0426962,-12.367672,18.428736,61.62581,-18.667252,-0.8975739,3.8465152
138,2.8544704914093018,66.5614013671875,76.8830795288086,3.015043892423144,-2.3823589070824553,-83.81333605633118,12.294918,-2.8441806,14.189104,6.924789,-15.313116,-0.86109746,-14.313992,-10.052144,-23.90136,7.091954,-5.5369725,11.715944,-8.509866,-5.7105308,10.711078,-5.7152224,19.119535,-36.813084,59.13434,18.89673,-6.331758,-4.5854907,3.1624506,-12.188463,18.471498,61.479897,-18.674103,-1.0516121,4.0485635
139,2.95477032661438,67.09474182128906,76.85521697998047,3.4227122123316827,-2.5127099668559865,-84.20370752735954,12.062375,-3.4785953,14.562968,6.893538,-15.097726,-0.5243831,-14.602353,-10.53489,-23.672796,7.061975,-6.091809,12.845814,-8.493394,-6.2140656,10.889429,-6.000709,19.25279,-37.207825,58.91675,19.01611,-6.3205886,-4.6790633,3.2827172,-12.025737,18.577335,61.355797,-18.634912,-1.2374599,4.2438517
140,3.0538504123687744,67.62639617919922,76.84801483154297,3.7241832746241843,-2.5952434687715584,-84.62541202918159,11.77948,-3.9612265,14.976726,6.8649054,-14.855861,-0.25387317,-14.836939,-10.899243,-23.788809,7.067672,-6.504381,13.636407,-8.446392,-6.6104875,11.036846,-6.2735214,19.386402,-37.565975,58.758675,19.05075,-6.349694,-4.729717,3.3768234,-11.869251,18.76916,61.297134,-18.564423,-1.4145502,4.401274
141,3.137503147125244,68.15884399414062,76.8671875,3.9054331479318156,-2.599085594043621,-85.08259446370225,11.407198,-4.2694488,15.432445,6.838104,-14.575196,-0.066139534,-15.044336,-11.1367445,-24.37439,7.111411,-6.740594,14.024457,-8.363378,-6.888708,11.12568,-6.5525475,19.523905,-37.89781,58.681076,18.93935,-6.4395227,-4.7244573,3.436849,-11.71114,19.072277,61.316673,-18.424269,-1.5884391,4.4924192
142,3.205740451812744,68.68949890136719,76.91510772705078,4.007342090252435,-2.5496608655583883,-85.57560640287839,10.976228,-4.458965,15.92338,6.812831,-14.248266,0.06745146,-15.22245,-11.286572,-25.301373,7.185165,-6.841915,14.1272745,-8.246392,-7.0860915,11.170215,-6.831637,19.661907,-38.215748,58.665543,18.723598,-6.571341,-4.6698956,3.4756503,-11.554431,19.47007,61.39325,-18.221346,-1.7750283,4.5404525
143,3.2660768032073975,69.21037292480469,76.98619079589844,4.027501817377454,-2.4873941069693806,-86.10179065202726,10.538756,-4.5338144,16.446598,6.7894197,-13.905348,0.16595161,-15.317013,-11.331493,-26.367895,7.2924447,-6.856148,13.986628,-8.104811,-7.2067857,11.2070675,-7.0718217,19.806162,-38.486244,58.683098,18.507574,-6.712558,-4.5898256,3.476565,-11.389409,19.927357,61.546894,-18.037395,-1.9487919,4.5848436
144,3.3212690353393555,69.73237609863281,77.07000732421875,3.9673843451803394,-2.455066175328745,-86.65566396198795,10.146677,-4.501541,16.997425,6.7711215,-13.577216,0.24874692,-15.272657,-11.261369,-27.372753,7.4342556,-6.8311195,13.647885,-7.9494443,-7.24532,11.274533,-7.242989,19.939913,-38.67194,58.72013,18.401487,-6.8314414,-4.5059342,3.4431462,-11.230041,20.40576,61.772816,-17.951933,-2.0844135,4.669992
145,3.378004312515259,70.24687194824219,77.15911865234375,3.8180176911107293,-2.466811395887112,-87.23816751479178,9.818423,-4.349606,17.57559,6.758217,-13.269274,0.31087613,-15.173055,-11.131241,-28.295252,7.878754,-6.9291873,13.033199,-7.7834845,-7.1905622,11.3805275,-7.3385477,20.055252,-38.772835,58.797237,18.44958,-6.9389286,-4.398789,3.3738155,-11.078651,20.920782,62.098,-17.966942,-2.1919923,4.794343
146,3.4289729595184326,70.75033569335938,77.25312042236328,3.601245224548049,-2.5070580669292184,-87.8393355740976,9.529431,-4.100221,18.168587,6.752897,-12.966659,0.34899577,-15.977577,-11.507492,-29.027086,10.855061,-8.31324,12.153887,-7.61278,-7.0639095,11.50443,-7.3789806,20.150614,-38.805157,58.926743,18.591671,-7.045745,-4.2640615,3.278844,-10.9349985,21.484245,62.508568,-18.044924,-2.2795525,4.939716
147,3.480499505996704,71.25074768066406,77.3485107421875,3.3637727277526066,-2.575586204826558,-88.43541696304993,9.275253,-3.8165426,18.753092,6.7503004,-12.665614,0.3863354,-16.65543,-11.89508,-29.70115,13.882595,-9.66146,11.16895,-7.4535074,-6.911604,11.643326,-7.3773756,20.22638,-38.765984,59.081787,18.76995,-7.1195974,-4.1461916,3.1734667,-10.800851,22.054684,62.945095,-18.206436,-2.3179638,5.1244864
148,3.5398647785186768,71.73262786865234,77.44117736816406,3.1423219677330034,-2.668316520137844,-89.00876760672904,9.049121,-3.5507467,19.312923,6.747437,-12.365391,0.44384053,-17.225805,-12.319166,-30.244934,16.918299,-10.926555,10.249368,-7.3154387,-6.7691183,11.79573,-7.343224,20.28315,-38.64781,59.22921,18.930582,-7.1287627,-4.0900536,3.0722976,-10.67754,22.585949,63.347973,-18.475042,-2.281655,5.3672814
149,3.5965960025787354,72.2181396484375,77.53101348876953,2.9325910950167424,-2.798302822977615,-89.56911862975039,8.865477,-3.2967079,19.8586,6.7435455,-12.06711,0.52625287,-17.694384,-12.77309,-30.644663,20.009146,-12.100641,9.420939,-7.19014,-6.6291966,11.982129,-7.2673697,20.317492,-38.414387,59.35954,19.078335,-7.0511584,-4.110686,2.966959,-10.567644,23.08006,63.71754,-18.90899,-2.14332,5.681367
150,3.6522700786590576,72.7028579711914,77.61695098876953,2.725261759031675,-2.968158846160314,-90.11553375911194,8.728758,-3.04107,20.38987,6.738721,-11.77154,0.62430507,-18.073256,-13.261067,-30.931973,23.212845,-13.234958,8.599746,-7.0819616,-6.4822564,12.199887,-7.150259,20.328043,-38.081596,59.491074,19.234488,-6.908965,-4.183846,2.857908,-10.4712715,23.557554,64.07558,-19.47963,-1.9258281,6.056823
151,3.7117063999176025,73.17781066894531,77.69822692871094,2.533922829292415,-3.1502730168168833,-90.62544037393602,8.602772,-2.8029795,20.884888,6.7365384,-11.476432,0.7342745,-18.387651,-13.784493,-31.107525,26.461508,-14.332449,7.7914023,-7.005916,-6.3467965,12.410117,-7.0161457,20.320118,-37.720963,59.63288,19.37246,-6.7360044,-4.2945127,2.762102,-10.388293,23.997606,64.40259,-20.078968,-1.677392,6.4751105
152,3.766063690185547,73.64318084716797,77.76891326904297,2.376300181393578,-3.3145234901649703,-91.07842058763015,8.454727,-2.6002765,21.323004,6.731492,-11.175306,0.8516297,-18.666618,-14.342225,-31.171824,29.692423,-15.403469,7.002876,-6.9718804,-6.2388425,12.573803,-6.8895206,20.303377,-37.409084,59.791378,19.462364,-6.5656896,-4.4273467,2.7002969,-10.317416,24.375786,64.667656,-20.598404,-1.4394999,6.918574
153,3.8230690956115723,74.0967788696289,77.83696746826172,2.245024451536796,-3.451343824866024,-91.47389802033535,8.272506,-2.4270883,21.703024,6.726372,-10.864564,0.97678554,-18.941614,-14.933558,-31.109573,32.956158,-16.462309,6.2213306,-6.9769373,-6.154903,12.685761,-6.7700915,20.28348,-37.145016,59.962017,19.492807,-6.3872995,-4.599299,2.6720097,-10.257499,24.675053,64.858826,-21.03851,-1.1947153,7.408402
154,3.866938591003418,74.54816436767578,77.90228271484375,2.1279730152066976,-3.573625537495945,-91.82585195084788,8.072542,-2.2690213,22.039196,6.7213583,-10.547763,1.109873,-19.202387,-15.542559,-30.92317,36.27143,-17.501049,5.4498053,-6.991785,-6.079118,12.771715,-6.655093,20.265316,-36.922,60.131855,19.470596,-6.1883936,-4.812223,2.6854455,-10.220076,24.88542,64.96774,-21.453144,-0.93144214,7.95015
155,3.908522844314575,74.98967742919922,77.95928192138672,2.0268717815278188,-3.684273946719136,-92.13695198386624,7.857882,-2.126547,22.33492,6.717737,-10.232895,1.2450112,-19.423046,-16.14758,-30.640827,39.544086,-18.503012,4.720111,-7.0543857,-6.0201206,12.818219,-6.5246363,20.246355,-36.718033,60.30479,19.424482,-6.001678,-5.02635,2.701191,-10.186639,25.075457,65.057076,-21.797955,-0.69575113,8.484099
156,3.9394359588623047,75.43374633789062,78.00726318359375,1.9433861103754426,-3.7857204610218496,-92.40989659080279,7.633311,-2.001309,22.593407,6.713754,-9.926159,1.3761218,-19.580812,-16.730534,-30.290993,42.691418,-19.456045,4.064944,-7.138161,-5.9779224,12.828122,-6.3969736,20.232855,-36.593002,60.480797,19.357286,-5.8578563,-5.2029676,2.7372243,-10.162006,25.234266,65.12706,-22.044062,-0.53725445,8.961423
157,3.9697182178497314,75.85911560058594,78.05426025390625,1.8747013096632554,-3.8758565968515444,-92.64251646582069,7.39792,-1.8883651,22.809935,6.7091546,-9.629189,1.499736,-19.692556,-17.274696,-29.845337,45.736374,-20.352158,3.520853,-7.2365575,-5.9479475,12.79732,-6.27956,20.230326,-36.583546,60.6617,19.241838,-5.761329,-5.3381305,2.8067157,-10.152814,25.350403,65.161995,-22.188408,-0.47055763,9.391557
158,3.9893958568573,76.27978515625,78.09381103515625,1.818494094062049,-3.952364068861495,-92.83669270596607,7.1488495,-1.7845753,22.986284,6.705965,-9.339079,1.6177822,-19.77612,-17.785936,-29.304144,48.730587,-21.20604,3.067876,-7.371568,-5.9300175,12.723807,-6.153035,20.23401,-36.63322,60.84341,19.093336,-5.697151,-5.45091,2.886132,-10.150855,25.44179,65.17718,-22.244148,-0.46612373,9.791088
159,4.005856037139893,76.69318389892578,78.12937927246094,1.7751414898545306,-4.017908287870378,-93.00046342331585,6.8880534,-1.6932491,23.135443,6.7015753,-9.051203,1.7322297,-19.80638,-18.282116,-28.740396,51.63076,-22.037529,2.653786,-7.524391,-5.926455,12.618722,-6.020153,20.245125,-36.727093,61.01952,18.94536,-5.6657605,-5.5355244,2.9743032,-10.154864,25.511372,65.182274,-22.200842,-0.50846785,10.125685
160,4.01629114151001,77.10275268554688,78.15780639648438,1.7466878698466783,-4.075655836094503,-93.1417714653128,6.6155405,-1.6182983,23.27045,6.6979322,-8.763731,1.845869,-19.756405,-18.785534,-28.225056,54.394413,-22.866705,2.22352,-7.666052,-5.9365892,12.504075,-5.8886104,20.265873,-36.845005,61.175125,18.843212,-5.668846,-5.5906186,3.0737154,-10.167127,25.530138,65.17725,-22.068375,-0.5848544,10.365921
161,4.0167341232299805,77.51300048828125,78.18067932128906,1.7355807051934782,-4.125791405967484,-93.2566819224203,6.331236,-1.5618051,23.38887,6.693623,-8.47756,1.9579095,-19.618343,-19.308826,-27.780293,57.034573,-23.712545,1.7634498,-7.780653,-5.962186,12.393335,-5.765058,20.314896,-37.015434,61.28979,18.788692,-5.72352,-5.6081367,3.211397,-10.202122,25.461983,65.1182,-21.818592,-0.71563476,10.515171
162,4.018370628356934,77.9218521118164,78.19502258300781,1.739413919417274,-4.166817503557686,-93.34314977877774,6.0337515,-1.5204648,23.485817,6.688997,-8.1928005,2.0672653,-19.40766,-19.837587,-27.369144,59.575447,-24.561787,1.3039856,-7.923249,-6.003502,12.260061,-5.636835,20.355299,-37.183247,61.408615,18.789122,-5.8272953,-5.5888557,3.330485,-10.233088,25.368654,65.07914,-21.45445,-0.8992501,10.57953
163,4.011712551116943,78.32592010498047,78.20997619628906,1.756017406347577,-4.198844746201628,-93.41331293022166,5.726663,-1.492447,23.572018,6.6842937,-7.9084487,2.1766317,-19.128723,-20.353853,-26.973078,61.979874,-25.39131,0.853745,-8.025733,-6.047174,12.126397,-5.5049257,20.42843,-37.39834,61.46888,18.801163,-5.938804,-5.560271,3.4959543,-10.2931185,25.205067,64.988075,-21.056087,-1.0946739,10.567031
164,4.011040687561035,78.72107696533203,78.22228240966797,1.7835094019037554,-4.2222046211971165,-93.47905096469847,5.4131722,-1.4758191,23.657558,6.6795964,-7.622923,2.2885048,-18.786144,-20.839247,-26.575094,64.20775,-26.176254,0.42134887,-8.133368,-6.090405,11.973495,-5.3412375,20.496824,-37.55812,61.49534,18.848759,-6.0224185,-5.5395603,3.6432576,-10.352872,25.059412,64.93589,-20.6819,-1.2531364,10.458403
165,4.00183629989624,79.1129379272461,78.22855377197266,1.8225015572708112,-4.2311369633183284,-93.53799187123882,5.087225,-1.4729806,23.74392,6.674296,-7.3360395,2.4079912,-18.376097,-21.311214,-26.198221,66.27063,-26.941841,-0.011347937,-8.238711,-6.1337686,11.789927,-5.155599,20.55221,-37.68148,61.498882,18.946323,-6.0673366,-5.5218596,3.7764626,-10.406094,24.922985,64.929665,-20.32801,-1.3687404,10.227922
166,3.9874136447906494,79.49706268310547,78.2303466796875,1.8748243411040273,-4.227286807806105,-93.58579984122471,4.7493963,-1.4840958,23.825869,6.667914,-7.0483027,2.5315957,-17.898048,-21.771984,-25.845598,68.18661,-27.690935,-0.4418509,-8.342047,-6.179661,11.578858,-4.957958,20.59519,-37.78682,61.48956,19.087515,-6.093842,-5.498292,3.9002807,-10.452465,24.781813,64.95877,-19.96701,-1.4651865,9.886645
167,3.9772796630859375,79.88520812988281,78.22642517089844,1.9363513924687932,-4.2232145808663715,-93.63173146987401,4.413105,-1.5047661,23.906338,6.662933,-6.7606444,2.6541805,-17.36515,-22.184017,-25.46977,69.92951,-28.366419,-0.82936096,-8.4180355,-6.22302,11.368376,-4.7509494,20.63875,-37.87312,61.453526,19.229591,-6.1099243,-5.4849544,4.030292,-10.507893,24.61567,64.9929,-19.640854,-1.5430541,9.485207
168,3.954059600830078,80.27244567871094,78.22126007080078,2.005069750697443,-4.2311097261552,-93.6852335930074,4.0938206,-1.5304909,23.987719,6.6559834,-6.4700413,2.7700148,-16.791,-22.508362,-25.026033,71.471756,-28.909943,-1.132205,-8.468092,-6.2635517,11.172763,-4.535654,20.673027,-37.90997,61.409218,19.341368,-6.1247287,-5.4938107,4.1485963,-10.563857,24.436867,65.04987,-19.38871,-1.5993583,9.064826
169,3.933258056640625,80.64844512939453,78.21340942382812,2.0827373209911326,-4.2526566730088655,-93.74929822483284,3.7939403,-1.5628331,24.069534,6.648521,-6.1770506,2.877779,-16.173231,-22.750639,-24.517832,72.82261,-29.313221,-1.3771033,-8.483844,-6.301106,10.995591,-4.3104024,20.69831,-37.891956,61.35299,19.4164,-6.1436944,-5.5386796,4.262964,-10.623105,24.236036,65.12538,-19.22334,-1.6348292,8.601171
170,3.917438507080078,81.02657318115234,78.19926452636719,2.1685063071786206,-4.281819100667843,-93.81880093061974,3.5067244,-1.6038898,24.150997,6.6401043,-5.8824286,2.9806688,-15.506849,-22.926054,-23.968863,73.993744,-29.60303,-1.5711734,-8.470867,-6.3345847,10.829669,-4.073011,20.715464,-37.827644,61.277782,19.474714,-6.161348,-5.6094728,4.378744,-10.694442,24.013622,65.21058,-19.122198,-1.6496748,8.084333
171,3.895869731903076,81.4099349975586,78.1861801147461,2.260916914471716,-4.319726041572263,-93.89145278582373,3.2307239,-1.648958,24.234343,6.6304994,-5.585999,3.0800586,-14.801548,-23.010841,-23.36675,74.96275,-29.77627,-1.6463091,-8.438355,-6.3639674,10.674096,-3.8350008,20.719595,-37.73171,61.201252,19.51065,-6.169876,-5.6824775,4.4778876,-10.764689,23.78584,65.31663,-19.070961,-1.6393155,7.5766006
172,3.8761887550354004,81.78834533691406,78.17028045654297,2.3541080319477783,-4.3672124325526145,-93.96477616584703,2.9646301,-1.6929991,24.322067,6.621607,-5.290064,3.1769383,-14.065875,-22.9803,-22.69962,75.708244,-29.832186,-1.5339146,-8.386319,-6.385966,10.533817,-3.6056042,20.712841,-37.622475,61.1271,19.521223,-6.161217,-5.7356677,4.5548177,-10.833623,23.556705,65.4359,-19.05615,-1.6004015,7.144164
173,3.856717348098755,82.16232299804688,78.15052795410156,2.4463355989924187,-4.428599810976317,-94.04073798046792,2.713373,-1.7343916,24.418018,6.614022,-4.997193,3.269278,-13.29732,-22.813595,-21.942032,76.22623,-29.75946,-1.1926976,-8.312026,-6.3921213,10.417731,-3.386303,20.693624,-37.504993,61.051525,19.487196,-6.1256647,-5.764647,4.6209717,-10.917167,23.306078,65.54775,-19.097294,-1.5218662,6.802833
174,3.830907106399536,82.54026794433594,78.12983703613281,2.54080181370381,-4.501928059780933,-94.12018000970156,2.475924,-1.7759091,24.52018,6.605559,-4.704694,3.3575268,-12.488013,-22.527384,-21.110846,76.530304,-29.570023,-0.6666466,-8.213703,-6.382182,10.322127,-3.1762874,20.656078,-37.372444,60.976368,19.416304,-6.070137,-5.7801175,4.682783,-11.020539,23.036575,65.650955,-19.191305,-1.4082695,6.5204754
175,3.804090976715088,82.92447662353516,78.10611724853516,2.638605744962151,-4.578484587401727,-94.1987467499769,2.241283,-1.8187486,24.621965,6.59715,-4.408961,3.4464192,-11.640032,-22.15438,-20.254307,76.623695,-29.29738,-0.016285319,-8.098023,-6.3804455,10.229876,-2.9683144,20.620523,-37.22157,60.898872,19.340925,-6.010802,-5.7851715,4.7045484,-11.096163,22.790586,65.79808,-19.29872,-1.279696,6.2843866
176,3.780385971069336,83.31243133544922,78.08544158935547,2.741122632891341,-4.649559988608697,-94.27185382888679,1.9975277,-1.8636465,24.716562,6.5878696,-4.10406,3.540977,-10.757233,-21.729546,-19.418633,76.509285,-28.972374,0.6966593,-7.9548025,-6.359461,10.147776,-2.7839465,20.557177,-37.059742,60.821552,19.299583,-5.967406,-5.782178,4.740029,-11.217848,22.576153,65.90433,-19.375341,-1.1612698,6.1137824
177,3.751244306564331,83.70272827148438,78.06204223632812,2.849453594592606,-4.715497282537583,-94.33843647442126,1.7446264,-1.9131308,24.798513,6.5804777,-3.7892919,3.644301,-9.843606,-21.240454,-18.575935,76.18745,-28.602654,1.4727259,-7.792677,-6.3403673,10.065367,-2.6069005,20.485695,-36.875526,60.73632,19.304897,-5.941355,-5.7704115,4.7573605,-11.340707,22.41556,66.02064,-19.417973,-1.0415081,5.99877
178,3.7161941528320312,84.09117126464844,78.03275299072266,2.961297378887236,-4.78012528954086,-94.400775431633,1.4882271,-1.9660658,24.872576,6.572963,-3.4664092,3.7532618,-8.891218,-20.679861,-17.710855,75.65718,-28.179533,2.3339913,-7.6101213,-6.320163,9.988428,-2.4362476,20.406977,-36.66909,60.64156,19.338148,-5.923882,-5.7496486,4.757386,-11.467352,22.290588,66.14431,-19.44763,-0.9143826,5.9397893
179,3.684441328048706,84.47803497314453,77.99842071533203,3.077668437507206,-4.8397802899895535,-94.45916502081431,1.2223802,-2.018112,24.947687,6.5662403,-3.1391146,3.8630984,-7.895094,-20.093445,-16.883205,74.92533,-27.707834,3.2499113,-7.411121,-6.2975903,9.914397,-2.2761025,20.32327,-36.45347,60.54351,19.376219,-5.915442,-5.722585,4.7382436,-11.599815,22.207146,66.273346,-19.454252,-0.8065328,5.9314685
180,3.6407768726348877,84.87349700927734,77.96766662597656,3.192521879429055,-4.89102529067389,-94.51404794745203,0.94385266,-2.065602,25.032925,6.5574555,-2.8101974,3.9685962,-6.853177,-19.526361,-16.15109,73.9957,-27.186825,4.1908445,-7.200058,-6.271742,9.840717,-2.1301348,20.237951,-36.241302,60.447643,19.395618,-5.916329,-5.6919384,4.69767,-11.739633,22.17217,66.40618,-19.42761,-0.7444023,5.9683366
181,3.598662853240967,85.27538299560547,77.93089294433594,3.310942509215145,-4.934800334398732,-94.56724657199709,0.65295166,-2.1086166,25.137703,6.5489783,-2.4844239,4.0673413,-5.761414,-18.979406,-15.509559,72.86141,-26.64085,5.1867146,-6.975037,-6.24489,9.766521,-1.9942262,20.153164,-36.031616,60.349716,19.384235,-5.923232,-5.6577744,4.635995,-11.889622,22.18643,66.547,-19.356882,-0.75208133,6.0738473
182,3.549607515335083,85.68023681640625,77.88885498046875,3.431003366474807,-4.972369276605321,-94.61801797629604,0.33555624,-2.1397908,25.255379,6.579216,-2.1794794,4.1614614,-4.624195,-18.435572,-14.926063,71.52141,-26.062836,6.2358756,-6.734837,-6.216106,9.694207,-1.8660834,20.069664,-35.819237,60.244267,19.355412,-5.9370804,-5.6193633,4.555203,-12.05047,22.247858,66.69207,-19.248777,-0.8097467,6.243494
183,3.492969274520874,86.08890533447266,77.84803771972656,3.5504674763149557,-5.000204791050384,-94.66230793337303,-0.00012392932,-2.165658,25.369001,6.6115227,-1.867876,4.254798,-3.459983,-17.913334,-14.414466,69.995026,-25.40059,7.265722,-6.4856777,-6.182297,9.625208,-1.7508254,19.98884,-35.608147,60.134758,19.326117,-5.9646206,-5.5783105,4.454693,-12.21891,22.356031,66.829285,-19.122221,-0.8778411,6.4291506
184,3.429053783416748,86.50333404541016,77.80545043945312,3.6658035248486027,-5.0150113257916065,-94.69567456686916,-0.36430365,-2.1836905,25.462048,6.6526256,-1.5448405,4.350679,-2.2900953,-17.430046,-13.98875,68.30171,-24.598133,8.205015,-6.2328987,-6.142549,9.560338,-1.6547263,19.912617,-35.403996,60.026234,19.312744,-6.0124555,-5.5359545,4.3294864,-12.390637,22.512892,66.95206,-18.993402,-0.91723585,6.5814605
185,3.3693652153015137,86.92508697509766,77.75904846191406,3.7717535731904035,-5.0195997754327655,-94.70976833593318,-0.7532499,-2.1947777,25.521639,6.6991653,-1.2071724,4.449132,-1.1052237,-17.012087,-13.701316,66.43833,-23.554884,9.098814,-5.977579,-6.095393,9.501437,-1.5814081,19.842903,-35.211163,59.91977,19.329636,-6.0940723,-5.4935303,4.1806765,-12.561924,22.736147,67.06019,-18.84675,-0.91186166,6.687341
186,3.300572156906128,87.35892486572266,77.71029663085938,3.8721525123406355,-5.0145489100248986,-94.70946524459731,-1.1636996,-2.1992278,25.559303,6.748871,-0.85766256,4.548133,0.09528707,-16.63443,-13.520893,64.397156,-22.322887,9.969128,-5.71709,-6.0431805,9.446991,-1.5247107,19.780523,-35.023605,59.810974,19.36645,-6.201826,-5.4501424,4.0067987,-12.731582,23.019936,67.16068,-18.680098,-0.88448226,6.7719574
187,3.231567859649658,87.79605102539062,77.6607666015625,3.971651030056817,-4.992752334297148,-94.7098849432591,-1.6030434,-2.1950517,25.59513,6.8034415,-0.49756822,4.6482086,1.2802466,-16.241268,-13.340946,62.1911,-21.075012,10.711582,-5.450963,-5.9892197,9.39312,-1.4796162,19.726023,-34.837658,59.698643,19.395624,-6.3107066,-5.4039865,3.8016937,-12.899702,23.327816,67.25489,-18.53415,-0.8540252,6.843964
188,3.1546144485473633,88.2437515258789,77.60741424560547,4.07524568552695,-4.947311734992156,-94.72611276620508,-2.0758328,-2.182429,25.649696,6.857844,-0.12489909,4.750521,2.4235592,-15.787375,-13.060782,59.831238,-19.98561,11.21717,-5.177714,-5.936698,9.3366375,-1.4394181,19.67895,-34.646206,59.580036,19.394087,-6.395557,-5.3536525,3.5634978,-13.065996,23.619383,67.34025,-18.452593,-0.83969104,6.9130177
189,3.065605878829956,88.70221710205078,77.55403900146484,4.188573213361691,-4.872418423215314,-94.76629392944673,-2.589231,-2.161583,25.728569,6.917489,0.2579691,4.86674,3.5208678,-15.249317,-12.63563,57.2882,-18.961632,11.388737,-4.8940105,-5.8868,9.268514,-1.4015679,19.638819,-34.457188,59.457047,19.333961,-6.445322,-5.2929564,3.2899804,-13.231151,23.893105,67.42264,-18.461094,-0.8501698,6.9926987
190,2.974949359893799,89.1739501953125,77.4968032836914,4.304702343587484,-4.773500113555846,-94.82011747195624,-3.1378918,-2.131976,25.82023,6.982236,0.65084034,4.993035,4.5898595,-14.663709,-12.131698,54.573193,-17.960836,11.303172,-4.600748,-5.8372,9.193926,-1.3703607,19.605349,-34.271423,59.330536,19.235966,-6.4748783,-5.2247267,2.984267,-13.395709,24.164806,67.49978,-18.533707,-0.8743199,7.0743966
191,2.8833272457122803,89.6583023071289,77.42826843261719,4.418256679175524,-4.660702989036472,-94.8760540324702,-3.7092707,-2.0912201,25.91851,7.0433846,1.0568702,5.107236,5.635334,-14.077648,-11.616808,51.758144,-17.231173,11.11123,-4.3011665,-5.7866993,9.130621,-1.3534975,19.579428,-34.078564,59.19978,19.14334,-6.4980845,-5.160372,2.6491587,-13.5521,24.422794,67.56318,-18.630795,-0.9014115,7.133468
192,2.790778398513794,90.14837646484375,77.34284973144531,4.524312262295937,-4.543981881516926,-94.92282745569867,-4.2891808,-2.0396397,26.017902,7.0860825,1.4832228,5.1875386,6.6633224,-13.53118,-11.156818,48.89808,-17.015074,10.967959,-4.003428,-5.7327437,9.0964775,-1.3557787,19.56031,-33.861935,59.06168,19.100256,-6.528785,-5.111621,2.2875226,-13.706277,24.66202,67.59902,-18.709671,-0.9204144,7.146623
193,2.696483850479126,90.65425109863281,77.25885009765625,4.637721580784094,-4.422863491811882,-94.96345899061288,-4.8788075,-1.9939449,26.132942,7.112533,1.9361504,5.2574544,7.7216077,-13.004592,-10.690542,45.838665,-17.48479,10.980903,-3.7006133,-5.689683,9.090366,-1.3746012,19.548756,-33.60834,58.90768,19.14081,-6.568481,-5.097325,1.9076703,-13.859135,24.884283,67.59795,-18.77257,-0.9256705,7.0995913
194,2.5845298767089844,91.16888427734375,77.18215942382812,4.755829687855385,-4.2927169753625645,-95.00239323454164,-5.4818397,-1.9497589,26.26161,7.124078,2.412215,5.319149,8.799268,-12.479713,-10.212452,42.57847,-18.459652,11.053163,-3.38947,-5.6563115,9.103204,-1.4106361,19.546694,-33.333405,58.744602,19.23147,-6.610179,-5.105801,1.5024594,-14.002907,25.089058,67.576164,-18.839916,-0.9236917,7.005811
195,2.4629745483398438,91.69688415527344,77.10430145263672,4.847232693368891,-4.157510643090953,-95.03183495817456,-6.0934534,-1.8736659,26.373013,7.116537,2.897804,5.3188496,9.811686,-11.98357,-9.87159,39.389946,-19.642927,11.046285,-3.0856357,-5.600311,9.144065,-1.4633179,19.553064,-33.05092,58.58016,19.32483,-6.655598,-5.1038966,1.0626106,-14.140312,25.272684,67.53757,-18.890766,-0.92197174,6.888532
196,2.363755464553833,92.2479248046875,77.01628875732422,4.876720310469651,-4.02175684422463,-95.04399405040202,-6.709462,-1.7330302,26.43498,7.0869956,3.379384,5.203269,10.666248,-11.530779,-9.814784,36.560795,-20.748726,10.831252,-2.8023925,-5.4878125,9.222258,-1.5342516,19.564878,-32.776993,58.42359,19.37372,-6.7064543,-5.058349,0.5820614,-14.27477,25.428808,67.48256,-18.904696,-0.92826164,6.771568
197,2.249479055404663,92.80953979492188,76.92755126953125,4.865303863087003,-3.8879736700417427,-95.04909123622264,-7.331252,-1.5468156,26.450521,7.034128,3.880215,4.979389,11.317023,-11.168689,-10.135974,34.22773,-21.832624,10.351547,-2.5246568,-5.3429317,9.343025,-1.642717,19.582716,-32.528416,58.289104,19.365492,-6.77061,-4.9553623,0.057402313,-14.397843,25.532555,67.40657,-18.882957,-0.93773305,6.666
198,2.12908935546875,93.39464569091797,76.84317016601562,4.821502660524432,-3.7530224284361844,-95.04890511786995,-7.960896,-1.3255407,26.431917,6.9579463,4.4018297,4.670291,11.822355,-10.845192,-10.741599,32.204758,-23.006702,9.714298,-2.2566998,-5.166055,9.503723,-1.7708089,19.61016,-32.28035,58.152386,19.328896,-6.845584,-4.8162217,-0.4986293,-14.529003,25.60286,67.290184,-18.828613,-0.948995,6.562037
199,2.003960371017456,93.98970794677734,76.77409362792969,4.69235724298436,-3.6141468686697222,-95.02291659256504,-8.596129,-1.0270201,26.359028,6.861305,4.8951144,4.246164,12.242674,-10.433793,-11.493976,30.310356,-24.077126,9.019471,-2.002054,-4.9122133,9.681125,-1.9265344,19.630878,-32.05569,58.052547,19.25949,-6.9139295,-4.649552,-1.1018095,-14.6306095,25.652092,67.20594,-18.75235,-0.97387075,6.4315863
200,1.891218662261963,94.58636474609375,76.71975708007812,4.42535562105306,-3.468101221980807,-94.95080153505243,-9.249167,-0.59928125,26.2104,6.7781677,5.29517,3.6753557,12.636828,-9.818813,-12.253539,28.363832,-24.84276,8.347443,-1.8284067,-4.502083,9.879923,-2.0363767,19.64741,-31.7781,57.917515,19.173815,-6.9638658,-4.4780483,-1.72884,-14.788585,25.766216,67.09973,-18.626219,-1.0251046,6.2754874
201,1.7802823781967163,95.18418884277344,76.68358612060547,3.965114224050587,-3.299673273831054,-94.81558829821998,-9.983607,0.037051287,25.973042,6.8094254,5.55925,2.9275105,12.9946785,-8.94199,-13.0505905,26.322004,-25.212208,7.64829,-1.7201444,-3.886806,10.078546,-2.1520267,19.637875,-31.501774,57.810696,19.041138,-6.9902477,-4.2908463,-2.392701,-14.964071,25.924416,67.02637,-18.428656,-1.1203331,6.0605826
202,1.6809818744659424,95.8097152709961,76.66255187988281,3.3573714395245218,-3.1155445806838915,-94.6357646921099,-10.743932,0.8111201,25.659334,6.8296685,5.77277,2.0269232,13.306121,-7.878753,-13.934374,24.25134,-25.296438,6.8886247,-1.6671374,-3.1098423,10.2873955,-2.2761986,19.598646,-31.2161,57.73329,18.872972,-7.0020833,-4.0826793,-3.093146,-15.1609955,26.11607,66.96666,-18.170483,-1.248648,5.804287
203,1.5966328382492065,96.4255599975586,76.64717102050781,2.6969528824871976,-2.9442198863418376,-94.44259510504251,-11.454256,1.6023777,25.288757,6.7509475,5.9463444,1.020049,13.613446,-6.7287097,-14.787399,22.163534,-25.19294,6.158722,-1.6371785,-2.2663805,10.523627,-2.3957007,19.528315,-30.916204,57.681503,18.709133,-7.000512,-3.863565,-3.8095968,-15.378341,26.31793,66.89544,-17.925543,-1.3795211,5.5491986
204,1.5238996744155884,97.04459381103516,76.63191223144531,2.079594236005817,-2.815791278996044,-94.2667780637881,-12.022806,2.2831905,24.891022,6.4627037,6.0984316,-0.046348844,13.948716,-5.6081495,-15.487106,20.090527,-25.0055,5.5463214,-1.597799,-1.4591049,10.803095,-2.4956322,19.426228,-30.596264,57.64902,18.59196,-6.9860945,-3.6443753,-4.51931,-15.610772,26.504648,66.78742,-17.77002,-1.4813975,5.337148
205,1.4447286128997803,97.66859436035156,76.6120834350586,1.5220423459867776,-2.7308866252109083,-94.11687145063355,-12.593777,2.9191499,24.485382,6.3174243,6.020508,-1.166336,14.312348,-4.5468774,-15.987408,18.016811,-24.715752,5.076165,-1.5464023,-0.69755447,11.130059,-2.568708,19.287134,-30.23981,57.636215,18.52777,-6.9622965,-3.4121242,-5.2422543,-15.858609,26.701725,66.66469,-17.732445,-1.5499659,5.1644115
206,1.3789972066879272,98.29529571533203,76.58551788330078,0.9824856676565622,-2.6766654248508788,-93.98014333084264,-13.17896,3.5531824,24.064503,6.299481,5.741257,-2.3617077,14.674315,-3.5153139,-16.346724,15.958574,-24.288158,4.6858,-1.4970539,0.05920141,11.4941,-2.626133,19.108738,-29.855312,57.650578,18.496595,-6.9274254,-3.1663961,-5.982218,-16.121834,26.915306,66.53445,-17.770206,-1.59992,5.013824
207,1.3205913305282593,98.92500305175781,76.55005645751953,0.4739733584747521,-2.662251694701023,-93.85286598408321,-13.713249,4.1410985,23.608976,6.280784,5.3513947,-3.6333017,15.027597,-2.5364828,-16.602472,13.988545,-23.802212,4.334001,-1.4411542,0.7837647,11.886925,-2.6845531,18.899942,-29.48108,57.697357,18.498047,-6.873639,-2.9365318,-6.698669,-16.393833,27.09263,66.35847,-17.847858,-1.6272746,4.9053526
208,1.2646805047988892,99.55877685546875,76.5054702758789,0.007039538575997918,-2.6976380632193853,-93.72852381117185,-14.184673,4.665498,23.093586,6.2587376,4.8741636,-4.9829617,15.356727,-1.6264513,-16.797348,12.203465,-23.342594,3.9839664,-1.3696852,1.4484531,12.301719,-2.756245,18.677221,-29.1562,57.773827,18.531862,-6.7925754,-2.7525055,-7.3508873,-16.665627,27.172148,66.09886,-17.935486,-1.6285784,4.8580704
209,1.2069621086120605,100.18305969238281,76.44831848144531,-0.4076983546075736,-2.803800873044326,-93.60967702085362,-14.579772,5.1091943,22.479877,6.245211,4.2501516,-6.4632215,15.670743,-0.800072,-16.91731,10.6432905,-22.959393,3.641782,-1.2717097,2.0341747,12.762791,-2.8368502,18.450546,-28.873558,57.86925,18.611017,-6.6644096,-2.6111627,-7.9330797,-16.932907,27.118073,65.738106,-18.06072,-1.5858214,4.8994436
210,1.1316092014312744,100.80766296386719,76.38653564453125,-0.7860860238509756,-2.9714211004579485,-93.49173192764349,-14.902167,5.4932494,21.797338,6.231134,3.4810646,-8.0495825,15.971235,-0.042148035,-16.955345,9.2664,-22.603458,3.318594,-1.1588097,2.5619128,13.267325,-2.9160035,18.222069,-28.621574,57.975986,18.728483,-6.498601,-2.5018928,-8.466982,-17.195948,26.964546,65.30145,-18.229956,-1.5071493,5.0113025
211,1.0511106252670288,101.41401672363281,76.33818817138672,-1.155670134276595,-3.1639340159659928,-93.35528163872124,-15.184722,5.862729,21.11349,6.22377,2.665965,-9.632908,16.245129,0.6888106,-16.973488,8.017665,-22.202925,2.9936655,-1.0576106,3.063143,13.770075,-2.9949403,17.99896,-28.428795,58.09351,18.853107,-6.331238,-2.4434233,-8.954873,-17.452353,26.754627,64.81548,-18.380184,-1.4275967,5.142922
212,0.9548031091690063,102.00703430175781,76.30377197265625,-1.5430329259991233,-3.344698106850007,-93.18265775339619,-15.459217,6.2570662,20.489798,6.225067,1.9172295,-11.111029,16.00937,1.2834926,-17.042032,7.884246,-22.238642,2.6550846,-0.992375,3.5642488,14.227362,-3.0751941,17.792553,-28.325706,58.220394,18.951551,-6.198584,-2.4542432,-9.402915,-17.699947,26.532026,64.312004,-18.447172,-1.3829267,5.2422824
213,0.8514395952224731,102.59011840820312,76.27774810791016,-2.0170581575230426,-3.5252783934958356,-92.97059146083048,-15.752942,6.7437277,19.816765,6.225123,1.2123139,-12.616428,15.747844,1.983403,-17.167294,7.821089,-22.116234,2.2697365,-0.966934,4.1260915,14.652861,-3.1494021,17.613848,-28.302307,58.333447,19.040535,-6.0984173,-2.5649998,-9.810238,-17.937223,26.308025,63.76813,-18.420553,-1.3673027,5.3273854
214,0.7459583878517151,103.16754913330078,76.2636947631836,-2.5469606891349077,-3.718391980749312,-92.72341432881058,-16.043978,7.2832704,19.097576,6.22792,0.5111421,-14.153396,15.506169,2.7604136,-17.32759,7.7654963,-21.839035,1.8567928,-0.97527295,4.7148604,15.067454,-3.2088172,17.466402,-28.34304,58.426132,19.128708,-6.0157347,-2.759056,-10.178792,-18.163877,26.060787,63.18309,-18.331406,-1.3695227,5.4132757
215,0.659211277961731,103.73876190185547,76.27774047851562,-3.004352988713378,-3.8776309995304454,-92.39621722681345,-16.311525,7.683014,18.536245,6.225851,-0.06849773,-15.000033,15.2372,3.4369364,-17.583326,7.7330947,-21.48855,1.4796457,-1.0623102,5.215967,15.430255,-3.2553494,17.346186,-28.472935,58.52294,19.168203,-5.966911,-2.9834049,-10.503801,-18.378254,25.77737,62.596733,-18.183325,-1.4076754,5.447798
216,0.5866062641143799,104.31073760986328,76.3349380493164,-3.2737858182843858,-3.969212232142296,-91.99086008287354,-16.49862,7.8369184,18.338594,6.2186728,-0.40916774,-15.000033,14.902126,3.8579412,-17.945583,7.726652,-21.136988,1.1868163,-1.2406373,5.5105247,15.706552,-3.2784936,17.260094,-28.700577,58.643112,19.115103,-5.9681954,-3.1855624,-10.815107,-18.548328,25.464663,62.092953,-17.977386,-1.5035677,5.3703675
217,0.5061825513839722,104.86653137207031,76.43521118164062,-3.3313585752252126,-3.976756377039953,-91.58668247794158,-16.571388,7.8777604,18.654917,6.2398114,-0.45541874,-15.000033,14.475151,4.0117707,-18.338026,7.7227807,-20.755852,0.9735065,-1.4152328,5.5858645,15.876154,-3.320978,17.185625,-29.088648,58.833252,18.929455,-6.02448,-3.3434892,-11.086264,-18.70962,25.106209,61.64016,-17.669773,-1.6863043,5.1609697
218,0.414044588804245,105.40974426269531,76.55403900146484,-3.2733521735048594,-3.9135591785830948,-91.17285095838552,-16.615717,7.8985105,19.312555,6.38747,-0.33397725,-15.000033,13.973567,4.0217886,-18.758074,7.716053,-20.31447,0.80445045,-1.5730263,5.546281,15.948827,-3.4016228,17.111734,-29.641937,59.093163,18.63795,-6.126003,-3.485661,-11.280279,-18.884539,24.674522,61.184135,-17.280226,-1.9393318,4.858515
219,0.32218077778816223,105.94668579101562,76.68136596679688,-3.1130182257215773,-3.8453616314181094,-90.74305969338302,-16.53702,7.855093,20.14158,6.5758715,-0.134033,-15.000033,13.478006,3.9043975,-19.199776,7.7082367,-19.859673,0.6616123,-1.7534729,5.389083,15.985708,-3.4666667,17.056084,-30.242352,59.37315,18.316036,-6.269898,-3.6339545,-11.428109,-19.024084,24.194563,60.771706,-16.891428,-2.2125154,4.486344
220,0.24497728049755096,106.47894287109375,76.81130981445312,-2.875915935750927,-3.808639037092219,-90.21961898323207,-16.329107,7.6068435,20.94113,6.7414002,0.06301839,-14.190298,13.034386,3.6675258,-19.730684,7.724338,-19.45084,0.5428273,-2.0112207,5.1467032,16.023146,-3.5112488,17.013231,-30.842169,59.657238,18.022243,-6.4513626,-3.8051045,-11.491495,-19.12537,23.619167,60.383972,-16.598413,-2.4562073,4.0794697
221,0.17106109857559204,106.99788665771484,76.94275665283203,-2.575776471620836,-3.848597942159138,-89.65293649239665,-15.921768,7.270859,21.74459,6.940309,0.18919674,-13.096571,12.696885,3.3421228,-20.293232,7.7463665,-19.084738,0.42585605,-2.2771218,4.8309846,16.091635,-3.554059,16.978271,-31.50375,59.983536,17.7137,-6.702132,-3.9779031,-11.43684,-19.188856,22.899466,60.014656,-16.437086,-2.686169,3.6046274
222,0.0995517373085022,107.51234436035156,77.0757827758789,-2.216153002193737,-3.941769143253487,-89.06401168981569,-16.219553,7.255026,22.50094,9.186693,-0.76807153,-11.741844,12.432501,2.9325945,-20.871042,7.7745137,-18.738993,0.31798574,-2.5607135,4.4418354,16.166183,-3.571031,16.956837,-32.211678,60.338932,17.380934,-7.012567,-4.1540227,-11.32023,-19.199831,22.094732,59.70178,-16.350016,-2.9180307,3.0545163
223,0.021397339180111885,108.02012634277344,77.20518493652344,-1.8666395219742034,-4.0679760811847405,-88.48811631334375,-17.001362,7.5515523,23.138474,12.858049,-2.4672537,-10.336245,12.069205,2.4678895,-21.437075,8.126649,-18.581615,0.21075545,-2.8200505,4.05172,16.237583,-3.5624685,16.94785,-32.879143,60.683174,17.120026,-7.319893,-4.377225,-11.156193,-19.165247,21.227478,59.417343,-16.307716,-3.101535,2.5112627
224,-0.04133298993110657,108.50228881835938,77.3287353515625,-1.5814453290618078,-4.197895559997632,-87.9471099394692,-17.62286,7.89897,23.645435,16.31159,-4.011839,-9.083704,11.659003,2.0475278,-21.967634,8.598079,-18.506382,0.09604508,-3.0355113,3.716296,16.294315,-3.5242405,16.949673,-33.403614,60.963226,17.034327,-7.558375,-4.691612,-10.966376,-19.098658,20.337614,59.133533,-16.268816,-3.1864624,2.0565126
225,-0.11432342231273651,108.99812316894531,77.43113708496094,-1.3539362003156936,-4.333838633132076,-87.42152990645096,-18.13945,8.281726,23.994818,19.664957,-5.4336314,-8.013273,11.354822,1.7247394,-22.48131,8.85137,-18.338814,-0.02683859,-3.2243726,3.4287407,16.346697,-3.4580274,16.961464,-33.74441,61.168636,17.191336,-7.718266,-5.140147,-10.740671,-19.00319,19.392036,58.828518,-16.229776,-3.134828,1.7100652
226,-0.17779631912708282,109.47651672363281,77.52555847167969,-1.1599129609212218,-4.487874217868648,-86.90473550041904,-18.560528,8.694985,24.232092,23.008986,-6.795693,-7.023279,11.143386,1.4610885,-22.984982,8.951784,-18.11264,-0.15411235,-3.395784,3.1659913,16.400259,-3.3654423,16.983728,-33.955597,61.32139,17.524324,-7.8349414,-5.6879864,-10.476008,-18.877249,18.386524,58.51562,-16.20681,-2.9808066,1.4299502
227,-0.24867749214172363,109.9517822265625,77.6058349609375,-1.0011701613336201,-4.635045910086503,-86.4226486710302,-18.90003,9.137108,24.3718,26.27178,-8.081127,-6.1257877,10.966699,1.252693,-23.453371,8.955913,-17.850178,-0.28042483,-3.5324001,2.9348114,16.430079,-3.2501552,17.016983,-34.078094,61.421703,17.934355,-7.912312,-6.261618,-10.198529,-18.730927,17.405682,58.214348,-16.183878,-2.7834048,1.2052772
228,-0.31095418334007263,110.41130828857422,77.6826400756836,-0.8805051393695672,-4.749291457207654,-86.00121222336992,-19.177614,9.607955,24.427925,29.391594,-9.280678,-5.3346543,10.771908,1.0977645,-23.855738,8.906458,-17.5688,-0.40538287,-3.6210258,2.7419825,16.41084,-3.1140687,17.061985,-34.15034,61.46813,18.320984,-7.9516263,-6.788154,-9.925437,-18.582376,16.534267,57.936886,-16.14948,-2.6015475,1.0255224
229,-0.37102940678596497,110.8709487915039,77.75122833251953,-0.7887911176746631,-4.820698324294526,-85.63899035343712,-19.422318,10.086965,24.376156,32.401485,-10.3882475,-4.689796,10.546357,0.9841052,-24.189646,8.809309,-17.274147,-0.52323353,-3.6615665,2.5839224,16.333607,-2.951921,17.117813,-34.15904,61.43876,18.695568,-7.922939,-7.2687297,-9.639548,-18.442719,15.776588,57.66227,-16.098137,-2.4214485,0.8955847
230,-0.42623305320739746,111.32062530517578,77.80882263183594,-0.7155509393528303,-4.85948699358001,-85.31832033590895,-19.637566,10.558836,24.224741,35.346455,-11.417489,-4.1751237,10.30238,0.89603007,-24.47561,8.668485,-16.968765,-0.6333344,-3.6665938,2.4505239,16.211807,-2.7668443,17.18347,-34.091072,61.337822,19.100008,-7.8361254,-7.7366366,-9.327683,-18.312857,15.092632,57.378407,-16.034258,-2.2216756,0.8205005
231,-0.4776826500892639,111.76396942138672,77.85765075683594,-0.6621728729290179,-4.870248219766268,-85.04199791484528,-19.80409,11.040665,24.034283,38.188435,-12.393697,-3.7210493,10.029068,0.83071953,-24.719177,8.517778,-16.661476,-0.73997575,-3.6396005,2.342931,16.054932,-2.5711317,17.259304,-33.984966,61.202255,19.482414,-7.7492146,-8.167415,-9.008871,-18.197163,14.501014,57.108967,-15.959199,-2.0496716,0.7907087
232,-0.5169742107391357,112.21165466308594,77.89893341064453,-0.6326466438159163,-4.858502289801172,-84.81355361750565,-19.898647,11.553336,23.86386,40.88501,-13.341845,-3.2563126,9.716606,0.7868122,-24.92489,8.387261,-16.358408,-0.84775484,-3.5830855,2.2633572,15.873149,-2.3746657,17.345402,-33.876743,61.067112,19.792364,-7.7191157,-8.536163,-8.700888,-18.101112,14.020406,56.87602,-15.873693,-1.9530306,0.79715073
233,-0.5538040995597839,112.6520767211914,77.93386840820312,-0.6242861514531227,-4.813204690684779,-84.6443149564067,-19.937773,12.099228,23.706326,43.448322,-14.269396,-2.777755,9.347883,0.76671034,-25.08562,8.282456,-16.059544,-0.961626,-3.4863832,2.217607,15.655869,-2.1809862,17.442848,-33.7774,60.930473,20.026596,-7.762819,-8.846833,-8.402428,-18.030975,13.654161,56.674763,-15.774039,-1.9542103,0.8600105
234,-0.5801113247871399,113.0860595703125,77.96315002441406,-0.6375077581688131,-4.734427254015874,-84.52762065825313,-19.93256,12.6636095,23.540651,45.90595,-15.167807,-2.3205779,8.932047,0.7657724,-25.20281,8.186715,-15.760563,-1.0767753,-3.351515,2.201702,15.402007,-1.9841663,17.550632,-33.669395,60.777206,20.208157,-7.8493633,-9.108872,-8.099627,-17.987562,13.391727,56.49191,-15.658766,-2.0246928,0.9783171
235,-0.6075924038887024,113.51632690429688,77.98746490478516,-0.6650186270844819,-4.645168504918151,-84.44143109678878,-19.84962,13.247847,23.401657,48.236683,-16.037876,-1.8694988,8.492147,0.7732915,-25.293919,8.116711,-15.473284,-1.1837021,-3.2009768,2.2047086,15.134221,-1.7808177,17.665154,-33.54763,60.622036,20.32241,-7.9587564,-9.306248,-7.793697,-17.967623,13.230565,56.340023,-15.5378,-2.1354632,1.1106217
236,-0.6361436247825623,113.95014190673828,78.0042495727539,-0.7005998422289483,-4.568674270778578,-84.36380453982659,-19.653486,13.854972,23.324373,50.4165,-16.879951,-1.4082245,8.059759,0.78332895,-25.376297,8.071376,-15.200702,-1.2730995,-3.0567377,2.2154133,14.875419,-1.5705131,17.780668,-33.40597,60.486614,20.356611,-8.07423,-9.421673,-7.4898143,-17.965324,13.1705885,56.23573,-15.41814,-2.2576594,1.2145325
237,-0.6493557691574097,114.37207794189453,78.01564025878906,-0.7449778917643759,-4.50369417322694,-84.30101785040017,-19.336033,14.504522,23.343718,52.46032,-17.70434,-0.9206658,7.629757,0.79560274,-25.444448,8.056949,-14.947315,-1.3377523,-2.9137986,2.2351344,14.621427,-1.3554004,17.893648,-33.23813,60.376293,20.292017,-8.213368,-9.448068,-7.1909833,-17.98067,13.231889,56.18536,-15.297997,-2.4048922,1.2746272
238,-0.667177677154541,114.79669952392578,78.02458190917969,-0.8012144892965245,-4.440243407477193,-84.26056205039708,-18.914053,15.189092,23.435266,54.378033,-18.510035,-0.41972768,7.1878653,0.81201637,-25.492832,8.07665,-14.713403,-1.3836918,-2.7651997,2.2675302,14.361358,-1.1361904,18.00286,-33.047695,60.286697,20.142714,-8.378009,-9.394801,-6.899282,-18.015194,13.4115715,56.186295,-15.173861,-2.5853066,1.3138005
239,-0.6746046543121338,115.2115478515625,78.0305404663086,-0.8641219092722464,-4.389040465461789,-84.22202904227714,-18.39336,15.871296,23.54489,56.14297,-19.280266,0.066590376,6.756269,0.833219,-25.538122,8.110908,-14.486405,-1.4225936,-2.6289597,2.305695,14.108503,-0.91514444,18.106,-32.847717,60.227333,19.94029,-8.527003,-9.269771,-6.610422,-18.060637,13.666867,56.234776,-15.057792,-2.76215,1.3474046
