unveil-humanoid-operators/unveil-humanoid-operators.github.io/feature-analysis-animation/data/feature_matrix_instances/age_ankle_rom_jogging_A268_jog_ff_start_180_R_002__A268.csv
Frame,root_translateX,root_translateY,root_translateZ,root_rotateX,root_rotateY,root_rotateZ,left_hip_pitch_joint_dof,left_hip_roll_joint_dof,left_hip_yaw_joint_dof,left_knee_joint_dof,left_ankle_pitch_joint_dof,left_ankle_roll_joint_dof,right_hip_pitch_joint_dof,right_hip_roll_joint_dof,right_hip_yaw_joint_dof,right_knee_joint_dof,right_ankle_pitch_joint_dof,right_ankle_roll_joint_dof,waist_yaw_joint_dof,waist_roll_joint_dof,waist_pitch_joint_dof,left_shoulder_pitch_joint_dof,left_shoulder_roll_joint_dof,left_shoulder_yaw_joint_dof,left_elbow_joint_dof,left_wrist_roll_joint_dof,left_wrist_pitch_joint_dof,left_wrist_yaw_joint_dof,right_shoulder_pitch_joint_dof,right_shoulder_roll_joint_dof,right_shoulder_yaw_joint_dof,right_elbow_joint_dof,right_wrist_roll_joint_dof,right_wrist_pitch_joint_dof,right_wrist_yaw_joint_dof
0,-0.10056808590888977,-1.1765660047531128,78.07179260253906,-0.1042048637656017,4.642384021764272,93.71656420193298,-7.2505016,-0.13865022,-1.4650154,15.368365,-14.406393,1.4570074,-0.26084927,-2.596048,-18.617441,6.9190216,-11.895127,2.8991525,-3.273684,1.43633,5.9427047,-4.3021507,22.88511,-45.251736,57.96627,2.5108252,-2.15851,-3.4840207,3.2958968,-17.65055,29.820457,61.29947,-13.108109,-5.1351933,1.6870805
1,-0.10808669030666351,-1.163210153579712,78.06280517578125,-0.10784028472549603,4.655898664548115,93.72362321247435,-7.2775087,-0.13971874,-1.4698495,15.435683,-14.486684,1.4547898,-0.25420505,-2.5935102,-18.6101,6.9199677,-11.970264,2.9228637,-3.2643917,1.4426602,5.9448776,-4.2703366,22.902578,-45.244133,57.929707,2.5477924,-2.1624124,-3.4808817,3.3261404,-17.653286,29.846617,61.28759,-13.140319,-5.104905,1.7026676
2,-0.11089333891868591,-1.1495397090911865,78.05306243896484,-0.11203982497475631,4.6697502380251485,93.7301266807783,-7.3035517,-0.14009224,-1.4734454,15.500036,-14.5658245,1.4523517,-0.24865471,-2.5903397,-18.602697,6.9212017,-12.04508,2.9465883,-3.2602634,1.4502611,5.9459286,-4.2340827,22.919039,-45.229485,57.89106,2.5883708,-2.16697,-3.4773743,3.3514655,-17.654593,29.8793,61.279198,-13.16943,-5.072748,1.7162778
3,-0.11675745248794556,-1.1306334733963013,78.04375457763672,-0.11555839010880808,4.682653675405922,93.73766256509397,-7.3299966,-0.14220802,-1.4792495,15.568613,-14.646498,1.4504582,-0.24079412,-2.5879226,-18.59573,6.921894,-12.120788,2.970201,-3.2459674,1.4572368,5.9490733,-4.21385,22.923754,-45.226803,57.871143,2.6255355,-2.1709883,-3.4741108,3.382262,-17.65421,29.897715,61.270973,-13.206922,-5.0448422,1.733611
4,-0.1259225457906723,-1.1097121238708496,78.03550720214844,-0.1183259400044228,4.694393221076417,93.74903950894952,-7.3588862,-0.14747141,-1.4921539,15.648077,-14.730649,1.44968,-0.22764371,-2.586162,-18.591232,6.9223247,-12.200245,2.9935637,-3.2363229,1.4625129,5.9516196,-4.184374,22.926926,-45.224792,57.848564,2.6543455,-2.1687095,-3.4694366,3.4159946,-17.653322,29.924381,61.26533,-13.2476635,-5.0223765,1.7555588
5,-0.13276268541812897,-1.0850850343704224,78.02706909179688,-0.12122789432799265,4.703306511440591,93.76205381826615,-7.3883877,-0.15488902,-1.5123261,15.73857,-14.817818,1.4482884,-0.20939805,-2.5849497,-18.586748,6.9250464,-12.284186,3.0143743,-3.2378888,1.4643319,5.95481,-4.1416655,22.933159,-45.215202,57.82355,2.672234,-2.1570203,-3.4625819,3.4416227,-17.649412,29.980585,61.277122,-13.301423,-5.0149255,1.7808186
6,-0.13869164884090424,-1.0614315271377563,78.0188217163086,-0.1241619232320832,4.710227683251725,93.7768797967455,-7.4172573,-0.16384563,-1.538247,15.834782,-14.905663,1.4465905,-0.18542042,-2.5828683,-18.583414,6.926283,-12.370261,3.034034,-3.2308924,1.4662839,5.9649096,-4.1056376,22.935823,-45.213802,57.801346,2.6841228,-2.13856,-3.4552195,3.4731305,-17.64561,30.02275,61.288704,-13.378181,-5.0187793,1.8120441
7,-0.1450253129005432,-1.0336683988571167,78.00957489013672,-0.12655518652847234,4.717127937413367,93.79654938033453,-7.44825,-0.17547154,-1.5694457,15.938475,-14.996853,1.4483021,-0.1588352,-2.5820258,-18.583944,6.9285483,-12.459833,3.05641,-3.2385986,1.4644935,5.969969,-4.0558686,22.93992,-45.205532,57.77863,2.6893215,-2.1213653,-3.4494355,3.4950593,-17.634708,30.08718,61.311886,-13.429159,-5.0180273,1.8462383
8,-0.15210740268230438,-1.005251169204712,78.00047302246094,-0.1269336380687605,4.725773065893856,93.82453939058944,-7.4838505,-0.19202797,-1.6054336,16.051975,-15.093665,1.4571978,-0.12896982,-2.5838816,-18.592636,6.930056,-12.5532,3.086669,-3.2420542,1.4608545,5.9748683,-4.0094624,22.941984,-45.207813,57.757435,2.6912565,-2.113535,-3.4510071,3.531016,-17.624247,30.128138,61.31259,-13.4372425,-4.9990544,1.8908871
9,-0.15884874761104584,-0.9740797877311707,77.99089050292969,-0.1222198365556889,4.735331583946846,93.86094761743962,-7.521245,-0.21624969,-1.6441914,16.171055,-15.194375,1.4743727,-0.09572531,-2.5919168,-18.608238,6.930708,-12.6474495,3.1254563,-3.2479444,1.4529536,5.975028,-3.9590697,22.943003,-45.219086,57.737312,2.6925175,-2.1189158,-3.4621115,3.5778852,-17.614548,30.157675,61.29513,-13.387593,-4.9447374,1.9444674
10,-0.1668669730424881,-0.9371098279953003,77.98240661621094,-0.11431457479462855,4.745541075254086,93.90429973331295,-7.560581,-0.24639703,-1.6866767,16.296507,-15.29846,1.4978042,-0.059600387,-2.604555,-18.629774,6.932651,-12.744408,3.1705534,-3.2586122,1.4411334,5.9688325,-3.9019952,22.943565,-45.23782,57.719,2.688326,-2.1327708,-3.4792113,3.6293588,-17.603788,30.18749,61.272034,-13.292455,-4.867246,2.0045319
11,-0.174759641289711,-0.8935526013374329,77.97272491455078,-0.10669778181958756,4.758412743566119,93.95545994529193,-7.6093407,-0.2787468,-1.736433,16.439081,-15.411723,1.5266551,-0.022234289,-2.6179974,-18.660582,6.9347997,-12.848105,3.222404,-3.2733274,1.4263624,5.960989,-3.8437593,22.94437,-45.259968,57.701946,2.6723254,-2.1499987,-3.4981625,3.6798918,-17.584623,30.212435,61.245243,-13.164317,-4.7949457,2.071536
12,-0.1834692507982254,-0.8457799553871155,77.96082305908203,-0.1012891619839722,4.776064350371969,94.01559817947744,-7.6745744,-0.30976087,-1.7972007,16.608183,-15.538711,1.5600476,0.015464605,-2.628034,-18.704716,6.935693,-12.962414,3.2816594,-3.290843,1.4154756,5.963578,-3.7891278,22.944958,-45.271473,57.676838,2.6464314,-2.1657412,-3.5167656,3.7350218,-17.568985,30.214663,61.194504,-13.021943,-4.75651,2.1511536
13,-0.18975228071212769,-0.8017290234565735,77.94904327392578,-0.10038869887847175,4.794911691657299,94.08646432597781,-7.7563486,-0.33893606,-1.872348,16.812788,-15.684231,1.6001925,0.057108134,-2.6337185,-18.763788,6.937645,-13.092254,3.3502588,-3.3121443,1.403666,5.976617,-3.7401166,22.947243,-45.278587,57.64752,2.5956368,-2.1787565,-3.5350282,3.7858865,-17.54185,30.196472,61.13932,-12.871523,-4.7618504,2.2501748
14,-0.19835805892944336,-0.7533955574035645,77.93574523925781,-0.1024357838576538,4.815227992803528,94.16693782524933,-7.851074,-0.36797115,-1.9591234,17.044794,-15.844016,1.6466664,0.102756046,-2.637225,-18.835573,6.9393635,-13.233379,3.4272776,-3.338271,1.3913896,5.998435,-3.6906545,22.951715,-45.27719,57.61032,2.5305626,-2.1913981,-3.5548437,3.8368697,-17.510033,30.161585,61.072285,-12.70473,-4.7942896,2.3657315
15,-0.20694240927696228,-0.6991986036300659,77.9219970703125,-0.10551273939090805,4.845182517282931,94.25379638977616,-7.9632516,-0.39685425,-2.0518951,17.29376,-16.01269,1.694808,0.14258978,-2.6401994,-18.91762,6.939821,-13.379493,3.5091326,-3.365839,1.3832703,6.0209928,-3.6412055,22.956837,-45.270073,57.567024,2.4649994,-2.2046852,-3.5728545,3.890841,-17.481508,30.113209,60.983894,-12.507105,-4.845082,2.4803648
16,-0.21391502022743225,-0.653194785118103,77.90631866455078,-0.11084857694616926,4.892751220462426,94.34345622319714,-8.09615,-0.42597044,-2.144913,17.546602,-16.183796,1.7400125,0.1656295,-2.6447892,-19.007307,6.940881,-13.526258,3.592202,-3.3886948,1.3806087,6.0353565,-3.5919323,22.96193,-45.259693,57.520515,2.416216,-2.2192705,-3.5857816,3.9466915,-17.454777,30.05107,60.87303,-12.26703,-4.9056582,2.575206
17,-0.23285932838916779,-0.5858035087585449,77.88978576660156,-0.11833818781621781,4.962260135970635,94.43919843642504,-8.257037,-0.45470008,-2.2383873,17.80532,-16.3544,1.7763989,0.16723871,-2.6495972,-19.10353,6.939717,-13.667848,3.6810303,-3.4103034,1.3849847,6.0375595,-3.5473597,22.966297,-45.252026,57.4758,2.394099,-2.231765,-3.5999966,4.005723,-17.43021,29.974693,60.741306,-12.000203,-4.9745636,2.6546113
18,-0.24578355252742767,-0.5266661643981934,77.87395477294922,-0.12868441767487265,5.048541302715244,94.54133812621221,-8.4424,-0.483358,-2.334719,18.075933,-16.528301,1.8080784,0.15224321,-2.6546984,-19.207645,6.9395967,-13.80959,3.7757373,-3.423007,1.3920891,6.032835,-3.513247,22.971462,-45.254116,57.434006,2.3862202,-2.2425754,-3.615146,4.0673456,-17.3989,29.870588,60.595524,-11.7131,-5.0569897,2.7250845
19,-0.259743869304657,-0.47024694085121155,77.85706329345703,-0.13989041302285052,5.146038735084218,94.64301780469327,-8.638017,-0.51291394,-2.4320025,18.348858,-16.709906,1.8454154,0.1304976,-2.6614833,-19.32194,6.9382653,-13.957965,3.8659112,-3.4372892,1.4052552,6.0244923,-3.4667182,22.973509,-45.236942,57.382446,2.3801358,-2.2598684,-3.6155546,4.1282225,-17.377077,29.769623,60.421535,-11.355259,-5.1505795,2.7725942
20,-0.2756023705005646,-0.41952425241470337,77.83948516845703,-0.1485049859310152,5.2486346690372185,94.73622136814559,-8.835593,-0.5471828,-2.5264082,18.628395,-16.907475,1.8988185,0.10878045,-2.6759043,-19.446728,6.940156,-14.122051,3.941139,-3.4322019,1.4180784,6.0203533,-3.4114957,22.973475,-45.201153,57.316853,2.3600845,-2.2907655,-3.5895395,4.1892905,-17.357584,29.651806,60.216747,-10.903434,-5.258269,2.7835195
21,-0.2939786911010742,-0.35572752356529236,77.81885528564453,-0.16067086264351926,5.3531659802273035,94.81799826966089,-9.039973,-0.5811135,-2.6210337,18.936125,-17.139572,1.9731792,0.073991135,-2.6988444,-19.585226,6.988228,-14.330479,3.9924946,-3.4024563,1.4352123,6.023967,-3.3489773,22.970196,-45.15137,57.241646,2.3216498,-2.339942,-3.5264227,4.2455072,-17.333128,29.520168,59.98875,-10.295428,-5.3868804,2.7376926
22,-0.31774798035621643,-0.26554229855537415,77.80103302001953,-0.17404833196847722,5.464773913739274,94.89163524766764,-9.24663,-0.617386,-2.7146068,19.246464,-17.385517,2.0634997,0.03862345,-2.7261338,-19.734877,7.036096,-14.5523815,4.028418,-3.369831,1.4568506,6.0249763,-3.2668285,22.96407,-45.079613,57.1547,2.2688859,-2.4025102,-3.433171,4.2948003,-17.318039,29.407406,59.73666,-9.548591,-5.532859,2.6474533
23,-0.33993446826934814,-0.18338172137737274,77.7800521850586,-0.18984403269384503,5.583849054196104,94.96545081592217,-9.462697,-0.6521652,-2.8101418,19.566647,-17.643635,2.1587021,-3.1755368e-05,-2.7529778,-19.895481,7.0845327,-14.78326,4.060077,-3.330113,1.4832444,6.0299454,-3.1754074,22.954758,-44.977932,57.050663,2.216724,-2.4723575,-3.329075,4.344076,-17.304928,29.266949,59.45112,-8.800564,-5.684779,2.5515573
24,-0.36506521701812744,-0.11182761192321777,77.7554702758789,-0.21082344755560375,5.7113317886001465,95.04839839820032,-9.698367,-0.6812138,-2.9112718,19.909376,-17.91439,2.2475927,-0.042676132,-2.773677,-20.068304,7.1297927,-15.014647,4.0986795,-3.2895513,1.514996,6.0387063,-3.0732136,22.941557,-44.837044,56.92164,2.1725867,-2.542026,-3.228987,4.398243,-17.291088,29.077503,59.12383,-8.170531,-5.826684,2.484827
25,-0.3872454762458801,-0.03126881644129753,77.73177337646484,-0.23677793080870518,5.851914521650104,95.14096223741937,-9.963229,-0.7038726,-3.015284,20.280764,-18.197535,2.3290293,-0.09453112,-2.7903254,-20.2635,7.171361,-15.252774,4.156828,-3.2524788,1.5508914,6.045602,-2.9643192,22.928553,-44.671776,56.771065,2.1251264,-2.6100984,-3.131869,4.45192,-17.279057,28.849745,58.763237,-7.68118,-5.959066,2.4621556
26,-0.4121818542480469,0.04093760624527931,77.70291137695312,-0.26750773404593825,6.00319613811322,95.23880945881565,-10.249167,-0.72175777,-3.1215866,20.673204,-18.493269,2.4082787,-0.15248513,-2.80415,-20.477535,7.2102113,-15.497336,4.225379,-3.20934,1.5917351,6.057594,-2.8532598,22.914387,-44.479813,56.60066,2.080807,-2.680445,-3.0336542,4.507654,-17.266508,28.574394,58.365303,-7.282315,-6.0885057,2.4648275
27,-0.4327823519706726,0.1270720511674881,77.67375183105469,-0.30117004809156644,6.156985238010421,95.34397893054987,-10.541257,-0.73768955,-3.235848,21.078583,-18.801245,2.4842594,-0.20964028,-2.8122308,-20.68906,7.2502327,-15.742031,4.2835417,-3.1585932,1.6351414,6.0761147,-2.7249432,22.898415,-44.242573,56.398964,2.0461886,-2.7527447,-2.9368966,4.5726247,-17.252117,28.248543,57.91958,-6.9482036,-6.206761,2.4676394
28,-0.45654740929603577,0.2372683733701706,77.64534759521484,-0.33677000414767827,6.304695135759335,95.45784062482386,-10.822631,-0.7546465,-3.363494,21.485516,-19.119919,2.5560393,-0.2571415,-2.8111494,-20.876461,7.290815,-15.978429,4.3102646,-3.1051154,1.6792235,6.10022,-2.559423,22.88222,-43.939175,56.15268,2.0252903,-2.8272111,-2.844368,4.6515656,-17.23506,27.882957,57.417297,-6.648828,-6.3059387,2.4451942
29,-0.4794842004776001,0.33782270550727844,77.61613464355469,-0.3812621923212508,6.442193056474579,95.58408923972657,-11.090543,-0.7672574,-3.5125332,21.899282,-19.455046,2.6240828,-0.29035679,-2.790455,-21.0298,7.330449,-16.211056,4.2903833,-3.0531373,1.7301061,6.136893,-2.354833,22.866678,-43.55261,55.862087,2.0334513,-2.908626,-2.7620077,4.746307,-17.2135,27.461927,56.86266,-6.4114633,-6.3794584,2.3966632
30,-0.5048509240150452,0.4469825029373169,77.58507537841797,-0.4320227083529908,6.574578543060981,95.72079905313885,-11.353823,-0.77684635,-3.6776302,22.324663,-19.806194,2.68876,-0.3147143,-2.7553546,-21.16145,7.369643,-16.442333,4.238157,-3.0025349,1.785516,6.1881022,-2.1183434,22.851648,-43.0838,55.528114,2.072238,-2.9953232,-2.689194,4.845695,-17.18292,26.98195,56.263943,-6.247393,-6.4338107,2.334614
31,-0.5354352593421936,0.5551126599311829,77.55302429199219,-0.4781001800971423,6.707561489283583,95.86116335946902,-11.609797,-0.7938277,-3.8450997,22.740843,-20.157818,2.7483597,-0.33842653,-2.724638,-21.283419,7.41319,-16.661318,4.1764545,-2.952316,1.8310848,6.237267,-1.8420684,22.83996,-42.55928,55.140697,2.1069548,-3.0766706,-2.6129053,4.9410663,-17.14566,26.491177,55.61716,-6.0863523,-6.4793935,2.2480168
32,-0.5543993711471558,0.6720831990242004,77.51870727539062,-0.5075080990297888,6.846724864883188,95.99837805394702,-11.856759,-0.8287436,-4.000899,23.129448,-20.495888,2.8012867,-0.3706674,-2.717861,-21.407534,7.4689717,-16.859034,4.128283,-2.8935337,1.8548208,6.269923,-1.5261384,22.831682,-42.014137,54.69298,2.1009684,-3.1424065,-2.5200224,5.035885,-17.115875,26.025698,54.904293,-5.860163,-6.526649,2.1284523
33,-0.5812954306602478,0.799420177936554,77.4791030883789,-0.5268580395117114,6.999299765620399,96.13598421727333,-12.110674,-0.8753314,-4.149343,23.502527,-20.819607,2.847155,-0.4129287,-2.7299783,-21.547588,7.529733,-17.053926,4.1152196,-2.853957,1.8643831,6.302397,-1.1347395,22.83235,-41.32821,54.13606,2.1053116,-3.1897244,-2.4421494,5.0883303,-17.073715,25.569891,54.15446,-5.593852,-6.580216,1.9754976
34,-0.6133517026901245,0.9171252846717834,77.43730163574219,-0.539363885032715,7.161025637564253,96.2758176554774,-12.368426,-0.9308797,-4.2950377,23.866434,-21.136827,2.8867958,-0.4644406,-2.7554832,-21.693584,7.601311,-17.24749,4.1195774,-2.8055694,1.8642101,6.3179183,-0.69873035,22.83749,-40.596523,53.507248,2.0762162,-3.2233162,-2.3630412,5.14806,-17.040594,25.124065,53.340958,-5.2796583,-6.6321626,1.7870829
35,-0.6431598663330078,1.0476106405258179,77.39430236816406,-0.5295916097924861,7.317856619241743,96.40828535763258,-12.596037,-1.0093606,-4.424421,24.19044,-21.443521,2.9198928,-0.517418,-2.8085399,-21.822573,7.6882663,-17.393442,4.1043515,-2.7507637,1.8358469,6.33662,-0.23449722,22.845062,-39.861763,52.830486,2.023373,-3.2466795,-2.249927,5.2084327,-17.016863,24.687706,52.445232,-4.933862,-6.6834774,1.5833291
36,-0.6738395094871521,1.183137059211731,77.34346771240234,-0.4783460335581037,7.4561285627801075,96.52331512164544,-12.760484,-1.1279066,-4.5219536,24.445333,-21.737047,2.9468815,-0.5692549,-2.9092455,-21.909798,7.805222,-17.451288,4.0320544,-2.7077096,1.7543377,6.3750257,0.26338875,22.866526,-39.153915,52.11307,1.9522421,-3.262968,-2.0702922,5.246681,-17.001945,24.2895,51.46199,-4.5616536,-6.734366,1.3800794
37,-0.7051571011543274,1.3263365030288696,77.28826141357422,-0.38040808773848817,7.5860295582900115,96.62246611152146,-12.860778,-1.2961043,-4.5934634,24.604445,-22.003706,2.9682221,-1.4112222,-3.3865907,-21.890339,9.730011,-18.33868,3.858022,-2.6295087,1.6160793,6.4090433,0.7472968,22.881702,-38.56432,51.398464,1.813949,-3.264788,-1.7809329,5.304278,-16.998283,23.908646,50.37253,-4.131495,-6.784499,1.1534636
38,-0.7468476295471191,1.4742342233657837,77.22457885742188,-0.2279759108534265,7.711370885558228,96.70763222506739,-12.90261,-1.5216434,-4.6337137,24.668484,-22.238234,2.987241,-2.3942688,-3.9827325,-21.8018,11.971241,-19.299812,3.6057215,-2.5736957,1.4143039,6.4592075,1.3021786,22.926004,-37.94314,50.589233,1.6603146,-3.2529151,-1.4262582,5.3385663,-17.015934,23.575846,49.18775,-3.6557257,-6.8338118,0.91085625
39,-0.7833980917930603,1.6165528297424316,77.14921569824219,0.004288296780314098,7.810634193971685,96.76852757834294,-12.868714,-1.8217556,-4.6095567,24.657097,-22.453285,3.0085554,-3.4721925,-4.723258,-21.658205,14.471168,-20.3202,3.372419,-2.4866168,1.1214671,6.5282826,1.8516418,22.979902,-37.39324,49.774357,1.4900548,-3.245782,-1.045889,5.3973007,-17.045893,23.227665,47.881775,-3.1872208,-6.8817425,0.69746876
40,-0.8290883898735046,1.7635509967803955,77.05066680908203,0.3324976617672043,7.861179020655044,96.7962943975306,-12.743355,-2.207292,-4.4929123,24.595057,-22.66384,3.0354645,-4.593374,-5.6217227,-21.477148,17.167936,-21.382235,3.2583814,-2.3792644,0.7171539,6.6459155,2.3950825,23.050085,-36.890205,48.964207,1.3530827,-3.2604601,-0.6975519,5.471286,-17.086037,22.84077,46.44616,-2.788407,-6.9266,0.5654629
41,-0.876651406288147,1.9186099767684937,76.92757415771484,0.79469636305446,7.856062817645619,96.79117635674216,-12.478106,-2.7132096,-4.26356,24.406147,-22.851868,3.0711079,-5.7458816,-6.721702,-21.270056,20.064651,-22.537401,3.311146,-2.252568,0.16046806,6.8121266,2.944943,23.144209,-36.44428,48.159344,1.2390786,-3.3022556,-0.37591425,5.572721,-17.13374,22.396933,44.866413,-2.507919,-6.9734745,0.55499244
42,-0.9201828241348267,2.0689709186553955,76.77776336669922,1.3755698758251713,7.807166180368085,96.7579403054226,-12.092771,-3.33078,-3.9446394,24.098768,-23.013453,3.1132014,-6.9472785,-7.9973083,-21.017153,23.16802,-23.76618,3.476927,-2.106546,-0.53240323,7.0201015,3.5087147,23.266153,-36.048714,47.341106,1.1336547,-3.361091,-0.059335843,5.6951385,-17.189054,21.91372,43.151764,-2.304545,-7.019496,0.6299009
43,-0.9566757678985596,2.2232024669647217,76.61256408691406,1.9974086563381526,7.719426861088589,96.69466374494267,-11.682065,-3.9880192,-3.579697,23.841139,-23.193775,3.1550822,-8.172353,-9.334968,-20.703348,26.393085,-24.932283,3.7054129,-1.9414303,-1.27733,7.2863564,4.0720687,23.414993,-35.67476,46.494686,1.071515,-3.4299238,0.22220387,5.8164215,-17.251085,21.420065,41.31836,-2.0978456,-7.050213,0.72637415
44,-1.0049500465393066,2.3719093799591064,76.43201446533203,2.5868720248364574,7.59832517039864,96.59915076413955,-11.336829,-4.615614,-3.2064373,23.791105,-23.433,3.1914327,-9.413323,-10.633382,-20.312218,29.689905,-25.908688,3.94458,-1.7577369,-1.9963093,7.623848,4.6184793,23.586605,-35.29519,45.61205,1.0878505,-3.5017598,0.43892,5.912454,-17.319998,20.946733,39.386448,-1.8084856,-7.0519094,0.7803017
45,-1.060096263885498,2.5134806632995605,76.2335205078125,3.1360626408553665,7.417191337348238,96.46141520830656,-11.045622,-5.198336,-2.8178086,23.985167,-23.738194,3.1961951,-10.636968,-11.874628,-19.824808,33.067,-26.679247,4.231501,-1.5451467,-2.6865046,8.055625,5.1474266,23.780659,-34.91155,44.69769,1.2143254,-3.5817,0.5645835,5.986128,-17.395031,20.496264,37.33938,-1.4197401,-7.0169535,0.78344053
46,-1.0994133949279785,2.6667897701263428,76.0276107788086,3.6741207793735073,7.183456084321276,96.28502295228817,-10.776623,-5.7664323,-2.4004889,24.346472,-24.093481,3.1801798,-11.861125,-13.095,-19.259398,36.549145,-27.309868,4.5835695,-1.3053684,-3.376968,8.567624,5.6683517,23.997768,-34.534256,43.756153,1.4258779,-3.6710052,0.6212475,6.047943,-17.476542,20.056896,35.17322,-0.9721317,-6.953781,0.7660404
47,-1.1374938488006592,2.8042192459106445,75.79821014404297,4.189331725040309,6.9529566599411625,96.08864507921463,-10.600333,-6.317787,-1.9778018,24.886906,-24.511414,3.1946733,-13.154971,-14.279701,-18.651083,40.112465,-27.799412,4.9133635,-1.0580322,-4.0379915,9.114646,6.1772156,24.232033,-34.153233,42.783688,1.6728308,-3.757195,0.65139496,6.088158,-17.566706,19.637798,32.924915,-0.47129962,-6.873327,0.7217108
48,-1.1963006258010864,2.926647901535034,75.54975891113281,4.6701265549283,6.780917316230986,95.89184138729652,-10.5823765,-6.848344,-1.5727717,25.610916,-25.00514,3.290086,-14.591954,-15.422257,-18.027946,43.743465,-28.14928,5.1264544,-0.82669246,-4.641121,9.649362,6.668067,24.4731,-33.75897,41.78252,1.9068135,-3.8281064,0.69744694,6.0957937,-17.669264,19.250126,30.632545,0.076796785,-6.786568,0.6439908
49,-1.2552025318145752,3.0592501163482666,75.30054473876953,5.131224338988496,6.670668867319565,95.68812474998961,-10.757269,-7.381187,-1.1821829,26.575418,-25.59209,3.527348,-16.215044,-16.566914,-17.375168,47.543774,-28.280676,5.1923623,-0.60365844,-5.1977763,10.168267,7.139318,24.7165,-33.35422,40.728996,2.2024071,-3.87523,0.7585014,6.0694375,-17.789337,18.89184,28.275333,0.7066134,-6.6821384,0.5353397
50,-1.3080730438232422,3.194450855255127,75.0400161743164,5.569940688643626,6.5962445279416375,95.47174085461786,-11.083457,-7.905087,-0.79669446,27.759745,-26.262308,3.86595,-17.984577,-17.700966,-16.674236,51.496998,-28.223574,5.156037,-0.38154352,-5.7120285,10.6899395,7.591484,24.96096,-32.949482,39.640884,2.5586464,-3.9075904,0.8164093,6.0194554,-17.928452,18.55984,25.840359,1.4110281,-6.560706,0.39668512
51,-1.3600637912750244,3.320685386657715,74.77584075927734,5.95179941850222,6.569146021896204,95.26457275179528,-11.513661,-8.36341,-0.42860076,29.054403,-26.987026,4.201675,-19.850576,-18.738602,-15.949597,55.417606,-28.14142,5.0288496,-0.18700981,-6.1482086,11.19736,8.015448,25.19787,-32.548023,38.59164,2.8121817,-3.9393106,0.88871765,5.949704,-18.086132,18.262728,23.376226,2.1205099,-6.447041,0.2199234
52,-1.42348051071167,3.4451968669891357,74.50928497314453,6.238136604969135,6.600420625567502,95.08820229547322,-12.001622,-8.700796,-0.0889001,30.353567,-27.73837,4.428976,-21.765484,-19.598362,-15.2326975,59.13363,-28.207869,4.8227057,-0.04857521,-6.4713645,11.672581,8.398509,25.412655,-32.149235,37.660435,2.8011045,-3.9854202,0.9934702,5.86034,-18.259758,18.010029,20.938086,2.765566,-6.368308,-0.0021832108
53,-1.482356071472168,3.583468437194824,74.2435073852539,6.4030747656578555,6.711149433399229,94.94601297520137,-12.580739,-8.881156,0.23424841,31.67613,-28.52999,4.4955754,-23.750694,-20.250494,-14.533827,62.66334,-28.515903,4.492605,0.026004955,-6.649952,12.095719,8.7388525,25.591743,-31.742155,36.85556,2.4091892,-4.0691013,1.1283642,5.738768,-18.45114,17.812708,18.521181,3.3659015,-6.3251495,-0.29774755
54,-1.540381669998169,3.7380690574645996,73.98529052734375,6.469748662205633,6.888516214220626,94.82723063995778,-13.259296,-8.938638,0.543115,33.063744,-29.369764,4.464736,-25.823318,-20.74619,-13.843188,66.104095,-28.97044,4.040176,0.047873873,-6.707777,12.476265,9.032977,25.730074,-31.332855,36.1605,1.7505656,-4.179037,1.2870437,5.587524,-18.662357,17.665186,16.106817,3.945319,-6.307143,-0.6541708
55,-1.595463752746582,3.907716751098633,73.72913360595703,6.47857672251177,7.092701532664766,94.73211643486532,-13.9568,-8.927291,0.8134973,34.45096,-30.223845,4.4032063,-27.931469,-21.12838,-13.166591,69.4076,-29.458847,3.5512938,0.017864412,-6.6944575,12.842644,9.259295,25.826206,-30.943743,35.615513,1.0060484,-4.2780433,1.4815228,5.4292126,-18.885363,17.550388,13.728415,4.439846,-6.3235345,-1.0171874
56,-1.6506129503250122,4.100513935089111,73.48377990722656,6.469750714310683,7.284271083466988,94.6611456855169,-14.592326,-8.903289,1.0208577,35.770473,-31.057255,4.377377,-30.023758,-21.440657,-12.510587,72.519745,-29.864502,3.1137936,-0.06125747,-6.6617274,13.224174,9.391934,25.88091,-30.597002,35.260227,0.3547314,-4.3277392,1.7256616,5.2825155,-19.104694,17.449053,11.42474,4.783402,-6.382511,-1.3326732
57,-1.6890747547149658,4.299012660980225,73.23966979980469,6.443836483314783,7.456011074570748,94.60276259028734,-15.151541,-8.872572,1.1668756,37.01531,-31.87069,4.407123,-32.108257,-21.672043,-11.86694,75.456,-30.155998,2.7430332,-0.18786152,-6.621456,13.63276,9.43446,25.888844,-30.29504,35.160778,-0.28533208,-4.316803,2.0542238,5.1226635,-19.312395,17.364143,9.216956,4.939934,-6.4986534,-1.5693035
58,-1.7218877077102661,4.505009174346924,73.00595092773438,6.3819206180232175,7.627541688970527,94.56032755054873,-15.672949,-8.811787,1.2612686,38.21369,-32.675568,4.4550896,-34.202923,-21.81046,-11.246203,78.245415,-30.396355,2.3932104,-0.36349925,-6.549852,14.050612,9.386926,25.847198,-30.028566,35.286617,-0.9667395,-4.26791,2.4515958,4.9400816,-19.50714,17.302528,7.092898,4.9454093,-6.6625795,-1.7610494
59,-1.7514148950576782,4.736545562744141,72.77803039550781,6.2964714386559235,7.799514862921568,94.55663969645633,-16.153591,-8.733944,1.2921381,39.349457,-33.45923,4.5021195,-36.273907,-21.896587,-10.678764,80.84409,-30.610239,2.0686374,-0.5891048,-6.448279,14.463489,9.221604,25.766684,-29.800285,35.525993,-1.4660062,-4.18912,2.8559506,4.7713013,-19.682816,17.248627,5.0472503,4.8402667,-6.8464527,-1.9517345
60,-1.761289119720459,4.981326580047607,72.56367492675781,6.200382923860303,7.972921018548103,94.61505644952267,-16.592691,-8.651814,1.2477818,40.409435,-34.205925,4.5295777,-38.291622,-21.973068,-10.190917,83.21087,-30.816767,1.7755469,-0.8628808,-6.3222165,14.858749,8.916692,25.667984,-29.612328,35.75842,-1.5614835,-4.084193,3.20433,4.6537647,-19.831724,17.18258,3.0747325,4.6626515,-7.0226693,-2.1840754
61,-1.7600079774856567,5.24530553817749,72.35572052001953,6.095840279465331,8.142756171526738,94.75085496675288,-16.98866,-8.571437,1.1115927,41.39656,-34.915947,4.535143,-40.256165,-22.050009,-9.793285,85.345085,-31.026306,1.5294065,-1.1963862,-6.173961,15.246918,8.48163,25.56271,-29.434145,35.97508,-1.0128524,-3.908111,3.4342546,4.583859,-19.944016,17.097927,1.1441336,4.3651314,-7.173107,-2.4773636
62,-1.7485871315002441,5.532730579376221,72.16517639160156,5.977239147201982,8.31058860240712,94.94889616285901,-17.34289,-8.486627,0.8945524,42.31725,-35.594948,4.5281067,-42.182293,-22.110258,-9.472583,87.268135,-31.2239,1.3253467,-1.5866758,-6.009407,15.632963,7.9345093,25.454906,-29.271765,36.2152,-0.003183038,-3.6685832,3.589655,4.5390577,-20.017366,17.00485,-0.7245772,3.942107,-7.3152823,-2.8051882
63,-1.7181003093719482,5.825723171234131,71.9832534790039,5.848013638280734,8.486176062903814,95.18616799646368,-17.657663,-8.390737,0.62558895,43.15899,-36.242634,4.507796,-44.06285,-22.155594,-9.217734,88.964775,-31.390705,1.1401222,-2.0067916,-5.8346076,15.998582,7.271739,25.35696,-29.181139,36.41868,1.0552175,-3.4467497,3.7694347,4.5407915,-20.05399,16.90444,-2.4743254,3.498263,-7.476101,-3.1420546
64,-1.678324818611145,6.138630390167236,71.81700897216797,5.710375793155208,8.679423618861863,95.43988017842393,-17.935425,-8.276686,0.33381993,43.909897,-36.85409,4.473277,-45.89105,-22.18716,-9.017188,90.41795,-31.507654,0.9508753,-2.425609,-5.6550803,16.326803,6.488654,25.286787,-29.222765,36.52139,1.7465224,-3.3226364,4.078301,4.613935,-20.060339,16.793081,-4.051991,3.1396787,-7.68366,-3.4613724
65,-1.616951584815979,6.4611358642578125,71.66069793701172,5.564873342932028,8.893314831373681,95.70516433677577,-18.182323,-8.142526,0.026115255,44.57828,-37.434868,4.4268208,-47.687412,-22.19754,-8.869997,91.62357,-31.5643,0.745838,-2.831487,-5.4719005,16.62638,5.5727015,25.260794,-29.4477,36.495644,1.9425435,-3.325063,4.601571,4.7617154,-20.035088,16.66121,-5.486227,2.8888206,-7.949334,-3.7573612
66,-1.557634711265564,6.814700126647949,71.52210998535156,5.412445060846091,9.122410836035902,95.99394509189736,-18.394722,-7.9918203,-0.31283462,45.165066,-37.98148,4.367875,-49.44934,-22.191797,-8.782746,92.58903,-31.569101,0.5423698,-3.2345958,-5.2847176,16.907114,4.538889,25.281382,-29.817192,36.35435,1.8648916,-3.4107413,5.2648315,4.980271,-19.9751,16.505743,-6.8011494,2.6923318,-8.258182,-4.041709
67,-1.488033413887024,7.181674003601074,71.3960952758789,5.251765908272564,9.364135242965363,96.30855481495938,-18.563591,-7.8266773,-0.68723595,45.65706,-38.49376,4.292512,-51.13463,-22.189405,-8.756096,93.31313,-31.532806,0.35919097,-3.6414392,-5.0930896,17.153559,3.4258418,25.341034,-30.252447,36.09482,1.6247302,-3.552231,5.9345574,5.2833877,-19.88599,16.339048,-7.938834,2.5442836,-8.599765,-4.315676
68,-1.429030418395996,7.598303318023682,71.28760528564453,5.081703705614891,9.61620688167329,96.65132662586404,-18.679379,-7.648771,-1.1004955,46.03914,-38.966835,4.196273,-52.70105,-22.208515,-8.788679,93.79317,-31.464302,0.21598968,-4.062001,-4.8937736,17.349136,2.2692513,25.4275,-30.672827,35.72292,1.3347973,-3.719404,6.4777427,5.681024,-19.780205,16.177149,-8.839677,2.4410338,-8.963234,-4.5815554
69,-1.3469479084014893,8.005183219909668,71.19160461425781,4.89756010953629,9.883446218945462,97.02903239289505,-18.756603,-7.45452,-1.561155,46.327774,-39.409664,4.075754,-54.15491,-22.260288,-8.895551,94.01917,-31.367338,0.13088185,-4.506337,-4.673824,17.491957,1.0440859,25.538774,-31.098902,35.241806,0.92555463,-3.9320598,6.8714347,6.1716046,-19.663668,16.026844,-9.473773,2.453662,-9.3719845,-4.8268476
70,-1.2772191762924194,8.463536262512207,71.1187515258789,4.701238158532252,10.165832864431493,97.43832435852585,-18.79448,-7.2433453,-2.0648263,46.5247,-39.821667,3.9346032,-55.512054,-22.333939,-9.072157,93.993385,-31.23546,0.09110879,-4.9699235,-4.4337187,17.589973,-0.25668997,25.673895,-31.55901,34.648888,0.37151158,-4.1988106,7.1798773,6.75029,-19.53587,15.883474,-9.879821,2.5644822,-9.823893,-5.055624
71,-1.1905633211135864,8.931112289428711,71.06783294677734,4.502960824351785,10.453802665922472,97.86627713504694,-18.762102,-7.020433,-2.5957494,46.595634,-40.186363,3.7795725,-56.74706,-22.415293,-9.287367,93.73569,-31.06536,0.0685259,-5.4440093,-4.187909,17.6399,-1.5736808,25.819075,-31.980593,33.95196,-0.14693855,-4.468104,7.403909,7.4218454,-19.40251,15.749283,-10.100356,2.6349845,-10.268574,-5.2973924
72,-1.101001501083374,9.437788963317871,71.0343246459961,4.313377285028976,10.73772048385604,98.30005385775135,-18.62892,-6.7895374,-3.1379495,46.506264,-40.488922,3.61725,-57.835094,-22.488348,-9.509272,93.265884,-30.853107,0.03537004,-5.9260826,-3.948381,17.636448,-2.847252,25.954824,-32.283134,33.166126,-0.44527015,-4.687647,7.5470753,8.185797,-19.27472,15.633883,-10.173671,2.528102,-10.654342,-5.58599
73,-1.0163315534591675,9.973419189453125,71.01970672607422,4.135136691416737,11.010482233649538,98.74263938919601,-18.3876,-6.5557437,-3.6926908,46.259933,-40.72999,3.447708,-58.774014,-22.55728,-9.725299,92.59032,-30.596268,-0.022623893,-6.4214873,-3.7137008,17.572544,-4.091883,26.068926,-32.449516,32.318737,-0.4129131,-4.8489623,7.577023,9.044645,-19.161781,15.551402,-10.049648,2.1572309,-10.948497,-5.9556503
74,-0.9346905946731567,10.545415878295898,71.02853393554688,3.964405899767542,11.279185872560006,99.19869557930001,-18.055363,-6.3119535,-4.2658715,45.872337,-40.917976,3.2684402,-59.576397,-22.626259,-9.952029,91.697845,-30.296904,-0.08633656,-6.934123,-3.4705563,17.448645,-5.336717,26.159355,-32.51824,31.41478,-0.16353817,-4.9786253,7.505311,9.998728,-19.066124,15.499088,-9.727899,1.615084,-11.181522,-6.3860035
75,-0.8464301228523254,11.15830135345459,71.06334686279297,3.7944620254150014,11.554704129464689,99.65819237272883,-17.640362,-6.0463843,-4.850587,45.32773,-41.042038,3.0842276,-60.232506,-22.682596,-10.207969,90.57998,-29.964434,-0.13830931,-7.4577055,-3.214171,17.27042,-6.553293,26.224287,-32.49644,30.443949,0.14629152,-5.0767536,7.402842,11.042685,-18.989805,15.45977,-9.318438,1.034051,-11.396755,-6.828564
76,-0.7388399243354797,11.776742935180664,71.11505889892578,3.6211961806393234,11.848353517219172,100.1111755117015,-17.149446,-5.746251,-5.4400797,44.60758,-41.090622,2.8995864,-60.732746,-22.712873,-10.512348,89.227684,-29.60713,-0.16004889,-7.995596,-2.935114,17.042488,-7.7071238,26.251102,-32.37905,29.396908,0.3652649,-5.1433163,7.339305,12.169805,-18.95138,15.427708,-8.934663,0.55025136,-11.639619,-7.2398567
77,-0.6421500444412231,12.433309555053711,71.19142150878906,3.4423784798107984,12.158562424197024,100.57411145669437,-16.603542,-5.4120994,-6.050821,43.74847,-41.07898,2.71185,-61.068527,-22.727055,-10.873106,87.63271,-29.232323,-0.1514582,-8.536207,-2.6376033,16.770342,-8.808454,26.258202,-32.166336,28.245352,0.47841322,-5.169442,7.319328,13.40684,-18.925863,15.376534,-8.580815,0.09473079,-11.922063,-7.6232505
78,-0.5328324437141418,13.10577392578125,71.28224182128906,3.260890562447288,12.481288044401234,101.04584137732472,-15.993174,-5.046338,-6.6799936,42.745026,-41.00895,2.5211966,-61.24385,-22.724642,-11.280971,85.79939,-28.834646,-0.11912738,-9.081717,-2.3240643,16.449078,-9.868661,26.24605,-31.856663,27.005083,0.56108916,-5.1578374,7.309654,14.745415,-18.911398,15.320359,-8.201008,-0.3706242,-12.220226,-7.9960423
79,-0.4249913990497589,13.823111534118652,71.3924560546875,3.082406738661265,12.822993397045327,101.48954335398729,-15.285562,-4.642009,-7.2894797,41.52823,-40.843998,2.334607,-61.269756,-22.675901,-11.727823,83.73837,-28.40367,-0.053820908,-9.625818,-1.9943893,16.072323,-10.873162,26.201809,-31.478373,25.725105,0.5817603,-5.1215367,7.3250256,16.137161,-18.918783,15.278831,-7.815963,-0.6745773,-12.531733,-8.317809
80,-0.3288816809654236,14.591805458068848,71.529296875,2.909033833848352,13.190013084464992,101.86836758831855,-14.446362,-4.1927466,-7.840359,40.024284,-40.55083,2.1587281,-61.156727,-22.55033,-12.205186,81.45606,-27.9274,0.053545937,-10.136491,-1.652657,15.633715,-11.818985,26.135647,-31.108498,24.444572,0.48566607,-5.0719657,7.3945894,17.564312,-18.95781,15.253859,-7.471149,-0.6383429,-12.856988,-8.550998
81,-0.22817911207675934,15.376697540283203,71.68073272705078,2.761391793470213,13.592124002460409,102.17689415213701,-13.477357,-3.7207508,-8.319154,38.203934,-40.125736,1.9881946,-60.905285,-22.361008,-12.705405,78.89994,-27.40501,0.19620751,-10.608093,-1.3237172,15.12069,-12.693449,26.058737,-30.743319,23.13258,0.24944429,-5.0058146,7.5343456,19.043512,-19.028801,15.238774,-7.184827,-0.13827941,-13.215419,-8.642831
82,-0.12167481333017349,16.202465057373047,71.84762573242188,2.6292557596878976,14.022596645451134,102.43349191460415,-12.393504,-3.2208424,-8.744804,36.1094,-39.585472,1.8214054,-60.504757,-22.110266,-13.236475,76.07362,-26.841856,0.3753896,-11.052356,-0.9978844,14.540738,-13.500101,25.972326,-30.35524,21.77314,-0.09990057,-4.918989,7.729199,20.582624,-19.131756,15.234808,-6.937762,0.71096325,-13.600999,-8.622402
83,-0.028360407799482346,17.065147399902344,72.02692413330078,2.4782887461157097,14.462477491734404,102.63700692527674,-11.182829,-2.6496737,-9.121245,33.775574,-38.924526,1.6649835,-59.957714,-21.755552,-13.805107,73.07614,-26.228949,0.6102722,-11.4665985,-0.63435376,13.927582,-14.242985,25.88255,-29.960428,20.401281,-0.53037614,-4.8208137,7.9503865,22.139841,-19.258463,15.237975,-6.713966,1.7205899,-13.976911,-8.559527
84,0.06103327497839928,17.951034545898438,72.21309661865234,2.2695797498387686,14.892927853848782,102.78552676173052,-9.835565,-1.9687172,-9.447282,31.23513,-38.136463,1.5204751,-59.26846,-21.259108,-14.41308,70.00427,-25.560389,0.91588914,-11.846881,-0.19494183,13.317243,-14.921236,25.796953,-29.57542,19.044939,-1.0079381,-4.719694,8.1690855,23.675734,-19.393833,15.237366,-6.4994187,2.6983736,-14.30937,-8.527703
85,0.13336238265037537,18.850711822509766,72.39105224609375,2.0032514332760565,15.316312053690153,102.86196763975558,-8.270784,-1.1724681,-9.715394,28.303274,-37.174545,1.3932105,-58.40543,-20.62173,-15.085456,66.7688,-24.829666,1.2804961,-12.179915,0.320574,12.700369,-15.520639,25.717125,-29.20487,17.695786,-1.5604049,-4.610027,8.399068,25.20363,-19.529602,15.2604265,-6.286094,3.71847,-14.589514,-8.593822
86,0.22270111739635468,19.794301986694336,72.56787109375,1.6956835039128093,15.738442163851017,102.87242057772569,-6.524459,-0.29815266,-9.904388,25.026823,-36.057766,1.2576376,-57.378258,-19.858013,-15.799449,63.34162,-24.036867,1.6983393,-12.470011,0.8886513,12.06806,-16.045275,25.644299,-28.840864,16.33756,-2.1950355,-4.4902945,8.649346,26.739185,-19.664133,15.292846,-6.0850306,4.836995,-14.837878,-8.702662
87,0.3029104471206665,20.748361587524414,72.71549224853516,1.3422093229819947,16.144969537905666,102.84810692941656,-4.7592664,0.63134164,-9.999129,21.786152,-34.883545,1.077721,-56.261612,-18.958904,-16.475075,59.92029,-23.190424,2.185062,-12.738135,1.5079138,11.457533,-16.52304,25.587427,-28.483622,14.985241,-2.8484282,-4.373751,8.883372,28.253561,-19.78917,15.255228,-5.9177723,5.831496,-15.063913,-8.747712
88,0.40038371086120605,21.716270446777344,72.83409118652344,0.9417902208290632,16.522202487164193,102.82262435753609,-3.1448987,1.5992372,-10.006089,18.97823,-33.746952,0.84058344,-55.13043,-17.9248,-17.028519,56.70039,-22.295408,2.756254,-13.0056095,2.1708376,10.904795,-16.98338,25.559752,-28.137716,13.653166,-3.460136,-4.2720084,9.064433,29.716064,-19.891066,15.066655,-5.803503,6.478213,-15.273127,-8.62251
89,0.5005215406417847,22.679466247558594,72.9112777709961,0.45645102688582334,16.871377812779993,102.78872533807667,-1.6544791,2.671239,-9.923837,16.572224,-32.618355,0.5717106,-53.989086,-16.697323,-17.442867,53.68688,-21.348515,3.4660113,-13.277826,2.916292,10.412374,-17.41314,25.571926,-27.804739,12.33819,-4.038554,-4.17048,9.186895,31.155588,-19.955929,14.692472,-5.7441564,6.550662,-15.470501,-8.295542
90,0.5935953259468079,23.650226593017578,72.9529037475586,-0.08810958476059912,17.19433988632751,102.73170866012357,-0.22854601,3.8153088,-9.758538,14.429495,-31.477041,0.2831802,-52.808884,-15.31252,-17.72893,50.784256,-20.35052,4.2811975,-13.543546,3.7138162,9.964809,-17.798222,25.625881,-27.48255,11.023021,-4.6123114,-4.0668354,9.270085,32.572857,-19.973259,14.177145,-5.731651,6.221516,-15.654861,-7.827119
91,0.6899189352989197,24.61750602722168,72.9627456665039,-0.5973081023567686,17.481206940585963,102.67420699751946,1.0189689,4.8908296,-9.550835,12.779246,-30.43921,-0.03999608,-51.623005,-13.916801,-17.857946,48.073982,-19.328722,5.089077,-13.797178,4.4575734,9.56856,-18.167717,25.720335,-27.172789,9.703732,-5.148786,-3.9903414,9.312974,33.885113,-19.936464,13.564764,-5.7605743,5.8654037,-15.818218,-7.2463965
92,0.7931886315345764,25.58489227294922,72.94293975830078,-0.9967266876998077,17.72615800263835,102.63966048534579,1.9951423,5.7890525,-9.347465,11.799805,-29.594528,-0.41392446,-50.450558,-12.638607,-17.834034,45.62961,-18.301712,5.7806563,-14.0304,5.063945,9.230646,-18.554651,25.851622,-26.881147,8.380463,-5.6161494,-3.9706693,9.312767,35.004818,-19.844421,12.904252,-5.8175287,5.8571386,-15.945817,-6.57991
93,0.9006083011627197,26.552040100097656,72.89238739013672,-1.3005792556554736,17.933657661106203,102.64162160797102,2.7295883,6.5490766,-9.127811,11.439414,-28.934412,-0.9141403,-49.16958,-11.406506,-17.632872,43.233868,-17.05249,6.5492315,-14.265692,5.552829,8.936955,-18.957867,26.028044,-26.62288,7.0538025,-6.011546,-4.036717,9.256932,35.973305,-19.699375,12.124769,-5.946275,6.237469,-15.999437,-5.662792
94,1.0157501697540283,27.502092361450195,72.80973815917969,-1.5559020426750128,18.109567386213914,102.66910410299053,3.2813714,7.23686,-8.890163,11.582161,-28.399448,-1.5097125,-47.80104,-10.177424,-17.27968,40.924065,-15.646967,7.382455,-14.500115,5.9752684,8.6898985,-19.36286,26.251425,-26.393787,5.718668,-6.352883,-4.164669,9.149085,36.80554,-19.502062,11.232337,-6.131823,6.8248363,-15.988585,-4.5368547
95,1.1342684030532837,28.44007110595703,72.69413757324219,-1.7491130697564568,18.256240213981577,102.70915960577871,3.588171,7.7994976,-8.707501,12.313749,-28.0015,-2.0636468,-46.600533,-9.11756,-16.895855,39.19571,-14.524557,7.8650537,-14.685338,6.308532,8.5167055,-19.787008,26.500307,-26.172323,4.3757863,-6.6349792,-4.3059006,9.010191,37.378525,-19.257616,10.392833,-6.266827,7.6570396,-15.965088,-3.5368137
96,1.2756130695343018,29.343015670776367,72.57296752929688,-1.8714843942163446,18.376490433683543,102.7445897145811,3.5803642,8.193833,-8.652268,13.719071,-27.74569,-2.4374185,-45.8411,-8.386924,-16.630257,38.56662,-14.124099,7.581104,-14.768345,6.5347004,8.440972,-20.257944,26.740137,-25.938421,3.0434873,-6.8470383,-4.4129434,8.861192,37.57591,-18.979565,9.769346,-6.242846,8.773029,-15.988272,-2.996026
97,1.4271801710128784,30.21007537841797,72.45558166503906,-1.8817834856349627,18.47029046760805,102.77665982166151,3.2466621,8.3824625,-8.70349,15.8265,-27.64982,-2.5743926,-45.76751,-8.117001,-16.534647,39.574017,-14.733854,6.05927,-14.739358,6.6203294,8.457709,-20.841658,26.954407,-25.684431,1.7252094,-6.9598227,-4.458919,8.6567335,37.39233,-18.669296,9.397403,-6.040031,10.530336,-16.104319,-3.0150704
98,1.5863710641860962,31.080717086791992,72.30767822265625,-1.7932875502878516,18.53188223508022,102.81913357803128,2.6379452,8.403337,-8.840877,18.550516,-27.682955,-2.5515368,-46.168907,-8.168254,-16.530651,41.78654,-16.03353,3.644362,-14.627857,6.5873604,8.555983,-21.519585,27.14149,-25.423382,0.43900037,-6.9790096,-4.475481,8.400366,36.897503,-18.331898,9.183909,-5.7151585,12.79378,-16.291656,-3.4077313
99,1.7296202182769775,31.914579391479492,72.15534210205078,-1.6914287122542748,18.55938979150432,102.8675449332997,1.7676706,8.332255,-9.13525,21.824621,-27.784927,-2.4303312,-46.64951,-8.295248,-16.582157,44.290314,-17.563341,1.1448146,-14.43914,6.51118,8.747809,-22.195843,27.282656,-25.16156,-0.76605844,-6.9464264,-4.5041275,8.187787,36.092373,-17.99527,9.099573,-5.279578,14.8661995,-16.514479,-4.080819
100,1.8783884048461914,32.70896911621094,72.00092315673828,-1.6757085120397863,18.55992924897936,102.90571130289132,0.63838625,8.248487,-9.644942,25.604015,-27.903526,-2.2858713,-46.84388,-8.271321,-16.686977,46.23189,-18.905895,-0.63182795,-14.1746855,6.4858904,9.039596,-22.778019,27.347471,-24.900991,-1.8329266,-6.9006343,-4.586686,8.114752,34.976818,-17.703175,9.117676,-4.7502255,16.05579,-16.715982,-4.9528694
101,2.028560161590576,33.4683952331543,71.84364318847656,-1.7558777831269365,18.52037555522018,102.93159479502509,-0.81354994,8.145598,-10.372951,30.120651,-28.027748,-2.1071818,-46.677013,-8.089742,-16.86544,47.472767,-20.03023,-1.3957636,-13.834177,6.5246687,9.4836035,-23.286596,27.297918,-24.568188,-2.7586937,-6.760605,-4.7226987,8.127584,33.498005,-17.47436,9.266558,-4.099887,16.006924,-16.85352,-6.186957
102,2.1911377906799316,34.21023941040039,71.69027709960938,-1.8815640162078635,18.443886693780023,102.9475917192442,-2.5601616,7.959879,-11.276188,35.325584,-28.193611,-1.8772196,-46.346287,-7.8683443,-17.11198,48.461563,-21.155766,-1.6022671,-13.422943,6.594777,10.05288,-23.770082,27.122017,-24.174751,-3.5374584,-6.523584,-4.8950167,8.198318,31.69214,-17.30739,9.545552,-3.352862,15.159012,-16.938187,-7.7805676
103,2.3603734970092773,34.957740783691406,71.5467529296875,-2.067476757979632,18.367008119042353,102.9397136873384,-4.4836044,7.6802187,-12.338024,40.81029,-28.427147,-1.6770948,-45.91444,-7.5807385,-17.41099,49.26501,-22.26304,-1.5653871,-12.948585,6.728563,10.632669,-24.175425,26.837433,-23.85221,-4.1154933,-6.3508325,-5.1181407,8.462647,29.680288,-17.21904,9.889761,-2.598078,14.014857,-16.986279,-9.406748
104,2.5048863887786865,35.71366500854492,71.40023803710938,-2.330609312789028,18.325869362659052,102.89495354933602,-6.463654,7.299922,-13.541938,46.176502,-28.76036,-1.5908618,-45.44158,-7.193006,-17.742119,49.938217,-23.328335,-1.598906,-12.428974,6.957437,11.110355,-24.421192,26.479763,-23.720613,-4.468678,-6.4052467,-5.4074063,9.056769,27.570871,-17.232576,10.248912,-1.9174498,13.078336,-17.049286,-10.736787
105,2.629500389099121,36.485557556152344,71.24432373046875,-2.7236191965692647,18.34827770198424,102.80963062852257,-8.53599,6.774433,-15.020147,51.55431,-29.317705,-1.6442153,-44.949432,-6.6608267,-18.142744,50.474846,-24.347105,-1.7512102,-11.883068,7.336487,11.45367,-24.44604,26.064632,-23.804272,-4.5925384,-6.7444196,-5.8303275,10.120657,25.323343,-17.373144,10.6524,-1.281857,12.396331,-17.161028,-11.6645155
106,2.7381772994995117,37.276710510253906,71.09494018554688,-3.220198258003718,18.408957471384486,102.69024577094493,-10.720978,6.078296,-16.705448,57.11811,-30.06509,-1.8211529,-44.41002,-6.0156803,-18.603933,50.85471,-25.333067,-1.86678,-11.318486,7.8346233,11.725392,-24.262075,25.594545,-24.014008,-4.543563,-7.2719407,-6.3677135,11.545123,22.888025,-17.633694,11.14029,-0.6741263,11.742334,-17.295,-12.376241
107,2.8229403495788574,38.07375717163086,70.95560455322266,-3.7193173251176677,18.46361562429131,102.53973173321278,-12.8889885,5.270124,-18.298254,62.53442,-30.795374,-2.1269064,-43.80868,-5.33205,-19.03519,51.1129,-26.281963,-1.9540336,-10.728941,8.348855,11.956931,-23.898792,25.097141,-24.310516,-4.3930545,-7.9275293,-6.906476,13.093243,20.348621,-17.98178,11.676942,-0.177128,11.199477,-17.43689,-12.977152
108,2.9109437465667725,38.88831329345703,70.84246826171875,-4.1210854943100665,18.468712661082073,102.36256214348022,-14.941384,4.4449983,-19.524572,67.46426,-31.285841,-2.5442564,-43.1265,-4.683267,-19.350433,51.28375,-27.18949,-2.0223897,-10.099188,8.769607,12.184305,-23.39556,24.614277,-24.67125,-4.2127724,-8.66677,-7.327974,14.533911,17.787344,-18.374075,12.215948,0.13623363,10.842103,-17.57168,-13.565049
109,3.008747100830078,39.70785903930664,70.75711822509766,-4.401809231650646,18.397568282781734,102.17120724468646,-16.859592,3.6451216,-20.328382,71.867935,-31.420357,-3.1215847,-42.33583,-4.0948677,-19.54231,51.386547,-28.069931,-2.0695095,-9.427365,9.053924,12.433618,-22.751371,24.174894,-25.158417,-3.9789107,-9.579384,-7.5692263,15.975721,15.16422,-18.792622,12.794803,0.29609877,10.727657,-17.729708,-14.151536
110,3.101283073425293,40.53654861450195,70.70357513427734,-4.61380956351787,18.278594675673585,101.96049569058891,-18.713625,2.8437173,-20.864037,75.929184,-31.338673,-3.8362327,-41.451347,-3.5271022,-19.653605,51.400204,-28.921171,-2.0933049,-8.720691,9.250792,12.686033,-21.940489,23.790485,-25.772287,-3.6849952,-10.672223,-7.717911,17.492128,12.431601,-19.231874,13.434187,0.3471399,10.794892,-17.913221,-14.681893
111,3.1877059936523438,41.38235855102539,70.67720031738281,-4.777308161689527,18.151488849231963,101.70899141977189,-20.55816,2.0535216,-21.19138,79.621864,-31.186724,-4.548033,-40.514996,-2.9549873,-19.676643,51.296623,-29.712002,-2.104546,-7.9730577,9.384969,12.910997,-20.969198,23.476831,-26.403225,-3.4278822,-11.781188,-7.8613305,18.800571,9.659327,-19.67094,14.058008,0.25158826,10.934429,-18.06263,-15.152238
112,3.2667603492736816,42.248409271240234,70.6771469116211,-4.914204455488567,18.05524893202978,101.39411136849301,-22.448303,1.2888528,-21.369719,82.90636,-31.10342,-5.116277,-39.568596,-2.3528094,-19.604551,51.047817,-30.41174,-2.1144016,-7.175728,9.476971,13.075642,-19.843628,23.251743,-26.94332,-3.3073423,-12.743227,-8.066578,19.61677,6.91541,-20.086336,14.59022,-0.018014306,11.032357,-18.116663,-15.557288
113,3.3489153385162354,43.121978759765625,70.70280456542969,-5.033909491275605,17.994464990225083,100.9912186135258,-24.41543,0.5543824,-21.41293,85.77898,-31.109518,-5.48096,-38.621033,-1.7000687,-19.420876,50.64893,-31.014307,-2.1243227,-6.3094907,9.511601,13.168459,-18.538465,23.128773,-27.381598,-3.3311312,-13.583944,-8.387854,19.819061,4.1674905,-20.473293,15.055382,-0.4542514,11.072741,-18.051552,-15.923194
114,3.4246304035186768,44.0052490234375,70.75387573242188,-5.126458395917382,17.949794120106603,100.51783839383583,-26.442356,-0.13702649,-21.299936,88.25806,-31.11834,-5.7144055,-37.647,-1.0170509,-19.13448,50.113117,-31.5352,-2.131503,-5.39484,9.473938,13.206347,-17.044006,23.11454,-27.763205,-3.4632127,-14.379537,-8.754784,19.573088,1.3696572,-20.836763,15.507297,-1.0105569,11.107878,-17.902891,-16.241049
115,3.5000600814819336,44.887508392333984,70.82774353027344,-5.183866052828762,17.924196571062964,100.01384224377146,-28.509096,-0.7529857,-21.038494,90.31603,-31.106989,-5.868795,-36.63727,-0.33742896,-18.776026,49.44248,-31.975126,-2.140607,-4.4789004,9.383618,13.198275,-15.384899,23.21243,-28.063448,-3.7420807,-15.038191,-9.039808,19.029316,-1.4314784,-21.171143,15.910064,-1.6499672,11.122318,-17.697441,-16.451527
116,3.576751470565796,45.783748626708984,70.92643737792969,-5.202286018696255,17.921018465353313,99.5183178500185,-30.595377,-1.2576563,-20.636156,91.92211,-31.049967,-5.989698,-35.58213,0.3070623,-18.375841,48.634193,-32.33581,-2.1547859,-3.6040316,9.2592,13.153348,-13.585485,23.424452,-28.257603,-4.2068105,-15.461088,-9.123072,18.343555,-4.1928544,-21.46884,16.220985,-2.3305874,11.095671,-17.462343,-16.493992
117,3.6560616493225098,46.67795181274414,71.04866790771484,-5.18724900874535,17.95132854635792,99.02018437239691,-32.74099,-1.6197551,-20.090813,93.06746,-30.94738,-6.102235,-34.50708,0.9227765,-17.929237,47.711185,-32.622463,-2.1768172,-2.771181,9.113271,13.064468,-11.620896,23.758392,-28.306091,-4.8918324,-15.602808,-8.933822,17.426937,-6.9785657,-21.726946,16.442865,-3.0261075,11.053024,-17.208487,-16.310492
118,3.7325363159179688,47.601402282714844,71.19557189941406,-5.142568752750693,18.009990258729495,98.50518001763157,-34.94123,-1.845014,-19.40947,93.76249,-30.802444,-6.1661854,-33.400547,1.5201933,-17.423021,46.660408,-32.83351,-2.203329,-1.9736853,8.93101,12.934856,-9.449651,24.217562,-28.204346,-5.8011703,-15.516568,-8.550756,16.243448,-9.817409,-21.946978,16.624096,-3.733908,10.990952,-16.922575,-15.947368
119,3.798333168029785,48.54622268676758,71.37448120117188,-5.053329575241404,18.076622904277187,98.00534920090792,-37.108494,-1.9579325,-18.612701,94.01272,-30.60417,-6.131672,-32.20894,2.0739717,-16.875587,45.443108,-32.95438,-2.2269201,-1.2314311,8.694847,12.789497,-7.083332,24.791075,-27.982294,-6.918186,-15.250507,-8.086229,15.028089,-12.599019,-22.125687,16.773302,-4.461812,10.84619,-16.59534,-15.498866
120,3.8649349212646484,49.509273529052734,71.57823181152344,-4.907122045498032,18.131133090781457,97.5531502816641,-39.152428,-1.9877045,-17.717625,93.823044,-30.343872,-5.951607,-30.87651,2.5583322,-16.305271,44.014133,-32.97308,-2.2402742,-0.5518696,8.386606,12.648517,-4.5593023,25.456553,-27.685516,-8.199072,-14.856118,-7.6518784,14.015358,-15.195147,-22.25773,16.875896,-5.2300706,10.552993,-16.217628,-15.056791
121,3.9129772186279297,50.499183654785156,71.81431579589844,-4.7059753153531165,18.17275757406119,97.13360191943192,-41.075943,-1.9051582,-16.692791,93.176834,-30.031233,-5.603732,-29.409653,2.9759037,-15.691884,42.385433,-32.903553,-2.2498715,0.0831,8.008401,12.507424,-1.8553026,26.198694,-27.306707,-9.656651,-14.191314,-7.2438855,13.276381,-17.613518,-22.336315,16.887465,-6.033266,9.984593,-15.758516,-14.582977
122,3.9660704135894775,51.520111083984375,72.07775115966797,-4.45302690626553,18.211005602576698,96.73645670361148,-42.894997,-1.7068663,-15.530438,92.070984,-29.67675,-5.124106,-27.82954,3.3308697,-15.032156,40.571728,-32.746964,-2.2545006,0.6786202,7.5661244,12.356851,1.0367175,27.009993,-26.81486,-11.293154,-13.279133,-6.821526,12.677593,-19.917486,-22.359545,16.822071,-6.853856,9.207814,-15.238184,-14.043678
123,4.032936096191406,52.558528900146484,72.3720932006836,-4.135133662010258,18.241658538226417,96.40201303662452,-44.542053,-1.4694319,-14.279808,90.53004,-29.27392,-4.5559845,-26.106335,3.5977712,-14.370553,38.535805,-32.473225,-2.2354906,1.2123238,7.0445724,12.2048,4.0395036,27.875204,-26.229733,-13.027217,-12.423049,-6.4328346,12.151117,-22.048557,-22.33607,16.734966,-7.704723,8.446301,-14.71712,-13.539251
124,4.088742733001709,53.630191802978516,72.6926498413086,-3.7396341578521244,18.260403467748365,96.17081719135156,-45.954437,-1.273157,-12.990293,88.576164,-28.812582,-3.9418972,-24.209387,3.753465,-13.753092,36.236584,-32.051117,-2.1748424,1.6695724,6.43308,12.057297,7.0559425,28.772064,-25.58769,-14.760549,-11.924964,-6.121605,11.635538,-23.925444,-22.28252,16.66344,-8.616097,7.9265065,-14.249922,-13.176265
125,4.138091087341309,54.72262954711914,73.03459930419922,-3.2614296748481353,18.258302474748966,96.05289036052443,-47.11822,-1.1034855,-11.621289,86.18141,-28.309948,-3.2338629,-22.074913,3.795021,-13.188823,33.56161,-31.49154,-2.0681372,2.0535104,5.732421,11.91492,10.0797825,29.682703,-24.904049,-16.472078,-11.894662,-5.9041414,11.145179,-25.49991,-22.211197,16.563644,-9.628348,7.70989,-13.844667,-13.015166
126,4.184366703033447,55.84162521362305,73.38964080810547,-2.7017592855776473,18.23961600123765,96.0265996706435,-48.040787,-0.9557582,-10.139118,83.33189,-27.775114,-2.4477897,-19.738325,3.7245793,-12.658339,30.561335,-30.80131,-1.9215878,2.3834288,4.9468613,11.769865,13.13407,30.59634,-24.167204,-18.181446,-12.158806,-5.7496886,10.706656,-26.802042,-22.130495,16.403147,-10.737791,7.676887,-13.467906,-12.994829
127,4.223717212677002,56.98295211791992,73.74983215332031,-2.059385434346506,18.219496189411995,96.08554543998576,-48.70828,-0.92322135,-8.616561,80.06793,-27.17469,-1.7163562,-17.319578,3.5316024,-12.168451,27.442411,-29.952177,-1.7359865,2.6669548,4.074485,11.614251,16.16415,31.501822,-23.376535,-19.855757,-12.590513,-5.6260066,10.277786,-27.861261,-22.058563,16.23457,-11.911127,7.784146,-13.106794,-13.042522
128,4.257434844970703,58.15109634399414,74.10810852050781,-1.339395018728676,18.212895636648064,96.2230036506498,-49.120525,-1.0855354,-7.1442103,76.42044,-26.465906,-1.1612635,-14.945516,3.2135987,-11.727775,24.427078,-28.92238,-1.5158371,2.9110308,3.1229885,11.442072,19.113852,32.38645,-22.529583,-21.462683,-13.0612755,-5.503577,9.815169,-28.698465,-22.018154,16.112267,-13.125034,7.990497,-12.748795,-13.085376
129,4.296856880187988,59.34504318237305,74.45526885986328,-0.4905814726598671,18.21800296009964,96.46910141553813,-49.26662,-1.4980655,-5.7154856,72.29912,-25.61658,-0.7592308,-12.542021,2.731526,-11.326674,21.377628,-27.66382,-1.2643912,3.0997403,2.0452728,11.24604,21.975273,33.24492,-21.635656,-22.960487,-13.697089,-5.378673,9.276595,-29.272522,-22.033699,16.042446,-14.414623,8.3936825,-12.364195,-13.152567
130,4.334012985229492,60.55292510986328,74.78800201416016,0.4647084045100303,18.224727314912812,96.81349821791488,-49.143547,-2.1154861,-4.3092337,67.6805,-24.634811,-0.46660647,-10.086613,2.106743,-10.9742155,18.25762,-26.211447,-0.9821031,3.2452707,0.8666318,11.032844,24.77031,34.0731,-20.69311,-24.374832,-14.508767,-5.261145,8.695148,-29.560593,-22.118107,15.980249,-15.811187,8.985233,-11.967949,-13.272624
131,4.373283386230469,61.76472473144531,75.09483337402344,1.399239398610428,18.237191644260648,97.19026128386639,-48.78199,-2.8439696,-3.0258942,62.69652,-23.525171,-0.35993192,-7.7801366,1.4494362,-10.700255,15.446308,-24.676548,-0.6744566,3.394535,-0.28341967,10.815884,27.476324,34.858242,-19.693218,-25.761576,-15.192585,-5.1490374,8.138801,-29.611607,-22.272295,15.908903,-17.287392,9.563168,-11.6133995,-13.366375
132,4.398555755615234,62.98391342163086,75.37162017822266,2.1787256414636964,18.259713757023356,97.53401563409179,-48.22551,-3.5730934,-1.976748,57.49605,-22.296946,-0.5056426,-5.8187337,0.8847735,-10.524214,13.327998,-23.168047,-0.34792984,3.5901394,-1.2673078,10.607664,30.054245,35.58062,-18.639685,-27.155672,-15.444204,-5.047688,7.6724973,-29.485628,-22.487778,15.821523,-18.796188,9.922692,-11.352598,-13.349076
133,4.4058966636657715,64.19866943359375,75.61936950683594,2.800974459774077,18.298040615292177,97.84766115321344,-47.412342,-4.2964845,-1.1963608,51.841785,-20.86807,-0.9652575,-4.1905694,0.43300122,-10.471016,11.893061,-21.64934,-0.013985002,3.8371387,-2.0728176,10.39775,32.48877,36.231018,-17.520096,-28.539114,-15.036176,-4.956495,7.278217,-29.202984,-22.767332,15.747118,-20.322695,10.054783,-11.198527,-13.225332
134,4.419402599334717,65.4292984008789,75.83946990966797,3.306316222056924,18.3351069952357,98.14982049130435,-46.299263,-5.0253043,-0.67142195,45.650463,-19.213448,-1.6620163,-2.7655146,0.07166368,-10.504506,10.919083,-20.058023,0.33382705,4.1177535,-2.7435238,10.194017,34.78076,36.806755,-16.35476,-29.88099,-14.174969,-4.880446,6.9274826,-28.734911,-23.115456,15.682933,-21.887497,10.052546,-11.12268,-13.026845
135,4.43695592880249,66.6650161743164,76.02397155761719,3.6312253318051964,18.34300732000614,98.39850024566925,-44.97163,-5.6624475,-0.42588747,39.337276,-17.437979,-2.4503336,-1.5296092,-0.1336473,-10.544931,10.3984375,-18.429422,0.7204416,4.441216,-3.2251086,10.035168,36.891865,37.297825,-15.217799,-31.176851,-13.203269,-4.8317943,6.669901,-28.071686,-23.51691,15.5780525,-23.47861,9.862759,-11.11612,-12.706425
136,4.442927360534668,67.90313720703125,76.1752700805664,3.722010807489738,18.299705130429636,98.55596400675977,-43.55448,-6.119838,-0.45723775,33.39131,-15.682855,-3.192066,-0.48524573,-0.12913759,-10.515537,10.334154,-16.80234,1.1716903,4.807091,-3.4685388,9.951053,38.767864,37.69357,-14.192322,-32.401352,-12.462757,-4.8169594,6.5560055,-27.21789,-23.944086,15.390707,-25.066078,9.428568,-11.171298,-12.215945
137,4.4400153160095215,69.13569641113281,76.30093383789062,3.531360866533592,18.216615148562628,98.60650686870943,-42.07753,-6.3666058,-0.83545166,27.796097,-13.917199,-3.8660219,0.34492818,0.13128366,-10.443871,10.747053,-15.147212,1.6541948,5.2204747,-3.4340901,9.931992,40.447174,37.98509,-13.249392,-33.563915,-11.9306,-4.8447027,6.585062,-26.213772,-24.387398,15.105092,-26.626162,8.615773,-11.324739,-11.427135
138,4.422476291656494,70.35790252685547,76.38560485839844,3.0775039148845553,18.08443815772686,98.55243547146885,-40.48856,-6.3763895,-1.5278567,22.389198,-12.119953,-4.528859,1.0079099,0.6463477,-10.339243,11.56878,-13.42569,2.176429,5.682449,-3.1311445,9.975324,41.929253,38.176678,-12.376472,-34.660908,-11.455961,-4.9031787,6.731849,-25.07427,-24.844097,14.765154,-28.14806,7.495019,-11.581121,-10.403213
139,4.401902198791504,71.57823181152344,76.43653106689453,2.4347862469926604,17.87672312947363,98.41886014843685,-38.87808,-6.146392,-2.341182,17.558895,-10.495053,-5.175596,1.5358313,1.3459651,-10.121887,12.7589035,-11.710147,2.8277342,6.151013,-2.6173797,10.09428,43.099247,38.28537,-11.684824,-35.648647,-11.184971,-4.967792,7.010853,-23.774162,-25.2871,14.423795,-29.610775,6.3105164,-11.879544,-9.38281
140,4.380401611328125,72.79606628417969,76.44963836669922,1.7302450115614394,17.596964829302284,98.27279543776781,-37.365467,-5.7691464,-3.075252,13.681463,-9.226972,-5.8088217,1.8822893,2.0974314,-9.741722,14.386172,-10.129095,3.6992095,6.545906,-1.995697,10.274257,43.83099,38.336666,-11.292162,-36.469234,-11.264852,-5.0173683,7.4400067,-22.292572,-25.67639,14.1354475,-30.982325,5.2943163,-12.143057,-8.598558
141,4.355261325836182,73.99777221679688,76.44294738769531,0.9956797848228869,17.267867732106954,98.15449826840327,-35.981163,-5.324535,-3.723287,10.839959,-8.49635,-6.5492635,1.9866399,2.881072,-9.156209,16.548565,-8.652673,4.971143,6.8182344,-1.2876529,10.489471,44.13105,38.345703,-11.252063,-37.089764,-11.869327,-5.0620003,8.099238,-20.62012,-25.975657,13.915221,-32.2686,4.409995,-12.33474,-8.063006
142,4.324270248413086,75.1898422241211,76.4107437133789,0.2427362307138128,16.92691466836522,98.08413709027478,-34.753475,-4.859943,-4.350983,8.906347,-8.185646,-7.36127,1.7655845,3.6765127,-8.449488,19.362106,-7.3295326,6.553836,6.9512153,-0.51761276,10.707536,44.057774,38.316715,-11.491736,-37.536396,-12.880202,-5.122001,8.960415,-18.814962,-26.166718,13.762504,-33.430622,3.546757,-12.494644,-7.6581316
143,4.294321537017822,76.37357330322266,76.36201477050781,-0.4032733225267336,16.611940791154385,98.10056491193902,-33.839108,-4.48157,-4.863212,8.019899,-8.07583,-8.011046,1.1516176,4.3177943,-7.7719336,22.874453,-6.380365,8.138194,6.9221525,0.17956762,10.907756,43.55047,38.25776,-11.946747,-37.837585,-14.006425,-5.187454,9.877537,-16.931595,-26.27115,13.690115,-34.395374,2.8351595,-12.648134,-7.42478
144,4.283243656158447,77.57011413574219,76.28262329101562,-0.8111882108196481,16.35396166672361,98.22536084525996,-33.379204,-4.2989416,-5.1613445,8.314968,-7.9412293,-8.259887,0.121544026,4.6359777,-7.262352,27.048515,-5.971954,9.420994,6.6981845,0.6384013,11.080658,42.661327,38.193874,-12.469932,-38.113743,-14.973302,-5.235805,10.702341,-15.062571,-26.278013,13.742155,-35.068863,2.3999677,-12.820764,-7.408376
145,4.283851623535156,78.73915100097656,76.19532012939453,-0.9412949151786254,16.15366773729981,98.46472688652271,-33.288124,-4.323336,-5.12761,9.748203,-7.3606067,-8.138375,-1.3171774,4.642835,-6.8358436,31.913904,-6.1189504,10.3655205,6.322846,0.84318066,11.203594,41.155354,38.10617,-13.240722,-38.222515,-15.763975,-5.22918,11.462719,-13.138079,-26.209665,13.937226,-35.471832,2.394868,-13.006695,-7.7088833
146,4.2763872146606445,79.86419677734375,76.1027603149414,-0.8558139462666763,15.982461302393855,98.77606616154539,-33.396935,-4.4921136,-4.8177695,12.026932,-6.4441233,-7.744231,-3.0498066,4.4268384,-6.4172945,37.30166,-6.654332,11.139558,5.8019357,0.8371825,11.300451,39.219933,37.99265,-14.171855,-38.264828,-16.527225,-5.1904535,12.216172,-11.209591,-26.040598,14.3059225,-35.592476,2.712105,-13.198961,-8.278787
147,4.276740550994873,80.98548126220703,75.94471740722656,-0.6129511067069248,15.81597328848444,99.09985862424715,-33.690186,-4.778296,-4.399182,14.868199,-5.7435217,-6.947662,-4.9175,3.9277885,-6.141585,42.85467,-7.446999,11.713997,5.185151,0.6571331,11.4074955,37.005024,37.840393,-15.115522,-38.284782,-17.164598,-5.172415,12.889963,-9.370814,-25.788,14.740495,-35.369698,3.0984406,-13.413101,-8.903613
148,4.280738353729248,82.08563232421875,75.7294921875,-0.2780695332461045,15.6348989004119,99.38421990886843,-34.23226,-5.1734924,-4.053731,18.151169,-5.8820987,-5.6263943,-6.800536,3.0442867,-6.1428237,48.292763,-8.39198,12.01691,4.522144,0.3621162,11.557148,34.597595,37.627823,-15.967002,-38.276268,-17.565607,-5.222718,13.409238,-7.678932,-25.478817,15.1118355,-34.766933,3.3016343,-13.656056,-9.372071
149,4.283631801605225,83.1339340209961,75.48050689697266,0.15549168178845763,15.391753808054084,99.60010659742214,-35.2549,-5.7444663,-3.8482232,22.389975,-7.273656,-3.378291,-8.66336,1.5788274,-6.5285606,53.76228,-9.620167,11.954021,3.8319373,-0.056312304,11.802236,31.96514,37.335007,-16.696608,-38.23781,-17.721325,-5.4051976,13.677903,-6.147551,-25.13396,15.392355,-33.73079,3.3471699,-13.941016,-9.62465
150,4.29208517074585,84.14037322998047,75.1868896484375,0.6161924653402058,15.070051465795963,99.73931082106927,-36.57306,-6.4313517,-3.732089,27.386335,-9.4167595,-0.41999048,-10.4963,-0.33194852,-7.1312113,59.312485,-11.117612,11.501591,3.1226711,-0.5224863,12.143836,29.078405,36.955868,-17.350893,-38.169983,-17.675726,-5.6703954,13.756473,-4.7149467,-24.757872,15.643912,-32.330578,3.3458862,-14.258561,-9.782997
151,4.293489456176758,85.12471771240234,74.84434509277344,1.0357970865115536,14.753280287199651,99.84058449640496,-37.743954,-7.1450906,-3.69372,32.073547,-11.655763,2.4683146,-12.350995,-2.4148023,-7.7053657,64.65039,-12.621713,10.710489,2.3772054,-0.95691854,12.4951935,26.012215,36.503757,-17.942453,-38.046608,-17.400133,-5.8955355,13.801868,-3.3054106,-24.353516,15.8567,-30.724483,3.1740177,-14.578638,-9.914597
152,4.2841596603393555,86.1058349609375,74.5062026977539,1.423750643428916,14.558753021889471,99.98030553997742,-38.447937,-7.800727,-3.6719668,35.574707,-13.495584,4.5379786,-14.361372,-4.439407,-8.039823,69.52913,-13.890243,9.67339,1.5537174,-1.3500288,12.737339,22.836042,36.007862,-18.490057,-37.848354,-16.871721,-5.958047,13.973019,-1.8321568,-23.920607,16.011417,-29.073528,2.7081418,-14.870831,-10.089601
153,4.2835693359375,87.09920501708984,74.20654296875,1.8718907042306094,14.566022719648414,100.21045156265778,-38.69978,-8.40965,-3.602186,37.759235,-14.991764,5.53139,-16.719845,-6.4798884,-8.088053,74.06637,-14.9213295,8.286154,0.59053206,-1.7959473,12.806636,19.508755,35.48875,-18.979921,-37.58405,-15.920905,-5.7965226,14.313886,-0.26336855,-23.441978,16.061188,-27.359972,1.7599659,-15.129264,-10.312256
154,4.2998127937316895,88.10816955566406,73.96012115478516,2.4095040032763793,14.722808732537144,100.51440780541981,-38.7313,-9.029764,-3.5137632,39.202675,-16.452692,5.894997,-19.39268,-8.659687,-7.941166,78.39506,-15.867707,6.544711,-0.4904037,-2.3250892,12.738575,16.015162,34.952972,-19.39757,-37.261806,-14.62414,-5.4810133,14.740527,1.3763047,-22.911589,16.01589,-25.526083,0.44594243,-15.366454,-10.553136
155,4.334458827972412,89.13262939453125,73.77821350097656,2.9421775951628244,14.949967794406248,100.86705689997102,-38.57155,-9.601662,-3.4795737,40.14991,-17.825022,5.9472055,-22.184946,-10.782743,-7.6502347,82.28033,-16.692593,4.728336,-1.6006782,-2.821989,12.568574,12.449799,34.410076,-19.783537,-36.863644,-13.329577,-5.087455,15.22133,3.100269,-22.358274,15.932699,-23.678322,-0.9003306,-15.581218,-10.832712
156,4.371417999267578,90.16507720947266,73.6420669555664,3.3695488922408656,15.1666705560672,101.23767918900181,-38.240696,-10.072374,-3.5763283,40.82599,-19.039783,6.0032625,-24.888067,-12.65093,-7.302224,85.49575,-17.33979,3.134862,-2.6389897,-3.1644626,12.354413,8.883069,33.86736,-20.202314,-36.36408,-12.388594,-4.699763,15.733162,4.9466166,-21.833422,15.856024,-21.95292,-1.9388138,-15.774819,-11.174751
157,4.399497985839844,91.22766876220703,73.5586929321289,3.689394828771021,15.392511334654023,101.62744802976015,-37.75343,-10.44713,-3.8102772,41.230232,-20.075424,6.0864925,-27.542393,-14.27106,-6.9349494,88.039696,-17.721582,1.8115163,-3.5608618,-3.3257732,12.093445,5.2482176,33.32309,-20.727676,-35.76081,-11.827625,-4.253894,16.307522,7.015062,-21.379103,15.74386,-20.398333,-2.7144043,-15.921635,-11.626154
158,4.4278693199157715,92.3171615600586,73.52934265136719,3.9464344665664615,15.656849405263225,102.0509929492924,-37.097908,-10.740865,-4.145069,41.271145,-20.973831,6.0494986,-30.237795,-15.712195,-6.5451317,90.03065,-17.874544,0.62896764,-4.4106517,-3.356422,11.782526,1.5075942,32.761326,-21.339722,-35.065475,-11.495023,-3.7407334,16.954842,9.314843,-21.004967,15.562511,-19.000364,-3.3451912,-16.029533,-12.166989
159,4.448394298553467,93.42928314208984,73.56385040283203,4.100251185671978,15.894739829633977,102.49293018417592,-36.246067,-10.921122,-4.6054535,41.02211,-21.753603,5.953022,-32.81578,-16.876335,-6.188222,91.425964,-17.913599,-0.360278,-5.2241287,-3.2525318,11.488859,-2.222907,32.16542,-21.964691,-34.268757,-11.464381,-3.3330228,17.621256,11.723632,-20.709833,15.378264,-17.788355,-3.6036952,-16.155455,-12.718789
160,4.454178333282471,94.55967712402344,73.66615295410156,4.106212759078771,16.042825562176127,102.93569269385553,-35.16901,-10.952934,-5.2157364,40.553493,-22.43167,5.857293,-35.10732,-17.667503,-5.921669,92.18116,-17.952127,-1.0941604,-6.0480404,-3.0103788,11.277871,-5.8179317,31.530695,-22.520243,-33.360847,-11.796462,-3.2040353,18.24507,14.0957575,-20.48452,15.270884,-16.775114,-3.2675378,-16.360722,-13.203544
161,4.461484432220459,95.7021255493164,73.83198547363281,3.9135123884744805,16.041848599924023,103.3983396289554,-33.820427,-10.806872,-6.041053,39.92656,-23.054852,5.771338,-37.01071,-17.987371,-5.772749,92.231415,-18.030775,-1.5006878,-6.9152775,-2.594567,11.221253,-9.311181,30.860746,-23.039986,-32.297157,-12.72797,-3.4944613,18.85595,16.413792,-20.330225,15.283555,-15.975931,-2.0155144,-16.701298,-13.625836
162,4.4665327072143555,96.83343505859375,74.05232238769531,3.5553973648231074,15.943729513383827,103.88096066389909,-32.237076,-10.492472,-7.041223,39.09809,-23.606192,5.666343,-38.61636,-17.926695,-5.7327776,91.62259,-18.078236,-1.6141565,-7.805531,-2.0255225,11.282518,-12.744449,30.15809,-23.558283,-31.100414,-14.14284,-4.0930247,19.455904,18.731792,-20.249767,15.368231,-15.37329,-0.052002154,-17.142239,-14.0037365
163,4.460290908813477,97.98856353759766,74.32593536376953,3.119570078273923,15.851701077091253,104.33779084436132,-30.517803,-10.037984,-8.084349,37.985657,-24.008432,5.546406,-40.04193,-17.67619,-5.799743,90.476425,-18.050817,-1.53636,-8.683247,-1.3814406,11.356779,-16.023676,29.433424,-24.002253,-29.851244,-15.571961,-4.78291,19.94248,21.009829,-20.23032,15.46338,-14.927186,2.0519671,-17.600378,-14.285696
164,4.456910133361816,99.1499252319336,74.63666534423828,2.6931914340517045,15.867243478797961,104.72172353637406,-28.762093,-9.476456,-9.039579,36.508785,-24.185331,5.4119897,-41.405224,-17.411657,-5.9709086,88.909645,-17.899582,-1.3631039,-9.510954,-0.7367649,11.330554,-19.059109,28.710272,-24.294416,-28.623384,-16.553835,-5.3338127,20.231133,23.207811,-20.250141,15.511721,-14.597128,3.7190187,-17.983011,-14.436741
165,4.466214656829834,100.30377960205078,74.96426391601562,2.2962319743131236,16.026652719503147,105.0401584705999,-26.972372,-8.815845,-9.92056,34.555115,-24.12079,5.259107,-42.75572,-17.132177,-6.232268,86.89311,-17.585257,-1.0335732,-10.296585,-0.10262611,11.168156,-21.853575,28.012764,-24.416882,-27.421747,-17.035082,-5.7102203,20.285147,25.325056,-20.294077,15.510124,-14.418703,4.884675,-18.257374,-14.451053
166,4.474169731140137,101.48090362548828,75.32073211669922,1.8843928190747847,16.27233423188457,105.31140137655083,-25.11318,-8.036671,-10.773495,32.205723,-23.858398,5.087926,-44.010937,-16.767017,-6.5890136,84.37228,-17.14737,-0.5255273,-11.051132,0.5536991,10.934985,-24.46227,27.356136,-24.430506,-26.21871,-17.247702,-6.018588,20.164753,27.382774,-20.359499,15.47598,-14.401481,5.822145,-18.467398,-14.351468
167,4.4814629554748535,102.6942367553711,75.69583892822266,1.4498824963193018,16.563140072657724,105.50315518993426,-23.221235,-7.142128,-11.521554,29.661345,-23.405235,4.9006653,-45.091213,-16.368633,-7.080118,81.426216,-16.651466,0.014667299,-11.737922,1.2294866,10.6624775,-26.8643,26.751905,-24.372135,-25.0514,-17.151474,-6.2389593,19.945856,29.380825,-20.439943,15.382633,-14.474937,6.4598207,-18.634613,-14.157809
168,4.479602813720703,103.913818359375,76.06477355957031,0.985718719829908,16.858033926904994,105.58265918580851,-21.332224,-6.143367,-12.086984,27.124323,-22.771463,4.6947956,-45.917927,-15.976419,-7.752347,78.12992,-16.159897,0.44887915,-12.319045,1.9203086,10.379758,-29.036491,26.209991,-24.272682,-23.957182,-16.706469,-6.352849,19.702726,31.317318,-20.527618,15.199096,-14.562271,6.7248225,-18.783072,-13.888352
169,4.474794387817383,105.14045715332031,76.4181137084961,0.4533449825468895,17.164545582698082,105.51682460351937,-19.389027,-4.980531,-12.444952,24.469751,-21.925894,4.4593544,-46.45846,-15.619728,-8.737767,74.43023,-15.684451,0.72130847,-12.770772,2.663715,10.074066,-30.9511,25.73999,-24.109045,-22.938814,-15.751546,-6.32455,19.422894,33.208527,-20.615637,14.887083,-14.659549,6.4076443,-18.910185,-13.517593
170,4.474632740020752,106.400146484375,76.75717163085938,-0.12966924289746606,17.49643231899884,105.32921273873303,-17.403444,-3.6921797,-12.624934,21.664284,-20.88623,4.186673,-46.741417,-15.22724,-9.992217,70.284996,-15.180549,0.9453837,-13.117009,3.4463356,9.731976,-32.635628,25.349356,-23.877579,-21.984484,-14.360489,-6.181128,19.076073,35.058098,-20.698286,14.462267,-14.808032,5.6078286,-19.013424,-13.048558
171,4.467997074127197,107.67945098876953,77.08140563964844,-0.6806602516358659,17.821705721365728,105.07377670955955,-15.521341,-2.446985,-12.639965,19.07993,-19.742487,3.8856292,-46.796455,-14.704338,-11.278644,65.78481,-14.627746,1.2251112,-13.394436,4.1799283,9.380241,-34.124577,25.03959,-23.63645,-21.123224,-12.835195,-5.994777,18.711735,36.834915,-20.769981,13.981304,-15.003008,4.7155495,-19.113937,-12.5397215
172,4.460448741912842,108.958984375,77.38268280029297,-1.1135590817269312,18.108017712290657,104.80719053032098,-13.856642,-1.4026729,-12.52198,17.038574,-18.561178,3.5785244,-46.662113,-14.001924,-12.335348,61.01558,-14.006557,1.6269611,-13.635855,4.7733397,9.04438,-35.462543,24.809235,-23.445738,-20.371824,-11.487965,-5.8310566,18.383505,38.504814,-20.825987,13.502192,-15.229014,4.119418,-19.225199,-12.048495
173,4.457526683807373,110.23355865478516,77.65357971191406,-1.4194366702816423,18.35200933649043,104.51920123085645,-12.38981,-0.56981593,-12.238862,15.538374,-17.261168,3.2906322,-46.32426,-13.113931,-13.090394,55.847324,-13.348638,2.0254655,-13.826735,5.2172003,8.722371,-36.660526,24.662397,-23.32825,-19.73606,-10.276964,-5.675619,18.119236,40.068836,-20.86937,13.006692,-15.486413,3.8586447,-19.350595,-11.551456
174,4.457013130187988,111.53030395507812,77.89991760253906,-1.628155929652834,18.561358496156867,104.19357653924516,-11.03713,0.11307566,-11.807122,14.395156,-15.823729,3.0156403,-45.7491,-12.107275,-13.65147,50.235188,-12.63797,2.3967094,-13.959766,5.5427613,8.402895,-37.69354,24.602016,-23.250069,-19.20661,-9.081614,-5.5011277,17.886002,41.538105,-20.89924,12.476591,-15.776756,3.7462933,-19.479956,-11.030009
175,4.450645923614502,112.83365631103516,78.11405944824219,-1.7215879240653655,18.71792788040492,103.88040319304206,-9.8204365,0.61801624,-11.344191,13.669108,-14.402037,2.7320166,-44.946674,-11.0666,-14.024031,44.396297,-11.781486,2.93801,-14.088518,5.7204275,8.10479,-38.53422,24.619135,-23.19059,-18.78861,-8.078325,-5.3475056,17.651419,42.862915,-20.906633,11.993807,-16.05956,3.8225865,-19.599358,-10.553239
176,4.456649303436279,114.14353942871094,78.281982421875,-1.6854108208100873,18.802634701926888,103.63345422341492,-8.747413,0.92994064,-10.971233,13.383581,-13.135724,2.4153624,-43.924397,-10.06398,-14.225289,38.5384,-10.682152,3.8566957,-14.236227,5.751319,7.8608303,-39.16638,24.677572,-23.143402,-18.499722,-7.4435515,-5.256511,17.389204,44.07489,-20.88891,11.5630045,-16.37352,4.1439943,-19.692383,-10.159647
177,4.483973026275635,115.45604705810547,78.40202331542969,-1.4689926422727844,18.793887566368856,103.4899064873534,-7.7592278,1.0086557,-10.705302,13.462218,-12.015717,2.0664713,-42.562366,-9.075958,-14.161733,32.3355,-9.124289,5.4325576,-14.445912,5.56734,7.669876,-39.609352,24.78113,-23.120369,-18.307205,-7.2969007,-5.2500396,17.078234,45.166206,-20.832586,11.226052,-16.68747,4.803691,-19.75547,-9.85559
178,4.519789218902588,116.77561950683594,78.46806335449219,-1.0422861218923078,18.665518664837055,103.4633389538482,-6.773251,0.8301753,-10.522823,13.796438,-10.919088,1.702808,-40.771805,-8.17478,-13.8296795,25.641104,-7.169903,7.4586515,-14.724751,5.1462736,7.5435715,-39.89759,24.917402,-23.134508,-18.181374,-7.5193806,-5.2964535,16.735077,46.156673,-20.744099,10.953562,-17.018286,5.745633,-19.793173,-9.618253
179,4.57501745223999,118.08944702148438,78.47470092773438,-0.43006274776541736,18.399023039605925,103.56647996139931,-5.783543,0.40702423,-10.479579,14.381308,-9.820807,1.3253125,-38.68026,-7.542504,-13.417658,19.055502,-5.1730065,9.451044,-15.078695,4.5197124,7.513692,-40.018665,25.072788,-23.166273,-18.125538,-7.929971,-5.35397,16.386818,46.99842,-20.621605,10.752362,-17.345545,6.766928,-19.80642,-9.477543
180,4.642930507659912,119.40180969238281,78.43659210205078,0.26060489208350945,18.033815021187767,103.74547780536379,-4.89699,-0.16142285,-10.592142,15.326295,-8.754956,0.9236447,-36.562164,-7.2193165,-13.171114,13.330655,-3.519809,10.948516,-15.451348,3.7989736,7.571275,-39.956062,25.227661,-23.193022,-18.143024,-8.341717,-5.384403,16.06137,47.620323,-20.46337,10.632605,-17.626125,7.663285,-19.800241,-9.46594
181,4.71582555770874,120.69586181640625,78.36447143554688,0.8929261013071172,17.670400519936635,103.90646137314789,-4.3203664,-0.7446866,-10.817101,16.856176,-7.857865,0.5251383,-34.53291,-7.001374,-13.199426,8.495185,-2.1918776,11.854426,-15.748738,3.118416,7.6596847,-39.712505,25.367025,-23.193962,-18.233448,-8.769443,-5.3717036,15.728139,47.99975,-20.259052,10.599484,-17.819626,8.411675,-19.773382,-9.642295
182,4.79953670501709,121.97250366210938,78.27378845214844,1.4509831344379043,17.33731101882558,104.01814412333685,-4.092619,-1.3176986,-11.099651,19.005611,-7.1511335,0.11284112,-33.88218,-7.067463,-13.233274,7.112496,-2.530864,12.427007,-15.935717,2.4904828,7.7497416,-39.29549,25.483135,-23.189896,-18.389414,-9.277369,-5.338592,15.38584,48.15679,-20.008007,10.638108,-17.93402,9.108223,-19.729845,-9.970765
183,4.890987396240234,123.23716735839844,78.15695190429688,1.9164792352904674,17.023797231242302,104.06071231651771,-4.1576095,-1.849463,-11.405098,21.676542,-6.5387197,-0.4089196,-33.598377,-7.1664023,-13.371216,7.0136724,-3.386599,12.72919,-15.985643,1.9408293,7.8435183,-38.709282,25.569208,-23.210812,-18.59176,-9.7652645,-5.3099113,15.105922,48.067806,-19.72904,10.725893,-17.984518,9.732835,-19.681961,-10.341883
184,4.988502502441406,124.49411010742188,78.01207733154297,2.306913818842674,16.69660442758092,104.03911451983541,-4.408723,-2.3601208,-11.716757,24.723696,-5.900086,-1.1422443,-33.083237,-7.209195,-13.646526,6.9833236,-4.115742,12.825631,-15.905324,1.459057,7.953081,-37.9456,25.617336,-23.278622,-18.827587,-10.127539,-5.3119307,14.957077,47.72107,-19.462381,10.840541,-17.999613,10.271921,-19.63891,-10.650364
185,5.094212532043457,125.74235534667969,77.83805084228516,2.672488420218424,16.319542138817496,103.96222955120852,-4.7708592,-2.9362452,-12.037404,28.144636,-5.1690927,-2.2164338,-32.188667,-7.242653,-14.158114,6.9775515,-4.7734227,12.9021845,-15.745252,1.0220689,8.080442,-36.91041,25.614328,-23.359428,-19.134298,-10.313922,-5.3645124,14.999515,47.179836,-19.3192,10.992852,-18.056175,10.763636,-19.594599,-10.902043
186,5.198097229003906,126.99675750732422,77.62957000732422,2.9649584147117927,15.923592234607034,103.8194442604029,-5.3108277,-3.5435565,-12.378674,32.021034,-4.4516797,-3.5774193,-30.966078,-7.2063837,-14.888019,6.986762,-5.3323393,12.868312,-15.421632,0.6114911,8.226537,-35.713203,25.576223,-23.538551,-19.464025,-10.396416,-5.4494653,15.18052,46.32924,-19.054989,11.20633,-17.976631,11.127339,-19.54872,-11.115194
187,5.27589750289917,128.26251220703125,77.38699340820312,3.058692299429205,15.576910400888288,103.5975762066464,-6.1340947,-4.0207405,-12.75146,36.34804,-3.8802588,-5.064369,-29.670351,-6.972933,-15.636194,7.050202,-5.6787066,12.356327,-14.969325,0.4230819,8.397017,-34.395145,25.50359,-23.732489,-19.806833,-10.415463,-5.5449896,15.403633,45.229847,-18.855328,11.41513,-17.89461,11.440967,-19.508366,-11.302122
188,5.326346397399902,129.51853942871094,77.12957763671875,2.7744765433558802,15.351533089755666,103.26871647950902,-7.3352666,-4.1414294,-13.1742325,41.102974,-3.5765436,-6.519627,-28.541801,-6.334324,-16.224318,7.1553373,-5.665594,10.97912,-14.343608,0.6301233,8.599005,-33.082966,25.408428,-23.943438,-20.101141,-10.423062,-5.6248903,15.565557,43.801865,-18.668932,11.594209,-17.75647,11.679051,-19.485254,-11.448509
189,5.373023986816406,130.7477569580078,76.88304138183594,1.9284605292313215,15.27902216363617,102.78712823072411,-8.963106,-3.7024806,-13.666295,46.439587,-3.473876,-8.058007,-27.65173,-5.0438967,-16.58046,7.2869277,-4.944003,8.101548,-13.5208,1.4216053,8.835452,-31.764688,25.316826,-24.164692,-20.378063,-10.43104,-5.687613,15.688447,42.000973,-18.514078,11.742576,-17.552177,11.89439,-19.50233,-11.502042
190,5.44715690612793,131.93408203125,76.66129302978516,0.7338411992758495,15.249915519534142,102.22891643194313,-10.8089695,-2.9875398,-14.285443,52.200985,-3.5011337,-9.744047,-28.726221,-3.89109,-16.703096,11.590333,-5.763065,4.166769,-12.57727,2.5710394,9.118588,-30.415268,25.222616,-24.419622,-20.636597,-10.421731,-5.74373,15.810344,39.883316,-18.366467,11.880891,-17.308048,12.063748,-19.547024,-11.483931
191,5.536850929260254,133.0782012939453,76.39961242675781,-0.421056026593103,15.158197114479442,101.73043711605666,-12.652872,-2.4399645,-15.045639,57.956783,-3.7703009,-11.304779,-29.940577,-2.8172998,-16.887358,16.245846,-6.6597905,0.3502993,-11.647062,3.691805,9.4690895,-29.046087,25.130531,-24.680094,-20.856552,-10.412262,-5.788774,15.86213,37.569103,-18.25444,11.997481,-17.116653,12.101042,-19.575487,-11.501914
192,5.6151556968688965,134.18914794921875,76.0466537475586,-1.2836721497572186,14.976267888653524,101.36463750147443,-14.41844,-2.3098555,-15.907313,63.394493,-4.43527,-12.446568,-30.756374,-2.0086877,-17.14407,20.216621,-7.8120737,-2.2697167,-10.801039,4.537425,9.886252,-27.649761,25.039312,-24.904879,-21.028597,-10.412062,-5.8192353,15.773788,35.13468,-18.206152,12.084848,-17.02742,11.919716,-19.545008,-11.663177
193,5.671744346618652,135.2800750732422,75.61756134033203,-1.9195697117986044,14.703474716003797,101.1341395071093,-16.174204,-2.5279527,-16.92927,68.67782,-5.72135,-13.017843,-31.236631,-1.4967921,-17.443663,23.777521,-9.732464,-3.3100812,-10.034591,5.185745,10.420815,-26.235132,24.93109,-25.02678,-21.16198,-10.371268,-5.8271914,15.464941,32.537086,-18.236134,12.136018,-17.068642,11.443929,-19.451824,-12.0005
194,5.724760055541992,136.35305786132812,75.19123840332031,-2.493112689067261,14.398792419538841,100.96590318756996,-18.003218,-2.9048898,-18.070055,73.96835,-7.5001507,-13.17807,-31.625301,-1.1617628,-17.735884,27.351112,-12.26731,-3.4298034,-9.297317,5.806086,11.037294,-24.775,24.807404,-25.064129,-21.27788,-10.296643,-5.8179364,14.9926405,29.743065,-18.353458,12.162478,-17.206947,10.7476,-19.313044,-12.45789
195,5.764808654785156,137.4024200439453,74.80502319335938,-3.0059323233189676,14.163656016704579,100.77069615229004,-19.937544,-3.3638666,-19.161032,79.00581,-9.408816,-13.097498,-31.906916,-0.9040881,-17.951748,30.630081,-14.94071,-3.1696577,-8.541736,6.3912354,11.589615,-23.206842,24.689209,-25.0968,-21.360432,-10.277146,-5.80716,14.490689,26.809153,-18.569098,12.197885,-17.36223,9.965887,-19.117973,-13.00566
196,5.775282382965088,138.462890625,74.46167755126953,-3.4393463802909072,14.088352719618117,100.46906100329407,-22.017292,-3.8445559,-20.03705,83.51725,-11.07594,-12.938185,-32.047855,-0.5712792,-18.015766,33.217354,-17.229462,-3.0524943,-7.7299194,6.9053717,11.939931,-21.45218,24.614841,-25.19497,-21.407902,-10.40493,-5.8092227,14.094547,23.784256,-18.892473,12.291137,-17.456509,9.234858,-18.857946,-13.616565
197,5.756041526794434,139.57290649414062,74.1521987915039,-3.8057540876336415,14.270052065889152,99.9988537525743,-24.383549,-4.348866,-20.69224,87.50641,-12.441306,-12.66139,-32.10626,-0.056987815,-17.89576,34.934353,-19.008825,-3.1603012,-6.8239527,7.344209,11.997556,-19.414083,24.616436,-25.35864,-21.451275,-10.753244,-5.8403025,13.824318,20.572187,-19.347582,12.508424,-17.434744,8.566117,-18.50086,-14.326925
198,5.742685317993164,140.71859741210938,73.88898468017578,-4.125865474651537,14.640264310044714,99.4074241276084,-27.005001,-4.884527,-21.21734,91.10924,-13.674347,-12.197468,-32.101845,0.5697702,-17.656363,36.02961,-20.555285,-3.2362196,-5.8789697,7.7280316,11.862887,-17.085764,24.709877,-25.502504,-21.547932,-11.263426,-5.8887672,13.616248,17.140669,-19.925793,12.874746,-17.346613,7.914039,-18.059006,-15.144228
199,5.746057987213135,141.8886260986328,73.67772674560547,-4.385297753290546,15.03414690910876,98.78788347320406,-29.6675,-5.39503,-21.593657,94.231514,-14.740717,-11.65349,-31.916708,1.2297517,-17.34862,36.679665,-21.922604,-3.2896578,-4.9846234,8.039982,11.691238,-14.544595,24.909178,-25.591349,-21.723856,-11.83137,-5.927558,13.48233,13.63066,-20.568735,13.360222,-17.249474,7.318342,-17.593042,-15.991234
200,5.777675628662109,143.07662963867188,73.51068878173828,-4.565959279430223,15.287849829742314,98.23748571100909,-32.156376,-5.8135514,-21.807217,96.77037,-15.607516,-11.135257,-31.421915,1.8369874,-17.01759,37.05358,-23.16131,-3.3239815,-4.2038374,8.257998,11.63278,-11.911718,25.221455,-25.628605,-21.973362,-12.355334,-5.9304194,13.438742,10.192747,-21.199738,13.895182,-17.178207,6.7974906,-17.165369,-16.778175
201,5.818103313446045,144.2846221923828,73.39511108398438,-4.646446330244813,15.343208838149655,97.78736410884493,-34.435722,-6.1077647,-21.860073,98.698654,-16.201494,-10.679502,-30.546633,2.3629475,-16.662262,37.19321,-24.311369,-3.332988,-3.5397844,8.352541,11.720275,-9.227656,25.661747,-25.689217,-22.198965,-12.875798,-5.872412,13.543892,6.7675033,-21.776354,14.505832,-16.997646,6.333107,-16.793594,-17.535517
202,5.866373538970947,145.4967498779297,73.344970703125,-4.643621328340831,15.293750827266798,97.38453364554775,-36.62661,-6.2941375,-21.76631,100.07118,-16.554106,-10.219236,-29.362288,2.8456492,-16.253769,37.005207,-25.335365,-3.315511,-2.9421866,8.327256,11.87318,-6.4470105,26.235323,-25.759596,-22.412838,-13.428053,-5.7773657,13.778686,3.2767386,-22.288208,15.222442,-16.678251,5.903863,-16.44555,-18.276361
203,5.91188907623291,146.72390747070312,73.36793518066406,-4.586029274164086,15.203890979608726,97.00125211369266,-38.745674,-6.374487,-21.531187,100.90179,-16.79295,-9.707611,-27.94849,3.2996488,-15.793092,36.452915,-26.168276,-3.2762551,-2.3775027,8.208861,12.064464,-3.5830328,26.917484,-25.732483,-22.741142,-13.899635,-5.689506,14.040195,-0.14191456,-22.721462,15.946817,-16.413338,5.5118237,-16.112715,-18.88046
204,5.943605899810791,147.97314453125,73.4547348022461,-4.502960369055611,15.137408269401815,96.60936548790804,-40.802887,-6.35581,-21.157394,101.20234,-17.048933,-9.103697,-26.386122,3.7421708,-15.281514,35.50148,-26.745234,-3.2235775,-1.8000342,8.023911,12.2606535,-0.66807294,27.661003,-25.521912,-23.291285,-14.175669,-5.6485906,14.222328,-3.3353667,-23.066563,16.553991,-16.397367,5.1541123,-15.788257,-19.228308
205,5.958312511444092,149.2210235595703,73.58428955078125,-4.4150192105631305,15.085495498737691,96.17564899051756,-42.79072,-6.204538,-20.625593,100.94091,-17.39542,-8.40624,-24.653002,4.2053485,-14.683859,34.100845,-27.050392,-3.163962,-1.1724701,7.78619,12.471684,2.29593,28.424685,-25.111744,-24.071823,-14.159515,-5.659648,14.332861,-6.3229203,-23.326113,17.005684,-16.66641,4.825114,-15.463812,-19.266563
206,5.9777116775512695,150.47378540039062,73.7557144165039,-4.296281082914378,15.022209977429098,95.72148247013678,-44.684765,-5.926958,-19.930216,100.11688,-17.7618,-7.647988,-22.7162,4.6567388,-13.9979515,32.283867,-27.118088,-3.0920188,-0.51147664,7.479569,12.693959,5.297494,29.191301,-24.558924,-24.98065,-13.927583,-5.699802,14.412419,-9.166686,-23.51043,17.35771,-17.09403,4.5170097,-15.150655,-19.066265
207,5.992926597595215,151.7341766357422,73.96722412109375,-4.106724177049008,14.985545364836671,95.30040697317789,-46.46194,-5.5936193,-19.090498,98.78399,-18.065006,-6.8427453,-20.641998,5.0209227,-13.278873,30.14087,-26.961168,-3.0014298,0.15141594,7.081873,12.873227,8.288414,29.946167,-23.898172,-25.959328,-13.621333,-5.7660966,14.402354,-11.772589,-23.627708,17.609518,-17.64609,4.220401,-14.871725,-18.695356
208,6.020074367523193,153.01504516601562,74.20741271972656,-3.8078889066937376,15.014152350357755,94.96691459719419,-48.101643,-5.2754107,-18.120644,96.99394,-18.220352,-6.000854,-18.498772,5.228476,-12.589847,27.760223,-26.592154,-2.8850334,0.7853034,6.5695095,12.957722,11.216755,30.67931,-23.16588,-26.953585,-13.380418,-5.8564568,14.244142,-14.043553,-23.686167,17.754206,-18.294506,3.92813,-14.648329,-18.220617
209,6.045650959014893,154.3245391845703,74.46646881103516,-3.3757664507832663,15.130870331483445,94.7366007892693,-49.617535,-5.020796,-16.995718,94.718124,-18.223803,-5.1127157,-16.232666,5.2646494,-11.920886,24.973133,-25.987825,-2.74613,1.390722,5.9199033,12.928332,14.101989,31.37997,-22.340464,-27.98185,-13.231308,-5.988752,13.876916,-15.929277,-23.68584,17.71706,-19.082308,3.5983214,-14.507933,-17.573492
210,6.070481777191162,155.6512908935547,74.73303985595703,-2.822786122542473,15.311706439059702,94.58033051486254,-50.979088,-4.793269,-15.683512,91.92762,-18.12985,-4.1944246,-13.837216,5.1446786,-11.25003,21.805367,-25.156279,-2.585752,1.9824088,5.1386256,12.815825,16.963799,32.040905,-21.41137,-29.061634,-13.101396,-6.1584387,13.347805,-17.502129,-23.632687,17.517815,-19.999645,3.245561,-14.434607,-16.749771
211,6.096571445465088,157.01458740234375,75.0107192993164,-2.176264300108491,15.525238201799757,94.48606394993912,-52.104942,-4.538933,-14.196549,88.673195,-17.939516,-3.297475,-11.459876,4.863909,-10.635734,18.642973,-24.159386,-2.3906813,2.5437706,4.2535987,12.648195,19.75416,32.664265,-20.422419,-30.14119,-12.980647,-6.329763,12.757519,-18.840532,-23.545898,17.290976,-20.950201,2.9506633,-14.380032,-15.91448
212,6.123019218444824,158.3882598876953,75.28671264648438,-1.4751969623458203,15.739779896965723,94.44202890424519,-52.9176,-4.207764,-12.563351,85.003914,-17.649752,-2.4777603,-9.244441,4.4433846,-10.141475,15.862377,-23.0588,-2.145863,3.0583954,3.310414,12.4558525,22.42326,33.256443,-19.417326,-31.171974,-12.857037,-6.4668846,12.205624,-19.998844,-23.450724,17.165276,-21.861403,2.7963521,-14.290929,-15.233238
213,6.156891822814941,159.781494140625,75.55452728271484,-0.6731911118289192,15.946639436034346,94.47083600059085,-53.381363,-3.7687168,-10.657183,80.85252,-17.232954,-1.7251956,-7.129552,3.84933,-9.799328,13.378541,-21.81008,-1.8412247,3.507738,2.2699537,12.241006,24.981802,33.82758,-18.380215,-32.15777,-12.68635,-6.5430694,11.683101,-20.933475,-23.36655,17.15748,-22.77358,2.8542562,-14.120433,-14.777259
214,6.189558506011963,161.1854248046875,75.80451202392578,0.2146486072875227,16.15975361012254,94.5727586146176,-53.496468,-3.30601,-8.49925,76.200905,-16.700953,-1.0672803,-5.080327,3.1159918,-9.585492,11.062943,-20.408659,-1.4840482,3.9026892,1.1452669,11.999904,27.464977,34.37656,-17.282808,-33.14552,-12.488907,-6.5843043,11.148354,-21.606546,-23.299768,17.186062,-23.7452,3.0673199,-13.902347,-14.455797
215,6.217739105224609,162.590087890625,76.04000091552734,1.0484673319232007,16.379499271292104,94.70441097528304,-53.275734,-2.9278262,-6.3707104,71.16286,-16.094286,-0.5926048,-3.2656975,2.385509,-9.471242,9.214131,-18.962706,-1.0912286,4.26923,0.0737725,11.749314,29.836895,34.890488,-16.166199,-34.13082,-12.344893,-6.6316357,10.652124,-22.0751,-23.258629,17.233814,-24.733892,3.3236117,-13.703426,-14.1857195
216,6.240050315856934,164.00546264648438,76.26094055175781,1.7007488402110762,16.606866008760072,94.8205423197481,-52.773224,-2.7047355,-4.5647526,65.83942,-15.427112,-0.34756625,-1.8383833,1.7856247,-9.413329,8.110632,-17.57186,-0.6814758,4.634329,-0.813836,11.502107,32.034626,35.348118,-15.092384,-35.079216,-12.331233,-6.7237644,10.241962,-22.402794,-23.252129,17.290972,-25.68756,3.5131176,-13.590446,-13.881318
217,6.2636213302612305,165.42236328125,76.46590423583984,2.164971225563747,16.864864608550224,94.91836235188678,-52.003284,-2.5906553,-3.1075494,60.04882,-14.643179,-0.23457009,-0.87484586,1.3225814,-9.430441,7.8726,-16.253014,-0.27555397,5.0069103,-1.50798,11.240074,34.017162,35.741283,-14.074553,-35.95718,-12.52214,-6.8866034,9.896207,-22.62559,-23.302206,17.38008,-26.601322,3.667482,-13.593498,-13.558544
218,6.2722930908203125,166.84927368164062,76.65620422363281,2.502244816761623,17.138087816958354,95.01119271271465,-50.944614,-2.5512645,-1.8692137,53.749985,-13.714173,-0.23591813,-0.2361412,0.94943553,-9.515984,8.276948,-14.930869,0.15109259,5.3763633,-2.0633628,10.968516,35.793774,36.072697,-13.10624,-36.764683,-12.850832,-7.090611,9.593838,-22.694893,-23.420183,17.49564,-27.515785,3.831652,-13.671053,-13.250632
219,6.282480716705322,168.2815399169922,76.82213592529297,2.703279543520459,17.370661403396397,95.07829366362847,-49.611553,-2.62162,-0.92921174,47.210766,-12.672814,-0.46794772,0.23660883,0.6959888,-9.588143,9.100657,-13.563557,0.64799756,5.7367,-2.4595373,10.732433,37.36298,36.33986,-12.22937,-37.51018,-13.180288,-7.290868,9.382496,-22.562557,-23.591114,17.594492,-28.424576,3.9134731,-13.783654,-12.89207
220,6.287810802459717,169.7268829345703,76.95733642578125,2.736784194536478,17.505766137812664,95.09367867316718,-48.03953,-2.794808,-0.3958983,40.734222,-11.564656,-1.0282297,0.66733193,0.6044431,-9.56309,10.187235,-12.141743,1.2515963,6.0834107,-2.6579041,10.572351,38.718624,36.53816,-11.48955,-38.192146,-13.370392,-7.443964,9.312127,-22.195675,-23.78392,17.63771,-29.303118,3.815649,-13.893444,-12.413982
221,6.275399684906006,171.17941284179688,77.04938507080078,2.5369398749519196,17.53155687455595,95.01924842447721,-46.153835,-3.0179198,-0.45562685,34.062263,-10.297234,-2.0110252,1.0637467,0.72833043,-9.410337,11.545349,-10.627675,1.9334106,6.4358683,-2.6007736,10.491696,39.919388,36.66062,-10.859961,-38.81667,-13.314345,-7.53409,9.394071,-21.610014,-23.981081,17.619465,-30.143747,3.4494393,-14.0008545,-11.703091
222,6.248968601226807,172.64785766601562,77.0890121459961,2.0748767203705385,17.44137712095182,94.8281104772748,-43.892673,-3.1130767,-1.0565826,27.03587,-8.846585,-3.2665207,1.440619,1.106385,-9.137514,13.155745,-8.995495,2.6740324,6.8210773,-2.2685306,10.494287,40.965096,36.711258,-10.325463,-39.392113,-13.104874,-7.5837603,9.600203,-20.851978,-24.181196,17.578001,-30.924185,2.8842576,-14.128254,-10.82054
223,6.214446544647217,174.1285858154297,77.06851196289062,1.3693875110526048,17.19338098320887,94.53111109133984,-41.397057,-2.923089,-1.9345806,20.267569,-7.430229,-4.5564647,1.8592861,1.750166,-8.733879,14.962868,-7.313742,3.5079095,7.229171,-1.66766,10.610655,41.758087,36.70766,-9.953254,-39.915905,-12.901646,-7.60877,9.92361,-19.932043,-24.372356,17.5391,-31.595457,2.2591057,-14.267687,-9.960407
224,6.182492733001709,175.60943603515625,77.0037841796875,0.5223650934382145,16.796804835295802,94.20774416579879,-38.91932,-2.4705195,-2.7769387,14.480567,-6.2900143,-5.6867003,2.2838113,2.5779772,-8.238546,17.013079,-5.7065487,4.480966,7.5914135,-0.8772096,10.826021,42.180817,36.677807,-9.819442,-40.36448,-12.865604,-7.627754,10.361044,-18.858484,-24.538242,17.525438,-32.10406,1.7069952,-14.40506,-9.314672
225,6.137475967407227,177.08663940429688,76.90752410888672,-0.4421442909614448,16.268537257141062,93.91819661809541,-36.376495,-1.8401392,-3.554291,9.506168,-5.554305,-6.8167973,2.6700997,3.5853343,-7.6470513,19.410187,-4.1647954,5.75012,7.832086,0.08301274,11.099323,42.279987,36.65513,-9.944146,-40.752262,-13.039773,-7.6530223,11.00467,-17.645243,-24.60287,17.576536,-32.382687,1.1675857,-14.532535,-8.911999
226,6.0883989334106445,178.54443359375,76.78760528564453,-1.480682559726948,15.666051680416025,93.70317106808776,-34.783024,-1.2094195,-4.3456745,7.2243524,-6.195039,-7.9886084,2.8858876,4.687309,-7.0154457,22.319424,-2.7448072,7.244059,7.961958,1.1966811,11.405806,41.97706,36.622787,-10.360777,-41.009014,-13.3326845,-7.676703,11.825696,-16.180397,-24.674824,17.620575,-32.582508,0.61365676,-14.656233,-8.668208
227,6.045680999755859,180.0084991455078,76.65205383300781,-2.342558790327529,15.121537865933362,93.66289246331874,-34.073956,-0.82547134,-5.073687,7.1569567,-7.4307837,-8.853134,2.6640024,5.555485,-6.5295258,25.95975,-1.7039667,8.689194,7.8612614,2.168838,11.680424,41.343777,36.59786,-10.892932,-41.2221,-13.758309,-7.6945276,12.656792,-14.650482,-24.690063,17.695421,-32.590137,0.16148908,-14.78434,-8.571964
228,6.031467914581299,181.47840881347656,76.5064468383789,-2.778571556525065,14.754591928138066,93.86249203333684,-33.354084,-0.8301695,-5.651052,7.1120787,-7.577875,-9.065979,1.8151655,5.8657184,-6.347595,30.405119,-1.229163,9.82015,7.545639,2.760044,11.846637,40.071808,36.560024,-11.650653,-41.17618,-14.281415,-7.6997895,13.355201,-13.09956,-24.678043,17.721685,-32.3746,-0.06123717,-14.920023,-8.5993395
229,6.018580913543701,182.89431762695312,76.40138244628906,-2.6531956780419446,14.630523310092645,94.34447225554979,-32.610683,-1.3566797,-6.0008807,7.0771327,-5.9656444,-8.446463,0.26462907,5.468795,-6.494581,35.748016,-1.3093939,10.59489,6.9205704,2.7953312,11.875262,38.322704,36.512302,-12.48298,-41.060753,-15.046058,-7.674039,13.856555,-11.560996,-24.617893,17.786724,-31.921158,0.069739655,-15.07846,-8.83582
230,6.005624771118164,184.2616424560547,76.31565856933594,-2.099583160303545,14.64944135610477,95.02302690048235,-31.771109,-2.27973,-6.1336455,7.0651054,-3.0398562,-7.2472672,-1.7332397,4.523087,-6.7900543,41.70751,-1.7587366,11.150128,6.09203,2.4274817,11.794655,36.053493,36.430603,-13.4971075,-40.79542,-16.002274,-7.6314373,14.26841,-10.012994,-24.485449,17.881613,-31.19798,0.45244142,-15.253972,-9.250205
231,5.9931111335754395,185.61866760253906,76.16937255859375,-1.3288963255757036,14.665773918341024,95.75023100101357,-32.40902,-3.5430222,-6.0135155,10.411614,-1.6991786,-5.7436924,-3.8546252,3.226645,-7.078491,47.789104,-2.4930594,11.475221,5.161447,1.8311316,11.750104,33.54353,36.30737,-14.475666,-40.53132,-16.932243,-7.6023083,14.594355,-8.53214,-24.291002,17.979208,-30.256151,0.90970945,-15.426164,-9.713108
232,5.985680103302002,186.9525146484375,75.93839263916016,-0.560454740184008,14.558364750020967,96.39636711440392,-33.317154,-4.765162,-5.7943373,14.508144,-1.7163655,-4.1958146,-5.855889,1.7830529,-7.276353,53.605316,-3.4768093,11.54262,4.2447596,1.2098004,11.865097,30.909166,36.134247,-15.32115,-40.279713,-17.600983,-7.6134357,14.848314,-7.147466,-24.050741,18.005106,-29.156454,1.2566141,-15.5686245,-10.085713
233,5.986793518066406,188.20553588867188,75.66398620605469,0.20462419276662736,14.238658981965818,96.92532965833497,-34.32092,-5.9235225,-5.5492706,19.145004,-3.313275,-2.4483998,-7.6882596,0.12552495,-7.3928223,59.31454,-4.906361,11.302204,3.3621716,0.5514254,12.249044,28.110983,35.904644,-15.990708,-40.048542,-17.99764,-7.71854,14.954929,-5.9047585,-23.779161,17.925795,-27.854782,1.5676874,-15.67923,-10.327688
234,5.988869667053223,189.42041015625,75.3331069946289,0.9623167439927444,13.751594542660238,97.36572243195864,-35.488216,-7.045793,-5.286963,24.52792,-5.98526,-0.44139946,-9.433043,-1.7272319,-7.4339995,65.041245,-6.7397814,10.741945,2.4974892,-0.13933527,12.842354,25.098185,35.617455,-16.542715,-39.81907,-18.225689,-7.8824315,14.929613,-4.7495785,-23.47897,17.776829,-26.366245,1.9047542,-15.768477,-10.51649
235,5.9780402183532715,190.62225341796875,74.96733856201172,1.6278608193890884,13.260001546447302,97.76419265247009,-36.484463,-8.056438,-5.1210914,29.615852,-8.920374,1.4655882,-11.201141,-3.5865006,-7.382957,70.48001,-8.654206,9.924461,1.6386964,-0.7656232,13.45925,21.944075,35.284943,-17.03937,-39.540688,-18.225124,-7.9990687,14.919209,-3.5444825,-23.153852,17.577463,-24.858454,2.063284,-15.826956,-10.696248
236,5.976439952850342,191.80126953125,74.63003540039062,2.1993186588419698,12.96085662052755,98.21144024580002,-37.072617,-8.9580765,-5.0914083,33.478012,-11.351221,2.9258664,-13.172864,-5.3307962,-7.2417555,75.37031,-10.338527,8.941434,0.73531324,-1.297775,13.88149,18.72093,34.927242,-17.547411,-39.166042,-17.940603,-7.9640274,15.074302,-2.1424055,-22.806114,17.342123,-23.501488,1.8388418,-15.845692,-10.913967
237,5.991698265075684,193.0127716064453,74.35491943359375,2.7679370872486873,12.959453696874666,98.79839748186971,-37.27982,-9.839517,-5.168536,35.930817,-13.196591,3.827064,-15.529727,-7.016873,-7.0089984,79.78496,-11.776322,7.688116,-0.29194477,-1.8066088,14.021865,15.357693,34.56376,-18.09774,-38.65735,-17.253218,-7.7428293,15.456167,-0.47525018,-22.424116,17.017206,-22.317026,0.9501815,-15.794489,-11.204295
238,6.041397571563721,194.25550842285156,74.13206481933594,3.3701578110221355,13.162278776514343,99.49382431144025,-37.295647,-10.73534,-5.31506,37.573723,-14.8878975,4.378749,-18.210388,-8.712297,-6.6798635,83.87462,-13.1322155,6.184365,-1.4158285,-2.3326938,13.968288,11.830848,34.195004,-18.664524,-38.042915,-16.238659,-7.38943,15.983434,1.398314,-22.004374,16.595285,-21.233566,-0.41621584,-15.682486,-11.531761
