unveil-humanoid-operators/unveil-humanoid-operators.github.io/feature-analysis-animation/data/feature_matrix_instances/age_ankle_rom_walking_A051_walk_ff_loop_315_003__A051.csv
Frame,root_translateX,root_translateY,root_translateZ,root_rotateX,root_rotateY,root_rotateZ,left_hip_pitch_joint_dof,left_hip_roll_joint_dof,left_hip_yaw_joint_dof,left_knee_joint_dof,left_ankle_pitch_joint_dof,left_ankle_roll_joint_dof,right_hip_pitch_joint_dof,right_hip_roll_joint_dof,right_hip_yaw_joint_dof,right_knee_joint_dof,right_ankle_pitch_joint_dof,right_ankle_roll_joint_dof,waist_yaw_joint_dof,waist_roll_joint_dof,waist_pitch_joint_dof,left_shoulder_pitch_joint_dof,left_shoulder_roll_joint_dof,left_shoulder_yaw_joint_dof,left_elbow_joint_dof,left_wrist_roll_joint_dof,left_wrist_pitch_joint_dof,left_wrist_yaw_joint_dof,right_shoulder_pitch_joint_dof,right_shoulder_roll_joint_dof,right_shoulder_yaw_joint_dof,right_elbow_joint_dof,right_wrist_roll_joint_dof,right_wrist_pitch_joint_dof,right_wrist_yaw_joint_dof
0,2.175814390182495,0.7999306321144104,77.00152587890625,3.464093768103818,-1.6218433750574566,-173.87258435547207,6.7322335,-6.2767797,20.242615,7.244986,-13.82814,4.7130613,-25.243855,-11.083492,-6.1697545,52.88161,-16.93952,-2.2548788,-11.590345,-4.631653,15.583848,-14.590784,14.607576,-35.03053,60.06109,7.5335035,-1.5683627,-0.96190274,4.153841,-13.349649,23.984545,46.845047,12.688096,-12.796169,-11.447445
1,2.4667258262634277,1.045729160308838,77.02936553955078,3.520112698721804,-1.5758864360923746,-174.57275154359783,6.496746,-6.039834,20.91242,7.26973,-13.626057,4.609178,-24.763039,-12.126938,-6.31721,53.82749,-17.487421,-2.4282093,-11.338098,-4.6000466,15.475057,-14.172208,14.582677,-34.608463,59.813705,7.377824,-1.6330134,-0.79356855,4.061171,-13.369117,24.007244,46.845753,12.638741,-12.787079,-11.536085
2,2.760422945022583,1.2931511402130127,77.05459594726562,3.57862436221687,-1.5305135683757949,-175.27321653033465,6.2654867,-5.8086104,21.58128,7.289874,-13.420192,4.5093107,-24.278376,-13.166746,-6.4527197,54.787086,-18.03666,-2.596861,-11.129749,-4.57599,15.3565645,-13.736893,14.543633,-34.129692,59.571896,7.2309785,-1.7054955,-0.6233082,3.9285629,-13.384572,24.079304,46.88892,12.614135,-12.787911,-11.634081
3,3.0460267066955566,1.5427838563919067,77.07946014404297,3.634473832313559,-1.4845167224744118,-175.9695419444899,6.033902,-5.5687065,22.24575,7.3205733,-13.221407,4.4047875,-23.765701,-14.224087,-6.6208687,55.676327,-18.567083,-2.769191,-10.923807,-4.5488477,15.232774,-13.305818,14.491427,-33.648422,59.354305,7.11198,-1.7697471,-0.4601758,3.7911825,-13.397887,24.162645,46.939846,12.555212,-12.7751465,-11.732707
4,3.323937177658081,1.799295425415039,77.10606384277344,3.682005308864214,-1.4374621592440011,-176.65753513302758,5.8089833,-5.3102016,22.901258,7.3548822,-13.0297165,4.2876396,-23.199755,-15.318377,-6.8684855,56.412437,-19.058401,-2.952973,-10.712838,-4.507299,15.101817,-12.885189,14.419659,-33.16961,59.18286,7.0587196,-1.8118232,-0.31497297,3.6576822,-13.413189,24.257551,46.98829,12.407337,-12.72655,-11.828735
5,3.6023449897766113,2.05562424659729,77.13457489013672,3.717326672749956,-1.3866920862194954,-177.33282170293754,5.5861206,-5.0277104,23.546095,7.396373,-12.847773,4.1578774,-22.570951,-16.461563,-7.2205205,56.991135,-19.515734,-3.1712224,-10.483179,-4.446742,14.963962,-12.478261,14.335098,-32.7124,59.057274,7.0932765,-1.8238077,-0.1952812,3.5425315,-13.429166,24.339867,47.02114,12.112511,-12.619401,-11.919246
6,3.8757071495056152,2.312129259109497,77.16253662109375,3.7434494117960537,-1.3334961410306168,-177.9987529370208,5.1911345,-4.6455197,24.196209,7.847127,-12.88423,4.0160675,-21.89072,-17.638153,-7.6537685,57.453617,-19.94687,-3.411954,-10.246727,-4.371511,14.81974,-12.079873,14.236166,-32.261948,58.967186,7.1938143,-1.8144612,-0.09401198,3.4380612,-13.446173,24.420872,47.04401,11.715004,-12.470622,-12.005951
7,4.140440940856934,2.572894811630249,77.18974304199219,3.7661451609095216,-1.283270533072466,-178.66276129905629,4.7858005,-4.2382617,24.839748,8.352606,-12.951496,3.8654091,-21.165302,-18.82762,-8.144536,57.786247,-20.334814,-3.6302094,-10.001059,-4.290618,14.674363,-11.692003,14.123928,-31.81822,58.906654,7.3148556,-1.7922008,0.00032731396,3.332644,-13.468726,24.516571,47.066425,11.308036,-12.317231,-12.086862
8,4.409865379333496,2.831430196762085,77.20942687988281,3.7921491508409146,-1.2413452374336607,-179.33251234382217,4.401715,-3.824446,25.477777,8.856639,-13.019222,3.705528,-20.401983,-20.009851,-8.668204,57.977222,-20.663355,-3.7811003,-9.743978,-4.212622,14.534224,-11.313519,14.000723,-31.379114,58.864788,7.412026,-1.7653141,0.098778486,3.2180576,-13.50243,24.642527,47.09216,10.9843235,-12.196329,-12.160649
9,4.677333831787109,3.0935769081115723,77.22769927978516,3.820450429447032,-1.207295342006271,179.98496021816115,4.0386305,-3.4022517,26.11561,9.358874,-13.086609,3.53327,-19.599989,-21.19885,-9.242251,58.034256,-20.942001,-3.8784242,-9.471772,-4.1345954,14.4032755,-10.944746,13.86805,-30.94319,58.836983,7.4809856,-1.7262096,0.2038021,3.0899801,-13.5514765,24.808252,47.116737,10.790601,-12.119522,-12.230312
10,4.936723232269287,3.3618993759155273,77.24102783203125,3.8479333999138716,-1.1788654282326363,179.29522374959194,3.6877341,-2.9659843,26.7507,9.872288,-13.160603,3.3506274,-18.753408,-22.395876,-9.878207,57.963665,-21.17501,-3.9375975,-9.188373,-4.052044,14.278578,-10.582149,13.726147,-30.508045,58.823418,7.5446386,-1.673725,0.3090526,2.956027,-13.61713,25.004717,47.134155,10.670472,-12.066084,-12.295487
11,5.200454235076904,3.629809617996216,77.24771881103516,3.8789725110496374,-1.15794635720919,178.60932789030528,3.357665,-2.5249522,27.373774,10.3822155,-13.233067,3.1642387,-17.866678,-23.565306,-10.53964,57.751972,-21.337482,-3.9171145,-8.902081,-3.9705787,14.156598,-10.22316,13.576611,-30.077656,58.82366,7.5920663,-1.6261526,0.41257662,2.824467,-13.698477,25.221802,47.146275,10.5657625,-12.0251,-12.34991
12,5.464504241943359,3.898841142654419,77.2510757446289,3.917604096539569,-1.1464097908060846,177.93862631804177,3.0565958,-2.0885,27.975624,10.875174,-13.297518,2.980267,-16.945858,-24.672352,-11.188748,57.385963,-21.405596,-3.7762113,-8.621877,-3.8965993,14.033781,-9.863667,13.421808,-29.65397,58.83606,7.615013,-1.6018453,0.5123876,2.703025,-13.793432,25.44865,47.15649,10.417191,-11.985285,-12.387411
13,5.712857723236084,4.176290512084961,77.2527084350586,3.9647779809412462,-1.1477133287200536,177.2861120903877,2.7921274,-1.6614035,28.550772,11.344625,-13.350654,2.80288,-15.977424,-25.72748,-11.835696,56.85525,-21.37858,-3.4924014,-8.348019,-3.8320305,13.909487,-9.496936,13.262089,-29.231834,58.859184,7.5971713,-1.6107185,0.60299325,2.5976467,-13.901423,25.684814,47.163513,10.207407,-11.95275,-12.397234
14,5.961572170257568,4.4552788734436035,77.25277709960938,4.017967395290423,-1.1597930070117617,176.64556872311502,2.5602279,-1.239162,29.105675,11.79212,-13.395539,2.6276996,-14.962893,-26.742676,-12.495482,56.170986,-21.269926,-3.0938163,-8.075912,-3.772895,13.785844,-9.127326,13.097987,-28.814049,58.894203,7.5459404,-1.641518,0.68706906,2.500113,-14.022491,25.936293,47.168816,9.970385,-11.930598,-12.385845
15,6.205685138702393,4.7448320388793945,77.25090026855469,4.077427524750714,-1.1755738710449148,176.01407158532965,2.3446698,-0.8156006,29.649836,12.231633,-13.434183,2.4479644,-13.937355,-27.687155,-13.13114,55.35804,-21.080832,-2.6170413,-7.8070836,-3.7194946,13.662623,-8.76277,12.9328165,-28.410133,58.939823,7.4930415,-1.6800665,0.77460647,2.4038396,-14.154112,26.198027,47.174507,9.715909,-11.9033165,-12.372658
16,6.449219703674316,5.034735202789307,77.24325561523438,4.142953455647899,-1.1878394117694884,175.38879275484373,2.1310265,-0.38465002,30.192379,12.673637,-13.468646,2.2567773,-12.937629,-28.53458,-13.701634,54.43944,-20.812735,-2.0985076,-7.5423684,-3.6718643,13.540046,-8.414212,12.7726145,-28.034998,58.995926,7.463838,-1.7123462,0.87582964,2.2970867,-14.291892,26.467754,47.186935,9.4585285,-11.855529,-12.376697
17,6.695641040802002,5.335605144500732,77.23207092285156,4.217325832328502,-1.1970407779958518,174.76948617778936,1.9210813,0.049894545,30.738503,13.117129,-13.500578,2.0518563,-11.968228,-29.295729,-14.201213,53.408154,-20.45676,-1.533666,-7.2830157,-3.635529,13.418918,-8.078454,12.621799,-27.691591,59.058,7.477596,-1.7327613,0.9970584,2.1740746,-14.43423,26.749924,47.208942,9.197217,-11.778263,-12.412328
18,6.940648078918457,5.645508766174316,77.21929931640625,4.299376789385315,-1.2059575480504168,174.1572938180683,1.7211721,0.4866049,31.282549,13.556238,-13.527631,1.8365146,-11.014071,-29.983217,-14.641663,52.257317,-20.022373,-0.9122381,-7.0284424,-3.6101305,13.299684,-7.748068,12.481712,-27.371868,59.122265,7.5159287,-1.7489928,1.1310428,2.0390177,-14.580148,27.045528,47.238926,8.927073,-11.681601,-12.466009
19,7.188496112823486,5.9645676612854,77.20633697509766,4.382994940692393,-1.2108628829717487,173.55177742975678,1.5220847,0.93606776,31.817034,14.000607,-13.549193,1.6126764,-10.089578,-30.578232,-15.002122,51.016342,-19.541092,-0.26016673,-6.7772326,-3.588898,13.180819,-7.4269767,12.354123,-27.075132,59.190998,7.5474653,-1.7668815,1.267891,1.8988541,-14.726071,27.341805,47.27705,8.648366,-11.577962,-12.515769
20,7.43573522567749,6.297713279724121,77.19236755371094,4.461382913263946,-1.2086411378560629,172.95252705726486,1.3144155,1.4099119,32.33395,14.4594,-13.564778,1.3824587,-9.2076435,-31.058676,-15.263952,49.71016,-19.041733,0.39537224,-6.526372,-3.5652895,13.060294,-7.119508,12.241118,-26.801182,59.267483,7.541577,-1.7921348,1.3979172,1.7543507,-14.867941,27.62808,47.330143,8.3655,-11.480353,-12.539972
21,7.684823036193848,6.63746976852417,77.1785888671875,4.532292737531156,-1.198917793055312,172.35720027926754,1.1013049,1.9084237,32.8317,14.925863,-13.571718,1.1451254,-8.3820505,-31.445343,-15.446058,48.35302,-18.537449,0.9407313,-6.276143,-3.5382056,12.9351,-6.818911,12.143378,-26.545166,59.348816,7.4798064,-1.8286648,1.5182346,1.6060207,-15.00267,27.904234,47.404358,8.062693,-11.390635,-12.530893
22,7.940269947052002,6.990384101867676,77.16253662109375,4.598733287487217,-1.183488652237637,171.76683652749642,0.8842886,2.4277904,33.31358,15.401188,-13.571495,0.9000846,-7.6064143,-31.748554,-15.541968,46.93282,-18.016466,1.4208575,-6.027675,-3.5116117,12.806592,-6.5266123,12.062005,-26.311152,59.43607,7.3792524,-1.8727157,1.634246,1.4491696,-15.129365,28.175898,47.49992,7.743968,-11.303089,-12.501188
23,8.204965591430664,7.351946830749512,77.14319610595703,4.661828943048869,-1.1617834864751317,171.18619763669676,0.65973985,2.9682333,33.7793,15.886678,-13.563284,0.6504365,-6.865014,-31.933022,-15.491619,45.435253,-17.474363,2.0479343,-5.768268,-3.4953892,12.678579,-6.2533355,12.009464,-26.11855,59.530716,7.2676682,-1.9173084,1.7482178,1.2859848,-15.226256,28.420015,47.61859,7.4253964,-11.220902,-12.459189
24,8.46100902557373,7.728372573852539,77.12469482421875,4.7224630231733356,-1.1332721206546523,170.62022495023106,0.41481063,3.5357006,34.22742,16.406569,-13.551575,0.39930335,-6.13442,-31.95932,-15.237586,43.82968,-16.906086,3.034309,-5.5048327,-3.4862888,12.5555315,-6.010635,11.978007,-25.961895,59.641277,7.180184,-1.9573795,1.8630068,1.114593,-15.302922,28.642748,47.74891,7.141894,-11.14462,-12.414526
25,8.731761932373047,8.12170696258545,77.10076904296875,4.78101747940349,-1.1058841095152931,170.06342876417708,0.16331887,4.1288433,34.6641,16.956217,-13.538225,0.14932203,-5.389119,-31.828503,-14.778348,42.08489,-16.336943,4.4291945,-5.2457566,-3.4795308,12.4425335,-5.7926044,11.960477,-25.83312,59.77009,7.1317487,-1.9957664,1.9813635,0.93488026,-15.374847,28.859648,47.89221,6.8991895,-11.077958,-12.365074
26,9.013691902160645,8.521666526794434,77.07586669921875,4.836387339636428,-1.0773713180857678,169.51553641934066,-0.096335694,4.7478256,35.086624,17.532225,-13.521245,-0.10093247,-4.634635,-31.56279,-14.140213,40.206394,-15.774958,6.113168,-5.002939,-3.468919,12.338819,-5.586744,11.956198,-25.714632,59.903133,7.1072426,-2.0348825,2.0996,0.75341403,-15.461796,29.084908,48.030155,6.691413,-11.01703,-12.307304
27,9.29983139038086,8.930408477783203,77.04676818847656,4.886707219116359,-1.0314745340077913,168.98913580559451,-0.38848203,5.3922873,35.481663,18.129509,-13.493409,-0.35418954,-3.8903594,-31.153368,-13.3064375,38.213474,-15.190924,8.048286,-4.7571716,-3.4584324,12.237219,-5.4143233,11.973235,-25.62591,60.041588,7.0878286,-2.0671155,2.2135792,0.58128583,-15.545855,29.279352,48.144207,6.5157285,-10.953425,-12.247227
28,9.589365005493164,9.352222442626953,77.01947021484375,4.929627993005239,-0.9515440263700071,168.49661440368354,-0.7387637,6.0624814,35.83508,18.745472,-13.448566,-0.6134069,-3.1745033,-30.58427,-12.258192,36.121754,-14.55058,10.202009,-4.521473,-3.4506304,12.126981,-5.277914,12.014561,-25.546211,60.178757,7.0655713,-2.086385,2.3182633,0.40898085,-15.618041,29.448765,48.227097,6.382753,-10.878402,-12.196016
29,9.893962860107422,9.785064697265625,76.98275756835938,4.977478135890469,-0.8223531150125377,168.03140219189723,-1.1615542,6.7470465,36.15437,19.382648,-13.391696,-0.879687,-2.4457386,-29.800749,-10.875926,33.797977,-13.707246,12.888686,-4.2962723,-3.4572856,11.985357,-5.172558,12.081251,-25.472275,60.31752,7.041802,-2.0880497,2.4053895,0.24439165,-15.670793,29.586159,48.27535,6.2925596,-10.779697,-12.154849
30,10.215110778808594,10.257072448730469,76.95255279541016,4.832946211226463,-0.6027565413997634,167.51967603142944,-1.8334427,7.8241887,36.4403,20.43129,-13.493988,-1.2018808,-1.731777,-28.4911,-9.259217,31.163795,-12.696746,15.000033,-4.001555,-3.285301,11.7869835,-5.1212363,12.146997,-25.421434,60.495564,7.0224857,-2.0770967,2.4878242,0.07371937,-15.696016,29.686068,48.3259,6.236233,-10.667875,-12.12131
31,10.567930221557617,10.770751953125,76.93269348144531,4.288207726008904,-0.29443192233221627,166.9397301693116,-2.864725,9.63674,36.618664,22.162922,-13.856459,-1.6253307,-1.0775894,-26.453524,-7.6838565,28.353662,-11.729716,15.000033,-3.637391,-2.746708,11.570307,-5.088262,12.244496,-25.353104,60.642994,7.003463,-2.0602438,2.5698886,-0.12952635,-15.716934,29.796497,48.366276,6.2211347,-10.563302,-12.096866
32,10.939764022827148,11.273386001586914,76.89957427978516,3.8554774411742363,-0.06255485346080024,166.4917086362492,-3.719805,11.169773,36.685234,23.500526,-14.001558,-2.0097015,-0.42865065,-24.742512,-6.20921,25.854525,-11.188344,15.000033,-3.3871253,-2.3444893,11.456921,-5.060944,12.409491,-25.263071,60.721123,6.974387,-2.0433962,2.654958,-0.35804072,-15.734857,29.928276,48.372425,6.238462,-10.484328,-12.0814295
33,11.31472396850586,11.763952255249023,76.864990234375,3.5810059305782893,0.09829235256806995,166.17564239265013,-4.403462,12.364735,36.6715,24.450565,-13.939919,-2.3410957,0.10357119,-23.422144,-4.75975,23.788198,-11.185045,15.000033,-3.228782,-2.1030307,11.43247,-5.0966024,12.583055,-25.1732,60.808228,6.951655,-2.0256922,2.7618172,-0.61801845,-15.744041,30.060669,48.36873,6.288709,-10.437242,-12.084412
34,11.684174537658691,12.256325721740723,76.83131408691406,3.409624431459589,0.22530033352337245,165.95187831250132,-4.9998574,13.344965,36.601665,25.160168,-13.742333,-2.6400785,0.51874036,-22.320728,-3.288838,22.025364,-11.534203,15.000033,-3.1395285,-1.9708992,11.468168,-5.1706734,12.783256,-25.073765,60.879795,6.932238,-2.004526,2.8784747,-0.9006569,-15.746809,30.19758,48.341904,6.373574,-10.410557,-12.102224
35,12.07718276977539,12.736945152282715,76.79231262207031,3.2977688020834517,0.33279846719396705,165.79691862091528,-5.5391,14.180283,36.494484,25.666985,-13.424008,-2.927144,0.82754254,-21.39294,-2.0227015,20.55986,-12.068461,15.000033,-3.088395,-1.908984,11.552548,-5.2887936,13.0018835,-24.97156,60.95261,6.897007,-1.9882025,3.0031874,-1.2051233,-15.742806,30.33795,48.310658,6.4809737,-10.401602,-12.122563
36,12.483859062194824,13.229109764099121,76.7620849609375,3.2004868806881284,0.43030143022814143,165.69215317535313,-6.0375733,14.935659,36.359802,25.986805,-12.988205,-3.2243338,1.0607148,-20.58844,-1.1818312,19.353533,-12.615548,15.000033,-3.0524516,-1.8793929,11.678879,-5.4493036,13.237748,-24.868446,61.033524,6.8269086,-1.9848163,3.132174,-1.5239613,-15.729634,30.480476,48.285816,6.5936546,-10.407484,-12.132803
37,12.90731143951416,13.721410751342773,76.73439025878906,3.112432287309334,0.5008584196177572,165.63533575738342,-6.485647,15.639946,36.19225,26.165936,-12.467222,-3.5463998,1.1958659,-19.906116,-0.8733373,18.488327,-13.211594,15.000033,-3.028419,-1.8793845,11.868898,-5.6638227,13.492632,-24.772305,61.134903,6.69597,-2.0043366,3.269551,-1.8613487,-15.705975,30.62475,48.26533,6.714408,-10.437595,-12.126176
38,13.340790748596191,14.223443984985352,76.7128677368164,3.0442941830609045,0.5475178761235898,165.63477088477032,-6.8747516,16.26815,35.987656,26.17993,-11.848152,-3.8843133,1.2178113,-19.336924,-0.9914954,17.944843,-13.911583,15.000033,-3.0271986,-1.9153756,12.118466,-5.927997,13.766895,-24.678244,61.247723,6.5228457,-2.040128,3.415442,-2.2178206,-15.671985,30.768951,48.24453,6.8469286,-10.490371,-12.110372
39,13.789777755737305,14.725897789001465,76.70317077636719,2.978022100415603,0.6061624404151749,165.6900831616241,-7.259452,16.83582,35.746227,26.040516,-11.124576,-4.2286687,1.1262931,-18.824783,-1.3852091,17.630383,-14.647569,15.000033,-3.0492635,-1.9668072,12.38412,-6.224406,14.055689,-24.578644,61.355785,6.3472815,-2.075418,3.561171,-2.5926945,-15.627122,30.917967,48.240868,6.9864545,-10.546104,-12.09538
40,14.250876426696777,15.235832214355469,76.70570373535156,2.899127735950628,0.7133572606566831,165.80058305278587,-7.689662,17.351507,35.468006,25.74619,-10.282295,-4.56878,0.9327944,-18.315706,-1.9049636,17.429909,-15.336234,15.000033,-3.0948284,-2.0165255,12.620602,-6.53814,14.351334,-24.466154,61.44824,6.208858,-2.0931916,3.69904,-2.9884315,-15.571588,31.07855,48.27666,7.12899,-10.585361,-12.091613
41,14.729089736938477,15.74544620513916,76.71466827392578,2.8104777468151485,0.8706373085518527,165.97819206579095,-8.159111,17.815233,35.148823,25.278183,-9.318027,-4.9006667,0.636971,-17.820385,-2.6140306,17.365763,-15.992204,15.000033,-3.1741111,-2.067588,12.827179,-6.880054,14.651392,-24.345636,61.546734,6.109184,-2.0891087,3.837513,-3.4024916,-15.502679,31.254906,48.353333,7.2719593,-10.595527,-12.11747
42,15.203133583068848,16.263479232788086,76.73217010498047,2.715365501763189,1.059451537615216,166.22257802901686,-8.642493,18.236858,34.778927,24.655096,-8.248924,-5.233956,0.24334984,-17.35976,-3.5670485,17.480143,-16.65983,15.000033,-3.2869945,-2.1233802,13.025344,-7.256684,14.955591,-24.21922,61.655006,6.031469,-2.07218,3.9782536,-3.8401191,-15.420024,31.445011,48.468033,7.421298,-10.589901,-12.162831
43,15.692962646484375,16.781517028808594,76.75479888916016,2.6031625990507825,1.2883302985802787,166.51175228834845,-9.158069,18.632154,34.3554,23.91406,-7.080791,-5.5768104,-0.24145897,-16.899353,-4.5906043,17.704155,-17.294058,15.000033,-3.4175951,-2.167164,13.200468,-7.6469545,15.257148,-24.074902,61.73651,5.9862833,-2.0455127,4.102758,-4.2927527,-15.32699,31.634336,48.615223,7.568577,-10.586666,-12.194923
44,16.18705940246582,17.308565139770508,76.78327178955078,2.4635989945885854,1.567740370495473,166.82126582963477,-9.731325,19.014889,33.87658,23.095516,-5.8193107,-5.9369226,-0.81177497,-16.399492,-5.5072384,17.960627,-17.843374,15.000033,-3.5476062,-2.1801345,13.335807,-8.031495,15.5451975,-23.899319,61.75792,5.985644,-2.0125108,4.1931715,-4.7482767,-15.229497,31.807705,48.786205,7.704948,-10.60372,-12.180619
45,16.68642234802246,17.850540161132812,76.81964874267578,2.130584068535764,1.941620775211541,167.1037650142168,-10.510407,19.663588,33.25616,22.404999,-4.527433,-6.367681,-1.4444265,-15.501423,-6.1934133,18.032158,-18.157116,14.19053,-3.6323118,-2.0002902,13.407905,-8.416999,15.810849,-23.681473,61.72775,6.0564456,-1.9642032,4.2496266,-5.211799,-15.130951,31.963999,48.994873,7.8308926,-10.649653,-12.093686
46,17.203096389770508,18.381938934326172,76.85244750976562,1.7378349528650907,2.38258568311574,167.40175765091442,-11.378306,20.35918,32.541927,21.648676,-3.1435306,-6.8305836,-2.160345,-14.481919,-6.7989397,18.097,-18.350409,13.165783,-3.7094128,-1.7547299,13.434173,-8.81911,16.052692,-23.435442,61.670963,6.183201,-1.9025341,4.281393,-5.684431,-15.032735,32.111347,49.238792,7.9534755,-10.712788,-11.957643
47,17.718645095825195,18.911495208740234,76.88430786132812,1.3592106747117487,2.857529785575417,167.72304185182105,-12.27244,21.001753,31.792732,20.815796,-1.6902046,-7.2942533,-2.9273946,-13.485405,-7.3640895,18.204416,-18.503084,12.201461,-3.7878134,-1.5128177,13.425768,-9.222718,16.269484,-23.173853,61.568436,6.323553,-1.8470299,4.2848916,-6.1471796,-14.940703,32.245132,49.48346,8.067141,-10.781158,-11.81297
48,18.227418899536133,19.438806533813477,76.9162368774414,1.0279111315746072,3.339316476666169,168.0651945017102,-13.1601,21.55483,31.058676,19.94144,-0.20641154,-7.737611,-3.7187822,-12.573888,-7.8964267,18.364643,-18.66185,11.343562,-3.865474,-1.3052127,13.392086,-9.6179905,16.461128,-22.917608,61.403385,6.426501,-1.8171717,4.257258,-6.5933146,-14.865333,32.369953,49.70156,8.18126,-10.84306,-11.700226
49,18.730663299560547,19.954374313354492,76.9375,0.7557137036534615,3.840347930111514,168.43676524723654,-14.082241,21.996792,30.335516,19.00572,1.4176818,-8.096606,-4.5718646,-11.771761,-8.3719225,18.594593,-18.823788,10.632267,-3.9423862,-1.1403177,13.323975,-10.004568,16.62643,-22.646727,61.15715,6.493839,-1.8183645,4.16919,-7.0110564,-14.81353,32.473392,49.863132,8.290726,-10.89415,-11.630548
50,19.233169555664062,20.45803451538086,76.94686889648438,0.525128354453815,4.369455851881042,168.83850476346305,-15.042688,22.35699,29.604118,18.005606,3.1651561,-8.404845,-5.5050244,-11.051704,-8.7927885,18.896883,-18.963503,10.035059,-4.0207434,-0.99910516,13.220707,-10.38666,16.76412,-22.357426,60.841293,6.54881,-1.8402238,4.03176,-7.39998,-14.787714,32.555527,49.979153,8.392518,-10.940363,-11.58122
51,19.725479125976562,20.94831085205078,76.94491577148438,0.3224178137208528,4.892128814266265,169.2537095188428,-15.939128,22.657598,28.906998,16.962746,4.819694,-8.781549,-6.463199,-10.392981,-9.200679,19.25326,-19.088398,9.489701,-4.0841184,-0.8609423,13.102095,-10.79099,16.851753,-22.119242,60.51871,6.5671635,-1.8794127,3.9089832,-7.761753,-14.791498,32.625565,50.084274,8.498587,-10.985625,-11.541794
52,20.211509704589844,21.423812866210938,76.93089294433594,0.13075471787986373,5.3706656242526,169.6619520241226,-16.660555,22.909523,28.29393,15.875329,6.1742697,-9.339535,-7.382016,-9.768877,-9.635707,19.639189,-19.205824,8.932094,-4.1500716,-0.7213541,13.005867,-11.176105,16.926544,-21.94969,60.166744,6.5256567,-1.9310839,3.8488777,-8.128791,-14.820521,32.73842,50.213367,8.6363,-11.033953,-11.502365
53,20.688365936279297,21.89309310913086,76.91020202636719,-0.07216295750066384,5.8123580170618245,170.0599812315535,-17.154018,23.077572,27.80417,14.543673,7.369355,-10.308804,-8.270234,-9.156038,-10.117209,20.06478,-19.316315,8.348145,-4.2014694,-0.55409515,12.923291,-11.563147,16.978312,-21.881905,59.79088,6.389436,-1.9963984,3.8729267,-8.504628,-14.872543,32.89034,50.366005,8.8295,-11.091058,-11.472446
54,21.156137466430664,22.351728439331055,76.90222930908203,-0.28649081940090443,6.222557582999863,170.44922355497522,-17.46277,23.16622,27.418242,12.988146,8.475227,-11.558946,-9.143029,-8.55671,-10.618735,20.524286,-19.407297,7.7715254,-4.2556334,-0.3573634,12.869641,-11.908625,17.03398,-21.855564,59.320396,6.1786804,-2.076551,3.9383905,-8.861858,-14.993198,33.091263,50.467175,9.074023,-11.148774,-11.449455
55,21.62075424194336,22.800121307373047,76.89641571044922,-0.49133606131054536,6.56218160174635,170.8189156944145,-17.650095,23.246439,27.104136,11.590419,9.159718,-12.654546,-9.950222,-7.985691,-11.110832,20.988928,-19.47982,7.2065697,-4.2670374,-0.16490419,12.850748,-12.264423,17.051844,-21.908365,58.879307,5.9520016,-2.1674798,4.0445533,-9.206293,-15.117188,33.28085,50.61859,9.296979,-11.204304,-11.411997
56,22.08199691772461,23.247344970703125,76.87905883789062,-0.6442830035761012,6.803718293492391,171.16921613823035,-17.815336,23.37355,26.828669,10.782685,9.066477,-13.155693,-10.65237,-7.4814115,-11.564346,21.441225,-19.543888,6.657117,-4.2524123,-0.017365998,12.897218,-12.596991,17.03638,-21.999344,58.467003,5.776232,-2.265744,4.169209,-9.490517,-15.290706,33.453503,50.77265,9.45287,-11.243332,-11.333705
57,22.54109001159668,23.686603546142578,76.86383056640625,-0.71780288257038,6.939228267325406,171.50541218828008,-18.02496,23.55889,26.524166,10.770926,7.818727,-12.789311,-11.255546,-7.0763144,-11.967372,21.922943,-19.621248,6.121288,-4.2089486,0.041727796,13.000063,-12.927241,16.981228,-22.15759,58.130547,5.648193,-2.3830414,4.355605,-9.750709,-15.469601,33.620052,51.002396,9.515156,-11.274864,-11.203988
58,22.989274978637695,24.10826301574707,76.8641128540039,-0.7280695747475315,6.990729478184735,171.83312538123232,-18.234678,23.751299,26.2018,11.307671,5.6875396,-11.856204,-11.778818,-6.7546096,-12.33666,22.436007,-19.708906,5.595253,-4.1464486,0.03363557,13.141919,-13.251308,16.88747,-22.377428,57.84349,5.544245,-2.5174499,4.597806,-9.990021,-15.651993,33.785904,51.29312,9.509519,-11.301625,-11.039476
59,23.415842056274414,24.52704429626465,76.88143920898438,-0.6872825723832929,6.978583292826488,172.15706971924664,-18.373745,23.904371,25.959774,12.144463,3.2863493,-10.769555,-12.212127,-6.496821,-12.683364,22.916817,-19.786707,5.0806136,-4.0709066,-0.020533469,13.3064575,-13.556528,16.756876,-22.627367,57.58453,5.4874554,-2.6436887,4.8149686,-10.19076,-15.83244,33.912125,51.627052,9.458893,-11.31236,-10.86185
60,23.828975677490234,24.942052841186523,76.90908813476562,-0.6082536653257312,6.923392767152848,172.48147692659373,-18.37321,23.990915,25.936998,13.055002,1.2293446,-9.921443,-12.547641,-6.282228,-13.019334,23.303324,-19.833458,4.581144,-3.987214,-0.099561095,13.4770355,-13.831811,16.59251,-22.876686,57.333874,5.5005984,-2.7359803,4.9267526,-10.338805,-16.004253,33.960815,51.991997,9.387967,-11.296263,-10.693058
61,24.228343963623047,25.353235244750977,76.95079040527344,-0.46230834406958193,6.807403926029825,172.7870532392888,-18.157343,24.00442,26.276525,14.020332,-0.3452499,-9.388769,-12.78249,-6.138275,-13.312475,23.61525,-19.858269,4.0974813,-3.8755038,-0.2393863,13.667025,-14.06868,16.394083,-23.107828,57.08928,5.605596,-2.7856941,4.904844,-10.417767,-16.15907,33.91093,52.397877,9.23619,-11.233497,-10.528817
62,24.625171661376953,25.76045036315918,76.99906158447266,-0.2562928607034808,6.625982561751855,173.07684153695084,-17.76995,23.979723,26.880495,15.150018,-1.7584311,-8.9633665,-12.919591,-6.0613923,-13.567225,23.873688,-19.868435,3.6275988,-3.7387588,-0.4380986,13.8793335,-14.273179,16.162226,-23.339855,56.861305,5.78663,-2.8071039,4.7948937,-10.455986,-16.295366,33.795517,52.86648,9.0227,-11.137315,-10.361103
63,25.00992202758789,26.16217803955078,77.04741668701172,-0.053846184880174015,6.420150315553723,173.38975161693776,-17.329355,23.956772,27.554235,16.429834,-3.0861146,-8.59219,-12.966403,-5.987402,-13.851232,24.024605,-19.840416,3.173609,-3.6229136,-0.61726105,14.078815,-14.455294,15.904624,-23.596579,56.647854,6.0026975,-2.8098047,4.626029,-10.450375,-16.41561,33.6185,53.354374,8.837262,-11.043272,-10.20611
64,25.375455856323242,26.558700561523438,77.09709167480469,0.08165359632155289,6.23173513964066,173.7658726181887,-16.959837,23.970407,28.100468,17.84576,-4.403094,-8.224174,-12.929992,-5.852455,-14.232567,24.0104,-19.747446,2.738181,-3.5742455,-0.7004772,14.230943,-14.619546,15.631826,-23.898504,56.438347,6.2157426,-2.8028374,4.426122,-10.388618,-16.52456,33.37615,53.806427,8.763963,-10.985607,-10.079607
65,25.724733352661133,26.941617965698242,77.14710235595703,0.1274815083299443,6.0736450942496845,174.22274846125674,-16.697893,24.050531,28.510672,19.436407,-5.73356,-7.846442,-12.795189,-5.6322265,-14.739971,23.782482,-19.566853,2.3250673,-3.6164863,-0.6577164,14.323674,-14.7596245,15.351287,-24.257591,56.213867,6.4269223,-2.77136,4.1634245,-10.272388,-16.6257,33.06208,54.226753,8.822932,-10.970988,-9.989615
66,26.063570022583008,27.318105697631836,77.19845581054688,0.11914192094033844,5.923843704369538,174.73720928350843,-16.476076,24.17848,28.87546,21.201412,-7.0381203,-7.4769273,-12.565455,-5.3612223,-15.332992,23.379812,-19.315104,1.9326168,-3.7211928,-0.53525496,14.3799,-14.87028,15.063927,-24.659634,55.97338,6.6521726,-2.7165751,3.833779,-10.10425,-16.719238,32.679497,54.62979,8.972992,-10.981088,-9.9256735
67,26.398069381713867,27.69077491760254,77.24613189697266,0.08261374512649267,5.772710728984495,175.2893193277402,-16.258913,24.302471,29.148708,23.04271,-8.289433,-7.115275,-12.273415,-5.064768,-15.976107,22.873625,-19.022339,1.5556139,-3.858371,-0.37243757,14.416131,-14.963625,14.771286,-25.092447,55.739326,6.866835,-2.6710978,3.5075233,-9.882122,-16.806387,32.24539,54.983517,9.212089,-11.012624,-9.876723
68,26.716259002685547,28.05691909790039,77.2959976196289,0.04340021237079504,5.610377537524298,175.8589368969663,-16.015823,24.370157,29.282562,24.870653,-9.459663,-6.763601,-11.949542,-4.7683773,-16.63493,22.332996,-18.7185,1.1887758,-3.9966326,-0.20864284,14.449766,-15.051748,14.474847,-25.542976,55.53299,7.0477676,-2.6665568,3.2550294,-9.619078,-16.89028,31.790516,55.267227,9.556585,-11.062853,-9.83196
69,27.028417587280273,28.42365837097168,77.34333801269531,-0.002825567391617352,5.429645370133401,176.45848367527302,-15.757527,24.37832,29.230114,26.703571,-10.5366335,-6.4208035,-11.572356,-4.4671917,-17.325071,21.738802,-18.399237,0.83488667,-4.144376,-0.040887248,14.486306,-15.138304,14.17768,-26.025877,55.357727,7.178217,-2.7221785,3.0953667,-9.302868,-16.972271,31.303606,55.46431,10.044059,-11.1372,-9.79585
70,27.339801788330078,28.78601837158203,77.39136505126953,-0.06639569530317388,5.237600111387051,177.09272747943564,-15.497209,24.353842,29.028149,28.579304,-11.537213,-6.0833464,-11.135993,-4.149068,-18.055588,21.06519,-18.051573,0.49512854,-4.3129277,0.1473329,14.518133,-15.216529,13.880783,-26.543598,55.20015,7.2707376,-2.8168528,2.9904697,-8.928646,-17.05152,30.774645,55.584747,10.655757,-11.234674,-9.770577
71,27.630836486816406,29.133710861206055,77.43477630615234,-0.1312903805561575,5.045263343267701,177.73029820047387,-15.207798,24.284174,28.75515,30.431448,-12.477166,-5.7532744,-10.69231,-3.8298771,-18.783533,20.371191,-17.693716,0.16253826,-4.4779797,0.3365372,14.541,-15.277877,13.580571,-27.056261,55.054382,7.3541436,-2.921281,2.9246964,-8.525343,-17.129772,30.240507,55.653767,11.323852,-11.3434925,-9.742352
72,27.921077728271484,29.47828483581543,77.47572326660156,-0.18109084631974776,4.863019121687673,178.3394826134537,-14.866498,24.1564,28.488071,32.20334,-13.371705,-5.4345446,-10.293425,-3.5272346,-19.46709,19.71826,-17.345045,-0.16988635,-4.6179833,0.5093274,14.548587,-15.317561,13.273256,-27.527489,54.92096,7.449925,-3.0068831,2.8831384,-8.117993,-17.210165,29.736053,55.6949,11.973337,-11.451509,-9.698743
73,28.21405601501465,29.817359924316406,77.5133285522461,-0.20615319460253517,4.691199640889894,178.90804277060565,-14.464725,23.958138,28.249908,33.89814,-14.216784,-5.1227674,-9.950164,-3.2512147,-20.090431,19.121927,-17.009289,-0.5057023,-4.7236595,0.6572412,14.541342,-15.330917,12.954667,-27.944473,54.802807,7.5841656,-3.0702405,2.881093,-7.7064514,-17.295374,29.26023,55.6999,12.620334,-11.55672,-9.626143
74,28.50925064086914,30.14982032775879,77.544921875,-0.2170362723215692,4.524393117700576,179.45395830783255,-14.017508,23.69694,27.998762,35.542786,-15.005783,-4.8188777,-9.635737,-2.9914908,-20.678457,18.55253,-16.678513,-0.8404679,-4.8081565,0.79325247,14.521155,-15.323882,12.624336,-28.327097,54.703377,7.7395806,-3.1252606,2.920778,-7.286197,-17.386967,28.805714,55.66696,13.30113,-11.664829,-9.534762
75,28.793869018554688,30.478954315185547,77.57157135009766,-0.2279480602485619,4.365445202526386,179.9910825201411,-13.536961,23.385908,27.715523,37.112335,-15.7512045,-4.537258,-9.342117,-2.734571,-21.251095,17.99744,-16.351572,-1.1690745,-4.8860855,0.9322623,14.483768,-15.300808,12.285059,-28.682243,54.61746,7.875665,-3.169565,2.9666715,-6.851881,-17.483715,28.37751,55.606434,13.945032,-11.774157,-9.447689
76,29.07027816772461,30.80025863647461,77.5968246459961,-0.25231901555047626,4.217062305345606,-179.4666966261238,-13.035642,23.036007,27.382717,38.580647,-16.464178,-4.2934737,-9.06241,-2.467302,-21.827646,17.44562,-16.027489,-1.4866099,-4.9729424,1.0874227,14.425547,-15.263939,11.942023,-29.015352,54.536842,7.9525766,-3.2008264,2.9828074,-6.4097576,-17.583017,27.989466,55.538963,14.490809,-11.884454,-9.388731
77,29.334671020507812,31.119611740112305,77.61563110351562,-0.2940121239993629,4.078730119056664,-178.91122466662816,-12.519845,22.638018,26.986496,39.952312,-17.14755,-4.08175,-8.786975,-2.184773,-22.414442,16.882181,-15.700485,-1.7853659,-5.077213,1.2626554,14.345927,-15.199944,11.596602,-29.308565,54.44782,7.953447,-3.209257,2.9528985,-5.9548774,-17.682747,27.64183,55.460308,14.917636,-12.003592,-9.367691
78,29.60958480834961,31.43339729309082,77.62749481201172,-0.34478523201887495,3.94971114910374,-178.3513490055816,-11.983482,22.182957,26.542501,41.237106,-17.792292,-3.8998616,-8.522163,-1.8951763,-23.000502,16.316805,-15.372666,-2.0701478,-5.190069,1.4486519,14.246895,-15.111505,11.24995,-29.566614,54.356804,7.8992805,-3.1990473,2.898156,-5.4960666,-17.783344,27.335464,55.372078,15.265938,-12.1303005,-9.371602
79,29.8791446685791,31.744115829467773,77.63224029541016,-0.4005692949857713,3.832497340900646,-177.798183366211,-11.4210415,21.681324,26.078392,42.417538,-18.392805,-3.769176,-8.284887,-1.6045817,-23.578676,15.773432,-15.053679,-2.3547575,-5.303174,1.6386924,14.129003,-15.017135,10.90759,-29.819778,54.279236,7.8140836,-3.1887207,2.8372693,-5.0378795,-17.883095,27.06906,55.281937,15.545595,-12.249796,-9.389563
80,30.14099884033203,32.050838470458984,77.634521484375,-0.4572840819536022,3.7296870481913253,-177.26298010251386,-10.825639,21.143383,25.622349,43.47266,-18.941574,-3.7127934,-8.089493,-1.3181994,-24.14253,15.270841,-14.752868,-2.652999,-5.4073505,1.8252453,13.993235,-14.933178,10.57749,-30.099112,54.227005,7.7215266,-3.1964278,2.7887888,-4.5893145,-17.978699,26.843906,55.201046,15.770015,-12.346953,-9.410873
81,30.406761169433594,32.35783004760742,77.63291931152344,-0.5144363111859941,3.6424869945671947,-176.73894374127022,-10.198904,20.56852,25.182644,44.404907,-19.447824,-3.7198553,-7.9359946,-1.0387332,-24.700706,14.812136,-14.473955,-2.9710474,-5.504608,2.0052385,13.837605,-14.859743,10.265256,-30.41412,54.200397,7.609756,-3.2284167,2.756293,-4.151478,-18.068031,26.664463,55.127754,15.9390135,-12.418434,-9.441824
82,30.669254302978516,32.66011047363281,77.62401580810547,-0.5738070966760944,3.569354849592728,-176.2233331638357,-9.543795,19.948269,24.747128,45.222412,-19.910786,-3.785677,-7.823976,-0.7663623,-25.253653,14.401938,-14.219932,-3.300702,-5.5986543,2.1810548,13.662982,-14.786476,9.973044,-30.750416,54.188343,7.4679337,-3.2740524,2.7295194,-3.7232246,-18.15051,26.529627,55.060215,16.046505,-12.472253,-9.485527
83,30.930295944213867,32.96002197265625,77.60741424560547,-0.6362054331866674,3.508489734922758,-175.7333442838187,-8.858975,19.281284,24.31082,45.915764,-20.309725,-3.9380772,-7.750203,-0.49329185,-25.783518,14.025505,-13.975343,-3.6348774,-5.684474,2.353038,13.474857,-14.708259,9.702004,-31.094849,54.181297,7.330608,-3.3268256,2.7057261,-3.3065615,-18.224371,26.430197,55.006214,16.093222,-12.510967,-9.525998
84,31.191694259643555,33.25931167602539,77.58838653564453,-0.7018658084276921,3.4580948799070135,-175.28631142708204,-8.141456,18.564964,23.871286,46.474052,-20.625057,-4.204767,-7.719331,-0.216496,-26.271738,13.686231,-13.734393,-3.966212,-5.754788,2.5214384,13.279329,-14.625304,9.453315,-31.439741,54.173443,7.227755,-3.3800697,2.6827455,-2.9176154,-18.287666,26.366667,54.985996,16.094246,-12.537508,-9.547763
85,31.465063095092773,33.556884765625,77.5617904663086,-0.7762122797051272,3.427209874114843,-174.88287495979765,-7.3943205,17.809395,23.445503,46.898335,-20.85669,-4.6060658,-7.7449822,0.06956605,-26.71888,13.388875,-13.496618,-4.294592,-5.8080077,2.6912882,13.067803,-14.538822,9.228281,-31.792282,54.164867,7.176388,-3.4410658,2.6610146,-2.5636504,-18.33933,26.349354,55.01184,16.03975,-12.552141,-9.547541
86,31.730144500732422,33.85346603393555,77.53304290771484,-0.856771564256484,3.4136018388869136,-174.51491687649204,-6.617743,17.007442,23.031271,47.190742,-21.015223,-5.122793,-7.8178144,0.36216813,-27.13374,13.126179,-13.262999,-4.6238694,-5.848651,2.8597186,12.84015,-14.45049,9.02833,-32.156166,54.15919,7.153406,-3.510378,2.6413965,-2.2390776,-18.379139,26.376923,55.074516,15.927836,-12.553832,-9.533709
87,31.993257522583008,34.144775390625,77.49896240234375,-0.9324635369128446,3.398602176730789,-174.18686889076008,-5.806167,16.130627,22.595312,47.341152,-21.097857,-5.723914,-7.920632,0.6463875,-27.509346,12.912629,-13.0461645,-4.952365,-5.8777184,3.0144134,12.615969,-14.350276,8.851898,-32.506447,54.14669,7.1448913,-3.5708673,2.6221538,-1.945146,-18.407688,26.43432,55.165592,15.78794,-12.543562,-9.508005
88,32.260032653808594,34.4384651184082,77.46200561523438,-0.9926191663115876,3.3636628610784225,-173.90312368400217,-4.951458,15.14996,22.104774,47.33563,-21.10043,-6.3782334,-8.037622,0.9057681,-27.839056,12.765056,-12.859125,-5.2782173,-5.898884,3.1439807,12.412538,-14.230476,8.696616,-32.818985,54.122353,7.133845,-3.6058407,2.601854,-1.6646461,-18.42614,26.493753,55.262047,15.632132,-12.522175,-9.471853
89,32.53766632080078,34.724815368652344,77.42002868652344,-1.0361390143768061,3.293053959763478,-173.67568873560646,-4.0269766,14.061611,21.569155,47.169716,-21.02579,-7.053482,-8.157493,1.1378853,-28.111002,12.6948185,-12.708179,-5.6047144,-5.9032216,3.246476,12.244373,-14.085539,8.560351,-33.086704,54.075485,7.137145,-3.5981374,2.5790312,-1.4139174,-18.436207,26.576212,55.379482,15.48224,-12.482789,-9.421644
90,32.813175201416016,35.00870132446289,77.37733459472656,-1.069076271378164,3.200425714775881,-173.49865383513884,-3.0430956,12.876559,20.997438,46.84328,-20.878,-7.772207,-8.2916765,1.3503184,-28.332508,12.692015,-12.585374,-5.9318185,-5.895217,3.3283691,12.09826,-13.920783,8.44749,-33.322674,54.01099,7.153498,-3.5610359,2.554547,-1.1888095,-18.439152,26.683544,55.516922,15.318495,-12.42718,-9.357695
91,33.07181930541992,35.29066467285156,77.33766174316406,-1.0921756479567168,3.110042381308531,-173.34921384533828,-2.050525,11.591613,20.352982,46.358967,-20.662817,-8.585167,-8.45771,1.5429114,-28.52497,12.736421,-12.477873,-6.2526402,-5.8859663,3.3950226,11.954205,-13.750862,8.350944,-33.5336,53.95297,7.152603,-3.523046,2.5323243,-0.9835554,-18.434845,26.78766,55.66111,15.140129,-12.369866,-9.287954
92,33.34713363647461,35.56560134887695,77.29420471191406,-1.106206642444571,3.046742306122428,-173.20459141688562,-1.0959048,10.206819,19.599407,45.718975,-20.387758,-9.543839,-8.673247,1.7157346,-28.71032,12.809132,-12.374494,-6.560261,-5.8884444,3.4510446,11.790839,-13.591969,8.266923,-33.728977,53.926975,7.0981107,-3.5128524,2.5159085,-0.7817008,-18.421528,26.852394,55.790558,14.933713,-12.324968,-9.220589
93,33.63807678222656,35.83928298950195,77.24339294433594,-1.1084313795816692,3.0214530970810607,-173.0660612029459,-0.18273963,8.700957,18.71179,44.899822,-20.063908,-10.685948,-8.955507,1.8628603,-28.884336,12.91915,-12.277853,-6.8434896,-5.908575,3.4949408,11.601336,-13.431979,8.210663,-33.90244,53.916348,6.956924,-3.54649,2.5062056,-0.57886624,-18.402304,26.869179,55.896343,14.658965,-12.289599,-9.151713
94,33.92439651489258,36.11254119873047,77.1942367553711,-1.1006578845018222,3.019912459871451,-172.94267455114246,0.7207288,7.0890617,17.708303,43.903248,-19.699837,-11.96964,-9.288111,1.98883,-29.039825,13.06483,-12.188083,-7.108989,-5.921446,3.5283093,11.390284,-13.293417,8.152822,-34.07117,53.953533,6.7554436,-3.6064935,2.506753,-0.3812874,-18.368176,26.842293,56.00289,14.334434,-12.26002,-9.080108
95,34.214759826660156,36.38572692871094,77.14319610595703,-1.0900784968362778,3.0283286612565736,-172.82353004703396,1.6192298,5.4270577,16.616735,42.774982,-19.300526,-13.329476,-9.645521,2.1049228,-29.193552,13.226897,-12.098111,-7.376785,-5.960894,3.5555646,11.181525,-13.146292,8.122256,-34.206852,53.988605,6.5497165,-3.6687062,2.5036156,-0.19484827,-18.337769,26.808823,56.087547,14.038822,-12.242823,-9.012674
96,34.515804290771484,36.66693878173828,77.0863265991211,-1.0835642875519564,3.0328387774623335,-172.69788860151803,2.5166574,3.7680123,15.4641485,41.55914,-18.862417,-14.703351,-9.999698,2.2235253,-29.3621,13.380884,-11.99822,-7.667242,-6.000412,3.575037,10.9760685,-13.027738,8.089359,-34.352253,54.072586,6.3869395,-3.708749,2.4997568,0.003015298,-18.283033,26.731104,56.153366,13.8176365,-12.249645,-8.959699
97,34.83543395996094,36.924190521240234,77.03145599365234,-0.9524867216414585,3.0881542098691064,-172.50464898072485,3.3672788,1.817082,14.241445,40.107716,-18.295053,-15.000033,-10.597167,2.0498075,-29.561163,13.986086,-12.103422,-7.9501424,-6.131359,3.4872916,10.721754,-12.903222,8.073247,-34.460403,54.159702,6.2983894,-3.7184372,2.4845114,0.18880288,-18.235157,26.660362,56.19594,13.718124,-12.289327,-8.921226
98,35.15996170043945,37.173057556152344,76.97965240478516,-0.7861400708037204,3.1527702731141605,-172.30230047831748,4.2399297,-0.24285251,12.909747,38.480156,-17.663212,-15.000033,-11.26389,1.7910535,-29.76032,14.72468,-12.264511,-8.243056,-6.281145,3.3626769,10.458912,-12.789816,8.06573,-34.556953,54.27331,6.24797,-3.7107186,2.4652865,0.36889017,-18.176924,26.569906,56.2253,13.696331,-12.3552475,-8.893331
99,35.48398208618164,37.418060302734375,76.923095703125,-0.6278761130540984,3.2100241436895063,-172.09728957469912,5.1507382,-2.2480953,11.527023,36.759186,-16.986616,-15.000033,-11.912456,1.5463217,-29.962822,15.428552,-12.40373,-8.544305,-6.4482694,3.2399127,10.210901,-12.689358,8.0692835,-34.640274,54.407104,6.207695,-3.6958737,2.4455998,0.5561673,-18.11753,26.454815,56.217842,13.719808,-12.425586,-8.876055
100,35.80946350097656,37.67515563964844,76.8612060546875,-0.4843421115719133,3.2623663352017416,-171.87543162173066,6.0863247,-4.112531,10.16679,34.99938,-16.25186,-15.000033,-12.527735,1.3307093,-30.17991,16.055462,-12.501424,-8.840482,-6.629869,3.121152,9.977925,-12.613059,8.084038,-34.729908,54.565445,6.1488614,-3.6832361,2.4325192,0.75936216,-18.04584,26.290989,56.16658,13.752114,-12.481545,-8.870147
101,36.14878845214844,37.93331527709961,76.79346466064453,-0.3449828340693431,3.318873608394126,-171.6327458664259,7.0582433,-5.8721514,8.820752,33.141758,-15.426062,-15.000033,-13.134817,1.1210445,-30.411379,16.643938,-12.577096,-9.126315,-6.829821,2.995555,9.746348,-12.56286,8.114312,-34.83755,54.753548,6.0596824,-3.6704688,2.4327877,0.9698068,-17.95176,26.070055,56.07859,13.7834635,-12.511164,-8.879097
102,36.49144744873047,38.19173812866211,76.72251892089844,-0.21561959225383945,3.3772953941376027,-171.37432429168044,8.069787,-7.5426064,7.4487095,31.178566,-14.517293,-15.000033,-13.732007,0.92433167,-30.65787,17.195103,-12.631186,-9.410395,-7.054998,2.8746912,9.520747,-12.530749,8.156569,-34.943573,54.964962,5.9599185,-3.654598,2.4405117,1.1823808,-17.850471,25.814987,55.953568,13.84096,-12.526543,-8.9009495
103,36.83603286743164,38.45830154418945,76.65189361572266,-0.12038118347274998,3.426419027282878,-171.09637405230166,9.081495,-9.020734,6.096931,29.238058,-13.551413,-15.000033,-14.275875,0.78693634,-30.933823,17.63081,-12.623578,-9.698732,-7.295204,2.7763727,9.321454,-12.522846,8.210659,-35.048195,55.193882,5.8527446,-3.6425512,2.4455686,1.4059364,-17.74016,25.52909,55.794743,13.929955,-12.546642,-8.93057
104,37.18762969970703,38.74050521850586,76.5792465209961,-0.07667284883358687,3.4567190462557655,-170.7934360767608,10.035757,-10.215693,4.8327937,27.46255,-12.547906,-15.000033,-14.721775,0.7494531,-31.253164,17.86482,-12.513975,-9.996147,-7.5449347,2.7114446,9.16674,-12.542295,8.276551,-35.14564,55.433083,5.7441745,-3.6414888,2.4373555,1.642493,-17.619465,25.223753,55.61039,14.06015,-12.590943,-8.963302
105,37.5500602722168,39.02561950683594,76.5049057006836,-0.06139198418252059,3.4696531036513023,-170.44790010505355,10.956327,-11.183935,3.6688325,25.770771,-11.319876,-15.000033,-15.099957,0.75807446,-31.62167,17.974913,-12.339684,-10.288549,-7.82024,2.6593661,9.052887,-12.58729,8.354226,-35.234524,55.685562,5.631079,-3.660783,2.4118922,1.8953198,-17.487123,24.893993,55.39739,14.257838,-12.675326,-8.997085
106,37.91593933105469,39.327030181884766,76.43074035644531,-0.06754803358063459,3.4723424806422547,-170.06449042046944,11.838245,-11.96253,2.59548,24.139593,-9.913155,-15.000033,-15.432047,0.7992109,-32.03304,17.993244,-12.116952,-10.576851,-8.121412,2.6153598,8.96912,-12.656975,8.443819,-35.318016,55.954006,5.511648,-3.6941545,2.3751588,2.1626396,-17.342098,24.536135,55.153366,14.508205,-12.786213,-9.034444
107,38.301902770996094,39.644325256347656,76.35980224609375,-0.12273368986620108,3.4648578045369502,-169.670755118232,12.558406,-12.45942,1.6724707,22.807554,-8.673564,-15.000033,-15.675379,0.95186025,-32.478184,17.795475,-11.780792,-10.885491,-8.418898,2.5997944,8.922393,-12.7570915,8.546419,-35.397087,56.230072,5.3946767,-3.7255797,2.3320353,2.4289012,-17.183268,24.172047,54.896816,14.771107,-12.89894,-9.078278
108,38.68558883666992,39.982486724853516,76.29220581054688,-0.2439738040266492,3.446500483555839,-169.2948455104628,12.980697,-12.603364,0.9641741,22.034145,-7.963523,-15.000033,-15.793837,1.2812735,-32.942413,17.275377,-11.278431,-11.23736,-8.684892,2.6223304,8.918609,-12.890281,8.664304,-35.470165,56.50385,5.289787,-3.7390296,2.287011,2.6920948,-17.00775,23.816008,54.63514,14.994045,-12.988768,-9.131929
109,39.093727111816406,40.35545349121094,76.23373413085938,-0.4312304517524273,3.408057827962878,-168.9495524460052,12.961643,-12.333481,0.548683,22.130857,-7.9942126,-15.000033,-15.743424,1.8291758,-33.418625,16.344847,-10.570067,-11.646034,-8.9030485,2.6737013,8.965978,-13.058631,8.800765,-35.54111,56.77831,5.200227,-3.7276435,2.235286,2.936067,-16.81317,23.477398,54.381268,15.193986,-13.050369,-9.209483
110,39.484405517578125,40.76033401489258,76.181884765625,-0.6551825470324589,3.3495297314192247,-168.6174710655285,12.564146,-11.739002,0.4142176,22.9641,-8.586979,-15.000033,-15.551434,2.538074,-33.902264,15.075545,-9.692701,-12.093123,-9.093867,2.7277176,9.058105,-13.257221,8.958024,-35.609047,57.05452,5.119352,-3.700861,2.1758962,3.179155,-16.596834,23.140285,54.11854,15.376275,-13.096488,-9.305165
111,39.886478424072266,41.17839813232422,76.12577819824219,-0.8600183013778402,3.2901365228965247,-168.27534368618203,11.990268,-11.027829,0.4992525,24.051846,-9.475432,-14.677517,-15.355214,3.244371,-34.37655,13.749691,-8.768057,-12.543303,-9.281058,2.7420115,9.172511,-13.482295,9.134799,-35.668907,57.31966,5.046335,-3.6666367,2.1201305,3.4054399,-16.361887,22.819805,53.865757,15.526983,-13.131771,-9.39458
112,40.32344436645508,41.529293060302734,76.05523681640625,-0.739218962534181,3.3294604827910117,-167.8475707082264,11.554236,-10.986528,0.78738594,24.414053,-10.052748,-10.66609,-15.8247,3.1196713,-34.77681,13.786967,-8.440866,-12.8808155,-9.53773,2.481012,9.178443,-13.735177,9.322146,-35.71632,57.557858,4.9726973,-3.6325731,2.0815454,3.5911322,-16.12168,22.528198,53.643948,15.630129,-13.160883,-9.451365
113,40.7706413269043,41.88848876953125,75.9798583984375,-0.6416018763244336,3.374722704675071,-167.41272929855765,11.103133,-10.840001,1.2323304,24.621834,-10.728328,-6.753772,-16.293499,3.0319462,-35.18455,13.759834,-8.060475,-13.224396,-9.787952,2.2267244,9.21022,-14.02044,9.521729,-35.754433,57.78536,4.9031053,-3.6007655,2.0651855,3.7549365,-15.873151,22.264027,53.44083,15.671028,-13.176781,-9.458051
114,41.23723602294922,42.25071334838867,75.90559387207031,-0.5472076371953052,3.427120044882425,-166.97207496957964,10.56011,-10.597263,1.8528271,24.870203,-11.6289215,-2.6707277,-16.773367,2.9542074,-35.593758,13.699686,-7.643159,-13.574355,-10.0302515,1.9600698,9.261979,-14.33631,9.734247,-35.783417,58.003048,4.8406324,-3.5671022,2.0636451,3.900661,-15.614585,22.021103,53.249912,15.660986,-13.179484,-9.431917
115,41.725894927978516,42.61287307739258,75.8293228149414,-0.4586043524390693,3.473322442005431,-166.53798257054686,10.017811,-10.325934,2.4823983,25.099762,-12.718374,1.0306995,-17.257965,2.884103,-35.983673,13.624592,-7.1822653,-13.915816,-10.261512,1.6861749,9.348338,-14.6794,9.959592,-35.803837,58.198814,4.777166,-3.5346444,2.0671427,4.020266,-15.349432,21.809153,53.071186,15.629096,-13.180103,-9.40384
116,42.235313415527344,42.98672103881836,75.74381256103516,-0.3834579481304312,3.4980288848317374,-166.1228996735427,9.595309,-10.089109,2.94607,25.177937,-13.904191,3.7851472,-17.735575,2.8272297,-36.335964,13.5401325,-6.6646914,-14.235716,-10.479096,1.4154508,9.487075,-15.0454,10.196815,-35.81369,58.35908,4.7070975,-3.506035,2.06587,4.1041417,-15.086124,21.639256,52.905197,15.606538,-13.189704,-9.404501
117,42.76236343383789,43.3623046875,75.65100860595703,-0.3529869621288636,3.498101114534849,-165.7004341355962,9.37737,-9.856323,3.1724136,24.959284,-15.181881,5.2307987,-18.180988,2.8170989,-36.713284,13.389051,-6.078874,-14.5585575,-10.702231,1.1804703,9.695708,-15.445087,10.44575,-35.809418,58.471134,4.6325707,-3.4780018,2.0537882,4.1574397,-14.829715,21.505445,52.737354,15.613028,-13.214384,-9.450084
118,43.3021354675293,43.74401092529297,75.54840087890625,-0.36048032473803515,3.479551139749749,-165.2723827616133,9.314423,-9.598047,3.2604122,24.466219,-16.52047,5.7179217,-18.603903,2.8510504,-37.109394,13.180044,-5.4322376,-14.885619,-10.926438,0.973751,9.965316,-15.878528,10.706066,-35.795345,58.544193,4.5531406,-3.4505026,2.0368989,4.1775637,-14.581824,21.409554,52.574074,15.637177,-13.246411,-9.521015
119,43.844627380371094,44.12238693237305,75.45370483398438,-0.34920933655905045,3.429395472897035,-164.87517750941512,9.338478,-9.384377,3.2778883,23.812378,-17.765108,5.7619557,-19.045588,2.829724,-37.40708,13.080284,-4.7704916,-15.000033,-11.134667,0.7394479,10.281372,-16.317629,10.974517,-35.768276,58.59303,4.468442,-3.4307456,2.0230465,4.174257,-14.345962,21.3552,52.419605,15.634978,-13.276052,-9.592776
120,44.39152908325195,44.494693756103516,75.3757553100586,-0.2778179853087441,3.355255679552604,-164.58677711745761,9.331212,-9.269256,3.313858,23.183413,-18.821157,5.887669,-19.539759,2.7544932,-37.463623,13.111939,-4.0582037,-15.000033,-11.266326,0.43685514,10.6129875,-16.736614,11.246812,-35.72602,58.634617,4.380425,-3.4264379,2.0200105,4.135743,-14.126765,21.360834,52.296104,15.586227,-13.293272,-9.6417675
121,44.936241149902344,44.8692512512207,75.3109359741211,-0.1343849386438586,3.2458176441095996,-164.43625446143162,9.271768,-9.267112,3.3631167,22.630743,-19.682182,6.18707,-20.085613,2.622281,-37.289722,13.288535,-3.2953956,-15.000033,-11.289959,0.04843903,10.972462,-17.14378,11.522374,-35.66941,58.673656,4.290827,-3.443,2.0339708,4.062642,-13.927022,21.438202,52.19987,15.476647,-13.298277,-9.658033
122,45.499698638916016,45.23772430419922,75.251220703125,0.05487282984344479,3.106436202075004,-164.38964383370552,9.205964,-9.334841,3.400544,22.077396,-20.3988,6.4100714,-20.666061,2.4606967,-36.938206,13.55262,-2.4718869,-15.000033,-11.232227,-0.3954877,11.366934,-17.549227,11.801523,-35.599266,58.703697,4.1974273,-3.4756188,2.0593557,3.9596722,-13.747819,21.577034,52.122406,15.323554,-13.2952585,-9.655426
123,46.062007904052734,45.608341217041016,75.19947052001953,0.27979925781455595,2.967390634493526,-164.42770766440248,9.114241,-9.452505,3.4659295,21.528828,-20.982643,6.5776696,-21.298927,2.3104362,-36.33489,13.840717,-1.5459541,-15.000033,-11.124356,-0.8672001,11.758317,-17.928045,12.080217,-35.509106,58.723957,4.0986376,-3.5163262,2.0865765,3.8418381,-13.587207,21.75237,52.05985,15.137821,-13.278758,-9.644911
124,46.62805938720703,45.966182708740234,75.15663146972656,0.5280554170217846,2.858641938037006,-164.53085655317994,8.97912,-9.600052,3.5989668,20.98753,-21.445126,6.70587,-21.990273,2.222153,-35.409264,14.067482,-0.4654595,-15.000033,-10.996561,-1.3393124,12.107926,-18.259075,12.35147,-35.39397,58.739407,3.9932094,-3.5571568,2.106768,3.714713,-13.444035,21.943247,52.01896,14.936735,-13.24417,-9.638245
125,47.187355041503906,46.316200256347656,75.13011932373047,0.8307690531751333,2.775638157964153,-164.6764870579743,8.822691,-9.819291,3.776913,20.406828,-21.734299,6.7940426,-22.802835,2.1059186,-34.124065,14.413275,0.70282423,-14.879622,-10.875151,-1.8381684,12.419597,-18.549849,12.608919,-35.2493,58.75823,3.8690705,-3.6030622,2.1258137,3.568666,-13.320138,22.15551,52.011116,14.70738,-13.188546,-9.646802
126,47.739253997802734,46.65093231201172,75.11785888671875,1.1800904455420893,2.709572699101615,-164.88677735393148,8.645048,-10.10159,3.9959366,19.798956,-21.863169,6.8383226,-23.695047,1.9818658,-32.47677,14.828466,1.9702606,-14.330612,-10.727673,-2.3606493,12.706395,-18.812592,12.850716,-35.079967,58.785767,3.7311482,-3.6564503,2.1466632,3.407319,-13.216233,22.395386,52.029793,14.446526,-13.114922,-9.661495
127,48.29441452026367,46.97595977783203,75.11087799072266,1.542386109916446,2.6392270615085796,-165.1206137369651,8.484487,-10.403132,4.2333193,19.164398,-21.880316,6.8599243,-24.551748,1.9344434,-30.544376,15.118445,3.3640575,-13.538845,-10.5912,-2.8760612,12.982945,-19.03222,13.074949,-34.891617,58.818943,3.604197,-3.7052062,2.1571453,3.254381,-13.129976,22.637451,52.053165,14.179204,-13.028057,-9.662706
128,48.83159255981445,47.290008544921875,75.11549377441406,1.886867862911024,2.540252564295766,-165.33245684223596,8.388733,-10.686648,4.4600854,18.492104,-21.829044,6.8823047,-25.263401,2.0010815,-28.3801,15.149437,4.878412,-12.4274845,-10.505041,-3.355552,13.262741,-19.19864,13.279935,-34.695923,58.858276,3.5069876,-3.7372675,2.1455748,3.1350517,-13.058178,22.853006,52.059025,13.926981,-12.933259,-9.630883
129,49.35274887084961,47.59647750854492,75.13284301757812,2.2126545355087837,2.40895500207804,-165.52223638827337,8.363552,-10.952118,4.681765,17.780775,-21.70619,6.907778,-25.816088,2.1992025,-25.900394,14.882811,6.6137443,-10.9263735,-10.47139,-3.7983718,13.545947,-19.304832,13.462294,-34.480404,58.89954,3.4604104,-3.7454224,2.105024,3.0518825,-12.99971,23.028448,52.048428,13.668675,-12.816328,-9.547869
130,49.862300872802734,47.88045120239258,75.1583251953125,2.5342728916090964,2.2547959825214217,-165.7088940964748,8.39043,-11.21763,4.906997,17.032541,-21.492245,6.9252048,-26.231922,2.5075688,-23.081835,14.383304,8.502246,-9.065647,-10.47172,-4.2188115,13.826054,-19.36331,13.620724,-34.249184,58.95102,3.4454386,-3.737712,2.043716,2.9940953,-12.954434,23.17899,52.031406,13.400986,-12.680082,-9.428374
131,50.35617446899414,48.1580810546875,75.19051361083984,2.844747602968837,2.0739631875579145,-165.87468867518214,8.480264,-11.474998,5.111148,16.240181,-21.20456,6.93796,-26.46019,2.8832943,-20.079647,13.680985,10.289397,-6.9422436,-10.515261,-4.61437,14.104741,-19.380638,13.755951,-34.023235,59.022182,3.4393384,-3.7240946,1.9720606,2.9681163,-12.921,23.315855,51.99845,13.167625,-12.555901,-9.302476
132,50.8342399597168,48.42692184448242,75.23038482666016,3.13593527289288,1.8639729328833714,-166.00224087990998,8.6434355,-11.714933,5.2696104,15.394252,-20.859274,6.9490767,-26.470085,3.2670693,-17.073858,12.825356,11.731314,-4.680779,-10.609844,-4.9828334,14.382759,-19.363543,13.869804,-33.82447,59.1216,3.4199283,-3.7141447,1.9006672,2.9729097,-12.898999,23.452673,51.94668,13.017066,-12.4746475,-9.200982
133,51.287818908691406,48.68655014038086,75.27440643310547,3.4308374591167876,1.5996856749914523,-166.06578251421595,8.93796,-11.969054,5.352972,14.435827,-20.424858,6.9673524,-26.167591,3.6358235,-14.004986,11.658558,12.897442,-2.0585282,-10.783723,-5.3486533,14.669939,-19.304276,13.962896,-33.656994,59.251705,3.3736343,-3.711265,1.8288908,3.024748,-12.886765,23.587072,51.86742,12.974238,-12.452749,-9.133914
134,51.73448944091797,48.9306755065918,75.3210220336914,3.729406051514174,1.289236293153891,-166.07722924915728,9.349187,-12.237787,5.3745937,13.371675,-19.894722,6.989768,-25.580715,3.9637694,-10.837391,10.211435,13.843046,0.87403446,-10.997837,-5.705872,14.959151,-19.242311,14.000546,-33.54663,59.454876,3.3100643,-3.711514,1.7576739,3.1372988,-12.885111,23.680805,51.756996,13.007083,-12.470298,-9.081921
135,52.17129135131836,49.17646408081055,75.38246154785156,3.983258049897408,0.9854229723738248,-166.08298273143433,9.76187,-12.455444,5.3853807,12.312476,-19.333483,6.9998918,-24.90732,4.211851,-7.8215675,8.83645,14.361024,3.557311,-11.265089,-6.0146885,15.222794,-19.117424,14.042976,-33.416214,59.642956,3.2599802,-3.7081654,1.681957,3.2392142,-12.890418,23.810642,51.653915,13.083357,-12.505511,-9.043086
136,52.594364166259766,49.417877197265625,75.46009826660156,4.137471060546079,0.7440588303218847,-166.13635942530306,10.047655,-12.547278,5.449039,11.388649,-18.82087,6.980104,-24.39245,4.3896613,-5.2058854,7.930416,14.280205,5.4385076,-11.481274,-6.2148423,15.443467,-18.993412,14.07092,-33.32442,59.849384,3.2226985,-3.6990135,1.6106559,3.3454392,-12.9007635,23.922842,51.533443,13.146811,-12.53355,-9.000782
137,53.0125617980957,49.659271240234375,75.55469512939453,4.167070870841227,0.5816354184081426,-166.25723465363632,10.150691,-12.477973,5.5933084,10.677143,-18.391373,6.9230833,-24.181677,4.5496264,-2.9829097,7.7140365,13.363043,6.209828,-11.64626,-6.2773623,15.613481,-18.848791,14.092271,-33.249233,60.059067,3.2102659,-3.681485,1.5495135,3.4297311,-12.9188385,24.047567,51.41104,13.20588,-12.551419,-8.955029
138,53.420711517333984,49.899295806884766,75.66508483886719,4.105127000313875,0.47090176850453663,-166.4206448246373,10.134051,-12.290028,5.790268,10.112632,-18.009,6.839063,-24.178102,4.7109327,-1.0396801,7.9952106,11.799478,6.217569,-11.784486,-6.236663,15.745933,-18.67837,14.105989,-33.19192,60.27333,3.2142,-3.6578095,1.4940504,3.5114427,-12.944677,24.17522,51.27635,13.2757635,-12.570164,-8.910081
139,53.82378005981445,50.14448928833008,75.78437042236328,3.9868753562499,0.4011962760237606,-166.61352842703934,10.027408,-12.026244,6.026311,9.654208,-17.658789,6.736614,-24.290253,4.8491044,0.5489449,8.596023,10.048344,5.9099283,-11.899149,-6.1339617,15.846459,-18.49703,14.111704,-33.15334,60.488903,3.2304354,-3.6307726,1.4327854,3.589856,-12.9721,24.291025,51.13744,13.341702,-12.590535,-8.867904
140,54.222633361816406,50.38895034790039,75.90996551513672,3.8480422466339452,0.36084854558049034,-166.82101325863357,9.867534,-11.730693,6.284752,9.249947,-17.320093,6.6245384,-24.402744,4.915305,1.6874242,9.297161,8.574979,5.732605,-11.985966,-6.0131993,15.926646,-18.326351,14.112087,-33.140476,60.70215,3.2557685,-3.6029036,1.352589,3.6659498,-12.986154,24.362883,51.00144,13.380519,-12.61309,-8.827391
141,54.61708450317383,50.635074615478516,76.04044342041016,3.6872890859888323,0.3521889083338139,-167.03652000366026,9.650704,-11.399487,6.5618334,8.901663,-16.983507,6.50016,-24.490753,4.883084,2.2956233,10.0450945,7.5312924,5.7889233,-12.11997,-5.8707876,15.963775,-18.1103,14.111434,-33.079575,60.893948,3.2954154,-3.5789344,1.2568719,3.7234757,-13.029304,24.506546,50.869003,13.436108,-12.639497,-8.809317
142,55.002052307128906,50.87925720214844,76.17613983154297,3.4925113884402443,0.3771997147829309,-167.26699498925646,9.369563,-11.016434,6.8606772,8.6243725,-16.659246,6.3613772,-24.60526,4.7687974,2.448853,10.927369,6.6730995,5.8519773,-12.230271,-5.693506,15.981723,-17.891298,14.1090355,-33.03558,61.076298,3.346898,-3.5548663,1.1458583,3.7771623,-13.069603,24.614458,50.73108,13.472617,-12.668488,-8.792724
143,55.384212493896484,51.126434326171875,76.31298065185547,3.2796987274571294,0.42746322952552257,-167.51965265251732,9.037091,-10.60274,7.180965,8.41139,-16.362932,6.217272,-24.76671,4.5781054,2.2656076,11.982337,5.8537292,5.862999,-12.31177,-5.501453,15.976109,-17.676615,14.106601,-33.021297,61.249104,3.4126074,-3.5249426,1.0168649,3.8323536,-13.092659,24.682734,50.597786,13.4830065,-12.697626,-8.774759
144,55.76983642578125,51.36625671386719,76.44451141357422,3.065349739670617,0.49469428383804914,-167.79994073949257,8.675823,-10.182372,7.5196614,8.236133,-16.104486,6.0774484,-24.993607,4.317813,1.8638623,13.247136,4.924794,5.765115,-12.385482,-5.3065696,15.945398,-17.455605,14.105251,-33.015255,61.394127,3.5058563,-3.4843614,0.8649591,3.887965,-13.113961,24.739649,50.465572,13.482314,-12.721233,-8.753473
145,56.14497756958008,51.61207962036133,76.56861114501953,2.850342307719726,0.5847730987633802,-168.10270589443198,8.280365,-9.757998,7.8688383,8.092769,-15.882771,5.9457083,-25.298891,3.9609559,1.1778507,14.760552,3.8521624,5.5333633,-12.446401,-5.11008,15.886618,-17.233017,14.106365,-33.029675,61.509956,3.6392186,-3.4278257,0.67484426,3.9522724,-13.130263,24.762974,50.331093,13.450223,-12.740602,-8.719718
146,56.51680374145508,51.8559684753418,76.68205261230469,2.6341035079188115,0.6958561628045364,-168.4210774621625,7.8563514,-9.327667,8.223603,7.974581,-15.683056,5.818424,-25.655031,3.4844549,0.18611991,16.484486,2.708923,5.196631,-12.498727,-4.913362,15.800518,-17.006546,14.110763,-33.068195,61.600967,3.7991872,-3.358614,0.4548611,4.0262933,-13.139463,24.757896,50.19042,13.392096,-12.756104,-8.68068
147,56.875003814697266,52.1003303527832,76.78973388671875,2.4319940957332182,0.8071163670149639,-168.76157856668215,7.442793,-8.910363,8.590441,7.8542542,-15.494174,5.694003,-26.020805,2.90941,-0.92481714,18.34112,1.5077919,4.784436,-12.536569,-4.73354,15.7048235,-16.780615,14.116868,-33.112427,61.6708,3.9756954,-3.287415,0.22864817,4.0975895,-13.141868,24.731009,50.054127,13.330113,-12.766724,-8.642323
148,57.232826232910156,52.33976745605469,76.8887939453125,2.25647505867559,0.899474148611241,-169.1320676410619,7.072175,-8.521313,8.979003,7.7136116,-15.309419,5.569954,-26.358927,2.2712722,-1.9719194,20.248543,0.26691854,4.328816,-12.526685,-4.5840144,15.621927,-16.561453,14.136967,-33.18756,61.70434,4.136559,-3.2209995,0.022003166,4.188764,-13.13992,24.65264,49.89563,13.274121,-12.768388,-8.606509
149,57.59120559692383,52.58533477783203,76.97014617919922,2.1038389038869436,0.9750789912074683,-169.53193335922845,6.748659,-8.158759,9.390758,7.539906,-15.130661,5.442565,-26.672009,1.5755532,-2.9576507,22.219036,-1.0394188,3.8074427,-12.50605,-4.4621797,15.541873,-16.3427,14.160938,-33.250183,61.71287,4.3115315,-3.1611958,-0.17698064,4.2648644,-13.131017,24.561665,49.747967,13.226184,-12.752087,-8.579921
150,57.93545913696289,52.826454162597656,77.04304504394531,1.9715646786501484,1.040323208356907,-169.95656953751742,6.4357095,-7.815883,9.824202,7.3927555,-14.985581,5.3139586,-26.964708,0.8006969,-3.9555902,24.273901,-2.4081364,3.2134528,-12.458867,-4.3665013,15.464563,-16.125872,14.199039,-33.33248,61.6844,4.4921823,-3.101267,-0.37583187,4.3477373,-13.112451,24.432161,49.590122,13.173002,-12.720995,-8.556273
151,58.276092529296875,53.06077575683594,77.10453796386719,1.8706242343478718,1.0851700736727723,-170.40907102078867,6.098876,-7.4957266,10.2870035,7.3669705,-14.907095,5.1900716,-27.207418,-0.04161604,-4.897417,26.336351,-3.7744691,2.6044297,-12.385055,-4.314867,15.400807,-15.893622,14.264363,-33.406807,61.607777,4.65682,-3.0463226,-0.5472669,4.4183674,-13.075247,24.285864,49.443882,13.138452,-12.698266,-8.53907
152,58.620445251464844,53.298194885253906,77.15888214111328,1.8093905619584612,1.1003430425213472,-170.89403899992314,5.805497,-7.2177525,10.774138,7.340645,-14.81519,5.0782003,-27.3754,-0.9322827,-5.7202296,28.332138,-5.0697336,2.0379117,-12.297892,-4.3080587,15.355779,-15.643615,14.325869,-33.41777,61.509018,4.801485,-3.0025816,-0.65917706,4.457232,-13.037324,24.169239,49.32653,13.160417,-12.7046175,-8.537334
153,58.965641021728516,53.52693176269531,77.20376586914062,1.79451564244274,1.078950900834067,-171.41758113210528,5.5628605,-6.9910297,11.288322,7.3148966,-14.707714,4.991521,-27.468725,-1.8660804,-6.4113255,30.27843,-6.279888,1.5205669,-12.181029,-4.354389,15.342593,-15.3817625,14.388054,-33.3763,61.37685,4.9261403,-2.969874,-0.70343316,4.475394,-12.997982,24.066278,49.220383,13.265049,-12.755673,-8.554289
154,59.30170440673828,53.758602142333984,77.24738311767578,1.8180591130647858,1.0293632258489995,-171.9769963357891,5.3626146,-6.80591,11.829729,7.290033,-14.59343,4.922406,-27.499697,-2.8412821,-7.0087385,32.19851,-7.434129,1.0242976,-12.037154,-4.4420023,15.353071,-15.112205,14.448018,-33.29474,61.21588,5.038173,-2.946058,-0.69537723,4.4771075,-12.960172,23.969946,49.12215,13.433057,-12.836464,-8.58577
155,59.62944030761719,53.981422424316406,77.28279876708984,1.8643986539887931,0.9656658900006851,-172.56486836846082,5.1892257,-6.6410756,12.399214,7.264354,-14.470484,4.845738,-27.469378,-3.8395228,-7.5297203,34.03767,-8.530625,0.5553742,-11.872517,-4.5494256,15.371087,-14.828752,14.501635,-33.173603,61.04143,5.118076,-2.9310308,-0.64153564,4.465219,-12.925583,23.881638,49.042263,13.606193,-12.921233,-8.620276
156,59.954158782958984,54.204673767089844,77.3133773803711,1.9178709733540371,0.9023316789802087,-173.17411214385228,5.0219674,-6.4727893,12.9975195,7.2476354,-14.343484,4.7362323,-27.38348,-4.8414903,-7.992018,35.749466,-9.571392,0.12095717,-11.694454,-4.6557713,15.380285,-14.524168,14.548759,-33.01466,60.866196,5.1431413,-2.9247198,-0.54869705,4.434929,-12.892811,23.808392,48.997948,13.730582,-12.984656,-8.647187
157,60.277523040771484,54.4229736328125,77.34226989746094,1.980354666364046,0.842165316832033,-173.80969155469347,4.8601074,-6.3011947,13.635606,7.233777,-14.205062,4.5801864,-27.24912,-5.836682,-8.388659,37.342476,-10.559798,-0.2791447,-11.488189,-4.7576957,15.377364,-14.211711,14.574138,-32.82982,60.70318,5.085792,-2.9318047,-0.3985877,4.396354,-12.870527,23.741018,48.982765,13.803177,-13.024194,-8.662155
158,60.59504699707031,54.642791748046875,77.36544799804688,2.056522209138429,0.7792823181641545,-174.4745561951725,4.711238,-6.1344075,14.310744,7.222519,-14.056737,4.3929863,-27.067228,-6.8276186,-8.720916,38.842575,-11.494195,-0.6464436,-11.276074,-4.8749843,15.370303,-13.862912,14.60709,-32.582558,60.51429,4.974876,-2.950373,-0.19932367,4.3187704,-12.839612,23.704037,49.019043,13.848032,-13.054137,-8.674838
159,60.900421142578125,54.86842346191406,77.39021301269531,2.134411641308249,0.7150493689226101,-175.15923823997548,4.5736275,-5.9623485,15.002731,7.2168074,-13.907683,4.193581,-26.834558,-7.816136,-9.018453,40.229496,-12.3689575,-0.97490793,-11.032895,-4.978709,15.360366,-13.5129595,14.619388,-32.328217,60.344467,4.8359146,-2.9732754,0.022358142,4.249715,-12.819358,23.65702,49.06121,13.854406,-13.066089,-8.682517
160,61.203582763671875,55.083221435546875,77.41204833984375,2.20153797835012,0.6499394655856352,-175.85394795961147,4.447943,-5.7750444,15.691213,7.2156377,-13.764748,4.0007586,-26.546658,-8.804594,-9.311615,41.482533,-13.178897,-1.2588223,-10.796714,-5.060556,15.343838,-13.142573,14.6217985,-32.034107,60.194107,4.719869,-2.993103,0.22921623,4.160999,-12.800543,23.629683,49.135246,13.813251,-13.0565605,-8.692268
161,61.50189208984375,55.29218292236328,77.43401336669922,2.2529842745738433,0.5849073604755975,-176.56004615405348,4.332755,-5.568351,16.375326,7.2196975,-13.630005,3.8109205,-26.202803,-9.783625,-9.596259,42.59805,-13.922376,-1.4905782,-10.574938,-5.1141944,15.317595,-12.747738,14.60984,-31.687763,60.069572,4.624848,-3.0118194,0.42893487,4.047001,-12.780699,23.628021,49.2536,13.7060585,-13.013305,-8.706586
162,61.794525146484375,55.500240325927734,77.45586395263672,2.2951564648854093,0.5193624466380444,-177.28192112066756,4.228465,-5.347673,17.065004,7.2289515,-13.49933,3.616975,-25.807297,-10.751202,-9.866527,43.591896,-14.602918,-1.6742547,-10.345643,-5.144781,15.282464,-12.34283,14.576143,-31.311836,59.974808,4.527598,-3.032186,0.63622326,3.9210446,-12.763552,23.63556,49.404034,13.542821,-12.942328,-8.721582
163,62.0796012878418,55.70322799682617,77.47695922851562,2.333783473047439,0.4514479116253218,-178.0144344833957,4.138762,-5.120033,17.756739,7.240115,-13.369441,3.4337158,-25.366419,-11.724383,-10.147937,44.4761,-15.22349,-1.8215983,-10.105751,-5.1592836,15.240379,-11.936121,14.518172,-30.919062,59.90932,4.452481,-3.0479722,0.8251983,3.7934592,-12.753,23.650347,49.56272,13.357151,-12.866314,-8.73515
164,62.3516731262207,55.9107666015625,77.49788665771484,2.3746933755283455,0.3793667892540984,-178.75243079808425,4.064268,-4.89081,18.446903,7.2572737,-13.241007,3.27577,-24.885141,-12.721214,-10.465762,45.262623,-15.788386,-1.9443462,-9.853608,-5.166112,15.193748,-11.532114,14.441085,-30.523424,59.865875,4.419865,-3.052513,0.96922046,3.6780238,-12.752561,23.66952,49.7018,13.179045,-12.80826,-8.745341
165,62.627952575683594,56.118003845214844,77.51603698730469,2.418171808634155,0.30118498236101043,-179.50039648737274,4.011066,-4.6622605,19.137596,7.274841,-13.109579,3.1601987,-24.355726,-13.743525,-10.827953,45.949207,-16.2888,-2.0389135,-9.58869,-5.1639743,15.144602,-11.12506,14.345351,-30.1085,59.839832,4.450936,-3.0462039,1.0476407,3.5707715,-12.762827,23.694237,49.82582,13.016071,-12.778232,-8.750315
166,62.894229888916016,56.323814392089844,77.53544616699219,2.461721793516306,0.2182538581786377,179.74076892238682,3.975177,-4.431005,19.830141,7.2963567,-12.978272,3.0754166,-23.778917,-14.781752,-11.225045,46.535366,-16.726562,-2.100616,-9.313542,-5.1499143,15.091217,-10.711771,14.230387,-29.670788,59.83149,4.5307846,-3.0316541,1.0784161,3.4685752,-12.783957,23.725817,49.94304,12.851118,-12.762671,-8.751413
167,63.153465270996094,56.520145416259766,77.55599212646484,2.50545516941268,0.13343264663460314,178.98202439154952,3.951934,-4.1956744,20.51857,7.3198237,-12.849237,2.9930792,-23.167118,-15.834293,-11.6575575,47.029217,-17.118351,-2.1404376,-9.03601,-5.127099,15.030862,-10.302275,14.098677,-29.242445,59.843853,4.622288,-3.0054142,1.093592,3.3719347,-12.817492,23.77412,50.04205,12.688616,-12.748822,-8.753071
168,63.40339660644531,56.720924377441406,77.57778930664062,2.549839719879476,0.049670448881048206,178.23413747821692,3.9353597,-3.9552348,21.197552,7.3440356,-12.723985,2.8847315,-22.534147,-16.900808,-12.124557,47.44065,-17.481897,-2.1692102,-8.762984,-5.0996695,14.960721,-9.906263,13.954989,-28.856165,59.879425,4.6874695,-2.9640546,1.1249639,3.2850373,-12.865936,23.846188,50.108086,12.529769,-12.723674,-8.759405
169,63.64981460571289,56.92784118652344,77.5933837890625,2.593566185394184,-0.0324572562131761,177.49256798886657,3.9255152,-3.707922,21.870913,7.3694415,-12.603773,2.7423985,-21.881418,-17.98518,-12.631377,47.77367,-17.828823,-2.2005672,-8.489752,-5.06624,14.88121,-9.524007,13.801986,-28.520866,59.93627,4.7129703,-2.8976593,1.1831629,3.2067366,-12.932225,23.945904,50.13354,12.388385,-12.679843,-8.766059
170,63.89042663574219,57.13732147216797,77.60665130615234,2.6373327830321167,-0.11433671280760882,176.7537913870787,3.8466642,-3.4212859,22.544556,7.574376,-12.579714,2.5801349,-21.201479,-19.085922,-13.179376,48.02643,-18.148373,-2.2247214,-8.214367,-5.025859,14.794423,-9.148671,13.640015,-28.218586,60.008842,4.72003,-2.8108962,1.2499613,3.1377506,-13.01624,24.068392,50.122875,12.25983,-12.625112,-8.771948
171,64.12754821777344,57.34718322753906,77.61873626708984,2.6835542225398927,-0.19591436162060846,176.02997867119265,3.747559,-3.1173885,23.205153,7.8461127,-12.591932,2.4057946,-20.496017,-20.192245,-13.7613125,48.20045,-18.425129,-2.2174227,-7.9481106,-4.9823112,14.700556,-8.780696,13.471982,-27.943201,60.095425,4.7206845,-2.7222576,1.3143471,3.07881,-13.116025,24.20957,50.086517,12.120758,-12.569784,-8.786334
172,64.35646057128906,57.5611572265625,77.627197265625,2.7348729914613066,-0.27720733151186805,175.33310281195122,3.6495936,-2.8089004,23.84199,8.131948,-12.611931,2.2262838,-19.766954,-21.294443,-14.369598,48.29736,-18.644133,-2.1545765,-7.701757,-4.940782,14.599703,-8.420118,13.302602,-27.690516,60.19367,4.7253203,-2.6498294,1.3651925,3.028178,-13.228967,24.366083,50.037884,11.948806,-12.524332,-8.818695
173,64.5823745727539,57.78744888305664,77.63531494140625,2.788925906234914,-0.3569763113233585,174.66635803797436,3.5473719,-2.4905355,24.453453,8.443156,-12.647205,2.0423768,-19.002247,-22.402735,-15.032998,48.308704,-18.798418,-2.0162349,-7.4798,-4.9000006,14.489743,-8.059636,13.134777,-27.45412,60.300957,4.737684,-2.601292,1.396455,2.9825816,-13.3537,24.545568,49.979713,11.737551,-12.494146,-8.879154
174,64.80586242675781,58.0212516784668,77.63878631591797,2.844971427548863,-0.43557002523491556,174.02313801961236,3.4436767,-2.162368,25.044367,8.77445,-12.694593,1.8507404,-18.204071,-23.517567,-15.748444,48.24019,-18.897552,-1.8198235,-7.277125,-4.8596025,14.371365,-7.698936,12.969898,-27.23735,60.41577,4.7506595,-2.565822,1.4145402,2.943351,-13.489713,24.74731,49.90583,11.497155,-12.472822,-8.96028
175,65.02714538574219,58.25642395019531,77.63789367675781,2.907903626897989,-0.5152646738100449,173.40112232862373,3.3470955,-1.834209,25.614664,9.108022,-12.742233,1.6512036,-17.395267,-24.611227,-16.459404,48.11136,-18.950333,-1.5980159,-7.088161,-4.8258886,14.250553,-7.3464794,12.810133,-27.048223,60.5339,4.7631583,-2.5336637,1.4270545,2.9081597,-13.635332,24.959023,49.82112,11.237484,-12.453051,-9.045095
176,65.24478912353516,58.49172592163086,77.63700866699219,2.9826901187717647,-0.5981432189773467,172.79786416109584,3.264804,-1.5153517,26.164835,9.427299,-12.778244,1.443432,-16.601398,-25.656046,-17.106583,47.94145,-18.96635,-1.3839177,-6.9066725,-4.8052726,14.133159,-7.008725,12.657595,-26.89277,60.649357,4.7766023,-2.4949946,1.4413822,2.8782125,-13.786975,25.166767,49.727818,10.966515,-12.427843,-9.1163025
177,65.46173095703125,58.74188995361328,77.62924194335938,3.0713804195148304,-0.6878172271098245,172.2131237670894,3.2045486,-1.2105677,26.694323,9.726727,-12.802411,1.224449,-15.824348,-26.66942,-17.693693,47.747093,-18.948578,-1.2004993,-6.731863,-4.802806,14.0209255,-6.684871,12.514257,-26.77665,60.76168,4.7920756,-2.4466593,1.4584265,2.855862,-13.942948,25.368753,49.62348,10.6672945,-12.396454,-9.163454
178,65.67608642578125,58.994056701660156,77.62033081054688,3.171228202591259,-0.7818512584564339,171.64783265704455,3.159931,-0.91420466,27.203554,10.015595,-12.820041,0.9948874,-15.054448,-27.659164,-18.243713,47.515877,-18.893618,-1.0262419,-6.565858,-4.8149247,13.910702,-6.3712387,12.381032,-26.695745,60.872242,4.8084216,-2.3937347,1.4744849,2.8404632,-14.102545,25.570335,49.50809,10.3401165,-12.362476,-9.197742
179,65.88653564453125,59.250885009765625,77.61034393310547,3.279439031252685,-0.8732753050210283,171.10149418424987,3.1178927,-0.6216291,27.693813,10.299036,-12.828594,0.7600921,-14.302466,-28.588314,-18.722702,47.223545,-18.802376,-0.82818806,-6.408465,-4.836161,13.800499,-6.073135,12.258835,-26.643974,60.98274,4.819882,-2.339672,1.490418,2.8244507,-14.264421,25.768824,49.393013,10.019134,-12.325923,-9.234577
180,66.09840393066406,59.52254104614258,77.60104370117188,3.3932869877865555,-0.9548112318220126,170.57356641495522,3.062333,-0.32572588,28.166327,10.589571,-12.82901,0.5254357,-13.58044,-29.41854,-19.095295,46.84401,-18.675459,-0.57365453,-6.258822,-4.861416,13.687861,-5.794077,12.147998,-26.612898,61.093246,4.824075,-2.2873487,1.5068902,2.802736,-14.426873,25.958864,49.287365,9.735002,-12.286507,-9.289456
181,66.30638885498047,59.79981231689453,77.59144592285156,3.5139769640409653,-1.0222511720993128,170.0662566037379,2.9857743,-0.027661417,28.619564,10.890473,-12.819949,0.2956112,-12.897583,-30.162779,-19.363728,46.380627,-18.522326,-0.26736474,-6.1202693,-4.891959,13.567983,-5.5369773,12.049286,-26.606876,61.205334,4.807622,-2.2363544,1.5223731,2.7745614,-14.588346,26.144785,49.19135,9.490391,-12.242402,-9.38144
182,66.5265884399414,60.08306884765625,77.5760498046875,3.6415028408211048,-1.0798463413277248,169.5788701343234,2.901328,0.26831347,29.053564,11.1857195,-12.799481,0.0665101,-12.248838,-30.83361,-19.538393,45.84387,-18.343132,0.07515793,-5.9919033,-4.9302354,13.443153,-5.2979655,11.963058,-26.626272,61.3177,4.7781224,-2.1854424,1.5370255,2.740981,-14.748955,26.327398,49.103157,9.269644,-12.194431,-9.497636
183,66.74772644042969,60.37468719482422,77.5587158203125,3.771518178869044,-1.1337873764138688,169.10700175620264,2.8131175,0.57046145,29.47067,11.485124,-12.772341,-0.16950789,-11.627056,-31.407183,-19.592205,45.2239,-18.128582,0.4699947,-5.8680954,-4.971131,13.321652,-5.0755115,11.889273,-26.664907,61.430054,4.7539287,-2.1366656,1.5545031,2.7055604,-14.907633,26.495102,49.022835,9.075362,-12.145878,-9.604951
184,66.96821594238281,60.675662994384766,77.5360107421875,3.8997363488845957,-1.190295747365694,168.6460460950489,2.727939,0.8851527,29.873674,11.793252,-12.743128,-0.4198594,-11.025694,-31.855495,-19.498259,44.509956,-17.87013,0.93243176,-5.7428784,-5.0097103,13.2114315,-4.8678784,11.82754,-26.715458,61.542133,4.755103,-2.0922482,1.5784012,2.674631,-15.0623665,26.63429,48.94935,8.907289,-12.100258,-9.670392
185,67.18257904052734,60.98445510864258,77.51620483398438,4.026640257124603,-1.2522287701148593,168.19442847592754,2.6548092,1.2094196,30.26397,12.099176,-12.708094,-0.68829226,-10.439719,-32.177597,-19.24925,43.68687,-17.586384,1.4604561,-5.6155305,-5.0486417,13.113362,-4.6727953,11.779591,-26.780405,61.65496,4.786918,-2.0537286,1.6080862,2.6465664,-15.207007,26.736408,48.89318,8.763991,-12.0572,-9.67702
186,67.40514373779297,61.299800872802734,77.49596405029297,4.153854184289487,-1.3159341856800044,167.75466860578624,2.5868301,1.5416738,30.639633,12.405806,-12.667076,-0.9701277,-9.873367,-32.391136,-18.855085,42.765972,-17.283178,2.043062,-5.488804,-5.0872164,13.024002,-4.4918833,11.742684,-26.860554,61.768013,4.8407326,-2.0195796,1.6419934,2.6208615,-15.348317,26.810104,48.84865,8.647304,-12.015207,-9.644804
187,67.63603210449219,61.6251220703125,77.47046661376953,4.278040174294637,-1.3778160612638504,167.3284805467988,2.5094554,1.8914342,30.998302,12.7337675,-12.626761,-1.2604585,-9.330917,-32.496456,-18.31464,41.773346,-16.932093,2.6831894,-5.3616343,-5.1262307,12.940021,-4.3321385,11.719641,-26.953905,61.88745,4.9068513,-1.9871734,1.6842216,2.591877,-15.4764595,26.867092,48.81714,8.552096,-11.978959,-9.5997305
188,67.86590576171875,61.957515716552734,77.4444808959961,4.39536843395278,-1.434488804422326,166.91768723549086,2.4041896,2.2709017,31.336735,13.110823,-12.597072,-1.5541376,-8.81732,-32.491314,-17.625708,40.73511,-16.50426,3.386391,-5.232654,-5.1531267,12.864961,-4.1974697,11.706018,-27.054672,62.007317,4.9795527,-1.9542319,1.7365526,2.5655549,-15.614257,26.921371,48.77056,8.488378,-11.949881,-9.563576
189,68.10697937011719,62.29548645019531,77.41791534423828,4.503298615534898,-1.4894658516837729,166.52563127829234,2.272183,2.6835403,31.651125,13.542949,-12.5819645,-1.846491,-8.33809,-32.364025,-16.762379,39.654804,-15.987382,4.097128,-5.10596,-5.1704497,12.798249,-4.0912127,11.705184,-27.171888,62.137505,5.0632696,-1.9235404,1.8020241,2.5392401,-15.7475,26.970642,48.72385,8.45976,-11.935857,-9.540831
190,68.34559631347656,62.647483825683594,77.39114379882812,4.603198571604497,-1.5432104288909558,166.1503919531901,2.120253,3.1248875,31.94312,14.017209,-12.575921,-2.1410637,-7.883059,-32.122673,-15.731172,38.521324,-15.406461,4.8298206,-4.980454,-5.179786,12.739958,-4.0084057,11.717224,-27.30275,62.273495,5.1615343,-1.8950555,1.8782936,2.5121047,-15.87661,27.010054,48.6802,8.463917,-11.933187,-9.519647
191,68.58556365966797,63.00877380371094,77.36136627197266,4.697328288950398,-1.5875360316715363,165.7856169971003,1.9424126,3.5927775,32.21855,14.525815,-12.572772,-2.4451277,-7.4315996,-31.788948,-14.580325,37.328907,-14.785878,5.6972337,-4.8501973,-5.182373,12.685631,-3.9466236,11.742249,-27.430487,62.403065,5.256447,-1.8619916,1.9612908,2.4779224,-16.006191,27.04976,48.62975,8.483737,-11.92918,-9.5023365
192,68.83965301513672,63.38017654418945,77.32544708251953,4.788978862321615,-1.614382901940692,165.42506051252954,1.7344953,4.0825586,32.483288,15.056902,-12.563355,-2.7656605,-6.9630113,-31.382048,-13.35835,36.065895,-14.148484,6.813441,-4.7119937,-5.1914682,12.617519,-3.911901,11.769502,-27.530642,62.544758,5.3388276,-1.817894,2.0514586,2.399937,-16.096096,27.10395,48.621143,8.487119,-11.915834,-9.498488
193,69.09444427490234,63.759952545166016,77.28582000732422,4.881609490530921,-1.6203448814541026,165.06220070072928,1.4971001,4.588485,32.743534,15.605616,-12.548585,-3.1073651,-6.458955,-30.891546,-12.035332,34.676693,-13.431666,8.301803,-4.559126,-5.1918883,12.550591,-3.881809,11.817382,-27.612118,62.646053,5.391816,-1.7590823,2.140852,2.3376365,-16.221382,27.162006,48.550842,8.484144,-11.87495,-9.498746
194,69.36546325683594,64.14611053466797,77.24110412597656,4.97326483395252,-1.610407947595768,164.70209464847872,1.2345333,5.1117406,32.994434,16.171963,-12.5278635,-3.464614,-5.9216046,-30.313774,-10.597924,33.17117,-12.65563,10.071456,-4.3948464,-5.1981335,12.465213,-3.8921745,11.854991,-27.67912,62.786674,5.4350905,-1.6908503,2.2420228,2.2277267,-16.30028,27.228788,48.539173,8.469179,-11.823923,-9.513659
195,69.64580535888672,64.54573822021484,77.19271087646484,5.057288488138739,-1.5871106535126418,164.35490441075862,0.9385611,5.6646357,33.22386,16.77121,-12.503541,-3.8294759,-5.36816,-29.68269,-9.123747,31.635653,-11.956035,11.915708,-4.2354336,-5.1897507,12.40318,-3.8849435,11.934014,-27.712273,62.838818,5.4680886,-1.6153944,2.336498,2.1489537,-16.442593,27.308413,48.42826,8.473488,-11.768201,-9.5234165
196,69.93018341064453,64.95394134521484,77.14310455322266,5.12722059479212,-1.5540072971118943,164.03092489004175,0.6041604,6.2570367,33.419617,17.411179,-12.474226,-4.194237,-4.8223224,-29.034798,-7.695355,30.158947,-11.457875,13.627499,-4.0826554,-5.177419,12.349914,-3.8978279,12.0171385,-27.695662,62.873375,5.5173316,-1.5380348,2.4341416,2.0415883,-16.565634,27.403738,48.326374,8.479878,-11.732659,-9.5358925
197,70.23458099365234,65.38121032714844,77.0882797241211,5.14296179005836,-1.499024281455023,163.70902519436163,0.18393923,6.9751496,33.5882,18.196522,-12.489837,-4.5709486,-4.287278,-28.278301,-6.290372,28.715607,-11.136952,15.000033,-3.9216254,-5.1223607,12.298286,-3.919398,12.111675,-27.621063,62.87499,5.6012115,-1.4502933,2.5280113,1.9067374,-16.678284,27.526424,48.22522,8.506188,-11.729033,-9.551974
198,70.55599975585938,65.83997344970703,77.04156494140625,4.899103630082707,-1.3785598066285565,163.318724040929,-0.50679296,8.202616,33.721584,19.51971,-12.725886,-5.022583,-3.7756793,-27.030363,-4.9609056,27.162922,-10.860344,15.000033,-3.6903758,-4.826767,12.227287,-3.9443183,12.220918,-27.492529,62.83693,5.7064953,-1.3527813,2.6205485,1.750698,-16.78604,27.670267,48.116226,8.539783,-11.746004,-9.572216
199,70.89221954345703,66.30409240722656,76.99018859863281,4.654385272402462,-1.2682037356395797,162.9793250969893,-1.1803212,9.40987,33.783398,20.763302,-12.895724,-5.4706054,-3.260852,-25.807064,-3.7115827,25.671566,-10.738854,15.000033,-3.489478,-4.5393133,12.183929,-3.9876409,12.341975,-27.328005,62.77242,5.7936554,-1.2633203,2.7214837,1.5640568,-16.884357,27.829227,48.010338,8.570227,-11.764151,-9.59256
200,71.2365951538086,66.76944732666016,76.93364715576172,4.4311669020473765,-1.1705532355684714,162.70520339929038,-1.817427,10.541256,33.770573,21.857563,-12.962733,-5.906498,-2.7971518,-24.681562,-2.6380668,24.30234,-10.809361,15.000033,-3.3280056,-4.28239,12.176168,-4.055326,12.476598,-27.1369,62.68025,5.8238053,-1.1998318,2.8408294,1.3513832,-16.97349,27.989428,47.90119,8.568622,-11.76457,-9.609015
201,71.59122467041016,67.23825073242188,76.86986541748047,4.2316594052023095,-1.0847460163911509,162.49022283799243,-2.4267304,11.600904,33.691513,22.829536,-12.940655,-6.331193,-2.4090643,-23.64265,-1.7069376,23.034695,-11.106708,15.000033,-3.1982098,-4.056939,12.20646,-4.147751,12.626609,-26.916018,62.555157,5.774913,-1.1709838,2.981356,1.1078956,-17.054152,28.149593,47.786205,8.522907,-11.739501,-9.61544
202,71.9530258178711,67.71587371826172,76.81147766113281,4.05263678382001,-1.0030723369839398,162.3219415553749,-3.0269842,12.606447,33.55816,23.714235,-12.84955,-6.7479095,-2.0900786,-22.657846,-0.8837589,21.85282,-11.592572,15.000033,-3.0914552,-3.8593895,12.265302,-4.259822,12.792992,-26.661337,62.39619,5.67236,-1.1662776,3.1372578,0.83765477,-17.126226,28.313896,47.664173,8.446862,-11.699795,-9.615488
203,72.32259368896484,68.19085693359375,76.75521850585938,3.903783425777785,-0.9147728195712928,162.20415288111818,-3.616732,13.529082,33.37695,24.458738,-12.664962,-7.1529183,-1.8647468,-21.773792,-0.2644649,20.842476,-12.202617,15.000033,-3.0102832,-3.7006829,12.342804,-4.3957105,12.975385,-26.389992,62.213062,5.540889,-1.174656,3.3063314,0.5394674,-17.188038,28.484861,47.54669,8.366112,-11.654965,-9.619857
204,72.70806121826172,68.66535186767578,76.70014953613281,3.7920675576671843,-0.8097869366586535,162.14123018951213,-4.194457,14.344245,33.151947,25.013851,-12.364352,-7.5439563,-1.757663,-21.028736,0.049368057,20.088352,-12.872677,15.000033,-2.9572155,-3.5885816,12.429339,-4.559109,13.171961,-26.11716,62.01584,5.4080443,-1.1850096,3.4865594,0.22067021,-17.23584,28.659681,47.43981,8.299803,-11.614618,-9.639013
205,73.11064910888672,69.14633178710938,76.64312744140625,3.7394024816808575,-0.6741073174336717,162.150444030836,-4.7953153,15.034311,32.869324,25.418633,-11.969778,-7.9146385,-1.8175051,-20.482237,-0.08276567,19.679287,-13.693243,15.000033,-2.9475708,-3.544877,12.508548,-4.757893,13.384242,-25.852577,61.811897,5.2690806,-1.1959558,3.685763,-0.12043285,-17.2655,28.83758,47.342377,8.250733,-11.576478,-9.680441
206,73.52664947509766,69.63279724121094,76.58724212646484,3.730043293790509,-0.5169742441800883,162.22413368864918,-5.406198,15.621021,32.533096,25.680418,-11.483337,-8.271006,-2.0217574,-20.087187,-0.59035707,19.544601,-14.657475,15.000033,-2.9743493,-3.5539362,12.590359,-4.9877095,13.612644,-25.586218,61.59504,5.1146216,-1.2129266,3.9024553,-0.48635593,-17.27583,29.017658,47.254925,8.206697,-11.537565,-9.737216
207,73.95006561279297,70.126708984375,76.53739166259766,3.7116534569555912,-0.36233286983713964,162.32933909995754,-5.986511,16.16882,32.166195,25.790014,-10.9019985,-8.633413,-2.335865,-19.720127,-1.226477,19.629189,-15.619639,15.000033,-3.007854,-3.5639796,12.705406,-5.241178,13.852132,-25.311392,61.362244,4.9569626,-1.2355539,4.1212626,-0.87949556,-17.268251,29.201855,47.190815,8.171393,-11.505789,-9.798647
208,74.38533020019531,70.62088775634766,76.49898529052734,3.633050752449013,-0.23208447359508247,162.43119100789733,-6.492723,16.739515,31.790884,25.727482,-10.21672,-9.022225,-2.7156024,-19.254513,-1.7409418,19.85652,-16.422077,15.000033,-3.0156,-3.5236404,12.882283,-5.514592,14.0943985,-25.022736,61.115135,4.8078156,-1.26316,4.327826,-1.3128234,-17.24773,29.397833,47.171883,8.15766,-11.4892645,-9.854366
209,74.82752990722656,71.11791229248047,76.48770904541016,3.469575688593854,-0.16600616318480624,162.51371593087643,-6.8600802,17.370512,31.40516,25.474344,-9.430803,-9.456263,-3.1225383,-18.642021,-2.0762174,20.241016,-17.023548,15.000033,-2.9781144,-3.406794,13.174206,-5.8239007,14.335229,-24.719091,60.859154,4.6684656,-1.2979773,4.523747,-1.7987219,-17.219574,29.61435,47.19954,8.194068,-11.499299,-9.912809
210,75.2726821899414,71.62008666992188,76.5054702758789,3.2504098095907574,-0.13966608245007256,162.5982317110632,-7.126781,18.03142,30.994076,25.055658,-8.555895,-9.92265,-3.5812404,-17.952831,-2.3629208,20.807081,-17.51011,15.000033,-2.9172556,-3.2394426,13.549231,-6.168924,14.573748,-24.403475,60.59741,4.5332537,-1.3398786,4.7159324,-2.3247433,-17.184988,29.844166,47.259262,8.266798,-11.5281105,-9.975689
211,75.73894500732422,72.11730194091797,76.53116607666016,3.0087380337368947,-0.07651055125678988,162.70379476279282,-7.4020653,18.67791,30.561317,24.50887,-7.5928245,-10.393619,-4.1421576,-17.235222,-2.6287854,21.488062,-17.910942,15.000033,-2.8596666,-3.0527182,13.907252,-6.519875,14.804479,-24.071838,60.326366,4.410104,-1.3845857,4.898029,-2.868846,-17.142723,30.070995,47.35132,8.325969,-11.555346,-10.0228
212,76.2210693359375,72.6305923461914,76.56156921386719,2.7090684707388872,0.10861301646885348,162.8298889540671,-7.8356814,19.373594,30.088614,23.931608,-6.5577044,-10.861658,-4.830728,-16.392538,-2.8835766,22.13332,-18.204847,14.624652,-2.8143778,-2.811968,14.143331,-6.848935,15.018588,-23.720217,60.045773,4.307421,-1.4278866,5.064367,-3.4052148,-17.089386,30.277454,47.47547,8.318269,-11.560678,-10.033712
213,76.70845794677734,73.16380310058594,76.59833526611328,2.3256156049229992,0.47135062266434335,162.94244986892343,-8.496053,20.176071,29.583961,23.342302,-5.42456,-11.351883,-5.7489114,-15.358588,-3.0804517,22.776133,-18.353554,13.766565,-2.756302,-2.48855,14.212346,-7.161435,15.211071,-23.334948,59.763714,4.220086,-1.4705724,5.228635,-3.96381,-17.022097,30.480322,47.66985,8.217589,-11.531837,-9.997246
214,77.19024658203125,73.70394897460938,76.6388931274414,1.9449825316606542,0.9472161865062521,163.0679975414805,-9.245656,20.944756,29.065523,22.607786,-4.1623764,-11.843378,-6.855058,-14.321925,-3.260622,23.530094,-18.417938,12.928002,-2.7043629,-2.1650996,14.177585,-7.4741397,15.38171,-22.92412,59.487885,4.1460085,-1.5144385,5.389816,-4.5442295,-16.939175,30.681929,47.924824,8.054934,-11.482,-9.926624
215,77.66815948486328,74.240478515625,76.6811752319336,1.5904980657544567,1.4571928849567604,163.2653959450914,-10.022527,21.629168,28.488283,21.764248,-2.8456597,-12.290355,-7.9485426,-13.348033,-3.5273716,24.257967,-18.454334,12.126176,-2.6991303,-1.8697656,14.091027,-7.7801723,15.527919,-22.517607,59.21883,4.100673,-1.5563804,5.520853,-5.1030827,-16.843681,30.855394,48.192955,7.881091,-11.430102,-9.838359
216,78.13911437988281,74.76011657714844,76.71956634521484,1.285668524347216,1.9231390797736319,163.59454001101366,-10.768503,22.171383,27.815828,20.846695,-1.5443463,-12.644396,-8.842727,-12.50351,-3.9710922,24.816242,-18.508371,11.388603,-2.781475,-1.6275617,14.0043745,-8.074952,15.645161,-22.14882,58.95976,4.096732,-1.5934478,5.5951786,-5.57827,-16.741432,30.961966,48.41065,7.7338867,-11.394319,-9.74846
217,78.60077667236328,75.28069305419922,76.75305938720703,1.0488671085583454,2.343855363088976,164.09149244330857,-11.511761,22.539074,27.030806,19.823166,-0.14358415,-12.801324,-9.512705,-11.830146,-4.6259475,25.155888,-18.580244,10.750063,-2.979977,-1.4539068,13.913216,-8.345071,15.725333,-21.800333,58.705254,4.1644397,-1.6197195,5.604566,-5.957884,-16.635492,30.985455,48.572388,7.603888,-11.372648,-9.635644
218,79.04061889648438,75.79560852050781,76.78154754638672,0.8677615515765239,2.757007354323426,164.71981863138322,-12.2774725,22.767706,26.166048,18.703512,1.3494937,-12.813643,-10.072897,-11.291381,-5.427804,25.356632,-18.63802,10.193961,-3.263068,-1.3267738,13.795109,-8.6086,15.762517,-21.471947,58.46591,4.2866545,-1.6389761,5.5655055,-6.253655,-16.534758,30.936687,48.687817,7.470813,-11.356482,-9.498501
219,79.46629333496094,76.30055236816406,76.80350494384766,0.7168324183374779,3.1410658374563147,165.4297325548623,-12.99087,22.890873,25.268188,17.554287,2.692707,-12.866009,-10.54117,-10.830697,-6.3151264,25.460985,-18.677206,9.672315,-3.589388,-1.2244831,13.676762,-8.891024,15.770021,-21.205881,58.25463,4.4113817,-1.662122,5.486541,-6.5092826,-16.430168,30.85963,48.785824,7.3930516,-11.3570795,-9.387477
220,79.87637329101562,76.80162048339844,76.82553100585938,0.5620527561835931,3.4715370816103963,166.16707878603773,-13.564746,22.943237,24.380674,16.420315,3.651153,-13.143366,-10.926065,-10.37972,-7.229255,25.51902,-18.697338,9.133961,-3.888862,-1.102152,13.602149,-9.2274065,15.7625065,-21.08349,58.068314,4.464944,-1.6991272,5.3757396,-6.68431,-16.391352,30.7645,48.778473,7.4354453,-11.377618,-9.344572
221,80.278564453125,77.29191589355469,76.85797882080078,0.3753228686058608,3.7408906210150863,166.96034855258011,-13.943214,22.890566,23.464447,15.117698,4.223689,-13.846386,-11.189292,-9.908642,-8.214159,25.511648,-18.706976,8.563693,-4.199187,-0.95315135,13.578843,-9.625277,15.740853,-21.058865,57.911278,4.4490247,-1.7543805,5.200164,-6.853645,-16.349123,30.658556,48.7367,7.600704,-11.432725,-9.4080715
222,80.68601989746094,77.78279113769531,76.89401245117188,0.1647911812873961,3.9555464331788808,167.81690449975275,-14.154658,22.744362,22.530064,13.649412,4.5295053,-14.822602,-11.325222,-9.432953,-9.280965,25.417126,-18.703215,7.9852977,-4.5217586,-0.78226084,13.594336,-10.055569,15.710161,-21.139626,57.76202,4.3707533,-1.8197066,4.9686966,-6.961973,-16.328484,30.533201,48.615025,7.871183,-11.513039,-9.547228
223,81.09877014160156,78.24848175048828,76.921875,0.045399559448688266,4.150930910264518,168.71553694802523,-14.224987,22.396128,21.819021,12.13384,4.6299148,-15.000033,-11.469237,-9.097801,-10.334757,25.376183,-18.720098,7.4379935,-4.8217735,-0.67301834,13.600016,-10.550884,15.637222,-21.375418,57.690567,4.2742453,-1.892786,4.749005,-7.0146627,-16.330408,30.35854,48.48982,8.204007,-11.607408,-9.695588
224,81.49776458740234,78.7181396484375,76.95501708984375,-0.04146371774202858,4.280294193891542,169.50707623354765,-14.260785,22.138731,21.256052,11.184948,4.3252087,-15.000033,-11.569831,-8.769375,-11.260095,25.30273,-18.687841,6.895323,-5.0417604,-0.58190393,13.645517,-11.025958,15.546563,-21.69527,57.64827,4.2180257,-1.9714385,4.587581,-7.0531635,-16.363573,30.21732,48.424084,8.577704,-11.701962,-9.798166
225,81.89346313476562,79.18541717529297,77.00279998779297,-0.12006248678732497,4.317075711978384,170.13006814790828,-14.33797,22.077013,20.74569,11.102893,3.3550415,-15.000033,-11.59352,-8.388926,-12.008989,25.151796,-18.5679,6.337568,-5.109062,-0.4976568,13.754263,-11.514638,15.434118,-22.166513,57.68662,4.165548,-2.0721307,4.5281353,-7.0944576,-16.42317,30.112995,48.44811,9.035622,-11.804443,-9.84386
226,82.28099060058594,79.6484146118164,77.05806732177734,-0.18360124004416248,4.278570513568384,170.65171793743934,-14.424996,22.114658,20.292952,11.641068,1.8318201,-15.000033,-11.537582,-7.9878545,-12.646921,24.932495,-18.38775,5.7710996,-5.076534,-0.4295195,13.909647,-12.015291,15.303072,-22.76851,57.78135,4.108341,-2.1903126,4.529983,-7.1235943,-16.504015,30.029448,48.523296,9.5727825,-11.918175,-9.862753
227,82.65266418457031,80.09822082519531,77.12520599365234,-0.23217879966244692,4.18891629950087,171.11830588571272,-14.4847145,22.21655,20.033789,12.608955,0.10107166,-15.000033,-11.404865,-7.5825467,-13.226834,24.635796,-18.169043,5.2128334,-4.989029,-0.36582127,14.087334,-12.49637,15.147983,-23.417252,57.87686,4.1241636,-2.293552,4.5342116,-7.1238627,-16.597723,29.93636,48.64051,10.099773,-12.024411,-9.856986
228,83.00485229492188,80.5376205444336,77.20338439941406,-0.19777120383694385,4.1011650811189915,171.62111297794988,-14.459681,22.199415,20.142866,13.663222,-1.4108895,-14.564456,-11.273065,-7.30021,-13.806008,24.350168,-17.980927,4.7034855,-4.9381695,-0.35240534,14.228951,-12.923418,14.96308,-24.020653,57.919586,4.2959547,-2.349614,4.482395,-7.074364,-16.693167,29.802097,48.789642,10.517598,-12.104381,-9.830198
229,83.35581970214844,80.95954895019531,77.28425598144531,-0.13965044192950504,3.967547892282329,172.1025818721523,-14.311938,22.234514,20.681684,14.97412,-2.7254436,-14.099982,-11.044854,-7.037725,-14.366172,23.962072,-17.775387,4.2230415,-4.874179,-0.33763066,14.377054,-13.292902,14.7448015,-24.577097,57.91934,4.695952,-2.3381436,4.358992,-6.9642677,-16.778519,29.604483,48.995712,10.764969,-12.147681,-9.7718935
230,83.71349334716797,81.37444305419922,77.36235046386719,-0.06399088910068768,3.7824688069745136,172.5463880502731,-14.044668,22.346468,21.557032,16.580175,-4.003988,-13.615636,-10.727998,-6.782807,-14.888805,23.485905,-17.544792,3.763668,-4.778054,-0.32312867,14.5372095,-13.624097,14.494018,-25.127407,57.90656,5.2665577,-2.281571,4.196406,-6.8267207,-16.85131,29.37365,49.28053,10.913988,-12.16713,-9.686269
231,84.04692077636719,81.78548431396484,77.44093322753906,0.0016603316273392306,3.5841276813647736,172.98527578850832,-13.74132,22.522615,22.567703,18.408714,-5.278284,-13.077176,-10.374869,-6.517147,-15.411321,22.96138,-17.29924,3.3247,-4.6793976,-0.285401,14.681863,-13.916011,14.215806,-25.644287,57.858128,5.8884706,-2.2124763,4.0073514,-6.660944,-16.914064,29.132538,49.588352,11.027861,-12.177515,-9.598483
232,84.37297058105469,82.2018051147461,77.51213073730469,0.03464043680295223,3.412578917308579,173.45365361749228,-13.484867,22.731138,23.516258,20.36796,-6.5721574,-12.452074,-10.032126,-6.2256947,-15.971533,22.41014,-17.038462,2.9056792,-4.609151,-0.20616291,14.78533,-14.168429,13.91916,-26.099586,57.7459,6.4407845,-2.1623585,3.8045373,-6.4944673,-16.975485,28.924135,49.883762,11.197108,-12.193954,-9.534279
233,84.68770599365234,82.60029602050781,77.58197021484375,0.023105630551656483,3.278010960619247,173.96876046348436,-13.316872,23.009407,24.414745,22.538458,-7.937378,-11.670554,-9.694857,-5.897467,-16.590034,21.80747,-16.749264,2.511,-4.583226,-0.07143935,14.841539,-14.367944,13.608378,-26.467215,57.537113,6.947519,-2.125748,3.5566993,-6.3233695,-17.0412,28.752787,50.15349,11.451075,-12.216308,-9.5063925
234,84.99654388427734,82.9937973022461,77.64215087890625,-0.020040963564616994,3.1591942261383545,174.50919927319686,-13.165732,23.370302,25.343592,24.913704,-9.348806,-10.758785,-9.342963,-5.540337,-17.241758,21.14432,-16.430374,2.1383026,-4.586409,0.10728745,14.86718,-14.515563,13.285719,-26.766052,57.24615,7.450765,-2.0911682,3.2668781,-6.129106,-17.111,28.597597,50.405247,11.736878,-12.237057,-9.4985075
235,85.30111694335938,83.38436126708984,77.69194793701172,-0.07515951391492934,3.0517332651703586,175.05347646960843,-12.978087,23.725697,26.205343,27.303255,-10.718421,-9.835843,-9.0061865,-5.1758265,-17.896996,20.479904,-16.107115,1.7776519,-4.601519,0.3033466,14.871582,-14.624466,12.95609,-27.025894,56.905426,7.869579,-2.078708,2.9995503,-5.9358068,-17.18662,28.47598,50.647617,12.0404415,-12.261465,-9.492819
236,85.6124038696289,83.7693862915039,77.73017883300781,-0.12097654068976355,2.951671859464853,175.58063602672235,-12.717829,23.976116,26.906889,29.531164,-11.9548025,-9.027375,-8.714932,-4.828132,-18.526995,19.876032,-15.806637,1.4199291,-4.614932,0.48848337,14.862143,-14.706631,12.626956,-27.27785,56.546158,8.117554,-2.1065786,2.818665,-5.7519045,-17.269304,28.397049,50.8757,12.333147,-12.293664,-9.4714365
237,85.9131088256836,84.1518783569336,77.7603530883789,-0.14701794925604994,2.86341766696766,176.0827096854681,-12.403014,24.091585,27.436169,31.613482,-13.020921,-8.353684,-8.485879,-4.5111566,-19.122343,19.355268,-15.537175,1.0686907,-4.622209,0.6509148,14.835358,-14.755332,12.304288,-27.523699,56.150963,8.127529,-2.1875181,2.749234,-5.5926685,-17.36072,28.381243,51.096043,12.650135,-12.341889,-9.424884
238,86.21417999267578,84.5326919555664,77.78155517578125,-0.16366259069375216,2.788027215026859,176.57237739137878,-12.05949,24.117062,27.842287,33.638462,-13.968942,-7.7523837,-8.300511,-4.2139215,-19.69941,18.883434,-15.283823,0.7271657,-4.633529,0.8031667,14.789526,-14.7617,11.989862,-27.747673,55.70234,7.9590926,-2.30758,2.7526934,-5.445281,-17.460815,28.416283,51.302814,12.988568,-12.400883,-9.363611
239,86.5054702758789,84.90470886230469,77.79696655273438,-0.18023769837152542,2.716322737084128,177.06003672765908,-11.68277,24.059246,28.12388,35.56146,-14.836666,-7.232195,-8.140411,-3.9239545,-20.268372,18.447676,-15.046069,0.3863911,-4.6531057,0.95403147,14.73636,-14.739245,11.683591,-27.959156,55.234962,7.7137294,-2.4450097,2.798329,-5.292306,-17.565899,28.472315,51.48465,13.282184,-12.455757,-9.299843
240,86.79546356201172,85.27257537841797,77.80531311035156,-0.20616785905874466,2.6390010281477005,177.55615084512738,-11.267503,23.922474,28.279934,37.33485,-15.659818,-6.8049765,-7.985812,-3.6286304,-20.839146,18.03323,-14.822746,0.037752192,-4.683991,1.1114631,14.686545,-14.69982,11.382954,-28.164658,54.78448,7.498516,-2.5778286,2.8566544,-5.1097593,-17.669666,28.512745,51.626972,13.457627,-12.491674,-9.245858
