unveil-humanoid-operators/unveil-humanoid-operators.github.io/feature-analysis-animation/data/feature_matrix_instances/age_waist_mean_vel_jogging_A056_jog_arc_cw_start_003__A056.csv
Frame,root_translateX,root_translateY,root_translateZ,root_rotateX,root_rotateY,root_rotateZ,left_hip_pitch_joint_dof,left_hip_roll_joint_dof,left_hip_yaw_joint_dof,left_knee_joint_dof,left_ankle_pitch_joint_dof,left_ankle_roll_joint_dof,right_hip_pitch_joint_dof,right_hip_roll_joint_dof,right_hip_yaw_joint_dof,right_knee_joint_dof,right_ankle_pitch_joint_dof,right_ankle_roll_joint_dof,waist_yaw_joint_dof,waist_roll_joint_dof,waist_pitch_joint_dof,left_shoulder_pitch_joint_dof,left_shoulder_roll_joint_dof,left_shoulder_yaw_joint_dof,left_elbow_joint_dof,left_wrist_roll_joint_dof,left_wrist_pitch_joint_dof,left_wrist_yaw_joint_dof,right_shoulder_pitch_joint_dof,right_shoulder_roll_joint_dof,right_shoulder_yaw_joint_dof,right_elbow_joint_dof,right_wrist_roll_joint_dof,right_wrist_pitch_joint_dof,right_wrist_yaw_joint_dof
0,-0.028447402641177177,1.8336689472198486,77.62545013427734,-1.1281105696715352,5.3085027159125096,-86.35948103228411,-7.940602,6.4114814,12.00582,19.277224,-19.111963,-3.9625192,-8.248095,-6.48863,-6.323675,20.024878,-17.569307,5.212358,-1.2259035,1.4195238,1.4247421,-3.0416727,18.764828,-44.760212,54.85318,5.7764826,5.999436,5.7755704,12.028853,-18.088253,24.327358,43.837627,4.064311,6.0371137,-8.375694
1,-0.029985802248120308,1.8512787818908691,77.6080322265625,-1.2438313817044753,5.362387946229517,-86.31472402407765,-8.301882,6.5852904,11.86866,19.864737,-19.440466,-3.919818,-8.276799,-6.3559155,-6.390114,19.969364,-17.587149,5.1766353,-1.2530375,1.5149641,1.4144404,-3.0465915,18.77984,-44.714447,54.80656,5.7546535,5.9552746,5.7900653,12.012135,-18.094273,24.324953,43.78575,4.037903,6.013856,-8.386442
2,-0.030019663274288177,1.8671705722808838,77.58772277832031,-1.3573936207693986,5.4122807732480975,-86.27225732294403,-8.648242,6.755484,11.735776,20.431925,-19.758066,-3.8837197,-8.298839,-6.223733,-6.4534287,19.910254,-17.603802,5.1402845,-1.2824755,1.6060326,1.4035045,-3.05002,18.794508,-44.667408,54.766228,5.7337685,5.90538,5.802661,11.989488,-18.096508,24.328997,43.745724,4.005839,5.9842467,-8.397841
3,-0.03497331216931343,1.8885033130645752,77.55787658691406,-1.4771090314242905,5.470398700593005,-86.2256545495482,-9.022794,6.9316382,11.591205,21.033028,-20.09381,-3.8356094,-8.335145,-6.0874267,-6.5224733,19.862709,-17.625854,5.104235,-1.3127543,1.7051853,1.3921195,-3.05562,18.808466,-44.616516,54.718544,5.7133384,5.8666916,5.818788,11.966292,-18.096159,24.328014,43.698128,3.9843116,5.966453,-8.410389
4,-0.03893767669796944,1.9152621030807495,77.52130126953125,-1.6117620347908312,5.548949217397824,-86.16864111180404,-9.471252,7.1234393,11.419115,21.727116,-20.479132,-3.7579455,-8.40973,-5.942591,-6.605031,19.84926,-17.664167,5.06826,-1.347769,1.8252021,1.3807933,-3.0615227,18.823822,-44.552345,54.644794,5.6948915,5.8570323,5.8437233,11.940066,-18.094805,24.314066,43.631485,3.9881399,5.978212,-8.424665
5,-0.0376424677670002,1.9456108808517456,77.48123168945312,-1.770767223427309,5.653880245106562,-86.09662178273389,-10.025775,7.343245,11.2071495,22.560675,-20.93726,-3.641699,-8.53093,-5.779224,-6.7082047,19.872322,-17.717913,5.0338383,-1.3883992,1.9800897,1.371006,-3.0769248,18.836506,-44.47761,54.54724,5.6742444,5.8900914,5.8826156,11.917251,-18.093065,24.275204,43.52875,4.0316277,6.043297,-8.445733
6,-0.03329884633421898,1.9673761129379272,77.43724822998047,-1.9477820266473884,5.77789036621993,-86.01400706758132,-10.654095,7.5809727,10.965042,23.489096,-21.444645,-3.4983342,-8.685092,-5.602091,-6.826415,19.921526,-17.782873,5.0001817,-1.433096,2.1601474,1.3627111,-3.09987,18.847471,-44.395733,54.432735,5.651695,5.953412,5.931211,11.896728,-18.091606,24.218176,43.400494,4.1028013,6.14589,-8.471633
7,-0.020731907337903976,2.002821683883667,77.38935089111328,-2.127707234664288,5.913254383071368,-85.92835122456732,-11.30552,7.8138494,10.7105,24.434084,-21.962082,-3.340883,-8.865594,-5.4282403,-6.948191,20.002535,-17.86579,4.9637804,-1.4757004,2.3453784,1.3559873,-3.113019,18.862312,-44.29691,54.28891,5.642076,6.0256376,5.979983,11.875398,-18.092281,24.154533,43.262363,4.1754375,6.2455187,-8.489417
8,-0.00941387377679348,2.0372419357299805,77.33883666992188,-2.294237594541451,6.052888358178433,-85.84717037903397,-11.92934,8.019543,10.462543,25.317703,-22.452127,-3.1819215,-9.067389,-5.2754464,-7.0617476,20.122229,-17.974112,4.92109,-1.505987,2.5119715,1.3402485,-3.1110666,18.877949,-44.193985,54.129063,5.6424313,6.0823674,6.02464,11.856735,-18.097546,24.109476,43.13326,4.2385,6.300624,-8.492428
9,0.0007950477884151042,2.069819211959839,77.28681945800781,-2.45123250718773,6.2025177940579175,-85.7687153356985,-12.542553,8.203091,10.212959,26.158709,-22.915388,-3.0127287,-9.299436,-5.1405106,-7.1696568,20.285791,-18.111963,4.8638773,-1.5218349,2.6610975,1.3061025,-3.0977774,18.888557,-44.088566,53.961777,5.666369,6.1203694,6.06764,11.8423,-18.106236,24.081589,43.019123,4.284168,6.290101,-8.468519
10,0.020340487360954285,2.0958003997802734,77.23416137695312,-2.6043954481212714,6.363429546447635,-85.69018586382931,-13.162541,8.372694,9.956161,26.986713,-23.36999,-2.8306694,-9.562597,-5.0171003,-7.276368,20.491346,-18.276415,4.79636,-1.5367248,2.80471,1.2626606,-3.0669835,18.899635,-43.962772,53.77137,5.713801,6.151383,6.1091566,11.82543,-18.122597,24.069511,42.90965,4.322821,6.2397785,-8.425
11,0.047311220318078995,2.1198196411132812,77.18077087402344,-2.7405894002358,6.521527329049332,-85.617473001298,-13.743492,8.512248,9.716328,27.749807,-23.800991,-2.6567137,-9.835544,-4.91828,-7.3719425,20.726755,-18.458935,4.734403,-1.5559071,2.9365325,1.2285428,-3.0056357,18.919815,-43.80779,53.538754,5.761509,6.1743717,6.1418757,11.806697,-18.162397,24.085384,42.788643,4.366814,6.179363,-8.381707
12,0.07377380132675171,2.1360671520233154,77.13169860839844,-2.8459295059413905,6.662426089188471,-85.55634046882633,-14.241652,8.606971,9.518079,28.400734,-24.196426,-2.5116158,-10.096826,-4.857791,-7.446269,20.979317,-18.650702,4.693966,-1.5457426,3.0377212,1.2114272,-2.9427862,18.936247,-43.670666,53.294724,5.773377,6.188893,6.163701,11.796611,-18.204655,24.097612,42.66109,4.4092674,6.1356015,-8.358857
13,0.1152515858411789,2.1436495780944824,77.0871353149414,-2.9163922263876123,6.779599754660912,-85.5083950427838,-14.640896,8.654083,9.371994,28.92315,-24.552574,-2.4083388,-10.343025,-4.840142,-7.4973674,21.254498,-18.853338,4.6844244,-1.5104959,3.10666,1.2213796,-2.8739383,18.950167,-43.533672,53.029995,5.7440724,6.1915393,6.1627736,11.787043,-18.25274,24.121508,42.528606,4.4531446,6.1090317,-8.362563
14,0.15856169164180756,2.149778127670288,77.0455551147461,-2.9587804375103572,6.881417062166024,-85.47039467252615,-14.967841,8.662712,9.264864,29.347593,-24.878452,-2.3328764,-10.584438,-4.858029,-7.52999,21.554762,-19.069452,4.6957994,-1.453156,3.147469,1.2477548,-2.8002193,18.960466,-43.397865,52.749985,5.687116,6.183677,6.145609,11.776001,-18.303862,24.154882,42.398262,4.495328,6.0864744,-8.382516
15,0.20450283586978912,2.157273292541504,77.00281524658203,-2.9766020365116463,6.976231778047864,-85.44032611947489,-15.239794,8.635596,9.185854,29.692078,-25.17827,-2.2653325,-10.822908,-4.90784,-7.54488,21.86951,-19.295275,4.7151127,-1.387005,3.1654553,1.2801198,-2.70837,18.968952,-43.262867,52.45374,5.6191416,6.171232,6.13061,11.767268,-18.35982,24.19237,42.263657,4.5380225,6.077681,-8.41365
16,0.25347012281417847,2.16351056098938,76.96441650390625,-2.972376670754599,7.072430081678777,-85.41614856078506,-15.47375,8.575344,9.124227,29.974653,-25.455881,-2.1857362,-11.061285,-4.98514,-7.5422196,22.190933,-19.528824,4.7291026,-1.3192934,3.1615694,1.305397,-2.5941894,18.976397,-43.14163,52.14972,5.5498447,6.1603484,6.1371512,11.761545,-18.41498,24.221321,42.128403,4.5786023,6.091467,-8.451874
17,0.30640506744384766,2.1580708026885986,76.93550872802734,-2.937635524522417,7.169293145008628,-85.40186626106248,-15.65998,8.470937,9.08684,30.180729,-25.711731,-2.082716,-11.305156,-5.100046,-7.5123487,22.531643,-19.779125,4.732228,-1.2462386,3.1247935,1.3208721,-2.4549744,18.983376,-43.039692,51.832104,5.468606,6.16035,6.171762,11.752327,-18.465927,24.249977,41.99838,4.632499,6.1466784,-8.500053
18,0.3709897994995117,2.139789342880249,76.90321350097656,-2.8736701590934643,7.2633905081452,-85.39690152386856,-15.79453,8.325219,9.07617,30.308409,-25.944489,-1.969911,-11.552403,-5.251011,-7.4578524,22.893574,-20.045305,4.7322574,-1.1666455,3.058013,1.3337605,-2.29226,18.99123,-42.94967,51.49669,5.373555,6.165367,6.2234683,11.741139,-18.516287,24.281805,41.86982,4.6954823,6.23298,-8.559279
19,0.4441547095775604,2.1077303886413574,76.8788833618164,-2.798332052535078,7.358529959725808,-85.39256345547814,-15.900623,8.160483,9.075467,30.38815,-26.152916,-1.8613625,-11.787872,-5.4169197,-7.3979363,23.237778,-20.303045,4.7362194,-1.0802116,2.9753735,1.3407977,-2.118252,18.99583,-42.874416,51.17208,5.291682,6.158949,6.2868514,11.732848,-18.546274,24.287592,41.754555,4.729691,6.314037,-8.624072
20,0.5130309462547302,2.076648473739624,76.85926055908203,-2.730008678804891,7.458757915527044,-85.38027960229535,-16.00266,7.999272,9.0676565,30.452574,-26.337387,-1.770294,-12.00085,-5.5768995,-7.3516994,23.535824,-20.533455,4.7509127,-1.0079755,2.9035785,1.3460591,-1.9224664,19.000422,-42.787537,50.857983,5.2556815,6.1239867,6.353832,11.738991,-18.569906,24.2606,41.63435,4.7108784,6.356219,-8.687234
21,0.5845500230789185,2.0377025604248047,76.83804321289062,-2.6723364955578224,7.565291994423518,-85.36221965118564,-16.099306,7.8467703,9.05505,30.498579,-26.486792,-1.7052882,-12.182542,-5.7263374,-7.3211436,23.765522,-20.72593,4.7816534,-0.9554269,2.8511398,1.3504788,-1.6889049,19.011305,-42.675888,50.540035,5.2871294,6.0379143,6.4299955,11.770123,-18.598404,24.187237,41.493877,4.5958757,6.3490005,-8.745451
22,0.6564445495605469,1.9908273220062256,76.8175277709961,-2.6160450291431934,7.675967203933642,-85.3415207501604,-16.179766,7.6914105,9.044615,30.512537,-26.604776,-1.6575801,-12.341817,-5.876376,-7.296984,23.94916,-20.893576,4.823577,-0.9035691,2.7989562,1.3444889,-1.4398993,19.017141,-42.574207,50.244057,5.3562765,5.9157505,6.5206666,11.8131895,-18.606041,24.074091,41.36355,4.410305,6.309365,-8.806768
23,0.738827109336853,1.9431535005569458,76.80003356933594,-2.560218756021063,7.789380598223472,-85.31090777516016,-16.254631,7.5308704,9.0262375,30.510593,-26.712631,-1.615549,-12.489333,-6.029216,-7.283062,24.115772,-21.048306,4.8681726,-0.85741454,2.7474506,1.3452151,-1.1806475,19.025768,-42.467308,49.95145,5.4483705,5.79802,6.6042104,11.866524,-18.607338,23.93511,41.225452,4.2260714,6.2509737,-8.86528
24,0.8236441016197205,1.8978725671768188,76.77845764160156,-2.503968519341992,7.904385938517391,-85.26313000543584,-16.335546,7.3625054,8.989853,30.510666,-26.832493,-1.5676931,-12.635088,-6.187643,-7.2828364,24.290499,-21.201168,4.9071097,-0.8156819,2.6915607,1.3568071,-0.93145347,19.03583,-42.36913,49.672585,5.5295296,5.724829,6.6657977,11.921772,-18.601345,23.796137,41.08517,4.1249766,6.1849146,-8.923037
25,0.9108697175979614,1.8478598594665527,76.76202392578125,-2.4526186852506675,8.018138654189757,-85.19581927412287,-16.421307,7.189681,8.926293,30.512865,-26.976124,-1.5084449,-12.769861,-6.3443027,-7.300968,24.46172,-21.340517,4.9380536,-0.78024423,2.6370933,1.3835566,-0.6924882,19.042656,-42.274445,49.405087,5.6113462,5.7183013,6.692386,11.975526,-18.590687,23.668444,40.945274,4.1589856,6.108122,-8.9804945
26,0.9917135238647461,1.8029488325119019,76.74395751953125,-2.404537542162266,8.132050223289484,-85.11293193430414,-16.507355,7.012515,8.843108,30.509863,-27.130322,-1.4448588,-12.891311,-6.5003414,-7.3342414,24.620035,-21.46526,4.965439,-0.7507961,2.5841002,1.4234947,-0.4556203,19.049412,-42.177242,49.14418,5.7058516,5.753205,6.6936164,12.031706,-18.573742,23.53369,40.80291,4.271519,6.0163283,-9.035176
27,1.0831952095031738,1.7357356548309326,76.72061157226562,-2.3492238905843115,8.251226463958576,-85.01695478724913,-16.599003,6.8233156,8.755105,30.505972,-27.277529,-1.3839036,-13.026612,-6.6719513,-7.3742824,24.808458,-21.60144,4.9910336,-0.7269144,2.5203426,1.4663092,-0.22362834,19.058132,-42.088116,48.9032,5.7815924,5.7981596,6.692545,12.09192,-18.54578,23.38755,40.657784,4.390982,5.919593,-9.089494
28,1.1657681465148926,1.6692708730697632,76.69955444335938,-2.2756041975271604,8.381145141103653,-84.90999252531948,-16.700993,6.6144714,8.67732,30.504036,-27.399881,-1.3326492,-13.202475,-6.8747663,-7.4117665,25.06939,-21.774612,5.016333,-0.71499807,2.4389849,1.5007067,0.0032066684,19.063354,-42.012123,48.698387,5.807392,5.8215494,6.7139115,12.161491,-18.519888,23.237518,40.500694,4.4548097,5.8289795,-9.1474285
29,1.252852439880371,1.6001453399658203,76.67186737060547,-2.18666343718146,8.52748549418368,-84.78418359193245,-16.820698,6.3871894,8.602127,30.501863,-27.485836,-1.2884804,-13.413289,-7.1059737,-7.4557734,25.38314,-21.98246,5.0396004,-0.7009378,2.3339295,1.5218778,0.21145558,19.07684,-41.978462,48.54211,5.7674165,5.817802,6.771213,12.246273,-18.463205,23.039993,40.341927,4.4058695,5.7338767,-9.205237
30,1.3519433736801147,1.5432236194610596,76.63993835449219,-2.0861407624293196,8.686029632188694,-84.64112390450168,-16.953907,6.1449876,8.526222,30.499607,-27.547703,-1.24972,-13.649665,-7.3590784,-7.505978,25.73837,-22.214804,5.0599246,-0.70137274,2.2162066,1.5331484,0.41536647,19.090107,-41.96444,48.423733,5.679774,5.8023562,6.851966,12.338707,-18.399408,22.833887,40.178738,4.3076086,5.633982,-9.267631
31,1.4484608173370361,1.4683434963226318,76.60578918457031,-1.9634408965292964,8.846023080463386,-84.49698680238686,-17.086603,5.8810353,8.469501,30.502523,-27.602097,-1.2226734,-13.930143,-7.6474056,-7.541498,26.186186,-22.483711,5.0829315,-0.6960178,2.0716786,1.5499667,0.6107905,19.1052,-41.950905,48.321484,5.56876,5.7775283,6.9282656,12.433179,-18.328876,22.616928,40.00789,4.196656,5.550503,-9.328685
32,1.5504167079925537,1.3882826566696167,76.55838012695312,-1.807759544380529,8.996793857699535,-84.36818481827117,-17.20436,5.5894074,8.452768,30.514418,-27.664562,-1.2145644,-14.274089,-7.983403,-7.5396924,26.778189,-22.801674,5.113159,-0.6735156,1.8891212,1.5869828,0.8025448,19.12328,-41.909325,48.208145,5.4599113,5.7458506,6.9728293,12.521504,-18.260681,22.402012,39.824604,4.1178536,5.505161,-9.384724
33,1.6565872430801392,1.3096474409103394,76.49996948242188,-1.6092774197050534,9.136303842116561,-84.26189566297651,-17.29042,5.2601194,8.491144,30.510925,-27.73586,-1.239842,-14.6906,-8.379471,-7.48977,27.534496,-23.180042,5.1462517,-0.6272529,1.6590086,1.6467111,0.99611956,19.145212,-41.83199,48.072605,5.380504,5.7029366,6.967216,12.603245,-18.202229,22.187323,39.621994,4.101122,5.5139556,-9.425781
34,1.7687102556228638,1.2385201454162598,76.43038177490234,-1.3754324031756804,9.269794957553932,-84.16822542790223,-17.356684,4.898688,8.570389,30.497616,-27.80843,-1.2905484,-15.166564,-8.825523,-7.4034534,28.420595,-23.607183,5.1815567,-0.5647822,1.3898425,1.7234409,1.1908575,19.174158,-41.732754,47.923817,5.30941,5.6494026,6.9291115,12.683634,-18.150255,21.967619,39.40012,4.1173806,5.5621862,-9.456211
35,1.8795017004013062,1.170853614807129,76.35124969482422,-1.1216821973171442,9.398067949907352,-84.07770681490605,-17.434387,4.521818,8.667029,30.526413,-27.88695,-1.3397043,-15.689389,-9.301143,-7.2911396,29.40999,-24.06271,5.2294683,-0.4990938,1.0987179,1.8200357,1.3826131,19.209745,-41.609753,47.76739,5.2038593,5.595113,6.885923,12.766731,-18.107262,21.75374,39.15879,4.1256046,5.625865,-9.493533
36,1.994620680809021,1.0970103740692139,76.25617980957031,-0.8633377616355141,9.521682452817684,-83.9810958805002,-17.555962,4.146695,8.757607,30.653013,-27.97802,-1.3602905,-16.246437,-9.786244,-7.1641927,30.47635,-24.526546,5.3002067,-0.44209212,0.80250967,1.9390264,1.5662177,19.251049,-41.46189,47.610516,5.021429,5.5500093,6.8648386,12.854793,-18.072702,21.556158,38.900524,4.084276,5.680935,-9.555297
37,2.096953868865967,1.0287184715270996,76.1473388671875,-0.5946929294685241,9.640668496593214,-83.87502378843932,-17.722332,3.765664,8.841938,30.874912,-28.063099,-1.3431292,-16.836515,-10.288009,-7.020258,31.61664,-25.004696,5.404617,-0.3949634,0.49385557,2.0812142,1.7496095,19.302294,-41.27667,47.446617,4.72277,5.5220704,6.8820276,12.952187,-18.042126,21.37719,38.62636,3.9577174,5.723885,-9.647241
38,2.205876350402832,0.9494331479072571,76.02908325195312,-0.3111725157200619,9.754611187118538,-83.76461444298998,-17.919882,3.3737936,8.93046,31.169252,-28.146076,-1.3031459,-17.46474,-10.812911,-6.8544164,32.839714,-25.502314,5.534187,-0.34955743,0.17292662,2.2414815,1.9176848,19.3398,-41.064,47.30129,4.340179,5.502805,6.9229383,13.062274,-18.023827,21.212025,38.33177,3.780275,5.7674212,-9.760487
39,2.3182361125946045,0.8809319734573364,75.89468383789062,-0.027734492264639712,9.863904517211855,-83.65364354820474,-18.15742,2.9913828,9.019239,31.557621,-28.264841,-1.2511909,-18.13472,-11.341017,-6.6700487,34.151424,-26.004118,5.667859,-0.3145936,-0.15620983,2.4277966,2.0901382,19.413734,-40.82983,47.12316,3.9395487,5.482638,6.9564934,13.156744,-18.003159,21.058483,38.03184,3.596204,5.8088913,-9.887782
40,2.427445650100708,0.800857663154602,75.74278259277344,0.23916984406963468,9.969022424697053,-83.5459670094406,-18.443613,2.640084,9.103481,32.06203,-28.458132,-1.1978709,-18.848206,-11.851289,-6.4720316,35.555218,-26.493946,5.7848043,-0.2831086,-0.4705423,2.6330006,2.2316031,19.497036,-40.61816,46.955433,3.57833,5.448273,6.9645267,13.239244,-17.992037,20.911854,37.72105,3.4663746,5.847691,-10.025831
41,2.5388450622558594,0.7285385131835938,75.57244110107422,0.4971120037008105,10.066895947955146,-83.44583019712832,-18.773413,2.3116164,9.190068,32.68433,-28.741148,-1.1377331,-19.58609,-12.350658,-6.25851,37.021027,-26.99083,5.8860416,-0.249385,-0.7785041,2.8603377,2.3490915,19.58933,-40.42169,46.7919,3.280947,5.39978,6.9337883,13.307893,-17.99321,20.77084,37.396233,3.403249,5.8831863,-10.1647215
42,2.6349830627441406,0.6609113216400146,75.38812255859375,0.7502502158908869,10.158462967438634,-83.35025923662627,-19.145489,1.99956,9.278963,33.416267,-29.0928,-1.0679592,-20.353914,-12.845166,-6.027206,38.556915,-27.495556,5.979571,-0.21512663,-1.0831779,3.1098073,2.4468043,19.690367,-40.230312,46.629925,3.0115998,5.3427353,6.8787804,13.36934,-18.007002,20.637394,37.054398,3.379212,5.9163866,-10.309504
43,2.7409121990203857,0.5907953381538391,75.19264221191406,0.9782725918992181,10.250454956575025,-83.2519263865011,-19.572525,1.7273172,9.355624,34.260815,-29.49516,-1.0030694,-21.190224,-13.312999,-5.7807527,40.224003,-27.96463,6.055167,-0.19227348,-1.3622767,3.3768396,2.5077882,19.802282,-40.061768,46.481625,2.746696,5.273136,6.8155837,13.42447,-18.030802,20.507458,36.70044,3.3828504,5.9475975,-10.476048
44,2.8417344093322754,0.5340797901153564,74.98346710205078,1.1610895556299934,10.349492384798461,-83.14349533050704,-20.06756,1.517603,9.405577,35.223045,-29.931147,-0.9576569,-22.132938,-13.731516,-5.5218596,42.084732,-28.355309,6.1021643,-0.191877,-1.5945114,3.6564217,2.5144784,19.928608,-39.936516,46.359005,2.4610412,5.1869783,6.7601337,13.474769,-18.059387,20.37602,36.340088,3.4020476,5.9772553,-10.679846
45,2.9162957668304443,0.4790402352809906,74.75660705566406,1.2856293194403225,10.4564748997342,-83.02315061863793,-20.64398,1.3865993,9.422573,36.328865,-30.397966,-0.9369064,-23.172722,-14.092185,-5.272326,44.12969,-28.669178,6.1448636,-0.2124042,-1.7681437,3.9484088,2.4597175,20.073292,-39.868683,46.270058,2.1264255,5.076514,6.697453,13.514764,-18.088762,20.256037,35.975048,3.4572413,6.003767,-10.938785
46,2.9974870681762695,0.4219774603843689,74.52120971679688,1.364599337646517,10.568138650934898,-82.89513210980992,-21.289133,1.3180903,9.414866,37.564053,-30.902582,-0.93325865,-24.294329,-14.406622,-5.023166,46.33552,-28.925789,6.1774387,-0.24831751,-1.8991333,4.2544026,2.3546522,20.237823,-39.846638,46.205032,1.7624274,4.9465594,6.624758,13.542956,-18.118904,20.143845,35.607174,3.5452251,6.0266924,-11.240389
47,3.086934804916382,0.3672664165496826,74.26807403564453,1.4175458221822406,10.685503471630193,-82.76082800832849,-21.977682,1.2860819,9.390273,38.87384,-31.443624,-0.9423589,-25.52678,-14.680231,-4.7312813,48.741367,-29.107464,6.14584,-0.30573574,-2.0056863,4.5728636,2.2099864,20.42083,-39.851677,46.146416,1.4163606,4.811416,6.576587,13.569268,-18.146873,20.012527,35.237453,3.6201563,6.0488086,-11.554459
48,3.158428907394409,0.3130505681037903,74.0008316040039,1.4640420944401287,10.809300961129434,-82.62161915555451,-22.685467,1.2640308,9.356973,40.206436,-32.01883,-0.95950353,-26.896627,-14.914393,-4.3549986,51.38217,-29.193565,5.9992285,-0.38956267,-2.1068332,4.9017053,2.034208,20.618927,-39.866238,46.08046,1.1356742,4.6848135,6.5881,13.602799,-18.168398,19.833565,34.869167,3.6354384,6.0732903,-11.850957
49,3.2366580963134766,0.25232672691345215,73.72267150878906,1.4967488292983107,10.937347605827489,-82.47784023163683,-23.421427,1.2582614,9.313224,41.574974,-32.642918,-0.98910624,-28.423765,-15.1349535,-3.9424167,54.305202,-29.121534,5.643545,-0.49623802,-2.195012,5.2492523,1.8292426,20.828012,-39.88002,46.00595,0.9750876,4.569528,6.6660686,13.640716,-18.181715,19.586164,34.49622,3.532824,6.102474,-12.108932
50,3.302767038345337,0.2038429230451584,73.43309020996094,1.5092454949213046,11.069973173486822,-82.32893939886138,-24.192936,1.2772663,9.2559395,42.99854,-33.310207,-1.0321937,-30.082901,-15.326671,-3.5007553,57.46567,-28.916204,5.136757,-0.6234613,-2.2655215,5.6127143,1.5861398,21.046978,-39.907112,45.936245,0.8955337,4.4580197,6.79344,13.678067,-18.187243,19.288387,34.12304,3.3511953,6.134794,-12.348827
51,3.3367085456848145,0.17470782995224,73.11377716064453,1.522698541267255,11.211834229574245,-82.1748683586392,-24.97211,1.2987787,9.19179,44.428993,-33.99542,-1.0800321,-31.838366,-15.41709,-2.9315712,60.777378,-28.6862,4.6645145,-0.77828866,-2.3404102,5.9736137,1.2987458,21.277369,-39.965767,45.87711,0.80429626,4.3481483,6.969286,13.719653,-18.182041,18.97171,33.768105,3.1904202,6.1673717,-12.602296
52,3.39420747756958,0.10945636034011841,72.79827880859375,1.5567869878258835,11.367682058279467,-82.01591582003813,-25.733358,1.3022411,9.127457,45.82099,-34.674133,-1.1244925,-33.653656,-15.323494,-2.1410267,64.16581,-28.548447,4.4215136,-0.96709836,-2.4422534,6.312707,0.96150404,21.522884,-40.07421,45.832886,0.6088311,4.2375183,7.1921086,13.768626,-18.162815,18.66671,33.45356,3.1487718,6.196434,-12.901901
53,3.452087640762329,0.029342113062739372,72.48503112792969,1.6392536363359518,11.546844000324144,-81.84907330244998,-26.485748,1.2539536,9.075757,47.176506,-35.346157,-1.1556115,-35.55901,-14.9814415,-1.0211526,67.669785,-28.540241,4.502287,-1.1900903,-2.6027825,6.625405,0.5849051,21.785273,-40.234615,45.792187,0.28510046,4.1197634,7.488043,13.821309,-18.12847,18.379469,33.174187,3.2947295,6.2293572,-13.2734995
54,3.48732852935791,-0.05852876231074333,72.15902709960938,1.7491423760821474,11.744383938108049,-81.67601590681522,-27.24006,1.1776448,9.029458,48.51768,-36.025208,-1.1820242,-37.54361,-14.406547,0.3184691,71.323135,-28.612679,4.8196483,-1.4438536,-2.7997768,6.9208364,0.16844828,22.064777,-40.43932,45.753193,-0.11871593,3.996594,7.8482046,13.875438,-18.07894,18.095158,32.924564,3.561346,6.263158,-13.694455
55,3.4972198009490967,-0.14513124525547028,71.83216857910156,1.8336581562917758,11.944012991499049,-81.5043204113227,-27.974813,1.1385134,8.965074,49.835632,-36.701664,-1.2230365,-39.51452,-13.64626,1.6501151,75.05393,-28.758558,5.2892356,-1.729766,-2.9761624,7.2008195,-0.30477077,22.362625,-40.688583,45.729458,-0.5828542,3.8781505,8.21883,13.936329,-18.01152,17.813482,32.725914,3.8430574,6.278957,-14.124041
56,3.488640546798706,-0.2554151117801666,71.51457977294922,1.840431166952906,12.129642409386653,-81.34195433822185,-28.661415,1.1994627,8.858255,51.10736,-37.36908,-1.2973714,-41.391582,-12.780207,2.7625103,78.79154,-28.962465,5.8037653,-2.0496552,-3.0762403,7.467576,-0.85403025,22.681137,-40.985554,45.736305,-1.0906935,3.7754595,8.546419,14.008174,-17.921696,17.534203,32.601215,4.033521,6.2594385,-14.521168
57,3.4686684608459473,-0.37748807668685913,71.21978759765625,1.7381457749128357,12.310001986604362,-81.187875483013,-29.334599,1.4026468,8.690974,52.377117,-38.037815,-1.4181336,-43.185078,-11.751857,3.6606252,82.57734,-29.236788,6.4081736,-2.4120867,-3.072225,7.722059,-1.4896139,23.023825,-41.348953,45.790977,-1.7701149,3.7092936,8.818436,14.074741,-17.8009,17.255684,32.560223,4.0983214,6.1943674,-14.859807
58,3.4449026584625244,-0.5332686901092529,70.94583129882812,1.5595138867433527,12.490010675139308,-81.04027182617936,-29.992308,1.7048624,8.478387,53.63566,-38.707817,-1.5735538,-44.9249,-10.560105,4.4246616,86.44582,-29.598524,7.127698,-2.8118992,-3.0011656,7.9636264,-2.200149,23.390968,-41.77558,45.877495,-2.5874414,3.6674826,9.063016,14.136845,-17.647354,16.976616,32.59546,4.0926185,6.0953903,-15.167186
59,3.399482250213623,-0.7155383229255676,70.69381713867188,1.3497449535273907,12.648618401399583,-80.90483551012142,-30.553886,2.0407612,8.246072,54.786697,-39.348114,-1.7419447,-46.580677,-9.391216,4.9827323,90.309395,-30.018812,7.7996273,-3.2331302,-2.9022353,8.192359,-2.9673727,23.77815,-42.23096,45.958645,-3.2818694,3.6141512,9.287461,14.226737,-17.469078,16.701462,32.69898,4.047382,5.9796705,-15.481976
60,3.338670253753662,-0.9092783331871033,70.46996307373047,1.155224887651674,12.76438212128308,-80.78675214416631,-30.940407,2.3460832,8.021585,55.73581,-39.927982,-1.8996689,-48.12917,-8.438445,5.286769,94.07354,-30.461895,8.256033,-3.6616697,-2.8140347,8.407424,-3.7724004,24.1782,-42.67688,45.99993,-3.5896475,3.5150476,9.498895,14.378036,-17.281496,16.436886,32.85909,3.9962504,5.8644614,-15.84271
61,3.2842018604278564,-1.1362509727478027,70.28594970703125,0.9889080812769983,12.82338715139065,-80.69188565892873,-31.129602,2.6084595,7.8114915,56.48252,-40.455326,-2.0279984,-49.578514,-7.801538,5.3194795,97.812126,-30.930195,8.39341,-4.1014833,-2.7467785,8.6137905,-4.626508,24.586136,-43.129444,46.066967,-3.3227668,3.29845,9.632223,14.594562,-17.09115,16.19115,33.084362,3.9452643,5.7399607,-16.287027
62,3.234370470046997,-1.3947291374206543,70.13929748535156,0.8277385193683513,12.84080741606926,-80.61602213284512,-31.165903,2.8614857,7.6040106,57.06996,-40.941456,-2.1407976,-50.94303,-7.3968205,5.149549,101.54714,-31.437662,8.297029,-4.55993,-2.6780128,8.808665,-5.5361047,24.99965,-43.59978,46.157806,-2.6608322,3.0050626,9.70894,14.865186,-16.898071,15.962305,33.36916,3.8811686,5.6029387,-16.784904
63,3.201009750366211,-1.7003459930419922,70.04019165039062,0.6648652444166109,12.837876629185967,-80.54893374832638,-31.071144,3.1102593,7.399519,57.470306,-41.35786,-2.262073,-52.21694,-7.132685,4.8484216,105.09982,-31.947485,8.075102,-5.028417,-2.5971653,8.979386,-6.4737864,25.416039,-44.041077,46.138474,-1.8892943,2.7715166,9.863416,15.203249,-16.71377,15.740184,33.678635,3.8088775,5.480193,-17.272839
64,3.150272846221924,-2.01567006111145,69.99044799804688,0.4927698420008892,12.83506992968763,-80.47967255796567,-30.86778,3.3602674,7.19666,57.65893,-41.677547,-2.4165092,-53.3979,-6.9093986,4.480155,108.284485,-32.417194,7.860272,-5.502158,-2.4888885,9.115931,-7.4085965,25.833872,-44.402164,45.870316,-1.2944872,2.7363706,10.224083,15.624916,-16.556103,15.518957,33.970898,3.7385824,5.3987556,-17.68659
65,3.1024370193481445,-2.3625423908233643,69.9954605102539,0.3100615473099506,12.827605123996925,-80.39021049710279,-30.555489,3.6085258,6.981173,57.638912,-41.91008,-2.6139576,-54.484886,-6.7379937,4.02745,111.109604,-32.846798,7.6396294,-6.0039043,-2.3426573,9.224246,-8.35549,26.25357,-44.68286,45.343216,-0.8982615,2.9644628,10.881886,16.13728,-16.433937,15.292096,34.26595,3.6615818,5.3668637,-18.017473
66,3.0435140132904053,-2.723436117172241,70.04666137695312,0.12159723425326881,12.807409412098682,-80.2904193957484,-30.125698,3.8544395,6.7585583,57.423008,-42.064148,-2.8395758,-55.486423,-6.659252,3.4703298,113.65606,-33.249813,7.362881,-6.531821,-2.1633952,9.308817,-9.319522,26.675999,-44.903152,44.618423,-0.57223094,3.3751442,11.746142,16.737568,-16.347498,15.067478,34.565197,3.5826762,5.370606,-18.295473
67,3.0178229808807373,-3.1093573570251465,70.1520767211914,-0.07152760578622701,12.789204782803946,-80.21068414963416,-29.583126,4.106568,6.5571036,56.992928,-42.11486,-3.0809937,-56.42486,-6.6048865,2.8584218,115.84958,-33.58715,7.119842,-7.043782,-1.9591745,9.358632,-10.250808,27.101316,-45.03803,43.66145,-0.37110913,3.8863301,12.6722355,17.428127,-16.305595,14.858015,34.798473,3.5319953,5.4033837,-18.515537
68,2.9902455806732178,-3.5246267318725586,70.30471801757812,-0.2683450915618185,12.78725225304823,-80.18059318556122,-28.932188,4.3718686,6.4044137,56.33236,-42.035446,-3.3253264,-57.325363,-6.501983,2.239867,117.615166,-33.81857,7.002313,-7.500466,-1.7361379,9.363363,-11.097362,27.531256,-45.05881,42.435368,-0.34554425,4.4128118,13.517345,18.212711,-16.323784,14.678407,34.892445,3.5413795,5.4584293,-18.672043
69,2.957474946975708,-3.9547462463378906,70.51280975341797,-0.48378959914826963,12.810687022641629,-80.19271896765683,-28.193876,4.663423,6.27785,55.456406,-41.842274,-3.5810292,-58.21708,-6.329097,1.6042477,118.93533,-33.930756,7.072578,-7.898305,-1.4721218,9.318716,-11.881271,27.97278,-44.960842,40.887577,-0.5784242,4.9813766,14.3032,19.111792,-16.41702,14.537373,34.826725,3.613791,5.5514026,-18.758478
70,2.9302926063537598,-4.413919925689697,70.77352905273438,-0.7126978703340215,12.84814189229382,-80.23455019029907,-27.357613,4.9719434,6.1715603,54.369286,-41.540974,-3.8498876,-59.09209,-6.1247783,0.93559384,119.849525,-33.93492,7.275885,-8.260732,-1.1662356,9.233582,-12.60718,28.43149,-44.750885,39.03818,-1.0233465,5.615165,15.09128,20.123621,-16.587248,14.427551,34.629425,3.7398677,5.6810474,-18.777739
71,2.911963939666748,-4.878294944763184,71.07903289794922,-0.9237481668723033,12.883081285487435,-80.32758992180237,-26.378366,5.269342,6.1373158,53.034077,-41.095306,-4.108798,-59.919117,-5.9099884,0.2767088,120.36556,-33.82609,7.5291996,-8.587347,-0.85912985,9.116869,-13.198319,28.905113,-44.41521,36.96136,-1.5258899,6.2258635,15.796872,21.217075,-16.829197,14.337276,34.302647,3.929885,5.8150806,-18.738993
72,2.8857643604278564,-5.391691207885742,71.43122863769531,-1.085871178609034,12.898950973424467,-80.49355335580607,-25.210947,5.525758,6.226801,51.41397,-40.46807,-4.335181,-60.66476,-5.7042093,-0.3285425,120.48785,-33.599228,7.747771,-8.878157,-0.5922135,8.976152,-13.589928,29.3867,-43.94692,34.74229,-1.9359717,6.729266,16.330507,22.358458,-17.134342,14.255702,33.851875,4.1930256,5.921425,-18.652042
73,2.854764699935913,-5.923598289489746,71.83168029785156,-1.1916608888057654,12.891816816569737,-80.74739280598091,-23.806087,5.73628,6.4689736,49.430874,-39.688316,-4.5217524,-61.340435,-5.488992,-0.86107016,120.1983,-33.2834,7.9341693,-9.117937,-0.3776647,8.806684,-13.761616,29.871616,-43.309494,32.353886,-2.2081585,7.0995126,16.635372,23.572021,-17.502033,14.175538,33.236595,4.5669312,6.012866,-18.504555
74,2.8248255252838135,-6.485354900360107,72.27909851074219,-1.2579408003619503,12.870527971362174,-81.07413431939159,-22.198631,5.909325,6.828891,47.128563,-38.76064,-4.679516,-61.95445,-5.2619476,-1.343743,119.49839,-32.872242,8.125733,-9.310531,-0.19267814,8.6063,-13.753325,30.360147,-42.516014,29.770618,-2.4237154,7.386365,16.768248,24.864265,-17.93374,14.10231,32.467457,5.0332785,6.101142,-18.296278
75,2.822510004043579,-7.084784030914307,72.76532745361328,-1.2897724267199246,12.837855282861442,-81.45193072803181,-20.467829,6.0324626,7.263682,44.640835,-37.617596,-4.8178015,-62.461395,-5.0645204,-1.7988869,118.42651,-32.31077,8.28859,-9.48232,-0.029484758,8.386382,-13.57846,30.846645,-41.62231,27.074965,-2.604847,7.6214023,16.809116,26.172045,-18.420954,14.040252,31.631104,5.51521,6.150629,-18.0553
76,2.8265013694763184,-7.701356887817383,73.28565979003906,-1.29236252001058,12.796849782299562,-81.85910216064,-18.693758,6.093545,7.7323713,42.098743,-36.18973,-4.9506874,-62.814823,-4.9374986,-2.2500732,117.01811,-31.544363,8.388564,-9.658016,0.118822806,8.156706,-13.259869,31.319906,-40.691856,24.365828,-2.7773833,7.8319664,16.839,27.430958,-18.946451,13.993278,30.819458,5.9343176,6.124324,-17.810211
77,2.834857225418091,-8.325299263000488,73.84523010253906,-1.2575868108307775,12.7452951496628,-82.30887092421722,-16.817568,6.063858,8.25945,39.39273,-34.429466,-5.0688467,-63.00582,-4.9103694,-2.7070448,115.25189,-30.571907,8.380666,-9.825886,0.2416308,7.910149,-12.793828,31.76662,-39.73441,21.653337,-2.9228554,8.025946,16.852114,28.632683,-19.50929,13.972961,30.050266,6.267767,5.9840217,-17.562286
78,2.8479292392730713,-8.97002124786377,74.43495178222656,-1.187728755747444,12.68442296946452,-82.80863050781488,-14.824689,5.9466877,8.854488,36.494476,-32.381348,-5.1760116,-63.042225,-4.950542,-3.165944,113.11958,-29.431894,8.293631,-9.970482,0.3401213,7.642715,-12.18672,32.178074,-38.726933,18.90977,-3.0364919,8.186705,16.815624,29.810093,-20.110119,13.965552,29.27935,6.5556736,5.758217,-17.298038
79,2.830829381942749,-9.643584251403809,75.03271484375,-1.1025795088613666,12.621822097814455,-83.32793702436622,-12.865039,5.783255,9.454892,33.66037,-30.11014,-5.3031287,-62.907772,-5.0039215,-3.6266048,110.67367,-28.125187,8.204245,-10.108939,0.4339124,7.3665056,-11.472079,32.549118,-37.686874,16.172997,-3.1601415,8.308367,16.769169,30.95598,-20.725441,13.935896,28.515312,6.8118277,5.5076575,-17.025526
80,2.8144257068634033,-10.3232421875,75.63566589355469,-1.0195367772076867,12.56445734040105,-83.83567830640024,-11.092542,5.6232896,9.997673,31.158457,-27.682518,-5.47428,-62.590538,-5.0183907,-4.0815916,107.96548,-26.647835,8.188332,-10.252187,0.5345241,7.091849,-10.690262,32.875713,-36.642372,13.487984,-3.3347623,8.385747,16.753145,32.05982,-21.316565,13.845118,27.777617,7.0430923,5.2919583,-16.75514
81,2.8134477138519287,-11.012581825256348,76.25228881835938,-0.9376810130930863,12.508197298266419,-84.3354562713234,-9.518321,5.474827,10.485787,29.021383,-25.033087,-5.686604,-62.08567,-4.990277,-4.5241203,104.97286,-24.903555,8.21266,-10.392503,0.63344496,6.825439,-9.857026,33.151367,-35.608746,10.868751,-3.5747583,8.417214,16.794296,33.105145,-21.855997,13.671421,27.094213,7.1704507,5.1121693,-16.474155
82,2.7801084518432617,-11.701749801635742,76.85992431640625,-0.8468988172533694,12.451614873291778,-84.84162651582471,-8.082331,5.3139596,10.942204,27.139917,-22.1597,-5.913138,-61.394115,-4.94293,-4.9590216,101.68213,-22.930418,8.249464,-10.511249,0.7164217,6.5558114,-8.972508,33.368717,-34.593384,8.311296,-3.854856,8.405055,16.866709,34.094646,-22.336668,13.433111,26.471445,7.2070546,4.9366918,-16.185665
83,2.7403435707092285,-12.403434753417969,77.47637939453125,-0.7481051459693673,12.404409334462494,-85.3383084909021,-6.8343096,5.154863,11.335187,25.580652,-19.228357,-6.14244,-60.51763,-4.8518105,-5.377108,98.14207,-20.93196,8.398575,-10.605618,0.78489405,6.2642503,-8.071704,33.527367,-33.621094,5.848938,-4.16858,8.349718,16.930738,35.05186,-22.7507,13.152269,25.88762,7.2959743,4.7811904,-15.924203
84,2.6834869384765625,-13.103914260864258,78.07393646240234,-0.6421742834870249,12.376157573339624,-85.80842912188942,-5.818841,5.018284,11.634943,24.403809,-16.40045,-6.3771415,-59.462852,-4.6899796,-5.76518,94.39562,-19.102938,8.759756,-10.673109,0.83964443,5.933131,-7.183435,33.631554,-32.714306,3.508569,-4.506435,8.252515,16.946667,35.997074,-23.090178,12.850619,25.323792,7.579988,4.661422,-15.723732
85,2.6139979362487793,-13.82270622253418,78.65177917480469,-0.5209611261929169,12.385229378129882,-86.24468278701008,-5.072146,4.9098725,11.844415,23.620966,-13.573875,-6.6092234,-58.21251,-4.4523907,-6.1112385,90.36019,-17.5551,9.420452,-10.718019,0.87069225,5.5377445,-6.3070736,33.6841,-31.875402,1.2972991,-4.87452,8.110263,16.910091,36.930984,-23.341139,12.526506,24.78579,8.1243925,4.58517,-15.615976
86,2.525803565979004,-14.555438995361328,79.20105743408203,-0.38576497913648206,12.420721610345954,-86.6557400333055,-4.5586157,4.827577,11.97434,23.196495,-10.704643,-6.8599515,-56.768814,-4.1462846,-6.4109325,86.02672,-16.156096,10.305127,-10.736571,0.87622035,5.0931244,-5.440283,33.68538,-31.104618,-0.7956125,-5.27343,7.924314,16.838806,37.837955,-23.499079,12.17157,24.289562,8.839344,4.541967,-15.576342
87,2.431180715560913,-15.292898178100586,79.71446990966797,-0.2541556942812793,12.44782147988999,-87.04776395051711,-4.1899443,4.777469,12.007838,23.068226,-8.028175,-7.1828365,-55.168015,-3.7659261,-6.6575193,81.53914,-14.730221,11.272473,-10.7172575,0.87542343,4.643042,-4.6120696,33.640102,-30.418797,-2.7681587,-5.689362,7.7033005,16.725395,38.719456,-23.578568,11.795477,23.822138,9.635509,4.5219765,-15.553702
88,2.3330624103546143,-16.037595748901367,80.19068908691406,-0.14550549765509024,12.431788919571702,-87.42736702944377,-3.8791614,4.764483,11.928396,23.179424,-5.785708,-7.616134,-53.449017,-3.3060377,-6.843776,77.04574,-13.104164,12.182254,-10.654049,0.8916741,4.2333307,-3.8354096,33.55464,-29.82282,-4.6305547,-6.10607,7.455649,16.562666,39.58073,-23.604055,11.41036,23.361788,10.427999,4.5170913,-15.495565
89,2.2435545921325684,-16.77870750427246,80.62061309814453,-0.07476224438228476,12.37125538628654,-87.78944221277449,-3.5861115,4.8074594,11.73806,23.42948,-3.9568484,-8.292181,-51.59456,-2.7133021,-6.928152,72.45911,-11.054856,13.092112,-10.555005,0.9434526,3.8696473,-3.1013076,33.43299,-29.312077,-6.37893,-6.5261445,7.147313,16.33892,40.429462,-23.589228,11.022924,22.887827,11.234981,4.558267,-15.402925
90,2.1345996856689453,-17.537006378173828,80.98802947998047,-0.028907026703856375,12.28170278065749,-88.13114235095176,-3.3534296,4.889965,11.439194,23.861008,-2.4369876,-9.154851,-49.59163,-2.016207,-6.9020476,67.72799,-8.728746,14.041198,-10.431283,1.0194079,3.5318081,-2.393968,33.277344,-28.873299,-8.022974,-6.9570327,6.7869024,16.05923,41.26283,-23.535906,10.6293955,22.406126,12.094502,4.6406617,-15.299028
91,2.0273892879486084,-18.308937072753906,81.2990951538086,0.014059863223099253,12.153419330165065,-88.4632243834843,-3.2230341,4.973239,11.030613,24.642784,-1.3424338,-9.941603,-47.483047,-1.3305237,-6.831577,63.05142,-6.510601,14.86354,-10.281553,1.1002951,3.2287507,-1.7113411,33.092907,-28.495283,-9.598514,-7.3888555,6.4466734,15.742404,42.072113,-23.452879,10.226599,21.930387,12.952838,4.703787,-15.1627
92,1.9049177169799805,-19.0679931640625,81.55348205566406,0.07040696808010145,11.976976276194465,-88.79877494066176,-3.2390013,5.0340843,10.521033,25.946161,-0.7839438,-10.387553,-45.312088,-0.80673075,-6.9301395,58.635376,-4.7750764,15.000033,-10.105534,1.1698104,2.970791,-1.0459489,32.886734,-28.1626,-11.146325,-7.811671,6.1983485,15.408264,42.847733,-23.352983,9.812211,21.473854,13.757777,4.6871095,-14.970387
93,1.790026068687439,-19.839107513427734,81.74095153808594,0.1454859293962322,11.739208367604814,-89.13688314413227,-3.4271102,5.069565,9.908815,27.877253,-0.8763602,-10.312693,-43.048397,-0.38972273,-7.069486,54.44349,-3.6930068,15.000033,-9.9116,1.2346821,2.7684233,-0.3732268,32.663704,-27.860905,-12.687203,-8.250453,6.0650187,15.041676,43.60576,-23.242533,9.365977,21.023384,14.563819,4.5484724,-14.686621
94,1.6769658327102661,-20.614858627319336,81.86080932617188,0.22866331090443423,11.448311564147287,-89.47208877335738,-3.7497544,5.096445,9.20038,30.304813,-1.5152382,-9.883812,-40.687275,-0.019789701,-7.205821,50.388546,-3.0331836,15.000033,-9.702685,1.3040001,2.616727,0.3117424,32.426434,-27.591187,-14.213027,-8.700679,6.0079494,14.639671,44.344284,-23.12306,8.89798,20.571785,15.3803835,4.3315063,-14.330178
95,1.5655126571655273,-21.375045776367188,81.90467071533203,0.3218064124511598,11.126732061394055,-89.806889613038,-4.1425185,5.0939484,8.423483,33.020523,-2.4776616,-9.346442,-38.33168,0.31213352,-7.3395324,46.612007,-2.5798664,15.000033,-9.471572,1.36654,2.5021272,0.9819535,32.18051,-27.359291,-15.715362,-9.113774,6.005032,14.241043,45.026478,-23.000826,8.457562,20.13897,16.089659,4.1054606,-13.960499
96,1.4586734771728516,-22.1317138671875,81.8772201538086,0.4272791334526423,10.797737085105712,-90.14463474045289,-4.5495567,5.0360007,7.6135345,35.841354,-3.5503032,-8.954666,-36.092163,0.6111509,-7.4946313,43.27451,-2.1200442,14.865409,-9.212095,1.4086566,2.410713,1.6143854,31.933544,-27.168095,-17.189281,-9.4409685,6.0329313,13.884541,45.618427,-22.88678,8.093006,19.743265,16.571905,3.9365964,-13.639055
97,1.3491358757019043,-22.888757705688477,81.78577423095703,0.55526439013756,10.44655382664776,-90.4839390494897,-4.9343066,4.8532033,6.7248955,38.769688,-4.777254,-8.82695,-33.937515,0.85285866,-7.7034993,40.370316,-1.5324426,14.835054,-8.928699,1.4181141,2.3529868,2.2208087,31.691998,-27.011051,-18.641565,-9.6560755,6.103704,13.5786705,46.12331,-22.78846,7.8192677,19.383862,16.7652,3.8368027,-13.369381
98,1.22371244430542,-23.615022659301758,81.6229476928711,0.7044782027664017,10.069177551828387,-90.82492466650679,-5.3392353,4.5559554,5.771773,41.910934,-6.255128,-8.822023,-31.840479,1.0455264,-7.940493,37.842285,-0.9577749,14.916379,-8.628089,1.402448,2.3322465,2.8220043,31.458979,-26.878193,-20.08556,-9.790437,6.220962,13.303718,46.55257,-22.709188,7.6145325,19.053205,16.745752,3.7695944,-13.124136
99,1.1024160385131836,-24.328350067138672,81.39210510253906,0.8550199340039742,9.706018409222352,-91.17394960085326,-5.824971,4.249182,4.8794727,45.23446,-7.844242,-8.80451,-29.924103,1.243935,-8.124768,35.794926,-0.5926991,14.662704,-8.308333,1.3841838,2.3220153,3.4106383,31.236626,-26.766104,-21.525955,-9.883289,6.352109,13.056788,46.884212,-22.653246,7.4765553,18.760859,16.600494,3.728136,-12.918968
100,0.9843538403511047,-25.032323837280273,81.09246826171875,0.9804622474329154,9.397800766289096,-91.537751851247,-6.451145,4.0588775,4.154612,48.69992,-9.394011,-8.633801,-28.319443,1.5009453,-8.180105,34.355446,-0.6499459,13.617624,-7.9663634,1.3916196,2.2953753,3.9782383,31.025808,-26.672358,-22.969036,-9.973368,6.4645677,12.834763,47.095245,-22.626108,7.402532,18.51808,16.417196,3.7065415,-12.769252
101,0.8725535869598389,-25.725048065185547,80.72772979736328,1.0707511739400914,9.157719675161854,-91.92388738618624,-7.2436357,4.0278416,3.621752,52.34901,-10.905473,-8.22464,-27.13413,1.85918,-8.0107,33.73164,-1.1200438,11.352728,-7.5894284,1.4360895,2.2318864,4.528296,30.827589,-26.608736,-24.423588,-10.079543,6.5512795,12.64539,47.184883,-22.636148,7.4028864,18.331873,16.175364,3.721483,-12.693637
102,0.7587671279907227,-26.40083122253418,80.29856872558594,1.1300537529420662,8.963980261400783,-92.3270195062814,-8.164397,4.1048107,3.202945,56.181477,-12.441346,-7.6652246,-26.304554,2.2932606,-7.686756,33.858074,-1.9287653,8.192436,-7.187349,1.5127132,2.1496646,5.0681005,30.642307,-26.567316,-25.885153,-10.179755,6.6286926,12.48743,47.161064,-22.685595,7.47944,18.19702,15.845465,3.7704525,-12.678421
103,0.6387267112731934,-27.052412033081055,79.8236083984375,1.1553509349521727,8.804528783966237,-92.73402857430531,-9.17377,4.2850246,2.8419018,60.087036,-13.941347,-7.0684514,-25.692076,2.7619581,-7.356618,34.42814,-3.1950207,4.819647,-6.7876983,1.621558,2.0796592,5.594929,30.468346,-26.520666,-27.343594,-10.248151,6.699541,12.344095,47.014248,-22.769222,7.6117253,18.106401,15.500812,3.8193367,-12.69031
104,0.5343640446662903,-27.711326599121094,79.27133178710938,1.142958480628468,8.667233298284957,-93.13198618673133,-10.241893,4.5660276,2.4889839,63.976337,-15.351541,-6.545921,-25.137487,3.221645,-7.140844,35.097492,-5.0508666,1.9324896,-6.416012,1.7634265,2.0521095,6.100584,30.303164,-26.443663,-28.78382,-10.260126,6.766548,12.198212,46.73464,-22.876738,7.7794347,18.053638,15.212813,3.833385,-12.696828
105,0.42803478240966797,-28.350025177001953,78.66423034667969,1.109124647159812,8.544831507368503,-93.50994381135592,-11.345133,4.999551,2.214769,67.871216,-16.641657,-6.110294,-24.556398,3.6338751,-7.0376654,35.771553,-7.7934923,-0.2867832,-6.076292,1.9234996,2.055497,6.570723,30.14889,-26.365677,-30.217981,-10.268807,6.8289356,12.089582,46.34538,-23.005241,7.9815273,18.037743,14.964042,3.8035924,-12.672116
106,0.32328155636787415,-28.954458236694336,78.0037841796875,1.0542388575201045,8.444125887256869,-93.87665637998089,-12.504245,5.5811663,2.007622,71.81452,-17.85427,-5.6933393,-24.033428,4.0457234,-6.944091,36.604134,-11.265276,-2.1933863,-5.753138,2.1008778,2.0786452,7.008039,30.006287,-26.29197,-31.643314,-10.268467,6.885674,12.012553,45.842663,-23.15329,8.227271,18.063152,14.726659,3.7480052,-12.639546
107,0.2184949517250061,-29.516796112060547,77.29649353027344,0.9500982325844325,8.375359504479185,-94.25118077030959,-13.755863,6.2145257,1.7061199,75.74238,-19.040424,-5.2949796,-23.644917,4.5206304,-6.8422046,37.59529,-14.923867,-3.8926237,-5.438657,2.3198125,2.1518846,7.432309,29.86737,-26.16335,-33.030334,-10.142638,6.9391403,11.881947,45.17691,-23.311012,8.508203,18.13158,14.555732,3.6727154,-12.640664
108,0.11910732090473175,-30.03854751586914,76.55865478515625,0.7718786355400764,8.34827635186323,-94.65229119440308,-15.139303,6.7818155,1.1595296,79.59007,-20.246302,-4.926555,-23.46901,5.105789,-6.731942,38.757442,-18.237692,-5.489773,-5.125252,2.6023192,2.3042266,7.8570094,29.719381,-25.921999,-34.339725,-9.774888,6.9909563,11.610872,44.2986,-23.464682,8.817028,18.245857,14.505244,3.5835807,-12.717278
109,0.02980543114244938,-30.537446975708008,75.7929458618164,0.4902221130980258,8.33222680659793,-95.07098284520613,-16.65428,7.2640038,0.3088582,83.421844,-21.515993,-4.577964,-23.486616,5.810765,-6.6658077,40.11734,-21.225487,-7.07146,-4.8245583,2.978507,2.5941553,8.242039,29.557508,-25.54785,-35.634052,-9.058459,7.073618,11.130111,43.189964,-23.599447,9.116872,18.411207,14.628683,3.4532318,-12.812887
110,-0.06669607013463974,-30.99598503112793,75.02218627929688,0.12602809715025756,8.332112666616128,-95.50227235873656,-18.2833,7.6939454,-0.75349647,87.254005,-22.815933,-4.25891,-23.658894,6.587022,-6.639034,41.66182,-24.138298,-8.557252,-4.5309644,3.4301832,2.9869485,8.5818405,29.380789,-25.081404,-36.898117,-8.077963,7.1682386,10.498639,41.884365,-23.71153,9.413691,18.622206,14.879148,3.286749,-12.928055
111,-0.17914608120918274,-31.422481536865234,74.2818374633789,-0.2700458671991577,8.41105319791251,-95.97199115531433,-20.04042,8.022119,-1.9413385,90.9416,-24.072702,-4.0175366,-24.03883,7.385883,-6.589571,43.353508,-26.78964,-9.810938,-4.2123055,3.905669,3.3708923,8.937659,29.177979,-24.556847,-37.970943,-7.0049906,7.200904,9.824227,40.410255,-23.8083,9.763591,18.862553,15.162459,3.1385279,-13.189998
112,-0.2839038372039795,-31.82121467590332,73.57196044921875,-0.6502341078234823,8.632048097140416,-96.5077365713326,-21.947208,8.208231,-3.167174,94.343636,-25.21104,-3.8976843,-24.692339,8.161783,-6.474715,45.167835,-28.980146,-10.704429,-3.83847,4.354923,3.6327827,9.369863,28.93074,-24.005882,-38.685154,-6.010225,7.105414,9.216668,38.79143,-23.906332,10.22824,19.118462,15.388372,3.0627983,-13.726709
113,-0.3984445631504059,-32.20218276977539,72.89781188964844,-1.0592265376618184,9.096006588608972,-97.1447810016308,-24.15218,8.252455,-4.509544,97.509995,-26.222593,-3.9529035,-25.865309,8.953696,-6.353344,47.274235,-30.530376,-11.1314,-3.3743236,4.8178954,3.6938002,9.873045,28.616035,-23.379251,-39.05802,-5.045082,6.7650294,8.547554,36.918953,-24.018387,10.902109,19.533207,15.631879,3.101046,-14.722578
114,-0.5003352165222168,-32.5925407409668,72.2744140625,-1.5113788550997198,9.738913980783863,-97.86425771511955,-26.594223,8.153981,-5.9705706,100.494865,-27.141344,-4.1501675,-27.458273,9.747179,-6.2642703,49.665936,-31.59517,-11.216358,-2.8581877,5.311848,3.6254668,10.423926,28.226145,-22.663414,-39.142544,-4.050945,6.2465444,7.812483,34.81192,-24.1415,11.737717,20.060236,15.924531,3.2117577,-16.061401
115,-0.5690573453903198,-33.0045051574707,71.70198822021484,-1.9087352401359623,10.378509735567414,-98.60827374847969,-28.98447,7.8977456,-7.346056,103.15717,-27.94876,-4.3933554,-29.013744,10.434255,-6.132038,52.010654,-32.446873,-11.15551,-2.3609583,5.7465134,3.5417383,11.042231,27.76914,-21.963484,-38.822716,-3.1771877,5.774373,7.303299,32.692802,-24.262793,12.583287,20.40339,16.101452,3.332869,-17.418467
116,-0.634682834148407,-33.4642333984375,71.21722412109375,-2.1441830726499833,10.835814589907452,-99.31297923482705,-31.043072,7.496613,-8.436693,105.35422,-28.623055,-4.5795755,-30.06782,10.924351,-5.872977,53.937885,-33.3517,-11.105161,-1.939136,6.026023,3.5588384,11.727023,27.261105,-21.410677,-37.98175,-2.5672982,5.582973,7.3062224,30.79267,-24.367828,13.275523,20.27438,15.982088,3.412159,-18.466454
117,-0.680488646030426,-33.95862579345703,70.81443786621094,-2.146469918334722,11.058897805568169,-99.99097408677741,-32.69481,6.9189615,-9.17741,107.0517,-29.126476,-4.679056,-30.50652,11.185323,-5.4271708,55.385067,-34.388092,-11.050787,-1.5834008,6.062387,3.7275734,12.523005,26.678356,-21.011318,-36.3669,-2.2934172,5.559315,7.851261,29.140488,-24.443256,13.775149,19.660252,15.336233,3.4643888,-19.20375
118,-0.7313714623451233,-34.49531936645508,70.50921630859375,-1.9813751855363935,11.148002680481742,-100.6628343316711,-34.1021,6.201783,-9.677242,108.32684,-29.470486,-4.7383842,-30.565979,11.290894,-4.8622713,56.511734,-35.401604,-10.913436,-1.247457,5.925303,3.9743211,13.379267,26.011108,-20.739197,-34.08477,-2.262555,5.6433053,8.792042,27.63828,-24.488373,14.154685,18.705141,14.306599,3.5182016,-19.774082
119,-0.8091074228286743,-35.08005142211914,70.3065414428711,-1.7448830131051907,11.153444577846034,-101.27477975644094,-35.34993,5.4725733,-10.006423,109.20022,-29.703856,-4.765871,-30.31026,11.309913,-4.278137,57.276787,-36.300243,-10.740537,-0.9405197,5.747805,4.2349124,14.179061,25.32544,-20.661842,-31.581284,-2.3789587,6.1473627,10.160995,26.315268,-24.520947,14.423144,17.362455,13.267604,3.5344365,-20.069838
120,-0.8792605400085449,-35.691158294677734,70.21835327148438,-1.533931242223599,11.123534364879161,-101.77352276981266,-36.51983,4.8531,-10.237281,109.692,-29.877684,-4.770574,-29.809546,11.299414,-3.764625,57.64172,-36.99171,-10.580109,-0.67864627,5.654653,4.4563046,14.833448,24.735014,-20.831604,-29.34088,-2.586228,7.380848,12.024389,25.206728,-24.559856,14.589311,15.558854,12.599653,3.465975,-19.98072
121,-0.9552711844444275,-36.322425842285156,70.21841430664062,-1.3685998953103722,11.024757690113518,-102.10653913492865,-37.608227,4.369955,-10.394076,109.78766,-29.994705,-4.739177,-28.996952,11.234592,-3.3642704,57.54213,-37.465706,-10.44288,-0.52167135,5.6754794,4.688174,15.309736,24.341728,-21.34983,-27.49567,-2.9962318,9.965195,14.931443,24.364199,-24.61135,14.594169,13.112878,12.494123,3.241013,-19.339527
122,-1.0520786046981812,-36.97329330444336,70.29918670654297,-1.1972929231821532,10.846620753840382,-102.31580281026281,-38.58123,3.96257,-10.436899,109.47988,-30.032879,-4.672718,-27.864033,11.0930605,-3.0177367,57.022568,-37.770668,-10.319801,-0.43745917,5.7157636,4.955524,15.692188,24.167528,-22.148468,-25.853815,-3.829616,13.516631,18.797276,23.784758,-24.664734,14.445619,10.065705,12.733698,2.9042754,-18.243746
123,-1.1492812633514404,-37.62047576904297,70.46373748779297,-1.0115272237911763,10.670614615309837,-102.4898769099437,-39.470905,3.623181,-10.340626,108.79666,-30.001898,-4.5988975,-26.579853,10.921965,-2.6541822,56.216133,-37.89415,-10.213043,-0.31689033,5.714814,5.1679053,16.085184,24.194351,-23.013752,-24.42005,-5.049634,16.836565,22.684381,23.396107,-24.718798,14.26484,6.696751,13.079878,2.5813746,-16.983593
124,-1.2644455432891846,-38.31199264526367,70.69041442871094,-0.803352091637879,10.578921478507988,-102.71695368814358,-40.308804,3.3453968,-10.083136,107.764786,-29.914902,-4.5472565,-25.312925,10.764939,-2.1999674,55.249523,-37.825256,-10.112422,-0.06904474,5.6274858,5.232045,16.649218,24.383512,-23.709906,-23.237148,-6.3250246,18.790691,25.506433,23.099836,-24.784296,14.192693,3.3041677,13.288547,2.3868675,-15.85552
125,-1.398491621017456,-39.046844482421875,70.96780395507812,-0.5722832521658539,10.617984827106305,-103.0085282934753,-41.14448,3.1543577,-9.6342125,106.376396,-29.791231,-4.5304503,-24.111279,10.626601,-1.6364554,54.09419,-37.57263,-10.0053835,0.31200883,5.455948,5.0795503,17.454338,24.72996,-24.183855,-22.359459,-7.5313835,18.989464,26.82887,22.872217,-24.88784,14.301668,-0.13578923,13.389268,2.357784,-14.915174
126,-1.5516012907028198,-39.821205139160156,71.30559539794922,-0.3215864004244028,10.736912887188385,-103.32109691056068,-41.934216,3.0473542,-9.010885,104.61815,-29.627077,-4.5375876,-22.891201,10.475274,-0.99838895,52.70387,-37.141594,-9.887756,0.7534398,5.2260647,4.7760835,18.452562,25.236774,-24.528696,-21.78478,-8.697339,18.117971,27.173962,22.75089,-25.043112,14.532654,-3.7499056,13.485191,2.429916,-14.018346
127,-1.7280668020248413,-40.5943717956543,71.69883728027344,-0.04880386784288375,10.87214079081365,-103.65927105364467,-42.57193,2.978749,-8.266788,102.50936,-29.399872,-4.5596075,-21.626337,10.298165,-0.29535615,51.178467,-36.503124,-9.751632,1.236725,4.938854,4.425436,19.630495,25.862196,-24.731373,-21.471601,-9.59602,16.72776,26.817394,22.725983,-25.237465,14.819245,-7.384947,13.432639,2.5515497,-13.163258
128,-1.9106954336166382,-41.38850784301758,72.14697265625,0.24826344648751203,10.960525884277489,-104.02784391195891,-42.95565,2.9006455,-7.45851,100.06711,-29.085556,-4.585206,-20.289839,10.082679,0.46328887,49.62189,-35.631287,-9.596667,1.7470282,4.5974126,4.124549,20.951406,26.537434,-24.780611,-21.336292,-10.006482,15.351566,26.068258,22.768196,-25.446186,15.097682,-10.857652,13.081392,2.6649923,-12.348551
129,-2.111426830291748,-42.231658935546875,72.64811706542969,0.586631248115682,10.987009826462614,-104.44791804340379,-43.040344,2.805354,-6.5558453,97.25197,-28.677883,-4.5948997,-18.82495,9.81902,1.3304085,47.977802,-34.52373,-9.422839,2.3225298,4.1829824,3.8758812,22.411543,27.210524,-24.628979,-21.31619,-9.769598,13.8516,24.651281,22.883678,-25.651556,15.352763,-14.130501,12.250566,2.7843194,-11.574776
130,-2.3158583641052246,-43.10992431640625,73.17762756347656,0.9597355953357729,10.986724228670306,-104.90901034672926,-42.87882,2.7095249,-5.543219,94.06682,-28.19652,-4.5975714,-17.27615,9.511793,2.2868965,46.225136,-33.196186,-9.226875,2.9633732,3.7060719,3.6253016,23.981169,27.865505,-24.311247,-21.390974,-9.077717,12.020483,22.552294,23.072496,-25.855576,15.61442,-17.26862,11.053116,2.916709,-10.838109
131,-2.540797710418701,-43.97983932495117,73.74772644042969,1.3323039649294557,10.970755713176883,-105.3693266084529,-42.52333,2.6020558,-4.512634,90.59094,-27.653053,-4.6310415,-15.761005,9.174231,3.2186446,44.525894,-31.653793,-9.012007,3.6053848,3.2203693,3.3824291,25.563309,28.489172,-23.948553,-21.526836,-8.179404,10.281947,20.470255,23.303118,-26.0627,15.879875,-20.249779,9.780561,3.0008948,-10.13435
132,-2.778593063354492,-44.861942291259766,74.3421401977539,1.6675961078687624,10.94846972057079,-105.78716308901375,-42.027645,2.4741325,-3.5524275,86.895065,-27.05562,-4.7289805,-14.385289,8.826078,4.01618,43.03663,-29.894281,-8.787238,4.190283,2.785416,3.154778,27.049154,29.070585,-23.674797,-21.686022,-7.2470737,9.089145,19.067585,23.545399,-26.278688,16.138432,-23.05002,8.725676,2.984389,-9.4618225
133,-3.0234298706054688,-45.764312744140625,74.955322265625,1.953359859689159,10.91288174430632,-106.15426292092691,-41.3799,2.3293936,-2.6777027,82.94395,-26.375738,-4.928831,-13.116231,8.478262,4.665369,41.724884,-27.8393,-8.57173,4.71785,2.425486,2.941151,28.389496,29.606703,-23.556725,-21.858475,-6.1103673,8.683564,18.54971,23.793669,-26.508814,16.388903,-25.675463,7.9609847,2.8593585,-8.802236
134,-3.264874219894409,-46.66333770751953,75.57246398925781,2.2079470864343422,10.860764252770975,-106.4912156134841,-40.560192,2.166036,-1.8496062,78.71198,-25.618614,-5.201107,-11.9164915,8.127363,5.221276,40.544365,-25.522156,-8.359402,5.2207065,2.115929,2.7374177,29.622686,30.094358,-23.532312,-22.045567,-4.7049193,8.796244,18.531696,24.065788,-26.754345,16.624958,-28.13995,7.3349996,2.6590638,-8.163333
135,-3.499145030975342,-47.57455062866211,76.18293762207031,2.441207375358004,10.806224403707203,-106.80190517434353,-39.60727,1.9712614,-1.0730168,74.263306,-24.828167,-5.47907,-10.862776,7.772829,5.6867976,39.59786,-23.0879,-8.118231,5.6860833,1.8448803,2.5461066,30.776987,30.523027,-23.535845,-22.22748,-3.3318248,9.13515,18.768724,24.357502,-27.011297,16.837553,-30.424435,6.8051815,2.3980968,-7.586251
136,-3.73988676071167,-48.468772888183594,76.7763900756836,2.6637822097818926,10.763292178746251,-107.09020706128541,-38.562225,1.7329721,-0.35058177,69.65912,-24.048128,-5.6964626,-10.028856,7.41512,6.0678854,38.985836,-20.679806,-7.8111124,6.1023164,1.59792,2.3689687,31.877766,30.877682,-23.501394,-22.37979,-2.2954562,9.397057,19.03097,24.66349,-27.273542,17.01768,-32.50752,6.326127,2.0907705,-7.1108456
137,-3.9571638107299805,-49.35882568359375,77.34752655029297,2.878997088655318,10.744462434039818,-107.35615731537297,-37.420803,1.456127,0.34490827,64.814674,-23.278036,-5.800264,-9.44238,7.063912,6.3672237,38.709126,-18.191612,-7.4760437,6.46693,1.3732141,2.1976705,32.925873,31.140554,-23.427534,-22.481012,-1.6864691,9.551272,19.368229,24.956919,-27.540333,17.16526,-34.352375,5.841273,1.693941,-6.725039
138,-4.175750255584717,-50.24653625488281,77.88212585449219,3.076141384315895,10.737355035809667,-107.59991593710227,-36.15888,1.1464795,1.0025079,59.70731,-22.490883,-5.838293,-9.0358305,6.730296,6.591153,38.690613,-15.578858,-7.089301,6.781827,1.1848115,2.0331624,33.904995,31.307028,-23.34349,-22.539745,-1.3337883,9.746172,19.862598,25.229736,-27.813763,17.29342,-35.96598,5.3880177,1.2200754,-6.4154572
139,-4.4190521240234375,-51.161556243896484,78.37385559082031,3.2504358913752616,10.719390406353671,-107.82653601097111,-34.786182,0.79373825,1.5644695,54.475754,-21.681995,-5.893257,-8.736533,6.417462,6.7591357,38.903934,-13.077159,-6.5278015,7.0422597,1.0361031,1.8925933,34.821445,31.387327,-23.225775,-22.580902,-1.1500554,9.934067,20.345253,25.51014,-28.086578,17.415516,-37.39671,5.060973,0.76695144,-6.220693
140,-4.642112731933594,-52.05875778198242,78.81961059570312,3.3929234208862473,10.667776162729908,-108.041717689381,-33.316456,0.39690524,1.9664491,49.258442,-20.846016,-6.0449934,-8.482022,6.136493,6.889729,39.339527,-10.934845,-5.6901135,7.2448196,0.92904174,1.7933698,35.689476,31.403421,-23.044039,-22.640186,-1.0505472,10.06659,20.648489,25.82332,-28.347963,17.544357,-38.684643,4.9502077,0.4327938,-6.174776
141,-4.869034290313721,-52.94173812866211,79.20673370361328,3.4956027545668853,10.578561163812765,-108.24485673325353,-31.686472,-0.058748893,2.1578846,43.86709,-19.932869,-6.3199825,-8.261015,5.9230566,7.031403,39.958675,-9.184826,-4.4526615,7.395032,0.86386657,1.7424589,36.528706,31.365225,-22.772707,-22.731188,-1.0280844,10.118881,20.730364,26.171457,-28.587975,17.68975,-39.835983,5.126627,0.25773543,-6.3361473
142,-5.105191230773926,-53.8278923034668,79.53447723388672,3.5458087103112326,10.458557588968823,-108.44056158994793,-29.884954,-0.5294291,2.1627572,38.235886,-18.930344,-6.666161,-8.096881,5.801873,7.16293,40.77587,-7.7202067,-2.9013035,7.5010147,0.8526113,1.7325897,37.341446,31.274744,-22.428263,-22.855898,-1.1253145,10.119093,20.682299,26.536797,-28.803644,17.844725,-40.82643,5.521391,0.18442985,-6.665212
143,-5.355515003204346,-54.7049446105957,79.79088592529297,3.527808622735635,10.301919213322883,-108.64141816240367,-28.018507,-0.9333642,2.0375376,32.72234,-17.896147,-7.0532103,-7.9976625,5.7562237,7.1826444,41.884727,-6.5759425,-1.2795118,7.5633364,0.9164733,1.7600063,38.109875,31.149345,-22.044355,-23.025549,-1.3395064,10.099039,20.537624,26.918991,-28.993923,17.994743,-41.653713,6.0181193,0.16423808,-7.050259
144,-5.598454475402832,-55.582969665527344,79.9835205078125,3.4367422173008024,10.106081769743959,-108.85558955616564,-26.22605,-1.2129352,1.8572105,27.746511,-16.914133,-7.463124,-7.982412,5.7406173,6.9821134,43.389122,-5.7711,0.15369509,7.581641,1.0647333,1.8203354,38.8255,31.016806,-21.652912,-23.264957,-1.6693274,10.091,20.33107,27.326801,-29.15698,18.121244,-42.323708,6.5003085,0.15047762,-7.380322
145,-5.8606486320495605,-56.44527816772461,80.09363555908203,3.2584514031644733,9.86488862300195,-109.08417516587636,-24.51467,-1.3519138,1.610909,23.33826,-15.968628,-7.946051,-8.065219,5.7121663,6.460968,45.363327,-5.3108063,1.3765024,7.558462,1.3085941,1.9129167,39.51892,30.898573,-21.249308,-23.608404,-2.1787815,10.0964775,20.05499,27.783882,-29.288021,18.21511,-42.83262,7.000534,0.12852055,-7.6461887
146,-6.121556282043457,-57.30498504638672,80.119873046875,2.9923471925474767,9.582292250544041,-109.3212813885873,-22.849241,-1.3749508,1.2825924,19.34285,-15.046105,-8.510437,-8.25561,5.6739473,5.6789546,47.776524,-5.1777663,2.4644394,7.5007043,1.6430717,2.0403862,40.198257,30.802017,-20.820026,-24.06077,-2.8565433,10.104017,19.701511,28.291124,-29.382858,18.27886,-43.189255,7.560126,0.12302699,-7.89941
147,-6.377249240875244,-58.16012191772461,80.07443237304688,2.6923674914435467,9.280498923743336,-109.55408458063091,-21.342808,-1.335565,0.95573455,15.965496,-14.259225,-9.067298,-8.573497,5.5982704,4.7767735,50.578033,-5.3569036,3.313547,7.4020677,2.0131998,2.1982565,40.81746,30.734173,-20.382175,-24.584183,-3.589068,10.124804,19.305325,28.814081,-29.440193,18.31382,-43.410564,8.079876,0.14938208,-8.121075
148,-6.630005836486816,-58.9857177734375,79.95881652832031,2.438122659672109,8.986575830280817,-109.76457144873673,-20.110567,-1.3162156,0.71421,13.415056,-13.728755,-9.51297,-9.036711,5.4458036,3.9056237,53.7085,-5.8412995,3.8469386,7.2825904,2.3430533,2.3730414,41.270264,30.709923,-20.00714,-25.093845,-4.2649827,10.167423,18.916979,29.349007,-29.44793,18.29149,-43.521423,8.457875,0.22458453,-8.2898245
149,-6.880882263183594,-59.783817291259766,79.78192901611328,2.288092132558812,8.717548886559788,-109.94213035663486,-19.257555,-1.3712515,0.61383015,11.912198,-13.647965,-9.763813,-9.680352,5.110181,3.0343413,57.268356,-6.760488,3.9498756,7.0727506,2.567027,2.5699053,41.64417,30.709492,-19.598516,-25.658752,-4.88318,10.234372,18.518097,29.839293,-29.43039,18.271803,-43.498665,8.661651,0.36505282,-8.404539
150,-7.1226606369018555,-60.56322479248047,79.54329681396484,2.245569658568965,8.467321872675225,-110.08524226853795,-18.759289,-1.5106813,0.61041033,11.390065,-13.953872,-9.874374,-10.483422,4.5527425,2.1450586,61.255543,-8.093023,3.6987236,6.770484,2.6686027,2.786711,41.979893,30.750252,-19.137403,-26.309284,-5.498366,10.3217125,18.090967,30.277916,-29.36468,18.266798,-43.31334,8.744407,0.5588778,-8.474611
151,-7.373682498931885,-61.33846664428711,79.2283935546875,2.30725255015723,8.228158367060237,-110.19225829108224,-18.536907,-1.7468228,0.6341036,11.632779,-14.378083,-9.940532,-11.38259,3.8761628,1.400161,65.458496,-9.601558,3.3291667,6.42124,2.654293,3.0159838,42.198788,30.846006,-18.702484,-26.969261,-6.06455,10.424117,17.64502,30.694359,-29.23524,18.233284,-42.988544,8.749201,0.77791154,-8.509144
152,-7.635951042175293,-62.10199737548828,78.84536743164062,2.458399769999527,7.990736008830157,-110.26344087726436,-18.487709,-2.082253,0.6153834,12.376202,-14.62605,-10.061296,-12.322655,3.2171402,0.93357825,69.6723,-11.043533,3.0843017,6.033066,2.5405233,3.263734,42.289753,30.987474,-18.304613,-27.615404,-6.5256495,10.536057,17.161478,31.103205,-29.060434,18.148981,-42.568863,8.729199,0.9928291,-8.519539
153,-7.909734725952148,-62.85357666015625,78.39305114746094,2.6699257599618518,7.73437455684642,-110.30770492904018,-18.509657,-2.5113454,0.4830904,13.455889,-14.388281,-10.476792,-13.272054,2.6682832,0.76434696,73.898125,-12.384052,3.0210862,5.608115,2.35737,3.5371184,42.276527,31.18073,-17.93397,-28.272493,-6.8792114,10.662151,16.593288,31.515785,-28.844017,18.01111,-42.064964,8.678733,1.2259111,-8.484412
154,-8.183176040649414,-63.60340118408203,77.8764419555664,2.947475271294862,7.466425423212308,-110.32710714987554,-18.659758,-3.03583,0.29440662,15.000553,-13.882529,-11.076608,-14.252705,2.1822286,0.81551224,78.21991,-13.743769,3.0322716,5.1456347,2.0980856,3.8326972,42.16462,31.428482,-17.584482,-28.951889,-7.1495023,10.802035,15.961277,31.929964,-28.585789,17.82686,-41.468037,8.579404,1.4822809,-8.406329
155,-8.393498420715332,-64.32006072998047,77.3386001586914,3.316031181762749,7.217457133082224,-110.31413344069703,-19.060844,-3.6511018,0.18086196,17.160244,-13.585061,-11.436661,-15.295982,1.7097857,1.0543151,82.566315,-15.1082,3.1123393,4.640555,1.7288182,4.1393943,41.938854,31.723946,-17.252638,-29.625319,-7.3270655,10.941937,15.348401,32.31087,-28.286972,17.613684,-40.75701,8.4608965,1.7069885,-8.336161
156,-8.6066312789917,-65.02098083496094,76.75501251220703,3.7844243241735764,7.015534418520217,-110.26397941388248,-19.838205,-4.3189583,0.27853814,20.094976,-13.956888,-11.1207485,-16.430262,1.2144566,1.4476802,86.860405,-16.457182,3.2495463,4.0882506,1.233708,4.4461927,41.582867,32.053123,-16.935791,-30.264778,-7.3999605,11.067565,14.836567,32.623936,-27.950397,17.390121,-39.9165,8.352625,1.8456438,-8.325215
157,-8.832663536071777,-65.71935272216797,76.1177978515625,4.363362943567322,6.8300515186851305,-110.17208276274317,-21.153233,-5.005682,0.6645051,24.244074,-15.240833,-9.725126,-17.623312,0.6982109,2.0026302,91.1755,-17.78183,3.4581804,3.4821925,0.595972,4.7816443,41.12828,32.403664,-16.619297,-30.897152,-7.3393545,11.13513,14.413821,32.8517,-27.585524,17.156998,-38.971844,8.300086,1.8910073,-8.375354
158,-9.038431167602539,-66.38378143310547,75.44950103759766,4.9589253639675785,6.6425354386655675,-110.06144165000057,-22.824816,-5.6437097,1.2151227,29.26807,-17.070023,-7.5910506,-18.835932,0.28819567,2.6768177,95.49925,-19.083488,3.7301497,2.8411527,-0.08086398,5.148498,40.57355,32.77113,-16.311096,-31.529156,-7.1552143,11.163446,14.044723,33.026253,-27.2002,16.90209,-37.93852,8.27504,1.8703448,-8.463671
159,-9.257546424865723,-67.00826263427734,74.73207092285156,5.489480952768863,6.513512289841794,-109.95127936313133,-24.519827,-6.1987786,1.7758881,34.248978,-19.049097,-5.3663015,-20.122023,0.05785454,3.4015462,99.657234,-20.37119,4.0329285,2.183799,-0.69907653,5.4865704,39.839806,33.154133,-16.046072,-32.08535,-6.8940406,11.232461,13.775855,33.17508,-26.792141,16.624756,-36.76263,8.19725,1.7809759,-8.6031475
160,-9.4873628616333,-67.60718536376953,73.98001861572266,5.938106323696517,6.516320874164926,-109.84381183745,-25.988607,-6.6899204,2.2319741,38.427624,-20.88455,-3.679706,-21.565048,0.010880046,4.151151,103.494644,-21.661444,4.34961,1.5146114,-1.2266772,5.724653,38.842896,33.55328,-15.861073,-32.482853,-6.5999403,11.423036,13.653145,33.316875,-26.349394,16.328491,-35.375652,7.984677,1.6205674,-8.806164
161,-9.72900390625,-68.21234893798828,73.25930786132812,6.364766743649938,6.711521301606262,-109.70202078005477,-27.318598,-7.1817875,2.584792,41.82337,-22.68068,-2.6704793,-23.267015,0.13956837,4.9899545,107.08307,-23.004816,4.704264,0.784059,-1.7243065,5.8327894,37.54048,33.978527,-15.735645,-32.721222,-6.333672,11.742778,13.710655,33.42318,-25.852518,15.999647,-33.723103,7.672465,1.2527966,-8.989281
162,-9.998137474060059,-68.81120300292969,72.6070785522461,6.80200355893125,7.0550649164762005,-109.5226115642144,-28.642359,-7.6678953,2.889693,44.880684,-24.607077,-1.988659,-25.172443,0.41480312,5.917167,110.49463,-24.387169,5.1112547,0.0028587359,-2.230684,5.840184,35.979046,34.43254,-15.665019,-32.837242,-6.057791,12.154482,13.918421,33.491882,-25.295801,15.633781,-31.840431,7.278682,0.72481734,-9.172442
163,-10.258891105651855,-69.39750671386719,72.02066040039062,7.20032097760034,7.465217630178272,-109.35625164812843,-29.80412,-8.071477,3.144565,47.529427,-26.495392,-1.5338237,-27.154495,0.7776098,6.817362,113.567406,-25.70294,5.5172663,-0.7427077,-2.687112,5.7674775,34.20397,34.897045,-15.708305,-32.794544,-5.669284,12.672284,14.222933,33.576447,-24.691973,15.254513,-29.796032,6.699844,0.31221092,-9.525363
164,-10.490004539489746,-69.97528839111328,71.4958267211914,7.506492087910188,7.859700802149597,-109.25766985877395,-30.643772,-8.329368,3.35325,49.672504,-28.156652,-1.213754,-29.09862,1.1601359,7.586855,116.12937,-26.83576,5.862333,-1.3721728,-3.0288255,5.6426525,32.242992,35.33895,-15.927768,-32.538353,-5.063271,13.312311,14.563666,33.73119,-24.06726,14.893778,-27.666304,5.8366914,0.296433,-10.216899
165,-10.732081413269043,-70.57888793945312,71.04584503173828,7.727064025516346,8.281689962805777,-109.2277796199847,-31.177296,-8.45651,3.5452797,51.2436,-29.552406,-1.0668902,-31.094841,1.5550537,8.274082,118.178375,-27.746658,6.169319,-1.8888422,-3.2227514,5.4110227,29.947605,35.731808,-16.436644,-31.846172,-4.137379,14.157671,14.980024,33.954144,-23.430126,14.547746,-25.291128,4.4566236,0.8186946,-11.332473
166,-11.04349136352539,-71.23344421386719,70.71063232421875,7.889559003571227,8.751815568608679,-109.24034861697255,-31.47493,-8.492775,3.7280562,52.313107,-30.774857,-1.1260015,-33.188473,1.9815983,8.925736,119.78878,-28.472399,6.4530053,-2.3357685,-3.304269,5.0837717,27.321962,36.058327,-17.188389,-30.78683,-2.9708405,15.182022,15.469,34.230038,-22.781328,14.204453,-22.69945,2.7027192,1.7401404,-12.748171
167,-11.409252166748047,-71.93479919433594,70.49264526367188,7.968186956682385,9.153160381589545,-109.31189763846233,-31.447542,-8.42052,3.8687863,52.959656,-31.827454,-1.2901675,-35.207993,2.4039862,9.44205,120.91031,-29.000185,6.6390114,-2.7074087,-3.313311,4.791255,24.647552,36.29847,-17.984793,-29.742952,-1.7192717,16.233192,15.901163,34.575966,-22.147993,13.906289,-20.239408,1.0430932,2.9084914,-14.333027
168,-11.808733940124512,-72.63912963867188,70.39617919921875,7.936109576345278,9.369186796821428,-109.46020230667425,-31.002277,-8.218769,3.9298708,53.256607,-32.709435,-1.4585521,-36.981544,2.774471,9.723837,121.48858,-29.321339,6.653068,-3.015536,-3.2886806,4.6628966,22.241869,36.438244,-18.600918,-29.11273,-0.5225894,17.149242,16.151022,34.998432,-21.578314,13.712398,-18.257195,-0.058748227,4.138447,-15.993972
169,-12.234668731689453,-73.34896087646484,70.41378021240234,7.736026289581451,9.300903812461232,-109.71727523902632,-30.013468,-7.814589,3.8763013,53.22064,-33.461334,-1.6327643,-38.419952,3.0888195,9.680543,121.45059,-29.383598,6.4337792,-3.2558603,-3.2119458,4.8059444,20.193233,36.460598,-18.959908,-29.029034,0.7752134,18.020418,16.165726,35.46637,-21.118782,13.721765,-16.811182,-0.58134854,5.5417447,-17.995644
170,-12.680625915527344,-74.0645980834961,70.53813934326172,7.399107345931704,9.030534016032627,-110.06307883666636,-28.56036,-7.241138,3.745599,52.814198,-34.07336,-1.852027,-39.626328,3.3538272,9.379311,120.84243,-29.214289,6.036744,-3.4681194,-3.0630682,5.127642,18.382938,36.360695,-19.142155,-29.287563,2.2066426,18.877792,16.002468,35.960613,-20.78975,13.91326,-15.72039,-0.68507785,7.138884,-20.331123
171,-13.134953498840332,-74.78352355957031,70.73792266845703,7.030647151416981,8.715589954614373,-110.43937251300277,-26.861946,-6.6325436,3.6001732,52.032322,-34.466858,-2.076995,-40.714024,3.5415967,8.956894,119.78449,-28.927143,5.562819,-3.714009,-2.8749452,5.456417,16.778173,36.162434,-19.177237,-29.761452,3.4284396,19.466818,15.733645,36.523346,-20.593594,14.14873,-14.987319,-0.22428678,8.568441,-22.524143
172,-13.613380432128906,-75.52385711669922,71.02067565917969,6.733181013092966,8.51557527217925,-110.790772568687,-25.140646,-6.12285,3.4901717,50.868614,-34.56227,-2.2735374,-41.79965,3.627835,8.55701,118.39824,-28.63063,5.1125946,-4.043196,-2.6869087,5.6251564,15.358755,35.91221,-19.088217,-30.34649,4.0773487,19.539684,15.456789,37.2172,-20.519741,14.279708,-14.63536,0.8927534,9.471864,-24.08458
173,-14.097004890441895,-76.28690338134766,71.37311553955078,6.5265106604939955,8.475183594938725,-111.1008225917589,-23.40688,-5.7415442,3.409436,49.21678,-34.36637,-2.438226,-42.932915,3.5836685,8.18857,116.6798,-28.368439,4.6788363,-4.460863,-2.5120323,5.5896673,14.137993,35.651215,-18.85441,-31.089346,3.897842,18.887037,15.224028,38.127686,-20.564945,14.24295,-14.822442,3.053232,9.673112,-24.815424
174,-14.571340560913086,-77.06971740722656,71.78007507324219,6.352842569628905,8.51072568584304,-111.40135772244201,-21.563412,-5.4113455,3.3289077,47.119267,-33.911037,-2.595021,-44.024414,3.4335358,7.7716494,114.57313,-28.096521,4.2227306,-4.9275846,-2.3303661,5.444046,13.130267,35.391106,-18.474874,-32.0495,3.112091,17.693794,14.991918,39.21827,-20.722652,14.115807,-15.506009,6.053193,9.396151,-24.970509
175,-15.049295425415039,-77.87954711914062,72.2485122680664,6.197668391032868,8.590294415862733,-111.71186141021833,-19.666212,-5.1109686,3.2587264,44.77918,-33.157913,-2.754565,-44.991787,3.231846,7.328987,112.11891,-27.782658,3.7951274,-5.419674,-2.134505,5.2300735,12.30899,35.13435,-17.997734,-33.142498,2.0688624,16.307533,14.714537,40.36673,-20.966276,13.951068,-16.399803,9.072289,8.9055395,-24.727226
176,-15.55349349975586,-78.70016479492188,72.77133178710938,6.049167635864234,8.681784846817976,-112.05151204017724,-17.772945,-4.8217306,3.2118912,42.401386,-32.067352,-2.9255834,-45.75893,3.0308952,6.888661,109.35927,-27.390247,3.4454548,-5.906165,-1.9204493,4.9878216,11.639569,34.877453,-17.479837,-34.274544,1.1169335,15.075403,14.364055,41.450603,-21.255775,13.795615,-17.211319,11.288547,8.446137,-24.298285
177,-16.062931060791016,-79.52671813964844,73.32508850097656,5.906135629899522,8.79987193316291,-112.42939879268309,-15.855218,-4.5482435,3.190426,39.904003,-30.599567,-3.0986438,-46.33209,2.8664105,6.475644,106.267166,-26.904684,3.222946,-6.374698,-1.6836334,4.699602,11.126945,34.62063,-16.918217,-35.462265,0.28916648,14.066657,13.889094,42.456226,-21.56779,13.634561,-17.893854,12.462608,8.002368,-23.612244
178,-16.576784133911133,-80.38418579101562,73.92263793945312,5.771953460078287,8.955011302348154,-112.83553145217518,-13.8983,-4.3025203,3.1892471,37.219357,-28.783768,-3.2776713,-46.73326,2.7086809,6.068231,102.82788,-26.353731,3.0916657,-6.8273206,-1.4294266,4.3543735,10.774058,34.36854,-16.299541,-36.737087,-0.58002585,13.1085415,13.316402,43.440037,-21.895084,13.440707,-18.580713,13.035522,7.480415,-22.60025
179,-17.11005210876465,-81.25419616699219,74.55015563964844,5.645455741588248,9.108536246963194,-113.26015551006041,-11.98601,-4.078028,3.2091053,34.58846,-26.690388,-3.4818945,-46.92305,2.5115561,5.6286707,99.09953,-25.751005,2.9729955,-7.252794,-1.173586,4.001139,10.5372305,34.123173,-15.668103,-38.02728,-1.441957,12.179984,12.7534895,44.3784,-22.221624,13.239132,-19.24713,13.201531,6.9711843,-21.504702
180,-17.651979446411133,-82.13087463378906,75.19403839111328,5.5285810885478694,9.221195329968086,-113.69290959285168,-10.204312,-3.864133,3.2469792,32.26009,-24.391926,-3.723801,-46.86313,2.2305844,5.1223464,95.13681,-25.110842,2.7958744,-7.6359477,-0.9369916,3.6867464,10.3608055,33.884094,-15.078099,-39.247063,-2.2419515,11.256262,12.307759,45.246883,-22.524595,13.055107,-19.865982,13.140594,6.567055,-20.565037
181,-18.19829750061035,-83.00703430175781,75.8470687866211,5.440256959288426,9.278755742483693,-114.14561940539102,-8.544792,-3.6788857,3.3223917,30.255753,-21.77228,-3.949403,-46.526665,1.8027637,4.519464,90.89948,-24.402887,2.5203612,-7.959493,-0.7463597,3.4220252,10.224526,33.654724,-14.558151,-40.36901,-2.9677885,10.29244,12.0347185,46.028904,-22.788208,12.890023,-20.423662,12.735195,6.3147044,-19.81085
182,-18.78356170654297,-83.88575744628906,76.49996185302734,5.378437634083631,9.302698753965691,-114.61976635674527,-6.9801993,-3.5248768,3.425452,28.477852,-18.846718,-4.1616063,-45.934586,1.28668,3.832306,86.3718,-23.633156,2.2027776,-8.222978,-0.5940498,3.1809983,10.143607,33.437714,-14.090132,-41.42885,-3.643872,9.310785,11.868357,46.73955,-23.007011,12.726934,-20.926126,11.930137,6.1433887,-19.125772
183,-19.388338088989258,-84.76093292236328,77.14521026611328,5.3167958946535245,9.30713987946654,-115.08801661686131,-5.5642877,-3.3654723,3.5021524,26.99166,-15.880131,-4.4606595,-45.12743,0.8118935,3.1041205,81.637215,-22.864054,1.9123896,-8.440663,-0.4497557,2.9548686,10.114834,33.22849,-13.656619,-42.43668,-4.269378,8.387455,11.736212,47.388596,-23.173395,12.570157,-21.369633,11.000503,5.980733,-18.527649
184,-19.99785614013672,-85.63878631591797,77.77037811279297,5.226240036864847,9.306296247549673,-115.52231145199869,-4.3398476,-3.163059,3.4912896,25.841476,-13.125732,-4.954294,-44.15281,0.49168453,2.3940356,76.7682,-22.147242,1.7015779,-8.62568,-0.27989107,2.7351425,10.128504,33.01829,-13.24401,-43.396145,-4.8431664,7.600245,11.566594,47.993614,-23.280333,12.419747,-21.75439,10.219049,5.762012,-18.034122
185,-20.614133834838867,-86.51422119140625,78.35891723632812,5.089611790834238,9.307660132239311,-115.90996252819565,-3.2767587,-2.9075804,3.353707,24.875778,-10.455721,-5.7902436,-42.99034,0.30423015,1.6733344,71.665924,-21.472376,1.544503,-8.784076,-0.068174995,2.5134654,10.190643,32.796734,-12.844123,-44.29699,-5.333975,6.9692936,11.319261,48.55147,-23.315237,12.278142,-22.050821,9.58023,5.4527483,-17.667551
186,-21.24413299560547,-87.38227081298828,78.91212463378906,4.926654588516384,9.301774160302474,-116.26579827996507,-2.3471239,-2.629913,3.1022038,24.097809,-7.7946663,-6.8945427,-41.630997,0.19432355,0.9449328,66.310234,-20.803118,1.4082493,-8.904333,0.16452342,2.2961712,10.290566,32.563496,-12.47417,-45.130592,-5.749361,6.4537406,11.04013,49.055088,-23.276207,12.140874,-22.267103,8.958444,5.0980077,-17.411486
187,-21.877729415893555,-88.25009155273438,79.41410827636719,4.762130152513656,9.277399412012276,-116.60325360151242,-1.5890969,-2.35082,2.7729304,23.766436,-5.467933,-8.037896,-40.14271,0.20601265,0.33339524,60.87647,-20.157068,1.3172268,-8.977333,0.3990171,2.0972066,10.4023,32.326164,-12.155591,-45.908493,-6.1466937,6.0402,10.789989,49.513027,-23.17778,12.00234,-22.454393,8.453648,4.7561955,-17.225615
188,-22.529394149780273,-89.11796569824219,79.85138702392578,4.619245250499447,9.222978040621975,-116.93625242404742,-1.0505478,-2.0833707,2.4323006,24.152695,-3.787367,-8.972349,-38.596325,0.37397647,-0.034219228,55.539093,-19.548729,1.293214,-8.997824,0.6181327,1.9319717,10.509045,32.096443,-11.902144,-46.649895,-6.585961,5.7147994,10.630361,49.93517,-23.04503,11.8575535,-22.672161,8.171539,4.484988,-17.069462
189,-23.16542625427246,-89.97209930419922,80.22962188720703,4.483857816938476,9.135050646291013,-117.25158289766352,-0.7623713,-1.80809,2.0644226,25.331638,-2.8583634,-9.637316,-36.95255,0.76589394,-0.03811971,50.150036,-18.937008,1.3589602,-8.982933,0.84104127,1.8030934,10.634868,31.87745,-11.708711,-47.370667,-7.091686,5.5046287,10.589977,50.33155,-22.89067,11.713689,-22.940727,8.177784,4.310399,-16.961512
190,-23.798076629638672,-90.83599090576172,80.53433990478516,4.351598145075816,9.017647500879114,-117.54360878615499,-0.6758569,-1.5301573,1.6678927,27.124275,-2.4793339,-10.1571865,-35.186058,1.2868865,0.25857192,44.640327,-18.307308,1.4500849,-8.941511,1.0689111,1.7060486,10.797547,31.66777,-11.558206,-48.072914,-7.631031,5.404621,10.636703,50.69821,-22.716642,11.573943,-23.238161,8.410253,4.199722,-16.914436
191,-24.416316986083984,-91.69084167480469,80.76878356933594,4.257858529069138,8.87050698964507,-117.83773738871966,-0.7222411,-1.2853057,1.3436189,29.419762,-2.4972894,-10.544127,-33.393764,1.7565353,0.6814076,39.31818,-17.723482,1.4900608,-8.858844,1.2598109,1.646233,10.9782295,31.473312,-11.443278,-48.7575,-8.177934,5.3520546,10.740715,51.025307,-22.534092,11.431482,-23.562113,8.78285,4.1216106,-16.879833
192,-25.047679901123047,-92.55329895019531,80.92304229736328,4.236062116914994,8.69485149665948,-118.16187609418218,-0.8449161,-1.0988525,1.1886722,32.13467,-2.7727695,-10.80768,-31.682203,2.047276,1.0247723,34.50987,-17.25487,1.4498537,-8.719978,1.3735027,1.6286801,11.16366,31.302946,-11.353726,-49.433086,-8.707589,5.284351,10.873506,51.301014,-22.358936,11.281208,-23.911701,9.213411,4.0448213,-16.810335
193,-25.65719985961914,-93.4090347290039,80.99762725830078,4.311325073741431,8.477878632160026,-118.52077265545572,-1.044741,-0.96555424,1.2834787,35.383316,-3.3717394,-10.888321,-30.0401,2.1546445,1.2642192,30.21056,-16.937202,1.3753061,-8.530715,1.3881962,1.6665275,11.37749,31.162477,-11.280642,-50.117847,-9.219104,5.19482,11.061486,51.53679,-22.200785,11.116142,-24.30327,9.729551,3.9534328,-16.69021
194,-26.25631332397461,-94.24976348876953,80.9951171875,4.466560106167819,8.222898755682522,-118.89996878778564,-1.3429662,-0.84987307,1.5550418,39.168537,-4.3360887,-10.774839,-28.428528,2.1649523,1.4754148,26.266617,-16.727625,1.3112607,-8.304935,1.3227612,1.7558063,11.634868,31.052027,-11.218754,-50.817215,-9.727466,5.1114025,11.311629,51.733013,-22.0615,10.947232,-24.736979,10.364567,3.8674073,-16.548376
195,-26.851055145263672,-95.06631469726562,80.92115783691406,4.662648646288587,7.959929483401361,-119.30334808495464,-1.7217636,-0.72982675,1.873099,43.256947,-5.4950743,-10.560485,-26.938618,2.124393,1.5835567,22.83541,-16.60051,1.2450492,-8.0336075,1.20822,1.8736384,11.9073105,30.971395,-11.165338,-51.51119,-10.228597,5.024999,11.564711,51.861652,-21.947296,10.791509,-25.180368,11.044118,3.8094904,-16.403952
196,-27.437681198120117,-95.87716674804688,80.77269744873047,4.847855900781528,7.722904411346376,-119.73782126177557,-2.1701698,-0.5996131,2.1174436,47.424644,-6.678553,-10.36048,-25.67628,2.0873356,1.5171188,20.1096,-16.544031,1.1452028,-7.7135873,1.0868298,1.992078,12.178987,30.929485,-11.110335,-52.186783,-10.723162,4.9254446,11.77101,51.895393,-21.884115,10.675416,-25.602858,11.704616,3.7999067,-16.283838
197,-28.017976760864258,-96.68416595458984,80.55340576171875,5.022668768074792,7.525345992976709,-120.22131217543807,-2.700437,-0.4936282,2.3024495,51.699116,-7.8882637,-10.211035,-24.687798,2.037962,1.1960759,18.189245,-16.655258,0.9995625,-7.3126016,0.9631259,2.1019197,12.431991,30.903479,-11.059244,-52.83919,-11.244312,4.809716,11.916319,51.833256,-21.845495,10.583519,-25.998728,12.333836,3.8671048,-16.166685
198,-28.58104705810547,-97.45834350585938,80.27165985107422,5.183647255046901,7.357666801312084,-120.75314633479594,-3.3220668,-0.39191058,2.4818358,56.191727,-9.213765,-10.068297,-23.937775,1.9922154,0.6718795,16.99456,-16.93083,0.8217692,-6.8335614,0.8422111,2.2043934,12.652351,30.897268,-11.033379,-53.442886,-11.778436,4.683026,12.0364485,51.685448,-21.839703,10.519059,-26.37027,12.970874,3.9900777,-16.059923
199,-29.138830184936523,-98.22002410888672,79.92704010009766,5.26520320349875,7.219986466011416,-121.31367569752878,-4.021708,-0.21718296,2.5998263,60.814285,-10.618919,-9.9429865,-23.429106,2.0484712,0.07730155,16.489178,-17.217052,0.593888,-6.30109,0.795915,2.3192275,12.872201,30.903366,-11.006041,-54.024734,-12.246698,4.558853,12.089467,51.437447,-21.85757,10.468639,-26.712585,13.573761,4.127026,-15.971452
200,-29.699769973754883,-98.9919662475586,79.52435302734375,5.208510822854678,7.109451432358352,-121.88091036203056,-4.7820206,0.10495147,2.5961146,65.47944,-12.061527,-9.840109,-23.159836,2.2924395,-0.45240918,16.628845,-17.356974,0.29130796,-5.7709365,0.8767107,2.4449136,13.11706,30.93998,-10.950837,-54.575817,-12.5746355,4.4459443,12.067071,51.054146,-21.946045,10.475583,-26.995037,14.132431,4.2259755,-15.950453
201,-30.228879928588867,-99.76573944091797,79.0511474609375,4.9833512218579905,7.020271056263133,-122.45463678774149,-5.5798764,0.61920196,2.4733672,70.21791,-13.559729,-9.751876,-23.062237,2.7499452,-0.9270802,17.336864,-17.189,-0.026678158,-5.224597,1.1169491,2.5631354,13.338484,30.995113,-10.919839,-55.050434,-12.739917,4.348021,11.969225,50.538265,-22.08942,10.546914,-27.187822,14.658707,4.265606,-16.009867
202,-30.767879486083984,-100.54295349121094,78.51776123046875,4.633145962146897,6.950084219348189,-123.04097952038786,-6.4105253,1.2565008,2.2522287,75.05771,-15.132287,-9.6855755,-23.16315,3.3555918,-1.4076501,18.658613,-16.834362,-0.3758324,-4.6555085,1.475482,2.6755598,13.548343,31.066069,-10.899694,-55.46638,-12.784904,4.258565,11.802455,49.901688,-22.28436,10.669875,-27.31276,15.158984,4.273567,-16.12785
203,-31.312095642089844,-101.22048950195312,77.9823226928711,4.21791199319615,6.896854499232121,-123.62535177293607,-7.282087,1.9120166,1.900691,79.90784,-16.736296,-9.664839,-23.588127,4.0489497,-1.840183,20.706438,-16.54555,-0.8869938,-4.0844316,1.8898234,2.8016198,13.744301,31.15036,-10.85733,-55.8209,-12.709026,4.181819,11.553428,49.145164,-22.525318,10.824469,-27.410673,15.583315,4.2744184,-16.285376
204,-31.878725051879883,-101.8858413696289,77.3949203491211,3.8046747062721162,6.858749026414095,-124.1916344278381,-8.206287,2.4717948,1.3949498,84.68107,-18.327232,-9.711817,-24.45499,4.7612734,-2.1696002,23.588968,-16.56587,-1.6911314,-3.531621,2.2905025,2.9640884,13.920637,31.244648,-10.761335,-56.106987,-12.511917,4.1207995,11.207717,48.271248,-22.802395,10.990431,-27.52251,15.879089,4.293644,-16.463118
205,-32.416770935058594,-102.53651428222656,76.74627685546875,3.4143314712705526,6.802069969863533,-124.72956061681226,-9.14731,2.9159696,0.74078107,89.46169,-19.907911,-9.838028,-25.959517,5.488304,-2.3395917,27.749569,-16.913052,-2.9499915,-3.0041888,2.6513796,3.2018263,14.034509,31.3578,-10.610006,-56.34435,-12.168962,4.0897264,10.764722,47.291027,-23.109947,11.16175,-27.673578,16.037443,4.3465047,-16.64248
206,-32.927467346191406,-103.15941619873047,76.0257339477539,3.066115501830991,6.725467853426333,-125.23650272511958,-10.077048,3.2268744,-0.017099645,94.25909,-21.50304,-10.024985,-27.91038,6.2215734,-2.394541,32.857418,-17.385456,-4.5192046,-2.5031643,2.9539573,3.5039067,14.105947,31.494867,-10.414823,-56.534782,-11.690184,4.0792375,10.231261,46.201443,-23.445938,11.352099,-27.841412,16.08216,4.4177394,-16.836771
207,-33.40373611450195,-103.7705307006836,75.24238586425781,2.7748313770317417,6.690371081480144,-125.71759653026785,-11.055454,3.3519387,-0.8534792,98.90566,-23.112043,-10.25224,-29.908339,6.926094,-2.424253,37.978462,-17.9742,-6.1043897,-2.0300074,3.1930587,3.809239,14.217677,31.63851,-10.170355,-56.63382,-11.123688,4.0569315,9.60334,44.976654,-23.804924,11.568235,-27.985237,16.01069,4.487063,-17.074997
208,-33.838226318359375,-104.35558319091797,74.4460678100586,2.516558596081988,6.768769378692951,-126.18918581058675,-12.169298,3.283018,-1.757636,103.24349,-24.732203,-10.500442,-31.624598,7.5791883,-2.5094373,42.326183,-18.764486,-7.447421,-1.575813,3.4033687,4.045983,14.439916,31.75706,-9.876066,-56.582794,-10.515945,3.9922137,8.872149,43.587704,-24.181421,11.813349,-28.063133,15.819451,4.534615,-17.385792
209,-34.313167572021484,-104.94219970703125,73.7013931274414,2.250270915619569,7.019518962833783,-126.67487527754265,-13.493796,2.9942324,-2.8120449,107.32751,-26.423027,-10.800599,-33.10969,8.20048,-2.6726594,45.89619,-19.951647,-8.542347,-1.1162791,3.6408138,4.1915274,14.732463,31.827368,-9.4949045,-56.37254,-9.822628,3.7738574,7.935397,41.96698,-24.577631,12.085033,-28.033028,15.510407,4.509401,-17.79921
210,-34.762874603271484,-105.54351806640625,73.02732849121094,1.9727753530476742,7.398913053419235,-127.16928094171688,-14.970358,2.518077,-3.985541,111.2378,-28.17579,-11.157488,-34.535233,8.80838,-2.8512719,49.139538,-21.49678,-9.531005,-0.6611627,3.9034111,4.2765,15.067272,31.844921,-9.039791,-56.012226,-9.035918,3.4467802,6.8237348,40.15116,-24.994587,12.380929,-27.934967,15.083048,4.439545,-18.294903
211,-35.213687896728516,-106.13267517089844,72.41830444335938,1.7119825427787505,7.82641778743874,-127.64639824985522,-16.504465,1.9556862,-5.155738,114.84529,-29.872442,-11.538813,-35.775917,9.374814,-3.0017166,52.000877,-23.160692,-10.384602,-0.23871587,4.1422815,4.306515,15.51231,31.80453,-8.605907,-55.46197,-8.248741,3.2198489,5.724474,38.277817,-25.421911,12.69371,-27.847145,14.528741,4.425212,-18.823315
212,-35.70428466796875,-106.71656036376953,71.86155700683594,1.4981387516072195,8.22141666020384,-128.07855946090538,-18.026472,1.419256,-6.2229156,118.0157,-31.37623,-11.907245,-36.705624,9.878268,-3.0947995,54.4025,-24.683943,-11.067501,0.13294344,4.307226,4.2868767,16.114777,31.700695,-8.308932,-54.67149,-7.5435696,3.312849,4.8183856,36.485287,-25.841354,13.011781,-27.836948,13.83641,4.567425,-19.32901
213,-36.220069885253906,-107.30220031738281,71.36380004882812,1.3241511769239858,8.627310344578225,-128.46009367087575,-19.623886,0.91509587,-7.259072,120.761055,-32.628876,-12.330109,-37.34181,10.334569,-3.155549,56.281723,-26.039232,-11.533645,0.4855594,4.373309,4.1476,16.860258,31.512886,-8.192137,-53.47819,-7.000662,3.6422105,3.8872807,34.755074,-26.24291,13.364401,-27.815569,12.8463745,5.0030293,-19.863272
214,-36.736793518066406,-107.90850830078125,70.94284057617188,1.173038750764379,9.066054501849422,-128.80543620339265,-21.332552,0.3992321,-8.312069,123.14087,-33.67801,-12.79444,-37.740173,10.757861,-3.2036827,57.699974,-27.349768,-11.812609,0.83220357,4.3785186,3.9064002,17.700865,31.237543,-8.217395,-51.931286,-6.5410137,4.1433883,2.9103034,33.039227,-26.624657,13.735504,-27.778421,11.612544,5.650076,-20.417984
215,-37.276405334472656,-108.5647201538086,70.63624572753906,1.0612562420411167,9.424472424671526,-129.11541864821675,-23.029871,-0.07887255,-9.268054,125.0882,-34.525806,-13.141933,-37.82144,11.1279,-3.2056577,58.735607,-28.571217,-11.98274,1.1338807,4.364546,3.7019691,18.618887,30.910368,-8.386824,-50.293457,-6.008856,5.0695653,2.3611255,31.422377,-26.983118,14.042002,-27.900896,10.442527,6.272499,-20.852287
216,-37.853275299072266,-109.24693298339844,70.4388198852539,1.0048354393228276,9.589096205147102,-129.3906490953346,-24.600595,-0.4616235,-10.020868,126.52795,-35.16852,-13.216353,-37.500908,11.42492,-3.1232789,59.462566,-29.656847,-12.121698,1.3600825,4.3700204,3.6726403,19.579466,30.589645,-8.716908,-48.81745,-5.26738,6.682038,2.7203546,30.000515,-27.311605,14.1940365,-28.36614,9.63959,6.623235,-21.039087
217,-38.445823669433594,-109.92724609375,70.33690643310547,1.0185014932535765,9.458942732656418,-129.5974838616934,-25.981901,-0.7423162,-10.572233,127.422226,-35.561703,-12.962307,-36.637104,11.619504,-2.9508243,59.872013,-30.638044,-12.235228,1.4628433,4.4086013,3.9195645,20.57604,30.321001,-9.279307,-47.53153,-4.1267405,9.384223,4.296509,28.813404,-27.594687,14.145326,-29.253569,9.33338,6.550932,-20.92742
218,-39.03312301635742,-110.61077117919922,70.32894134521484,1.0875707574551714,9.116426268498731,-129.74835016116603,-27.272358,-0.9414093,-10.984792,127.81219,-35.69998,-12.470865,-35.306534,11.730535,-2.7076812,59.92919,-31.523531,-12.292179,1.4954917,4.4508147,4.3471355,21.57893,30.115835,-10.075306,-46.28214,-2.8377461,12.974664,6.769488,27.81898,-27.824263,13.93561,-30.454832,9.343456,6.2084007,-20.594149
219,-39.61635971069336,-111.30535888671875,70.40606689453125,1.1850874087528682,8.72344764395189,-129.91341504781528,-28.5884,-1.0370095,-11.235258,127.74744,-35.654037,-11.805482,-33.752007,11.80988,-2.3885734,59.67532,-32.236122,-12.312308,1.5664432,4.4702334,4.8003526,22.538128,29.97554,-10.996191,-45.06074,-1.9197229,16.780626,9.725607,26.978153,-28.009426,13.61987,-31.861795,9.5095215,5.8024087,-20.113235
220,-40.20740509033203,-111.99952697753906,70.566650390625,1.2862350735927244,8.442562881789257,-130.16207418791294,-30.03823,-1.0068034,-11.294401,127.27347,-35.498486,-11.029882,-32.216988,11.908445,-1.9844018,59.15262,-32.70047,-12.314377,1.7719963,4.4409795,5.127689,23.4533,29.893387,-11.905712,-43.90482,-1.8056307,20.076294,12.814623,26.24789,-28.16966,13.265395,-33.37783,9.674686,5.5382323,-19.563244
221,-40.819183349609375,-112.70796203613281,70.8025131225586,1.403833709971055,8.305056641395845,-130.51847136021635,-31.670517,-0.8123967,-11.073498,126.369995,-35.268997,-10.084247,-30.732613,12.022549,-1.458742,58.358833,-32.928925,-12.304905,2.1200287,4.3410125,5.3094,24.353327,29.87835,-12.831673,-42.853703,-2.6836026,22.846655,16.461956,25.587893,-28.330177,12.881534,-35.03624,9.897823,5.4953046,-18.920502
222,-41.44217300415039,-113.40796661376953,71.1039047241211,1.5507159345168948,8.228669672640537,-130.94541993100526,-33.377533,-0.46649325,-10.572179,125.01692,-34.962402,-8.962934,-29.180841,12.117169,-0.8156062,57.286976,-32.95751,-12.273478,2.552121,4.180707,5.4236507,25.254202,29.933163,-13.8000345,-41.899204,-4.3832273,25.314621,20.817373,25.03196,-28.492975,12.450534,-36.884487,10.238265,5.5566926,-18.1679
223,-42.07883834838867,-114.11217498779297,71.46145629882812,1.7002860638864987,8.205851756884044,-131.42010668580025,-35.034462,-0.024359735,-9.901808,123.2564,-34.58762,-7.811401,-27.585072,12.198443,-0.10644939,55.978634,-32.744293,-12.212643,3.060516,3.983435,5.4668484,26.177797,30.030792,-14.660631,-41.03664,-6.5824904,27.12595,25.027733,24.623255,-28.642649,11.999342,-38.809544,10.536409,5.6286316,-17.38988
224,-42.724613189697266,-114.81405639648438,71.88008117675781,1.824312056199361,8.22984581579558,-131.91775439053248,-36.534645,0.45285502,-9.19011,121.13542,-34.136303,-6.7725587,-25.969774,12.275379,0.6139923,54.47347,-32.2478,-12.114921,3.6225255,3.778647,5.4344425,27.177294,30.125944,-15.247041,-40.282654,-8.802134,28.031088,28.100462,24.378946,-28.75848,11.573223,-40.682617,10.624805,5.6143446,-16.66825
225,-43.397254943847656,-115.52484893798828,72.35555267333984,1.9153197031940097,8.329336593722449,-132.44840611778042,-37.89942,0.98373854,-8.428812,118.627304,-33.59533,-5.8733077,-24.332605,12.352138,1.3599468,52.70177,-31.456158,-11.970148,4.2469587,3.5662127,5.2917566,28.32147,30.175385,-15.446419,-39.65662,-11.018577,27.817198,29.535017,24.299852,-28.826649,11.18765,-42.48875,10.388286,5.4858394,-16.014961
226,-44.08950424194336,-116.24474334716797,72.88438415527344,1.9923556696690985,8.499869017995142,-133.01721553310801,-39.136044,1.5818387,-7.545079,115.716866,-32.99392,-5.052964,-22.669178,12.409503,2.158279,50.684357,-30.398022,-11.785982,4.9133115,3.326859,5.0359483,29.582561,30.16528,-15.365946,-39.130116,-13.272569,26.755268,29.783022,24.3013,-28.842733,10.872692,-44.209435,9.917455,5.2925215,-15.39113
227,-44.80765914916992,-116.96914672851562,73.46063232421875,2.061578000013363,8.685287606016066,-133.59124170362415,-40.14752,2.1747735,-6.595858,112.46417,-32.36588,-4.3184395,-20.993189,12.431139,2.966893,48.571335,-29.092001,-11.579457,5.593736,3.0881674,4.745223,30.871529,30.124975,-15.170498,-38.70498,-15.198203,25.394173,29.277605,24.426395,-28.845655,10.568366,-45.878918,9.393018,5.051802,-14.787764
228,-45.54460525512695,-117.69171905517578,74.07351684570312,2.128427141606191,8.828916494694631,-134.13710513533903,-40.85307,2.6902425,-5.650164,108.92268,-31.734478,-3.6720505,-19.321247,12.409218,3.736952,46.511875,-27.55128,-11.362511,6.2153034,2.8676038,4.480711,32.118797,30.056139,-14.989038,-38.360806,-16.433187,24.249138,28.507555,24.589085,-28.849707,10.316386,-47.407738,8.971578,4.7860847,-14.202721
229,-46.2960319519043,-118.4073486328125,74.7073974609375,2.1780231178968252,8.914525498195708,-134.64917354089718,-41.23663,3.1406813,-4.7355757,105.077515,-31.086296,-3.0913954,-17.607632,12.361519,4.457023,44.444794,-25.718443,-11.159806,6.7897215,2.6841571,4.24405,33.301643,29.98513,-14.852472,-38.100853,-16.900805,23.363338,27.484173,24.808033,-28.855423,10.112003,-48.79101,8.686816,4.502568,-13.625386
230,-47.063262939453125,-119.1353759765625,75.35804748535156,2.21035510862544,8.973923848847061,-135.14198881765748,-41.344433,3.5435617,-3.8230717,100.90604,-30.4137,-2.587446,-15.86925,12.290612,5.1440606,42.33077,-23.610613,-10.952402,7.3467054,2.5255408,4.011341,34.471275,29.916145,-14.68579,-37.95306,-16.830702,22.49189,26.029984,25.127636,-28.858986,9.928487,-50.088043,8.463161,4.1904297,-13.060321
231,-47.838714599609375,-119.8689193725586,76.01602172851562,2.252574732676075,9.022326232436663,-135.61273866623213,-41.206413,3.8414407,-2.9112456,96.45012,-29.732964,-2.2029915,-14.211955,12.174342,5.7888618,40.338234,-21.344936,-10.683547,7.8762603,2.3636289,3.7744493,35.579292,29.86597,-14.549453,-37.850895,-16.331776,21.668678,24.427225,25.486963,-28.861855,9.788895,-51.253216,8.288835,3.8464093,-12.553628
232,-48.62720489501953,-120.60267639160156,76.6689453125,2.3312663616205187,9.074540278189781,-136.05924526538962,-40.856163,3.9830604,-2.0052478,91.738014,-29.05238,-1.9743757,-12.734738,11.994798,6.387604,38.626297,-19.031996,-10.296211,8.338373,2.179958,3.550241,36.618114,29.793526,-14.440276,-37.761795,-15.467403,20.94062,22.900541,25.83717,-28.88671,9.702874,-52.281864,8.16294,3.4656281,-12.133206
233,-49.426475524902344,-121.33357238769531,77.31159210205078,2.4484498680912945,9.13077606193804,-136.47797598854245,-40.28851,3.9801939,-1.1163876,86.70527,-28.37973,-1.8962582,-11.448585,11.771725,6.960968,37.191643,-16.554916,-9.869596,8.766402,1.9674525,3.3162959,37.53142,29.748,-14.439015,-37.640583,-14.094393,20.335333,21.52335,26.162022,-28.917772,9.688656,-53.119476,8.079619,3.0121887,-11.823665
234,-50.21546936035156,-122.05914306640625,77.93109893798828,2.5876572664917576,9.183907044219918,-136.87085395731557,-39.50375,3.8633153,-0.26737612,81.347534,-27.697102,-1.9377687,-10.304519,11.520462,7.5054083,35.964188,-13.9029255,-9.397031,9.135723,1.75503,3.0910656,38.37354,29.67894,-14.468763,-37.540653,-12.207083,19.798174,20.144886,26.50159,-28.995722,9.728778,-53.827908,8.058333,2.5005543,-11.60377
235,-50.99951171875,-122.79081726074219,78.5169448852539,2.7527065208633665,9.238787776756029,-137.24670752020654,-38.542313,3.6137056,0.51588756,75.75358,-26.96217,-2.0939384,-9.288556,11.218931,8.000689,34.95897,-11.324192,-8.691464,9.452221,1.5288415,2.8674374,39.133446,29.614288,-14.526879,-37.4345,-10.170891,19.239382,18.81687,26.836618,-29.09449,9.817777,-54.40222,8.080994,2.0033855,-11.468068
236,-51.77242660522461,-123.5230712890625,79.06199645996094,2.9474849684710334,9.299700403404627,-137.615204839665,-37.44386,3.212605,1.2077137,69.99646,-26.12683,-2.360628,-8.376782,10.850476,8.438846,34.17607,-9.063062,-7.5656943,9.703492,1.2821769,2.65083,39.826344,29.554012,-14.576402,-37.318764,-8.344566,18.591639,17.567724,27.157267,-29.209234,9.94673,-54.86618,8.138494,1.5926682,-11.409756
237,-52.552940368652344,-124.25287628173828,79.55523681640625,3.191513810427045,9.380394088029924,-137.97940665278153,-36.177845,2.6346567,1.8227189,63.90146,-25.127525,-2.740848,-7.551575,10.40751,8.884016,33.520535,-7.120271,-5.8286576,9.8922615,0.9900257,2.4300685,40.45151,29.499128,-14.628348,-37.187157,-6.7607512,17.830929,16.427202,27.444748,-29.344124,10.134384,-55.20473,8.242498,1.2827246,-11.470165
238,-53.32512664794922,-124.98353576660156,79.99522399902344,3.471499619475973,9.472820062014941,-138.33893345556868,-34.72528,1.9233929,2.33256,57.425865,-23.978685,-3.2083821,-6.8011684,9.926204,9.344437,32.989643,-5.3944826,-3.6152966,10.025185,0.6689548,2.2092957,41.011654,29.449352,-14.686193,-37.052296,-5.2509856,17.004007,15.372225,27.708517,-29.500235,10.380701,-55.417767,8.3922415,1.0363823,-11.638269
239,-54.09451675415039,-125.71698760986328,80.36663818359375,3.7337521582582416,9.547991902181968,-138.69955297077135,-33.148182,1.1630123,2.6532686,50.851547,-22.748402,-3.727912,-6.128128,9.459143,9.69962,32.746044,-3.9684618,-1.2427766,10.10139,0.38022718,2.01313,41.52432,29.404413,-14.71197,-36.94232,-3.865676,16.161594,14.349617,27.97672,-29.666847,10.644668,-55.533657,8.556949,0.8493493,-11.825787
240,-54.86903381347656,-126.4553451538086,80.66950988769531,3.9214286869122907,9.576044195897063,-139.0678817702629,-31.509434,0.4328624,2.7181175,44.473034,-21.509085,-4.280639,-5.553061,9.055841,9.814136,32.97461,-2.9054756,0.9574513,10.121672,0.18699814,1.8658893,42.002647,29.366722,-14.668384,-36.884655,-2.6556654,15.353812,13.301565,28.278564,-29.82702,10.8833475,-55.582565,8.704162,0.71848536,-11.941217
