unveil-humanoid-operators/unveil-humanoid-operators.github.io/feature-analysis-animation/data/feature_matrix_instances/age_ankle_rom_walking_A148_crouch_ff_loop_225_004__A148.csv
Frame,root_translateX,root_translateY,root_translateZ,root_rotateX,root_rotateY,root_rotateZ,left_hip_pitch_joint_dof,left_hip_roll_joint_dof,left_hip_yaw_joint_dof,left_knee_joint_dof,left_ankle_pitch_joint_dof,left_ankle_roll_joint_dof,right_hip_pitch_joint_dof,right_hip_roll_joint_dof,right_hip_yaw_joint_dof,right_knee_joint_dof,right_ankle_pitch_joint_dof,right_ankle_roll_joint_dof,waist_yaw_joint_dof,waist_roll_joint_dof,waist_pitch_joint_dof,left_shoulder_pitch_joint_dof,left_shoulder_roll_joint_dof,left_shoulder_yaw_joint_dof,left_elbow_joint_dof,left_wrist_roll_joint_dof,left_wrist_pitch_joint_dof,left_wrist_yaw_joint_dof,right_shoulder_pitch_joint_dof,right_shoulder_roll_joint_dof,right_shoulder_yaw_joint_dof,right_elbow_joint_dof,right_wrist_roll_joint_dof,right_wrist_pitch_joint_dof,right_wrist_yaw_joint_dof
0,0.7402843236923218,2.4314348697662354,37.779930114746094,8.94463347873563,8.035139609717115,-81.70640423807798,-67.697914,29.685251,-10.524206,134.91782,-40.189896,-15.000033,-111.19882,-35.724007,36.44244,133.27782,-37.173824,14.810136,-32.64498,-14.5317545,29.793802,-70.64316,73.33618,-66.14004,52.05814,13.627678,-17.576782,6.4484897,6.6139483,-30.303034,34.941853,40.561035,-5.328797,-6.20154,-0.77301574
1,0.35349228978157043,2.181554079055786,37.827396392822266,9.4566199066973,7.771552312218341,-81.34914591831563,-67.02252,29.328568,-10.437934,134.27182,-39.701393,-15.000033,-110.905815,-35.86022,36.969166,133.91888,-37.721706,14.89079,-32.94074,-14.724239,29.793802,-70.14772,73.71777,-66.11807,51.848213,13.875546,-17.532528,6.620773,7.9514256,-30.34039,33.98842,38.885998,-5.0896516,-6.242456,-0.7861592
2,-0.03382239490747452,1.9240843057632446,37.876243591308594,9.974118306898115,7.512211680979536,-80.9945385660682,-66.34407,28.965683,-10.344577,133.62315,-39.217678,-15.000033,-110.62337,-35.991478,37.514088,134.55635,-38.2778,14.982875,-33.23468,-14.918659,29.793802,-69.65988,74.13518,-66.10754,51.59099,14.105616,-17.477335,6.7939863,9.368603,-30.396297,33.003048,37.11911,-4.846955,-6.278902,-0.7792414
3,-0.422488808631897,1.6607632637023926,37.925537109375,10.47610859038147,7.249410853978273,-80.65602824705597,-65.66613,28.621136,-10.275084,132.9816,-38.740578,-15.000033,-110.336685,-36.142735,38.02002,135.19585,-38.820732,15.000033,-33.52065,-15.096415,29.793802,-69.09993,74.58124,-66.03201,51.317398,14.332883,-17.439524,6.95806,10.810579,-30.463749,32.00187,35.283558,-4.606909,-6.3138566,-0.78296554
4,-0.8095069527626038,1.3931422233581543,37.97379684448242,10.940804899149626,6.977712481285386,-80.34562037208936,-64.99446,28.319374,-10.258282,132.35764,-38.272957,-15.000033,-109.99384,-36.302578,38.463287,135.84421,-39.335526,15.000033,-33.78439,-15.236033,29.793802,-68.40191,75.05372,-65.83349,51.048283,14.561609,-17.44741,7.1008615,12.253174,-30.54646,30.97645,33.37063,-4.3827047,-6.349361,-0.8216473
5,-1.1958874464035034,1.1200331449508667,38.021278381347656,11.359515018179188,6.697129074952671,-80.06280485513177,-64.33244,28.070194,-10.30078,131.75299,-37.828403,-15.000033,-109.583984,-36.473972,38.840843,136.50964,-39.818108,15.000033,-34.026108,-15.322789,29.793802,-67.537704,75.5538,-65.50321,50.770073,14.792777,-17.516932,7.2250447,13.708871,-30.651842,29.921188,31.370712,-4.148566,-6.386556,-0.8937099
6,-1.582332730293274,0.8394072651863098,38.06779479980469,11.744902235130972,6.411700608439563,-79.80108861512805,-63.676155,27.858889,-10.383341,131.1634,-37.402103,-15.000033,-109.1237,-36.65359,39.17192,137.18758,-40.279858,15.000033,-34.2551,-15.367549,29.793802,-66.522194,76.08259,-65.04315,50.47357,15.027589,-17.630156,7.336327,15.191535,-30.780754,28.837784,29.2826,-3.906027,-6.422492,-0.9883239
7,-1.9695963859558105,0.553681492805481,38.11503982543945,12.108575011962053,6.12230101249069,-79.5627411849153,-63.026386,27.676725,-10.497429,130.58633,-36.958538,-15.000033,-108.6127,-36.834072,39.459557,137.86287,-40.72754,15.000033,-34.471817,-15.386983,29.793802,-65.34783,76.6387,-64.40763,50.184452,15.268534,-17.765575,7.4271865,16.682217,-30.926609,27.728437,27.115269,-3.7081501,-6.4594665,-1.1151682
8,-2.356889009475708,0.26433154940605164,38.16370391845703,12.459049428895216,5.829988491908986,-79.35128383317898,-62.380512,27.514486,-10.6337,130.02223,-36.467216,-15.000033,-108.04804,-37.005566,39.704525,138.52618,-41.168465,15.000033,-34.67678,-15.398127,29.793802,-63.999653,77.22031,-63.54245,49.92716,15.520286,-17.901386,7.489877,18.154264,-31.079367,26.59806,24.883032,-3.609704,-6.496445,-1.2849915
9,-2.743361473083496,-0.029330668970942497,38.213890075683594,12.79673174902401,5.536583614444704,-79.16127760527765,-61.739067,27.373201,-10.790299,129.46239,-35.94163,-15.000033,-107.427826,-37.17023,39.903374,139.17429,-41.599857,15.000033,-34.87636,-15.398732,29.793802,-62.45442,77.827576,-62.42667,49.692757,15.817688,-18.04855,7.5142236,19.603136,-31.233736,25.437832,22.595592,-3.6025794,-6.546715,-1.5040894
10,-3.128006935119629,-0.3255895972251892,38.26469039916992,13.116629344028032,5.24151477557925,-78.9930617241781,-61.103012,27.256927,-10.971679,128.90771,-35.389618,-15.000033,-106.752365,-37.331768,40.055607,139.8144,-42.020382,15.000033,-35.069862,-15.383778,29.793802,-60.694614,78.45995,-61.060448,49.468052,16.146181,-18.213844,7.506685,21.033663,-31.388447,24.251795,20.255264,-3.6663275,-6.606025,-1.7664416
11,-3.510962724685669,-0.6258350610733032,38.31690979003906,13.426071067483702,4.940668236439883,-78.85733528670578,-60.470993,27.162722,-11.174603,128.37898,-34.772552,-15.000033,-106.02269,-37.4842,40.166008,140.44545,-42.435696,15.000033,-35.247826,-15.368106,29.793802,-58.710403,79.11079,-59.415955,49.27257,16.439062,-18.368877,7.4830475,22.424936,-31.537748,23.06901,17.874603,-3.8367176,-6.6488614,-2.0652618
12,-3.8927595615386963,-0.9314770102500916,38.370811462402344,13.7325078638578,4.629201914237823,-78.76457677811996,-59.84119,27.085796,-11.397186,127.89505,-34.050907,-15.000033,-105.24222,-37.62765,40.24158,141.06273,-42.856636,15.000033,-35.400368,-15.368154,29.793802,-56.490856,79.76877,-57.464886,49.128273,16.630121,-18.485312,7.4584537,23.748734,-31.674273,21.921322,15.474394,-4.150921,-6.649334,-2.3947146
13,-4.272732734680176,-1.2420830726623535,38.42679977416992,14.035486448665498,4.307497482678981,-78.71880176183072,-59.19914,27.021673,-11.643372,127.446144,-33.23687,-15.000033,-104.40723,-37.759106,40.27699,141.66663,-43.285957,15.000033,-35.525303,-15.387124,29.793802,-54.02086,80.42032,-55.18346,49.053123,16.787197,-18.56244,7.441391,25.001726,-31.793327,20.805822,13.058444,-4.654227,-6.589753,-2.7663043
14,-4.650670528411865,-1.5565195083618164,38.48490524291992,14.331591663166146,3.977776234262067,-78.71416300551618,-58.54437,26.965714,-11.91169,127.027725,-32.353477,-15.000033,-103.516655,-37.88012,40.271675,142.2598,-43.720097,15.000033,-35.624226,-15.419445,29.793802,-51.290173,81.04937,-52.57288,49.038998,16.916157,-18.614317,7.419365,26.18885,-31.893894,19.7124,10.628485,-5.315921,-6.4848595,-3.1793044
15,-5.027690410614014,-1.874168038368225,38.545169830322266,14.625484711922496,3.638317072462668,-78.74647733225758,-57.92092,26.941092,-12.19591,126.66226,-31.339529,-15.000033,-102.57408,-37.989754,40.23574,142.84013,-44.154034,15.000033,-35.690086,-15.468918,29.793802,-48.314365,81.635376,-49.66306,49.07394,16.856638,-18.634094,7.375488,27.289907,-31.977524,18.662453,8.2072935,-6.0610967,-6.357751,-3.6104019
16,-5.406228542327881,-2.1943142414093018,38.60689163208008,14.920933321943792,3.2874778969531464,-78.81245773938413,-57.364002,26.958033,-12.490882,126.37181,-30.14857,-15.000033,-101.581345,-38.087315,40.17857,143.40945,-44.584797,15.000033,-35.71409,-15.538963,29.793802,-45.1294,82.154854,-46.502777,49.15177,16.450577,-18.614288,7.2940173,28.286472,-32.0468,17.676247,5.8165245,-6.8159294,-6.233058,-4.037229
17,-5.784845352172852,-2.5175909996032715,38.6715202331543,15.221726474287177,2.922619594786456,-78.91607177764298,-56.84892,27.003649,-12.794626,126.152794,-28.78312,-15.000033,-100.53319,-38.15872,40.106388,143.96593,-45.00434,15.000033,-35.693165,-15.635015,29.793802,-41.776634,82.58078,-43.115814,49.313934,15.6600485,-18.542593,7.1723924,29.195303,-32.101894,16.742018,3.4321012,-7.602066,-6.102568,-4.464176
18,-6.162808418273926,-2.842930793762207,38.73854446411133,15.525757980550923,2.54555261282055,-79.05807275961216,-56.370007,27.075068,-13.113805,125.9969,-27.26407,-15.000033,-99.429565,-38.20917,40.01149,144.51079,-45.418415,15.000033,-35.623367,-15.747902,29.793802,-38.29791,82.88741,-39.542034,49.575672,14.574694,-18.424358,7.023116,30.026648,-32.144943,15.846523,1.0524837,-8.447451,-5.9563103,-4.900515
19,-6.542482376098633,-3.1698055267333984,38.80588912963867,15.82378406632236,2.161307153710402,-79.23124946802035,-55.99308,27.197578,-13.45963,125.920006,-25.567045,-15.000033,-98.2778,-38.261303,39.88012,145.04472,-45.840137,15.000033,-35.49575,-15.858138,29.793802,-34.75085,83.057495,-35.875877,49.892723,13.228187,-18.276836,6.8553147,30.751938,-32.182938,15.008635,-1.2681313,-9.286805,-5.818278,-5.333211
20,-6.923620223999023,-3.4967212677001953,38.87229537963867,16.106539301136635,1.7745448469928513,-79.42812385597014,-55.775223,27.385923,-13.843142,125.94383,-23.680342,-15.000033,-97.08382,-38.334938,39.697475,145.56696,-46.283325,15.000033,-35.299988,-15.947716,29.793802,-31.212341,83.08403,-32.232697,50.219296,11.648295,-18.117374,6.6776457,31.341072,-32.225925,14.247906,-3.474495,-10.054581,-5.71409,-5.7497673
21,-7.305603981018066,-3.8248140811920166,38.93882369995117,16.391423466613727,1.3753175952146492,-79.64876063790318,-55.705254,27.631603,-14.256407,126.07048,-21.546434,-15.000033,-95.85458,-38.42553,39.49084,146.08055,-46.74162,15.000033,-35.036766,-16.03154,29.793802,-27.762537,82.96407,-28.681944,50.58275,9.698178,-17.95326,6.4765115,31.820442,-32.281506,13.559166,-5.5913095,-10.730379,-5.6538496,-6.145588
22,-7.690450668334961,-4.150109767913818,39.004634857177734,16.675263650181574,0.964417908095842,-79.90072970099963,-55.750645,27.914305,-14.708086,126.293976,-19.209152,-15.000033,-94.57608,-38.51879,39.251408,146.58685,-47.214386,15.000033,-34.70432,-16.106607,29.793802,-24.453821,82.69531,-25.263304,51.006542,7.4151397,-17.768871,6.26277,32.20291,-32.35426,12.929977,-7.639327,-11.351099,-5.62369,-6.52911
23,-8.075030326843262,-4.474401473999023,39.068153381347656,16.917860254175302,0.5612984698676518,-80.19075434315263,-55.97655,28.269659,-15.248691,126.61155,-16.75119,-15.000033,-93.23548,-38.62211,38.916836,147.07954,-47.7166,15.000033,-34.28767,-16.131332,29.793802,-21.314638,82.28166,-22.042639,51.436913,5.084571,-17.55081,6.0796432,32.432205,-32.44872,12.3733015,-9.55373,-11.935159,-5.614242,-6.9074116
24,-8.459233283996582,-4.796487331390381,39.12722396850586,17.07935600429088,0.18621390423945763,-80.52879261197491,-56.429874,28.713041,-15.928463,127.023315,-14.27842,-15.000033,-91.86753,-38.7732,38.366543,147.55826,-48.254272,14.807041,-33.767284,-16.064686,29.793802,-18.379202,81.73285,-19.091839,51.82329,2.9875584,-17.291485,5.967296,32.449562,-32.568302,11.903407,-11.265984,-12.501141,-5.615786,-7.2873054
25,-8.849627494812012,-5.1169657707214355,39.17991256713867,17.150780675698677,-0.16599980383670726,-80.91953806293377,-57.18827,29.324978,-16.815933,127.54334,-11.468372,-15.000033,-90.42358,-38.97371,37.57505,148.01762,-48.849243,14.467467,-33.132374,-15.896742,29.793802,-15.709231,81.05657,-16.449049,52.184002,1.1078876,-16.966343,5.9245625,32.252495,-32.71663,11.535802,-12.761044,-13.011206,-5.641968,-7.6897364
26,-9.239850997924805,-5.439823627471924,39.222686767578125,17.148608788631137,-0.509178741857319,-81.37696976815765,-58.17296,30.031029,-17.8986,128.16989,-8.417163,-15.000033,-88.8731,-39.18084,36.583115,148.4623,-49.497047,14.051206,-32.376324,-15.646263,29.793802,-13.322802,80.264,-14.128742,52.54788,-0.6757763,-16.591866,5.939075,31.86145,-32.896862,11.265636,-14.062927,-13.469498,-5.6922245,-8.104292
27,-9.62563419342041,-5.763707160949707,39.25355529785156,17.082542199145426,-0.8374765897624997,-81.90987532192828,-59.201733,30.632095,-19.074059,128.86545,-5.8252707,-15.000033,-87.325195,-39.315605,35.44566,148.87627,-50.000305,13.532859,-31.497337,-15.319268,29.793802,-11.176555,79.37561,-12.147517,52.87634,-2.246071,-16.227041,6.0249844,31.248014,-33.10676,11.0766535,-15.1618805,-13.955866,-5.7380576,-8.491994
28,-9.998910903930664,-6.073299407958984,39.27752685546875,17.035247988176405,-1.0232074567488059,-82.57125687450372,-60.140392,31.02933,-20.068396,129.59758,-4.3647757,-15.000033,-86.251785,-39.138626,34.399254,149.24934,-50.000305,12.850773,-30.398615,-14.905615,29.793802,-9.269798,78.419495,-10.463695,53.078842,-3.4922888,-15.933133,6.19059,30.475985,-33.33167,10.839073,-16.200638,-14.554557,-5.7530184,-8.824207
29,-10.371342658996582,-6.382159233093262,39.290279388427734,16.92109468553931,-1.1789252978881324,-83.31983325753998,-60.893715,31.138216,-21.107496,130.40384,-4.3021693,-15.000033,-85.15891,-38.887463,33.193,149.61743,-50.000305,12.060653,-29.152376,-14.410208,29.793802,-7.518064,77.41199,-9.107921,53.18008,-4.34579,-15.705551,6.468271,29.426117,-33.567173,10.685616,-17.009348,-15.337638,-5.712211,-9.081342
30,-10.7468900680542,-6.682401657104492,39.29277801513672,16.728966095352582,-1.3058231433165242,-84.13657880082451,-61.59988,31.096607,-22.237988,131.2991,-5.215618,-15.000033,-84.04013,-38.588448,31.811668,149.97363,-50.000305,11.161155,-27.771183,-13.820472,29.793802,-5.945058,76.365234,-8.066368,53.20362,-4.891257,-15.519743,6.830906,28.105602,-33.8078,10.624799,-17.591925,-16.243324,-5.6379614,-9.284887
31,-11.120572090148926,-6.966071605682373,39.29029846191406,16.502654865583303,-1.3915799899970571,-84.94305355509273,-62.416958,31.032673,-23.238632,132.19684,-6.7220035,-15.000033,-82.95809,-38.286003,30.368078,150.31192,-50.000305,10.23046,-26.333008,-13.154085,29.793802,-4.5400825,75.29027,-7.2881775,53.137054,-5.2383633,-15.397332,7.1915092,26.565683,-34.049473,10.58339,-18.01417,-17.154747,-5.5708046,-9.433693
32,-11.48454475402832,-7.2338948249816895,39.288352966308594,16.296705639591,-1.4305196836108196,-85.67005913935033,-63.458027,31.047432,-23.843138,133.00204,-8.46599,-15.000033,-81.97725,-38.01095,29.005257,150.62692,-50.000305,9.361206,-24.916367,-12.45681,29.793802,-3.2672882,74.195045,-6.701338,52.96355,-5.4941096,-15.360128,7.4650497,24.853355,-34.292904,10.4935875,-18.344337,-17.956696,-5.5520115,-9.526914
33,-11.835392951965332,-7.493513107299805,39.287109375,16.15322553707449,-1.423057635201465,-86.28523423788288,-64.72644,31.166016,-23.900633,133.71881,-10.630085,-15.000033,-81.13927,-37.788567,27.807533,150.92236,-50.000305,8.5991535,-23.548914,-11.764862,29.793802,-2.0878491,73.087234,-6.252576,52.647594,-5.6686506,-15.438272,7.6125555,22.953455,-34.54269,10.345452,-18.592718,-18.602058,-5.605623,-9.54926
34,-12.178930282592773,-7.745890140533447,39.28028869628906,16.050326361778833,-1.3782865429589595,-86.83432054012711,-66.147064,31.365961,-23.53338,134.37291,-13.319849,-15.000033,-80.40075,-37.592007,26.708435,151.19969,-50.000305,7.901476,-22.193094,-11.075978,29.793802,-0.95783013,71.971725,-5.924225,52.192085,-5.71292,-15.6094475,7.681168,20.838326,-34.803818,10.187292,-18.72595,-19.159758,-5.7091227,-9.506235
35,-12.51700496673584,-7.9952850341796875,39.26833724975586,15.954128906231405,-1.3052737050774792,-87.36808293298104,-67.69032,31.644173,-22.858257,134.90909,-16.072292,-15.000033,-79.70653,-37.384125,25.640558,151.45917,-50.000305,7.232276,-20.833607,-10.390345,29.793802,0.17275307,70.84659,-5.692735,51.63665,-5.6433783,-15.816993,7.717892,18.533392,-35.079636,10.04345,-18.743168,-19.689573,-5.8323526,-9.429445
36,-12.851396560668945,-8.243463516235352,39.251548767089844,15.834863391254254,-1.2106052080614693,-87.93972621741797,-69.337654,31.994982,-22.007462,135.27759,-18.425596,-15.000033,-79.005745,-37.120834,24.532007,151.70532,-50.000305,6.5492134,-19.449678,-9.699054,29.793802,1.3491247,69.706856,-5.5396705,51.018177,-5.474983,-16.004873,7.771213,16.067825,-35.374336,9.93377,-18.646643,-20.253017,-5.9449286,-9.3496275
37,-13.181795120239258,-8.490243911743164,39.234222412109375,15.732823184511533,-1.0848152560679867,-88.48354938352249,-71.1762,32.46367,-20.902704,135.48053,-20.301807,-15.000033,-78.35775,-36.841858,23.472414,151.93867,-50.000305,5.88247,-18.107035,-9.031957,29.793802,2.5885582,68.551796,-5.4236164,50.295246,-5.172258,-16.163874,7.847911,13.453307,-35.68648,9.82017,-18.487072,-20.895195,-6.0437546,-9.268365
38,-13.49809741973877,-8.724800109863281,39.223567962646484,15.676044604164636,-0.9237456906608641,-88.96605967878249,-73.41562,33.58257,-19.155481,135.51555,-21.891651,-13.755366,-77.80609,-36.572536,22.52741,152.15184,-50.000305,5.269115,-16.819517,-8.401548,29.793802,3.9075334,67.383415,-5.325848,49.441525,-4.73928,-16.321283,7.9265656,10.675299,-36.019775,9.710322,-18.262362,-21.577118,-6.144671,-9.171995
39,-13.803537368774414,-8.957554817199707,39.20996856689453,15.62881063299016,-0.7471009607328507,-89.45691265033891,-75.520836,34.549576,-17.162344,135.36787,-23.235281,-12.718632,-77.28441,-36.281586,21.616556,152.35303,-50.000305,4.6874895,-15.549317,-7.800055,29.793802,5.326878,66.19678,-5.254615,48.51178,-4.2510567,-16.47832,8.014792,7.7501564,-36.383385,9.664399,-17.949583,-22.232893,-6.24329,-9.076182
40,-14.098703384399414,-9.18838119506836,39.195072174072266,15.615236565313978,-0.5655210062048189,-89.94146047835021,-77.38049,35.065712,-15.018683,134.99503,-24.244808,-12.147085,-76.81223,-35.995026,20.802967,152.54204,-50.000305,4.1800513,-14.33427,-7.2637205,29.793802,6.8468266,64.97952,-5.1935496,47.557903,-3.774717,-16.638453,8.123159,4.71674,-36.78798,9.711882,-17.575525,-22.797653,-6.3340774,-8.999977
41,-14.381048202514648,-9.416829109191895,39.179561614990234,15.63810175338537,-0.3693036501811958,-90.4063323922315,-79.04111,34.933327,-12.758517,134.35149,-24.809315,-12.229961,-76.40251,-35.726765,20.08713,152.71745,-50.000305,3.7574596,-13.193257,-6.7938623,29.793802,8.47587,63.720764,-5.147861,46.572586,-3.31139,-16.814701,8.287909,1.5761275,-37.236263,9.855833,-17.157074,-23.229927,-6.394223,-8.959686
42,-14.653099060058594,-9.644645690917969,39.16066360473633,15.66679187038291,-0.15218011982632643,-90.86785860972864,-80.64502,34.362522,-10.424921,133.45764,-24.98104,-12.807693,-76.03156,-35.460117,19.404955,152.87938,-50.000305,3.3856988,-12.097443,-6.345411,29.793802,10.2307005,62.421124,-5.130567,45.512802,-2.8294773,-17.000513,8.496737,-1.6708759,-37.72555,10.081805,-16.690977,-23.568249,-6.4308515,-8.944991
43,-14.91535472869873,-9.873834609985352,39.136451721191406,15.683702607838475,0.07100755479553475,-91.35173355473567,-82.24418,33.689938,-8.101453,132.37831,-24.91235,-13.53359,-75.66436,-35.1716,18.727043,153.03706,-50.000305,3.0427399,-11.02618,-5.903028,29.793802,12.050991,61.079224,-5.163778,44.44049,-2.3322878,-17.169561,8.681574,-5.0029273,-38.25675,10.411643,-16.17993,-23.864876,-6.483922,-8.934997
44,-15.173324584960938,-10.102641105651855,39.10499954223633,15.679431035618046,0.2860414023625856,-91.8789466591787,-83.83058,33.24243,-5.8154063,131.18369,-24.751215,-14.062217,-75.27293,-34.845,18.037237,153.20058,-50.000305,2.7109575,-9.963205,-5.45487,29.793802,13.867421,59.69178,-5.271065,43.425045,-1.8249718,-17.297268,8.773715,-8.39309,-38.831043,10.861621,-15.63698,-24.172146,-6.5929585,-8.911255
45,-15.424187660217285,-10.333915710449219,39.06353759765625,15.651701752377011,0.49353633213264864,-92.45343664647133,-85.396065,33.07999,-3.5230708,129.86623,-24.476217,-14.325742,-74.8584,-34.477062,17.317822,153.36584,-50.000305,2.3832104,-8.899383,-4.9922585,29.793802,15.64626,58.252575,-5.460939,42.48288,-1.3094753,-17.37168,8.7190895,-11.84594,-39.44913,11.423979,-15.0719385,-24.483656,-6.7658687,-8.857429
46,-15.664012908935547,-10.571568489074707,39.019378662109375,15.601476159310497,0.7023557704373313,-93.06144384740449,-86.926674,33.033497,-1.2060777,128.40192,-24.038382,-14.50394,-74.43815,-34.08656,16.566296,153.52866,-50.000305,2.0526438,-7.8419414,-4.5138755,29.793802,17.397379,56.76228,-5.75045,41.593464,-0.77886134,-17.410578,8.566113,-15.3404045,-40.106632,12.077554,-14.510082,-24.779371,-6.9807124,-8.791098
47,-15.893978118896484,-10.81901741027832,38.97309875488281,15.539985684555152,0.9092013558074464,-93.69443196628727,-88.374794,33.07795,1.1024921,126.84091,-23.53339,-14.617263,-74.012856,-33.670567,15.824424,153.70047,-50.000305,1.7352585,-6.7949657,-4.0171165,29.793802,19.123175,55.23393,-6.1736655,40.765793,-0.22668818,-17.434671,8.3994055,-18.818945,-40.796196,12.812872,-13.972908,-25.088373,-7.2330837,-8.743658
48,-16.120834350585938,-11.068779945373535,38.91556167602539,15.473107980961013,1.109948336111495,-94.3457537999278,-89.69807,33.186558,3.3692434,125.237236,-23.054655,-14.68173,-73.58229,-33.234035,15.118983,153.89268,-50.000305,1.4298632,-5.7593913,-3.5041854,29.793802,20.817112,53.6891,-6.771564,40.018852,0.35020027,-17.463207,8.302538,-22.232761,-41.5074,13.621893,-13.472868,-25.439308,-7.519056,-8.745867
49,-16.340408325195312,-11.325023651123047,38.848209381103516,15.396902596103825,1.299306150222546,-95.02163924747477,-90.887924,33.422462,5.6238074,123.59167,-22.645706,-14.594599,-73.13296,-32.761436,14.448575,154.10922,-50.000305,1.1529593,-4.7205853,-2.9754083,29.793802,22.474653,52.142483,-7.578495,39.375195,0.95091116,-17.499498,8.304192,-25.589584,-42.230923,14.497644,-13.010359,-25.892672,-7.849491,-8.794671
50,-16.5500431060791,-11.588950157165527,38.775325775146484,15.308515983541792,1.4798569932308805,-95.72352574657238,-91.95088,33.767204,7.898858,121.88755,-22.255182,-14.375002,-72.66809,-32.257248,13.799008,154.34256,-50.000305,0.8977016,-3.6691113,-2.429152,29.793802,24.074057,50.604065,-8.589504,38.845856,1.5706128,-17.533192,8.355158,-28.894493,-42.962715,15.424211,-12.587568,-26.421518,-8.222034,-8.878075
51,-16.747474670410156,-11.857841491699219,38.69626998901367,15.214954695881845,1.6581903615170526,-96.43913873768861,-92.89105,34.076923,10.141402,120.14335,-21.823395,-14.219673,-72.21282,-31.754848,13.179579,154.58952,-50.000305,0.6291674,-2.6113353,-1.8657932,29.793802,25.589586,49.091278,-9.780996,38.42964,2.204208,-17.561499,8.420918,-32.103382,-43.69885,16.38225,-12.214204,-26.920614,-8.612903,-9.011961
52,-16.93293571472168,-12.130783081054688,38.614784240722656,15.120576083975207,1.8396179086132531,-97.15795855565723,-93.7367,34.2124,12.269998,118.374084,-21.284834,-14.323866,-71.79166,-31.282032,12.598259,154.84561,-50.000305,0.31277537,-1.5519296,-1.28711,29.793802,27.001036,47.624382,-11.124838,38.121502,2.842671,-17.581915,8.465166,-35.190403,-44.436943,17.361845,-11.886483,-27.278028,-8.99985,-9.208595
53,-17.103553771972656,-12.407022476196289,38.52961349487305,15.040612949393424,2.031022350036705,-97.84806918798958,-94.51164,34.118572,14.30526,116.53268,-20.568787,-14.736928,-71.43717,-30.882122,12.086472,155.11891,-50.000305,-0.053609803,-0.5196648,-0.7129697,29.793802,28.326456,46.21133,-12.607058,37.907253,3.3983264,-17.581648,8.484228,-38.147823,-45.1759,18.34822,-11.62658,-27.479084,-9.373918,-9.469515
54,-17.251604080200195,-12.685173988342285,38.436912536621094,14.974544217922135,2.236333375859637,-98.487024851158,-95.18902,33.983135,16.434187,114.61255,-19.709347,-15.000033,-71.15584,-30.55142,11.660886,155.41812,-50.000305,-0.42630902,0.46761253,-0.14749926,29.793802,29.583225,44.855152,-14.222037,37.77946,3.8985667,-17.566187,8.495218,-41.061703,-45.920338,19.359966,-11.387471,-27.56212,-9.750877,-9.781941
55,-17.38043212890625,-12.964320182800293,38.332122802734375,14.890723556071093,2.442823691475239,-99.13903715088644,-95.775696,33.893383,18.571218,112.71414,-18.810844,-15.000033,-70.8949,-30.21742,11.253074,155.73856,-50.000305,-0.81821847,1.4763534,0.44350824,29.793802,30.740778,43.564465,-15.967135,37.768463,4.5061626,-17.560667,8.4892025,-43.833153,-46.660973,20.359772,-11.209188,-27.553513,-10.138603,-10.140068
56,-17.497175216674805,-13.250168800354004,38.223655700683594,14.775109209627797,2.6434323154343824,-99.83007607458434,-96.294754,33.798695,20.543196,110.906685,-17.96917,-15.000033,-70.601685,-29.837963,10.83296,156.05814,-50.000305,-1.2059267,2.5352898,1.0733821,29.793802,31.78343,42.35183,-17.817957,37.880527,5.379376,-17.589886,8.458567,-46.446,-47.39241,21.330776,-11.076852,-27.45893,-10.549721,-10.533725
57,-17.60381507873535,-13.539316177368164,38.11264419555664,14.623502298031115,2.833518089460855,-100.56682199603591,-96.73648,33.698624,22.363863,109.17754,-17.162748,-15.000033,-70.26033,-29.404694,10.393076,156.36867,-50.000305,-1.5884706,3.6508904,1.7463106,29.793802,32.722645,41.22097,-19.784143,38.12538,6.57112,-17.669624,8.388848,-48.91244,-48.11683,22.278193,-10.972149,-27.241405,-10.994327,-10.967575
58,-17.699525833129883,-13.832913398742676,37.999114990234375,14.442693467999822,3.012511019053783,-101.33904222561227,-97.103645,33.57353,24.059837,107.49725,-16.355766,-15.000033,-69.89181,-28.937304,9.951057,156.67941,-50.000305,-1.9740614,4.8034935,2.4438407,29.793802,33.58589,40.167454,-21.845942,38.486015,7.987159,-17.783842,8.288955,-51.287247,-48.847115,23.21998,-10.875825,-26.881857,-11.468995,-11.437874
59,-17.79022216796875,-14.138172149658203,37.88148498535156,14.234811639655947,3.1826461670212036,-102.13694694842525,-97.424995,33.424023,25.582273,105.92423,-15.617397,-15.000033,-69.49458,-28.444786,9.502514,156.99156,-50.000305,-2.358351,6.0103664,3.1794407,29.793802,34.3288,39.194637,-23.978935,38.944332,9.565867,-17.908474,8.183329,-53.44832,-49.558365,24.091368,-10.851817,-26.539715,-11.956878,-11.931522
60,-17.88166618347168,-14.450961112976074,37.758453369140625,14.010303950744111,3.345079189015202,-102.9480946280197,-97.72227,33.249027,26.896955,104.51709,-15.017191,-15.000033,-69.07913,-27.936031,9.062585,157.31317,-50.000305,-2.7306807,7.226381,3.8981795,29.793802,35.0239,38.30286,-26.05851,39.423496,11.242405,-18.017246,8.09735,-55.50254,-50.260765,24.922192,-10.847718,-26.199993,-12.45328,-12.422659
61,-17.97322654724121,-14.768281936645508,37.632442474365234,13.778204205840849,3.498477495929535,-103.77052925722775,-97.98236,33.0588,28.02935,103.274605,-14.59423,-15.000033,-68.649055,-27.41806,8.645835,157.64757,-50.000305,-3.080593,8.473218,4.611489,29.793802,35.641876,37.497677,-28.132084,39.93239,13.147562,-18.104145,8.03207,-57.322327,-50.926086,25.678276,-10.910515,-25.970377,-12.970508,-12.947736
62,-18.060266494750977,-15.090333938598633,37.50186538696289,13.541716195923481,3.6428661347796933,-104.60473376589583,-98.194466,32.847736,29.006319,102.17076,-14.301951,-15.000033,-68.21484,-26.887993,8.262487,157.9939,-50.000305,-3.4091265,9.713767,5.2853174,29.793802,36.251163,36.77221,-30.15867,40.446598,15.262982,-18.180826,7.9772696,-59.096554,-51.574844,26.438972,-10.942016,-25.699287,-13.516856,-13.496182
63,-18.145816802978516,-15.417021751403809,37.36607360839844,13.289527123440458,3.787246680188139,-105.44154206374913,-98.39826,32.603035,29.779442,101.22445,-14.078931,-15.000033,-67.76953,-26.349865,7.888183,158.34631,-50.000305,-3.7303994,10.962835,5.9482064,29.793802,36.815067,36.117943,-32.102936,40.95426,17.309685,-18.248981,7.9316053,-60.701977,-52.18947,27.118881,-11.033668,-25.487015,-14.042629,-14.012098
64,-18.2305965423584,-15.748344421386719,37.22676086425781,13.01803129981435,3.940718099532213,-106.26991465987275,-98.62636,32.311794,30.308014,100.457146,-13.864557,-15.000033,-67.32183,-25.806242,7.5109553,158.70074,-50.000305,-4.0545926,12.204756,6.593445,29.793802,37.35471,35.525707,-33.88028,41.41559,19.009556,-18.31021,7.8950047,-62.137665,-52.759747,27.67825,-11.210723,-25.343815,-14.506577,-14.42897
65,-18.31281280517578,-16.086944580078125,37.08780288696289,12.733026958697858,4.102434171997787,-107.0947650367728,-98.86074,31.987011,30.603863,99.87988,-13.673407,-15.000033,-66.87892,-25.262096,7.1366825,159.06702,-50.000305,-4.402312,13.426028,7.200074,29.793802,37.909065,34.989616,-35.47089,41.807556,20.342745,-18.358574,7.8626084,-63.47311,-53.285904,28.149225,-11.425987,-25.232826,-14.892441,-14.696277
66,-18.39219093322754,-16.43024444580078,36.94584274291992,12.433640712555626,4.266304683190365,-107.91425409133821,-99.08767,31.627647,30.689468,99.48164,-13.526375,-15.000033,-66.43271,-24.696615,6.825441,159.44174,-50.000305,-4.6988406,14.624792,7.7719984,29.793802,38.467804,34.507256,-36.909542,42.14566,21.442614,-18.395376,7.8351774,-64.69026,-53.76156,28.547407,-11.672874,-25.164164,-15.223945,-14.860394
67,-18.47007942199707,-16.777692794799805,36.80046081542969,12.118534322110659,4.444789318877625,-108.71371636346154,-99.34603,31.208994,30.550352,99.24254,-13.371356,-15.000033,-65.99056,-24.116493,6.5460143,159.8128,-50.000305,-4.9394636,15.773083,8.295523,29.793802,39.03517,34.07183,-38.140972,42.411003,22.26229,-18.432104,7.823545,-65.87288,-54.195328,28.906246,-11.930454,-25.07799,-15.52736,-14.99258
68,-18.54680633544922,-17.129226684570312,36.651641845703125,11.780137461862168,4.644347956987014,-109.4767441936088,-99.671,30.697601,30.17016,99.14024,-13.15666,-15.000033,-65.5572,-23.52548,6.2730036,160.16295,-50.000305,-5.1073446,16.869432,8.78794,29.793802,39.570995,33.679234,-39.150562,42.6115,22.75367,-18.481512,7.8371224,-66.90949,-54.573082,29.173265,-12.277155,-25.042381,-15.821038,-15.171444
69,-18.616849899291992,-17.484027862548828,36.50149154663086,11.407057711180164,4.881245164409195,-110.18211273843966,-100.03582,30.045414,29.568245,99.181076,-12.90855,-15.000033,-65.15582,-22.92551,6.0101995,160.4984,-50.000305,-5.1728525,17.88055,9.235707,29.793802,40.12131,33.323723,-39.890675,42.711853,22.8267,-18.550278,7.883918,-67.86322,-54.89559,29.362528,-12.695702,-25.030193,-16.108942,-15.403454
70,-18.681283950805664,-17.841785430908203,36.351280212402344,11.011580792101586,5.148617935990819,-110.84325223326044,-100.41959,29.277153,28.761665,99.373,-12.642049,-15.000033,-64.7807,-22.318605,5.7641597,160.8237,-50.000305,-5.159062,18.80542,9.623341,29.793802,40.704414,33.00124,-40.37436,42.708496,22.534552,-18.632212,7.9560328,-68.81742,-55.171043,29.522787,-13.12044,-24.987734,-16.383512,-15.650804
71,-18.75007438659668,-18.200326919555664,36.20342254638672,10.604810516206697,5.418628805152889,-111.49960605521338,-100.87674,28.477926,27.71814,99.69761,-12.287242,-15.000033,-64.39111,-21.69557,5.5219374,161.1252,-50.000305,-5.113667,19.69833,9.969117,29.793802,41.24228,32.71355,-40.669277,42.65096,22.04549,-18.719881,8.040656,-69.64551,-55.38699,29.628412,-13.592357,-24.974867,-16.646454,-15.923854
72,-18.833271026611328,-18.558879852294922,36.06258773803711,10.197921010885219,5.660372072567255,-112.18488441399413,-101.4728,27.711666,26.390432,100.13148,-11.766595,-15.000033,-63.92046,-21.057606,5.251616,161.37762,-50.000305,-5.09102,20.598316,10.287786,29.793802,41.678925,32.465458,-40.822716,42.576622,21.528404,-18.804026,8.126386,-70.27171,-55.532993,29.667898,-14.118927,-25.01373,-16.903425,-16.227142
73,-18.94207191467285,-18.92044448852539,35.93737030029297,9.77149703194733,5.865926752319513,-112.93611402254557,-102.31487,26.886387,24.551617,100.69914,-10.946539,-15.000033,-63.346703,-20.37823,4.908707,161.56354,-50.000305,-5.1188173,21.51368,10.577142,29.793802,42.069145,32.255,-40.77776,42.460354,20.974298,-18.877914,8.204139,-70.91738,-55.63829,29.737726,-14.584096,-24.948965,-17.172626,-16.575098
74,-19.079071044921875,-19.290281295776367,35.834564208984375,9.302435776664918,6.042479185782241,-113.7190736597196,-103.36033,25.927778,22.262371,101.408394,-9.867493,-15.000033,-62.6824,-19.67488,4.476777,161.69354,-50.000305,-5.183627,22.43194,10.874878,29.793802,42.402912,32.083084,-40.550167,42.2947,20.31046,-18.948595,8.2817135,-71.46615,-55.700745,29.780872,-15.063076,-24.874748,-17.440147,-16.965588
75,-19.21810531616211,-19.668249130249023,35.7431755065918,8.828300423209644,6.221405677227344,-114.40693372429881,-104.32952,25.272907,20.347363,102.18003,-8.71867,-14.204086,-62.005184,-19.027313,4.070816,161.8123,-50.000305,-5.192885,23.226898,11.134147,29.793802,42.685577,31.974724,-40.160225,42.014996,19.614712,-19.020624,8.382678,-71.99242,-55.726746,29.815403,-15.531955,-24.769987,-17.696651,-17.341694
76,-19.323068618774414,-20.056095123291016,35.64448165893555,8.416893399305533,6.437909006076788,-114.90588851317163,-104.911644,25.5706,19.716991,102.942696,-7.7919645,-11.639769,-61.41093,-18.49351,3.859854,161.97322,-50.000305,-5.040803,23.803347,11.285427,29.793802,42.879704,31.907387,-39.64973,41.63445,18.971855,-19.10252,8.529847,-72.54321,-55.73318,29.866339,-15.975072,-24.615767,-17.92991,-17.656546
77,-19.429061889648438,-20.446399688720703,35.54768371582031,8.035192712488145,6.6337639256407614,-115.35111871261523,-105.44364,26.048338,19.229239,103.726685,-7.1909122,-9.679774,-60.772396,-17.99761,3.6956804,162.13414,-50.000305,-4.881297,24.290615,11.372182,29.793802,42.971397,31.869429,-38.99912,41.22004,18.389658,-19.205454,8.705704,-73.052635,-55.710625,29.93751,-16.38582,-24.399464,-18.142328,-17.925917
78,-19.53696632385254,-20.837432861328125,35.45234298706055,7.67430506321089,6.8132419680271346,-115.75231487812508,-105.96203,26.70649,18.811512,104.55194,-6.7939944,-8.0057335,-60.085663,-17.530804,3.5612552,162.28665,-50.000305,-4.7096753,24.712717,11.420158,29.793802,42.9587,31.883505,-38.232796,40.758354,17.811085,-19.320862,8.90873,-73.51594,-55.663673,30.017757,-16.763176,-24.136398,-18.33949,-18.162275
79,-19.650056838989258,-21.229801177978516,35.363990783691406,7.346674355774899,6.982240922682107,-116.1055289117433,-106.44741,27.403812,18.44439,105.38996,-6.6075964,-6.5839314,-59.374306,-17.15536,3.4381874,162.43156,-50.000305,-4.588371,25.064367,11.406354,29.793802,42.84684,31.966248,-37.390656,40.245934,17.26726,-19.438513,9.125739,-73.95968,-55.57915,30.108974,-17.06102,-23.870476,-18.516108,-18.34874
80,-19.767833709716797,-21.62340545654297,35.28474426269531,7.06505128416462,7.145744285040386,-116.40621322134673,-106.87462,28.002504,18.113012,106.21704,-6.631162,-5.3862386,-58.651432,-16.937777,3.3082676,162.56741,-50.000305,-4.5764184,25.353394,11.331422,29.793802,42.578957,32.1176,-36.573723,39.732834,16.77237,-19.547018,9.354382,-74.41649,-55.46944,30.224966,-17.231157,-23.643162,-18.664167,-18.468418
81,-19.890380859375,-22.016767501831055,35.219337463378906,6.836741712332645,7.296536072063147,-116.63777310435738,-107.21836,28.478643,17.827396,107.04556,-6.955699,-4.518528,-57.90052,-16.894585,3.1755083,162.70166,-50.000305,-4.692221,25.56365,11.19286,29.793802,42.158047,32.35002,-35.7802,39.206257,16.337841,-19.64222,9.606935,-74.882614,-55.330738,30.36593,-17.267351,-23.48745,-18.776602,-18.515795
82,-20.017210006713867,-22.408824920654297,35.166786193847656,6.650270805953732,7.436167131145571,-116.80831711631055,-107.500206,28.891846,17.577465,107.885,-7.534198,-3.9780304,-57.11315,-16.96976,3.0758035,162.83409,-50.000305,-4.8608475,25.704353,11.005924,29.793802,41.583576,32.65778,-34.986958,38.66666,15.950174,-19.730011,9.883531,-75.34534,-55.173317,30.527296,-17.197609,-23.371199,-18.857512,-18.50092
83,-20.147075653076172,-22.800413131713867,35.12799072265625,6.502863256297913,7.57948642387353,-116.94001723915044,-107.74794,29.213926,17.35361,108.696236,-8.156554,-3.5645757,-56.32648,-17.17393,2.9619894,162.94386,-50.000305,-5.101806,25.7881,10.757211,29.793802,40.87383,33.039253,-34.20048,38.11971,15.596513,-19.813597,10.151284,-75.907295,-55.007088,30.745405,-16.96255,-23.186481,-18.920828,-18.428686
84,-20.27804946899414,-23.19239044189453,35.10383224487305,6.3858317458414415,7.738716927344572,-117.06029155610757,-107.9973,29.418264,17.119509,109.440865,-8.615104,-3.0905123,-55.57112,-17.492746,2.820408,163.01527,-50.000305,-5.393662,25.869589,10.477443,29.793802,39.98031,33.493183,-33.485344,37.60895,15.260013,-19.89746,10.37756,-76.28606,-54.8011,30.912317,-16.72284,-23.076963,-18.96187,-18.320303
85,-20.40898895263672,-23.582868576049805,35.096405029296875,6.319094172214212,7.926483217215373,-117.16564277258561,-108.26603,29.44396,16.88087,110.093216,-8.81379,-2.4892492,-54.880672,-17.973085,2.6635883,163.04861,-50.000305,-5.748971,25.900019,10.101191,29.793802,38.95667,34.01405,-32.7828,37.092407,14.946844,-19.98584,10.539372,-76.89681,-54.584953,31.179232,-16.243391,-22.748974,-18.998499,-18.140213
86,-20.542428970336914,-23.97108268737793,35.105194091796875,6.299400010652571,8.127500234225936,-117.24406131480964,-108.52482,29.321714,16.656408,110.67981,-8.869601,-1.8692634,-54.22154,-18.604715,2.4927406,163.05003,-50.000305,-6.170746,25.901894,9.676454,29.793802,37.73348,34.60189,-32.153316,36.610893,14.65759,-20.076286,10.657801,-77.40608,-54.334377,31.431654,-15.70981,-22.4452,-19.008656,-17.908504
87,-20.67998695373535,-24.360628128051758,35.12444305419922,6.295897651234302,8.336491743558746,-117.3095607531528,-108.75189,29.168314,16.454832,111.23606,-8.897789,-1.2940195,-53.565796,-19.290316,2.300194,163.01999,-50.000305,-6.6196594,25.862894,9.197596,29.793802,36.393196,35.25077,-31.55581,36.15645,14.389244,-20.157812,10.775367,-78.09376,-54.070812,31.770483,-14.964769,-22.026964,-19.014072,-17.644005
88,-20.822084426879883,-24.75377082824707,35.153106689453125,6.275499270824752,8.541387898914895,-117.3767973301422,-108.92145,29.096342,16.27618,111.794846,-9.017529,-0.82842755,-52.873306,-19.938213,2.0497992,162.95671,-50.000305,-7.0840464,25.828093,8.727979,29.793802,34.913677,35.956158,-31.045929,35.779514,14.132499,-20.221607,10.930971,-78.67513,-53.772934,32.095585,-14.167267,-21.719725,-19.00882,-17.393526
89,-20.966564178466797,-25.14862632751465,35.19287109375,6.230007501691666,8.739947095403597,-117.45090968146091,-109.0182,29.147507,16.129982,112.36442,-9.265057,-0.5068804,-52.136127,-20.519342,1.770664,162.8608,-50.000305,-7.5438037,25.779118,8.249485,29.793802,33.31499,36.715145,-30.603418,35.47106,13.926936,-20.25922,11.149615,-79.38719,-53.45527,32.49042,-13.183486,-21.38594,-19.006731,-17.161291
90,-21.11399269104004,-25.54389762878418,35.24350357055664,6.164370838506826,8.935682775650601,-117.52870506920692,-109.06942,29.255798,15.993027,112.9298,-9.572943,-0.29234305,-51.365475,-21.035133,1.5395808,162.73096,-50.000305,-7.921805,25.726608,7.773533,29.793802,31.552618,37.525455,-30.25885,35.23588,13.7622,-20.278543,11.406135,-80.08906,-53.109295,32.9015,-12.094422,-21.092386,-18.995794,-16.93412
91,-21.266735076904297,-25.94091796875,35.29862594604492,6.092218609235123,9.138974171922778,-117.60356501948552,-109.10025,29.379398,15.85624,113.48439,-9.909345,-0.1384033,-50.587715,-21.526363,1.2795242,162.5688,-50.000305,-8.277062,25.655668,7.27128,29.793802,29.689209,38.38001,-29.973392,35.054497,13.567492,-20.293177,11.670345,-80.849625,-52.741653,33.355743,-10.860618,-20.774277,-18.978167,-16.688276
92,-21.426603317260742,-26.340106964111328,35.3580322265625,6.009871101803386,9.35923437374744,-117.67516594547502,-109.14849,29.475597,15.69016,114.02483,-10.240333,-0.0012029414,-49.820686,-21.982447,0.98851115,162.37637,-50.000305,-8.573201,25.56584,6.7361245,29.793802,27.769222,39.270527,-29.719477,34.91628,13.272384,-20.317257,11.912444,-81.644066,-52.354027,33.846043,-9.501421,-20.43102,-18.949986,-16.40443
93,-21.593761444091797,-26.7420597076416,35.42215347290039,5.918638339141938,9.609343379991616,-117.75210426618314,-109.23168,29.546059,15.487521,114.556145,-10.566909,0.12563749,-49.09071,-22.394726,0.6744593,162.15804,-50.000305,-8.801274,25.458261,6.154648,29.793802,25.798979,40.194324,-29.474672,34.814495,12.848709,-20.358398,12.136034,-82.48145,-51.94302,34.3634,-8.027091,-20.057306,-18.905952,-16.09583
94,-21.766891479492188,-27.144554138183594,35.492332458496094,5.81776635720023,9.884013704466653,-117.83456031797836,-109.33035,29.610863,15.264982,115.07706,-10.901634,0.21875176,-48.387672,-22.770624,0.3389563,161.91273,-50.000305,-8.981648,25.330238,5.5269933,29.793802,23.761452,41.15272,-29.25594,34.75436,12.340968,-20.408468,12.354125,-83.37985,-51.50631,34.916218,-6.420164,-19.648157,-18.848856,-15.765865
95,-21.94532012939453,-27.544801712036133,35.56840133666992,5.713323312675488,10.166137693815049,-117.90564716168234,-109.422874,29.655632,15.035329,115.5764,-11.231595,0.28307343,-47.686344,-23.124264,-0.022147872,161.63712,-50.000305,-9.1198435,25.176361,4.8701963,29.793802,21.657793,42.14186,-29.097195,34.748398,11.785997,-20.45834,12.550902,-84.295204,-51.04705,35.50623,-4.6833687,-19.219809,-18.78506,-15.381397
96,-22.128353118896484,-27.94046974182129,35.65110397338867,5.606783088213864,10.4394887463506,-117.95093300578901,-109.49056,29.665579,14.808937,116.045685,-11.54302,0.32291555,-46.961334,-23.468754,-0.41477033,161.33058,-50.000305,-9.221975,24.990675,4.1977596,29.793802,19.491003,43.153614,-29.026478,34.80786,11.223089,-20.498125,12.712012,-85.238655,-50.578426,36.158367,-2.7865913,-18.753971,-18.721918,-14.9088955
97,-22.314022064208984,-28.331464767456055,35.7437858581543,5.498128319217373,10.712978878340673,-117.98098531545814,-109.5417,29.662052,14.58302,116.48244,-11.810783,0.33512822,-46.235283,-23.781696,-0.8164791,160.9929,-50.000305,-9.288235,24.78404,3.5069177,29.793802,17.24667,44.178257,-29.03418,34.937565,10.619818,-20.52438,12.823708,-86.2227,-50.112606,36.866913,-0.7327094,-18.246447,-18.656218,-14.325227
98,-22.50255584716797,-28.718706130981445,35.84564208984375,5.386602626612236,10.994411732681776,-118.00161507019557,-109.58436,29.648348,14.354031,116.89248,-12.048868,0.31803307,-45.519394,-24.064049,-1.2287295,160.62653,-50.000305,-9.317562,24.559841,2.7912607,29.793802,14.910734,45.211716,-29.121742,35.13911,9.971127,-20.541975,12.898926,-87.23864,-49.65354,37.620056,1.4546301,-17.69948,-18.581015,-13.654265
99,-22.691574096679688,-29.099733352661133,35.95832443237305,5.2779259034115364,11.264365683822902,-117.98885192847673,-109.59629,29.582869,14.135965,117.2718,-12.30352,0.28193566,-44.775185,-24.362814,-1.6901149,160.23506,-50.000305,-9.3111,24.302734,2.0638947,29.793802,12.490176,46.25263,-29.334032,35.410854,9.36,-20.554392,12.963205,-88.24092,-49.20171,38.425724,3.7623801,-17.121477,-18.496641,-12.935576
100,-22.882095336914062,-29.47353172302246,36.081119537353516,5.176758919511559,11.501186005117034,-117.91675822510526,-109.55392,29.430983,13.9414835,117.619865,-12.621907,0.2368809,-43.957745,-24.725142,-2.2430007,159.81798,-50.000305,-9.268816,23.995049,1.3378452,29.793802,9.988061,47.298843,-29.720713,35.75153,8.865761,-20.565268,13.041822,-89.1997,-48.757065,39.300907,6.187392,-16.511253,-18.402641,-12.207988
101,-23.072612762451172,-29.838748931884766,36.21403884887695,5.093756945155753,11.705634563830754,-117.78541043852675,-109.44906,29.187418,13.785343,117.94098,-13.0352955,0.19721618,-43.07263,-25.17983,-2.8941875,159.38194,-50.000305,-9.183163,23.631731,0.5974617,29.793802,7.385746,48.342857,-30.299797,36.178932,8.493366,-20.573744,13.15462,-90.1286,-48.31894,40.237766,8.74278,-15.886565,-18.299652,-11.462496
102,-23.26406478881836,-30.19622802734375,36.35601806640625,5.02349123210681,11.888094621786754,-117.60783324921915,-109.2976,28.872051,13.654208,118.23289,-13.511272,0.15255949,-42.13636,-25.689272,-3.627296,158.9257,-50.000305,-9.057307,23.22141,-0.15917782,29.793802,4.688639,49.375427,-31.042963,36.675896,8.209101,-20.578474,13.285639,-91.0311,-47.888218,41.225708,11.41457,-15.245716,-18.183208,-10.685558
103,-23.457674026489258,-30.546781539916992,36.50749969482422,4.946738867600319,12.044695865693733,-117.38021133985984,-109.110664,28.485603,13.524595,118.49253,-14.005057,0.080609985,-41.13103,-26.202963,-4.4447455,158.44499,-50.000305,-8.906175,22.771568,-0.8973275,29.793802,1.9627035,50.396866,-31.913042,37.162144,8.039332,-20.583036,13.408001,-91.89768,-47.469498,42.304546,14.180876,-14.543232,-18.04798,-9.909307
104,-23.652158737182617,-30.890819549560547,36.67124938964844,4.845640466650413,12.181569208995686,-117.10015697352763,-108.90766,28.029701,13.377704,118.708725,-14.469089,-0.038990468,-40.06053,-26.668398,-5.3398023,157.9398,-50.000305,-8.746504,22.272945,-1.6323316,29.793802,-0.94840395,51.396942,-33.01672,37.74988,7.915156,-20.587542,13.485322,-92.68522,-47.056644,43.46351,16.990265,-13.737167,-17.89049,-9.168704
105,-23.845191955566406,-31.224700927734375,36.85001754760742,4.722915376066806,12.286081225748212,-116.76294580488832,-108.66564,27.499697,13.221865,118.87792,-14.903658,-0.22762556,-38.89919,-27.112066,-6.326895,157.40495,-50.000305,-8.593256,21.744394,-2.3201065,29.793802,-3.906126,52.36822,-34.269665,38.302883,7.9054484,-20.574467,13.496399,-93.4345,-46.660583,44.741325,19.907188,-12.808302,-17.706553,-8.458203
106,-24.04026985168457,-31.54671859741211,37.03974151611328,4.5888683837616915,12.370309010713756,-116.37569179969981,-108.392044,26.902294,13.0645075,119.004196,-15.329133,-0.46718332,-37.674706,-27.542616,-7.397408,156.84981,-50.000305,-8.436864,21.174555,-2.996115,29.793802,-6.9500046,53.303223,-35.684673,38.86503,7.988809,-20.548553,13.462992,-94.14365,-46.27919,46.11068,22.909992,-11.782581,-17.494873,-7.766962
107,-24.243181228637695,-31.861656188964844,37.237831115722656,4.438512811495409,12.455073981001428,-115.95186020324542,-108.12439,26.260067,12.884962,119.09561,-15.734974,-0.72440964,-36.44407,-27.883438,-8.503762,156.27882,-50.000305,-8.252619,20.562613,-3.6728656,29.793802,-10.048891,54.20412,-37.240433,39.414772,8.166479,-20.552443,13.437557,-94.79707,-45.91077,47.599472,25.921553,-10.682323,-17.254787,-7.115373
108,-24.454566955566406,-32.17143249511719,37.4437141418457,4.268198083279676,12.562154071911438,-115.50556803865692,-107.897964,25.590328,12.66623,119.16245,-16.111118,-0.96592915,-35.27057,-28.065882,-9.58884,155.69954,-50.000305,-8.012299,19.908478,-4.3626275,29.793802,-13.16574,55.081818,-38.91129,39.923534,8.438557,-20.628124,13.471417,-95.374756,-45.551792,49.233685,28.865168,-9.539842,-16.988895,-6.523951
109,-24.674724578857422,-32.47499084472656,37.658782958984375,4.083700833936349,12.69529437626774,-115.0379374568831,-107.71021,24.897894,12.416669,119.202576,-16.457018,-1.1833738,-34.17599,-28.106688,-10.630014,155.11356,-50.000305,-7.751326,19.207247,-5.0793276,29.793802,-16.282799,55.9517,-40.7228,40.377724,8.756548,-20.801874,13.608222,-95.91217,-45.198933,51.055058,31.787224,-8.318403,-16.696905,-6.0239034
110,-24.90024185180664,-32.77003860473633,37.880889892578125,3.8923558568838774,12.848266393542705,-114.54384944611644,-107.5408,24.175745,12.153132,119.208435,-16.778881,-1.3917603,-33.149094,-28.03953,-11.633998,154.51898,-50.000305,-7.464231,18.454845,-5.8236876,29.793802,-19.406178,56.81566,-42.66091,40.773132,9.135015,-21.044706,13.812695,-96.41956,-44.84957,53.041916,34.710842,-7.023822,-16.380072,-5.59851
111,-25.133968353271484,-33.05878448486328,38.10873794555664,3.6939249334767186,13.025832282424782,-114.02628412315165,-107.399506,23.42735,11.865056,119.1864,-17.07472,-1.6032187,-32.208836,-27.813084,-12.578108,153.91603,-50.000305,-7.061273,17.650665,-6.588501,29.793802,-22.535946,57.669415,-44.64088,41.09976,9.670201,-21.315607,14.017999,-96.87351,-44.50348,55.15947,37.54822,-5.724471,-16.044722,-5.193553
112,-25.375965118408203,-33.34181213378906,38.33977127075195,3.4922023104222744,13.232525102027564,-113.48728001484587,-107.2848,22.664936,11.561359,119.14039,-17.355003,-1.808082,-31.383272,-27.379595,-13.423657,153.30588,-50.000305,-6.440445,16.793098,-7.3667717,29.793802,-25.66943,58.508278,-46.575676,41.351467,10.461157,-21.57494,14.157909,-97.23217,-44.15983,57.358784,40.206284,-4.503913,-15.698295,-4.7530937
113,-25.625553131103516,-33.62466812133789,38.57735824584961,3.2836113202864015,13.47791778218092,-112.93180775933546,-107.20969,21.888752,11.23044,119.06911,-17.610445,-1.9996197,-30.700281,-26.708715,-14.150686,152.67683,-50.000305,-5.5791645,15.882455,-8.16262,29.793802,-28.829332,59.341187,-48.454773,41.530327,11.670929,-21.829916,14.196732,-97.52537,-43.821735,59.706547,42.703377,-3.312329,-15.350985,-4.2727184
114,-25.882165908813477,-33.90540313720703,38.8283805847168,3.0561669557029614,13.773932707727433,-112.3800021524736,-107.18314,21.110243,10.8619585,118.96576,-17.844505,-2.1778781,-30.200903,-25.800222,-14.691237,152.02971,-50.000305,-4.470495,14.938783,-8.967795,29.793802,-32.018448,60.17645,-50.311836,41.63135,13.208481,-22.097214,14.18511,-97.78975,-43.494114,62.21385,45.089874,-2.1378455,-14.999296,-3.7790768
115,-26.129371643066406,-34.181888580322266,39.1161994934082,2.6662108568059177,14.234834244475305,-112.00861195358738,-107.37249,20.431934,10.26465,118.83079,-18.058907,-2.3927681,-30.226007,-24.577475,-14.992546,151.37694,-49.83678,-3.230379,14.143756,-9.667408,29.793802,-35.275166,61.01239,-52.09353,41.619232,14.807752,-22.345564,14.201128,-98.1199,-43.208126,64.7797,47.357,-1.1221173,-14.63226,-3.2629378
116,-26.3729190826416,-34.4558219909668,39.431617736816406,2.2443544377509332,14.709087348203212,-111.63177167221654,-107.541176,19.717922,9.638366,118.638565,-18.261312,-2.6703336,-31.094664,-23.330315,-14.858071,150.50327,-47.995724,-1.7388928,13.323592,-10.3232765,29.793802,-38.49344,61.8318,-53.855957,41.527275,16.158857,-22.550617,14.263409,-98.33166,-42.956593,67.3032,49.421646,-0.3325033,-14.234994,-2.7050374
117,-26.62154197692871,-34.72954177856445,39.7561149597168,1.798818223509585,15.19329279563084,-111.24122672328545,-107.70448,18.962526,8.974567,118.418724,-18.461393,-3.037076,-32.071712,-21.88072,-14.612052,149.60312,-46.009216,0.016025815,12.479892,-10.938516,29.793802,-41.70251,62.62561,-55.631466,41.371933,17.23321,-22.698627,14.391793,-98.42705,-42.739338,69.85103,51.2812,0.2175049,-13.808108,-2.083021
118,-26.874866485595703,-35.006072998046875,40.090309143066406,1.3226470247114814,15.688696225925334,-110.83811938552999,-107.8681,18.166904,8.265568,118.17427,-18.656012,-3.4686844,-33.130962,-20.19401,-14.281033,148.67279,-43.933643,2.0398738,11.618911,-11.500425,29.793802,-44.92797,63.383427,-57.430153,41.15894,18.165808,-22.805965,14.553023,-98.37136,-42.556934,72.39215,52.96155,0.5159184,-13.364623,-1.4071615
119,-27.131244659423828,-35.28586196899414,40.43313980102539,0.8100886635050142,16.176884842838103,-110.42515191984113,-108.02179,17.346952,7.5086637,117.917145,-18.842512,-3.9372509,-34.260036,-18.26003,-13.854891,147.72626,-41.77961,4.360455,10.740725,-12.003208,29.793802,-48.137028,64.09351,-59.219246,40.913586,18.910404,-22.890013,14.71696,-98.32746,-42.420704,75.07807,54.49482,0.84853476,-12.910461,-0.7069875
120,-27.389060974121094,-35.568153381347656,40.78270721435547,0.251486001376641,16.64607447011633,-110.00452469398304,-108.167336,16.516808,6.6965113,117.66193,-19.013914,-4.415105,-35.4575,-16.075195,-13.351812,146.77872,-39.55313,6.98357,9.875368,-12.36663,29.793802,-51.262775,64.71595,-60.922306,40.605602,19.42771,-22.969416,14.851388,-97.896355,-42.311,77.16265,55.851078,0.6281475,-12.4517975,-0.016012462
121,-27.650419235229492,-35.84935760498047,41.135189056396484,-0.3655867062841483,17.09183911976689,-109.57134551477363,-108.302635,15.665661,5.8123236,117.40798,-19.16369,-4.9035387,-36.716167,-13.484046,-12.736923,145.82501,-37.278465,10.029663,9.007108,-12.62914,29.793802,-54.33855,65.249405,-62.588375,40.30063,19.595264,-23.056149,14.944965,-97.41817,-42.241856,79.258026,57.038914,0.37770477,-11.975387,0.68910354
122,-27.9136962890625,-36.1342887878418,41.4954948425293,-1.036690400287185,17.518807817908574,-109.12029976009266,-108.422516,14.783874,4.861575,117.15076,-19.298508,-5.416113,-37.997112,-10.483117,-12.042237,144.86253,-35.0352,13.501108,8.138399,-12.777896,29.793802,-57.35722,65.67967,-64.20802,39.99032,19.473677,-23.140226,15.012854,-96.76713,-42.211964,81.22419,58.051426,-0.081515424,-11.49,1.4185895
123,-28.202617645263672,-36.411773681640625,41.858245849609375,-1.7683753357922996,17.92156650088472,-108.66841272062923,-108.53957,13.882457,3.8023973,116.89611,-19.412462,-5.983701,-39.08229,-8.212017,-12.204883,143.93336,-32.833706,15.000033,7.272435,-12.8218155,29.793802,-60.280037,65.99166,-65.7297,39.688675,19.280504,-23.20685,15.069994,-95.955345,-42.219517,82.970375,58.956905,-0.6237139,-11.030382,2.1267269
124,-28.545135498046875,-36.65717315673828,42.22062683105469,-3.3371872881201754,18.36273546503726,-108.74259830943728,-109.18583,13.046403,1.5774173,116.88693,-19.495478,-6.821871,-40.34921,-6.3811226,-13.44738,142.87665,-30.074585,15.000033,7.056083,-12.032576,29.793802,-63.20251,66.16882,-67.05649,39.23675,19.272257,-23.236185,15.111741,-95.11774,-42.310257,84.44205,60.025017,-1.1195849,-10.641426,2.7729774
125,-28.894084930419922,-36.90163040161133,42.580718994140625,-4.990619909677544,18.751665027679945,-108.84606516596591,-109.77877,12.182202,-0.7553571,116.891335,-19.593245,-7.7307806,-41.616188,-4.775709,-14.827138,141.77847,-27.03094,15.000033,6.9611845,-11.124393,29.793802,-66.2047,66.159676,-68.48071,38.881832,19.384527,-23.220852,15.170893,-93.98695,-42.506172,85.36052,61.009575,-1.7108085,-10.3173,3.3513927
126,-29.249731063842773,-37.14914321899414,42.94013214111328,-6.692673134960789,19.089055047293055,-108.9567635460207,-110.28889,11.290313,-3.1440265,116.89177,-19.703085,-8.692478,-42.873913,-3.4202516,-16.293362,140.67484,-23.758018,15.000033,6.896669,-10.104259,29.793802,-69.02197,65.97576,-69.676575,38.596275,19.622501,-23.176428,15.230974,-92.83432,-42.788578,86.293945,61.854668,-2.0236733,-10.03428,3.8956344
127,-29.587129592895508,-37.40786361694336,43.293785095214844,-8.262621869442778,19.390207893915957,-109.01087856513219,-110.63508,10.42056,-5.3304205,116.8547,-19.844961,-9.600713,-44.086792,-2.579566,-17.540201,139.74644,-20.658096,15.000033,6.7949657,-9.0982685,29.793802,-71.608025,65.61736,-70.62802,38.3708,19.900908,-23.118912,15.290081,-91.3891,-43.120518,86.71199,62.62242,-2.50624,-9.781315,4.3487697
128,-29.879947662353516,-37.69149398803711,43.640968322753906,-9.568275519059446,19.66675731455869,-108.94728669215249,-110.76273,9.606279,-7.1043544,116.76534,-20.041056,-10.346175,-45.217102,-2.3591588,-18.293236,139.12329,-18.144974,15.000033,6.559106,-8.247717,29.793802,-73.94326,65.103165,-71.3504,38.246277,20.149244,-23.06475,15.341857,-89.83939,-43.47792,86.97205,63.34431,-2.7708101,-9.544711,4.6649194
129,-30.120765686035156,-37.997215270996094,43.98112106323242,-10.671546013109545,19.92809713286678,-108.7951621421358,-110.7315,8.851177,-8.547429,116.63655,-20.2747,-10.930695,-46.310024,-2.6920347,-18.641195,138.76743,-16.047955,15.000033,6.2189565,-7.4959707,29.793802,-76.02407,64.44807,-71.82318,38.21568,20.367308,-23.020811,15.37414,-88.21444,-43.842728,87.11009,64.055565,-2.6485531,-9.330795,4.820866
130,-30.320934295654297,-38.319374084472656,44.318016052246094,-11.646173642958157,20.176696038960262,-108.58980137306709,-110.59532,8.14698,-9.773333,116.48595,-20.535242,-11.401273,-47.417465,-3.4281778,-18.687418,138.60704,-14.208629,15.000033,5.820933,-6.7802334,29.793802,-77.87267,63.665413,-72.05329,38.265335,20.583237,-22.97741,15.391993,-86.49665,-44.203262,87.086685,64.75556,-2.2433226,-9.142154,4.84318
131,-30.47708511352539,-38.665245056152344,44.64391326904297,-12.385087101970205,20.415204869783295,-108.274231419106,-110.31857,7.5029674,-10.63775,116.310646,-20.843325,-11.719008,-48.544846,-4.48506,-18.180895,138.6864,-13.023386,15.000033,5.2965035,-6.187432,29.793802,-79.4902,62.775875,-72.07737,38.390404,20.76707,-22.92755,15.4141655,-84.67798,-44.545364,86.913864,65.43723,-1.8099326,-8.95885,4.761199
132,-30.579021453857422,-39.0423698425293,44.949520111083984,-12.765698758890366,20.644934909822826,-107.78421719634717,-109.864296,6.928749,-10.982,116.11037,-21.21893,-11.84193,-49.695602,-5.790322,-16.848932,139.05911,-12.914413,15.000033,4.554689,-5.839662,29.793802,-80.86535,61.808537,-71.919464,38.59856,20.912308,-22.864592,15.458677,-82.83195,-44.858246,86.777374,66.07173,-1.4409271,-8.760513,4.6092796
133,-30.610355377197266,-39.45561218261719,45.22294998168945,-12.60685085886673,20.875562466100195,-107.0266832878686,-109.17946,6.4292345,-10.5569,115.847855,-21.664057,-11.690449,-50.826546,-7.492363,-14.343554,139.91493,-14.412854,15.000033,3.4669142,-5.899374,29.793802,-81.891556,60.790806,-71.45929,38.90226,21.081306,-22.787073,15.532898,-80.942566,-45.11395,86.642334,66.634995,-1.2323427,-8.5363455,4.3574824
134,-30.579814910888672,-39.88969039916992,45.45817184448242,-11.900286312128118,21.097872365933775,-106.0298188234913,-108.2838,6.004794,-9.383861,115.51295,-22.155636,-11.280027,-51.97224,-9.752748,-10.711928,141.22055,-17.23107,15.000033,2.0501637,-6.374236,29.793802,-82.71127,59.76715,-70.84051,39.299675,21.180042,-22.70079,15.625992,-79.04762,-45.28831,86.50984,67.154045,-1.0745579,-8.298268,4.0116277
135,-30.521244049072266,-40.32431411743164,45.65389633178711,-10.79929875970226,21.278327311964134,-104.90559510566332,-107.24285,5.6398435,-7.730779,115.14096,-22.67682,-10.722548,-53.261986,-12.470742,-6.2950406,142.66672,-20.553593,15.000033,0.41791767,-7.179365,29.793802,-83.35144,58.77556,-70.059616,39.739605,21.295094,-22.611681,15.722266,-77.1872,-45.372444,86.36045,67.64223,-0.9537756,-8.056587,3.6520178
136,-30.473236083984375,-40.74875259399414,45.81620407104492,-9.562586441894487,21.38343079379249,-103.78064365346441,-106.14772,5.294834,-5.9819927,114.79386,-23.21645,-10.154108,-54.83582,-15.326606,-1.5732998,143.90012,-23.527357,15.000033,-1.2645599,-8.093769,29.793802,-83.91127,57.84585,-69.22085,40.13952,21.410875,-22.521803,15.806693,-75.329506,-45.372154,86.07001,68.14513,-0.95409,-7.8221245,3.3553126
137,-30.476383209228516,-41.14935302734375,45.96141815185547,-8.86817212540564,21.455716020407134,-103.06031078268626,-105.31992,5.0227604,-5.0065928,114.64062,-23.778769,-9.789933,-57.07019,-18.865484,2.4848375,144.81288,-25.686079,13.420102,-2.4991968,-8.543022,29.793802,-84.47873,56.965183,-68.33092,40.365612,21.526371,-22.416647,15.861879,-73.4497,-45.334766,85.55617,68.78164,-1.1227273,-7.610566,3.1162698
138,-30.545270919799805,-41.525177001953125,46.101036071777344,-8.683693561254207,21.51336160425429,-102.67395329508047,-104.7225,4.807764,-4.7636094,114.64491,-24.351898,-9.636336,-60.176243,-24.541182,4.887324,145.52159,-27.702806,7.0900517,-3.367914,-8.564946,29.793802,-84.96948,56.10138,-67.33325,40.432888,21.667929,-22.294853,15.896241,-71.49063,-45.29589,84.81666,69.49209,-1.4437343,-7.412621,2.8931184
139,-30.628236770629883,-41.903953552246094,46.22005081176758,-8.591350376755766,21.513961141193995,-102.31231014860198,-104.13076,4.5759497,-4.6609073,114.7298,-24.957067,-9.521013,-63.686367,-29.355797,7.3608074,145.89926,-29.905575,1.4020041,-4.189444,-8.464294,29.793802,-85.37347,55.249714,-66.32331,40.422268,21.801992,-22.173058,15.924864,-69.44237,-45.257336,83.95357,70.169846,-1.7595369,-7.216341,2.697392
140,-30.729225158691406,-42.28302001953125,46.3221549987793,-8.719040993024793,21.479458007327242,-102.0589805307854,-103.60528,4.351978,-4.8581815,114.919334,-25.593987,-9.499485,-67.317825,-32.508556,9.644755,145.74141,-31.792278,-2.7068112,-4.8629837,-8.146783,29.793802,-85.73826,54.402206,-65.35808,40.31592,21.93556,-22.062862,15.953052,-67.29982,-45.23139,82.98725,70.824356,-1.9240392,-7.0234766,2.5237904
141,-30.85281753540039,-42.661376953125,46.412845611572266,-9.091553322501321,21.427222143841284,-101.9691975349064,-103.17133,4.1869,-5.3845334,115.21852,-26.269,-9.579726,-70.890976,-33.702534,11.798887,144.99876,-32.909252,-4.853128,-5.3310637,-7.598976,29.793802,-86.05527,53.54815,-64.40273,40.092636,22.097824,-21.960773,15.982645,-65.05513,-45.230373,81.85471,71.44955,-1.9029,-6.8301325,2.358771
142,-30.991518020629883,-43.04301834106445,46.49024963378906,-9.611327730932825,21.359559258372062,-102.0043945417715,-102.792015,4.09152,-6.1118045,115.60032,-26.984972,-9.720427,-74.33876,-33.539436,13.888753,143.80759,-33.360435,-5.6224365,-5.6453156,-6.903266,29.793802,-86.34531,52.684345,-63.465023,39.786274,22.265066,-21.863085,16.012123,-62.721943,-45.25978,80.55161,72.0206,-1.7722411,-6.637089,2.2040555
143,-31.14067840576172,-43.42955017089844,46.55552673339844,-10.186800119105973,21.279507909047013,-102.09961457990406,-102.42415,4.0430164,-6.920929,116.025986,-27.733902,-9.893424,-77.517494,-32.695667,15.654065,142.25497,-33.43295,-5.571096,-5.885552,-6.149186,29.793802,-86.63298,51.815395,-62.58244,39.451534,22.430676,-21.782297,16.0419,-60.311695,-45.319077,79.15329,72.50466,-1.5683719,-6.451903,2.0752795
144,-31.29199981689453,-43.821815490722656,46.608306884765625,-10.752888808714989,21.191157838318286,-102.20123205415766,-102.03716,4.0149136,-7.7254624,116.471825,-28.50932,-10.077828,-80.38699,-31.761429,16.952955,140.40569,-33.411697,-5.133392,-6.1175823,-5.4008727,29.793802,-86.95344,50.95278,-61.80834,39.1362,22.568928,-21.72946,16.071247,-57.835308,-45.40335,77.72877,72.883835,-1.3377813,-6.282663,1.9891078
145,-31.447649002075195,-44.22391128540039,46.651763916015625,-11.318872832088777,21.09538250842745,-102.31743256460362,-101.63386,4.0108504,-8.537372,116.93677,-29.313705,-10.285607,-82.93642,-30.676117,17.81017,138.19746,-33.307014,-4.1457157,-6.337613,-4.6521153,29.793802,-87.289,50.10603,-61.13049,38.81463,22.659925,-21.714285,16.104185,-55.296303,-45.50791,76.280525,73.17072,-1.025065,-6.1312165,1.9714433
146,-31.603023529052734,-44.632511138916016,46.68557357788086,-11.892508995447509,20.991108693427453,-102.46331909334889,-101.22164,4.0461326,-9.367718,117.42841,-30.150854,-10.516449,-85.174255,-29.305834,18.385397,135.61865,-33.05797,-2.470503,-6.5316877,-3.8964865,29.793802,-87.627625,49.28281,-60.526154,38.467464,22.719189,-21.728075,16.138718,-52.69031,-45.626724,74.76745,73.3608,-0.63336056,-5.992274,2.00596
147,-31.75766372680664,-45.04881286621094,46.70791244506836,-12.428163293100521,20.88133139127374,-102.60855709998062,-100.78733,4.112878,-10.157749,117.93111,-31.01281,-10.738359,-87.19507,-28.067661,18.73094,132.80132,-32.77454,-0.55890137,-6.738263,-3.1850784,29.793802,-88.00227,48.494396,-60.0276,38.148773,22.779078,-21.754734,16.165228,-50.021473,-45.752064,73.22709,73.41381,-0.26534423,-5.86375,2.047345
148,-31.912586212158203,-45.47178649902344,46.71913528442383,-12.89396156810667,20.770736345046142,-102.7321733445777,-100.32403,4.2053914,-10.866427,118.43329,-31.891401,-10.924909,-89.11319,-27.35004,18.806795,129.87593,-32.503326,1.1244745,-6.9858913,-2.5574906,29.793802,-88.44477,47.75452,-59.66566,37.90738,22.869854,-21.778303,16.17421,-47.2932,-45.872765,71.68736,73.296745,-0.033972733,-5.743835,2.0504577
149,-32.06794357299805,-45.89995574951172,46.72007369995117,-13.297468716315182,20.658906288712572,-102.84294720926529,-99.83084,4.329186,-11.4954,118.9355,-32.797142,-11.062803,-91.00819,-27.341099,18.437479,126.7987,-32.202656,2.4190667,-7.273824,-2.01074,29.793802,-88.94967,47.07426,-59.44812,37.73163,23.001774,-21.798489,16.168392,-44.515396,-45.97895,70.19645,73.00468,0.043801706,-5.624467,1.9984492
150,-32.22700500488281,-46.33565139770508,46.711082458496094,-13.663897775729144,20.54515442181111,-102.95625153998044,-99.31758,4.486742,-12.079294,119.44693,-33.730904,-11.173041,-92.81959,-27.802547,17.654583,123.51671,-31.829954,3.6011317,-7.5876184,-1.5218171,29.793802,-89.49169,46.46121,-59.351368,37.588837,23.156824,-21.821953,16.149673,-41.690292,-46.061077,68.73016,72.5617,0.021530291,-5.5085297,1.9178566
151,-32.39652633666992,-46.77501678466797,46.69417953491211,-13.98932162281709,20.433231464637416,-103.06126115434225,-98.79487,4.667841,-12.624569,119.96433,-34.66872,-11.276921,-94.4638,-28.469837,16.624083,120.15467,-31.392162,4.794321,-7.9355407,-1.1006278,29.793802,-90.07935,45.92332,-59.36959,37.500885,23.314215,-21.842129,16.106838,-38.81057,-46.10797,67.221436,71.97614,-0.094465286,-5.411322,1.828473
152,-32.578372955322266,-47.21527862548828,46.6690673828125,-14.261721174911445,20.326132132777985,-103.1418728761863,-98.26912,4.861617,-13.127498,120.48248,-35.586296,-11.392452,-95.881676,-29.084337,15.536583,116.83691,-30.898197,6.097456,-8.331438,-0.7644556,29.793802,-90.719635,45.4677,-59.496998,37.49089,23.454327,-21.85292,16.028965,-35.86882,-46.106033,65.602264,71.253365,-0.30155316,-5.347898,1.7500818
153,-32.77420425415039,-47.65427780151367,46.632652282714844,-14.480922106701296,20.22485715590254,-103.20273850193092,-97.73619,5.06997,-13.585712,120.99509,-36.490883,-11.524389,-97.072784,-29.645489,14.329229,113.5154,-30.288599,7.5571003,-8.778493,-0.51958334,29.793802,-91.42743,45.101753,-59.758133,37.56433,23.596964,-21.857773,15.9181595,-32.869434,-46.04145,63.84344,70.37474,-0.6558766,-5.332771,1.695363
154,-32.98929214477539,-48.092288970947266,46.582759857177734,-14.650027630930325,20.12692889079413,-103.2468940320285,-97.19249,5.2935567,-13.998493,121.50708,-37.39054,-11.6624975,-98.07167,-30.259947,12.958597,110.1507,-29.566217,9.133181,-9.277961,-0.36217496,29.793802,-92.189125,44.82749,-60.14919,37.703,23.74201,-21.858002,15.777941,-29.825274,-45.902775,61.997208,69.3462,-1.1420904,-5.3534427,1.6509391
155,-33.22685241699219,-48.52827072143555,46.51961135864258,-14.75451489307383,20.02815950581351,-103.2498418311681,-96.642136,5.52097,-14.354762,122.02544,-38.261345,-11.799285,-98.90957,-30.842758,11.600247,106.887054,-28.837425,10.697752,-9.846706,-0.30227494,29.793802,-92.97423,44.641926,-60.62817,37.902626,23.83863,-21.8438,15.598576,-26.751549,-45.68141,60.136795,68.21311,-1.642449,-5.3856936,1.5982368
156,-33.488895416259766,-48.95926284790039,46.44309997558594,-14.779224752770109,19.924071983870125,-103.18652159596999,-96.08857,5.737721,-14.642447,122.55878,-39.079323,-11.926847,-99.62595,-31.316648,10.434037,103.87066,-28.210762,12.117569,-10.501159,-0.34860447,29.793802,-93.753685,44.539513,-61.15278,38.16095,23.836512,-21.805084,15.37045,-23.660896,-45.371788,58.33407,67.0238,-2.039067,-5.4053516,1.5182924
157,-33.77715301513672,-49.38532257080078,46.353851318359375,-14.715575602034948,19.81374026998139,-103.0451950968624,-95.52518,5.9537377,-14.8427,123.1034,-39.859795,-12.028242,-100.23066,-31.659315,9.466399,101.09332,-27.692083,13.371249,-11.2508955,-0.50868094,29.793802,-94.539566,44.518776,-61.736313,38.482224,23.738066,-21.733606,15.081536,-20.546148,-44.965336,56.5932,65.77343,-2.2691627,-5.3995914,1.4015249
158,-34.085670471191406,-49.805782318115234,46.24831008911133,-14.571815202135221,19.696833348287296,-102.83834830462258,-94.949234,6.168097,-14.965845,123.65806,-40.608578,-12.11205,-100.72157,-31.920727,8.624175,98.49471,-27.229965,14.515768,-12.088741,-0.77851486,29.793802,-95.34889,44.579693,-62.4021,38.868534,23.562672,-21.635786,14.739773,-17.422735,-44.454876,54.900208,64.453964,-2.4069405,-5.384256,1.2565082
159,-34.41813659667969,-50.21390914916992,46.127899169921875,-14.398236099676934,19.58269433947907,-102.62534111261091,-94.40411,6.379141,-15.101916,124.23328,-41.28022,-12.232517,-101.13382,-32.171528,7.759244,96.13552,-26.821852,15.000033,-12.956057,-1.1192695,29.793802,-96.17309,44.71652,-63.11643,39.307796,23.29066,-21.523054,14.363755,-14.326227,-43.844845,53.27627,63.10726,-2.5384257,-5.378722,1.0866079
160,-34.775272369384766,-50.608001708984375,45.992984771728516,-14.246561353896814,19.482770351380616,-102.47137167153916,-93.934135,6.592196,-15.333108,124.84797,-41.842373,-12.436785,-101.46703,-32.361416,6.8951154,94.06994,-26.46451,15.000033,-13.778443,-1.4836681,29.793802,-97.009735,44.920967,-63.846405,39.78764,22.900745,-21.40713,13.971167,-11.270835,-43.15198,51.71872,61.759365,-2.760436,-5.4027414,0.8939937
161,-35.14423751831055,-50.996524810791016,45.84090805053711,-14.00853064487614,19.370046124036143,-102.24667525114157,-93.46156,6.708931,-15.5218315,125.49882,-42.28169,-12.688319,-101.727745,-32.46476,6.3285646,92.35087,-26.229511,15.000033,-14.680061,-1.9399482,29.793802,-97.825264,45.18515,-64.591774,40.331776,22.343615,-21.294188,13.559596,-8.255558,-42.386536,50.31177,60.410645,-3.0051858,-5.461176,0.66272366
162,-35.524051666259766,-51.37700271606445,45.672847747802734,-13.688281729902412,19.24273587586092,-101.95062718861301,-92.979774,6.746869,-15.660453,126.18035,-42.622696,-12.970627,-101.909775,-32.481167,6.017147,90.94519,-26.094637,15.000033,-15.660807,-2.4870718,29.793802,-98.635284,45.506565,-65.37103,40.941612,21.646526,-21.174728,13.123236,-5.2567673,-41.555294,49.01742,59.036873,-3.2640924,-5.5442553,0.3949095
163,-35.91122055053711,-51.75037384033203,45.48979568481445,-13.311948515190043,19.089368391862088,-101.60199690874376,-92.48136,6.7271457,-15.769145,126.88604,-42.89247,-13.268078,-102.018585,-32.438374,5.935095,89.87515,-25.980072,15.000033,-16.70487,-3.1041229,29.793802,-99.41104,45.88011,-66.15422,41.60178,20.913155,-21.039213,12.686447,-2.2873003,-40.66759,47.777798,57.66535,-3.6728942,-5.639373,0.15023689
164,-36.30186462402344,-52.11642837524414,45.29262924194336,-12.906038642849005,18.9020734633772,-101.22142933618747,-91.9638,6.6720862,-15.867295,127.609825,-43.117664,-13.565086,-102.05978,-32.363396,6.0583453,89.16222,-25.805054,15.000033,-17.785213,-3.7611964,29.793802,-100.121635,46.294296,-66.90241,42.292107,20.247356,-20.880047,12.273446,0.5706153,-39.740074,46.62933,56.371353,-4.2744493,-5.7320714,-0.007876685
165,-36.691650390625,-52.47380828857422,45.08003616333008,-12.448259784062433,18.67091346569124,-100.7919927614369,-91.41838,6.5631866,-15.928919,128.36157,-43.281155,-13.859579,-101.99491,-32.249,6.438683,88.874466,-25.58802,15.000033,-18.916292,-4.4747734,29.793802,-100.76833,46.743202,-67.61327,43.02902,19.685871,-20.69456,11.898073,3.3619268,-38.786106,45.53811,55.131695,-5.1861095,-5.828852,-0.03358801
166,-37.08158493041992,-52.821754455566406,44.85731887817383,-11.938943519921141,18.402309803152136,-100.31330399706638,-90.85068,6.3946714,-15.956627,129.13902,-43.37832,-14.162417,-101.83116,-32.08193,7.054861,88.97965,-25.360132,15.000033,-20.089909,-5.238545,29.793802,-101.369354,47.221188,-68.29744,43.815,19.172611,-20.488392,11.546168,6.117684,-37.81752,44.49453,53.915676,-6.3285937,-5.9346695,0.030786281
167,-37.47043228149414,-53.161476135253906,44.62759017944336,-11.431367407572955,18.111345113037185,-99.82735137022568,-90.275276,6.211132,-16.002914,129.92549,-43.453823,-14.470738,-101.65371,-31.891552,7.7834167,89.35132,-25.047972,15.000033,-21.261055,-6.0059958,29.793802,-101.92008,47.72148,-68.946396,44.62589,18.66973,-20.267393,11.200142,8.811893,-36.84459,43.469093,52.732704,-7.5472827,-6.0337405,0.117120676
168,-37.8585205078125,-53.49165725708008,44.3951416015625,-10.978734531924163,17.81543856346507,-99.37544356638422,-89.707054,6.0579724,-16.122313,130.70091,-43.55533,-14.78358,-101.54809,-31.701754,8.500066,89.8636,-24.582075,15.000033,-22.386019,-6.7296305,29.793802,-102.419914,48.236584,-69.56056,45.440716,18.131954,-20.036844,10.842941,11.415717,-35.87704,42.43607,51.59678,-8.686609,-6.10846,0.15942979
169,-38.249393463134766,-53.815120697021484,44.16307830810547,-10.594991029895997,17.52456010260633,-98.97601042424377,-89.16283,5.9750586,-16.292171,131.4641,-43.688602,-15.000033,-101.5492,-31.516052,9.198867,90.524536,-23.787556,15.000033,-23.446611,-7.391224,29.793802,-102.8691,48.761818,-70.12909,46.264153,17.561071,-19.783556,10.465324,13.961883,-34.91929,41.328815,50.492737,-9.796622,-6.1591954,0.17005028
170,-38.64137268066406,-54.13486862182617,43.93120574951172,-10.242567698156252,17.231614578741684,-98.600281713561,-88.642365,5.959777,-16.428738,132.21927,-43.82514,-15.000033,-101.6185,-31.329475,9.956154,91.38439,-22.748922,15.000033,-24.468304,-8.017198,29.793802,-103.26331,49.292465,-70.64486,47.111423,16.982512,-19.509464,10.0801935,16.472301,-33.97622,40.16623,49.402145,-10.927472,-6.193176,0.17968757
171,-39.028141021728516,-54.4508171081543,43.69816589355469,-9.851621583562551,16.932682153783812,-98.19748704384554,-88.10843,5.9414887,-16.518082,132.95172,-43.95624,-15.000033,-101.77519,-31.1569,10.831565,92.38842,-21.78079,15.000033,-25.499144,-8.66693,29.793802,-103.62371,49.82538,-71.127014,47.983833,16.378119,-19.243113,9.702933,18.889997,-33.059765,39.044327,48.334156,-11.926299,-6.2004647,0.14609146
172,-39.412235260009766,-54.7630729675293,43.45782470703125,-9.473420136156157,16.60866288395225,-97.77108088093122,-87.550476,5.9045844,-16.636879,133.67906,-44.093616,-15.000033,-101.91948,-30.98871,11.713307,93.470955,-21.219425,15.000033,-26.527054,-9.308854,29.793802,-103.908745,50.35369,-71.5795,48.872334,15.741309,-19.011848,9.350658,21.175657,-32.182377,38.07713,47.32048,-12.633561,-6.170368,0.03479327
173,-39.793663024902344,-55.07333755493164,43.20878219604492,-9.096382978219445,16.245656622991216,-97.29832420037489,-86.94978,5.8322635,-16.770521,134.41093,-44.23927,-15.000033,-102.04903,-30.830124,12.6349535,94.672745,-21.284807,15.000033,-27.577543,-9.962968,29.793802,-104.104614,50.87539,-71.99408,49.7978,15.036707,-18.834381,9.025561,23.337185,-31.357683,37.2749,46.386116,-12.958695,-6.092704,-0.17570306
174,-40.175411224365234,-55.382102966308594,42.95549774169922,-8.728917104915777,15.85193444121514,-96.79756096800078,-86.316765,5.742069,-16.924194,135.1418,-44.393997,-15.000033,-102.175934,-30.672821,13.597654,96.00738,-21.761908,15.000033,-28.63481,-10.618472,29.793802,-104.22936,51.39186,-72.38257,50.762775,14.267178,-18.692087,8.719979,25.407946,-30.593689,36.57312,45.50921,-12.997778,-5.976547,-0.46009955
175,-40.561038970947266,-55.68757629394531,42.70147705078125,-8.387876008501436,15.449779227831666,-96.30619301753514,-85.67848,5.6638203,-17.1201,135.86263,-44.55739,-15.000033,-102.279816,-30.49653,14.526043,97.367775,-22.319767,15.000033,-29.657827,-11.2543125,29.793802,-104.284836,51.901295,-72.733505,51.73295,13.528818,-18.557566,8.434641,27.362738,-29.893785,35.97179,44.65769,-12.87476,-5.8406253,-0.7886852
176,-40.95368194580078,-55.987972259521484,42.447784423828125,-8.090989792746536,15.063967748636344,-95.86264065207864,-85.063324,5.628363,-17.383282,136.56064,-44.72829,-15.000033,-102.34266,-30.281246,15.339009,98.647934,-22.627436,15.000033,-30.602736,-11.84382,29.793802,-104.30863,52.401268,-73.08994,52.680378,12.871921,-18.403563,8.169959,29.170706,-29.25963,35.47078,43.811832,-12.715778,-5.7029214,-1.1329345
177,-41.353511810302734,-56.279598236083984,42.197113037109375,-7.85719732954489,14.699652714277228,-95.48145665580432,-84.48592,5.656596,-17.746338,137.23618,-44.910393,-15.000033,-102.34938,-29.992195,15.994953,99.81905,-22.535316,15.000033,-31.456558,-12.375197,29.793802,-104.313385,52.889378,-73.47947,53.608265,12.288986,-18.225159,7.933963,30.833101,-28.696512,35.079082,42.985542,-12.485889,-5.551762,-1.5251795
178,-41.7567253112793,-56.5615119934082,41.95380783081055,-7.672629174152672,14.346842264561342,-95.14125623064369,-83.92924,5.7311826,-18.189106,137.89426,-45.102047,-15.000033,-102.31423,-29.653141,16.531616,100.93837,-22.240093,15.000033,-32.243702,-12.866474,29.793802,-104.27094,53.36408,-73.86627,54.533108,11.769032,-18.037666,7.723763,32.364616,-28.209913,34.788372,42.193626,-12.139473,-5.3858113,-1.9682931
179,-42.158843994140625,-56.83604049682617,41.716758728027344,-7.506636300347135,14.006562342995482,-94.82654011973166,-83.38034,5.824334,-18.662062,138.52745,-45.29082,-15.000033,-102.26835,-29.337648,16.991114,102.02831,-21.929613,15.000033,-32.972748,-13.321034,29.793802,-104.23673,53.827095,-74.33129,55.45466,11.240912,-17.84321,7.5223155,33.764294,-27.798601,34.55982,41.41178,-11.789216,-5.2343445,-2.3897033
180,-42.559600830078125,-57.10609436035156,41.48439025878906,-7.326063261728883,13.675737474480583,-94.52059929420142,-82.82069,5.907258,-19.113255,139.13104,-45.466377,-15.000033,-102.240166,-29.114695,17.425789,103.11233,-21.791254,15.000033,-33.670406,-13.792633,29.793802,-104.0248,54.272144,-74.53912,56.352345,11.005123,-17.646215,7.3141904,34.98657,-27.451658,34.41178,40.634743,-11.539484,-5.125343,-2.7121475
181,-42.95701217651367,-57.37276840209961,41.25735855102539,-7.129933687313641,13.355393844684981,-94.219527389114,-82.25111,5.975326,-19.5432,139.70625,-45.63481,-15.000033,-102.24088,-29.017262,17.84003,104.20332,-21.89082,15.000033,-34.322124,-14.238372,29.793802,-103.850815,54.705532,-74.862175,57.244934,10.760219,-17.443665,7.0964007,36.05667,-27.172056,34.276653,39.86817,-11.470694,-5.0662584,-2.9004283
182,-43.347694396972656,-57.63398361206055,41.03864288330078,-6.930616744455579,13.04376089520453,-93.93083019043429,-81.67446,6.0427523,-19.973345,140.2557,-45.802887,-15.000033,-102.25618,-29.004803,18.21828,105.2871,-22.123388,15.000033,-34.93151,-14.678084,29.793802,-103.644226,55.124252,-75.18512,58.135235,10.608295,-17.236296,6.8757415,36.96316,-26.96149,34.19493,39.12887,-11.504681,-5.040621,-2.99963
183,-43.73405838012695,-57.89107131958008,40.83104705810547,-6.719000356761156,12.74294209708927,-93.65796800072576,-81.09953,6.107064,-20.391272,140.77084,-45.93895,-15.000033,-102.28249,-29.026731,18.581507,106.348656,-22.417053,15.000033,-35.489666,-15.096915,29.793802,-103.439545,55.53082,-75.56921,59.01064,10.418728,-17.026487,6.6476326,37.73375,-26.814646,34.157055,38.390667,-11.551257,-5.035349,-3.0669303
184,-44.117881774902344,-58.14519500732422,40.63391876220703,-6.485848318567287,12.452417772090632,-93.40441093324675,-80.52191,6.164181,-20.7834,141.24913,-46.03179,-15.000033,-102.310326,-29.03316,18.94827,107.372635,-22.708288,15.000033,-36.00209,-15.51816,29.793802,-103.111435,55.922497,-75.76781,59.852985,10.334783,-16.817858,6.4086103,38.35802,-26.717493,34.199768,37.645206,-11.512019,-5.039232,-3.1573584
185,-44.49907684326172,-58.395355224609375,40.445796966552734,-6.229211073833343,12.175578795995666,-93.1702516401951,-79.96049,6.213555,-21.153452,141.6891,-46.05645,-15.000033,-102.3457,-29.041441,19.317162,108.35825,-23.024837,15.000033,-36.459343,-15.914109,29.793802,-102.76863,56.304813,-75.9995,60.666107,10.143502,-16.606888,6.1514325,38.845417,-26.665878,34.300068,36.903667,-11.399174,-5.0567484,-3.2803254
186,-44.87715148925781,-58.64008712768555,40.26896667480469,-5.953282161335079,11.909229028073334,-92.95422470104991,-79.407745,6.2554584,-21.509094,142.09361,-46.031574,-15.000033,-102.38838,-29.065435,19.680805,109.31444,-23.388298,15.000033,-36.86874,-16.304672,29.793802,-102.37576,56.67667,-76.19591,61.456673,9.950938,-16.393438,5.8797383,39.172894,-26.659054,34.472477,36.18723,-11.25001,-5.0921984,-3.4090407
187,-45.251766204833984,-58.881614685058594,40.102203369140625,-5.658353611563764,11.651650741497278,-92.75883511617069,-78.84857,6.2930226,-21.842958,142.46082,-45.968845,-15.000033,-102.43351,-29.060028,20.047611,110.2339,-23.709736,15.000033,-37.220222,-16.679482,29.793802,-101.94589,57.039413,-76.375755,62.209305,9.743202,-16.181646,5.6072116,39.370903,-26.69149,34.686466,35.47028,-11.030436,-5.132315,-3.5519037
188,-45.6224250793457,-59.11901092529297,39.94712448120117,-5.344691707753145,11.400507234934036,-92.58688041593372,-78.26887,6.3284,-22.147898,142.78522,-45.878895,-15.000033,-102.47453,-28.977934,20.423567,111.11306,-23.900732,15.000033,-37.506435,-17.039701,29.793802,-101.45298,57.392212,-76.47668,62.908485,9.579163,-15.976114,5.3469095,39.456432,-26.754784,34.92526,34.73645,-10.704361,-5.164455,-3.7168837
189,-45.99261474609375,-59.35386276245117,39.80268478393555,-5.014617001096852,11.156025063262021,-92.44528291545137,-77.66589,6.3709145,-22.429802,143.07027,-45.76346,-15.000033,-102.49987,-28.774878,20.805033,111.94152,-23.877522,15.000033,-37.714928,-17.377813,29.793802,-100.89809,57.73349,-76.505394,63.54258,9.494436,-15.771978,5.100578,39.424026,-26.843533,35.1987,33.999332,-10.239478,-5.1913857,-3.918653
190,-46.362281799316406,-59.58628845214844,39.66984558105469,-4.667419717513048,10.91915271272971,-92.33130769275623,-77.049034,6.4161024,-22.692226,143.31526,-45.61462,-15.000033,-102.513885,-28.482689,21.18503,112.7247,-23.70651,15.000033,-37.85181,-17.699501,29.793802,-100.28212,58.061886,-76.46999,64.12275,9.466418,-15.56919,4.86095,39.260178,-26.956753,35.515747,33.273426,-9.663602,-5.2193217,-4.149433
191,-46.72970962524414,-59.815406799316406,39.54678726196289,-4.298595795280896,10.689177700173694,-92.23330460197487,-76.416336,6.447278,-22.921589,143.51697,-45.436764,-15.000033,-102.53462,-28.180035,21.566391,113.48278,-23.526821,15.000033,-37.9359,-18.01261,29.793802,-99.605644,58.37925,-76.369415,64.665924,9.408517,-15.379582,4.6287775,38.984207,-27.090258,35.84561,32.53026,-9.03286,-5.239909,-4.384248
192,-47.09432601928711,-60.041839599609375,39.43259048461914,-3.9030315431576286,10.465353165029422,-92.13937519381706,-75.76557,6.4472284,-23.103365,143.67245,-45.23411,-15.000033,-102.580185,-27.939886,21.955305,114.234795,-23.4773,15.000033,-37.9849,-18.32258,29.793802,-98.87797,58.689934,-76.22592,65.18544,9.212758,-15.2135725,4.405644,38.616665,-27.239695,36.152355,31.744505,-8.405566,-5.2438025,-4.598953
193,-47.45451354980469,-60.265098571777344,39.32849884033203,-3.468236154004077,10.250155704764012,-92.05039601213016,-75.09418,6.400509,-23.21817,143.77357,-44.996845,-15.000033,-102.67185,-27.78787,22.366037,114.98067,-23.587402,15.000033,-37.997124,-18.635029,29.793802,-98.10011,58.9964,-76.01209,65.67272,8.896466,-15.078113,4.199148,38.151665,-27.39999,36.439243,30.917904,-7.7765975,-5.2345004,-4.7866006
194,-47.81338119506836,-60.485225677490234,39.235443115234375,-3.0000451410615163,10.042056729080405,-91.97234635035453,-74.40368,6.3197145,-23.28067,143.82362,-44.726192,-15.000033,-102.79532,-27.682299,22.794912,115.71211,-23.785606,15.000033,-37.965473,-18.947006,29.793802,-97.264244,59.29959,-75.73024,66.11989,8.496228,-14.965108,4.006735,37.577854,-27.568779,36.724213,30.067677,-7.122701,-5.2145753,-4.961188
195,-48.171688079833984,-60.7050666809082,39.153202056884766,-2.520092704577036,9.833549379023838,-91.89963835391309,-73.69651,6.2297115,-23.324762,143.84297,-44.445915,-15.000033,-102.917656,-27.595211,23.22477,116.439926,-24.05873,15.000033,-37.902035,-19.256025,29.793802,-96.35558,59.601124,-75.413994,66.54291,7.964467,-14.8628,3.8150706,36.8993,-27.748276,36.999866,29.193495,-6.473002,-5.173006,-5.1302238
196,-48.53313446044922,-60.924774169921875,39.07746124267578,-2.05036540474097,9.617389346451008,-91.82684139615105,-72.97778,6.1538587,-23.386108,143.84616,-44.174404,-15.000033,-103.0059,-27.503088,23.637955,117.17246,-24.393867,15.000033,-37.82092,-19.560444,29.793802,-95.35554,59.902554,-75.086784,66.95957,7.2626038,-14.758643,3.6113675,36.12185,-27.942444,37.26176,28.288189,-5.8541565,-5.09845,-5.300422
197,-48.8976936340332,-61.146419525146484,39.00634765625,-1.5925266888600451,9.391281007860094,-91.75457509999373,-72.241,6.0916224,-23.471405,143.83795,-43.91576,-15.000033,-103.054016,-27.39758,24.03464,117.91441,-24.804567,15.000033,-37.72079,-19.86041,29.793802,-94.25654,60.20446,-74.752,67.367004,6.22004,-14.660181,3.391529,35.237324,-28.155594,37.528122,27.352987,-5.2457285,-4.9910784,-5.468652
198,-49.26536560058594,-61.36928939819336,38.94025421142578,-1.1367281493610997,9.158700058824971,-91.68537540360619,-71.488,6.0315375,-23.565615,143.8073,-43.655853,-15.000033,-103.07782,-27.29498,24.423927,118.65941,-25.292263,15.000033,-37.599323,-20.158875,29.793802,-93.065125,60.507435,-74.39299,67.7588,4.913843,-14.5683365,3.1641715,34.244793,-28.387516,37.802315,26.384726,-4.6394434,-4.8551126,-5.633124
199,-49.63554763793945,-61.59172058105469,38.87968826293945,-0.6878309296674594,8.921594528495874,-91.61525897271748,-70.7253,5.978078,-23.667643,143.75774,-43.40346,-15.000033,-103.073975,-27.198706,24.79756,119.405495,-25.828833,15.000033,-37.46552,-20.4516,29.793802,-91.79822,60.81461,-74.038246,68.14346,3.6459227,-14.461241,2.9353776,33.162758,-28.636343,38.048637,25.373594,-4.083543,-4.685588,-5.803238
200,-50.00807571411133,-61.81388473510742,38.82460403442383,-0.2510038385135803,8.681885732552102,-91.54065053732579,-69.96212,5.9366984,-23.778399,143.68642,-43.16188,-15.000033,-103.03914,-27.114803,25.147194,120.14966,-26.38555,15.000033,-37.32899,-20.737368,29.793802,-90.46523,61.12914,-73.69598,68.529625,2.7361484,-14.319774,2.7098577,32.00636,-28.898659,38.234867,24.313175,-3.6263864,-4.478451,-5.9879603
201,-50.38439178466797,-62.03569793701172,38.77432632446289,0.1680667763087573,8.439153827607077,-91.46212002627615,-69.195625,5.9141893,-23.901773,143.59851,-42.94381,-15.000033,-102.965836,-27.045904,25.465443,120.89147,-26.969448,15.000033,-37.187122,-21.01269,29.793802,-89.063965,61.45185,-73.37671,68.91426,2.2356246,-14.133462,2.4744377,30.756853,-29.17704,38.380333,23.200008,-3.2847152,-4.2154837,-6.188747
202,-50.76376724243164,-62.256900787353516,38.72829818725586,0.572569914290132,8.192472863897189,-91.38074058695192,-68.42503,5.906678,-24.037329,143.4928,-42.739388,-15.000033,-102.85812,-26.99037,25.758984,121.63114,-27.590904,15.000033,-37.03888,-21.280775,29.793802,-87.584175,61.782898,-73.0602,69.2927,1.993489,-13.916569,2.229485,29.407402,-29.471241,38.50111,22.041582,-3.0297978,-3.9058807,-6.4012074
203,-51.144229888916016,-62.47782897949219,38.68723678588867,0.9725737198150625,7.94327240807995,-91.29423728703387,-67.649826,5.8962054,-24.17732,143.36223,-42.537544,-15.000033,-102.72876,-26.946306,26.040743,122.37031,-28.22908,15.000033,-36.891476,-21.543911,29.793802,-86.03923,62.12665,-72.753876,69.66596,1.9864492,-13.688164,1.9995123,27.99446,-29.772543,38.547306,20.847681,-2.8453593,-3.580822,-6.625681
204,-51.526100158691406,-62.699771881103516,38.650856018066406,1.3779399055317758,7.693421331942694,-91.20043668732075,-66.86911,5.867362,-24.311556,143.20532,-42.328285,-15.000033,-102.59144,-26.911617,26.324057,123.10905,-28.86226,15.000033,-36.752956,-21.80624,29.793802,-84.43451,62.48806,-72.44529,70.03278,2.2062666,-13.467514,1.8086722,26.547472,-30.066843,38.469517,19.640612,-2.717084,-3.2740993,-6.8632245
205,-51.90911102294922,-62.922603607177734,38.6180534362793,1.795415024741372,7.4431858739823245,-91.09844905249116,-66.07694,5.8060865,-24.433449,143.01471,-42.1079,-15.000033,-102.4529,-26.894825,26.614168,123.843506,-29.493814,15.000033,-36.623154,-22.072554,29.793802,-82.768074,62.87055,-72.15389,70.38782,2.771068,-13.2525835,1.6691638,25.043997,-30.348866,38.261585,18.440609,-2.651902,-2.9909244,-7.1169415
206,-52.29523849487305,-63.14337158203125,38.58855056762695,2.217880329530671,7.1910593043167435,-90.99022512350798,-65.27275,5.724514,-24.550415,142.79445,-41.884563,-15.000033,-102.30379,-26.894304,26.903566,124.573875,-30.132925,15.000033,-36.499355,-22.34071,29.793802,-81.032936,63.274883,-71.8772,70.72711,3.641111,-13.036768,1.5628656,23.463377,-30.617626,37.952576,17.252714,-2.6569989,-2.7153773,-7.3860116
207,-52.686683654785156,-63.36235427856445,38.56174850463867,2.635018601438618,6.936639697761402,-90.87815208825013,-64.47006,5.6453733,-24.674183,142.55553,-41.657715,-15.000033,-102.13504,-26.892206,27.186728,125.30965,-30.765663,15.000033,-36.382454,-22.604015,29.793802,-79.22269,63.701004,-71.561874,71.04915,4.577254,-12.830392,1.4706233,21.8328,-30.864893,37.541206,16.08888,-2.721363,-2.4493592,-7.6661158
208,-53.081356048583984,-63.58041000366211,38.53654479980469,3.0365259634843116,6.679258386585045,-90.76431281696061,-63.677364,5.589924,-24.815763,142.30862,-41.434208,-15.000033,-101.938385,-26.874466,27.45889,126.05747,-31.37899,15.000033,-36.272385,-22.853601,29.793802,-77.32804,64.147995,-71.14977,71.34975,5.3422565,-12.643229,1.375855,20.176746,-31.078684,37.022144,14.966953,-2.835451,-2.195106,-7.9533067
209,-53.48065948486328,-63.799468994140625,38.511207580566406,3.4144865183981503,6.423394817377789,-90.64987765913725,-62.906467,5.5724883,-24.98393,142.06142,-41.216854,-15.000033,-101.70567,-26.84186,27.707298,126.81783,-31.987616,15.000033,-36.168007,-23.08275,29.793802,-75.33383,64.61633,-70.649055,71.62524,5.894812,-12.479015,1.2767962,18.477324,-31.252884,36.37383,13.909489,-2.9721396,-1.9453741,-8.244254
210,-53.88475036621094,-64.02099609375,38.48545455932617,3.7773384110038095,6.167229788520186,-90.53327301007657,-62.14751,5.5779986,-25.170448,141.80247,-41.00364,-15.000033,-101.442,-26.801172,27.938686,127.58511,-32.593193,15.000033,-36.069725,-23.299358,29.793802,-73.23663,65.10493,-70.067604,71.87368,6.3587403,-12.330919,1.1828222,16.712551,-31.38777,35.60798,12.927081,-3.1495054,-1.7022296,-8.542657
211,-54.29142761230469,-64.24320983886719,38.4596061706543,4.134587277400014,5.903332299924306,-90.41229082724253,-61.387844,5.5883503,-25.360054,141.5287,-40.78078,-15.000033,-101.15785,-26.744823,28.175327,128.36636,-33.164524,15.000033,-35.97881,-23.512163,29.793802,-71.04878,65.609955,-69.36744,72.089516,6.7267942,-12.192431,1.0952526,14.904915,-31.481634,34.76278,12.018418,-3.4282885,-1.4813304,-8.854731
212,-54.700286865234375,-64.46516418457031,38.43457794189453,4.498500717347701,5.623932453489957,-90.28535698149896,-60.610558,5.585304,-25.535738,141.23079,-40.538944,-15.000033,-100.86329,-26.662182,28.439907,129.16829,-33.66944,15.000033,-35.895996,-23.731134,29.793802,-68.77853,66.12587,-68.5003,72.27193,6.998634,-12.060255,1.0158669,13.075926,-31.531641,33.87539,11.1818495,-3.8691726,-1.2973754,-9.1862545
213,-55.109859466552734,-64.68851470947266,38.40875244140625,4.8713671253837445,5.327592165317542,-90.15102239778695,-59.814,5.564835,-25.69392,140.909,-40.27584,-15.000033,-100.56053,-26.542244,28.74143,129.99545,-34.0944,15.000033,-35.824398,-23.959194,29.793802,-66.41001,66.64945,-67.44611,72.416756,7.1457963,-11.930946,0.936478,11.216175,-31.532682,32.923542,10.429175,-4.5022993,-1.1505275,-9.552467
214,-55.521392822265625,-64.91321563720703,38.38381576538086,5.246265126871817,5.01787824602542,-90.01186345048006,-59.003323,5.5376387,-25.84393,140.56636,-39.99802,-15.000033,-100.241714,-26.392784,29.066036,130.84438,-34.45896,15.000033,-35.76078,-24.19239,29.793802,-63.931545,67.177765,-66.22131,72.52348,7.1784353,-11.807359,0.85949844,9.306919,-31.487122,31.896893,9.774404,-5.2956343,-1.0325752,-9.945882
215,-55.936492919921875,-65.14015197753906,38.35870361328125,5.621184849738833,4.695308032048093,-89.87242512852627,-58.177254,5.508256,-25.990545,140.19888,-39.705013,-15.000033,-99.90104,-26.229355,29.399817,131.70392,-34.780975,15.000033,-35.694664,-24.428104,29.793802,-61.358482,67.70435,-64.83391,72.59215,7.1528516,-11.689752,0.80058646,7.370391,-31.405537,30.845997,9.197826,-6.2146177,-0.9424345,-10.338469
216,-56.35498046875,-65.36898040771484,38.33372116088867,5.994005271247626,4.360375600867111,-89.7376307646165,-57.32188,5.477154,-26.137846,139.80644,-39.41486,-15.000033,-99.53327,-26.069242,29.728674,132.5669,-35.07984,15.000033,-35.615406,-24.660582,29.793802,-58.709064,68.222115,-63.30083,72.62433,7.118193,-11.5788555,0.7758192,5.4367576,-31.302752,29.819992,8.669307,-7.221173,-0.8811442,-10.7028475
217,-56.776058197021484,-65.60147094726562,38.31069564819336,6.3698184903968995,4.012501539612165,-89.60572170092459,-56.43424,5.4290953,-26.281935,139.37592,-39.109386,-15.000033,-99.14825,-25.913252,30.065945,133.43658,-35.348938,15.000033,-35.52454,-24.894447,29.793802,-55.982742,68.725426,-61.61855,72.62402,7.1140404,-11.474486,0.7986433,3.5359042,-31.182787,28.789742,8.149414,-8.436366,-0.82421255,-11.03802
218,-57.197845458984375,-65.8377685546875,38.288734436035156,6.747939970300022,3.65269380160876,-89.47661445851266,-55.516354,5.372005,-26.42345,138.91478,-38.793674,-15.000033,-98.74392,-25.752974,30.411263,134.31465,-35.582726,15.000033,-35.421818,-25.128656,29.793802,-53.1673,69.20673,-59.776794,72.59253,7.1059036,-11.37678,0.8559567,1.6564,-31.04982,27.736046,7.65035,-9.836265,-0.7775606,-11.3570385
219,-57.620811462402344,-66.0776596069336,38.265262603759766,7.111250161151088,3.283910358989387,-89.35765217022646,-54.577038,5.341906,-26.574863,138.44046,-38.495087,-15.000033,-98.30116,-25.592718,30.727705,135.19058,-35.79887,15.000033,-35.295975,-25.34619,29.793802,-50.267605,69.65506,-57.789093,72.52837,7.025413,-11.28714,0.9244222,-0.21712802,-30.921492,26.719557,7.1978674,-11.163353,-0.7902181,-11.657282
220,-58.04758071899414,-66.31786346435547,38.24058151245117,7.443002158060752,2.9108731183214824,-89.25524717494226,-53.647224,5.3860927,-26.746582,137.96567,-38.21082,-15.000033,-97.80386,-25.43896,30.978588,136.05449,-36.014805,15.000033,-35.13545,-25.525946,29.793802,-47.293827,70.057045,-55.670414,72.4329,6.806855,-11.207155,0.9812162,-2.0871089,-30.821709,25.798866,6.8027472,-12.156402,-0.9139661,-11.937795
221,-58.47821807861328,-66.55780029296875,38.21554183959961,7.738048152778599,2.541785644241838,-89.17037867098264,-52.725063,5.494363,-26.946056,137.48499,-37.952152,-15.000033,-97.25767,-25.293648,31.151535,136.90218,-36.232395,15.000033,-34.93269,-25.652298,29.793802,-44.256523,70.396,-53.39444,72.30696,6.401342,-11.142113,1.0239251,-3.9145737,-30.758257,24.954082,6.4166303,-12.657248,-1.1866095,-12.21014
222,-58.91136932373047,-66.79984283447266,38.189720153808594,8.00465806502786,2.174261657337051,-89.09935231594399,-51.80247,5.653369,-27.163668,136.99306,-37.710224,-15.000033,-96.67093,-25.154842,31.263031,137.73904,-36.443222,15.000033,-34.69044,-25.728313,29.793802,-41.16798,70.65908,-50.98004,72.161736,5.8564305,-11.090252,1.0647216,-5.6829324,-30.734121,24.154417,6.022043,-12.830325,-1.5762175,-12.471543
223,-59.34440994262695,-67.0468978881836,38.15937423706055,8.243895372499411,1.7984830945729757,-89.04108836046693,-50.88814,5.8957214,-27.384167,136.50623,-37.476097,-15.000033,-96.03384,-25.020685,31.320179,138.57024,-36.647335,15.000033,-34.410923,-25.756962,29.793802,-38.0506,70.840385,-48.516502,72.01522,5.2498927,-11.042679,1.102269,-7.4166956,-30.767733,23.442936,5.6602535,-12.896466,-2.0297732,-12.700913
224,-59.77971649169922,-67.29374694824219,38.12349319458008,8.455286183265368,1.4045665305246535,-88.99413043637969,-49.992657,6.2526407,-27.590425,136.04031,-37.23802,-15.000033,-95.337746,-24.89057,31.330425,139.39853,-36.844814,15.000033,-34.097168,-25.7403,29.793802,-34.930016,70.93763,-46.092186,71.88336,4.662285,-10.990578,1.1346875,-9.13429,-30.883463,22.864895,5.3612466,-13.071263,-2.4922526,-12.879878
225,-60.21930694580078,-67.54052734375,38.08149337768555,8.633087180451712,0.9849795141089763,-88.95152093385883,-49.115486,6.72598,-27.789154,135.59352,-36.996883,-15.000033,-94.57857,-24.770763,31.283426,140.23236,-37.017784,15.000033,-33.75094,-25.669895,29.793802,-31.824701,70.942024,-43.7297,71.77433,4.0671315,-10.933525,1.1595764,-10.81526,-31.08913,22.427576,5.1011596,-13.364838,-2.9766343,-12.989604
226,-60.662166595458984,-67.7892837524414,38.03232955932617,8.778574502853804,0.5481542414011816,-88.91575707436374,-48.24732,7.2992253,-27.980223,135.16092,-36.76881,-15.000033,-93.763466,-24.65933,31.171356,141.07126,-37.173138,15.000033,-33.362965,-25.532228,29.793802,-28.76925,70.843315,-41.43026,71.690315,3.43807,-10.875571,1.1799141,-12.439466,-31.381271,22.104597,4.852405,-13.668075,-3.502806,-13.045661
227,-61.10621643066406,-68.04032135009766,37.97745895385742,8.90097509038335,0.10992494154798428,-88.89853840648578,-47.418007,7.981656,-28.135586,134.74504,-36.512863,-15.000033,-92.900604,-24.546612,31.002947,141.89555,-37.34904,15.000033,-32.922264,-25.322504,29.793802,-25.806196,70.64408,-39.246376,71.636826,2.852082,-10.814422,1.2024469,-14.021166,-31.767153,21.895641,4.6320186,-14.018441,-4.023928,-13.084917
228,-61.547393798828125,-68.29573822021484,37.91934585571289,9.013484718524117,-0.31493684402695815,-88.91158787819973,-46.64704,8.778011,-28.22855,134.35107,-36.207317,-15.000033,-91.999535,-24.422232,30.790794,142.69508,-37.58194,15.000033,-32.41925,-25.03827,29.793802,-22.973326,70.35493,-37.226665,71.61459,2.3831341,-10.747999,1.2322956,-15.57332,-32.260532,21.801228,4.451372,-14.450407,-4.4925146,-13.143698
229,-61.986602783203125,-68.5509262084961,37.859046936035156,9.104372034366985,-0.7262959221916641,-88.95632610965514,-45.943577,9.721915,-28.257141,133.98204,-35.865273,-15.000033,-91.04943,-24.2848,30.512066,143.46693,-37.878284,15.000033,-31.848303,-24.66868,29.793802,-20.274519,69.98187,-35.380093,71.61967,2.075065,-10.673063,1.2735319,-17.09258,-32.87235,21.839466,4.3111134,-15.0235,-4.8954005,-13.230067
230,-62.422454833984375,-68.8057632446289,37.795047760009766,9.171891704974314,-1.1310126880494198,-89.0259411553263,-45.297752,10.796437,-28.232616,133.63434,-35.489532,-15.000033,-90.04836,-24.13959,30.16162,144.21939,-38.222427,15.000033,-31.215763,-24.210457,29.793802,-17.71233,69.52773,-33.699318,71.65113,1.8803145,-10.591623,1.3232228,-18.568027,-33.600506,22.008734,4.1885395,-15.69582,-5.256632,-13.326682
231,-62.8529052734375,-69.06217956542969,37.72757339477539,9.242365908383615,-1.525939335726813,-89.11838431854333,-44.700623,11.929105,-28.148474,133.30836,-35.04025,-15.000033,-89.0208,-23.985296,29.787075,144.95157,-38.61525,15.000033,-30.535149,-23.67834,29.793802,-15.307621,69.00522,-32.19694,71.71003,1.7318329,-10.509627,1.3756595,-20.004784,-34.43583,22.277435,4.0639253,-16.348337,-5.5850143,-13.430834
232,-63.273109436035156,-69.32266998291016,37.6609001159668,9.344253732172104,-1.9072046056405059,-89.23174180119283,-44.146034,13.047537,-28.003323,133.00201,-34.47681,-15.000033,-87.990265,-23.82103,29.439264,145.66385,-39.057312,15.000033,-29.819822,-23.093277,29.793802,-13.075739,68.43344,-30.887129,71.79771,1.5566632,-10.434753,1.4235952,-21.413826,-35.365902,22.615143,3.9229455,-16.863688,-5.889743,-13.536243
233,-63.68327331542969,-69.58426666259766,37.59498596191406,9.477165567435579,-2.275347879922344,-89.36858578133892,-43.629696,14.184102,-27.78737,132.71152,-33.818134,-15.000033,-86.94042,-23.637295,29.117983,146.35098,-39.56632,15.000033,-29.066935,-22.457474,29.793802,-11.005389,67.82699,-29.762468,71.91069,1.3105241,-10.364996,1.4545666,-22.809273,-36.386074,23.03675,3.7847407,-17.206354,-6.1615915,-13.643466
234,-64.08314514160156,-69.84471130371094,37.52873992919922,9.62889701317027,-2.633282570719523,-89.52754254905217,-43.157696,15.357938,-27.510744,132.43832,-33.07133,-15.000033,-85.8636,-23.440042,28.802414,147.01535,-40.137367,15.000033,-28.27756,-21.77056,29.793802,-9.07069,67.19605,-28.800426,72.03951,1.0357659,-10.298436,1.474585,-24.198944,-37.492752,23.558815,3.6534111,-17.4406,-6.39999,-13.7509165
235,-64.46834564208984,-70.10769653320312,37.465545654296875,9.813025242850854,-2.9793071218834997,-89.69947992783423,-42.73231,16.477556,-27.197699,132.19908,-32.193188,-15.000033,-84.795235,-23.249783,28.520418,147.66273,-40.73456,15.000033,-27.471561,-21.05341,29.793802,-7.2568846,66.55459,-27.979515,72.16396,0.7958474,-10.234076,1.5024005,-25.575733,-38.670883,24.142227,3.4939854,-17.603537,-6.6311264,-13.8511
236,-64.84105682373047,-70.37523651123047,37.4066162109375,10.045558659442783,-3.3105259617197764,-89.87554322109126,-42.359173,17.451809,-26.873173,132.00812,-31.137093,-15.000033,-83.77785,-23.09086,28.30622,148.29683,-41.31722,15.000033,-26.666735,-20.33062,29.793802,-5.549394,65.9198,-27.281643,72.26344,0.65103334,-10.170751,1.5550698,-26.942228,-39.89999,24.748732,3.284973,-17.732576,-6.881542,-13.935848
237,-65.2003402709961,-70.64563751220703,37.35306930541992,10.340732505826065,-3.6311043439957587,-90.05376274186806,-42.013893,18.259672,-26.525969,131.85567,-29.906235,-15.000033,-82.82345,-22.984657,28.190685,148.91718,-41.883717,15.000033,-25.873194,-19.625067,29.793802,-3.9194467,65.307655,-26.677904,72.33012,0.61618704,-10.099599,1.6321028,-28.307299,-41.171272,25.378492,3.0369856,-17.832512,-7.1632442,-13.984589
238,-65.55503845214844,-70.91302490234375,37.307533264160156,10.689909345692426,-3.9393886825668627,-90.2385582233084,-41.708027,18.951384,-26.153046,131.73901,-28.517805,-15.000033,-81.91294,-22.918043,28.159237,149.52176,-42.449497,15.000033,-25.087578,-18.936832,29.793802,-2.335524,64.72822,-26.14237,72.35582,0.6559927,-10.023307,1.7229772,-29.69451,-42.482067,26.059095,2.7668872,-17.88546,-7.4617796,-14.005451
