unveil-humanoid-operators/unveil-humanoid-operators.github.io/feature-analysis-animation/data/feature_matrix_instances/age_ankle_rom_jogging_A256_jog_ff_stop_180_R_002__A256.csv
Frame,root_translateX,root_translateY,root_translateZ,root_rotateX,root_rotateY,root_rotateZ,left_hip_pitch_joint_dof,left_hip_roll_joint_dof,left_hip_yaw_joint_dof,left_knee_joint_dof,left_ankle_pitch_joint_dof,left_ankle_roll_joint_dof,right_hip_pitch_joint_dof,right_hip_roll_joint_dof,right_hip_yaw_joint_dof,right_knee_joint_dof,right_ankle_pitch_joint_dof,right_ankle_roll_joint_dof,waist_yaw_joint_dof,waist_roll_joint_dof,waist_pitch_joint_dof,left_shoulder_pitch_joint_dof,left_shoulder_roll_joint_dof,left_shoulder_yaw_joint_dof,left_elbow_joint_dof,left_wrist_roll_joint_dof,left_wrist_pitch_joint_dof,left_wrist_yaw_joint_dof,right_shoulder_pitch_joint_dof,right_shoulder_roll_joint_dof,right_shoulder_yaw_joint_dof,right_elbow_joint_dof,right_wrist_roll_joint_dof,right_wrist_pitch_joint_dof,right_wrist_yaw_joint_dof
0,-0.5293190479278564,-2.558270215988159,73.4984130859375,-2.1397372850874326,3.500572014568119,84.05482903461802,-30.670242,10.112157,7.463162,89.45354,-21.59872,-0.65357864,-3.7682774,7.0726514,4.1901593,33.860092,-28.843378,-3.0215213,1.9005092,3.1510768,11.155647,23.094967,40.32971,-30.289644,-13.602471,-1.9980723,1.6329919,4.113605,-14.303164,-27.436678,43.341682,-1.9411405,-2.1614943,-10.380847,-12.20494
1,-0.546023428440094,-1.2331678867340088,73.92672729492188,-1.790226943396162,3.7646504970217918,83.95160018116638,-31.322992,10.046502,8.37573,85.66295,-21.267365,-0.34542945,-2.3902586,6.5003114,4.6040645,32.641468,-27.187393,-2.8557553,2.3774223,2.7688005,10.802984,23.85732,40.52416,-30.050388,-13.966138,-1.0689106,1.454395,3.4175763,-14.394761,-27.539818,43.422184,-2.82079,-1.4515738,-10.376018,-11.960916
2,-0.5493704676628113,0.09514845907688141,74.36805725097656,-1.4324388800719319,4.0344923338504,83.84979671189139,-31.970037,9.967763,9.33424,81.91202,-20.976215,-0.037296016,-0.9998326,5.9142704,5.0290337,31.391466,-25.580679,-2.6967964,2.8482883,2.3599803,10.462898,24.721107,40.784103,-29.737349,-14.439878,-0.11044821,1.2691423,2.694612,-14.506222,-27.65229,43.51896,-3.7447565,-0.7257976,-10.366729,-11.729501
3,-0.5759197473526001,1.4307054281234741,74.8256607055664,-1.089290979896494,4.2909171546282385,83.75974900018964,-32.465626,9.8003645,10.297394,77.97265,-20.665648,0.16545019,0.30664045,5.3360405,5.4072948,30.308653,-23.934362,-2.5243175,3.31961,1.9444547,10.149422,25.954918,41.065052,-29.319292,-15.213197,0.9311224,1.0662202,2.0354803,-14.537145,-27.771797,43.562584,-4.674057,-0.02707909,-10.360337,-11.485334
4,-0.5986753106117249,2.7802717685699463,75.2773666381836,-0.7810245506947477,4.515176869092618,83.69091576278984,-32.66895,9.480666,11.212055,73.61707,-20.27043,0.16876815,1.4404551,4.7908654,5.685509,29.581923,-22.153744,-2.3171391,3.692531,1.5589066,9.90595,26.596731,41.380367,-29.007114,-15.533859,1.4016231,0.8365054,1.5065303,-14.489163,-27.890135,43.596893,-5.542739,0.6069023,-10.36159,-11.213447
5,-0.628565788269043,4.13013219833374,75.7195053100586,-0.48552261508279904,4.716836581383508,83.64930112702048,-32.5476,8.988979,12.067947,68.68748,-19.763487,-0.013736725,2.3714075,4.256058,5.8394394,29.252048,-20.146149,-2.0574603,4.030972,1.1763251,9.712185,27.347628,41.6813,-28.68661,-15.929703,1.6958914,0.5869512,1.1628143,-14.277658,-28.00706,43.53056,-6.3512125,1.2014649,-10.381117,-10.885217
6,-0.6681159138679504,5.485194206237793,76.150390625,-0.2019017296881073,4.900496962799527,83.62766643125877,-32.17736,8.378042,12.866868,63.31832,-19.174978,-0.32111433,3.1636488,3.736629,5.90881,29.20835,-17.97752,-1.7516522,4.333044,0.80258524,9.555309,28.138245,41.952805,-28.362165,-16.3391,1.8472065,0.3246729,0.9466135,-13.956999,-28.122723,43.404694,-7.111192,1.7659402,-10.411683,-10.518233
7,-0.7065848112106323,6.859734058380127,76.5599136352539,0.01911523962623194,5.039797231789745,83.60926604510495,-31.57562,7.7093186,13.569617,57.696278,-18.519293,-0.75938714,3.8864338,3.2978852,5.9443984,29.368206,-15.7673,-1.4136255,4.6000867,0.49386853,9.435864,28.873835,42.193172,-28.046234,-16.692228,1.8260053,0.050157614,0.80312604,-13.553657,-28.235912,43.25445,-7.8219476,2.2256064,-10.43652,-10.147512
8,-0.7494397759437561,8.236806869506836,76.93929290771484,0.12900840942753786,5.108191064801611,83.57883854436874,-30.760643,7.0508,14.135179,52.00265,-17.809649,-1.3284321,4.6026754,3.0026598,5.9918227,29.65835,-13.634714,-1.0628109,4.843851,0.3011978,9.351853,29.610016,42.40156,-27.718687,-17.037205,1.681991,-0.2365369,0.68108,-13.0824795,-28.346216,43.100937,-8.486317,2.5045376,-10.440744,-9.807027
9,-0.7881422638893127,9.634477615356445,77.28580474853516,0.09233514037886043,5.086142881241362,83.52657898615132,-29.649925,6.3928843,14.493075,46.002056,-16.98229,-2.1170871,5.347406,2.894318,6.085679,30.032894,-11.543271,-0.72332436,5.0671597,0.2595641,9.317552,30.328756,42.581287,-27.38309,-17.347433,1.3473012,-0.54128075,0.5964565,-12.534159,-28.450764,42.9513,-9.10824,2.5062568,-10.417801,-9.505761
10,-0.8316500782966614,11.045663833618164,77.58759307861328,-0.07060125819454677,4.987627799986981,83.45547215087194,-28.235538,5.778671,14.648439,39.63365,-16.034733,-3.034669,6.098232,2.9524899,6.2000957,30.506035,-9.431148,-0.36860493,5.2711806,0.3481091,9.328839,31.0402,42.730915,-27.041853,-17.63182,0.8390764,-0.862648,0.56468457,-11.910412,-28.548058,42.794167,-9.678719,2.2984521,-10.379448,-9.224599
11,-0.8736279010772705,12.459733009338379,77.83675384521484,-0.3256168916671101,4.836989965565659,83.37112876512172,-26.656015,5.3205023,14.704326,33.349842,-15.071081,-3.853535,6.820839,3.1364734,6.289363,31.112196,-7.3893285,0.04044783,5.4489985,0.5350056,9.361083,31.707857,42.850155,-26.696018,-17.892778,0.25348637,-1.186623,0.5302606,-11.235836,-28.639221,42.63591,-10.195639,2.041886,-10.337733,-8.957922
12,-0.9070233702659607,13.881291389465332,78.02498626708984,-0.6373578514110977,4.66136813924035,83.2823141825733,-25.08855,5.07134,14.7984915,27.658298,-14.202501,-4.4029675,7.467407,3.3914025,6.3066344,31.910479,-5.5229235,0.5249611,5.5908403,0.78160894,9.388272,32.3004,42.93817,-26.344782,-18.135891,-0.3107682,-1.49898,0.43920323,-10.54056,-28.727884,42.483692,-10.654192,1.9010984,-10.302411,-8.700454
13,-0.9375599026679993,15.299097061157227,78.15544891357422,-1.0438914083291482,4.458050179602807,83.18022490396574,-23.560041,5.0583606,15.031029,22.59572,-13.475187,-4.6975436,8.036205,3.731672,6.226509,32.914505,-3.8496437,1.0662304,5.703564,1.1260581,9.399872,32.866,42.99264,-25.964546,-18.392792,-0.84569436,-1.8042054,0.27438667,-9.8129225,-28.817776,42.334846,-11.069019,1.8943475,-10.268476,-8.435195
14,-0.9731575846672058,16.704912185668945,78.2298355102539,-1.5615777336914163,4.214728892803465,83.06487181260462,-22.021706,5.225932,15.336907,17.969416,-12.838342,-4.856626,8.531156,4.1719136,6.07964,34.13321,-2.328841,1.6247567,5.790029,1.5881408,9.4073305,33.381115,43.009274,-25.578432,-18.6317,-1.4025092,-2.1058378,0.06729008,-9.045186,-28.89886,42.18912,-11.428962,1.9400921,-10.231685,-8.169515
15,-1.0251566171646118,18.091289520263672,78.25980377197266,-2.0864028312872014,3.9548877594037206,82.96818600054121,-20.57674,5.4390526,15.620646,13.992744,-12.27781,-4.898449,8.890193,4.6195498,5.8921824,35.653015,-0.9906213,2.1889086,5.81682,2.0629532,9.4255,33.813328,42.997604,-25.192461,-18.854061,-1.9407634,-2.3891225,-0.17203125,-8.266355,-28.992882,42.05669,-11.72919,2.0644197,-10.206344,-7.9378233
16,-1.0766314268112183,19.46976089477539,78.24942016601562,-2.486990081970226,3.7099516348865453,82.92900882251672,-19.323124,5.536869,15.779584,10.864941,-11.765865,-4.829828,9.042464,4.9614797,5.6819634,37.565792,0.12555128,2.7643218,5.7605734,2.4276352,9.451247,34.0391,42.952858,-24.886488,-18.98299,-2.4286993,-2.6397233,-0.4196994,-7.5024166,-29.091272,41.93793,-11.929983,2.284155,-10.206988,-7.772813
17,-1.122243881225586,20.825937271118164,78.20117950439453,-2.7023361309299037,3.5037531053921107,82.97552185365994,-18.29074,5.46378,15.859524,8.633917,-11.340554,-4.5977197,8.928377,5.108094,5.369749,39.97907,1.0734309,3.4061174,5.596062,2.6192007,9.468243,34.0459,42.868004,-24.681131,-19.015242,-2.8773577,-2.856351,-0.67800814,-6.7663646,-29.184813,41.83801,-12.014458,2.643982,-10.241416,-7.6892977
18,-1.1634479761123657,22.173795700073242,78.11815643310547,-2.761957241373182,3.3286035759820733,83.09705012418573,-17.581316,5.282611,15.879373,7.4947996,-11.16675,-4.2226624,8.566802,5.06009,4.9616094,42.869507,1.8232683,4.075645,5.327097,2.6655104,9.472011,33.857018,42.73969,-24.553823,-18.951193,-3.3020866,-3.0465677,-0.9541995,-6.047972,-29.269176,41.75952,-11.992969,3.1201632,-10.301387,-7.6676297
19,-1.2118209600448608,23.492605209350586,78.00933837890625,-2.676467737716839,3.167900843197193,83.2713548991212,-17.205708,4.9744263,15.706601,7.466226,-11.192152,-3.7981942,8.027187,4.8613443,4.6040926,46.088943,2.2237902,4.6751633,4.97844,2.570885,9.477885,33.493904,42.573353,-24.485037,-18.78951,-3.6391191,-3.2105236,-1.2327855,-5.33848,-29.340736,41.694763,-11.862188,3.6272824,-10.377949,-7.68729
20,-1.286922812461853,24.79595184326172,77.87567138671875,-2.459174501711182,3.0025601775194786,83.47253828517263,-16.797485,4.4235516,15.245233,7.746102,-10.921646,-3.4106007,7.3928094,4.5937786,4.4419737,49.46833,2.128612,5.1420417,4.5811186,2.3455365,9.502999,32.98243,42.38109,-24.453764,-18.536325,-3.8254445,-3.348822,-1.496812,-4.628035,-29.397501,41.63,-11.622287,4.082659,-10.461833,-7.7279444
21,-1.3590754270553589,26.074010848999023,77.68949127197266,-2.1008059574556124,2.816306714155847,83.69886625546813,-16.892128,3.70246,14.230846,9.64765,-10.745656,-3.2115855,6.7151523,4.3213654,4.5335093,52.99787,1.3276047,5.477188,4.1383233,1.9767717,9.552913,32.33386,42.17234,-24.44776,-18.201742,-3.8330593,-3.4695678,-1.7605828,-3.8976195,-29.437178,41.56361,-11.278597,4.512037,-10.5460005,-7.782272
22,-1.4119397401809692,27.354228973388672,77.42291259765625,-1.6280139644158624,2.608968612077959,83.94863145422906,-17.14026,2.748777,12.845165,12.384024,-10.373977,-3.1457672,5.980312,4.0542846,4.7959976,56.71772,-0.033263437,5.7414064,3.6503193,1.4901878,9.623132,31.5604,41.95038,-24.466623,-17.805655,-3.6978006,-3.5710235,-2.0242126,-3.1588585,-29.459452,41.499382,-10.827856,4.9454226,-10.637766,-7.860474
23,-1.4524632692337036,28.63389015197754,77.08219146728516,-1.1103686592141604,2.3876315682043767,84.19947844419461,-17.480642,1.7230749,11.5121155,15.57394,-10.166981,-2.9858181,5.1719375,3.8131368,5.1568713,60.53319,-1.5659299,5.977213,3.1410089,0.95654833,9.7176285,30.65291,41.720566,-24.515713,-17.344242,-3.4708068,-3.6388898,-2.2500014,-2.428614,-29.466646,41.42774,-10.277788,5.2967668,-10.7470255,-7.9699516
24,-1.5069003105163574,29.916706085205078,76.70783996582031,-0.5956472756402166,2.1688132710670533,84.43451602506468,-17.898563,0.82442963,10.632102,18.927546,-10.529743,-2.4436827,4.258987,3.584966,5.5484633,64.36155,-2.8817513,6.2233286,2.6325262,0.42483628,9.835981,29.605968,41.489483,-24.601791,-16.81618,-3.1978636,-3.6585574,-2.4004712,-1.7251773,-29.463037,41.335278,-9.632841,5.4824066,-10.885642,-8.118904
25,-1.5629950761795044,31.15532684326172,76.28092956542969,-0.07956496175770912,1.917103272593106,84.64994489175255,-18.517662,0.17065725,10.337088,22.770256,-11.715276,-1.1896319,3.2668028,3.3975632,6.0032554,68.27432,-3.856706,6.5422616,2.1269891,-0.106950246,10.018114,28.413305,41.257854,-24.70608,-16.222322,-2.869984,-3.6416373,-2.4982038,-1.0561728,-29.452658,41.204403,-8.89281,5.503067,-11.0659,-8.269515
26,-1.6234403848648071,32.3769645690918,75.82614135742188,0.4279359276759984,1.6325443387781267,84.84804309244144,-19.28151,-0.30241713,10.357698,27.093351,-13.45703,0.5678528,2.220256,3.3049417,6.527679,72.27468,-4.7002454,6.906713,1.6242793,-0.63131666,10.254901,27.08047,41.02634,-24.830326,-15.567129,-2.4710317,-3.590854,-2.5522327,-0.40144402,-29.4388,41.039425,-8.067609,5.3942575,-11.277699,-8.431495
27,-1.674875020980835,33.582489013671875,75.34368896484375,0.9196329237051843,1.4014227490624085,85.0393840346388,-19.97233,-0.71026045,10.493602,31.212296,-15.421487,2.345042,1.0519979,3.240045,7.03313,76.20624,-5.5381308,7.222963,1.1292751,-1.1498424,10.461669,25.615496,40.802982,-25.015047,-14.858389,-2.0369976,-3.4755526,-2.5041332,0.26373106,-29.422346,40.85791,-7.178285,5.1266613,-11.498994,-8.686778
28,-1.7243680953979492,34.79177474975586,74.81696319580078,1.4188390640344475,1.3164240719472657,85.24317575546267,-20.424658,-1.2144935,10.59167,34.527897,-17.307076,3.6453712,-0.32694402,3.081018,7.446891,79.92528,-6.4978895,7.38358,0.6400719,-1.6935815,10.547221,24.013367,40.599445,-25.30699,-14.09469,-1.6112635,-3.2662518,-2.2941737,0.9709455,-29.401186,40.67535,-6.2476354,4.6651955,-11.706515,-9.1178665
29,-1.7538342475891113,36.001731872558594,74.2938461303711,2.0050737372087584,1.4534225868430433,85.48523187752205,-20.687601,-1.9294543,10.691382,36.956757,-19.172037,4.2892485,-2.0241294,2.733067,7.810918,83.517006,-7.651417,7.33063,0.148994,-2.3485453,10.447949,22.203005,40.432213,-25.751886,-13.213802,-1.3513694,-2.9594722,-1.8978826,1.7461381,-29.369125,40.48029,-5.2779703,3.920751,-11.914516,-9.808265
30,-1.7618913650512695,37.21285629272461,73.80699157714844,2.6713325086090753,1.7527109518108819,85.75974810701183,-20.872911,-2.7715461,10.867997,38.885185,-21.17478,4.5563564,-3.979341,2.2467847,8.1672735,87.029045,-8.920528,7.1293397,-0.3449839,-3.1011229,10.215577,20.204988,40.300613,-26.324213,-12.246083,-1.1987579,-2.5689373,-1.3441241,2.5743706,-29.32429,40.256287,-4.25849,2.9354746,-12.118513,-10.695357
31,-1.779069185256958,38.43952178955078,73.36517333984375,3.3122212392050217,2.1044289877613815,86.03639318284925,-20.917831,-3.6098576,11.050542,40.43511,-23.161913,4.6326413,-6.0480475,1.6949053,8.453431,90.268555,-10.196378,6.8396144,-0.8399312,-3.831017,9.934313,18.171917,40.180798,-26.950724,-11.339085,-0.8652372,-2.0861628,-0.660294,3.4213917,-29.272297,40.02314,-3.192345,1.8728943,-12.270483,-11.641607
32,-1.8063479661941528,39.667274475097656,72.9801254272461,3.8175462047789845,2.398740943782029,86.28019571128816,-20.741095,-4.3171463,11.15809,41.699173,-24.966257,4.704769,-8.089987,1.1403873,8.6005125,93.03649,-11.36857,6.5152144,-1.3360521,-4.4126086,9.693724,16.24652,40.037666,-27.550604,-10.620006,-0.060775746,-1.4951488,0.114909016,4.2401414,-29.223185,39.816708,-2.0788293,0.90346783,-12.331206,-12.508559
33,-1.843966007232666,40.8985595703125,72.6588363647461,4.16577115628288,2.6498138914902913,86.48127573690937,-20.336412,-4.875689,11.179757,42.65775,-26.558441,4.792712,-10.142186,0.55840206,8.59836,95.31417,-12.402092,6.179272,-1.8391097,-4.815319,9.475695,14.43104,39.839283,-28.14272,-10.069334,1.6111368,-0.65682226,1.0379125,5.013544,-29.185106,39.672176,-0.8630674,-0.033137,-12.252845,-13.337709
34,-1.8899649381637573,42.155494689941406,72.401123046875,4.414363577405841,2.9025347616958426,86.65746024597189,-19.734552,-5.348704,11.157577,43.26513,-28.016949,4.8084836,-12.267776,-0.08893405,8.489852,97.20053,-13.349803,5.789169,-2.3583295,-5.0971513,9.2464485,12.659936,39.572624,-28.750376,-9.614249,3.8927917,0.4060518,2.0698662,5.757615,-29.16202,39.57994,0.44398883,-0.98648906,-12.067404,-14.17505
35,-1.9281076192855835,43.42531967163086,72.20127868652344,4.571234920897137,3.0929933845026256,86.81128442530004,-18.898504,-5.74015,11.082969,43.557465,-29.32903,4.7778306,-14.366185,-0.76063466,8.274393,98.67237,-14.234258,5.301526,-2.890845,-5.2676425,9.0766325,10.976099,39.242313,-29.29916,-9.300824,6.1050625,1.4478215,3.0479968,6.475786,-29.15893,39.508995,1.7408801,-1.7720549,-11.870006,-14.890142
36,-1.951200008392334,44.695518493652344,72.0503921508789,4.645171910476581,3.157029645384151,86.94522012914524,-17.79163,-6.0516963,10.945694,43.572002,-30.482258,4.7266116,-16.33046,-1.4113669,7.9476323,99.70331,-15.080114,4.6806583,-3.4349077,-5.3415713,9.039316,9.449237,38.871708,-29.703262,-9.204137,7.5892687,2.1888554,3.8503938,7.1741734,-29.181923,39.425816,2.9187498,-2.2102358,-11.763739,-15.356951
37,-1.9814826250076294,45.95051574707031,71.95482635498047,4.6215545082817835,3.0242703789512375,87.05240952989226,-16.334589,-6.2688866,10.728894,43.314713,-31.510384,4.659659,-18.108408,-2.0494041,7.4705977,100.28442,-15.8995695,3.895348,-3.9996407,-5.3250976,9.229481,7.9929557,38.487133,-29.943964,-9.306833,8.090525,2.5051365,4.5016303,7.841545,-29.233973,39.31518,3.9754782,-2.1330423,-11.801855,-15.48319
38,-2.0105690956115723,47.206790924072266,71.91903686523438,4.500932889111119,2.7451560648513453,87.13487938462623,-14.565262,-6.39207,10.44215,42.76521,-32.40719,4.56675,-19.750603,-2.6844628,6.841675,100.427635,-16.685377,2.9859707,-4.5703053,-5.219164,9.587892,6.7709665,38.09726,-30.032825,-9.728845,8.074394,2.5399969,5.074239,8.501715,-29.315813,39.17772,4.940343,-1.6763946,-11.927876,-15.355907
39,-2.038806200027466,48.448299407958984,71.93961334228516,4.304257049418466,2.436992046544176,87.20831479904662,-12.623391,-6.4369025,10.1123,41.928036,-33.106655,4.450209,-21.303598,-3.2689342,6.106157,100.13605,-17.433342,2.0265527,-5.1581426,-5.0341706,9.97621,5.565334,37.720947,-30.070244,-10.221937,7.6286907,2.3974996,5.532435,9.158407,-29.435242,39.04897,5.760359,-1.1165047,-12.08,-15.124316
40,-2.0675926208496094,49.71038055419922,72.02073669433594,4.056000623621623,2.217340025079557,87.28785426360275,-10.650466,-6.421992,9.7662115,40.80867,-33.540123,4.310363,-22.816536,-3.7567132,5.3083167,99.41123,-18.13482,1.0882659,-5.7396126,-4.7723713,10.24863,4.5265484,37.367065,-30.082802,-10.83789,7.0295043,2.1895726,5.8418846,9.847892,-29.60087,38.93396,6.371353,-0.7277336,-12.199798,-14.936913
41,-2.0994443893432617,50.99702453613281,72.1635513305664,3.7428578681888762,2.1112608449267207,87.39043437149402,-8.644778,-6.336364,9.38182,39.343422,-33.72279,4.142401,-24.311724,-4.1619544,4.392008,98.21389,-18.832735,0.15737818,-6.325346,-4.4126754,10.387104,3.609768,37.044064,-30.061861,-11.589306,6.1469874,1.8971238,5.938779,10.580934,-29.825703,38.845062,6.7246237,-0.5762613,-12.267951,-14.830669
42,-2.1321322917938232,52.30860137939453,72.36074829101562,3.356553213507675,2.05817464187702,87.50380913839413,-6.546874,-6.1637964,8.954688,37.56192,-33.68475,3.9479008,-25.734926,-4.4837794,3.3310022,96.54702,-19.526598,-0.77380913,-6.914095,-3.956033,10.471476,2.8302288,36.755737,-29.986332,-12.515112,4.931427,1.4797039,5.856241,11.354667,-30.115005,38.762127,6.8440485,-0.51576865,-12.316862,-14.726927
43,-2.1512773036956787,53.64955139160156,72.61061096191406,2.9252939481904,2.0481293426225875,87.59675254655751,-4.407678,-5.920796,8.537102,35.602478,-33.385017,3.7352207,-27.032732,-4.661821,2.230786,94.47543,-20.134424,-1.6256568,-7.484767,-3.4343956,10.506718,2.1947768,36.506897,-29.901169,-13.513598,3.6524909,1.0173721,5.7051306,12.160674,-30.46132,38.666466,6.783246,-0.50517136,-12.368685,-14.603781
44,-2.1707019805908203,55.01144027709961,72.90220642089844,2.4803361529033,2.070800138445977,87.63758183785336,-2.2777727,-5.631863,8.182509,33.60184,-32.778027,3.5111518,-28.165127,-4.645243,1.2055228,92.06346,-20.567184,-2.3307428,-8.011062,-2.884231,10.492804,1.7277372,36.300224,-29.852655,-14.494354,2.5928004,0.5856252,5.6037726,12.987591,-30.848152,38.536304,6.6078343,-0.5064929,-12.445875,-14.438188
45,-2.190110921859741,56.415958404541016,73.23019409179688,2.014747131180394,2.126756231675819,87.60007779390106,-0.092914216,-5.295574,7.907675,31.449224,-31.814363,3.2704525,-29.136871,-4.4061246,0.27303806,89.292816,-20.811502,-2.926722,-8.472005,-2.292166,10.415183,1.4625977,36.13726,-29.849438,-15.460079,1.8224334,0.19665684,5.5819707,13.836048,-31.265862,38.373928,6.327113,-0.56175745,-12.566437,-14.213345
46,-2.211324691772461,57.83184051513672,73.58219146728516,1.521514495151871,2.2191699853013107,87.50445813745611,2.145977,-4.908612,7.6872416,29.127962,-30.535599,3.0105753,-29.960436,-3.9768963,-0.62195873,86.13255,-20.91123,-3.4319792,-8.88054,-1.6504544,10.278303,1.3757206,36.019386,-29.868193,-16.447643,1.1909024,-0.188752,5.5806823,14.702198,-31.711102,38.18797,5.9241877,-0.67600954,-12.715293,-13.94419
47,-2.233336925506592,59.2735710144043,73.94942474365234,1.0335083378379297,2.3414081871059147,87.38908034850715,4.2952795,-4.501283,7.5097003,26.907387,-29.029337,2.742552,-30.6217,-3.4118009,-1.4624639,82.6248,-20.851364,-3.766096,-9.263597,-1.0055243,10.106724,1.4223205,35.94782,-29.902822,-17.430424,0.6587625,-0.57326597,5.588687,15.56752,-32.1697,37.969757,5.426949,-0.75643647,-12.865055,-13.654938
48,-2.239982843399048,60.71470260620117,74.32213592529297,0.5836306665255865,2.487626113926413,87.2927988829242,6.215527,-4.1044397,7.360477,25.05111,-27.379457,2.4765022,-31.11159,-2.7732248,-2.2248282,78.80677,-20.615732,-3.8568156,-9.648438,-0.40518114,9.9222975,1.5495664,35.92298,-29.952143,-18.375488,0.184187,-0.959596,5.5944524,16.410765,-32.619034,37.711845,4.8718324,-0.71276706,-12.9878,-13.369258
49,-2.237795352935791,62.16511535644531,74.6904525756836,0.15928200151198565,2.6754316436763546,87.21516353841587,7.888024,-3.7074218,7.243095,23.566023,-25.548786,2.2049267,-31.456049,-2.0413537,-2.87736,74.64207,-20.138653,-3.6814969,-10.040885,0.16224733,9.706088,1.7622533,35.948322,-30.017864,-19.269804,-0.20922497,-1.3347203,5.6090126,17.21219,-33.03996,37.423363,4.269965,-0.4857666,-13.078096,-13.071086
50,-2.2365853786468506,63.62494659423828,75.05979919433594,-0.24630203981249726,2.9001148910533763,87.13801383691691,9.390198,-3.3113487,7.1588793,22.326021,-23.511583,1.9195793,-31.648455,-1.214808,-3.4163976,70.10808,-19.440914,-3.298956,-10.426704,0.70501,9.450599,2.0876272,36.02646,-30.096329,-20.133224,-0.50932634,-1.7016181,5.634982,17.967876,-33.42374,37.115807,3.6323977,-0.13989328,-13.149728,-12.754726
51,-2.231945753097534,65.0768051147461,75.4200668334961,-0.5870893453099515,3.124233125878191,87.07649640270672,10.724812,-2.9610453,7.0888424,21.391876,-21.35873,1.6250305,-31.642462,-0.38914028,-3.8589065,65.261246,-18.626493,-2.768739,-10.807411,1.1747345,9.192676,2.4935114,36.15439,-30.181623,-20.966017,-0.78055406,-2.0868769,5.64675,18.683104,-33.761868,36.787445,2.9915204,0.22840583,-13.203217,-12.460721
52,-2.211611747741699,66.5344009399414,75.76667785644531,-0.8238709573446471,3.3119465783347946,87.04813503904381,11.890428,-2.6998427,7.011412,20.820127,-19.17716,1.3268276,-31.397255,0.34023598,-4.227253,60.152332,-17.798668,-2.1502466,-11.185092,1.5266885,8.966696,2.9429872,36.324314,-30.273104,-21.763275,-1.0857621,-2.5169084,5.617495,19.368732,-34.046818,36.432022,2.37765,0.5196493,-13.240951,-12.22919
53,-2.186006546020508,67.99317932128906,76.09619140625,-0.9474318877724326,3.4709973393421687,87.06799501372548,12.864532,-2.5351853,6.9367566,20.618698,-16.89476,1.0260344,-30.86628,0.9510354,-4.5122447,54.587215,-16.95505,-1.4256353,-11.580696,1.7540953,8.764789,3.4246817,36.536346,-30.385328,-22.513386,-1.4404095,-2.9978075,5.5449986,20.023043,-34.27032,36.045094,1.7973684,0.735007,-13.255682,-12.083287
54,-2.1677234172821045,69.45575714111328,76.400390625,-0.9752697869404133,3.6163951509757766,87.13195266733496,13.6683,-2.4568784,6.860641,20.720034,-14.473393,0.7014806,-30.072447,1.4576383,-4.6904035,48.559135,-16.03524,-0.6056904,-11.992464,1.8764571,8.567387,3.9519525,36.790993,-30.518124,-23.213318,-1.8110329,-3.515104,5.440378,20.633684,-34.427406,35.63539,1.2473476,0.91675156,-13.250243,-11.997402
55,-2.1467514038085938,70.94000244140625,76.6775894165039,-0.9119397522497389,3.7231965688389366,87.22829891216156,14.362232,-2.4780533,6.7406545,21.0667,-12.050218,0.33787227,-29.085798,1.8306016,-4.7770658,42.403595,-15.0469055,0.21604356,-12.38888,1.8915492,8.390279,4.5175867,37.07577,-30.651712,-23.867811,-2.1876929,-4.063622,5.2946935,21.205883,-34.51945,35.212402,0.734461,1.0212706,-13.241572,-11.939065
56,-2.1194562911987305,72.42874908447266,76.91598510742188,-0.7560749285015685,3.765350342826434,87.34305297729034,14.996277,-2.6115015,6.5359774,21.626364,-9.774846,-0.060944688,-27.991667,2.0521777,-4.7942557,36.487,-14.012414,0.9629739,-12.736459,1.7932209,8.248299,5.1094103,37.36904,-30.769243,-24.472786,-2.5575955,-4.638431,5.0978146,21.751963,-34.55299,34.783596,0.25956452,1.0034316,-13.24636,-11.876158
57,-2.0941617488861084,73.92488861083984,77.10918426513672,-0.45790665150562176,3.723251083583008,87.49097961722318,15.586267,-2.904954,6.176437,22.40543,-7.673068,-0.42170718,-26.734215,2.084639,-4.7243986,30.667736,-12.853218,1.7101966,-13.046913,1.5317415,8.140242,5.7198095,37.655956,-30.883345,-25.013493,-2.903281,-5.2767816,4.829163,22.295662,-34.533154,34.33177,-0.18259169,0.8150564,-13.268946,-11.813484
58,-2.066403865814209,75.42083740234375,77.2564697265625,-0.002464476262457529,3.605497138911716,87.68353872561379,16.118423,-3.3626442,5.692061,23.403131,-5.654205,-0.7442717,-25.28145,1.8955605,-4.560685,24.801037,-11.575475,2.463326,-13.340126,1.0958823,8.055337,6.3362827,37.93193,-31.009064,-25.471457,-3.2342424,-5.967319,4.4954534,22.834711,-34.46163,33.856487,-0.599835,0.49133736,-13.299746,-11.764296
59,-2.038985013961792,76.91129302978516,77.36339569091797,0.5521580074631335,3.431015393686192,87.89676585572171,16.580389,-3.9159355,5.1942506,24.609968,-3.7079196,-1.1195891,-23.795052,1.5190556,-4.363816,19.329657,-10.354396,3.0739036,-13.589296,0.544622,7.994449,6.9415193,38.188843,-31.13403,-25.842196,-3.575818,-6.6325073,4.127586,23.323462,-34.34282,33.39569,-0.9800972,0.12300004,-13.3344555,-11.709237
60,-2.0175604820251465,78.39082336425781,77.42817687988281,1.1064402702400922,3.23161082965435,88.09092660725815,16.923475,-4.4527636,4.8079705,26.07002,-1.854563,-1.6434308,-22.472095,1.0668861,-4.2117295,14.748657,-9.385197,3.4113846,-13.755244,-0.020726928,7.958585,7.5192513,38.414715,-31.242062,-26.117386,-3.9513936,-7.1954236,3.757096,23.705202,-34.182682,32.99396,-1.3021667,-0.19507413,-13.3699045,-11.629611
61,-1.9932787418365479,79.8676986694336,77.4533920288086,1.6022916917811036,3.0389314258273665,88.24352117932311,17.075806,-4.904817,4.5305104,27.865858,-0.1299222,-2.3946624,-21.407516,0.6122604,-4.2302256,11.198611,-8.821711,3.324796,-13.806926,-0.53263307,7.9369006,8.065131,38.59425,-31.329021,-26.298225,-4.3704805,-7.6480827,3.3670099,24.00159,-33.98323,32.631203,-1.5763336,-0.45713222,-13.408347,-11.50814
62,-1.9634736776351929,81.3238296508789,77.43828582763672,2.037919631970188,2.847999810389025,88.34779708114567,17.014702,-5.2469893,4.3376803,30.077717,1.4265034,-3.2775655,-20.503141,0.20897856,-4.3661666,8.392991,-8.514532,2.9489102,-13.740971,-0.9871738,7.9310427,8.569417,38.71734,-31.414965,-26.365973,-4.8158298,-8.0273695,2.948579,24.224007,-33.745995,32.29516,-1.7987285,-0.70397896,-13.451554,-11.359155
63,-1.9465214014053345,82.76679992675781,77.38357543945312,2.372927567405378,2.6463941933603503,88.38041395407313,16.748806,-5.4017262,4.3334255,32.756054,2.785396,-4.135257,-20.165157,-0.07120049,-4.4233365,7.236019,-8.740881,2.5674896,-13.551733,-1.3477733,7.959907,9.009298,38.78066,-31.518412,-26.284405,-5.269706,-8.324625,2.5472343,24.30175,-33.481136,32.03737,-1.9231775,-0.9174189,-13.4950285,-11.210843
64,-1.9286668300628662,84.1767349243164,77.28462982177734,2.58725659925451,2.416943907003805,88.32763087293387,16.31798,-5.3139477,4.6122775,35.892662,3.9376955,-4.8166523,-20.110657,-0.14495032,-4.2005076,7.1843185,-9.002661,2.446691,-13.247802,-1.5959314,8.043232,9.378537,38.786663,-31.646082,-26.031591,-5.712792,-8.531897,2.2078722,24.162014,-33.203426,31.914532,-1.9083526,-1.0757995,-13.533344,-11.092584
65,-1.9085830450057983,85.58607482910156,77.14676666259766,2.7002251971450564,2.1434740557097083,88.1865907803841,15.743196,-4.937235,5.324822,39.55764,4.9950933,-5.2615333,-19.792658,0.04150925,-3.5536928,7.1507616,-8.623486,2.877063,-12.826888,-1.7558306,8.1930065,9.683645,38.734295,-31.786516,-25.608679,-6.1964526,-8.6436615,1.9262369,23.794266,-32.921024,31.943188,-1.7580054,-1.1382062,-13.569217,-10.998147
66,-1.8909587860107422,87.0010757446289,76.97380065917969,2.7089580202539425,1.8396062782133409,87.96524753731708,15.031091,-4.241567,6.3716035,43.70669,5.932499,-5.4992347,-19.232983,0.4606152,-2.6136427,7.1423626,-7.7456303,3.648882,-12.291106,-1.8158853,8.398264,9.93432,38.62073,-31.932032,-25.031782,-6.710351,-8.666034,1.6844436,23.241259,-32.63625,32.0898,-1.5021547,-1.1246035,-13.603257,-10.918251
67,-1.8502365350723267,88.3719253540039,76.7905044555664,2.5610819986243882,1.528647671731775,87.67399321494482,14.216274,-3.2485592,7.4586525,48.123287,6.5468183,-5.5709643,-18.562143,1.0989158,-1.606258,7.3289495,-6.5959654,4.276226,-11.663611,-1.712175,8.643816,10.1345,38.450752,-32.091473,-24.306242,-7.1427226,-8.61005,1.508129,22.519032,-32.35716,32.33165,-1.148834,-1.1080067,-13.626968,-10.877114
68,-1.8109526634216309,89.7322769165039,76.57324981689453,2.2164451526535625,1.2288731630558776,87.33120321081527,13.330223,-2.066466,8.280095,52.573536,6.6468716,-5.590831,-18.853647,1.9087836,-0.7954626,9.8741255,-6.429981,4.26357,-10.977596,-1.3980794,8.913979,10.292899,38.23475,-32.270245,-23.448992,-7.3838873,-8.48772,1.4232638,21.645594,-32.095318,32.64705,-0.7116884,-1.1610111,-13.631431,-10.899321
69,-1.7812556028366089,91.07972717285156,76.299072265625,1.6487762068374696,0.9186398494286461,86.92116798721659,12.414962,-0.74566627,8.812634,57.057835,6.1487684,-5.649334,-19.399096,2.9370592,-0.20141909,13.409159,-6.115832,3.2684464,-10.220129,-0.84806836,9.221204,10.4212475,37.97957,-32.475677,-22.457785,-7.404381,-8.3320265,1.4740775,20.621193,-31.861712,33.03926,-0.18297142,-1.2830353,-13.624502,-10.974832
70,-1.7582811117172241,92.42577362060547,75.94599151611328,0.9933654584964603,0.559895181611207,86.48055847704615,11.512589,0.5896637,9.163085,61.59485,5.2064238,-5.7162747,-20.081593,4.057191,0.2588586,17.744339,-5.614837,1.6575893,-9.424256,-0.2029921,9.573065,10.531469,37.692093,-32.68982,-21.349184,-7.264898,-8.1265955,1.6330581,19.459158,-31.658438,33.513256,0.40625948,-1.438476,-13.605286,-11.097803
71,-1.7283575534820557,93.76133728027344,75.54693603515625,0.39672450599822123,0.1707843370405913,86.08571416723412,10.584063,1.7419442,9.251499,66.040184,3.9624064,-5.778509,-20.709272,5.080098,0.5426692,22.20034,-5.3972335,-0.052579794,-8.671617,0.39522478,9.943215,10.633732,37.385765,-32.880054,-20.162292,-6.9913435,-7.81067,1.8204075,18.184149,-31.482014,34.05232,0.9992798,-1.6490076,-13.553002,-11.297594
72,-1.68682861328125,95.08551025390625,75.122314453125,-0.11271270049999155,-0.19522107509371958,85.77646564650242,9.531566,2.6517045,9.015277,70.31202,2.5211017,-5.842008,-21.149742,5.9533606,0.6526927,26.177034,-5.9938517,-1.3827505,-8.005932,0.9258147,10.299975,10.733947,37.07331,-33.018917,-18.936783,-6.609848,-7.325334,1.9598387,16.808266,-31.326595,34.63713,1.5554034,-1.935677,-13.448361,-11.601338
73,-1.6627556085586548,96.39250946044922,74.64004516601562,-0.6204132970933334,-0.5421361217224385,85.54378130657223,8.322556,3.3150885,8.359038,74.51674,0.7458808,-5.98677,-21.49885,6.748726,0.5551403,29.882063,-7.9416423,-2.2411673,-7.418065,1.4763254,10.667094,10.81832,36.76272,-33.0997,-17.663588,-6.0996084,-6.6724167,2.0260875,15.295004,-31.187038,35.28427,2.1063602,-2.3081443,-13.285817,-12.045497
74,-1.6393544673919678,97.67113494873047,74.13491821289062,-1.1668747653850933,-0.8723888623705573,85.35288547915387,6.9797983,3.7643194,7.3860264,78.70311,-1.397121,-6.2306833,-21.85727,7.498582,0.308687,33.65585,-10.917928,-2.897488,-6.87539,2.0839458,11.046573,10.895025,36.45641,-33.131744,-16.340225,-5.459314,-5.879042,2.0592406,13.63615,-31.059597,35.998592,2.6704292,-2.749469,-13.074269,-12.603453
75,-1.6241861581802368,98.92864990234375,73.64225769042969,-1.6972934172239464,-1.120655111077731,85.1941820693703,5.4677024,4.067575,6.312862,82.71617,-3.6483412,-6.472533,-22.151567,8.158142,0.044296615,37.184914,-14.197983,-3.4131823,-6.3722672,2.68938,11.372282,10.992454,36.15476,-33.117012,-15.008846,-4.746775,-4.922746,2.0815248,11.89385,-30.939274,36.740696,3.1836247,-3.2433167,-12.817173,-13.206988
76,-1.6072330474853516,100.1778335571289,73.18524169921875,-2.14553349957762,-1.2234642359990229,85.05835421608691,3.7369726,4.308815,5.326472,86.393776,-5.7356014,-6.5997553,-22.293238,8.704289,-0.12878823,40.102398,-17.021978,-3.8519678,-5.897301,3.221038,11.580105,11.137689,35.8578,-33.06128,-13.705369,-4.019676,-3.7821739,2.1159604,10.137604,-30.822071,37.46998,3.5758626,-3.7761314,-12.518878,-13.787714
77,-1.6009725332260132,101.43937683105469,72.77845001220703,-2.519478152884117,-1.0837718520572883,84.94376732462705,1.6419439,4.487152,4.37029,89.76105,-7.619767,-6.5558553,-22.31774,9.169908,-0.22968157,42.247818,-19.221914,-4.2123413,-5.4474735,3.6810389,11.595483,11.341236,35.55684,-32.930195,-12.418143,-3.199816,-2.3149307,2.066114,8.350721,-30.707413,38.210632,3.8427317,-4.4626856,-12.121487,-14.412849
78,-1.6019810438156128,102.71327209472656,72.4279556274414,-2.851222091067567,-0.7595503267191009,84.85080854411653,-0.75865716,4.565352,3.3660672,92.88923,-9.422618,-6.4083524,-22.262543,9.576765,-0.3230317,43.845898,-21.190012,-4.4632816,-5.0208,4.103144,11.472983,11.584961,35.249397,-32.733604,-11.125587,-2.2836237,-0.5795924,1.9406931,6.500394,-30.589865,38.978394,4.0159903,-5.2555814,-11.637865,-15.08694
79,-1.6026809215545654,104.00630187988281,72.14649963378906,-3.1123270698695986,-0.421256880900143,84.78550513547765,-3.2164311,4.5983095,2.4415607,95.661934,-11.085488,-6.213891,-22.013916,9.886199,-0.37946275,45.05963,-22.9936,-4.629656,-4.6163783,4.4510713,11.340081,11.854312,34.95183,-32.549713,-9.852653,-1.4496629,1.1494182,1.9361856,4.6842184,-30.45751,39.70365,4.0539284,-5.9417667,-11.185808,-15.65092
80,-1.6246728897094727,105.29955291748047,71.92920684814453,-3.2678078226735328,-0.23925792885127442,84.7570701840996,-5.488803,4.662666,1.7228063,97.959946,-12.551349,-6.024676,-21.45249,10.057412,-0.36619046,46.042645,-24.695963,-4.7379007,-4.2277193,4.6873803,11.326981,12.128779,34.69421,-32.468613,-8.635487,-0.891762,2.6034896,2.2711754,2.9434285,-30.302238,40.323204,3.9669335,-6.282244,-10.89252,-15.949869
81,-1.6355156898498535,106.5929183959961,71.75800323486328,-3.2801400760903174,-0.29669398460201934,84.79086277250362,-7.511412,4.770905,1.2285129,99.76418,-13.73154,-5.8724947,-20.483595,10.043569,-0.28279105,46.822063,-26.342556,-4.7772264,-3.870919,4.7643676,11.510666,12.398597,34.50343,-32.53697,-7.430637,-0.61813754,3.7426465,3.1305616,1.3157817,-30.116932,40.78947,3.7239277,-6.169602,-10.836364,-15.875034
82,-1.6348153352737427,107.86527252197266,71.63310241699219,-3.178810133858505,-0.4909022415163477,84.87603153840796,-9.427911,4.91292,0.8895603,101.13503,-14.67003,-5.7137346,-19.187298,9.883489,-0.15869251,47.311394,-27.886148,-4.744493,-3.5333264,4.7101893,11.81192,12.680919,34.389206,-32.707504,-6.2576904,-0.56441087,4.7006946,4.378564,-0.251663,-29.903841,41.14607,3.3613193,-5.741499,-10.939338,-15.531347
83,-1.6407986879348755,109.13063049316406,71.56031036376953,-3.030271461062957,-0.714046257367228,84.96691051931255,-11.311351,5.1439753,0.70036906,102.070984,-15.511251,-5.4805493,-17.706657,9.662585,4.8928687e-05,47.493282,-29.24971,-4.6774945,-3.1822212,4.602202,12.1242895,13.011362,34.354084,-32.91029,-5.2558045,-0.8121913,5.4640694,5.7597275,-1.7782959,-29.676638,41.461258,2.9324756,-5.1859026,-11.095161,-15.08772
84,-1.6534868478775024,110.38489532470703,71.54179382324219,-2.9031946766355157,-0.8577607985625326,85.01798508046421,-13.231197,5.512763,0.6550156,102.56752,-16.402168,-5.1100802,-16.188787,9.4638405,0.19599812,47.359417,-30.359594,-4.6118617,-2.7887073,4.519655,12.342298,13.430041,34.395134,-33.07265,-4.5685287,-1.4303097,6.0155554,7.015144,-3.2790198,-29.455189,41.80066,2.4775586,-4.6881986,-11.201271,-14.716036
85,-1.6774805784225464,111.64449310302734,71.57196044921875,-2.8127497681208333,-0.9105438256213902,85.01733517509273,-15.21707,6.0692463,0.7822605,102.60978,-17.437424,-4.583133,-14.63522,9.299716,0.44264725,46.87268,-31.223122,-4.559566,-2.3547268,4.4859614,12.465895,13.948602,34.51748,-33.204887,-4.278921,-2.687834,6.3330755,8.245365,-4.8085675,-29.260546,42.208492,1.9835615,-4.2535644,-11.246024,-14.450336
86,-1.7025294303894043,112.92440795898438,71.65669250488281,-2.7205619037009194,-0.9254528610483758,84.98771405828705,-17.21751,6.766736,1.0819247,102.19842,-18.52694,-3.949645,-12.982331,9.123626,0.7389528,46.05958,-31.87622,-4.504565,-1.8996083,4.4587226,12.54785,14.567081,34.724457,-33.318573,-4.316893,-4.449989,6.402965,9.527422,-6.334046,-29.099312,42.64871,1.4101782,-3.7934783,-11.277914,-14.205105
87,-1.744238257408142,114.2170181274414,71.79542541503906,-2.6179941449658624,-0.8907215234834587,84.93545215640567,-19.174936,7.5059276,1.5075309,101.348114,-19.540184,-3.2519164,-11.279287,8.925172,1.0726616,45.00678,-32.28741,-4.435873,-1.4201891,4.4168577,12.560707,15.283054,35.003338,-33.353306,-4.577221,-6.1813917,6.2524114,10.559176,-7.754725,-28.966974,43.063686,0.7725504,-3.348251,-11.288485,-13.974819
88,-1.782410979270935,115.51326751708984,71.9869155883789,-2.4969516874243283,-0.794170430014837,84.86761865960372,-21.032816,8.193902,2.0144048,100.075645,-20.34752,-2.52517,-9.573879,8.695692,1.4295207,43.79636,-32.42303,-4.3389864,-0.9166538,4.339753,12.474586,16.096888,35.33002,-33.24736,-4.9494343,-7.345164,5.945983,11.041159,-8.967871,-28.852743,43.39659,0.093173474,-2.9698825,-11.269653,-13.75447
89,-1.8217382431030273,116.85710906982422,72.23248291015625,-2.359449412558745,-0.6087481762397752,84.77937057210478,-22.813992,8.878891,2.6466558,98.36567,-20.949512,-1.7012211,-7.8504543,8.432562,1.815353,42.33816,-32.272816,-4.1975813,-0.3812161,4.230022,12.247959,17.022882,35.68479,-32.972485,-5.4285865,-7.797963,5.448693,10.801865,-9.966685,-28.750748,43.63732,-0.6196489,-2.707973,-11.203279,-13.5404215
90,-1.8538818359375,118.21183776855469,72.5116958618164,-2.206550096054519,-0.34868466070408277,84.66996864069178,-24.508875,9.575137,3.4356482,96.21143,-21.423891,-0.80000526,-6.095879,8.130404,2.2376409,40.634792,-31.860256,-4.021742,0.18002103,4.0920014,11.905178,18.05072,36.059895,-32.568367,-6.046481,-7.8277164,4.76536,10.0301695,-10.807515,-28.662205,43.818394,-1.3619466,-2.527891,-11.099796,-13.336715
91,-1.8801672458648682,119.594482421875,72.83186340332031,-2.02784693479901,-0.06266083902465623,84.55321086141078,-26.023857,10.151825,4.3062425,93.6464,-21.75094,0.019887673,-4.362709,7.784244,2.6804204,38.90526,-31.206398,-3.8327975,0.7494368,3.9122336,11.51518,19.128786,36.447117,-32.082664,-6.7373075,-7.554428,4.0272937,8.978208,-11.485762,-28.584112,43.941147,-2.1151123,-2.3479762,-10.994183,-13.149863
92,-1.9062256813049316,121.0023422241211,73.1867904663086,-1.8165835432448731,0.20057874894398453,84.44316812620532,-27.277748,10.4906845,5.172063,90.69924,-21.897081,0.61314845,-2.7024925,7.394772,3.1244073,37.362503,-30.326889,-3.6479352,1.3112836,3.6820815,11.146145,20.198298,36.83838,-31.566116,-7.4295464,-7.089195,3.364624,7.8960285,-11.992485,-28.51138,44.005062,-2.8599505,-2.0901372,-10.920867,-12.986099
93,-1.9312872886657715,122.41635131835938,73.57357025146484,-1.5567549123180848,0.43505129417290855,84.3376099865396,-28.265392,10.544728,5.999559,87.3369,-21.83202,0.9739656,-1.0939822,6.9522486,3.5999851,35.984737,-29.186056,-3.46645,1.8819969,3.3853498,10.79631,21.24884,37.227562,-31.014238,-8.102839,-6.3002777,2.7800508,6.715064,-12.29952,-28.439297,43.99295,-3.5930464,-1.7208602,-10.888391,-12.864791
94,-1.9557827711105347,123.84455108642578,73.97712707519531,-1.2592855350537935,0.665057206995479,84.23311754143792,-29.02217,10.394504,6.8305664,83.55208,-21.580074,1.1793191,0.47143868,6.4630876,4.1012964,34.689278,-27.790987,-3.2764294,2.4661038,3.034249,10.434886,22.333181,37.607964,-30.40438,-8.806457,-5.1670403,2.1930954,5.355888,-12.419683,-28.366982,43.905773,-4.3167872,-1.2870606,-10.878814,-12.775719
95,-1.9715964794158936,125.27202606201172,74.39197540283203,-0.9589791665117826,0.8868194034358684,84.14074751745414,-29.540525,10.119678,7.6807127,79.403564,-21.1776,1.2168351,1.9290677,5.957932,4.555959,33.589066,-26.216513,-3.0782008,3.0327156,2.6654665,10.083322,23.53102,37.967476,-29.749296,-9.607845,-3.9279668,1.627759,4.0442066,-12.405803,-28.296602,43.77045,-5.019009,-0.83212465,-10.885737,-12.679386
96,-1.995581030845642,126.71243286132812,74.80330657958984,-0.6894061605972808,1.0966501609573187,84.07053604883924,-29.815212,9.796747,8.56687,74.93802,-20.65773,1.0724204,3.2230544,5.469647,4.8950043,32.78694,-24.530468,-2.8718226,3.5167038,2.322308,9.772627,24.357418,38.320194,-29.192589,-10.133153,-3.125291,1.126683,2.9944232,-12.351181,-28.23037,43.651707,-5.673369,-0.39538747,-10.9016485,-12.539193
97,-2.0273468494415283,128.1564178466797,75.21466064453125,-0.44358667040428573,1.3124943128911344,84.02596459257872,-29.847986,9.434585,9.499908,70.052765,-19.967104,0.71635157,4.331264,4.9915023,5.0932827,32.29302,-22.671028,-2.6528642,3.9597614,1.9962113,9.477368,25.348063,38.639076,-28.634987,-10.814074,-2.433574,0.738343,2.2606797,-12.21169,-28.1729,43.500652,-6.285616,0.051614657,-10.930922,-12.336732
98,-2.0576465129852295,129.6044464111328,75.61418914794922,-0.20767464807790767,1.5298371739838454,84.00051573187308,-29.638538,8.990215,10.458008,64.73204,-19.095667,0.1709872,5.293829,4.517007,5.196101,32.04938,-20.622879,-2.4216554,4.3546133,1.6771208,9.196784,26.275873,38.92571,-28.101627,-11.460775,-1.8517854,0.43782225,1.7189901,-11.986014,-28.12483,43.330933,-6.8582406,0.52080977,-10.973762,-12.096795
99,-2.1001110076904297,131.05967712402344,75.99161529541016,-0.0049366686135536315,1.7110606245714524,83.98781553660375,-29.187824,8.472195,11.403155,59.146538,-18.132896,-0.4927277,6.156382,4.079901,5.2410097,32.044693,-18.51598,-2.1822224,4.706364,1.390864,8.954003,27.212095,39.17615,-27.576277,-12.113473,-1.4503583,0.17964722,1.3394624,-11.682729,-28.086319,43.14649,-7.4057183,0.9361648,-11.019242,-11.832057
100,-2.1522576808929443,132.5228729248047,76.33777618408203,0.13397143851895804,1.8186107116711587,83.98107792311465,-28.511507,7.913573,12.284996,53.485294,-17.18151,-1.1916184,6.9641137,3.7219949,5.2619615,32.27171,-16.483866,-1.9371284,5.005517,1.1717982,8.775374,28.096153,39.393524,-27.064922,-12.707627,-1.3774685,-0.08262544,1.0894917,-11.325432,-28.055737,42.966984,-7.937567,1.2228563,-11.057153,-11.557528
101,-2.2063095569610596,133.99427795410156,76.65046691894531,0.205085913550243,1.8366598814099901,83.97616220861161,-27.52315,7.312259,13.114588,47.52125,-16.214718,-1.9407599,7.7419796,3.4567416,5.2832656,32.707508,-14.493113,-1.7044903,5.264615,1.0239795,8.675103,29.056732,39.5718,-26.542385,-13.33,-1.6810929,-0.35083696,1.0118337,-10.8953285,-28.031836,42.781532,-8.458461,1.3283882,-11.086138,-11.27574
102,-2.2631077766418457,135.47898864746094,76.92845153808594,0.21271122070969456,1.784731813478406,83.97134971622206,-26.232332,6.6982617,13.879341,41.189003,-15.173985,-2.7295113,8.482767,3.281435,5.2859435,33.325558,-12.473882,-1.4628378,5.4800615,0.94457126,8.638848,30.003017,39.71379,-26.026442,-13.921371,-2.317936,-0.60202557,1.1011211,-10.399533,-28.013609,42.59492,-8.958077,1.3053228,-11.112406,-10.980161
103,-2.3182907104492188,136.9719696044922,77.16069793701172,0.15125180331541935,1.6780515130581133,83.96429082263565,-24.787746,6.1387787,14.51979,34.906498,-14.110333,-3.444614,9.175082,3.1981437,5.2416873,34.121967,-10.508521,-1.1648662,5.6511326,0.93930316,8.6412115,30.90625,39.82315,-25.517998,-14.487168,-3.103481,-0.8443974,1.2610555,-9.868996,-28.001808,42.416206,-9.428091,1.231411,-11.137772,-10.668406
104,-2.37168550491333,138.48060607910156,77.33549499511719,0.016026139183856515,1.532871867624425,83.95360466320648,-23.35642,5.687086,14.993458,29.140028,-13.087685,-4.003743,9.798755,3.1993523,5.1247954,35.108826,-8.687428,-0.7823053,5.775057,1.0129701,8.656974,31.742876,39.90441,-25.015797,-15.037396,-3.8528101,-1.0840187,1.3955654,-9.337256,-27.99738,42.25583,-9.860875,1.1890596,-11.16373,-10.338718
105,-2.419618844985962,139.98590087890625,77.46126556396484,-0.24224481460593275,1.3336636877874812,83.93065489274524,-21.93869,5.3823233,15.312689,23.899525,-12.130903,-4.4188747,10.369008,3.333719,4.9490266,36.28483,-6.9888725,-0.3035801,5.8578415,1.2131497,8.689335,32.580982,39.956142,-24.495535,-15.611949,-4.586702,-1.3283895,1.4996935,-8.795959,-28.00138,42.11463,-10.273744,1.1610684,-11.180429,-9.963361
106,-2.475186347961426,141.48126220703125,77.53836059570312,-0.6267221520283018,1.0754824152403513,83.89639863036295,-20.483227,5.2249193,15.497608,19.021173,-11.223654,-4.730975,10.879148,3.601695,4.728139,37.669445,-5.386065,0.22681765,5.89223,1.5443175,8.752139,33.346207,39.987026,-23.972569,-16.145658,-5.4201126,-1.57299,1.6148568,-8.241951,-28.013823,41.997257,-10.663819,1.1187344,-11.190596,-9.552752
107,-2.5267860889434814,142.9532928466797,77.5639419555664,-1.0485314774012107,0.7975798095893253,83.8730039692707,-19.115753,5.1556726,15.538649,14.769059,-10.393676,-4.9318123,11.261104,3.8844655,4.4270425,39.331947,-3.9765892,0.7407833,5.874447,1.9187065,8.82456,34.05266,39.99894,-23.467978,-16.691559,-6.1688685,-1.8022002,1.7227349,-7.687128,-28.036911,41.89337,-10.999857,1.1204866,-11.213374,-9.159726
108,-2.5849058628082275,144.40687561035156,77.54844665527344,-1.3880470053911003,0.5464744857765925,83.8895837377898,-17.96228,5.058761,15.433471,11.392146,-9.651268,-5.024187,11.437336,4.0252023,4.0002756,41.35307,-2.8684072,1.1755388,5.8141036,2.2246528,8.871529,34.686863,39.979343,-23.053768,-17.276533,-6.6303563,-1.9999199,1.8164392,-7.131224,-28.064356,41.77464,-11.238301,1.2226114,-11.266109,-8.835308
109,-2.643468141555786,145.83534240722656,77.48754119873047,-1.6007019261159101,0.3546546247762502,83.96857593773036,-17.03504,4.864973,15.206271,8.827723,-8.999516,-5.0293026,11.34191,3.91947,3.3519702,43.84398,-2.0425775,1.5411581,5.607034,2.4184124,8.891409,34.59217,39.96712,-22.828487,-17.378563,-7.1403084,-2.1587706,1.8800706,-6.6676936,-28.096292,41.734066,-11.357852,1.4866354,-11.367809,-8.588763
110,-2.697225570678711,147.25469970703125,77.38348388671875,-1.7018757774237687,0.2034347941460866,84.10611772776144,-16.446352,4.6039224,14.852586,7.3204026,-8.606893,-4.957642,11.003348,3.5647454,2.524253,46.788948,-1.491185,1.8255225,5.3401937,2.5062222,8.866573,34.371475,39.952595,-22.719294,-17.473438,-7.458035,-2.2886698,1.9557027,-6.2159257,-28.111889,41.69446,-11.368048,1.8602328,-11.504826,-8.3948965
111,-2.766413927078247,148.66099548339844,77.25216674804688,-1.6561156596510669,0.06319549414368096,84.29204592397748,-16.326786,4.257516,14.337598,7.266078,-8.5839405,-4.7873726,10.499418,2.9671926,1.6805949,50.049286,-1.3298342,1.9652406,5.00118,2.4463289,8.854362,34.049572,39.91842,-22.633394,-17.548904,-7.5687294,-2.3990147,1.9894043,-5.744299,-28.140257,41.633827,-11.314319,2.2572575,-11.645327,-8.249195
112,-2.852696657180786,150.038330078125,77.10057830810547,-1.435248758247551,-0.09743199161183903,84.51180840275431,-15.97777,3.6081634,13.692299,7.260711,-8.08705,-4.4860864,9.91895,2.179357,0.98777145,53.45802,-1.6613331,1.940193,4.614178,2.2225127,8.872474,33.536205,39.855625,-22.61617,-17.487383,-7.4798565,-2.5053856,1.977732,-5.233914,-28.17777,41.549164,-11.163371,2.5853653,-11.759683,-8.1789055
113,-2.9397101402282715,151.39430236816406,76.91105651855469,-0.993232796773083,-0.2988621133715567,84.76986771635552,-16.053774,2.730472,12.717922,8.913635,-7.620724,-4.0709095,9.309381,1.1839613,0.46192792,57.024452,-2.706889,1.7248855,4.169446,1.7793373,8.933148,32.834602,39.788807,-22.647686,-17.303968,-7.140889,-2.6194186,1.9010851,-4.6898994,-28.19756,41.439133,-10.896433,2.8524222,-11.833021,-8.180175
114,-3.0158026218414307,152.74668884277344,76.65828704833984,-0.38981887615678745,-0.5358196454227598,85.05470545981517,-16.498617,1.6733099,11.512474,12.015268,-7.2237015,-3.5783489,8.658953,0.02330965,0.056637086,60.7686,-4.3311415,1.3706702,3.6799095,1.1804447,9.019928,31.93669,39.70403,-22.746572,-17.000582,-6.575928,-2.731782,1.7764324,-4.122172,-28.200804,41.30742,-10.5162945,3.0942314,-11.882397,-8.242819
115,-3.0744903087615967,154.1015167236328,76.32872772216797,0.24155986971696353,-0.7976838938352766,85.32973954747142,-16.992807,0.5895557,10.406746,15.582306,-7.01848,-3.0012882,7.949073,-1.1242886,-0.17636009,64.56214,-6.097493,0.9925661,3.1765144,0.5516587,9.130937,30.907871,39.614872,-22.873026,-16.61174,-5.9172945,-2.8224783,1.6352135,-3.554197,-28.185516,41.17011,-10.015503,3.261857,-11.9325905,-8.378025
116,-3.1406171321868896,155.4619598388672,75.9478759765625,0.8096462257456192,-1.0585048494487517,85.57348765595594,-17.495567,-0.3202671,9.687926,19.213686,-7.440618,-2.2890668,7.133868,-2.1299207,-0.209005,68.3031,-7.583083,0.70271873,2.687049,-0.015910732,9.254968,29.767422,39.51813,-23.02083,-16.132471,-5.2903366,-2.8713713,1.5087252,-2.993963,-28.158846,41.02716,-9.394689,3.3036408,-12.007043,-8.594173
117,-3.2155508995056152,156.81015014648438,75.52149200439453,1.3136835790298935,-1.3567167815279153,85.78687829809785,-18.111828,-0.9708873,9.45995,23.214344,-8.797729,-1.2712922,6.2360296,-2.9717362,-0.032956097,72.05719,-8.672373,0.5630006,2.206565,-0.51349103,9.429388,28.5087,39.407925,-23.175686,-15.558094,-4.712011,-2.9125364,1.361661,-2.4569986,-28.127544,40.87546,-8.624366,3.238516,-12.126518,-8.8820505
118,-3.303403377532959,158.10940551757812,75.06097412109375,1.7814689072265004,-1.6904604043278701,85.97869499839534,-18.83162,-1.4373835,9.511849,27.683624,-10.814065,-0.0065419283,5.268473,-3.6694098,0.31164017,75.85387,-9.591271,0.5160401,1.7255081,-0.9705681,9.648691,27.122103,39.28171,-23.345451,-14.889342,-4.1182218,-2.9447129,1.190171,-1.9249471,-28.094627,40.71162,-7.727523,3.080452,-12.272449,-9.241816
119,-3.391669750213623,159.40145874023438,74.57022857666016,2.2303721899207445,-1.956618414600586,86.15821019637893,-19.481518,-1.8358965,9.670299,31.954771,-13.0789,1.2414385,4.1411653,-4.241743,0.7791447,79.56562,-10.445719,0.5059571,1.2489752,-1.424678,9.827917,25.615927,39.143517,-23.557322,-14.122162,-3.5144887,-2.8915665,1.0706464,-1.3709607,-28.059753,40.536686,-6.772551,2.7812696,-12.409316,-9.698966
120,-3.457493305206299,160.6715545654297,74.0704116821289,2.69540442722592,-2.0489369100715162,86.34117200087184,-19.932661,-2.3160434,9.801955,35.432022,-15.205684,2.200648,2.7495632,-4.7389483,1.3330836,83.07472,-11.3446045,0.47106066,0.7782455,-1.9307802,9.8773365,24.010788,39.0,-23.837324,-13.263804,-2.9027262,-2.6770937,1.0795889,-0.75894195,-28.018717,40.34897,-5.831482,2.2881236,-12.500582,-10.27916
121,-3.4964334964752197,161.93853759765625,73.58041381835938,3.2490615327398658,-1.8679459635432798,86.54922202861307,-20.252523,-2.977853,9.950109,38.010296,-17.215242,2.7745178,0.9609287,-5.1886406,2.0399296,86.44816,-12.335351,0.40764242,0.3078346,-2.5747976,9.712962,22.242455,38.861298,-24.217262,-12.231636,-2.4035065,-2.25208,1.2201648,-0.06648077,-27.963505,40.136604,-4.9173007,1.4845059,-12.510545,-11.05744
122,-3.526595115661621,163.22711181640625,73.13387298583984,3.872361532822962,-1.489382691266877,86.7782234295656,-20.523905,-3.746809,10.179141,40.065453,-19.306911,3.1149259,-1.1432161,-5.5592766,2.8928242,89.72703,-13.353792,0.35838044,-0.17042081,-3.3238535,9.394291,20.320135,38.725735,-24.6798,-11.054364,-1.9861825,-1.664839,1.4594315,0.6879849,-27.891909,39.895844,-3.9905374,0.43080547,-12.456438,-11.995445
123,-3.547518253326416,164.52745056152344,72.73585510253906,4.468612219563922,-1.0690663655227721,87.0025543854598,-20.639881,-4.511648,10.408043,41.72778,-21.360262,3.3200047,-3.3530672,-5.8328958,3.7543602,92.74951,-14.33619,0.3162938,-0.66068184,-4.051089,9.049402,18.38601,38.576317,-25.168957,-9.914532,-1.4228758,-0.9819793,1.8129184,1.4630461,-27.810595,39.64812,-3.0356991,-0.65081465,-12.386358,-12.950386
124,-3.587282419204712,165.8289794921875,72.39535522460938,4.935740347328006,-0.7627583901058387,87.19096650056785,-20.474636,-5.1597457,10.54805,43.101707,-23.242887,3.4877806,-5.4666233,-6.01444,4.487133,95.3517,-15.214669,0.26128274,-1.1612296,-4.6280255,8.810342,16.573425,38.389793,-25.625164,-8.979166,-0.48405558,-0.26615688,2.2866716,2.2129135,-27.732922,39.424995,-2.0392287,-1.5404043,-12.36002,-13.78366
125,-3.6362686157226562,167.12376403808594,72.10700225830078,5.253429941826985,-0.5884554218616095,87.32752907044535,-19.980455,-5.6724944,10.58039,44.161755,-24.933386,3.6207266,-7.483966,-6.1011353,5.1007767,97.52002,-15.958512,0.20978811,-1.6689907,-5.026458,8.697358,14.888055,38.14136,-26.055033,-8.22608,1.1892567,0.59225166,2.9369354,2.9331539,-27.669924,39.24435,-0.9767931,-2.2444165,-12.39906,-14.503956
126,-3.6868081092834473,168.41473388671875,71.87528228759766,5.474155619965049,-0.47032566056729896,87.42913402380458,-19.219896,-6.101619,10.5506,44.8615,-26.49352,3.6747303,-9.50757,-6.10953,5.6509914,99.335464,-16.597406,0.15268978,-2.1902838,-5.3087816,8.646875,13.257495,37.82125,-26.480116,-7.563646,3.3743875,1.6064116,3.71168,3.6402435,-27.627054,39.098766,0.13690096,-2.8575296,-12.474335,-15.173986
127,-3.71522855758667,169.7105712890625,71.70316314697266,5.609026636507613,-0.4231732118375635,87.51030129243095,-18.22255,-6.4521003,10.46252,45.25779,-27.910847,3.6786227,-11.492582,-6.0864,6.076095,100.77422,-17.157068,0.031588703,-2.7239122,-5.484611,8.667749,11.729892,37.43946,-26.860796,-7.0834184,5.452165,2.5544574,4.4746337,4.334049,-27.608566,38.976143,1.2444282,-3.2962124,-12.5793495,-15.737043
128,-3.738544225692749,170.9905242919922,71.57600402832031,5.668796917218945,-0.46191758380034764,87.58600473894087,-17.019373,-6.7268825,10.3209715,45.409245,-29.173103,3.661802,-13.393354,-6.086124,6.31316,101.81007,-17.66284,-0.21487467,-3.280129,-5.570675,8.774757,10.232332,37.028934,-27.180832,-6.783101,6.7485867,3.1883469,5.1245356,5.00145,-27.619408,38.87255,2.2882607,-3.4759402,-12.709263,-16.13672
129,-3.7628705501556396,172.25355529785156,71.49524688720703,5.6430705010134865,-0.6444474912430314,87.65202084926841,-15.547276,-6.9174128,10.119683,45.31783,-30.309622,3.6301353,-15.179372,-6.1310873,6.321479,102.446884,-18.113668,-0.63352937,-3.8276894,-5.5667095,9.029981,9.2146435,36.605587,-27.328997,-7.1065617,7.239253,3.3938317,5.7169924,5.6706605,-27.658802,38.743572,3.258008,-3.2715347,-12.891743,-16.308132
130,-3.797182083129883,173.4999237060547,71.4619369506836,5.52901981117221,-0.9455579696053193,87.70396418049069,-13.810793,-7.0210757,9.8603115,44.95482,-31.31582,3.5701818,-16.877544,-6.2004356,6.1361313,102.692314,-18.50076,-1.1801146,-4.4372716,-5.485749,9.439125,7.7499046,36.20663,-27.51622,-7.2483306,6.837673,3.2958257,6.295873,6.278939,-27.73157,38.659885,4.176362,-2.7595685,-13.123269,-16.301723
131,-3.820615291595459,174.7642822265625,71.49992370605469,5.355214528646346,-1.2563679663614873,87.75658031468069,-11.9425535,-7.060196,9.561323,44.33198,-32.127125,3.4839764,-18.52259,-6.2724195,5.7986574,102.52229,-18.838469,-1.7838584,-5.023082,-5.3385444,9.843139,6.634367,35.82362,-27.630367,-7.7831793,6.1965756,3.0152779,6.7781105,6.937543,-27.836416,38.551537,4.9919925,-2.1601794,-13.353637,-16.212694
132,-3.8319509029388428,176.03419494628906,71.59117889404297,5.145083459975191,-1.4676103119245165,87.82409565322442,-10.077011,-7.0539083,9.239113,43.468258,-32.683716,3.3738635,-20.147064,-6.3241663,5.3513303,101.9106,-19.139994,-2.3697963,-5.601804,-5.1355567,10.116109,5.6396484,35.46751,-27.735123,-8.424641,5.4639087,2.6721792,7.065731,7.6446357,-27.978495,38.453953,5.6785955,-1.6901163,-13.532848,-16.149502
133,-3.8438796997070312,177.32395935058594,71.7337875366211,4.889633975805646,-1.547059706972936,87.92627949914365,-8.227393,-6.9970546,8.871037,42.31825,-32.996674,3.2446673,-21.779896,-6.3701363,4.745323,100.82357,-19.452703,-2.9468484,-6.1767406,-4.856984,10.226444,4.7599306,35.143017,-27.82811,-9.213372,4.559449,2.2461803,7.095607,8.42362,-28.164692,38.36363,6.2089405,-1.3917489,-13.641193,-16.133034
134,-3.859048366546631,178.64620971679688,71.93341827392578,4.578210343896117,-1.5542712595116448,88.05047660977507,-6.3304935,-6.8745046,8.456283,40.897854,-33.09488,3.096336,-23.37171,-6.407242,3.9652486,99.27519,-19.765547,-3.5238473,-6.7495456,-4.4992256,10.252057,3.9863582,34.85352,-27.901539,-10.175462,3.3829792,1.6946082,6.924286,9.261235,-28.397982,38.273403,6.5961986,-1.1538343,-13.706972,-16.110306
135,-3.8740434646606445,179.9723358154297,72.18355560302734,4.2358967541146075,-1.5176118487568693,88.16123373462152,-4.405533,-6.6975145,8.044009,39.315815,-32.94282,2.9238658,-24.843699,-6.386081,3.099042,97.31167,-20.001583,-4.038118,-7.298593,-4.0920033,10.222081,3.3396351,34.60032,-27.974665,-11.2176485,2.1787736,1.1104115,6.6467257,10.130902,-28.672897,38.181255,6.869606,-0.9644981,-13.754867,-16.075584
136,-3.8792035579681396,181.32708740234375,72.47562408447266,3.8893633238632566,-1.4651784611661438,88.22280126266314,-2.4698606,-6.483204,7.684257,37.67496,-32.50372,2.7201025,-26.126451,-6.2601724,2.2397006,94.9789,-20.079222,-4.4363985,-7.8030415,-3.6681483,10.161638,2.826669,34.383274,-28.069073,-12.23217,1.18814,0.5810728,6.36461,11.005256,-28.977455,38.085613,7.064775,-0.81613994,-13.809772,-16.022476
137,-3.8825314044952393,182.68739318847656,72.79633331298828,3.5380639512008702,-1.3955433393425127,88.21302318344982,-0.4849805,-6.228626,7.3932576,35.908367,-31.740837,2.4633355,-27.225847,-6.011831,1.3988538,92.26553,-19.978758,-4.7278957,-8.247985,-3.2232182,10.060799,2.4595854,34.203842,-28.191442,-13.217739,0.48836875,0.12822197,6.089095,11.871383,-29.304487,38.000477,7.2074165,-0.7293279,-13.880308,-15.947738
138,-3.8798916339874268,184.08123779296875,73.14661407470703,3.1700628213993496,-1.296811642314742,88.15370174925022,1.5443779,-5.9304643,7.1431727,33.99523,-30.685635,2.1640859,-28.159641,-5.6595106,0.52717733,89.147156,-19.747244,-4.928217,-8.646306,-2.7448907,9.910411,2.2341595,34.063534,-28.327087,-14.223924,-0.05317927,-0.29459092,5.7750015,12.740422,-29.650911,37.92379,7.284184,-0.70525557,-13.952616,-15.855069
139,-3.8796019554138184,185.4911346435547,73.51863861083984,2.8008260285461084,-1.1823731030431748,88.07431167217348,3.5355656,-5.609154,6.921786,32.107983,-29.402918,1.8582622,-28.892982,-5.217778,-0.35562152,85.65141,-19.396591,-4.998779,-9.019479,-2.2562628,9.735042,2.1305733,33.96151,-28.465467,-15.217283,-0.5076346,-0.7060863,5.4429154,13.607615,-30.007761,37.83322,7.2838335,-0.6992113,-14.019098,-15.747576
140,-3.8747153282165527,186.91845703125,73.9127197265625,2.445017454708882,-1.0653847262457459,88.00466242023111,5.4084167,-5.2875504,6.71573,30.414215,-27.953363,1.5817432,-29.397488,-4.710122,-1.22115,81.799286,-18.93558,-4.9096313,-9.388143,-1.7832097,9.55735,2.1225393,33.894756,-28.600431,-16.15482,-0.9457408,-1.1266485,5.1127014,14.464122,-30.362885,37.706696,7.2027245,-0.66676164,-14.072226,-15.627834
141,-3.8555431365966797,188.35440063476562,74.31056213378906,2.0894532387331184,-0.9499612370480665,87.93817730428931,7.1882052,-4.956027,6.5222917,28.87829,-26.301548,1.3321818,-29.671005,-4.1243896,-2.0409985,77.54725,-18.329191,-4.672233,-9.749797,-1.3121614,9.379299,2.2200012,33.862343,-28.725168,-17.026733,-1.3544393,-1.5624096,4.769782,15.294879,-30.707626,37.55804,7.046969,-0.6100508,-14.109704,-15.50924
142,-3.847271203994751,189.79507446289062,74.69448852539062,1.735128509056826,-0.8298900763290982,87.86242885532333,8.906668,-4.6153135,6.3491035,27.437786,-24.432463,1.0888169,-29.727867,-3.4617875,-2.814209,72.88756,-17.581429,-4.306328,-10.096069,-0.84218436,9.187957,2.430524,33.86532,-28.841887,-17.85025,-1.7060542,-2.0032382,4.4101477,16.100552,-31.037922,37.397102,6.830908,-0.5519138,-14.136152,-15.3860235
143,-3.837449789047241,191.23951721191406,75.07450866699219,1.4231712802578211,-0.7018582027318128,87.7992092594317,10.490033,-4.3031874,6.1988835,26.219555,-22.434294,0.85905135,-29.573786,-2.7772298,-3.545679,67.88685,-16.756346,-3.803778,-10.438184,-0.4156152,8.982161,2.724857,33.902283,-28.961946,-18.627851,-2.0477128,-2.4423132,4.0688467,16.895239,-31.34692,37.19481,6.5621786,-0.47522742,-14.153314,-15.2323
144,-3.818728446960449,192.67913818359375,75.4454574584961,1.1917004982363912,-0.5611453105183312,87.77235410090904,11.8619585,-4.0574102,6.071079,25.344162,-20.388525,0.64426076,-29.219858,-2.132515,-4.242859,62.599125,-15.915092,-3.165285,-10.785881,-0.07159458,8.759239,3.0704963,33.969215,-29.102352,-19.357883,-2.424191,-2.8726923,3.78109,17.69466,-31.626007,36.918705,6.2487645,-0.3619562,-14.162769,-15.021834
145,-3.797407388687134,194.12599182128906,75.80001068115234,1.0377341436084007,-0.3847838899224908,87.79521660751062,12.9844675,-3.8778837,5.966364,24.816198,-18.232382,0.47072423,-28.638567,-1.5780823,-4.9539423,56.835552,-15.026045,-2.391532,-11.155621,0.1941471,8.497098,3.4634354,34.064587,-29.275976,-20.02408,-2.875564,-3.2989755,3.5710735,18.500086,-31.865036,36.555553,5.884683,-0.17666404,-14.169182,-14.73236
146,-3.772386074066162,195.5852508544922,76.13060760498047,0.9484539975733368,-0.18223437898916367,87.85705056066875,13.908356,-3.7542317,5.8797874,24.56272,-15.935758,0.31860685,-27.825022,-1.0944567,-5.6420274,50.578617,-14.05357,-1.5094162,-11.537739,0.3956509,8.199863,3.9121525,34.187954,-29.47721,-20.622738,-3.3661962,-3.723171,3.4148226,19.297579,-32.05856,36.125168,5.479654,0.061836556,-14.169847,-14.382615
147,-3.750183343887329,197.0584716796875,76.42801666259766,0.9446849886955387,0.0029799218343595263,87.94816629058826,14.697692,-3.712065,5.7987175,24.565393,-13.624904,0.13745263,-26.833698,-0.6590697,-6.1853123,44.148113,-13.052432,-0.56764376,-11.906854,0.5061676,7.9019127,4.3991246,34.335594,-29.694311,-21.172888,-3.8288245,-4.1341867,3.2745535,20.096329,-32.207687,35.64008,5.052899,0.27918318,-14.154942,-14.007621
148,-3.7210066318511963,198.54403686523438,76.6883316040039,1.0461688896433619,0.12619330992832611,88.05939538972736,15.415069,-3.7781014,5.7056923,24.809332,-11.428428,-0.115424775,-25.721426,-0.2649692,-6.4630632,37.872974,-12.088171,0.37778783,-12.237961,0.49929482,7.63896,4.906144,34.500927,-29.917372,-21.688965,-4.194348,-4.5208497,3.1134121,20.89936,-32.318752,35.11377,4.624028,0.40928516,-14.116104,-13.6421385
149,-3.6996548175811768,200.0397491455078,76.90568542480469,1.3072553150877175,0.16438421791337257,88.20994775433493,16.103977,-4.0147777,5.5529194,25.263414,-9.344698,-0.4013487,-24.401972,0.066813804,-6.343713,31.527308,-11.150752,1.4314108,-12.55322,0.31833568,7.41313,5.439924,34.68195,-30.157564,-22.171608,-4.4495506,-4.890067,2.9307156,21.738256,-32.398922,34.52779,4.1786304,0.43146753,-14.045126,-13.28785
150,-3.67036509513855,201.5399169921875,77.07546997070312,1.7426058057137999,0.13366664762815403,88.41421148245466,16.747953,-4.4333463,5.3402643,25.903559,-7.2876835,-0.69346774,-22.83579,0.20585872,-5.899097,24.967018,-10.200565,2.5189226,-12.873099,-0.0490821,7.205979,6.002979,34.879597,-30.416538,-22.611835,-4.627533,-5.244562,2.7425442,22.610847,-32.45029,33.878166,3.6974301,0.38221765,-13.9485655,-12.929317
151,-3.642127752304077,203.03182983398438,77.19805145263672,2.301170775943487,0.05098856947456039,88.644894443218,17.310715,-4.970718,5.1303253,26.751242,-5.277514,-1.0456926,-21.21052,0.0656589,-5.3446946,18.768131,-9.293884,3.3770297,-13.161871,-0.55199987,7.022459,6.5676003,35.09069,-30.669949,-23.007475,-4.7332582,-5.5670147,2.5368586,23.460377,-32.470825,33.2082,3.2024488,0.28340307,-13.840716,-12.57491
152,-3.624349355697632,204.51283264160156,77.27900695800781,2.877405858558516,-0.05044056868315803,88.85474964966092,17.713549,-5.499741,5.00931,27.891535,-3.3736572,-1.5213166,-19.778545,-0.27974173,-4.9354134,13.594736,-8.503841,3.8150318,-13.3654785,-1.0806285,6.8677692,7.1042295,35.306908,-30.892612,-23.352247,-4.7707887,-5.840597,2.301702,24.216427,-32.456448,32.568237,2.7340903,0.15736435,-13.7367935,-12.233507
153,-3.599456310272217,205.972412109375,77.32476806640625,3.389372639550576,-0.12887058549149466,89.00841705919552,17.842316,-5.921672,5.019265,29.479074,-1.6851094,-2.1592472,-18.646938,-0.67563444,-4.8274584,9.575339,-7.868017,3.7074025,-13.440595,-1.5418972,6.730142,7.599877,35.51714,-31.0821,-23.653255,-4.7059197,-6.0519395,2.0111427,24.896704,-32.40064,31.93463,2.2927938,-0.01789293,-13.632538,-11.892849
154,-3.566819906234741,207.41412353515625,77.33499145507812,3.8220424092398457,-0.18817905591052692,89.10380287825458,17.69625,-6.2081385,5.148118,31.55245,-0.21586047,-2.9093041,-18.074547,-1.0419397,-4.8913646,7.152319,-7.7400594,3.2374096,-13.389927,-1.9210564,6.610872,8.052825,35.712887,-31.261614,-23.889278,-4.5463843,-6.215188,1.6808684,25.505102,-32.302,31.299456,1.8890648,-0.24331322,-13.524876,-11.5521
155,-3.5290956497192383,208.83343505859375,77.3124008178711,4.130082609393384,-0.2508399074495717,89.13217399536194,17.333422,-6.294775,5.4140477,34.066956,1.1122186,-3.7130542,-18.366571,-1.3150816,-4.956251,7.0590343,-8.447213,2.7002103,-13.218891,-2.181654,6.5344877,8.4508095,35.88675,-31.443062,-24.008144,-4.360379,-6.35491,1.3611678,25.955544,-32.16688,30.737003,1.5793455,-0.4716596,-13.430734,-11.238276
156,-3.499366283416748,210.2315673828125,77.2476577758789,4.297183815987378,-0.34711406932299244,89.09651907845704,16.842106,-6.155217,5.818709,36.926487,2.404177,-4.5151563,-18.39588,-1.3603908,-4.883509,7.008023,-8.706758,2.3778203,-12.94975,-2.3170607,6.5242753,8.79259,36.03421,-31.627459,-23.966047,-4.2158723,-6.4940925,1.0996699,26.159603,-32.00709,30.327883,1.4178098,-0.6538291,-13.365243,-10.980275
157,-3.476313829421997,211.6227569580078,77.13617706298828,4.328631810437875,-0.4921211369879888,88.9965835916101,16.24189,-5.759803,6.440322,40.165016,3.8317823,-5.3320203,-18.100225,-1.1681403,-4.590622,6.9948316,-8.453369,2.474674,-12.580108,-2.3389332,6.591812,9.072238,36.151646,-31.808247,-23.751358,-4.159185,-6.649098,0.8934521,26.106443,-31.827358,30.092682,1.4053053,-0.73730683,-13.335141,-10.776828
158,-3.431352138519287,213.00306701660156,77.01081848144531,4.228671628398858,-0.6679304031443561,88.83369347712988,15.510071,-5.1025815,7.2316914,43.791866,5.3078103,-6.1540427,-17.518139,-0.76748794,-4.1710544,7.019752,-7.7398753,2.7930346,-12.106366,-2.2408395,6.7205534,9.293038,36.23588,-31.98406,-23.38321,-4.143289,-6.8034635,0.72025144,25.841095,-31.630112,29.989494,1.5157634,-0.76043373,-13.33024,-10.617249
159,-3.3705902099609375,214.35986328125,76.88485717773438,3.9868610782807266,-0.8611896237249446,88.62103271564949,14.686524,-4.234158,8.001719,47.6464,6.5535445,-6.921968,-16.740744,-0.19802631,-3.7318432,7.0826964,-6.6674337,3.0100734,-11.558119,-2.0022674,6.892906,9.478537,36.285828,-32.158173,-22.875996,-4.094655,-6.930652,0.59831434,25.373158,-31.42742,30.001482,1.7447857,-0.81223637,-13.339532,-10.516323
160,-3.3031511306762695,215.7052001953125,76.71614074707031,3.6146689232069313,-1.0636876472548458,88.37759178264038,13.814404,-3.2585075,8.561712,51.55386,7.2921734,-7.614015,-16.910927,0.42644683,-3.3907888,9.417126,-6.519773,2.815568,-10.974757,-1.6245047,7.092118,9.659479,36.302776,-32.32839,-22.249994,-3.939343,-7.004411,0.54563916,24.709759,-31.237936,30.114548,2.083495,-0.9777452,-13.3517475,-10.48957
161,-3.2600250244140625,217.04962158203125,76.46125793457031,3.1174389446389066,-1.2981283019664012,88.10038408936036,12.949423,-2.217886,8.918752,55.50102,7.4121275,-8.306027,-17.477274,1.1388372,-3.1819375,12.95779,-6.3767653,2.0303931,-10.355419,-1.1115447,7.325865,9.847555,36.288345,-32.49615,-21.501965,-3.638035,-7.036174,0.58061105,23.851902,-31.08033,30.339102,2.5210967,-1.2788992,-13.372445,-10.535091
162,-3.2203335762023926,218.37191772460938,76.14442443847656,2.5842855596000556,-1.5886121051101167,87.81034111755994,12.110418,-1.1929708,9.14251,59.500458,7.101555,-9.00307,-18.13908,1.858583,-3.0550072,17.159039,-6.021245,0.8756297,-9.718492,-0.5578922,7.602323,10.044662,36.24649,-32.64825,-20.640978,-3.2351563,-7.032531,0.68656695,22.818142,-30.959879,30.674683,3.0268676,-1.6640481,-13.401824,-10.649284
163,-3.1710996627807617,219.68121337890625,75.7718734741211,2.102806977271847,-1.9115753519358583,87.54721397356371,11.241545,-0.31170562,9.163556,63.46332,6.5092854,-9.610377,-18.761444,2.4942336,-3.0128813,21.486181,-5.915664,-0.36932945,-9.116946,-0.04901899,7.90525,10.25829,36.18442,-32.762024,-19.701576,-2.7887769,-6.960675,0.83026177,21.639414,-30.870272,31.09076,3.56799,-2.113255,-13.42127,-10.843753
164,-3.1259167194366455,220.98635864257812,75.35165405273438,1.665740555639027,-2.2195185262275725,87.32694369312004,10.245718,0.39905554,8.915973,67.34612,5.7554193,-10.055421,-19.245712,3.0668042,-3.0414033,25.448906,-6.5557704,-1.4487348,-8.5766,0.42588788,8.215854,10.487997,36.10743,-32.82254,-18.71074,-2.3575659,-6.789513,0.981334,20.334007,-30.798086,31.554396,4.129535,-2.6066172,-13.4139185,-11.12821
165,-3.0805540084838867,222.27838134765625,74.89749145507812,1.2040756020990913,-2.533515223688106,87.14251309993523,9.10607,0.9392818,8.313897,71.25125,4.7410336,-10.323071,-19.67851,3.6578546,-3.1462545,29.266655,-8.40758,-2.3621912,-8.09145,0.933108,8.56647,10.736322,36.017803,-32.814182,-17.661139,-1.9493206,-6.567841,1.1387873,18.868664,-30.73282,32.06839,4.748816,-3.1433153,-13.395462,-11.502396
166,-3.038747787475586,223.54562377929688,74.3929672241211,0.6956025630905622,-2.852991430362885,86.97625573084696,7.8508377,1.3262546,7.4392667,75.19346,3.42206,-10.493743,-20.134003,4.291586,-3.3009422,33.192017,-11.153936,-3.2307146,-7.6405864,1.4966836,8.952556,11.000992,35.916122,-32.74954,-16.547543,-1.537813,-6.2934055,1.3170598,17.238052,-30.669374,32.642857,5.4294934,-3.735529,-13.366665,-11.960996
167,-2.9943454265594482,224.7831573486328,73.89104461669922,0.17301055919190142,-3.0912165587205704,86.81677171218215,6.4280386,1.6084298,6.466265,79.02055,1.9959741,-10.631399,-20.534632,4.9394355,-3.4510686,36.850147,-14.157202,-3.9861286,-7.208427,2.0894887,9.297097,11.266698,35.80108,-32.66562,-15.386479,-1.1298347,-5.8600187,1.5098262,15.491124,-30.602053,33.253918,6.119031,-4.3740425,-13.288925,-12.503579
168,-2.9682421684265137,226.02882385253906,73.42190551757812,-0.3265848622312527,-3.1624110361496105,86.65855634802652,4.7840934,1.8578914,5.5477366,82.56581,0.6714455,-10.780959,-20.783905,5.5623484,-3.570314,39.830296,-16.761915,-4.562021,-6.777733,2.677681,9.522958,11.515945,35.670124,-32.60413,-14.194913,-0.73147917,-5.1591473,1.7101419,13.684422,-30.525066,33.873714,6.759793,-5.0499396,-13.122681,-13.128219
169,-2.939302682876587,227.27139282226562,72.98904418945312,-0.8441814815370262,-2.964986669420366,86.49438721967569,2.7788534,2.116493,4.642637,85.88121,-0.44175437,-10.992977,-20.91217,6.2040963,-3.7108154,41.95567,-18.832321,-4.91186,-6.3369737,3.3093493,9.547434,11.733464,35.51448,-32.573044,-12.97024,-0.2784744,-4.0384374,1.8786018,11.7898855,-30.437363,34.53721,7.3782234,-5.8677216,-12.806898,-13.941895
170,-2.9214375019073486,228.5268096923828,72.6103744506836,-1.3865091791917665,-2.5689972382463657,86.32516327452635,0.4744718,2.33933,3.6839516,89.02778,-1.4645102,-11.225341,-20.964174,6.8688393,-3.886611,43.48826,-20.7127,-5.0804205,-5.8856797,3.9848726,9.429423,11.919074,35.32932,-32.555695,-11.689123,0.20664647,-2.5963337,2.0253415,9.796361,-30.331482,35.23806,7.9808073,-6.784575,-12.370347,-14.905118
171,-2.9104058742523193,229.78150939941406,72.30107116699219,-1.872239722929039,-2.14742445728496,86.15886014261427,-1.8912897,2.509902,2.7762172,91.86393,-2.5338032,-11.364144,-20.850859,7.463352,-4.0258436,44.64864,-22.4565,-5.141149,-5.4204087,4.5990534,9.304816,12.0902405,35.122795,-32.56194,-10.34588,0.59598106,-1.1026967,2.2261007,7.803698,-30.191504,35.88033,8.483086,-7.5927606,-11.921128,-15.797924
172,-2.905604600906372,231.03111267089844,72.04756164550781,-2.215626641870682,-1.8730584985536545,86.00768178764305,-4.0871286,2.6325111,2.0244122,94.248924,-3.7838345,-11.289916,-20.479328,7.899665,-4.0544066,45.64906,-24.113503,-5.169643,-4.9439864,5.046128,9.309799,12.257565,34.9136,-32.610847,-8.93505,0.7541947,0.17261161,2.5684636,5.9458933,-30.00251,36.359642,8.786229,-8.120763,-11.577333,-16.403471
173,-2.8919289112091064,232.2876739501953,71.8436508178711,-2.3687315238831435,-1.8097181362250845,85.89157020695843,-6.056889,2.6323783,1.398538,96.148605,-5.2769127,-11.003735,-19.783646,8.128236,-3.9531913,46.529324,-25.716902,-5.1705885,-4.464472,5.265514,9.514635,12.412561,34.711346,-32.705406,-7.3639836,0.68110925,1.1946115,3.0850048,4.272528,-29.748495,36.601337,8.877743,-8.315393,-11.386321,-16.624456
174,-2.8881607055664062,233.51834106445312,71.68024444580078,-2.385918683960647,-1.859350689806484,85.80082682712307,-7.9355607,2.5481005,0.85651433,97.642105,-6.9205523,-10.555235,-18.819584,8.210329,-3.7714415,47.170055,-27.228865,-5.114354,-3.9701087,5.321896,9.837803,12.5492115,34.521835,-32.84934,-5.669997,0.42949238,2.0921516,3.7391336,2.6656969,-29.429539,36.68799,8.860694,-8.263716,-11.289988,-16.59096
175,-2.871328115463257,234.7238006591797,71.56228637695312,-2.3365478243659563,-1.951590934358465,85.7054732564182,-9.782333,2.5617948,0.47655433,98.75385,-8.621135,-9.900873,-17.67484,8.224522,-3.533491,47.541336,-28.590294,-5.025179,-3.4552267,5.297329,10.184767,12.703013,34.36423,-33.044315,-4.0559974,-0.058828704,2.8385732,4.5189714,1.0958835,-29.067213,36.740875,8.741355,-8.068542,-11.252133,-16.431255
176,-2.8619394302368164,235.9213409423828,71.49102783203125,-2.2907091402393536,-2.015961464860163,85.57491131211684,-11.6562,2.8522198,0.33032423,99.505615,-10.291414,-9.00194,-16.440012,8.245932,-3.25714,47.617874,-29.74389,-4.9253173,-2.9143257,5.273939,10.466723,12.917196,34.2667,-33.286015,-2.74402,-0.84276146,3.4037926,5.4135194,-0.49871233,-28.69753,36.886494,8.533139,-7.7986584,-11.235972,-16.273327
177,-2.858703851699829,237.1154022216797,71.47048950195312,-2.2429321013329275,-2.0591869088017196,85.3899141700988,-13.576305,3.479293,0.46625105,99.892204,-12.027699,-7.7793274,-15.115691,8.270476,-2.9201045,47.403053,-30.70803,-4.819156,-2.3415413,5.248886,10.709944,13.217789,34.257744,-33.590183,-1.8338389,-2.1451235,3.755868,6.5889287,-2.1696243,-28.350725,37.170616,8.181906,-7.397501,-11.250977,-16.141813
178,-2.8483197689056396,238.3311767578125,71.50970458984375,-2.159400566579418,-2.110955517282837,85.16939901398784,-15.500234,4.314182,0.83278227,99.90029,-13.857995,-6.3079863,-13.66212,8.2555,-2.5168219,46.916428,-31.508121,-4.6983085,-1.7475765,5.1838317,10.957887,13.610417,34.3473,-33.92961,-1.2408464,-3.870162,3.8882809,7.993541,-3.8598204,-28.034185,37.527943,7.6581264,-6.839715,-11.307697,-15.972103
179,-2.8483331203460693,239.5347900390625,71.59125518798828,-2.0663924198890626,-2.135241067787308,84.94000600008668,-17.389105,5.265237,1.3540715,99.5352,-15.593353,-4.7746525,-12.111585,8.217281,-2.0850239,46.15854,-32.09612,-4.562636,-1.1539099,5.1064086,11.145502,14.112413,34.528,-34.235264,-0.91355205,-5.5868526,3.834221,9.282753,-5.469145,-27.74843,37.915325,7.0156865,-6.2430334,-11.371992,-15.75934
180,-2.8562309741973877,240.77439880371094,71.72653198242188,-1.994352271053668,-2.0961276067361223,84.72848472195537,-19.206955,6.2622504,1.9626716,98.803154,-17.03605,-3.3485014,-10.494464,8.176418,-1.6621512,45.124847,-32.421444,-4.4101906,-0.5845951,5.045901,11.205481,14.742761,34.779587,-34.437943,-0.79696023,-6.859283,3.6666796,10.113131,-6.9153924,-27.489483,38.295303,6.326595,-5.7198987,-11.410458,-15.501008
181,-2.862210512161255,242.0504150390625,71.91764068603516,-1.9663065210037909,-1.9670600401450455,84.54294975899339,-20.974571,7.44672,2.744553,97.70394,-18.17045,-1.9782901,-8.786108,8.150844,-1.2546102,43.708416,-32.47239,-4.2319493,-0.056056965,5.0293717,11.091828,15.521235,35.089092,-34.53495,-0.92045385,-7.611304,3.3949502,10.39841,-8.210468,-27.259443,38.687916,5.598849,-5.3127246,-11.415116,-15.177514
182,-2.865886926651001,243.34945678710938,72.1573257446289,-1.9596496179276457,-1.7742395140152918,84.36801042865243,-22.668005,8.789249,3.742131,96.228775,-19.114141,-0.62238485,-6.980719,8.115486,-0.8342843,41.95269,-32.280434,-4.032487,0.44386053,5.031255,10.849532,16.423344,35.45274,-34.560402,-1.2849997,-8.060904,3.0100005,10.314059,-9.390403,-27.061045,39.11033,4.8006816,-4.9574714,-11.402596,-14.797973
183,-2.8604836463928223,244.6743927001953,72.4390640258789,-1.9359269376642343,-1.5588803433882334,84.19666708711199,-24.206383,9.99823,4.82125,94.37572,-19.841831,0.57114464,-5.137998,8.033398,-0.39356843,40.07141,-31.851574,-3.8247213,0.9367972,5.00512,10.544583,17.413017,35.858036,-34.500122,-1.7975241,-8.207425,2.5733082,9.91873,-10.415006,-26.889677,39.51663,3.9572644,-4.6092553,-11.377617,-14.402419
184,-2.859889507293701,246.03399658203125,72.7635269165039,-1.8592248160998646,-1.3608075267934039,84.02284923677836,-25.531523,10.808661,5.8242793,92.144104,-20.304651,1.477773,-3.319754,7.8752275,0.06688638,38.274857,-31.192297,-3.6171737,1.4414054,4.9100976,10.24211,18.404999,36.289963,-34.351715,-2.3232687,-8.076784,2.1401231,9.272614,-11.245662,-26.737331,39.861725,3.098638,-4.228557,-11.34507,-14.030676
185,-2.843437433242798,247.39828491210938,73.11849975585938,-1.7232546940099498,-1.1884318359106911,83.84865770817478,-26.662079,11.165949,6.6755686,89.52465,-20.432863,2.1244185,-1.4835594,7.6366053,0.5569681,36.500603,-30.264282,-3.4003456,1.9729843,4.737338,9.939593,19.423159,36.7366,-34.088455,-2.8540459,-7.523703,1.6760458,8.233321,-11.855456,-26.598387,40.125435,2.2298493,-3.8021905,-11.301377,-13.692363
186,-2.835183620452881,248.77760314941406,73.49459838867188,-1.5533502000145956,-1.0206615219063706,83.6774804344789,-27.62532,11.242189,7.45943,86.52306,-20.260664,2.5858428,0.37779927,7.33776,1.0664958,34.67839,-29.078627,-3.1679528,2.5211372,4.5131207,9.60516,20.561646,37.189316,-33.702877,-3.4879727,-6.5503106,1.1489377,6.829382,-12.273037,-26.473925,40.330944,1.3484089,-3.3551137,-11.2453785,-13.36626
187,-2.8269989490509033,250.16207885742188,73.88969421386719,-1.3610074555480205,-0.8522198477442751,83.5064319793919,-28.389183,11.127954,8.234121,83.15721,-19.883932,2.8201947,2.1529813,6.991449,1.5585153,33.00363,-27.713726,-2.9296188,3.0528286,4.2549825,9.267126,21.57863,37.647865,-33.294094,-4.0524616,-5.547293,0.6225775,5.373823,-12.559905,-26.365738,40.511204,0.47684595,-2.902749,-11.186029,-13.046938
188,-2.8253962993621826,251.5452880859375,74.29657745361328,-1.1594633953710112,-0.6785466975015547,83.33163284103412,-28.92073,10.905056,9.062244,79.43094,-19.397299,2.780866,3.7331216,6.6128073,2.0009673,31.67221,-26.246687,-2.698885,3.5675974,3.978407,8.939514,22.631956,38.095016,-32.864548,-4.677749,-4.6517153,0.18464184,4.177223,-12.750042,-26.279156,40.66652,-0.36658803,-2.459344,-11.132371,-12.724417
189,-2.8296735286712646,252.9346923828125,74.6951675415039,-0.9290356990431727,-0.48404865885093223,83.14876062769324,-29.221107,10.556231,9.942051,75.2627,-18.729376,2.384782,5.0915346,6.1864266,2.3977551,30.71067,-24.648722,-2.4835365,4.0719004,3.670637,8.61219,23.680696,38.518517,-32.43614,-5.3431277,-3.79059,-0.114276595,3.2732756,-12.844362,-26.219887,40.801834,-1.1764535,-1.9924171,-11.085748,-12.407351
190,-2.835498094558716,254.34153747558594,75.0867919921875,-0.6730607267871859,-0.2762701906192215,82.96088013391096,-29.305847,10.062921,10.823525,70.659035,-17.853607,1.6965555,6.2892346,5.7189465,2.763628,30.019861,-22.893044,-2.2726848,4.5701704,3.334784,8.280075,24.695103,38.91255,-32.001724,-6.011278,-2.8902545,-0.32575744,2.510209,-12.821927,-26.190784,40.908054,-1.9656991,-1.5054237,-11.041124,-12.096422
191,-2.849158763885498,255.75030517578125,75.46790313720703,-0.4340764617772497,-0.08437214186159861,82.77598468916571,-29.169178,9.4991,11.698178,65.74776,-16.928074,0.886116,7.357337,5.25763,3.080812,29.59569,-21.053972,-2.0465896,5.039606,3.0112216,7.969783,25.697472,39.27473,-31.548903,-6.6727185,-2.177063,-0.49521655,1.9109082,-12.7009,-26.191673,40.986355,-2.7393289,-1.0670122,-10.99781,-11.772077
192,-2.861335515975952,257.16400146484375,75.82514953613281,-0.250307809694564,0.06260887158950117,82.59911469474831,-28.805819,8.942861,12.566513,60.647404,-16.105396,0.12619936,8.332897,4.848128,3.3346727,29.418285,-19.194647,-1.7839757,5.458718,2.738171,7.7071004,26.710968,39.605686,-31.06241,-7.321066,-1.8815142,-0.6632558,1.4983994,-12.49995,-26.218477,41.03942,-3.5026155,-0.74649084,-10.955857,-11.415165
193,-2.870089530944824,258.5914306640625,76.15449523925781,-0.12335791181558549,0.1657148632260525,82.42587522589395,-28.16332,8.403224,13.454661,55.185856,-15.430419,-0.5590477,9.219132,4.498889,3.5285876,29.466862,-17.241138,-1.476869,5.8302345,2.5137448,7.496308,27.744238,39.904873,-30.53858,-7.962179,-2.174141,-0.81564236,1.3377048,-12.215663,-26.268137,41.063396,-4.2565193,-0.57409436,-10.918235,-11.006723
194,-2.8763062953948975,260.0323486328125,76.45722961425781,-0.038573282811166676,0.2371609006225573,82.25051578343336,-27.255661,7.870815,14.338516,49.332123,-14.812162,-1.2207898,10.014712,4.2001815,3.6768196,29.72795,-15.172481,-1.1237068,6.1663146,2.3255732,7.322511,28.789663,40.171787,-29.98154,-8.602465,-2.891322,-0.9331883,1.39444,-11.844714,-26.339886,41.05927,-4.994432,-0.50958514,-10.885447,-10.561011
195,-2.8886585235595703,261.4906921386719,76.73049926757812,-0.006123507574009487,0.2641253155956241,82.0762044071175,-26.17957,7.3850408,15.162306,43.42403,-14.190996,-1.8103722,10.752441,3.9642177,3.7833564,30.181149,-13.13041,-0.71992844,6.4583054,2.190561,7.1833277,29.836027,40.410126,-29.387495,-9.229373,-3.772572,-1.0489962,1.5427619,-11.409393,-26.431204,41.039032,-5.706853,-0.51667315,-10.854516,-10.108443
196,-2.8988263607025146,262.9631042480469,76.96986389160156,-0.04104974556715995,0.23418412373969924,81.9082307225862,-25.04379,6.975948,15.874642,37.822872,-13.517651,-2.2995765,11.448251,3.8046086,3.8476367,30.837267,-11.263863,-0.27400878,6.6945343,2.1298487,7.0748606,30.880152,40.626003,-28.748783,-9.837193,-4.5558147,-1.1930577,1.6567326,-10.933394,-26.537956,41.016373,-6.38227,-0.5588399,-10.8221445,-9.679582
197,-2.909557819366455,264.4398498535156,77.1572494506836,-0.18766084536254612,0.1193623556239908,81.73415766424966,-23.804825,6.6463323,16.43816,32.44493,-12.751836,-2.7471156,12.124051,3.7729983,3.9011004,31.713362,-9.6228695,0.14297143,6.8822,2.1872072,7.013105,31.968176,40.824047,-28.035042,-10.441841,-5.2532873,-1.3799677,1.737281,-10.400968,-26.656584,40.98682,-7.027138,-0.66631335,-10.78378,-9.257077
198,-2.9203450679779053,265.90704345703125,77.28945922851562,-0.438174289828285,-0.06871463467427943,81.55183507654704,-22.422558,6.406534,16.88702,27.142948,-11.922546,-3.140825,12.766831,3.8617444,3.937031,32.79633,-8.118458,0.5487861,7.026675,2.3521175,6.995152,33.096447,41.005844,-27.250406,-11.053278,-5.9790745,-1.5920901,1.839381,-9.810708,-26.785337,40.947426,-7.6413803,-0.8455885,-10.743973,-8.832668
199,-2.9306719303131104,267.36614990234375,77.36697387695312,-0.7275940207193629,-0.28119764024272687,81.38457007915025,-21.038776,6.2629633,17.292889,22.224407,-11.092611,-3.38747,13.329164,3.9860637,3.8983274,34.06929,-6.7040477,1.0533338,7.111409,2.5617774,6.9878078,34.178677,41.17251,-26.447626,-11.647203,-6.6244583,-1.8062059,1.9194671,-9.207907,-26.923111,40.914948,-8.200033,-1.0271437,-10.711469,-8.449862
200,-2.941619634628296,268.8233947753906,77.39610290527344,-0.9793944326796483,-0.46568504478376993,81.25982113904335,-19.814829,6.181854,17.739113,18.021664,-10.336861,-3.4224532,13.755684,4.046111,3.7285647,35.533226,-5.3424687,1.7615265,7.115298,2.7429335,6.955798,35.108967,41.32451,-25.691387,-12.180494,-7.086673,-1.9983277,1.9349489,-8.641022,-27.068766,40.907776,-8.673871,-1.1394842,-10.6937895,-8.15225
201,-2.9499058723449707,270.2601013183594,77.38137817382812,-1.1895710036319815,-0.5961010850571957,81.19185134628096,-18.78383,6.1658697,18.393158,14.516211,-9.75969,-3.1903286,14.007643,3.9898586,3.3296146,37.213734,-3.9120717,2.8127081,7.018551,2.8891282,6.868802,35.89376,41.46007,-24.984724,-12.652955,-7.3155265,-2.1608686,1.8742785,-8.118941,-27.220959,40.944847,-9.061864,-1.1600986,-10.686802,-7.957373
202,-2.9619510173797607,271.6764831542969,77.32366943359375,-1.375216154782354,-0.6983419650719536,81.17411280641666,-17.897377,6.1618376,19.182035,11.58857,-9.311273,-2.7825532,14.088055,3.8398507,2.760663,39.175808,-2.493859,4.077125,6.826801,3.017926,6.7483616,36.564533,41.57792,-24.308743,-13.068686,-7.373279,-2.3067298,1.7614331,-7.62292,-27.377039,41.01559,-9.369322,-1.1265885,-10.688089,-7.840291
203,-2.9800033569335938,273.0763854980469,77.22537231445312,-1.4643432940208834,-0.7899672217620999,81.2096322630047,-17.22419,6.045233,19.822567,9.485184,-8.8530245,-2.3347416,14.003725,3.5760152,2.187099,41.470276,-1.3642256,5.278959,6.551394,3.0618246,6.6321144,37.049347,41.681465,-23.701105,-13.385407,-7.3227034,-2.4432056,1.6074923,-7.1505814,-27.532755,41.09247,-9.581068,-1.0661379,-10.707395,-7.7811084
204,-3.0207409858703613,274.4483642578125,77.11939239501953,-1.3812913454723137,-0.8881954084124016,81.29892825840759,-16.863369,5.738246,20.020863,8.544603,-8.282448,-1.9530797,13.780916,3.1850271,1.7627902,44.10256,-0.79511684,6.175558,6.2112684,2.949559,6.554999,37.278217,41.77623,-23.205297,-13.56437,-7.222702,-2.5774343,1.4251646,-6.694187,-27.682425,41.141205,-9.684409,-1.0046511,-10.754712,-7.7595787
205,-3.067117214202881,275.8073425292969,76.9863510131836,-1.0492646258546159,-0.9834003943572156,81.45671785619552,-16.886494,5.1491466,19.548605,8.973839,-7.2956977,-1.7086154,13.407814,2.585542,1.4796158,47.137115,-0.9317573,6.6831784,5.793553,2.6061573,6.509124,37.20557,41.86531,-22.84957,-13.591203,-7.0739837,-2.707508,1.2021374,-6.264917,-27.823477,41.16636,-9.673593,-0.91577584,-10.846402,-7.784784
206,-3.107152223587036,277.13702392578125,76.81307220458984,-0.5231101969585971,-1.0739407459539405,81.6754023957959,-17.203114,4.342001,18.62861,10.518294,-6.0134687,-1.5321952,12.904831,1.8042564,1.2706667,50.50655,-1.596243,6.956846,5.2998195,2.083136,6.47432,36.87491,41.9505,-22.613167,-13.484915,-6.8502493,-2.8317513,0.93975306,-5.860218,-27.954138,41.180965,-9.552903,-0.79897535,-10.972434,-7.8618383
207,-3.1432361602783203,278.4539794921875,76.58087921142578,0.05635153807034606,-1.1920068010527163,81.91750414229466,-17.710766,3.5201719,17.630241,12.926972,-5.0209475,-1.308448,12.35696,1.0294845,1.1952206,53.99299,-2.5667648,7.1333222,4.7737412,1.514157,6.4712353,36.357624,42.03806,-22.45857,-13.265931,-6.571551,-2.9569116,0.6702328,-5.4571667,-28.070415,41.16327,-9.318935,-0.7146505,-11.103075,-7.9640675
208,-3.1445913314819336,279.78265380859375,76.25310516357422,0.5477705879030812,-1.3666298749532857,82.14602721313888,-18.354132,2.9259918,16.899826,16.056677,-4.9639807,-0.88986844,11.83385,0.45534003,1.3003135,57.408524,-3.6325455,7.34704,4.260137,1.0326694,6.5252514,35.723385,42.138367,-22.347912,-12.956721,-6.2593637,-3.0896235,0.42537665,-5.0302997,-28.167387,41.086147,-8.9706335,-0.7231487,-11.208848,-8.064949
209,-3.1534650325775146,281.0982666015625,75.86356353759766,0.8712274812492784,-1.6513642112924387,82.3442305259056,-19.258749,2.7502348,16.483017,20.422747,-6.243678,-0.121772304,11.418064,0.2221875,1.6332881,60.73442,-4.8743796,7.6737957,3.7651424,0.71977717,6.6780133,35.005276,42.263947,-22.255695,-12.59798,-5.8714304,-3.2639723,0.19850676,-4.581285,-28.244385,40.94078,-8.514736,-0.8489872,-11.2746725,-8.140019
210,-3.182131767272949,282.3748474121094,75.4399185180664,1.0589366907737254,-2.027597428107739,82.51833514589877,-20.347525,2.9024835,16.153503,25.836641,-8.408058,0.89574426,11.067349,0.27745226,2.1395524,64.06204,-6.3574734,8.026416,3.2838554,0.54185724,6.9189277,34.178085,42.42045,-22.19757,-12.188849,-5.4170337,-3.4654346,-0.021075023,-4.121637,-28.303263,40.73644,-7.951787,-1.0541943,-11.318391,-8.208045
211,-3.2195050716400146,283.62432861328125,74.97337341308594,1.2045959637564605,-2.398769039730327,82.68716750509103,-21.34284,3.1421967,15.864986,31.233658,-10.891846,1.9449642,10.640085,0.44736832,2.7115207,67.38679,-7.8648653,8.31002,2.8261194,0.3897945,7.184049,33.207485,42.60526,-22.205465,-11.673836,-4.9957747,-3.6270535,-0.20941038,-3.6195664,-28.339878,40.471233,-7.283736,-1.3205037,-11.360232,-8.308418
212,-3.234577178955078,284.862548828125,74.46957397460938,1.4346693127378747,-2.6600603308175157,82.87994981253439,-22.046286,3.1763783,15.631073,35.688675,-13.186495,2.790932,9.983483,0.51690954,3.254997,70.70166,-9.177328,8.435512,2.3912947,0.12085975,7.397458,32.053432,42.810017,-22.314264,-10.990117,-4.7046123,-3.6816187,-0.34356314,-3.0599284,-28.345531,40.148872,-6.4949207,-1.623234,-11.420363,-8.480974
213,-3.227261543273926,286.091064453125,73.96238708496094,1.8288881442280336,-2.7773233845939624,83.12878017501329,-22.480694,2.8749425,15.515501,39.107834,-15.293775,3.3672762,9.040249,0.43921614,3.8029668,74.08569,-10.208371,8.3592005,1.958759,-0.3514973,7.5505185,30.66054,43.03843,-22.533358,-10.067984,-4.692979,-3.7219603,-0.42345583,-2.4275422,-28.306303,39.740646,-5.5905013,-1.9252174,-11.509353,-8.703647
214,-3.192019462585449,287.3102722167969,73.46255493164062,2.3315854422656157,-2.8028590082480163,83.42012941572553,-22.786493,2.369551,15.516095,42.031883,-17.478931,3.7909951,7.8922687,0.31149203,4.3914638,77.51862,-11.084159,8.150233,1.527939,-0.96296364,7.669088,29.05533,43.29051,-22.853863,-8.95498,-4.8710055,-3.746041,-0.45754996,-1.7412541,-28.215998,39.254395,-4.562035,-2.251738,-11.6144,-8.965183
215,-3.1766955852508545,288.5561828613281,72.98863983154297,2.867063525011301,-2.760698772387367,83.71180751077371,-22.956606,1.7643524,15.579495,44.53248,-19.642931,4.0924454,6.5898476,0.12331667,4.948167,80.83583,-11.898417,7.872742,1.1212817,-1.623202,7.7280574,27.3317,43.538445,-23.271461,-7.7666206,-4.9712763,-3.5444212,-0.4377303,-1.0379585,-28.081171,38.757355,-3.3742986,-2.6747723,-11.71885,-9.322528
216,-3.18035626411438,289.8072814941406,72.53788757324219,3.3568135890591853,-2.6738976979255904,83.9577786821649,-22.963205,1.1736066,15.647051,46.65456,-21.681345,4.304098,5.178278,-0.1503318,5.409752,83.8705,-12.742756,7.579937,0.7549818,-2.2357078,7.704685,25.581394,43.733643,-23.773802,-6.6047716,-4.720512,-2.9073071,-0.36149624,-0.3626546,-27.91821,38.327805,-1.9884989,-3.261403,-11.803814,-9.83444
217,-3.1899187564849854,291.06134033203125,72.11711120605469,3.805898275858216,-2.4765274588165576,84.1573891989426,-22.838614,0.596363,15.724691,48.34648,-23.586143,4.413459,3.5790918,-0.5704606,5.7696524,86.6413,-13.60054,7.278757,0.42537177,-2.7947347,7.52079,23.751686,43.830605,-24.396572,-5.3572035,-4.2169437,-1.6438318,-0.31425145,0.28248554,-27.738468,38.009544,-0.35903233,-4.088113,-11.836753,-10.604642
218,-3.205110788345337,292.3225402832031,71.7572021484375,4.248545384636691,-2.1786657701299617,84.33192469104769,-22.584118,-0.010264895,15.840895,49.608192,-25.408503,4.4132895,1.784295,-1.1191133,6.0787582,89.21991,-14.431407,6.928532,0.104312256,-3.3345506,7.2091875,21.812935,43.80437,-25.122307,-3.985819,-3.538394,0.08749019,-0.2900888,0.91145784,-27.546553,37.770535,1.4845356,-5.097043,-11.82449,-11.574855
219,-3.204376697540283,293.5958251953125,71.44551086425781,4.656099189894538,-1.915838051154923,84.46678237128896,-22.116331,-0.5946625,15.965334,50.547478,-27.125387,4.344144,-0.06029291,-1.7101519,6.356499,91.52444,-15.296252,6.510684,-0.2270672,-3.817827,6.9165025,19.90058,43.643936,-25.850813,-2.7030559,-2.3807406,1.9792346,-0.17138311,1.5071687,-27.352547,37.579304,3.460338,-6.1567254,-11.810071,-12.563164
220,-3.204200506210327,294.861328125,71.19107055664062,4.99549986709322,-1.824485836830399,84.54526683408284,-21.34984,-1.109152,16.066088,51.265392,-28.710808,4.247047,-1.8072338,-2.2519717,6.613128,93.471855,-16.255909,6.013898,-0.58442163,-4.2069063,6.7925854,18.15491,43.356834,-26.47997,-1.7269063,-0.44008714,3.7372394,0.14610763,2.0552073,-27.169374,37.408592,5.4788995,-7.1407065,-11.847124,-13.390764
221,-3.2007579803466797,296.103515625,70.98873901367188,5.2658326769134565,-1.981602062062993,84.53159343661083,-20.183271,-1.5442374,16.156227,51.751953,-30.175068,4.1192784,-3.3839006,-2.7481227,6.859668,95.05649,-17.376587,5.4415293,-0.9535982,-4.50125,6.9301505,16.613781,42.94436,-26.989895,-1.1044167,3.0344193,5.5273933,0.73180836,2.5391557,-27.003885,37.23841,7.5606627,-8.187177,-11.945023,-14.024921
222,-3.210982322692871,297.3269348144531,70.83794403076172,5.479759251229595,-2.301165916128635,84.44266419904065,-18.681452,-1.9271681,16.244532,51.952698,-31.522564,3.945012,-4.882956,-3.2280602,7.0849886,96.31463,-18.60878,4.807076,-1.3301059,-4.7167,7.233205,15.207304,42.40889,-27.430538,-0.71800625,7.670293,7.4753156,1.4175264,2.977287,-26.861248,37.090046,9.727189,-9.307318,-12.079041,-14.559946
223,-3.212275266647339,298.5344543457031,70.74104309082031,5.629493944050058,-2.674975619537195,84.3403325199591,-17.00977,-2.261336,16.292997,51.916134,-32.71973,3.7444892,-6.404105,-3.6431642,7.2593174,97.23639,-19.835226,4.120161,-1.734401,-4.84196,7.571504,13.908567,41.779728,-27.812994,-0.54746515,12.07049,9.194931,2.0548105,3.4087443,-26.753927,36.989536,11.886513,-10.179559,-12.263859,-15.008343
224,-3.199889898300171,299.7309875488281,70.6994857788086,5.70423380535812,-2.9951557583640733,84.28833557334544,-15.334776,-2.5502458,16.264397,51.691284,-33.73339,3.5376928,-8.042386,-3.944808,7.343948,97.80659,-20.93521,3.3832128,-2.1869736,-4.8685865,7.8222046,12.708037,41.107666,-28.131279,-0.6049105,14.824293,10.25748,2.6366298,3.8746035,-26.700233,36.958454,13.936433,-10.47967,-12.519197,-15.381387
225,-3.181313991546631,300.93109130859375,70.70670318603516,5.6828228626671615,-3.256136882309292,84.3089764001966,-13.660969,-2.7732205,16.138983,51.270626,-34.590427,3.330123,-9.824569,-4.127028,7.282782,98.0199,-21.920055,2.5526037,-2.7011328,-4.7820187,7.987865,11.63791,40.439064,-28.355038,-1.0054762,15.355921,10.413858,3.3550835,4.399538,-26.718735,36.99454,15.819002,-9.980671,-12.89924,-15.659038
226,-3.1611175537109375,302.1390380859375,70.76174926757812,5.574073375593345,-3.5091344431562215,84.36865699790768,-11.909109,-2.9299715,15.939789,50.634075,-35.297085,3.1106,-11.683978,-4.2059608,7.0901346,97.8776,-22.84273,1.6509665,-3.256,-4.60096,8.139048,10.7158575,39.793964,-28.485895,-1.7628821,14.478292,9.902726,4.2308884,4.9859533,-26.81569,37.068714,17.554674,-8.895621,-13.386728,-15.833744
227,-3.147061586380005,303.3424072265625,70.86306762695312,5.419944257432514,-3.7307650833728787,84.44704111923265,-10.126546,-3.0489714,15.692246,49.82828,-35.796844,2.8729882,-13.577318,-4.17797,6.8327355,97.37526,-23.64147,0.7762651,-3.8152678,-4.365468,8.252113,9.937565,39.17907,-28.560345,-2.756742,12.883265,9.021295,5.045126,5.6322618,-26.987694,37.162487,19.172857,-7.5579934,-13.894026,-15.93648
228,-3.124603748321533,304.5566711425781,71.02145385742188,5.259953137073443,-3.8980861344529374,84.52294635881395,-8.355615,-3.1627634,15.420469,48.889416,-36.034336,2.6108842,-15.463945,-4.044334,6.5807276,96.50859,-24.251324,0.021069488,-4.351535,-4.1126084,8.303485,9.198223,38.59252,-28.64285,-3.7799652,11.2020855,8.094426,5.5914125,6.3280396,-27.22449,37.26599,20.709572,-6.3101287,-14.331087,-16.007149
229,-3.0966055393218994,305.7799377441406,71.23509979248047,5.096760312213134,-3.9798860358028185,84.60169507034794,-6.61792,-3.2823637,15.106053,47.786606,-35.98762,2.3242412,-17.396574,-3.7834103,6.3528886,95.25962,-24.663324,-0.6295217,-4.8437366,-3.8376389,8.252686,8.648919,38.019268,-28.690897,-4.9723334,9.369782,7.1040154,5.804519,7.090436,-27.520077,37.371307,22.173489,-5.0625553,-14.693623,-16.02295
230,-3.066239833831787,307.024169921875,71.48902130126953,4.911555100323788,-3.9976682485680413,84.6914277779599,-4.8874583,-3.386335,14.740598,46.51653,-35.691837,2.0141833,-19.3605,-3.4098325,6.0984282,93.6281,-24.910864,-1.2123263,-5.331041,-3.5234227,8.1312685,8.045149,37.46547,-28.753326,-6.1792912,7.007037,5.9187603,5.7661967,7.890759,-27.87451,37.506035,23.562243,-3.692745,-15.02047,-15.974564
231,-3.0289576053619385,308.2810974121094,71.77686309814453,4.714950709061613,-4.006233127878866,84.77547843935135,-3.1332598,-3.4638371,14.363132,45.15214,-35.169033,1.6782141,-21.220713,-2.9847267,5.792358,91.63518,-24.992352,-1.6723584,-5.7914505,-3.185159,7.992883,7.5605383,36.93336,-28.829353,-7.464029,4.702275,4.723668,5.548974,8.727558,-28.276407,37.636257,24.884739,-2.4951484,-15.288684,-15.927783
232,-2.9838762283325195,309.5543518066406,72.10256958007812,4.518594836680269,-4.059724977321942,84.83679839297604,-1.3253909,-3.5062022,14.014312,43.771538,-34.44642,1.3162297,-22.850262,-2.568835,5.416017,89.308495,-24.900858,-1.9545642,-6.2273703,-2.8410172,7.89713,7.1345835,36.43581,-28.968716,-8.699244,2.9226558,3.693893,5.252299,9.5714855,-28.709612,37.749912,26.161945,-1.7685865,-15.478057,-15.95396
233,-2.9223709106445312,310.8330078125,72.4481430053711,4.317907825760541,-4.17839043708147,84.85031174394655,0.5932878,-3.5093782,13.71168,42.329082,-33.498577,0.8985462,-24.229078,-2.10917,5.020705,86.619446,-24.610634,-2.004135,-6.6189404,-2.4923923,7.8628545,6.7806983,35.982,-29.1792,-9.887951,1.7451067,2.877012,4.8760724,10.405024,-29.160921,37.860893,27.440742,-1.7261479,-15.562111,-16.10515
234,-2.8617777824401855,312.11273193359375,72.81265258789062,4.109818125806107,-4.331262599714909,84.83210699290778,2.5944,-3.485338,13.429655,40.804626,-32.32665,0.43841302,-25.415087,-1.6032778,4.605287,83.56041,-24.133713,-1.8659973,-6.9747043,-2.1367915,7.856867,6.5024586,35.575035,-29.440866,-11.07305,0.9138597,2.1815221,4.3978205,11.235053,-29.62397,37.97249,28.712946,-2.170283,-15.556854,-16.336777
235,-2.794121742248535,313.4065246582031,73.19061279296875,3.9083407273718,-4.495588303701024,84.82571416891022,4.581022,-3.4500341,13.145626,39.30778,-30.98799,-0.0034033996,-26.404617,-1.1824201,4.075049,80.187675,-23.518139,-1.6323018,-7.330404,-1.7869833,7.8596015,6.267125,35.21818,-29.755833,-12.225727,0.42498568,1.561264,3.9022264,12.070231,-30.092669,38.050453,29.923681,-2.7792091,-15.511537,-16.574543
236,-2.7163755893707275,314.7204284667969,73.57685852050781,3.7254408112883315,-4.648426678767735,84.87426817136195,6.4540706,-3.415838,12.839095,37.952393,-29.54104,-0.3666287,-27.194458,-0.9736652,3.3323328,76.55509,-22.814297,-1.3906448,-7.717766,-1.4543873,7.851513,6.0401587,34.9133,-30.130503,-13.315646,0.27768317,0.9682957,3.4727433,12.928435,-30.560276,38.055183,31.007542,-3.231936,-15.477118,-16.743935
237,-2.6567301750183105,316.0285949707031,73.95795440673828,3.5529376095832776,-4.791092896527947,84.97752764178438,8.2207575,-3.3724518,12.526746,36.720158,-27.935282,-0.6499417,-27.772226,-0.9943907,2.347085,72.63248,-22.02715,-1.1066077,-8.142827,-1.1320713,7.8379617,5.8152437,34.66414,-30.581596,-14.32593,0.5476918,0.38230425,3.1497042,13.798883,-31.020962,37.982418,31.969164,-3.5155444,-15.45993,-16.839529
238,-2.593332529067993,317.3350524902344,74.33374786376953,3.3890552819897684,-4.933122380916157,85.11554360636605,9.9264345,-3.319614,12.215143,35.566086,-26.16028,-0.88816315,-28.137157,-1.1673272,1.1739572,68.39939,-21.12798,-0.7419808,-8.586721,-0.8200157,7.8263435,5.6101246,34.472084,-31.101849,-15.277474,1.2113289,-0.17534114,2.8930883,14.67792,-31.470509,37.84875,32.83873,-3.7782555,-15.436275,-16.895502
239,-2.5309948921203613,318.64093017578125,74.69200134277344,3.253013100524987,-5.062920148337633,85.30197350765319,11.51828,-3.278426,11.871062,34.5734,-24.334486,-1.0779756,-28.308807,-1.4746487,-0.16371877,63.92396,-20.11108,-0.3795973,-9.04439,-0.5386648,7.798723,5.4127307,34.333885,-31.663345,-16.185991,2.1136482,-0.68765134,2.6616223,15.595759,-31.907455,37.642914,33.59327,-3.9467494,-15.416551,-16.898994
