unveil-humanoid-operators/unveil-humanoid-operators.github.io/feature-analysis-animation/data/feature_matrix_instances/age_ankle_rom_jogging_A451_jog_ff_loop_360_R_fast_003__A451.csv
Frame,root_translateX,root_translateY,root_translateZ,root_rotateX,root_rotateY,root_rotateZ,left_hip_pitch_joint_dof,left_hip_roll_joint_dof,left_hip_yaw_joint_dof,left_knee_joint_dof,left_ankle_pitch_joint_dof,left_ankle_roll_joint_dof,right_hip_pitch_joint_dof,right_hip_roll_joint_dof,right_hip_yaw_joint_dof,right_knee_joint_dof,right_ankle_pitch_joint_dof,right_ankle_roll_joint_dof,waist_yaw_joint_dof,waist_roll_joint_dof,waist_pitch_joint_dof,left_shoulder_pitch_joint_dof,left_shoulder_roll_joint_dof,left_shoulder_yaw_joint_dof,left_elbow_joint_dof,left_wrist_roll_joint_dof,left_wrist_pitch_joint_dof,left_wrist_yaw_joint_dof,right_shoulder_pitch_joint_dof,right_shoulder_roll_joint_dof,right_shoulder_yaw_joint_dof,right_elbow_joint_dof,right_wrist_roll_joint_dof,right_wrist_pitch_joint_dof,right_wrist_yaw_joint_dof
0,0.12212610989809036,2.78688383102417,74.7237777709961,-1.390035324292855,-5.895005378305093,-88.9208974014715,-23.194355,12.978201,-2.8234107,101.50588,1.2290013,-7.603098,-3.7956939,0.8770321,-5.0047994,46.62408,-28.782026,-0.4758719,0.029514974,3.487073,14.567517,11.433445,21.69437,-12.16273,-37.641098,16.757187,-10.649868,21.51423,14.373335,-16.613422,17.67735,-26.960463,-15.7340555,-9.369325,-26.202988
1,0.038230735808610916,4.40745210647583,74.65435028076172,-1.6036055630225987,-6.02312848886625,-88.65544595254961,-20.532982,11.450503,-4.31456,101.42505,1.4551368,-9.457554,-5.1990743,1.0021838,-5.267648,46.772247,-28.008036,-0.49151164,-1.3344895,3.3238816,14.607496,8.802761,21.610529,-11.463397,-37.694736,16.930845,-10.815369,21.805023,17.388163,-16.669107,17.609415,-27.80232,-15.43023,-9.496742,-26.101654
2,-0.00733654759824276,6.021020889282227,74.66227722167969,-1.8173587955426134,-6.172874769950994,-88.42584742832477,-17.750694,9.943343,-5.812209,101.439354,1.5971434,-11.3510475,-6.636368,1.1300042,-5.4962435,47.033474,-27.325409,-0.5142757,-2.683147,3.2010956,14.622319,6.0223703,21.425102,-10.772574,-37.575005,17.13582,-10.998459,22.070946,20.411808,-16.747543,17.600025,-28.599844,-15.091717,-9.616249,-26.003216
3,-0.024147994816303253,7.608573913574219,74.76396179199219,-2.0300372166041076,-6.306361753657102,-88.15151971362053,-14.967896,8.518163,-7.2832036,101.24633,1.7580227,-13.173843,-7.980754,1.2307193,-5.7552466,47.063126,-26.456161,-0.51012623,-4.0830126,3.087137,14.567504,3.1675434,21.201633,-10.203857,-37.295334,17.334152,-11.168671,22.334038,23.350452,-16.852901,17.601004,-29.303753,-14.76723,-9.739729,-25.935774
4,-0.014840329997241497,9.183863639831543,74.96113586425781,-2.2446847665262326,-6.381333002621695,-87.74957844082358,-12.325979,7.23954,-8.719763,100.54873,2.0562685,-14.814461,-9.109161,1.2709306,-6.1098495,46.516994,-25.122675,-0.4453931,-5.585027,2.9586306,14.407233,0.33125272,21.022402,-9.89684,-36.90925,17.473246,-11.291732,22.634748,26.161444,-17.00985,17.54015,-29.931229,-14.489924,-9.879428,-25.934824
5,0.007325804326683283,10.750906944274902,75.25131225585938,-2.3918123355849676,-6.411814757445706,-87.10155213800888,-9.939808,6.6390777,-9.652687,99.21416,2.6440792,-15.000033,-9.972869,1.1102288,-6.6163907,45.395985,-23.359953,-0.29791752,-7.30269,2.709728,14.144909,-2.4496937,20.936266,-9.904422,-36.485664,17.476295,-11.357963,23.08097,28.892347,-17.23689,17.417208,-30.55222,-14.195349,-10.043231,-26.064793
6,0.02915154956281185,12.329732894897461,75.62036895751953,-2.4425919528994986,-6.411071361679085,-86.27971584791875,-7.6909437,6.112006,-10.509645,97.41332,3.4571934,-15.000033,-10.668689,0.74113923,-7.197613,43.920773,-21.319088,-0.08291359,-9.176743,2.3142385,13.792977,-5.170087,20.934769,-10.153073,-36.061558,17.363447,-11.3785305,23.65309,31.575136,-17.51927,17.262383,-31.184767,-13.875945,-10.22538,-26.294518
7,0.04067368432879448,13.920391082763672,76.06295013427734,-2.5120790742943333,-6.326624317718543,-85.48164105838067,-5.6288614,5.640381,-11.378406,95.29852,4.3104315,-15.000033,-11.26464,0.37545487,-7.738651,41.99899,-18.852701,0.18994777,-10.994867,1.9594083,13.348292,-7.7750754,21.002577,-10.598632,-35.651234,17.233032,-11.349863,24.193703,34.15533,-17.83006,17.035597,-31.78181,-13.654378,-10.416551,-26.514477
8,0.05352102965116501,15.536832809448242,76.56714630126953,-2.590381271153301,-6.109538134266601,-84.87895906830293,-3.8353853,5.232738,-12.157321,92.98635,5.063186,-15.000033,-11.8584385,0.089751795,-8.097437,39.6267,-15.865661,0.54375184,-12.562037,1.7111777,12.810948,-10.214164,21.130472,-11.195931,-35.26724,17.189487,-11.268088,24.538399,36.585873,-18.134048,16.686092,-32.2997,-13.656904,-10.6067,-26.614084
9,0.06077434495091438,17.17107391357422,77.13733673095703,-2.734920120165176,-5.715675694500346,-84.49065723834032,-2.3632839,4.9105887,-12.883929,90.448586,5.714756,-15.000033,-12.452198,0.020450918,-8.253234,36.65554,-12.256019,0.9088715,-13.853766,1.6292987,12.159737,-12.545143,21.342985,-12.020922,-34.854057,17.220629,-11.151431,24.712194,38.831783,-18.421942,16.156261,-32.677185,-14.003918,-10.801244,-26.537947
10,0.09018295258283615,18.818843841552734,77.75872039794922,-2.918949637188554,-5.177705568633133,-84.22338996161875,-1.1621274,4.65157,-13.567236,87.64771,6.3179603,-15.000033,-12.990839,0.12558529,-8.297716,33.09925,-8.082792,1.2957919,-14.968712,1.6531159,11.417995,-14.753094,21.646507,-13.070983,-34.45734,17.281637,-10.993043,24.779474,40.930244,-18.6867,15.481989,-32.954407,-14.606734,-11.004955,-26.350836
11,0.1428890973329544,20.49796485900879,78.40637969970703,-3.0179194378932466,-4.564777840410207,-84.07901254224839,-0.16327386,4.394674,-14.063976,84.68201,6.813617,-15.000033,-13.496048,0.22253142,-8.237766,29.204517,-3.480447,1.8505236,-15.895845,1.6693015,10.651864,-16.688843,22.005962,-14.169618,-34.21857,17.440012,-10.753714,24.62011,42.938103,-18.897356,14.740395,-33.236217,-15.286931,-11.2054615,-26.118711
12,0.20753054320812225,22.213462829589844,79.05043029785156,-2.911055437787057,-3.948762394602055,-84.06139387326732,0.7084523,4.065239,-14.231885,81.63368,7.149223,-15.000033,-14.001652,0.11000965,-8.040343,25.233765,1.4245794,2.727036,-16.616505,1.5726177,9.918419,-18.224957,22.372839,-15.13403,-34.24998,17.774506,-10.399678,24.10069,44.905464,-19.018316,13.9935665,-33.615906,-15.871868,-11.388329,-25.902721
13,0.2952359914779663,23.955738067626953,79.67909240722656,-2.5040284351612607,-3.3129034978503675,-84.20602942206658,1.4429775,3.6253836,-13.918654,78.42605,7.251573,-15.000033,-14.5500765,-0.3107439,-7.501076,20.949064,7.248748,3.9840808,-17.08238,1.303893,9.173378,-19.347038,22.724838,-15.955436,-34.5748,18.402678,-9.871706,23.051702,46.865005,-19.028116,13.164533,-34.094612,-16.411467,-11.552785,-25.683937
14,0.4040171802043915,25.714147567749023,80.26012420654297,-1.879962861392175,-2.6317891875823616,-84.49954314409209,2.026576,3.100618,-13.190586,75.02692,7.1707926,-15.000033,-15.1474905,-0.8962055,-6.573903,16.344042,13.854462,5.5778036,-17.293095,0.92805177,8.401394,-20.164593,23.071346,-16.721693,-35.08245,19.275787,-9.225978,21.567295,48.79285,-18.922604,12.216254,-34.63694,-16.973461,-11.70707,-25.437325
15,0.5615501999855042,27.48594856262207,80.77706909179688,-1.1696553201032562,-1.9702716868823673,-84.8659000274109,2.535179,2.4828236,-12.275583,71.573975,7.051384,-15.000033,-15.72825,-1.5416805,-5.4861636,11.987042,19.973553,7.5062656,-17.314325,0.5077967,7.702345,-20.726665,23.415321,-17.39181,-35.693275,20.225277,-8.596667,19.914722,50.650524,-18.69882,11.280352,-35.28117,-17.413849,-11.846834,-25.213316
16,0.7436777949333191,29.273494720458984,81.23089599609375,-0.47178916828960743,-1.4053279647523942,-85.21434065042175,3.0420265,1.7333382,-11.460087,68.202255,7.0520544,-15.000033,-16.169615,-2.2125685,-4.582369,8.38969,24.362497,9.727401,-17.22846,0.07266412,7.1758995,-21.087498,23.76031,-17.92769,-36.329575,21.065884,-8.099911,18.365871,52.410873,-18.36943,10.491125,-36.070377,-17.59219,-11.966162,-25.060295
17,0.8993890881538391,31.09162712097168,81.62962341308594,0.29347501788804503,-0.9592768952443045,-85.50523112802892,3.5609396,0.75080097,-10.815851,64.88672,7.236216,-15.000033,-16.399069,-3.0675037,-4.136802,5.551859,26.441368,12.641235,-17.05957,-0.45201933,6.8459644,-21.252289,24.122675,-18.27423,-37.079895,21.822336,-7.713048,16.77975,54.187096,-17.926897,9.853688,-37.103382,-17.418106,-12.075864,-25.005016
18,1.0152316093444824,32.91640853881836,81.92967224121094,1.0317190479098874,-0.6123473553069827,-85.81998276217922,4.090276,-0.2688532,-10.261903,61.572144,7.4902506,-15.000033,-17.348522,-4.058526,-4.4734616,5.0992575,25.99521,15.000033,-16.738213,-0.97420084,6.7191634,-21.19999,24.512665,-18.46274,-37.957653,22.557861,-7.389799,15.085899,55.96856,-17.374674,9.304732,-38.347538,-16.990227,-12.17458,-25.015821
19,1.089037537574768,34.75522994995117,82.14491271972656,1.4849160800756247,-0.34984179271335586,-86.2449538520816,4.6066146,-1.035737,-9.837041,58.385628,7.7190185,-15.000033,-18.099905,-4.767722,-5.8279843,5.033974,24.996622,15.000033,-16.210348,-1.278451,6.8119464,-20.932299,24.911234,-18.588177,-38.782574,23.142214,-7.1851077,13.666997,57.560802,-16.7679,8.874661,-39.66037,-16.447935,-12.237721,-25.052452
20,1.190151572227478,36.622066497802734,82.31684875488281,1.7575957220196894,-0.11986238587058745,-86.70717771509514,5.020275,-1.737328,-9.584267,55.36936,7.958314,-15.000033,-18.527754,-5.2339697,-6.653833,5.021407,24.444305,15.000033,-15.586864,-1.4231015,7.004764,-20.438086,25.273443,-18.727259,-39.375637,23.453865,-7.1468225,12.910717,58.71073,-16.195051,8.58508,-40.84533,-15.916321,-12.238533,-25.080824
21,1.3433899879455566,38.49365234375,82.46295928955078,1.7182389932108424,0.0982372561338798,-87.25762414551197,5.2810445,-2.2537117,-9.489852,52.602314,8.229414,-15.000033,-18.661905,-5.3086042,-6.6571646,5.2029834,24.245583,15.000033,-14.847744,-1.2363796,7.31759,-19.67927,25.5609,-18.866465,-39.6993,23.437534,-7.378055,13.051736,59.37136,-15.721739,8.456864,-41.889973,-15.333058,-12.125678,-25.157143
22,1.5347814559936523,40.368316650390625,82.58332824707031,1.4829727558660775,0.2978279222600235,-87.89004322987626,5.407312,-2.6844018,-9.522095,50.004517,8.558333,-15.000033,-19.490528,-5.252114,-6.0544853,7.620866,22.943272,15.000033,-13.996839,-0.8229851,7.7183847,-18.667112,25.764711,-18.95634,-39.81952,23.180805,-7.821186,13.828159,59.69669,-15.36524,8.475726,-42.90099,-14.643121,-11.92171,-25.300596
23,1.728471040725708,42.23979568481445,82.64515686035156,1.2672080199688143,0.4385485682178692,-88.4849623207312,5.4817934,-3.2136717,-9.741632,47.4984,8.849482,-15.000033,-22.245264,-5.435451,-5.176096,14.815489,19.411064,15.000033,-13.139217,-0.4501135,8.131074,-17.478088,25.887827,-19.022358,-39.710617,22.765285,-8.282538,14.880307,59.742283,-15.138865,8.607195,-43.877247,-13.980653,-11.708274,-25.416264
24,1.8979926109313965,44.109066009521484,82.63248443603516,1.1799244185667734,0.4875550055119103,-88.92747255832474,5.5762496,-3.899442,-10.221496,45.039906,8.979449,-15.000033,-24.620497,-5.847282,-4.732884,21.89572,16.423439,15.000033,-12.3751745,-0.26995927,8.518003,-16.17387,25.936415,-19.084627,-39.362045,22.26878,-8.564028,15.85678,59.52078,-15.050443,8.811572,-44.782345,-13.479948,-11.566738,-25.404493
25,2.043462038040161,45.966976165771484,82.54417419433594,1.1020491207870975,0.44928229764585703,-89.22744821658108,5.6990767,-4.620896,-11.052858,42.49405,9.08518,-15.000033,-26.631966,-6.6304483,-5.2352796,29.095026,14.020131,14.350729,-11.6958475,-0.18101797,8.903613,-14.734988,25.900707,-19.15162,-38.740414,21.712885,-8.5902195,16.808851,58.941147,-15.118595,9.112914,-45.56944,-13.129415,-11.514152,-25.224346
26,2.1649534702301025,47.81806182861328,82.373046875,0.8674753325626077,0.32953990624389434,-89.48357085549476,5.8063965,-5.1815543,-12.167145,40.02339,9.08792,-15.000033,-28.305265,-7.7770414,-6.6905007,36.553368,11.914359,12.213939,-11.020303,-0.003128841,9.334531,-13.130311,25.778036,-19.210714,-37.86298,21.053877,-8.482522,17.87582,58.020145,-15.350373,9.527646,-46.26128,-12.867519,-11.505104,-24.937002
27,2.2643485069274902,49.65528869628906,82.126220703125,0.6000287636995459,0.159008416370038,-89.6454074107008,5.828038,-5.642635,-13.396987,37.93215,8.662987,-15.000033,-29.621058,-9.188003,-8.170761,43.912506,9.952078,9.855553,-10.405144,0.18335,9.754317,-11.406925,25.588688,-19.241932,-36.801033,20.261496,-8.330693,18.853048,56.862293,-15.727176,9.978212,-46.87599,-12.754558,-11.53054,-24.58649
28,2.340453863143921,51.48334503173828,81.79944610595703,0.2777032898709922,-0.013252573735903625,-89.73019725184786,5.6234765,-5.8920293,-14.498148,36.657352,7.3990054,-15.000033,-30.554375,-10.483652,-9.2750435,50.68836,8.133493,7.5881553,-9.836255,0.4247898,10.12197,-9.613622,25.365261,-19.228237,-35.634872,19.30224,-8.217813,19.540169,55.571625,-16.213312,10.389397,-47.431347,-12.855522,-11.584738,-24.211123
29,2.407014846801758,53.28942108154297,81.45809936523438,-0.16254921315539242,-0.15558755585373138,-89.73664833102498,5.0628667,-5.847189,-15.448687,36.536858,5.0036616,-15.000033,-31.206669,-11.410174,-9.981171,56.989925,6.4617305,5.469821,-9.294972,0.76627403,10.403196,-7.7508965,25.117632,-19.143576,-34.324898,17.991516,-8.103037,19.74173,54.13761,-16.783308,10.757625,-47.889633,-13.300155,-11.7022705,-23.747097
30,2.508601427078247,55.07374572753906,81.04146575927734,-0.19110922218213494,-0.3959778315457383,-89.71034403451198,4.4527454,-5.890666,-15.134032,36.798847,2.0646594,-11.799782,-31.79341,-12.566424,-9.896503,63.502136,4.744146,3.594287,-8.732629,0.6818771,10.645558,-5.792295,24.843405,-19.015493,-32.86734,16.398129,-7.947296,19.623253,52.51122,-17.432516,11.120859,-48.25165,-14.020516,-11.882994,-23.189743
31,2.5581817626953125,56.85858154296875,80.50988006591797,-0.13321458486254753,-0.6670275323393188,-89.63929108051005,3.7281556,-5.9778113,-14.482783,37.472687,-1.341927,-7.782331,-32.14313,-13.672652,-9.499369,69.747795,3.150896,1.9743865,-8.191629,0.5143599,10.874913,-3.739907,24.56207,-18.903522,-31.386848,14.876531,-7.843122,19.525826,50.70069,-18.151909,11.477918,-48.548454,-14.787468,-12.068246,-22.66781
32,2.5866572856903076,58.63664627075195,79.90524291992188,-0.08771611889126756,-0.945802927059372,-89.52618713556889,2.9308572,-6.087122,-13.901317,38.27,-4.880176,-4.6358814,-32.158867,-14.686234,-9.041375,75.44727,1.7494994,0.6876846,-7.699404,0.37703446,11.11972,-1.5933381,24.309347,-18.86566,-30.010685,13.778056,-7.900481,19.785955,48.716732,-18.929245,11.83178,-48.818386,-15.373942,-12.192083,-22.305126
33,2.6217691898345947,60.39413070678711,79.26299285888672,-0.12190189934764552,-1.237432344767876,-89.38568182252335,2.1054657,-6.0371184,-13.261652,39.139523,-8.813352,-2.5695648,-31.795368,-15.547647,-8.6599045,80.61027,0.54969144,-0.17070742,-7.24643,0.32843098,11.40056,0.6381862,24.114685,-18.928576,-28.699696,13.190387,-8.224895,20.612993,46.53309,-19.768404,12.198745,-49.08472,-15.734112,-12.218693,-22.12122
34,2.6891632080078125,62.1471061706543,78.61000061035156,-0.20044021779072438,-1.5444546273109236,-89.21327692394597,1.2131693,-5.8522754,-12.499969,40.223873,-13.209051,-1.0629759,-31.097649,-16.221296,-8.281432,85.38944,-0.47392434,-0.64143616,-6.82991,0.31655014,11.694886,2.9777112,23.986631,-19.04638,-27.425615,12.928023,-8.736429,21.793442,44.133656,-20.665459,12.594493,-49.30907,-15.983837,-12.18578,-22.053854
35,2.78974986076355,63.8984260559082,77.9769287109375,-0.2151108543822153,-1.8529775635293195,-88.98781819379262,0.16826312,-5.7637343,-11.77514,41.46816,-17.377491,0.055043086,-30.11821,-16.74778,-7.789828,89.731155,-1.3161145,-0.824713,-6.4757013,0.24608807,11.972091,5.461664,23.929192,-19.17377,-26.323462,12.927299,-9.269564,23.028177,41.543606,-21.587297,13.020453,-49.43182,-16.142841,-12.134263,-22.099546
36,2.9009780883789062,65.65839385986328,77.38163757324219,-0.06451614957275614,-2.150302376556674,-88.68885778348681,-1.1155896,-5.999404,-11.238698,42.813686,-20.61877,0.9562165,-28.913353,-17.15665,-7.0760365,93.55582,-1.957454,-0.812059,-6.1926246,0.024747772,12.205528,8.106284,23.94097,-19.285324,-25.52085,13.112065,-9.657011,24.017036,38.79314,-22.48233,13.467875,-49.390907,-16.234838,-12.107868,-22.24794
37,2.996880054473877,67.4178237915039,76.82093048095703,0.3296401393058778,-2.388870275216108,-88.25155396655008,-2.8153207,-6.6871204,-10.893327,44.3672,-22.71002,1.6443391,-27.520113,-17.488508,-6.098599,96.8756,-2.3875704,-0.54282594,-6.042087,-0.43279073,12.335363,10.914298,24.025015,-19.386738,-25.031612,13.590956,-9.791589,24.708723,35.75366,-23.3115,13.977873,-49.0885,-16.254759,-12.1293545,-22.559517
38,3.0648539066314697,69.15396881103516,76.32151794433594,0.8836558525279776,-2.5973230067211266,-87.71197419932089,-4.8465967,-7.6351156,-10.599728,46.13313,-24.051317,2.051233,-25.871672,-17.652378,-4.9989643,99.71996,-2.6095579,0.042139895,-5.9716997,-1.0501993,12.392744,13.83657,24.183617,-19.518953,-24.757689,14.351799,-9.773579,25.255068,32.447483,-24.06158,14.532024,-48.565193,-16.202757,-12.1756935,-23.005198
39,3.1125974655151367,70.85295867919922,75.87726593017578,1.4534476256440263,-2.8744190533334413,-87.19897693290382,-6.8946223,-8.604189,-10.3213625,47.88503,-24.864016,2.2381585,-23.884073,-17.511377,-3.9296792,102.0206,-2.6178255,0.82519144,-5.81069,-1.670906,12.490632,16.802225,24.40442,-19.715466,-24.65264,15.13642,-9.755549,25.656443,29.138828,-24.716942,15.03011,-47.964947,-16.109056,-12.222891,-23.4392
40,3.1509358882904053,72.52754211425781,75.49072265625,1.9039134523190708,-3.3130023912458686,-86.838742152177,-8.638186,-9.370888,-10.053937,49.38031,-25.354694,2.2597609,-21.503855,-16.964933,-2.99432,103.70815,-2.3963454,1.6721997,-5.383413,-2.140549,12.742288,19.737251,24.668371,-20.004908,-24.660042,15.697107,-9.8946705,25.915106,26.083403,-25.264322,15.378918,-47.41199,-16.00298,-12.246626,-23.712029
41,3.170630693435669,74.18012237548828,75.17036437988281,2.1964593281800098,-4.004250396562961,-86.63363664555371,-9.999202,-9.9156,-9.849175,50.68199,-25.502943,2.0694406,-18.606,-15.855974,-2.1474826,104.755516,-1.858514,2.4946406,-4.6469355,-2.4167156,13.252444,22.661797,24.967655,-20.394451,-24.79518,15.984332,-10.267925,25.96221,23.337399,-25.677597,15.512077,-46.927067,-15.923279,-12.210199,-23.751596
42,3.166206121444702,75.81092071533203,74.91352844238281,2.40647930471262,-4.878618815072741,-86.52093842509339,-11.137076,-10.352449,-9.710517,51.86927,-25.217838,1.6550354,-15.272215,-14.31346,-1.3310966,105.20293,-1.0337889,3.3527381,-3.6829312,-2.5692725,13.933207,25.587967,25.30671,-20.867397,-25.049692,16.133991,-10.7829485,25.818506,20.732637,-25.949162,15.4970665,-46.39449,-15.845375,-12.139248,-23.635164
43,3.1397807598114014,77.43131256103516,74.72689819335938,2.575165904007641,-5.780773385048687,-86.52810467046793,-12.087951,-10.674785,-9.571481,52.710926,-24.591364,1.1193484,-11.793007,-12.716978,-0.60456127,105.096245,-0.07776559,4.2872086,-2.5195112,-2.625941,14.604585,28.458086,25.683897,-21.39577,-25.363207,16.179205,-11.344426,25.618042,18.177511,-26.113625,15.460069,-45.73099,-15.702032,-12.100465,-23.443075
44,3.1042280197143555,79.03030395507812,74.6341323852539,2.7508415603356005,-6.550431507357515,-86.68679066056859,-12.893997,-10.869937,-9.356821,52.971355,-23.712137,0.5670141,-8.468043,-11.454876,-0.024493711,104.48936,0.8551969,5.338847,-1.1927785,-2.6192033,15.084841,31.211327,26.089458,-21.953749,-25.677177,16.151833,-11.85734,25.493427,15.615518,-26.2311,15.526448,-44.89963,-15.420953,-12.158632,-23.26829
45,3.083421230316162,80.59110260009766,74.64857482910156,2.952841120321001,-7.18620356384784,-87.07806999197568,-13.501075,-10.899511,-9.003679,52.573093,-22.625303,0.012664388,-5.283434,-10.562123,0.4816718,103.32611,1.8376484,6.689591,0.36674416,-2.543368,15.354545,33.880276,26.519236,-22.556185,-26.02625,16.037569,-12.33754,25.477354,13.094408,-26.343687,15.698786,-43.95807,-14.951828,-12.342249,-23.120182
46,3.055359125137329,82.16162872314453,74.7629165649414,3.1653384300279144,-7.751902172246746,-87.66430686498423,-13.911432,-10.77897,-8.574931,51.63715,-21.275597,-0.5960361,-2.1352506,-9.881704,0.9624417,101.61637,2.9199352,8.255334,2.1324873,-2.3860207,15.490199,36.490643,26.966743,-23.200874,-26.437286,15.82321,-12.823517,25.495146,10.636558,-26.45388,15.935522,-42.939808,-14.331243,-12.607912,-22.976189
47,3.0452466011047363,83.74101257324219,74.96088409423828,3.3753305191966603,-8.183316470883723,-88.3016707359322,-14.250015,-10.568607,-8.178255,50.221508,-19.595863,-1.2502664,0.8052531,-9.502698,1.3024386,99.517914,3.9222112,9.685171,3.925865,-2.1838348,15.4578,38.96494,27.41159,-23.840723,-26.838837,15.54766,-13.254678,25.515581,8.170905,-26.567362,16.2885,-41.790962,-13.622562,-12.913295,-22.877068
48,3.056366205215454,85.33910369873047,75.22736358642578,3.567216228329588,-8.418773765709107,-88.84513639350044,-14.6367855,-10.337259,-7.9181404,48.378765,-17.51105,-1.9414406,3.367669,-9.518949,1.3472899,97.18428,4.667642,10.602816,5.5593133,-1.974252,15.231138,41.238697,27.821163,-24.42194,-27.171143,15.253606,-13.571288,25.505709,5.6317425,-26.694073,16.812395,-40.46512,-12.892238,-13.216181,-22.864094
49,3.0647809505462646,86.95671844482422,75.5750961303711,3.7667519913912257,-8.417323738904134,-89.2922112347497,-15.0965805,-10.155887,-7.7915053,46.05883,-15.029047,-2.6808326,5.511535,-10.15603,0.9551095,94.57366,5.0906754,10.817808,7.013284,-1.7799951,14.755593,43.301773,28.17856,-24.965149,-27.389585,14.881802,-13.72378,25.47568,2.9246345,-26.861448,17.607056,-38.914387,-11.959206,-13.573417,-23.010048
50,3.0642828941345215,88.59584045410156,75.99761199951172,3.956983651999384,-8.221584620119541,-89.70909222632729,-15.552056,-9.965715,-7.763085,43.238895,-12.173258,-3.4689345,7.34804,-11.248317,0.17850646,91.638504,5.282217,10.577928,8.363966,-1.5732589,14.070207,45.18175,28.472315,-25.494751,-27.53306,14.439082,-13.7573805,25.430353,0.13685411,-27.074501,18.623383,-37.21913,-10.852292,-13.986897,-23.277582
51,3.0333688259124756,90.28377532958984,76.48011779785156,4.052370409327538,-7.897681595301909,-90.05226504685707,-15.971825,-9.660535,-7.8804464,40.008263,-8.879272,-4.2830305,8.927706,-12.317601,-0.83379763,88.52083,5.300303,10.146198,9.576022,-1.3133395,13.292524,46.869144,28.676609,-25.96517,-27.665342,14.073054,-13.753203,25.329254,-2.5196786,-27.305738,19.670378,-35.514576,-9.961111,-14.330817,-23.53752
52,2.98903751373291,91.99707794189453,77.02874755859375,3.979259127450249,-7.510703433331387,-90.27823784984037,-16.337275,-9.151886,-8.184061,36.457916,-5.073286,-5.100899,10.275009,-12.928498,-1.8875391,85.355156,5.21653,9.757416,10.614847,-0.9686975,12.531214,48.35715,28.76241,-26.323343,-27.837511,13.935839,-13.791715,25.131092,-4.86143,-27.517315,20.551498,-33.8934,-9.681262,-14.473313,-23.654846
53,2.9138081073760986,93.76487731933594,77.6078109741211,3.6997953185173764,-7.020662720970736,-90.33153613385912,-16.722872,-8.487343,-8.873783,32.479122,-0.35482657,-5.8013053,11.34773,-13.0762415,-3.070828,82.06757,4.984016,9.3284645,11.440539,-0.51212204,11.729767,49.602192,28.713772,-26.596045,-27.993235,13.9349165,-13.899098,24.828138,-6.954474,-27.699375,21.275972,-32.21513,-10.156123,-14.393781,-23.66131
54,2.8147714138031006,95.56633758544922,78.19979095458984,3.2576176486072903,-6.4129128475817385,-90.25294697600037,-17.138298,-7.7372684,-9.848891,28.07814,5.118436,-6.432727,12.150529,-12.949699,-4.41762,78.61386,4.5811186,8.788212,12.073252,0.030354459,10.854874,50.627014,28.52749,-26.793344,-28.11449,14.041141,-14.031548,24.44046,-8.894919,-27.862984,21.930084,-30.444668,-11.170617,-14.157339,-23.592451
55,2.700906276702881,97.41078186035156,78.78157043457031,2.715979255801275,-5.791139709916886,-90.14354394488684,-17.460957,-6.851203,-10.719558,23.508533,10.59224,-7.2371426,12.745674,-12.466835,-5.616153,75.16135,4.1399364,8.343083,12.569688,0.60596883,10.045997,51.535427,28.19699,-26.829037,-28.311796,14.502895,-14.168511,23.970972,-10.560295,-28.003244,22.428816,-28.813114,-12.58626,-13.76253,-23.316452
56,2.5456857681274414,99.28883361816406,79.32917785644531,2.130439752505523,-5.263211208622546,-90.10079429128778,-17.531956,-5.746515,-11.142967,18.976019,15.347382,-8.480572,13.189071,-11.562076,-6.3536015,71.883064,3.7993736,8.176183,12.987756,1.1688254,9.442696,52.425476,27.720423,-26.616646,-28.69576,15.566567,-14.293228,23.424606,-11.830852,-28.107807,22.680777,-27.54311,-14.267524,-13.215895,-22.696526
57,2.3444955348968506,101.1703872680664,79.80266571044922,1.4102304694294785,-4.86056405703608,-90.17153018544582,-17.06544,-4.1832514,-11.103301,13.803545,19.668627,-10.5452175,13.530848,-10.052461,-6.5163546,68.69389,3.623849,8.394731,13.377556,1.7915549,9.085177,53.43382,27.073462,-26.031122,-29.35258,17.515533,-14.457892,22.74515,-12.654176,-28.164143,22.565464,-26.733006,-16.381556,-12.450761,-21.496614
58,2.1029865741729736,103.05158996582031,80.17817687988281,0.501818498870111,-4.546882930378663,-90.3174259868603,-16.155735,-2.2357633,-10.825276,8.018289,23.869541,-13.260037,13.765765,-8.009525,-6.255078,65.497475,3.5607111,8.82737,13.711067,2.539423,8.900289,54.467636,26.244907,-25.159588,-30.20941,20.148941,-14.675178,21.95747,-13.131311,-28.174107,22.16522,-26.215582,-18.949411,-11.537997,-19.82425
59,1.9341001510620117,104.97618865966797,80.53813171386719,-0.324777517054023,-4.336578666117883,-90.49135326029993,-16.21789,-0.56687766,-9.793341,5.1336794,26.07557,-15.000033,13.894351,-5.923359,-5.629243,62.48937,3.5352519,9.308506,13.91586,3.2131658,8.907452,55.28472,25.269075,-24.22288,-31.139317,22.985489,-14.859628,21.180855,-13.355004,-28.145006,21.68655,-25.839903,-21.61026,-10.664737,-18.07916
60,1.8225269317626953,106.91120910644531,80.81609344482422,-0.7920035399089299,-4.194527755404121,-90.61586031903649,-17.057648,0.5437514,-7.860957,5.1238313,26.250126,-15.000033,13.847283,-4.282104,-4.757811,59.93324,3.4281378,9.678307,13.8974085,3.5673542,9.098234,55.651287,24.21586,-23.419607,-32.019672,25.5406,-14.90672,20.523119,-13.398503,-28.085932,21.326195,-25.472326,-23.991129,-9.962619,-16.68817
61,1.6752687692642212,108.88438415527344,81.04401397705078,-1.0305629347871466,-4.016262430789957,-90.67287511567332,-17.37189,1.4880109,-5.7166657,5.13314,25.53068,-15.000033,13.410142,-2.8401105,-3.6442955,57.85609,3.3776429,9.785211,13.644558,3.6770766,9.373979,55.633095,23.121479,-22.735565,-32.96348,27.98465,-14.701723,19.988533,-13.21113,-28.006042,21.06786,-25.213272,-26.04252,-9.413147,-15.796571
62,1.508545160293579,110.88526153564453,81.22476959228516,-1.0982610410076186,-3.8206239811736005,-90.68364944435858,-17.269989,2.2988248,-3.2295184,5.231552,23.996006,-15.000033,12.660933,-1.4696158,-2.2694037,56.17509,3.36349,9.76283,13.206222,3.5839255,9.755441,55.31368,21.994167,-22.074762,-34.00877,30.468544,-14.319001,19.514032,-12.738395,-27.905848,20.802376,-25.124395,-27.940294,-8.928436,-15.182815
63,1.3248467445373535,112.8839111328125,81.35112762451172,-0.9313998783358265,-3.616518719388597,-90.61568246121024,-16.853685,2.8131483,-0.60900015,5.4724593,22.280384,-15.000033,11.727106,-0.4244515,-0.93760884,54.76065,3.3188353,9.645506,12.571258,3.2362454,10.203906,54.51718,20.885624,-21.488598,-34.92619,32.47592,-13.919347,19.112963,-12.043572,-27.774775,20.588291,-25.011114,-29.647858,-8.501466,-14.734962
64,1.1140975952148438,114.89414978027344,81.45309448242188,-0.575283620423711,-3.4624718106592183,-90.47275566936284,-17.144115,3.1169653,1.8162328,7.9315763,19.959204,-15.000033,10.768041,0.16673203,0.052591812,53.38187,3.2751887,9.41828,11.763084,2.718918,10.685101,53.14234,19.874249,-21.027882,-35.555,33.4889,-13.653584,18.821692,-11.195874,-27.601917,20.487408,-24.667418,-31.127783,-8.132899,-14.331755
65,0.9038493037223816,116.90264892578125,81.5238265991211,-0.1271895303262756,-3.431436500710392,-90.29281245190596,-18.470654,3.5862195,3.9697978,13.576704,16.615444,-15.000033,9.851332,0.36458266,0.6876942,51.904915,3.3078804,9.046721,10.839951,2.1558247,11.229185,51.106068,19.033577,-20.782835,-35.884544,33.10661,-13.559023,18.69964,-10.135981,-27.370626,20.489206,-24.030706,-32.28971,-7.796093,-13.936178
66,0.6718340516090393,118.89677429199219,81.53536224365234,0.23011978854695628,-3.5637667491439826,-90.15932414532581,-19.694633,4.473153,5.9038005,20.210691,13.024854,-15.000033,8.988419,0.49320698,1.1450832,50.364056,3.4555032,8.497135,9.900522,1.7236515,11.850152,48.580063,18.390974,-20.706593,-36.0886,31.677794,-13.532146,18.733925,-8.820327,-27.089855,20.54112,-23.213371,-33.184357,-7.4917803,-13.606075
67,0.4661223888397217,120.8792953491211,81.4740982055664,0.53537954028893,-3.822498911458421,-90.05418132089765,-20.488125,5.5989165,7.9035163,26.841284,9.681103,-13.7013035,8.17381,0.53679115,1.4059213,48.932266,3.565239,7.8424125,8.94589,1.3704611,12.498943,45.80811,17.945509,-20.644405,-36.25456,29.809973,-13.518137,18.856756,-7.3330812,-26.798594,20.638384,-22.28652,-33.98389,-7.267098,-13.371913
68,0.3040894567966461,122.84408569335938,81.33780670166016,0.8401081679792075,-4.11360507421298,-89.94200961932641,-20.825998,6.687869,9.700412,32.9516,6.871342,-11.817571,7.3458014,0.4612035,1.4190775,47.75452,3.5174048,7.1205463,7.949037,1.0019504,13.082788,42.987324,17.677795,-20.43756,-36.425774,28.1161,-13.46694,18.997334,-5.7653246,-26.541855,20.784502,-21.327078,-34.85593,-7.167708,-13.276401
69,0.15794847905635834,124.7864990234375,81.11949157714844,1.0263475018669448,-4.44192634357466,-89.8556056004994,-20.927265,7.8415427,10.985419,39.03374,4.482227,-10.183965,6.4799156,0.3484606,1.0518553,46.709854,3.7065177,6.234356,6.9268117,0.7382693,13.589966,40.06892,17.577837,-20.085466,-36.558014,26.583736,-13.365899,19.15016,-4.1441665,-26.343151,21.025127,-20.24888,-35.915443,-7.226871,-13.385562
70,0.014210968278348446,126.70992279052734,80.82791900634766,1.1524210921035751,-4.821688344368172,-89.78243685760911,-20.816608,9.07774,11.8849325,45.26534,2.369238,-8.5562315,5.5797567,0.12521082,0.35502636,45.790276,4.0415134,5.200211,5.8728223,0.5400995,14.054979,36.9487,17.644579,-19.67916,-36.613487,24.945421,-13.24875,19.347946,-2.4083235,-26.204262,21.342348,-19.064337,-37.04142,-7.4010277,-13.677097
71,-0.15938393771648407,128.6027374267578,80.51620483398438,1.2764970614906372,-5.197339949950574,-89.73933420065356,-20.460646,10.199581,12.37939,51.24927,0.5314256,-7.130142,4.6826587,-0.15502335,-0.39896363,45.147503,3.8163218,4.1285405,4.833665,0.3401642,14.440981,33.73408,17.869589,-19.198616,-36.64431,23.43717,-13.133464,19.574856,-0.5237821,-26.131706,21.647463,-17.996223,-38.0451,-7.624606,-14.057757
72,-0.3199938237667084,130.49624633789062,80.10348510742188,1.4600556442295114,-5.512332486736209,-89.74076642596252,-19.850498,10.957861,12.468282,56.619194,-1.0167618,-6.1478148,3.821634,-0.4247461,-0.9127725,44.924347,2.3387399,3.1398413,3.851012,0.072629385,14.709848,30.52661,18.243296,-18.62318,-36.70026,22.29549,-13.036961,19.811024,1.5484543,-26.134071,21.851656,-17.275475,-38.732872,-7.837582,-14.429113
73,-0.45890012383461,132.3721160888672,79.59161376953125,1.8190616310123007,-5.761487458343858,-89.78630005377065,-19.01841,11.059965,12.132674,61.39522,-2.2318966,-5.770949,3.0234292,-0.76322645,-1.0183164,45.38575,-1.0783491,2.2298918,2.8999443,-0.3695477,14.852372,27.346264,18.788755,-17.921055,-36.78938,21.639929,-12.940843,20.041138,3.8244767,-26.227022,21.991928,-16.991621,-38.983047,-8.060304,-14.763536
74,-0.5799932479858398,134.22445678710938,79.01632690429688,2.300915381761242,-5.966567611674465,-89.86207199479574,-18.01292,10.611734,11.442583,65.82153,-3.143245,-5.895899,2.2398126,-1.1594913,-0.8657323,46.409916,-5.903927,1.3272244,1.9737493,-0.92275095,14.880287,24.129795,19.51803,-17.14926,-36.880066,21.322989,-12.84304,20.27934,6.3034215,-26.412203,22.079382,-17.032467,-38.914757,-8.316385,-15.112414
75,-0.7105056047439575,136.04058837890625,78.40309143066406,2.7156626571513165,-6.112951949966727,-89.96129424758446,-16.842958,9.959786,10.539254,69.86135,-3.8524642,-6.371781,1.3862405,-1.4201975,-0.6472869,47.568954,-11.007678,0.45595935,1.1248323,-1.395758,14.797787,20.85068,20.38755,-16.399145,-36.953854,21.185602,-12.784066,20.54559,8.9948635,-26.666187,22.002577,-17.331108,-38.6923,-8.555339,-15.491237
76,-0.8366256952285767,137.82864379882812,77.78431701660156,2.8626367494621494,-6.188272699645655,-90.07907904901641,-15.50723,9.48838,9.548275,73.45331,-4.455282,-7.0260706,0.39342952,-1.3815484,-0.5717291,48.399143,-15.259025,-0.32982403,0.38760516,-1.5937124,14.617662,17.47486,21.318596,-15.731431,-36.964993,21.07938,-12.805987,20.85257,11.884116,-26.948479,21.678303,-17.791504,-38.48121,-8.725873,-15.914921
77,-0.954315721988678,139.5913848876953,77.18994903564453,2.6489584866277314,-6.1781741042058265,-90.21797068717872,-13.99484,9.2897215,8.395679,76.62572,-4.972056,-7.955904,-0.74049973,-0.9813261,-0.7336763,48.738956,-18.51899,-0.9679818,-0.23326974,-1.3906075,14.292444,13.847662,22.2826,-15.168964,-36.748398,21.04177,-12.963532,21.258675,14.984312,-27.239996,21.137491,-18.375685,-38.260258,-8.785163,-16.41929
78,-1.0783170461654663,141.34698486328125,76.62483978271484,2.193389458946421,-6.096794132566534,-90.37972605502358,-12.289369,9.152518,7.0827556,79.40237,-5.371397,-9.218607,-1.9874297,-0.34485847,-1.0286913,48.83848,-21.348532,-1.501402,-0.7766422,-0.90853775,13.837383,10.024958,23.282719,-14.65926,-36.337498,21.149496,-13.22262,21.723866,18.263018,-27.526983,20.451057,-19.088232,-37.96207,-8.774042,-16.980612
79,-1.2049387693405151,143.11277770996094,76.093017578125,1.6276627199680338,-5.976233716019803,-90.56141816576114,-10.391078,9.052886,5.81771,81.69511,-5.646476,-10.552978,-3.3480003,0.4030618,-1.3761245,48.812897,-23.672241,-1.9953938,-1.3149115,-0.32994425,13.354477,6.3120313,24.26616,-14.092341,-35.99266,21.313452,-13.495401,22.10748,21.567305,-27.761988,19.652994,-19.835398,-37.688972,-8.761542,-17.5254
80,-1.3506762981414795,144.8832550048828,75.62213134765625,1.075333474965643,-5.846890061046292,-90.75920913862382,-8.323136,8.986605,4.781392,83.412605,-5.76693,-11.683291,-4.812894,1.1541047,-1.6976312,48.775375,-25.40367,-2.505438,-1.9400116,0.16267614,12.927177,2.9782367,25.143538,-13.348918,-35.91392,21.447227,-13.697769,22.257622,24.690643,-27.884718,18.800804,-20.467218,-37.557457,-8.813995,-17.975712
81,-1.5123646259307861,146.66012573242188,75.217529296875,0.5200885368040806,-5.695339729053786,-91.0150384552699,-6.0617967,8.969119,3.9606843,84.517746,-5.657328,-12.54934,-6.4077244,1.957606,-2.004927,48.745613,-26.515888,-3.0577536,-2.637609,0.5731573,12.531428,-0.00925814,25.824781,-12.3402405,-36.086395,21.559834,-13.812564,22.005299,27.59632,-27.85235,17.870623,-20.870895,-37.66575,-8.948961,-18.273245
82,-1.651344656944275,148.42233276367188,74.8954849243164,-0.09087818187682539,-5.515788312421738,-91.31747543331362,-3.6233191,9.021241,3.2615361,85.06613,-5.333462,-13.277504,-8.104194,2.853376,-2.3579803,48.64059,-27.053516,-3.6008918,-3.3781798,0.9925596,12.10905,-2.8787084,26.302082,-11.165685,-36.271057,21.712372,-13.895101,21.440924,30.330942,-27.666292,16.87744,-21.056875,-37.954994,-9.128342,-18.464003
83,-1.76691472530365,150.17250061035156,74.67012023925781,-0.6942964203391654,-5.345399149169234,-91.58091947976783,-1.1115774,9.160246,2.7220051,85.11182,-4.8889313,-13.859704,-9.813835,3.7246616,-2.7465317,48.426052,-27.032078,-4.0784554,-4.22222,1.361355,11.695811,-5.641369,26.623327,-10.005301,-36.381805,21.888096,-13.964764,20.816137,32.832325,-27.347626,15.913078,-21.092445,-38.306446,-9.334404,-18.627285
84,-1.8856178522109985,151.9259796142578,74.5291976928711,-1.2234212899493295,-5.217427749201725,-91.7184956576879,1.3652439,9.407126,2.376201,84.71294,-4.420287,-14.286623,-11.460621,4.4487243,-3.1473317,48.076626,-26.464787,-4.438358,-5.235993,1.6091217,11.338833,-8.2483,26.863865,-9.022521,-36.409176,22.054153,-14.033894,20.397001,35.038544,-26.92656,15.066206,-21.065699,-38.59768,-9.54992,-18.84495
85,-2.00775146484375,153.70318603515625,74.47686767578125,-1.659630003642955,-5.16648236202547,-91.73138475425468,3.8966675,9.829324,2.3282826,83.79068,-3.8817449,-14.575015,-13.105755,5.0031304,-3.5381694,47.77548,-25.30368,-4.681166,-6.459029,1.6759863,11.080181,-10.607649,27.039938,-8.167453,-36.448788,22.22098,-14.1167755,20.26241,36.92052,-26.422405,14.334715,-21.008057,-38.81907,-9.787607,-19.142672
86,-2.125147819519043,155.50196838378906,74.51551818847656,-2.0101149517281733,-5.15969370429071,-91.64930146933004,6.4832506,10.378091,2.544373,82.34895,-3.2320278,-14.695368,-14.780415,5.4102244,-3.9295025,47.50365,-23.573875,-4.831124,-7.857852,1.5682024,10.881855,-12.76913,27.134535,-7.383806,-36.50925,22.38279,-14.193168,20.291721,38.538334,-25.840694,13.664203,-20.912622,-39.021484,-10.050292,-19.479694
87,-2.25711989402771,157.337158203125,74.64752960205078,-2.3424731031219688,-5.132961425297324,-91.45101239421714,8.892216,10.959483,2.7764108,80.60246,-2.6171699,-14.6585245,-16.331627,5.736061,-4.3621383,46.844093,-21.339918,-4.8916516,-9.362664,1.4122965,10.697633,-14.8452425,27.182587,-6.8150454,-36.503563,22.47256,-14.219676,20.45663,39.970215,-25.185799,13.0551405,-20.834894,-39.173477,-10.3087,-19.837698
88,-2.385133743286133,159.1999969482422,74.8649673461914,-2.67388623900578,-5.018483055383405,-91.10090873927953,10.8895,11.466832,2.8096573,78.741035,-2.167168,-14.423112,-17.609076,5.9789853,-4.856661,45.40739,-18.69151,-4.8440375,-10.917521,1.271191,10.483265,-16.898012,27.248678,-6.6022882,-36.396996,22.416725,-14.149889,20.738678,41.284103,-24.449427,12.518571,-20.824556,-39.24158,-10.536458,-20.197344
89,-2.5001373291015625,161.0940399169922,75.16966247558594,-2.949910745594631,-4.792282040672142,-90.51564992292147,12.378457,11.93575,2.6552644,76.775055,-1.941295,-13.76689,-18.616827,6.0523405,-5.3910365,43.173454,-15.732648,-4.650753,-12.622354,1.0585647,10.225262,-18.913477,27.391394,-6.7993197,-36.2333,22.152832,-13.938655,21.301004,42.41767,-23.618776,12.086399,-20.86877,-39.225807,-10.718826,-20.565525
90,-2.623589038848877,163.02651977539062,75.56317901611328,-3.175698118347618,-4.490721029157597,-89.74003166025174,13.494346,12.390304,2.4017026,74.62566,-1.8825712,-12.7949705,-19.411097,5.975387,-5.928759,40.314167,-12.390253,-4.32561,-14.472953,0.7475396,9.945348,-20.82164,27.606514,-7.3170547,-36.074585,21.706507,-13.612969,22.124886,43.339104,-22.685091,11.754218,-20.943995,-39.143433,-10.878298,-20.946577
91,-2.7452199459075928,164.9959259033203,76.01984405517578,-3.3125009114996615,-4.127402755235219,-88.90809171916682,14.33107,12.644493,2.0490994,72.31599,-1.9005228,-11.80916,-19.997347,5.740077,-6.4068055,36.89362,-8.57212,-3.887066,-16.279753,0.3555172,9.624798,-22.583714,27.856699,-8.066352,-35.916466,21.136257,-13.238987,22.905922,44.157627,-21.64163,11.486307,-21.071407,-38.988167,-11.042548,-21.31975
92,-2.8727829456329346,167.00875854492188,76.53453826904297,-3.3154954715446117,-3.717827643823113,-88.1513236083317,14.987497,12.522151,1.5980088,69.85897,-1.8870286,-11.092146,-20.389128,5.359173,-6.7746,32.971058,-4.1702814,-3.3526986,-17.845959,-0.0943493,9.25261,-24.162914,28.090307,-8.958448,-35.750618,20.519547,-12.881058,23.328163,44.995068,-20.484678,11.23478,-21.278282,-38.75482,-11.238992,-21.66274
93,-3.007227659225464,169.05738830566406,77.0846939086914,-3.1604999474829665,-3.244677249649125,-87.46667121299814,15.441593,11.9748335,1.0077746,67.20069,-1.8469379,-10.643033,-20.588488,4.9094996,-6.8985286,28.26877,1.3133824,-3.0347733,-19.15391,-0.59132457,8.81717,-25.5867,28.290213,-10.033787,-35.5608,19.771967,-12.5533695,23.265984,45.908752,-19.192076,10.951661,-21.578327,-38.465466,-11.470109,-21.998333
94,-3.122305393218994,171.11227416992188,77.64140319824219,-2.8876409697665593,-2.707953156269335,-86.79974203413231,15.67413,11.114883,0.28485718,64.34634,-1.8204777,-10.329332,-20.639862,4.4037046,-6.8715296,22.914768,7.644607,-2.8284836,-20.272583,-1.1185346,8.332963,-26.869286,28.456554,-11.326093,-35.352448,18.91088,-12.219007,22.890821,46.834946,-17.757483,10.653333,-21.960083,-38.12362,-11.7254505,-22.325508
95,-3.1636290550231934,173.15049743652344,78.1622314453125,-2.5329451550311752,-2.154169687182072,-86.1957613667127,15.794762,10.009704,-0.5085184,61.383125,-1.7378638,-10.216802,-20.569862,3.8055694,-6.908484,17.471025,13.9052925,-2.0962296,-21.146679,-1.6507882,7.8369236,-27.981182,28.57412,-12.701611,-35.117767,18.134033,-11.869245,22.317175,47.735546,-16.218418,10.385448,-22.430048,-37.689533,-12.008214,-22.590271
96,-3.132504940032959,175.1664581298828,78.60362243652344,-2.0693442706133287,-1.6477648248114007,-85.67398262654952,15.9211645,8.6670475,-1.3293939,58.384933,-1.5206858,-10.34609,-20.29938,3.0387342,-7.0976453,12.327992,19.29763,-0.14663044,-21.769371,-2.2346332,7.3663793,-28.832874,28.612173,-14.009793,-34.895496,17.66816,-11.502631,21.655289,48.58987,-14.6510935,10.197784,-23.022514,-37.112926,-12.316853,-22.74041
97,-3.0676429271698,177.16151428222656,78.94220733642578,-1.2702277715808596,-1.2368339580566001,-85.16141801227863,16.170633,6.8228407,-2.2741036,55.162575,-1.0320709,-10.775257,-19.403774,1.8333544,-7.501224,6.6189322,24.225567,4.081465,-22.230658,-3.068445,6.8743176,-29.350325,28.559202,-15.161592,-34.71628,17.559689,-11.079151,20.765905,49.57534,-13.08481,10.077184,-23.86173,-36.32041,-12.667347,-22.76087
98,-3.0608675479888916,179.1893768310547,79.21578979492188,-0.10759196165892307,-0.9159650841042655,-84.62264458835152,16.537046,4.4751368,-3.4100726,51.680237,-0.33629382,-11.431761,-20.227467,-0.03263907,-7.8928576,5.0945163,26.555584,10.066473,-22.575876,-4.1814246,6.349995,-29.581291,28.427841,-16.22107,-34.55535,17.700073,-10.622239,19.628458,50.68951,-11.528526,10.008817,-24.942154,-35.341106,-13.04341,-22.684853
99,-3.1055283546447754,181.250732421875,79.44458770751953,0.862961263804207,-0.6584545585736731,-84.22299690739382,16.902155,2.3270302,-4.5707784,48.25965,0.35199076,-12.227695,-21.367428,-1.654713,-8.4485655,4.9391193,27.729095,15.000033,-22.637192,-5.0950837,5.9972377,-29.629438,28.22529,-17.245611,-34.348248,18.0499,-10.231589,18.526644,51.654144,-10.051597,10.027802,-26.111881,-34.266403,-13.391414,-22.531355
100,-3.2162415981292725,183.34222412109375,79.60917663574219,1.308626676571511,-0.40396729499181544,-84.15721381863065,17.079617,0.82081985,-5.4922247,45.284187,0.77212256,-13.030355,-22.055475,-2.5377507,-10.026833,4.7395587,28.423061,15.000033,-22.237665,-5.5476003,5.899869,-29.568865,27.961739,-18.271595,-34.045353,18.55962,-10.002829,17.73825,52.216003,-8.760171,10.178491,-27.238697,-33.17443,-13.65276,-22.326582
101,-3.260615825653076,185.45082092285156,79.73417663574219,1.6103772927541786,-0.061240256124230175,-84.28140910388282,16.913893,-0.5806501,-6.250352,42.622704,1.0491503,-13.683859,-22.408216,-3.0421,-9.925452,4.7168307,28.067219,15.000033,-21.55171,-5.7902493,5.851823,-29.344276,27.642565,-19.240118,-33.663307,19.364044,-10.0018635,17.34624,52.233852,-7.74199,10.497893,-28.280855,-31.915434,-13.799331,-22.05397
102,-3.232187509536743,187.5788116455078,79.83119201660156,1.797559339940484,0.3311489357570763,-84.57153164190706,16.494501,-1.9028676,-6.898097,40.12501,1.2783264,-14.278898,-22.42848,-3.2791579,-8.836874,4.8072104,26.834764,15.000033,-20.641092,-5.853915,5.852073,-28.887802,27.28276,-20.088648,-33.23906,20.42873,-10.164544,17.197542,51.8678,-7.018662,10.963507,-29.326117,-30.469551,-13.844887,-21.726158
103,-3.169635772705078,189.7236328125,79.88511657714844,1.7251677075282048,0.7424864732819434,-84.99572665698005,15.797027,-2.8464339,-7.293068,38.011253,1.3963121,-14.713514,-22.173925,-3.1893592,-7.722196,5.095873,25.368914,15.000033,-19.58709,-5.6311746,5.9614587,-28.175838,26.889374,-20.822454,-32.823124,21.508005,-10.390326,17.24729,51.078735,-6.595503,11.466182,-30.241686,-29.111063,-13.8112755,-21.410923
104,-3.075587272644043,191.8750762939453,79.88601684570312,1.393178897648481,1.0926096412621822,-85.4907346084412,14.8544855,-3.3060956,-7.3086023,36.417927,1.4386382,-14.865365,-21.861277,-2.9324586,-7.4545417,6.1024265,24.04521,15.000033,-18.484064,-5.1737585,6.220811,-27.23036,26.469648,-21.464685,-32.429077,22.329596,-10.578977,17.435625,49.898426,-6.4601665,11.914088,-30.945854,-28.122149,-13.727643,-21.176348
105,-2.9896931648254395,194.0384063720703,79.83409881591797,0.9430483845935462,1.2583194070189336,-86.01222047672344,13.78415,-3.4414346,-6.927406,35.174084,1.8367351,-14.84603,-24.06928,-3.2479112,-8.276758,13.857669,19.749538,15.000033,-17.378298,-4.6809173,6.6972384,-26.043318,26.02633,-22.046925,-32.038685,22.873823,-10.732402,17.821241,48.243378,-6.6301823,12.373122,-31.413063,-27.615793,-13.58281,-21.020046
106,-2.939190626144409,196.20101928710938,79.69860076904297,0.5438877320405355,1.1962394314355027,-86.51918609397015,12.694074,-3.4997694,-6.2843738,34.196003,2.487747,-14.667515,-25.914728,-4.143856,-10.094056,22.426487,15.226432,13.734814,-16.30301,-4.315762,7.363922,-24.612093,25.573376,-22.558687,-31.63349,23.260801,-10.888376,18.397964,46.19631,-7.1066165,12.921971,-31.741724,-27.43055,-13.367784,-20.922657
107,-2.904568672180176,198.36793518066406,79.48969268798828,0.24339487275640095,0.9889494121299465,-86.93131857329334,11.571132,-3.541444,-5.4802184,33.670063,2.706263,-14.029125,-27.275488,-5.5191784,-11.975558,31.01042,10.838816,11.854959,-15.335842,-4.061534,8.106716,-22.974274,25.132862,-22.97753,-31.24698,23.427837,-11.0066395,19.015875,44.002415,-7.8322277,13.457254,-32.00214,-27.448666,-13.127621,-20.913202
108,-2.84055757522583,200.50294494628906,79.2361831665039,0.003851972293961495,0.7716174864460783,-87.2076392061418,10.327443,-3.53418,-4.6026306,33.819798,1.7792333,-12.650435,-28.23283,-6.863159,-13.089313,38.94615,6.996495,10.144938,-14.497004,-3.8134565,8.796924,-21.184582,24.717417,-23.30264,-30.91726,23.31115,-11.049442,19.535294,41.882477,-8.714947,13.844879,-32.246506,-27.561409,-12.914372,-21.0088
109,-2.751657247543335,202.6172332763672,78.90525817871094,-0.2884774876384294,0.6009275957819759,-87.36583292573941,8.832081,-3.3531141,-3.6476085,35.024025,-0.85342556,-10.089258,-28.999933,-7.8261395,-13.400492,46.473766,3.725139,8.601616,-13.723977,-3.4546728,9.41593,-19.295523,24.318533,-23.601976,-30.628048,22.708542,-10.9361925,19.929623,39.844124,-9.698066,14.01234,-32.444225,-27.934607,-12.769522,-21.189425
110,-2.7063252925872803,204.7466583251953,78.45407104492188,-0.6439649336223285,0.4346517378075744,-87.44481628846322,7.125208,-3.04786,-2.7062774,37.096527,-4.7533584,-6.6733966,-29.619295,-8.539104,-13.270415,54.013187,0.77506024,7.1084623,-12.964482,-3.0140793,10.016443,-17.316216,23.923157,-23.911879,-30.341206,21.715637,-10.715727,20.282694,37.752056,-10.769822,14.030868,-32.52869,-28.580696,-12.666769,-21.432096
111,-2.703702926635742,206.86746215820312,77.9139404296875,-0.986031596085648,0.25780659183167187,-87.46594148340375,5.353056,-2.7786865,-1.9431672,39.460114,-9.139673,-3.2764626,-29.98717,-9.028257,-12.791132,61.22523,-1.8034128,5.8669558,-12.214619,-2.5810356,10.592293,-15.245685,23.53451,-24.190817,-30.058077,20.708515,-10.541079,20.617159,35.630917,-11.906975,13.96055,-32.51598,-29.163954,-12.556447,-21.748661
112,-2.722008228302002,208.95884704589844,77.32974243164062,-1.232267412398227,0.051105389673368806,-87.4510999708724,3.645613,-2.6323488,-1.3576243,41.553627,-13.212135,-0.71950305,-29.994654,-9.342038,-12.067176,67.76719,-3.9568982,5.079815,-11.473513,-2.249509,11.148645,-13.06479,23.167406,-24.38649,-29.801056,20.06006,-10.560687,20.950865,33.498154,-13.079464,13.861108,-32.420437,-29.349844,-12.392627,-22.15235
113,-2.7550055980682373,211.02101135253906,76.72002410888672,-1.4144046906640309,-0.19667350257921562,-87.41307459690431,2.0115309,-2.4762225,-0.8327148,43.35998,-17.06883,0.7231444,-29.646482,-9.303894,-11.08688,73.662544,-5.622376,4.962307,-10.69685,-2.008476,11.716168,-10.794578,22.832335,-24.502665,-29.601013,19.83138,-10.858531,21.253704,31.351759,-14.280247,13.710854,-32.215805,-28.919992,-12.189427,-22.69743
114,-2.7704873085021973,213.072509765625,76.11288452148438,-1.5698847036732047,-0.471772020759206,-87.34491982456676,0.36753598,-2.2611847,-0.3256509,45.164505,-21.038406,1.5378498,-28.995087,-8.87218,-9.907294,79.14387,-6.87409,5.408037,-9.891055,-1.8156736,12.290584,-8.433573,22.52702,-24.566898,-29.4479,19.831785,-11.336542,21.530972,29.17142,-15.507772,13.491962,-31.893612,-28.09969,-11.973643,-23.360744
115,-2.7891640663146973,215.11822509765625,75.54121398925781,-1.6188699995855786,-0.7600393452305524,-87.23640033673757,-1.293374,-2.1433403,0.15596361,46.85683,-24.674664,2.0633674,-27.988976,-8.352182,-8.710854,84.131,-7.8569593,6.10658,-9.124644,-1.7262019,12.834656,-5.922394,22.248987,-24.56574,-29.3133,20.057047,-11.867326,21.853704,26.950506,-16.735264,13.260358,-31.505848,-27.223892,-11.717447,-24.036238
116,-2.807431221008301,217.14944458007812,75.02070617675781,-1.4805086598385122,-1.0491396830910784,-87.07464671520556,-2.9630132,-2.3017688,0.5818913,48.29755,-27.511686,2.6281242,-26.586119,-8.096801,-7.6399503,88.504585,-8.684813,6.7146063,-8.461621,-1.8056048,13.3119755,-3.198737,21.998968,-24.488527,-29.165401,20.504013,-12.322929,22.29305,24.674158,-17.921494,13.073307,-31.090918,-26.630688,-11.383934,-24.611643
117,-2.810593605041504,219.153076171875,74.57958221435547,-1.048994810464799,-1.3366819933868537,-86.80109373774613,-4.6615047,-2.8975885,0.9541489,49.428886,-29.367561,3.2801075,-24.730888,-8.281371,-6.650884,92.248825,-9.399249,7.246346,-7.962795,-2.2025864,13.703015,-0.20434687,21.77832,-24.305489,-28.933739,21.420765,-12.708597,22.961485,22.208858,-19.046236,12.972252,-30.485268,-26.498446,-10.892751,-25.096443
118,-2.8024137020111084,221.09939575195312,74.2069320678711,-0.3984475082019067,-1.636805565167748,-86.4412754870648,-6.3694196,-3.7856326,1.327189,50.31732,-30.514019,3.8559656,-22.44487,-8.705425,-5.7170863,95.41449,-9.924564,7.8469906,-7.56593,-2.8514829,14.038061,3.013119,21.588413,-24.041016,-28.649837,22.727785,-13.066278,23.79719,19.597176,-20.10709,12.916194,-29.70766,-26.625072,-10.283364,-25.52539
119,-2.816060781478882,222.99114990234375,73.88838195800781,0.2885842080385359,-1.9589788572434887,-86.10587976864521,-8.017147,-4.708764,1.7253742,50.99955,-31.153566,4.368326,-19.84284,-9.209684,-4.952935,97.97449,-10.164246,8.335022,-7.143318,-3.501876,14.348891,6.341858,21.42862,-23.77572,-28.419785,23.923588,-13.334434,24.602156,17.083746,-21.08265,12.831882,-29.068806,-26.78035,-9.696258,-25.822315
120,-2.846522569656372,224.82089233398438,73.6364974975586,0.8309257870950466,-2.3057567789752658,-85.90347988199525,-9.5455065,-5.414876,2.1542065,51.511234,-31.481327,4.8287363,-17.06428,-9.653958,-4.4334106,99.90233,-10.013591,8.514704,-6.559653,-3.906342,14.658454,9.649871,21.294788,-23.602428,-28.329777,24.503319,-13.470587,25.17078,14.898945,-21.938152,12.642955,-28.848656,-26.741108,-9.277548,-25.913439
121,-2.8629517555236816,226.61561584472656,73.46195983886719,1.1838827554922704,-2.719105882975967,-85.85638145234135,-10.918972,-5.8444557,2.6209545,51.905937,-31.528767,5.253288,-14.045532,-10.042657,-4.1623964,101.16967,-9.269708,8.199421,-5.784816,-3.993757,14.990196,12.987199,21.174055,-23.543217,-28.393229,24.200157,-13.40916,25.409464,13.133302,-22.62068,12.263898,-29.17355,-26.505182,-9.103403,-25.68567
122,-2.860579013824463,228.42196655273438,73.35169982910156,1.4530211264504806,-3.1816561128123295,-85.90591776102505,-12.17494,-6.1374874,3.1227124,52.139824,-31.18897,5.638988,-10.788871,-10.494297,-4.0801663,101.81222,-8.018434,7.487867,-4.8690295,-3.9114761,15.302668,16.351994,21.064095,-23.57428,-28.51071,23.329473,-13.196673,25.438494,11.615389,-23.114145,11.744234,-29.81037,-26.191093,-9.088701,-25.203161
123,-2.8601107597351074,230.21194458007812,73.31819915771484,1.686463360547621,-3.601332975838925,-86.04065255669789,-13.372176,-6.343006,3.6398563,52.102577,-30.445652,5.964454,-7.549803,-11.033799,-4.1158867,101.9127,-6.5963535,6.641871,-3.8161576,-3.7390008,15.520721,19.561518,20.982819,-23.693632,-28.621689,22.25833,-12.966192,25.369019,10.1751175,-23.460087,11.226007,-30.513103,-25.751114,-9.136838,-24.665508
124,-2.84204363822937,232.0029754638672,73.3670425415039,1.9288907118979577,-3.8849975672696884,-86.25149568848715,-14.569327,-6.504774,4.1547103,51.68505,-29.283913,6.2052317,-4.5760612,-11.657078,-4.2039447,101.55702,-5.3510695,5.9425044,-2.639141,-3.5454533,15.583509,22.461832,20.957375,-23.884634,-28.708975,21.346987,-12.853926,25.308144,8.683433,-23.736065,10.850336,-31.094358,-25.125349,-9.1489105,-24.278147
125,-2.8172616958618164,233.78274536132812,73.50804138183594,2.198403644305125,-4.023127934007262,-86.57637006136115,-15.765167,-6.645537,4.7025824,50.86731,-27.696445,6.3746786,-1.8602868,-12.436851,-4.341819,100.70492,-4.2871094,5.478031,-1.3001882,-3.3158662,15.46643,25.052795,21.013319,-24.16273,-28.835014,20.582548,-12.907329,25.285746,7.1948524,-23.991182,10.628257,-31.63111,-24.174728,-9.105252,-24.131014
126,-2.787304401397705,235.58494567871094,73.73686981201172,2.4668082751759597,-4.055967314170481,-87.009633911444,-16.934183,-6.738615,5.2813983,49.700283,-25.689503,6.479867,0.69591707,-13.334964,-4.5575843,99.350174,-3.2608101,5.1094975,0.17988497,-3.0191817,15.207103,27.446087,21.150908,-24.508974,-29.05026,19.796837,-13.047952,25.245483,5.7806015,-24.227743,10.491113,-32.239193,-22.951694,-9.050159,-24.123398
127,-2.7669858932495117,237.40379333496094,74.0531997680664,2.695121983366828,-3.964811892693825,-87.47789835478166,-18.10107,-6.7546024,5.81124,48.182865,-23.266539,6.486595,2.983473,-14.144236,-4.8273487,97.629486,-2.3878613,4.7992005,1.6966423,-2.693483,14.847845,29.659576,21.351046,-24.845945,-29.311804,19.118616,-13.228082,25.159101,4.355072,-24.460848,10.461384,-32.809162,-21.68381,-8.981477,-24.169985
128,-2.785182476043701,239.25633239746094,74.43840026855469,2.8464505984692083,-3.7324992671854913,-87.9063306726015,-19.291931,-6.6704245,6.2064357,46.315285,-20.426796,6.361303,4.8920455,-14.660358,-5.10729,95.67667,-1.7836931,4.5089264,3.1334138,-2.3705091,14.435157,31.72315,21.57969,-25.081049,-29.580769,18.680466,-13.402649,24.996372,2.82349,-24.713432,10.576645,-33.225216,-20.59582,-8.891822,-24.185709
129,-2.8061652183532715,241.1543426513672,74.8809814453125,2.9209346409082686,-3.283042273542809,-88.29870009370363,-20.616074,-6.5045156,6.4372344,44.052757,-17.000334,6.188557,6.304724,-14.875203,-5.3747272,93.486626,-1.6500722,4.1688275,4.498941,-2.0409636,13.908156,33.580208,21.818644,-25.189842,-29.813225,18.578846,-13.586616,24.719465,1.1230602,-25.016367,10.88969,-33.453384,-19.722523,-8.753379,-24.190191
130,-2.8507213592529297,243.06771850585938,75.37689971923828,2.9280701216334353,-2.6510990630130045,-88.68580165251592,-22.0249,-6.2839327,6.5288906,41.403374,-13.035116,5.9569287,7.3176627,-14.869556,-5.6368423,91.00557,-1.8802774,3.8269641,5.827364,-1.6857151,13.269757,35.2426,22.057547,-25.209791,-30.043886,18.726784,-13.799345,24.350044,-0.6699136,-25.375393,11.375166,-33.584835,-18.942606,-8.574669,-24.223286
131,-2.9065744876861572,245.04425048828125,75.90251159667969,2.8469716667290124,-1.986172897903455,-89.03412875692847,-23.303112,-6.0063987,6.457707,38.43507,-8.846794,5.482108,8.136666,-14.589589,-5.8846655,88.287895,-2.1220849,3.6067944,7.045836,-1.3115141,12.66872,36.835403,22.270414,-25.140715,-30.33594,18.98779,-14.004148,23.945763,-2.4350352,-25.76445,11.944822,-33.694397,-18.249582,-8.400552,-24.224165
132,-2.9793081283569336,247.0590362548828,76.43994903564453,2.6575277064078917,-1.4388423261606673,-89.31179455944067,-24.234438,-5.6635175,6.18279,35.208004,-4.74255,4.570168,8.966549,-13.986614,-6.1112924,85.38052,-2.0179553,3.6236167,8.082497,-0.92012036,12.251673,38.478264,22.427107,-24.977247,-30.744524,19.231157,-14.162669,23.559874,-4.068036,-26.143126,12.511344,-33.832676,-17.646183,-8.277089,-24.122608
133,-3.067474365234375,249.10562133789062,76.97006225585938,2.2951861367419193,-1.0529310902163165,-89.52253833946978,-24.613878,-5.2073703,5.511405,31.182236,-0.36694863,2.9838092,9.85279,-12.929646,-6.2902493,82.20045,-1.4441553,3.9807088,8.91715,-0.45717517,12.088715,40.225845,22.50799,-24.667727,-31.255367,19.504486,-14.288952,23.231487,-5.6150694,-26.495022,13.090476,-33.969296,-17.223969,-8.218786,-23.846642
134,-3.199942111968994,251.15020751953125,77.45137023925781,1.7738170692168678,-0.7561359444235775,-89.68415391955273,-24.58033,-4.65903,4.417878,26.448883,4.3357935,0.8533096,10.704444,-11.477777,-6.4106283,78.74016,-0.60579836,4.5723724,9.583271,0.084125,12.095654,42.00642,22.509407,-24.213715,-31.8399,19.860186,-14.397372,22.91932,-7.1286306,-26.821692,13.724525,-34.06813,-16.96019,-8.201078,-23.439533
135,-3.3908865451812744,253.17196655273438,77.85771942138672,1.207422115820463,-0.520653128527721,-89.79133881065513,-24.437477,-4.064279,3.1795511,22.054195,8.573533,-1.4527938,11.5164995,-9.860592,-6.475738,75.14703,0.38179773,5.224341,10.10126,0.6252953,12.191097,43.742565,22.43233,-23.696882,-32.514153,20.177803,-14.448185,22.55561,-8.509602,-27.107998,14.352026,-34.16095,-16.689287,-8.211719,-23.001202
136,-3.6213538646698,255.1913299560547,78.19404602050781,0.7406653294229812,-0.3067645425255416,-89.82210200345227,-24.545095,-3.488052,2.2001147,19.133615,11.506959,-3.5270743,12.258331,-8.356821,-6.514634,71.60266,1.3826149,5.7633796,10.480267,1.0416734,12.292198,45.347313,22.288538,-23.203863,-33.289898,20.336681,-14.399843,22.071938,-9.656752,-27.334545,14.900487,-34.28152,-16.250265,-8.239081,-22.627043
137,-3.831759452819824,257.21856689453125,78.47830963134766,0.4275634591128837,-0.10062151836572715,-89.7303413639698,-24.963404,-2.981607,1.6400474,17.888567,12.715241,-5.420696,12.9213505,-6.986997,-6.522607,68.10643,2.4343257,6.1770167,10.681082,1.2472658,12.407334,46.927536,22.083372,-22.6882,-34.256622,20.308903,-14.204601,21.365679,-10.545353,-27.49157,15.339204,-34.4737,-15.50235,-8.283953,-22.305708
138,-4.0209574699401855,259.2562255859375,78.6842041015625,0.22166994384039196,0.09060202170111108,-89.5235344816829,-25.561865,-2.5145996,1.3950373,17.828753,12.652943,-7.262638,13.504157,-5.6773834,-6.495428,64.58885,3.5724425,6.547734,10.695942,1.2772267,12.572111,48.48852,21.820827,-22.117514,-35.387035,20.160671,-13.893219,20.505512,-11.236646,-27.582195,15.700732,-34.69752,-14.570423,-8.350861,-21.991846
139,-4.183485507965088,261.29852294921875,78.82715606689453,0.15824981913970232,0.28951982779572916,-89.243747790482,-26.463337,-2.09694,1.5137666,19.117846,11.800422,-8.7572,13.963925,-4.592992,-6.501335,61.145844,4.6532445,6.8493786,10.566713,1.1564626,12.736296,49.78851,21.521002,-21.609743,-36.506577,19.912212,-13.541236,19.67955,-11.759677,-27.60769,16.003145,-34.864506,-13.690271,-8.436609,-21.730816
140,-4.322146415710449,263.35198974609375,78.91285705566406,0.24034717148102,0.5077727559651785,-88.94419860557858,-27.749874,-1.6959431,1.9763457,21.863567,10.690915,-9.636229,14.26444,-3.8550107,-6.616266,57.871056,5.540703,7.0506034,10.351545,0.9455675,12.852,50.59128,21.21847,-21.292303,-37.44431,19.577477,-13.22444,19.073994,-12.135178,-27.573174,16.2575,-34.89032,-13.096591,-8.541349,-21.565788
141,-4.445262432098389,265.4189453125,78.9514389038086,0.4623964849584454,0.7519109282418298,-88.61572567126767,-29.537159,-1.1991223,2.949245,26.447168,9.332475,-9.66471,14.375662,-3.4576437,-6.862082,54.732758,6.222491,7.111986,10.055734,0.6690372,12.891153,50.82928,20.94846,-21.239246,-38.2027,19.057653,-12.908573,18.747839,-12.349892,-27.485695,16.445133,-34.776268,-12.876183,-8.667879,-21.531485
142,-4.573644161224365,267.4877014160156,78.9312744140625,0.7379042369628813,0.9855903057938262,-88.26999089118404,-31.618814,-0.47262836,4.310197,32.527645,7.5752926,-9.018034,14.344527,-3.2582428,-7.202663,51.684803,6.782885,7.0326233,9.699877,0.3852538,12.893101,50.655067,20.724442,-21.38015,-38.88783,18.37074,-12.567915,18.607187,-12.373185,-27.354221,16.543606,-34.579796,-12.893465,-8.816982,-21.595211
143,-4.672866344451904,269.5430603027344,78.84815979003906,0.9690256978696715,1.1637715729106093,-87.98533962641713,-33.616573,0.48357394,5.5952563,39.157486,5.7168956,-8.05811,14.250634,-3.1755362,-7.632262,48.78972,7.2327046,6.861361,9.357831,0.18285081,12.912799,50.15498,20.543135,-21.627012,-39.477116,17.701832,-12.296306,18.60158,-12.192981,-27.181988,16.557173,-34.310463,-13.04565,-8.986603,-21.704027
144,-4.770629405975342,271.587158203125,78.68692016601562,1.105809734082275,1.2612349926162871,-87.81835385771492,-35.266697,1.5105416,6.398137,45.550743,4.0027456,-7.190266,14.153831,-3.1643207,-8.158328,46.118702,7.5777426,6.6713476,9.074988,0.0972113,12.997249,49.406685,20.388153,-21.888405,-39.933605,17.239107,-12.188309,18.674725,-11.808269,-26.965355,16.500734,-33.97154,-13.232017,-9.175376,-21.805832
145,-4.858820915222168,273.63140869140625,78.45088958740234,1.1222394038886634,1.2578681313100044,-87.78470988075036,-36.609947,2.5489414,6.615193,51.861008,2.3995235,-6.4759803,14.08123,-3.2746909,-8.94273,43.501827,8.311694,6.524344,8.862153,0.16735835,13.163204,48.353508,20.246557,-22.19326,-40.178215,17.028553,-12.356379,18.881113,-11.202805,-26.693829,16.366493,-33.524723,-13.466847,-9.412547,-21.869131
146,-4.9198899269104,275.68017578125,78.15171813964844,1.0630302151624127,1.1776235752414868,-87.8487269655276,-37.76644,3.617388,6.4627376,58.407425,0.8025913,-5.731514,13.993189,-3.4864044,-9.940575,40.96363,9.2647915,6.3970633,8.682935,0.34882128,13.381518,46.976395,20.113352,-22.565313,-40.244728,16.97364,-12.722703,19.224415,-10.396099,-26.36368,16.165703,-32.9694,-13.792156,-9.689479,-21.928635
147,-5.010476112365723,277.7009582519531,77.81831359863281,1.0085485637576848,1.0710559692732715,-87.98054199585658,-38.67478,4.587454,6.080576,64.78666,-0.6878712,-5.035854,13.842641,-3.6922066,-10.84445,38.854298,9.462418,6.237944,8.495902,0.5255921,13.624727,45.408386,19.980085,-22.9048,-40.26334,17.049944,-13.095879,19.567938,-9.452629,-25.980513,15.9517765,-32.351597,-14.148934,-9.947267,-22.030664
148,-5.125736236572266,279.709228515625,77.43354797363281,1.0532929567386462,0.9912101111010017,-88.14802138521266,-39.283726,5.33454,5.634322,70.619286,-1.9787458,-4.462006,13.578946,-3.8311768,-11.332756,37.515476,7.937713,5.988623,8.254164,0.56703365,13.863759,43.78234,19.836302,-23.112022,-40.359577,17.229988,-13.285264,19.771927,-8.443566,-25.552555,15.784433,-31.713762,-14.47776,-10.126046,-22.222013
149,-5.207087993621826,281.75543212890625,76.9404067993164,1.2924352921115307,0.9628747118366677,-88.37047311048184,-39.61418,5.760118,5.2064486,75.908905,-3.0659378,-4.0548687,13.216699,-3.9334335,-11.176834,37.187088,3.8211064,5.5679846,7.9560413,0.3710365,14.09322,42.15941,19.667246,-23.129503,-40.58131,17.643595,-13.1918125,19.725319,-7.418058,-25.075455,15.7104225,-30.989277,-14.715394,-10.18666,-22.568298
150,-5.279209613800049,283.7818603515625,76.40091705322266,1.6649676207676811,0.9573579152813102,-88.64922962145599,-39.694317,5.92191,4.7342854,80.87996,-4.010999,-3.7814183,12.7326975,-4.026354,-10.554868,37.681484,-2.1913466,4.9964333,7.6029835,0.017561411,14.319262,40.454052,19.464947,-23.015793,-40.839123,18.260874,-12.936374,19.519613,-6.353245,-24.54208,15.715779,-30.159723,-14.910823,-10.167722,-23.027409
151,-5.357279300689697,285.7908630371094,75.83009338378906,2.0262385151204017,0.946056615299951,-88.93089075517533,-39.48472,5.9510098,4.168072,85.474106,-4.8143644,-3.590793,12.032939,-4.0534253,-9.762107,38.674194,-8.693559,4.366113,7.1676188,-0.34480342,14.531565,38.57485,19.237074,-22.850458,-41.050983,18.813044,-12.656524,19.319895,-5.197487,-23.963522,15.75665,-29.34997,-15.171571,-10.126442,-23.486261
152,-5.4406819343566895,287.7773132324219,75.25537109375,2.2334570033517704,0.9002859492549051,-89.16872957586466,-38.948677,5.986206,3.457496,89.61571,-5.4707336,-3.4298203,11.065833,-3.9834933,-9.124212,39.768566,-14.273881,3.810012,6.6386647,-0.5680526,14.726753,36.436478,19.003437,-22.712194,-41.148525,19.027433,-12.484847,19.299265,-3.8792634,-23.362314,15.774446,-28.703598,-15.599268,-10.118469,-23.836359
153,-5.511349678039551,289.7215270996094,74.71723937988281,2.268036266077145,0.7893317862404862,-89.34914474946835,-38.05413,6.058397,2.5915575,93.33594,-6.002307,-3.2015717,9.82962,-3.838979,-8.704861,40.904896,-18.798489,3.4183521,6.0215573,-0.62065923,14.937081,33.976772,18.787308,-22.617823,-41.116207,18.75219,-12.468429,19.500237,-2.3553135,-22.749786,15.748915,-28.277252,-16.258581,-10.15505,-24.056494
154,-5.5995588302612305,291.64056396484375,74.21171569824219,2.1999889983470764,0.6328450863200649,-89.49724772891568,-36.825157,6.0998316,1.60764,96.67013,-6.4020367,-2.9676385,8.355678,-3.631497,-8.356251,42.278812,-22.970526,3.112464,5.338914,-0.5755875,15.162691,31.264889,18.596603,-22.525436,-41.012764,18.154913,-12.533123,19.84044,-0.64442146,-22.127739,15.701935,-28.011301,-17.073072,-10.2075405,-24.207388
155,-5.689783096313477,293.5379638671875,73.73734283447266,2.0263574224423078,0.47910413169002924,-89.63036655621384,-35.316254,6.1093693,0.52991503,99.536446,-6.618878,-2.9128196,6.68004,-3.3421094,-8.1029415,43.79544,-26.634005,2.8126836,4.6095285,-0.4448966,15.356027,28.41045,18.42595,-22.423716,-40.88746,17.44187,-12.6294155,20.306288,1.2385274,-21.508305,15.638933,-27.891058,-17.934214,-10.272206,-24.306486
156,-5.771267414093018,295.4017639160156,73.32151794433594,1.7484040060567037,0.37702017400144167,-89.768239008762,-33.58185,6.092245,-0.6003205,101.84661,-6.6060185,-3.2040977,4.8426714,-2.9529183,-7.9640026,45.35008,-29.607164,2.442554,3.8532197,-0.23650855,15.469374,25.502104,18.262608,-22.310179,-40.76692,16.820265,-12.705124,20.882069,3.2869377,-20.913311,15.559483,-27.913177,-18.73258,-10.34448,-24.371164
157,-5.849607467651367,297.240966796875,72.96658325195312,1.3049911589722312,0.36302702407807136,-89.96150488950616,-31.617237,6.132472,-1.8343855,103.59498,-6.263807,-3.9760323,2.7444108,-2.403428,-7.9568815,47.010338,-31.7517,1.9749489,3.1164107,0.12899025,15.464514,22.454775,18.091988,-22.230448,-40.607815,16.281101,-12.745664,21.681692,5.5658426,-20.355864,15.445526,-28.113415,-19.550575,-10.418102,-24.379128
158,-5.928150653839111,299.03692626953125,72.67416381835938,0.7203617808326777,0.3993955704935998,-90.18824217032748,-29.397625,6.2064905,-3.1609106,104.82708,-5.6497817,-5.118559,0.41553712,-1.7376753,-8.084342,48.776478,-33.192368,1.467494,2.3786056,0.63983387,15.383019,19.236744,17.911959,-22.165625,-40.393562,15.738166,-12.783701,22.670292,8.067342,-19.839975,15.307251,-28.491787,-20.402576,-10.497899,-24.33276
159,-5.99881649017334,300.8057861328125,72.44668579101562,0.1146026734730297,0.4278528382987123,-90.35878711880058,-26.961103,6.1624036,-4.4929805,105.538155,-4.9504623,-6.451276,-1.9117976,-1.0918144,-8.335161,50.44392,-34.126144,0.966765,1.5588584,1.1556089,15.291552,16.004837,17.7299,-22.04304,-40.175564,15.278922,-12.829913,23.609777,10.68732,-19.369389,15.180211,-28.993765,-21.076513,-10.594521,-24.290274
160,-6.053222179412842,302.53436279296875,72.28302001953125,-0.39547770714646,0.39424714816899015,-90.38280377588198,-24.355507,5.869256,-5.76149,105.728836,-4.3472004,-7.772761,-4.0093417,-0.5926895,-8.68447,51.81008,-34.74637,0.51647604,0.57516444,1.531457,15.249413,12.914611,17.556824,-21.81168,-40.004753,14.986835,-12.889314,24.265085,13.315629,-18.946337,15.09913,-29.558247,-21.360357,-10.71637,-24.310137
161,-6.1152024269104,304.2353515625,72.18560028076172,-0.7731124313483962,0.24635331254909223,-90.23352618108989,-21.462708,5.2138867,-7.002648,105.342224,-3.861327,-9.084522,-5.8131247,-0.28691807,-9.15773,52.9007,-35.035908,0.12933895,-0.60399574,1.7148962,15.298187,9.999597,17.380938,-21.467545,-39.92739,14.820023,-12.954798,24.540827,15.997518,-18.565603,15.08306,-30.236408,-21.065645,-10.873758,-24.42971
162,-6.167423248291016,305.8956298828125,72.1725082397461,-1.0918139417699335,0.02915049741101364,-89.96142126780357,-18.309103,4.3363833,-8.28093,104.409035,-3.4036145,-10.450256,-7.443127,-0.10225384,-9.7559595,53.7871,-34.91162,-0.22292446,-1.9341469,1.7866101,15.382048,7.1564846,17.191216,-21.06341,-39.876297,14.750269,-13.022437,24.576565,18.752863,-18.222946,15.118869,-31.015903,-20.34735,-11.060262,-24.608976
163,-6.201047897338867,307.5151062011719,72.23645782470703,-1.3917990608313058,-0.1618938651933458,-89.58966783591347,-15.173198,3.4902306,-9.564366,103.06203,-2.9816284,-11.745343,-8.951536,0.024069559,-10.413912,54.33969,-34.459286,-0.5591644,-3.3763921,1.8040823,15.411949,4.3362503,17.007008,-20.655422,-39.74238,14.87854,-13.100176,24.493797,21.454327,-17.91819,15.177458,-31.772038,-19.505327,-11.256744,-24.793617
164,-6.2198662757873535,309.0985107421875,72.37313842773438,-1.712532661708633,-0.23028288740093233,-89.14006498126047,-12.34203,2.906852,-10.794897,101.43144,-2.5980103,-12.852313,-10.386048,0.15702434,-11.07222,54.424236,-33.767704,-0.8975296,-4.886456,1.82367,15.308133,1.5075054,16.870968,-20.301245,-39.448196,15.301348,-13.195953,24.417135,23.989807,-17.653255,15.218586,-32.394733,-18.840126,-11.441536,-24.932878
165,-6.24963903427124,310.67742919921875,72.57855224609375,-2.0586043937816263,-0.16514486212468807,-88.55215649010937,-9.842424,2.5888758,-12.000783,99.4899,-2.2616796,-13.774732,-11.7052355,0.3264643,-11.795715,53.971867,-32.882557,-1.2399497,-6.527518,1.8307644,15.049201,-1.3236134,16.816229,-20.016163,-38.986908,16.123487,-13.365599,24.393969,26.388418,-17.43305,15.24396,-32.918514,-18.359436,-11.611388,-25.015955
166,-6.3036651611328125,312.25830078125,72.85526275634766,-2.4075120528504117,-0.0074091232571129005,-87.83401284027808,-7.550555,2.4357593,-13.180761,97.19351,-1.9671242,-14.540084,-12.894039,0.50596756,-12.605792,53.053642,-31.748747,-1.5773358,-8.299249,1.8034604,14.679404,-4.129745,16.842024,-19.79273,-38.436577,17.256235,-13.585863,24.371525,28.6991,-17.25219,15.268708,-33.397964,-17.923119,-11.775709,-25.07204
167,-6.374256134033203,313.8471374511719,73.21041107177734,-2.7490668743217506,0.2595094845515915,-87.10979992563581,-5.5468245,2.521712,-14.19153,94.64799,-1.6923031,-15.000033,-14.042464,0.6798614,-13.383933,51.750263,-30.30773,-1.9101549,-10.060235,1.7863446,14.228442,-6.895567,16.941528,-19.653057,-37.848846,18.513712,-13.746507,24.317495,30.853224,-17.089903,15.264311,-33.768257,-17.611998,-11.929433,-25.11257
168,-6.441828727722168,315.4559020996094,73.63433837890625,-3.06982331028487,0.6498255883110597,-86.50367250439552,-3.9176447,2.8994021,-14.865085,91.95524,-1.4114726,-15.000033,-15.243094,0.8375477,-14.014904,50.144417,-28.49577,-2.2425656,-11.660742,1.8183237,13.729464,-9.60653,17.109667,-19.61816,-37.27803,19.712318,-13.739036,24.189112,32.791546,-16.916718,15.190509,-33.97221,-17.512255,-12.068982,-25.14525
169,-6.502686977386475,317.0801696777344,74.1277084350586,-3.401114766564142,1.2082996406234745,-86.0292874575109,-2.7047057,3.485245,-15.331719,89.103195,-1.1472588,-15.000033,-16.557869,1.0473201,-14.51424,48.19959,-26.27908,-2.6232104,-13.091122,1.9197919,13.147981,-12.314319,17.35717,-19.694963,-36.69126,20.95423,-13.499732,23.99089,34.501266,-16.721127,15.010572,-33.95531,-17.74875,-12.193541,-25.167194
170,-6.558032989501953,318.7268371582031,74.67768859863281,-3.7242915166392767,1.9106772971107149,-85.62645432581515,-1.8637319,4.2801185,-15.559795,86.05192,-0.90975684,-14.831962,-17.91099,1.3407016,-14.9610815,45.866737,-23.691074,-3.0362108,-14.411148,2.0547006,12.487947,-15.009751,17.688301,-19.892578,-36.086575,22.28799,-13.101035,23.731365,36.024815,-16.501299,14.740389,-33.770733,-18.250374,-12.3064995,-25.171637
171,-6.594287395477295,320.3993835449219,75.27876281738281,-3.9756776165408367,2.6672869285932745,-85.30820123868668,-1.2554867,5.1069136,-15.510341,82.867966,-0.6670292,-14.343677,-19.19959,1.6511165,-15.324275,43.20952,-20.7628,-3.4030526,-15.574275,2.1711798,11.842036,-17.578903,18.085886,-20.221315,-35.55775,23.454905,-12.640097,23.37042,37.382927,-16.242258,14.40975,-33.516884,-18.81256,-12.411909,-25.155731
172,-6.6085524559021,322.11279296875,75.90969848632812,-4.105741594281804,3.3907014138399627,-85.0863663337565,-0.6855841,5.5956473,-15.414224,79.62001,-0.38749832,-14.040896,-20.34005,1.8857188,-15.547082,40.306282,-17.520685,-3.6517234,-16.531301,2.2207804,11.298432,-19.914259,18.521866,-20.680048,-35.18798,24.200815,-12.21265,22.87163,38.591373,-15.923571,14.040665,-33.28133,-19.23375,-12.514546,-25.111427
173,-6.596147060394287,323.8582458496094,76.55883026123047,-4.109579273380787,4.094534367357528,-84.98493938055708,-0.17380287,5.740367,-15.238945,76.25712,-0.039483305,-13.96523,-21.384192,1.9652009,-15.532525,37.114326,-13.81074,-3.951757,-17.23131,2.2059464,10.860856,-22.08377,18.987244,-21.31173,-34.999115,24.376656,-11.792039,22.143381,39.658543,-15.521547,13.575924,-33.04742,-19.497017,-12.630263,-25.030914
174,-6.548953056335449,325.61346435546875,77.21388244628906,-4.0167334569832285,4.812571785087247,-84.98823665045616,0.22213872,5.675668,-14.950974,72.74841,0.35552773,-13.992507,-22.37018,1.9561776,-15.314602,33.63059,-9.675574,-4.283235,-17.697708,2.1429722,10.486547,-24.127024,19.481516,-22.104738,-34.93432,24.15614,-11.33708,21.234314,40.576313,-15.029259,13.003296,-32.774467,-19.705963,-12.754749,-24.91158
175,-6.472591400146484,327.3892517089844,77.86000061035156,-3.8358451221260847,5.486872124811886,-85.05572306221679,0.5871938,5.3514047,-14.691168,69.207436,0.75631505,-14.100003,-23.211378,1.9216894,-14.954222,29.999691,-5.4074445,-4.2744923,-17.992899,2.0168407,10.195064,-25.896309,19.987473,-22.949871,-34.954105,23.76452,-10.9228735,20.316763,41.338413,-14.464289,12.408899,-32.52865,-19.838615,-12.861238,-24.755144
176,-6.355167388916016,329.17059326171875,78.47401428222656,-3.568723706768672,6.056449194944462,-85.14378183663003,1.0067879,4.7146387,-14.605198,65.74625,1.1244923,-14.260414,-23.79423,1.8832997,-14.4557905,26.330862,-1.282648,-3.5361187,-18.19074,1.8137778,10.008633,-27.24281,20.481018,-23.726652,-35.01459,23.429787,-10.633201,19.554476,41.946857,-13.86754,11.876137,-32.388927,-19.869326,-12.920585,-24.568356
177,-6.188631534576416,330.9624328613281,79.03294372558594,-3.1229087989940183,6.487133450576869,-85.21220847435598,1.5444415,3.5693147,-14.813457,62.310154,1.4263242,-14.462342,-23.891731,1.7803689,-13.560387,22.005901,3.0787022,-1.5493761,-18.34384,1.4756254,9.963545,-28.12079,20.95693,-24.382248,-35.16665,23.093615,-10.556566,18.93441,42.458797,-13.258307,11.385671,-32.426147,-19.787863,-12.916989,-24.371243
178,-6.012223243713379,332.7372741699219,79.50585174560547,-2.4785680810360144,6.797310984610772,-85.27072743651891,2.1732068,1.974395,-15.243166,58.82081,1.7192922,-14.694709,-23.530283,1.44205,-12.139955,17.086697,7.600723,1.3960164,-18.430962,0.9849088,10.04123,-28.613894,21.422724,-24.960712,-35.40606,22.678032,-10.625488,18.377636,42.87519,-12.642687,10.900727,-32.611225,-19.602211,-12.863498,-24.163956
179,-5.835999965667725,334.5115051269531,79.9029541015625,-1.7870625204211303,7.018234278259818,-85.36652908863171,2.8245106,0.29181418,-15.739575,55.378803,2.085456,-14.949655,-23.053495,0.8188214,-10.573984,12.798427,11.354749,4.4429336,-18.400745,0.43941852,10.181127,-28.792374,21.875051,-25.470686,-35.581528,22.356043,-10.702464,17.944834,43.12377,-12.05322,10.474066,-32.888744,-19.31013,-12.773025,-23.926867
180,-5.707343578338623,336.3087463378906,80.26710510253906,-1.3085547616826916,7.220889388182653,-85.59258879724872,3.357752,-0.98750955,-16.02733,52.143085,2.5708277,-15.000033,-22.945515,0.1410667,-9.468889,10.445052,13.566674,6.6896296,-18.171068,0.060611356,10.3233595,-28.708195,22.30169,-25.910618,-35.55556,22.312977,-10.654689,17.70019,43.1181,-11.544837,10.154724,-33.18908,-18.903759,-12.657286,-23.643148
181,-5.578367233276367,338.0956726074219,80.56550598144531,-1.151766825731004,7.455830467831586,-86.04055267332032,3.716281,-1.758662,-16.044518,49.121502,3.231066,-15.000033,-23.518993,-0.4007705,-9.143561,10.629122,13.805768,7.8955274,-17.666018,-0.033478193,10.440497,-28.33206,22.69709,-26.265509,-35.282555,22.677708,-10.482664,17.775566,42.83634,-11.159113,9.961812,-33.544075,-18.266953,-12.479529,-23.275099
182,-5.444583892822266,339.8752136230469,80.78634643554688,-1.2339965302097173,7.702380258608344,-86.66199634271574,3.937092,-2.2321932,-15.9203415,46.278236,4.005006,-15.000033,-24.531519,-0.8210157,-9.382394,12.60475,12.637942,8.49907,-16.950777,0.10064974,10.555599,-27.621689,23.06188,-26.51568,-34.846478,23.336432,-10.24577,18.094616,42.326603,-10.907413,9.875623,-33.979416,-17.429417,-12.237423,-22.857903
183,-5.336188316345215,341.6404113769531,80.93614196777344,-1.4636644611745335,7.925779839091727,-87.38136448249196,4.0344386,-2.4930573,-15.654612,43.666687,4.7890778,-15.000033,-25.826488,-1.1953813,-9.927003,15.973635,10.735267,8.637925,-16.10844,0.35603437,10.660841,-26.635221,23.391157,-26.644987,-34.284306,24.087585,-9.905129,18.408297,41.598488,-10.80043,9.874808,-34.401268,-16.5997,-11.998656,-22.480635
184,-5.224308967590332,343.41290283203125,81.01663208007812,-1.7227955977015053,8.080627162925522,-88.10827766509311,4.0349097,-2.6411512,-15.253905,41.335377,5.483566,-15.000033,-27.216148,-1.6320447,-10.497378,20.322107,8.764384,8.453252,-15.236467,0.59951717,10.761032,-25.413628,23.672096,-26.645899,-33.649094,24.751608,-9.42782,18.468039,40.661694,-10.847869,9.939968,-34.721867,-15.984754,-11.836714,-22.228401
185,-5.120143890380859,345.1843566894531,81.03560638427734,-1.9260180889697702,8.130911942678805,-88.85208946828432,3.9765196,-2.727476,-14.605484,39.14867,6.3824596,-15.000033,-28.73812,-2.309336,-11.090105,25.98132,6.685464,7.7947283,-14.319008,0.7309314,10.847516,-23.911213,23.883116,-26.484463,-32.905643,25.338778,-8.684811,18.123842,39.473145,-11.068273,10.112152,-34.913883,-15.608943,-11.800519,-22.160936
186,-5.026298522949219,346.93408203125,80.97456359863281,-2.0582555342509004,8.074501748546119,-89.60547664805519,3.876159,-2.7917302,-13.755636,37.107117,7.452465,-15.000033,-30.299568,-3.3190298,-11.739078,32.816658,4.2893686,6.5971975,-13.370144,0.74835944,10.928385,-22.10944,24.015877,-26.171808,-32.0428,25.939291,-7.739624,17.527805,38.051952,-11.464399,10.406447,-35.03414,-15.363422,-11.842388,-22.226404
187,-4.959824085235596,348.66033935546875,80.83820343017578,-2.1839143040434745,7.941782367064279,-90.28651073187172,3.6858833,-2.813124,-12.924316,35.500523,8.07515,-15.000033,-31.60072,-4.476383,-12.28367,39.809757,1.9549236,5.1504593,-12.485426,0.7483172,11.034175,-20.134232,24.086504,-25.764645,-31.119778,26.459007,-6.850563,16.89248,36.49529,-12.007904,10.749432,-35.11477,-15.259591,-11.894982,-22.335855
188,-4.896635055541992,350.3685607910156,80.6529312133789,-2.410686840677934,7.777101324738945,-90.84035739508639,3.321668,-2.7106397,-12.301386,34.660217,7.6060753,-15.000033,-32.476303,-5.468574,-12.643968,46.17636,-0.007410137,3.8036442,-11.723591,0.86425847,11.188262,-18.115229,24.125185,-25.332468,-30.197956,26.796982,-6.2691174,16.44127,34.893333,-12.6522455,11.056672,-35.176613,-15.316835,-11.892779,-22.391115
189,-4.793232440948486,352.0623779296875,80.42695617675781,-2.5923482226946093,7.550330953015154,-91.27636586380626,2.7940147,-2.5192118,-11.348375,34.66462,5.824396,-13.326474,-33.051723,-6.318753,-12.589153,52.200577,-1.6554387,2.7222435,-11.058952,0.9443657,11.388221,-16.082306,24.147715,-24.88987,-29.24323,26.840366,-6.0577407,16.163746,33.23141,-13.368306,11.314082,-35.17945,-15.679858,-11.822397,-22.341564
190,-4.703107833862305,353.77239990234375,80.10499572753906,-2.635025710079613,7.24428084217724,-91.62946963439173,2.172437,-2.3514998,-9.941071,35.284275,3.0839076,-9.706106,-33.449593,-7.1849375,-12.141719,58.320503,-3.1742935,1.7704585,-10.445137,0.8812892,11.618654,-13.967842,24.15227,-24.421291,-28.25161,26.663616,-6.0773315,15.976353,31.459494,-14.148463,11.564967,-35.107166,-16.302345,-11.722589,-22.233324
191,-4.65013313293457,355.49981689453125,79.69143676757812,-2.6683239911845273,6.910345979277143,-91.89776162319492,1.4821244,-2.2099798,-8.665986,36.2797,-0.28369424,-6.0343513,-33.585274,-7.9877887,-11.60035,64.18805,-4.50607,0.8971648,-9.892402,0.81597453,11.87271,-11.767016,24.14895,-23.949791,-27.320553,26.43589,-6.2768254,15.992573,29.618877,-14.976193,11.806867,-35.018467,-16.919348,-11.605841,-22.113716
192,-4.6003522872924805,357.198486328125,79.22396087646484,-2.6916195101903657,6.578371007812531,-92.08317196025845,0.80133903,-2.1033049,-7.635061,37.246605,-3.8151271,-3.1893978,-33.431656,-8.814358,-11.12151,69.602325,-5.6685762,0.07339091,-9.403347,0.7625907,12.139678,-9.476419,24.154484,-23.502329,-26.54648,26.328768,-6.606087,16.327436,27.751936,-15.829016,12.033312,-34.974014,-17.267786,-11.483169,-22.02834
193,-4.548372745513916,358.8807678222656,78.7142562866211,-2.7320815655821478,6.238762260477438,-92.17936128965391,0.16038126,-1.9360452,-6.7717237,38.16399,-7.6562386,-1.3580259,-32.967987,-9.665278,-10.75068,74.59864,-6.7428374,-0.704733,-8.972331,0.7365137,12.432404,-7.1171103,24.18502,-23.112576,-25.913847,26.408272,-7.1669188,17.158892,25.84369,-16.70003,12.241999,-34.960285,-17.214682,-11.36925,-21.947075
194,-4.485589027404785,360.5581359863281,78.18592834472656,-2.785565136351543,5.882040833177307,-92.18970398063097,-0.4947617,-1.716299,-6.0232663,39.211803,-11.947319,-0.06318934,-32.21825,-10.501982,-10.414806,79.304214,-7.7150364,-1.4188379,-8.594722,0.7223544,12.751401,-4.682526,24.244999,-22.762268,-25.386993,26.585693,-7.945001,18.383205,23.872736,-17.58635,12.4396715,-34.944393,-16.924982,-11.254911,-21.856491
195,-4.414748191833496,362.2318115234375,77.64160919189453,-2.8042820343790815,5.536171993372821,-92.13025859805049,-1.2185571,-1.5553204,-5.435028,40.27898,-16.20878,0.8527793,-31.223497,-11.374398,-10.091223,83.63718,-8.456545,-2.0826104,-8.271656,0.6847176,13.069699,-2.1348193,24.331423,-22.403494,-25.032887,26.791193,-8.7167,19.691551,21.870466,-18.46775,12.629691,-34.95912,-16.58435,-11.115779,-21.825304
196,-4.356170177459717,363.88763427734375,77.09855651855469,-2.741742941265375,5.228511957942024,-92.01680441676326,-2.0591888,-1.5630628,-5.052987,41.244534,-19.956022,1.5446473,-30.024817,-12.32877,-9.766112,87.49421,-8.831561,-2.7070637,-7.9992294,0.58786273,13.360377,0.5563765,24.4357,-21.99532,-24.910559,26.937183,-9.262564,20.769474,19.866226,-19.31296,12.813605,-35.029114,-16.380178,-10.928763,-21.9193
197,-4.301438331604004,365.5404968261719,76.57485961914062,-2.602747408036312,4.963189822496159,-91.8007921992433,-3.0731595,-1.7508951,-4.951688,42.13995,-23.142134,1.9309443,-28.602863,-13.401586,-9.5008955,90.888725,-8.656262,-3.317638,-7.835531,0.41994295,13.631387,3.4234095,24.554016,-21.51375,-25.05211,27.018581,-9.48378,21.557055,17.772572,-20.10564,13.017352,-35.103546,-16.42293,-10.653475,-22.233349
198,-4.252615451812744,367.1676025390625,76.08082580566406,-2.4051842361536524,4.722766850158368,-91.49114886096699,-4.2238255,-2.0437028,-5.029652,43.01193,-26.005386,1.9786043,-26.94203,-14.557486,-9.304111,93.86792,-8.042008,-3.8952196,-7.757925,0.18949904,13.8893,6.4334636,24.686535,-20.990099,-25.405653,27.065434,-9.512691,22.209618,15.589953,-20.843552,13.2390375,-35.164047,-16.59727,-10.313237,-22.699286
199,-4.195205211639404,368.7639465332031,75.62071990966797,-2.125074594346953,4.502631626732698,-91.19070620093008,-5.406019,-2.4266644,-5.09202,43.74085,-28.479053,1.9080894,-25.108984,-15.726904,-9.085303,96.37953,-7.282697,-4.3778653,-7.6268687,-0.101737924,14.104497,9.493979,24.824059,-20.487175,-25.876356,27.034584,-9.480367,22.734465,13.488623,-21.512032,13.421681,-35.28342,-16.75335,-9.98376,-23.137333
200,-4.136277198791504,370.3169250488281,75.21077728271484,-1.7428198584087211,4.301355551367348,-91.00441853539007,-6.5100403,-2.88553,-4.964999,44.194435,-30.484785,1.9381324,-23.180292,-16.836767,-8.753253,98.37168,-6.6736965,-4.701498,-7.289241,-0.44208091,14.243624,12.484907,24.951157,-20.088602,-26.34281,26.891088,-9.517521,23.139128,11.648648,-22.08751,13.491827,-35.535927,-16.746943,-9.745286,-23.368044
201,-4.0658721923828125,371.829345703125,74.8693618774414,-1.215104396549209,4.1221255318516326,-90.95523320703867,-7.4585943,-3.4636776,-4.579097,44.21653,-32.03157,2.149332,-21.166788,-17.905088,-8.23786,99.87021,-6.23826,-4.8315344,-6.708006,-0.86181754,14.293894,15.414635,25.05086,-19.822346,-26.776764,26.574646,-9.640479,23.383589,10.132803,-22.535793,13.363,-35.99101,-16.533014,-9.638181,-23.260063
202,-4.0279741287231445,373.302734375,74.6005859375,-0.5715955351536988,3.9664654556092285,-90.99208609603325,-8.311302,-4.1438484,-4.0305157,43.894905,-33.146843,2.4096835,-19.045763,-18.95224,-7.624593,100.8969,-5.8257375,-4.8025603,-5.9419208,-1.3477958,14.265532,18.275562,25.12322,-19.681892,-27.17405,26.130531,-9.784672,23.474266,8.830182,-22.849566,13.076468,-36.555294,-16.20332,-9.616947,-22.928465
203,-3.9888038635253906,374.7451477050781,74.40882110595703,0.09541979249257938,3.8328356615132297,-91.10898187451056,-9.176432,-4.8192506,-3.4051256,43.480125,-33.78187,2.627431,-16.85371,-19.91318,-7.049081,101.40152,-5.4744544,-4.6605797,-4.993822,-1.8202573,14.165031,20.944536,25.185623,-19.679691,-27.475082,25.682884,-9.959742,23.486814,7.6610174,-23.060553,12.75538,-37.068134,-15.817695,-9.633441,-22.566666
204,-3.9524083137512207,376.1575012207031,74.30113220214844,0.6973601678916802,3.720082062450284,-91.29900874805584,-10.176103,-5.3804336,-2.7889092,43.240047,-33.890404,2.7207232,-14.630416,-20.726927,-6.6372137,101.33913,-5.226607,-4.458491,-3.871996,-2.1988394,14.003999,23.32256,25.26256,-19.811743,-27.656523,25.351929,-10.175889,23.50008,6.5686665,-23.224854,12.521044,-37.41001,-15.427712,-9.639429,-22.37327
205,-3.9198155403137207,377.541748046875,74.27655029296875,1.2447300699663189,3.635880818145705,-91.60718943622508,-11.404647,-5.817485,-2.1393704,43.344448,-33.39639,2.6964202,-12.380298,-21.38062,-6.347417,100.69418,-5.237918,-4.195922,-2.5179594,-2.4774847,13.754991,25.398947,25.376556,-20.100803,-27.721329,25.153515,-10.463062,23.533894,5.59306,-23.379227,12.382734,-37.59662,-15.023496,-9.639556,-22.45462
206,-3.9063737392425537,378.91015625,74.34437561035156,1.774916554351613,3.582341217690089,-92.02032713269686,-12.787915,-6.174782,-1.4320599,43.62965,-32.34867,2.6020188,-10.095198,-21.918251,-6.1326795,99.50631,-5.4411597,-3.8614857,-0.95739377,-2.6942055,13.432143,27.25007,25.529936,-20.524273,-27.724642,25.02087,-10.8049555,23.55163,4.773928,-23.528042,12.274347,-37.72595,-14.572075,-9.6517935,-22.701025
207,-3.9248387813568115,380.2676086425781,74.50618743896484,2.23962800745653,3.548262100944794,-92.44504751605643,-14.195001,-6.426724,-0.78653824,43.856945,-30.88205,2.414664,-7.792052,-22.35209,-6.099354,97.81303,-5.5496154,-3.4878778,0.6725338,-2.8313124,13.103254,28.920622,25.709805,-20.996685,-27.735527,24.952087,-11.145241,23.545952,4.059454,-23.68299,12.207396,-37.810696,-14.088836,-9.649207,-22.986416
208,-3.9570693969726562,381.62451171875,74.76229095458984,2.5882814789507234,3.5204353311203977,-92.78940438266437,-15.493612,-6.552794,-0.32739738,43.785824,-29.129652,2.1026947,-5.490942,-22.675299,-6.3514066,95.65111,-5.2766633,-3.102628,2.2266223,-2.8613482,12.831406,30.466665,25.892067,-21.419767,-27.824629,24.947046,-11.430547,23.505503,3.3864233,-23.858702,12.20892,-37.852478,-13.588766,-9.60168,-23.188437
209,-4.001889228820801,382.9749450683594,75.10061645507812,2.789063611108108,3.4927540166936994,-93.04248610691259,-16.63984,-6.528067,-0.12671211,43.343563,-27.098078,1.6119993,-3.1377664,-22.936079,-7.014389,92.9223,-4.5752754,-2.7160723,3.7058816,-2.7331724,12.614602,31.868944,26.0706,-21.778254,-27.995935,25.067358,-11.636672,23.398464,2.7671478,-24.066732,12.301808,-37.845467,-13.0726795,-9.484543,-23.29822
210,-4.054302215576172,384.3392028808594,75.51509094238281,2.8715604299112867,3.47257331507503,-93.24989860562937,-17.704693,-6.373647,-0.13493666,42.65625,-24.728153,0.9608429,-0.7389175,-23.07269,-7.986486,89.65235,-3.601001,-2.293366,5.1660013,-2.4661589,12.412193,33.12004,26.24445,-22.10571,-28.223547,25.296103,-11.798394,23.237116,2.2270305,-24.310251,12.472109,-37.801983,-12.530392,-9.317049,-23.379168
211,-4.104032516479492,385.7210998535156,75.98468017578125,2.8770966057866865,3.464819895563855,-93.40390613798044,-18.731081,-6.1445146,-0.29174557,41.789413,-22.053553,0.2259919,1.5894924,-22.93241,-9.013689,86.05587,-2.3780253,-1.802845,6.542887,-2.13125,12.232128,34.2932,26.38939,-22.377003,-28.53397,25.518204,-11.952956,23.072824,1.722851,-24.589487,12.697538,-37.74851,-11.962505,-9.133081,-23.417662
212,-4.1656341552734375,387.1236572265625,76.50718688964844,2.8499465404519095,3.4741781708144823,-93.49586270642202,-19.761387,-5.9031963,-0.52549106,40.803432,-19.09507,-0.5081675,3.7224393,-22.402906,-9.825939,82.335144,-0.9316084,-1.2355939,7.7644014,-1.7990427,12.088243,35.459476,26.46609,-22.565163,-28.941977,25.62248,-12.138009,22.953531,1.1980298,-24.903254,12.966938,-37.70165,-11.371179,-8.966326,-23.398972
213,-4.234447956085205,388.55389404296875,77.06786346435547,2.7986130457215515,3.500131650905294,-93.51913639044757,-20.789919,-5.6707487,-0.83680516,39.671402,-15.782444,-1.2049874,5.6382694,-21.490545,-10.378323,78.42566,0.886111,-0.6032442,8.797978,-1.4721974,11.997466,36.637016,26.439114,-22.646412,-29.433842,25.593939,-12.393456,22.910755,0.5752736,-25.269234,13.329005,-37.643173,-10.676473,-8.8130665,-23.270994
214,-4.300398826599121,390.010986328125,77.64329528808594,2.7008381099595455,3.539325556758653,-93.47762926919498,-21.80064,-5.429535,-1.2719073,38.375767,-12.1242285,-1.9133943,7.3945384,-20.27551,-10.753703,74.26014,3.008126,0.07642872,9.668473,-1.1052679,11.948874,37.77844,26.29522,-22.639751,-29.983925,25.498066,-12.692903,22.905006,-0.11115035,-25.693289,13.793013,-37.563972,-9.902654,-8.655135,-23.06254
215,-4.379756927490234,391.5019836425781,78.23028564453125,2.5577519102933497,3.5914187530449855,-93.3779948690348,-22.819233,-5.1865325,-1.8190191,36.990387,-8.249808,-2.6775491,8.985003,-18.797356,-10.878894,70.030754,5.0971,0.78617615,10.395021,-0.70526767,11.923096,38.846275,26.035753,-22.585884,-30.583017,25.342148,-12.973374,22.878529,-0.7504983,-26.146769,14.279205,-37.48186,-9.213407,-8.508692,-22.871105
216,-4.480862140655518,392.99920654296875,78.79037475585938,2.373388890526004,3.6558491780905538,-93.22714719041913,-23.866495,-4.944478,-2.4727445,35.5835,-4.284685,-3.5523734,10.411025,-17.089725,-10.703915,65.91653,6.834943,1.5083103,11.002504,-0.29122704,11.901632,39.80946,25.677711,-22.523907,-31.235144,25.132908,-13.169746,22.774828,-1.232159,-26.58316,14.696767,-37.4065,-8.777733,-8.395038,-22.783417
217,-4.602688789367676,394.5151672363281,79.32412719726562,2.1042094704765715,3.7363738181010215,-93.01308272500239,-24.919275,-4.6826315,-3.3481877,33.952374,0.00669872,-4.5303793,11.701335,-15.004504,-10.169298,61.833397,8.247404,2.2873302,11.493669,0.14868553,11.881235,40.729633,25.231619,-22.437262,-31.97917,24.829273,-13.255222,22.60319,-1.5358653,-26.970346,15.032925,-37.34024,-8.7225895,-8.320894,-22.823513
218,-4.756946086883545,396.03253173828125,79.8133316040039,1.7726737457390978,3.829600878898552,-92.7330600271959,-25.964529,-4.4164057,-4.454667,32.123146,4.6089215,-5.6285686,12.8760395,-12.63264,-9.315903,57.712997,9.46636,3.085269,11.854241,0.59604055,11.878619,41.613922,24.70394,-22.305315,-32.813786,24.441587,-13.264271,22.389029,-1.7382878,-27.306253,15.328002,-37.24964,-8.941503,-8.27743,-22.927422
219,-4.924237251281738,397.5631103515625,80.25358581542969,1.4768494384378146,3.925038359777165,-92.41562195518569,-27.027166,-4.200483,-5.6095023,30.49572,9.015787,-6.931962,13.924947,-10.330427,-8.279187,53.742092,10.370166,3.7755816,12.095383,0.9924862,11.906822,42.353264,24.114466,-22.162134,-33.6857,24.0522,-13.222512,22.100899,-1.8582487,-27.587946,15.561033,-37.10638,-9.250475,-8.263738,-23.053263
220,-5.10883092880249,399.0998840332031,80.629638671875,1.3094855982320954,4.013402657715652,-92.0883213954369,-28.147123,-4.0995746,-6.5957274,29.481314,12.721166,-8.500079,14.816316,-8.408323,-7.219219,50.12201,10.8462105,4.258761,12.235576,1.2829545,11.97615,42.835373,23.494965,-22.044245,-34.54232,23.740824,-13.155034,21.70826,-1.9028028,-27.815193,15.701388,-36.89548,-9.464623,-8.280617,-23.157309
221,-5.281447410583496,400.6593322753906,80.94134521484375,1.2992017628453323,4.098504037382701,-91.73216288833726,-29.290018,-4.171695,-7.4240594,28.915028,15.809121,-10.625486,15.534467,-6.814274,-6.0736713,46.876286,10.763065,4.5725527,12.274734,1.4331883,12.104643,43.07917,22.868395,-21.93835,-35.440033,23.492157,-13.045798,21.14613,-1.8289711,-27.981516,15.7004795,-36.67198,-9.561299,-8.363203,-23.210674
222,-5.433032512664795,402.24371337890625,81.1890640258789,1.400536831654997,4.185079115972299,-91.3436063621129,-30.470394,-4.3954134,-8.171898,28.708181,18.455133,-13.188422,16.098614,-5.387668,-4.821988,43.891605,10.243675,4.7822638,12.220932,1.4676416,12.283718,43.140583,22.24499,-21.828907,-36.40418,23.269619,-12.885591,20.456121,-1.6319314,-28.084383,15.570452,-36.436543,-9.630182,-8.500492,-23.240833
223,-5.558112621307373,403.8385925292969,81.381103515625,1.6135875439554452,4.265013122139854,-90.96297394321577,-31.826351,-4.651018,-8.374322,29.390104,20.320148,-15.000033,16.499172,-4.2690606,-3.6983888,41.192425,9.542356,4.8674407,12.095579,1.409592,12.485435,42.96304,21.637018,-21.749815,-37.340824,23.119328,-12.712061,19.766094,-1.3681953,-28.13148,15.370629,-36.09328,-9.652387,-8.624937,-23.292326
224,-5.630106449127197,405.42401123046875,81.5057601928711,2.0197095784699117,4.309082259522571,-90.61658486517724,-33.419075,-4.8005958,-7.4290137,31.3449,21.174278,-15.000033,16.721466,-3.699217,-2.9410458,38.874763,8.855521,4.8304873,11.905608,1.2080703,12.7208395,42.488407,21.055246,-21.735771,-38.15359,23.085995,-12.564326,19.203814,-1.0872262,-28.137852,15.157613,-35.55597,-9.607878,-8.669059,-23.41038
225,-5.707551956176758,407.0135498046875,81.56224822998047,2.324204620549586,4.39521296516174,-90.33172912455505,-35.574207,-4.821025,-6.3962464,35.338104,20.385632,-15.000033,16.658012,-3.365917,-2.632613,36.812794,8.325104,4.4722514,11.695261,1.1356857,12.84496,41.66347,20.512661,-21.838415,-38.815903,23.18316,-12.438018,18.798489,-0.750216,-28.121187,14.936623,-34.876026,-9.459494,-8.608884,-23.649767
226,-5.788092136383057,408.605712890625,81.55584716796875,2.5491118860768003,4.49952363635969,-90.10682760123835,-38.096252,-4.6707244,-5.306362,40.86083,18.306324,-15.000033,16.347929,-3.1856093,-2.6306493,34.98852,7.8209906,3.8791764,11.47646,1.1685411,12.907103,40.540386,20.011335,-22.02262,-39.39601,23.38185,-12.318039,18.487131,-0.31556898,-28.086681,14.664443,-34.10646,-9.222481,-8.482841,-23.977648
227,-5.872128009796143,410.2055969238281,81.48507690429688,2.6740049112491557,4.585608016379342,-89.98599367545557,-40.660534,-4.298917,-4.329383,47.120945,15.791381,-15.000033,15.872529,-3.077776,-2.9063501,33.39559,7.364056,3.2265747,11.267035,1.3097237,12.961552,39.21285,19.538506,-22.187727,-39.927338,23.663372,-12.229255,18.255932,0.15351157,-28.024193,14.33854,-33.137802,-8.960242,-8.3169985,-24.306936
228,-5.926226615905762,411.8095397949219,81.35385131835938,2.7666613069923565,4.616514040900419,-89.9831857710207,-42.970913,-3.5604384,-3.127055,53.362183,13.707358,-14.177295,15.305507,-3.0896375,-3.4470456,32.08104,6.9409213,2.7059224,11.042132,1.4803853,13.075259,37.77342,19.07081,-22.226625,-40.43383,24.012247,-12.197907,18.087729,0.566374,-27.909506,13.975597,-31.84039,-8.7408,-8.136317,-24.548178
229,-5.957997798919678,413.42425537109375,81.16248321533203,2.751255169363565,4.594197783226272,-90.11114916624496,-45.04389,-2.4874356,-2.0054572,59.73705,12.192799,-13.16832,14.60239,-3.243676,-4.498003,30.945894,6.925402,2.3285532,10.795508,1.7558103,13.230924,36.192738,18.578306,-22.123537,-40.87002,24.49996,-12.245955,17.96594,0.9018637,-27.717945,13.576709,-30.165123,-8.584474,-7.993001,-24.686764
230,-5.972078323364258,415.0185546875,80.90929412841797,2.6217495780783735,4.535683470414484,-90.35747131885763,-46.979687,-1.0938756,-1.0203876,66.53311,10.803827,-12.019816,13.755578,-3.5324297,-5.9910755,30.007402,7.189965,1.9910852,10.5165415,2.1427486,13.398424,34.43796,18.053705,-21.906944,-41.218403,25.118097,-12.357373,17.896152,1.1632048,-27.444645,13.168527,-28.142677,-8.465325,-7.8591704,-24.759487
231,-6.009455680847168,416.6028137207031,80.61177062988281,2.4884724178078144,4.451544021454216,-90.71460629643622,-48.657654,0.47169444,-0.18239212,73.3143,9.503333,-10.743826,12.852912,-3.8857589,-7.437741,29.438948,7.039043,1.6714064,10.191307,2.5017328,13.593705,32.592773,17.518255,-21.544996,-41.551094,25.729563,-12.498889,17.89463,1.2957717,-27.09626,12.801102,-25.761452,-8.379609,-7.638465,-24.754799
232,-6.135584354400635,418.14794921875,80.31241607666016,2.470941384676866,4.35320629995777,-91.16581939889838,-49.98603,2.0136352,0.5272857,79.697296,8.238988,-9.380589,11.9751425,-4.229125,-8.346496,29.412573,5.7722836,1.3572615,9.805387,2.6836283,13.832314,30.742575,17.012674,-21.01738,-41.948135,26.190084,-12.636188,17.979746,1.2551028,-26.68522,12.513431,-23.010738,-8.323259,-7.234075,-24.664454
233,-6.221609115600586,419.7454528808594,79.88370513916016,2.653245264935454,4.24606098646702,-91.77974576429537,-50.957047,3.4657736,1.2011565,85.73707,6.9758496,-7.9156227,11.048779,-4.6180296,-8.499745,30.307047,2.8839452,0.976083,9.389124,2.5851824,14.135403,28.954329,16.560495,-20.309673,-42.495544,26.502491,-12.767441,18.180023,0.99221,-26.207388,12.30625,-19.792704,-8.327526,-6.542737,-24.434673
234,-6.285806655883789,421.345703125,79.36161804199219,2.9492049202559945,4.122300871062501,-92.53143682293148,-51.608723,4.869533,1.8044416,91.635796,5.735273,-6.3827043,10.022782,-5.0388923,-8.165665,31.9891,-1.1783812,0.54731035,8.941866,2.3106854,14.484705,27.164816,16.169502,-19.451866,-43.139202,26.722397,-12.905222,18.48309,0.56180656,-25.65873,12.145986,-16.152279,-8.390723,-5.6437473,-24.086617
235,-6.350893497467041,422.9013366699219,78.8171157836914,3.2340750350003975,3.9764156242481077,-93.26423990560181,-51.939526,6.1593275,2.2009723,97.23688,4.551576,-4.9125285,9.023482,-5.329521,-7.5994654,33.825855,-5.674499,0.19807734,8.413576,2.0137045,14.83621,25.26273,15.86603,-18.506643,-43.74862,26.784374,-13.0372715,18.846712,0.1028837,-25.059921,12.002687,-12.325532,-8.452548,-4.711976,-23.733751
236,-6.456918239593506,424.4422912597656,78.2519302368164,3.4006716150960945,3.8056046896623186,-93.82846749678764,-51.967026,7.2930355,2.3235314,102.36912,3.4636948,-3.581984,8.194043,-5.383256,-7.0814996,35.13881,-9.849413,0.0581916,7.767347,1.8314229,15.15164,23.149467,15.689767,-17.538761,-44.215736,26.618952,-13.152327,19.231335,-0.22523166,-24.448023,11.834837,-8.565233,-8.4387045,-3.9198632,-23.50008
237,-6.591407299041748,425.96697998046875,77.6854476928711,3.4506165013463255,3.5905737565598845,-94.21154592730117,-51.663933,8.279596,2.18163,107.04101,2.4780989,-2.4236152,7.596459,-5.1975884,-6.57164,35.764645,-13.651427,0.27369478,6.9920835,1.7675246,15.449339,20.76934,15.687829,-16.582909,-44.55148,26.019758,-13.241136,19.677633,-0.44513807,-23.839767,11.645557,-4.74161,-8.254488,-3.2746627,-23.362501
238,-6.731525897979736,427.45770263671875,77.14197540283203,3.443149846397328,3.341675630610768,-94.4828015100494,-51.047752,9.101261,1.8453248,111.34652,1.5791332,-1.4134619,7.139809,-4.861674,-5.9975767,36.064835,-17.449148,0.7185402,6.135805,1.7484517,15.746046,18.19649,15.875688,-15.635593,-44.828712,25.075575,-13.313684,20.203764,-0.5591825,-23.235107,11.414122,-0.8390813,-7.947037,-2.696233,-23.284775
