unveil-humanoid-operators/unveil-humanoid-operators.github.io/feature-analysis-animation/data/feature_matrix_instances/age_ankle_rom_jogging_A026_jog_sideway_045_loop_003__A026.csv
Frame,root_translateX,root_translateY,root_translateZ,root_rotateX,root_rotateY,root_rotateZ,left_hip_pitch_joint_dof,left_hip_roll_joint_dof,left_hip_yaw_joint_dof,left_knee_joint_dof,left_ankle_pitch_joint_dof,left_ankle_roll_joint_dof,right_hip_pitch_joint_dof,right_hip_roll_joint_dof,right_hip_yaw_joint_dof,right_knee_joint_dof,right_ankle_pitch_joint_dof,right_ankle_roll_joint_dof,waist_yaw_joint_dof,waist_roll_joint_dof,waist_pitch_joint_dof,left_shoulder_pitch_joint_dof,left_shoulder_roll_joint_dof,left_shoulder_yaw_joint_dof,left_elbow_joint_dof,left_wrist_roll_joint_dof,left_wrist_pitch_joint_dof,left_wrist_yaw_joint_dof,right_shoulder_pitch_joint_dof,right_shoulder_roll_joint_dof,right_shoulder_yaw_joint_dof,right_elbow_joint_dof,right_wrist_roll_joint_dof,right_wrist_pitch_joint_dof,right_wrist_yaw_joint_dof
0,-0.07512287050485611,1.8176538944244385,76.55801391601562,1.9631171579241982,5.167836503630836,-98.3535655328804,-10.035947,8.964052,11.274298,25.606804,-19.59736,-4.263009,-10.007402,-6.9624996,8.47109,11.942183,-11.278801,14.564819,-1.0532613,-1.2643287,1.4576602,-2.0819035,19.998367,-39.761734,56.398926,-6.8648705,9.142836,-1.6803042,-11.389414,-19.784393,42.282837,60.25823,4.7191916,6.2848,8.505926
1,-0.08071548491716385,1.829779863357544,76.55204772949219,1.94260955557319,5.167886110879743,-98.34542646732037,-10.129569,9.006962,11.254572,25.774664,-19.648169,-4.255389,-10.102335,-6.926255,8.457868,12.120801,-11.323014,14.566894,-1.0429635,-1.2400485,1.5187117,-2.0732405,20.013443,-39.662075,56.338413,-6.8702574,9.162695,-1.689627,-11.398567,-19.798569,42.25686,60.160366,4.75723,6.295798,8.500272
2,-0.08140412718057632,1.8429111242294312,76.54226684570312,1.9251553305402236,5.169881571806288,-98.33977608373058,-10.217984,9.046196,11.241096,25.932257,-19.694298,-4.2468567,-10.189192,-6.8940864,8.443821,12.2820425,-11.357754,14.578836,-1.0363648,-1.2177712,1.5731633,-2.0605586,20.023293,-39.552227,56.281445,-6.867238,9.185484,-1.7041223,-11.412824,-19.810808,42.24148,60.070526,4.8012104,6.3062577,8.496308
3,-0.08640259504318237,1.8602384328842163,76.53260040283203,1.9014362610763973,5.168087613785442,-98.32910859505989,-10.318919,9.093174,11.214512,26.114542,-19.748955,-4.2402277,-10.290525,-6.8536916,8.430881,12.474409,-11.409431,14.570803,-1.0334411,-1.1870313,1.6374109,-2.0546403,20.028763,-39.442524,56.232533,-6.8690805,9.198229,-1.710728,-11.431337,-19.820423,42.22228,59.98243,4.83908,6.3150187,8.489711
4,-0.08309651911258698,1.8824255466461182,76.52111053466797,1.862542142523339,5.156679587801728,-98.30589068595985,-10.451444,9.159122,11.155238,26.35967,-19.825472,-4.238458,-10.435212,-6.792329,8.421893,12.760501,-11.512411,14.512891,-1.0451965,-1.1354158,1.7339721,-2.0536027,20.033386,-39.31199,56.183388,-6.8711166,9.186554,-1.7012967,-11.467499,-19.832655,42.20406,59.888767,4.872258,6.3198204,8.479476
5,-0.0850418359041214,1.9113410711288452,76.50341033935547,1.7969210261302384,5.127959007935911,-98.26245057010844,-10.609282,9.256628,11.047121,26.661888,-19.921268,-4.2525578,-10.616583,-6.695775,8.415366,13.137352,-11.676502,14.36951,-1.0636194,-1.0568336,1.8667781,-2.071557,20.03568,-39.189537,56.15031,-6.878981,9.136196,-1.6643125,-11.506434,-19.841543,42.163387,59.784405,4.889585,6.3211627,8.46112
6,-0.08697674423456192,1.9457511901855469,76.4795150756836,1.7127565444664998,5.0871920718899295,-98.20479987549214,-10.784916,9.37516,10.904373,27.003914,-20.030212,-4.27774,-10.8245535,-6.574989,8.410778,13.579602,-11.884059,14.165877,-1.0851613,-0.95979404,2.0225685,-2.1056488,20.036295,-39.0826,56.13215,-6.899283,9.058399,-1.6062291,-11.546756,-19.846142,42.109013,59.67553,4.898421,6.31995,8.435818
7,-0.0836172103881836,1.9890460968017578,76.47062683105469,1.6309784874712754,5.047635680573975,-98.14550266444381,-10.997258,9.491751,10.753024,27.409233,-20.16179,-4.293427,-11.077445,-6.455395,8.411831,14.103582,-12.120465,13.962863,-1.108952,-0.8586658,2.1995368,-2.1424234,20.035704,-38.950264,56.106846,-6.92007,8.976809,-1.5456443,-11.605571,-19.852129,42.051254,59.56933,4.9007893,6.313072,8.412388
8,-0.07917720079421997,2.0344934463500977,76.44676971435547,1.573353460679236,5.022816292444645,-98.0970088493049,-11.263217,9.581895,10.61978,27.89698,-20.323532,-4.278988,-11.387708,-6.364344,8.421679,14.711769,-12.368576,13.822091,-1.1349097,-0.7654159,2.3817725,-2.1661792,20.030848,-38.776913,56.06083,-6.9521666,8.9142275,-1.4949473,-11.693022,-19.866747,42.02,59.478416,4.911372,6.297748,8.393855
9,-0.061895065009593964,2.084785223007202,76.40512084960938,1.5549246126697365,5.021540322008059,-98.07229312722446,-11.580597,9.622663,10.513691,28.448965,-20.502909,-4.2210436,-11.774078,-6.319485,8.456966,15.419419,-12.627447,13.76053,-1.1365607,-0.6897127,2.5525608,-2.1890044,20.018566,-38.610283,56.001568,-7.039517,8.87955,-1.4550653,-11.807935,-19.888561,42.029903,59.420654,4.953437,6.2686224,8.376093
10,0.005447933916002512,2.1385433673858643,76.35595703125,1.5614227853061933,5.034831929669249,-98.06140953933314,-11.94198,9.631439,10.42016,29.06154,-20.69971,-4.1333637,-12.22255,-6.303898,8.510521,16.21542,-12.904203,13.744808,-1.1531013,-0.60691303,2.7300115,-2.2017338,19.979649,-38.393738,55.932865,-7.1428094,8.857512,-1.4229357,-11.956168,-19.94765,42.107376,59.36162,5.031035,6.2330303,8.3612
11,0.05190207064151764,2.2007713317871094,76.30225372314453,1.5696394120894595,5.050336361060279,-98.04330212923666,-12.359223,9.646073,10.330809,29.778166,-20.941345,-4.037473,-12.714791,-6.2897773,8.553193,17.09974,-13.199957,13.75834,-1.1541626,-0.52442247,2.9157982,-2.234954,19.930038,-38.180298,55.883327,-7.247954,8.838917,-1.3852589,-12.091237,-20.014269,42.151108,59.29071,5.0905695,6.1941357,8.3507185
12,0.08515363931655884,2.2707560062408447,76.24018859863281,1.5558101004380385,5.05549435316636,-97.99656867834378,-12.8434725,9.704188,10.236451,30.641985,-21.25473,-3.955358,-13.233017,-6.2494173,8.554956,18.075327,-13.517778,13.78413,-1.1727309,-0.42766482,3.121486,-2.278651,19.871326,-37.928764,55.857452,-7.307484,8.812968,-1.3356946,-12.207434,-20.088303,42.147785,59.188034,5.1103206,6.159833,8.347795
13,0.10154775530099869,2.3492980003356934,76.16995239257812,1.51122927468589,5.044308124262876,-97.90800446301968,-13.4065,9.814566,10.141698,31.68718,-21.667833,-3.8613167,-13.76439,-6.1749372,8.487907,19.147123,-13.858002,13.835675,-1.215285,-0.31718573,3.3558223,-2.3267527,19.813757,-37.617435,55.849197,-7.295313,8.782235,-1.2758784,-12.284697,-20.150755,42.02899,59.040173,5.0190806,6.1376686,8.36313
14,0.12311320751905441,2.431597948074341,76.07040405273438,1.449108779040397,5.024314959912169,-97.79147106547578,-14.039008,9.954976,10.048926,32.88221,-22.158323,-3.7566285,-14.323407,-6.0846944,8.375256,20.317612,-14.221312,13.912806,-1.2767261,-0.1959076,3.6120822,-2.3811612,19.7495,-37.255352,55.85637,-7.235976,8.750553,-1.2093366,-12.343858,-20.210424,41.84049,58.86403,4.856222,6.122133,8.39185
15,0.17238816618919373,2.5235300064086914,75.94793701171875,1.3792959221039915,5.00370982750153,-97.66698848293805,-14.716243,10.113922,9.947382,34.163322,-22.673357,-3.704518,-14.930462,-5.9899173,8.263008,21.579851,-14.6078205,13.979359,-1.3436893,-0.073053785,3.8747165,-2.44397,19.687101,-36.89068,55.871807,-7.175215,8.711852,-1.1304915,-12.430419,-20.268785,41.696564,58.70768,4.7486954,6.0974455,8.411099
16,0.2540670931339264,2.6208763122558594,75.82014465332031,1.3123374337082023,4.990266260336737,-97.55404464062516,-15.416784,10.280356,9.827238,35.475014,-23.166151,-3.76845,-15.603961,-5.900284,8.197139,22.921635,-15.018029,14.002228,-1.4097964,0.045071,4.129458,-2.5125785,19.630455,-36.559853,55.887814,-7.1541314,8.659552,-1.0345645,-12.5860195,-20.341425,41.718258,58.608032,4.8236995,6.0494895,8.398844
17,0.3578980565071106,2.7208266258239746,75.6800765991211,1.237961811222961,4.98507159571313,-97.45532307352315,-16.150034,10.440789,9.632891,36.80384,-23.639374,-4.0230303,-16.356083,-5.797139,8.180899,24.35899,-15.459777,13.956606,-1.471132,0.17312716,4.3812666,-2.588259,19.582838,-36.277615,55.905807,-7.197037,8.579446,-0.93151706,-12.848872,-20.447525,42.039608,58.590042,5.2011657,5.961855,8.354798
18,0.4276226758956909,2.817783832550049,75.53003692626953,1.1569083826431428,4.984177860909906,-97.36107900859841,-16.922522,10.598349,9.392125,38.182655,-24.119812,-4.4198513,-17.173405,-5.682617,8.1925745,25.889559,-15.930884,13.86757,-1.5373137,0.31009886,4.638365,-2.6639962,19.544548,-36.013184,55.91741,-7.2745457,8.479211,-0.82159,-13.174725,-20.590054,42.56584,58.606632,5.7841415,5.8474436,8.291039
19,0.49531692266464233,2.9167938232421875,75.3757553100586,1.096410244163955,4.987987863809988,-97.27217465581359,-17.709879,10.77082,9.218362,39.621296,-24.592413,-4.83561,-18.03185,-5.593212,8.240564,27.466745,-16.404776,13.778545,-1.6122082,0.42464,4.8912416,-2.733968,19.51539,-35.75011,55.9085,-7.3526144,8.385044,-0.6840033,-13.489679,-20.756762,43.079082,58.59303,6.391608,5.7352023,8.203608
20,0.5550022721290588,3.035876512527466,75.20138549804688,1.0820503197079108,4.996810322102764,-97.18968692178707,-18.486727,10.982305,9.220061,41.12854,-25.03624,-5.143739,-18.908121,-5.562989,8.333126,29.045296,-16.854849,13.733283,-1.6964267,0.48423377,5.128022,-2.795765,19.495275,-35.4779,55.86981,-7.399877,8.3232565,-0.49720785,-13.724979,-20.927904,43.351326,58.496483,6.8326035,5.653224,8.086336
21,0.6359499096870422,3.1534156799316406,75.02400970458984,1.1212777101828668,5.018456170380413,-97.11173623177541,-19.266214,11.253843,9.448013,42.72082,-25.425186,-5.329456,-19.834082,-5.5943108,8.47599,30.669128,-17.283657,13.726228,-1.7859223,0.4784495,5.338627,-2.8467622,19.48409,-35.192074,55.78777,-7.4095955,8.311549,-0.2732398,-13.870558,-21.089317,43.297657,58.307087,7.045242,5.6126223,7.931
22,0.7369723320007324,3.2542266845703125,74.84750366210938,1.199653848490227,5.049866813122044,-97.03836396806938,-20.052317,11.574662,9.832897,44.38603,-25.773077,-5.4515743,-20.806808,-5.666039,8.663499,32.339775,-17.700333,13.743522,-1.8757521,0.42175913,5.528664,-2.8942761,19.48318,-34.909298,55.677876,-7.4027114,8.332352,-0.016616687,-13.9683485,-21.240536,43.03828,58.070934,7.1288266,5.5959353,7.741825
23,0.8652339577674866,3.3757243156433105,74.67601776123047,1.3095907707849173,5.075191978016717,-96.97377939396567,-20.806347,11.923729,10.300101,46.08795,-26.114286,-5.490477,-21.750101,-5.776978,8.88733,33.94828,-18.088509,13.815926,-1.9662367,0.32220587,5.7115993,-2.9453309,19.494383,-34.64297,55.56833,-7.383412,8.359658,0.30487597,-14.027876,-21.380177,42.65613,57.81242,7.1412516,5.589895,7.5301013
24,1.0266000032424927,3.483335256576538,74.48377990722656,1.4428545710772438,5.078785149241518,-96.92250434594611,-21.489422,12.278829,10.775616,47.78853,-26.482141,-5.4265947,-22.590748,-5.926607,9.138689,35.390957,-18.435295,13.972513,-2.056445,0.18838036,5.901238,-3.0072763,19.519842,-34.408123,55.486763,-7.355808,8.367134,0.72359794,-14.057754,-21.507137,42.233234,57.555187,7.1401434,5.580983,7.307257
25,1.2029956579208374,3.590707540512085,74.289794921875,1.6188935709395456,5.05648203937393,-96.87988012326406,-22.092365,12.655384,11.308852,49.524815,-26.921038,-5.1978927,-23.345566,-6.132657,9.437708,36.71354,-18.75854,14.244527,-2.1533296,0.0014714415,6.1013618,-3.0824971,19.564651,-34.20436,55.43369,-7.3015,8.343737,1.274256,-14.054304,-21.615656,41.73257,57.30587,7.124253,5.5714083,7.0845566
26,1.3214097023010254,3.7022299766540527,74.10587310791016,1.8331351288435118,5.016664018209537,-96.84577418872873,-22.631456,13.063057,11.911957,51.2998,-27.400108,-4.828339,-24.04087,-6.387058,9.7799425,37.946896,-19.059862,14.609806,-2.2565107,-0.23545972,6.3047113,-3.1606002,19.630589,-34.021637,55.38984,-7.223482,8.305798,1.9305636,-14.022255,-21.702686,41.13474,57.059734,7.071545,5.566248,6.8529882
27,1.4786381721496582,3.809417724609375,73.9393539428711,2.0316333966004696,4.962028556747879,-96.83325581783572,-23.114794,13.478227,12.453981,53.033333,-27.842962,-4.4341307,-24.61972,-6.638121,10.116575,38.97212,-19.304096,15.000033,-2.3556535,-0.4698385,6.509105,-3.234192,19.711937,-33.863182,55.359547,-7.161806,8.267288,2.6330767,-13.973333,-21.773104,40.541622,56.815758,6.998563,5.5561213,6.59353
28,1.6681501865386963,3.9062559604644775,73.78115844726562,2.115517566185937,4.893913209388436,-96.86342236431946,-23.56708,13.928719,12.777233,54.667347,-28.185396,-4.1518044,-25.003763,-6.759658,10.359245,39.641994,-19.435684,15.000033,-2.436327,-0.6077832,6.7151303,-3.2958906,19.796894,-33.726677,55.351677,-7.153734,8.241061,3.3228326,-13.919277,-21.837008,40.060017,56.57173,6.9224396,5.5319066,6.286465
29,1.8654816150665283,3.9923408031463623,73.65949249267578,2.1445055445939443,4.8087539083312265,-96.92822405676617,-23.963602,14.328715,12.903426,56.1652,-28.421549,-3.9881992,-25.20513,-6.861822,10.547714,39.978565,-19.51145,15.000033,-2.5080414,-0.700084,6.917522,-3.3570313,19.879822,-33.633858,55.383106,-7.2043004,8.214535,4.022406,-13.869672,-21.906742,39.74921,56.31723,6.8437777,5.4896917,5.9011216
30,2.0935444831848145,4.088984966278076,73.5580062866211,2.1361875567395385,4.707088410755863,-97.0220319815429,-24.305187,14.696435,12.894772,57.56591,-28.581923,-3.8871014,-25.252502,-6.955433,10.70345,40.03788,-19.535154,15.000033,-2.5749118,-0.7621359,7.118226,-3.4201033,19.958525,-33.57466,55.451736,-7.292047,8.184131,4.7511044,-13.808913,-21.985338,39.543427,56.045986,6.754719,5.436208,5.456401
31,2.3308331966400146,4.183608055114746,73.5146484375,2.092274383264638,4.602372539023699,-97.13906524512953,-24.60893,15.00906,12.7626095,58.83446,-28.61029,-3.8371146,-25.176716,-7.038578,10.839832,39.836536,-19.441269,15.000033,-2.6386545,-0.7963506,7.3145237,-3.4701192,20.023785,-33.504566,55.54465,-7.416558,8.175235,5.4450355,-13.716511,-22.066273,39.370438,55.768185,6.6733384,5.377054,5.0069895
32,2.5674617290496826,4.281343936920166,73.50723266601562,2.0144048453762813,4.507775819695764,-97.27326161465761,-24.89059,15.245458,12.516983,59.933212,-28.448858,-3.825301,-25.006485,-7.105452,10.968228,39.38558,-19.159788,15.000033,-2.7034419,-0.8049746,7.501955,-3.494647,20.062553,-33.37796,55.656307,-7.578035,8.2131605,6.0408573,-13.575148,-22.13554,39.157803,55.503117,6.613566,5.3170657,4.6070538
33,2.84513783454895,4.378573417663574,73.55301666259766,1.8949109075893982,4.4126783312019064,-97.41186092077528,-25.140898,15.41756,12.14603,60.861332,-28.078957,-3.861272,-24.705019,-7.1578727,11.056154,38.652252,-18.693447,15.000033,-2.776879,-0.7860882,7.677501,-3.4950755,20.06157,-33.17498,55.825787,-7.7377195,8.304718,6.5207615,-13.389158,-22.163692,38.909046,55.29325,6.598458,5.235978,4.255608
34,3.1148602962493896,4.481256484985352,73.64041137695312,1.736803116531998,4.313961242392133,-97.56073007945223,-25.355213,15.528383,11.64979,61.63669,-27.533642,-3.948788,-24.269695,-7.197914,11.110325,37.63649,-18.067345,15.000033,-2.845966,-0.74057937,7.8497524,-3.4861124,20.029419,-32.92773,56.045273,-7.906424,8.436755,6.9178333,-13.147466,-22.178066,38.633293,55.0945,6.6036043,5.1391835,3.9324894
35,3.4299347400665283,4.5780205726623535,73.77250671386719,1.557677091967773,4.236397407338644,-97.74287340741182,-25.558744,15.54644,11.054584,62.255756,-26.835522,-4.065386,-23.785414,-7.2226915,11.201238,36.409256,-17.25111,15.000033,-2.914879,-0.6721244,7.9987907,-3.4752162,19.946983,-32.65938,56.295017,-8.162421,8.5998535,7.254647,-12.894091,-22.171967,38.351162,54.92917,6.605378,5.062868,3.6491256
36,3.7665772438049316,4.686856746673584,73.94242858886719,1.3751845503123818,4.204591910142278,-97.98121522438562,-25.776066,15.44061,10.387388,62.71541,-26.006958,-4.1883397,-23.337873,-7.2321377,11.39938,35.04187,-16.215656,15.000033,-2.987918,-0.59179133,8.112293,-3.4495506,19.827341,-32.390327,56.514896,-8.588753,8.786693,7.550943,-12.662444,-22.136717,38.0662,54.801914,6.5678425,5.0437903,3.4177446
37,4.148758888244629,4.798490047454834,74.15689849853516,1.194258925115753,4.227923453762902,-98.27127770680447,-26.010277,15.164551,9.603667,62.981293,-25.027658,-4.352273,-22.942747,-7.238957,11.7369375,33.525974,-14.966315,15.000033,-3.0747721,-0.5090172,8.186051,-3.3890605,19.672049,-32.097004,56.68631,-9.283331,9.026741,7.819808,-12.434639,-22.067833,37.73405,54.689674,6.469507,5.1100726,3.234108
38,4.5294013023376465,4.935298919677734,74.4144515991211,1.0069104635040493,4.291234341658282,-98.60383688406824,-26.244083,14.744735,8.706827,63.068275,-23.896486,-4.5576124,-22.555296,-7.242493,12.170139,31.83018,-13.514124,15.000033,-3.1712556,-0.41964585,8.22744,-3.30274,19.479336,-31.77861,56.83609,-10.177233,9.312998,8.050935,-12.2034445,-21.962883,37.366535,54.601494,6.331316,5.2358193,3.0940115
39,4.954074859619141,5.079324722290039,74.68801879882812,0.8108551354455021,4.381815737002032,-98.99483122379048,-26.472878,14.261739,7.7962875,63.047634,-22.66223,-4.7282343,-22.168709,-7.2336035,12.657351,29.989563,-11.837611,15.000033,-3.257912,-0.3155134,8.246578,-3.2263536,19.264002,-31.492075,56.9717,-11.105322,9.583931,8.225906,-12.0204,-21.832832,37.051395,54.582253,6.1878552,5.376957,3.01161
40,5.412060260772705,5.254600524902344,74.99051666259766,0.6047581629096561,4.486018287240085,-99.45889261635986,-26.695827,13.796672,6.972107,62.98963,-21.370865,-4.7849426,-21.77326,-7.2063622,13.158973,28.03563,-9.912712,15.000033,-3.3162134,-0.19000784,8.258691,-3.1866174,19.051516,-31.290564,57.084126,-11.900937,9.780253,8.321097,-11.931619,-21.696312,36.874424,54.66198,6.076755,5.4899254,3.0012038
41,5.869833946228027,5.439119815826416,75.30228424072266,0.3847554473746011,4.604470324816052,-100.00091289995184,-26.946232,13.325923,6.192572,62.938667,-19.91486,-4.677489,-21.327866,-7.1794,13.636773,25.901356,-7.6259475,15.000033,-3.3445866,-0.041353937,8.276608,-3.1700995,18.858341,-31.170052,57.13365,-12.621175,9.900648,8.334306,-11.953449,-21.569408,36.878574,54.85005,6.0277247,5.578916,3.075793
42,6.381472110748291,5.625697612762451,75.6136703491211,0.15910255449812102,4.73828284145771,-100.60852706214811,-27.20849,12.816872,5.434736,62.84801,-18.305683,-4.453809,-20.838448,-7.1730413,14.119706,23.578949,-5.0203266,15.000033,-3.3579755,0.11776174,8.300847,-3.1524646,18.6888,-31.101698,57.106117,-13.321612,9.976434,8.271351,-12.047317,-21.455143,37.00645,55.101162,6.014039,5.6633263,3.2262628
43,6.897546291351318,5.829863548278809,75.89100646972656,-0.05532555754114363,4.874068552209335,-101.26956621052025,-27.413721,12.340117,4.8241014,62.65045,-16.768824,-4.1746564,-20.362694,-7.1851983,14.671578,21.18666,-2.3070118,15.000033,-3.3607247,0.27058083,8.327601,-3.1437583,18.55274,-31.103027,57.031395,-13.834011,9.998938,8.118824,-12.188242,-21.35531,37.201298,55.37643,5.9988556,5.721701,3.4334354
44,7.441038131713867,6.040035724639893,76.1439437866211,-0.245701531248833,4.999281622120695,-101.97328340406843,-27.498072,11.970206,4.4784217,62.28018,-15.533444,-3.8980827,-19.961678,-7.212038,15.361506,18.849407,0.2989537,15.000033,-3.354491,0.40372396,8.353579,-3.1522796,18.462402,-31.193285,56.935093,-13.990738,9.958186,7.8629584,-12.344704,-21.269321,37.39814,55.63006,5.938759,5.732662,3.6783943
45,7.999425888061523,6.257932662963867,76.3938217163086,-0.418206401805718,5.118346039754286,-102.72434969050663,-27.445602,11.720058,4.3932886,61.65634,-14.631615,-3.6399937,-19.608816,-7.248873,16.25843,16.393055,2.9326782,15.000033,-3.3352935,0.52243096,8.39645,-3.1748946,18.44303,-31.39412,56.797367,-13.717427,9.820729,7.4802256,-12.498343,-21.230263,37.58746,55.815517,5.808649,5.6746736,3.9762342
46,8.556891441345215,6.47736930847168,76.61515045166016,-0.5675853030539576,5.225699292378452,-103.51786685348613,-27.28142,11.537314,4.518592,60.834183,-13.955157,-3.3638616,-19.2597,-7.351507,17.314508,13.789484,5.64826,15.000033,-3.3135707,0.62024885,8.441739,-3.2215278,18.458622,-31.7031,56.654827,-13.121396,9.59391,6.9920454,-12.696106,-21.187235,37.82126,56.028507,5.6444516,5.5604544,4.3233347
47,9.122426986694336,6.695047855377197,76.78063201904297,-0.6834116335994532,5.30488550378563,-104.33843050898737,-27.021774,11.421039,4.889202,59.961033,-13.526256,-3.0554018,-18.962711,-7.548038,18.41603,11.388754,8.116053,15.000033,-3.2881823,0.68388885,8.494158,-3.2697084,18.522324,-32.06836,56.463486,-12.290969,9.341002,6.4308863,-12.902735,-21.153976,38.0464,56.22044,5.466092,5.4315104,4.6978292
48,9.7174711227417,6.903357982635498,76.87207794189453,-0.7749651422365724,5.354562930413675,-105.18404059979005,-26.700823,11.398094,5.532022,59.18892,-13.367154,-2.7037942,-18.811075,-7.7878027,19.446781,9.602383,9.990437,15.000033,-3.2427094,0.7141834,8.538693,-3.2801025,18.668825,-32.456833,56.157555,-11.330508,9.128497,5.8305674,-13.100338,-21.119698,38.22637,56.37429,5.3077984,5.3265257,5.071735
49,10.268233299255371,7.097940921783447,76.90412139892578,-0.8157597413960861,5.373033748177048,-106.06620584892399,-26.27402,11.487469,6.562293,58.511585,-13.533044,-2.3124075,-18.781097,-8.047247,20.580177,8.332521,11.205859,15.000033,-3.1851938,0.6916289,8.562141,-3.25033,18.872301,-32.869972,55.760017,-10.13384,8.973565,5.2022595,-13.296006,-21.096746,38.372288,56.495243,5.183076,5.262037,5.508322
50,10.833497047424316,7.2904438972473145,76.88131713867188,-0.8263501820291117,5.375096277941212,-106.99334304941654,-25.748228,11.680091,7.922349,57.866287,-13.997422,-1.8977017,-18.904959,-8.283316,21.817774,7.545739,11.8915,15.000033,-3.1053846,0.6312863,8.571386,-3.1739872,19.162191,-33.32918,55.246086,-8.699983,8.836044,4.5264087,-13.497317,-21.081438,38.493675,56.58552,5.074649,5.214164,5.9986906
51,11.408031463623047,7.4875102043151855,76.84625244140625,-0.8892329003241359,5.390958798864479,-107.96603966076862,-25.24594,11.975745,9.384353,57.318977,-14.656304,-1.4619654,-19.391499,-8.358232,22.791445,7.802508,11.968135,15.000033,-2.9837554,0.63190365,8.558017,-3.0828984,19.507368,-33.77763,54.63393,-7.2411118,8.687016,3.793755,-13.687789,-21.076992,38.58083,56.625477,4.9603467,5.166252,6.4092836
52,12.00681209564209,7.715099334716797,76.77515411376953,-1.078654800864698,5.447581914132223,-108.98378497022946,-24.896843,12.377882,10.726039,56.94143,-15.407472,-0.99811834,-20.410072,-8.158857,23.128326,9.572794,11.402252,15.000033,-2.7962224,0.77899,8.513614,-3.010429,19.890652,-34.168957,53.935158,-5.976299,8.50368,2.9947698,-13.851372,-21.087282,38.62255,56.59563,4.822732,5.1017313,6.606358
53,12.636247634887695,7.902673721313477,76.68009185791016,-1.4112214102975982,5.544434132853054,-110.10471843560737,-24.694836,12.927048,11.996832,56.748417,-16.285103,-0.44582137,-21.927977,-7.7874994,22.58358,12.772634,10.340581,15.000033,-2.5078115,1.1038268,8.433202,-2.9368753,20.294033,-34.47703,53.123524,-4.881591,8.277966,2.061779,-13.989907,-21.119394,38.63997,56.5113,4.668443,4.993505,6.5030284
54,13.262030601501465,8.110734939575195,76.55836486816406,-1.7621793120290818,5.632030737794585,-111.27856485986962,-24.527512,13.509972,13.313725,56.679245,-17.316868,0.19194359,-23.733757,-7.511047,21.456078,16.936632,8.854462,15.000033,-2.166368,1.475581,8.342717,-2.8713834,20.716827,-34.7365,52.231884,-3.8654966,8.019302,1.0215662,-14.099284,-21.172276,38.628986,56.369667,4.504151,4.861474,6.187696
55,13.866535186767578,8.3290433883667,76.39851379394531,-2.013067231653937,5.667628777196615,-112.34279120008394,-24.378443,13.927785,14.5437975,56.688435,-18.387848,0.8299546,-25.567324,-7.5079427,20.15543,21.595448,6.9997354,15.000033,-1.8719891,1.7519891,8.281387,-2.8855805,21.172564,-34.989952,51.351418,-3.0428102,7.74317,0.0044812644,-14.1561365,-21.234962,38.53748,56.1273,4.309668,4.759058,5.7898846
56,14.443543434143066,8.54306697845459,76.19666290283203,-2.132032138814751,5.6496308096174,-113.17076301008815,-24.299303,14.092018,15.518148,56.758327,-19.389858,1.3642023,-27.196312,-7.764037,19.016142,26.271688,4.8947086,15.000033,-1.6937644,1.8760475,8.260161,-3.043889,21.67961,-35.279694,50.55771,-2.5300608,7.4739027,-0.85971403,-14.138184,-21.292671,38.306442,55.7446,4.054075,4.737255,5.438169
57,15.01601505279541,8.825334548950195,75.93477630615234,-2.1528549114935767,5.593583597041617,-113.74148957689263,-24.353743,14.03417,16.134186,56.91993,-20.31693,1.737568,-28.639803,-8.15182,18.054062,31.056278,2.3980098,15.000033,-1.6408979,1.8646407,8.272172,-3.4059138,22.26464,-35.671066,49.89204,-2.4528139,7.183161,-1.6116395,-14.0570755,-21.331758,37.90281,55.209984,3.731893,4.840084,5.166111
58,15.485410690307617,9.103409767150879,75.65292358398438,-2.1049503737612634,5.503693867596042,-114.12210796231416,-24.517467,13.819739,16.484612,57.17716,-21.219114,2.012372,-29.991058,-8.67866,17.103378,36.134846,-0.4836228,15.000033,-1.6749537,1.7559707,8.314042,-3.9118545,22.93303,-36.131557,49.277107,-2.7221932,6.885527,-2.3020675,-13.919953,-21.347866,37.35592,54.552147,3.3525116,5.0288815,4.905763
59,16.063716888427734,9.359794616699219,75.36524963378906,-2.0031217312819263,5.391422318046939,-114.34889423876537,-24.756105,13.4830475,16.682243,57.495308,-22.078978,2.2532966,-31.179932,-9.365566,16.153759,41.233685,-3.3842936,15.000033,-1.7713672,1.5814408,8.374065,-4.448491,23.657686,-36.550568,48.62158,-3.1289651,6.6663213,-2.8131933,-13.71838,-21.347048,36.72362,53.808117,2.9227607,5.228897,4.6330104
60,16.52611541748047,9.66075325012207,75.0560302734375,-1.8596701001527898,5.268041161162858,-114.45914805430068,-25.032087,13.052841,16.841139,57.83481,-22.87773,2.5247853,-32.143,-10.2379875,15.201031,46.096493,-5.946698,15.000033,-1.9064709,1.3770236,8.437628,-4.91084,24.391594,-36.811745,47.8587,-3.4567153,6.6022882,-3.0214963,-13.443943,-21.34212,36.067036,53.012787,2.4503822,5.3668427,4.322858
61,17.090423583984375,9.929611206054688,74.74568176269531,-1.6510216107065963,5.127884206638084,-114.4466563054186,-25.344429,12.49582,16.98278,58.208496,-23.635506,2.8339765,-32.902515,-11.363781,14.2100315,50.821598,-8.132897,15.000033,-2.0846963,1.1424164,8.502677,-5.3395667,25.103346,-36.93705,47.042088,-3.7536657,6.736121,-2.8172097,-13.0963,-21.348085,35.385628,52.191525,1.8891884,5.415416,3.9535818
62,17.627283096313477,10.192388534545898,74.4215316772461,-1.3913768175725965,4.9726639199177,-114.30307459218503,-25.714828,11.824156,17.048643,58.6328,-24.354944,3.148778,-33.472992,-12.67077,13.1763,55.51759,-10.122055,15.000033,-2.3077514,0.8838718,8.566917,-5.7962584,25.7826,-36.97955,46.23159,-4.095391,7.011673,-2.286334,-12.679458,-21.371397,34.65507,51.316532,1.255762,5.4197903,3.543209
63,18.104745864868164,10.47962760925293,74.0938491821289,-1.2185862015589581,4.829063002104626,-114.08387737106459,-26.175585,11.224444,16.990541,59.12999,-25.016666,3.4549274,-33.78603,-13.913695,12.051063,59.94149,-11.87574,14.908717,-2.529014,0.71651596,8.613003,-6.202615,26.41154,-36.856533,45.37785,-4.303855,7.3584456,-1.5972892,-12.1859455,-21.409536,33.896317,50.342987,0.64167583,5.4143314,3.1261222
64,18.58436393737793,10.760711669921875,73.77944946289062,-1.1463674063089049,4.725089005903511,-113.81643523826435,-26.712147,10.73032,16.840658,59.633804,-25.559435,3.7708511,-33.832607,-14.9675665,10.855407,63.923,-13.392898,14.497057,-2.7363882,0.6308307,8.616306,-6.4723406,26.972336,-36.470078,44.435806,-4.195053,7.7105145,-0.92220515,-11.618723,-21.44983,33.151257,49.2401,0.15230404,5.4308786,2.736156
65,19.051279067993164,11.043067932128906,73.5125961303711,-1.1547493159500153,4.689359412437726,-113.45631326375535,-27.388897,10.302685,16.588282,60.177734,-25.939638,4.131493,-33.63083,-15.840301,9.680326,67.505684,-14.659333,14.281445,-2.9705985,0.6051115,8.550967,-6.5768266,27.45104,-35.724148,43.368233,-3.5629566,8.142691,-0.28124824,-10.950418,-21.477674,32.39915,47.960888,-0.18283099,5.4821486,2.4044206
66,19.49205780029297,11.305791854858398,73.27904510498047,-1.211008034668445,4.703233109154827,-113.00137480718708,-28.180351,9.897322,16.2507,60.757603,-26.187532,4.527385,-33.201847,-16.579247,8.492829,70.798294,-15.69749,14.248891,-3.2342443,0.6194713,8.427475,-6.567479,27.843246,-34.683537,42.23574,-2.5572774,8.667664,0.4017575,-10.200229,-21.487669,31.644156,46.556004,-0.41630092,5.547039,2.103994
67,19.868186950683594,11.574320793151855,73.10074615478516,-1.2843101973021127,4.71861354339643,-112.53042238705883,-28.92706,9.502093,15.917135,61.237152,-26.350433,4.925348,-32.539143,-17.084974,7.3871393,73.71947,-16.565506,14.41525,-3.464017,0.6528498,8.277686,-6.471601,28.146746,-33.487984,41.134193,-1.5205752,9.12438,1.1037942,-9.427543,-21.478268,30.954256,45.134754,-0.5775163,5.6051273,1.7825277
68,20.299976348876953,11.818305015563965,72.94338989257812,-1.344384216572002,4.686851475194568,-112.12178148420405,-29.471424,9.10906,15.673949,61.483196,-26.478031,5.2919126,-31.646769,-17.256966,6.462005,76.18279,-17.321106,14.795553,-3.5971138,0.684142,8.133235,-6.3171005,28.360353,-32.278954,40.156498,-0.7929676,9.344304,1.8127347,-8.691732,-21.449333,30.394835,43.804314,-0.69829446,5.6369486,1.3870126
69,20.69698715209961,12.0767183303833,72.83501434326172,-1.4332320482070884,4.592233855302317,-111.79596172874166,-29.78504,8.774662,15.499848,61.49208,-26.61404,5.59787,-30.490551,-17.03938,5.606631,78.14625,-17.94926,15.000033,-3.6055627,0.74670386,8.00066,-6.1123157,28.472235,-31.054996,39.33301,-0.45373222,9.218041,2.558725,-7.9855833,-21.402151,29.977152,42.55575,-0.8308567,5.6590266,0.8513263
70,21.05950355529785,12.332711219787598,72.76890563964844,-1.6892449576574866,4.477912406055502,-111.56043615061651,-30.018564,8.6616745,15.277756,61.422085,-26.766315,5.8306613,-29.11273,-16.365944,4.6638594,79.62829,-18.393927,15.000033,-3.475241,0.9733517,7.851636,-5.8535466,28.469648,-29.76236,38.626312,-0.31824508,8.851027,3.344257,-7.2841506,-21.33529,29.66649,41.346676,-0.9455709,5.6738725,0.22090656
71,21.37334632873535,12.604544639587402,72.7591781616211,-1.9518277783926339,4.348700746096358,-111.37338269427542,-30.14605,8.579124,15.105727,61.18641,-26.836117,6.051397,-27.642376,-15.426025,3.8033702,80.71316,-18.72223,15.000033,-3.2639127,1.2149187,7.6830378,-5.556528,28.360558,-28.470419,38.027847,-0.33472216,8.390172,4.1175394,-6.629577,-21.245295,29.46173,40.245125,-0.9449671,5.6397185,-0.39121044
72,21.735801696777344,12.870803833007812,72.79094696044922,-2.1623215455409306,4.222563140654649,-111.23128341522893,-30.192375,8.466664,15.023777,60.767357,-26.75587,6.291251,-26.200773,-14.333363,3.0628123,81.44895,-18.969894,15.000033,-2.9911041,1.4175689,7.48757,-5.228946,28.166502,-27.247051,37.512924,-0.45752126,7.984694,4.8271565,-6.071886,-21.12899,29.360195,39.324593,-0.73034257,5.5119834,-0.8720493
73,22.08163833618164,13.142260551452637,72.87151336669922,-2.295811792323877,4.0901586715986635,-111.15228277212375,-30.110538,8.308796,15.079696,60.11612,-26.544065,6.5682263,-24.800262,-13.063353,2.5075428,81.85709,-19.151041,15.000033,-2.6394732,1.5499443,7.267641,-4.855975,27.898867,-26.083675,37.06636,-0.7449974,7.629052,5.463174,-5.616051,-20.979105,29.363821,38.63388,-0.16274004,5.2089515,-1.2163363
74,22.460947036743164,13.430927276611328,72.99959564208984,-2.3802621524154284,3.9447581469340376,-111.12856903056627,-29.90284,8.1326685,15.242461,59.255657,-26.224724,6.865997,-23.390976,-11.581113,2.127596,81.9072,-19.242777,15.000033,-2.2117083,1.6338059,7.0284653,-4.428759,27.559185,-24.952229,36.68206,-1.2004373,7.25573,6.0479727,-5.245634,-20.793955,29.472525,38.1317,0.66341245,4.774264,-1.4725089
75,22.765256881713867,13.772676467895508,73.17459869384766,-2.4347762720491453,3.8104954446269677,-111.12006671853165,-29.668797,7.940448,15.436946,58.275097,-25.737867,7.1608496,-21.997505,-9.997533,1.8476621,81.580795,-19.224117,15.000033,-1.7540766,1.697267,6.770207,-3.9562259,27.162155,-23.886368,36.335167,-1.6998351,6.9238486,6.5808563,-4.9638176,-20.581566,29.671743,37.737617,1.4959185,4.354788,-1.6101958
76,23.064931869506836,14.133925437927246,73.40029907226562,-2.479079992284966,3.7115429791135446,-111.08720721931134,-29.5055,7.7322526,15.5907135,57.25915,-25.022198,7.4262156,-20.641144,-8.42078,1.5914059,80.858376,-19.074965,15.000033,-1.3089489,1.7688891,6.495168,-3.4438245,26.731497,-22.920645,35.992702,-2.1224196,6.695292,7.063436,-4.768658,-20.357237,29.94126,37.361958,2.0848932,4.1,-1.6046962
77,23.410682678222656,14.48549747467041,73.65723419189453,-2.5130639939126027,3.6602162633872704,-111.04602577349617,-29.417706,7.5087194,15.716608,56.193504,-24.055477,7.6753783,-19.312021,-6.821741,1.3805155,79.67861,-18.76432,15.000033,-0.85802555,1.8537489,6.1980996,-2.8560474,26.276468,-22.042032,35.595165,-2.4307263,6.633241,7.5138683,-4.6347404,-20.124899,30.258137,36.94986,2.3553972,4.122642,-1.3994678
78,23.71964454650879,14.88460922241211,73.95721435546875,-2.5210771891138974,3.640485984552329,-111.0058583129421,-29.354692,7.255445,15.852759,55.039997,-22.874016,7.916072,-17.991865,-5.1766996,1.2741233,78.06864,-18.319393,15.000033,-0.38999993,1.9286155,5.8866825,-2.1894212,25.799553,-21.238363,35.15249,-2.6979194,6.6916394,7.9258757,-4.5629683,-19.885283,30.634548,36.54273,2.4466057,4.3211513,-1.0261083
79,24.053173065185547,15.27425765991211,74.2855224609375,-2.5033083658397706,3.6359296328489843,-110.9200060145533,-29.333567,6.9560404,15.96212,53.852066,-21.499977,8.111787,-16.690615,-3.5982814,1.2389761,76.14739,-17.79797,15.000033,0.044571858,1.9871229,5.5834765,-1.4907045,25.321722,-20.53911,34.728138,-2.9700239,6.7699947,8.264382,-4.5778112,-19.652645,31.097252,36.17923,2.424644,4.5237713,-0.5935892
80,24.400253295898438,15.683553695678711,74.63792419433594,-2.4664743228341885,3.6325348479541955,-110.74638180981027,-29.375153,6.6051526,16.0006,52.680237,-19.955593,8.225044,-15.4225855,-2.1896212,1.2193516,74.025505,-17.245806,15.000033,0.4007715,2.029575,5.3143716,-0.7964079,24.874416,-19.968689,34.36852,-3.2932832,6.7683287,8.492086,-4.6948876,-19.44822,31.669607,35.8815,2.3605516,4.559584,-0.20953019
81,24.739965438842773,16.136802673339844,74.99479675292969,-2.42212580779317,3.6415010198690485,-110.46571127245595,-29.518385,6.211778,15.94723,51.541126,-18.170317,8.307753,-14.176094,-0.9266545,1.1686156,71.63833,-16.670328,15.000033,0.6718086,2.062389,5.083858,-0.095849454,24.484247,-19.55355,34.039066,-3.7189515,6.675307,8.61453,-4.932536,-19.290735,32.413494,35.644817,2.2648895,4.3926854,0.10312171
82,25.06851577758789,16.627838134765625,75.36543273925781,-2.36924685142788,3.667884922963998,-110.10755891511543,-29.743204,5.780284,15.827616,50.40358,-16.154615,8.360299,-12.940919,0.23486364,1.1136336,68.94788,-16.036821,15.000033,0.8834084,2.088278,4.8894086,0.64838994,24.155968,-19.26295,33.690926,-4.2170935,6.5420084,8.641139,-5.257184,-19.180222,33.296524,35.420837,2.1112537,4.1112275,0.40304956
83,25.43650245666504,17.107051849365234,75.7369155883789,-2.3039082885066375,3.6899236008146548,-109.70732331018361,-29.984198,5.3097453,15.652106,49.245934,-14.047837,8.261575,-11.740465,1.2289511,1.0782163,66.118095,-15.330226,15.000033,1.0444366,2.108487,4.741853,1.432236,23.884739,-19.037506,33.360447,-4.711406,6.3629227,8.54124,-5.6184564,-19.107653,34.20139,35.182365,1.9161681,3.7308638,0.7037965
84,25.808147430419922,17.596755981445312,76.11888122558594,-2.2256658696548595,3.6861881713049067,-109.30079223214418,-30.17659,4.8027606,15.417927,48.043606,-11.987067,7.8840303,-10.603899,1.9859738,1.0623655,63.317333,-14.526027,15.000033,1.1665297,2.1266978,4.6483283,2.2435174,23.660225,-18.823254,33.094223,-5.1254206,6.132666,8.286418,-5.9699626,-19.060503,35.007816,34.911106,1.6927657,3.2669456,1.0179539
85,26.192075729370117,18.086803436279297,76.47623443603516,-2.150641781339493,3.6447533909856813,-108.87606787805689,-30.313623,4.2638836,15.114635,46.794838,-9.953126,7.3457026,-9.5005045,2.506368,1.0134112,60.481853,-13.594302,15.000033,1.2354273,2.1654115,4.6190486,3.0867734,23.474539,-18.626043,32.918526,-5.439816,5.817779,7.837685,-6.3341002,-19.038889,35.729286,34.641155,1.4332043,2.635486,1.3546056
86,26.58342742919922,18.629905700683594,76.7991714477539,-2.0847009298981622,3.580495130848342,-108.42430951975412,-30.42422,3.7020047,14.7223215,45.50501,-7.8928204,6.651593,-8.422981,2.8421984,0.88656235,57.55835,-12.568559,15.000033,1.2546531,2.2279484,4.6433616,3.9580388,23.327814,-18.4688,32.81741,-5.6957006,5.4331307,7.2223706,-6.7292113,-19.044735,36.41493,34.37935,1.133079,1.8566084,1.7020676
87,26.966318130493164,19.190282821655273,77.0826187133789,-2.0124835106429186,3.5107040001320904,-107.98648830099343,-30.499685,3.122228,14.206965,44.16869,-5.902215,5.4983163,-7.4412174,3.0063384,0.6912032,54.747356,-11.54702,15.000033,1.2630926,2.2862692,4.6974773,4.833218,23.222816,-18.324062,32.77341,-5.9073977,5.044778,6.5129385,-7.1130342,-19.066162,36.997673,34.079018,0.81207997,1.1010789,2.0426166
88,27.35651969909668,19.739242553710938,77.34001159667969,-1.9139262441495721,3.4511896325744478,-107.6029306163214,-30.525429,2.519442,13.531098,42.771915,-4.082885,3.58129,-6.632403,2.9980311,0.4438084,52.263287,-10.63061,15.000033,1.3069432,2.303605,4.756608,5.6852283,23.168503,-18.17368,32.769257,-6.089526,4.718694,5.783543,-7.4390926,-19.083107,37.39824,33.697395,0.48051658,0.5394516,2.3616474
89,27.74286651611328,20.298620223999023,77.54058837890625,-1.7843465136809165,3.40073375994109,-107.28308186728435,-30.454248,1.8482655,12.604398,41.20384,-2.4733837,0.6073448,-6.0606103,2.7810316,0.15867482,50.1961,-9.767305,15.000033,1.3884593,2.2724729,4.8252134,6.511624,23.16411,-18.005362,32.817245,-6.233245,4.4631076,4.992417,-7.72056,-19.081793,37.59409,33.24606,0.0919065,0.22032596,2.6641932
90,28.146982192993164,20.89076042175293,77.6771011352539,-1.6405446438173128,3.347960487123356,-107.00310964490198,-30.290825,1.1356093,11.462603,39.513615,-1.0907471,-3.1878295,-5.6742525,2.3841689,-0.22272196,48.455673,-9.001762,15.000033,1.4699383,2.2121134,4.9179792,7.352367,23.218391,-17.808332,32.897194,-6.3351727,4.2464457,4.1186123,-7.9978685,-19.054396,37.64234,32.766163,-0.34725058,0.04964436,2.9542782
91,28.501373291015625,21.51544189453125,77.74716186523438,-1.8597932927764205,3.3112627888367454,-106.83298987635389,-30.365868,0.92847145,10.014439,38.422817,-0.22426613,-7.4279037,-5.2896276,2.256627,-1.3079431,46.659916,-8.348935,12.954582,1.634218,2.4759493,4.986265,8.193164,23.326904,-17.604418,32.998726,-6.4149084,4.071744,3.275817,-8.250821,-19.00379,37.562412,32.257587,-0.7489601,-0.014142611,3.2197914
92,28.836315155029297,22.120792388916016,77.74868774414062,-2.0853861342572215,3.281407486419584,-106.68861549870093,-30.5553,0.86777556,8.688541,37.754066,0.3194172,-11.532499,-4.866822,2.1271276,-2.650699,44.98678,-8.183878,10.441245,1.78858,2.7296772,5.036931,9.050524,23.481298,-17.375088,33.087597,-6.4822073,3.9421618,2.569898,-8.474046,-18.935802,37.40743,31.719397,-1.0182786,-0.010218465,3.4430385
93,29.200288772583008,22.705524444580078,77.66122436523438,-2.1443903388845955,3.2682637959280862,-106.5211075031085,-30.711603,0.661233,7.647276,37.101204,0.7689867,-15.000033,-4.4155416,1.7586378,-4.1329355,43.531956,-8.6114025,8.222475,1.8907858,2.8232346,5.059165,9.924827,23.676956,-17.123682,33.185932,-6.5179043,3.8510537,2.0155993,-8.645237,-18.851332,37.156883,31.141518,-1.1309574,0.086695135,3.6105778
94,29.626571655273438,23.293903350830078,77.50273895263672,-1.6392011519296985,3.319011751296663,-106.13345578295328,-30.647337,-0.04811232,7.905804,35.940136,1.4101368,-15.000033,-4.185506,0.5836129,-5.7220783,42.763073,-9.794362,6.3272257,1.7549089,2.3936243,5.0347133,10.814667,23.909975,-16.850924,33.297806,-6.520317,3.7982028,1.5611176,-8.778478,-18.752804,36.79799,30.528643,-1.1375452,0.28766784,3.7356749
95,30.060731887817383,23.88834571838379,77.30081939697266,-1.179095161172229,3.3695911188218894,-105.77999350428694,-30.86778,-0.45100692,8.397955,35.581486,1.6332446,-15.000033,-3.9854386,-0.48734325,-7.1849947,42.130028,-11.268211,4.798974,1.6131983,1.9920135,5.0086503,11.71717,24.176811,-16.539003,33.380596,-6.5229216,3.794852,1.2118162,-8.918042,-18.64629,36.39297,29.895409,-1.0498875,0.53264695,3.8375847
96,30.482900619506836,24.520984649658203,77.0589828491211,-0.8813473051164862,3.4223342664062204,-105.4778181683913,-31.607534,-0.19223012,9.234397,36.644115,1.2197759,-15.000033,-3.8588219,-1.2196089,-8.277045,41.5527,-12.842286,3.8255777,1.4716812,1.7222079,4.9882417,12.633712,24.469236,-16.170002,33.388138,-6.558419,3.8536289,0.9727113,-9.105116,-18.54239,36.006924,29.25384,-0.877514,0.76146233,3.9363766
97,30.869630813598633,25.109657287597656,76.74825286865234,-0.8039532502508089,3.4652734499413143,-105.2453875946559,-32.97167,0.94434404,10.4278145,39.483673,0.0013771912,-15.000033,-3.7786572,-1.5295119,-8.898914,40.944946,-14.511493,3.5022843,1.3493702,1.6367325,4.979924,13.555213,24.786104,-15.729876,33.32958,-6.6211586,3.9751408,0.83963615,-9.337772,-18.4487,35.64157,28.588892,-0.5680922,0.96283144,4.0428033
98,31.22298812866211,25.720447540283203,76.40913391113281,-0.8956066014442575,3.474025778376969,-105.10085352645271,-34.66691,2.7801442,11.80032,43.534092,-1.7998497,-15.000033,-3.7123148,-1.5562603,-9.169942,40.34057,-16.301006,3.6512558,1.2660332,1.6937258,5.005555,14.4855995,25.124844,-15.230291,33.22275,-6.697605,4.1539054,0.8109689,-9.592696,-18.3686,35.2693,27.892595,-0.13168731,1.167204,4.1439176
99,31.538373947143555,26.348403930664062,76.0390853881836,-1.1035412260577733,3.4326806228245657,-105.05927164624948,-36.32692,5.0750117,13.185516,48.030285,-3.8136795,-15.000033,-3.7025836,-1.4111279,-9.178042,39.85414,-18.077168,4.0359855,1.2279162,1.8509547,5.0934505,15.439409,25.470097,-14.696005,33.044704,-6.806376,4.3931546,0.89681935,-9.8701725,-18.30857,34.908916,27.17914,0.3232573,1.3810215,4.2257214
100,31.89008331298828,27.014482498168945,75.63206481933594,-1.3545095749976503,3.353915039601918,-105.10220547956601,-37.68704,7.5566707,14.517539,52.307354,-5.694914,-15.000033,-3.8274603,-1.2248728,-9.028058,39.621407,-19.719736,4.4419117,1.207675,2.0498881,5.2438793,16.422876,25.799774,-14.153565,32.78478,-6.9634256,4.694747,1.1085143,-10.174617,-18.277159,34.583206,26.470312,0.689116,1.6089731,4.273848
101,32.27995681762695,27.596982955932617,75.19342041015625,-1.663907597788365,3.2011231542651255,-105.18790455813748,-38.71468,10.316924,15.913297,56.44141,-7.473934,-15.000033,-4.0732822,-0.9796495,-8.689268,39.71655,-21.26489,4.9100943,1.1532142,2.3212461,5.4865603,17.44658,26.112625,-13.625474,32.42358,-7.2417436,5.0888886,1.4971184,-10.545533,-18.288689,34.318314,25.74408,0.98913544,1.8668174,4.287308
102,32.67462158203125,28.191354751586914,74.74224853515625,-1.9445764446847518,3.0078067939589315,-105.26394331378097,-39.45603,13.400277,17.693975,60.608143,-9.287234,-13.988768,-4.489347,-0.7944622,-8.164241,40.206043,-22.851772,5.555391,1.0264062,2.5835812,5.790558,18.49408,26.408257,-13.101532,31.986212,-7.610345,5.561104,2.044407,-10.95761,-18.3507,34.094364,24.9883,1.2652249,2.1466827,4.27351
103,33.1308479309082,28.78803062438965,74.30091857910156,-1.9999427851582958,2.9446085077037223,-105.26042781198485,-39.922363,16.439474,20.04125,64.44187,-10.986948,-11.031606,-5.2782063,-0.9620048,-7.6378946,41.151443,-24.468616,6.281363,0.7874105,2.6407723,6.0103,19.52012,26.658382,-12.564954,31.54416,-7.923352,6.046722,2.6571655,-11.32117,-18.455957,33.866432,24.244673,1.4376953,2.4194796,4.2312407
104,33.63505172729492,29.332149505615234,73.90190124511719,-2.0300191173081883,3.0034020947563276,-105.437704103393,-40.242367,19.301,22.025507,67.91175,-12.561255,-8.288278,-6.3062677,-1.1646241,-7.120478,42.167736,-25.841108,6.8446345,0.7024388,2.659403,6.146996,20.469189,26.822336,-11.997265,31.186296,-8.025348,6.48386,3.2395449,-11.563943,-18.583403,33.597847,23.578146,1.4280878,2.6550999,4.1578712
105,34.16728591918945,29.879783630371094,73.56294250488281,-2.0410152528751393,3.2688794758652864,-105.85781529154322,-40.573116,21.94468,23.611252,71.00026,-13.902235,-5.8034434,-7.726367,-1.4095545,-6.6199527,43.326675,-26.91545,7.1887865,0.8031729,2.6559837,6.141337,21.338125,26.867777,-11.377922,30.949804,-7.8188305,6.870898,3.7590694,-11.740717,-18.721434,33.318295,23.056929,1.1749111,2.822285,4.0644584
106,34.7130012512207,30.44465446472168,73.28013610839844,-2.0480477090618687,3.6791963212231114,-106.46217316324594,-40.8814,24.486055,24.960596,73.84037,-15.0727415,-3.4503994,-9.462024,-1.6680241,-6.0789227,44.642532,-27.752354,7.4134493,1.0210091,2.6567094,6.035242,22.143522,26.79256,-10.716825,30.8122,-7.3886795,7.2375107,4.268483,-11.895022,-18.865385,33.05486,22.669395,0.73222476,2.9453855,3.947097
107,35.222755432128906,31.001895904541016,73.04177856445312,-2.0232267227794516,4.097610846447368,-107.14879791111805,-41.007996,26.844786,26.125252,76.40786,-16.126518,-1.2696273,-11.22589,-1.9408433,-5.4796762,45.914745,-28.393345,7.598108,1.301693,2.6214855,5.9057856,22.85415,26.608452,-10.047399,30.77121,-6.8589716,7.571396,4.799907,-11.942027,-19.00153,32.763626,22.369236,0.19114262,3.0775957,3.7822363
108,35.698097229003906,31.50710105895996,72.8458251953125,-1.9335990765442672,4.388159142833092,-107.81532939245233,-40.783825,28.937325,27.159367,78.67406,-17.12444,0.6940448,-12.732034,-2.2349586,-4.8101506,46.945713,-28.882935,7.81774,1.5926167,2.5044084,5.8319616,23.437468,26.335878,-9.408609,30.817822,-6.359075,7.8596673,5.387724,-11.790467,-19.11208,32.39092,22.107027,-0.36016887,3.2718391,3.5479276
109,36.19133377075195,31.98141098022461,72.70634460449219,-1.7333355497191076,4.511807414481687,-108.49091785401603,-40.11369,30.781937,28.167131,80.65888,-18.083109,2.4178493,-13.964195,-2.5724814,-4.002494,47.770042,-29.24902,8.072351,1.9497786,2.239294,5.859553,23.883865,25.971899,-8.746084,30.937231,-5.757402,8.115577,6.034089,-11.365913,-19.172686,31.83691,21.820251,-1.0499709,3.5727017,3.2637606
110,36.69000244140625,32.47539520263672,72.61955261230469,-1.4471437581083815,4.545686746266827,-109.21046036072768,-39.120968,32.397495,29.116182,82.37432,-18.949026,3.9212074,-15.058572,-2.9424632,-3.0823188,48.462288,-29.460691,8.3277645,2.3740542,1.8603983,5.939382,24.212881,25.517757,-8.057608,31.132246,-5.0437098,8.344979,6.7227173,-10.750624,-19.174776,31.161251,21.57866,-1.877395,3.9431603,2.9365857
111,37.180458068847656,32.915992736816406,72.58705139160156,-1.1454001362829225,4.527244492471989,-109.88049941773117,-37.981003,33.705563,29.839653,83.78157,-19.682814,5.219892,-15.964086,-3.3155375,-2.1826828,48.90045,-29.482466,8.605618,2.7337437,1.4673,6.008548,24.439936,25.008888,-7.4628043,31.408237,-4.5326076,8.518589,7.463864,-10.068585,-19.132215,30.53913,21.50498,-2.5643742,4.312904,2.5219483
112,37.675357818603516,33.291481018066406,72.62557983398438,-0.8994888201904935,4.4915343430344095,-110.40731749087703,-36.885426,34.634243,30.155062,84.83801,-20.246445,6.3304787,-16.627794,-3.6696026,-1.438233,48.96634,-29.281818,8.927305,2.9074779,1.1512717,6.0022554,24.582426,24.50004,-7.089309,31.76045,-4.546429,8.599987,8.268621,-9.42377,-19.076822,30.130627,21.693277,-2.8296862,4.609107,1.9712552
113,38.15847396850586,33.641414642333984,72.74322509765625,-0.7144523532172723,4.3998610201303325,-110.74558551431662,-35.831974,35.148453,29.973263,85.525856,-20.62451,7.247731,-16.952553,-4.0196466,-0.8931264,48.591854,-28.864405,9.297033,2.8699822,0.9102464,5.922115,24.645151,24.032114,-7.0109086,32.206757,-5.398316,8.5322695,9.256767,-8.774714,-19.029232,29.980906,22.158735,-2.4560518,4.8085136,1.1516318
114,38.64585876464844,33.97356414794922,72.91983032226562,-0.5548774155122316,4.248585272395023,-110.95247589027495,-34.764355,35.30124,29.394049,85.873024,-20.827877,7.96594,-16.996105,-4.3846917,-0.47207326,47.859596,-28.247892,9.70177,2.709038,0.6925304,5.796552,24.620106,23.607183,-7.1643906,32.728203,-6.853104,8.325752,10.37609,-8.043481,-18.992332,29.974033,22.800081,-1.6354461,4.9368153,0.12750344
115,39.160667419433594,34.306365966796875,73.14945220947266,-0.43309968830178464,4.124237326791125,-111.08684207307701,-33.797974,35.15743,28.509005,85.914246,-20.855507,8.500278,-16.934814,-4.7480474,-0.13019396,46.873558,-27.41574,10.138013,2.4708579,0.5160041,5.6002645,24.507862,23.21586,-7.4687543,33.262554,-8.408111,8.05726,11.382511,-7.2827015,-18.978106,30.027369,23.535847,-0.69768524,4.9998364,-0.8546065
116,39.70661163330078,34.636558532714844,73.4307632446289,-0.3620386581431365,4.113721191054665,-111.20702141803987,-33.042915,34.77898,27.411684,85.686066,-20.709656,8.866033,-16.947489,-5.087091,0.17815724,45.735863,-26.349073,10.604359,2.1976635,0.40297934,5.312523,24.303946,22.839203,-7.8388453,33.74784,-9.563093,7.833079,12.04034,-6.5424085,-19.001408,30.06077,24.276266,0.028380338,5.022106,-1.5489293
117,40.28465270996094,34.94332504272461,73.7533950805664,-0.3676170990573586,4.25830654173862,-111.29984175491089,-32.557613,34.151245,26.048082,85.17687,-20.419405,9.036751,-17.06339,-5.3762383,0.41716686,44.404835,-25.015541,11.10889,1.8653288,0.38227516,4.89859,23.99008,22.460901,-8.268177,34.19867,-10.23817,7.7294755,12.237526,-5.829398,-19.077862,30.077263,25.008661,0.5788216,5.0327964,-1.8640238
118,40.8648567199707,35.25715637207031,74.12423706054688,-0.43548796378908017,4.504973271743317,-111.34343870765576,-32.24349,33.247913,24.408348,84.380104,-19.98299,9.018676,-17.191048,-5.628085,0.57970876,42.842884,-23.429634,11.6497965,1.4606661,0.44558188,4.384386,23.567745,22.07829,-8.793633,34.64411,-10.680326,7.689278,12.120145,-5.110416,-19.213198,30.112854,25.758856,1.0923234,5.0208483,-1.9393604
119,41.49842071533203,35.55418014526367,74.51826477050781,-0.518443693435308,4.799438940792666,-111.3829324442822,-31.980658,32.113777,22.64743,83.347664,-19.35377,8.873967,-17.329975,-5.873247,0.75499374,41.15834,-21.641188,12.21232,1.0403148,0.5542831,3.8402228,23.06023,21.694542,-9.392425,35.04269,-10.883499,7.6310267,11.845296,-4.3783417,-19.404554,30.136559,26.501844,1.3887993,4.959516,-1.8760974
120,42.17080307006836,35.867820739746094,74.93956756591797,-0.5700019270422592,5.087871244086458,-111.46301522297722,-31.660807,30.796583,20.911257,82.12677,-18.483355,8.662568,-17.481678,-6.1430454,1.0327272,39.46044,-19.700098,12.78193,0.6605812,0.6647942,3.3338003,22.49333,21.317137,-10.041996,35.35193,-10.843369,7.469865,11.569202,-3.6287682,-19.64353,30.115765,27.21563,1.2871277,4.820694,-1.7757821
121,42.863155364990234,36.16082763671875,75.38846588134766,-0.5813780178403347,5.386147845810175,-111.58084791464368,-31.33663,29.220276,19.117603,80.71082,-17.253061,8.463728,-17.670269,-6.44927,1.4152708,37.74998,-17.555773,13.359214,0.32973695,0.7668343,2.8493543,21.85869,20.943888,-10.751351,35.582462,-10.437525,7.152038,11.270152,-2.8362112,-19.922943,30.01234,27.910889,0.55313843,4.563303,-1.6119225
122,43.54601287841797,36.43655014038086,75.8556137084961,-0.5751732252342743,5.7128179388773965,-111.7167713547044,-31.008389,27.38653,17.230335,79.08664,-15.731286,8.220118,-17.889706,-6.7644987,1.8636638,35.977573,-15.199897,13.949076,0.021363957,0.8787589,2.3613698,21.148655,20.573849,-11.527165,35.74955,-9.712751,6.7287846,10.890214,-2.0084095,-20.2416,29.844992,28.594791,-0.6561411,4.209363,-1.3539168
123,44.250003814697266,36.70998764038086,76.3236083984375,-0.5539813935448595,6.018103734557029,-111.89051396788017,-30.519466,25.467812,15.443394,77.27608,-14.158897,7.7918487,-18.10229,-7.0690856,2.4092128,34.18677,-12.751468,14.546183,-0.2609546,0.9967394,1.9208354,20.389996,20.221436,-12.344543,35.816486,-8.918387,6.275961,10.528224,-1.1980846,-20.600767,29.669298,29.24775,-1.934255,3.8264213,-1.0948713
124,44.987335205078125,36.999359130859375,76.78936767578125,-0.5411432157358866,6.252673301575923,-112.12760904394497,-29.75368,23.662498,13.913421,75.30116,-12.774731,7.036986,-18.259254,-7.3201065,3.0623515,32.40285,-10.320277,15.000033,-0.50660616,1.1318072,1.5788273,19.610952,19.908081,-13.180979,35.742405,-8.3033695,5.8755827,10.276212,-0.45708615,-21.001436,29.540894,29.849827,-2.8758779,3.4878507,-0.92020476
125,45.731048583984375,37.28769302368164,77.24729919433594,-0.6126729692292565,6.394566905560568,-112.4595466354328,-28.696379,22.03318,12.531518,73.13805,-11.552492,5.737238,-18.273611,-7.4316688,3.7368565,30.464796,-7.7579513,15.000033,-0.6914487,1.3499935,1.3624331,18.81098,19.647398,-14.08137,35.507538,-7.9883103,5.533712,10.205013,0.2026196,-21.44525,29.479471,30.401245,-3.3889747,3.223725,-0.8696015
126,46.47328567504883,37.57127380371094,77.66655731201172,-0.6760602298770086,6.470502015797616,-112.84935073437765,-27.393885,20.412426,11.285363,70.751236,-10.397356,4.0551443,-18.21697,-7.552319,4.49827,28.4681,-5.0979595,15.000033,-0.83752877,1.5634441,1.2432256,17.981384,19.438694,-15.046551,35.1271,-7.8259254,5.216142,10.24485,0.81294596,-21.931583,29.446077,30.90514,-3.6852856,2.9933226,-0.88769764
127,47.221805572509766,37.856895446777344,78.04901123046875,-0.7219601450698334,6.5078449636518885,-113.27243544475196,-25.950659,18.89682,10.2768135,68.22633,-9.453576,2.3446574,-18.177814,-7.6866612,5.383624,26.612247,-2.6009638,15.000033,-0.95590615,1.7588376,1.1853764,17.139254,19.27961,-15.987989,34.61351,-7.6611967,4.9465117,10.274914,1.3828377,-22.457888,29.413382,31.350546,-3.8173237,2.7695205,-0.91287833
128,47.97640609741211,38.140663146972656,78.38020324707031,-0.7415945703548358,6.535459923584375,-113.70548293524277,-24.481522,17.582664,9.624714,65.650734,-8.849531,0.9597545,-18.244856,-7.8346725,6.4333572,25.097504,-0.5290145,15.000033,-1.0610946,1.9254196,1.1514765,16.306677,19.166693,-16.81197,33.977028,-7.338131,4.7477865,10.175503,1.9180936,-23.017849,29.36093,31.728762,-3.836102,2.5248015,-0.8850921
129,48.761863708496094,38.42110061645508,78.65074157714844,-0.725248741308527,6.553116127480301,-114.16464728218979,-22.931278,16.474564,9.403182,62.865883,-8.601073,-0.06651565,-18.408987,-7.945498,7.909147,23.779905,1.1600679,15.000033,-1.1548268,2.0534146,1.1368524,15.502644,19.09561,-17.496292,33.205944,-6.768746,4.655361,9.92133,2.3938138,-23.61098,29.321552,32.077682,-3.6953862,2.2035172,-0.8058656
130,49.53183364868164,38.72016143798828,78.83857727050781,-0.6807657394514699,6.550779894549262,-114.65598106244079,-21.290573,15.506126,9.543072,59.867596,-8.615217,-0.9157571,-18.628506,-8.041979,9.715836,22.622036,2.566032,15.000033,-1.235562,2.1535118,1.1545458,14.71596,19.066034,-18.087992,32.29996,-6.04763,4.644159,9.573559,2.8043344,-24.237772,29.302948,32.40181,-3.3860214,1.8365791,-0.70046514
131,50.30925750732422,39.026824951171875,78.96308135986328,-0.6287001283865996,6.544084520680609,-115.14304709258663,-19.748817,14.672215,9.961049,56.98834,-8.861997,-1.5565776,-18.963022,-8.204285,11.35294,21.99246,3.5220969,15.000033,-1.3073417,2.2474391,1.1923023,13.9185915,19.084404,-18.60027,31.286499,-5.2964087,4.6463466,9.143035,3.1924767,-24.88805,29.242395,32.636673,-3.0181224,1.5268047,-0.5456351
132,51.09352493286133,39.34781265258789,79.04703521728516,-0.589119431335049,6.547738320581909,-115.58967824217657,-18.493633,13.985011,10.577762,54.57217,-9.325307,-1.9421821,-19.478077,-8.490392,12.313611,22.245754,3.8625004,15.000033,-1.371649,2.353213,1.2384408,13.081242,19.163027,-19.046436,30.19119,-4.6399336,4.5957756,8.641449,3.596558,-25.545664,29.075584,32.724464,-2.7023828,1.3764691,-0.32030162
133,51.87213897705078,39.65663146972656,79.07041931152344,-0.5542964848784299,6.554290437164611,-116.02056352198554,-17.52871,13.488707,11.532629,52.67515,-10.084757,-2.01169,-20.18504,-8.95715,12.3892565,23.462854,3.4590802,15.000033,-1.4062932,2.4587207,1.2923409,12.223994,19.313375,-19.410347,28.982277,-4.065254,4.452484,8.028986,4.015404,-26.19818,28.782692,32.653927,-2.4513967,1.4506487,0.020768275
134,52.634883880615234,40.00862121582031,79.0289306640625,-0.5061379486678221,6.557289744622281,-116.4403384612397,-16.767582,13.137682,12.8268175,51.125206,-11.124101,-1.8071393,-21.05104,-9.589836,11.890997,25.444078,2.4320052,15.000033,-1.4173416,2.5429611,1.3605629,11.3561125,19.541187,-19.695192,27.649153,-3.5267448,4.2586865,7.313294,4.42851,-26.841196,28.39705,32.465267,-2.2174993,1.6823317,0.45146722
135,53.39833068847656,40.38291931152344,78.93827056884766,-0.44691623353785465,6.570374927998583,-116.780242374014,-16.265947,12.830386,14.170525,49.942062,-12.285664,-1.4205223,-22.051214,-10.340943,11.087754,28.079374,1.008306,15.000033,-1.4508787,2.6072428,1.4454113,10.433795,19.849024,-19.94121,26.24434,-3.0989246,4.0771384,6.57691,4.8416643,-27.470797,27.936636,32.182102,-2.0174673,1.9747491,0.88483757
136,54.181827545166016,40.7573356628418,78.78150177001953,-0.3823221317743601,6.6077041863844626,-116.97260667995072,-16.082605,12.482921,15.273511,49.150654,-13.413758,-0.94173354,-23.163992,-11.139794,10.243913,31.273256,-0.5823824,15.000033,-1.5493579,2.6563294,1.5477059,9.407884,20.236696,-20.19285,24.827791,-2.8544755,3.9715354,5.9021206,5.2709813,-28.083778,27.412132,31.821383,-1.8709537,2.2301657,1.2353966
137,54.954917907714844,41.14710235595703,78.58798217773438,-0.32681342295778065,6.68678596173479,-117.00116452659148,-16.324358,12.145145,16.138706,48.910572,-14.500327,-0.28114256,-24.455395,-11.98145,9.337874,35.193752,-2.4115825,15.000033,-1.7375578,2.7086148,1.6589686,8.226617,20.721964,-20.489006,23.392069,-2.8609698,3.957362,5.27966,5.7007174,-28.68111,26.828682,31.400093,-1.7928392,2.4092956,1.4962718
138,55.698143005371094,41.56993865966797,78.3579330444336,-0.3033542730375529,6.789843986564158,-116.90312274352061,-16.93701,11.887783,16.872322,49.191807,-15.635149,0.56343406,-25.867418,-12.913664,8.256063,39.778614,-4.5419073,14.930659,-1.9820062,2.7822492,1.7885904,6.932011,21.309116,-20.801739,21.902405,-3.0660236,4.0058875,4.6747775,6.1388497,-29.260601,26.173826,30.900682,-1.7705946,2.5675468,1.7088656
139,56.44851303100586,42.057193756103516,78.07106018066406,-0.3671948765400961,6.887882517613965,-116.70952799232202,-17.760065,11.714173,17.332333,49.75098,-16.809994,1.3588765,-27.198051,-13.853836,6.939791,44.58014,-6.7147346,14.0412035,-2.2285051,2.9160078,1.9548035,5.6175637,21.963074,-21.070597,20.377817,-3.3562357,4.1206894,4.1343904,6.6205845,-29.811333,25.444416,30.30302,-1.7743233,2.7488587,1.8590469
140,57.17210006713867,42.553565979003906,77.74610137939453,-0.3589706081591419,6.947219029969701,-116.39765715464458,-18.54854,11.338016,17.494509,50.189014,-17.950115,1.9439293,-28.31164,-14.891888,5.7852488,49.282703,-8.74246,13.214778,-2.4773507,2.9621873,2.167374,4.3627777,22.627733,-21.232264,18.87009,-3.6097617,4.2987137,3.7063951,7.1646085,-30.318106,24.648891,29.60554,-1.7740322,2.9981983,1.931254
141,57.885475158691406,43.03910446166992,77.37267303466797,-0.24516253433705595,6.935342809125826,-115.92694362924594,-19.26206,10.671491,17.253534,50.47095,-19.091574,2.2160952,-29.196356,-16.069422,4.775657,54.002563,-10.640416,12.429839,-2.740687,2.902094,2.4489279,3.0328805,23.285233,-21.32918,17.517416,-3.8299093,4.527519,3.4015844,7.766894,-30.777552,23.785002,28.843586,-1.7026868,3.3462317,1.879208
142,58.57500457763672,43.54567337036133,76.98477172851562,-0.06128288793370867,6.876717495134746,-115.31087455403343,-19.995878,9.806414,16.693796,50.755177,-20.241371,2.2956495,-29.910889,-17.339703,3.82119,58.871418,-12.500059,11.66059,-3.0248852,2.7729845,2.7754347,1.6044903,23.932388,-21.391249,16.300184,-4.0607195,4.809546,3.1975813,8.409348,-31.189224,22.856962,28.02627,-1.59621,3.7632847,1.7234653
143,59.26923751831055,44.02936935424805,76.5949478149414,0.133975440267611,6.823343630010348,-114.63371679845088,-20.75081,8.876688,16.018396,51.013206,-21.318142,2.3221836,-30.408438,-18.517254,2.9429216,63.54865,-14.202086,11.03232,-3.3110242,2.6169279,3.0867314,0.3284311,24.523191,-21.31497,15.046395,-4.232944,5.1604295,3.0944667,9.056363,-31.54213,21.905697,27.146051,-1.5789349,4.201504,1.548194
144,59.960289001464844,44.48387145996094,76.2164077758789,0.2832972456689738,6.8293763049460825,-113.97922300476456,-21.535608,8.015755,15.4233465,51.21006,-22.238762,2.4353776,-30.66778,-19.421753,2.1572545,67.71384,-15.631479,10.666981,-3.591481,2.483508,3.317898,-0.5464457,24.991713,-20.970184,13.608257,-4.2648635,5.5937815,3.0919888,9.64794,-31.821854,20.995617,26.22169,-1.7764419,4.615385,1.4359385
145,60.63236999511719,44.93009948730469,75.87899780273438,0.36082824328833824,6.956632169464218,-113.32375482188577,-22.444357,7.2454286,14.891726,51.359753,-23.003712,2.6629093,-30.734152,-20.029488,1.4060131,71.36193,-16.71441,10.603018,-3.8920665,2.3944616,3.4113362,-0.96334,25.27557,-20.216074,11.971782,-4.0283923,6.1472287,3.125502,10.154086,-32.02643,20.165619,25.279087,-2.313854,5.0221815,1.3816121
146,61.25508117675781,45.40178680419922,75.59182739257812,0.3993502186273662,7.1617555807215565,-112.63893548305651,-23.441671,6.4991755,14.342824,51.472115,-23.650043,2.9320772,-30.620806,-20.39402,0.6651271,74.663315,-17.533148,10.790957,-4.2150292,2.3373926,3.3986027,-1.1063659,25.362522,-19.148424,10.299813,-3.579173,6.7985253,3.2113445,10.580723,-32.164036,19.404404,24.345478,-3.0935516,5.4372754,1.348444
147,61.85289764404297,45.854496002197266,75.36434173583984,0.4288416332328293,7.341877301374712,-112.00045736954135,-24.348885,5.781258,13.86916,51.497902,-24.147072,3.2339783,-30.27455,-20.465006,0.0069249347,77.55509,-18.205843,11.206274,-4.5050173,2.3024669,3.3523626,-1.0716307,25.279144,-17.993668,8.686168,-3.1166549,7.4749775,3.4766169,10.941193,-32.235867,18.679955,23.427677,-3.9172769,5.8102584,1.3717903
148,62.47793960571289,46.267677307128906,75.17888641357422,0.4784661302534772,7.393944776209963,-111.48345273419304,-24.992407,5.101445,13.558993,51.39098,-24.464455,3.5608673,-29.645891,-20.203032,-0.48699757,79.96769,-18.84924,11.817219,-4.7065353,2.2735646,3.3527274,-0.9104121,25.078434,-16.97074,7.1714787,-2.849672,8.106277,4.0550084,11.249065,-32.23176,17.956112,22.524944,-4.5867105,6.0891743,1.4838619
149,63.05552673339844,46.669124603271484,75.05106353759766,0.554770505925551,7.272229638664301,-111.10582662675003,-25.298656,4.4683504,13.4472685,51.134617,-24.602648,3.926612,-28.663727,-19.561974,-0.7683908,81.866585,-19.496716,12.697042,-4.817456,2.2284248,3.44212,-0.5346523,24.78398,-16.0785,5.60111,-2.8117735,8.800395,5.110608,11.518313,-32.127632,17.137638,21.558338,-5.181756,6.2713275,1.8242441
150,63.6186408996582,47.04511642456055,74.9872817993164,0.6416683802590936,7.03729289380697,-110.82717667515132,-25.374094,3.8796062,13.477445,50.752686,-24.573553,4.3321977,-27.39113,-18.576817,-0.88732797,83.29503,-20.095682,13.8257065,-4.849152,2.1661608,3.5758612,0.07198326,24.397606,-15.238918,3.9718218,-2.924903,9.551947,6.5391145,11.762539,-31.914484,16.249111,20.538345,-5.777494,6.375565,2.3311684
151,64.15061950683594,47.397525787353516,74.98019409179688,0.7376289411008853,6.745170850229667,-110.63393846671596,-25.320986,3.3274255,13.600526,50.26677,-24.366066,4.750765,-25.988258,-17.35969,-0.8959757,84.31752,-20.62811,15.000033,-4.777458,2.096251,3.7109315,0.77756274,23.954395,-14.539652,2.5173965,-3.222176,10.116531,8.071609,11.938679,-31.61492,15.460059,19.63492,-6.1495137,6.3856707,2.7305026
152,64.66056823730469,47.7526741027832,75.02580261230469,0.6906772875430081,6.480336505994454,-110.57312692958706,-25.328684,3.0117652,13.70504,49.82991,-24.029837,5.1070733,-24.632645,-15.999239,-1.2034836,84.95188,-21.013702,15.000033,-4.529369,2.164094,3.798113,1.4646714,23.502651,-14.052545,1.4460683,-3.725518,10.247509,9.434555,12.013971,-31.262892,14.935113,18.987125,-6.0705867,6.292622,2.7514055
153,65.16004180908203,48.124549865722656,75.12271118164062,0.6098631118541216,6.188114849513899,-110.62983152063731,-25.287527,2.7969344,13.866815,49.355965,-23.529911,5.4515457,-23.278055,-14.401792,-1.3707879,85.20005,-21.275385,15.000033,-4.1219773,2.2812638,3.8808365,2.16087,23.072182,-13.815812,0.7764507,-4.6418414,9.71552,10.690297,11.98748,-30.868242,14.730918,18.659803,-5.259043,6.0210466,2.1689267
154,65.66828155517578,48.52130889892578,75.25732421875,0.5591432438367846,5.840803275119698,-110.77200878186406,-25.134695,2.601561,14.120026,48.78506,-22.843733,5.8072906,-21.855728,-12.623602,-1.347686,85.063675,-21.441956,15.000033,-3.612051,2.3758807,3.9800265,2.9375644,22.66376,-13.772405,0.3693826,-5.8804865,8.688566,11.916266,11.877427,-30.422976,14.7653055,18.545965,-3.9070916,5.58515,1.1866428
155,66.17382049560547,48.948951721191406,75.42622375488281,0.5395964150201711,5.522148699566356,-110.92952989696987,-25.0024,2.394932,14.39227,48.136147,-21.96776,6.1406794,-20.479137,-10.817098,-1.2084011,84.60711,-21.501183,15.000033,-3.0596206,2.4407344,4.0357637,3.7370012,22.281603,-13.841868,0.1965348,-7.024577,7.5409937,12.872329,11.662513,-29.94382,14.995039,18.540514,-2.4838696,5.122931,0.1739786
156,66.67701721191406,49.40726852416992,75.61849212646484,0.5464888569265784,5.319010415757876,-111.036904261202,-25.023876,2.15113,14.611793,47.427166,-20.89954,6.4168363,-19.266628,-9.131323,-1.0383574,83.89442,-21.436295,15.000033,-2.527067,2.4750037,3.9902163,4.520396,21.928928,-13.928998,0.20934884,-7.6858544,6.6703825,13.351046,11.32237,-29.459349,15.377535,18.526602,-1.4416001,4.8019915,-0.5127514
157,67.15391540527344,49.89051055908203,75.84461212158203,0.5793853112268749,5.2799787251181405,-111.0931322379951,-25.260859,1.8705103,14.779207,46.657764,-19.604391,6.635954,-18.272856,-7.5809965,-0.8608678,82.925934,-21.197113,15.000033,-2.0134928,2.4822495,3.803081,5.300568,21.605392,-14.015301,0.43024752,-7.7343802,6.124244,13.221816,10.8489065,-28.983828,15.925637,18.48619,-0.82010597,4.730056,-0.7836178
158,67.65634155273438,50.38600158691406,76.0916976928711,0.6369793595142969,5.354218114189441,-111.13276156318352,-25.632565,1.568671,14.930248,45.813995,-18.093334,6.8117547,-17.42384,-6.0979085,-0.63013333,81.67379,-20.800568,15.000033,-1.4933151,2.4669127,3.5142517,6.105156,21.307245,-14.136034,0.85820216,-7.405982,5.720887,12.636959,10.265614,-28.515617,16.654636,18.461786,-0.38914424,4.8093705,-0.8325943
159,68.14347839355469,50.88291931152344,76.36079406738281,0.7099796351064662,5.48088172300037,-111.14585387605166,-26.056143,1.2442077,15.0457325,44.88548,-16.427032,6.930413,-16.649752,-4.7018147,-0.34093407,80.15768,-20.326754,15.000033,-0.9897631,2.433027,3.1867695,6.917051,21.033094,-14.273843,1.4072537,-6.8681993,5.5178413,11.826708,9.593524,-28.06417,17.521431,18.428896,-0.19150512,4.9147735,-0.7342513
160,68.64712524414062,51.39858627319336,76.64616394042969,0.7898448036810124,5.598639614145131,-111.12182378392646,-26.449415,0.8901128,15.105319,43.86407,-14.667234,6.9796205,-15.882788,-3.4107916,0.0127572315,78.3989,-19.857132,15.000033,-0.5268002,2.389131,2.8860798,7.721477,20.781961,-14.411046,1.9878377,-6.283277,5.576418,11.015424,8.851612,-27.645424,18.482105,18.357769,-0.2653474,4.918673,-0.56065047
161,69.13802337646484,51.93259048461914,76.9470443725586,0.8763864503146234,5.718269611062669,-111.05391130873006,-26.813187,0.49028274,15.0982895,42.71716,-12.79074,6.9672747,-15.12986,-2.2048726,0.47099236,76.36392,-19.390171,15.000033,-0.10498417,2.34152,2.6039035,8.525998,20.54819,-14.52634,2.5931551,-5.512506,6.0687604,10.111738,8.049594,-27.270887,19.5465,18.216452,-0.7692049,4.7854676,-0.2624271
162,69.65164947509766,52.470855712890625,77.24874877929688,0.9667744873416505,5.865916789198132,-110.9538583015915,-27.184584,0.051476363,15.038445,41.456642,-10.776052,6.898942,-14.413141,-1.0793564,1.0012172,74.05229,-18.895071,15.000033,0.28886408,2.2985926,2.3144214,9.338069,20.327505,-14.630502,3.2619407,-4.5143948,6.8976374,9.031673,7.181538,-26.9385,20.729603,18.01391,-1.6230607,4.5793276,0.17543748
163,70.16924285888672,53.02438735961914,77.5518569946289,1.0514725878360875,6.002323431874882,-110.83691071815385,-27.532665,-0.4037096,14.937346,40.133476,-8.68101,6.7570815,-13.691141,-0.07847815,1.5009236,71.53369,-18.4001,15.000033,0.6518732,2.2703502,2.0583498,10.141008,20.124691,-14.755395,3.9725032,-3.6065078,7.7392364,8.021369,6.2459025,-26.641424,21.99142,17.779839,-2.5123127,4.325262,0.6303355
164,70.66890716552734,53.57958221435547,77.85498046875,1.1222484185643826,6.0864206598925366,-110.71576150532766,-27.828724,-0.8435871,14.798772,38.81004,-6.569381,6.520643,-12.921857,0.76026523,1.8728251,68.87054,-17.9373,15.000033,0.9830943,2.2625248,1.8780288,10.913979,19.952896,-14.937157,4.7030315,-3.1289954,8.289007,7.3477926,5.241085,-26.37174,23.287727,17.544857,-3.1245875,4.0559454,0.9832347
165,71.1843032836914,54.15892791748047,78.15388488769531,1.1798608588822497,6.094755396017823,-110.59081300673544,-28.03045,-1.2568884,14.649893,37.46478,-4.416653,6.222875,-12.047312,1.424683,2.091436,65.98405,-17.590658,15.000033,1.2878165,2.2708657,1.7862554,11.650921,19.828804,-15.223919,5.4793153,-3.2733393,8.482411,7.1813426,4.150312,-26.133259,24.665874,17.318344,-3.3754528,3.7709315,1.1678514
166,71.69231414794922,54.743568420410156,78.43881225585938,1.2247497123834428,6.052215828340275,-110.45570800561586,-28.16704,-1.6576722,14.467604,36.08426,-2.2048283,5.858466,-11.097623,1.9534904,2.1909816,62.856438,-17.318197,15.000033,1.5681608,2.2946918,1.763303,12.367305,19.756815,-15.583807,6.2917047,-3.8396218,8.485605,7.355363,2.98319,-25.923079,26.124735,17.073698,-3.4316342,3.4592707,1.2618876
167,72.21794128417969,55.32567596435547,78.70195770263672,1.2500528913751439,5.988772513294428,-110.3102257680679,-28.309528,-2.0584483,14.173629,34.727577,-0.0009774778,5.3427024,-10.163701,2.3855064,2.169241,59.641987,-16.960766,15.000033,1.818883,2.3399913,1.8018087,13.066597,19.730232,-15.935546,7.077595,-4.585736,8.344007,7.6386995,1.7784834,-25.72008,27.542654,16.792913,-3.3663638,3.1412363,1.364054
168,72.73255920410156,55.94802474975586,78.9183120727539,1.251735851676708,5.933901859448041,-110.15389656114101,-28.524513,-2.4718935,13.68525,33.448753,2.126918,4.585696,-9.341868,2.7476432,2.028693,56.504425,-16.362547,15.000033,2.038214,2.408326,1.8923913,13.746101,19.737383,-16.203457,7.781325,-5.266285,8.1098,7.8016396,0.5770807,-25.495857,28.792511,16.466105,-3.259505,2.836356,1.5722651
169,73.26282501220703,56.579227447509766,79.10694122314453,1.2210093969809597,5.897241213683196,-109.98393411151761,-28.8653,-2.8540099,13.059729,32.31735,4.2188125,3.6848545,-8.60987,3.063986,1.7379521,53.30894,-15.448067,15.000033,2.2154577,2.5046387,2.0373068,14.399956,19.7726,-16.38093,8.407939,-5.926596,7.722613,7.8230405,-0.633962,-25.228579,29.83745,16.113869,-3.1063974,2.5284588,1.9367464
170,73.75220489501953,57.30429458618164,79.25917053222656,1.1668890648421706,5.8605471419231865,-109.79984914651111,-29.276453,-3.2185977,12.298397,31.281263,6.281553,2.6311548,-7.9250517,3.319841,1.3070674,50.01649,-14.309571,15.000033,2.354072,2.6178334,2.2359402,15.025041,19.839802,-16.505447,8.992832,-6.6553736,7.1807523,7.8079996,-1.8858778,-24.915998,30.744244,15.765476,-2.8827143,2.2145216,2.3975391
171,74.30415344238281,57.992034912109375,79.35469818115234,1.1059399648217707,5.8101628622675205,-109.60624731463658,-29.649857,-3.6537032,11.220897,30.209929,8.186332,1.1690845,-7.368572,3.4701347,0.78154814,46.968105,-13.055166,15.000033,2.4729,2.7324147,2.4784632,15.624081,19.94104,-16.565008,9.523495,-7.2764897,6.629502,7.722629,-3.1667793,-24.565899,31.545292,15.423888,-2.6357625,1.9328836,2.8861046
172,74.84883117675781,58.67002487182617,79.39029693603516,0.9255788997583045,5.738231772630599,-109.4315857335498,-29.971643,-4.0926433,9.565978,29.184557,9.68607,-0.9884662,-7.005617,3.6131332,0.051837683,44.4298,-11.745356,14.409089,2.612623,2.9547873,2.7445595,16.201752,20.076918,-16.545162,9.985274,-7.6152983,6.2143598,7.5393324,-4.4611187,-24.19467,32.27677,15.086487,-2.413733,1.7211702,3.333766
173,75.3872299194336,59.35710144042969,79.3629379272461,0.5253604892205719,5.641411596165586,-109.28275047901454,-30.199041,-4.5053453,7.034462,28.136711,10.647425,-4.1392164,-6.9256334,3.7954216,-1.1523733,42.514206,-10.087909,12.184775,2.7873282,3.379007,3.0340147,16.757072,20.243092,-16.428709,10.390383,-7.5800443,5.9587264,7.202814,-5.780058,-23.816767,32.95065,14.764652,-2.1872394,1.5951967,3.7450616
174,75.92558288574219,60.05674743652344,79.27821350097656,-0.006817534955496235,5.522205648246703,-109.14387973735651,-30.309093,-4.9084544,3.8802686,27.073391,11.108379,-8.023098,-7.092302,3.90676,-2.7383435,41.143055,-8.248013,9.136006,2.969946,3.927802,3.359023,17.29298,20.435638,-16.221584,10.735896,-7.2797093,5.7875834,6.747212,-7.124168,-23.43805,33.55335,14.447241,-1.942561,1.5339441,4.1483707
175,76.41810607910156,60.78688049316406,79.13216400146484,-0.5340056103075942,5.388805288983166,-109.01553983739655,-30.386202,-5.2615204,0.65941614,26.27514,11.073017,-12.110529,-7.360506,3.919053,-4.424364,40.217506,-6.9045916,5.981042,3.146013,4.46897,3.7113483,17.817387,20.657839,-15.946242,10.98365,-6.8419237,5.69819,6.280391,-8.459253,-23.059052,34.083878,14.091795,-1.7478526,1.5177897,4.5096393
176,76.90870666503906,61.53156661987305,78.89997100830078,-0.8808510943073925,5.24946351287628,-108.88794955905962,-30.540455,-5.5727363,-1.8012633,25.977722,10.657481,-15.000033,-7.5907345,3.8108368,-5.7919016,39.62593,-6.669559,3.517514,3.2932754,4.837677,4.0848327,18.341034,20.917593,-15.625295,11.0919485,-6.3954344,5.6914873,5.9094996,-9.7486,-22.676376,34.53964,13.656387,-1.6744158,1.5256394,4.7949705
177,77.49248504638672,62.25663375854492,78.53321075439453,-0.6494143047501291,5.03443670456884,-108.6785292626325,-30.413742,-6.199673,-2.6777086,25.44692,10.322996,-15.000033,-7.75494,3.147736,-6.546397,39.702118,-8.126805,2.0774603,3.3410966,4.6665373,4.5639343,18.869705,21.223866,-15.256532,11.061247,-5.863913,5.7647343,5.628173,-10.994318,-22.291138,34.936092,13.148792,-1.7543201,1.5469952,4.954175
178,78.05891418457031,62.962459564208984,78.14640808105469,-0.2810182935861572,4.795620980387562,-108.47955282734601,-30.363516,-6.9115143,-3.316215,25.311123,9.651222,-15.000033,-7.850667,2.4092577,-6.9477234,40.045544,-10.56112,1.1552918,3.385698,4.353663,5.081014,19.40013,21.579765,-14.8259115,10.903719,-5.2177615,5.917609,5.3872466,-12.212461,-21.901394,35.27351,12.58499,-1.9455733,1.5931433,5.0174394
179,78.63876342773438,63.68723678588867,77.73176574707031,0.15768402771088058,4.593517749314837,-108.29851810101448,-30.691986,-7.5530124,-3.625915,26.115643,8.487252,-15.000033,-8.094759,1.6296206,-7.1011343,40.664417,-13.332235,0.63781476,3.4075882,3.9522405,5.583247,19.938715,21.975702,-14.347684,10.586277,-4.6587243,6.1617637,5.234572,-13.394734,-21.503765,35.522938,11.94387,-2.2068913,1.6759079,5.078198
180,79.22187805175781,64.42752838134766,77.2887954711914,0.5850039793322263,4.486212392763768,-108.14390715903849,-31.652231,-7.9361396,-3.516585,28.30229,6.762263,-15.000033,-8.704074,0.85582423,-7.125314,41.58459,-15.812087,0.3815296,3.388399,3.533699,6.018301,20.486042,22.395378,-13.840855,10.084265,-4.3864384,6.5109396,5.2210197,-14.533533,-21.09685,35.651104,11.205388,-2.497293,1.8066876,5.2309995
181,79.8095474243164,65.18778228759766,76.81791687011719,0.96571465691648,4.451279026678477,-108.00104889308935,-33.36162,-7.982196,-2.9658039,32.174812,4.3551874,-15.000033,-9.737225,0.10951061,-7.0121775,42.929077,-17.962942,0.45197862,3.3157878,3.1457603,6.4184146,21.04411,22.834658,-13.293863,9.353014,-4.482811,6.9754634,5.347423,-15.626068,-20.679201,35.5773,10.294549,-2.8673425,2.0040581,5.58584
182,80.35897827148438,65.96709442138672,76.3163833618164,1.2774652531954327,4.446327800770538,-107.8934031254154,-35.52832,-7.6894393,-2.1137927,37.20745,1.4842191,-15.000033,-11.040164,-0.5594563,-6.742671,44.621475,-20.062391,0.85100657,3.2251384,2.815606,6.813354,21.614752,23.29394,-12.706267,8.4187,-4.833568,7.5470314,5.597192,-16.678226,-20.25575,35.340237,9.246181,-3.3214073,2.254547,6.0678763
183,80.92105102539062,66.74534606933594,75.80138397216797,1.468952671665862,4.501298227403826,-107.8853619668858,-37.77853,-6.9957075,-1.1399326,42.592705,-1.4306158,-15.000033,-12.5131855,-1.0651575,-6.4027843,46.39812,-21.965685,1.340128,3.161895,2.575779,7.145387,22.191639,23.75725,-12.114593,7.3765287,-5.3419003,8.209788,5.996807,-17.69541,-19.839106,35.08865,8.205214,-3.7489908,2.524354,6.4925485
184,81.49642181396484,67.52279663085938,75.27717590332031,1.52929521391793,4.664488120307904,-108.02166094266809,-39.827118,-5.8987947,-0.16315669,47.65714,-4.033712,-15.000033,-14.085442,-1.3759652,-6.059417,48.003902,-23.520174,1.692598,3.1486597,2.4225833,7.3412404,22.75667,24.197819,-11.557295,6.337853,-5.905906,8.946351,6.569557,-18.680918,-19.44287,34.972782,7.315094,-4.036343,2.7839396,6.671933
185,82.04340362548828,68.25404357910156,74.77127075195312,1.439271395319422,5.0200315672868125,-108.34380101808323,-41.768997,-4.331372,0.80623794,52.45417,-6.3498282,-15.000033,-15.905484,-1.4690509,-5.7081223,49.502678,-24.66676,1.8473345,3.1780229,2.3812513,7.322163,23.331081,24.60768,-11.048958,5.293962,-6.6335154,9.812086,7.4402704,-19.756565,-19.079897,35.09716,6.644521,-4.0988097,3.0439408,6.5033956
186,82.58415985107422,68.992431640625,74.34803771972656,1.2061765230284596,5.505931865657705,-108.83624143240557,-43.666405,-2.3145635,1.730466,57.280632,-8.558659,-15.000033,-17.939873,-1.3530886,-5.3163466,50.984104,-25.49329,1.9319125,3.2516303,2.4547954,7.1606383,23.91074,24.983294,-10.567513,4.2109227,-7.5375957,10.783407,8.564675,-20.87549,-18.747911,35.364582,6.0943103,-4.0060034,3.3162484,6.100243
187,83.139404296875,69.73047637939453,74.01664733886719,0.8831061834744255,5.9656929915829195,-109.43884370828957,-45.252796,-0.010516627,2.5510259,61.906975,-10.573411,-15.000033,-19.86133,-1.0822569,-4.8966074,52.223373,-26.051659,2.0024836,3.388044,2.5825515,6.992216,24.427536,25.300665,-10.102134,3.1755147,-8.360081,11.735734,9.703026,-21.800018,-18.436693,35.626396,5.5753865,-3.878352,3.576898,5.6003437
188,83.70161437988281,70.40239715576172,73.75350952148438,0.631493578611952,6.260692426813956,-110.0371311289209,-46.266365,2.3488555,3.4065032,66.04613,-12.265201,-14.84838,-21.395325,-0.85393995,-4.427712,53.080975,-26.441324,2.1407087,3.5504165,2.6092894,6.9388814,24.801504,25.52367,-9.645757,2.28738,-8.824475,12.561144,10.602543,-22.30153,-18.136227,35.73949,5.0137043,-3.8418396,3.8035254,5.1432247
189,84.2846908569336,71.0291976928711,73.56490325927734,0.6544980131154978,6.3911295965548565,-110.55667083601678,-46.598606,4.9392433,5.2036915,69.63457,-13.555966,-12.334368,-22.578419,-0.9222347,-3.7986922,53.65412,-26.74151,2.4402165,3.6849825,2.355941,7.0269275,25.01569,25.619698,-9.154191,1.5431325,-8.707939,13.284317,11.133574,-22.282602,-17.838123,35.651245,4.3387713,-4.002213,4.008802,4.7114067
190,84.8349609375,71.6306381225586,73.45906829833984,0.6611734895462418,6.418477992956987,-111.12898607491641,-46.434837,7.8330007,7.095615,72.97941,-14.669383,-9.764745,-23.470503,-0.90698427,-3.1157527,53.83769,-26.79818,2.7687051,3.8672469,2.095732,7.1849976,25.098341,25.589617,-8.641018,0.9209615,-8.180007,13.955907,11.43406,-21.899858,-17.54208,35.462772,3.6351097,-4.273745,4.200533,4.2492433
191,85.36314392089844,72.1807632446289,73.42220306396484,0.6474275130910652,6.367896952790903,-111.6740655680907,-45.866642,10.736689,8.8760195,75.97439,-15.646345,-7.1789536,-24.085594,-0.8637107,-2.4717355,53.644123,-26.633654,3.1006327,4.0105534,1.859996,7.348577,25.036804,25.451601,-8.191679,0.48793048,-7.5520034,14.512543,11.654279,-21.30819,-17.260696,35.26192,3.0594575,-4.4911942,4.3476777,3.840617
192,85.86300659179688,72.69768524169922,73.48149108886719,0.6109269331153857,6.266757920970821,-112.10922411506795,-45.02997,13.331492,10.3372965,78.507996,-16.504591,-4.6361666,-24.442429,-0.85222936,-1.9587035,53.08889,-26.271812,3.4110172,4.0342574,1.6721892,7.4507985,24.81052,25.23398,-7.9024363,0.31035408,-7.1477537,14.890172,11.955724,-20.644758,-17.017534,35.12492,2.749136,-4.488599,4.416444,3.5691636
193,86.38269805908203,73.2232894897461,73.62557220458984,0.5589675243364831,6.068380936815281,-112.40399065814255,-43.897404,15.60211,11.496752,80.57975,-17.225254,-2.0126512,-24.455868,-0.8918084,-1.6175399,52.13127,-25.74377,3.6813715,3.9402425,1.5175033,7.4988675,24.382658,24.94089,-7.803711,0.45783934,-7.0248837,15.025056,12.409356,-19.831772,-16.831036,35.0218,2.6827402,-4.178079,4.371992,3.4727025
194,86.9215087890625,73.72126007080078,73.84784698486328,0.49420012212415815,5.777104946555702,-112.60394598496592,-42.458504,17.674707,12.488511,82.25206,-17.80192,0.6681725,-24.14803,-0.95699984,-1.3928447,50.77801,-25.030075,3.9300933,3.7770863,1.3832123,7.5222383,23.76382,24.570883,-7.855426,0.8753705,-7.0243964,14.96564,12.924186,-18.808172,-16.707638,34.918625,2.7706282,-3.657494,4.2407675,3.5026722
195,87.44995880126953,74.22017669677734,74.1465835571289,0.40868692708957416,5.4998341372120105,-112.73619468994646,-40.924522,19.42779,13.257637,83.51769,-18.217817,3.1122284,-23.704683,-1.0416994,-1.2342567,49.11921,-24.074162,4.1895556,3.531293,1.2903992,7.483401,23.009323,24.151728,-8.047261,1.4370855,-7.1533422,14.8154,13.423284,-17.734268,-16.654194,34.87999,3.0489624,-3.041629,4.0799346,3.6122303
196,87.98674774169922,74.70292663574219,74.50944519042969,0.29489603507348705,5.344663894690491,-112.82680265674816,-39.51445,20.7375,13.733588,84.36585,-18.435669,5.0204163,-23.310793,-1.1375895,-1.0920708,47.238407,-22.821121,4.493167,3.1919441,1.25462,7.3444467,22.176262,23.725468,-8.368088,2.0116506,-7.429029,14.677908,13.831198,-16.760746,-16.676508,34.956474,3.5462804,-2.4484098,3.945083,3.7519174
197,88.552001953125,75.18929290771484,74.91493225097656,0.13110843673373423,5.338552698326834,-112.85760665246795,-38.28263,21.526703,13.804442,84.7433,-18.377869,6.189503,-22.96547,-1.2179484,-0.99774235,45.072227,-21.2457,4.827306,2.7339923,1.2868729,7.0701647,21.274576,23.324812,-8.845033,2.584904,-8.002985,14.570397,14.1840105,-15.918361,-16.785557,35.193493,4.3258953,-1.7619828,3.8396456,3.967731
198,89.16024780273438,75.68196105957031,75.37623596191406,-0.06857992044985974,5.4270788157913135,-112.82035319829433,-37.148838,21.870071,13.532645,84.681015,-18.047321,6.8143635,-22.584929,-1.2830803,-0.9695361,42.594986,-19.3756,5.1864,2.1842055,1.3644285,6.690339,20.27891,22.951023,-9.480616,3.2076702,-8.835079,14.438689,14.504533,-15.105036,-16.98458,35.526688,5.327006,-0.96405417,3.7399304,4.2650647
199,89.78467559814453,76.19107818603516,75.8747787475586,-0.2568161224116067,5.596220583536988,-112.75532353931762,-36.121773,21.866419,13.101523,84.29257,-17.525593,7.192317,-22.229666,-1.3695623,-0.93372595,39.944183,-17.231014,5.612361,1.6058916,1.4527287,6.263266,19.189072,22.593948,-10.224627,3.8515835,-9.655406,14.282818,14.699096,-14.268779,-17.262695,35.843872,6.3939795,-0.33014932,3.6556604,4.5322065
200,90.44930267333984,76.72330474853516,76.39371490478516,-0.3880551290829338,5.831096849503727,-112.70341488349459,-35.20608,21.615778,12.697328,83.69059,-16.900576,7.62261,-21.964712,-1.5233849,-0.80783165,37.260315,-14.832117,6.1428003,1.0548782,1.517435,5.8451343,18.011963,22.237576,-11.019315,4.483585,-10.191562,14.108356,14.675106,-13.373532,-17.598616,36.042618,7.3872666,-0.13649766,3.5920458,4.657028
201,91.1512451171875,77.21341705322266,76.94905853271484,-0.4640436529964349,6.169322293905785,-112.65610503137142,-34.481922,20.99213,12.20845,82.85422,-16.156654,8.159761,-21.840923,-1.7686247,-0.5988875,34.53446,-12.072403,6.7279453,0.5174106,1.5568548,5.4109507,16.734514,21.858181,-11.860077,5.1212373,-10.350478,13.937843,14.408555,-12.386338,-17.977903,36.10002,8.271566,-0.6207018,3.5692477,4.593153
202,91.86180877685547,77.74633026123047,77.51211547851562,-0.5026633743734189,6.604444668211472,-112.59688925321994,-33.91079,19.991596,11.585841,81.745705,-15.257904,8.654615,-21.814585,-2.0734553,-0.32881954,31.704657,-8.975637,7.3643746,-0.037818324,1.590742,4.940641,15.36334,21.450294,-12.763449,5.77732,-10.279819,13.762307,13.949317,-11.351886,-18.396017,36.07845,9.146358,-1.5835052,3.5793347,4.404857
203,92.60841369628906,78.26052856445312,78.07816314697266,-0.48413621745615965,7.054797047245376,-112.55471912720901,-33.326515,18.897804,11.114213,80.44373,-14.272346,9.105315,-21.812195,-2.420292,0.08246516,28.840254,-5.7618203,8.16268,-0.5819667,1.6109474,4.4955606,13.937792,21.034313,-13.703321,6.4089394,-10.071781,13.54079,13.316998,-10.350944,-18.84344,36.00306,10.076094,-2.6500523,3.5834603,4.1473384
204,93.36636352539062,78.80718994140625,78.61188507080078,-0.387916405640513,7.438298669883474,-112.55727191103166,-32.58009,17.985374,11.074358,79.02608,-13.266317,9.50537,-21.752634,-2.8098707,0.7274546,26.0009,-2.6490612,9.240295,-1.0821898,1.59814,4.1354184,12.496108,20.647942,-14.661033,6.970426,-9.827201,13.233554,12.532649,-9.458964,-19.308628,35.892105,11.123,-3.4495223,3.5378478,3.8760552
205,94.15403747558594,79.34769439697266,79.11222076416016,-0.18720745861656485,7.752208114079771,-112.60391476100084,-31.641844,17.254822,11.554342,77.46514,-12.258599,9.818932,-21.582031,-3.291347,1.6744611,22.945724,0.53682023,10.675926,-1.536869,1.5270133,3.8681796,11.015515,20.319815,-15.675258,7.492512,-9.555497,12.800826,11.545947,-8.686394,-19.783878,35.728806,12.327204,-3.9515681,3.4047823,3.5705662
206,94.95960235595703,79.8927993774414,79.57556915283203,0.11253676975771855,8.027942082915676,-112.6760768036554,-30.582897,16.546625,12.402193,75.72451,-11.212193,10.053673,-21.322021,-3.9059715,2.9131324,19.690325,3.823339,12.411004,-1.9606584,1.3837773,3.6674328,9.496408,20.054468,-16.749714,7.967893,-9.230932,12.27102,10.37011,-7.9886937,-20.265707,35.497883,13.643896,-4.3370113,3.2151003,3.2148151
207,95.74275970458984,80.41742706298828,79.96147155761719,0.47704095747197656,8.237606154676744,-112.77703566723314,-29.415806,15.897602,13.537476,73.871346,-10.114136,10.265941,-21.029781,-4.631363,4.3918014,16.73132,6.753531,14.350764,-2.3440487,1.1728142,3.5382965,8.009184,19.85187,-17.817043,8.298546,-8.896688,11.710404,9.119272,-7.3688226,-20.74935,35.22543,15.016112,-4.5459166,3.022115,2.8707728
208,96.52580261230469,80.94570922851562,80.2604751586914,0.6972746613612626,8.345646948627824,-112.94555359670774,-28.214914,15.544641,14.721753,72.071045,-8.992656,10.444984,-20.639618,-5.200506,5.6123085,14.329767,9.016997,15.000033,-2.653129,1.0564368,3.5016832,6.629213,19.709726,-18.802189,8.383934,-8.588061,11.187669,7.90311,-6.839468,-21.227415,34.94874,16.39647,-4.516361,2.8778856,2.6002092
209,97.29705810546875,81.48663330078125,80.45364379882812,0.8265723016985692,8.314941308587377,-113.19051824709905,-26.944931,15.542993,16.099928,70.37259,-7.6469584,10.777224,-20.064274,-5.637926,6.7301993,12.384515,10.489073,15.000033,-2.893636,0.9810244,3.5907288,5.3854513,19.634176,-19.680443,8.182731,-8.268679,10.706511,6.658787,-6.4349527,-21.687286,34.677795,17.866024,-4.0432,2.7808514,2.4263773
210,98.00861358642578,82.0225601196289,80.58050537109375,0.9671317866747702,8.183377433186084,-113.48805718140919,-25.570206,15.728007,17.786413,68.68331,-6.133733,11.224816,-19.424559,-6.070908,7.9431715,10.945214,11.258404,15.000033,-3.0902739,0.86627233,3.774347,4.2416754,19.627302,-20.494505,7.750554,-7.935344,10.233479,5.3574767,-6.154573,-22.123177,34.407204,19.440819,-3.2247267,2.7043126,2.3147676
211,98.71220397949219,82.5809326171875,80.6529769897461,0.9955942640756761,8.041509939788844,-113.82741339066068,-24.180635,16.003857,19.52378,66.946014,-4.853871,11.455447,-19.049538,-6.3927345,9.050623,10.604371,11.340879,15.000033,-3.2344067,0.8446388,3.9691346,3.1703928,19.674196,-21.266941,7.1343503,-7.6633234,9.786087,4.1581235,-5.9690595,-22.545732,34.155632,20.985865,-2.449004,2.6636083,2.2394097
212,99.4378890991211,83.15391540527344,80.69349670410156,0.8054146654172125,7.980822569679358,-114.19619047689832,-22.877234,16.261362,21.044405,65.07707,-4.1822953,11.127439,-19.266624,-6.5073028,9.847659,11.909615,10.825045,15.000033,-3.3199039,1.0392243,4.091903,2.1389134,19.749989,-22.012173,6.383082,-7.5173826,9.385838,3.2166698,-5.8409286,-22.976234,33.940434,22.350876,-2.1018136,2.6763,2.1719613
213,100.18096160888672,83.70162200927734,80.69622802734375,0.38877643799827766,8.010154071010918,-114.61122266055922,-21.564217,16.478098,22.40059,62.840252,-4.1849523,10.004072,-20.177513,-6.4192734,10.28621,15.103752,9.770073,15.000033,-3.3399756,1.4654135,4.1398425,1.1432065,19.841578,-22.718485,5.4683504,-7.4407387,9.056358,2.5866687,-5.7778516,-23.43362,33.78617,23.52935,-2.366596,2.7644517,2.1233952
214,100.9510726928711,84.26374816894531,80.63068389892578,-0.10067092464062508,8.052901133469893,-115.04785497247478,-20.164639,16.612732,23.764702,60.28507,-4.6462874,8.359728,-21.468088,-6.310848,10.515386,19.610146,8.270319,15.000033,-3.3223245,1.9680536,4.175614,0.18382554,19.953096,-23.376274,4.3876867,-7.406701,8.784922,2.1735344,-5.780667,-23.92142,33.67962,24.567314,-3.0043607,2.9184542,2.1011872
215,101.74545288085938,84.82438659667969,80.49551391601562,-0.5450606282511875,8.0773893439841,-115.43437597086388,-18.82768,16.57422,25.02531,57.76478,-5.5277414,6.6257377,-22.854847,-6.3397675,10.625504,24.754765,6.493195,15.000033,-3.3088775,2.4305575,4.210669,-0.7665278,20.087118,-24.00374,3.2311392,-7.5259666,8.540412,1.9109966,-5.803826,-24.438236,33.578934,25.399612,-3.7695587,3.1078484,2.0723834
216,102.51587677001953,85.38386535644531,80.2681884765625,-0.9182401117430192,8.087085840984846,-115.72660586234718,-17.763786,16.378992,26.0103,55.671017,-6.797476,5.2013936,-24.123428,-6.5383277,10.654482,29.95366,4.5678835,15.000033,-3.3125594,2.831309,4.2299333,-1.7387747,20.23929,-24.62673,2.094115,-7.9127054,8.29011,1.7366358,-5.8047748,-24.983068,33.43743,25.968464,-4.4183364,3.2997136,2.0038717
217,103.27452087402344,85.9674301147461,79.95034790039062,-1.2928299112354418,8.097793946290988,-115.95452402642455,-17.00213,16.08155,26.62751,54.05483,-8.645815,4.1058464,-25.313734,-6.83707,10.580329,35.31799,2.3997242,15.000033,-3.3032165,3.2448905,4.2063575,-2.761674,20.407408,-25.27109,1.0202479,-8.778518,7.9547606,1.6903375,-5.7969503,-25.564442,33.27994,26.268856,-4.970596,3.4651022,1.8568574
218,104.05269622802734,86.54159545898438,79.5712661743164,-1.6785646281568332,8.105736869256067,-116.13250494799834,-16.440073,15.720153,26.984564,52.73883,-11.04521,3.2045412,-26.489656,-7.2559743,10.432476,41.045185,-0.03639755,15.000033,-3.2758057,3.6804426,4.1546187,-3.8203444,20.59125,-25.921429,-0.040499534,-9.998526,7.572689,1.7818978,-5.7878313,-26.186468,33.11331,26.3228,-5.527759,3.6291656,1.6598297
219,104.81024169921875,87.13041687011719,79.1288833618164,-2.002726947270376,8.108581032998082,-116.20905703271359,-16.144838,15.313657,27.15336,51.80474,-13.630631,2.590257,-27.569855,-7.876233,10.265518,46.84209,-2.561745,15.000033,-3.2658818,4.0676136,4.1032653,-4.879866,20.7832,-26.5448,-1.1290326,-11.185736,7.287954,1.9125041,-5.7241383,-26.836912,32.85922,26.118788,-5.9719715,3.8374622,1.4799229
220,105.55625915527344,87.73407745361328,78.61026763916016,-2.1885183780071134,8.106609828082366,-116.12995291801822,-16.19263,14.850063,27.184744,51.324795,-16.021797,2.296411,-28.482893,-8.749905,10.123984,52.448425,-5.0192933,15.000033,-3.3101413,4.331296,4.0750823,-5.9091086,20.970755,-27.114313,-2.2782855,-11.956181,7.2495027,1.9940685,-5.5472116,-27.49428,32.4331,25.650831,-6.1935296,4.1332192,1.3849037
221,106.31512451171875,88.36221313476562,78.03972625732422,-2.204732383418913,8.085564383785774,-115.89109493288802,-16.67718,14.304881,27.007921,51.47025,-18.212801,2.315519,-29.27002,-9.93414,9.997357,57.998383,-7.5048704,15.000033,-3.415605,4.4571934,4.070058,-6.976127,21.151865,-27.64907,-3.4787679,-12.294418,7.5390797,2.0952365,-5.29453,-28.149971,31.825838,24.92516,-6.0563493,4.580112,1.389116
222,107.06670379638672,89.00698852539062,77.4288330078125,-2.0942233219178163,8.05176653964393,-115.51377128247817,-17.542679,13.660239,26.59809,52.162342,-20.372286,2.5861795,-29.948475,-11.369476,9.891817,63.609188,-10.090734,15.000033,-3.5650723,4.481435,4.071835,-8.07642,21.32439,-28.162855,-4.708899,-12.377425,8.063474,2.23753,-4.9746222,-28.80148,31.06805,23.950243,-5.6603246,5.13675,1.4540565
223,107.81041717529297,89.66749572753906,76.8076400756836,-1.8965529211440357,8.038761197237921,-114.98441798358616,-18.636965,12.911297,26.069847,53.077484,-22.371641,3.0351954,-30.418926,-12.926382,9.801997,68.98824,-12.548291,15.000033,-3.7591136,4.411782,4.075138,-9.070726,21.469877,-28.618393,-5.976772,-12.107792,8.712401,2.260918,-4.513894,-29.43128,30.149164,22.753168,-5.237447,5.6874895,1.569617
224,108.54276275634766,90.30921936035156,76.17216491699219,-1.6600448923190754,8.083017303251248,-114.29590609019893,-19.81005,12.071267,25.541723,53.885914,-24.076775,3.5949101,-30.593563,-14.462175,9.6797695,73.84639,-14.638613,15.000033,-3.9946642,4.266682,4.0695133,-9.825689,21.560484,-28.97783,-7.2759576,-11.377878,9.372762,1.9999818,-3.8579407,-30.013332,29.071138,21.38644,-5.0173163,6.1147923,1.7307905
225,109.24125671386719,90.95081329345703,75.59426879882812,-1.3548786915116502,8.244485991619314,-113.38087647730522,-21.160349,11.099088,25.021725,54.596146,-25.433342,4.3180556,-30.515375,-16.09078,9.410887,78.230194,-16.283407,15.000033,-4.3037066,4.0005307,4.0241995,-10.338463,21.567427,-29.218916,-8.609087,-9.864617,10.095121,1.2955905,-2.9348056,-30.523619,27.760225,19.820236,-5.1087513,6.3887944,1.9795823
226,109.920654296875,91.5841064453125,75.07804107666016,-1.0331431991870814,8.49028068555264,-112.28779841038012,-22.735992,10.079227,24.438625,55.39527,-26.54835,5.1973724,-30.200174,-17.755123,8.936664,82.27356,-17.604229,15.000033,-4.6556296,3.6885629,3.9408102,-10.69967,21.478043,-29.377619,-9.926713,-7.697352,10.880063,0.24558397,-1.8260013,-30.956167,26.24837,18.086483,-5.3740435,6.5681367,2.3071892
227,110.57073211669922,92.2366714477539,74.62442779541016,-0.7511682425317576,8.714756670877447,-111.15136035432842,-24.270725,9.072012,23.84343,56.11978,-27.467434,6.106486,-29.556005,-19.178257,8.290616,85.849525,-18.683765,14.755149,-4.9927335,3.4123938,3.8557615,-10.906277,21.298317,-29.485395,-11.15197,-5.4582877,11.553456,-0.9120201,-0.68121797,-31.310856,24.698711,16.313395,-5.6864576,6.6679482,2.632296
228,111.20319366455078,92.89118194580078,74.21318054199219,-0.555919841365538,8.812458262891887,-110.09966756491325,-25.503103,8.125307,23.284092,56.59851,-28.228617,6.927299,-28.489105,-19.991766,7.705394,88.82276,-19.601675,14.719412,-5.2676425,3.2479763,3.8084147,-10.928634,21.053127,-29.553482,-12.234209,-3.7490518,11.983309,-1.909609,0.36047292,-31.587,23.28799,14.624434,-5.924162,6.7060485,2.8695915
229,111.8280029296875,93.53387451171875,73.87173461914062,-0.48283210895157136,8.773203490758082,-109.10047510512514,-26.415846,7.2505274,22.707592,56.797325,-28.838781,7.635545,-26.942713,-20.035423,7.19493,91.17097,-20.319035,14.931416,-5.539768,3.2271662,3.8039815,-10.697883,20.76023,-29.552427,-13.273281,-2.6250172,12.170639,-2.6981652,1.2738646,-31.775517,22.030563,12.987721,-6.1387362,6.6628733,3.025786
230,112.4137191772461,94.1240463256836,73.60680389404297,-0.4879621429755662,8.6473828313515,-108.10176782603327,-27.128782,6.4124236,22.11197,56.790775,-29.267302,8.297125,-25.025337,-19.542631,6.589054,92.97725,-20.813755,15.000033,-5.831071,3.2820113,3.8235004,-10.222808,20.428576,-29.470499,-14.283136,-1.8143392,12.193661,-3.3949487,2.1100326,-31.869991,20.87316,11.381127,-6.3698783,6.537096,3.1319633
231,112.96497344970703,94.65229797363281,73.44647979736328,-0.6321730361175874,8.438039880651042,-107.24435555805319,-27.663012,5.764795,21.548042,56.680267,-29.541044,8.901206,-22.908686,-18.571367,5.8625584,94.225655,-21.159117,15.000033,-5.9926524,3.4677815,3.8692007,-9.579572,20.078495,-29.346272,-15.100361,-1.4366667,12.068991,-3.9683235,2.821666,-31.881866,19.900183,9.960677,-6.4712353,6.375837,3.13956
232,113.50199890136719,95.12578582763672,73.37200164794922,-0.8715349513167802,8.134749753002417,-106.63352390615256,-27.99105,5.330459,21.116499,56.484726,-29.650385,9.461382,-20.750185,-17.295378,5.089845,94.92114,-21.448334,15.000033,-5.919724,3.7425785,3.9500275,-8.82962,19.73742,-29.204906,-15.5792,-1.6097862,11.811406,-4.392539,3.3736005,-31.827269,19.195538,8.852568,-6.301406,6.2278066,2.9990935
233,114.02555847167969,95.599609375,73.37664794921875,-1.1985512563632068,7.643583557463494,-106.31597064326667,-27.96868,5.132921,20.86822,56.187084,-29.617762,9.99069,-18.421343,-15.680517,4.3288226,94.97228,-21.706226,15.000033,-5.573175,4.0913267,4.1376224,-7.92723,19.426361,-29.069939,-15.686562,-2.6757605,11.287983,-4.5897093,3.7493386,-31.714989,18.804453,8.113207,-5.662292,6.07987,2.612524
234,114.53823852539062,96.10152435302734,73.44115447998047,-1.6001650716340106,6.993650996654941,-106.21120132125161,-27.647446,5.121732,20.752893,55.770775,-29.43137,10.4917345,-15.921807,-13.693915,3.6481934,94.41226,-21.883297,15.000033,-5.0387406,4.5069556,4.4095163,-6.8356395,19.151491,-28.91934,-15.536199,-4.4738584,10.540015,-4.616676,3.9629292,-31.545425,18.684519,7.653148,-4.6822977,5.908558,2.0356758
235,115.06095886230469,96.6450424194336,73.56294250488281,-1.9801810116114937,6.358489073656523,-106.22779186888373,-27.274944,5.1542697,20.747498,55.215843,-29.01401,10.965813,-13.57486,-11.584326,3.1216974,93.4519,-21.972458,15.000033,-4.400336,4.9145694,4.631355,-5.6303797,18.917109,-28.703705,-15.206005,-6.369645,9.847406,-4.633728,4.01053,-31.326962,18.784008,7.39081,-3.7007048,5.751932,1.4493039
236,115.56352233886719,97.22154998779297,73.74916076660156,-2.2548338416952554,5.91770169082086,-106.285284301732,-27.101835,5.1013665,20.825792,54.498856,-28.292393,11.407242,-11.6931925,-9.601114,2.7666857,92.30636,-21.964878,15.000033,-3.7327037,5.2474504,4.672045,-4.3794775,18.726591,-28.36466,-14.784567,-7.736791,9.497406,-4.765987,3.8846276,-31.072704,19.049519,7.245771,-3.048953,5.6593404,1.0303576
237,116.08634185791016,97.80743408203125,73.97489929199219,-2.3925842537319673,5.7370342851847935,-106.4287714088034,-27.192707,4.93858,21.04969,53.592045,-27.246256,11.83327,-10.390282,-7.7840385,2.6008236,91.022766,-21.875385,15.000033,-2.9927685,5.486042,4.469845,-3.0557518,18.578424,-27.8324,-14.26753,-8.551355,9.6415615,-5.17181,3.5720072,-30.789066,19.497316,7.229754,-2.8344123,5.702273,0.8150101
238,116.63842010498047,98.4382553100586,74.24440002441406,-2.443184725139282,5.71799577122474,-106.6849455832657,-27.411762,4.733084,21.419899,52.50794,-25.918533,12.237601,-9.466533,-6.0294437,2.5938754,89.49515,-21.705538,15.000033,-2.1621788,5.6637306,4.108645,-1.616631,18.469553,-27.13965,-13.647761,-9.1018505,10.104491,-5.724414,3.0873263,-30.47885,20.145294,7.3629146,-2.8680146,5.8401423,0.710935
239,117.20008850097656,99.08019256591797,74.54995727539062,-2.456846092741275,5.796384342320083,-106.95200060820787,-27.721619,4.497805,21.813822,51.29722,-24.328508,12.576052,-8.766485,-4.359844,2.6517198,87.70852,-21.418653,15.000033,-1.3415188,5.8054295,3.6806252,-0.11493313,18.401619,-26.384785,-13.004036,-9.237371,10.673957,-6.109599,2.4790223,-30.148058,20.928793,7.5625505,-3.0353286,5.9600606,0.70145386
240,117.75770568847656,99.77132415771484,74.90345001220703,-2.4843344864470462,5.90801796777639,-107.12839445864988,-28.085835,4.2502837,22.1026,50.009613,-22.49111,12.804528,-8.141119,-2.79303,2.6833742,85.64373,-20.97537,15.000033,-0.6200111,5.9420967,3.276031,1.3859631,18.381454,-25.680445,-12.404693,-8.811354,11.136558,-6.01799,1.7914994,-29.806763,21.77168,7.7506685,-3.2158065,5.948109,0.7713203
241,118.30919647216797,100.48971557617188,75.30807495117188,-2.553175303347894,6.0981984140426,-107.2012016555589,-28.570574,4.0127954,22.259708,48.639774,-20.330053,12.983117,-7.6188817,-1.254984,2.6633673,83.215675,-20.264952,15.000033,0.010475398,6.1093235,2.8638687,2.8707376,18.418749,-25.05805,-11.858442,-7.5093536,11.491441,-5.291311,1.0510709,-29.457375,22.659029,7.8925266,-3.4560387,5.7730494,0.9707485
