unveil-humanoid-operators/unveil-humanoid-operators.github.io/feature-analysis-animation/data/feature_matrix_instances/age_waist_mean_vel_jogging_A180_jog_ff_start_270_001__A180.csv
Frame,root_translateX,root_translateY,root_translateZ,root_rotateX,root_rotateY,root_rotateZ,left_hip_pitch_joint_dof,left_hip_roll_joint_dof,left_hip_yaw_joint_dof,left_knee_joint_dof,left_ankle_pitch_joint_dof,left_ankle_roll_joint_dof,right_hip_pitch_joint_dof,right_hip_roll_joint_dof,right_hip_yaw_joint_dof,right_knee_joint_dof,right_ankle_pitch_joint_dof,right_ankle_roll_joint_dof,waist_yaw_joint_dof,waist_roll_joint_dof,waist_pitch_joint_dof,left_shoulder_pitch_joint_dof,left_shoulder_roll_joint_dof,left_shoulder_yaw_joint_dof,left_elbow_joint_dof,left_wrist_roll_joint_dof,left_wrist_pitch_joint_dof,left_wrist_yaw_joint_dof,right_shoulder_pitch_joint_dof,right_shoulder_roll_joint_dof,right_shoulder_yaw_joint_dof,right_elbow_joint_dof,right_wrist_roll_joint_dof,right_wrist_pitch_joint_dof,right_wrist_yaw_joint_dof
0,-2.279475212097168,-0.10518749803304672,78.23406219482422,-0.2194486525660471,-2.2456553296468162,4.254737088287661,4.3034177,9.615058,7.206983,8.8348255,-11.176292,-8.430191,9.475752,-8.933019,-21.598936,6.9684467,-11.841665,9.224315,-3.1096272,-0.78524464,8.524111,-1.8917112,18.310785,-38.675755,54.969193,6.9081435,-0.01920557,5.586816,1.9332676,-13.552676,31.615984,58.6949,-8.634634,-0.015534948,-8.20357
1,-2.29451847076416,-0.10965733975172043,78.23653411865234,-0.22529860490691328,-2.2207123885705466,4.268283788317817,4.259887,9.616809,7.182993,8.835737,-11.169566,-8.422911,9.441602,-8.927566,-21.609907,6.9693522,-11.8367605,9.20274,-3.1158168,-0.7770947,8.546876,-1.9011502,18.324385,-38.65029,54.94883,6.9023123,-0.021384928,5.597576,1.925697,-13.554885,31.588787,58.597576,-8.718443,-0.013127296,-8.205717
2,-2.306983709335327,-0.10791638493537903,78.2381362915039,-0.22992121324250042,-2.2033481099566323,4.283082172590574,4.2230687,9.6165085,7.158087,8.841231,-11.1665745,-8.414133,9.416539,-8.924031,-21.622654,6.970856,-11.8316345,9.183946,-3.120127,-0.76944464,8.577958,-1.9133627,18.336126,-38.625137,54.92751,6.899095,-0.021419268,5.6078634,1.9177078,-13.556713,31.557938,58.509953,-8.811814,-0.0041660927,-8.205694
3,-2.319295644760132,-0.10729663819074631,78.23997497558594,-0.23587732390948393,-2.1709347985925067,4.295224623945996,4.171614,9.61929,7.134965,8.840679,-11.157887,-8.408402,9.373335,-8.9174795,-21.63186,6.971173,-11.826579,9.159535,-3.1248567,-0.7598646,8.595352,-1.9261402,18.344849,-38.598137,54.912468,6.8953977,-0.024841603,5.618314,1.9097651,-13.558063,31.522736,58.403454,-8.894858,-0.008109293,-8.208538
4,-2.327672004699707,-0.1064443364739418,78.24339294433594,-0.24488049206301135,-2.100636615727479,4.300879106720293,4.0801997,9.629847,7.115641,8.830871,-11.137939,-8.410556,9.281685,-8.904315,-21.631958,6.9719496,-11.8215685,9.121263,-3.132319,-0.74654573,8.581048,-1.9378695,18.352625,-38.56393,54.905815,6.8892517,-0.036500454,5.627952,1.8990836,-13.559688,31.475399,58.25035,-8.95356,-0.044642705,-8.217757
5,-2.3392460346221924,-0.10824982076883316,78.2474594116211,-0.2578283841143695,-1.9926977963626176,4.303529784651081,3.9525023,9.647487,7.0971103,8.805623,-11.106384,-8.422511,9.145072,-8.884098,-21.623615,6.9708486,-11.821725,9.07527,-3.143137,-0.72876704,8.5318365,-1.9453481,18.357885,-38.525482,54.904945,6.881484,-0.058787033,5.6373115,1.8869084,-13.561931,31.424032,58.060436,-8.972172,-0.12192422,-8.228484
6,-2.356909990310669,-0.10961312800645828,78.25043487548828,-0.27457965624773684,-1.8572006676978732,4.303057681949149,3.7972982,9.671455,7.080082,8.771442,-11.067412,-8.443052,8.954564,-8.866263,-21.605522,7.016281,-11.851006,9.023875,-3.156552,-0.70592445,8.4573,-1.9512026,18.361443,-38.484756,54.90974,6.8698616,-0.088854216,5.64708,1.8723475,-13.564853,31.371374,57.84294,-8.9603815,-0.22856203,-8.240921
7,-2.377816915512085,-0.11823774874210358,78.24927520751953,-0.2931520982978571,-1.684761412397965,4.289602470424922,3.603355,9.702186,7.0742726,8.728585,-11.014266,-8.471446,8.6991825,-8.849257,-21.573286,7.0951376,-11.8886595,8.952643,-3.162137,-0.67793244,8.373966,-1.9609952,18.369581,-38.41314,54.905174,6.8799887,-0.122838676,5.64523,1.8618199,-13.575764,31.260155,57.54423,-8.975652,-0.35530564,-8.255388
8,-2.4083704948425293,-0.12629912793636322,78.2458724975586,-0.3163731725123289,-1.465999827692593,4.257598078611887,3.2650583,9.757775,7.06843,8.874351,-11.043996,-8.50812,8.256862,-8.868725,-21.509348,7.447243,-12.048862,8.846478,-3.1711826,-0.64418656,8.248062,-1.9686681,18.37655,-38.34681,54.919262,6.868801,-0.1539301,5.6490555,1.8506651,-13.585875,31.136385,57.166138,-8.998472,-0.4889648,-8.301215
9,-2.4490268230438232,-0.14049488306045532,78.23444366455078,-0.3588908188036309,-1.180988390787086,4.2032611944248215,2.6477225,9.868283,7.0434136,9.444185,-11.277501,-8.552173,7.515592,-8.941418,-21.39515,8.268468,-12.435184,8.697574,-3.179218,-0.5857894,8.0706625,-1.9754838,18.383446,-38.267246,54.941307,6.846905,-0.1840566,5.6514277,1.8363391,-13.595025,30.960041,56.700283,-9.063487,-0.621507,-8.381715
10,-2.4956979751586914,-0.15893331170082092,78.22370910644531,-0.3972517911139179,-0.8465257540149486,4.126248614656558,1.96799,9.981509,7.036185,10.025837,-11.50176,-8.60074,6.6176963,-9.044574,-21.245884,9.2834,-12.908702,8.518445,-3.1643302,-0.5282526,7.8646765,-1.9931138,18.393354,-38.184586,54.966484,6.8233175,-0.21435355,5.6489544,1.8341055,-13.6057205,30.710752,56.137646,-9.171216,-0.7606442,-8.482661
11,-2.5378122329711914,-0.186131089925766,78.20514678955078,-0.4226273747425638,-0.4932656001308905,4.034510354215485,1.2617676,10.088386,7.0421705,10.6143265,-11.720802,-8.658541,5.605134,-9.187913,-21.072826,10.482465,-13.455172,8.322528,-3.1369295,-0.48923907,7.653856,-2.0196602,18.409098,-38.110756,55.006214,6.7969866,-0.24165261,5.6464643,1.8372111,-13.616514,30.432428,55.49131,-9.281788,-0.92242855,-8.593565
12,-2.59619402885437,-0.21879996359348297,78.18453979492188,-0.426588388220002,-0.1518212990310595,3.9362112771574425,0.55476004,10.181788,7.055222,11.226709,-11.945305,-8.729821,4.5273294,-9.377831,-20.888815,11.842285,-14.0559,8.122793,-3.129286,-0.48314887,7.464687,-2.044928,18.42567,-38.025116,55.07113,6.780033,-0.2640301,5.645517,1.8204705,-13.619619,30.190569,54.78579,-9.356648,-1.1224071,-8.704683
13,-2.6706790924072266,-0.26639312505722046,78.15071105957031,-0.4056367550891968,0.19341918804970623,3.829321406287474,-0.16985905,10.256857,7.0774474,11.859039,-12.170481,-8.817887,3.3479962,-9.617107,-20.671448,13.392384,-14.721863,7.9011393,-3.1166189,-0.51474744,7.294167,-2.0802095,18.451958,-37.939007,55.1552,6.7816095,-0.27425787,5.645572,1.8050627,-13.616804,29.938278,54.00326,-9.400377,-1.3733406,-8.812779
14,-2.739125967025757,-0.31698617339134216,78.11346435546875,-0.3625317866365955,0.5506934537508654,3.7116036456010333,-0.92264676,10.3161545,7.1106873,12.515651,-12.39819,-8.91872,2.06348,-9.897814,-20.420582,15.117233,-15.448894,7.6605043,-3.094081,-0.5842581,7.133008,-2.1122544,18.509455,-37.85752,55.231857,6.78922,-0.27458948,5.643978,1.7881285,-13.601841,29.663473,53.145164,-9.42742,-1.6650347,-8.923501
15,-2.806605100631714,-0.3756822645664215,78.06765747070312,-0.2998286747500575,0.8783132845627311,3.5893588705008423,-1.6614732,10.365434,7.1504807,13.21136,-12.643005,-9.026268,0.77081776,-10.211178,-20.181484,16.927488,-16.196035,7.444338,-3.0992656,-0.68195033,7.0068536,-2.144626,18.557356,-37.75716,55.33741,6.8033113,-0.27885363,5.63985,1.7445815,-13.584614,29.432953,52.21953,-9.442077,-1.9755454,-9.031811
16,-2.8901307582855225,-0.44607430696487427,78.00877380371094,-0.22062494627326185,1.1345951595404977,3.4688936112065787,-2.3444507,10.411104,7.1921735,13.960029,-12.918715,-9.1353,-0.43885872,-10.553088,-20.000301,18.750067,-16.930635,7.294626,-3.0990279,-0.8204682,6.968293,-2.1765487,18.653059,-37.683144,55.41566,6.8004556,-0.29384577,5.6196637,1.6855354,-13.558472,29.199375,51.19321,-9.490907,-2.289851,-9.115191
17,-2.991095542907715,-0.5303300619125366,77.9352798461914,-0.11292266729495218,1.3165042435976273,3.3475739056035585,-2.969183,10.438843,7.244169,14.764724,-13.224652,-9.239918,-1.5692316,-10.932371,-19.86985,20.601297,-17.663834,7.2091823,-3.1150236,-1.0096061,7.01769,-2.1930237,18.788342,-37.602394,55.45946,6.8162413,-0.31672302,5.5744324,1.602999,-13.533386,28.999647,50.06331,-9.560281,-2.6013176,-9.160622
18,-3.079763889312744,-0.6258057951927185,77.84780883789062,0.019850216970383933,1.4442964789944375,3.223694096813662,-3.554603,10.4515295,7.3062453,15.61544,-13.5552025,-9.3447,-2.6607888,-11.347743,-19.772282,22.511187,-18.408676,7.170543,-3.143493,-1.2399148,7.1358647,-2.2028153,18.9508,-37.515926,55.485714,6.845645,-0.34474108,5.511155,1.5050136,-13.514582,28.822943,48.831047,-9.640246,-2.919097,-9.178294
19,-3.1550521850585938,-0.7323022484779358,77.75892639160156,0.14845973984524372,1.5127709974536967,3.105246373347633,-4.1000867,10.484316,7.3581657,16.522064,-13.918453,-9.461129,-3.6802008,-11.7815895,-19.7409,24.433289,-19.139763,7.1953373,-3.1825829,-1.4775791,7.3252544,-2.2099955,19.142288,-37.45239,55.504616,6.821512,-0.38858455,5.4484744,1.3993753,-13.504369,28.666046,47.49099,-9.737523,-3.2454813,-9.19733
20,-3.230846643447876,-0.8343059420585632,77.66552734375,0.2433355263599319,1.5164104532782492,2.9998847351104665,-4.600679,10.571235,7.380335,17.486155,-14.320679,-9.601486,-4.5927243,-12.218129,-19.810017,26.320366,-19.833519,7.2987356,-3.2322333,-1.6875525,7.588112,-2.2227771,19.363907,-37.44455,55.530952,6.6700487,-0.4592961,5.405257,1.2939181,-13.505134,28.528486,46.037052,-9.858675,-3.5824478,-9.247147
21,-3.3045246601104736,-0.9485223293304443,77.5625228881836,0.3007267378934601,1.430135038423581,2.9173479528987523,-5.0212097,10.714322,7.366194,18.490788,-14.759589,-9.777674,-5.3506775,-12.649207,-20.001719,28.14496,-20.477486,7.56841,-3.2975535,-1.8706018,7.951506,-2.2454057,19.618612,-37.498535,55.560364,6.342462,-0.56928295,5.3916736,1.1982032,-13.517833,28.408657,44.45244,-9.985499,-3.9366353,-9.320336
22,-3.399146318435669,-1.0892494916915894,77.44539642333984,0.33237439395225804,1.265171244791149,2.8506842705658766,-5.3728275,10.897643,7.3277493,19.534464,-15.230153,-9.982377,-5.9873786,-13.086588,-20.297544,29.947817,-21.094137,7.965781,-3.3748026,-2.0392227,8.406015,-2.2721527,19.907454,-37.60008,55.584663,5.885882,-0.70956695,5.3948193,1.1112536,-13.542531,28.30572,42.73721,-10.121872,-4.3042617,-9.40546
23,-3.4710299968719482,-1.2261306047439575,77.32584381103516,0.33332654631476055,1.0703547292289108,2.782710131136033,-5.7171397,11.127217,7.2733145,20.637453,-15.734801,-10.198674,-6.5922723,-13.549683,-20.667038,31.792196,-21.707066,8.314104,-3.4517968,-2.1791131,8.897634,-2.2937024,20.225885,-37.74662,55.614265,5.378467,-0.85880166,5.3992186,1.0179635,-13.584287,28.222544,40.919693,-10.305693,-4.6719823,-9.526702
24,-3.5343005657196045,-1.3615083694458008,77.20096588134766,0.3004854314278816,0.8944065260662126,2.6964551900417875,-6.116693,11.409168,7.209825,21.821589,-16.275333,-10.408422,-7.249815,-14.059714,-21.07373,33.729786,-22.332558,8.43516,-3.5163326,-2.2756202,9.3726225,-2.303205,20.565004,-37.93584,55.663944,4.899198,-0.9956884,5.3907857,0.90809995,-13.6505165,28.159924,39.022224,-10.57615,-5.0259085,-9.707944
25,-3.610177755355835,-1.5027828216552734,77.06512451171875,0.22646482015187885,0.7449338764341001,2.595427446244472,-6.5946436,11.753155,7.1269817,23.109667,-16.856987,-10.606564,-7.969742,-14.638803,-21.547794,35.808475,-22.993755,8.236856,-3.57251,-2.3151505,9.825098,-2.3179324,20.920418,-38.197872,55.7531,4.4195275,-1.1273344,5.36034,0.7927469,-13.746336,28.119059,37.030403,-10.981322,-5.35687,-9.976384
26,-3.675096035003662,-1.6376157999038696,76.92542266845703,0.11691781533369154,0.5974217016835482,2.4861850300674946,-7.111863,12.151057,7.024261,24.477297,-17.473404,-10.801987,-8.70091,-15.277606,-22.086634,37.977695,-23.671474,7.8210015,-3.6232138,-2.3078902,10.281023,-2.3419082,21.290134,-38.528145,55.876934,3.9127684,-1.2612203,5.317898,0.6820493,-13.873299,28.096785,34.927223,-11.48809,-5.6715555,-10.3120985
27,-3.7408721446990967,-1.7907731533050537,76.77141571044922,-0.010802172894535705,0.45244512209950566,2.3565669900904336,-7.6372705,12.583441,6.9220076,25.873817,-18.108791,-10.996444,-9.436448,-15.947349,-22.605333,40.13384,-24.312923,7.302044,-3.6558478,-2.2745788,10.733713,-2.3458452,21.666431,-38.864876,56.013695,3.4673011,-1.3762426,5.2789965,0.55907905,-14.034009,28.092516,32.734158,-12.009659,-5.980862,-10.668183
28,-3.806535482406616,-1.9576798677444458,76.60420227050781,-0.13998853002840303,0.31015472571787817,2.194359377986084,-8.143194,13.033259,6.8406873,27.256657,-18.74732,-11.191447,-10.175846,-16.614481,-23.022959,42.17841,-24.86522,6.7985916,-3.6607866,-2.233861,11.175389,-2.3017175,22.03893,-39.14508,56.14607,3.1698031,-1.4521474,5.2604203,0.40559018,-14.231383,28.109064,30.47343,-12.458349,-6.2972493,-10.997393
29,-3.861055612564087,-2.129265546798706,76.4281005859375,-0.28749187728284736,0.17173812999552066,2.0067269183140963,-8.651624,13.519309,6.76069,28.655807,-19.401957,-11.384118,-10.915985,-17.27672,-23.3733,44.13356,-25.321281,6.282717,-3.6420739,-2.1657207,11.60729,-2.2222,22.401789,-39.373142,56.289818,3.0731618,-1.4806056,5.2646294,0.23508213,-14.464091,28.14856,28.141943,-12.842167,-6.618195,-11.30796
30,-3.9296956062316895,-2.2964344024658203,76.23899841308594,-0.4552626440865922,0.036187857083417235,1.7970004048555717,-9.165015,14.044753,6.678649,30.07456,-20.070982,-11.573923,-11.659477,-17.947956,-23.681772,46.03518,-25.70733,5.709519,-3.6050022,-2.0658307,12.030499,-2.1193492,22.753065,-39.573753,56.457157,3.1235175,-1.4741591,5.284862,0.05274517,-14.73158,28.211754,25.728617,-13.195757,-6.9390507,-11.61789
31,-3.9724674224853516,-2.4692165851593018,76.03984832763672,-0.6048091836800116,-0.09873672589642588,1.5464804348060879,-9.637314,14.569848,6.6373577,31.454847,-20.734789,-11.765625,-12.425918,-18.61548,-23.858133,47.81555,-26.02168,5.179664,-3.5406845,-1.976253,12.43576,-1.9652174,23.088432,-39.714283,56.62928,3.2442548,-1.443945,5.323987,-0.17222369,-15.041715,28.300463,23.244223,-13.473165,-7.271441,-11.892854
32,-4.005290508270264,-2.640326976776123,75.82838439941406,-0.6980278949839412,-0.2351069739379129,1.236262894378199,-10.023309,15.056414,6.680857,32.741924,-21.37521,-11.964113,-13.238776,-19.261728,-23.812195,49.406727,-26.259726,4.798045,-3.4421184,-1.9359512,12.815358,-1.7281927,23.402338,-39.75588,56.782463,3.3622518,-1.4009633,5.3846884,-0.46710503,-15.405629,28.420868,20.68959,-13.624658,-7.6272674,-12.097707
33,-4.030882835388184,-2.822396993637085,75.60492706298828,-0.7153812770472426,-0.37758077725436073,0.8508586433665707,-10.307593,15.488,6.8347683,33.93654,-22.001026,-12.166125,-14.128808,-19.88742,-23.475033,50.813107,-26.411064,4.630509,-3.3000636,-1.960646,13.168422,-1.4051131,23.690317,-39.68805,56.91764,3.5032675,-1.3428974,5.463203,-0.8267407,-15.837285,28.59926,18.042477,-13.587467,-8.033015,-12.211457
34,-4.047839164733887,-3.0052599906921387,75.3798828125,-0.6805484800132505,-0.5229745004764842,0.4034396813358572,-10.516686,15.890497,7.0719004,35.068195,-22.619257,-12.370045,-15.08369,-20.488407,-22.909752,52.063213,-26.477724,4.615374,-3.1223202,-2.0220158,13.500225,-1.0103513,23.950045,-39.52699,57.045177,3.6934497,-1.2658272,5.559324,-1.2304876,-16.340405,28.8295,15.288674,-13.398517,-8.475012,-12.252791
35,-4.059912204742432,-3.184072971343994,75.1528549194336,-0.6209375890880493,-0.6616190552217311,-0.08148897356784736,-10.667798,16.289034,7.358444,36.12566,-23.210197,-12.582958,-16.062294,-21.040977,-22.225554,53.128635,-26.474922,4.667355,-2.9259138,-2.095713,13.810397,-0.5439574,24.18008,-39.281807,57.161606,3.8533945,-1.1785043,5.6819777,-1.68811,-16.907328,29.068846,12.450828,-13.160052,-8.905462,-12.247153
36,-4.068366050720215,-3.3854517936706543,74.92522430419922,-0.5635465652881927,-0.7839233708054565,-0.5795208261946437,-10.776489,16.708054,7.6607194,37.094467,-23.752087,-12.812155,-17.021982,-21.526918,-21.53227,53.981308,-26.417767,4.6988363,-2.7276826,-2.1606324,14.0964575,-0.005109834,24.379913,-38.961803,57.265133,3.9047182,-1.0898738,5.8404994,-2.2151532,-17.523508,29.273531,9.562464,-12.977621,-9.27728,-12.22303
37,-4.051843166351318,-3.60905385017395,74.69856262207031,-0.5056849959306461,-0.8931628808687583,-1.0979890558611565,-10.842861,17.148808,7.9849234,37.993202,-24.25722,-13.052211,-17.974928,-21.946478,-20.810022,54.622066,-26.294521,4.695253,-2.5232275,-2.224328,14.358538,0.6046685,24.54862,-38.565563,57.36593,3.79585,-1.0009539,6.048439,-2.822762,-18.179314,29.447348,6.631782,-12.930238,-9.559338,-12.199565
38,-4.030641555786133,-3.8527746200561523,74.48368072509766,-0.43653820113720015,-0.9922657624861559,-1.6455250103789432,-10.857341,17.600786,8.3452,38.819077,-24.728384,-13.301105,-18.933668,-22.305592,-20.01763,55.06169,-26.10368,4.7011538,-2.3061197,-2.2967994,14.594106,1.2868186,24.684654,-38.090466,57.465363,3.5795677,-0.90815526,6.297529,-3.5057333,-18.871883,29.610367,3.651204,-12.94775,-9.78414,-12.159481
39,-4.00905179977417,-4.10756778717041,74.28266143798828,-0.37010886075316946,-1.0721622104590298,-2.198801938666733,-10.829262,18.068897,8.716156,39.539547,-25.139063,-13.57273,-19.856373,-22.605488,-19.238022,55.297283,-25.87306,4.715354,-2.0919948,-2.363014,14.79562,2.0409856,24.787838,-37.550102,57.553303,3.325933,-0.8138289,6.5649686,-4.258283,-19.597769,29.743969,0.63721067,-12.916097,-9.999805,-12.077571
40,-3.9799816608428955,-4.380051612854004,74.09810638427734,-0.3210608850793433,-1.1241282798333874,-2.7345802792078167,-10.767654,18.556927,9.072979,40.12051,-25.461546,-13.878752,-20.701054,-22.850344,-18.554714,55.326492,-25.63249,4.7354717,-1.8934212,-2.4081023,14.956269,2.8670256,24.858257,-36.957542,57.61651,3.1077757,-0.7193787,6.8275976,-5.072453,-20.352943,29.826458,-2.3956094,-12.720588,-10.254186,-11.927964
41,-3.933730363845825,-4.675412178039551,73.93821716308594,-0.3014767292447887,-1.1481691299723278,-3.2566979979349346,-10.68035,19.082144,9.412055,40.580807,-25.7058,-14.232116,-21.456783,-23.039206,-17.993898,55.12011,-25.379673,4.7594757,-1.7136893,-2.4272103,15.076302,3.7714698,24.89256,-36.311012,57.680733,2.9743934,-0.63428444,7.116379,-5.97151,-21.140663,29.866678,-5.448057,-12.264913,-10.556106,-11.685241
42,-3.8878653049468994,-4.990346908569336,73.80094909667969,-0.3015053859216293,-1.1486892290511304,-3.774180052188278,-10.56131,19.635487,9.746293,40.931183,-25.881609,-14.623205,-22.143581,-23.175564,-17.513006,54.691013,-25.10354,4.7873015,-1.5460479,-2.429299,15.157885,4.75211,24.887337,-35.604824,57.74178,2.878314,-0.5545064,7.4309773,-6.9515314,-21.962238,29.874226,-8.527521,-11.630047,-10.879023,-11.368179
43,-3.8269147872924805,-5.3319411277771,73.68377685546875,-0.2869195128527414,-1.1198200009536012,-4.2649929621518465,-10.396532,20.15411,10.077999,41.106903,-25.950994,-15.000033,-22.774872,-23.29191,-17.084837,54.104424,-24.82339,4.824317,-1.3942606,-2.4348493,15.194196,5.7899604,24.8447,-34.853245,57.74346,2.7386293,-0.4606877,7.7010465,-7.965558,-22.805729,29.826591,-11.62443,-10.968567,-11.218115,-11.018805
44,-3.7688963413238525,-5.6857428550720215,73.60135650634766,-0.1866792560715091,-1.0461336278162534,-4.6912978113647545,-10.185819,20.47974,10.401,41.024242,-25.864294,-15.000033,-23.3908,-23.475042,-16.658989,53.446774,-24.558601,4.888343,-1.2742671,-2.5001106,15.169726,6.8671083,24.771723,-34.070778,57.628693,2.475927,-0.33360618,7.856416,-8.969927,-23.649567,29.696636,-14.717928,-10.437429,-11.573853,-10.681677
45,-3.69710636138916,-6.062868118286133,73.54502868652344,-0.06911143217634301,-0.943596430217742,-5.102560037449178,-9.911964,20.76994,10.738455,40.743885,-25.67316,-15.000033,-23.949842,-23.633232,-16.291203,52.66306,-24.32095,4.9681897,-1.1541753,-2.5630136,15.09662,8.028326,24.668722,-33.217262,57.35632,2.270525,-0.08708536,7.8834457,-9.997131,-24.480553,29.465752,-17.816525,-10.062357,-11.98712,-10.324118
46,-3.6300315856933594,-6.467346668243408,73.51811218261719,0.05914396966732445,-0.8128201937829715,-5.498022408157643,-9.582552,21.032654,11.083268,40.28144,-25.382277,-15.000033,-24.44855,-23.765545,-15.984223,51.734997,-24.098001,5.059723,-1.0410398,-2.6259744,14.975228,9.2712,24.535118,-32.2965,56.959446,2.0972962,0.24268307,7.8175755,-11.074433,-25.293995,29.160948,-20.90166,-9.768793,-12.447317,-9.939662
47,-3.55367374420166,-6.9016523361206055,73.5337142944336,0.20546164628763455,-0.6524045121025592,-5.8308713764702365,-9.201622,21.237797,11.3980465,39.58096,-24.93009,-15.000033,-24.885149,-23.869547,-15.6925535,50.722324,-23.857485,5.139353,-0.9463982,-2.6949577,14.807596,10.512147,24.38135,-31.390162,56.491722,1.5676293,0.4934702,7.665561,-12.160386,-26.081303,28.820848,-23.895893,-9.565923,-12.878908,-9.611476
48,-3.4618523120880127,-7.385162830352783,73.59105682373047,0.3772420054374139,-0.4606429729514128,-6.054612949014475,-8.773588,21.356123,11.64489,38.58568,-24.25513,-15.000033,-25.259014,-23.942467,-15.369359,49.687466,-23.56823,5.183492,-0.87839895,-2.7772431,14.595876,11.66782,24.22658,-30.584366,56.006454,0.28873274,0.50679547,7.433296,-13.208848,-26.83228,28.476929,-26.724503,-9.467697,-13.207081,-9.421137
49,-3.3720269203186035,-7.894599437713623,73.68805694580078,0.5821651059963521,-0.2290207120483497,-6.168110343798182,-8.277917,21.36748,11.832397,37.236027,-23.364933,-15.000033,-25.578985,-23.98047,-14.994923,48.61754,-23.219284,5.1943097,-0.84089845,-2.8800814,14.329854,12.75905,24.087635,-29.901072,55.47958,-2.1344736,0.20753367,7.0883226,-14.2561865,-27.53704,28.120394,-29.388714,-9.495954,-13.40436,-9.406538
50,-3.27189564704895,-8.439079284667969,73.8234634399414,0.8145751109845677,0.038330653938527665,-6.193072125255547,-7.714611,21.291374,11.97196,35.566296,-22.2789,-15.000033,-25.841703,-23.988619,-14.595451,47.492065,-22.82978,5.1795335,-0.82656044,-3.0020783,14.011836,13.828951,23.970264,-29.294834,54.881207,-5.404149,-0.28849652,6.6118817,-15.316598,-28.19073,27.739328,-31.91206,-9.646431,-13.514483,-9.518049
51,-3.1840991973876953,-9.0110445022583,74.00015258789062,1.0623827023266903,0.3227784483814802,-6.117167139394816,-7.1245604,21.159687,12.0266485,33.673725,-20.964087,-15.000033,-26.028082,-23.976112,-14.1955805,46.36339,-22.41494,5.125801,-0.8277128,-3.1371095,13.664101,14.826721,23.877058,-28.749409,54.258606,-8.874272,-0.8568252,6.035809,-16.319738,-28.793245,27.353836,-34.253437,-9.883025,-13.567971,-9.7048855
52,-3.0942764282226562,-9.629587173461914,74.20960998535156,1.3137455335262824,0.6057841382122212,-5.9281877550382776,-6.5462427,21.005423,11.964073,31.651337,-19.38376,-15.000033,-26.120523,-23.950068,-13.821108,45.28294,-21.989342,5.0213275,-0.83506185,-3.2781787,13.310641,15.696737,23.807232,-28.247467,53.66059,-11.895276,-1.3884695,5.416626,-17.184546,-29.34718,26.977522,-36.38332,-10.170767,-13.59508,-9.915794
53,-3.0004191398620605,-10.280674934387207,74.4508056640625,1.5747611935762198,0.8854331031302138,-5.614802852225745,-5.941795,20.807205,11.774568,29.413532,-17.482344,-15.000033,-26.109299,-23.916157,-13.46872,44.252575,-21.503187,4.8396225,-0.84803,-3.4291117,12.951026,16.43328,23.76271,-27.788555,53.10079,-14.444454,-1.8948184,4.665042,-17.923622,-29.853601,26.610786,-38.292786,-10.560834,-13.572271,-10.211144
54,-2.9134533405303955,-10.972346305847168,74.71308135986328,1.8484916571720464,1.1689406367507218,-5.187303434362478,-5.30062,20.563799,11.476261,26.939547,-15.290901,-15.000033,-26.007864,-23.86697,-13.130441,43.253937,-20.969164,4.5957603,-0.87022316,-3.589814,12.57684,17.062294,23.745342,-27.377947,52.55298,-16.824482,-2.4138432,3.7866604,-18.568377,-30.311472,26.242426,-40.00287,-11.051011,-13.490574,-10.59093
55,-2.8242695331573486,-11.70465087890625,74.98783111572266,2.1201676111297996,1.4528986596924158,-4.664828903452094,-4.715342,20.337675,11.081525,24.4414,-12.912999,-15.000033,-25.832996,-23.78966,-12.824969,42.304653,-20.493305,4.341897,-0.89886075,-3.7498953,12.200149,17.571287,23.75192,-27.009836,52.008255,-18.8718,-2.9104302,3.005001,-19.067036,-30.722643,25.864836,-41.52631,-11.523219,-13.405323,-10.913687
56,-2.7442076206207275,-12.469423294067383,75.26410675048828,2.377835301009774,1.7340940530507225,-4.06531608209067,-4.289488,20.186092,10.605156,22.148157,-10.457678,-15.000033,-25.601707,-23.673763,-12.568186,41.420303,-20.180334,4.1305265,-0.9311527,-3.9005077,11.832507,17.946228,23.776104,-26.679596,51.46075,-20.413652,-3.3692033,2.550572,-19.360846,-31.0909,25.470137,-42.880173,-11.864157,-13.375618,-11.040332
57,-2.671832799911499,-13.260425567626953,75.5399398803711,2.6413052985806544,2.0221962215554496,-3.3623827883335906,-4.050813,20.065432,9.9788265,20.035088,-7.8502016,-15.000033,-25.303534,-23.53713,-12.343393,40.581215,-20.086042,3.989188,-0.97803533,-4.0593038,11.460197,18.166979,23.817766,-26.4074,50.929577,-21.229189,-3.807441,2.5702982,-19.420822,-31.416069,25.014849,-44.07343,-11.994974,-13.418168,-10.850329
58,-2.6086671352386475,-14.081727981567383,75.8060302734375,2.914131152469627,2.3141295521724974,-2.555576790013042,-3.9635744,19.961025,9.219187,18.043482,-5.0813937,-15.000033,-24.934607,-23.380032,-12.146829,39.783382,-20.14334,3.8872316,-1.0335134,-4.2263665,11.083647,18.239573,23.87941,-26.193565,50.416138,-21.461973,-4.2490087,2.9262192,-19.268059,-31.69824,24.50507,-45.110126,-11.994669,-13.502786,-10.445272
59,-2.5322155952453613,-14.922088623046875,76.06946563720703,3.1648025984073187,2.590864897400435,-1.7001451894945245,-4.051897,19.955875,8.465009,16.368586,-2.374565,-15.000033,-24.524168,-23.170767,-12.00969,39.06212,-20.27097,3.7907867,-1.0770317,-4.373054,10.731977,18.192766,23.955055,-25.99946,49.89004,-21.482925,-4.6911173,3.4203606,-18.950203,-31.944782,24.00865,-45.96872,-11.965799,-13.619307,-10.020559
60,-2.4744646549224854,-15.789134979248047,76.31417083740234,3.362599534158781,2.8352637237315776,-0.850631004364938,-4.3426666,20.122898,7.8555307,15.199101,0.0542444,-15.000033,-24.101543,-22.87888,-11.962501,38.44869,-20.384846,3.665581,-1.0919172,-4.4713864,10.433279,18.053421,24.031786,-25.783802,49.32525,-21.663788,-5.1332297,3.8490446,-18.50831,-32.165314,23.601727,-46.63741,-12.019162,-13.756663,-9.774284
61,-2.4254777431488037,-16.667694091796875,76.54610443115234,3.5180921000779435,3.0483731705681785,0.01769489724797995,-4.865901,20.408043,7.259195,14.4658375,2.3240805,-15.000033,-23.670176,-22.509855,-11.969418,37.97029,-20.478758,3.4959276,-1.0852467,-4.5287185,10.1894,17.795376,24.100042,-25.531918,48.751774,-22.048233,-5.599033,4.1984324,-17.926556,-32.367943,23.308302,-47.13459,-12.16015,-13.909611,-9.7619505
62,-2.373555898666382,-17.567012786865234,76.75515747070312,3.6441757020060677,3.242326953514748,0.9247814813063077,-5.634868,20.772495,6.635319,14.143843,4.4653177,-15.000033,-23.218616,-22.078817,-12.0283575,37.5978,-20.588255,3.3028738,-1.0705687,-4.5540824,9.98239,17.409382,24.156618,-25.264917,48.18304,-22.452518,-6.0830374,4.563509,-17.188728,-32.552525,23.094816,-47.46799,-12.342302,-14.082544,-9.881093
63,-2.3260886669158936,-18.48237419128418,76.93004608154297,3.7004847615311385,3.4171868880574903,1.807387716359268,-6.666792,21.33383,6.2365465,14.518617,6.114998,-15.000033,-22.75045,-21.555767,-12.226083,37.274094,-20.690765,3.104353,-1.0412626,-4.510329,9.808597,16.953323,24.19613,-24.992857,47.56617,-22.91098,-6.544121,4.899485,-16.366432,-32.716385,22.949774,-47.56892,-12.581735,-14.285251,-10.090938
64,-2.2741429805755615,-19.421051025390625,77.05458068847656,3.621950901123279,3.567049276637743,2.594668606747341,-7.928308,22.258522,6.314014,15.803296,6.9329715,-15.000033,-22.25747,-20.880981,-12.658188,36.935825,-20.762054,2.9145951,-0.9891199,-4.334866,9.668314,16.49008,24.209923,-24.723873,46.847103,-23.459627,-6.9407053,5.1625586,-15.542819,-32.849167,22.871532,-47.359116,-12.896115,-14.52719,-10.348741
65,-2.2232766151428223,-20.355831146240234,77.12065887451172,3.3261291773465667,3.695631978367309,3.2628066714486184,-9.511589,23.790215,7.052822,18.213566,6.750905,-14.627399,-21.662085,-19.951757,-13.445986,36.443844,-20.760193,2.7627287,-0.8844588,-3.945213,9.552674,16.039389,24.191738,-24.438862,46.001232,-24.191238,-7.243031,5.3385954,-14.71258,-32.93451,22.881184,-46.78883,-13.299505,-14.87882,-10.693324
66,-2.193307876586914,-21.247314453125,77.1343002319336,3.444389586370764,3.8891857381316766,4.059655151693273,-11.087485,25.048946,9.196658,20.769629,6.0954304,-10.970174,-21.347973,-19.622526,-14.222005,36.245293,-20.843182,2.813597,-0.9307397,-3.927625,9.3635845,15.560693,24.154907,-24.14703,45.068096,-25.063816,-7.4798365,5.4516277,-13.832395,-32.98401,22.96532,-45.916542,-13.780503,-15.309433,-11.133978
67,-2.151968002319336,-22.124122619628906,77.0889663696289,3.5032583408387414,4.020829940359095,4.772380543713617,-12.340004,26.547157,11.714231,23.376188,4.9205008,-7.371176,-21.0801,-19.229992,-15.050137,36.20861,-20.948566,2.8358622,-1.0049033,-3.8360415,9.253415,15.084106,24.068718,-23.831305,44.04743,-25.884142,-7.6926622,5.513422,-12.985187,-33.0404,23.144957,-44.79151,-14.327165,-15.677902,-11.583683
68,-2.1255929470062256,-23.000110626220703,76.99442291259766,3.5408610178760593,4.043446227961235,5.366749753227734,-12.951389,28.000397,14.206419,25.58703,3.5767817,-4.7570486,-20.937426,-18.8144,-15.737475,36.52162,-21.126749,2.7526464,-1.0458194,-3.7362728,9.260635,14.549288,23.992369,-23.632458,42.999146,-26.526701,-7.9266853,5.553183,-12.181035,-33.06377,23.32169,-43.43667,-14.926763,-15.856091,-11.908283
69,-2.109941244125366,-23.871658325195312,76.84642791748047,3.566084330987802,3.9444938119166704,5.832656153286274,-12.829414,29.382185,16.842676,27.359625,2.1545756,-3.5469227,-20.984186,-18.385796,-16.233456,37.300915,-21.36617,2.505985,-1.1024649,-3.6360893,9.392084,13.993452,23.88016,-23.485437,41.916058,-26.945612,-8.205998,5.5573387,-11.482369,-33.078575,23.566095,-41.849926,-15.639664,-15.716209,-12.063488
70,-2.085085391998291,-24.7620906829834,76.64507293701172,3.5848918348068564,3.7569491125795547,6.196856993633693,-12.205014,30.733582,19.74072,29.054192,0.50644684,-3.2064517,-21.181044,-17.958996,-16.63294,38.43653,-21.65199,2.1551049,-1.1406485,-3.5500581,9.621427,13.404904,23.777971,-23.413574,40.76853,-27.242634,-8.499111,5.5235567,-10.800864,-33.076366,23.827196,-40.046764,-16.447481,-15.366535,-12.100424
71,-2.064491033554077,-25.627656936645508,76.39679718017578,3.620617887820138,3.5048750362501178,6.483721729876211,-11.35157,31.87021,22.412174,30.884163,-1.3252577,-3.2203379,-21.449444,-17.574501,-16.971619,39.778263,-22.03059,1.7973166,-1.1888555,-3.477938,9.938852,12.765992,23.674961,-23.41468,39.574646,-27.388212,-8.773983,5.470748,-10.142062,-33.05524,24.105045,-38.011734,-17.224712,-15.009731,-12.108643
72,-2.0780820846557617,-26.474740982055664,76.11227416992188,3.6895599994999224,3.207844593572623,6.712454334960501,-10.539859,32.645504,24.321903,32.984383,-3.280885,-3.0804963,-21.705034,-17.26278,-17.282188,41.17591,-22.54962,1.5275744,-1.2760657,-3.4022262,10.317613,12.014669,23.5066,-23.503174,38.434574,-27.343143,-9.009034,5.426344,-9.550238,-32.984734,24.425602,-35.661247,-17.85366,-14.847774,-12.17368
73,-2.104372501373291,-27.305994033813477,75.80697631835938,3.8108515261142855,2.838214309545271,6.847539520327833,-9.84137,33.02237,25.220882,35.466244,-5.4572916,-2.6241705,-21.958792,-17.063059,-17.533484,42.69623,-23.26072,1.4230068,-1.3649617,-3.3561685,10.823234,11.170582,23.322615,-23.686024,37.29922,-27.120432,-9.229279,5.3952127,-8.967962,-32.87561,24.735298,-33.044884,-18.304028,-14.903543,-12.261275
74,-2.140408754348755,-28.11780548095703,75.48954010009766,3.97047428819123,2.3986088403217147,6.892667341035461,-9.190459,33.051228,25.387388,38.25108,-7.851869,-2.143411,-22.243202,-16.943157,-17.726278,44.382107,-24.125957,1.4165491,-1.4656901,-3.3331463,11.43617,10.250609,23.11633,-23.948269,36.158184,-26.729279,-9.439033,5.367247,-8.4032135,-32.729156,25.056044,-30.16628,-18.645866,-15.080196,-12.346656
75,-2.141287326812744,-28.927490234375,75.16656494140625,4.130285048756135,1.9487810227056315,6.921590920916044,-8.626659,32.76441,25.065243,41.14559,-10.236765,-1.8155159,-22.509571,-16.82726,-17.931883,46.06112,-25.065805,1.3822733,-1.6080974,-3.2900856,12.05669,9.241222,22.887787,-24.294212,35.01039,-26.16103,-9.56401,5.336417,-7.8402157,-32.546688,25.37234,-27.038069,-18.886728,-15.40712,-12.520079
76,-2.1449530124664307,-29.68269920349121,74.84239959716797,4.249936964612229,1.5477675258737433,7.008558889356226,-8.157732,32.231228,24.520613,43.94733,-12.394774,-1.8094604,-22.70829,-16.642939,-18.215986,47.561333,-25.999437,1.191258,-1.8175026,-3.1834984,12.587341,8.12788,22.641161,-24.733433,33.85058,-25.410772,-9.529488,5.2946377,-7.256319,-32.33052,25.663553,-23.67732,-19.03598,-15.913783,-12.872663
77,-2.1091644763946533,-30.43929672241211,74.5383529663086,4.30916720846285,1.196684426899934,7.149621473926235,-7.7965007,31.426416,23.616974,46.656876,-14.31469,-2.2852416,-22.813774,-16.360027,-18.577393,48.85494,-26.952713,0.7905408,-2.0915987,-2.9842823,13.02306,6.9032016,22.376648,-25.28704,32.693645,-24.428186,-9.285673,5.2671623,-6.670002,-32.080784,25.952505,-19.974503,-19.008398,-16.730639,-13.467268
78,-2.1170177459716797,-31.22040557861328,74.2196044921875,4.330407294019887,0.8677199871220248,7.313147678724376,-7.5176535,30.361887,22.320091,49.39625,-16.12854,-3.1161487,-22.852354,-16.021614,-18.979214,50.025692,-27.953585,0.25250852,-2.4207873,-2.7198272,13.409789,5.5853586,22.0893,-25.938358,31.526537,-23.235073,-8.882108,5.2419004,-6.0687337,-31.798754,26.23845,-15.967576,-18.84172,-17.805195,-14.24341
79,-2.0906598567962646,-31.97415542602539,73.95156860351562,4.335841582834591,0.5758986596564717,7.532250327570547,-7.248361,29.180035,21.039248,52.094055,-17.80349,-4.028234,-22.845203,-15.664275,-19.433191,51.053303,-28.914501,-0.3638275,-2.814884,-2.4297047,13.727802,4.1956496,21.77852,-26.64564,30.303434,-21.934982,-8.394764,5.1541653,-5.389264,-31.49344,26.46285,-11.884669,-18.722254,-18.885115,-15.11065
80,-2.0639543533325195,-32.732330322265625,73.70775604248047,4.346366583083184,0.3359359058387279,7.839034718095464,-6.9247603,28.016317,20.155825,54.640778,-19.276148,-4.742223,-22.813946,-15.323983,-19.956142,51.91926,-29.749342,-0.9993418,-3.2755694,-2.1505733,13.960281,2.7542703,21.448122,-27.373526,28.97362,-20.628212,-7.9014125,4.9433503,-4.565454,-31.178324,26.559986,-7.9554873,-18.824783,-19.715067,-15.986049
81,-2.0258047580718994,-33.4886589050293,73.49722290039062,4.369881008300125,0.16308002096505195,8.258910660544304,-6.557803,26.877155,19.724834,57.0099,-20.440693,-5.2069645,-22.771929,-15.018491,-20.56362,52.622734,-30.441113,-1.6601049,-3.8041668,-1.888224,14.098427,1.2502335,21.097387,-28.131956,27.526169,-19.302052,-7.4021087,4.5622125,-3.5703704,-30.861563,26.512186,-4.1740394,-19.290514,-20.17444,-16.950403
82,-1.9787743091583252,-34.25385284423828,73.32342529296875,4.392664177323959,0.04517193693913262,8.768106755602917,-6.158146,25.709965,19.539557,59.219555,-21.334686,-5.5547733,-22.701927,-14.722769,-21.24444,53.171204,-31.036777,-2.3696332,-4.38978,-1.6167929,14.155453,-0.31556883,20.7241,-28.93746,25.975554,-17.914377,-6.8702893,4.050109,-2.4289765,-30.545094,26.35021,-0.45051455,-19.980486,-20.40571,-18.01827
83,-1.9209470748901367,-35.0205078125,73.17485809326172,4.402003317713662,-0.04536600983521055,9.325167630382548,-5.6840224,24.553717,19.560194,61.220478,-22.087116,-5.781356,-22.583542,-14.407187,-21.978437,53.561916,-31.544779,-3.0956042,-5.0138984,-1.3271326,14.1470175,-1.9131991,20.335262,-29.773329,24.316513,-16.526234,-6.3419523,3.4811375,-1.1581072,-30.233133,26.078825,3.1153336,-20.640654,-20.550793,-19.005993
84,-1.8712246417999268,-35.765899658203125,73.05023956298828,4.385395169145073,-0.13512184080774547,9.888895973848962,-5.0958743,23.440414,19.750576,62.958603,-22.828577,-5.8847666,-22.399107,-14.042198,-22.74469,53.793766,-31.970697,-3.8052907,-5.6562815,-1.0140989,14.090708,-3.5116313,19.945223,-30.627174,22.538853,-15.20086,-5.8464527,2.931216,0.23130746,-29.933561,25.693893,6.4130177,-21.021948,-20.763987,-19.731218
85,-1.8056260347366333,-36.525020599365234,72.94998931884766,4.335455558314266,-0.23594691295394557,10.456755223042412,-4.3487697,22.4306,20.205797,64.44427,-23.617392,-5.767016,-22.135237,-13.62031,-23.54779,53.873005,-32.325485,-4.4916224,-6.312604,-0.66521215,13.998603,-5.0949445,19.560392,-31.51893,20.571707,-13.958217,-5.3659735,2.3981426,1.7524571,-29.649675,25.172327,9.437527,-20.979366,-21.112446,-20.117764
86,-1.723352074623108,-37.26665115356445,72.87605285644531,4.259798023567319,-0.33180276949751486,11.047552366977705,-3.4761624,21.48384,20.895403,65.684044,-24.368168,-5.458995,-21.806547,-13.1536665,-24.396618,53.79957,-32.60221,-5.1694965,-6.9867306,-0.2867579,13.861755,-6.669996,19.182085,-32.458103,18.426792,-12.766626,-4.890732,1.8499272,3.421055,-29.378426,24.5154,12.22508,-20.66258,-21.512173,-20.264734
87,-1.645973563194275,-38.01800537109375,72.82569122314453,4.1680145376411755,-0.40711698455707085,11.652908729428624,-2.5614808,20.47553,21.601799,66.61677,-24.991716,-5.1576753,-21.432577,-12.637697,-25.277937,53.545944,-32.780067,-5.8409467,-7.6725545,0.0954163,13.6684475,-8.246527,18.820063,-33.418247,16.220562,-11.616974,-4.458968,1.3183671,5.226418,-29.116463,23.753374,14.722216,-20.268286,-21.894114,-20.25638
88,-1.5702731609344482,-38.790382385253906,72.80469512939453,4.069829175786438,-0.4467734094712744,12.264233232371444,-1.6913301,19.288551,22.117676,67.18509,-25.397587,-5.060742,-21.035751,-12.069497,-26.179722,53.09162,-32.83686,-6.5072784,-8.3676815,0.45519638,13.409224,-9.831705,18.48925,-34.367252,14.060525,-10.501348,-4.1069446,0.8353766,7.1485605,-28.858593,22.922901,16.877117,-19.994688,-22.188602,-20.182325
89,-1.4884672164916992,-39.58417510986328,72.82015228271484,3.94471912241899,-0.4353928656571617,12.891390271308175,-0.88736993,17.933783,22.423796,67.383156,-25.604008,-5.167818,-20.612707,-11.41987,-27.138027,52.394196,-32.76308,-7.1877832,-9.089021,0.81281567,13.074416,-11.443479,18.205257,-35.310143,11.909715,-9.388023,-3.8130276,0.38690466,9.211244,-28.590336,21.985588,18.650774,-19.884956,-22.37519,-20.013918
90,-1.4149125814437866,-40.38528060913086,72.8769302368164,3.795464823823042,-0.3841053626807362,13.534717892392738,-0.10496013,16.462019,22.62323,67.23494,-25.640732,-5.392599,-20.15585,-10.693972,-28.14922,51.47375,-32.570457,-7.8721666,-9.833925,1.1707289,12.675845,-13.058198,17.972572,-36.26383,9.707883,-8.296338,-3.5648005,-0.033857573,11.402279,-28.298464,20.949718,20.088345,-19.834509,-22.492096,-19.71988
91,-1.3289458751678467,-41.179656982421875,72.96568298339844,3.665884526981278,-0.31748131115772976,14.172923621356203,0.66712725,14.818416,22.691761,66.73146,-25.433828,-5.804269,-19.677786,-9.940213,-29.142763,50.395836,-32.26879,-8.520752,-10.575469,1.4749389,12.234733,-14.635176,17.786669,-37.209625,7.540674,-7.2977366,-3.410052,-0.38253668,13.63225,-27.987577,19.926052,21.281473,-19.826,-22.561039,-19.391148
92,-1.2445533275604248,-41.978302001953125,73.08209228515625,3.5988770701975517,-0.2610623528446271,14.784829069060441,1.4420259,12.948367,22.601408,65.86159,-24.91157,-6.472589,-19.191122,-9.211136,-30.048975,49.229248,-31.867567,-9.095824,-11.29288,1.6741515,11.772087,-16.138777,17.637844,-38.120434,5.5009217,-6.461629,-3.3946998,-0.61441773,15.811141,-27.67711,19.02582,22.313261,-19.840643,-22.599623,-19.12041
93,-1.1527210474014282,-42.78367614746094,73.23095703125,3.621333812866642,-0.23204262341525,15.388609592323247,2.2496488,10.75307,22.280056,64.55123,-23.931286,-7.5053835,-18.652779,-8.5326395,-30.873451,47.92146,-31.385523,-9.578859,-12.00658,1.7367976,11.287715,-17.606066,17.52318,-39.0118,3.619108,-5.8060155,-3.564935,-0.6872835,17.946941,-27.386374,18.249702,23.168184,-19.922728,-22.581291,-18.916409
94,-1.0818641185760498,-43.57841873168945,73.39543151855469,3.703086441737162,-0.2141901802581682,15.988637954594722,3.0907245,8.289405,21.740608,62.81696,-22.583357,-8.838397,-18.071846,-7.871861,-31.648531,46.458607,-30.809673,-9.993281,-12.72714,1.7055929,10.774885,-19.047655,17.441523,-39.888695,1.843728,-5.2930937,-3.880073,-0.63116294,20.07341,-27.120056,17.548475,23.808645,-20.061357,-22.506638,-18.735666
95,-1.0097683668136597,-44.388309478759766,73.57432556152344,3.8001352259569643,-0.1832474799161003,16.543468741924308,3.9347327,5.7379575,21.087248,60.780422,-21.140831,-10.279928,-17.53784,-7.1975865,-32.34484,44.967052,-30.100792,-10.3694,-13.4198065,1.6426295,10.245033,-20.396809,17.384333,-40.702988,0.15606387,-4.907177,-4.256681,-0.5115794,22.137558,-26.878447,16.954596,24.290667,-20.157536,-22.434895,-18.59527
96,-0.9311593770980835,-45.19791030883789,73.7677993774414,3.8697695657067683,-0.11442320591313168,17.01010928840386,4.7434187,3.2864187,20.442717,58.567482,-19.869455,-11.631538,-17.13902,-6.4831185,-32.93453,43.57456,-29.219917,-10.738516,-14.049993,1.606423,9.7092285,-21.589954,17.341724,-41.39993,-1.4499909,-4.6285396,-4.612711,-0.3973574,24.079027,-26.6623,16.505636,24.678072,-20.112757,-22.422428,-18.51401
97,-0.8780755996704102,-46.0064697265625,73.96963500976562,3.917063189686218,0.0022963643474312075,17.377908861231628,5.5602345,0.9446724,19.885376,56.116676,-18.864239,-12.856971,-16.88121,-5.7219377,-33.38014,42.259964,-28.168716,-11.119994,-14.604576,1.5928445,9.146085,-22.658068,17.309036,-41.974945,-2.9588897,-4.526302,-4.926519,-0.2913528,25.907553,-26.486977,16.242916,24.96755,-19.84279,-22.50944,-18.519388
98,-0.8312243223190308,-46.809024810791016,74.17723846435547,3.9554669701973264,0.15314765942333775,17.669595063970167,6.3983755,-1.3559022,19.328495,53.37509,-17.97346,-14.038973,-16.719128,-4.9298964,-33.71249,40.971054,-26.961433,-11.4966955,-15.104674,1.585392,8.561156,-23.633677,17.287315,-42.449165,-4.357986,-4.5817647,-5.2424636,-0.16560234,27.645735,-26.362919,16.129858,25.13367,-19.41712,-22.657608,-18.593752
99,-0.8125884532928467,-47.62714385986328,74.39083099365234,3.9833080994837005,0.33491897014379207,17.90560856145908,7.164155,-3.585472,18.68594,50.47346,-17.067879,-15.000033,-16.692717,-4.170103,-34.00168,39.835194,-25.59712,-11.837156,-15.575405,1.5969394,7.990803,-24.457733,17.277824,-42.806633,-5.6535473,-4.64361,-5.5777044,-0.041940413,29.256851,-26.274618,16.08412,25.20765,-18.9744,-22.80587,-18.68937
100,-0.8351521492004395,-48.42416000366211,74.6075439453125,4.080475988580255,0.5680101789754317,18.14726590854025,7.7543635,-5.8476357,17.928274,47.478653,-15.96342,-15.000033,-16.925316,-3.6572924,-34.3024,39.115818,-24.129684,-12.087945,-16.073954,1.567969,7.4250717,-25.07111,17.281471,-43.03551,-6.847349,-4.5560536,-5.9481106,0.059848163,30.698738,-26.191515,16.024927,25.22989,-18.659779,-22.892395,-18.76164
101,-0.8809534907341003,-49.218563079833984,74.82612609863281,4.093996854894149,0.8243980390605049,18.312152714882103,8.208578,-7.985417,16.907333,44.43199,-14.675173,-15.000033,-17.323143,-3.1395047,-34.655113,38.63292,-22.447184,-12.330719,-16.528349,1.6325176,6.9401197,-25.483397,17.298595,-43.119576,-7.949315,-4.2836514,-6.3460464,0.10181178,31.97251,-26.09607,15.925731,25.197596,-18.548645,-22.889326,-18.822159
102,-0.9593895673751831,-50.03916549682617,75.03959655761719,4.031134902329884,1.1018451129869156,18.396674938859665,8.593795,-9.997804,15.682593,41.275578,-13.26707,-15.000033,-17.86063,-2.6026938,-35.027443,38.32267,-20.557352,-12.555411,-16.92391,1.7716732,6.5220313,-25.732838,17.328888,-43.078243,-8.944361,-3.9064066,-6.7664256,0.10741712,33.09569,-25.988808,15.820522,25.103102,-18.562271,-22.833757,-18.88947
103,-1.0617659091949463,-50.88972473144531,75.24806213378906,3.8848051780568196,1.3599797154792208,18.40946114513726,8.922651,-11.747187,14.334002,38.1892,-11.824107,-15.000033,-18.447035,-2.0139716,-35.41111,38.10124,-18.477219,-12.655359,-17.254927,1.959817,6.207398,-25.809511,17.372492,-42.952744,-9.790395,-3.4484596,-7.2277074,0.15028788,34.043823,-25.863295,15.724177,24.98553,-18.614172,-22.760601,-18.930489
104,-1.1830052137374878,-51.76716613769531,75.4522705078125,3.6606679433902642,1.5620938798653885,18.362652304698813,9.173253,-13.109568,12.9657545,35.380196,-10.435121,-15.000033,-18.999899,-1.3503946,-35.785336,37.890472,-16.22709,-12.519912,-17.519758,2.1585114,6.025333,-25.69366,17.427614,-42.78718,-10.449433,-2.9237576,-7.747454,0.30547282,34.78379,-25.70763,15.657433,24.89209,-18.619125,-22.705015,-18.91268
105,-1.3108971118927002,-52.675193786621094,75.64630889892578,3.3836936548714887,1.7200375200051197,18.285330526137457,9.277745,-14.178437,11.486555,32.799942,-8.94018,-15.000033,-19.576283,-0.6810807,-36.229706,37.798523,-13.809146,-12.343708,-17.74185,2.3365571,5.9641595,-25.3701,17.492203,-42.58061,-10.89044,-2.2965999,-8.392928,0.6119267,35.29809,-25.50828,15.617356,24.848387,-18.54252,-22.686201,-18.797918
106,-1.4596147537231445,-53.60179138183594,75.82955169677734,3.055341598961058,1.8481552500851894,18.16474443994406,9.235054,-14.994803,9.919919,30.404354,-7.3581624,-15.000033,-20.207699,-0.0056649847,-36.71369,37.820152,-11.213141,-12.082799,-17.911459,2.5037277,6.0081487,-24.851938,17.562935,-42.319904,-11.136799,-1.5610837,-9.131157,1.0294282,35.59975,-25.262901,15.595425,24.837965,-18.439823,-22.682114,-18.615494
107,-1.6100168228149414,-54.56001281738281,75.99922180175781,2.6681389818070116,1.9192438020286213,17.95873184079679,9.055334,-15.394472,8.572603,28.463966,-6.0640783,-15.000033,-20.794582,0.7967881,-37.012722,37.73009,-8.465096,-11.262303,-17.978855,2.6664355,6.1609716,-24.190857,17.642366,-42.02868,-11.218924,-0.8093453,-9.826467,1.5076997,35.715073,-24.97686,15.597978,24.838297,-18.361502,-22.666803,-18.433569
108,-1.7738978862762451,-55.54313659667969,76.15888214111328,2.2281323814452465,1.9081090517493415,17.628013077403896,8.712311,-15.2314205,7.781151,27.286612,-5.4467044,-15.000033,-21.248747,1.8553982,-36.86295,37.32188,-5.622463,-9.400467,-17.898438,2.8195326,6.4207006,-23.425325,17.735794,-41.729977,-11.17743,-0.12906079,-10.346748,1.9911375,35.665337,-24.660547,15.6337385,24.828388,-18.356026,-22.614363,-18.320518
109,-1.9326603412628174,-56.5551872253418,76.29216766357422,1.7970951907440038,1.801035111403824,17.141807588178757,8.0675955,-14.434931,7.873305,27.106531,-5.6907125,-14.25194,-21.61807,3.2461874,-35.94767,36.55867,-2.5736468,-6.055843,-17.651182,2.9000216,6.7880807,-22.52585,17.84827,-41.41926,-11.020789,0.44365653,-10.635105,2.4926898,35.42339,-24.313435,15.715831,24.8337,-18.428743,-22.4959,-18.298626
110,-2.11690354347229,-57.512847900390625,76.38924407958984,1.81163156625207,1.7060927957389562,16.710339214832462,7.3065696,-13.900397,8.978912,27.096518,-6.271296,-8.88938,-22.415863,4.1007752,-34.25652,36.541435,0.078599505,-1.3938236,-17.421135,2.5670533,7.0502553,-21.482035,17.978235,-41.08395,-10.741294,0.95375997,-10.76928,3.0286791,34.998814,-23.937994,15.825056,24.839281,-18.554907,-22.332512,-18.326532
111,-2.316692352294922,-58.49034881591797,76.42671966552734,1.863231308996572,1.575128905690961,16.239766638088376,6.48295,-13.212585,10.3676405,27.586977,-7.493911,-3.4039395,-23.206795,4.9699416,-32.331715,36.699577,2.165395,3.834558,-17.115238,2.1750717,7.346702,-20.343206,18.127438,-40.730774,-10.353544,1.4390767,-10.823521,3.5439494,34.442238,-23.545195,15.949893,24.794926,-18.732897,-22.17311,-18.383553
112,-2.521108627319336,-59.4679069519043,76.41525268554688,1.8640298486090612,1.4290944489107067,15.785738895349077,5.8390756,-12.50874,11.519775,28.196774,-9.0567665,0.7786013,-23.906622,5.6915035,-30.716694,37.161633,3.3554752,8.885757,-16.771164,1.8283617,7.6609516,-19.16338,18.295815,-40.363514,-9.872868,1.9362142,-10.872391,3.9860168,33.81852,-23.155985,16.06846,24.63061,-18.96103,-22.066565,-18.445347
113,-2.72098708152771,-60.42137145996094,76.34469604492188,1.7827625173504942,1.264885263697665,15.348130784972527,5.4880733,-11.747063,12.37902,28.836853,-10.853402,3.2899034,-24.448252,6.268055,-29.534597,37.831154,3.665726,14.064592,-16.39598,1.5625801,7.9985814,-17.922043,18.483465,-39.973316,-9.315827,2.4546056,-10.901133,4.3288646,33.1431,-22.78406,16.171976,24.324635,-19.265177,-22.045116,-18.50048
114,-2.9354441165924072,-61.45271682739258,76.1846923828125,1.3848861935503498,1.276427799154086,14.510272782871272,4.807637,-10.381899,13.518266,30.25831,-13.3031225,4.746033,-24.758389,6.9760456,-29.955996,38.181,3.7028813,15.000033,-15.606666,1.6254866,8.252447,-16.586954,18.67258,-39.546207,-8.66736,2.9771838,-10.882955,4.5989785,32.4428,-22.47121,16.277983,23.84539,-19.613005,-22.073792,-18.557726
115,-3.14336895942688,-62.49245834350586,75.98111724853516,0.9212151472605953,1.3089035333186232,13.61490472849303,4.1687016,-8.874764,14.53652,31.747803,-15.877186,5.535765,-25.114655,7.3674755,-30.86911,39.014183,3.2853749,15.000033,-14.705825,1.7356975,8.493893,-15.201637,18.9157,-39.10587,-7.936671,3.4875412,-10.872414,4.834317,31.61381,-22.120033,16.411728,23.314762,-19.986689,-22.104433,-18.642946
116,-3.3379924297332764,-63.50737380981445,75.75761413574219,0.5662764441119297,1.2605548944603453,12.905042236243748,3.7322512,-7.5839043,15.158747,32.874493,-18.21667,6.016965,-25.628254,7.1082354,-31.739563,40.791935,2.2789917,15.000033,-13.926103,1.7483354,8.782198,-13.820431,19.171812,-38.654953,-7.0928693,3.9824991,-10.928018,5.079569,30.705475,-21.813236,16.556955,22.666899,-20.29149,-22.088968,-18.751743
117,-3.52923583984375,-64.49373626708984,75.5253677368164,0.36374195406133464,1.0916244375046138,12.461735443606894,3.5529552,-6.6126814,15.260703,33.533157,-20.27658,6.146457,-26.256105,6.049298,-32.482525,43.663174,0.53695273,15.000033,-13.345459,1.6138847,9.145163,-12.436818,19.435127,-38.189457,-6.1429944,4.4921966,-11.045077,5.303838,29.721992,-21.554625,16.725899,21.876316,-20.475756,-22.01087,-18.873522
118,-3.71667742729187,-65.42070007324219,75.27863311767578,0.28311215804337003,0.8191934779180238,12.220747785769074,3.6073472,-5.8597817,14.995787,33.8801,-22.174679,5.8254642,-26.852468,4.375343,-33.11095,47.239674,-1.812903,15.000033,-12.908187,1.3600441,9.576069,-11.027357,19.702404,-37.7059,-5.088398,5.0100455,-11.200632,5.500528,28.67095,-21.343967,16.91243,20.943302,-20.582169,-21.898035,-19.007431
119,-3.885612964630127,-66.33531188964844,75.00865173339844,0.2957168720182306,0.4902413970917877,12.080953074916227,3.7677686,-5.2362604,14.60515,34.102585,-23.939074,5.2882037,-27.331848,2.3961294,-33.52679,50.957718,-4.38688,15.000033,-12.525575,1.0220276,10.047355,-9.608803,19.967493,-37.201588,-3.8946948,5.479592,-11.422535,5.7395196,27.546366,-21.183575,17.111523,19.914162,-20.685236,-21.764301,-19.178686
120,-4.038804054260254,-67.22868347167969,74.73307800292969,0.3576264117430371,0.16566030234231074,11.925636457037152,3.8906941,-4.635433,14.32333,34.39072,-25.594774,4.7526865,-27.680302,0.41703388,-33.690147,54.33943,-6.824584,15.000033,-12.093736,0.654212,10.5193405,-8.200993,20.222582,-36.674004,-2.5228827,5.846566,-11.738479,6.090151,26.33925,-21.078087,17.316933,18.83983,-20.858383,-21.623959,-19.412468
121,-4.189623832702637,-68.1232681274414,74.44053649902344,0.47618839997680235,-0.1466253713862245,11.727250149768047,3.945471,-4.0575285,14.181532,34.78783,-27.149427,4.2114596,-27.95103,-1.5332615,-33.560184,57.39663,-9.1346245,15.000033,-11.574058,0.2513181,10.990764,-6.823189,20.463808,-36.13402,-0.9427381,6.105749,-12.173404,6.5417757,25.042524,-21.028297,17.536367,17.712036,-21.174305,-21.461542,-19.788225
122,-4.3615193367004395,-69.01140594482422,74.14281463623047,0.6743036718496216,-0.4770773084546356,11.546512584419192,4.005445,-3.5551934,14.070262,35.19726,-28.590597,3.5677888,-28.158987,-3.604177,-33.170532,60.35317,-11.481704,15.000033,-11.023575,-0.21254301,11.477959,-5.4603233,20.690063,-35.58271,0.82694924,6.288367,-12.707204,7.066523,23.67041,-21.031115,17.76994,16.504478,-21.572666,-21.27356,-20.267197
123,-4.511045455932617,-69.88529968261719,73.85680389404297,0.9164260422940831,-0.8103852285574672,11.387865535840744,4.0650077,-3.0826674,14.006875,35.612247,-29.915325,2.8966944,-28.274977,-5.756422,-32.630516,63.097775,-13.749837,15.000033,-10.469838,-0.6968193,11.957561,-4.0870614,20.898067,-35.00089,2.7562647,6.392873,-13.30006,7.7072678,22.242477,-21.087902,18.001654,15.24539,-21.929424,-21.094215,-20.696924
124,-4.635265827178955,-70.73868560791016,73.58537292480469,1.1630974980080284,-1.1317813199893345,11.25557589744167,4.1216655,-2.5925393,14.00442,36.02084,-31.119184,2.2740805,-28.265957,-7.9533153,-32.056553,65.52184,-15.827783,15.000033,-9.943721,-1.1574718,12.40539,-2.6727226,21.08118,-34.364433,4.8097744,6.41937,-13.913241,8.506149,20.775023,-21.202599,18.220888,13.964507,-22.120447,-20.961008,-20.926561
125,-4.7303032875061035,-71.57386016845703,73.325439453125,1.4069458351808957,-1.4355866281326817,11.168346282553825,4.153784,-2.0671222,14.098081,36.466003,-32.218212,1.7416764,-28.135672,-10.225055,-31.476795,67.63949,-17.715244,15.000033,-9.471513,-1.58973,12.816166,-1.2187144,21.227625,-33.690193,7.11067,6.3048577,-14.617375,9.616138,19.266735,-21.37527,18.430706,12.66862,-22.087698,-20.881739,-20.899717
126,-4.817417621612549,-72.42221069335938,73.08248901367188,1.6070814896348389,-1.6823923579860371,11.041103428489535,4.0879707,-1.430395,14.330831,37.032772,-33.261482,1.2261832,-27.940296,-12.50898,-30.986797,69.45242,-19.430384,14.418144,-8.955495,-1.9505559,13.161583,0.26068482,21.33351,-32.983166,9.640023,6.081403,-15.41212,10.964102,17.713339,-21.604008,18.641352,11.34474,-21.904915,-20.837301,-20.703384
127,-4.910388946533203,-73.28536987304688,72.86001586914062,1.699796944605128,-1.8333871596956088,10.77198901155543,3.893411,-0.5970833,14.68201,37.718742,-34.262653,0.6461557,-27.721737,-14.65549,-30.705366,70.87923,-20.93397,12.779452,-8.29483,-2.1674368,13.404255,1.7812898,21.407494,-32.19575,12.13955,5.878112,-16.146215,12.255277,16.115206,-21.893965,18.860228,9.99772,-21.646994,-20.826765,-20.401936
128,-4.9905195236206055,-74.1509017944336,72.65080261230469,1.7891499504555306,-1.9803243792022809,10.461037509385989,3.7637618,0.22534172,14.963682,38.26606,-35.1014,-0.007083837,-27.443407,-16.749615,-30.372934,71.98738,-22.291517,11.167291,-7.5870094,-2.3462245,13.604565,3.3676746,21.46482,-31.273611,14.338127,5.807756,-16.661707,13.19738,14.465904,-22.259054,19.098476,8.630111,-21.387163,-20.849691,-20.058277
129,-5.050401210784912,-75.01991271972656,72.4732666015625,1.8621138069544254,-2.1317788959263795,10.100234588302747,3.6980696,1.0435327,15.129471,38.68234,-35.786304,-0.7668807,-27.075655,-18.835817,-30.054596,72.790596,-23.503069,9.535518,-6.8312654,-2.473827,13.776959,5.062488,21.50901,-30.128035,16.160393,6.015915,-16.847061,13.645152,12.754188,-22.70916,19.378914,7.2182074,-21.079851,-20.920427,-19.651337
130,-5.095071792602539,-75.86064147949219,72.3306884765625,1.9217125276695874,-2.28058492732726,9.705940672068337,3.675001,1.8661726,15.228425,39.003456,-36.329216,-1.5973897,-26.640837,-20.925293,-29.744974,73.30726,-24.586037,7.8867936,-6.055153,-2.5577605,13.91877,6.869926,21.534317,-28.799932,17.720642,6.3866677,-16.806047,13.774375,10.974996,-23.246645,19.711855,5.7623334,-20.69977,-21.031446,-19.159773
131,-5.124866962432861,-76.70140838623047,72.22174072265625,1.99284094231486,-2.4117103757849234,9.283281863279873,3.703876,2.6717193,15.329812,39.1902,-36.704613,-2.449608,-26.217775,-22.91605,-29.338287,73.513084,-25.543308,6.3284845,-5.2750974,-2.6211016,14.01012,8.748906,21.54586,-27.430838,19.038677,6.635232,-16.703327,13.776712,9.132792,-23.869408,20.090904,4.2979608,-20.34986,-21.15485,-18.64828
132,-5.124353408813477,-77.56697845458984,72.15057373046875,2.100193154812153,-2.5099129093504984,8.837353488547194,3.796233,3.4370162,15.501221,39.199005,-36.882965,-3.2736063,-25.884512,-24.703709,-28.721115,73.3829,-26.363049,4.9648037,-4.5032773,-2.6874182,14.033155,10.651494,21.561394,-26.160963,20.134615,6.481014,-16.702768,13.847653,7.2336626,-24.571907,20.506794,2.857263,-20.136236,-21.263687,-18.17988
133,-5.110767841339111,-78.4254379272461,72.12505340576172,2.2624928234583557,-2.580135507410928,8.342525236174678,3.9843903,4.136941,15.790156,38.99556,-36.86117,-4.045074,-25.65405,-26.31115,-27.866823,72.921394,-27.051872,3.780147,-3.7196453,-2.7775536,13.993687,12.588242,21.59744,-24.990133,20.989056,5.806864,-16.869133,14.050403,5.2249427,-25.362799,20.971958,1.476436,-20.168936,-21.376556,-17.75305
134,-5.078265190124512,-79.30301666259766,72.12931060791016,2.4606775095906093,-2.6264254713772752,7.804947223932249,4.252342,4.786605,16.147469,38.609055,-36.64965,-4.793878,-25.491436,-27.77256,-26.836935,72.1423,-27.601583,2.729528,-2.9253626,-2.8757198,13.904388,14.58436,21.656567,-23.851679,21.583086,4.771608,-17.112066,14.273318,3.1162992,-26.240578,21.502289,0.12020006,-20.360008,-21.503336,-17.340147
135,-5.042325496673584,-80.19149017333984,72.16514587402344,2.662023146937414,-2.632430354029442,7.278646128308793,4.5332246,5.4278374,16.494152,38.105453,-36.2527,-5.548784,-25.388092,-29.005093,-25.652466,71.0405,-27.974463,1.8643771,-2.1598053,-2.9529526,13.757072,16.600477,21.74032,-22.786486,21.949368,3.51283,-17.361576,14.453188,1.0045605,-27.172838,22.082544,-1.2725369,-20.527674,-21.604483,-16.96568
136,-4.976739883422852,-81.09083557128906,72.24163055419922,2.8339202513262296,-2.5831649514300046,6.817542464067421,4.75978,6.1034966,16.74929,37.55061,-35.673042,-6.339573,-25.322569,-29.92969,-24.337343,69.61191,-28.133242,1.2309414,-1.4509991,-2.986559,13.540137,18.577991,21.852753,-21.84661,22.138668,2.1701274,-17.541882,14.533772,-1.0126889,-28.113693,22.67542,-2.7473745,-20.501728,-21.639936,-16.650993
137,-4.909904479980469,-82.02637481689453,72.34818267822266,2.966605376022668,-2.4682085243400995,6.418598776193084,4.9204445,6.824743,16.894646,36.950542,-34.90535,-7.1857686,-25.291662,-30.48719,-22.841589,67.79967,-28.012384,0.88846487,-0.7940518,-2.9728444,13.227112,20.53369,22.005524,-21.041433,22.120396,0.598959,-17.614176,14.499854,-2.953515,-29.037165,23.278002,-4.2820125,-20.2364,-21.58425,-16.427343
138,-4.792656421661377,-82.98709869384766,72.5028305053711,3.077678324154614,-2.2988868402172256,6.05884561522725,5.0471277,7.5649147,16.963467,36.274033,-33.95349,-8.065196,-25.267046,-30.740808,-21.177568,65.63749,-27.655022,0.779715,-0.17418359,-2.9387155,12.831174,22.485659,22.20787,-20.335524,21.883963,-1.2138356,-17.618547,14.386618,-4.8800335,-29.939394,23.907919,-5.831477,-19.836275,-21.464972,-16.273859
139,-4.6783318519592285,-83.97125244140625,72.67849731445312,3.17585194758037,-2.0936895790820556,5.762316662435329,5.137067,8.3126955,16.950813,35.532597,-32.830284,-8.945827,-25.18695,-30.798717,-19.467005,63.251762,-27.186672,0.7800684,0.3998975,-2.9058475,12.399021,24.365547,22.45969,-19.719572,21.527218,-2.927206,-17.599192,14.218499,-6.7424083,-30.808182,24.539925,-7.4150195,-19.364967,-21.319025,-16.133596
140,-4.56229305267334,-85.00456237792969,72.88093566894531,3.2682423495254134,-1.870810270470879,5.55509098486383,5.1908846,9.055688,16.85009,34.72432,-31.54476,-9.793799,-25.004694,-30.763802,-17.831654,60.757973,-26.722082,0.7715023,0.9206262,-2.8904562,11.974612,26.09471,22.757439,-19.192867,21.160318,-4.198529,-17.60204,14.019114,-8.492062,-31.629606,25.141438,-9.043028,-18.88559,-21.184114,-15.947474
141,-4.442490577697754,-86.05326080322266,73.11073303222656,3.3473719539702698,-1.6338814605581116,5.444905032835211,5.1975694,9.806378,16.634129,33.87139,-30.08987,-10.629615,-24.692049,-30.605522,-16.25403,58.089275,-26.259846,0.7421759,1.3859866,-2.8822794,11.55961,27.66993,23.107721,-18.755596,20.78113,-4.8508105,-17.64485,13.794296,-10.131058,-32.39788,25.694687,-10.738891,-18.367516,-21.060966,-15.701535
142,-4.316946983337402,-87.13206481933594,73.36607360839844,3.4133560202467828,-1.3739487102368968,5.4181158719181175,5.159463,10.56253,16.304016,32.963078,-28.46453,-11.460296,-24.265566,-30.300894,-14.685369,55.220963,-25.756187,0.7416204,1.7977116,-2.8802722,11.133184,29.130878,23.518826,-18.398855,20.341188,-5.0938363,-17.702501,13.533459,-11.690127,-33.114475,26.2139,-12.476721,-17.79526,-20.931858,-15.425848
143,-4.166317939758301,-88.22093963623047,73.64053344726562,3.4853615610089093,-1.090206141386669,5.467611823174088,5.092085,11.296837,15.902965,31.96638,-26.69197,-12.23797,-23.76612,-29.955282,-13.205414,52.32622,-25.253012,0.75480914,2.1551225,-2.9130018,10.703359,30.45601,23.98645,-18.11349,19.89245,-5.1618214,-17.76011,13.233976,-13.150422,-33.7768,26.711542,-14.195715,-17.265074,-20.808601,-15.127157
144,-4.025577545166016,-89.35407257080078,73.92514038085938,3.582697751843303,-0.7819081695036056,5.58633334646283,5.0116076,11.983271,15.478371,30.848558,-24.793636,-12.915052,-23.243402,-29.666779,-11.895706,49.568813,-24.789507,0.7751117,2.45546,-3.0069747,10.276811,31.614342,24.498978,-17.894836,19.4995,-5.286517,-17.802052,12.893818,-14.501505,-34.380226,27.203646,-15.826474,-16.868856,-20.70243,-14.8101
145,-3.8719985485076904,-90.50025177001953,74.21629333496094,3.722721623205189,-0.45273082146972266,5.7799655664131295,4.9593954,12.595715,15.037679,29.529043,-22.706314,-13.54838,-22.689531,-29.451921,-10.730467,46.920868,-24.374802,0.7529405,2.6846414,-3.176521,9.851068,32.609196,25.057976,-17.749325,19.182863,-5.485885,-17.82513,12.503162,-15.777139,-34.922226,27.709633,-17.343487,-16.656693,-20.614307,-14.4658
146,-3.7200167179107666,-91.68216705322266,74.51293182373047,3.893373106004755,-0.10210521404071636,6.050012804464731,4.911206,13.15645,14.554142,28.058893,-20.44658,-14.142221,-22.097158,-29.257366,-9.680601,44.31632,-23.98644,0.71694285,2.8418925,-3.4037158,9.422368,33.452606,25.667633,-17.673803,18.912838,-5.647242,-17.83807,12.066585,-16.970211,-35.40073,28.219217,-18.781889,-16.578709,-20.539955,-14.093613
147,-3.564539909362793,-92.87890625,74.80323028564453,4.070471103566327,0.27633312842220986,6.382692995877001,4.782969,13.713948,14.03575,26.606573,-18.153646,-14.570324,-21.514946,-29.068249,-8.827008,41.843193,-23.602362,0.7820134,2.9417405,-3.6682682,8.99312,34.12171,26.314798,-17.651789,18.684368,-5.804768,-17.840506,11.604494,-18.06587,-35.817448,28.71369,-20.11233,-16.54643,-20.483572,-13.707461
148,-3.4100341796875,-94.10459899902344,75.0888900756836,4.2302151345664925,0.6891591613672896,6.764444406987005,4.483633,14.317384,13.49795,25.34961,-15.966926,-14.706464,-20.985996,-28.868755,-8.251401,39.582085,-23.194653,1.0612324,2.9961054,-3.9464147,8.565454,34.58437,26.974957,-17.672132,18.503317,-5.9897513,-17.832401,11.137043,-19.032259,-36.175358,29.17274,-21.320486,-16.48266,-20.447664,-13.322067
149,-3.2762210369110107,-95.34305572509766,75.3619155883789,4.378609450441068,1.161912011496453,7.2102164425846,3.9874911,14.944776,12.890024,24.213833,-13.805743,-14.61674,-20.52029,-28.646511,-7.922803,37.477154,-22.768066,1.5665514,2.9894688,-4.2432985,8.114088,34.81463,27.636095,-17.748964,18.406616,-6.251804,-17.808731,10.654115,-19.873487,-36.474003,29.603523,-22.399918,-16.370787,-20.427248,-12.926648
150,-3.1382038593292236,-96.59901428222656,75.61672973632812,4.530088373157601,1.683196967517598,7.722577041633797,3.3251026,15.579676,12.231901,23.1728,-11.644181,-14.33447,-20.088411,-28.40954,-7.8173985,35.483723,-22.315788,2.2480538,2.9107752,-4.5650077,7.642864,34.823532,28.297642,-17.890078,18.395927,-6.5547442,-17.77132,10.150684,-20.624634,-36.71563,30.01992,-23.339603,-16.242878,-20.42218,-12.516275
151,-3.013666868209839,-97.87104797363281,75.85665893554688,4.670227365185037,2.205638167402192,8.269311784237745,2.4877543,16.279997,11.661277,22.469204,-9.707899,-13.680636,-19.669596,-28.169277,-8.028017,33.692596,-21.788954,3.1204271,2.7822025,-4.8852563,7.1997223,34.631275,28.947447,-18.0778,18.423931,-6.7983294,-17.732231,9.65436,-21.256233,-36.907192,30.404951,-24.156446,-16.122662,-20.440207,-12.116476
152,-2.9024927616119385,-99.14576721191406,76.06343841552734,4.778030584131489,2.68365827101725,8.818827710102443,1.4657923,17.111984,11.322936,22.341068,-8.223461,-12.471741,-19.247751,-27.933088,-8.646474,32.202892,-21.144388,4.194107,2.621757,-5.1723475,6.8304477,34.257984,29.567255,-18.292738,18.448263,-6.882218,-17.705969,9.192571,-21.776636,-37.064613,30.746286,-24.842777,-16.00511,-20.489826,-11.751197
153,-2.809760808944702,-100.43275451660156,76.24224090576172,4.832783076526891,3.1367744252927805,9.40302729116434,0.10515153,18.154448,11.2144165,22.958164,-7.24342,-10.312782,-18.761791,-27.697643,-9.881268,30.930288,-20.249876,5.6944222,2.4106333,-5.402991,6.5255394,33.654327,30.146524,-18.54302,18.496452,-6.7180715,-17.698996,8.741132,-22.173964,-37.201298,31.049355,-25.410728,-15.895483,-20.58315,-11.436095
154,-2.7264249324798584,-101.72537231445312,76.3840103149414,4.831517041712057,3.58693771995301,10.032264671552879,-1.5635267,19.379877,11.287271,24.163006,-6.695069,-7.3934164,-18.249859,-27.41676,-11.623798,29.857521,-19.166311,7.531097,2.1375546,-5.5712953,6.2618823,32.81858,30.681017,-18.843813,18.585506,-6.3763843,-17.707361,8.295781,-22.450449,-37.32377,31.316269,-25.866016,-15.78641,-20.711298,-11.155296
155,-2.6401753425598145,-103.00498962402344,76.48591613769531,4.779467096984811,3.986469454437387,10.634342817480274,-3.2022345,20.695251,11.604353,25.608511,-6.558472,-4.425212,-17.853996,-27.051844,-13.486288,29.20132,-18.164066,9.246988,1.8434974,-5.6753235,6.07383,31.84274,31.159544,-19.182922,18.655462,-5.991711,-17.728212,7.913945,-22.601284,-37.435795,31.52776,-26.217398,-15.678504,-20.850645,-10.887712
156,-2.5759944915771484,-104.28765106201172,76.52247619628906,4.696410643629858,4.27933540615811,11.128242658305423,-4.4382873,21.99438,12.21212,26.944008,-6.750002,-2.1428602,-17.715767,-26.612158,-15.08316,29.182281,-17.526104,10.402346,1.5782328,-5.730937,6.0049925,30.813833,31.568872,-19.546465,18.652918,-5.698773,-17.756649,7.6527286,-22.613892,-37.53746,31.667934,-26.479874,-15.581998,-20.977394,-10.613698
157,-2.522463798522949,-105.5630111694336,76.4917984008789,4.5778470957729285,4.442149693230915,11.505853346452234,-5.1637735,23.315153,13.239358,28.121567,-7.300994,-0.71370393,-17.925356,-26.110905,-16.389185,29.99392,-17.335365,10.885028,1.3456362,-5.7387943,6.0871863,29.740353,31.894888,-19.919266,18.566132,-5.488339,-17.794064,7.5811,-22.486425,-37.628246,31.723137,-26.672049,-15.479626,-21.095415,-10.296818
158,-2.4700183868408203,-106.81578826904297,76.4136734008789,4.425063664333249,4.50168294257062,11.799236110989657,-5.5204873,24.684025,14.616083,29.286978,-8.194637,0.22891362,-18.412468,-25.549915,-17.592617,31.463644,-17.430962,10.96562,1.1238681,-5.7028556,6.296942,28.577528,32.13376,-20.308867,18.431791,-5.299817,-17.841154,7.6514244,-22.23911,-37.710125,31.714622,-26.77385,-15.367747,-21.213688,-9.958131
159,-2.3986856937408447,-108.0485610961914,76.29714965820312,4.273380848747399,4.475287461725898,11.987987149057519,-5.5326242,25.964031,16.096924,30.430414,-9.252563,0.7470654,-19.054724,-24.950668,-18.634459,33.25694,-17.719952,10.772992,0.9323487,-5.651962,6.5979195,27.33592,32.291157,-20.735527,18.262468,-5.187362,-17.890968,7.7453785,-21.859545,-37.778763,31.667337,-26.763023,-15.295431,-21.316132,-9.668743
160,-2.3362631797790527,-109.26580810546875,76.12854766845703,4.1561186832351735,4.381019258939112,12.052075541300804,-5.240459,27.015928,17.436865,31.532219,-10.295872,0.90470773,-19.713062,-24.34536,-19.448336,35.06477,-18.128626,10.4040165,0.75337225,-5.6149154,6.950083,26.074392,32.35982,-21.165302,18.041386,-5.1985774,-17.936464,7.734417,-21.411467,-37.813274,31.655521,-26.569073,-15.29484,-21.386803,-9.501187
161,-2.2800302505493164,-110.45108795166016,75.93033599853516,4.078271118143918,4.205190093099676,11.943105325479236,-4.5685005,27.814692,18.687109,32.556164,-11.324211,0.5173384,-20.388288,-23.764242,-19.962446,36.949234,-18.666101,9.765096,0.67349565,-5.6066256,7.373916,24.783588,32.37741,-21.634018,17.754646,-5.5123878,-17.993097,7.570561,-20.816818,-37.826977,31.61843,-26.227556,-15.39784,-21.397215,-9.459014
162,-2.2299304008483887,-111.6350326538086,75.6962661743164,4.030116379721471,3.9466716102621873,11.690205619250456,-3.5574121,28.387745,19.968952,33.571865,-12.442832,-0.38172916,-21.124422,-23.184414,-20.23715,39.021015,-19.341959,8.8347225,0.71489394,-5.6096234,7.866384,23.347849,32.328175,-22.23188,17.49724,-6.057797,-18.060223,7.346523,-20.02953,-37.827824,31.491804,-25.752876,-15.577169,-21.368177,-9.4937315
163,-2.1558499336242676,-112.80535125732422,75.4361572265625,4.0177025788579375,3.641959656517452,11.38770114863478,-2.4343436,28.696833,21.111622,34.6956,-13.614055,-1.4015102,-21.839409,-22.582043,-20.389618,41.090034,-20.126865,7.788337,0.70363754,-5.6291327,8.390067,21.914173,32.22954,-22.81379,17.14541,-6.5229497,-18.096252,7.10241,-19.170969,-37.804367,31.399406,-25.125505,-15.793201,-21.34821,-9.641146
164,-2.051023483276367,-113.96186065673828,75.15824127197266,4.04154475172923,3.325469196751256,11.12682560004291,-1.4175708,28.745396,21.909975,36.02728,-14.779111,-2.1558352,-22.449373,-21.940268,-20.529436,42.977962,-21.011002,6.793565,0.6220856,-5.6441846,8.869423,20.305744,32.072266,-23.546198,16.867828,-6.61913,-18.07308,6.944213,-18.211523,-37.74792,31.302172,-24.30877,-16.016954,-21.395594,-9.894007
165,-1.9432709217071533,-115.09954833984375,74.8666763305664,4.131440520937321,2.9784080731470026,10.877538860408084,-0.49068022,28.51592,22.239796,37.599724,-15.922616,-2.5652065,-22.934702,-21.270077,-20.571075,44.71744,-22.116762,5.87443,0.45749587,-5.70163,9.333034,18.60392,31.898664,-24.360525,16.583557,-6.2285256,-17.978882,6.8922796,-17.199377,-37.653244,31.256105,-23.268728,-16.246033,-21.548727,-10.314372
166,-1.8439700603485107,-116.23092651367188,74.5682601928711,4.27542011608122,2.592140277405784,10.607396295213471,0.42482114,28.036966,22.205124,39.357834,-17.074938,-2.8312905,-23.321716,-20.586563,-20.478888,46.396053,-23.433495,4.932799,0.25325793,-5.79635,9.796912,16.82118,31.707317,-25.248528,16.272688,-5.530221,-17.831278,6.903026,-16.104107,-37.51392,31.230894,-22.025553,-16.50096,-21.770405,-10.876802
167,-1.7726073265075684,-117.35334777832031,74.27772521972656,4.410597092115959,2.2139840515500793,10.403251269273973,1.2318507,27.399122,21.931242,41.238956,-18.2068,-2.9884512,-23.596367,-19.886131,-20.436733,47.911625,-24.752449,3.9552274,-0.041212462,-5.8603196,10.208634,14.965793,31.492273,-26.205883,15.908169,-4.6833034,-17.636478,6.9300103,-14.882065,-37.33861,31.178339,-20.666786,-16.77487,-21.995726,-11.488368
168,-1.6738309860229492,-118.42355346679688,74.01759338378906,4.472875919255552,1.8896111844684422,10.353109111090719,1.835812,26.69085,21.548422,43.182514,-19.289324,-3.0694437,-23.7522,-19.162111,-20.635683,49.157143,-25.859377,2.9290247,-0.4735717,-5.823776,10.519122,13.040704,31.244848,-27.234226,15.466107,-3.8449814,-17.401653,6.9273214,-13.482316,-37.148853,31.041681,-19.2887,-17.05186,-22.160292,-12.056477
169,-1.5774216651916504,-119.47256469726562,73.78343200683594,4.424656708037299,1.6311394335233051,10.468378664049737,2.1824553,25.945498,20.994375,45.270172,-20.363773,-3.0121326,-23.791342,-18.381422,-21.128199,50.11864,-26.7098,1.8092746,-1.0615255,-5.6345487,10.721975,11.014964,30.955788,-28.377016,14.979583,-2.9979386,-17.127665,6.921087,-11.874172,-36.966373,30.8372,-17.884365,-17.338627,-22.217615,-12.616683
170,-1.4766699075698853,-120.5264892578125,73.58369445800781,4.304654248720763,1.4131493339676535,10.706050958617475,2.3464706,25.12998,20.229319,47.506447,-21.430202,-2.8184805,-23.708157,-17.559097,-21.80879,50.844624,-27.426676,0.6177483,-1.7693707,-5.3333797,10.849999,8.888107,30.617647,-29.620022,14.449775,-2.0800827,-16.811335,6.921254,-10.066965,-36.800987,30.568367,-16.441545,-17.62947,-22.210606,-13.200653
171,-1.3662017583847046,-121.56280517578125,73.43359375,4.163240862336361,1.2254316537846548,11.071969202298163,2.4251344,24.223866,19.42537,49.712223,-22.397087,-2.617171,-23.495893,-16.751514,-22.63971,51.317608,-28.032581,-0.5568669,-2.5613196,-4.9897523,10.913163,6.7144876,30.22768,-30.884895,13.80008,-1.1750484,-16.455841,6.858118,-8.033021,-36.6549,30.151896,-15.068225,-17.908743,-22.211014,-13.711345
172,-1.2494908571243286,-122.59014892578125,73.33244323730469,4.050491909040494,1.057875419404764,11.57166102498938,2.5105195,23.202091,18.759539,51.704086,-23.170988,-2.5401518,-23.160666,-16.011187,-23.585445,51.52534,-28.54016,-1.6256665,-3.3979807,-4.6739855,10.9174595,4.539523,29.792345,-32.107765,12.961247,-0.3707983,-16.066973,6.6628604,-5.7323256,-36.52381,29.498692,-13.884642,-18.160933,-22.289875,-14.052106
173,-1.1315358877182007,-123.61267852783203,73.27394104003906,3.9921490453465416,0.9109726582704796,12.270890973188454,2.5850487,22.036425,18.269583,53.477585,-23.72091,-2.5782077,-22.689184,-15.400952,-24.69851,51.467888,-28.966995,-2.542201,-4.2965765,-4.406307,10.851611,2.3593068,29.316977,-33.316013,11.864417,0.36806333,-15.619471,6.288273,-3.040291,-36.39336,28.510628,-12.952417,-18.355371,-22.500416,-14.142876
174,-1.022564172744751,-124.63047790527344,73.2522964477539,3.9549072924363697,0.7889507876081449,13.144911662930493,2.6182609,20.750563,17.868622,55.11138,-24.093884,-2.6731648,-22.09441,-14.86168,-25.982996,51.148705,-29.289898,-3.359872,-5.256094,-4.141504,10.717046,0.16159816,28.80218,-34.546593,10.552042,1.06421,-15.123425,5.7822614,0.027201302,-36.24982,27.241983,-12.237542,-18.5011,-22.794739,-14.0534525
175,-0.9173678159713745,-125.67725372314453,73.27410125732422,3.9011650332843777,0.6867656530978362,14.064548724681249,2.6731596,19.383581,17.545183,56.53849,-24.304407,-2.888989,-21.425432,-14.266887,-27.331795,50.559742,-29.452528,-4.1399026,-6.219294,-3.8552492,10.532865,-2.0059786,28.25104,-35.742947,9.11867,1.6219916,-14.635891,5.219811,3.269096,-36.084736,25.85263,-11.686656,-18.640749,-23.093596,-13.914613
176,-0.8038781881332397,-126.72746276855469,73.33882141113281,3.7940131750949755,0.600771515312435,14.900802042266864,2.8097627,17.966232,17.28871,57.681293,-24.368013,-3.2950904,-20.72789,-13.492306,-28.636435,49.68516,-29.39906,-4.9424267,-7.139884,-3.5294507,10.316793,-4.1015787,27.673218,-36.837906,7.669875,1.9433898,-14.209469,4.6748133,6.4571056,-35.89785,24.51971,-11.217602,-18.826057,-23.316822,-13.860069
177,-0.7086341977119446,-127.78089141845703,73.43753814697266,3.599637348943561,0.5309793278825893,15.649766036516162,3.0409367,16.533554,17.12903,58.53285,-24.331732,-3.9268873,-19.953379,-12.462689,-29.928839,48.405975,-29.137938,-5.7960033,-8.030412,-3.1412594,10.05918,-6.1398935,27.082218,-37.837265,6.198999,1.9323895,-13.857955,4.127993,9.572871,-35.692062,23.27375,-10.81385,-19.081598,-23.439539,-13.927293
178,-0.6151669025421143,-128.846435546875,73.57322692871094,3.3459891146644463,0.48104689638718534,16.37096709366364,3.3256402,15.046424,17.059626,59.116356,-24.17155,-4.747701,-19.100615,-11.247684,-31.24408,46.7541,-28.686018,-6.660593,-8.918512,-2.7098696,9.753911,-8.12311,26.486454,-38.76521,4.6579494,1.6630453,-13.546636,3.5557315,12.701812,-35.458565,22.055832,-10.496984,-19.374739,-23.503674,-14.048105
179,-0.5454283952713013,-129.91796875,73.74435424804688,3.0899206364258265,0.4514579259072604,17.03016839945238,3.6361048,13.420048,17.01257,59.404636,-23.796371,-5.723381,-18.285587,-9.956072,-32.482594,44.955566,-28.009108,-7.4949403,-9.779111,-2.2918518,9.420458,-9.997845,25.889738,-39.584663,3.1016521,1.3025525,-13.254564,3.0235934,15.755273,-35.191307,20.901455,-10.216148,-19.6847,-23.530365,-14.193417
180,-0.4891912043094635,-130.97427368164062,73.95173645019531,2.888004307396285,0.44132275945075683,17.593427163226327,3.9487584,11.570605,16.916512,59.36609,-23.113754,-6.8219223,-17.621323,-8.711393,-33.553883,43.2491,-27.075586,-8.262114,-10.599212,-1.9424831,9.075049,-11.708877,25.294268,-40.244297,1.5866798,1.0195109,-12.9648,2.5925584,18.622074,-34.885433,19.855902,-9.908445,-19.993467,-23.539928,-14.337644
181,-0.4455449879169464,-132.0369415283203,74.18376922607422,2.7619301608267697,0.4537178423673251,18.056718199065603,4.266422,9.401823,16.70837,58.950573,-22.140776,-8.092774,-17.118128,-7.537666,-34.434296,41.632515,-25.86348,-8.990871,-11.385991,-1.6895623,8.707069,-13.270404,24.7039,-40.725243,0.11386123,0.8066187,-12.662526,2.2849648,21.287857,-34.54456,18.914433,-9.565519,-20.325624,-23.515207,-14.47657
182,-0.42036640644073486,-133.1021270751953,74.43266296386719,2.677904282107627,0.4870160496848211,18.437359921348953,4.595105,6.979043,16.420107,58.16799,-20.922112,-9.542507,-16.716106,-6.383256,-35.18783,40.007053,-24.395489,-9.692256,-12.145114,-1.5002156,8.311887,-14.718055,24.124899,-41.065998,-1.3337559,0.5911602,-12.360288,2.0649626,23.806252,-34.174377,18.050167,-9.218469,-20.687708,-23.452454,-14.623093
183,-0.42619380354881287,-134.1630859375,74.69861602783203,2.6106845763675204,0.5325320568976213,18.733075685035857,4.918767,4.460373,16.116001,57.08034,-19.401367,-11.080507,-16.4223,-5.268145,-35.859406,38.47413,-22.707798,-10.307556,-12.860981,-1.341675,7.9152274,-16.035776,23.563437,-41.297424,-2.723831,0.4415484,-12.0850935,1.9032912,26.148336,-33.775963,17.27212,-8.849066,-21.031517,-23.393148,-14.776639
184,-0.4468477666378021,-135.21693420410156,74.98018646240234,2.5364287443253897,0.5818239032911136,18.94100683477178,5.223021,1.9980417,15.86002,55.74921,-17.509775,-12.620261,-16.247164,-4.2157845,-36.486816,37.134697,-20.832235,-10.77769,-13.519024,-1.1852351,7.543509,-17.206491,23.026936,-41.444656,-4.025382,0.4245331,-11.8641615,1.7686346,28.25648,-33.349186,16.598125,-8.41397,-21.302425,-23.379229,-14.937308
185,-0.49784672260284424,-136.27288818359375,75.2745361328125,2.458742278484896,0.6390570333640923,19.05239398169634,5.529271,-0.3922514,15.737685,54.14806,-15.127347,-14.18368,-16.211664,-3.251842,-37.110844,36.03203,-18.757551,-11.218541,-14.1199045,-1.0297786,7.1995063,-18.240103,22.523195,-41.4842,-5.2534013,0.59525466,-11.693955,1.6670034,30.133768,-32.893215,16.016058,-7.903092,-21.503748,-23.427267,-15.142438
186,-0.5773802995681763,-137.3047637939453,75.56752014160156,2.511532726067116,0.7412570291743509,19.127616063007636,5.816519,-2.927808,15.805272,52.152054,-12.251825,-15.000033,-16.429747,-2.6048193,-37.681038,35.333958,-16.56292,-11.585153,-14.725363,-0.99257785,6.810796,-19.144567,22.057848,-41.409534,-6.4270563,0.9054876,-11.563734,1.6082143,31.823803,-32.409733,15.508649,-7.3590245,-21.671503,-23.513262,-15.380399
187,-0.6678686738014221,-138.34970092773438,75.85984802246094,2.6667969844849644,0.8781501332143233,19.185764489665825,6.0651402,-5.5403914,15.9158,49.80591,-9.072595,-15.000033,-16.872301,-2.232815,-38.125694,35.000393,-14.280392,-11.621867,-15.328457,-1.0554607,6.3890557,-19.907967,21.634262,-41.274418,-7.517659,1.262403,-11.489954,1.5670335,33.292377,-31.910448,15.08831,-6.78216,-21.784527,-23.620588,-15.576034
188,-0.7799971699714661,-139.40013122558594,76.1451416015625,2.7672811566441933,0.9972588060453383,19.179258224826075,6.283795,-8.045535,15.735978,47.25782,-5.8651857,-15.000033,-17.371538,-1.8230858,-38.371525,34.73346,-11.838149,-11.101095,-15.863995,-1.0953233,6.0209265,-20.508148,21.25293,-41.128254,-8.50027,1.5787244,-11.489222,1.519055,34.521935,-31.410368,14.768198,-6.187959,-21.82799,-23.731575,-15.654738
189,-0.9029079079627991,-140.45053100585938,76.42213439941406,2.8211857228815442,1.110156185009915,19.078219786070093,6.4786234,-10.522015,15.208599,44.42857,-2.3892863,-15.000033,-17.981434,-1.3810445,-38.426353,34.62392,-9.209489,-10.167313,-16.321346,-1.1151975,5.6921706,-20.934198,20.91724,-40.96213,-9.381856,1.853912,-11.597641,1.4757563,35.505795,-30.92348,14.5444975,-5.5663304,-21.730867,-23.864243,-15.542737
190,-1.0385438203811646,-141.49853515625,76.67863464355469,2.8309871566936815,1.2163787064260327,18.883473872611965,6.7083626,-12.930553,14.419676,41.286232,1.3766594,-15.000033,-18.700642,-0.8958763,-38.29236,34.64227,-6.3987746,-8.858416,-16.708755,-1.1120571,5.4087577,-21.195549,20.630543,-40.751156,-10.182884,2.128006,-11.7955675,1.4445683,36.260563,-30.458557,14.403577,-4.920549,-21.519693,-24.01885,-15.297348
191,-1.1865328550338745,-142.55123901367188,76.91488647460938,2.7711745849194056,1.280440418508714,18.649385269191765,7.0269938,-15.093795,13.389231,37.994633,4.9048624,-15.000033,-19.406588,-0.25195098,-37.814453,34.527836,-3.4760325,-6.7452755,-17.041521,-1.0752145,5.217962,-21.301336,20.39009,-40.521877,-10.891257,2.372162,-12.016755,1.3947784,36.819748,-30.02094,14.341327,-4.2951508,-21.334446,-24.152815,-15.041435
192,-1.3484569787979126,-143.62545776367188,77.114013671875,2.622579616634552,1.2698191679247701,18.43216740660939,7.4606247,-16.866219,12.141147,34.74333,7.671236,-15.000033,-19.980694,0.6722694,-36.812595,34.03911,-0.53733605,-3.3887498,-17.336859,-0.9997903,5.1606593,-21.263416,20.187592,-40.302242,-11.486547,2.5584593,-12.195454,1.2950976,37.23613,-29.60922,14.351854,-3.749951,-21.327421,-24.225212,-14.899214
193,-1.5197309255599976,-144.712158203125,77.27392578125,2.428291782515325,1.1871679988415784,18.268291820858536,8.103735,-18.366837,10.614786,31.221,9.71679,-15.000033,-20.394384,1.9919511,-34.948517,32.942616,2.6221137,2.2171571,-17.635067,-0.9251599,5.2313313,-21.062523,20.012577,-40.084076,-11.9664345,2.6429753,-12.3383255,1.113577,37.48269,-29.226398,14.447319,-3.2670324,-21.594143,-24.218851,-14.911987
194,-1.686852216720581,-145.8054962158203,77.38121795654297,2.1587997107722905,1.05282413866611,18.122881002684377,8.92497,-19.605125,8.789645,27.430098,11.291473,-15.000033,-20.711824,3.7029028,-32.319508,31.503983,5.713043,9.633911,-17.916904,-0.8140744,5.41387,-20.705288,19.8602,-39.85844,-12.329026,2.654881,-12.473448,0.87383896,37.554405,-28.875904,14.620685,-2.830359,-22.037584,-24.157063,-15.010542
195,-1.853062629699707,-146.9489288330078,77.41649627685547,1.6435385362934762,0.9509547899348739,17.794332584333,9.391927,-20.20207,7.039821,24.43864,11.976988,-15.000033,-20.905901,5.706127,-30.103937,30.028086,8.188793,15.000033,-17.959463,-0.50074697,5.663457,-20.24464,19.734764,-39.66019,-12.553418,2.6712065,-12.563596,0.6255218,37.52045,-28.548573,14.847304,-2.4826126,-22.511522,-24.060694,-15.154647
196,-2.009384870529175,-148.18386840820312,77.38936614990234,0.7903959745284829,0.951742360873797,17.049162828222297,8.861773,-19.882092,5.8883014,23.470638,11.276811,-15.000033,-20.958502,7.7377195,-29.484802,28.73151,9.985083,15.000033,-17.502707,0.102452554,5.9116096,-19.725407,19.649422,-39.527493,-12.622272,2.7731338,-12.573685,0.41805747,37.445065,-28.221123,15.111132,-2.2595522,-22.874825,-23.952362,-15.306351
197,-2.1413235664367676,-149.41708374023438,77.3773193359375,-0.07631330099140211,0.7239229343177893,16.472103179687544,7.90582,-19.024899,4.6822586,24.201174,9.387386,-15.000033,-21.108988,9.28498,-28.785072,28.640774,10.408323,15.000033,-17.090282,0.6424073,6.3637757,-19.163504,19.603638,-39.49196,-12.527142,2.9735627,-12.473079,0.286211,37.29841,-27.877407,15.3918085,-2.138639,-23.115135,-23.824976,-15.451797
198,-2.2646827697753906,-150.6887664794922,77.34639739990234,-0.9706127594201869,0.381521087000891,16.03294724764207,6.513027,-17.70295,3.5321522,26.267694,6.42175,-15.000033,-21.381266,10.546758,-27.986347,29.331133,9.856688,15.000033,-16.704853,1.158926,6.9304323,-18.539928,19.594063,-39.533875,-12.275409,3.2325606,-12.287924,0.19766277,37.057343,-27.51181,15.698189,-2.1011066,-23.30643,-23.672985,-15.61026
199,-2.4297752380371094,-151.87045288085938,77.22228240966797,-1.3694475845300211,0.11330752247365201,15.895045073026951,5.33151,-16.603514,4.10679,28.020594,3.4093928,-8.665115,-22.444395,10.483269,-27.323431,32.021656,8.0030775,15.000033,-16.511547,1.2645984,7.311153,-17.876383,19.607847,-39.605057,-11.886825,3.5478473,-12.0711975,0.12179521,36.72233,-27.142275,16.007782,-2.138703,-23.428623,-23.53064,-15.778664
200,-2.5920040607452393,-153.07191467285156,77.01614379882812,-1.7830883563929316,-0.15322124363154885,15.786813693501378,4.3929276,-15.49727,4.683057,29.776909,0.115686506,-3.0781271,-23.436506,10.1009035,-27.075499,34.934814,5.9348316,15.000033,-16.286873,1.3748758,7.687422,-17.158152,19.644707,-39.649456,-11.367941,3.9306567,-11.883758,0.020572124,36.26247,-26.778051,16.35902,-2.1981876,-23.463741,-23.429708,-15.97359
201,-2.7600224018096924,-154.26918029785156,76.76087188720703,-2.2639416692473455,-0.4104871271417492,15.709603979135858,3.8149135,-14.221852,5.3148484,31.518066,-3.416171,1.3803319,-24.310959,9.354096,-27.391443,38.090565,3.621618,15.000033,-16.030123,1.5379866,8.057306,-16.378914,19.708296,-39.675045,-10.723965,4.445519,-11.709335,-0.12742633,35.689568,-26.42326,16.764593,-2.2883477,-23.346273,-23.39902,-16.201578
202,-2.9258737564086914,-155.45034790039062,76.47100067138672,-2.769143169873105,-0.687089223149331,15.700273324414896,3.5023768,-12.768256,5.9794006,33.358166,-7.3247056,5.386949,-25.08379,8.207157,-28.039736,41.571236,0.9187208,15.000033,-15.770425,1.7093682,8.444243,-15.535335,19.800655,-39.69604,-9.952296,5.067548,-11.527645,-0.3006431,35.014412,-26.077414,17.214125,-2.4305642,-23.102255,-23.414696,-16.457499
203,-3.077230453491211,-156.60647583007812,76.16388702392578,-3.2167420456356037,-0.9965093151982629,15.726703071603184,3.4070349,-11.37694,6.4511724,35.011047,-11.266337,8.692032,-25.699747,6.7436666,-28.727997,45.11735,-1.9422711,15.000033,-15.502109,1.8137643,8.852244,-14.622717,19.91712,-39.665104,-9.063799,5.6706147,-11.393369,-0.46606115,34.202553,-25.746656,17.693237,-2.5988128,-22.849695,-23.429867,-16.733938
204,-3.2308361530303955,-157.7616729736328,75.83114624023438,-3.520354278761924,-1.3478363800653412,15.748964294711921,3.4427397,-10.2814245,6.5803857,36.250755,-14.867785,11.067902,-26.157284,5.05956,-29.18719,48.512093,-4.7358627,15.000033,-15.215263,1.7754283,9.278868,-13.636353,20.049465,-39.532852,-8.066718,6.126006,-11.359566,-0.5904071,33.21935,-25.441488,18.190735,-2.76941,-22.704025,-23.396109,-17.02497
205,-3.376603841781616,-158.89468383789062,75.48199462890625,-3.6411267727628402,-1.7696316617970154,15.762409317076603,3.6726592,-9.51641,6.4098086,36.94815,-17.997778,12.32814,-26.465015,3.1033647,-29.38273,51.830616,-7.518629,15.000033,-14.9147005,1.5508012,9.742457,-12.545518,20.190409,-39.274338,-6.990984,6.411313,-11.438212,-0.73765314,32.0338,-25.171146,18.720596,-2.9376228,-22.718502,-23.283821,-17.360289
206,-3.537019729614258,-159.99407958984375,75.1123046875,-3.6127959010087585,-2.2563080861403937,15.790193900956542,4.101386,-8.923413,6.1218257,37.29321,-20.81757,12.692616,-26.619898,0.83026344,-29.437626,55.15503,-10.392214,15.000033,-14.612026,1.1728556,10.243014,-11.353565,20.337143,-38.91819,-5.8226457,6.5888853,-11.601265,-0.9007475,30.678144,-24.93688,19.282358,-3.1270194,-22.817636,-23.12232,-17.734156
207,-3.6950364112854004,-161.08641052246094,74.73161315917969,-3.4614310448449515,-2.757700945501577,15.821777326157848,4.554595,-8.451639,5.786646,37.523144,-23.366076,12.545869,-26.65538,-1.6487037,-29.359406,58.310127,-13.172321,15.000033,-14.292801,0.68705523,10.743755,-10.100327,20.485956,-38.49885,-4.5077987,6.6655126,-11.840453,-0.9392131,29.21073,-24.733591,19.845087,-3.3552363,-22.924944,-22.951204,-18.087507
208,-3.860609531402588,-162.2102508544922,74.3260269165039,-3.4012739601980755,-3.111192988466171,15.608109491721896,4.5995846,-7.7635427,5.6314816,38.15866,-25.861029,12.180669,-26.671186,-3.9386797,-29.59969,60.920483,-15.527375,13.087505,-13.718486,0.34606692,11.13268,-8.833721,20.635927,-38.053024,-2.9838595,6.648741,-12.147708,-0.7145656,27.697977,-24.550703,20.379782,-3.6418178,-22.966904,-22.810364,-18.361723
209,-4.023805141448975,-163.3057861328125,73.91918182373047,-3.217299320758447,-3.4055977330121183,15.40325254313857,4.453175,-7.2089524,5.4178724,38.93449,-28.12023,11.656604,-26.69062,-6.3713818,-29.673923,63.28036,-17.614532,11.378735,-13.102762,-0.08523066,11.462059,-7.577052,20.783197,-37.60793,-1.1974372,6.444049,-12.547723,-0.16273242,26.126867,-24.378769,20.887295,-3.959944,-22.917458,-22.709658,-18.566353
210,-4.1766533851623535,-164.3860321044922,73.5340576171875,-2.9100313806681926,-3.665791930480991,15.198778458128144,4.1948423,-6.768549,5.1765914,39.76386,-30.141138,10.816736,-26.70459,-8.973498,-29.598463,65.45043,-19.513494,9.822179,-12.439197,-0.61539817,11.752247,-6.30763,20.924776,-37.151463,0.8184354,6.0857754,-13.040372,0.6310935,24.478104,-24.212362,21.372915,-4.3079405,-22.820782,-22.628933,-18.723938
211,-4.322410583496094,-165.45632934570312,73.16868591308594,-2.562671526879574,-3.9006347681324787,14.961208132299708,3.8520565,-6.321718,5.000482,40.668907,-31.942993,9.832801,-26.71088,-11.535319,-29.347914,67.30277,-21.18764,8.474945,-11.723172,-1.1533796,12.014766,-5.013974,21.05955,-36.65692,2.9944625,5.773198,-13.579103,1.5900768,22.778463,-24.056702,21.80876,-4.7121954,-22.71314,-22.567354,-18.79187
212,-4.457099914550781,-166.49951171875,72.8317642211914,-2.261434036653979,-4.118933392955829,14.657404267472893,3.4614463,-5.751783,4.968248,41.652443,-33.535805,8.877869,-26.704298,-13.840659,-28.901356,68.71236,-22.59614,7.398346,-10.955904,-1.601823,12.259755,-3.673662,21.18476,-36.087685,5.2497025,5.7053537,-14.109862,2.6421518,21.051138,-23.923798,22.177166,-5.20093,-22.627716,-22.523346,-18.727531
213,-4.579253196716309,-167.5306396484375,72.52201080322266,-2.029026530003033,-4.316016074458562,14.289041314196096,2.9881148,-5.0248404,5.108054,42.78673,-34.91137,7.9861016,-26.69626,-15.838564,-28.230045,69.63267,-23.684813,6.664041,-10.154168,-1.9334512,12.485384,-2.2714708,21.291945,-35.43581,7.6657405,5.988708,-14.629873,3.8987515,19.292528,-23.820074,22.474356,-5.77581,-22.595882,-22.495537,-18.463268
214,-4.689324855804443,-168.55801391601562,72.24945831298828,-1.8239630008249472,-4.489202017461729,13.870636999913685,2.4369187,-4.2070403,5.3652287,44.042923,-36.075237,7.0684357,-26.693203,-17.645617,-27.374908,70.15037,-24.479836,6.2143087,-9.315645,-2.1953652,12.681166,-0.81110096,21.375027,-34.711197,10.241243,6.5055895,-15.151073,5.36123,17.49142,-23.747063,22.725586,-6.42035,-22.589504,-22.484255,-18.040903
215,-4.787184238433838,-169.56893920898438,72.00990295410156,-1.642651015472191,-4.650022158343331,13.389484228127188,1.9049828,-3.3246489,5.685901,45.2646,-37.04772,6.113092,-26.671913,-19.289045,-26.426115,70.335266,-25.06157,5.91424,-8.419724,-2.3957841,12.844278,0.70147264,21.437708,-33.897926,12.770303,7.107344,-15.64159,6.7924514,15.6451845,-23.716845,22.964096,-7.1256323,-22.547695,-22.491158,-17.58104
216,-4.881252765655518,-170.56735229492188,71.80310821533203,-1.4806371856089764,-4.809739239409973,12.832323930316866,1.4832177,-2.401718,6.01939,46.299465,-37.846478,5.1120644,-26.60938,-20.79534,-25.470953,70.25658,-25.51346,5.631424,-7.4538746,-2.5408316,12.97658,2.2698262,21.491747,-32.97331,15.037019,7.638493,-16.0819,7.950882,13.754169,-23.747293,23.226158,-7.8964725,-22.408493,-22.516214,-17.205807
217,-4.954090118408203,-171.5585174560547,71.64179992675781,-1.352610541239331,-4.984293345612836,12.163086710146267,1.1808536,-1.4124873,6.3757534,47.16799,-38.46083,4.048266,-26.485476,-22.148867,-24.522074,69.89481,-25.823969,5.368132,-6.390383,-2.6079454,13.09919,3.9387858,21.539526,-31.849987,16.961195,8.207981,-16.485262,8.730101,11.799539,-23.858103,23.518812,-8.757421,-22.146427,-22.587944,-16.934305
218,-5.006767272949219,-172.53721618652344,71.52288818359375,-1.2568168812776266,-5.163126115331611,11.399820544559628,0.9559913,-0.35579696,6.7687645,47.929176,-38.881824,2.931231,-26.312141,-23.345093,-23.544327,69.23447,-25.964697,5.1809926,-5.2616034,-2.5970016,13.203492,5.723546,21.5761,-30.550905,18.633266,8.838485,-16.860102,9.269352,9.784601,-24.053732,23.848259,-9.715716,-21.788496,-22.694092,-16.709728
219,-5.059985637664795,-173.51235961914062,71.4422836303711,-1.1631310460933546,-5.317668242986607,10.610594208158323,0.81535447,0.71088725,7.1553354,48.49125,-39.13314,1.7989285,-26.114399,-24.42626,-22.55418,68.34655,-25.99323,5.017462,-4.139363,-2.5505636,13.251316,7.5654297,21.608461,-29.22702,20.110525,9.241386,-17.191969,9.69198,7.7406087,-24.322151,24.237808,-10.744963,-21.353094,-22.775108,-16.53852
220,-5.082059383392334,-174.4910888671875,71.4050064086914,-1.0428235509639219,-5.419247398398347,9.863148141753149,0.76265156,1.7301987,7.493751,48.761303,-39.231476,0.68766224,-25.919413,-25.432768,-21.5641,67.30105,-25.966133,4.8283567,-3.0879095,-2.5170522,13.208317,9.393613,21.656073,-28.03351,21.457697,9.129937,-17.468143,10.120612,5.698325,-24.64187,24.699821,-11.810874,-20.865847,-22.773195,-16.424932
221,-5.069015979766846,-175.48268127441406,71.4234619140625,-0.8840348651148094,-5.457819653005858,9.14442702110108,0.8075374,2.680749,7.782748,48.697456,-39.176563,-0.39221567,-25.735994,-26.387857,-20.590765,66.08118,-25.916023,4.603988,-2.0897694,-2.5134757,13.055975,11.210376,21.73945,-27.010885,22.666437,8.172292,-17.710857,10.625185,3.6308622,-25.004242,25.261011,-12.922871,-20.247858,-22.660679,-16.388546
222,-5.052470684051514,-176.49266052246094,71.47855377197266,-0.7045490776022981,-5.4488347676501405,8.427623193575046,0.9392551,3.5906994,8.041056,48.356182,-38.95689,-1.4589053,-25.547153,-27.266043,-19.62265,64.67032,-25.813654,4.3691773,-1.1156871,-2.523416,12.820909,13.045392,21.864918,-26.077707,23.706608,6.597997,-17.932959,11.121368,1.531458,-25.40406,25.906235,-14.094367,-19.518538,-22.474728,-16.42119
223,-5.030596733093262,-177.50347900390625,71.56890869140625,-0.5216680052070902,-5.401934852298654,7.762486619895399,1.1280837,4.4792447,8.254044,47.789307,-38.56732,-2.5173316,-25.33681,-28.033743,-18.635605,63.1286,-25.617762,4.123852,-0.21093228,-2.5455506,12.539583,14.861665,22.03333,-25.203625,24.610708,4.971305,-18.093782,11.505504,-0.5430245,-25.820202,26.576982,-15.282899,-18.856985,-22.257748,-16.484327
224,-4.973603248596191,-178.54653930664062,71.7071533203125,-0.35231940178054294,-5.3274092421186525,7.1984344071285715,1.3473912,5.3654623,8.4063225,47.04587,-38.004856,-3.571719,-25.08696,-28.659073,-17.603815,61.514503,-25.285635,3.868037,0.58668685,-2.5785885,12.246393,16.607037,22.242216,-24.36713,25.427889,3.8578272,-18.138792,11.683401,-2.5354092,-26.223951,27.204308,-16.437422,-18.446358,-22.050373,-16.532578
225,-4.920291423797607,-179.60662841796875,71.8871078491211,-0.1983886519267381,-5.227859617750752,6.742281075566132,1.6219248,6.245456,8.496491,46.08099,-37.28021,-4.6301727,-24.778244,-29.141434,-16.539957,59.805927,-24.826418,3.6075764,1.2715832,-2.6222017,11.939043,18.280266,22.494404,-23.532892,26.167631,3.442973,-17.982367,11.567717,-4.4778466,-26.600115,27.772213,-17.51864,-18.403708,-21.853802,-16.558617
226,-4.848184108734131,-180.69488525390625,72.10651397705078,-0.052386695869010964,-5.098459848292624,6.369868963443006,1.9542775,7.1069303,8.529218,44.882996,-36.387875,-5.6874638,-24.418428,-29.499651,-15.452065,57.99042,-24.259935,3.3388047,1.8619595,-2.6837053,11.603628,19.903297,22.794842,-22.711447,26.80899,3.4171996,-17.668285,11.235681,-6.404782,-26.945974,28.31787,-18.53621,-18.614872,-21.65064,-16.577913
227,-4.773796081542969,-181.8125457763672,72.36433410644531,0.08335249116746908,-4.939981881989949,6.084276497722334,2.2797065,7.9576464,8.492105,43.56394,-35.315933,-6.7255573,-24.030533,-29.727045,-14.312675,56.142086,-23.564417,3.0449498,2.3607957,-2.7716215,11.256097,21.448124,23.142801,-21.95432,27.368591,3.6061594,-17.336136,10.842159,-8.259821,-27.251797,28.842682,-19.504265,-18.917011,-21.454855,-16.578068
228,-4.694155693054199,-182.96473693847656,72.64729309082031,0.2068370977829746,-4.753232308885092,5.888312072065539,2.534442,8.806994,8.36959,42.23566,-34.051212,-7.7257,-23.641193,-29.814198,-13.091392,54.337746,-22.713,2.7098455,2.772813,-2.8929029,10.909396,22.87516,23.537422,-21.32093,27.876747,3.8337166,-17.124468,10.544516,-9.987684,-27.506176,29.344065,-20.430462,-19.148323,-21.28106,-16.546019
229,-4.613834857940674,-184.14927673339844,72.95281219482422,0.31661938359900493,-4.538883443945113,5.778748441374216,2.7273479,9.659373,8.145291,40.8904,-32.56974,-8.709609,-23.229433,-29.767717,-11.806456,52.558487,-21.738922,2.2718074,3.0916364,-3.0493584,10.559433,24.187366,23.988401,-20.81997,28.356867,4.205319,-17.094084,10.426834,-11.60732,-27.699305,29.833755,-21.296267,-19.288935,-21.126637,-16.473253
230,-4.529179096221924,-185.35096740722656,73.27799224853516,0.4146686558673374,-4.2966636816825075,5.75486264295408,2.8812003,10.507494,7.820388,39.48323,-30.889576,-9.676635,-22.789896,-29.590963,-10.467904,50.787422,-20.647846,1.7579088,3.314719,-3.2385554,10.200303,25.402842,24.504318,-20.413563,28.78902,4.7648363,-17.163597,10.392815,-13.148864,-27.828884,30.30899,-22.0874,-19.421522,-20.987007,-16.365328
231,-4.446855545043945,-186.57656860351562,73.616943359375,0.5045556300792176,-4.0264767621987225,5.823755018424373,2.9536576,11.344276,7.40446,38.070465,-29.064655,-10.575041,-22.365322,-29.27657,-9.031796,49.099075,-19.371319,1.286226,3.453208,-3.4585652,9.841424,26.499462,25.079508,-20.09525,29.14492,5.2456193,-17.256897,10.329771,-14.573388,-27.89985,30.743721,-22.814425,-19.535831,-20.872902,-16.231272
232,-4.360293388366699,-187.82200622558594,73.9675064086914,0.5896520228532224,-3.728312558438269,5.992609674609357,2.903427,12.166113,6.909817,36.70864,-27.149073,-11.35542,-21.990543,-28.81305,-7.4527526,47.55943,-17.834421,0.9745117,3.5203028,-3.7025125,9.492123,27.442738,25.69949,-19.869137,29.409058,5.3815503,-17.29937,10.124069,-15.831634,-27.923006,31.108364,-23.495358,-19.623821,-20.794664,-16.081175
233,-4.282646179199219,-189.09506225585938,74.31831359863281,0.6748403982960772,-3.3932176044603874,6.2734903460465565,2.716433,12.977008,6.327264,35.39552,-25.098568,-12.058301,-21.710161,-28.16678,-5.6090183,46.22188,-15.762023,0.7313617,3.5103211,-3.9683862,9.148489,28.218853,26.360699,-19.759968,29.575895,5.0028114,-17.276203,9.719925,-16.89478,-27.901829,31.377655,-24.137384,-19.658428,-20.779263,-15.889307
234,-4.217346668243408,-190.39259338378906,74.6633071899414,0.7572450526876274,-3.0241246814496665,6.6586598875211624,2.4135911,13.783281,5.6465216,34.111996,-22.908787,-12.697485,-21.474915,-27.347795,-3.5658782,45.03927,-13.274057,0.54696,3.418047,-4.2517962,8.806383,28.83468,27.068161,-19.764513,29.66696,4.2866745,-17.22067,9.188126,-17.796902,-27.840542,31.571383,-24.730091,-19.649855,-20.812328,-15.659722
235,-4.161013603210449,-191.71005249023438,74.9993667602539,0.8301745731505001,-2.6390294713746574,7.126161375834302,2.0022542,14.586013,4.885787,32.896797,-20.693224,-13.184541,-21.173946,-26.423306,-1.5365402,43.913292,-10.889962,0.66064537,3.2562847,-4.5420156,8.47565,29.287802,27.812914,-19.846872,29.707602,3.4917355,-17.132797,8.603477,-18.575596,-27.75689,31.727285,-25.275188,-19.648323,-20.841818,-15.4482565
236,-4.107200622558594,-193.03086853027344,75.32164764404297,0.8885891677786442,-2.256365215737281,7.65530836978971,1.4875922,15.384812,4.071144,31.789679,-18.562384,-13.429234,-20.699902,-25.463419,0.2816321,42.731995,-9.133757,1.2971634,3.0355186,-4.827285,8.167883,29.571,28.576067,-19.973297,29.730114,2.8781557,-17.018976,8.0403805,-19.267664,-27.67832,31.883162,-25.780664,-19.699242,-20.815142,-15.312347
237,-4.060388565063477,-194.36434936523438,75.6226577758789,0.924849810434585,-1.8702478571917327,8.271567283288535,0.84891635,16.159924,3.1123397,30.743246,-16.444374,-13.513793,-19.985575,-24.428642,1.938141,41.400974,-8.237484,2.6043928,2.7308764,-5.0954685,7.88066,29.656889,29.348345,-20.16344,29.767582,2.484169,-16.87056,7.480151,-19.87561,-27.628778,32.04731,-26.286364,-19.859339,-20.67338,-15.296142
