unveil-humanoid-operators/unveil-humanoid-operators.github.io/feature-analysis-animation/data/feature_matrix_instances/age_ankle_rom_jogging_A369_jog_ff_start_180_R_003__A369.csv
Frame,root_translateX,root_translateY,root_translateZ,root_rotateX,root_rotateY,root_rotateZ,left_hip_pitch_joint_dof,left_hip_roll_joint_dof,left_hip_yaw_joint_dof,left_knee_joint_dof,left_ankle_pitch_joint_dof,left_ankle_roll_joint_dof,right_hip_pitch_joint_dof,right_hip_roll_joint_dof,right_hip_yaw_joint_dof,right_knee_joint_dof,right_ankle_pitch_joint_dof,right_ankle_roll_joint_dof,waist_yaw_joint_dof,waist_roll_joint_dof,waist_pitch_joint_dof,left_shoulder_pitch_joint_dof,left_shoulder_roll_joint_dof,left_shoulder_yaw_joint_dof,left_elbow_joint_dof,left_wrist_roll_joint_dof,left_wrist_pitch_joint_dof,left_wrist_yaw_joint_dof,right_shoulder_pitch_joint_dof,right_shoulder_roll_joint_dof,right_shoulder_yaw_joint_dof,right_elbow_joint_dof,right_wrist_roll_joint_dof,right_wrist_pitch_joint_dof,right_wrist_yaw_joint_dof
0,-0.08520953357219696,2.1430346965789795,78.71171569824219,0.6849710331294481,-0.692290511695911,-89.7512086092932,-0.53305477,4.768469,10.906267,12.9864645,-10.31064,-2.1456034,0.46963173,-7.101919,-7.081831,15.701393,-13.09534,4.84154,-1.53116,0.4662844,7.5117135,-11.022484,12.670068,-41.847443,67.801285,0.76206726,-3.491508,3.7088506,-5.067639,-11.67724,35.762753,64.06228,-0.706859,-1.7352895,-9.539325
1,-0.0937226414680481,2.1362032890319824,78.72004699707031,0.7278653700088541,-0.6591633250447834,-89.75146969850026,-0.3801997,4.6891103,10.938168,12.60534,-10.13661,-2.1636229,0.48198593,-7.1449523,-7.076914,15.622251,-13.07894,4.8647203,-1.5557811,0.43240535,7.411397,-11.203568,12.755861,-43.11346,67.585175,1.4496424,-3.4911194,3.5523143,-5.081048,-11.707632,35.848595,64.01797,-0.81970257,-1.7526292,-9.549138
2,-0.09291387349367142,2.116748809814453,78.72920989990234,0.771079569248687,-0.6261442030415283,-89.75158282242201,-0.22406206,4.608148,10.969771,12.217475,-9.959789,-2.1821735,0.49481544,-7.1894045,-7.0716124,15.542809,-13.063289,4.889109,-1.5589116,0.38453284,7.320367,-11.377122,12.885387,-44.44094,67.313324,2.1490684,-3.487694,3.3876138,-5.081549,-11.734902,35.904682,63.955803,-0.9479432,-1.771816,-9.557046
3,-0.09764473140239716,2.1047213077545166,78.73873901367188,0.8134925733650215,-0.5931612672150082,-89.75203417801401,-0.07293806,4.5307,11.000929,11.839971,-9.787122,-2.198535,0.5064341,-7.2318783,-7.0667763,15.46525,-13.046891,4.9110007,-1.5659196,0.33033404,7.2408524,-11.523752,13.0412,-45.71647,67.00611,2.789865,-3.4836047,3.2210143,-5.0876884,-11.759854,35.950497,63.883343,-1.0720698,-1.7912401,-9.559994
4,-0.09904095530509949,2.0833003520965576,78.74761199951172,0.8511559801360891,-0.5601340510572269,-89.75321036788202,0.0646859,4.461379,11.031544,11.490843,-9.625806,-2.2097688,0.51508445,-7.2688117,-7.063308,15.392732,-13.028557,4.9265947,-1.57911,0.27504113,7.1760225,-11.634045,13.208904,-46.855522,66.68692,3.2936442,-3.4805653,3.0591762,-5.1049523,-11.783834,35.974625,63.79896,-1.181677,-1.8106306,-9.552425
5,-0.10713883489370346,2.073164939880371,78.75489807128906,0.8820120186446472,-0.5259491574749284,-89.7545758600377,0.18184179,4.4029126,11.061482,11.181646,-9.480764,-2.2115827,0.5201982,-7.299334,-7.0630007,15.323303,-13.005299,4.9336543,-1.5998592,0.2227179,7.1240587,-11.711572,13.380132,-47.854267,66.361176,3.641677,-3.4810133,2.907353,-5.133864,-11.808403,35.973305,63.6988,-1.2787956,-1.8294786,-9.522029
6,-0.10781648755073547,2.0544636249542236,78.76234436035156,0.9092317086525447,-0.491060268544143,-89.75621090424188,0.2855838,4.351788,11.0910635,10.89906,-9.346332,-2.2064927,0.5227216,-7.32551,-7.06478,15.256615,-12.978905,4.934573,-1.6262778,0.17315371,7.080775,-11.766866,13.55064,-48.74908,66.034966,3.8784063,-3.4838421,2.7631657,-5.172397,-11.834831,35.956078,63.58903,-1.3644267,-1.8479462,-9.475903
7,-0.1121651828289032,2.0448925495147705,78.76842498779297,0.9336122156870453,-0.45773584721500915,-89.75910588112193,0.38661182,4.3055816,11.120436,10.625883,-9.216808,-2.2022846,0.52395463,-7.3478703,-7.065541,15.195374,-12.953511,4.9328675,-1.65415,0.12625296,7.046228,-11.800316,13.715273,-49.519638,65.72975,4.016367,-3.4843922,2.6213808,-5.213263,-11.862161,35.920376,63.474323,-1.4362841,-1.8662894,-9.436814
8,-0.1172991618514061,2.031034231185913,78.773193359375,0.9550689382669956,-0.42785923593252195,-89.76404281124681,0.48519024,4.2648563,11.148335,10.368415,-9.09452,-2.2070634,0.5292499,-7.3659267,-7.0631976,15.133292,-12.929076,4.9319158,-1.6814529,0.082107075,7.020116,-11.813387,13.868639,-50.147224,65.47062,4.064572,-3.4793432,2.4770684,-5.256461,-11.889288,35.870922,63.3667,-1.4861732,-1.8848758,-9.4281225
9,-0.12377721816301346,2.0170626640319824,78.77925872802734,0.9730552935848814,-0.402564253840717,-89.77022219674667,0.58766997,4.2288218,11.174112,10.114669,-8.974565,-2.2257323,0.5381384,-7.3785,-7.0569386,15.074418,-12.907844,4.929879,-1.7087643,0.04173298,7.001862,-11.804523,14.006816,-50.614563,65.26708,3.9739375,-3.469279,2.3255656,-5.2985525,-11.91397,35.80393,63.26525,-1.5070958,-1.905154,-9.464825
10,-0.13068437576293945,2.0026957988739014,78.78545379638672,0.9890239127206601,-0.380414376593422,-89.77751536101891,0.6901768,4.197958,11.198141,9.86968,-8.858996,-2.253218,0.5491855,-7.385922,-7.0481706,15.018346,-12.888261,4.9257607,-1.7367952,0.0051707025,6.9899807,-11.775846,14.127968,-50.936,65.114555,3.7570562,-3.4556525,2.171525,-5.343866,-11.936022,35.721165,63.170982,-1.5026449,-1.9266157,-9.532038
11,-0.13160225749015808,1.990955114364624,78.79035186767578,1.00064781427698,-0.36050937720641185,-89.78783677335974,0.7879055,4.171607,11.222621,9.641448,-8.751797,-2.2825532,0.56219804,-7.3902035,-7.0372505,14.961457,-12.868795,4.924548,-1.7649915,-0.026488503,6.981199,-11.735867,14.219421,-51.132027,65.02215,3.521708,-3.4344099,2.024162,-5.3951178,-11.953674,35.629387,63.091778,-1.4895587,-1.946251,-9.608235
12,-0.13501350581645966,1.9760435819625854,78.79528045654297,1.0118932027761924,-0.34198810806694296,-89.80317383671225,0.8782221,4.14813,11.249554,9.434014,-8.655203,-2.306869,0.57793874,-7.3932405,-7.0244875,14.897486,-12.846074,4.931081,-1.7825862,-0.05573599,6.978177,-11.686802,14.295316,-51.237175,64.96842,3.369428,-3.3998818,1.89094,-5.447767,-11.970492,35.523853,63.021427,-1.4843242,-1.961064,-9.669922
13,-0.13908632099628448,1.967972755432129,78.79769897460938,1.0170888076740185,-0.3245780537441893,-89.82257171498462,0.9448974,4.1347,11.276154,9.280247,-8.585358,-2.3267288,0.5953297,-7.391277,-7.0129647,14.828492,-12.823188,4.9510655,-1.7981727,-0.07625647,6.976787,-11.629056,14.335131,-51.24313,64.97471,3.3776155,-3.3416085,1.7567842,-5.50663,-11.981398,35.40868,62.97264,-1.4877802,-1.9706546,-9.71279
14,-0.1391868144273758,1.9557468891143799,78.79925537109375,1.0127015689109686,-0.3076090055499582,-89.84390243591015,0.9482905,4.1454196,11.296546,9.263263,-8.585799,-2.346478,0.616128,-7.3773637,-7.0046077,14.750245,-12.796985,4.979389,-1.8005245,-0.08630336,6.9798574,-11.560812,14.35894,-51.15957,65.02292,3.4653883,-3.264546,1.6222466,-5.564195,-11.991141,35.268803,62.93294,-1.4923868,-1.9770929,-9.746749
15,-0.13763481378555298,1.942814826965332,78.79890441894531,1.0054347580005543,-0.2915969521161249,-89.8706788106987,0.95251185,4.1564264,11.321152,9.250319,-8.589571,-2.3622355,0.63569677,-7.3631177,-6.9910393,14.673931,-12.77041,5.0070977,-1.7897341,-0.095602326,6.988046,-11.483336,14.369842,-50.979076,65.10673,3.5319848,-3.1909547,1.5222887,-5.617828,-12.000688,35.11751,62.89276,-1.5043861,-1.9789507,-9.776781
16,-0.13555780053138733,1.9285248517990112,78.79863739013672,1.0002038882146986,-0.2754200597963896,-89.90415480370204,0.95863503,4.1680307,11.35182,9.239118,-8.597548,-2.3718693,0.6494999,-7.3484573,-6.9680586,14.60789,-12.744827,5.0239334,-1.7688416,-0.10311787,7.0010476,-11.394979,14.368615,-50.683174,65.21934,3.4870543,-3.1432166,1.4913676,-5.671801,-12.011499,34.971085,62.849342,-1.5253423,-1.9758041,-9.806738
17,-0.13302534818649292,1.9123101234436035,78.79844665527344,0.9945477370696723,-0.2595179586927996,-89.94588788166112,0.9648445,4.180362,11.388753,9.236789,-8.6142025,-2.3708067,0.65475583,-7.33355,-6.9331546,14.559166,-12.721299,5.023852,-1.7573799,-0.10408125,7.022214,-11.28742,14.351246,-50.23221,65.36343,3.2730021,-3.1373942,1.5629097,-5.7420025,-12.027077,34.85286,62.80646,-1.5555462,-1.9640523,-9.836176
18,-0.1277930736541748,1.899597406387329,78.79721069335938,0.9879998678238644,-0.24403289864725197,-89.99507663737961,0.9717053,4.19325,11.431694,9.240768,-8.636922,-2.361601,0.65518904,-7.318222,-6.88873,14.5193405,-12.6975975,5.013492,-1.7660232,-0.09560765,7.046081,-11.159077,14.303971,-49.62737,65.552124,2.951705,-3.159663,1.7116097,-5.826774,-12.051168,34.777576,62.76867,-1.5830317,-1.9442192,-9.866664
19,-0.12448200583457947,1.8882719278335571,78.79685974121094,0.9801270450097809,-0.22794035718436473,-90.04824870644802,0.9795909,4.206945,11.478992,9.244099,-8.661617,-2.352814,0.6528496,-7.3018756,-6.8396215,14.482333,-12.67444,5.001296,-1.742865,-0.09111025,7.071428,-11.033176,14.242472,-48.96061,65.77462,2.60584,-3.1875734,1.8806763,-5.8955956,-12.071774,34.683384,62.723885,-1.6123369,-1.9241079,-9.895992
20,-0.11727224290370941,1.8695844411849976,78.79653930664062,0.9713994356538194,-0.21048234855071266,-90.10192170690596,0.9895189,4.222887,11.529465,9.239776,-8.684387,-2.3528118,0.65174,-7.2829413,-6.790822,14.437902,-12.650221,4.9959655,-1.7373847,-0.07644929,7.096083,-10.903504,14.140983,-48.177498,66.04188,2.3674006,-3.2040136,2.011091,-5.973307,-12.09773,34.633564,62.69068,-1.6162599,-1.907603,-9.925771
21,-0.10981423407793045,1.8535066843032837,78.79617309570312,0.9587043855220876,-0.19150559756102095,-90.15761122272022,1.0024449,4.243119,11.585552,9.2262125,-8.706795,-2.366862,0.65236014,-7.259623,-6.741433,14.383554,-12.624751,5.0004177,-1.7112137,-0.05935941,7.121165,-10.775376,14.009909,-47.298737,66.35723,2.3062782,-3.198397,2.0769799,-6.039534,-12.123886,34.5853,62.658245,-1.5952272,-1.8961599,-9.9575
22,-0.10309302061796188,1.8416799306869507,78.7955551147461,0.9452371844303159,-0.17132152762502428,-90.21634134248374,1.01857,4.2662535,11.647115,9.205605,-8.729481,-2.3892808,0.65271664,-7.2330976,-6.689437,14.324948,-12.598947,5.009915,-1.674797,-0.03974622,7.147929,-10.6437645,13.851902,-46.314846,66.715355,2.348431,-3.1824555,2.1118307,-6.1029205,-12.150165,34.547558,62.62978,-1.5563973,-1.8870999,-9.990495
23,-0.09775029122829437,1.8298052549362183,78.79568481445312,0.9304041610559295,-0.15010342093097087,-90.27395020998323,1.0333877,4.2890844,11.708316,9.183212,-8.74987,-2.4125473,0.6527602,-7.206872,-6.6387215,14.263999,-12.5727215,5.021143,-1.6365392,-0.018215548,7.1749616,-10.519798,13.669918,-45.28714,67.092606,2.3578885,-3.1645172,2.149384,-6.163142,-12.175527,34.521423,62.60323,-1.5171047,-1.8818308,-10.019215
24,-0.09173223376274109,1.814610481262207,78.7955322265625,0.9187041990301009,-0.12768747525293925,-90.32613941477423,1.0412095,4.3088446,11.763055,9.167569,-8.767093,-2.429274,0.65332985,-7.184439,-6.593342,14.201783,-12.546036,5.0307,-1.6002123,0.0026044769,7.200338,-10.419051,13.470785,-44.287098,67.46845,2.1918378,-3.1545296,2.2242296,-6.2207847,-12.199563,34.5023,62.579998,-1.4964119,-1.8824551,-10.037959
25,-0.08514837920665741,1.7997126579284668,78.79524993896484,0.9105377304092549,-0.10399895490641863,-90.37633164874443,1.0428548,4.3253922,11.814358,9.157759,-8.77962,-2.436885,0.65135413,-7.165814,-6.549896,14.141556,-12.5201,5.0380683,-1.5587435,0.020682279,7.2278614,-10.340526,13.258306,-43.286484,67.83831,1.7496408,-3.1508179,2.3612819,-6.272772,-12.221116,34.481567,62.552876,-1.5107611,-1.8900479,-10.040886
26,-0.08192387223243713,1.7893708944320679,78.79669952392578,0.9043609745919032,-0.0788973699428057,-90.42521351175321,1.0387055,4.340496,11.863534,9.154056,-8.79029,-2.4395971,0.64841765,-7.1490774,-6.507954,14.079951,-12.493944,5.044892,-1.5125828,0.03683831,7.2577057,-10.274536,13.033513,-42.26081,68.207245,1.1304423,-3.151315,2.5366411,-6.3201056,-12.239726,34.462467,62.523624,-1.547615,-1.9034778,-10.032424
27,-0.08008823543787003,1.7790833711624146,78.79578399658203,0.899549109478527,-0.053211308846041264,-90.46470016027286,1.0310761,4.3522897,11.903712,9.1498995,-8.796625,-2.4398148,0.6491243,-7.1354527,-6.475294,14.014016,-12.465677,5.0510917,-1.4742161,0.05398176,7.2825727,-10.228279,12.802578,-41.3006,68.563614,0.47943816,-3.1586132,2.7121675,-6.365151,-12.25602,34.45573,62.503277,-1.5826952,-1.9210635,-10.021965
28,-0.07686350494623184,1.7672770023345947,78.79596710205078,0.8946920993760735,-0.02720727518875114,-90.4863980610439,1.018006,4.3604746,11.92706,9.147602,-8.800909,-2.4401217,0.65661454,-7.125,-6.4599795,13.943494,-12.435122,5.056427,-1.452628,0.07629547,7.296275,-10.20662,12.574151,-40.496166,68.89109,-0.054965366,-3.17352,2.849639,-6.4007025,-12.26944,34.461124,62.4929,-1.59932,-1.9407096,-10.018224
29,-0.066937156021595,1.7547401189804077,78.79656219482422,0.8887970206092088,0.002274349832030542,-90.48268545699835,0.99297744,4.362936,11.926583,9.146982,-8.800457,-2.4406729,0.6695411,-7.119795,-6.4694743,13.8663435,-12.399861,5.0595427,-1.4532943,0.10217399,7.295474,-10.2113695,12.3552,-39.860138,69.188126,-0.46425503,-3.1998327,2.935691,-6.428192,-12.280418,34.48214,62.497093,-1.5854068,-1.9688965,-10.02694
30,-0.06105976179242134,1.7399890422821045,78.79822540283203,0.8841852713420175,0.03448312638557603,-90.45967863708898,0.9601401,4.3606215,11.907972,9.145331,-8.794565,-2.440435,0.68623924,-7.118722,-6.4977074,13.784656,-12.361241,5.0609245,-1.4687845,0.12949562,7.285273,-10.234005,12.148463,-39.34655,69.45256,-0.8149114,-3.2342172,2.9911757,-6.447648,-12.289252,34.51343,62.5101,-1.5549265,-2.0042782,-10.04185
31,-0.05699525773525238,1.728111743927002,78.7997055053711,0.8794538202067552,0.06252696982931027,-90.43018614002344,0.9298387,4.3568115,11.883047,9.1466465,-8.790046,-2.4397604,0.7126421,-7.1191034,-6.5323243,13.69831,-12.322533,5.0633755,-1.4884474,0.15986446,7.271605,-10.2717905,11.957155,-38.97052,69.67491,-1.0849512,-3.2669365,3.0301838,-6.4597507,-12.296029,34.551865,62.52761,-1.5189834,-2.0341914,-10.05414
32,-0.05619005486369133,1.7198432683944702,78.80230712890625,0.8740470172287026,0.07950712513386542,-90.40690035648784,0.9156804,4.3538,11.863864,9.148662,-8.790859,-2.4389343,0.7549298,-7.1177554,-6.561092,13.606183,-12.285765,5.069545,-1.4994018,0.1944972,7.2602286,-10.319699,11.783611,-38.7418,69.8442,-1.2441605,-3.2877846,3.066578,-6.4611278,-12.300435,34.58832,62.542168,-1.4927585,-2.0456161,-10.054645
33,-0.035785142332315445,1.687095284461975,78.80641174316406,0.8667736385859461,0.07904891567632061,-90.39274275820075,0.9253367,4.3522344,11.853646,9.154843,-8.801263,-2.4386168,0.82216114,-7.114298,-6.5811453,13.505432,-12.25284,5.081644,-1.498095,0.2347347,7.255853,-10.378805,11.629713,-38.69378,69.9523,-1.2725164,-3.287836,3.1090941,-6.4521585,-12.30286,34.622494,62.554863,-1.4761107,-2.02641,-10.039563
34,-0.027484146878123283,1.667892336845398,78.80889129638672,0.8595125681159586,0.06619484328604418,-90.38116056180404,0.95112246,4.350687,11.845934,9.163359,-8.817365,-2.4383943,0.90847605,-7.1103134,-6.598812,13.397883,-12.222529,5.097818,-1.4900064,0.2788787,7.254779,-10.449419,11.49609,-38.811092,70.00462,-1.1895341,-3.2740252,3.1483212,-6.431454,-12.30333,34.65459,62.56548,-1.4648154,-1.9863373,-10.01395
35,-0.02482212707400322,1.654901385307312,78.81098937988281,0.852435381019734,0.051782325603708,-90.37031760258022,0.97952664,4.3499217,11.83803,9.172289,-8.83471,-2.4374352,0.9976269,-7.1051135,-6.6159444,13.288984,-12.191734,5.114462,-1.4857237,0.3208019,7.2545853,-10.512464,11.403645,-39.028667,69.98496,-1.0312607,-3.2589598,3.1687787,-6.4056144,-12.301409,34.694923,62.569637,-1.4569981,-1.9456455,-9.981879
36,-0.02105277217924595,1.6420307159423828,78.8113784790039,0.8451245373511055,0.046484850856645055,-90.3585074163533,0.9952404,4.3508334,11.826976,9.182975,-8.850595,-2.4347048,1.073483,-7.098467,-6.6341558,13.185489,-12.159169,5.128132,-1.4902908,0.35902852,7.247352,-10.56812,11.342652,-39.280544,69.91449,-0.8267522,-3.2576191,3.1584787,-6.3817935,-12.29793,34.75016,62.57201,-1.4507698,-1.9247872,-9.948147
37,-0.018127579241991043,1.6283429861068726,78.8130111694336,0.8356617344948734,0.05527219861893865,-90.3443776801563,0.99226505,4.3541574,11.809937,9.194205,-8.862742,-2.4293134,1.129135,-7.089446,-6.6547585,13.088519,-12.121932,5.137957,-1.4839464,0.3979814,7.2173777,-10.650078,11.280295,-39.617176,69.8368,-0.5760963,-3.2816892,3.1079633,-6.34515,-12.291228,34.801956,62.576965,-1.4488565,-1.9397457,-9.910083
38,-0.017015686258673668,1.6140224933624268,78.81461334228516,0.8257385518923207,0.0717611294281178,-90.32909782559935,0.97870547,4.3596,11.789099,9.207094,-8.873625,-2.4220352,1.1754745,-7.0779862,-6.676802,12.992758,-12.080961,5.1457386,-1.494709,0.43846905,7.1788964,-10.730333,11.241621,-40.0116,69.70842,-0.25000963,-3.3209822,3.0226204,-6.312555,-12.283446,34.87745,62.584694,-1.4477677,-1.9756469,-9.865888
39,-0.013106807135045528,1.588843822479248,78.81568908691406,0.8170410011412002,0.08972805568680556,-90.31486230609273,0.9636485,4.365396,11.769323,9.220344,-8.885066,-2.414183,1.2173785,-7.066642,-6.6977687,12.902439,-12.042543,5.1521363,-1.4808491,0.47365475,7.1333694,-10.82623,11.206371,-40.474796,69.57259,0.090978965,-3.3611875,2.933325,-6.2641315,-12.270787,34.932014,62.586796,-1.4551601,-2.0087593,-9.825816
40,-0.011215739883482456,1.5674240589141846,78.81656646728516,0.8098342281763954,0.10256485060019553,-90.30383758357853,0.9566225,4.3705726,11.754865,9.232837,-8.898506,-2.4071596,1.2640678,-7.0566735,-6.715682,12.814763,-12.009443,5.157563,-1.4851164,0.5053229,7.0999327,-10.898902,11.188046,-40.88139,69.40668,0.43998948,-3.3879106,2.8608863,-6.2305574,-12.258785,35.008625,62.58606,-1.4645395,-2.0129347,-9.798749
41,-0.011303851380944252,1.5459059476852417,78.8174057006836,0.8055544087102298,0.10808072401122294,-90.29735958721173,0.96087354,4.3739376,11.748831,9.244526,-8.914178,-2.3989475,1.31741,-7.0496144,-6.729486,12.730622,-11.983163,5.1621857,-1.48077,0.53002656,7.075129,-10.964519,11.177052,-41.278576,69.22685,0.80050623,-3.3927784,2.8141365,-6.194593,-12.244613,35.08412,62.5733,-1.4875696,-1.970207,-9.791995
42,-0.012426533736288548,1.5236272811889648,78.81816864013672,0.8027605353277699,0.10998558102363762,-90.29391968570428,0.9701237,4.377126,11.747794,9.257914,-8.93208,-2.389736,1.373334,-7.0437946,-6.7405987,12.650206,-11.961861,5.16562,-1.4619455,0.5483394,7.050868,-11.032426,11.17056,-41.700462,69.037605,1.1770021,-3.3849711,2.7808309,-6.1546025,-12.225308,35.154713,62.55673,-1.5193876,-1.8982387,-9.799405
43,-0.012172900140285492,1.5042660236358643,78.81859588623047,0.8007590206760733,0.11066989740545442,-90.29172405627284,0.98330575,4.380391,11.748397,9.267506,-8.950352,-2.383752,1.428622,-7.0379543,-6.7500215,12.573736,-11.944316,5.1681266,-1.434576,0.5614227,7.0284615,-11.0985155,11.16806,-42.106544,68.84544,1.5242219,-3.3754694,2.7569926,-6.1129127,-12.1972885,35.207897,62.543533,-1.555429,-1.8260702,-9.811199
44,-0.009992205537855625,1.484336018562317,78.81874084472656,0.7968061112976641,0.11283363910471537,-90.28874724718646,0.9963036,4.3852344,11.746569,9.272697,-8.9686165,-2.385498,1.4810225,-7.029618,-6.7591295,12.49957,-11.928442,5.1697145,-1.4421712,0.58018756,7.01302,-11.142105,11.170174,-42.402878,68.6445,1.8137735,-3.3768182,2.7367823,-6.0898867,-12.179151,35.283543,62.53911,-1.5712581,-1.7804575,-9.816497
45,-0.009401504881680012,1.463433861732483,78.81768798828125,0.7909577557960304,0.11748454423726142,-90.28534478055833,1.0093248,4.3912835,11.742151,9.269464,-8.983244,-2.3980508,1.5244544,-7.0192266,-6.766522,12.4351,-11.915217,5.1699405,-1.431076,0.5936651,6.9935064,-11.185802,11.1753645,-42.679535,68.45231,1.9863639,-3.39423,2.7286801,-6.0573444,-12.156376,35.327126,62.542084,-1.568397,-1.7752866,-9.815006
46,-0.0094685610383749,1.4454244375228882,78.81693267822266,0.7851446342744511,0.12285514713637462,-90.2818219073847,1.0238335,4.398128,11.736492,9.260771,-8.9960985,-2.418387,1.5640527,-7.0072384,-6.7726197,12.375687,-11.903998,5.1689415,-1.4341754,0.6096401,6.9794393,-11.221746,11.181488,-42.891586,68.25768,2.0977402,-3.422096,2.729152,-6.034451,-12.137814,35.37105,62.551422,-1.5543513,-1.7920529,-9.809088
47,-0.011387520469725132,1.4242547750473022,78.8159408569336,0.7783122189893646,0.12872207736822883,-90.27824905299768,1.0400071,4.4061346,11.730337,9.248785,-9.012542,-2.4417675,1.603048,-6.9941373,-6.7785597,12.318037,-11.897715,5.167596,-1.4212494,0.6192795,6.961641,-11.255352,11.190814,-43.07733,68.07357,2.154379,-3.4459894,2.734532,-6.0013413,-12.1133585,35.387222,62.564564,-1.5387005,-1.8195341,-9.804096
48,-0.011140456423163414,1.403817892074585,78.81443786621094,0.7690392323342151,0.13326844739928947,-90.27252964074349,1.0585219,4.4154,11.7225,9.23768,-9.038456,-2.4630747,1.6497846,-6.980127,-6.7880173,12.253673,-11.897754,5.16724,-1.4346234,0.63645303,6.9587374,-11.274525,11.194168,-43.13789,67.89759,2.2344863,-3.461058,2.732381,-5.9756393,-12.103545,35.401737,62.565067,-1.5331811,-1.8403927,-9.795192
49,-0.011928980238735676,1.3799430131912231,78.81126403808594,0.7614840542479605,0.14066611486203404,-90.26540868780754,1.0762683,4.425049,11.714694,9.225439,-9.070832,-2.480019,1.7001851,-6.966464,-6.8012533,12.181796,-11.900415,5.168298,-1.4334401,0.64797205,6.9468665,-11.281189,11.196416,-43.1405,67.7407,2.2964962,-3.4554396,2.7262762,-5.9311604,-12.094311,35.3963,62.560112,-1.5353,-1.8563443,-9.79242
50,-0.01259681023657322,1.3547496795654297,78.8056640625,0.7517922863874584,0.14963345968551983,-90.25706405452837,1.0918797,4.436568,11.706063,9.216093,-9.110187,-2.4956758,1.7543672,-6.9519186,-6.8173637,12.102863,-11.904461,5.1699705,-1.4388622,0.6558773,6.937649,-11.271562,11.200948,-43.040245,67.59045,2.360223,-3.4371736,2.713606,-5.8966107,-12.070039,35.368877,62.572227,-1.5578889,-1.8747743,-9.790199
51,-0.015957370400428772,1.333073377609253,78.79865264892578,0.7422509369019232,0.15347660042378444,-90.24666744837782,1.116553,4.4488616,11.69498,9.202447,-9.159617,-2.5130103,1.8160303,-6.9357357,-6.834699,12.025479,-11.922557,5.171762,-1.461571,0.66331565,6.9383607,-11.258411,11.204873,-42.881523,67.45494,2.4093003,-3.4182782,2.7041905,-5.8719983,-12.042456,35.338955,62.587696,-1.5737443,-1.8895453,-9.786768
52,-0.020222455263137817,1.3091732263565063,78.78783416748047,0.7304650213068596,0.14519595138489355,-90.23252176491269,1.158007,4.4625545,11.678255,9.184056,-9.22478,-2.5350966,1.8906752,-6.916491,-6.8528013,11.956054,-11.966337,5.1730866,-1.5042605,0.6707066,6.955835,-11.248637,11.211597,-42.70755,67.33361,2.439956,-3.4094806,2.7056272,-5.8692193,-12.004256,35.30565,62.61659,-1.5668805,-1.898343,-9.7784815
53,-0.029179532080888748,1.2869651317596436,78.77375793457031,0.7152319427608564,0.11643250122791868,-90.21714429999652,1.2267395,4.4821367,11.657078,9.1628065,-9.314861,-2.5693235,1.9907277,-6.890381,-6.8698454,11.889087,-12.041333,5.175625,-1.5356865,0.6784002,6.997704,-11.254541,11.218794,-42.56134,67.233215,2.4151437,-3.4145257,2.7257338,-5.8477683,-11.972285,35.236782,62.61887,-1.5370855,-1.8861527,-9.760934
54,-0.03564268350601196,1.2600483894348145,78.7606430053711,0.697507520476569,0.07271693486257202,-90.20004094102798,1.3170148,4.505863,11.6322565,9.135757,-9.422494,-2.6119723,2.1108341,-6.8594527,-6.8871055,11.821999,-12.139639,5.1792727,-1.5767316,0.68209875,7.0584435,-11.260231,11.2344675,-42.39086,67.14419,2.357943,-3.4273057,2.7557578,-5.847602,-11.91928,35.14783,62.645405,-1.4972274,-1.8630282,-9.737377
55,-0.043162643909454346,1.2379258871078491,78.74391174316406,0.6817947486814498,0.02990304928239844,-90.17706463228207,1.4055744,4.52567,11.601601,9.107895,-9.536901,-2.649379,2.2252014,-6.8311563,-6.906283,11.769353,-12.254704,5.1808596,-1.60776,0.6842669,7.123768,-11.286329,11.246333,-42.2513,67.07614,2.2866826,-3.4418533,2.792942,-5.823549,-11.887153,35.03086,62.627434,-1.4411753,-1.8467588,-9.712843
56,-0.05158095806837082,1.2110652923583984,78.72860717773438,0.6744674736137647,0.0027693456021452697,-90.1439201402012,1.4713458,4.5328665,11.562781,9.080608,-9.645184,-2.6678119,2.3064544,-6.813695,-6.929157,11.750816,-12.382531,5.177079,-1.6453524,0.6782773,7.1819305,-11.331166,11.2609215,-42.13622,67.02037,2.2486062,-3.4519393,2.827177,-5.8115435,-11.857611,34.89469,62.599205,-1.3790545,-1.8643894,-9.693161
57,-0.05761352926492691,1.1852613687515259,78.71406555175781,0.6740486035456481,-0.007827463531184325,-90.0966218661965,1.5113171,4.5273304,11.513479,9.05575,-9.749587,-2.6663806,2.3496103,-6.807517,-6.955661,11.774911,-12.522163,5.1601443,-1.6886756,0.65876627,7.233977,-11.4011965,11.281645,-42.056,66.98137,2.2451918,-3.4554682,2.860308,-5.8005614,-11.826707,34.723656,62.549503,-1.3122246,-1.9319118,-9.678243
58,-0.06440558284521103,1.1547057628631592,78.70032501220703,0.6815426098911359,-0.008895404853193718,-90.03838669817732,1.5345234,4.51362,11.455011,9.034998,-9.856448,-2.651253,2.3676794,-6.809306,-6.984912,11.8315115,-12.676423,5.134056,-1.7318469,0.6283098,7.2839756,-11.492987,11.309396,-42.011726,66.95842,2.2524166,-3.4557617,2.8953104,-5.788483,-11.796288,34.518314,62.4823,-1.2379931,-2.033753,-9.665582
59,-0.07495944201946259,1.1343296766281128,78.68621063232422,0.6952221491949678,0.002996269671803474,-89.97587648119722,1.5408946,4.4889607,11.39098,9.014159,-9.957414,-2.619505,2.365712,-6.821224,-7.0177526,11.902209,-12.842123,5.1128798,-1.7585282,0.58375084,7.327933,-11.596916,11.355254,-42.010307,66.93125,2.274301,-3.4528866,2.9260437,-5.7808337,-11.760701,34.282925,62.400734,-1.1654222,-2.1433535,-9.658085
60,-0.09776676446199417,1.136033296585083,78.67290496826172,0.715370976452074,0.031067508894161978,-89.91567632489118,1.5271202,4.4524083,11.324445,8.996436,-10.048001,-2.568188,2.3523154,-6.843998,-7.0558395,11.96047,-13.011815,5.1107697,-1.7925565,0.54245853,7.35426,-11.702798,11.391515,-42.01271,66.91011,2.3244174,-3.451411,2.949741,-5.790736,-11.74303,34.0905,62.305584,-1.0731125,-2.230899,-9.6622305
61,-0.11057884246110916,1.126094102859497,78.65806579589844,0.7233453314332703,0.08177106947856853,-89.85791355589808,1.3611597,4.450692,11.240191,9.249438,-10.267079,-2.497408,2.3182344,-6.857221,-7.1044374,12.011255,-13.194133,5.1285872,-1.8146102,0.5166276,7.3601832,-11.81933,11.434116,-42.05937,66.89122,2.391461,-3.4531195,2.9583604,-5.8090386,-11.732883,33.89591,62.18749,-0.9550703,-2.296156,-9.676647
62,-0.11574522405862808,1.1058341264724731,78.63954162597656,0.7249660046975379,0.15125363452061688,-89.79975203117675,1.0810597,4.473223,11.140463,9.700161,-10.580467,-2.4077551,2.2600586,-6.8650637,-7.161097,12.071025,-13.392769,5.159811,-1.826934,0.5000228,7.3515396,-11.946112,11.486372,-42.14755,66.87178,2.473771,-3.4554243,2.9564152,-5.831487,-11.731554,33.69315,62.044212,-0.81794584,-2.3515534,-9.69929
63,-0.11764412373304367,1.079777479171753,78.62068176269531,0.7262870881359493,0.23244645623942542,-89.73703737079819,0.7678537,4.4945297,11.031181,10.191228,-10.906431,-2.3016453,2.1939406,-6.876877,-7.22642,12.124871,-13.590555,5.204017,-1.8198712,0.48307312,7.339619,-12.069154,11.557848,-42.255177,66.82033,2.5820487,-3.4510024,2.9525313,-5.8639755,-11.743273,33.493366,61.885273,-0.70779645,-2.3922353,-9.726602
64,-0.11822328716516495,1.0532363653182983,78.60198211669922,0.7242179305189753,0.3203295185481023,-89.66322239617267,0.4329144,4.5157366,10.908946,10.708428,-11.236691,-2.1835883,2.1310487,-6.8892674,-7.3047023,12.166422,-13.775297,5.259459,-1.8110527,0.47333357,7.329059,-12.171325,11.638029,-42.322876,66.72371,2.7425754,-3.4341013,2.9569016,-5.925707,-11.770135,33.33848,61.734524,-0.665204,-2.4120402,-9.757768
65,-0.11812891811132431,1.0239263772964478,78.58343505859375,0.7177937216217208,0.4196396250612536,-89.57080242940756,0.07019313,4.5342617,10.766045,11.247753,-11.5667715,-2.048424,2.06626,-6.9021993,-7.4013925,12.197581,-13.943111,5.3226404,-1.8089889,0.47131303,7.3104067,-12.267739,11.707821,-42.354294,66.61759,2.960767,-3.4037704,2.9723883,-6.0283456,-11.804343,33.249737,61.621395,-0.683548,-2.3991766,-9.792916
66,-0.11663924902677536,0.9928095936775208,78.56489562988281,0.7102075700041869,0.5309084122979828,-89.46510891573918,-0.3251355,4.550167,10.60621,11.820597,-11.903067,-1.8953947,1.9961352,-6.9172783,-7.512866,12.221399,-14.101103,5.3954124,-1.8042793,0.47335353,7.28438,-12.36063,11.776715,-42.37161,66.49763,3.2249868,-3.3629098,2.9933088,-6.158963,-11.8478775,33.200844,61.525208,-0.7494997,-2.3600998,-9.8322115
67,-0.11207529157400131,0.9626933336257935,78.5465087890625,0.7008881625507272,0.643193576912242,-89.35948013155672,-0.7206601,4.564255,10.445524,12.394843,-12.238608,-1.7358863,1.9371077,-6.933207,-7.6297913,12.226001,-14.249611,5.484301,-1.7840629,0.4843031,7.273532,-12.418464,11.879466,-42.355164,66.28738,3.525737,-3.3116856,3.0170178,-6.2999115,-11.925569,33.168175,61.38966,-0.88148934,-2.3157609,-9.87459
68,-0.10596103966236115,0.9340617656707764,78.52605438232422,0.6903066173284662,0.7457729446597302,-89.26740539881,-1.0918226,4.578981,10.299496,12.955462,-12.5753765,-1.5821419,1.8996053,-6.949858,-7.742212,12.210825,-14.394718,5.595867,-1.7357801,0.50710046,7.2768574,-12.447445,11.978526,-42.278725,66.01182,3.8658364,-3.2547443,3.0490618,-6.4652443,-12.01407,33.131855,61.23383,-1.1026086,-2.2904239,-9.927739
69,-0.09532548487186432,0.8975328207015991,78.5050048828125,0.6797720128220794,0.8293522899146525,-89.19128891998025,-1.416993,4.5891857,10.170707,13.483231,-12.908917,-1.4298201,1.904876,-6.969064,-7.8505735,12.1565,-14.530867,5.744647,-1.6532933,0.5389186,7.3002253,-12.448178,12.07535,-42.148827,65.67407,4.2438917,-3.1896896,3.0937114,-6.647922,-12.11726,33.08933,61.059628,-1.4994928,-2.2868745,-9.993412
70,-0.07605934888124466,0.8566045165061951,78.48297119140625,0.6692132690933303,0.9020855717532852,-89.12435027318926,-1.7172501,4.59569,10.051402,13.996412,-13.242079,-1.2756101,1.939214,-6.990775,-7.9592533,12.072801,-14.658791,5.922809,-1.543489,0.5793938,7.33756,-12.42548,12.170774,-41.972424,65.28214,4.6635594,-3.1158504,3.1484692,-6.850656,-12.23689,33.053116,60.871674,-2.0310645,-2.2934399,-10.069062
71,-0.05601655691862106,0.8128224015235901,78.4580307006836,0.6538370844929597,0.9790805458800411,-89.06607174150685,-2.013443,4.606404,9.943474,14.498174,-13.567325,-1.1332633,1.9737166,-7.009259,-8.0657625,11.978097,-14.781555,6.10334,-1.4082597,0.6359459,7.3814344,-12.379802,12.266821,-41.7469,64.81794,5.11235,-3.0383117,3.2048376,-7.074997,-12.371207,33.00556,60.647358,-2.541799,-2.3112562,-10.1509075
72,-0.037626251578330994,0.7626631259918213,78.43667602539062,0.6294337298539396,1.0752444794668317,-89.01596684138106,-2.3243358,4.628731,9.84895,14.987524,-13.875033,-1.0163546,1.979698,-7.019391,-8.167307,11.889949,-14.901316,6.259334,-1.2488209,0.71489793,7.424522,-12.313454,12.366767,-41.47479,64.26357,5.573674,-2.9614553,3.254508,-7.326843,-12.516346,32.93284,60.368168,-2.871188,-2.341947,-10.235625
73,-0.020137684419751167,0.7213452458381653,78.41512298583984,0.5905084377816288,1.1944622720693794,-88.98079684654425,-2.6568096,4.671563,9.776193,15.468778,-14.164437,-0.9374211,1.9445273,-7.0144067,-8.2567835,11.816905,-15.0216,6.375676,-1.0650848,0.8227312,7.467588,-12.229052,12.473298,-41.13798,63.618107,6.0377007,-2.891801,3.2760122,-7.6184077,-12.672539,32.829323,60.037983,-2.9382753,-2.396338,-10.304801
74,0.0073377108201384544,0.6741576194763184,78.39415740966797,0.5413616268224679,1.3286527921664362,-88.95867208500013,-2.9992504,4.727818,9.722071,15.939067,-14.438635,-0.88662845,1.8848237,-6.9994974,-8.337424,11.749093,-15.140625,6.4693418,-0.85760105,0.9539352,7.513463,-12.122173,12.588046,-40.741863,62.882904,6.5133233,-2.823431,3.279483,-7.942327,-12.83959,32.702618,59.663,-2.843391,-2.470301,-10.365666
75,0.05093012750148773,0.6240136623382568,78.3720703125,0.4908032605071628,1.474903414983809,-88.9356399786258,-3.3494377,4.78275,9.670368,16.401857,-14.700958,-0.8436453,1.8178108,-6.986612,-8.422258,11.673518,-15.251609,6.5617027,-0.6287223,1.0949757,7.556767,-11.981363,12.711392,-40.315468,62.05273,7.0215607,-2.7497108,3.3048165,-8.283609,-13.012413,32.563087,59.23834,-2.6932847,-2.5444582,-10.454507
76,0.09581448137760162,0.5888299942016602,78.34898376464844,0.44848864756828505,1.6303789058497906,-88.89781811287179,-3.6979039,4.8203397,9.605529,16.84453,-14.950061,-0.7883396,1.7610949,-6.98777,-8.524453,11.576585,-15.347632,6.674229,-0.37988904,1.2321059,7.5920296,-11.80009,12.843293,-39.89477,61.125763,7.5758038,-2.6636348,3.3919547,-8.626718,-13.181635,32.418617,58.760437,-2.5960498,-2.599171,-10.608268
77,0.1352955549955368,0.5129312872886658,78.32762908935547,0.41821126640832273,1.7903941152274467,-88.8390536334194,-4.0445943,4.8364396,9.521297,17.276665,-15.183324,-0.7241335,1.7272825,-7.008949,-8.654532,11.450577,-15.430097,6.821003,-0.11428274,1.359704,7.61894,-11.575127,12.983859,-39.485237,60.091312,8.196505,-2.5570378,3.5606346,-8.9700775,-13.339829,32.27022,58.232,-2.5295796,-2.6326108,-10.8606825
78,0.1736597865819931,0.4421309232711792,78.30484771728516,0.3947633662889095,1.9579437893331417,-88.76744759385628,-4.392231,4.8388853,9.427418,17.697363,-15.401167,-0.65810007,1.7035562,-7.043179,-8.803072,11.305664,-15.502659,6.9878097,0.1690155,1.4837091,7.6378655,-11.310589,13.133602,-39.07118,58.955585,8.867,-2.4340582,3.7861307,-9.32576,-13.484884,32.11297,57.66365,-2.4562182,-2.6548011,-11.185411
79,0.2250569611787796,0.3733516037464142,78.28327941894531,0.37362541808744104,2.1413187859492995,-88.6908733110586,-4.746714,4.8319283,9.330096,18.102446,-15.614124,-0.5779463,1.670486,-7.082126,-8.953842,11.152417,-15.559438,7.153494,0.47531337,1.6074302,7.644665,-11.0036125,13.291243,-38.643467,57.736732,9.561216,-2.3046715,4.041179,-9.703189,-13.616436,31.949278,57.067295,-2.4558222,-2.6632335,-11.529614
80,0.27286556363105774,0.3054100275039673,78.26435852050781,0.35020163404931676,2.3487080290778137,-88.61718053773043,-5.116116,4.820337,9.235694,18.492697,-15.835701,-0.46876115,1.6047826,-7.1182017,-9.089932,11.00932,-15.598524,7.2969255,0.8100793,1.7344283,7.6348677,-10.652843,13.45423,-38.19487,56.45518,10.251275,-2.1797707,4.2992086,-10.110212,-13.735447,31.780138,56.453445,-2.6102402,-2.6545908,-11.8403845
81,0.32890236377716064,0.23527196049690247,78.2438735961914,0.3221515843789276,2.591110708884245,-88.5541182991348,-5.5102544,4.807326,9.150869,18.865046,-16.071102,-0.3170468,1.4843711,-7.1476526,-9.199758,10.8874235,-15.612208,7.408511,1.1821914,1.8669798,7.5976195,-10.254245,13.620479,-37.714184,55.09265,10.978049,-2.0515354,4.562539,-10.550979,-13.843121,31.602007,55.830208,-3.0255675,-2.6148653,-12.110519
82,0.3954329490661621,0.14710208773612976,78.22647094726562,0.2922463570340834,2.8611597644674522,-88.495587730806,-5.9221296,4.7890615,9.070414,19.22016,-16.313313,-0.13264562,1.326272,-7.1754146,-9.29436,10.776386,-15.604724,7.500874,1.5856985,2.003152,7.537435,-9.81042,13.789483,-37.208195,53.64719,11.738818,-1.9168983,4.8421288,-11.021801,-13.940042,31.41696,55.191933,-3.629512,-2.5483782,-12.365463
83,0.45399293303489685,0.03832615166902542,78.20738983154297,0.2629881415747314,3.139574916849265,-88.42851748291241,-6.3341403,4.761596,8.982568,19.563078,-16.555162,0.0604883,1.1704388,-7.205228,-9.391573,10.653536,-15.587339,7.5862045,2.005195,2.1413221,7.4741383,-9.327421,13.9598875,-36.691242,52.159904,12.44785,-1.7953457,5.1245713,-11.513759,-14.024986,31.230993,54.521957,-4.238274,-2.479431,-12.601336
84,0.5227179527282715,-0.059442780911922455,78.18933868408203,0.23766995627883805,3.4075458989770167,-88.33967569665278,-6.7226644,4.719315,8.876514,19.885052,-16.786259,0.2388866,1.0557003,-7.241577,-9.509066,10.498611,-15.572564,7.676833,2.4254687,2.279541,7.427284,-8.813121,14.129759,-36.178703,50.67443,13.018733,-1.7076327,5.397706,-12.018657,-14.095503,31.05027,53.804657,-4.6676264,-2.4338853,-12.815122
85,0.6022984981536865,-0.17367030680179596,78.1693115234375,0.21488891847031585,3.6571100889421877,-88.23182214106478,-7.088499,4.666563,8.752513,20.20719,-17.010967,0.40142682,0.9942913,-7.279791,-9.642947,10.3014965,-15.561682,7.768434,2.8478236,2.4197502,7.4086246,-8.264855,14.29908,-35.667313,49.175076,13.424007,-1.6672292,5.677526,-12.542901,-14.1483,30.878204,53.038967,-4.8456345,-2.4128518,-13.005847
86,0.672623336315155,-0.2924692630767822,78.14913177490234,0.19396948708685605,3.8994610166402603,-88.10990221545038,-7.4399137,4.6037054,8.615735,20.521858,-17.231129,0.5588741,0.9652329,-7.3190312,-9.78679,10.073762,-15.547822,7.8570256,3.2778482,2.5622838,7.4048047,-7.6795025,14.467563,-35.149727,47.646877,13.711595,-1.6616178,5.965089,-13.090081,-14.182123,30.711264,52.235165,-4.878461,-2.4058576,-13.176117
87,0.7467465400695801,-0.41140955686569214,78.12779998779297,0.18004439596522617,4.144306323960003,-87.96420587632038,-7.77666,4.5213914,8.462257,20.80455,-17.439636,0.7054909,0.9565004,-7.370664,-9.95431,9.828452,-15.532845,7.9560566,3.7077215,2.7009063,7.3976026,-7.0687304,14.632111,-34.637924,46.141148,13.90653,-1.6736909,6.226604,-13.647745,-14.19968,30.544294,51.39517,-4.8498783,-2.4220004,-13.328666
88,0.8317151069641113,-0.5437853932380676,78.1067886352539,0.17824095869820658,4.401235823699992,-87.78491787135576,-8.097623,4.410201,8.288178,21.028957,-17.628355,0.83512807,0.9568524,-7.4458303,-10.159233,9.57759,-15.518,8.078844,4.131609,2.830296,7.369137,-6.4467497,14.786763,-34.146667,44.71218,14.03404,-1.6862736,6.4284472,-14.200071,-14.206557,30.37011,50.516693,-4.8438168,-2.469755,-13.465551
89,0.9236130118370056,-0.6874300241470337,78.08621215820312,0.19160005368074473,4.673387663746201,-87.56859706994092,-8.404818,4.2649198,8.091933,21.190996,-17.793983,0.95475227,0.97372293,-7.5485606,-10.40909,9.303645,-15.500094,8.243215,4.5503564,2.9495533,7.3144135,-5.813297,14.925016,-33.679626,43.371834,14.066887,-1.7043658,6.5533776,-14.739619,-14.206194,30.182024,49.588646,-4.830575,-2.5598783,-13.577672
90,1.0229852199554443,-0.8555538058280945,78.06182098388672,0.21741071768893197,4.955366553137459,-87.3206875488293,-8.696864,4.091002,7.8765063,21.301882,-17.940147,1.0644588,1.0121607,-7.6720138,-10.695791,9.001665,-15.476436,8.437567,4.9693284,3.0623732,7.24267,-5.169883,15.044088,-33.232704,42.101967,14.003354,-1.7351452,6.623349,-15.270149,-14.200254,29.98148,48.609913,-4.784715,-2.6847777,-13.666257
91,1.1277976036071777,-1.0098397731781006,78.03441619873047,0.25127136781752724,5.243777730914483,-87.04467526634697,-8.972469,3.8979878,7.6434646,21.368855,-18.073372,1.147925,1.05046,-7.810608,-11.009227,8.719331,-15.45839,8.630081,5.390461,3.171714,7.1584053,-4.533672,15.14417,-32.80998,40.91171,13.907043,-1.7646511,6.663616,-15.794683,-14.192147,29.776604,47.59135,-4.788354,-2.8249953,-13.749786
92,1.2369213104248047,-1.1824800968170166,78.00929260253906,0.2884521057180687,5.535227921215317,-86.74393207837832,-9.228865,3.6948364,7.394246,21.396317,-18.198654,1.1886941,1.0650758,-7.9594793,-11.338693,8.505998,-15.45745,8.789013,5.8155303,3.2812958,7.0662527,-3.922542,15.227691,-32.41774,39.809658,13.838198,-1.7791612,6.6990833,-16.311275,-14.185701,29.572535,46.538998,-4.9277353,-2.9605994,-13.846543
93,1.345656156539917,-1.3619089126586914,77.98368835449219,0.3213643124217117,5.841561461489968,-86.42746501661998,-9.471801,3.4958692,7.1379924,21.371727,-18.318077,1.1642277,1.0450058,-8.105661,-11.6783085,8.346607,-15.457664,8.894325,6.25483,3.3944874,6.9608836,-3.3379686,15.29441,-32.05069,38.80837,13.770184,-1.7785292,6.736363,-16.830557,-14.1828575,29.37987,45.45026,-5.2704597,-3.0876045,-13.973637
94,1.460403561592102,-1.5489072799682617,77.95098114013672,0.3543664964169891,6.16000032228778,-86.09067971236865,-9.700554,3.2934053,6.870913,21.297989,-18.429016,1.0893618,1.0011204,-8.256083,-12.033993,8.231187,-15.462753,8.966669,6.713503,3.5116324,6.8371043,-2.7891471,15.328004,-31.722836,37.924564,13.684017,-1.7690731,6.7661405,-17.340448,-14.1841755,29.182817,44.3208,-5.7590456,-3.215267,-14.117373
95,1.579140543937683,-1.733004093170166,77.91679382324219,0.400862192846107,6.465406634223806,-85.71622847062756,-9.902952,3.0644,6.5747304,21.2031,-18.530836,1.0034555,0.9549483,-8.432857,-12.41472,8.195321,-15.504078,9.03501,7.156698,3.6257563,6.7136292,-2.2523525,15.350023,-31.425993,37.10141,13.657195,-1.747181,6.7780504,-17.830137,-14.190731,28.980267,43.15407,-6.2787375,-3.344037,-14.251247
96,1.7012434005737305,-1.946350336074829,77.8814468383789,0.4740716904651839,6.732462628326393,-85.28663733277162,-10.06583,2.785171,6.2313876,21.113798,-18.621431,0.94588745,0.92906404,-8.658401,-12.829787,8.272275,-15.611168,9.128432,7.5638466,3.731552,6.6048737,-1.722031,15.368108,-31.169987,36.30535,13.767148,-1.7086564,6.7657166,-18.274817,-14.206443,28.75236,41.94813,-6.723577,-3.4752147,-14.34607
97,1.8508696556091309,-2.1853630542755127,77.84114837646484,0.5785980310022778,6.945701907672889,-84.79156872406585,-10.17479,2.4454274,5.8326564,21.032848,-18.696402,0.9254804,0.9645417,-8.935357,-13.286092,8.417944,-15.783228,9.260777,7.9390016,3.8303046,6.5322204,-1.194323,15.394697,-30.964039,35.518875,14.055599,-1.6426517,6.713427,-18.64774,-14.2501335,28.470394,40.659035,-7.079876,-3.6100323,-14.381852
98,1.9950028657913208,-2.404923439025879,77.791748046875,0.7064866973093235,7.120758172263037,-84.24199189965094,-10.239205,2.0594437,5.3888044,20.947336,-18.757538,0.921663,1.0436893,-9.251911,-13.778598,8.620698,-16.000225,9.414506,8.300664,3.9261975,6.4753585,-0.68874687,15.41172,-30.820103,34.78584,14.471239,-1.5542873,6.634702,-18.96291,-14.313356,28.144457,39.305767,-7.399725,-3.7480767,-14.379236
99,2.1451094150543213,-2.6389105319976807,77.7417221069336,0.8536133401336542,7.2789899472028115,-83.65237150116579,-10.282972,1.640105,4.909689,20.864576,-18.815636,0.9295172,1.0797472,-9.616944,-14.294509,9.009022,-16.289497,9.5711,8.64681,4.0147433,6.4119616,-0.20235345,15.425937,-30.729338,34.092937,14.951562,-1.4642309,6.5523043,-19.229767,-14.398664,27.805965,37.91161,-7.671894,-3.8873558,-14.359167
100,2.3049657344818115,-2.879225015640259,77.68352508544922,1.017056759000954,7.441792238937829,-83.03715910958358,-10.327704,1.1989148,4.4058886,20.786636,-18.878382,0.9443762,0.994788,-10.040245,-14.820524,9.692225,-16.668066,9.710639,8.979301,4.0892878,6.319012,0.2651309,15.447816,-30.691074,33.426857,15.428373,-1.3918657,6.4914827,-19.45861,-14.507022,27.485537,36.50227,-7.8811293,-4.0258274,-14.343612
101,2.4724056720733643,-3.138892412185669,77.61869049072266,1.2095148312682389,7.6303542619906946,-82.38810801942493,-10.397855,0.7147019,3.8675995,20.705088,-18.925451,0.9818643,0.77557266,-10.550756,-15.36632,10.654215,-17.14742,9.829223,9.30212,4.1336446,6.1735873,0.71587807,15.483702,-30.72078,32.790733,15.9098015,-1.3411143,6.4618626,-19.641787,-14.63914,27.185068,35.08014,-7.984081,-4.1801753,-14.344988
102,2.6467416286468506,-3.408599615097046,77.54759979248047,1.4321956002561198,7.827179232099604,-81.70162127919824,-10.470925,0.18477653,3.2956016,20.616804,-18.957756,1.0397754,0.46292812,-11.146248,-15.929187,11.848284,-17.713726,9.933199,9.613272,4.1500487,5.99678,1.1541649,15.536147,-30.812553,32.17932,16.421253,-1.3015735,6.4480042,-19.775776,-14.795097,26.890326,33.62732,-8.000971,-4.3454275,-14.348504
103,2.8180110454559326,-3.6786091327667236,77.46343994140625,1.6667630818556305,7.995867621383942,-81.00011836013317,-10.503258,-0.35242105,2.716663,20.53678,-19.016901,1.0846475,0.066318385,-11.794695,-16.475584,13.323494,-18.342941,10.015507,9.9045725,4.156254,5.8324947,1.5893798,15.610683,-30.929543,31.561712,16.923822,-1.2703334,6.437642,-19.876709,-14.972785,26.607218,32.13878,-8.013871,-4.4873514,-14.335911
104,2.9864940643310547,-3.9579198360443115,77.36572265625,1.8954835019844818,8.101209037919656,-80.30605423689968,-10.453297,-0.8598765,2.1580021,20.479414,-19.145046,1.0885465,-0.41240793,-12.4690275,-16.969837,15.146507,-19.015364,10.067077,10.164407,4.168455,5.7242403,2.0364273,15.714891,-31.030558,30.901554,17.380186,-1.2445045,6.4176216,-19.963938,-15.168159,26.345264,30.612883,-8.105884,-4.5713625,-14.289676
105,3.1557888984680176,-4.247006416320801,77.25498962402344,2.1329192458545716,8.145823723058891,-79.61026090292899,-10.31633,-1.3616757,1.6178393,20.426426,-19.357445,1.0565735,-0.93547964,-13.190305,-17.432251,17.258673,-19.749956,10.128625,10.3847685,4.168545,5.6642127,2.507139,15.854415,-31.110222,30.19311,17.76889,-1.229984,6.3831835,-20.034056,-15.375544,26.106255,29.049196,-8.295317,-4.569414,-14.199984
106,3.32181453704834,-4.546290397644043,77.13748168945312,2.3860629546397396,8.14442861449934,-78.9066135798457,-10.112297,-1.8723705,1.0858767,20.37202,-19.627836,1.0028282,-1.5152273,-13.984587,-17.861044,19.647238,-20.550297,10.1783085,10.569329,4.147785,5.6374884,3.0000255,16.032213,-31.182554,29.443329,18.112951,-1.2258861,6.340734,-20.082964,-15.592031,25.887735,27.450777,-8.541547,-4.50612,-14.078318
107,3.475264549255371,-4.854823112487793,77.02053833007812,2.6295909823953756,8.08126873316445,-78.22294506751625,-9.836643,-2.347003,0.5787335,20.34146,-19.931217,0.9093087,-2.2051253,-14.828128,-18.19081,22.406326,-21.357199,10.114804,10.725073,4.1333604,5.6784515,3.507949,16.252705,-31.235563,28.635084,18.44012,-1.219453,6.293126,-20.133617,-15.81793,25.694105,25.826881,-8.833102,-4.428956,-13.939703
108,3.6183395385742188,-5.165764331817627,76.90486145019531,2.84134429287906,7.941254988817771,-77.58758718315116,-9.482224,-2.7467227,0.115636714,20.354713,-20.241152,0.75832325,-3.0463703,-15.688008,-18.359144,25.60805,-22.100126,9.841694,10.85895,4.149359,5.8226123,4.023876,16.521492,-31.257969,27.7491,18.776958,-1.1980333,6.242367,-20.204304,-16.053787,25.529222,24.181229,-9.159007,-4.3848147,-13.799887
109,3.750814199447632,-5.4775071144104,76.78703308105469,3.018010061253231,7.6754950730813905,-77.0198768548623,-9.001154,-3.0605018,-0.27663848,20.434256,-20.569607,0.52134484,-4.0299287,-16.574564,-18.379843,29.413033,-22.714272,9.310447,10.984618,4.201607,6.1305904,4.549123,16.846975,-31.24004,26.739277,19.141277,-1.1421877,6.1804953,-20.304247,-16.302538,25.40329,22.498215,-9.569954,-4.380094,-13.688207
110,3.8869664669036865,-5.795888423919678,76.67171478271484,3.172948589478556,7.307695533218719,-76.5009654742352,-8.406937,-3.3242116,-0.6106771,20.548792,-20.920977,0.21863855,-5.109424,-17.49019,-18.280842,33.673107,-23.222324,8.578565,11.092108,4.272911,6.56979,5.0952563,17.232716,-31.186607,25.615318,19.514074,-1.0639365,6.10702,-20.421196,-16.564167,25.312693,20.776995,-10.052348,-4.3921585,-13.587867
111,4.014032363891602,-6.123648166656494,76.560546875,3.305779475189334,6.932698738861677,-76.00090504435292,-7.7896767,-3.5594018,-0.92922103,20.650007,-21.261997,-0.09673764,-6.276818,-18.361712,-18.031775,38.00479,-23.692059,7.7290807,11.153738,4.3563833,7.033057,5.6663036,17.673601,-31.109547,24.449041,19.867188,-0.9980828,6.036123,-20.540297,-16.833433,25.239405,19.04535,-10.502871,-4.424798,-13.445531
112,4.142168045043945,-6.46287202835083,76.46070098876953,3.41413758824997,6.64611478974563,-75.48976717206753,-7.2457137,-3.7743495,-1.2788197,20.703812,-21.563429,-0.3735043,-7.5499096,-19.102888,-17.602224,42.074265,-24.204742,6.860298,11.142161,4.4458795,7.410024,6.2603602,18.158201,-31.022131,23.323736,20.173405,-0.9794973,5.984261,-20.653788,-17.103403,25.16678,17.34171,-10.818415,-4.481979,-13.208184
113,4.264589309692383,-6.815505027770996,76.37873077392578,3.4987024620545277,6.4725454222723515,-74.95509331375392,-6.8102064,-3.9633806,-1.676542,20.722378,-21.825563,-0.6042298,-9.002735,-19.707195,-16.996609,46.035404,-24.8575,5.856645,11.035128,4.5407004,7.6776395,6.8757567,18.681246,-30.922512,22.260937,20.416769,-1.0422935,5.9815845,-20.778341,-17.3726,25.095098,15.652071,-10.896707,-4.583568,-12.807573
114,4.392895221710205,-7.174033164978027,76.30612182617188,3.5563331264595974,6.362566635372938,-74.41390094122085,-6.43269,-4.114317,-2.0983639,20.728704,-22.066292,-0.815872,-10.61644,-20.169462,-16.241625,50.011173,-25.569727,4.748622,10.852769,4.6475325,7.8898993,7.50662,19.241095,-30.806948,21.230608,20.6156,-1.1605728,6.012996,-20.913984,-17.640793,25.031374,13.969606,-10.8187,-4.7198505,-12.29033
115,4.522392749786377,-7.558568477630615,76.24210357666016,3.5796660078039197,6.30077944449032,-73.88132678240106,-6.0799103,-4.2169414,-2.5321326,20.70036,-22.276634,-1.0104833,-12.283968,-20.406431,-15.346034,53.65338,-26.170609,3.8598986,10.6307,4.7721353,8.049597,8.145824,19.82804,-30.683353,20.236485,20.797565,-1.2752413,6.0268435,-21.035053,-17.902842,24.97158,12.353162,-10.757235,-4.8526,-11.775203
116,4.660253047943115,-7.954426288604736,76.19184112548828,3.5612624034987648,6.272058275937469,-73.3727584913343,-5.7213,-4.2604184,-2.9645877,20.620443,-22.45035,-1.1881523,-13.903655,-20.35227,-14.320733,56.629086,-26.511286,3.5079784,10.405909,4.922029,8.158183,8.780627,20.426388,-30.56012,19.292175,20.991474,-1.3290964,5.9726357,-21.113047,-18.149435,24.908918,10.862752,-10.8895445,-4.947112,-11.382439
117,4.800759315490723,-8.368674278259277,76.16101837158203,3.4991335354725686,6.292532197247457,-72.86775234599821,-5.3742743,-4.243777,-3.4216998,20.483316,-22.579418,-1.3508195,-15.490433,-19.877075,-13.015455,58.83931,-26.56228,3.9183722,10.167713,5.1012683,8.186683,9.396807,21.024841,-30.447483,18.446278,21.187614,-1.2982298,5.8341694,-21.147415,-18.37296,24.838743,9.536294,-11.311452,-5.00519,-11.148077
118,4.913075923919678,-8.808487892150879,76.14794158935547,3.3964177367777157,6.364234054689445,-72.36703963784986,-5.046146,-4.166075,-3.901558,20.297523,-22.667488,-1.4989222,-17.075888,-19.04541,-11.500127,60.49648,-26.44756,4.8954782,9.903318,5.3104444,8.140527,9.993632,21.619547,-30.338549,17.696926,21.379816,-1.2168802,5.6409373,-21.159294,-18.571167,24.76684,8.349533,-11.916297,-5.043362,-11.007393
119,5.025944232940674,-9.284743309020996,76.14883422851562,3.254195701973753,6.450674125647774,-71.91704532939131,-4.6981034,-4.0210123,-4.348825,20.07943,-22.73233,-1.63398,-18.590317,-18.116201,-10.090032,61.71997,-26.248205,6.0920444,9.644608,5.5491276,8.072631,10.581492,22.206034,-30.21418,16.982141,21.603361,-1.1150619,5.4109855,-21.160776,-18.744577,24.70591,7.277434,-12.575494,-5.050091,-10.9292145
120,5.137521743774414,-9.771759986877441,76.1627426147461,3.074498661831897,6.515184984840594,-71.56431308601063,-4.294429,-3.8055792,-4.7066927,19.852388,-22.795893,-1.7568927,-19.987892,-17.368143,-9.073029,62.61824,-25.999111,7.1409974,9.423386,5.8151407,8.036715,11.168574,22.779596,-30.056345,16.239496,21.891464,-1.0228782,5.1621437,-21.159243,-18.89372,24.66694,6.288864,-13.158541,-5.01338,-10.882961
121,5.247166156768799,-10.279354095458984,76.18807983398438,2.8350755333480406,6.5495243727909065,-71.32167922674303,-3.8253603,-3.4898906,-4.9722347,19.620155,-22.861715,-1.8674521,-21.255459,-16.83922,-8.485153,63.141155,-25.615866,8.0271,9.251332,6.129241,8.034713,11.761187,23.33596,-29.851696,15.469797,22.327118,-0.95046514,4.866108,-21.147959,-19.017424,24.649094,5.393915,-13.692435,-4.9043083,-10.874033
122,5.3620123863220215,-10.785517692565918,76.21643829345703,2.5442767894233858,6.571890909311045,-71.16381515057613,-3.3091986,-3.088245,-5.17002,19.36966,-22.91781,-1.9656011,-22.431032,-16.426146,-8.154462,63.254192,-25.096596,8.888988,9.108253,6.483852,8.042469,12.352541,23.87305,-29.611084,14.704701,22.869673,-0.88341594,4.5239735,-21.128204,-19.114025,24.649076,4.605545,-14.224955,-4.7363114,-10.913637
123,5.4620795249938965,-11.29397201538086,76.2399673461914,2.251454451571762,6.584844136869654,-71.07938047517212,-2.7487304,-2.666053,-5.2851367,19.093533,-22.959684,-2.0512762,-23.556742,-16.199066,-8.052467,63.08331,-24.565258,9.585341,8.976742,6.831985,8.07259,12.931714,24.390701,-29.354048,13.928862,23.364836,-0.8131754,4.198468,-21.120861,-19.186724,24.67707,3.90027,-14.661525,-4.5617027,-10.979802
124,5.5795063972473145,-11.820487022399902,76.26289367675781,2.005084731399201,6.591245416328383,-71.0571613930781,-2.1425812,-2.2885318,-5.303402,18.776697,-22.97913,-2.1243703,-24.673782,-16.225714,-8.157072,62.756935,-24.146616,9.977899,8.841076,7.127182,8.138387,13.490467,24.889696,-29.100529,13.123204,23.659973,-0.72794616,3.9523067,-21.141598,-19.24164,24.74196,3.24765,-14.907483,-4.4332285,-11.052191
125,5.705321788787842,-12.359964370727539,76.28389739990234,1.8129914987067215,6.591236982693384,-71.12519589528905,-1.4554515,-1.9649417,-5.1998506,18.35698,-22.94982,-2.1791165,-25.792372,-16.582853,-8.524961,62.290447,-23.89998,9.94068,8.7230425,7.3630333,8.239117,14.045563,25.37063,-28.858122,12.265824,23.718039,-0.61933476,3.8238866,-21.1919,-19.283281,24.851727,2.653646,-14.876261,-4.367375,-11.133233
126,5.820239067077637,-12.9060697555542,76.2969970703125,1.651201930636002,6.582715005490816,-71.27925206532731,-0.6988453,-1.666192,-4.988399,17.862352,-22.884493,-2.2180984,-26.886787,-17.213837,-9.150138,61.621895,-23.746853,9.574422,8.624439,7.562761,8.369228,14.593089,25.83342,-28.618284,11.372523,23.618107,-0.49302575,3.773231,-21.260216,-19.313383,24.998606,2.1241028,-14.637501,-4.3353195,-11.232392
127,5.9327545166015625,-13.45350456237793,76.29035949707031,1.5205427370587143,6.565678137649389,-71.45896013899075,0.06010667,-1.3982785,-4.71497,17.407822,-22.83035,-2.2538881,-27.939806,-17.985191,-9.920386,60.757263,-23.604937,9.084238,8.501191,7.725932,8.535562,15.09363,26.277855,-28.378178,10.478757,23.384148,-0.35735816,3.7459986,-21.342548,-19.33344,25.16548,1.6281915,-14.326676,-4.3224754,-11.340396
128,6.045323371887207,-14.005427360534668,76.2633056640625,1.422201861394365,6.540333924408696,-71.60380453259994,0.75322807,-1.1657062,-4.426388,17.109486,-22.83585,-2.2989106,-28.939646,-18.767439,-10.719579,59.703133,-23.386457,8.672624,8.309597,7.851757,8.745162,15.504517,26.703745,-28.137995,9.62306,23.039122,-0.22066562,3.6876483,-21.431187,-19.344748,25.334326,1.1321572,-14.08173,-4.313509,-11.447756
129,6.14061164855957,-14.551610946655273,76.22394561767578,1.3557548333686795,6.515454864035658,-71.70605406177907,1.3777839,-0.9673082,-4.130291,16.946852,-22.897802,-2.3637817,-29.884907,-19.590609,-11.600903,58.438732,-23.105032,8.33239,8.037225,7.9394865,8.994458,15.838052,27.110584,-27.887697,8.794924,22.47602,-0.07207737,3.5897036,-21.54393,-19.349434,25.520002,0.6456623,-13.892601,-4.3099356,-11.567063
130,6.234467029571533,-15.110201835632324,76.16545104980469,1.3194245823823862,6.48855810974588,-71.79526293129581,1.9683282,-0.79953474,-3.8046153,16.866755,-22.993765,-2.4401152,-30.77583,-20.493458,-12.606553,56.966858,-22.796085,7.9820976,7.70833,7.9902577,9.281014,16.10665,27.498117,-27.633614,7.982479,21.719767,0.08945192,3.4806437,-21.672127,-19.347443,25.72567,0.17507422,-13.703767,-4.317984,-11.698491
131,6.333315372467041,-15.668437957763672,76.0855712890625,1.3131553611017397,6.4428070619627125,-71.86594096235179,2.5055478,-0.6626461,-3.4528608,16.952219,-23.142975,-2.5115948,-31.609045,-21.368753,-13.596007,55.322758,-22.393934,7.7052717,7.3345656,8.004384,9.6129265,16.267303,27.866722,-27.403084,7.2235007,20.99373,0.24111676,3.3601284,-21.78922,-19.338512,25.915062,-0.3003825,-13.571513,-4.3291516,-11.8128195
132,6.409824848175049,-16.23379135131836,75.99041748046875,1.3367596059209415,6.361031402757651,-71.91205290420805,2.9730825,-0.55575955,-3.0790434,17.279867,-23.365162,-2.5615458,-32.387543,-22.11558,-14.420671,53.542576,-21.830423,7.5790796,6.930497,7.9825716,9.998177,16.271357,28.217344,-27.229359,6.559053,20.519737,0.35896096,3.2265399,-21.861647,-19.322605,26.04696,-0.80768186,-13.553654,-4.334843,-11.8801775
133,6.478569507598877,-16.80699348449707,75.87543487548828,1.3999596831068175,6.234639252210217,-71.92612655944791,3.3669863,-0.4901825,-2.672626,17.874138,-23.671574,-2.5743341,-33.111465,-22.720474,-15.039334,51.590748,-21.028399,7.631354,6.49527,7.9138,10.4442625,16.10565,28.550121,-27.120752,5.9983263,20.389725,0.43934363,3.0541549,-21.885725,-19.304596,26.105692,-1.3655658,-13.7305155,-4.326086,-11.866161
134,6.536452293395996,-17.38129234313965,75.74214935302734,1.4984403644341553,6.073677780354398,-71.91255287015429,3.6955175,-0.45690718,-2.2389896,18.694124,-24.051521,-2.5609717,-33.78221,-23.237661,-15.52275,49.458817,-20.037954,7.8123903,6.027676,7.8011866,10.943949,15.787104,28.864986,-27.070292,5.524678,20.47288,0.49274877,2.8512917,-21.870907,-19.287373,26.109034,-1.9634244,-14.048233,-4.309986,-11.794529
135,6.5916595458984375,-17.95406723022461,75.5837173461914,1.611225162119842,5.888728657468995,-71.88353263654795,3.9578063,-0.4256106,-1.8054264,19.726873,-24.49111,-2.5441825,-34.40271,-23.669588,-15.888486,47.212074,-18.985353,8.080854,5.5386147,7.6645083,11.482424,15.31871,29.162935,-27.085451,5.1380324,20.659962,0.51632184,2.6663907,-21.808865,-19.266817,26.07006,-2.576751,-14.36779,-4.3016825,-11.72217
136,6.641957759857178,-18.531166076660156,75.40309143066406,1.7170506018551888,5.690134110152288,-71.85051035285565,4.150818,-0.36868495,-1.3982658,20.963375,-24.978245,-2.547881,-34.971798,-24.01595,-16.164423,44.91198,-17.994076,8.397418,5.0379057,7.5236197,12.044665,14.706047,29.44519,-27.17257,4.8363967,20.84185,0.5086566,2.5487983,-21.692413,-19.23432,26.0031,-3.1775668,-14.553626,-4.315562,-11.706022
137,6.6781768798828125,-19.13237762451172,75.20027923583984,1.8166876986730822,5.471845507974004,-71.81008107975804,4.2610464,-0.2881116,-0.9782779,22.45358,-25.531185,-2.5679288,-35.480743,-24.244087,-16.3075,42.509205,-17.071312,8.803802,4.515952,7.3785224,12.637278,13.937372,29.715115,-27.342276,4.6317725,21.06056,0.453971,2.5205815,-21.537119,-19.183044,25.923313,-3.745547,-14.534381,-4.3657737,-11.779338
138,6.697365760803223,-19.733272552490234,74.9701919555664,1.9190925709533222,5.229520792054795,-71.7558607643598,4.2973146,-0.19458652,-0.54947025,24.18366,-26.149223,-2.59453,-35.918736,-24.368273,-16.324638,39.972145,-16.152132,9.300622,3.9669125,7.2163215,13.265153,13.019222,29.972456,-27.585424,4.5152664,21.349077,0.35867006,2.552866,-21.349081,-19.110756,25.822287,-4.2903438,-14.395649,-4.4415517,-11.905291
139,6.708040237426758,-20.33492660522461,74.72371673583984,2.0157241163435855,4.976558534238137,-71.69629486312674,4.3088512,-0.08084033,-0.19733946,26.01068,-26.772493,-2.6478705,-36.290268,-24.446981,-16.317959,37.398502,-15.251972,9.791703,3.4051745,7.0399756,13.911999,11.985701,30.210802,-27.876707,4.4540944,21.586346,0.25539187,2.618071,-21.103981,-19.0142,25.678669,-4.8317275,-14.238072,-4.5195394,-12.036481
140,6.7077107429504395,-20.939912796020508,74.46214294433594,2.097973538101473,4.726976315021194,-71.6405797303268,4.3398914,0.054959886,-0.0029392277,27.800982,-27.34159,-2.7516668,-36.60727,-24.534023,-16.391567,34.892796,-14.386531,10.185652,2.8449578,6.8544407,14.56053,10.868287,30.420694,-28.190395,4.4203925,21.651735,0.17590562,2.6881478,-20.781128,-18.889545,25.473423,-5.3855004,-14.160863,-4.5757623,-12.1257925
141,6.693633079528809,-21.576709747314453,74.18331146240234,2.1619218508353986,4.474570257135983,-71.59830836394698,4.3620477,0.20752703,0.011600474,29.627163,-27.859968,-2.922142,-36.861084,-24.618708,-16.56621,32.427723,-13.550208,10.467409,2.2969568,6.663553,15.219355,9.649606,30.59653,-28.531818,4.4404573,21.38665,0.14541148,2.7853544,-20.391129,-18.733023,25.2088,-5.9453015,-14.162239,-4.6127424,-12.166189
142,6.685380458831787,-22.22780990600586,73.891845703125,2.214460841499515,4.213126024203969,-71.56014846387622,4.375851,0.3611091,-0.10297341,31.510342,-28.347145,-3.1539335,-37.046783,-24.671886,-16.796139,29.96,-12.73236,10.689606,1.7463962,6.4632363,15.894379,8.322197,30.736303,-28.905626,4.521057,20.899843,0.14028004,2.9146423,-19.946676,-18.54253,24.897587,-6.4980445,-14.198109,-4.6403146,-12.180774
143,6.670808792114258,-22.893949508666992,73.59130096435547,2.2618615516291936,3.9577295027541948,-71.50762419528628,4.4584613,0.50492495,-0.31944466,33.255836,-28.781094,-3.4353464,-37.178947,-24.714085,-17.097136,27.564138,-11.936435,10.8648615,1.1692678,6.247343,16.562864,6.9313774,30.835949,-29.284435,4.6088343,20.471317,0.11958073,3.0211215,-19.426895,-18.316978,24.539948,-7.053162,-14.307756,-4.6449256,-12.168014
144,6.649747371673584,-23.591142654418945,73.2868881225586,2.3098854322430866,3.724806222248529,-71.42407394277356,4.678765,0.63857126,-0.6142364,34.679306,-29.142872,-3.746996,-37.28195,-24.77088,-17.477919,25.330948,-11.173728,11.002518,0.5422917,6.010566,17.201105,5.523359,30.890991,-29.639204,4.6500335,20.38131,0.043945413,3.049446,-18.812029,-18.05563,24.136816,-7.619752,-14.529005,-4.6131525,-12.126779
145,6.629665374755859,-24.310604095458984,72.98377990722656,2.357915936196225,3.5177814030278687,-71.30751753524143,5.024591,0.76564527,-1.0329322,35.789677,-29.444271,-4.102428,-37.375053,-24.864544,-17.973873,23.275194,-10.434525,11.06244,-0.1324565,5.750057,17.810953,4.0745845,30.901093,-29.980028,4.6925397,20.76098,-0.13943623,3.0150418,-18.101938,-17.752815,23.674196,-8.205039,-14.965799,-4.535008,-12.047386
146,6.611024379730225,-25.053586959838867,72.68955993652344,2.4037887980279313,3.32904413173544,-71.16715228573813,5.4649477,0.8889269,-1.5700319,36.675285,-29.695902,-4.5020237,-37.451603,-24.972763,-18.568281,21.367573,-9.725454,11.055521,-0.84566,5.4684973,18.400728,2.5757508,30.865442,-30.30922,4.7439194,21.442595,-0.3958504,2.9402902,-17.309507,-17.405468,23.161188,-8.798552,-15.566892,-4.4210844,-11.932321
147,6.591141223907471,-25.835969924926758,72.40629577636719,2.449590559290962,3.1605369516482593,-71.00476633199887,6.0340605,1.0190829,-2.1298108,37.27706,-29.877012,-4.8993783,-37.50554,-25.064285,-19.183622,19.644253,-9.087536,11.061631,-1.6090345,5.1707397,18.953363,1.0939411,30.778143,-30.586107,4.693546,22.259539,-0.63490224,2.7780178,-16.434061,-17.020006,22.637426,-9.3849,-16.137203,-4.287922,-11.799878
148,6.578675746917725,-26.64259910583496,72.13264465332031,2.4965778391568083,3.0149393470732626,-70.8234402562917,6.761259,1.170711,-2.6183496,37.539486,-29.965408,-5.2463655,-37.53509,-25.119076,-19.736927,18.150501,-8.563405,11.156935,-2.4351513,4.864165,19.451231,-0.30509958,30.631706,-30.770325,4.4347525,23.046423,-0.76835215,2.4763355,-15.473861,-16.609056,22.14396,-9.951405,-16.479294,-4.150425,-11.671248
149,6.571220397949219,-27.501476287841797,71.87721252441406,2.555703190504952,2.8854191680610324,-70.60819145114907,7.6691804,1.3424219,-3.028497,37.426323,-29.992126,-5.5250397,-37.5237,-25.158056,-20.233614,16.860117,-8.157021,11.415041,-3.3367903,4.545895,19.903603,-1.6331731,30.418064,-30.84894,3.948855,23.820435,-0.7734773,1.9494891,-14.395923,-16.173954,21.671135,-10.525875,-16.444216,-3.9986033,-11.555324
150,6.563269138336182,-28.390581130981445,71.64370727539062,2.619347231411144,2.7781459368581554,-70.36805582379846,8.726736,1.5413371,-3.4037712,36.98095,-29.956385,-5.757678,-37.49651,-25.194313,-20.699131,15.789501,-7.8616667,11.770477,-4.2994866,4.221568,20.307701,-2.9236164,30.13662,-30.842934,3.3042135,24.651764,-0.70546937,1.2460269,-13.210396,-15.714617,21.209236,-11.1074505,-16.168179,-3.8275294,-11.4427805
151,6.561765670776367,-29.309345245361328,71.44193267822266,2.661199051668787,2.7169278408899395,-70.14371825496205,9.87881,1.7940567,-3.7248678,36.26995,-29.788021,-5.9585137,-37.51024,-25.187634,-21.081125,15.033227,-7.705516,12.089111,-5.288523,3.914125,20.629162,-4.1351376,29.793137,-30.768044,2.511581,25.46282,-0.5882935,0.5133351,-11.96534,-15.245533,20.789507,-11.65776,-15.87807,-3.6592386,-11.328408
152,6.572279930114746,-30.27382469177246,71.26390838623047,2.654636139887708,2.72676764632381,-69.97672938056684,11.068078,2.1242862,-3.9699647,35.362366,-29.41835,-6.144605,-37.626957,-25.098625,-21.324522,14.695988,-7.720977,12.237957,-6.2683444,3.6485507,20.83682,-5.2298417,29.398745,-30.642662,1.5780147,26.169794,-0.4396585,-0.10127147,-10.704413,-14.791747,20.44228,-12.146441,-15.798781,-3.5153663,-11.206222
153,6.57957124710083,-31.288095474243164,71.11880493164062,2.5950582223551963,2.7891581148710842,-69.87534854576596,12.343965,2.5368457,-4.127719,34.198814,-28.85537,-6.3143,-37.841362,-24.9285,-21.420609,14.824271,-7.920981,12.207845,-7.231897,3.4298983,20.959217,-6.183535,28.952084,-30.447126,0.43100446,26.832607,-0.23007394,-0.6196624,-9.398141,-14.366148,20.165573,-12.622243,-15.988348,-3.3951426,-11.086307
154,6.581381797790527,-32.32929229736328,71.00288391113281,2.495216756467921,2.9014161079650598,-69.82273470061354,13.708739,3.015243,-4.202799,32.774746,-28.129408,-6.4658003,-38.142803,-24.692749,-21.39026,15.378527,-8.297186,12.060962,-8.19005,3.2546935,21.004948,-7.0261216,28.45252,-30.186289,-0.91258824,27.466745,0.041001014,-1.101296,-8.01985,-13.970485,19.941866,-13.105488,-16.321268,-3.2886088,-10.970005
155,6.588294506072998,-33.4160041809082,70.91161346435547,2.3556831463302,3.1099383006028427,-69.82075878878462,15.038869,3.5474088,-4.2000303,31.235754,-27.203588,-6.6147237,-38.545757,-24.36082,-21.239393,16.261562,-8.810308,11.774058,-9.131173,3.1361477,20.918932,-7.7885094,27.917683,-29.917797,-2.3305888,27.92346,0.32108542,-1.4523877,-6.614582,-13.616473,19.76833,-13.5252,-16.74266,-3.207438,-10.838042
156,6.598866939544678,-34.543731689453125,70.84661865234375,2.1769501280107475,3.4611231331310233,-69.87149868531668,16.210443,4.1226,-4.1282372,29.731958,-26.04255,-6.7715015,-39.066795,-23.905602,-20.972656,17.384928,-9.428181,11.322825,-10.04115,3.0907657,20.65062,-8.491884,27.376726,-29.69801,-3.7195065,28.050177,0.56081796,-1.5767539,-5.2176576,-13.32066,19.636814,-13.825518,-17.195555,-3.16302,-10.67225
157,6.600541114807129,-35.70878982543945,70.8111801147461,1.9417855914276199,3.951441521225288,-69.98521751824877,17.267403,4.7643337,-3.9678574,28.206184,-24.630451,-6.9476795,-39.664417,-23.319668,-20.654257,18.818876,-10.235335,10.64591,-10.923774,3.1349397,20.20494,-9.113825,26.849293,-29.522446,-5.128135,27.751417,0.76571125,-1.3965299,-3.814369,-13.098637,19.558683,-14.026953,-17.74092,-3.1601663,-10.434536
158,6.596820831298828,-36.92587661743164,70.7981185913086,1.6597429964428996,4.5522270289365965,-70.15640285180535,18.250284,5.452983,-3.7262099,26.63157,-22.99817,-7.130973,-40.319366,-22.620052,-20.263803,20.556297,-11.208493,9.775609,-11.784965,3.258141,19.62206,-9.629537,26.34199,-29.364208,-6.6272497,27.118639,0.95609593,-0.97671646,-2.3780541,-12.952405,19.52761,-14.174502,-18.37595,-3.1928546,-10.149352
159,6.591520309448242,-38.18265151977539,70.80574798583984,1.36858533944592,5.27836710303694,-70.36622765046792,19.028866,6.1251717,-3.4568892,25.193865,-21.178617,-7.2910957,-41.09801,-21.813585,-19.67949,22.419346,-12.157752,8.82609,-12.609547,3.440851,18.897564,-10.064979,25.867468,-29.2474,-8.139351,26.272566,1.104777,-0.4362642,-0.9304346,-12.874478,19.507904,-14.2361355,-18.950834,-3.2549696,-9.890989
160,6.572051525115967,-39.519866943359375,70.8297348022461,1.10291862947233,6.152457866549369,-70.59827452466466,19.46103,6.7299128,-3.2148569,24.090372,-19.204113,-7.397176,-42.082436,-20.896872,-18.788105,24.248055,-12.89607,7.912806,-13.377382,3.6660202,18.018925,-10.443279,25.439613,-29.199068,-9.589471,25.33721,1.1886266,0.10539103,0.5049379,-12.850485,19.46273,-14.177849,-19.317606,-3.3385608,-9.731462
161,6.5350847244262695,-40.885128021240234,70.86227416992188,0.8742931071272073,7.272103467773668,-70.84223423795312,19.4212,7.264876,-3.0123935,23.354418,-17.037075,-7.409063,-43.402855,-19.813246,-17.435492,26.060759,-13.349742,7.0311894,-14.093392,3.9370856,16.879368,-10.755236,25.068169,-29.22894,-10.994766,24.290903,1.2307874,0.67751426,1.9339347,-12.876337,19.414621,-13.97841,-19.432316,-3.4604633,-9.705807
162,6.487053871154785,-42.27327346801758,70.91152954101562,0.66136168367492,8.6010225846005,-71.1099087373235,19.0014,7.769613,-2.8316488,22.902105,-14.679486,-7.359977,-44.972958,-18.557499,-15.754681,27.934486,-13.621266,6.1417627,-14.764208,4.266474,15.513829,-10.981367,24.757574,-29.319162,-12.396334,23.082066,1.2277653,1.3226081,3.3542933,-12.951317,19.376802,-13.6485195,-19.378025,-3.6174088,-9.768283
163,6.4339728355407715,-43.682315826416016,70.9749755859375,0.4432663467464111,9.96531981298534,-71.41773359590759,18.389309,8.260819,-2.6812246,22.730717,-12.210012,-7.327991,-46.563557,-17.21003,-14.059476,29.806944,-13.797159,5.3022804,-15.372885,4.6485186,14.118371,-11.132253,24.511698,-29.455866,-13.751737,21.791916,1.124841,1.9381323,4.729284,-13.06109,19.297419,-13.197614,-19.199892,-3.771281,-9.86801
164,6.362842082977295,-45.08308410644531,71.05921936035156,0.19515440085795124,11.189239227035152,-71.78278758853779,17.77654,8.745558,-2.5678883,22.830105,-9.702239,-7.381461,-47.953472,-15.87334,-12.643327,31.609547,-13.972538,4.55717,-15.901386,5.068377,12.890174,-11.22371,24.332945,-29.629728,-15.013182,20.502941,0.8750816,2.4199283,6.023234,-13.183114,19.119936,-12.636195,-18.946545,-3.8848329,-9.9519005
165,6.2775797843933105,-46.517269134521484,71.14920806884766,-0.09228181774009883,12.28074298891892,-72.20459132325621,17.174679,9.239669,-2.5034122,23.139612,-7.0989127,-7.527943,-49.181953,-14.578633,-11.524488,33.335983,-14.101094,3.9174514,-16.357962,5.523661,11.821095,-11.27001,24.231438,-29.84952,-16.16592,19.114061,0.4003184,2.7141356,7.2465553,-13.297733,18.83973,-11.935318,-18.536394,-3.9556022,-10.008049
166,6.201003551483154,-47.965858459472656,71.22235870361328,-0.41316066060886114,13.318269791327143,-72.67584285460032,16.498953,9.736416,-2.4890354,23.657412,-4.367633,-7.7332873,-50.33808,-13.286374,-10.563146,35.02537,-14.170759,3.344646,-16.741499,6.015091,10.821181,-11.271341,24.200247,-30.129183,-17.22677,17.623215,-0.24457105,2.8759565,8.414385,-13.412026,18.472918,-11.098832,-17.978512,-4.0034757,-10.059322
167,6.126271724700928,-49.44524383544922,71.2890853881836,-0.7666713571844151,14.228299906137762,-73.20200532278044,15.806821,10.199237,-2.5086143,24.442701,-1.6056626,-7.9817853,-51.293396,-12.012158,-9.787509,36.68259,-14.333259,2.8053226,-17.04772,6.512187,9.966958,-11.205754,24.236814,-30.43642,-18.197165,16.253796,-0.90846455,2.968752,9.46452,-13.518465,18.019123,-10.146026,-17.470406,-4.0210867,-10.106564
168,6.049395561218262,-50.939239501953125,71.33804321289062,-1.1504461028053805,14.934571771332456,-73.78751040885292,15.157092,10.596943,-2.5373282,25.556171,1.0914166,-8.238397,-51.922565,-10.768882,-9.217604,38.304256,-14.732107,2.2758274,-17.264183,6.987278,9.337147,-11.062226,24.327051,-30.752716,-19.07348,15.235832,-1.4425181,3.0698195,10.344496,-13.619044,17.4639,-9.104034,-17.207438,-4.0031457,-10.150375
169,5.975491046905518,-52.43865966796875,71.3721694946289,-1.5539117893379548,15.388679206730204,-74.44161275152402,14.629895,10.950839,-2.5408704,26.987524,3.793747,-8.546314,-52.18493,-9.556666,-8.861318,39.916996,-15.486467,1.7227706,-17.385664,7.421532,8.970985,-10.851974,24.46691,-31.090446,-19.852663,14.6536455,-1.8326887,3.2170799,11.072309,-13.71431,16.745193,-7.970353,-17.390581,-3.9443648,-10.1198015
170,5.899077415466309,-53.92200469970703,71.38945770263672,-1.9795728355572775,15.635689706251489,-75.15777662199841,14.158473,11.303305,-2.5322661,28.743101,6.5165043,-8.835333,-52.158703,-8.370138,-8.680103,41.50509,-16.488548,1.1704991,-17.418215,7.829023,8.822049,-10.588649,24.654463,-31.461342,-20.526134,14.380191,-2.1482856,3.3731337,11.668829,-13.805624,15.88074,-6.735888,-17.867838,-3.8498142,-10.036762
171,5.827325344085693,-55.38616180419922,71.38951873779297,-2.441188339203737,15.737845586376606,-75.91671343259254,13.595375,11.662605,-2.540259,30.886478,9.078792,-8.903235,-51.89818,-7.2069597,-8.625276,42.994488,-17.532486,0.6878361,-17.368664,8.23332,8.841136,-10.273606,24.875069,-31.839235,-21.06289,14.323799,-2.3687327,3.505229,12.082106,-13.899553,14.98116,-5.4175963,-18.303417,-3.7266295,-10.043687
172,5.765543460845947,-56.85053634643555,71.37371063232422,-2.9536835122828684,15.757693469141332,-76.70031769137485,12.801095,12.022749,-2.5870328,33.47325,11.296593,-8.582746,-51.461285,-6.0652804,-8.6577015,44.319435,-18.414463,0.34321937,-17.24678,8.661818,8.978503,-9.904604,25.106356,-32.19282,-21.431498,14.396463,-2.4746008,3.5762606,12.26073,-14.005565,14.163548,-4.03276,-18.35903,-3.5796466,-10.2866955
173,5.710555076599121,-58.310848236083984,71.34085083007812,-3.5150047029867175,15.671117446623558,-77.51559576184721,11.748728,12.347336,-2.7149253,36.593666,13.4032,-7.797762,-50.815582,-4.948295,-8.805092,45.44779,-19.056885,0.17865796,-17.05361,9.119917,9.254805,-9.492195,25.336288,-32.532932,-21.625103,14.735204,-2.4058344,3.5581734,12.175891,-14.13208,13.436788,-2.520644,-17.792007,-3.4110463,-10.923588
174,5.665500164031982,-59.75682067871094,71.2905502319336,-4.113588904127381,15.452905056301992,-78.3693528618528,10.512839,12.705077,-2.8602414,40.185604,15.383162,-6.5978694,-49.949005,-3.8379138,-9.071356,46.41102,-19.571735,0.15007277,-16.784258,9.598467,9.68397,-9.042413,25.560675,-32.869358,-21.644222,15.338169,-2.1928463,3.4723344,11.861076,-14.2839775,12.749641,-0.89415544,-16.82895,-3.2297711,-11.841394
175,5.627500057220459,-61.18083190917969,71.2036361694336,-4.745277807678006,15.163190325183592,-79.24630297711161,9.116644,13.187126,-2.9223287,44.086792,16.673391,-5.0848703,-48.95281,-2.7093048,-9.379757,47.246876,-20.042734,0.19830896,-16.435385,10.096442,10.202836,-8.549012,25.766508,-33.168987,-21.460033,15.908461,-1.9521638,3.3553665,11.362609,-14.464692,12.129918,0.7175281,-15.835458,-3.0421684,-12.78153
176,5.591847896575928,-62.5899658203125,71.09049987792969,-5.397713789196126,14.862155366525457,-80.13229608623634,7.59022,13.812834,-2.8581665,48.162018,16.70746,-3.4435542,-47.922894,-1.5522617,-9.6434,48.00772,-20.55682,0.2654251,-16.004694,10.603304,10.744541,-8.0058975,25.936447,-33.395683,-21.039003,16.149233,-1.7990602,3.2459176,10.722728,-14.678724,11.60776,2.1889534,-15.178611,-2.8344722,-13.484947
177,5.564672470092773,-63.998748779296875,70.97014617919922,-6.054818754547895,14.53793783016277,-81.01913120680501,5.940318,14.497554,-2.675439,52.62243,15.011145,-1.6330752,-46.850266,-0.3852847,-9.842432,48.704067,-21.125916,0.37332085,-15.498058,11.109812,11.3226795,-7.413381,26.054138,-33.545135,-20.366274,15.926503,-1.7441723,3.102737,9.930058,-14.929734,11.171722,3.5162678,-14.948927,-2.5506525,-13.885727
178,5.536623954772949,-65.3864517211914,70.8395004272461,-6.702731629491477,14.165304465814284,-81.91470103944062,4.147451,15.114721,-2.513481,57.548542,11.953633,0.27130267,-45.706245,0.78139275,-10.0015955,49.329353,-21.716492,0.54271126,-14.913017,11.611318,11.951135,-6.7881365,26.11224,-33.64045,-19.441166,15.418924,-1.7322077,2.9202626,8.969389,-15.218795,10.812833,4.7597413,-14.951133,-2.2062402,-14.121379
179,5.509533405303955,-66.74664306640625,70.69009399414062,-7.33729398451806,13.786974143776797,-82.8281945305457,2.2087328,15.603933,-2.497232,62.601753,8.265153,1.8987113,-44.549854,1.9593916,-10.103393,49.904053,-22.351131,0.7125793,-14.236473,12.107878,12.564513,-6.1381702,26.109062,-33.682964,-18.265953,14.801051,-1.7801886,2.7920206,7.88296,-15.539966,10.566688,5.8832135,-15.123428,-1.8840293,-14.237601
180,5.475969314575195,-68.09806060791016,70.51921844482422,-7.968459285927478,13.445763945604941,-83.7699971149691,0.1291003,16.000969,-2.661206,67.39896,4.6938195,2.9576466,-43.434788,3.1642342,-10.1387,50.4424,-23.047323,0.820245,-13.454418,12.60722,13.099861,-5.46723,26.048615,-33.669926,-16.848688,14.24567,-1.9076177,2.8109112,6.7102175,-15.884276,10.4709,6.8519006,-15.405627,-1.6683227,-14.280674
181,5.444486618041992,-69.43010711669922,70.32842254638672,-8.631015683801092,13.185125553050234,-84.77436285666765,-2.1050026,16.379442,-2.9200783,71.910866,1.2697902,3.24057,-42.423553,4.421519,-10.115543,50.954895,-23.797327,0.8614225,-12.521588,13.131494,13.514087,-4.7757845,25.930836,-33.622765,-15.11716,13.644484,-2.1463978,3.0162635,5.4509683,-16.251966,10.536392,7.6499124,-15.996767,-1.5950446,-14.190774
182,5.408161640167236,-70.78881072998047,70.1375503540039,-9.31654648314235,12.970779332379996,-85.82492068023345,-4.478963,16.724228,-3.2050753,76.33061,-2.352089,2.9744434,-41.46779,5.7101836,-10.039239,51.4343,-24.596142,0.86312675,-11.455059,13.676022,13.842634,-4.0599246,25.754047,-33.536625,-13.097053,12.956437,-2.480664,3.349562,4.088835,-16.639336,10.741999,8.294177,-16.857014,-1.6175773,-13.968244
183,5.36823034286499,-72.14505767822266,69.94774627685547,-9.976275463131929,12.731050674058645,-86.8564610050957,-6.950754,16.992752,-3.5587611,80.575554,-5.9689326,2.5558476,-40.450565,6.9803367,-9.897685,51.86405,-25.46196,0.80877095,-10.334697,14.209308,14.145974,-3.3121073,25.525103,-33.367645,-10.946533,12.457363,-2.8591201,3.7625132,2.6340058,-17.028013,11.076325,8.8036785,-17.570335,-1.6937937,-13.748524
184,5.328219413757324,-73.51014709472656,69.7584228515625,-10.558501435623642,12.397099304930105,-87.80332189675858,-9.48444,17.108757,-4.060853,84.53784,-9.352046,2.3535337,-39.256664,8.183216,-9.675087,52.227432,-26.411129,0.68150014,-9.244674,14.699206,14.491844,-2.5213926,25.258427,-33.068935,-8.829347,12.418938,-3.2239525,4.21294,1.0912169,-17.39154,11.530394,9.202496,-17.723854,-1.7761364,-13.665328
185,5.295864105224609,-74.8664779663086,69.58467102050781,-11.066984028051532,11.948219346251047,-88.64507432199753,-12.101472,16.938515,-4.8556566,88.21097,-12.443042,2.4263446,-37.851936,9.32821,-9.369135,52.536526,-27.49204,0.4366761,-8.218377,15.15066,14.931749,-1.6894441,24.956558,-32.628662,-6.6323166,12.955625,-3.5927382,4.841773,-0.5760744,-17.710802,12.151418,9.491144,-16.959148,-1.8744714,-13.827488
186,5.267923831939697,-76.24092102050781,69.43777465820312,-11.524424346411857,11.425531586136612,-89.41465727380836,-14.801947,16.53431,-5.8492494,91.62765,-15.332696,2.5775166,-36.290203,10.431661,-8.981324,52.7933,-28.68083,0.0940451,-7.2118425,15.577666,15.423541,-0.8109688,24.62074,-32.07138,-4.332856,13.908717,-3.971764,5.6292067,-2.3631468,-17.979692,12.924084,9.660804,-15.585789,-2.012565,-14.136893
187,5.2318949699401855,-77.63198852539062,69.31270599365234,-11.908015745936193,10.85526231841812,-90.12655313221762,-17.528809,16.108662,-6.7957964,94.7157,-18.015282,2.800356,-34.588474,11.454071,-8.508356,52.97096,-29.890276,-0.26677397,-6.193515,15.960707,15.899925,0.13574074,24.272102,-31.405191,-2.2345963,15.133888,-4.288684,6.296223,-4.2021346,-18.194702,13.745529,9.723418,-14.194915,-2.1545424,-14.414571
188,5.191930294036865,-79.03724670410156,69.2051010131836,-12.190724874554295,10.265749062260447,-90.79423930437564,-20.245968,15.894999,-7.4757066,97.3885,-20.478651,3.0970857,-32.76242,12.35087,-7.951556,53.034473,-31.028858,-0.56615347,-5.1347914,16.270374,16.295744,1.1813304,23.94801,-30.632109,-0.6539829,16.479727,-4.4864554,6.561286,-6.0268245,-18.356058,14.519682,9.694284,-13.377532,-2.2511008,-14.485002
189,5.147878646850586,-80.45281982421875,69.1146240234375,-12.379606884671947,9.633884585335888,-91.40584685474926,-22.989939,16.042274,-7.8660355,99.654724,-22.78153,3.500351,-30.793999,13.124364,-7.3404217,53.01756,-32.1117,-0.80464274,-4.0465717,16.495447,16.65049,2.4020162,23.681416,-29.672935,0.24480629,18.234184,-4.5395923,6.231196,-7.8601623,-18.459307,15.241964,9.562596,-13.371638,-2.2584078,-14.262997
190,5.103466510772705,-81.88213348388672,69.0394515991211,-12.4844547534522,8.957471698831121,-91.9615241384033,-25.781786,16.411625,-8.101191,101.53591,-24.902225,4.004955,-28.678644,13.786855,-6.669356,52.92308,-33.174587,-1.0194151,-2.9455466,16.642803,16.996817,3.8023357,23.486237,-28.535902,0.60105574,20.358173,-4.509409,5.4923706,-9.724195,-18.501516,15.965184,9.320827,-13.836821,-2.2132776,-13.855415
191,5.07071590423584,-83.34352111816406,68.99337768554688,-12.483527344736888,8.2963581014153,-92.49589889414668,-28.563456,16.820318,-8.188577,102.961136,-26.70901,4.5600686,-26.456074,14.307092,-5.8958898,52.67627,-34.16097,-1.1869427,-1.8071369,16.705141,17.259935,5.3039713,23.366686,-27.35575,0.55641836,22.209787,-4.4616103,4.632823,-11.569329,-18.49212,16.683727,9.013458,-14.489376,-2.185415,-13.377214
192,5.0505547523498535,-84.82939147949219,68.98571014404297,-12.35716396993899,7.710172880582895,-93.04440691686897,-31.270004,17.095509,-8.125689,103.8591,-28.063522,5.1140947,-24.164772,14.651805,-4.9824133,52.20218,-35.01331,-1.285282,-0.5954426,16.679161,17.361063,6.806562,23.317165,-26.283644,0.27274537,23.146057,-4.4249096,3.9465864,-13.328129,-18.44773,17.380423,8.670745,-15.044043,-2.2389479,-12.942436
193,5.033921718597412,-86.356201171875,69.02925109863281,-12.104515479162554,7.209641486206066,-93.63064983587911,-33.951996,17.290577,-7.859081,104.223206,-28.84914,5.756225,-21.823591,14.807617,-3.9070802,51.52808,-35.766617,-1.2888836,0.71170574,16.569706,17.287437,8.324977,23.32964,-25.338896,-0.3039536,22.739563,-4.3927374,3.5248933,-15.013009,-18.379698,18.052431,8.27332,-15.49471,-2.4016676,-12.566026
194,5.049466133117676,-87.91625213623047,69.11445617675781,-11.737101613962249,6.76583080161728,-94.23598677338813,-36.60128,17.483553,-7.380794,104.07877,-29.170456,6.478306,-19.410097,14.781588,-2.7102668,50.684643,-36.44361,-1.2241457,2.0983822,16.374825,17.08927,9.894925,23.399155,-24.45652,-1.2227306,21.417616,-4.3339615,3.2071486,-16.63367,-18.289774,18.706861,7.8018436,-15.962793,-2.6362066,-12.192287
195,5.051656246185303,-89.53079223632812,69.24889373779297,-11.25657011585683,6.379856961687234,-94.83143497780024,-39.065544,17.545593,-6.7529793,103.40092,-29.20847,7.080695,-16.904825,14.565062,-1.4490607,49.60544,-36.96504,-1.1423116,3.5434759,16.079773,16.778633,11.431085,23.521046,-23.66524,-2.2961712,19.821056,-4.2258067,2.9125748,-18.120462,-18.181381,19.337393,7.2909756,-16.35606,-2.9022393,-11.829668
196,5.065678119659424,-91.19647979736328,69.43904113769531,-10.666018451064481,6.053505307133389,-95.38660041962234,-41.203594,17.344189,-6.055408,102.16662,-29.135939,7.3590035,-14.292583,14.1450205,-0.18070479,48.22131,-37.25344,-1.0856445,5.030148,15.671938,16.36405,12.832732,23.690939,-23.000654,-3.3237307,18.59347,-4.0486083,2.5625365,-19.396862,-18.062653,19.925253,6.7697597,-16.58564,-3.1581583,-11.483526
197,5.085808753967285,-92.89928436279297,69.67842864990234,-9.945935022077858,5.786385359199737,-95.9300828437235,-42.982864,16.856213,-5.2829046,100.32644,-29.006807,7.234516,-11.551354,13.483795,1.1481189,46.466938,-37.360844,-1.0487119,6.6088486,15.13667,15.82315,14.058008,23.908377,-22.498163,-4.2549634,17.795359,-3.791284,2.151887,-20.4314,-17.94331,20.421297,6.2233825,-16.622086,-3.424937,-11.096947
198,5.090633392333984,-94.66315460205078,69.97041320800781,-9.10700469928378,5.581323062949562,-96.46546084118496,-44.479683,16.167736,-4.4229164,97.90122,-28.734335,6.8282676,-8.715734,12.578883,2.5194488,44.402267,-37.310917,-1.0079212,8.26849,14.478098,15.171748,15.150404,24.174948,-22.13565,-5.1795635,17.12513,-3.4671469,1.7204479,-21.263567,-17.832191,20.840128,5.638674,-16.512688,-3.7111862,-10.683893
199,5.080710411071777,-96.4649887084961,70.29918670654297,-8.199942521504283,5.442114365493116,-96.92396042916202,-45.72577,15.305202,-3.5684404,94.97055,-28.273499,6.228391,-5.8578925,11.480865,3.7700436,42.145382,-36.974636,-0.96109766,9.896145,13.71675,14.471363,16.13789,24.49037,-21.856321,-6.1078386,16.683874,-3.098231,1.2527359,-21.91649,-17.734917,21.262047,5.038859,-16.289846,-3.9554164,-10.356429
200,5.075260639190674,-98.29570770263672,70.6464614868164,-7.274247955098516,5.3685381795041875,-97.23541441841908,-46.746338,14.284879,-2.8010755,91.61111,-27.578444,5.524253,-3.0422614,10.2566395,4.743365,39.80588,-36.214695,-0.89609337,11.377327,12.878134,13.777361,17.053846,24.851036,-21.598642,-7.054357,16.574972,-2.7091033,0.7297068,-22.419485,-17.652487,21.77209,4.4536543,-15.984526,-4.097597,-10.228729
201,5.059289932250977,-100.14796447753906,71.0185546875,-6.293659782557871,5.365142058966732,-97.36853194551084,-47.526688,12.967911,-2.1803696,87.7634,-26.613106,4.7018,-0.19793524,8.868293,5.423274,37.249474,-34.99604,-0.80006737,12.699073,11.91901,13.081127,17.87905,25.261646,-21.34628,-8.031695,17.022783,-2.2768295,0.06933084,-22.754555,-17.5813,22.400284,3.8995426,-15.575863,-4.0802326,-10.444523
202,5.03465461730957,-102.06523895263672,71.40264892578125,-5.256119942534373,5.422638738987051,-97.35841381412305,-48.059334,11.412263,-1.7028493,83.40564,-25.433802,3.7458642,2.665831,7.3326745,5.8571434,34.483112,-33.395145,-0.6571654,13.9004755,10.847495,12.365093,18.611477,25.725285,-21.119339,-9.032884,17.911108,-1.8118429,-0.7031049,-22.917727,-17.521048,23.103472,3.3612874,-15.05961,-3.9519775,-10.908179
203,5.028892993927002,-103.9942398071289,71.79473876953125,-4.254211622141997,5.5182787835717795,-97.23880778954916,-48.360016,9.896063,-1.3119565,78.646164,-24.101894,2.7251856,5.386759,5.809083,6.0197825,31.818619,-31.435957,-0.46833763,14.954712,9.766759,11.657209,19.300793,26.23047,-20.91644,-10.035695,18.830048,-1.3810688,-1.440388,-22.959177,-17.47879,23.8585,2.8222666,-14.492171,-3.8106792,-11.37428
204,5.021482467651367,-105.94100952148438,72.18830871582031,-3.377473168737848,5.6318001767504455,-97.04414597077569,-48.436993,8.658336,-0.9087226,73.57952,-22.653933,1.681922,7.8157954,4.4480915,5.915664,29.572784,-29.142067,-0.25958344,15.835689,8.782312,10.976884,19.986324,26.756132,-20.739872,-11.005894,19.366995,-1.0369698,-1.9883229,-22.931347,-17.464193,24.647926,2.2668574,-13.93085,-3.748872,-11.5966425
205,5.036768436431885,-107.89373016357422,72.57559967041016,-2.612418174576171,5.792156038934413,-96.73601116454894,-48.252243,7.6726227,-0.38820168,68.01304,-20.933973,0.43163034,9.94401,3.2587543,5.521603,27.770147,-26.403278,-0.09944395,16.506836,7.8874774,10.29181,20.66556,27.290821,-20.594961,-11.930702,19.415174,-0.7912925,-2.286525,-22.84981,-17.487621,25.482391,1.7084166,-13.306956,-3.795521,-11.475134
206,5.058928966522217,-109.86054992675781,72.95635986328125,-1.9237887725677292,5.988534664503456,-96.31213416612256,-47.763134,6.770098,0.19764061,61.89451,-18.917908,-1.0238194,11.859432,2.1970828,4.8851,26.285835,-23.253254,0.013581122,16.99237,7.053065,9.5927,21.29934,27.833323,-20.488466,-12.809155,19.195618,-0.61044407,-2.4206944,-22.681702,-17.55366,26.367521,1.144985,-12.616636,-3.8939278,-11.152147
207,5.103039264678955,-111.83255767822266,73.32553100585938,-1.3730555664450816,6.1493037789632,-95.863556302961,-47.002148,5.9768195,0.7354296,55.560944,-16.84055,-2.3719156,13.57437,1.3193152,4.1352663,25.18209,-19.917091,0.15557373,17.365713,6.355988,8.92466,21.871279,28.375244,-20.42786,-13.621164,18.788391,-0.47185132,-2.4516263,-22.419449,-17.661507,27.279121,0.5488489,-12.009174,-4.007331,-10.744085
208,5.171799182891846,-113.81639099121094,73.67958068847656,-1.005302199442412,6.211006121494992,-95.48304942270916,-46.019783,5.3548207,1.1353337,49.356216,-14.957879,-3.2792041,15.105777,0.65461034,3.4021974,24.488348,-16.591295,0.42009813,17.7056,5.852706,8.334691,22.368418,28.903536,-20.419626,-14.345319,18.276012,-0.35367996,-2.4412596,-22.060915,-17.807114,28.19335,-0.1022722,-11.636787,-4.103572,-10.367782
209,5.244638919830322,-115.80157470703125,74.01339721679688,-0.8480333153218388,6.180336331033546,-95.1882496942123,-44.80572,4.947791,1.3517547,43.15683,-13.343587,-3.530794,16.459942,0.23235177,2.6975133,24.179287,-13.20143,0.835533,18.032827,5.5760536,7.8065643,22.782412,29.411592,-20.484278,-14.959332,17.575449,-0.26381123,-2.349826,-21.62553,-17.993864,29.141161,-0.8049123,-11.603995,-4.1686196,-10.03685
210,5.319298267364502,-117.77833557128906,74.32508850097656,-0.87290544540007,6.086587259390957,-94.94845882235525,-43.32825,4.7271643,1.4903722,36.80316,-11.847803,-3.3641806,17.670387,0.035357546,2.0015504,24.15602,-9.632037,1.3927667,18.329144,5.495632,7.3177834,23.115433,29.897154,-20.617245,-15.4713,16.68101,-0.21199867,-2.1643949,-21.119913,-18.22533,30.124924,-1.5409994,-11.808075,-4.224477,-9.694073
211,5.392031192779541,-119.75214385986328,74.60066223144531,-1.0444261361949645,5.906607032083916,-94.78264294218398,-41.66674,4.6847534,1.6762383,30.679657,-10.436034,-3.1000812,18.785452,0.021737779,1.3960572,24.33798,-6.015307,2.120724,18.616264,5.5725126,6.9031944,23.371693,30.352621,-20.785257,-15.90435,15.79057,-0.17680782,-1.9876338,-20.51646,-18.491018,31.07436,-2.3163774,-12.094319,-4.2950277,-9.351557
212,5.447216033935547,-121.72124481201172,74.83621978759766,-1.3245412750059273,5.618817386471284,-94.70190557789473,-39.93037,4.812453,2.0118697,25.222692,-9.083764,-3.0396442,19.828224,0.13262151,0.9523682,24.702406,-2.5073957,3.0040503,18.902979,5.7629485,6.59415,23.559902,30.768385,-20.95134,-16.279577,15.103802,-0.13262811,-1.9216403,-19.7979,-18.772839,31.924036,-3.1216123,-12.311276,-4.4028745,-9.020647
213,5.504203796386719,-123.67530822753906,75.02913665771484,-1.7589286065245988,5.188555961129307,-94.72444554385524,-38.13122,5.2086825,2.5790703,20.529127,-7.7643147,-3.2419012,20.849092,0.35852078,0.6183077,25.241302,1.1086946,4.1710505,19.202963,6.1206627,6.395235,23.681555,31.14076,-21.114105,-16.597982,14.662383,-0.06815848,-2.0155447,-18.97281,-19.057478,32.690765,-3.9485552,-12.471238,-4.568527,-8.701227
214,5.573403835296631,-125.62220001220703,75.1831283569336,-2.3403224076753393,4.6479503597506335,-94.82160225465194,-36.29085,5.829184,3.3129478,16.460222,-6.53554,-3.544036,21.7784,0.7146907,0.39453965,26.03714,4.812645,5.561192,19.48981,6.6384635,6.276152,23.737139,31.46844,-21.285135,-16.844978,14.365975,0.0032991592,-2.2085018,-18.069983,-19.34037,33.408554,-4.775179,-12.642018,-4.776052,-8.387438
215,5.631362438201904,-127.5724868774414,75.31451416015625,-2.9313908683484895,4.088748211179695,-94.92127969406094,-34.5568,6.451308,4.069367,13.130474,-5.512524,-3.8829944,22.440212,1.1313387,0.36508277,27.230219,8.067276,6.853462,19.695303,7.16027,6.215341,23.7278,31.744143,-21.447931,-17.012054,14.199785,0.070799336,-2.4366026,-17.099741,-19.61302,34.034557,-5.575239,-12.751831,-4.991801,-8.083731
216,5.679649829864502,-129.5202178955078,75.42446899414062,-3.3897956467962795,3.606958168024288,-94.95361022507045,-33.08457,6.8653893,4.6861396,10.679643,-4.823368,-4.182267,22.67887,1.5264525,0.5634972,28.914738,10.339944,7.7426934,19.749548,7.5212374,6.194388,23.652962,31.958597,-21.58671,-17.087917,14.150148,0.122753285,-2.6361928,-16.069744,-19.86456,34.52638,-6.3221693,-12.73167,-5.181573,-7.7939773
217,5.730974197387695,-131.4542694091797,75.50425720214844,-3.6906371029867286,3.2128534755178224,-94.89624094952373,-31.974932,7.042773,5.0764694,9.346201,-4.670124,-4.455966,22.406965,1.9002452,0.97092235,31.276144,11.580207,8.090643,19.61783,7.6869397,6.214282,23.52877,32.101677,-21.683949,-17.068068,14.278342,0.16024071,-2.8440511,-14.968965,-20.082031,34.876373,-7.0187144,-12.526283,-5.357761,-7.4829226
218,5.796201705932617,-133.35240173339844,75.53350067138672,-3.875535251149445,2.8783086904200914,-94.76503567596944,-31.225075,7.0699596,5.3141575,9.1607485,-5.0260587,-4.706094,21.711103,2.2448862,1.5010275,34.21555,12.035157,8.078549,19.311987,7.708688,6.278831,23.344952,32.16986,-21.752472,-16.946102,14.573832,0.18520048,-3.0777075,-13.810276,-20.255337,35.117935,-7.6562104,-12.187476,-5.5306087,-7.160561
219,5.863908767700195,-135.19155883789062,75.48514556884766,-3.912127896357221,2.634538590881827,-94.5620610569791,-30.785774,6.923975,5.477144,9.866244,-5.6322923,-4.84299,20.722807,2.4951632,2.094529,37.358616,11.632719,7.899582,18.842585,7.559793,6.375854,23.056925,32.167534,-21.822634,-16.703339,14.909371,0.18942867,-3.2436116,-12.646251,-20.381834,35.270107,-8.181865,-11.8025875,-5.6634507,-6.897445
220,5.942464828491211,-137.0084228515625,75.38074493408203,-3.7720424900266374,2.509721017886371,-94.2947758886234,-30.543266,6.584179,5.6545157,11.070581,-6.1533465,-4.7834234,19.570654,2.602425,2.7093787,40.34599,10.293389,7.756704,18.227547,7.212822,6.4933867,22.64276,32.112965,-21.916693,-16.347063,15.158163,0.16726081,-3.2465196,-11.526652,-20.450264,35.345985,-8.546376,-11.461004,-5.720953,-6.764702
221,6.013799667358398,-138.81320190429688,75.23258972167969,-3.4318491608615704,2.549657998085347,-93.9490106545215,-30.467028,6.036638,5.890821,12.689526,-6.4262066,-4.562162,18.253542,2.623943,3.4348645,43.089214,7.5687637,7.5889034,17.471487,6.6395802,6.6026607,22.056412,31.987509,-22.066135,-15.8455305,15.323582,0.10956015,-3.0218685,-10.420437,-20.491152,35.335,-8.790702,-11.159803,-5.660576,-6.813158
222,6.077513694763184,-140.61712646484375,75.0459976196289,-2.925204442602225,2.7070173792714596,-93.53846789078095,-30.544607,5.3057394,6.149065,14.796095,-6.5820503,-4.221914,16.72993,2.6091259,4.2890286,45.797424,3.6364338,7.315535,16.574612,5.8749256,6.7181406,21.353449,31.802984,-22.23419,-15.2358,15.4580965,0.023741035,-2.6330001,-9.323283,-20.48434,35.240437,-8.918932,-10.858916,-5.5126877,-6.9942355
223,6.186251640319824,-142.3249053955078,74.88118743896484,-2.312657605650268,2.8714306642578324,-93.1157167575917,-30.75174,4.448979,6.3884454,17.36356,-6.7962327,-3.687019,15.070502,2.4784403,5.1127043,48.551464,-0.64071083,7.109259,15.588331,5.016205,6.8878064,20.54437,31.565191,-22.417683,-14.523369,15.519324,-0.07071716,-2.174917,-8.25025,-20.430809,35.0586,-8.903419,-10.584028,-5.3560605,-7.2326927
224,6.293704509735107,-144.03616333007812,74.66695404052734,-1.6595501730454885,2.9372674473220552,-92.73646992232698,-31.07255,3.5329475,6.5599093,20.384005,-7.253498,-2.8737175,13.351439,2.1255207,5.73507,51.402237,-4.399991,7.1623974,14.568077,4.157884,7.1625876,19.640951,31.285069,-22.61203,-13.717606,15.462848,-0.1559657,-1.7425339,-7.212179,-20.334478,34.782333,-8.723421,-10.360111,-5.2677,-7.4527893
225,6.40701961517334,-145.752685546875,74.3948745727539,-0.9589572606042711,2.8728002592209596,-92.4108385479019,-31.612354,2.5284472,6.5570025,24.121403,-7.9350095,-1.6093124,11.660538,1.4668229,6.1123314,54.27643,-7.487025,7.7342377,13.521197,3.288698,7.568585,18.668663,30.964743,-22.814402,-12.820386,15.230602,-0.21880525,-1.3180655,-6.1846337,-20.198795,34.40586,-8.391008,-10.178876,-5.2792163,-7.637332
226,6.527589321136475,-147.4801483154297,74.0701904296875,-0.216689119684233,2.7213505091335026,-92.13103452388805,-32.288956,1.4492178,6.4430947,28.40381,-8.710633,0.0047036326,9.957109,0.57134855,6.3356423,57.155365,-10.338235,8.641181,12.44646,2.394495,8.076243,17.621923,30.603594,-23.023073,-11.839382,14.858671,-0.2738849,-0.8647011,-5.160599,-20.024113,33.931164,-7.9268446,-10.029617,-5.3451486,-7.8247385
227,6.64586877822876,-149.19891357421875,73.69715881347656,0.5144748417526953,2.511446560302735,-91.91065817252628,-32.871056,0.4033001,6.3982,32.680588,-9.660184,1.6656505,8.107567,-0.4724347,6.4533877,60.16016,-12.985691,9.448086,11.370316,1.5232259,8.651126,16.46796,30.212818,-23.234306,-10.794121,14.445895,-0.344245,-0.44731918,-4.181243,-19.812523,33.361343,-7.316089,-9.93699,-5.4266787,-8.021992
228,6.769972324371338,-150.8662109375,73.28560638427734,1.207015557533709,2.283883990782205,-91.7510135271134,-33.17969,-0.515057,6.5792556,36.49988,-10.928218,3.0837955,5.9632506,-1.5815288,6.541867,63.41682,-15.45008,9.7339,10.30973,0.69636685,9.257462,15.177943,29.811237,-23.44335,-9.711411,14.090593,-0.45059097,-0.12945938,-3.2836592,-19.566446,32.693966,-6.5484433,-9.925514,-5.4851236,-8.237108
229,6.890848159790039,-152.52601623535156,72.86322021484375,1.8781186152948723,2.062902360065365,-91.65478272676621,-33.271313,-1.2653924,7.050077,39.947678,-12.708508,4.245096,3.3988776,-2.8102586,6.6061826,67.12388,-17.719172,9.255295,9.261322,-0.11413962,9.896054,13.751617,29.407576,-23.628443,-8.586945,13.731704,-0.5912899,0.04652754,-2.4760625,-19.284876,31.91063,-5.60169,-9.981105,-5.520562,-8.431345
230,7.020062446594238,-154.15040588378906,72.42329406738281,2.5563965309496854,1.8371285582645756,-91.61049691703445,-33.2466,-1.9097359,7.674862,43.27603,-14.932491,5.2988853,0.5144979,-4.1892085,6.6783648,71.140724,-19.784477,8.286781,8.213912,-0.9406107,10.579516,12.2103615,29.004114,-23.790596,-7.425929,13.34085,-0.7560771,0.124701515,-1.7344335,-18.966702,31.01294,-4.497665,-10.09755,-5.549917,-8.614214
231,7.142514705657959,-155.7417449951172,71.96772766113281,3.237156659751818,1.5944556575071613,-91.59582877447205,-33.0133,-2.5209334,8.322595,46.32077,-17.368896,6.196585,-2.5146537,-5.589648,6.8610244,75.09564,-21.671839,7.187618,7.1717367,-1.77153,11.291487,10.559494,28.613617,-23.961874,-6.2743692,13.065874,-0.95093846,0.1733524,-1.0433081,-18.616934,30.022617,-3.2944043,-10.310597,-5.559413,-8.866486
232,7.259230136871338,-157.32559204101562,71.51345825195312,3.9121606726837364,1.3202539098553387,-91.58890607069986,-32.48083,-3.1866302,8.884162,48.905422,-19.767202,6.885716,-5.5220027,-6.8754373,7.2171926,78.630554,-23.397188,6.3289633,6.141831,-2.5936046,12.018226,8.802092,28.255116,-24.176937,-5.182045,13.050926,-1.1818016,0.2633349,-0.37609088,-18.24589,28.957363,-2.0599592,-10.657389,-5.534263,-9.269247
233,7.380938529968262,-158.91207885742188,71.06353759765625,4.637917151973072,0.9691430725873047,-91.60264457012582,-31.546242,-4.001605,9.412285,50.929752,-22.155,7.3167877,-8.492327,-8.117548,7.771059,81.76862,-24.97858,5.7753515,5.143166,-3.4567006,12.82282,6.8946886,27.951159,-24.470144,-4.119171,13.437967,-1.4742067,0.45598736,0.28020555,-17.861074,27.803446,-0.77134764,-11.245215,-5.461101,-9.918355
234,7.4972124099731445,-160.50466918945312,70.63623809814453,5.402876156591797,0.5646748409255783,-91.64177759053112,-30.302221,-4.9200554,9.949374,52.52235,-24.630966,7.5291576,-11.528372,-9.344334,8.474519,84.672195,-26.398453,5.3383627,4.1749454,-4.3637075,13.695282,4.866731,27.70519,-24.810005,-3.1084952,14.109468,-1.8125234,0.70869726,0.93211585,-17.46688,26.544382,0.56766057,-12.019491,-5.3433447,-10.744231
235,7.595156192779541,-162.10191345214844,70.24024200439453,6.094859526423075,0.19235340921366867,-91.67170971241728,-28.937641,-5.811704,10.394651,53.829304,-27.046242,7.6063657,-14.634714,-10.35947,9.2378845,87.1996,-27.612669,5.013809,3.2051725,-5.21919,14.515973,2.8128488,27.502153,-25.13575,-2.2570138,14.816035,-2.1444247,0.9300394,1.5941943,-17.070135,25.201292,1.8502553,-12.771048,-5.1957397,-11.582599
236,7.692385673522949,-163.7161102294922,69.8930892944336,6.594520707273425,-0.0641210562820078,-91.65574717168668,-27.631227,-6.533545,10.652973,54.99728,-29.252295,7.629291,-17.79906,-10.971328,9.94891,89.2001,-28.571592,4.7995267,2.1928806,-5.9168406,15.166655,0.82260007,27.317352,-25.390266,-1.6550677,15.31505,-2.4231293,1.0204221,2.275037,-16.678888,23.80342,2.9757068,-13.290896,-5.042396,-12.2716
237,7.777477741241455,-165.33941650390625,69.58819580078125,6.869822181498952,-0.18214638494418808,-91.61345844921287,-26.41701,-7.023197,10.747958,56.074337,-31.240505,7.5925574,-21.08007,-11.04193,10.637652,90.66403,-29.233232,4.7469134,1.1392113,-6.410613,15.633313,-1.1407826,27.13659,-25.58126,-1.2668102,15.501553,-2.6360388,0.9031864,2.9600568,-16.295527,22.342964,3.9507408,-13.466039,-4.8772235,-12.7787075
238,7.854337215423584,-166.9490509033203,69.32131958007812,6.982167982496888,-0.2098528972393225,-91.5503327982315,-25.193684,-7.3552246,10.733973,56.980827,-33.08337,7.461926,-24.44289,-10.709553,11.288454,91.65609,-29.625193,4.8424773,0.051477984,-6.7480803,15.981303,-3.1145432,26.958199,-25.73881,-1.0438167,15.5279045,-2.8114886,0.6417097,3.6613867,-15.919792,20.81671,4.813522,-13.425223,-4.6973934,-13.189572
239,7.897696018218994,-168.5653839111328,69.10269927978516,6.965146526126399,-0.1700526578087354,-91.40588319860049,-23.935925,-7.5873666,10.563186,57.675617,-34.758987,7.2798405,-27.738976,-10.225182,11.725069,92.14232,-29.807,4.9866657,-1.1086134,-6.959112,16.212355,-5.0425644,26.77868,-25.850344,-1.0245782,15.523789,-2.9664352,0.34321094,4.421424,-15.555661,19.264263,5.5120797,-13.322818,-4.535311,-13.521502
