unveil-humanoid-operators/unveil-humanoid-operators.github.io/feature-analysis-animation/data/feature_matrix_instances/age_waist_rom_jogging_A167_jog_ff_start_180_R_002__A167.csv
Frame,root_translateX,root_translateY,root_translateZ,root_rotateX,root_rotateY,root_rotateZ,left_hip_pitch_joint_dof,left_hip_roll_joint_dof,left_hip_yaw_joint_dof,left_knee_joint_dof,left_ankle_pitch_joint_dof,left_ankle_roll_joint_dof,right_hip_pitch_joint_dof,right_hip_roll_joint_dof,right_hip_yaw_joint_dof,right_knee_joint_dof,right_ankle_pitch_joint_dof,right_ankle_roll_joint_dof,waist_yaw_joint_dof,waist_roll_joint_dof,waist_pitch_joint_dof,left_shoulder_pitch_joint_dof,left_shoulder_roll_joint_dof,left_shoulder_yaw_joint_dof,left_elbow_joint_dof,left_wrist_roll_joint_dof,left_wrist_pitch_joint_dof,left_wrist_yaw_joint_dof,right_shoulder_pitch_joint_dof,right_shoulder_roll_joint_dof,right_shoulder_yaw_joint_dof,right_elbow_joint_dof,right_wrist_roll_joint_dof,right_wrist_pitch_joint_dof,right_wrist_yaw_joint_dof
0,0.06606338173151016,-2.0382063388824463,78.29598236083984,-0.08710794012754332,-1.6975881807819273,91.91484552223275,0.031394858,5.12662,2.9594972,9.572926,-9.180869,-5.848745,1.196319,-3.9227674,-1.557933,9.989661,-10.198729,5.1986666,-1.5194837,-0.08320959,6.868002,2.4991407,11.839338,-19.867174,59.971313,17.20925,0.51423234,4.1513834,-2.7324357,-14.352899,39.631702,64.326675,-21.590689,-3.4542797,-9.532433
1,0.0664992406964302,-2.0305325984954834,78.29651641845703,-0.09010135086585333,-1.7265169038473034,91.90050938358165,0.08694199,5.136517,2.973257,9.558167,-9.188349,-5.8503666,1.2446215,-3.9112086,-1.5352247,9.971246,-10.197655,5.206894,-1.5347391,-0.09345462,6.9124475,2.4918873,11.832249,-20.018986,59.989754,17.133297,0.63684183,4.513557,-2.7274182,-14.371518,39.631866,64.29489,-21.5978,-3.4528675,-9.475246
2,0.0661352276802063,-2.023176431655884,78.29558563232422,-0.0930136770227672,-1.7574380749527754,91.88613702124458,0.14520094,5.146781,2.9869573,9.542705,-9.195631,-5.8516736,1.2969195,-3.8991406,-1.5113068,9.949147,-10.194869,5.2162595,-1.5329903,-0.10035151,6.955217,2.4683144,11.819452,-20.19707,60.02564,17.047424,0.76170003,4.8825397,-2.7164814,-14.387896,39.60845,64.26947,-21.610985,-3.454339,-9.414017
3,0.07439126819372177,-2.004456043243408,78.29667663574219,-0.09491368461206061,-1.784315792222043,91.87184260817594,0.19856709,5.155992,3.00093,9.527393,-9.202651,-5.853535,1.3412702,-3.8885367,-1.4897087,9.934288,-10.19529,5.2234306,-1.5259768,-0.10609861,6.991984,2.4382594,11.80203,-20.378183,60.07041,16.96419,0.882725,5.2474375,-2.7057235,-14.402403,39.585278,64.25004,-21.624235,-3.4548526,-9.362407
4,0.08052317053079605,-1.9877138137817383,78.29863739013672,-0.09641382071438444,-1.8011903341357043,91.85804874669618,0.23824078,5.163093,3.0152955,9.514817,-9.209964,-5.856926,1.3695934,-3.8812304,-1.4743317,9.92936,-10.199694,5.2250853,-1.5289879,-0.11351495,7.019159,2.4192898,11.787753,-20.53669,60.10545,16.894463,0.99360764,5.5949383,-2.7057588,-14.410621,39.58978,64.24084,-21.63026,-3.4524887,-9.333977
5,0.08073750138282776,-1.9791502952575684,78.29883575439453,-0.09603455524883082,-1.8037688671921173,91.8440167007233,0.26006463,5.167254,3.0317,9.5027685,-9.215959,-5.8632617,1.3725557,-3.8786976,-1.467461,9.943059,-10.211476,5.2181573,-1.5221381,-0.12033565,7.029744,2.3967385,11.773337,-20.69115,60.14377,16.842077,1.0845175,5.9094687,-2.7046764,-14.417089,39.60949,64.23883,-21.629457,-3.4451864,-9.34033
6,0.07787243276834488,-1.9712978601455688,78.297119140625,-0.09518247133298963,-1.7961719957871451,91.8299227093311,0.26765427,5.169667,3.0492887,9.494107,-9.222715,-5.871719,1.3577279,-3.8792965,-1.4667652,9.969767,-10.228511,5.205127,-1.509546,-0.12609804,7.028688,2.372972,11.758008,-20.841007,60.18311,16.802502,1.1614022,6.20085,-2.702178,-14.422538,39.64211,64.23948,-21.622458,-3.434304,-9.3711405
7,0.07706795632839203,-1.961820363998413,78.29659271240234,-0.09403052152957182,-1.7848101035857198,91.81713414343,0.26993287,5.1704116,3.0654604,9.486305,-9.229134,-5.8795943,1.3371884,-3.8815613,-1.468415,10.000059,-10.247348,5.1910477,-1.4985718,-0.13183047,7.022381,2.3480701,11.740737,-20.994402,60.227135,16.756119,1.2449841,6.5043907,-2.7006543,-14.427573,39.680656,64.24215,-21.614746,-3.4235435,-9.40841
8,0.07803988456726074,-1.950718879699707,78.2953872680664,-0.09196284676056567,-1.7761293531902695,91.80700116361213,0.27503628,5.1700015,3.0775347,9.478539,-9.234967,-5.884235,1.3212326,-3.884162,-1.4684434,10.027977,-10.26619,5.1810374,-1.495269,-0.1394615,7.018,2.320959,11.721277,-21.158411,60.279613,16.683985,1.3550495,6.854569,-2.7000282,-14.431979,39.7162,64.24219,-21.612574,-3.4168108,-9.433673
9,0.07748007774353027,-1.9380139112472534,78.29374694824219,-0.08819042360422379,-1.7718388064447101,91.80021852279422,0.2848976,5.1680393,3.0842786,9.471497,-9.240328,-5.8841305,1.3120611,-3.8869557,-1.465935,10.0532255,-10.284938,5.175262,-1.5028911,-0.15030608,7.017504,2.2953224,11.700838,-21.342459,60.344437,16.57499,1.484406,7.290873,-2.7007284,-14.43509,39.748756,64.237526,-21.619116,-3.4161663,-9.442267
10,0.07625018805265427,-1.9251246452331543,78.29289245605469,-0.08480364248288953,-1.7685691026075006,91.79604214053356,0.29540867,5.1643586,3.0874186,9.464569,-9.244684,-5.880924,1.3040259,-3.8905306,-1.4629653,10.079058,-10.304387,5.1713834,-1.5105051,-0.1624007,7.0155573,2.263331,11.676574,-21.549963,60.42634,16.43806,1.6262761,7.7865057,-2.6986976,-14.437412,39.775345,64.23061,-21.631441,-3.4192834,-9.444337
11,0.07912880182266235,-1.912935495376587,78.29268646240234,-0.08040367494597789,-1.7649979604963244,91.79348301162393,0.30505967,5.159625,3.088236,9.457887,-9.249213,-5.8767834,1.2971908,-3.8947875,-1.4600929,10.103058,-10.324424,5.1707644,-1.5260302,-0.17603315,7.0146346,2.2336998,11.654254,-21.746801,60.498432,16.293001,1.8004066,8.270539,-2.7001626,-14.438737,39.80263,64.22305,-21.645376,-3.4234412,-9.441674
12,0.07901619374752045,-1.9049022197723389,78.29051208496094,-0.07596971158764632,-1.759740167360375,91.7917142798477,0.3131199,5.154298,3.0881863,9.45045,-9.254819,-5.8736997,1.2939711,-3.8994923,-1.4581898,10.116745,-10.340912,5.1747074,-1.5350698,-0.18687917,7.0116334,2.1933947,11.628404,-21.932146,60.55896,16.150389,2.0287461,8.678704,-2.69738,-14.439707,39.815395,64.2155,-21.658804,-3.4256625,-9.4376745
13,0.07965881377458572,-1.8923524618148804,78.28948211669922,-0.07145868965395605,-1.751213869912753,91.79120274959604,0.31797007,5.147253,3.0861614,9.440811,-9.261881,-5.8721423,1.2924218,-3.9057832,-1.4575903,10.122255,-10.356859,5.187746,-1.5486137,-0.19696033,7.0085487,2.1425164,11.600787,-22.09631,60.587776,16.002909,2.3791213,8.994982,-2.697622,-14.440747,39.821396,64.20799,-21.669662,-3.4254768,-9.430603
14,0.07998457551002502,-1.8789079189300537,78.28802490234375,-0.06578657497596768,-1.7405658772811907,91.79215563903082,0.32091495,5.138571,3.081921,9.429303,-9.269647,-5.8710055,1.2928591,-3.9131489,-1.457929,10.120533,-10.371733,5.207782,-1.5577013,-0.20362628,7.0022383,2.072219,11.562947,-22.25996,60.610645,15.84353,2.8203735,9.258243,-2.6945336,-14.442625,39.812706,64.20055,-21.681467,-3.4241726,-9.420326
15,0.07696578651666641,-1.8717470169067383,78.28790283203125,-0.06166321031258242,-1.7305740549405317,91.79338475841317,0.32331637,5.1309175,3.078024,9.4206915,-9.278263,-5.8702106,1.2958611,-3.9197114,-1.4583011,10.1151705,-10.3844385,5.226241,-1.5721639,-0.20952936,6.9976745,2.0151663,11.530217,-22.388,60.6235,15.706026,3.222234,9.468369,-2.693731,-14.444787,39.80717,64.193565,-21.69149,-3.422121,-9.408844
16,0.07553078234195709,-1.8585484027862549,78.2874984741211,-0.05930539930217394,-1.7238406675909603,91.79346972153748,0.3283088,5.126635,3.0772989,9.415671,-9.285454,-5.869611,1.3020266,-3.9232647,-1.4578664,10.109727,-10.393767,5.2345476,-1.5750142,-0.21045122,6.991931,1.9732125,11.499486,-22.484804,60.65949,15.614334,3.4565866,9.632761,-2.6851647,-14.4473915,39.793617,64.18897,-21.703222,-3.4194622,-9.399577
17,0.07787784188985825,-1.8440141677856445,78.28905487060547,-0.05940097860129859,-1.7227693215683169,91.79147038221352,0.3372082,5.1275425,3.0817113,9.4178915,-9.291481,-5.869408,1.31315,-3.9221425,-1.4554996,10.104129,-10.397213,5.2263627,-1.586946,-0.21287332,6.9954214,1.9813118,11.491623,-22.510866,60.690525,15.59197,3.4620636,9.751799,-2.683502,-14.448403,39.790882,64.1871,-21.718996,-3.416215,-9.390378
18,0.07596161216497421,-1.83181893825531,78.28961944580078,-0.06232679549996377,-1.724779492901753,91.78744355851892,0.34828416,5.132903,3.0900588,9.424825,-9.296635,-5.869669,1.3279735,-3.9169958,-1.4513297,10.096348,-10.395861,5.207517,-1.5639387,-0.20577812,6.986727,1.9817908,11.477476,-22.55253,60.772446,15.590264,3.3201165,9.839777,-2.6571221,-14.45084,39.763885,64.18823,-21.733883,-3.4112663,-9.385092
19,0.07415832579135895,-1.8207910060882568,78.28828430175781,-0.065322887594364,-1.7270507988291786,91.78456304319488,0.35839823,5.138008,3.0978706,9.434471,-9.302984,-5.869866,1.3426895,-3.9124393,-1.4484,10.090638,-10.395998,5.1881285,-1.5482306,-0.19998048,6.98077,2.0051582,11.4734745,-22.547571,60.83835,15.625824,3.1051626,9.860471,-2.637995,-14.45222,39.745632,64.19401,-21.74214,-3.4067495,-9.381616
20,0.07378809154033661,-1.810637354850769,78.28816223144531,-0.0653421149149161,-1.726640689936357,91.78464022292724,0.36564013,5.139845,3.1020458,9.4414835,-9.310275,-5.869754,1.3544552,-3.9114275,-1.4486582,10.087377,-10.401698,5.178026,-1.5261755,-0.19669186,6.973024,2.0229406,11.471103,-22.510635,60.898293,15.690354,2.8921728,9.795331,-2.6130898,-14.454805,39.716976,64.19535,-21.748446,-3.4038835,-9.380959
21,0.07491228729486465,-1.8000088930130005,78.28665924072266,-0.06297888745260662,-1.7220707797500518,91.78980874575386,0.3685674,5.1358843,3.1005204,9.444289,-9.318743,-5.8686104,1.3613544,-3.9172769,-1.4553815,10.089955,-10.4176855,5.1829963,-1.5103908,-0.19547747,6.9643226,2.048417,11.4731,-22.406418,60.93327,15.801749,2.6717112,9.586821,-2.593645,-14.45919,39.693333,64.19848,-21.738434,-3.404699,-9.384832
22,0.07444615662097931,-1.7881546020507812,78.2862548828125,-0.05882774219341603,-1.7152063601950396,91.79847524975261,0.36861333,5.1285486,3.095555,9.445855,-9.328623,-5.8668203,1.3661066,-3.9270568,-1.4665834,10.0953,-10.439716,5.196574,-1.5072994,-0.19622022,6.953435,2.094827,11.482707,-22.235882,60.944424,15.955978,2.41247,9.263517,-2.5818467,-14.465435,39.68871,64.20567,-21.710087,-3.407083,-9.393254
23,0.07389138638973236,-1.773188829421997,78.28609466552734,-0.05343645689626806,-1.7073247061651333,91.80729207869814,0.36711913,5.1209087,3.0895998,9.448374,-9.339739,-5.865551,1.3686857,-3.9368124,-1.4765968,10.102574,-10.462569,5.210884,-1.5062444,-0.19807783,6.9427214,2.1459181,11.496816,-22.06347,60.945316,16.1067,2.160967,8.934283,-2.5712652,-14.470911,39.68938,64.212776,-21.679241,-3.4083178,-9.403091
24,0.07050393521785736,-1.7605992555618286,78.2857666015625,-0.05050881867255676,-1.699977330309287,91.81319989077993,0.36575776,5.116238,3.0850763,9.454223,-9.352692,-5.8659277,1.3719475,-3.9415653,-1.4800739,10.106113,-10.478841,5.217883,-1.5157543,-0.20248683,6.9387064,2.199449,11.516499,-21.921406,60.935863,16.220768,1.9624611,8.702175,-2.5681386,-14.4765835,39.702366,64.21712,-21.657364,-3.4058144,-9.40985
25,0.06711684167385101,-1.752518892288208,78.28318786621094,-0.050843266451474224,-1.693158506479062,91.81446105254474,0.3639584,5.1159415,3.082847,9.465702,-9.368163,-5.8700147,1.3732581,-3.9386048,-1.4715438,10.108127,-10.486362,5.2147098,-1.5164219,-0.20602587,6.9373403,2.232843,11.532786,-21.855526,60.943794,16.287409,1.8262868,8.607493,-2.5610485,-14.480005,39.70636,64.217575,-21.655184,-3.3962772,-9.414176
26,0.0674881562590599,-1.7377631664276123,78.28192138671875,-0.052193600500852325,-1.6865015914415122,91.81348614872715,0.36149317,5.1182976,3.0811584,9.480728,-9.385749,-5.8765955,1.3748078,-3.9308407,-1.4557453,10.105837,-10.486641,5.2058997,-1.5157273,-0.20894085,6.9399757,2.2585604,11.547809,-21.827515,60.9541,16.330725,1.7298027,8.589377,-2.5552664,-14.48236,39.707844,64.21607,-21.66472,-3.381605,-9.417078
27,0.06775038689374924,-1.7217758893966675,78.28245544433594,-0.0538724808478232,-1.6800409244575711,91.8118735868618,0.36019057,5.120635,3.0799115,9.494709,-9.40319,-5.88191,1.3750478,-3.9231784,-1.4406133,10.107343,-10.489102,5.194656,-1.5122826,-0.20957175,6.942347,2.27417,11.5552225,-21.821428,60.969196,16.342962,1.6739658,8.61456,-2.5502522,-14.483319,39.70731,64.21921,-21.67768,-3.3682091,-9.418959
28,0.06978756934404373,-1.7066283226013184,78.28288269042969,-0.05363176383196496,-1.6736222463008128,91.81151288987753,0.3601801,5.12123,3.0783656,9.505714,-9.419515,-5.882296,1.3753031,-3.9202397,-1.4347172,10.11362,-10.498492,5.1840696,-1.5068206,-0.21333802,6.9447274,2.287064,11.565597,-21.815908,60.97419,16.31597,1.6569333,8.643751,-2.5431957,-14.484718,39.705765,64.22226,-21.685535,-3.3626847,-9.4186125
29,0.06780575215816498,-1.6972644329071045,78.28206634521484,-0.05282875198832271,-1.6678524685120686,91.81366614319695,0.36301434,5.1186476,3.0757308,9.510989,-9.433466,-5.8740745,1.3759316,-3.92484,-1.4435817,10.127755,-10.518865,5.1727424,-1.4981896,-0.22000587,6.946298,2.2899377,11.577851,-21.814243,60.97171,16.217941,1.7026546,8.685221,-2.533609,-14.486489,39.70444,64.22796,-21.681852,-3.370028,-9.415753
30,0.06768103688955307,-1.6822209358215332,78.28271484375,-0.05113138633110303,-1.6625827391744235,91.81706777913908,0.36689532,5.114295,3.0724277,9.514665,-9.447009,-5.8601494,1.3744928,-3.9340956,-1.4614431,10.151876,-10.548447,5.1597996,-1.489559,-0.22741994,6.9482656,2.28471,11.585298,-21.819616,60.964504,16.065592,1.8037105,8.753315,-2.5245354,-14.487786,39.70503,64.237206,-21.672762,-3.3851345,-9.410827
31,0.06507564336061478,-1.665387511253357,78.28209686279297,-0.04884589891155397,-1.6570314245340794,91.82004053765246,0.37261435,5.1099625,3.070301,9.514326,-9.458701,-5.8465486,1.3751822,-3.9438727,-1.4803227,10.171779,-10.576842,5.1491013,-1.4799428,-0.23359345,6.948891,2.2764425,11.591354,-21.827238,60.95921,15.914495,1.9116298,8.821615,-2.5153806,-14.4889765,39.706074,64.24778,-21.664104,-3.4015465,-9.404732
32,0.06460032612085342,-1.6508469581604004,78.28163146972656,-0.04793825587130997,-1.6504223404929594,91.82096020187385,0.37836656,5.107654,3.071014,9.513427,-9.470069,-5.839361,1.3776386,-3.9500835,-1.491865,10.183169,-10.599065,5.1446085,-1.4684325,-0.23692343,6.9471154,2.2720876,11.596987,-21.83436,60.958622,15.818321,1.9792188,8.86378,-2.5061748,-14.490181,39.70718,64.25734,-21.66117,-3.4120576,-9.3990135
33,0.06613282859325409,-1.6364349126815796,78.28019714355469,-0.04777919396492474,-1.6424080782998414,91.81942152640528,0.38503948,5.108105,3.07575,9.509072,-9.479016,-5.8416853,1.3858074,-3.9512625,-1.4935894,10.176643,-10.609951,5.1494308,-1.4564774,-0.2372711,6.9423237,2.2750192,11.605621,-21.838573,60.960514,15.798585,2.0001361,8.869344,-2.4964442,-14.491895,39.709087,64.2643,-21.66996,-3.4148562,-9.39171
34,0.06402520835399628,-1.6209694147109985,78.27867126464844,-0.04763651237963725,-1.6334013647849033,91.81616736183626,0.39313003,5.110059,3.0835068,9.500779,-9.485656,-5.849707,1.3963125,-3.9500027,-1.4897691,10.161168,-10.615166,5.1608887,-1.4453036,-0.23447731,6.936543,2.280163,11.610472,-21.83831,60.96466,15.826491,1.9981649,8.853954,-2.4893565,-14.492737,39.712246,64.27208,-21.686605,-3.4134135,-9.382753
35,0.06355856359004974,-1.6047385931015015,78.27654266357422,-0.04833605806668191,-1.624192906248434,91.81169806950345,0.40175346,5.1128635,3.0923433,9.491955,-9.492603,-5.8594537,1.4079683,-3.9473267,-1.483286,10.141716,-10.617638,5.173766,-1.4372668,-0.23182902,6.9309554,2.2958052,11.620879,-21.828917,60.962788,15.879841,1.9683625,8.824368,-2.48166,-14.494282,39.719982,64.27443,-21.699926,-3.4096553,-9.3753605
36,0.0626116544008255,-1.5894379615783691,78.27572631835938,-0.04839932370721423,-1.6153448819250922,91.8064712025054,0.41109073,5.1150475,3.100473,9.481719,-9.499145,-5.8667927,1.416508,-3.9452229,-1.476854,10.127948,-10.622003,5.183099,-1.423072,-0.2252835,6.9260683,2.3042955,11.624906,-21.821945,60.975048,15.932442,1.9100869,8.796342,-2.4772434,-14.494787,39.721375,64.28206,-21.702517,-3.4059613,-9.37341
37,0.06259207427501678,-1.5746632814407349,78.27507781982422,-0.049489429563411784,-1.607847789608678,91.79873308193277,0.4224208,5.1172967,3.1087441,9.470246,-9.506124,-5.871087,1.4222666,-3.9428272,-1.4689535,10.120288,-10.628304,5.186917,-1.4134666,-0.22058961,6.928158,2.3274214,11.638543,-21.782917,60.98455,16.007746,1.7872735,8.760122,-2.476297,-14.496314,39.7226,64.28301,-21.692257,-3.403141,-9.37532
38,0.05934162065386772,-1.5603655576705933,78.27362060546875,-0.050660503720384324,-1.6007124193677051,91.78920413310463,0.4347615,5.1196494,3.117286,9.457646,-9.513251,-5.874323,1.4252756,-3.9403355,-1.459169,10.116643,-10.635222,5.1882253,-1.4054017,-0.21601392,6.9346294,2.3608148,11.659718,-21.730879,60.98951,16.099482,1.6189824,8.717732,-2.480222,-14.498329,39.72407,64.282585,-21.672081,-3.399766,-9.380943
39,0.05921625345945358,-1.544909954071045,78.27306365966797,-0.05122776349928974,-1.5931364847169136,91.78050204863236,0.44622847,5.121459,3.124909,9.445108,-9.520334,-5.876612,1.4272555,-3.9381316,-1.4505006,10.114386,-10.642762,5.1889477,-1.3810343,-0.20436516,6.9310837,2.372713,11.663815,-21.714794,61.02226,16.171434,1.4593443,8.679644,-2.4774609,-14.498667,39.7197,64.29023,-21.641466,-3.3948133,-9.393138
40,0.05560648813843727,-1.531579852104187,78.27357482910156,-0.05089743136321897,-1.584602463663813,91.77470946449428,0.456171,5.121666,3.131001,9.43296,-9.526675,-5.8781586,1.4293746,-3.9381907,-1.4452304,10.112578,-10.651206,5.191056,-1.3818525,-0.20547135,6.9431715,2.3981438,11.687514,-21.649792,61.01266,16.246431,1.3471699,8.617678,-2.484911,-14.500513,39.72304,64.27959,-21.623615,-3.3924158,-9.400497
41,0.05406349152326584,-1.5186488628387451,78.27294158935547,-0.05047156524024111,-1.574675780019424,91.77373580358345,0.4632192,5.1201034,3.1341088,9.422999,-9.532951,-5.878647,1.4314156,-3.9404647,-1.445761,10.112414,-10.661464,5.194085,-1.3789685,-0.20626938,6.947611,2.406533,11.702084,-21.629732,61.003086,16.264002,1.324361,8.576147,-2.4893713,-14.501492,39.73634,64.271484,-21.594257,-3.3882067,-9.413772
42,0.05301446095108986,-1.503637671470642,78.27342987060547,-0.04916737928288697,-1.563910464314542,91.77572055806884,0.4671141,5.1175294,3.1351283,9.4167,-9.540386,-5.8782296,1.431827,-3.9444618,-1.4497811,10.116242,-10.673996,5.1973724,-1.38095,-0.21045956,6.952794,2.4096713,11.718562,-21.619347,60.984024,16.253502,1.3533496,8.540193,-2.4940207,-14.50226,39.757347,64.257195,-21.558655,-3.3836114,-9.429648
43,0.05284137278795242,-1.4879337549209595,78.27421569824219,-0.046912486094808,-1.5518213313885618,91.77878359903843,0.47049415,5.113674,3.135701,9.407949,-9.546036,-5.8772893,1.4325732,-3.9495587,-1.4550055,10.117139,-10.6854515,5.2024517,-1.3773404,-0.21325757,6.954956,2.402434,11.729103,-21.607693,60.96989,16.244093,1.3943993,8.471124,-2.4963946,-14.502688,39.77068,64.245026,-21.53104,-3.3798583,-9.446155
44,0.05121968686580658,-1.4733320474624634,78.27403259277344,-0.04444890580396143,-1.537950286279403,91.78120551359001,0.4724253,5.1088586,3.1370196,9.397085,-9.550202,-5.8764014,1.4332049,-3.9553154,-1.4589489,10.111883,-10.693885,5.2109566,-1.3709166,-0.21553428,6.9555564,2.3987658,11.741004,-21.566462,60.950718,16.266449,1.4059278,8.324056,-2.4973297,-14.503327,39.77624,64.23437,-21.519218,-3.3780165,-9.460588
45,0.048677798360586166,-1.458850383758545,78.2743148803711,-0.040808771641100396,-1.5211707304441298,91.78274617181917,0.47312894,5.102435,3.1396592,9.381163,-9.551525,-5.875579,1.4339068,-3.9620829,-1.4611437,10.096798,-10.69812,5.2266006,-1.3667367,-0.21792185,6.957385,2.4072132,11.758793,-21.463308,60.912834,16.34646,1.373075,8.05049,-2.4989903,-14.504403,39.772144,64.22271,-21.536667,-3.3796213,-9.469554
46,0.048040736466646194,-1.4440768957138062,78.27350616455078,-0.036059769070601974,-1.5020982714572342,91.78425774562385,0.4723632,5.094434,3.1429453,9.361529,-9.550249,-5.874627,1.4348199,-3.9700046,-1.4628072,10.074317,-10.69913,5.247429,-1.361891,-0.21956925,6.9582415,2.4200323,11.777869,-21.324219,60.86426,16.458788,1.3193598,7.6872606,-2.500096,-14.50554,39.76071,64.211845,-21.573763,-3.383452,-9.475988
47,0.04542221501469612,-1.4277722835540771,78.27310943603516,-0.0317976669460113,-1.4827712159948014,91.7855933031723,0.47157353,5.086273,3.1460142,9.341376,-9.548484,-5.873585,1.4348812,-3.977903,-1.464176,10.052882,-10.700136,5.266566,-1.3579487,-0.22129975,6.958962,2.4323585,11.796537,-21.178967,60.81717,16.576183,1.2577364,7.3113227,-2.503161,-14.506778,39.749268,64.20279,-21.61186,-3.3874803,-9.482686
48,0.03852882236242294,-1.4160840511322021,78.27223205566406,-0.028309806807315072,-1.4654381767841853,91.78674809649294,0.47153762,5.07939,3.1478693,9.325651,-9.54965,-5.872483,1.4355066,-3.9844255,-1.4657841,10.036009,-10.701689,5.277138,-1.354203,-0.22164336,6.961061,2.4394972,11.811604,-21.0627,60.78211,16.669226,1.2033277,7.0005403,-2.5075438,-14.507591,39.742,64.19348,-21.633596,-3.3893142,-9.492435
49,0.034255944192409515,-1.4024052619934082,78.27235412597656,-0.027190067748136763,-1.451130316297666,91.78772759695626,0.47374877,5.073908,3.147855,9.313317,-9.552547,-5.8717446,1.4353212,-3.989073,-1.4676762,10.029307,-10.705297,5.2743483,-1.3499963,-0.2211648,6.964431,2.4373558,11.822818,-20.983963,60.766605,16.73096,1.1569132,6.7724085,-2.5160637,-14.508357,39.74064,64.188034,-21.627636,-3.3889637,-9.507368
50,0.03171290084719658,-1.3844926357269287,78.27247619628906,-0.026314837181993483,-1.43872726672534,91.78913141791143,0.47662398,5.0692315,3.1459217,9.3045025,-9.557411,-5.8711658,1.4360605,-3.9926965,-1.4703567,10.026259,-10.708717,5.2629285,-1.3460499,-0.21818225,6.9700537,2.4338388,11.82983,-20.926935,60.756332,16.77775,1.1130977,6.586851,-2.5272896,-14.508983,39.740692,64.18352,-21.606663,-3.3870544,-9.524997
51,0.030488576740026474,-1.3687596321105957,78.27137756347656,-0.026513125924064358,-1.4266945539743268,91.79012388066887,0.48056078,5.065013,3.1443157,9.295247,-9.562423,-5.8700557,1.4368261,-3.9957151,-1.4726591,10.024406,-10.712757,5.250007,-1.3584845,-0.21851775,6.981892,2.4396462,11.841422,-20.854004,60.73671,16.824087,1.0719044,6.4284267,-2.548311,-14.509942,39.754066,64.176476,-21.58756,-3.3840306,-9.540902
52,0.026133274659514427,-1.3565878868103027,78.27155303955078,-0.02530123382495845,-1.4127856377286385,91.78955705004452,0.48356825,5.061655,3.1449134,9.2852745,-9.567986,-5.8677497,1.4388849,-3.9984279,-1.4737287,10.01568,-10.715354,5.2428856,-1.3601326,-0.21872407,6.9868317,2.4375072,11.8498745,-20.806938,60.728752,16.853485,1.0408415,6.298307,-2.5596642,-14.510156,39.76199,64.16828,-21.582113,-3.378734,-9.556534
53,0.025209655985236168,-1.3416138887405396,78.27204132080078,-0.02431564018170257,-1.3965866521338215,91.7875916503748,0.48560637,5.059267,3.1483638,9.274342,-9.5744295,-5.862519,1.4428706,-4.000882,-1.4733794,9.998319,-10.716718,5.244077,-1.356568,-0.22097223,6.9877896,2.4324398,11.858134,-20.749264,60.718964,16.878782,1.022739,6.1342354,-2.5635247,-14.509724,39.76502,64.15632,-21.607273,-3.370637,-9.567842
54,0.024723220616579056,-1.3237348794937134,78.27133178710938,-0.02235993854719743,-1.3791512684200167,91.78437291622363,0.486501,5.0581527,3.153719,9.264639,-9.58247,-5.8553104,1.4480036,-4.0026975,-1.4718215,9.976088,-10.717542,5.249507,-1.3547488,-0.22484373,6.9878287,2.4290066,11.867548,-20.67977,60.70495,16.900597,1.0142416,5.9581237,-2.5661194,-14.508333,39.770363,64.14216,-21.65081,-3.3604314,-9.5762005
55,0.023317411541938782,-1.3045142889022827,78.2714614868164,-0.02007271880648112,-1.3611667675828756,91.78060004796727,0.4871925,5.0569434,3.1594713,9.254699,-9.590757,-5.849108,1.4525877,-4.004567,-1.4701004,9.953727,-10.71869,5.2565565,-1.3485022,-0.226812,6.984338,2.4203377,11.870841,-20.662472,60.70767,16.90078,1.0098816,5.8891706,-2.5663464,-14.507502,39.773937,64.129745,-21.689507,-3.3488765,-9.587124
56,0.020323511213064194,-1.287848949432373,78.27144622802734,-0.01867555561527145,-1.3438256706452494,91.77675152011473,0.49025702,5.0545673,3.1643622,9.240375,-9.59604,-5.847067,1.4550965,-4.0070305,-1.469039,9.936518,-10.72161,5.26253,-1.3698624,-0.2345659,6.9934344,2.421018,11.87751,-20.683065,60.71693,16.895317,0.9966431,6.0292716,-2.5858042,-14.504956,39.79424,64.11554,-21.709568,-3.3380783,-9.600981
57,0.015521357767283916,-1.274488091468811,78.27044677734375,-0.016184990309005335,-1.32736163295368,91.7730023458892,0.49692696,5.0492625,3.167723,9.21968,-9.598051,-5.8519053,1.4543554,-4.0114646,-1.4702466,9.926722,-10.727619,5.267445,-1.3962283,-0.24475957,6.9995937,2.4329016,11.886336,-20.863672,60.754856,16.828571,0.9684033,6.548305,-2.613245,-14.4982605,39.827545,64.1107,-21.67803,-3.3256054,-9.627397
58,0.012410765513777733,-1.2615623474121094,78.26995849609375,-0.01248462500601647,-1.311610434002309,91.76900357024724,0.5062752,5.0424447,3.1702783,9.194569,-9.597662,-5.861394,1.4511062,-4.0173097,-1.4727613,9.92324,-10.736872,5.272517,-1.4165511,-0.25643373,7.0092983,2.4324927,11.891032,-21.156242,60.829777,16.729937,0.92839706,7.3395033,-2.6395702,-14.489402,39.84537,64.10271,-21.629412,-3.3127863,-9.658818
59,0.012032708153128624,-1.2412664890289307,78.26972961425781,-0.010375155663095239,-1.2948506530270096,91.76474332133199,0.5130182,5.036472,3.1729274,9.172399,-9.597974,-5.8709064,1.4456419,-4.0220504,-1.4735718,9.921884,-10.7458,5.2768316,-1.4272069,-0.26605988,7.016801,2.4198973,11.891493,-21.465866,60.91211,16.625446,0.90190005,8.1293745,-2.662176,-14.480144,39.85236,64.0975,-21.583706,-3.3012054,-9.692567
60,0.009681005962193012,-1.2220003604888916,78.27012634277344,-0.009575164086926165,-1.2755344530049368,91.76012110599058,0.5132238,5.03415,3.1766076,9.159374,-9.602028,-5.8757634,1.4398583,-4.023651,-1.4697449,9.916108,-10.74976,5.2796173,-1.4276594,-0.2703516,7.0193324,2.3970351,11.889199,-21.6896,60.9691,16.546026,0.9145322,8.642795,-2.6779375,-14.4719095,39.852825,64.095116,-21.563398,-3.292796,-9.724212
61,0.0061378078535199165,-1.204613208770752,78.27024841308594,-0.012757981961740146,-1.252108246926358,91.75511650862236,0.5020869,5.036885,3.181593,9.161744,-9.611976,-5.8733034,1.4310185,-4.020687,-1.458021,9.907499,-10.748028,5.2809577,-1.4238032,-0.26834783,7.015901,2.3674912,11.886275,-21.775757,60.977966,16.498787,0.9947756,8.754371,-2.6915567,-14.467115,39.856445,64.09991,-21.581055,-3.2895143,-9.751905
62,0.0023285499773919582,-1.187639832496643,78.2708969116211,-0.018572726195212528,-1.225831104278929,91.74972262215671,0.48530126,5.0426745,3.1876469,9.169945,-9.623261,-5.866474,1.4203085,-4.014942,-1.4407461,9.896379,-10.74164,5.281234,-1.4169832,-0.26266885,7.0083904,2.3395832,11.884958,-21.783869,60.950405,16.469357,1.1216027,8.6283045,-2.6999106,-14.465917,39.860653,64.1045,-21.622568,-3.2895322,-9.777269
63,-0.0006881341687403619,-1.166756272315979,78.27375793457031,-0.024196232392520226,-1.1991663082422857,91.74407764003406,0.46560037,5.050045,3.1940281,9.183848,-9.637738,-5.859128,1.4095982,-4.007796,-1.4232794,9.884872,-10.734817,5.2798533,-1.4059108,-0.2550413,6.9978304,2.2982292,11.87997,-21.772554,60.929886,16.448784,1.2510521,8.421,-2.7091186,-14.462541,39.87082,64.115135,-21.657528,-3.2889225,-9.806493
64,-0.0016278947005048394,-1.1492406129837036,78.27484893798828,-0.02889754546162985,-1.1749738487362438,91.73846047726092,0.45618057,5.055162,3.2010562,9.1829815,-9.646454,-5.8547797,1.4021289,-4.00302,-1.4107689,9.874337,-10.731259,5.2765203,-1.4015481,-0.25106898,6.991117,2.2766783,11.877711,-21.768055,60.909966,16.456383,1.3311641,8.287188,-2.7173,-14.461096,39.87972,64.11619,-21.677692,-3.2847824,-9.835758
65,-0.003317109774798155,-1.1318343877792358,78.27495574951172,-0.03130788215762947,-1.155686975418458,91.73266112038324,0.45759833,5.0585423,3.2085247,9.1710825,-9.651519,-5.8547616,1.4000413,-4.0000834,-1.4050809,9.865605,-10.731831,5.268629,-1.4069301,-0.25168863,6.9918857,2.264861,11.875799,-21.774618,60.90989,16.504745,1.3401878,8.251747,-2.7303576,-14.459489,39.895027,64.11024,-21.663952,-3.273555,-9.872278
66,-0.00510075269266963,-1.1122053861618042,78.27516174316406,-0.032186208093480065,-1.1394425871148604,91.7261611542681,0.4678232,5.061027,3.2171636,9.149562,-9.653416,-5.8569846,1.4020467,-3.9981833,-1.402818,9.857016,-10.734263,5.2572465,-1.4095953,-0.25426507,6.9943385,2.256221,11.874138,-21.78907,60.92182,16.578388,1.3068209,8.239303,-2.7421877,-14.457266,39.912117,64.101654,-21.625816,-3.2581823,-9.9151325
67,-0.007260494865477085,-1.0904642343521118,78.27552032470703,-0.03312177047702906,-1.121971023340718,91.72046283782726,0.4787425,5.062641,3.2254045,9.123685,-9.654003,-5.86028,1.4036173,-3.9972928,-1.4031383,9.84766,-10.73798,5.2472367,-1.4127891,-0.25851157,6.9922357,2.2519343,11.873068,-21.81155,60.93608,16.647392,1.2633272,8.249508,-2.75111,-14.45478,39.92976,64.09221,-21.587143,-3.242698,-9.954688
68,-0.007271632552146912,-1.068020224571228,78.27593231201172,-0.03357840534087905,-1.0995736166913588,91.71667047375406,0.48332006,5.063541,3.2320142,9.099739,-9.656726,-5.863467,1.4014806,-3.9973292,-1.4049858,9.835464,-10.741656,5.243404,-1.4161507,-0.26376104,6.983788,2.2476413,11.872143,-21.843327,60.943775,16.68412,1.2404983,8.278189,-2.757831,-14.450815,39.944668,64.0838,-21.570704,-3.2326052,-9.981095
69,-0.009110964834690094,-1.0477992296218872,78.27569580078125,-0.03397241444340332,-1.0677879527693137,91.71687283641626,0.47671863,5.062793,3.2351694,9.076223,-9.66038,-5.8667817,1.3932675,-3.9994953,-1.4109743,9.815655,-10.743537,5.2495046,-1.4170185,-0.27119386,6.962612,2.2361684,11.871133,-21.894306,60.95316,16.67091,1.2445031,8.339191,-2.760503,-14.444273,39.94907,64.07998,-21.59351,-3.2322023,-9.988066
70,-0.015201101079583168,-1.0309866666793823,78.27664184570312,-0.03269035161879166,-1.0302346407588296,91.72018758374531,0.46454334,5.0603757,3.2358444,9.050345,-9.663774,-5.870571,1.3813577,-4.003688,-1.4208871,9.791489,-10.745148,5.262207,-1.421282,-0.2809018,6.938253,2.225644,11.870661,-21.946302,60.956272,16.636229,1.2588886,8.42627,-2.7615597,-14.438946,39.946262,64.07096,-21.644156,-3.237551,-9.979775
71,-0.017667971551418304,-1.0118720531463623,78.27522277832031,-0.03218094116571399,-0.9936548544988357,91.72205656884468,0.45443243,5.058803,3.2378428,9.023945,-9.668253,-5.8742332,1.370524,-4.0067244,-1.42877,9.767181,-10.746877,5.275467,-1.4221401,-0.2904943,6.914106,2.2144125,11.87072,-22.000256,60.955734,16.592152,1.2808285,8.513677,-2.7608962,-14.434255,39.93918,64.06252,-21.694614,-3.2441308,-9.967495
72,-0.014120475389063358,-0.9839997887611389,78.27462768554688,-0.03295627317609309,-0.9651309326562963,91.7180568308713,0.45347735,5.0599246,3.244959,9.00186,-9.677155,-5.877022,1.3655251,-4.0060945,-1.4285756,9.7471485,-10.749466,5.283352,-1.420152,-0.298651,6.8981786,2.2050683,11.871443,-22.03972,60.947132,16.560907,1.3062315,8.572227,-2.76108,-14.430951,39.933865,64.05405,-21.719696,-3.2475314,-9.960517
73,-0.01285614538937807,-0.9586920738220215,78.27304077148438,-0.03484440451293572,-0.9478104206909336,91.7044339809225,0.46794328,5.0658126,3.260328,8.98031,-9.690932,-5.877998,1.3687954,-3.9990213,-1.415714,9.732983,-10.753215,5.283785,-1.4017192,-0.30453214,6.890263,2.1938498,11.873957,-22.086946,60.932682,16.533173,1.343162,8.613114,-2.7589378,-14.425864,39.92016,64.04974,-21.701872,-3.2476916,-9.962431
74,-0.013038101606070995,-0.9365298748016357,78.27259826660156,-0.037979684500527355,-0.9376150560152313,91.68458318814113,0.49090588,5.074995,3.2809362,8.96259,-9.710491,-5.8777633,1.3773905,-3.9875646,-1.3945221,9.7219095,-10.75747,5.280172,-1.3912313,-0.30846518,6.89227,2.1907487,11.875798,-22.10929,60.903755,16.515957,1.3885543,8.641271,-2.7626143,-14.423447,39.91538,64.041695,-21.658064,-3.2448807,-9.96496
75,-0.012780187651515007,-0.9129825830459595,78.27192687988281,-0.04102371611559787,-0.9302838062369921,91.66461177136262,0.5171508,5.083764,3.3020313,8.944938,-9.728061,-5.8780317,1.3873073,-3.9766273,-1.372337,9.715212,-10.763688,5.274545,-1.376266,-0.31234834,6.895047,2.18528,11.878172,-22.124144,60.87506,16.506731,1.4295676,8.634551,-2.764185,-14.421291,39.91172,64.03757,-21.61241,-3.2402384,-9.97034
76,-0.012700052000582218,-0.8909192085266113,78.27093505859375,-0.04243605085507071,-0.9217865151299971,91.6499735229971,0.5439428,5.0877466,3.319537,8.919982,-9.734887,-5.8804283,1.3936288,-3.9712281,-1.3558671,9.71591,-10.773989,5.2690897,-1.3531537,-0.3192408,6.8947372,2.1724124,11.882865,-22.13068,60.852795,16.51033,1.4532335,8.567434,-2.7593508,-14.418304,39.906982,64.03839,-21.589676,-3.23262,-9.978833
77,-0.019521726295351982,-0.8692847490310669,78.2718276977539,-0.03978401674249929,-0.9115216333998476,91.64465332069055,0.56850874,5.085991,3.329901,8.889182,-9.726482,-5.8876467,1.3965137,-3.9728591,-1.3497487,9.724433,-10.788537,5.262068,-1.3281783,-0.3265551,6.889887,2.151967,11.886329,-22.11894,60.841873,16.53436,1.4490842,8.417835,-2.7476718,-14.416773,39.90678,64.044624,-21.604164,-3.219171,-9.988914
78,-0.02113381214439869,-0.8473147749900818,78.27171325683594,-0.035352904908380944,-0.9024274071931707,91.64434861422068,0.6020351,5.078635,3.337792,8.83903,-9.701873,-5.897891,1.3959659,-3.9806836,-1.3482522,9.745358,-10.809439,5.2533355,-1.3210179,-0.3459482,6.8938284,2.1351156,11.903174,-22.0479,60.822136,16.593102,1.4215722,8.1908045,-2.7435691,-14.411659,39.925316,64.05083,-21.643036,-3.2011006,-9.999791
79,-0.0169115848839283,-0.8208089470863342,78.27190399169922,-0.029140333167283018,-0.8923481866132497,91.64477404983288,0.6283124,5.0706253,3.3445845,8.801102,-9.681403,-5.9067087,1.3947606,-3.989466,-1.3476858,9.765742,-10.830306,5.2465267,-1.3145332,-0.3637041,6.8942585,2.127487,11.921945,-21.9688,60.79195,16.657078,1.390775,7.939493,-2.7410827,-14.407145,39.953407,64.063286,-21.678757,-3.1834655,-10.013592
80,-0.019876917824149132,-0.8001047372817993,78.27214813232422,-0.02384658383408285,-0.8805063099947208,91.64099528796883,0.64953065,5.063486,3.3547907,8.77216,-9.672938,-5.909504,1.3914825,-3.9971972,-1.3423803,9.783148,-10.850134,5.245681,-1.2939888,-0.3794907,6.889443,2.110501,11.935983,-21.901575,60.76981,16.718187,1.3695017,7.7030697,-2.7332726,-14.404687,39.971497,64.07621,-21.69738,-3.1718602,-10.030794
81,-0.023655788972973824,-0.7792273163795471,78.27108764648438,-0.01593400853869787,-0.866769939136179,91.63229933923039,0.6655862,5.05578,3.3694909,8.752646,-9.679667,-5.9015174,1.385086,-4.004911,-1.3309994,9.798906,-10.869863,5.254715,-1.2844352,-0.39416713,6.885857,2.1217105,11.953997,-21.806595,60.706787,16.799307,1.3629445,7.4675665,-2.7414536,-14.402957,40.003277,64.09667,-21.684666,-3.169388,-10.053491
82,-0.023089271038770676,-0.75592041015625,78.2699966430664,-0.008015942823821568,-0.8514148578136289,91.62034446767898,0.6768354,5.047485,3.3872879,8.741108,-9.696334,-5.8864765,1.3763931,-4.0130835,-1.3156598,9.813307,-10.889526,5.2704797,-1.2696555,-0.40956026,6.878723,2.1345215,11.973572,-21.703344,60.63746,16.891489,1.3615295,7.220861,-2.7488773,-14.402213,40.036118,64.11876,-21.654293,-3.1727803,-10.081545
83,-0.02524067834019661,-0.7334234714508057,78.26915740966797,-0.0008305802644666865,-0.8350563201864057,91.60709289317502,0.6843027,5.0409546,3.4050863,8.735973,-9.718528,-5.8720818,1.3671687,-4.0195317,-1.2995414,9.826037,-10.908661,5.286686,-1.2411045,-0.42187265,6.8682346,2.1346006,11.986854,-21.621174,60.584198,16.96727,1.3636281,6.997566,-2.749837,-14.402551,40.056416,64.14121,-21.625004,-3.1770265,-10.108183
84,-0.026746617630124092,-0.7107099890708923,78.26748657226562,0.003613840518199935,-0.8183804421090787,91.5942882414721,0.69229215,5.0385633,3.4204953,8.729123,-9.738346,-5.866101,1.3599399,-4.0218244,-1.285614,9.835541,-10.926571,5.296987,-1.2308671,-0.4364813,6.863603,2.146131,12.0087805,-21.53049,60.526264,17.013132,1.36342,6.8201647,-2.7595503,-14.403548,40.094975,64.15938,-21.607199,-3.176789,-10.124787
85,-0.026097046211361885,-0.6864326596260071,78.26408386230469,0.00035017392352832544,-0.8010121836121573,91.58152415066132,0.69509387,5.04425,3.4316428,8.731958,-9.762014,-5.872262,1.3570758,-4.016095,-1.2738214,9.836719,-10.940812,5.298748,-1.207284,-0.44856182,6.8578773,2.139535,12.028604,-21.476662,60.49716,16.999884,1.3656005,6.7051706,-2.759675,-14.404426,40.121456,64.17311,-21.61601,-3.1699138,-10.128412
86,-0.02653953619301319,-0.665168046951294,78.26282501220703,-0.005609567411658072,-0.7829886110295763,91.56824614569678,0.6944661,5.0552316,3.4403806,8.741086,-9.789413,-5.8858447,1.3554245,-4.005114,-1.2628052,9.834585,-10.953707,5.2957315,-1.1789526,-0.45989823,6.853074,2.1278546,12.0497265,-21.439663,60.47793,16.948786,1.3709677,6.6334615,-2.7569625,-14.405397,40.144054,64.18394,-21.64048,-3.1592507,-10.123171
87,-0.026995709165930748,-0.6411445140838623,78.26213073730469,-0.012003201137724304,-0.764656003062217,91.55569395424854,0.6965419,5.0658,3.4488993,8.743673,-9.8119,-5.901987,1.3530537,-3.9947486,-1.2537669,9.834712,-10.96826,5.2909727,-1.1504458,-0.46995056,6.847959,2.1085956,12.067171,-21.420006,60.475822,16.884583,1.3735743,6.598488,-2.7542024,-14.406214,40.162106,64.1953,-21.666367,-3.1481676,-10.115912
88,-0.025941679254174232,-0.6174781322479248,78.26215362548828,-0.01468586408309653,-0.7466907475004699,91.54542919747898,0.7047516,5.0705895,3.4589279,8.73215,-9.8231945,-5.9160304,1.3465043,-3.9911795,-1.2479699,9.844965,-10.987929,5.287566,-1.1325954,-0.48369795,6.844888,2.0939486,12.08953,-21.409817,60.47661,16.832678,1.3676506,6.5895004,-2.7588334,-14.407556,40.183216,64.20807,-21.67636,-3.1394475,-10.113834
89,-0.026716049760580063,-0.5941724181175232,78.26222229003906,-0.00953048120051775,-0.7282069314543035,91.53736459210862,0.7252568,5.066041,3.4732788,8.691185,-9.812705,-5.930108,1.3284999,-3.9986696,-1.2465059,9.878785,-11.019762,5.2863545,-1.1281807,-0.50104475,6.84282,2.0834928,12.11527,-21.421,60.487095,16.789127,1.3504721,6.6345162,-2.7733471,-14.409633,40.206783,64.225266,-21.663364,-3.1346912,-10.118669
90,-0.02681780233979225,-0.5674484372138977,78.26140594482422,-0.0016934793919563813,-0.7091607780626853,91.53086456504056,0.75473154,5.0557466,3.4902043,8.628863,-9.7866125,-5.9455905,1.3030946,-4.012936,-1.248541,9.928063,-11.059518,5.2857003,-1.1314415,-0.51795256,6.840259,2.0659366,12.134622,-21.451746,60.520023,16.746101,1.3251169,6.729945,-2.7945657,-14.41175,40.229004,64.24796,-21.638056,-3.1321104,-10.126759
91,-0.02982090599834919,-0.54700767993927,78.25749206542969,0.0069880830421942056,-0.6915683837000807,91.52641992049499,0.78306043,5.0449357,3.5049171,8.571532,-9.763311,-5.956567,1.2827642,-4.027562,-1.2520616,9.9712,-11.096562,5.2849574,-1.1358417,-0.5336572,6.838629,2.0435226,12.148818,-21.482208,60.56138,16.719303,1.2960068,6.81864,-2.81596,-14.413707,40.24671,64.27067,-21.612253,-3.1296678,-10.136599
92,-0.032043904066085815,-0.5261131525039673,78.25636291503906,0.01264961134656819,-0.6773846836376421,91.52460870971875,0.803887,5.0381217,3.5130267,8.537984,-9.75756,-5.957008,1.280996,-4.0363417,-1.2551789,9.9851265,-11.119482,5.283296,-1.1339318,-0.5466178,6.837327,2.0201159,12.157001,-21.494175,60.597157,16.725212,1.2685262,6.844542,-2.8308578,-14.415062,40.25439,64.29089,-21.599918,-3.1252975,-10.146888
93,-0.03279563784599304,-0.5056577920913696,78.25506591796875,0.013849853643831294,-0.6697762854487155,91.52722466647914,0.8151774,5.036783,3.5108707,8.539851,-9.777475,-5.9402914,1.3090049,-4.037485,-1.2579709,9.954523,-11.120807,5.280711,-1.1196241,-0.5598252,6.838063,1.9949207,12.166594,-21.493471,60.620495,16.763605,1.2438974,6.778543,-2.8301466,-14.416493,40.254787,64.29872,-21.593885,-3.117096,-10.159774
94,-0.03175155818462372,-0.4831043481826782,78.25383758544922,0.014072956888749441,-0.6670395774683584,91.53359454486288,0.8201083,5.0384355,3.501388,8.56624,-9.814634,-5.911373,1.3570614,-4.034071,-1.2615342,9.895786,-11.109136,5.2774773,-1.104797,-0.58674896,6.8560877,1.9924358,12.211554,-21.46306,60.591534,16.8355,1.2164844,6.640546,-2.8167317,-14.422816,40.241737,64.27167,-21.600395,-3.1081898,-10.1704645
95,-0.031948868185281754,-0.46255433559417725,78.25492858886719,0.0124739683301084,-0.6630743301194285,91.53978182672299,0.82200724,5.0414166,3.4911134,8.596423,-9.855677,-5.8814054,1.4066147,-4.0288463,-1.2642345,9.831269,-11.094485,5.2737546,-1.0918679,-0.6110632,6.871531,1.9937494,12.252984,-21.424223,60.56055,16.919561,1.1888607,6.48566,-2.80668,-14.42856,40.230743,64.24923,-21.61193,-3.0990305,-10.181227
96,-0.028110859915614128,-0.4259723126888275,78.25689697265625,0.010501315980113718,-0.6524221607372386,91.54218427433398,0.82492906,5.04481,3.4862833,8.610022,-9.887499,-5.861594,1.4405763,-4.0237775,-1.26472,9.781078,-11.086062,5.2693706,-1.081884,-0.6329408,6.882111,1.9945518,12.29168,-21.388577,60.53681,16.993433,1.160262,6.353413,-2.8040953,-14.433619,40.226597,64.2317,-21.626173,-3.0909557,-10.190531
97,-0.03295864909887314,-0.41190749406814575,78.25482177734375,0.009082986079971048,-0.6326555918280236,91.53790804431894,0.8296957,5.0484133,3.4901698,8.600991,-9.908127,-5.8551855,1.4498718,-4.0193067,-1.2604074,9.7574835,-11.089689,5.2627554,-1.069196,-0.64806503,6.8807836,1.9785072,12.312588,-21.364527,60.548256,17.056908,1.1276383,6.2552853,-2.8119292,-14.436425,40.228783,64.232506,-21.645586,-3.085364,-10.200113
98,-0.029798679053783417,-0.3809836208820343,78.2547378540039,0.0070421153119847426,-0.6072023544204344,91.52975610829276,0.8348335,5.0527334,3.498832,8.579084,-9.923012,-5.8561153,1.4462205,-4.014328,-1.2529417,9.745527,-11.098243,5.2543974,-1.061007,-0.6620882,6.8776984,1.971991,12.335822,-21.335361,60.551174,17.120989,1.0937468,6.16502,-2.8266943,-14.439673,40.238243,64.23409,-21.671406,-3.0803318,-10.208883
99,-0.026027940213680267,-0.3515392541885376,78.25531005859375,0.00454533654528646,-0.5785755931048535,91.52165376146002,0.83866984,5.057249,3.5080957,8.552722,-9.934436,-5.861607,1.4375615,-4.0095034,-1.2463827,9.736427,-11.108603,5.247275,-1.0637779,-0.6833657,6.8796096,1.9871098,12.383068,-21.295914,60.52302,17.175322,1.0611302,6.075673,-2.8457434,-14.4456,40.25731,64.22338,-21.69443,-3.075428,-10.214125
100,-0.026934850960969925,-0.3278850317001343,78.25577545166016,0.0025742371295364385,-0.5497420851171282,91.5178369884198,0.83792096,5.061199,3.5135121,8.5313225,-9.943335,-5.868919,1.4322412,-4.005383,-1.2449064,9.720626,-11.116595,5.244494,-1.0656105,-0.70334053,6.882158,1.9968655,12.426906,-21.26644,60.497303,17.213198,1.0379137,5.9954405,-2.8648918,-14.451012,40.265816,64.212036,-21.714678,-3.068432,-10.216213
101,-0.030203483998775482,-0.3070560395717621,78.25454711914062,-0.0002792736622364028,-0.522610333760839,91.51930765292069,0.8354691,5.0650673,3.5145288,8.513443,-9.947969,-5.8792043,1.4363157,-4.001948,-1.2501917,9.690309,-11.119329,5.248769,-1.0650282,-0.71041536,6.876176,1.9805628,12.434849,-21.25616,60.511482,17.23926,1.0269847,5.929208,-2.886786,-14.452334,40.263206,64.21948,-21.732925,-3.058098,-10.21421
102,-0.030161622911691666,-0.2836351990699768,78.25326538085938,-0.003357246675823134,-0.49579930779275844,91.52388375492599,0.8319014,5.068749,3.513173,8.495833,-9.948087,-5.893413,1.443359,-3.998965,-1.2597941,9.655518,-11.121465,5.2577505,-1.0797458,-0.7270296,6.8877587,1.9826454,12.469003,-21.221766,60.48615,17.263,1.0193847,5.853792,-2.9167979,-14.457817,40.258545,64.20628,-21.753489,-3.0484471,-10.202043
103,-0.029540330171585083,-0.2597760558128357,78.25173950195312,-0.006597246453094947,-0.4650356164016827,91.53079183706409,0.82131696,5.0718184,3.5094793,8.48128,-9.947697,-5.9080133,1.4471576,-3.9966142,-1.2718623,9.618796,-11.122216,5.267223,-1.0882051,-0.7333997,6.8826838,1.9690241,12.477144,-21.213058,60.493404,17.2614,1.0220643,5.8064146,-2.9431102,-14.4594145,40.253654,64.20881,-21.764027,-3.0344417,-10.19643
104,-0.02854999527335167,-0.23685941100120544,78.25082397460938,-0.009794155082929345,-0.42826253718491936,91.53953261134575,0.8011026,5.074084,3.502845,8.470777,-9.949444,-5.9198155,1.4409134,-3.9947276,-1.2849913,9.588905,-11.124382,5.2727847,-1.0979,-0.74949306,6.8900414,1.9674579,12.514009,-21.194414,60.465416,17.235401,1.0295336,5.7746563,-2.9699557,-14.466789,40.239517,64.188194,-21.770126,-3.01957,-10.194626
105,-0.03630359098315239,-0.225534588098526,78.24998474121094,-0.01416155182027267,-0.37881952962104326,91.55162551105737,0.7630677,5.0746775,3.4917622,8.463703,-9.951553,-5.9277573,1.4174995,-3.9936576,-1.3003482,9.565429,-11.126069,5.2729354,-1.0976886,-0.76406837,6.883896,1.9644381,12.553563,-21.197119,60.437233,17.155632,1.0485085,5.783899,-2.984743,-14.475571,40.222584,64.161644,-21.761715,-2.998232,-10.209128
106,-0.03611435368657112,-0.1989893913269043,78.25180053710938,-0.01862780458803701,-0.3206044383779529,91.56693516138162,0.71089584,5.0743403,3.4767313,8.461699,-9.954281,-5.93369,1.3820426,-3.9931867,-1.3183026,9.546121,-11.127252,5.2700853,-1.0945458,-0.7734039,6.8671117,1.9469742,12.578935,-21.20862,60.42894,17.040716,1.0767722,5.826994,-2.9998572,-14.482388,40.203274,64.14079,-21.744835,-2.9695506,-10.233158
107,-0.035355567932128906,-0.17385953664779663,78.25019073486328,-0.02306953229627953,-0.2633018088820846,91.5815596337331,0.6591397,5.07325,3.4617133,8.46244,-9.960388,-5.9382315,1.3450205,-3.9933527,-1.3350674,9.53318,-11.1321535,5.2659483,-1.0847877,-0.7857601,6.8557,1.9314041,12.6117325,-21.231785,60.412937,16.919817,1.108889,5.880538,-3.0072687,-14.49257,40.173553,64.105736,-21.721518,-2.9434168,-10.257817
108,-0.03786063939332962,-0.14996488392353058,78.24833679199219,-0.02512927889589331,-0.2167114974138894,91.59174447399306,0.6212791,5.0725236,3.4503357,8.465661,-9.973143,-5.9421496,1.3187733,-3.9934714,-1.3472413,9.5236025,-11.141449,5.2622213,-1.085424,-0.7953935,6.851237,1.9095763,12.6264715,-21.245226,60.4197,16.836851,1.137242,5.9316945,-3.027614,-14.497501,40.15377,64.08403,-21.687561,-2.9258072,-10.2762785
109,-0.04209683835506439,-0.12477664649486542,78.24627685546875,-0.02706084891358206,-0.18793474478660907,91.59462906690229,0.6057992,5.0729785,3.4448192,8.473764,-9.996421,-5.946636,1.3093001,-3.9932106,-1.3520749,9.522092,-11.159377,5.2570205,-1.0765998,-0.8124542,6.8687835,1.8890859,12.651126,-21.276787,60.424202,16.788952,1.1643835,5.978483,-3.0391674,-14.50561,40.11938,64.04269,-21.652534,-2.9187098,-10.286464
110,-0.04019017890095711,-0.09919007122516632,78.24378967285156,-0.026753213091956475,-0.17033049701691816,91.59297219016368,0.60482955,5.0739946,3.442772,8.484251,-10.02673,-5.9509306,1.3110865,-3.9926193,-1.3523288,9.523966,-11.181652,5.2502537,-1.0759071,-0.8296565,6.8965845,1.8695706,12.668212,-21.303928,60.438366,16.768244,1.1920155,6.0311675,-3.0584195,-14.510869,40.093277,64.00564,-21.609165,-2.9177573,-10.294082
111,-0.03884974867105484,-0.07265366613864899,78.24149322509766,-0.02546886687286668,-0.15267142493546887,91.59089864840975,0.6022446,5.0737095,3.4410708,8.499128,-10.060708,-5.952956,1.3092549,-3.9934514,-1.3513104,9.5341015,-11.208655,5.246139,-1.0616703,-0.8542088,6.930217,1.8523929,12.702835,-21.34573,60.437958,16.754347,1.2155689,6.0707197,-3.064089,-14.521324,40.043114,63.94381,-21.558977,-2.9236417,-10.292377
112,-0.03850883990526199,-0.047037072479724884,78.23968505859375,-0.02428743569273939,-0.12393600043232265,91.59265344456779,0.5752142,5.071285,3.4358048,8.535247,-10.101851,-5.950519,1.292866,-3.9966688,-1.3527297,9.548871,-11.235971,5.2490726,-1.074592,-0.8704438,6.9444046,1.8389668,12.708296,-21.34838,60.45104,16.758057,1.229944,6.0927234,-3.0918844,-14.52297,40.024025,63.90642,-21.479473,-2.932716,-10.282945
113,-0.04125519096851349,-0.02411656267940998,78.2365951538086,-0.019851072392930713,-0.0773416530653818,91.60001088552279,0.5229851,5.0641203,3.426688,8.574926,-10.142694,-5.9419055,1.2529643,-4.004413,-1.3576205,9.570605,-11.26396,5.2637925,-1.0616452,-0.8955134,6.956101,1.8090925,12.73137,-21.355713,60.450443,16.771805,1.2310255,6.0731115,-3.1039948,-14.530458,39.941914,63.83836,-21.39693,-2.9559903,-10.248073
114,-0.04480403661727905,7.354805711656809e-05,78.2336196899414,-0.014647235420945382,-0.01988385340185899,91.61063568604274,0.45183668,5.0539083,3.4151106,8.624737,-10.187108,-5.928592,1.1965579,-4.015163,-1.3640234,9.601089,-11.294564,5.2868605,-1.0572,-0.9214648,6.956252,1.7872894,12.752534,-21.346684,60.441174,16.800018,1.2235235,6.0292516,-3.117706,-14.538466,39.86213,63.76541,-21.290611,-2.9873772,-10.198844
115,-0.04640396684408188,0.023219849914312363,78.22820281982422,-0.00919842881536764,0.03799541377033852,91.62193258531774,0.37770858,5.043404,3.4026077,8.6806345,-10.234745,-5.913606,1.1389474,-4.026321,-1.3708805,9.634876,-11.326992,5.309946,-1.0560118,-0.9454267,6.954736,1.7671486,12.768271,-21.3318,60.432636,16.829247,1.2111781,5.979176,-3.1338425,-14.545286,39.788338,63.688766,-21.17145,-3.0165536,-10.149907
116,-0.05045284703373909,0.051231611520051956,78.22531127929688,-0.004835283312598862,0.08580280343510707,91.63137057720759,0.31809175,5.0347652,3.3910341,8.735386,-10.283695,-5.8999367,1.0925364,-4.035799,-1.3768154,9.672046,-11.363043,5.3248577,-1.0477284,-0.96778727,6.9632883,1.7501308,12.7865305,-21.328121,60.4199,16.843187,1.1984694,5.93889,-3.1423886,-14.554026,39.718052,63.594193,-21.051212,-3.0327885,-10.115256
117,-0.05216660350561142,0.0796765387058258,78.22208404541016,-0.0029454529076952955,0.11842332618412993,91.63649636407264,0.27990374,5.0291195,3.381705,8.789104,-10.33491,-5.8878593,1.0624079,-4.0420446,-1.3797913,9.714411,-11.404036,5.327526,-1.0334773,-0.9871149,6.9829206,1.7401384,12.803984,-21.334442,60.404346,16.838728,1.1846658,5.911476,-3.1480412,-14.563342,39.672943,63.49468,-20.937935,-3.0313306,-10.11172
118,-0.053831834346055984,0.11254420876502991,78.21806335449219,-0.001478368964283285,0.14210468379065988,91.63943468421319,0.2526587,5.025044,3.3733158,8.845661,-10.389346,-5.8759675,1.0405416,-4.0467863,-1.3810427,9.7625265,-11.449036,5.3230195,-1.0212257,-1.0025208,7.00646,1.735065,12.8149185,-21.339243,60.391075,16.826542,1.1681426,5.8899093,-3.1575794,-14.569498,39.650845,63.398357,-20.823458,-3.018225,-10.128401
119,-0.0597652867436409,0.1440460979938507,78.21381378173828,-0.0016030596230368834,0.1642085249014048,91.64376731082686,0.22804594,5.0213737,3.3638427,8.902096,-10.443669,-5.864852,1.0230411,-4.051366,-1.3843992,9.808716,-11.494567,5.316548,-1.0059894,-1.0182233,7.034798,1.7325228,12.829461,-21.35421,60.37116,16.801334,1.1519578,5.8731008,-3.1586936,-14.578154,39.617405,63.273586,-20.687738,-2.9994438,-10.136742
120,-0.06695042550563812,0.1779845505952835,78.2108383178711,-0.0014102325423144605,0.19196397409044424,91.65371323490595,0.1973025,5.0167427,3.3507962,8.956168,-10.495542,-5.855076,1.0061032,-4.0570717,-1.3940945,9.844921,-11.536821,5.313425,-0.99784034,-1.0323346,7.0589795,1.7277834,12.846813,-21.381237,60.35577,16.760618,1.1393014,5.8662143,-3.1567097,-14.5893345,39.55974,63.1205,-20.503443,-2.9812396,-10.112698
121,-0.07273449748754501,0.20545150339603424,78.20824432373047,-0.002130496628677544,0.2278985441626091,91.67139565666291,0.15704879,5.0113573,3.3329113,9.006814,-10.542457,-5.8474064,0.98893374,-4.064234,-1.4127939,9.866643,-11.573256,5.3153806,-1.0032638,-1.0425454,7.075743,1.7159193,12.860473,-21.423172,60.355583,16.697065,1.1335231,5.8728046,-3.156849,-14.599342,39.480247,62.94325,-20.262701,-2.9535713,-10.048575
122,-0.07761465758085251,0.2375233918428421,78.20487976074219,-0.004447952826374488,0.26798073340854245,91.6944549180928,0.111820884,5.005353,3.3115432,9.056973,-10.587724,-5.8412514,0.97357947,-4.0722847,-1.4378583,9.879188,-11.6065855,5.319491,-1.0027034,-1.0500445,7.0901012,1.6912493,12.874844,-21.495249,60.368793,16.609697,1.1323965,5.890448,-3.1453738,-14.6125345,39.365913,62.734737,-19.985323,-2.918456,-9.957243
123,-0.08447863161563873,0.27750295400619507,78.20146942138672,-0.005668692444050442,0.30962065363574653,91.71912436399121,0.06616583,4.999052,3.2888906,9.105782,-10.63297,-5.8355393,0.9593141,-4.08101,-1.4648268,9.88915,-11.640202,5.3241124,-1.0077391,-1.0569526,7.1026053,1.6690717,12.885607,-21.563,60.381355,16.52309,1.1302862,5.9151263,-3.132665,-14.625152,39.239708,62.50133,-19.669638,-2.889663,-9.846844
124,-0.0915311649441719,0.31649377942085266,78.19731903076172,-0.006549277459572967,0.35039139056052254,91.74169806729884,0.02429953,4.9920635,3.2670958,9.153046,-10.680598,-5.8290067,0.9486656,-4.090234,-1.4896165,9.896781,-11.674232,5.327479,-1.0085257,-1.0674942,7.116438,1.6539654,12.895794,-21.61702,60.38094,16.455196,1.1220511,5.942327,-3.1113243,-14.639649,39.0942,62.23202,-19.323416,-2.882116,-9.723189
125,-0.0974406749010086,0.3542426824569702,78.19381713867188,-0.0053921992251592405,0.3883460415111753,91.76142849902433,-0.009514953,4.9830914,3.2454212,9.19456,-10.729415,-5.8210297,0.93852943,-4.1016273,-1.5118557,9.913166,-11.714643,5.3288183,-1.0249612,-1.0821681,7.131679,1.6625932,12.903,-21.62709,60.352394,16.418217,1.1052363,5.9756536,-3.0951865,-14.6488905,38.949295,61.936417,-18.919065,-2.8984246,-9.574791
126,-0.10344305634498596,0.39688414335250854,78.1904067993164,-0.0025911713334689614,0.4251902123399496,91.78031105028627,-0.039101385,4.972714,3.2230647,9.232897,-10.779131,-5.8123183,0.9319179,-4.114615,-1.533761,9.928884,-11.756653,5.3290176,-1.038759,-1.1006353,7.1489744,1.6784973,12.911782,-21.626116,60.308342,16.395227,1.0833876,6.0156045,-3.070978,-14.6579075,38.779522,61.6049,-18.469006,-2.9311376,-9.400944
127,-0.10858306288719177,0.43995994329452515,78.1871109008789,-0.0006988349184139952,0.4640794696703532,91.79818746351523,-0.07054366,4.9633994,3.202432,9.274931,-10.832901,-5.8039165,0.9269595,-4.126273,-1.5538421,9.938331,-11.796453,5.329417,-1.0529394,-1.1218483,7.1648664,1.7006755,12.921191,-21.616024,60.26031,16.382069,1.0583588,6.0521107,-3.0450659,-14.666224,38.60504,61.248074,-18.012157,-2.9778328,-9.230477
128,-0.11518245190382004,0.4845938980579376,78.18199157714844,-0.0019548960886273028,0.5079907125606291,91.81520168512753,-0.10750461,4.9581356,3.1858788,9.322427,-10.890629,-5.7969728,0.9264819,-4.1334734,-1.5710101,9.928129,-11.826901,5.3311644,-1.0631713,-1.1446515,7.1769457,1.7223034,12.930132,-21.60644,60.222984,16.373678,1.032167,6.0754385,-3.018796,-14.67419,38.436527,60.87157,-17.589832,-3.037146,-9.091484
129,-0.1228528693318367,0.533599317073822,78.1760025024414,-0.008151191171962774,0.5555507339966951,91.82992141591794,-0.14848776,4.959852,3.175988,9.378235,-10.954423,-5.794155,0.936119,-4.132519,-1.5827469,9.888983,-11.843203,5.333788,-1.0779394,-1.1686914,7.1831236,1.7486076,12.935345,-21.589128,60.205273,16.368235,1.0021523,6.0882277,-2.996416,-14.679547,38.286064,60.482018,-17.19179,-3.1201742,-8.992927
130,-0.13020308315753937,0.5799767374992371,78.17375183105469,-0.016939203252030913,0.605741064652437,91.84288845672877,-0.19174442,4.96634,3.1708267,9.440052,-11.023525,-5.7940125,0.95429146,-4.1259327,-1.5905596,9.827062,-11.848446,5.3369923,-1.0752879,-1.1952819,7.1891837,1.7655245,12.940848,-21.582502,60.20448,16.366669,0.96846455,6.0931363,-2.9594827,-14.6878395,38.112637,60.0583,-16.814102,-3.2256274,-8.915516
131,-0.13953013718128204,0.6274150013923645,78.17110443115234,-0.026526163401125905,0.6626227308991331,91.85651890652363,-0.24408859,4.9721265,3.166169,9.506762,-11.095495,-5.7915554,0.96772504,-4.120083,-1.5987747,9.76099,-11.85219,5.3423977,-1.0779561,-1.22188,7.1894226,1.7869563,12.943689,-21.568434,60.199734,16.374256,0.9369689,6.084398,-2.9315848,-14.6951885,37.958847,59.622086,-16.469515,-3.329444,-8.857733
132,-0.15060678124427795,0.6809486746788025,78.16678619384766,-0.03226491469378062,0.7299101762991697,91.87342831547667,-0.31229642,4.9718947,3.1577911,9.57829,-11.168903,-5.781684,0.9629324,-4.1213946,-1.6116859,9.7094,-11.863105,5.3513966,-1.0710241,-1.2478204,7.1855774,1.7995563,12.94585,-21.56326,60.181892,16.393806,0.9136754,6.0543985,-2.909497,-14.70517,37.8077,59.169548,-16.192663,-3.4099665,-8.812191
133,-0.1615401953458786,0.7248549461364746,78.16278076171875,-0.03315215387555964,0.8122796219148147,91.89541543953932,-0.40069962,4.9625416,3.1445339,9.649249,-11.240241,-5.760947,0.93202144,-4.13303,-1.6318947,9.676538,-11.882899,5.3667417,-1.0637912,-1.2731551,7.1734896,1.8079625,12.946914,-21.557356,60.140537,16.438143,0.90364605,5.9906025,-2.9011247,-14.71473,37.676273,58.70606,-15.990415,-3.4571862,-8.785128
134,-0.17077423632144928,0.7767899036407471,78.15975189208984,-0.031156591942486062,0.9064275096062451,91.92077088002942,-0.5069078,4.947899,3.128392,9.726286,-11.313921,-5.7328014,0.8838253,-4.151148,-1.6566492,9.652544,-11.90712,5.386832,-1.0514253,-1.2988286,7.1552596,1.8109447,12.947378,-21.55396,60.08568,16.501703,0.90249044,5.9001646,-2.9003084,-14.724976,37.55338,58.227474,-15.849954,-3.4849148,-8.776854
135,-0.18506839871406555,0.8334224820137024,78.15550994873047,-0.028733054737474256,1.004385142936035,91.9465308153274,-0.61925846,4.9313064,3.1108422,9.808632,-11.390322,-5.7022862,0.8300554,-4.171294,-1.6822163,9.633466,-11.934182,5.4064646,-1.0341452,-1.3232116,7.1363606,1.81269,12.947813,-21.556234,60.024784,16.560062,0.90191877,5.805959,-2.9044135,-14.738084,37.43568,57.73243,-15.756095,-3.5047626,-8.776364
136,-0.20651565492153168,0.8747385740280151,78.15113067626953,-0.028526963546594793,1.0983104735379063,91.96982187489864,-0.7279163,4.9169383,3.0931342,9.899114,-11.471677,-5.674547,0.7823349,-4.188935,-1.7047691,9.616021,-11.963293,5.4204693,-1.0204775,-1.3447618,7.120909,1.8249904,12.948202,-21.55788,59.961,16.590887,0.89367425,5.730662,-2.9169316,-14.752498,37.333958,57.225105,-15.687747,-3.5275211,-8.774396
137,-0.2297777235507965,0.9296711683273315,78.14498138427734,-0.030429812917477216,1.1857602975850672,91.99097770496378,-0.82933575,4.9037824,3.0732222,9.9965,-11.556057,-5.650324,0.7432715,-4.2036786,-1.723311,9.601889,-11.994629,5.4248466,-1.0118729,-1.3640119,7.10911,1.8518748,12.948781,-21.557892,59.89508,16.58304,0.8722204,5.6832995,-2.9348469,-14.770768,37.245373,56.702515,-15.656901,-3.5537727,-8.768645
138,-0.24344685673713684,0.9899338483810425,78.140869140625,-0.03340075542456692,1.2711477811342717,92.0112609288262,-0.9279221,4.890576,3.0512729,10.097149,-11.6414995,-5.627079,0.70768744,-4.2175803,-1.7399111,9.590067,-12.027499,5.423224,-1.019747,-1.3818206,7.0939693,1.8987993,12.948497,-21.546705,59.821293,16.549809,0.8435612,5.65191,-2.9748733,-14.780095,37.19123,56.18606,-15.66018,-3.5778003,-8.768621
139,-0.2617121636867523,1.0516581535339355,78.13388061523438,-0.03869126146493975,1.3564447850539223,92.02855237604024,-1.0300052,4.8800573,3.0316079,10.210641,-11.736125,-5.604988,0.67379135,-4.22999,-1.7553881,9.577015,-12.061651,5.4217696,-1.0124995,-1.3972489,7.0884943,1.9371508,12.949979,-21.545456,59.74587,16.510143,0.81488514,5.622241,-3.012318,-14.800089,37.12567,55.64066,-15.68859,-3.6042423,-8.765132
140,-0.28014305233955383,1.1081130504608154,78.12663269042969,-0.04519796988237759,1.4440481379537484,92.04087009711928,-1.1398944,4.874776,3.018675,10.340547,-11.844454,-5.5842466,0.64150304,-4.24032,-1.7708262,9.554339,-12.094444,5.4266434,-0.9989026,-1.4091616,7.0870175,1.9704818,12.953386,-21.554483,59.668045,16.471968,0.79539555,5.5864983,-3.0634837,-14.823342,37.078197,55.08846,-15.701136,-3.6342068,-8.764356
141,-0.2986077070236206,1.1609069108963013,78.12016296386719,-0.05584425611332659,1.53204425539864,92.0422304450435,-1.2498803,4.877762,3.0206463,10.479084,-11.966797,-5.566526,0.616125,-4.247511,-1.7847309,9.51305,-12.123218,5.441527,-0.9793395,-1.4166099,7.090026,1.997944,12.956265,-21.565193,59.59281,16.42814,0.78968,5.5407805,-3.1469293,-14.836407,37.055332,54.557564,-15.697334,-3.6689076,-8.768507
142,-0.31887558102607727,1.221298098564148,78.114990234375,-0.06815596618305197,1.619747537850046,92.03485647591458,-1.3613319,4.8869624,3.033231,10.629629,-12.102252,-5.5512605,0.59468174,-4.25206,-1.7965794,9.462591,-12.151351,5.462479,-0.9414081,-1.4224108,7.1029468,2.0154793,12.96214,-21.589346,59.515343,16.374983,0.7939023,5.4902673,-3.2313817,-14.852338,37.033234,54.00391,-15.697782,-3.7039413,-8.773706
143,-0.3377193212509155,1.2866687774658203,78.10618591308594,-0.08337325981299715,1.7121004671627127,92.03100878698662,-1.4885833,4.896876,3.0409758,10.802214,-12.24839,-5.5350623,0.5706521,-4.255692,-1.8108683,9.410185,-12.17944,5.4841533,-0.89788616,-1.4281964,7.1183715,2.0292978,12.974876,-21.629154,59.43146,16.335903,0.7988361,5.4382052,-3.3188396,-14.878052,37.015163,53.428707,-15.691677,-3.7439113,-8.77791
144,-0.36316877603530884,1.3518106937408447,78.09881591796875,-0.099793543687569,1.8133521679857145,92.04209951199475,-1.6464496,4.9025455,3.0285163,11.0090885,-12.403534,-5.514634,0.5354681,-4.259415,-1.8316127,9.366809,-12.2093725,5.501227,-0.87935936,-1.4354172,7.1244483,2.0428987,12.978788,-21.657385,59.353813,16.350863,0.79505295,5.38944,-3.444517,-14.884325,37.018467,52.88139,-15.677312,-3.7935615,-8.781829
145,-0.37977540493011475,1.40693998336792,78.08777618408203,-0.11824316141950288,1.9294796085765773,92.07655925845546,-1.8514134,4.901726,2.9849987,11.263018,-12.569288,-5.4870906,0.48206165,-4.2632008,-1.8623,9.334424,-12.239707,5.509522,-0.85583186,-1.4514414,7.127846,2.0484004,12.997118,-21.715307,59.273766,16.398102,0.7803459,5.3591256,-3.5542135,-14.91056,37.010303,52.279537,-15.640039,-3.8507166,-8.779736
146,-0.4129972755908966,1.4738991260528564,78.07730102539062,-0.13898589819266047,2.056353123670035,92.12624010581814,-2.0934722,4.8975887,2.9206223,11.558944,-12.748109,-5.454838,0.41604698,-4.266434,-1.899896,9.308378,-12.27035,5.512794,-0.8384888,-1.4735459,7.1357403,2.0554268,13.027409,-21.77164,59.18056,16.482162,0.75762564,5.335729,-3.6590576,-14.957202,37.001644,51.630085,-15.590314,-3.9146066,-8.770551
147,-0.4489147663116455,1.5387063026428223,78.06700897216797,-0.16133117259731472,2.184248725587682,92.17850114261019,-2.3408244,4.89191,2.8526332,11.867476,-12.933122,-5.4220552,0.35078445,-4.270227,-1.9387453,9.28519,-12.30388,5.5175753,-0.8271844,-1.4897491,7.1405077,2.0676167,13.059717,-21.84978,59.06865,16.602112,0.73411304,5.2938356,-3.7816396,-15.002863,37.00833,50.989216,-15.539404,-3.986613,-8.762367
148,-0.4856962263584137,1.6118828058242798,78.05501556396484,-0.18366682737237702,2.303440830871603,92.2206257825904,-2.5638282,4.8871326,2.7981005,12.163562,-13.1196,-5.3931246,0.29962304,-4.2760105,-1.9731811,9.26151,-12.342938,5.530395,-0.81101185,-1.4921266,7.143556,2.0956447,13.1043,-21.981936,58.90845,16.753256,0.71612746,5.202124,-3.9207776,-15.048508,37.029236,50.372593,-15.500959,-4.068504,-8.758024
149,-0.5229633450508118,1.692428469657898,78.0401382446289,-0.20840428388863866,2.4046882721859575,92.24942484162797,-2.7477777,4.886015,2.7614467,12.444209,-13.309113,-5.37348,0.27384916,-4.282628,-2.003384,9.238061,-12.390751,5.5544024,-0.7896439,-1.4777243,7.1512523,2.151658,13.1660185,-22.156971,58.68399,16.944284,0.70974094,5.030813,-4.0722213,-15.093966,37.03852,49.777195,-15.4760685,-4.169788,-8.686511
150,-0.5634905695915222,1.775660753250122,78.02581024169922,-0.2354127434207508,2.4955056280743713,92.27177258471144,-2.909521,4.8863487,2.733822,12.718788,-13.501416,-5.3594036,0.26497838,-4.290016,-2.03182,9.213581,-12.443549,5.5856366,-0.76518875,-1.4538857,7.162037,2.2299757,13.246069,-22.367636,58.40666,17.172508,0.70949614,4.80224,-4.236261,-15.140152,37.04206,49.193993,-15.45834,-4.286899,-8.569668
151,-0.6101830005645752,1.8562294244766235,78.01022338867188,-0.2603143362690331,2.5910390146038,92.28933030498095,-3.0718167,4.884396,2.7117507,12.991634,-13.6958475,-5.3417788,0.2503411,-4.30047,-2.0563064,9.193647,-12.500313,5.619943,-0.7341804,-1.4259666,7.1670547,2.3168018,13.349073,-22.648952,58.08412,17.415453,0.7048911,4.5623083,-4.41393,-15.186979,37.088673,48.62204,-15.451209,-4.4009557,-8.549575
152,-0.6524103879928589,1.9510248899459839,77.99478912353516,-0.2829261112592634,2.7065303096917073,92.30370758059208,-3.2583556,4.87617,2.6916647,13.268755,-13.892512,-5.3114076,0.2055417,-4.3163323,-2.0744495,9.186804,-12.560848,5.65322,-0.69329494,-1.4006524,7.1573167,2.3996227,13.481522,-23.035269,57.722595,17.65072,0.685864,4.356643,-4.608361,-15.234176,37.227856,48.06325,-15.458003,-4.493588,-8.768462
153,-0.7012364268302917,2.0586938858032227,77.97945404052734,-0.29984731362812306,2.8520653646529204,92.31593469045619,-3.4863813,4.8602324,2.6716433,13.556946,-14.090427,-5.264486,0.114142485,-4.3382783,-2.0856776,9.198348,-12.624452,5.6819673,-0.63848144,-1.3785667,7.1265564,2.4666476,13.651396,-23.538128,57.31581,17.890163,0.627553,4.1019073,-4.8193583,-15.280958,37.52441,47.528988,-15.474266,-4.5541015,-9.407171
154,-0.7650876641273499,2.1660845279693604,77.9637222290039,-0.3134686117072822,3.017495465820498,92.32497149599075,-3.7368698,4.838775,2.6541138,13.845087,-14.289225,-5.206439,-0.009206453,-4.3651276,-2.0911014,9.2269125,-12.693644,5.7091546,-0.5750131,-1.3591688,7.0822806,2.5324163,13.860052,-24.135927,56.854153,18.13827,0.54219425,3.8037555,-5.0461287,-15.325547,37.9378,47.012844,-15.499143,-4.593987,-10.342456
155,-0.8063849806785583,2.222236156463623,77.94621276855469,-0.32483979097253013,3.187546478209217,92.329498257399,-3.985436,4.8128157,2.6414332,14.128184,-14.489974,-5.141327,-0.13715969,-4.3965025,-2.0911713,9.258374,-12.766766,5.7403903,-0.5101312,-1.3472356,7.0356817,2.6205459,14.100697,-24.814968,56.343006,18.364319,0.47711098,3.6418788,-5.287162,-15.366402,38.35414,46.48781,-15.544789,-4.627831,-11.259866
156,-0.8544557690620422,2.3079118728637695,77.92869567871094,-0.33563848416648384,3.347025811462778,92.32824861418902,-4.2073674,4.783851,2.6360557,14.39929,-14.693875,-5.0734773,-0.24236509,-4.4317036,-2.0864623,9.27962,-12.843043,5.7812037,-0.44808748,-1.3451418,6.9971247,2.7488036,14.361698,-25.5665,55.794846,18.536573,0.48136017,3.7971644,-5.5398736,-15.403054,38.655743,45.92754,-15.624122,-4.67033,-11.844725
157,-0.9017120003700256,2.4135024547576904,77.90935516357422,-0.34370506203099194,3.49225038800139,92.32074029412053,-4.4007087,4.7507772,2.6380916,14.664439,-14.906204,-4.9972267,-0.3206382,-4.472493,-2.0768592,9.291778,-12.9257145,5.8363585,-0.39121112,-1.3530822,6.9677935,2.9104598,14.633152,-26.463734,55.221626,18.632236,0.6159963,4.466337,-5.808543,-15.437574,38.805305,45.337723,-15.764053,-4.7483344,-12.005702
158,-0.9581130146980286,2.5260069370269775,77.89098358154297,-0.35172397773258174,3.63134333709074,92.30776978138394,-4.576832,4.713745,2.6463163,14.923922,-15.12433,-4.9126506,-0.3839595,-4.5182714,-2.0624099,9.29703,-13.012204,5.9018054,-0.32943726,-1.3662882,6.94089,3.0855243,14.912261,-27.496456,54.629314,18.668802,0.8402282,5.506045,-6.088742,-15.472715,38.858875,44.728226,-15.951474,-4.847259,-11.912662
159,-1.0273873805999756,2.647043466567993,77.87300872802734,-0.358151553862652,3.766312988815715,92.28966809072593,-4.732609,4.674922,2.6612222,15.165689,-15.339547,-4.8324485,-0.43504316,-4.56618,-2.0432086,9.295942,-13.100171,5.9699545,-0.25537246,-1.3801149,6.9143343,3.2790234,15.200073,-28.520538,54.017406,18.681154,1.0498272,6.5863147,-6.3706527,-15.509033,38.846504,44.083374,-16.138807,-4.919677,-11.643391
160,-1.1089662313461304,2.7633426189422607,77.85367584228516,-0.3652195852129304,3.8992510654216326,92.26674185524233,-4.86243,4.636202,2.6836414,15.372914,-15.540962,-4.769366,-0.47316918,-4.612973,-2.0195765,9.281363,-13.1825485,6.033257,-0.1661651,-1.3911761,6.8862205,3.501557,15.50174,-29.386316,53.381382,18.710434,1.1412953,7.376141,-6.649296,-15.545395,38.80467,43.39158,-16.277292,-4.917323,-11.275988
161,-1.1809325218200684,2.896280527114868,77.83357238769531,-0.3746093465569612,4.02603783023587,92.23501006148773,-4.9532275,4.600501,2.7183769,15.531084,-15.720564,-4.7355275,-0.4942879,-4.6558356,-1.9872895,9.253414,-13.258547,6.0865173,-0.06937824,-1.3979453,6.8572097,3.7764375,15.826083,-30.031897,52.694115,18.800997,1.066158,7.772139,-6.9312325,-15.578282,38.720097,42.628036,-16.34029,-4.7867675,-10.716092
162,-1.2473417520523071,3.0383856296539307,77.8141860961914,-0.38517880934625187,4.147104040106485,92.1956075048887,-5.0125747,4.565725,2.7635496,15.654098,-15.886503,-4.7213326,-0.5004897,-4.697282,-1.947562,9.216477,-13.3321,6.134862,0.027679274,-1.4045922,6.8287497,4.1048207,16.177214,-30.53277,51.952682,18.924147,0.886144,7.9540586,-7.224574,-15.605549,38.59122,41.811523,-16.35873,-4.566722,-9.961568
163,-1.3110451698303223,3.1776838302612305,77.79286193847656,-0.3946554174357775,4.271520116056335,92.1567602385543,-5.0647593,4.5272493,2.8100665,15.764245,-16.050686,-4.7069764,-0.49892864,-4.7419467,-1.9089828,9.165239,-13.401408,6.1861763,0.13089477,-1.4154689,6.7998195,4.4607034,16.550892,-30.947807,51.192654,19.013554,0.663751,8.01662,-7.52225,-15.627885,38.46742,40.992073,-16.370806,-4.3469625,-9.228134
164,-1.3951977491378784,3.323546886444092,77.77216339111328,-0.4023899576246156,4.408344101721005,92.12654796959238,-5.13664,4.480965,2.84839,15.889333,-16.227638,-4.6726966,-0.49720296,-4.7945437,-1.8800654,9.096118,-13.465639,6.2483597,0.24440572,-1.4332855,6.7685175,4.815809,16.936958,-31.333183,50.45493,19.005402,0.46158198,8.0549,-7.8186793,-15.6482,38.400707,40.222317,-16.41086,-4.217902,-8.731287
165,-1.4784600734710693,3.458935022354126,77.7479476928711,-0.408011562817316,4.559833822746735,92.1045395504144,-5.237116,4.42599,2.8788426,16.04116,-16.422493,-4.61048,-0.49876708,-4.856415,-1.8602352,9.008246,-13.523429,6.3261786,0.37936273,-1.4581789,6.7346334,5.1506653,17.327635,-31.696728,49.768658,18.86121,0.2821415,8.046727,-8.108757,-15.669117,38.413364,39.517933,-16.48786,-4.2213497,-8.572024
166,-1.5670084953308105,3.611974000930786,77.72418975830078,-0.4119457660504685,4.7212841275138695,92.08727728384962,-5.3459616,4.3643064,2.9058332,16.19211,-16.624943,-4.5319443,-0.49716705,-4.9247417,-1.8461605,8.899354,-13.573225,6.4144864,0.5311015,-1.4859406,6.6976757,5.4776344,17.72058,-32.011597,49.11778,18.62306,0.09683452,7.958409,-8.395736,-15.6914625,38.47481,38.85104,-16.581715,-4.3027787,-8.620825
167,-1.661790370941162,3.783165216445923,77.70130920410156,-0.41460450777872143,4.890770193807627,92.07829078031162,-5.465234,4.296864,2.9245162,16.351702,-16.836044,-4.4461946,-0.49176788,-4.998998,-1.8415717,8.7787285,-13.622467,6.5063815,0.68165964,-1.513012,6.6563463,5.8138657,18.113024,-32.283604,48.4758,18.347855,-0.07843366,7.8676457,-8.681078,-15.714254,38.5544,38.201836,-16.68189,-4.4080725,-8.747106
168,-1.7485195398330688,3.952971935272217,77.67700958251953,-0.42011198022367685,5.066743024377704,92.08117607479544,-5.592277,4.2241726,2.930519,16.518726,-17.054903,-4.362623,-0.47911608,-5.0781326,-1.8505594,8.648919,-13.67454,6.5949225,0.8140485,-1.5356025,6.608788,6.1753063,18.501593,-32.520638,47.8178,18.092525,-0.228653,7.8525205,-8.966742,-15.735616,38.620438,37.55255,-16.777613,-4.4835467,-8.820021
169,-1.856750249862671,4.131173610687256,77.65206146240234,-0.42783519732618003,5.250597463123873,92.09681230933768,-5.7246,4.146029,2.9221468,16.683485,-17.277111,-4.284092,-0.45892897,-5.1620936,-1.8750805,8.507026,-13.725567,6.6737337,0.9222028,-1.5527933,6.550342,6.571856,18.883326,-32.73111,47.142654,17.882421,-0.3378457,7.9721484,-9.257962,-15.755176,38.668316,36.90227,-16.866272,-4.5242414,-8.810035
170,-1.964674472808838,4.3259663581848145,77.62340545654297,-0.4372689638915834,5.442696713720228,92.12329447147353,-5.8624425,4.062132,2.902076,16.845724,-17.504522,-4.20562,-0.4335013,-5.2512736,-1.9125891,8.354701,-13.776451,6.7479863,1.0172652,-1.5659561,6.482503,6.990043,19.25693,-32.911083,46.467304,17.684107,-0.41885042,8.173161,-9.551339,-15.773348,38.7114,36.260456,-16.954634,-4.5556803,-8.785018
171,-2.076678991317749,4.493924617767334,77.59158325195312,-0.445809257038629,5.639148974048009,92.15993309079805,-6.0110426,3.972999,2.8723226,17.027643,-17.74525,-4.1242948,-0.39956158,-5.34527,-1.9609512,8.19256,-13.832541,6.82848,1.1074488,-1.5756917,6.4122157,7.4117613,19.621984,-33.049072,45.793804,17.466219,-0.4995877,8.3650055,-9.839978,-15.789472,38.748062,35.6292,-17.043192,-4.570902,-8.760285
172,-2.192086935043335,4.682541847229004,77.55850982666016,-0.4546993956263499,5.83666124001955,92.206121200506,-6.1726723,3.8790767,2.8351781,17.245363,-18.007309,-4.03734,-0.35926798,-5.443583,-2.0175052,8.033066,-13.906264,6.926022,1.2008384,-1.5832525,6.3462663,7.818987,19.978928,-33.134003,45.12406,17.1964,-0.60759395,8.456917,-10.1175785,-15.802596,38.776257,35.01203,-17.133589,-4.5627847,-8.751075
173,-2.3156545162200928,4.902275085449219,77.52428436279297,-0.4636146618218147,6.034485902654439,92.26262414587057,-6.3486543,3.7817693,2.7894368,17.50252,-18.293312,-3.9408388,-0.2972598,-5.543955,-2.0844686,7.8430476,-13.97974,7.0482874,1.3007238,-1.5895094,6.286157,8.208302,20.329544,-33.151077,44.46246,16.876963,-0.75781065,8.398174,-10.388123,-15.811131,38.79808,34.411777,-17.217808,-4.5156274,-8.770808
174,-2.4516966342926025,5.125261306762695,77.48577117919922,-0.4712972371058835,6.234624497255904,92.32952225453568,-6.536554,3.6799295,2.7346961,17.788733,-18.59813,-3.8372662,-0.21703903,-5.6475844,-2.1626108,7.6260815,-14.051937,7.1882486,1.4013284,-1.5947554,6.2282486,8.591733,20.674154,-33.108864,43.804314,16.520803,-0.9317575,8.245145,-10.655591,-15.814241,38.815273,33.828545,-17.297329,-4.4378057,-8.808467
175,-2.5904788970947266,5.329691410064697,77.44012451171875,-0.4784148259780503,6.436667166247779,92.40468021183938,-6.736702,3.5712965,2.6736827,18.105734,-18.920849,-3.7333143,-0.14799151,-5.758478,-2.2478647,7.449214,-14.1610155,7.3350663,1.4980431,-1.5980252,6.1714854,8.972116,21.010084,-33.03269,43.140324,16.111624,-1.106868,8.067741,-10.911374,-15.813127,38.82302,33.2608,-17.390188,-4.358369,-8.842027
176,-2.7065205574035645,5.501450061798096,77.38489532470703,-0.48395421959122703,6.640384534739177,92.48628648855296,-6.949023,3.4541202,2.608997,18.45413,-19.259712,-3.6358397,-0.11683264,-5.880844,-2.3349197,7.3725324,-14.340538,7.4762683,1.5871458,-1.5975566,6.114306,9.349588,21.332493,-32.94989,42.464417,15.633756,-1.2613281,7.9366283,-11.147134,-15.8116,38.815742,32.70702,-17.514875,-4.3064904,-8.849256
177,-2.8481485843658447,5.7254109382629395,77.33051300048828,-0.49623707798167976,6.848985281815771,92.57333781281062,-7.1782947,3.3377821,2.5398536,18.838776,-19.615974,-3.5528867,-0.11558062,-6.005055,-2.4251807,7.374881,-14.584531,7.6066823,1.6741406,-1.580387,6.048347,9.7225275,21.638231,-32.866158,41.784855,15.130056,-1.3844626,7.852581,-11.366844,-15.814511,38.789253,32.17245,-17.716923,-4.294425,-8.785715
178,-3.002626657485962,5.949304580688477,77.26719665527344,-0.5135903357866695,7.061540306304605,92.66703382569249,-7.42393,3.2207155,2.4651606,19.260412,-19.991636,-3.4787097,-0.116771564,-6.1319933,-2.5223575,7.39812,-14.859797,7.7335453,1.76099,-1.5497911,5.9770446,10.085802,21.925922,-32.771603,41.10805,14.593238,-1.4898593,7.7848034,-11.569477,-15.824246,38.745525,31.651344,-17.972435,-4.3055034,-8.675639
179,-3.1615569591522217,6.182833194732666,77.20165252685547,-0.519675760087793,7.271395918008103,92.76897828594282,-7.677173,3.0837004,2.387211,19.710985,-20.383493,-3.399504,-0.17722496,-6.282856,-2.620292,7.572533,-15.225259,7.863886,1.8391974,-1.5278829,5.916738,10.434748,22.192764,-32.668633,40.42463,13.933922,-1.5928085,7.7566657,-11.736844,-15.839853,38.687656,31.123394,-18.19577,-4.3246264,-8.599947
180,-3.331366539001465,6.411927223205566,77.12673950195312,-0.5005071867685209,7.472030063213148,92.8809851607478,-7.9297414,2.9085019,2.307899,20.1852,-20.78986,-3.30159,-0.35028502,-6.47905,-2.7126296,8.021834,-15.73667,8.00435,1.899922,-1.5366596,5.883212,10.763631,22.435093,-32.55943,39.727436,13.06265,-1.7093569,7.7911453,-11.854253,-15.858828,38.619743,30.573841,-18.30105,-4.336189,-8.639499
181,-3.514925003051758,6.64743185043335,77.0443344116211,-0.4554761242019543,7.668161913730753,93.01273465147045,-8.190596,2.6919694,2.2171915,20.683125,-21.205667,-3.1806629,-0.61487985,-6.7263374,-2.8158684,8.698597,-16.392168,8.174228,1.9319904,-1.5827829,5.8735642,11.086881,22.65151,-32.437992,39.016476,11.969815,-1.8307126,7.952605,-11.947571,-15.881036,38.56121,29.990997,-18.28696,-4.2866216,-8.818022
182,-3.7074625492095947,6.903213977813721,76.9546890258789,-0.3929900038400156,7.861187468008997,93.16031170471106,-8.461312,2.4435256,2.1175342,21.209335,-21.63439,-3.0443091,-0.9548987,-7.0141387,-2.926886,9.564963,-17.168432,8.363739,1.9418259,-1.6535462,5.8810353,11.401701,22.841646,-32.303753,38.297646,10.6995535,-1.9574269,8.208793,-12.016687,-15.906529,38.5055,29.388308,-18.192062,-4.2008176,-9.091962
183,-3.8746931552886963,7.109288215637207,76.85259246826172,-0.30575258176587,8.039222836963193,93.30510272336568,-8.719306,2.1624238,2.0301118,21.757288,-22.083473,-2.8963642,-1.4036466,-7.3401546,-3.011126,10.698064,-18.05637,8.535855,1.9493481,-1.7422305,5.9151955,11.67567,23.00243,-32.169197,37.572784,9.242461,-2.1165004,8.436946,-12.006831,-15.931207,38.41436,28.788208,-17.990595,-4.180952,-9.441419
184,-4.070721626281738,7.344427108764648,76.73504638671875,-0.18246726545715772,8.190623161469606,93.42799996055601,-8.939687,1.8440167,1.9776258,22.314577,-22.557371,-2.73991,-1.992702,-7.706269,-3.0308459,12.170208,-19.044424,8.6530075,1.9762142,-1.8455081,5.984572,11.872017,23.129175,-32.05056,36.84962,7.5869055,-2.32909,8.513474,-11.862808,-15.948578,38.24768,28.215704,-17.660212,-4.3292294,-9.845402
185,-4.268611431121826,7.590770721435547,76.60724639892578,-0.0073029251430214446,8.330160699625113,93.52313728714363,-9.121407,1.4671483,1.9694085,22.84895,-23.042753,-2.568115,-2.7491868,-8.136115,-2.9668276,13.985021,-20.145144,8.727896,2.0359304,-1.9710107,6.0665913,12.001818,23.216137,-31.96696,36.14394,5.4693804,-2.6178885,8.396151,-11.578444,-15.954611,37.987465,27.683363,-17.163395,-4.7258396,-10.3379755
186,-4.458986282348633,7.821824550628662,76.46480560302734,0.218646221247629,8.458582054745627,93.60000655668425,-9.273556,1.0310682,1.9959364,23.369995,-23.538782,-2.3800864,-3.6512465,-8.634102,-2.831583,16.101942,-21.355396,8.7711115,2.1176453,-2.1258664,6.163054,12.070809,23.261553,-31.90983,35.45726,2.9796867,-2.9546487,8.147046,-11.181485,-15.947744,37.654312,27.180815,-16.528437,-5.302246,-10.912725
187,-4.65192174911499,8.063312530517578,76.29859161376953,0.48247799016661297,8.543867479816255,93.66234985973404,-9.381267,0.55640596,2.0529127,23.917368,-24.06466,-2.1868112,-4.6394334,-9.176816,-2.634047,18.488195,-22.623976,8.742075,2.1938038,-2.3093061,6.3195925,12.044621,23.264854,-31.838202,34.76935,0.6396187,-3.282235,7.8024826,-10.682678,-15.927733,37.285233,26.711857,-15.824246,-5.93919,-11.492571
188,-4.855953216552734,8.312138557434082,76.11328887939453,0.7745073801935705,8.553791372029309,93.7139955216406,-9.434777,0.0631081,2.1357086,24.542406,-24.640747,-1.9992272,-5.65302,-9.741772,-2.383354,21.112926,-23.90034,8.600161,2.2723777,-2.5277874,6.581747,11.861794,23.243334,-31.754599,34.069992,-1.0388408,-3.5514646,7.411973,-10.071218,-15.8857355,36.86893,26.276566,-15.130373,-6.5183296,-11.994994
189,-5.045736789703369,8.555288314819336,75.90360260009766,1.1073775642985326,8.469166776355909,93.74587685078687,-9.4182415,-0.46527034,2.258797,25.256502,-25.279423,-1.8119928,-6.6558447,-10.352166,-2.0650728,23.954702,-25.200644,8.340592,2.3383768,-2.7977345,6.9751487,11.560858,23.192339,-31.590391,33.334335,-1.8782831,-3.7614508,6.8911614,-9.349998,-15.812789,36.42065,25.845821,-14.357113,-7.101412,-12.369151
190,-5.209006309509277,8.786515235900879,75.66908264160156,1.4869439363949484,8.310129845132403,93.7586685253541,-9.340203,-1.0394036,2.4190297,26.029816,-25.964872,-1.6208858,-7.672399,-11.0171585,-1.6691413,26.996029,-26.52809,7.978429,2.3948417,-3.1185236,7.4720616,11.160384,23.114933,-31.366285,32.56791,-2.1681163,-3.9399981,6.2520924,-8.524887,-15.706225,35.94117,25.434544,-13.499399,-7.720295,-12.665336
191,-5.372402667999268,9.021100997924805,75.4256820678711,1.8879677098886718,8.102924587771838,93.77079087545712,-9.221425,-1.6280307,2.5855136,26.837172,-26.672092,-1.4392446,-8.733284,-11.688064,-1.2149793,30.225655,-27.812002,7.502637,2.4273756,-3.461257,8.035176,10.612793,23.018824,-31.157658,31.786291,-2.077292,-4.092958,5.6879845,-7.624568,-15.5673,35.46639,25.126965,-12.742284,-8.205447,-12.974266
192,-5.542581081390381,9.257619857788086,75.17189025878906,2.2819084197427357,7.873518781737453,93.80071845782513,-9.083896,-2.1995304,2.7289321,27.655626,-27.3764,-1.2808452,-9.867358,-12.311787,-0.7273305,33.637753,-28.986822,6.9035254,2.4205198,-3.7964938,8.627905,9.875071,22.914303,-31.036942,30.99846,-1.7730327,-4.2218766,5.390563,-6.6738763,-15.402793,35.031277,24.9989,-12.270278,-8.387203,-13.39343
193,-5.712497234344482,9.494481086730957,74.91039276123047,2.66356198669429,7.610409348507955,93.83339149278915,-8.937339,-2.7430801,2.8653955,28.528164,-28.091799,-1.1495508,-11.111498,-12.881308,-0.20596229,37.36324,-30.059206,6.1441765,2.394446,-4.121075,9.270961,8.926115,22.808529,-31.04706,30.19604,-1.1165198,-4.323302,5.4518056,-5.663497,-15.213285,34.651596,25.02725,-12.190405,-8.128648,-13.969257
194,-5.845297336578369,9.735677719116211,74.64280700683594,3.044808992240461,7.305387534502743,93.86502086905523,-8.769395,-3.2786963,3.0042098,29.447987,-28.822615,-1.0391645,-12.432403,-13.41395,0.35988608,41.353092,-31.055044,5.236435,2.354251,-4.448943,9.974594,7.798858,22.702038,-31.139517,29.365051,-0.080535986,-4.3940086,5.7570133,-4.5805097,-14.998331,34.303837,25.180416,-12.377422,-7.5462494,-14.643612
195,-5.9812726974487305,9.97059154510498,74.3736343383789,3.424163041852857,6.990095762548091,93.93194689464343,-8.570112,-3.8175979,3.1059816,30.321035,-29.532028,-0.94835454,-13.758816,-13.896531,0.9516008,45.35187,-31.940414,4.2520576,2.259738,-4.7766204,10.685257,6.5306478,22.594408,-31.249336,28.506447,0.9995073,-4.4330688,6.1858506,-3.4448423,-14.770779,33.962944,25.51974,-12.66896,-6.8514166,-15.359114
196,-6.115358829498291,10.220283508300781,74.11067962646484,3.800552575470468,6.695597350412343,94.07078197027172,-8.330575,-4.367709,3.1296842,31.05833,-30.186043,-0.87498003,-15.022986,-14.309641,1.5421045,49.117184,-32.68335,3.2706883,2.071727,-5.100507,11.349459,5.1533217,22.485723,-31.316309,27.624992,1.7881649,-4.447174,6.617176,-2.2667902,-14.552665,33.600475,26.091406,-12.906975,-6.2587366,-16.063942
197,-6.238437652587891,10.487619400024414,73.85684967041016,4.181660067033771,6.415230990213642,94.29543016814955,-8.03983,-4.9384956,3.0631056,31.654514,-30.791594,-0.8287324,-16.225138,-14.647063,2.139637,52.725334,-33.255047,2.1970522,1.7789683,-5.4252,11.976367,3.630131,22.376846,-31.360416,26.75484,2.156354,-4.4257493,7.0676947,-1.021407,-14.353691,33.191494,26.96208,-13.130005,-5.7875185,-16.78505
198,-6.350407123565674,10.778731346130371,73.6216812133789,4.56195608704277,6.136219062575936,94.58492886270929,-7.706548,-5.5201225,2.9274747,32.156284,-31.365255,-0.80685496,-17.39451,-14.909392,2.7332408,56.275394,-33.675865,1.041757,1.4056485,-5.7491093,12.585384,1.9583596,22.268288,-31.402294,25.879662,2.2953188,-4.371946,7.5848947,0.30607903,-14.1768675,32.75145,28.061766,-13.391044,-5.33289,-17.535517
199,-6.476626396179199,11.09603500366211,73.39845275878906,4.922664163246726,5.8817723289112225,94.92474849165217,-7.348496,-6.0858207,2.7298975,32.549862,-31.884169,-0.787885,-18.50794,-15.089792,3.2643642,59.562798,-33.99379,0.046432883,0.966433,-6.0600357,13.138171,0.21481939,22.161407,-31.38881,24.934484,2.3513525,-4.318523,8.093349,1.6906807,-14.042956,32.309467,29.231993,-13.560679,-4.932351,-18.250433
200,-6.579881191253662,11.40787124633789,73.1939468383789,5.244000651990804,5.675640496645308,95.30061475928777,-6.9846115,-6.6073074,2.4769707,32.825493,-32.326008,-0.7505649,-19.553102,-15.1855345,3.681931,62.401295,-34.265713,-0.55052197,0.47621366,-6.343055,13.600827,-1.5245274,22.058859,-31.270147,23.85194,2.4721055,-4.2971396,8.516158,3.1182332,-13.984923,31.89428,30.29563,-13.507606,-4.6262484,-18.867897
201,-6.675856590270996,11.75271987915039,73.02228546142578,5.531077765334859,5.525160586048837,95.73438629180555,-6.6440306,-7.088662,2.1547136,33.02343,-32.705093,-0.6735639,-20.531145,-15.176241,3.9971972,64.75689,-34.51923,-0.5722422,-0.072419405,-6.5956626,13.976073,-3.2731562,21.959476,-31.03238,22.598166,2.7318256,-4.3384185,8.815583,4.6145973,-14.03092,31.510523,31.245024,-13.054978,-4.459358,-19.382765
202,-6.759961128234863,12.100285530090332,72.87419128417969,5.78874008031089,5.417243081778061,96.22584772785498,-6.307334,-7.535493,1.7632353,33.137886,-33.026386,-0.57325035,-21.45468,-15.070997,4.220733,66.74937,-34.735462,-0.17831165,-0.68099403,-6.8182116,14.283416,-5.0687785,21.86216,-30.71173,21.214241,3.0382495,-4.4196973,9.03777,6.2116632,-14.190788,31.13667,32.110947,-12.3141165,-4.4038906,-19.824133
203,-6.840027332305908,12.47596263885498,72.75636291503906,6.002858569697938,5.346012049611976,96.72822630463205,-5.9216557,-7.9225435,1.3306646,33.09118,-33.262604,-0.48498616,-22.33246,-14.917047,4.3108597,68.4175,-34.901928,0.35596323,-1.3208672,-7.000787,14.515839,-6.8719373,21.772135,-30.341509,19.737797,3.2898738,-4.485784,9.231008,7.902654,-14.467904,30.75646,32.778637,-11.587226,-4.388767,-20.18054
204,-6.914283275604248,12.888103485107422,72.67691040039062,6.160150065368267,5.30633810289308,97.19489941153087,-5.433888,-8.224492,0.8850121,32.80267,-33.38291,-0.44265777,-23.172522,-14.763446,4.232334,69.790474,-34.994564,0.75066704,-1.9642146,-7.1349716,14.66898,-8.637906,21.700567,-29.952255,18.198648,3.3850982,-4.482487,9.442409,9.677844,-14.859827,30.354168,33.135754,-11.176608,-4.337861,-20.442327
205,-6.9723896980285645,13.333502769470215,72.63905334472656,6.2673176698198985,5.294369208215559,97.63134219371949,-4.8310924,-8.447167,0.4137333,32.254223,-33.38943,-0.45500183,-23.973328,-14.640894,3.9736993,70.857086,-34.999863,0.94760865,-2.617299,-7.2321196,14.746864,-10.3652315,21.654263,-29.533531,16.561167,3.2723427,-4.38175,9.690303,11.557038,-15.368193,29.913761,33.125572,-11.225471,-4.2155843,-20.575018
206,-7.0374226570129395,13.784978866577148,72.64051055908203,6.32948936916696,5.314565115133545,98.05721797481189,-4.140817,-8.596357,-0.091830686,31.486895,-33.29578,-0.50306875,-24.73486,-14.524821,3.560039,71.60558,-34.928013,1.0830522,-3.2870772,-7.2919726,14.755451,-12.074083,21.634594,-29.083334,14.813594,3.011043,-4.2176027,9.949205,13.551333,-15.991572,29.435963,32.80283,-11.551253,-4.0632973,-20.59104
207,-7.077439785003662,14.300076484680176,72.68724822998047,6.33036374482125,5.374899323892935,98.44705784335372,-3.3702636,-8.647515,-0.59778064,30.506659,-33.086205,-0.58168644,-25.469286,-14.393518,3.0170174,72.06358,-34.787178,1.1715957,-3.9485817,-7.289725,14.694613,-13.750801,21.647354,-28.643747,13.018871,2.6631908,-4.028615,10.19943,15.63178,-16.715689,28.930676,32.232178,-11.970994,-3.9198892,-20.553205
208,-7.1232805252075195,14.826862335205078,72.76445770263672,6.255169320199136,5.48324221835986,98.77502234646242,-2.530644,-8.576911,-1.0682323,29.326052,-32.747902,-0.68714017,-26.187521,-14.219142,2.3675673,72.25831,-34.585884,1.2254663,-4.578273,-7.2032213,14.563705,-15.377219,21.700953,-28.255377,11.236765,2.2908566,-3.8527353,10.4205065,17.758999,-17.51825,28.40843,31.493334,-12.303781,-3.8247204,-20.52708
209,-7.162288665771484,15.37916088104248,72.87460327148438,6.094329994290548,5.638658274144174,99.02566046643616,-1.5909027,-8.36633,-1.4959584,27.890491,-32.278107,-0.81596226,-26.888487,-14.005635,1.5860789,72.16596,-34.315228,1.2374353,-5.170666,-7.0296373,14.365552,-16.9435,21.799913,-27.920406,9.437462,1.8395952,-3.696569,10.637568,19.935194,-18.383833,27.852001,30.594824,-12.532325,-3.7861414,-20.54743
210,-7.194628715515137,15.955977439880371,73.01506042480469,5.856455082293031,5.838564556591232,99.21566508185666,-0.55998397,-8.029516,-1.8963968,26.21707,-31.687254,-0.96905845,-27.564465,-13.76631,0.6689074,71.778824,-33.97313,1.2034936,-5.738642,-6.783494,14.103396,-18.457191,21.944935,-27.623957,7.59641,1.2978987,-3.5411742,10.853338,22.170511,-19.306133,27.253706,29.515636,-12.747532,-3.7848854,-20.575115
211,-7.221190452575684,16.571353912353516,73.18061065673828,5.560947018343749,6.088146428083984,99.36663674982712,0.4949045,-7.5927,-2.2681243,24.417282,-30.97562,-1.1497715,-28.215132,-13.488545,-0.3280191,71.14645,-33.578934,1.1427586,-6.291229,-6.467919,13.776238,-19.91758,22.139458,-27.373041,5.7752595,0.79358286,-3.3843513,11.010894,24.4325,-20.273167,26.644802,28.29533,-12.931299,-3.8192952,-20.565714
212,-7.241031646728516,17.209501266479492,73.36925506591797,5.224517130792199,6.392434423819397,99.50016159397629,1.512777,-7.084985,-2.6120017,22.58998,-30.133434,-1.3623248,-28.842785,-13.164119,-1.3460184,70.319115,-33.15203,1.0757409,-6.8370504,-6.0890217,13.381642,-21.323673,22.389454,-27.175455,4.036969,0.45445094,-3.2227116,11.051517,26.677643,-21.271194,26.060186,26.9874,-13.067093,-3.8879697,-20.476278
213,-7.258349418640137,17.87165641784668,73.57551574707031,4.831450750373496,6.765522402992946,99.61454591875787,2.4979587,-6.485193,-2.9438922,20.699516,-29.1595,-1.6127491,-29.460028,-12.77621,-2.3945475,69.28948,-32.69736,0.9686429,-7.376437,-5.624756,12.898509,-22.675165,22.702505,-27.040367,2.3768642,0.34898004,-3.0488758,10.933561,28.901796,-22.296946,25.51389,25.602795,-13.106409,-4.0043197,-20.296265
214,-7.273545265197754,18.558557510375977,73.79154205322266,4.378515534931552,7.200155319400906,99.69916702519731,3.4774473,-5.7890687,-3.2572138,18.70872,-28.056282,-1.8976614,-30.058128,-12.333607,-3.498134,68.031,-32.203526,0.82734793,-7.9051723,-5.082091,12.339237,-23.969242,23.082367,-26.961325,0.7585304,0.39437124,-2.8663929,10.694851,31.118958,-23.350178,24.982933,24.127016,-13.075841,-4.165295,-20.0501
215,-7.284125804901123,19.261274337768555,74.01622772216797,3.91138247975668,7.669398023575396,99.76220678073852,4.4015584,-5.056536,-3.51759,16.765467,-26.850567,-2.2087708,-30.612373,-11.864751,-4.615197,66.56978,-31.667212,0.7260748,-8.429161,-4.513369,11.747365,-25.18785,23.526527,-26.91633,-0.8087163,0.5010467,-2.6878343,10.395547,33.300564,-24.417631,24.460749,22.582077,-13.07019,-4.3427005,-19.747334
216,-7.2827467918396,19.968149185180664,74.24890899658203,3.4748876179758192,8.146161408222222,99.81258371163925,5.2279973,-4.349229,-3.6940632,15.006683,-25.564547,-2.5380018,-31.100882,-11.398185,-5.7001567,64.93471,-31.085098,0.737537,-8.952257,-3.9749086,11.161573,-26.326017,24.030092,-26.888645,-2.297887,0.5763228,-2.52479,10.096426,35.4036,-25.479218,23.94574,21.012302,-13.187806,-4.5120683,-19.400503
217,-7.2746686935424805,20.70008659362793,74.48541259765625,3.0737248046364223,8.637609177760623,99.86285842999344,5.9459076,-3.6697683,-3.790543,13.441071,-24.181124,-2.8912284,-31.520317,-10.933418,-6.751143,63.080612,-30.48005,0.94949466,-9.482716,-3.47652,10.566961,-27.420723,24.594471,-26.897436,-3.6708486,0.58644783,-2.4051208,9.776643,37.410156,-26.526018,23.455652,19.430769,-13.510083,-4.663671,-18.988604
218,-7.2580060958862305,21.438661575317383,74.72886657714844,2.690639475666627,9.152096826535283,99.90401153749696,6.583673,-2.9969795,-3.8252964,12.002232,-22.695246,-3.270776,-31.880856,-10.458146,-7.779928,61.003345,-29.842909,1.3002176,-10.009511,-2.9980862,9.948911,-28.473759,25.220558,-26.954172,-4.942121,0.58285034,-2.3142445,9.4162855,39.32608,-27.558704,22.993113,17.840052,-13.972182,-4.8156056,-18.516401
219,-7.2483649253845215,22.183067321777344,74.97066497802734,2.33730365930894,9.6639445171461,99.91343730489685,7.1602225,-2.356886,-3.7895188,10.71297,-21.148703,-3.664697,-32.181538,-9.98187,-8.761945,58.79373,-29.12163,1.6366775,-10.511713,-2.5499709,9.342052,-29.41918,25.898802,-27.023909,-6.1620526,0.6076654,-2.1995194,9.078031,41.13871,-28.56842,22.542475,16.26924,-14.451609,-4.9811273,-18.033815
220,-7.2128005027771,22.9509220123291,75.21263885498047,2.0243973675335085,10.147363121226775,99.8684896637982,7.692432,-1.7761565,-3.6723952,9.599251,-19.581669,-4.0615597,-32.423035,-9.513329,-9.67582,56.54988,-28.268198,1.8064477,-10.966003,-2.1413922,8.7783575,-30.200726,26.615257,-27.070938,-7.3680687,0.70217776,-2.007754,8.823311,42.837593,-29.54053,22.08528,14.7502365,-14.827737,-5.170871,-17.591698
221,-7.179915904998779,23.71824073791504,75.45291137695312,1.7561755747854733,10.61331983346795,99.78008790449888,8.1767025,-1.2557551,-3.4621594,8.628841,-17.949854,-4.501266,-32.62766,-9.079355,-10.555216,54.278435,-27.212044,1.697906,-11.368817,-1.769951,8.249293,-30.859373,27.364096,-27.108932,-8.525401,0.9607463,-1.6839325,8.669311,44.420185,-30.467598,21.615942,13.296629,-15.103803,-5.3954,-17.207115
222,-7.154737949371338,24.49448585510254,75.68914031982422,1.5233241362193612,11.069122800167,99.65486997011696,8.610498,-0.78508246,-3.1716704,7.7964106,-16.247862,-4.979784,-32.78686,-8.664802,-11.404879,51.937397,-26.001438,1.4152076,-11.723443,-1.4317722,7.7395296,-31.424616,28.1432,-27.155064,-9.610229,1.3348819,-1.2696557,8.579889,45.887234,-31.349531,21.147133,11.901079,-15.336538,-5.6454544,-16.852928
223,-7.119044780731201,25.285362243652344,75.91364288330078,1.3177823562380298,11.483521149810679,99.46435773781583,8.9461,-0.37676045,-2.8214056,7.3047214,-14.645502,-5.418988,-32.855694,-8.21433,-12.158328,49.550156,-24.766449,1.1290561,-12.01816,-1.1356289,7.2720737,-31.809387,28.939957,-27.17251,-10.674839,1.6629053,-0.86002004,8.539024,47.230137,-32.183453,20.684824,10.564621,-15.486357,-5.8996496,-16.513159
224,-7.084588050842285,26.093557357788086,76.12960052490234,1.1351603270590356,11.823855842922768,99.17972619517931,9.221898,-0.038535744,-2.4282274,7.1744976,-13.215183,-5.7390738,-32.789753,-7.6718698,-12.7397175,47.137085,-23.628637,1.0086057,-12.239485,-0.8903776,6.8693156,-31.93793,29.737833,-27.123129,-11.758726,1.7786582,-0.5502349,8.5330305,48.43854,-32.96585,20.23562,9.289308,-15.510773,-6.136033,-16.171526
225,-7.047136306762695,26.921092987060547,76.33142852783203,0.9704062500497568,12.07631911246492,98.77990124936032,9.61094,0.23448764,-1.9658511,7.07303,-11.770051,-5.898073,-32.550655,-6.999571,-13.124962,44.60563,-22.602869,1.0892967,-12.364384,-0.7020348,6.5392065,-31.819967,30.527632,-27.00689,-12.827181,1.5975928,-0.37439084,8.5711565,49.52713,-33.696236,19.79839,8.07799,-15.36034,-6.3567877,-15.837526
226,-7.001863479614258,27.766355514526367,76.5091323852539,0.8275902822439609,12.256822553055043,98.2855989180697,10.096624,0.44533095,-1.4278103,6.979093,-10.27055,-5.944725,-32.163414,-6.2365146,-13.346725,41.96584,-21.623947,1.2785916,-12.401428,-0.5659584,6.268908,-31.495174,31.305435,-26.838295,-13.858158,1.2261579,-0.27889436,8.657173,50.49083,-34.37639,19.37274,6.9315805,-15.067912,-6.568831,-15.514382
227,-6.964223861694336,28.62204933166504,76.65790557861328,0.7088941644187334,12.378388043583605,97.73265758249286,10.560797,0.59349173,-0.8650662,7.099438,-8.867058,-5.9309325,-31.679163,-5.443937,-13.4159565,39.39177,-20.696627,1.5541081,-12.384109,-0.47440192,6.049616,-30.943232,32.062504,-26.601603,-14.898992,0.7788133,-0.227723,8.769983,51.31916,-35.005882,18.948217,5.8256664,-14.730759,-6.757364,-15.1768465
228,-6.91630744934082,29.487815856933594,76.77621459960938,0.6118046680938524,12.45698920104074,97.1568965176534,10.889265,0.6887836,-0.33291706,7.6225853,-7.69833,-5.909438,-31.152166,-4.676883,-13.350613,37.061405,-19.826933,1.8957924,-12.344574,-0.41367605,5.8726273,-30.136337,32.78585,-26.281387,-15.997867,0.37545887,-0.18441583,8.88858,51.979538,-35.585693,18.524307,4.754418,-14.4341955,-6.908786,-14.800452
229,-6.883316516876221,30.365869522094727,76.85989379882812,0.5355603655938886,12.49568049425011,96.5418229298043,11.177969,0.7351483,0.18172336,8.345713,-6.6653185,-5.8730383,-30.56905,-3.9081328,-13.117848,34.93335,-19.010952,2.4297225,-12.270688,-0.38039288,5.7335196,-29.057972,33.464996,-25.873625,-17.166449,0.039499685,-0.13563651,9.021162,52.493954,-36.119534,18.066439,3.7002838,-14.202931,-7.0304046,-14.312811
230,-6.8439459800720215,31.24700164794922,76.91071319580078,0.4743002408388537,12.489629637131877,95.8809499866443,11.421305,0.74204314,0.6960462,9.290251,-5.7562547,-5.7945585,-29.906412,-3.1214068,-12.725795,32.939114,-18.247593,3.1207175,-12.154548,-0.3736214,5.6361384,-27.727928,34.09323,-25.383694,-18.370916,-0.28767478,-0.102745034,9.172961,52.88674,-36.606934,17.582447,2.6540563,-13.99632,-7.1255484,-13.748801
231,-6.798083305358887,32.12888717651367,76.92337799072266,0.4176590333493165,12.445793789929999,95.22322797657303,11.567291,0.7398836,1.1630799,10.526175,-5.0073633,-5.6995854,-29.221712,-2.378455,-12.265139,31.243206,-17.556463,3.710137,-12.026561,-0.37764972,5.5835657,-26.184246,34.66043,-24.822582,-19.585012,-0.6112697,-0.10072705,9.319107,53.07045,-37.04479,17.159239,1.672862,-13.776929,-7.176732,-13.2455845
232,-6.746660232543945,33.00190734863281,76.90003967285156,0.3440328279975083,12.373483329173224,94.61635912751998,11.548315,0.76680547,1.5354183,12.153394,-4.4650993,-5.616352,-28.583065,-1.7310089,-11.83556,30.020992,-16.958248,3.9412389,-11.92831,-0.37028202,5.5733905,-24.451687,35.15652,-24.194256,-20.789799,-0.9318245,-0.14404723,9.4343405,53.048134,-37.41696,16.859392,0.7396724,-13.558902,-7.165854,-12.941992
233,-6.692240238189697,33.875179290771484,76.84207153320312,0.23926421911156814,12.281434635224677,94.05625512924556,11.366496,0.8500856,1.8015219,14.163194,-4.161442,-5.578515,-28.028069,-1.1870526,-11.45761,29.358467,-16.319365,3.6933572,-11.846317,-0.34039667,5.594741,-22.535631,35.56593,-23.513931,-21.989796,-1.2899336,-0.2571418,9.489983,52.755768,-37.717346,16.739159,-0.09262917,-13.316144,-7.0704703,-12.924
234,-6.635035037994385,34.76275634765625,76.74469757080078,0.10893308660286344,12.164992105123224,93.52043400759656,11.059518,0.98279727,1.9845686,16.496607,-4.0556974,-5.555736,-27.528734,-0.7113378,-11.095317,29.170668,-15.68201,3.1237447,-11.757028,-0.29848826,5.6485114,-20.447025,35.876556,-22.804445,-23.172913,-1.6689984,-0.42551413,9.506182,52.209606,-37.94358,16.761747,-0.8259463,-13.0544195,-6.907962,-13.103628
235,-6.578356742858887,35.64521026611328,76.61346435546875,-0.03241124456362747,12.013771682771624,93.02976537641405,10.625388,1.1480061,2.0891802,19.157385,-4.0766377,-5.4858484,-27.052525,-0.285382,-10.762033,29.370564,-15.325313,2.3915935,-11.674494,-0.25196698,5.7533307,-18.24894,36.08543,-22.096033,-24.275019,-1.9953394,-0.60543275,9.531244,51.486946,-38.082687,16.860023,-1.5178322,-12.810629,-6.72098,-13.357115
236,-6.510087966918945,36.51795959472656,76.4540023803711,-0.1670173894054374,11.817107774141045,92.60650708757146,10.06907,1.3200402,2.121256,22.133804,-4.143833,-5.3128104,-26.561733,0.11456058,-10.460975,29.85931,-15.522219,1.6554077,-11.598145,-0.20951915,5.9322643,-16.017979,36.194103,-21.432318,-25.232847,-2.1967099,-0.75341713,9.615626,50.569447,-38.124973,16.99246,-2.140986,-12.576889,-6.552862,-13.5592375
237,-6.476859092712402,37.370609283447266,76.24744415283203,-0.27435706918427544,11.561835141598088,92.27472631900864,9.3958645,1.4608891,2.0623498,25.47131,-4.2743354,-4.9838357,-26.035904,0.48521236,-10.162086,30.706247,-16.497997,0.87621385,-11.547026,-0.18954583,6.1862044,-13.746764,36.202927,-20.842567,-26.07873,-2.2334805,-0.85518974,9.812345,49.495472,-38.053276,17.121492,-2.7297928,-12.324577,-6.4061985,-13.676181
238,-6.427632808685303,38.23353576660156,76.0020751953125,-0.35719988517004275,11.253358185506624,92.0169258136031,8.625041,1.5711639,1.9168305,29.122648,-4.4794116,-4.547289,-25.492113,0.8291148,-9.856079,31.920359,-18.044304,-0.008003145,-11.497535,-0.1943239,6.5046444,-11.44523,36.10597,-20.342192,-26.808086,-2.1530387,-0.93477684,10.082469,48.25676,-37.858013,17.268343,-3.268235,-12.063016,-6.2620287,-13.773663
