unveil-humanoid-operators/unveil-humanoid-operators.github.io/feature-analysis-animation/data/feature_matrix_instances/age_ankle_rom_jumping_turning_A038.csv
Frame,root_translateX,root_translateY,root_translateZ,root_rotateX,root_rotateY,root_rotateZ,left_hip_pitch_joint_dof,left_hip_roll_joint_dof,left_hip_yaw_joint_dof,left_knee_joint_dof,left_ankle_pitch_joint_dof,left_ankle_roll_joint_dof,right_hip_pitch_joint_dof,right_hip_roll_joint_dof,right_hip_yaw_joint_dof,right_knee_joint_dof,right_ankle_pitch_joint_dof,right_ankle_roll_joint_dof,waist_yaw_joint_dof,waist_roll_joint_dof,waist_pitch_joint_dof,left_shoulder_pitch_joint_dof,left_shoulder_roll_joint_dof,left_shoulder_yaw_joint_dof,left_elbow_joint_dof,left_wrist_roll_joint_dof,left_wrist_pitch_joint_dof,left_wrist_yaw_joint_dof,right_shoulder_pitch_joint_dof,right_shoulder_roll_joint_dof,right_shoulder_yaw_joint_dof,right_elbow_joint_dof,right_wrist_roll_joint_dof,right_wrist_pitch_joint_dof,right_wrist_yaw_joint_dof
0,-0.475546658039093,2.8343758583068848,77.67815399169922,0.07444773180444737,-5.840574288387379,-96.14117752179814,10.411501,0.44368395,0.72052634,9.063031,-15.592952,-2.2012198,9.644404,0.8121286,0.07183905,10.56148,-14.845837,0.47708547,-3.2100713,0.16578488,7.1636386,11.04991,8.395842,-20.899467,62.067955,-23.432308,4.992461,20.136791,1.9660103,-9.010947,33.37793,68.696465,11.953576,-2.0900648,-3.6985736
1,-0.47281351685523987,2.8313653469085693,77.6769790649414,0.07353802892452088,-5.858668755220195,-96.15967857043594,10.438905,0.44450647,0.73468083,9.066454,-15.608098,-2.190418,9.671047,0.8114465,0.081021294,10.552981,-14.845991,0.49280462,-3.211867,0.1483977,7.1855063,11.041651,8.406516,-20.917995,62.079277,-23.41824,4.9840984,20.144629,1.9538941,-9.012858,33.39493,68.69684,11.96754,-2.0917084,-3.6873074
2,-0.46970462799072266,2.824817657470703,77.67670440673828,0.0714140665528729,-5.876970682376882,-96.17836906587826,10.465776,0.44458544,0.7488058,9.07084,-15.623586,-2.178421,9.695333,0.8098275,0.089586064,10.549743,-14.849456,0.5096717,-3.2137077,0.13200405,7.206048,11.033245,8.410778,-20.932941,62.09349,-23.399845,4.9750886,20.154144,1.9406368,-9.013901,33.41006,68.70057,11.978741,-2.0935516,-3.6758544
3,-0.4670253396034241,2.817981243133545,77.67479705810547,0.07029192316980117,-5.894797713388887,-96.19684357701321,10.493165,0.44536075,0.7632207,9.073442,-15.638192,-2.1686466,9.720107,0.8093999,0.099689946,10.54421,-14.850681,0.52424747,-3.217872,0.117215246,7.2258906,11.02416,8.416107,-20.953335,62.108387,-23.388046,4.9660177,20.163738,1.9274998,-9.015303,33.43057,68.70435,11.994141,-2.095014,-3.6668978
4,-0.46364423632621765,2.812866449356079,77.67317962646484,0.06774816913218133,-5.910269956302575,-96.21472805394696,10.518853,0.4466716,0.7786019,9.073228,-15.650501,-2.1642725,9.739838,0.81063193,0.11393066,10.543426,-14.852524,0.5332516,-3.2262714,0.10444262,7.2442923,11.018557,8.419831,-20.970253,62.11778,-23.376911,4.9598455,20.172577,1.9148959,-9.016477,33.44507,68.70768,12.005134,-2.094173,-3.662025
5,-0.4611116945743561,2.8152053356170654,77.67344665527344,0.06414588998915238,-5.923125612896784,-96.22932852858253,10.544597,0.44892174,0.793829,9.065679,-15.658428,-2.1691813,9.757187,0.81445295,0.13205442,10.542098,-14.851501,0.5344884,-3.2412698,0.094337136,7.2614126,11.015465,8.425724,-20.994633,62.120678,-23.378277,4.955606,20.180666,1.9022552,-9.018421,33.45766,68.71116,12.016464,-2.0899978,-3.6627827
6,-0.45612776279449463,2.8062994480133057,77.67169952392578,0.05967033430773546,-5.933057577722543,-96.2418483040733,10.567126,0.45162153,0.80892557,9.057062,-15.665369,-2.1806052,9.766869,0.8198635,0.15293856,10.550411,-14.853593,0.5301865,-3.2633495,0.08583762,7.278262,11.013313,8.428539,-21.0066,62.120316,-23.371832,4.954197,20.184914,1.8902891,-9.0193815,33.45964,68.71207,12.015808,-2.0824332,-3.6652095
7,-0.45141875743865967,2.7974400520324707,77.66959381103516,0.05365693202167189,-5.94329875243527,-96.25733544555959,10.591245,0.45454448,0.8268234,9.045285,-15.669719,-2.1918297,9.775708,0.82593286,0.17832023,10.558852,-14.854541,0.5236328,-3.2750142,0.07940901,7.297822,11.009559,8.436579,-21.035856,62.11584,-23.375198,4.9545593,20.19141,1.879412,-9.021992,33.453815,68.71094,12.017681,-2.0757337,-3.6703432
8,-0.445337176322937,2.793349027633667,77.66817474365234,0.048693105869820244,-5.9525010010007575,-96.27870466914405,10.610212,0.45907187,0.847981,9.043194,-15.677625,-2.1962705,9.781899,0.83343935,0.20733093,10.566433,-14.854546,0.5178495,-3.2880883,0.07453657,7.313337,11.008572,8.438884,-21.042753,62.11527,-23.358461,4.9589386,20.196444,1.8721687,-9.0228195,33.451855,68.708984,12.015977,-2.0730543,-3.6757681
9,-0.4375388026237488,2.792165756225586,77.66651916503906,0.04153219120814669,-5.967910216792055,-96.31375410077061,10.6358185,0.46526408,0.8791553,9.043296,-15.684769,-2.1907423,9.789922,0.84300387,0.2485582,10.576266,-14.853922,0.51052505,-3.2812681,0.07331346,7.343773,11.002379,8.442677,-21.05472,62.110546,-23.33517,4.9668207,20.205618,1.8593385,-9.0244875,33.44476,68.703636,12.017199,-2.0735078,-3.685984
10,-0.42769914865493774,2.7905426025390625,77.66546630859375,0.03397967084153756,-5.983391496269309,-96.35565546870586,10.65823,0.4723145,0.91458374,9.049776,-15.692618,-2.17908,9.791961,0.8537822,0.29622707,10.594382,-14.856462,0.5011828,-3.2601414,0.07417073,7.375925,10.991337,8.449064,-21.069017,62.107315,-23.305008,4.9792047,20.213835,1.8519491,-9.02819,33.426147,68.69219,12.015204,-2.0775142,-3.6978483
11,-0.4215957522392273,2.790684700012207,77.66385650634766,0.027262884793779214,-5.9975925900839755,-96.39974768767239,10.679047,0.47954616,0.9521057,9.057913,-15.701976,-2.1656501,9.792548,0.8641076,0.34377232,10.611515,-14.859106,0.4953984,-3.2389257,0.07508465,7.406186,10.984683,8.455635,-21.07767,62.101482,-23.269852,4.993258,20.224102,1.8477825,-9.033222,33.408966,68.67792,12.014232,-2.0833857,-3.7079644
12,-0.4152563512325287,2.789052963256836,77.66321563720703,0.02166875438332649,-6.009266641974702,-96.44108544550332,10.700135,0.48590186,0.9892279,9.06127,-15.712556,-2.154772,9.797412,0.87219906,0.38434702,10.61705,-14.859028,0.4984021,-3.2266767,0.07424399,7.43115,10.983062,8.458939,-21.082895,62.09587,-23.239687,5.0061016,20.24046,1.8436686,-9.036374,33.4017,68.667244,12.01914,-2.0908887,-3.7137759
13,-0.4092824161052704,2.7835278511047363,77.6627426147461,0.01688941026251568,-6.015695157096356,-96.47687486119806,10.718226,0.49045986,1.0246311,9.059857,-15.725409,-2.1472266,9.805803,0.87601966,0.41188478,10.6074915,-14.856701,0.51732755,-3.224521,0.071099006,7.4449725,10.986168,8.460484,-21.086304,62.094784,-23.214361,5.01702,20.265518,1.8413931,-9.03795,33.400776,68.66158,12.032601,-2.1020825,-3.712107
14,-0.4061906635761261,2.7797746658325195,77.66162109375,0.013609391803932398,-6.021749982585286,-96.51352664373884,10.740558,0.4949352,1.0628822,9.05216,-15.739413,-2.1411426,9.819542,0.87808865,0.43470004,10.588039,-14.852934,0.54703575,-3.220251,0.06614425,7.4604626,10.994992,8.462885,-21.092802,62.084682,-23.190859,5.030061,20.302801,1.8413237,-9.040425,33.401264,68.65296,12.055173,-2.1175735,-3.7059712
15,-0.40039926767349243,2.778092622756958,77.66185760498047,0.010499824403857749,-6.024529871856463,-96.54705353159385,10.757824,0.49825466,1.0984637,9.046142,-15.754041,-2.1356294,9.828463,0.8788592,0.4546028,10.5717535,-14.850794,0.57624924,-3.221259,0.061784048,7.4704394,11.000957,8.464246,-21.096682,62.08286,-23.172407,5.0400763,20.332373,1.8417515,-9.041731,33.40332,68.647,12.072152,-2.130021,-3.6984828
16,-0.3958488702774048,2.7725658416748047,77.66169738769531,0.005845318099749068,-6.031058127217802,-96.58517643390383,10.780372,0.5039412,1.1371071,9.037664,-15.765978,-2.1310637,9.839915,0.8837906,0.48491853,10.556336,-14.844655,0.59247994,-3.2146022,0.057613842,7.4877653,11.009559,8.467737,-21.106152,62.072777,-23.15791,5.049474,20.361282,1.8426851,-9.045032,33.41251,68.638405,12.088068,-2.1381483,-3.69158
17,-0.38614392280578613,2.7659032344818115,77.66230010986328,-0.00028590102422837953,-6.038238651298821,-96.62372720967545,10.800721,0.5089363,1.1737905,9.033173,-15.776268,-2.1268427,9.840684,0.89070296,0.5245735,10.563072,-14.84462,0.59131205,-3.2096364,0.0540654,7.5065646,11.016116,8.473346,-21.1176,62.06532,-23.153429,5.055443,20.377205,1.8422812,-9.050313,33.433964,68.6297,12.095378,-2.134661,-3.6888728
18,-0.38005924224853516,2.765108346939087,77.65805053710938,-0.007114829102598792,-6.04550072305006,-96.66307045865186,10.819773,0.5145634,1.209959,9.030694,-15.7856865,-2.1234932,9.83629,0.89968306,0.5701405,10.579462,-14.846281,0.57941145,-3.2018025,0.051304113,7.5294037,11.01447,8.475532,-21.123735,62.0648,-23.144651,5.0597873,20.385159,1.838267,-9.052276,33.449978,68.62345,12.086809,-2.12415,-3.6849551
19,-0.3726497292518616,2.7644827365875244,77.65474700927734,-0.014099461717076173,-6.052457773627994,-96.7028746506116,10.837533,0.52035594,1.2460135,9.028952,-15.794955,-2.1204047,9.828518,0.9091639,0.6170486,10.600956,-14.848474,0.5631008,-3.1950636,0.04896384,7.551951,11.012978,8.478886,-21.129633,62.064457,-23.143967,5.0607834,20.385225,1.8353654,-9.055141,33.473408,68.6177,12.079907,-2.1130028,-3.6829414
20,-0.3646247684955597,2.764331817626953,77.6534652709961,-0.021130784986729132,-6.05726003608797,-96.73791794573457,10.85031,0.5267528,1.2771981,9.02924,-15.80527,-2.1171913,9.82266,0.9186238,0.65561867,10.613931,-14.846208,0.54873115,-3.1898983,0.048728626,7.5701895,11.014289,8.479557,-21.131351,62.061916,-23.14832,5.059024,20.375095,1.8370854,-9.0556965,33.48144,68.61565,12.072733,-2.1085072,-3.6805227
21,-0.35781264305114746,2.7649905681610107,77.65375518798828,-0.030276070478370876,-6.061139781303147,-96.77906711172058,10.864623,0.53508484,1.314503,9.02427,-15.816123,-2.115496,9.809465,0.9292919,0.6950356,10.636562,-14.846339,0.5339013,-3.1879318,0.049785342,7.5900044,11.017888,8.482948,-21.127882,62.054382,-23.182062,5.048122,20.347109,1.841053,-9.058362,33.509686,68.60768,12.086666,-2.111227,-3.685421
22,-0.34918278455734253,2.766333818435669,77.6556625366211,-0.039351738633223395,-6.06296487991981,-96.81664449690403,10.873792,0.54502314,1.3476864,9.022393,-15.828804,-2.1146624,9.797627,0.9410495,0.72786856,10.651472,-14.840851,0.5168773,-3.1895354,0.052996356,7.608406,11.026626,8.4867935,-21.113113,62.04003,-23.222462,5.033776,20.303513,1.849661,-9.061243,33.527958,68.5988,12.098782,-2.1198905,-3.689432
23,-0.3415248692035675,2.763550281524658,77.65707397460938,-0.04882648815614918,-6.064441527199375,-96.84940833827135,10.880787,0.55407226,1.3762087,9.022336,-15.841119,-2.1120696,9.788723,0.95137656,0.75536907,10.660579,-14.833753,0.50371236,-3.185617,0.057158854,7.6241455,11.030644,8.487166,-21.110132,62.03006,-23.256132,5.0210643,20.26444,1.8596814,-9.061472,33.529606,68.59689,12.105069,-2.128476,-3.690896
24,-0.3386821746826172,2.760188341140747,77.65751647949219,-0.05703030232575056,-6.066775519440379,-96.8845291937247,10.890396,0.56170845,1.4082054,9.02305,-15.852626,-2.1057398,9.781901,0.9604999,0.7876854,10.667951,-14.828712,0.49944443,-3.186131,0.058059707,7.643877,11.030552,8.489604,-21.100546,62.025127,-23.268087,5.010943,20.226204,1.8740507,-9.062602,33.540546,68.5857,12.106792,-2.1326704,-3.6929085
25,-0.3344407379627228,2.751692295074463,77.6570816040039,-0.06115227924933273,-6.070533123439324,-96.91134249874023,10.899525,0.56501293,1.432974,9.028536,-15.861988,-2.0901968,9.784944,0.9647121,0.81478816,10.663847,-14.8253565,0.51175326,-3.191421,0.053907312,7.6620564,11.031474,8.491204,-21.102264,62.01996,-23.243204,5.0116878,20.209148,1.8897952,-9.062702,33.54949,68.57751,12.101213,-2.1295092,-3.6893206
26,-0.32943373918533325,2.7492425441741943,77.65523529052734,-0.06303233692673005,-6.074672009436863,-96.9341676799043,10.908334,0.5657237,1.4547771,9.037528,-15.87082,-2.068383,9.792096,0.96583873,0.83947515,10.655396,-14.82433,0.5356025,-3.198996,0.046724968,7.67921,11.030915,8.492278,-21.110483,62.017254,-23.196918,5.0175576,20.201334,1.908934,-9.062073,33.558136,68.56896,12.091414,-2.1224248,-3.6838338
27,-0.32296761870384216,2.7479352951049805,77.65493774414062,-0.0643765235667703,-6.0773997919066405,-96.9556069686877,10.915724,0.565547,1.4755865,9.045412,-15.87818,-2.049015,9.79737,0.9661649,0.8634377,10.647367,-14.823255,0.5590145,-3.2097292,0.040772367,7.6965017,11.030317,8.492839,-21.11838,62.014072,-23.143408,5.024775,20.196049,1.9229238,-9.061141,33.56352,68.56677,12.077073,-2.1147265,-3.6745288
28,-0.31652578711509705,2.749746084213257,77.65359497070312,-0.06807868462015593,-6.080300751327745,-96.98159347487464,10.925794,0.5679099,1.5009028,9.046098,-15.883143,-2.0412269,9.801056,0.9698421,0.8918139,10.639345,-14.817109,0.5697138,-3.2127357,0.03665156,7.71171,11.026292,8.493566,-21.13598,62.016148,-23.098627,5.030016,20.193676,1.9435145,-9.059652,33.572853,68.55966,12.068848,-2.1049173,-3.668587
29,-0.3049129247665405,2.7539913654327393,77.65640258789062,-0.07237519519636956,-6.079396928041424,-97.01040734750744,10.934447,0.5710849,1.5289435,9.036962,-15.883664,-2.0509753,9.791433,0.97589076,0.92348635,10.64731,-14.811391,0.5601015,-3.217883,0.037239864,7.725312,11.022032,8.494103,-21.15488,62.018776,-23.06831,5.0310793,20.189547,1.9557961,-9.058513,33.58176,68.56199,12.061004,-2.0967917,-3.6613343
30,-0.29979532957077026,2.7607173919677734,77.65410614013672,-0.0768369769174878,-6.075836436253774,-97.04358138398979,10.946101,0.57293,1.5615767,9.013726,-15.877421,-2.0721714,9.76782,0.98182493,0.9602489,10.675227,-14.810699,0.5382322,-3.2092133,0.040224615,7.7275014,11.011154,8.495953,-21.211319,62.035885,-23.063206,5.026936,20.193438,1.9752845,-9.054612,33.597626,68.568596,12.067016,-2.0880945,-3.6591034
31,-0.2948051989078522,2.7609994411468506,77.65452575683594,-0.08351723554391784,-6.072505089662163,-97.07658101848189,10.956107,0.57721597,1.5945036,8.993335,-15.873551,-2.0953848,9.749105,0.9899614,0.995579,10.6919985,-14.803992,0.5158102,-3.2007718,0.045594323,7.7343335,11.003036,8.498171,-21.25607,62.04512,-23.052351,5.024905,20.195686,1.9881773,-9.0504055,33.604656,68.579926,12.068007,-2.0801413,-3.6527414
32,-0.2900291681289673,2.752026081085205,77.65542602539062,-0.08984942207937821,-6.070626596359039,-97.10840684482359,10.9642725,0.5842136,1.6269828,8.980416,-15.874815,-2.110778,9.734639,0.99836814,1.0259466,10.702602,-14.798294,0.5053061,-3.1962724,0.050437726,7.746954,10.99824,8.498906,-21.271027,62.04612,-23.028902,5.0271096,20.193665,1.9973329,-9.049022,33.60917,68.58952,12.06867,-2.0729651,-3.6415288
33,-0.28507012128829956,2.766007423400879,77.6541976928711,-0.09810046619388628,-6.069888503839256,-97.14477222594407,10.973368,0.59538203,1.665949,8.969848,-15.880491,-2.1165907,9.727939,1.007749,1.0540375,10.695789,-14.789159,0.51392704,-3.1711028,0.05596866,7.7546053,10.987178,8.50032,-21.291088,62.05553,-23.01159,5.031974,20.193844,2.0164351,-9.045754,33.614773,68.59694,12.092951,-2.0681682,-3.6311183
34,-0.2806117832660675,2.7685818672180176,77.65263366699219,-0.10953472656885194,-6.0697025988807844,-97.18114521076488,10.980411,0.6103856,1.7064383,8.96436,-15.890771,-2.1175914,9.725222,1.0182266,1.0771887,10.679037,-14.778249,0.53390986,-3.1447244,0.06336005,7.765136,10.981772,8.501554,-21.2947,62.054657,-22.987734,5.0404754,20.192585,2.031844,-9.042545,33.618126,68.60677,12.122451,-2.0649953,-3.6166751
35,-0.27330800890922546,2.763230085372925,77.65571594238281,-0.11946123533967176,-6.071198113198405,-97.21590248178444,10.987761,0.62490076,1.744543,8.962188,-15.902721,-2.1145296,9.724237,1.028579,1.0999514,10.664344,-14.769411,0.55451894,-3.1186776,0.0677987,7.7755256,10.973866,8.503049,-21.2902,62.058044,-22.965124,5.049406,20.19095,2.0499768,-9.037853,33.621593,68.614944,12.150082,-2.0613017,-3.603376
36,-0.2681444585323334,2.7591121196746826,77.65534973144531,-0.12856791390185432,-6.075059428656708,-97.24194210687773,10.994848,0.634394,1.7715124,8.964181,-15.914535,-2.1077404,9.726702,1.0370014,1.121553,10.653773,-14.761715,0.56517494,-3.1074553,0.06972296,7.78762,10.96916,8.504213,-21.282753,62.059635,-22.951374,5.055212,20.190676,2.066589,-9.033272,33.624973,68.62209,12.157707,-2.054855,-3.5915992
37,-0.2639419734477997,2.7596590518951416,77.65485382080078,-0.13206696992528277,-6.081119149427179,-97.25647798621958,11.001011,0.63668466,1.7823162,8.971539,-15.926226,-2.0939438,9.728082,1.0426337,1.143224,10.659645,-14.760294,0.5611456,-3.1121562,0.06999726,7.800705,10.970874,8.5047865,-21.279692,62.056328,-22.952053,5.0569363,20.195234,2.0836594,-9.030655,33.625183,68.626915,12.136513,-2.043879,-3.582389
38,-0.25910133123397827,2.761796712875366,77.65335083007812,-0.13492743538921106,-6.088908511263451,-97.26264827552791,11.005201,0.63447016,1.7817354,8.984985,-15.939263,-2.0740168,9.729828,1.0467781,1.1641337,10.674548,-14.76263,0.5486122,-3.1250043,0.06879817,7.8146086,10.973523,8.505254,-21.278027,62.05245,-22.961979,5.0562596,20.2018,2.1008885,-9.028278,33.624126,68.6311,12.101459,-2.0311718,-3.5752923
39,-0.2551356554031372,2.758007049560547,77.65233612060547,-0.13616774796208211,-6.098551870396177,-97.26721230533565,11.010349,0.6300832,1.7799335,9.000823,-15.952261,-2.0546956,9.731704,1.0490845,1.1845403,10.695189,-14.76845,0.5339195,-3.141514,0.063044615,7.8263164,10.980101,8.506194,-21.275354,62.04827,-22.978659,5.0543537,20.211119,2.129262,-9.023959,33.617893,68.62376,12.050154,-2.0145342,-3.570473
40,-0.250018447637558,2.7589707374572754,77.65156555175781,-0.13582161403261983,-6.107866481544069,-97.27490347957509,11.019597,0.6266481,1.785278,9.00701,-15.958216,-2.0428257,9.73423,1.0500479,1.2026635,10.710639,-14.773466,0.5232263,-3.1497924,0.056915596,7.838398,10.983507,8.508885,-21.276218,62.044697,-22.996878,5.051858,20.216293,2.1492615,-9.013811,33.60548,68.62702,12.013726,-2.00358,-3.5652013
41,-0.24727508425712585,2.7621989250183105,77.64981079101562,-0.13481816282417486,-6.118839568874612,-97.28830870412939,11.034849,0.624113,1.8031021,9.005899,-15.957203,-2.0429251,9.739159,1.0486002,1.2186949,10.721474,-14.779378,0.5174218,-3.1555517,0.052488614,7.8532963,10.988336,8.510705,-21.277027,62.03674,-23.022192,5.0488977,20.216648,2.164299,-9.007428,33.599342,68.63179,12.00155,-1.9967952,-3.5591776
42,-0.24306005239486694,2.7643566131591797,77.64954376220703,-0.13377382206927918,-6.131447458378128,-97.30395991135654,11.055493,0.62103516,1.8277423,8.997767,-15.950016,-2.0505295,9.746182,1.0446383,1.2330123,10.728973,-14.785185,0.5135044,-3.1595168,0.047119737,7.8693285,10.993857,8.512705,-21.278027,62.02676,-23.05349,5.0452447,20.214336,2.1779084,-9.000897,33.59226,68.63715,11.998561,-1.9923558,-3.5536427
43,-0.2401246428489685,2.764728307723999,77.65142822265625,-0.1317307766648643,-6.142621159808873,-97.31986004732957,11.075964,0.6183937,1.8521783,8.986452,-15.941685,-2.0586488,9.751085,1.040742,1.245857,10.738149,-14.792478,0.51164365,-3.1593325,0.040115956,7.8825517,10.998627,8.51653,-21.283127,62.018776,-23.085537,5.0404906,20.2124,2.18877,-8.989659,33.581142,68.64743,11.997254,-1.9901727,-3.5485275
44,-0.23490187525749207,2.7621970176696777,77.65150451660156,-0.13239835018818782,-6.149140620499129,-97.33254145827327,11.086729,0.6192236,1.868186,8.983114,-15.941212,-2.0606773,9.752663,1.0409867,1.2561984,10.743602,-14.796065,0.51200384,-3.1631389,0.035938617,7.890832,11.003164,8.519496,-21.289,62.01448,-23.11379,5.033398,20.213068,2.199651,-8.981141,33.57573,68.653366,11.996874,-1.9886374,-3.542823
45,-0.23157694935798645,2.758395195007324,77.65071105957031,-0.13696520116403485,-6.149622382762841,-97.34037219147639,11.086011,0.6245144,1.8710843,8.987148,-15.950008,-2.052215,9.752756,1.0468911,1.2634674,10.7392645,-14.792164,0.51532024,-3.172468,0.036420047,7.8953066,11.006339,8.520062,-21.29124,62.01423,-23.131767,5.0236692,20.21761,2.2081215,-8.979317,33.575523,68.65454,11.997622,-1.9883485,-3.5359972
46,-0.22804054617881775,2.7581841945648193,77.64960479736328,-0.14544347310804923,-6.146966168387534,-97.34583447943336,11.078662,0.63317716,1.866866,8.996131,-15.965469,-2.0378392,9.7506695,1.0566182,1.268688,10.73182,-14.785269,0.5212023,-3.1836207,0.03831241,7.895725,11.010207,8.520549,-21.295279,62.01759,-23.148485,5.010012,20.226294,2.218851,-8.977525,33.57665,68.65004,11.998152,-1.9887819,-3.528424
47,-0.2268955111503601,2.7599968910217285,77.6495132446289,-0.15607935374930781,-6.140487116316426,-97.3499664197668,11.0617895,0.6447383,1.8603797,9.016171,-15.986831,-2.024047,9.748796,1.0687717,1.2719681,10.715537,-14.773304,0.5279703,-3.1884255,0.037718497,7.8793817,11.015915,8.525085,-21.322105,62.031536,-23.176956,4.992726,20.240368,2.237882,-8.9622965,33.58233,68.651886,12.001293,-1.9898679,-3.526494
48,-0.22885194420814514,2.7634334564208984,77.6477279663086,-0.16199115840798406,-6.1351120098353285,-97.35627875404768,11.053595,0.6510191,1.860006,9.020981,-15.997376,-2.0161324,9.74451,1.0752741,1.2758961,10.706191,-14.765597,0.53508174,-3.1950471,0.037080456,7.872058,11.01987,8.527704,-21.333694,62.034874,-23.19276,4.984185,20.242174,2.2450824,-8.953638,33.584126,68.65565,11.995347,-1.9907091,-3.5210197
49,-0.22224631905555725,2.765660285949707,77.64928436279297,-0.16360732921437754,-6.128665617127148,-97.36495633768727,11.048853,0.6531,1.8667017,9.017205,-16.000353,-2.0184858,9.738902,1.0762122,1.2790278,10.697198,-14.759253,0.54354703,-3.2016573,0.036012433,7.864765,11.024869,8.529185,-21.34162,62.02976,-23.207438,4.981582,20.231352,2.250294,-8.948679,33.584118,68.65846,11.978348,-1.9899465,-3.515069
50,-0.22159719467163086,2.7646336555480957,77.6496353149414,-0.16375245242122347,-6.120883663696148,-97.37460723157805,11.047043,0.6525567,1.8769664,9.003957,-15.996848,-2.0269856,9.731515,1.0736296,1.2811916,10.6882925,-14.753503,0.5534473,-3.2077148,0.034055855,7.8560534,11.030636,8.530164,-21.34812,62.019905,-23.220219,4.98273,20.212254,2.2536604,-8.945432,33.583054,68.66145,11.953918,-1.9883809,-3.5090797
51,-0.2227940559387207,2.7651381492614746,77.64939880371094,-0.162066478647912,-6.114634800525708,-97.38524020831223,11.046514,0.6505518,1.8899854,8.9920635,-15.991806,-2.0356238,9.723377,1.0696418,1.2845886,10.684363,-14.750568,0.56196463,-3.2069626,0.029795986,7.8466473,11.0362835,8.53365,-21.36173,62.010384,-23.228716,4.9876137,20.194485,2.256986,-8.935586,33.5792,68.66654,11.928663,-1.9862449,-3.5049596
52,-0.22296498715877533,2.7659518718719482,77.64944458007812,-0.15952741020693476,-6.112740444816306,-97.3975565541237,11.049689,0.64836854,1.9057165,8.984979,-15.986373,-2.0383127,9.718794,1.0664209,1.2924577,10.684525,-14.749776,0.56607604,-3.2021387,0.025232615,7.8433876,11.035533,8.535518,-21.370907,62.008526,-23.223238,4.99728,20.183783,2.2561393,-8.930511,33.579746,68.67328,11.913064,-1.9859982,-3.5002627
53,-0.22282640635967255,2.7648308277130127,77.64896392822266,-0.15595745029023086,-6.118913081703644,-97.41189208266638,11.059637,0.6451094,1.9265658,8.986431,-15.980263,-2.0323257,9.720332,1.0634521,1.3066586,10.69266,-14.753802,0.56464535,-3.1889958,0.017118338,7.8505735,11.02909,8.537819,-21.3792,62.01416,-23.195517,5.01506,20.183985,2.2550373,-8.92452,33.58619,68.67466,11.9124775,-1.9844823,-3.4975893
54,-0.2221212089061737,2.7659683227539062,77.64826965332031,-0.14922894102200948,-6.13056338215381,-97.42904621337867,11.075944,0.63963866,1.9530327,8.990065,-15.971304,-2.0211713,9.723947,1.0590522,1.3263053,10.709444,-14.762531,0.5595261,-3.169191,0.005321844,7.8632226,11.014914,8.539911,-21.385658,62.03024,-23.152794,5.0397725,20.19014,2.2519834,-8.918417,33.60181,68.67563,11.927048,-1.9835799,-3.4964728
55,-0.21826931834220886,2.7669756412506104,77.6513900756836,-0.14483057780965727,-6.1418670158682485,-97.44498666301745,11.089622,0.6363469,1.9767382,8.998319,-15.965061,-2.0085099,9.727635,1.0569758,1.3453208,10.726484,-14.771079,0.5517659,-3.152028,-0.0044188052,7.8771825,11.003402,8.541196,-21.38882,62.04234,-23.106386,5.0634317,20.199146,2.2472444,-8.914599,33.616905,68.675156,11.937498,-1.9828249,-3.4950433
56,-0.21792243421077728,2.763535499572754,77.65306091308594,-0.14371851869658545,-6.147387198930678,-97.45791708584849,11.095487,0.6364292,1.9918824,9.006477,-15.964117,-1.9975892,9.725786,1.0581795,1.359865,10.740641,-14.776127,0.5429744,-3.1398945,-0.011321359,7.8846827,10.991481,8.541872,-21.392365,62.054337,-23.073385,5.0778704,20.208536,2.2409708,-8.912824,33.630924,68.67649,11.942849,-1.9840595,-3.4943178
57,-0.2196507304906845,2.7595512866973877,77.65241241455078,-0.14869471664622408,-6.144296095491017,-97.46637809196663,11.089579,0.64377695,1.9933935,9.016235,-15.971872,-1.988335,9.7185755,1.0659801,1.3674374,10.745648,-14.773468,0.53128135,-3.138754,-0.013602299,7.882831,10.982453,8.543075,-21.39983,62.063015,-23.060038,5.0781503,20.223701,2.232558,-8.910393,33.653496,68.68003,11.942946,-1.9887478,-3.4954984
58,-0.22294794023036957,2.7621891498565674,77.6489028930664,-0.15619821586864271,-6.135765380676948,-97.47194858996092,11.074669,0.6557214,1.9857948,9.029827,-15.986417,-1.9791868,9.702632,1.0781054,1.3706645,10.755647,-14.77106,0.51677024,-3.146174,-0.01324294,7.8714204,10.983632,8.545997,-21.41145,62.06413,-23.05998,5.0695243,20.245558,2.222406,-8.905988,33.687267,68.688385,11.943885,-1.995899,-3.4994357
59,-0.2256796956062317,2.7615838050842285,77.64929962158203,-0.16507521842384218,-6.12581484462468,-97.47604799987397,11.059834,0.6681328,1.9763973,9.039415,-16.000422,-1.9719626,9.69039,1.0907379,1.3726877,10.755302,-14.763446,0.50327474,-3.149665,-0.010528479,7.8636794,10.978696,8.547531,-21.41879,62.065063,-23.060493,5.0594554,20.260063,2.212496,-8.904507,33.700527,68.69249,11.927947,-2.0023053,-3.5004895
60,-0.22829841077327728,2.760422468185425,77.65018463134766,-0.17018135321137212,-6.115537363367596,-97.4804802085386,11.045575,0.6774823,1.9721475,9.047727,-16.010872,-1.9685441,9.678276,1.1005539,1.3760399,10.755913,-14.758443,0.49444062,-3.1550844,-0.010573332,7.8521395,10.9755745,8.552679,-21.434053,62.06617,-23.082747,5.051309,20.263002,2.1991143,-8.900609,33.727943,68.70616,11.921245,-2.0078015,-3.5060024
61,-0.2294646054506302,2.761815071105957,77.6507568359375,-0.17165938741737713,-6.106003391739211,-97.48568020647564,11.036827,0.6806671,1.9760681,9.047569,-16.0134,-1.9680803,9.668018,1.104766,1.3818934,10.7572975,-14.757405,0.49284402,-3.1573386,-0.012818444,7.8420787,10.971672,8.556668,-21.442448,62.065285,-23.119995,5.048192,20.242872,2.1849341,-8.89846,33.745964,68.72366,11.9072275,-2.0108583,-3.5124512
62,-0.2297133207321167,2.754457712173462,77.6535415649414,-0.17097641365024516,-6.095973797380028,-97.49091584245066,11.030796,0.6809623,1.9837259,9.041806,-16.011715,-1.970198,9.661621,1.1064098,1.3887763,10.751512,-14.754576,0.49590427,-3.158244,-0.015316864,7.8332148,10.965203,8.558736,-21.447021,62.063663,-23.169197,5.046919,20.20723,2.1715188,-8.897753,33.756474,68.74088,11.884003,-2.0122056,-3.5198557
63,-0.22949683666229248,2.7512691020965576,77.65480041503906,-0.17012082645417595,-6.086845034318651,-97.49508774290312,11.026858,0.6807097,1.9923093,9.033101,-16.007517,-1.9766101,9.656096,1.1073476,1.3951519,10.746329,-14.752494,0.50019145,-3.1577568,-0.019605394,7.8251867,10.958607,8.560179,-21.450584,62.06249,-23.2106,5.047059,20.172647,2.1598322,-8.897502,33.76355,68.75651,11.860797,-2.011709,-3.5259833
64,-0.23333215713500977,2.754878044128418,77.65208435058594,-0.16943180706387806,-6.076490089595213,-97.49888898292956,11.02334,0.6811727,2.0002668,9.019796,-16.000807,-1.9891499,9.644749,1.1085886,1.4013712,10.749081,-14.752974,0.5024511,-3.1647701,-0.021523101,7.8168683,10.948404,8.566817,-21.46659,62.067066,-23.257118,5.0456357,20.142141,2.1348574,-8.896193,33.79005,68.78285,11.853105,-2.0116673,-3.5325093
65,-0.23525775969028473,2.7527284622192383,77.65428161621094,-0.17038473131886256,-6.068467922091298,-97.50105650699842,11.023998,0.6856462,2.0064867,9.001611,-15.9918165,-2.014209,9.640625,1.1128502,1.4072652,10.739621,-14.744559,0.5003402,-3.1671805,-0.025972558,7.811663,10.940379,8.5751295,-21.48732,62.070454,-23.267065,5.0474124,20.132624,2.1203177,-8.8948145,33.80817,68.79395,11.848831,-2.007416,-3.5347617
66,-0.23897653818130493,2.7543511390686035,77.65248107910156,-0.17236618066165085,-6.060889454187097,-97.50257060151063,11.026507,0.6911688,2.0129347,8.97888,-15.980031,-2.0485651,9.632055,1.1178347,1.4135952,10.738999,-14.739515,0.49631253,-3.169293,-0.029419513,7.810787,10.927453,8.579032,-21.503979,62.07848,-23.251696,5.051185,20.131298,2.1056983,-8.894505,33.81579,68.8001,11.839258,-2.000059,-3.5334477
67,-0.2410459965467453,2.7513606548309326,77.6548843383789,-0.17159516903417749,-6.0533612586585335,-97.50265465813278,11.029904,0.69559777,2.0175765,8.954993,-15.967291,-2.0807369,9.623426,1.1212624,1.4173026,10.739346,-14.735148,0.49337196,-3.163835,-0.03340738,7.8071766,10.911079,8.587107,-21.53867,62.091274,-23.242088,5.052762,20.134485,2.094381,-8.894077,33.823177,68.80574,11.838269,-1.9934531,-3.5324507
68,-0.24535243213176727,2.751290798187256,77.65457916259766,-0.1722874309418326,-6.045882453686324,-97.49992798356443,11.027694,0.6984626,2.0179315,8.94266,-15.959614,-2.0992715,9.619076,1.1223779,1.4148111,10.733058,-14.729459,0.49443987,-3.1659775,-0.03773147,7.802484,10.903857,8.589283,-21.546953,62.09699,-23.22066,5.052552,20.132269,2.0856411,-8.89424,33.825584,68.808624,11.824258,-1.9887141,-3.5309744
69,-0.24762298166751862,2.7512435913085938,77.6550521850586,-0.16972160945040685,-6.03731353362548,-97.4926933989571,11.019343,0.697189,2.0119135,8.941907,-15.956944,-2.0974364,9.615921,1.1187036,1.4027537,10.726534,-14.7267065,0.50101495,-3.1671677,-0.04356239,7.794171,10.896644,8.590783,-21.555256,62.103424,-23.206953,5.0457044,20.122417,2.0767775,-8.894487,33.828114,68.81272,11.808288,-1.9858085,-3.5287578
70,-0.24960193037986755,2.746915102005005,77.65841674804688,-0.1665350063319661,-6.027282149375816,-97.47975535721446,11.004622,0.6936512,1.998576,8.950317,-15.957833,-2.0825684,9.614553,1.111671,1.3811356,10.716958,-14.724723,0.5112764,-3.1682723,-0.049486954,7.780047,10.889794,8.595269,-21.572542,62.11373,-23.201475,5.031417,20.107029,2.0704226,-8.895402,33.830654,68.81831,11.791994,-1.9848527,-3.525161
71,-0.2533603310585022,2.7454726696014404,77.65642547607422,-0.16169417789745236,-6.017278160335458,-97.46823567673722,10.988346,0.68991494,1.9861141,8.962252,-15.959722,-2.0641122,9.612816,1.1045101,1.360225,10.707002,-14.722419,0.52339643,-3.1646113,-0.055882018,7.7663593,10.88722,8.601165,-21.586288,62.11724,-23.194946,5.0194173,20.096426,2.068145,-8.897113,33.831352,68.818825,11.779765,-1.9859978,-3.524881
72,-0.25846272706985474,2.741771936416626,77.65486907958984,-0.15887007997893435,-6.006968106089161,-97.4619894620093,10.97361,0.6874799,1.9790677,8.96894,-15.957778,-2.051296,9.607039,1.0991169,1.3465917,10.699296,-14.718816,0.53577733,-3.1562545,-0.061012376,7.758,10.8800745,8.604616,-21.593576,62.120975,-23.185684,5.0124674,20.096418,2.05967,-8.898523,33.83511,68.821,11.779828,-1.9901507,-3.5314143
73,-0.2616040110588074,2.7393479347229004,77.65646362304688,-0.15614703862773133,-5.996563920477594,-97.46478206326971,10.960437,0.68800277,1.9803991,8.969429,-15.950861,-2.0461664,9.59741,1.0972706,1.3440381,10.689556,-14.710734,0.5501308,-3.1370249,-0.06307886,7.7544823,10.86886,8.6068535,-21.5998,62.12367,-23.177732,5.0127697,20.113817,2.0474958,-8.899708,33.84164,68.82238,11.799096,-1.9983455,-3.5477576
74,-0.26319852471351624,2.7379448413848877,77.65834045410156,-0.15557629438427592,-5.9825953562635386,-97.47416525874486,10.942435,0.6909098,1.9879868,8.970982,-15.942856,-2.0440257,9.581893,1.0980002,1.3489387,10.676697,-14.698215,0.5666021,-3.1056678,-0.063566156,7.7586975,10.841127,8.613057,-21.621796,62.129154,-23.18727,5.0166492,20.149195,2.0209394,-8.903647,33.870853,68.82799,11.861516,-2.0150287,-3.5781636
75,-0.2686237394809723,2.75125789642334,77.66046142578125,-0.15446012285557081,-5.9700600747591475,-97.48178784106506,10.926223,0.69331443,1.9946191,8.971031,-15.9336815,-2.0438437,9.566476,1.0984924,1.3533375,10.667763,-14.687245,0.58106804,-3.0794017,-0.06469555,7.7589707,10.8235,8.622421,-21.643423,62.13092,-23.201368,5.0207586,20.183086,2.0014982,-8.910845,33.908596,68.82977,11.926804,-2.0305202,-3.6078384
76,-0.26838418841362,2.7514219284057617,77.66282653808594,-0.15295544205132194,-5.959274932417138,-97.48056951866599,10.912939,0.6936554,1.9944941,8.969202,-15.924335,-2.0447984,9.55498,1.0970336,1.3502389,10.662369,-14.679074,0.58912325,-3.0607917,-0.0671748,7.7574725,10.813461,8.627812,-21.652199,62.132206,-23.199198,5.022448,20.201578,1.9879205,-8.915837,33.926422,68.831566,11.960562,-2.0408218,-3.626904
77,-0.2703411877155304,2.7489194869995117,77.66541290283203,-0.14924129019838753,-5.951204757499695,-97.4659976080035,10.901882,0.6909995,1.9850541,8.969963,-15.916413,-2.0467036,9.549472,1.092774,1.3358232,10.661932,-14.674213,0.5876176,-3.0587826,-0.072619595,7.752604,10.813194,8.634477,-21.660748,62.133682,-23.197388,5.018667,20.20045,1.9830307,-8.922965,33.947174,68.82975,11.977103,-2.0448055,-3.634907
78,-0.27246683835983276,2.7481586933135986,77.66586303710938,-0.1460808159504003,-5.945256412791082,-97.44292462892945,10.893853,0.6858682,1.9698416,8.969522,-15.907981,-2.0500174,9.546959,1.0862602,1.314834,10.6670475,-14.672291,0.57955134,-3.0631266,-0.08001966,7.745458,10.818243,8.639022,-21.663506,62.13777,-23.184351,5.012386,20.185942,1.9843526,-8.928747,33.956055,68.82826,11.969534,-2.0449896,-3.634548
79,-0.275429368019104,2.745835304260254,77.66569519042969,-0.14237252201286293,-5.938636186789969,-97.41763981079256,10.884605,0.68072605,1.9521296,8.968942,-15.900133,-2.0546477,9.543155,1.080046,1.2920032,10.675085,-14.672749,0.5698498,-3.0692823,-0.08672303,7.7366643,10.824402,8.64315,-21.66427,62.142456,-23.174461,5.0051136,20.1681,1.986439,-8.934889,33.958935,68.82807,11.958522,-2.0440502,-3.6313305
80,-0.2771438956260681,2.7403464317321777,77.6683120727539,-0.13998503719752403,-5.929246000135513,-97.39640571333022,10.874312,0.6776768,1.9356042,8.964894,-15.893426,-2.0607004,9.536897,1.0764335,1.2730546,10.678007,-14.672094,0.5633532,-3.0722992,-0.09102577,7.726441,10.830476,8.64448,-21.66317,62.144707,-23.177336,4.9989676,20.155825,1.9875318,-8.937271,33.956886,68.82857,11.957843,-2.0446997,-3.6303477
81,-0.2797478139400482,2.7402782440185547,77.6680908203125,-0.14058602224768665,-5.913442509301583,-97.3801301417024,10.85579,0.6777071,1.9191725,8.960393,-15.889142,-2.0698183,9.525657,1.0765166,1.2583187,10.671196,-14.6683855,0.56151855,-3.0730336,-0.09162176,7.7098336,10.839872,8.645506,-21.65921,62.141712,-23.200407,4.992185,20.149395,1.9874203,-8.939515,33.949486,68.831116,11.9761715,-2.0493405,-3.6308224
82,-0.2820150554180145,2.7424330711364746,77.66822814941406,-0.1421169346052611,-5.8933104428145695,-97.36611106584523,10.833374,0.67999476,1.9020048,8.953584,-15.886285,-2.0815341,9.5091505,1.0794553,1.2456934,10.66334,-14.665711,0.5615272,-3.0729277,-0.088552654,7.690909,10.854451,8.64667,-21.651033,62.129482,-23.235409,4.9858513,20.144499,1.9861218,-8.94256,33.93183,68.83398,12.001215,-2.0560975,-3.6289775
83,-0.2840762734413147,2.7398948669433594,77.66902160644531,-0.14535007967757743,-5.8742178287830225,-97.35272460062268,10.812865,0.68238175,1.8851974,8.945348,-15.883351,-2.0922244,9.495973,1.0825944,1.2338289,10.649716,-14.660546,0.56263065,-3.0706837,-0.08519899,7.673515,10.8659115,8.647392,-21.642443,62.120266,-23.272602,4.981305,20.140795,1.9846951,-8.945313,33.911488,68.83612,12.025837,-2.0611012,-3.6281428
84,-0.28666239976882935,2.7372002601623535,77.66980743408203,-0.14703201293106447,-5.859727142468818,-97.33820659816745,10.795482,0.68297595,1.8697113,8.942458,-15.8818655,-2.098191,9.485423,1.0832994,1.2207956,10.643401,-14.6591425,0.5641278,-3.0647109,-0.082018904,7.6631413,10.872472,8.648023,-21.634668,62.11362,-23.296473,4.982572,20.136124,1.9821957,-8.949374,33.886112,68.83499,12.033732,-2.0601451,-3.626419
85,-0.287106990814209,2.734678030014038,77.669677734375,-0.1468118239636703,-5.850903532045846,-97.32312460259747,10.783883,0.68161684,1.8572782,8.943264,-15.881008,-2.0974088,9.480524,1.0813596,1.2076932,10.640017,-14.65773,0.5648551,-3.057039,-0.08025219,7.6569037,10.873575,8.648078,-21.631865,62.116127,-23.309986,4.992327,20.132711,1.9777427,-8.9537325,33.87069,68.83478,12.02927,-2.05043,-3.6277797
86,-0.2866654098033905,2.732269287109375,77.67058563232422,-0.1463187009126759,-5.84582292520169,-97.30760414415107,10.7746315,0.67991745,1.8469211,8.948658,-15.881779,-2.0922024,9.480708,1.0782784,1.1946385,10.634938,-14.654761,0.5654509,-3.0502355,-0.07875206,7.6531444,10.873065,8.64753,-21.63039,62.122936,-23.318645,5.0081844,20.1309,1.9715592,-8.957491,33.863453,68.83542,12.018534,-2.0344563,-3.6320446
87,-0.2880963087081909,2.717235565185547,77.668212890625,-0.14511223533179296,-5.8428889993503565,-97.29102851292896,10.768633,0.67559177,1.8354707,8.953285,-15.881429,-2.0853443,9.480653,1.0727416,1.1798741,10.637242,-14.656896,0.5682048,-3.044859,-0.079398274,7.6491013,10.873525,8.6469345,-21.629093,62.13155,-23.32441,5.022656,20.12942,1.9650953,-8.959508,33.861916,68.837685,12.006774,-2.0184517,-3.6370916
88,-0.2858054041862488,2.7276558876037598,77.66992950439453,-0.14262758396264155,-5.841422992253196,-97.27146897055245,10.764556,0.66875887,1.8193015,8.956389,-15.878988,-2.0798614,9.48833,1.064897,1.1612078,10.629348,-14.657136,0.5750727,-3.044032,-0.07999858,7.646549,10.874962,8.644721,-21.624653,62.138058,-23.328176,5.028617,20.125845,1.959766,-8.964305,33.8608,68.83706,11.996581,-2.00738,-3.639721
89,-0.28761789202690125,2.7314603328704834,77.6716079711914,-0.13598150003835602,-5.841250452636008,-97.25082032155659,10.763846,0.65655816,1.7989078,8.956348,-15.872892,-2.0766032,9.498648,1.0522673,1.1392252,10.622562,-14.662657,0.5900794,-3.0426524,-0.085696936,7.642094,10.87771,8.644036,-21.622948,62.144638,-23.335253,5.021854,20.121386,1.9578158,-8.965432,33.860233,68.8373,11.99085,-2.0045342,-3.6430485
90,-0.28918251395225525,2.730440139770508,77.6718521118164,-0.12611635704353738,-5.844208687107674,-97.2232149045659,10.766711,0.6393816,1.7697908,8.954303,-15.863381,-2.0735998,9.516545,1.0347642,1.1088198,10.611286,-14.6702585,0.61138415,-3.0506623,-0.09333519,7.637604,10.884255,8.641592,-21.615984,62.15221,-23.339289,5.004718,20.112926,1.9574132,-8.968714,33.85931,68.83756,11.981029,-2.0051517,-3.6441383
91,-0.2886926531791687,2.7278501987457275,77.6717758178711,-0.11755338062448353,-5.846404039599646,-97.19884676597108,10.769142,0.6231257,1.7436848,8.953351,-15.855281,-2.0707343,9.5331745,1.0181893,1.0819093,10.6002445,-14.677456,0.63093054,-3.0524924,-0.100603156,7.633682,10.887365,8.640053,-21.613058,62.15779,-23.341963,4.9889607,20.107193,1.9571072,-8.9704895,33.859493,68.83582,11.975497,-2.007694,-3.6450152
92,-0.28421980142593384,2.7093608379364014,77.6717758178711,-0.11145247424335157,-5.84954067433495,-97.17065901948624,10.770723,0.6106058,1.7148235,8.95471,-15.849725,-2.0665987,9.550685,1.0051616,1.052611,10.590173,-14.683545,0.64199024,-3.0629492,-0.10612852,7.629234,10.891666,8.637394,-21.607376,62.164627,-23.338139,4.9745245,20.102598,1.9576327,-8.973287,33.86374,68.83374,11.969452,-2.0105076,-3.6424036
93,-0.29331842064857483,2.7109243869781494,77.6689682006836,-0.10851954938263837,-5.849843513167747,-97.14561787297818,10.767113,0.60404736,1.6905799,8.96211,-15.850045,-2.0612519,9.558039,0.99756026,1.0278196,10.592377,-14.691261,0.63976234,-3.0693579,-0.1091923,7.6239743,10.890076,8.63543,-21.606731,62.170044,-23.331379,4.969752,20.104445,1.9544249,-8.975338,33.871662,68.83349,11.968565,-2.012266,-3.6367865
94,-0.2921626567840576,2.7002594470977783,77.66696166992188,-0.10904907480955818,-5.8495332506362745,-97.12042303402447,10.762582,0.6010368,1.6670583,8.969872,-15.851797,-2.0551105,9.5644045,0.99307084,1.0040908,10.594579,-14.696638,0.62920386,-3.0767667,-0.11047163,7.6181073,10.886562,8.633344,-21.608742,62.174477,-23.32186,4.968771,20.110044,1.9513954,-8.977427,33.88299,68.832535,11.969239,-2.014384,-3.6284387
95,-0.2913063168525696,2.696286678314209,77.6673355102539,-0.10864989324444534,-5.848595308478484,-97.09585665143636,10.755589,0.59984857,1.6441703,8.981343,-15.856596,-2.0485234,9.568139,0.99073607,0.9816946,10.60032,-14.703215,0.6163777,-3.08769,-0.109648645,7.608954,10.88447,8.63022,-21.612358,62.179615,-23.312878,4.968143,20.11677,1.948348,-8.98046,33.905376,68.83208,11.97983,-2.0175023,-3.6213005
96,-0.28888291120529175,2.6956887245178223,77.67021942138672,-0.11021181203045684,-5.848236315657803,-97.07281910906875,10.750419,0.5981436,1.6226628,8.990237,-15.861625,-2.0419142,9.573188,0.9884848,0.9620708,10.603493,-14.709218,0.60763097,-3.093867,-0.10941198,7.601953,10.879982,8.628923,-21.615204,62.184258,-23.299385,4.9670815,20.1186,1.9442636,-8.9819145,33.917187,68.831474,11.986604,-2.0221503,-3.6152437
97,-0.28664839267730713,2.6933605670928955,77.6678466796875,-0.11235203144944494,-5.847087295168808,-97.0499208704922,10.743557,0.5970204,1.6004509,9.000241,-15.868464,-2.034731,9.579782,0.98805255,0.9449514,10.601165,-14.713713,0.6035748,-3.1065576,-0.10729486,7.5895743,10.879038,8.626337,-21.617046,62.191,-23.289303,4.960825,20.11558,1.9412521,-8.985333,33.94146,68.83089,12.006139,-2.028752,-3.612454
98,-0.2872960567474365,2.689032554626465,77.66725158691406,-0.11340653771909724,-5.845620956371841,-97.02753217225086,10.736994,0.5960534,1.578526,9.008227,-15.875278,-2.0268326,9.584231,0.988676,0.9302893,10.602509,-14.720626,0.60138214,-3.1139665,-0.10563426,7.578937,10.873643,8.6255045,-21.619177,62.1988,-23.273909,4.9534307,20.107512,1.9381934,-8.987076,33.951866,68.82909,12.020357,-2.0366232,-3.6086154
99,-0.28672170639038086,2.6845195293426514,77.666015625,-0.11619804653385932,-5.845305687027828,-97.00929765542392,10.733968,0.59509915,1.5606408,9.012585,-15.881885,-2.0198317,9.590673,0.9892631,0.9188271,10.600101,-14.72554,0.6013547,-3.1165395,-0.10331458,7.5711193,10.868373,8.62541,-21.621342,62.202427,-23.255478,4.9498835,20.099804,1.9339069,-8.987874,33.95728,68.826195,12.031136,-2.0446274,-3.607587
100,-0.2853989601135254,2.678485155105591,77.66588592529297,-0.1169542672865031,-5.847265578366164,-96.99404571271126,10.732283,0.59373873,1.5461395,9.0194645,-15.890128,-2.0151308,9.601799,0.9884725,0.9062747,10.591894,-14.727462,0.6040556,-3.1169384,-0.100052744,7.5658584,10.858191,8.625489,-21.627316,62.210876,-23.237694,4.9519544,20.092184,1.9269519,-8.989364,33.9726,68.826675,12.05254,-2.0567157,-3.6126306
101,-0.2824101150035858,2.679150104522705,77.66561126708984,-0.11749305369283601,-5.851732228058489,-96.98862987660515,10.738382,0.59089,1.5421354,9.016509,-15.895031,-2.0135875,9.611966,0.98507106,0.89704955,10.586093,-14.730288,0.6124419,-3.1080916,-0.096001156,7.5668125,10.848276,8.62586,-21.633501,62.211197,-23.214043,4.968348,20.08958,1.9164605,-8.990871,33.98713,68.82678,12.069118,-2.069227,-3.623658
102,-0.2785094082355499,2.6798903942108154,77.66593933105469,-0.1171644625086984,-5.859544466560078,-96.98918140585253,10.750086,0.5875743,1.5446233,9.009977,-15.899705,-2.0142734,9.62655,0.98027724,0.889699,10.575568,-14.731031,0.62525344,-3.0970964,-0.09014859,7.572705,10.835754,8.626775,-21.644682,62.209476,-23.19565,4.9946556,20.090006,1.8971494,-8.993469,34.01794,68.83475,12.103438,-2.086708,-3.642292
103,-0.27524542808532715,2.6790361404418945,77.66609954833984,-0.11702573638767799,-5.8673779449621986,-96.99087165767504,10.761674,0.5835335,1.5481887,9.004797,-15.904579,-2.015971,9.639905,0.97457063,0.88288665,10.567472,-14.731953,0.63680315,-3.0826762,-0.085492,7.579911,10.8242855,8.627554,-21.651554,62.20641,-23.170206,5.0197763,20.089048,1.882565,-8.995202,34.03689,68.835815,12.123823,-2.1016781,-3.6628664
104,-0.27318835258483887,2.6782729625701904,77.66496276855469,-0.1169016870708808,-5.876023389147993,-96.98817350259728,10.773979,0.57970345,1.5470659,9.000255,-15.90696,-2.0175714,9.653186,0.96953684,0.87486887,10.564534,-14.733863,0.6410943,-3.0756814,-0.08256832,7.585386,10.81736,8.628866,-21.657715,62.20475,-23.152565,5.033264,20.086147,1.8691008,-8.997988,34.05997,68.83744,12.142714,-2.1146858,-3.68782
105,-0.27084100246429443,2.6770682334899902,77.66354370117188,-0.11694578976185278,-5.884268530591159,-96.97930292258012,10.784478,0.57526326,1.5390174,8.998909,-15.906648,-2.0201573,9.6613655,0.9643555,0.8652478,10.575703,-14.739935,0.6339289,-3.0812247,-0.08396895,7.585875,10.8238125,8.630491,-21.655956,62.200554,-23.140373,5.0289783,20.081072,1.862067,-9.001501,34.087677,68.83305,12.161222,-2.1237426,-3.716689
106,-0.2669081389904022,2.6698474884033203,77.66447448730469,-0.11747164175456866,-5.893223601173254,-96.9675794755766,10.794852,0.5710055,1.527561,9.000534,-15.905134,-2.023956,9.669581,0.9599257,0.8552346,10.590126,-14.744991,0.6190469,-3.0864525,-0.08676723,7.587264,10.830058,8.631395,-21.650354,62.20011,-23.124962,5.014412,20.07306,1.8595108,-9.003539,34.100792,68.824455,12.166594,-2.130647,-3.7474108
107,-0.2624255120754242,2.664231538772583,77.66429901123047,-0.11688139992198567,-5.901728195097632,-96.95369814525107,10.803648,0.56661284,1.5141253,9.00453,-15.903915,-2.026178,9.678185,0.9552734,0.84353554,10.604481,-14.750368,0.6035833,-3.0911884,-0.090127036,7.5877156,10.835234,8.631619,-21.647451,62.202118,-23.113764,4.996337,20.063951,1.8580903,-9.003996,34.106358,68.8162,12.16249,-2.1346004,-3.7816985
108,-0.2611137628555298,2.6643388271331787,77.66177368164062,-0.11782643430612523,-5.909313129117856,-96.93883476849714,10.810398,0.56202763,1.5009555,9.008874,-15.903747,-2.0240226,9.688809,0.9499977,0.8298991,10.6112175,-14.75441,0.594506,-3.099821,-0.09363132,7.585552,10.8402405,8.632075,-21.64426,62.20507,-23.108772,4.981998,20.053062,1.8576306,-9.004484,34.11698,68.80843,12.149009,-2.1346662,-3.8211799
109,-0.2588714063167572,2.661714553833008,77.66161346435547,-0.11668579184645439,-5.9141078468425,-96.9218835073662,10.812849,0.55668265,1.4870872,9.015066,-15.905231,-2.0154629,9.6977005,0.9440341,0.8130309,10.615908,-14.761629,0.59270465,-3.1092756,-0.09672413,7.580411,10.840554,8.632505,-21.644941,62.210358,-23.113747,4.973331,20.038301,1.8565603,-9.004569,34.12524,68.80256,12.126018,-2.130794,-3.857426
110,-0.25516679883003235,2.660872459411621,77.66290283203125,-0.11549072791340084,-5.917500201876142,-96.90121103718249,10.810032,0.55087733,1.4701926,9.026576,-15.909028,-2.0023763,9.708753,0.9374828,0.7921608,10.613478,-14.767766,0.5948691,-3.126637,-0.1008676,7.5696735,10.841883,8.634362,-21.64999,62.21962,-23.13301,4.96351,20.019657,1.8608115,-9.004256,34.14357,68.794136,12.097831,-2.1225092,-3.8998423
111,-0.25244858860969543,2.655508041381836,77.6633529663086,-0.11552075824828874,-5.920992929593749,-96.88248179442228,10.8083515,0.54523146,1.4560025,9.036059,-15.91259,-1.9879956,9.720604,0.9307463,0.77194834,10.608341,-14.773032,0.6012331,-3.1396174,-0.10419967,7.5606127,10.842771,8.636262,-21.65685,62.226456,-23.151184,4.9569345,20.004345,1.863416,-9.003698,34.157448,68.78694,12.059512,-2.111232,-3.9510508
112,-0.24974790215492249,2.653092384338379,77.66300201416016,-0.11433233746419022,-5.92638050769202,-96.86956054587174,10.810256,0.54064053,1.4481962,9.044387,-15.917224,-1.9753877,9.734713,0.92428666,0.7553984,10.598568,-14.77369,0.61221147,-3.1460783,-0.106527805,7.5551944,10.843687,8.638425,-21.666063,62.23151,-23.163599,4.953659,19.997036,1.8655407,-9.002831,34.173912,68.77944,12.01084,-2.0972698,-4.023298
113,-0.24336452782154083,2.6497583389282227,77.66305541992188,-0.11444397657191509,-5.9343569695121845,-96.86545783899655,10.817142,0.536605,1.45047,9.05003,-15.922931,-1.9633416,9.748688,0.9170301,0.7427509,10.589456,-14.772537,0.63257957,-3.1424162,-0.108252466,7.5567994,10.842619,8.640669,-21.67505,62.234783,-23.160572,4.9556985,20.00141,1.8632051,-9.001904,34.193012,68.7728,11.942296,-2.078767,-4.1221156
114,-0.23750269412994385,2.6482961177825928,77.66175842285156,-0.1144420455314152,-5.944338387249036,-96.86723828920336,10.82857,0.5331876,1.4599266,9.052042,-15.928532,-1.9508154,9.766386,0.90937656,0.732687,10.572675,-14.766277,0.66058093,-3.1332119,-0.10944876,7.5632644,10.841765,8.642763,-21.683453,62.235664,-23.148438,4.961869,20.013506,1.8586605,-9.000852,34.216484,68.76538,11.858993,-2.0559342,-4.241365
115,-0.2340262234210968,2.6507344245910645,77.66146850585938,-0.11604511790707055,-5.955001985562718,-96.87047215811512,10.841029,0.5300801,1.470163,9.053071,-15.933887,-1.94138,9.7834425,0.9022698,0.7251245,10.557872,-14.759997,0.68669844,-3.1236424,-0.10939701,7.5711403,10.841536,8.64392,-21.690384,62.234707,-23.13737,4.9687886,20.027815,1.851954,-9.000275,34.239285,68.7609,11.775829,-2.032504,-4.372096
116,-0.22890181839466095,2.6523823738098145,77.66110229492188,-0.11713489738447282,-5.9653532470078625,-96.8714835744987,10.8541975,0.52665454,1.4760374,9.051092,-15.937238,-1.9385064,9.797292,0.89696336,0.721056,10.551746,-14.75717,0.7014749,-3.1161833,-0.10861388,7.5785418,10.841004,8.644362,-21.694553,62.233513,-23.134895,4.973261,20.03698,1.8476088,-9.000018,34.253906,68.7567,11.704314,-2.0116346,-4.5050173
117,-0.22109726071357727,2.649038791656494,77.6605453491211,-0.11957254683400544,-5.976693731158683,-96.86842030424343,10.87001,0.5233947,1.4746062,9.044114,-15.937544,-1.9473882,9.809972,0.8948462,0.72198874,10.554063,-14.757373,0.69785655,-3.1149328,-0.10658707,7.582791,10.844879,8.644467,-21.697605,62.229774,-23.151205,4.97406,20.03981,1.8457422,-8.999773,34.270477,68.75658,11.657629,-1.9976275,-4.644033
118,-0.2159082293510437,2.6484076976776123,77.66068267822266,-0.12431642663412558,-5.986993899805994,-96.86375621021446,10.884863,0.52118456,1.4693918,9.036345,-15.937259,-1.9649373,9.817337,0.89554125,0.7269164,10.567701,-14.761946,0.68234205,-3.1127203,-0.10580293,7.5839896,10.845029,8.644387,-21.697853,62.23041,-23.17349,4.9736094,20.039597,1.8417997,-8.99985,34.274303,68.763,11.621718,-1.9888378,-4.7733274
119,-0.21112705767154694,2.6487576961517334,77.65875244140625,-0.126762019791924,-5.99929536939006,-96.85937536521597,10.90465,0.5165566,1.46375,9.02153,-15.932901,-1.9814192,9.826026,0.8945633,0.73328465,10.583337,-14.767828,0.66600275,-3.1155086,-0.10028143,7.5915527,10.851376,8.643752,-21.698915,62.220444,-23.204351,4.971552,20.03739,1.844787,-8.999856,34.284946,68.76016,11.586664,-1.9746594,-4.937783
120,-0.20282596349716187,2.6496541500091553,77.65843200683594,-0.1280451497734619,-6.006841880081067,-96.85643060246103,10.914724,0.5114252,1.4601274,9.015378,-15.93175,-1.9880737,9.828369,0.8917231,0.7373535,10.597526,-14.773246,0.65912896,-3.1200929,-0.09891105,7.592391,10.858346,8.642353,-21.698204,62.21384,-23.224894,4.968336,20.040041,1.8425779,-9.000125,34.294632,68.7644,11.558489,-1.9537559,-5.0820527
121,-0.19566169381141663,2.6522536277770996,77.65878295898438,-0.12931054047803614,-6.010133652843643,-96.85300381793398,10.914906,0.5054139,1.4569802,9.017844,-15.9334955,-1.9801381,9.833318,0.88667226,0.736045,10.593518,-14.771334,0.66621155,-3.126934,-0.09965133,7.59162,10.86284,8.641141,-21.6971,62.210136,-23.233612,4.961705,20.046751,1.8395978,-9.000342,34.293922,68.76838,11.5313635,-1.9227602,-5.2176776
122,-0.18898098170757294,2.6536498069763184,77.65968322753906,-0.1273584785205616,-6.0101644828317315,-96.84926886226285,10.90911,0.49807748,1.4537524,9.023931,-15.93586,-1.9631226,9.83408,0.87961215,0.7322171,10.589691,-14.77083,0.6811703,-3.1355832,-0.102234915,7.588774,10.867889,8.640318,-21.696507,62.206486,-23.236471,4.9522924,20.056747,1.8352617,-9.000543,34.287136,68.774055,11.509104,-1.8847554,-5.3506284
123,-0.18304210901260376,2.655673027038574,77.66094970703125,-0.12577772548406327,-6.009579346467131,-96.84960237293383,10.902691,0.49059555,1.4546503,9.030593,-15.937743,-1.9436563,9.834868,0.87205976,0.7307052,10.581111,-14.766396,0.6982781,-3.1407568,-0.10754184,7.583808,10.870066,8.640227,-21.695862,62.206764,-23.236862,4.9456964,20.066856,1.8293179,-9.000802,34.282593,68.78578,11.487992,-1.8473347,-5.469454
124,-0.17578935623168945,2.657444477081299,77.66128540039062,-0.12542296208797082,-6.009960461742957,-96.85614803192225,10.898117,0.48397532,1.4617344,9.035802,-15.93733,-1.9282663,9.830709,0.865073,0.7342056,10.580135,-14.76194,0.7121198,-3.135033,-0.103821486,7.589686,10.873132,8.639912,-21.69485,62.192924,-23.233204,4.946105,20.071014,1.823355,-9.00121,34.27013,68.78541,11.441675,-1.7956097,-5.6123667
125,-0.1662375032901764,2.6572060585021973,77.66259002685547,-0.1271556364894942,-6.01280476606643,-96.87545294768748,10.9001255,0.4779528,1.4814235,9.035864,-15.9317465,-1.9184314,9.823984,0.85831475,0.7482325,10.582456,-14.752675,0.7211727,-3.1110268,-0.09811589,7.6008306,10.865203,8.638607,-21.693394,62.18275,-23.22706,4.959866,20.068087,1.8110782,-9.003105,34.253307,68.79225,11.383571,-1.7474232,-5.736662
126,-0.15720456838607788,2.658140182495117,77.66162872314453,-0.1284748217327141,-6.016296677436231,-96.90379757806879,10.904077,0.47258392,1.5101237,9.034755,-15.923592,-1.9107893,9.81228,0.85159016,0.7688883,10.591031,-14.742211,0.7284891,-3.0803308,-0.090854436,7.611372,10.857984,8.637493,-21.69064,62.17095,-23.220863,4.981677,20.061607,1.7967544,-9.004914,34.247135,68.80307,11.321968,-1.6965046,-5.857959
127,-0.13835828006267548,2.671107530593872,77.66236877441406,-0.13086092805298372,-6.020357687107957,-96.93248029603022,10.909497,0.46720526,1.5392574,9.031552,-15.915023,-1.9044191,9.800072,0.8451208,0.79043686,10.600844,-14.732033,0.73482746,-3.0481973,-0.08309369,7.6248713,10.848829,8.636559,-21.68691,62.158844,-23.212313,5.0037103,20.053673,1.7804278,-9.006606,34.24265,68.81439,11.248426,-1.6409855,-5.984367
128,-0.12770016491413116,2.678431272506714,77.66353607177734,-0.1319240826167314,-6.023978136487269,-96.952995309089,10.914461,0.461552,1.5603887,9.026471,-15.908676,-1.8985198,9.790813,0.8392536,0.8072727,10.609517,-14.724736,0.74117154,-3.0237763,-0.074741706,7.6427217,10.834266,8.631989,-21.678669,62.15233,-23.200478,5.0171795,20.046173,1.7653031,-9.013887,34.23733,68.81966,11.158555,-1.5792648,-6.1232533
129,-0.11821351945400238,2.6782994270324707,77.66607666015625,-0.134833741280168,-6.0278572095433836,-96.96043339462307,10.9162245,0.45721465,1.5688465,9.026622,-15.910832,-1.8940665,9.789071,0.8358882,0.8167337,10.612256,-14.72011,0.74625295,-3.0090346,-0.070921116,7.649135,10.825246,8.630505,-21.679672,62.15728,-23.192339,5.015628,20.043962,1.7567084,-9.016781,34.244686,68.83399,11.04706,-1.5118276,-6.279229
130,-0.1095382496714592,2.6824002265930176,77.66559600830078,-0.13760046795979267,-6.03241727363052,-96.96098023925566,10.9206705,0.45266682,1.5706772,9.021788,-15.914161,-1.8909665,9.789637,0.8335334,0.82277614,10.616229,-14.718733,0.7501603,-3.0038652,-0.066721864,7.6581025,10.815993,8.627214,-21.681152,62.16547,-23.18789,5.004597,20.043163,1.7600902,-9.023673,34.269295,68.827866,10.916068,-1.4281489,-6.4636326
131,-0.09954286366701126,2.685720920562744,77.66619873046875,-0.1394425150143751,-6.035650085568288,-96.95897109311842,10.92159,0.44832224,1.5699611,9.019819,-15.918935,-1.8875097,9.790173,0.83116955,0.8264562,10.61849,-14.718005,0.7551215,-2.997763,-0.06459272,7.6640635,10.807541,8.626573,-21.683704,62.174046,-23.181635,4.9936075,20.042383,1.7554986,-9.025795,34.281574,68.83974,10.788701,-1.3516912,-6.638701
132,-0.0937754437327385,2.6899921894073486,77.6666488647461,-0.14183493350277723,-6.036319317911025,-96.9596360042851,10.919348,0.4435651,1.5713564,9.017506,-15.920012,-1.8818946,9.789044,0.8272781,0.82924175,10.614278,-14.713159,0.7633437,-2.9965484,-0.06278812,7.6693025,10.799934,8.62568,-21.687225,62.1784,-23.185495,4.9881115,20.04151,1.753908,-9.029111,34.298534,68.84526,10.699909,-1.2819905,-6.809155
133,-0.09096091985702515,2.689690589904785,77.66744232177734,-0.1440922795747397,-6.033520044135457,-96.9653070658438,10.9113455,0.4379271,1.5769236,9.018075,-15.917299,-1.8726518,9.784244,0.82095444,0.83057195,10.603302,-14.70455,0.7785299,-2.9961839,-0.061131015,7.672628,10.793349,8.625076,-21.690289,62.175297,-23.201366,4.991702,20.036818,1.7466787,-9.032986,34.308918,68.85954,10.660305,-1.2270035,-6.9650164
134,-0.08200070261955261,2.6967556476593018,77.66920471191406,-0.14359244701390356,-6.028040745021135,-96.97314291802617,10.899508,0.43176594,1.583983,9.019344,-15.911642,-1.861106,9.774804,0.8128463,0.8299372,10.592616,-14.696521,0.7984756,-2.9967573,-0.059391953,7.6758003,10.785797,8.624949,-21.694082,62.16801,-23.225891,5.000087,20.029215,1.7360549,-9.037422,34.311817,68.87791,10.649949,-1.1806196,-7.1136513
135,-0.0676378458738327,2.7054715156555176,77.66950225830078,-0.14429587070225897,-6.02095595565211,-96.98001126965187,10.885568,0.4253465,1.590425,9.02074,-15.905352,-1.849358,9.763061,0.80474204,0.82938176,10.583278,-14.68833,0.81656617,-2.9971035,-0.05759191,7.6790986,10.777334,8.625635,-21.701763,62.16042,-23.248129,5.0111604,20.025398,1.727701,-9.043654,34.306366,68.89356,10.652689,-1.1404554,-7.2514076
136,-0.05950484797358513,2.711735963821411,77.67049407958984,-0.14548312898586724,-6.013041203657058,-96.98272925322655,10.870326,0.4195006,1.5942941,9.022319,-15.900563,-1.8395431,9.747,0.7982917,0.8311261,10.584175,-14.682919,0.82606804,-3.0012352,-0.057316683,7.67874,10.7719555,8.626578,-21.708036,62.158134,-23.252464,5.022817,20.031002,1.721137,-9.0481615,34.297615,68.910324,10.653738,-1.1062673,-7.371674
137,-0.04647880420088768,2.7189934253692627,77.67072296142578,-0.14955047917024286,-6.0026108607757624,-96.97896387476945,10.852282,0.4161666,1.5945956,9.024248,-15.89877,-1.8337038,9.727085,0.79641396,0.83722824,10.593111,-14.677019,0.82046694,-3.0111403,-0.05767777,7.6740866,10.767016,8.6277275,-21.715601,62.165176,-23.229641,5.0374446,20.05417,1.7201147,-9.052421,34.284435,68.92347,10.655571,-1.0818623,-7.4701757
138,-0.03788197785615921,2.7231194972991943,77.67152404785156,-0.15466935848067906,-5.9897941837237445,-96.97059530098984,10.832012,0.4146307,1.5922189,9.024815,-15.897785,-1.8302648,9.704939,0.7973145,0.8456733,10.604716,-14.669308,0.8048407,-3.0243669,-0.057492394,7.6658,10.762969,8.629486,-21.72587,62.17764,-23.188437,5.055059,20.089336,1.721972,-9.058532,34.26349,68.93619,10.664025,-1.067049,-7.5499463
139,-0.02851741388440132,2.7219724655151367,77.67163848876953,-0.15960955150653675,-5.979426761023448,-96.96149517451883,10.814928,0.41109213,1.5886368,9.024832,-15.8962145,-1.8258811,9.684473,0.79657626,0.85328645,10.619052,-14.663997,0.7901199,-3.0430684,-0.059295245,7.6575494,10.763209,8.630828,-21.732346,62.19096,-23.14953,5.069246,20.122715,1.7214155,-9.063296,34.247284,68.95307,10.671314,-1.052584,-7.6199627
140,-0.017851093783974648,2.7263262271881104,77.67095947265625,-0.15969863484254837,-5.972262984883868,-96.95688485845676,10.799953,0.4032124,1.5864209,9.029112,-15.894206,-1.8174533,9.668417,0.7904015,0.858227,10.62966,-14.660891,0.7871465,-3.0533998,-0.06345428,7.653692,10.762468,8.63213,-21.741125,62.19899,-23.130814,5.077388,20.142973,1.7259405,-9.067529,34.22678,68.96115,10.659966,-1.0253525,-7.692833
141,-0.003915315959602594,2.730074882507324,77.67176818847656,-0.15551012421042776,-5.974307325216034,-96.95598751703841,10.798159,0.38669166,1.5834392,9.028537,-15.886244,-1.802737,9.666122,0.77411795,0.85592216,10.631165,-14.661631,0.80350274,-3.0581841,-0.070925824,7.6575456,10.764157,8.634265,-21.755468,62.201893,-23.147236,5.07238,20.141954,1.7296963,-9.073853,34.200962,68.968956,10.625279,-0.9819231,-7.765877
142,0.004060577135533094,2.7356016635894775,77.67317199707031,-0.14594281413419047,-5.981803508279814,-96.95730950286503,10.801245,0.36509478,1.5796286,9.032217,-15.878351,-1.7839446,9.6732435,0.75181156,0.8490906,10.624709,-14.663551,0.8317005,-3.0638728,-0.08152878,7.665231,10.769703,8.636516,-21.769304,62.201218,-23.18457,5.0589514,20.12846,1.7342889,-9.079481,34.177967,68.97451,10.576683,-0.9274712,-7.8374634
143,0.015401534736156464,2.740400552749634,77.67488861083984,-0.1371549991107373,-5.989898639293298,-96.96114613547856,10.80527,0.3436929,1.5777584,9.035248,-15.869698,-1.7644043,9.679779,0.7297261,0.8437002,10.619376,-14.665561,0.8603515,-3.0719075,-0.093125336,7.671612,10.775812,8.637546,-21.774786,62.201424,-23.225363,5.044254,20.110537,1.7329079,-9.082012,34.167454,68.98888,10.532024,-0.8758531,-7.9032464
144,0.025484994053840637,2.739830732345581,77.67957305908203,-0.1336543150712047,-5.994911181683157,-96.96703742802279,10.805324,0.3282245,1.5795774,9.038343,-15.863068,-1.7474177,9.681067,0.7143412,0.84467745,10.615064,-14.6615095,0.8780816,-3.075379,-0.10002529,7.676515,10.779994,8.638444,-21.777853,62.200706,-23.256687,5.033884,20.097986,1.7309325,-9.084253,34.15972,69.002655,10.495819,-0.8336849,-7.961068
145,0.03982134908437729,2.74338960647583,77.68171691894531,-0.1362262562010887,-5.994157852667967,-96.97924211948634,10.798551,0.3201073,1.5895209,9.041321,-15.858223,-1.7335685,9.664143,0.707894,0.85860765,10.629851,-14.656419,0.8794637,-3.0614955,-0.093085505,7.6836414,10.778676,8.639911,-21.785961,62.194668,-23.284212,5.0295296,20.087105,1.727383,-9.088696,34.13714,69.00939,10.457738,-0.7953785,-8.015819
146,0.059460319578647614,2.756105422973633,77.68085479736328,-0.1452488921239269,-5.99043362830306,-96.9962938416163,10.787748,0.31770122,1.605383,9.044655,-15.854302,-1.7214589,9.642049,0.7078859,0.8814768,10.643873,-14.643911,0.8706015,-3.042382,-0.084111795,7.6850896,10.773004,8.640497,-21.787603,62.194195,-23.306065,5.029937,20.079256,1.7195858,-9.091391,34.127,69.0266,10.436578,-0.77079254,-8.058265
147,0.07347280532121658,2.768784761428833,77.68079376220703,-0.15493451033689032,-5.986159138113589,-97.01068910972046,10.775369,0.31617612,1.6192269,9.050352,-15.853855,-1.710275,9.617251,0.7090181,0.90146464,10.663774,-14.634729,0.86022997,-3.0224903,-0.07274022,7.6899586,10.762729,8.641362,-21.79016,62.19369,-23.320314,5.030245,20.071709,1.7118044,-9.097608,34.110462,69.038795,10.413005,-0.7498001,-8.09672
148,0.08828561753034592,2.7668187618255615,77.68319702148438,-0.16139037724276292,-5.986318197140707,-97.01332766714854,10.767951,0.31324083,1.6222727,9.054992,-15.85587,-1.6997157,9.607533,0.70767915,0.906635,10.670554,-14.626561,0.85588175,-3.015622,-0.06551718,7.692792,10.757459,8.642243,-21.79436,62.19675,-23.320972,5.0256405,20.066946,1.7129725,-9.104525,34.098225,69.04561,10.387565,-0.7297546,-8.138427
149,0.09708719700574875,2.774617910385132,77.67986297607422,-0.16817543491363945,-5.9913671021639905,-96.99762686318455,10.765305,0.3082115,1.6087036,9.059817,-15.863399,-1.6906905,9.611333,0.70355326,0.8910806,10.672291,-14.626294,0.8573713,-3.0310445,-0.065435946,7.69375,10.756202,8.643137,-21.800974,62.207085,-23.299368,5.011983,20.066607,1.7221649,-9.108068,34.092613,69.04763,10.354237,-0.7088865,-8.18661
150,0.1089288741350174,2.7809438705444336,77.67899322509766,-0.1737370781760381,-5.999036473229961,-96.96873274739526,10.764538,0.30274314,1.5833263,9.066003,-15.875717,-1.6830201,9.62656,0.6982045,0.85923177,10.664634,-14.628145,0.8629085,-3.054927,-0.06761052,7.690733,10.756891,8.645931,-21.819056,62.224358,-23.263273,4.991272,20.069979,1.7455236,-9.113954,34.083317,69.03971,10.314413,-0.68862516,-8.238722
151,0.11562642455101013,2.7711031436920166,77.6785888671875,-0.1773673334492866,-6.009399681433342,-96.9391495834776,10.766981,0.29648438,1.557039,9.072344,-15.888351,-1.6748196,9.648082,0.6917625,0.82677597,10.650859,-14.629115,0.87074846,-3.0754755,-0.07102214,7.6891856,10.758274,8.64953,-21.84095,62.238304,-23.23133,4.9728904,20.074753,1.7733687,-9.118544,34.07372,69.027695,10.280016,-0.67151964,-8.289986
152,0.12331905215978622,2.775432825088501,77.67622375488281,-0.17916511433861398,-6.021540511118219,-96.92024163435048,10.77271,0.2873976,1.5398631,9.077072,-15.8962345,-1.6638086,9.664409,0.6828289,0.8063047,10.646653,-14.633513,0.8814456,-3.0738077,-0.075049914,7.6924653,10.757629,8.657306,-21.869766,62.240818,-23.221703,4.964469,20.077185,1.8064786,-9.126551,34.053963,69.00676,10.256996,-0.65822846,-8.337425
153,0.13632892072200775,2.777700424194336,77.67710876464844,-0.17834125326890526,-6.037117910848006,-96.91670008407502,10.782907,0.27525648,1.5357336,9.083343,-15.899414,-1.649366,9.679206,0.6710671,0.8037458,10.645204,-14.636854,0.89619476,-3.068267,-0.07929142,7.704506,10.758521,8.659029,-21.870026,62.228943,-23.231201,4.9716797,20.075174,1.8166367,-9.128324,34.050457,69.00494,10.258052,-0.6533396,-8.383439
154,0.14875230193138123,2.781813144683838,77.6758804321289,-0.1759212225180606,-6.056545516842179,-96.92152140563961,10.799215,0.2606346,1.5386642,9.087117,-15.898161,-1.632682,9.697041,0.6568597,0.8108162,10.642226,-14.63962,0.91462237,-3.0516503,-0.08569847,7.7254167,10.761789,8.663089,-21.86055,62.200397,-23.25325,4.990829,20.070688,1.8317418,-9.132968,34.045612,68.99047,10.269361,-0.6527501,-8.431084
155,0.16435186564922333,2.7868120670318604,77.67679595947266,-0.17341001141754223,-6.075417773185399,-96.92925861392708,10.814574,0.24485667,1.5441464,9.091662,-15.8959875,-1.6143863,9.709891,0.64150006,0.82106864,10.646143,-14.645117,0.9336534,-3.033542,-0.091521285,7.7438445,10.763405,8.664055,-21.852364,62.17525,-23.283474,5.0087366,20.064262,1.8396716,-9.134426,34.044266,68.98492,10.287922,-0.65333325,-8.4691105
156,0.17814379930496216,2.7946128845214844,77.67589569091797,-0.17028307484408917,-6.09157787012679,-96.93416260063945,10.826609,0.22918391,1.5473834,9.095596,-15.894145,-1.5953233,9.722004,0.62591296,0.8259531,10.64577,-14.647878,0.9522124,-3.0238729,-0.09841249,7.7598987,10.768759,8.6655,-21.838877,62.15116,-23.303677,5.018242,20.053514,1.8484175,-9.136843,34.04287,68.97495,10.298983,-0.6485716,-8.492051
157,0.19182123243808746,2.802327871322632,77.67546844482422,-0.16761362953480619,-6.1034662484650894,-96.93302618978801,10.830957,0.21298192,1.5456439,9.103229,-15.893605,-1.5735806,9.728913,0.608699,0.8231919,10.647524,-14.650787,0.9692719,-3.0245423,-0.10702646,7.7686467,10.7764435,8.666485,-21.82883,62.135128,-23.314817,5.0128036,20.036482,1.8566667,-9.13869,34.041176,68.96486,10.302338,-0.63873386,-8.488306
158,0.20636998116970062,2.808278799057007,77.67526245117188,-0.16305399573145882,-6.112878298269461,-96.9296520677189,10.831948,0.19559552,1.5418413,9.111268,-15.892497,-1.5494199,9.733162,0.58976686,0.8157748,10.649372,-14.65354,0.9871196,-3.0283937,-0.1165754,7.7733083,10.7860775,8.66703,-21.82349,62.122036,-23.323975,4.998341,20.016125,1.8659787,-9.139772,34.038895,68.95261,10.303293,-0.6255758,-8.466778
159,0.2196783423423767,2.812182664871216,77.67369842529297,-0.16088550722547507,-6.1207548149003905,-96.92786313694246,10.8317175,0.17951378,1.5400513,9.117917,-15.892394,-1.5269418,9.735265,0.5725218,0.81029457,10.650464,-14.654403,1.0026656,-3.0313241,-0.12389222,7.7753744,10.795679,8.667449,-21.81875,62.111435,-23.333302,4.9825926,19.99473,1.8747015,-9.14075,34.033833,68.9418,10.302194,-0.60962915,-8.441418
160,0.23433279991149902,2.8159360885620117,77.67291259765625,-0.16200832930363074,-6.127516185610823,-96.93065534060416,10.831019,0.1679321,1.5430374,9.122968,-15.895681,-1.510469,9.736049,0.56104094,0.8114371,10.649459,-14.651809,1.0132626,-3.0297484,-0.12555678,7.7790804,10.80309,8.667428,-21.81533,62.10048,-23.345154,4.971102,19.977448,1.881355,-9.140912,34.028873,68.93003,10.301454,-0.589382,-8.427695
161,0.25209739804267883,2.822681188583374,77.67188262939453,-0.16751843730077687,-6.132538162823546,-96.944038546887,10.832809,0.16164389,1.5570349,9.118606,-15.901265,-1.5031836,9.727081,0.55675507,0.8252198,10.657917,-14.650374,1.0173167,-3.017497,-0.119493924,7.7858977,10.815014,8.667057,-21.80214,62.082638,-23.350885,4.9650455,19.959023,1.8882747,-9.141116,34.00714,68.9099,10.289221,-0.5557135,-8.4262905
162,0.26486536860466003,2.8248817920684814,77.67198944091797,-0.17718876474776002,-6.135609047217348,-96.96427541848243,10.833933,0.16001473,1.5781555,9.110322,-15.910042,-1.5024678,9.7146845,0.5583814,0.8471156,10.664308,-14.645098,1.01623,-2.994443,-0.106026225,7.800583,10.814674,8.664781,-21.782667,62.067543,-23.34956,4.9645653,19.940102,1.8867934,-9.140306,33.964523,68.89186,10.266904,-0.5197528,-8.429167
163,0.28580188751220703,2.837977886199951,77.6737060546875,-0.18802064641206204,-6.1398721597957895,-96.98243635132887,10.83773,0.15869755,1.5973225,9.100348,-15.917822,-1.5022699,9.706188,0.56089646,0.86887115,10.668141,-14.638146,1.0132083,-2.9753778,-0.09272776,7.8109493,10.817203,8.662774,-21.769915,62.055202,-23.356928,4.963894,19.926264,1.8885448,-9.139003,33.93684,68.87384,10.251207,-0.4804841,-8.439929
164,0.3015543222427368,2.8439981937408447,77.67373657226562,-0.19342900624480014,-6.148155454933025,-96.98890996402815,10.842553,0.15356554,1.6041572,9.100491,-15.925819,-1.4966071,9.705153,0.5596526,0.8817081,10.677155,-14.637344,1.0113217,-2.9677718,-0.08433378,7.8176913,10.822827,8.660288,-21.760221,62.045258,-23.372084,4.96187,19.918764,1.8956372,-9.136532,33.91682,68.856834,10.237651,-0.44239324,-8.452743
165,0.31405916810035706,2.8449766635894775,77.6744613647461,-0.1966782755859739,-6.162333405009607,-96.97848470324158,10.852054,0.14188337,1.5933708,9.107329,-15.928815,-1.4828103,9.717796,0.55251265,0.8836275,10.686231,-14.6403,1.0112023,-2.9684772,-0.08535648,7.8247566,10.82889,8.656439,-21.748396,62.036823,-23.377832,4.96099,19.917702,1.9178543,-9.130534,33.881104,68.82609,10.1971035,-0.39539102,-8.467721
166,0.3185059428215027,2.838376998901367,77.67005157470703,-0.19580491284835833,-6.180011409625942,-96.9562259948658,10.862612,0.12672953,1.569998,9.12228,-15.930871,-1.4645302,9.737613,0.5425135,0.8780492,10.700157,-14.648267,1.0113227,-2.9845605,-0.09109316,7.824556,10.8439455,8.654637,-21.744287,62.02797,-23.398378,4.959581,19.9242,1.945286,-9.125767,33.867172,68.79838,10.169635,-0.34891063,-8.4865055
167,0.3299820125102997,2.833564281463623,77.67011260986328,-0.19564047832513193,-6.199834602540361,-96.9322603931869,10.875892,0.11138244,1.5453905,9.138282,-15.933632,-1.444909,9.761307,0.5317096,0.8697115,10.71279,-14.656793,1.011367,-3.0026429,-0.097292654,7.8264027,10.857447,8.653826,-21.741255,62.019585,-23.423513,4.9564943,19.932703,1.9702636,-9.122499,33.860703,68.77099,10.14454,-0.30265135,-8.509112
168,0.34741950035095215,2.8337981700897217,77.6702651977539,-0.19639326573650115,-6.220016429880559,-96.9157764198321,10.892272,0.09910069,1.5293713,9.14942,-15.93905,-1.4274187,9.786209,0.52221006,0.86207044,10.717621,-14.661963,1.0111477,-3.0103328,-0.10509965,7.827042,10.87343,8.652177,-21.734522,62.011734,-23.441357,4.948951,19.94409,2.003796,-9.109177,33.85064,68.73689,10.1079,-0.25402048,-8.544916
169,0.3601514399051666,2.8433053493499756,77.66793823242188,-0.1977558312745842,-6.240333115451679,-96.90876602316364,10.911064,0.09036673,1.5251445,9.15727,-15.9511595,-1.4141333,9.803978,0.5130032,0.8534178,10.731007,-14.673021,1.009279,-3.009101,-0.109723076,7.8311496,10.880955,8.650999,-21.72537,62.01233,-23.462358,4.931655,19.951988,2.0247223,-9.097738,33.84834,68.71475,10.082075,-0.21818753,-8.579451
170,0.3754243850708008,2.8483309745788574,77.66610717773438,-0.202340797419437,-6.2622384664390935,-96.90568665506943,10.934687,0.0838508,1.5267076,9.159751,-15.965455,-1.4030453,9.824663,0.50398505,0.8421078,10.737852,-14.681951,1.0062739,-3.004705,-0.11479757,7.8383307,10.886846,8.649482,-21.711966,62.014297,-23.48445,4.9079013,19.960907,2.0448232,-9.081792,33.853348,68.69073,10.061221,-0.18726762,-8.61754
171,0.38550499081611633,2.843435287475586,77.66339874267578,-0.20588312292992605,-6.283805005548133,-96.90877685635343,10.957135,0.078719415,1.5335463,9.164624,-15.981436,-1.3904604,9.842698,0.49622187,0.83559614,10.746182,-14.6911745,1.0049641,-2.990444,-0.1144531,7.85041,10.889274,8.6489315,-21.7056,62.012165,-23.505589,4.8868403,19.97037,2.0621858,-9.07739,33.85718,68.66132,10.030567,-0.14662804,-8.6693735
172,0.396095871925354,2.841238260269165,77.66218566894531,-0.2105955474751099,-6.304519434601903,-96.91952076837262,10.976631,0.0742579,1.5453217,9.17295,-15.995088,-1.3729354,9.857708,0.49094313,0.8407922,10.75313,-14.696532,1.0081916,-2.9774332,-0.11910811,7.860354,10.890874,8.646938,-21.686554,62.011448,-23.51165,4.8773293,19.981857,2.0765636,-9.061218,33.876087,68.6333,9.974012,-0.078094564,-8.75754
173,0.4087682366371155,2.8371052742004395,77.65994262695312,-0.2142674639214453,-6.3233005862420875,-96.9432803739928,10.99074,0.07112762,1.565293,9.187411,-16.005022,-1.3459119,9.867664,0.48982283,0.86478126,10.7576475,-14.695722,1.0181682,-2.9576163,-0.12256831,7.8743343,10.888208,8.643898,-21.665085,62.00559,-23.505886,4.885056,19.997787,2.068899,-9.035684,33.903053,68.62076,9.891898,0.019279037,-8.8729
174,0.42639636993408203,2.8436672687530518,77.65887451171875,-0.21884804495698,-6.341148396670342,-96.97744623769528,11.001627,0.06948507,1.5924178,9.2064085,-16.013546,-1.3124934,9.873937,0.49184698,0.9020722,10.760706,-14.690775,1.0328151,-2.9183528,-0.12005911,7.894984,10.877915,8.642431,-21.65607,61.994385,-23.493538,4.904716,20.015984,2.0685635,-9.023548,33.919727,68.58719,9.786263,0.13990478,-9.007052
175,0.42877253890037537,2.8445847034454346,77.66070556640625,-0.22425214040470762,-6.358430021970851,-97.01247154972165,11.01179,0.06769622,1.6201808,9.224569,-16.021208,-1.2804898,9.878426,0.49407372,0.9409643,10.765569,-14.686513,1.0487515,-2.8804264,-0.11811771,7.914571,10.866275,8.640323,-21.645596,61.983524,-23.476732,4.9271965,20.033457,2.061802,-9.007452,33.946434,68.56004,9.663657,0.28041145,-9.177974
176,0.44550207257270813,2.8627891540527344,77.66142272949219,-0.2293243990495498,-6.376042582241267,-97.0384480024675,11.025405,0.06524245,1.6418604,9.236214,-16.029306,-1.2579737,9.888994,0.49447355,0.97006655,10.764437,-14.681608,1.0624782,-2.856684,-0.11963252,7.927607,10.859871,8.636516,-21.630749,61.97468,-23.459614,4.9435043,20.048357,2.0470762,-8.978812,33.99226,68.55148,9.527452,0.43840465,-9.402044
177,0.46040230989456177,2.854621410369873,77.65921020507812,-0.23476691545743347,-6.393573598003212,-97.05269935072063,11.045261,0.061572164,1.6561761,9.2342415,-16.036402,-1.2505587,9.901202,0.49233004,0.9863269,10.768484,-14.68286,1.0721912,-2.8293903,-0.118063934,7.941515,10.846324,8.634456,-21.632875,61.9671,-23.444689,4.9532866,20.058758,2.0507994,-8.962977,34.032566,68.51823,9.368811,0.6239071,-9.680848
178,0.4790688753128052,2.853813648223877,77.6583023071289,-0.23985339942405198,-6.41086801401246,-97.06000014018561,11.067281,0.057840586,1.6662441,9.227086,-16.044426,-1.2528715,9.918713,0.48942378,0.99564475,10.765832,-14.6824045,1.0798892,-2.8164673,-0.118743114,7.9459276,10.840951,8.630491,-21.633245,61.96067,-23.429644,4.9591017,20.069382,2.0453136,-8.934162,34.101612,68.5055,9.202015,0.83211076,-10.012755
179,0.4935069978237152,2.8561718463897705,77.65790557861328,-0.2442023056939089,-6.428331127166284,-97.0640017963705,11.09082,0.052656796,1.6731213,9.216978,-16.05078,-1.2560065,9.936576,0.48481587,1.0007204,10.764944,-14.6839,1.0883781,-2.7964058,-0.11764529,7.9552574,10.828557,8.627955,-21.640753,61.95334,-23.415033,4.9633036,20.073513,2.0476935,-8.915004,34.15673,68.48042,9.013837,1.052418,-10.378215
180,0.49757716059684753,2.8675031661987305,77.65376281738281,-0.24659076340077987,-6.445346868678018,-97.06762203256673,11.110642,0.04465883,1.6773435,9.214047,-16.056581,-1.2510153,9.952034,0.47722086,1.0039465,10.768732,-14.688311,1.1004276,-2.7918625,-0.12227301,7.955965,10.828542,8.624249,-21.637423,61.945312,-23.408474,4.963811,20.074404,2.0336008,-8.884098,34.234818,68.48943,8.826017,1.2683038,-10.776013
181,0.5081425309181213,2.870499610900879,77.65266418457031,-0.24537417491501867,-6.46230065193168,-97.07086350855171,11.125473,0.034255415,1.677224,9.221772,-16.061684,-1.2323037,9.973004,0.4669451,1.0042633,10.761039,-14.687928,1.1194856,-2.7777348,-0.12742004,7.963482,10.820465,8.622539,-21.637438,61.93652,-23.40741,4.9626207,20.062323,2.0305555,-8.861279,34.29233,68.48394,8.613389,1.483698,-11.201311
182,0.5192207098007202,2.8720602989196777,77.652099609375,-0.24226562524652126,-6.478612336723084,-97.07207869459364,11.137363,0.02039325,1.6729174,9.233983,-16.064793,-1.2054162,9.993012,0.4531623,1.0007265,10.755051,-14.689637,1.1434127,-2.7759185,-0.13782348,7.965035,10.821113,8.6216755,-21.629345,61.925293,-23.41312,4.9582305,20.04243,2.0106666,-8.828345,34.365795,68.51035,8.392853,1.7001848,-11.662681
183,0.5280463099479675,2.870853900909424,77.65147399902344,-0.23819745308697898,-6.495535220377816,-97.07352023526792,11.15048,0.00608311,1.668757,9.245815,-16.067354,-1.1793109,10.010027,0.43871313,0.99688625,10.75782,-14.695074,1.1655399,-2.7658072,-0.14744413,7.9709105,10.817906,8.622147,-21.626713,61.913475,-23.420483,4.9526496,20.022175,2.0018537,-8.803375,34.424316,68.52264,8.16146,1.9198036,-12.145001
184,0.5370579957962036,2.869739055633545,77.65165710449219,-0.2367944884872708,-6.514944914248494,-97.07566794653992,11.168922,-0.005056152,1.6683112,9.252939,-16.070765,-1.1630238,10.030854,0.4273046,0.99490166,10.757689,-14.695931,1.1789715,-2.7616236,-0.15726751,7.9764795,10.821719,8.623505,-21.61877,61.90022,-23.428242,4.946271,20.011482,1.9815174,-8.772238,34.48929,68.55423,7.939629,2.1365519,-12.640938
185,0.5476148724555969,2.868317127227783,77.6523208618164,-0.23992601194800592,-6.53838905599741,-97.07971141736557,11.196042,-0.011685895,1.6738151,9.250953,-16.073635,-1.1626496,10.050658,0.4197051,0.9957869,10.768598,-14.696678,1.1780586,-2.7383869,-0.15706855,7.9965906,10.812578,8.624166,-21.62449,61.887802,-23.430601,4.9406753,20.012724,1.9774033,-8.761773,34.520805,68.55655,7.6958776,2.3597178,-13.156632
186,0.5591553449630737,2.868934154510498,77.65234375,-0.24498932163172688,-6.5646067627422715,-97.08435512517008,11.230327,-0.016282367,1.682434,9.240682,-16.074833,-1.1721672,10.071173,0.41394868,0.9976476,10.783775,-14.695564,1.1676898,-2.7281427,-0.15908778,8.008216,10.816341,8.624845,-21.629845,61.877083,-23.441801,4.9322243,20.027514,1.9661864,-8.745354,34.582726,68.581535,7.463205,2.5851605,-13.706875
187,0.5725371241569519,2.870516538619995,77.652587890625,-0.2500602462959197,-6.590152238975263,-97.08993617795267,11.263849,-0.020975407,1.6925166,9.231405,-16.077375,-1.1820945,10.088068,0.40828106,1.0015182,10.806265,-14.699384,1.1573849,-2.7146518,-0.16096039,8.02375,10.8187895,8.625364,-21.63047,61.86476,-23.452293,4.923329,20.040579,1.9556086,-8.730789,34.6282,68.60253,7.243193,2.8033798,-14.24692
188,0.5844922661781311,2.8689002990722656,77.65203857421875,-0.2520381223150262,-6.612473188409015,-97.09499070764387,11.291939,-0.028518172,1.7005203,9.2256775,-16.080496,-1.1829035,10.107285,0.4008673,1.0070778,10.816027,-14.702325,1.1567235,-2.7116961,-0.16664402,8.030548,10.829832,8.625818,-21.620367,61.85356,-23.474041,4.9120364,20.045885,1.9362671,-8.714198,34.66956,68.641975,7.073221,2.9989276,-14.747471
189,0.596807599067688,2.8699676990509033,77.65023803710938,-0.2511261555631906,-6.631030280093394,-97.1008906715701,11.313637,-0.04046462,1.7075418,9.225196,-16.084656,-1.1697063,10.127718,0.3904955,1.0173265,10.814801,-14.708708,1.1716449,-2.7038305,-0.17575282,8.034965,10.836894,8.626163,-21.60421,61.84836,-23.506783,4.899908,20.038383,1.9235961,-8.70312,34.68023,68.67534,6.953881,3.1633282,-15.198581
190,0.6081708073616028,2.8710834980010986,77.64897918701172,-0.24709863483081837,-6.647004503523552,-97.10762195870164,11.331415,-0.05583964,1.7142494,9.227206,-16.089182,-1.1482741,10.14706,0.37792113,1.0311201,10.810578,-14.719526,1.1959883,-2.6949947,-0.18631834,8.035597,10.844454,8.626455,-21.585714,61.84652,-23.551859,4.8863635,20.023773,1.9123636,-8.696045,34.673607,68.71152,6.875165,3.3033912,-15.618477
191,0.6212782263755798,2.875835657119751,77.64703369140625,-0.24435365446851545,-6.661071214097745,-97.11316311866678,11.346442,-0.071269855,1.7196686,9.22958,-16.093945,-1.1253359,10.163476,0.36537313,1.0439587,10.808525,-14.732478,1.2210042,-2.6893098,-0.19876146,8.0356455,10.852143,8.626849,-21.560549,61.845352,-23.595646,4.870738,20.004883,1.8982471,-8.689597,34.654488,68.74993,6.8147845,3.4365761,-16.010622
192,0.6338005661964417,2.8723695278167725,77.64376068115234,-0.243199318984528,-6.673529729174999,-97.1156380573554,11.358593,-0.0826182,1.7220681,9.232868,-16.10002,-1.1078546,10.177242,0.35585198,1.0509318,10.807927,-14.741627,1.2379094,-2.6872468,-0.2089624,8.035518,10.858697,8.627599,-21.538303,61.844055,-23.63658,4.8510814,19.986238,1.8839492,-8.683883,34.629845,68.784225,6.75908,3.5804172,-16.378305
193,0.6439371705055237,2.8712403774261475,77.64104461669922,-0.24834341897449097,-6.683516353745046,-97.1126730054863,11.367757,-0.08774975,1.7203882,9.233831,-16.1068,-1.0987365,10.190516,0.35081196,1.049041,10.8024235,-14.741881,1.243769,-2.6950197,-0.21426089,8.032003,10.86794,8.628289,-21.525116,61.840298,-23.68297,4.8213935,19.968227,1.8687668,-8.682001,34.608784,68.81461,6.7157874,3.7443812,-16.719688
194,0.6517266631126404,2.8713483810424805,77.63916778564453,-0.2540068818719999,-6.6907077527688354,-97.10653683600064,11.372569,-0.089839906,1.7157639,9.235923,-16.11553,-1.0937431,10.195656,0.34806737,1.0416039,10.807686,-14.7443695,1.2435169,-2.7095377,-0.21813732,8.025774,10.879346,8.62917,-21.511868,61.834976,-23.730951,4.784675,19.947664,1.8524851,-8.681353,34.58111,68.84335,6.686457,3.9171312,-17.032682
195,0.6601793766021729,2.8713624477386475,77.6378173828125,-0.261386529572513,-6.697926507650873,-97.09930112087144,11.376781,-0.09075399,1.7096555,9.238841,-16.123526,-1.0896698,10.203393,0.34597957,1.032357,10.807822,-14.74289,1.2400683,-2.7201748,-0.2219957,8.02458,10.887896,8.631424,-21.49774,61.827847,-23.767677,4.7522635,19.928171,1.8341633,-8.681733,34.53878,68.869484,6.654518,4.0857778,-17.32504
196,0.6716468930244446,2.8758904933929443,77.63703155517578,-0.26661143151026057,-6.707910427553119,-97.09457848949536,11.383509,-0.09370747,1.7043737,9.242882,-16.128824,-1.0831174,10.210972,0.34245256,1.0259013,10.813586,-14.744644,1.2363801,-2.7163246,-0.22935638,8.029616,10.882852,8.635759,-21.491047,61.83195,-23.790146,4.7337804,19.913965,1.8194848,-8.685431,34.48819,68.89197,6.61196,4.233957,-17.602692
197,0.68213951587677,2.8758883476257324,77.63874053955078,-0.26914967611939056,-6.721713286049337,-97.09360441095178,11.393168,-0.099574335,1.6999177,9.250332,-16.130295,-1.0725716,10.219596,0.3366307,1.0229455,10.825563,-14.750066,1.2306262,-2.7111533,-0.24191093,8.032727,10.8775,8.638863,-21.485582,61.84777,-23.80228,4.7321997,19.912146,1.8040239,-8.690232,34.465706,68.92239,6.5792885,4.356437,-17.872475
198,0.6927904486656189,2.8794872760772705,77.64205932617188,-0.2697269158986069,-6.738007763658388,-97.09456589484799,11.405602,-0.106386684,1.6951522,9.2575655,-16.12755,-1.0601735,10.229014,0.33002597,1.0215402,10.841018,-14.756473,1.2220861,-2.700978,-0.25808957,8.039507,10.8676195,8.640937,-21.479134,61.870167,-23.799942,4.7432346,19.916605,1.786932,-8.694719,34.447834,68.955025,6.545077,4.461681,-18.12656
199,0.70365309715271,2.8805184364318848,77.64307403564453,-0.2694876791728254,-6.753712296894178,-97.09495452030743,11.4145155,-0.11438634,1.690416,9.270214,-16.127356,-1.0473793,10.23841,0.32229716,1.0201949,10.855477,-14.7633505,1.2155156,-2.6900344,-0.27539334,8.047955,10.853252,8.6442995,-21.472174,61.89546,-23.78942,4.759095,19.922403,1.7685677,-8.7032,34.42694,68.98832,6.5086207,4.5557265,-18.366508
200,0.7085505127906799,2.883469581604004,77.6426010131836,-0.2692899398373212,-6.765956389639577,-97.09280095556579,11.423515,-0.12439842,1.6863586,9.273921,-16.125807,-1.0357516,10.245053,0.31287625,1.0185746,10.868348,-14.771427,1.2157568,-2.6801913,-0.2935413,8.05623,10.836694,8.649018,-21.468302,61.91692,-23.776054,4.7722864,19.92541,1.7541462,-8.716561,34.402733,69.01225,6.470895,4.647298,-18.595694
201,0.7194232940673828,2.8865630626678467,77.642822265625,-0.26668742581519905,-6.7723476971852365,-97.087295873834,11.427727,-0.13750546,1.6841481,9.272724,-16.126348,-1.0246795,10.251521,0.30106455,1.0175565,10.868991,-14.776104,1.2279775,-2.6706383,-0.31065732,8.061784,10.822073,8.657024,-21.47522,61.92805,-23.765625,4.782371,19.92629,1.7469373,-8.741689,34.37438,69.02382,6.42493,4.7393975,-18.81575
202,0.728979229927063,2.8909976482391357,77.64136505126953,-0.2625570943869986,-6.775091105330813,-97.07970502813342,11.4291,-0.15274659,1.6829096,9.268322,-16.12769,-1.0136871,10.259983,0.28744382,1.0170417,10.857724,-14.776786,1.2482841,-2.6696026,-0.3303516,8.059499,10.809869,8.662962,-21.483187,61.941494,-23.75376,4.7909923,19.930403,1.7306898,-8.761894,34.357937,69.05239,6.3785863,4.8267236,-19.030798
203,0.7404692769050598,2.8914575576782227,77.64100646972656,-0.25846797620261397,-6.776940630064496,-97.07026426633988,11.430261,-0.1679499,1.6803404,9.262109,-16.129204,-1.0045457,10.264328,0.2737764,1.0142846,10.854471,-14.782383,1.2678792,-2.6688914,-0.34846625,8.056889,10.798331,8.668893,-21.494148,61.95227,-23.739597,4.7982826,19.93189,1.7188442,-8.782856,34.338516,69.07584,6.3432,4.903496,-19.22804
204,0.7489116787910461,2.890904188156128,77.64009094238281,-0.25833619901962235,-6.781633516415625,-97.05818432353784,11.433547,-0.17885937,1.6722989,9.257581,-16.130438,-0.9992804,10.274439,0.26347905,1.0057817,10.847041,-14.784738,1.2778724,-2.6662438,-0.3595833,8.05667,10.789551,8.677524,-21.508234,61.960003,-23.721369,4.802789,19.927935,1.715936,-8.815896,34.310886,69.08927,6.337123,4.962643,-19.39825
205,0.7561386823654175,2.8948192596435547,77.63841247558594,-0.2639609900315028,-6.789037405308064,-97.04546235687367,11.438713,-0.18265757,1.6592746,9.255935,-16.132833,-1.0021154,10.2827,0.25903994,0.9910132,10.850803,-14.790263,1.2720946,-2.6623654,-0.36472577,8.059528,10.782638,8.686798,-21.522434,61.965973,-23.695965,4.801914,19.916655,1.729011,-8.85467,34.278545,69.083,6.3695436,5.0007935,-19.540314
206,0.7637735605239868,2.893366575241089,77.6378173828125,-0.2724056076350376,-6.797614286565511,-97.03119215246464,11.44481,-0.1817466,1.6422204,9.255116,-16.135588,-1.0107634,10.291243,0.25847286,0.97100526,10.85794,-14.7960825,1.2564846,-2.6710823,-0.36789218,8.053865,10.782796,8.690379,-21.52419,61.980145,-23.659966,4.794874,19.900606,1.7209781,-8.870538,34.257664,69.1189,6.4343114,5.015854,-19.661526
207,0.7737810611724854,2.8916029930114746,77.63705444335938,-0.2805612149033369,-6.808022889262249,-97.01296111849221,11.452084,-0.18245487,1.6208937,9.256427,-16.138458,-1.0172428,10.30257,0.25641936,0.9475437,10.866247,-14.804019,1.2406185,-2.6800222,-0.37033296,8.050376,10.781431,8.694756,-21.52824,61.993042,-23.62586,4.78884,19.88598,1.717338,-8.889852,34.22897,69.14852,6.509546,5.023069,-19.764513
208,0.7811659574508667,2.887665033340454,77.63606262207031,-0.28254424632409136,-6.820732692709672,-96.98847657265993,11.460518,-0.19072513,1.5954348,9.261541,-16.141214,-1.013652,10.317937,0.24740006,0.92225534,10.8762045,-14.81727,1.234026,-2.6808598,-0.37659493,8.054047,10.774707,8.703152,-21.544289,61.998722,-23.602112,4.790051,19.882742,1.7378281,-8.925249,34.18068,69.13909,6.5741005,5.038451,-19.85751
209,0.7884531021118164,2.892275333404541,77.63665008544922,-0.2773850298947637,-6.837185622569949,-96.95341775218347,11.470511,-0.21035497,1.5622782,9.273009,-16.143188,-0.994118,10.347721,0.22812185,0.89351815,10.872662,-14.831043,1.2430515,-2.6865673,-0.38947505,8.059747,10.768412,8.713653,-21.567852,61.997154,-23.594187,4.80194,19.895195,1.7680364,-8.9666395,34.12506,69.11494,6.6349993,5.060475,-19.93718
210,0.8023529052734375,2.8844101428985596,77.63569641113281,-0.2658435438836251,-6.8564423784746795,-96.91038441893525,11.482085,-0.23818237,1.5229679,9.288507,-16.144327,-0.9639804,10.38284,0.20142218,0.86139464,10.869952,-14.850441,1.2614415,-2.7121668,-0.4129512,8.059356,10.766834,8.7193985,-21.578268,61.999256,-23.59139,4.8189507,19.92087,1.7823992,-8.985712,34.0835,69.118614,6.702508,5.0813184,-20.007912
211,0.8103814721107483,2.8776895999908447,77.63323974609375,-0.2541483837167086,-6.876171642270187,-96.86579970965114,11.494041,-0.26705155,1.4824613,9.303892,-16.145544,-0.9326673,10.416474,0.17369582,0.8282768,10.872378,-14.872248,1.2795216,-2.7207673,-0.43265665,8.065137,10.7589855,8.729754,-21.604912,61.997017,-23.595158,4.8364615,19.948406,1.8101732,-9.015344,34.017723,69.10012,6.762364,5.102875,-20.069553
212,0.8159089088439941,2.8744566440582275,77.6318359375,-0.2480870692058258,-6.894179615268063,-96.8261130691489,11.504084,-0.28900105,1.4461269,9.318706,-16.15022,-0.90996575,10.4465475,0.15246196,0.7969926,10.875035,-14.88863,1.2873025,-2.722357,-0.44688666,8.072677,10.750502,8.741044,-21.632168,61.995296,-23.600863,4.846411,19.974226,1.8420238,-9.045557,33.957466,69.07274,6.818678,5.126658,-20.139427
213,0.8240428566932678,2.868818759918213,77.6295394897461,-0.24840465177526033,-6.909498372114022,-96.79152207769751,11.513499,-0.3013838,1.413896,9.327194,-16.157127,-0.89924246,10.467394,0.14023563,0.7665251,10.887337,-14.901324,1.2764698,-2.7239304,-0.45224255,8.080092,10.747742,8.750973,-21.651825,61.99319,-23.600658,4.8429155,19.995901,1.862786,-9.072892,33.911865,69.05497,6.878503,5.1518064,-20.219042
214,0.8320944309234619,2.865990161895752,77.6269302368164,-0.25360560878954147,-6.923307497708144,-96.75900452555565,11.522531,-0.30794895,1.3832192,9.333088,-16.166248,-0.8967317,10.48541,0.13338977,0.73581845,10.901298,-14.909848,1.2541211,-2.7305923,-0.45221964,8.08585,10.747893,8.757377,-21.662622,61.99453,-23.598064,4.8304706,20.016987,1.8716403,-9.091422,33.87917,69.05137,6.9399304,5.1775665,-20.303919
215,0.8424317240715027,2.8654792308807373,77.62611389160156,-0.2600995086684256,-6.93674661745282,-96.72965531757315,11.530267,-0.31371307,1.355343,9.339149,-16.17546,-0.89555687,10.500042,0.12731294,0.70743454,10.917589,-14.918321,1.2340463,-2.735246,-0.45147952,8.091407,10.748503,8.761522,-21.667562,61.996593,-23.599926,4.8176713,20.038183,1.87413,-9.104293,33.85481,69.05532,6.9982853,5.20067,-20.39104
216,0.8520000576972961,2.8664021492004395,77.62569427490234,-0.262436628296871,-6.950475072982136,-96.70478777406062,11.538844,-0.3222111,1.3314283,9.344526,-16.181519,-0.89035606,10.517667,0.11822734,0.68330514,10.923345,-14.924311,1.2298937,-2.7306294,-0.45130658,8.100515,10.747041,8.7650385,-21.670567,61.993206,-23.614223,4.813768,20.057056,1.8775007,-9.116474,33.831547,69.05541,7.047264,5.216546,-20.473684
217,0.8636703491210938,2.8688104152679443,77.62586975097656,-0.26140892831180684,-6.965450595740599,-96.68739613340365,11.549061,-0.33554554,1.313851,9.348278,-16.183514,-0.87778133,10.539762,0.10452736,0.66667,10.914098,-14.9278555,1.2526606,-2.7172954,-0.45513818,8.112776,10.7413025,8.766741,-21.66855,61.986736,-23.652344,4.8238187,20.07918,1.8801713,-9.123051,33.817894,69.055145,7.084582,5.2258797,-20.56476
218,0.8726286888122559,2.869600772857666,77.6252670288086,-0.25687895703172703,-6.981357317514196,-96.67588960834624,11.560665,-0.35092908,1.3010622,9.350974,-16.183243,-0.8615948,10.565286,0.08867184,0.6549609,10.893616,-14.928486,1.2925147,-2.6905558,-0.45774046,8.1335945,10.728126,8.768845,-21.664394,61.975384,-23.705133,4.843355,20.099813,1.884328,-9.132985,33.799076,69.04547,7.1079607,5.2296343,-20.657202
219,0.8809605836868286,2.871227741241455,77.62615966796875,-0.250562413866414,-6.995922870506994,-96.66458898517813,11.569291,-0.36706313,1.289241,9.356986,-16.182568,-0.8451046,10.589873,0.0719764,0.6437121,10.871495,-14.9275675,1.3322158,-2.6648479,-0.46143585,8.148562,10.722157,8.769308,-21.658274,61.962303,-23.7571,4.8619084,20.116909,1.8873216,-9.136925,33.790115,69.04196,7.1324453,5.2281904,-20.73732
220,0.8894131779670715,2.8737435340881348,77.62578582763672,-0.24659018728088714,-7.008953083426042,-96.64752187956823,11.577695,-0.38278434,1.2743248,9.36131,-16.178844,-0.83172965,10.609859,0.05557715,0.6278636,10.861755,-14.928925,1.3546187,-2.6442971,-0.46537513,8.161343,10.72019,8.76939,-21.649033,61.949192,-23.786268,4.87206,20.123053,1.893209,-9.141702,33.779774,69.03325,7.159254,5.2234964,-20.785337
221,0.8965631127357483,2.873572826385498,77.62335205078125,-0.24229692748483825,-7.01947211269655,-96.62427720300121,11.584444,-0.39934883,1.2576315,9.366552,-16.170668,-0.8213255,10.620733,0.03831297,0.6077001,10.873895,-14.934792,1.3504173,-2.6288233,-0.47067487,8.1665535,10.728942,8.768744,-21.63804,61.935886,-23.783398,4.8670783,20.113129,1.9039209,-9.14507,33.769127,69.02392,7.1858444,5.2138667,-20.794218
222,0.9062831401824951,2.871640205383301,77.62258911132812,-0.23760546150132097,-7.028351591362099,-96.59761436812961,11.589,-0.41730604,1.2406007,9.374987,-16.160366,-0.8123628,10.623069,0.019385604,0.5854149,10.904947,-14.946,1.3305421,-2.6152325,-0.47710854,8.16839,10.744559,8.767143,-21.623507,61.920574,-23.75803,4.8534923,20.091135,1.9191232,-9.147924,33.75704,69.010185,7.2074285,5.1999,-20.77403
223,0.914375364780426,2.8710739612579346,77.62378692626953,-0.23463017803967598,-7.0347780414435,-96.56705782077682,11.591499,-0.43338513,1.219547,9.381275,-16.150297,-0.8061377,10.625972,0.0022761459,0.5593663,10.93115,-14.954476,1.3074523,-2.6043458,-0.48264042,8.166984,10.762311,8.765929,-21.612741,61.904392,-23.730198,4.839632,20.067228,1.935362,-9.148728,33.749104,68.99286,7.2411313,5.18379,-20.73388
224,0.9245096445083618,2.867298126220703,77.62629699707031,-0.23371950951915052,-7.0375535905708135,-96.53248769885268,11.588574,-0.44544443,1.1911596,9.386203,-16.145836,-0.8036533,10.630546,-0.010845017,0.5276446,10.945164,-14.960644,1.2938081,-2.602575,-0.48602492,8.164718,10.782224,8.760467,-21.582499,61.88401,-23.69355,4.836832,20.044611,1.9530466,-9.149951,33.735218,68.963356,7.283119,5.168964,-20.675556
225,0.9331239461898804,2.8652358055114746,77.6259765625,-0.23954720827327408,-7.035511473277559,-96.49071290041955,11.578821,-0.44965336,1.1504649,9.38738,-16.149448,-0.8072978,10.639111,-0.016019333,0.48643276,10.937844,-14.961523,1.2948883,-2.6042783,-0.48467296,8.159599,10.794239,8.758014,-21.57117,61.865807,-23.680857,4.845767,20.032433,1.9698203,-9.148739,33.72881,68.923676,7.377128,5.15236,-20.595013
226,0.9402859210968018,2.8672804832458496,77.62648010253906,-0.2489838209817865,-7.0290929277696765,-96.44219314133281,11.560575,-0.44747427,1.0998061,9.391524,-16.16103,-0.8158788,10.651534,-0.015150118,0.43682382,10.913357,-14.957252,1.3032305,-2.6141686,-0.48145542,8.15117,10.8076105,8.755134,-21.550808,61.84538,-23.659012,4.863989,20.02148,1.9891737,-9.145478,33.719257,68.87252,7.492888,5.1347847,-20.487738
227,0.9450384378433228,2.8750715255737305,77.6239242553711,-0.25893811780525394,-7.0223628358475665,-96.39391023520199,11.5438,-0.44564918,1.0491215,9.392445,-16.172297,-0.8251098,10.663292,-0.0144293355,0.38777912,10.89034,-14.954569,1.3123423,-2.6269915,-0.47908178,8.143697,10.819694,8.750432,-21.523495,61.826096,-23.640669,4.8853908,20.009995,2.0037293,-9.137006,33.713062,68.823944,7.5979633,5.119497,-20.380194
228,0.9412237405776978,2.8628532886505127,77.62255859375,-0.26500085794724265,-7.018986605839098,-96.35181393446112,11.533425,-0.4486936,1.006671,9.39342,-16.180048,-0.8310558,10.675476,-0.018201265,0.3466351,10.875701,-14.954681,1.3155897,-2.6320171,-0.47765976,8.13664,10.832711,8.746917,-21.504805,61.808495,-23.638046,4.9046845,19.997305,2.0213668,-9.1288595,33.714664,68.77843,7.6604238,5.1108503,-20.296732
229,0.9447130560874939,2.8472681045532227,77.61923217773438,-0.26517686373487515,-7.02050376783852,-96.31750829666248,11.533472,-0.4582389,0.9755021,9.392305,-16.182364,-0.8338592,10.686704,-0.028114125,0.3169634,10.878914,-14.962367,1.3075109,-2.6333935,-0.47983783,8.128008,10.8537855,8.742364,-21.478117,61.790012,-23.648136,4.9239798,19.980381,2.0386178,-9.1173935,33.72625,68.74624,7.657298,5.1108365,-20.240936
230,0.9515275359153748,2.8400847911834717,77.62181854248047,-0.26271670144872566,-7.024821180964885,-96.28816954494017,11.538862,-0.47138542,0.95122707,9.3920965,-16.183544,-0.83527017,10.697256,-0.041270725,0.29466718,10.892935,-14.974716,1.2928872,-2.6277266,-0.48291644,8.120363,10.876268,8.738068,-21.45361,61.770622,-23.672863,4.9450455,19.961884,2.0624316,-9.10643,33.742363,68.710396,7.613289,5.1179566,-20.200615
231,0.9625251293182373,2.837913751602173,77.62149810791016,-0.2580590425812721,-7.030014798623833,-96.26154586703247,11.546072,-0.48642242,0.92993724,9.391056,-16.182028,-0.8337855,10.709453,-0.056443892,0.27429214,10.904053,-14.985007,1.2803024,-2.6201124,-0.48568234,8.115612,10.895421,8.733555,-21.432499,61.755028,-23.698635,4.96267,19.941801,2.0813413,-9.094771,33.762386,68.6785,7.551263,5.126237,-20.174805
232,0.9698790311813354,2.838200330734253,77.61943054199219,-0.25346624294114783,-7.034275280574606,-96.23532429532715,11.549998,-0.5027911,0.9075634,9.390451,-16.178019,-0.82757306,10.717712,-0.07348032,0.2503961,10.914324,-14.994633,1.2785807,-2.6336136,-0.4938758,8.109941,10.916628,8.724878,-21.398064,61.74632,-23.708422,4.9717464,19.925385,2.0798352,-9.068141,33.808952,68.66552,7.496957,5.1331935,-20.170948
233,0.9744628071784973,2.8436503410339355,77.61835479736328,-0.24828616092738492,-7.039059826787226,-96.2078414666124,11.547848,-0.52020055,0.88257915,9.397798,-16.173717,-0.8138438,10.730191,-0.09261375,0.2185163,10.908145,-14.996011,1.2944118,-2.6476529,-0.49888995,8.117216,10.924771,8.718791,-21.382412,61.742687,-23.709478,4.970415,19.90744,2.0641754,-9.045219,33.85853,68.651,7.458201,5.1363173,-20.188362
234,0.9845410585403442,2.8389461040496826,77.61995697021484,-0.2409831629887312,-7.044888511024107,-96.18110142184148,11.544061,-0.53938717,0.85737556,9.407819,-16.167273,-0.79431087,10.744501,-0.11432197,0.18293813,10.894458,-14.993399,1.3217437,-2.6574671,-0.5073733,8.131303,10.918664,8.713201,-21.381357,61.751846,-23.704382,4.960962,19.89151,2.0472465,-9.015377,33.909943,68.629745,7.418007,5.1418967,-20.231388
235,0.9906151294708252,2.8441264629364014,77.61847686767578,-0.2352571071609178,-7.048673722167587,-96.1581931005078,11.537179,-0.5575551,0.83533156,9.41883,-16.161175,-0.7744107,10.753218,-0.13475417,0.15121979,10.884048,-14.990982,1.3495547,-2.6590586,-0.5115906,8.1480255,10.904295,8.710076,-21.391788,61.764645,-23.703012,4.947569,19.876991,2.0288718,-8.99094,33.952774,68.606064,7.3674026,5.143936,-20.275188
236,1.0004301071166992,2.8436341285705566,77.62034606933594,-0.23290242431459154,-7.048235193843472,-96.14410042062885,11.529318,-0.5710579,0.82128143,9.423397,-16.155294,-0.75990057,10.754237,-0.14967565,0.13301542,10.877332,-14.986872,1.3666843,-2.6423771,-0.50531185,8.162038,10.895534,8.709548,-21.397888,61.764393,-23.698572,4.9381504,19.86347,2.0208647,-8.986448,33.966602,68.56933,7.294979,5.1407046,-20.292084
237,1.0113624334335327,2.842996835708618,77.62162780761719,-0.2363177595959612,-7.042144826863608,-96.13911895330727,11.517753,-0.57758194,0.81507653,9.425094,-16.153807,-0.753859,10.741877,-0.15651695,0.1306492,10.88392,-14.985016,1.3674524,-2.6476357,-0.50462806,8.154625,10.887895,8.702113,-21.406557,61.785995,-23.741554,4.915569,19.871872,1.9785435,-8.933174,34.054405,68.59802,7.2305274,5.126582,-20.322529
238,1.0228060483932495,2.8405351638793945,77.62361145019531,-0.24416436956609666,-7.032070316210771,-96.1439799578708,11.504584,-0.5785385,0.81748223,9.422349,-16.15352,-0.7529233,10.723136,-0.15695459,0.14221676,10.890805,-14.979309,1.3584555,-2.6246655,-0.49134207,8.15503,10.873884,8.6979475,-21.415174,61.795525,-23.779144,4.8962593,19.879093,1.9600574,-8.907636,34.095848,68.58432,7.128593,5.1102495,-20.329657
239,1.0313973426818848,2.8401060104370117,77.622314453125,-0.25160494818590307,-7.0200363520771605,-96.15168059685217,11.48956,-0.58002734,0.822754,9.417907,-16.152374,-0.7522307,10.695742,-0.15749556,0.15761875,10.909117,-14.978691,1.3479968,-2.6036546,-0.47926918,8.150142,10.861508,8.692076,-21.422123,61.807594,-23.814507,4.876462,19.890766,1.9343404,-8.878663,34.144608,68.584076,7.032557,5.091789,-20.329863
