unveil-humanoid-operators/unveil-humanoid-operators.github.io/feature-analysis-animation/data/feature_matrix_instances/age_waist_rom_jogging_A195_jog_ff_loop_180_R_002__A195.csv
Frame,root_translateX,root_translateY,root_translateZ,root_rotateX,root_rotateY,root_rotateZ,left_hip_pitch_joint_dof,left_hip_roll_joint_dof,left_hip_yaw_joint_dof,left_knee_joint_dof,left_ankle_pitch_joint_dof,left_ankle_roll_joint_dof,right_hip_pitch_joint_dof,right_hip_roll_joint_dof,right_hip_yaw_joint_dof,right_knee_joint_dof,right_ankle_pitch_joint_dof,right_ankle_roll_joint_dof,waist_yaw_joint_dof,waist_roll_joint_dof,waist_pitch_joint_dof,left_shoulder_pitch_joint_dof,left_shoulder_roll_joint_dof,left_shoulder_yaw_joint_dof,left_elbow_joint_dof,left_wrist_roll_joint_dof,left_wrist_pitch_joint_dof,left_wrist_yaw_joint_dof,right_shoulder_pitch_joint_dof,right_shoulder_roll_joint_dof,right_shoulder_yaw_joint_dof,right_elbow_joint_dof,right_wrist_roll_joint_dof,right_wrist_pitch_joint_dof,right_wrist_yaw_joint_dof
0,-0.5487430095672607,1.2385461330413818,78.55457305908203,1.7100188471697746,8.712832021752902,-82.45891182636312,-23.66958,-2.127343,9.693898,18.767601,-9.183388,-0.8232175,19.112684,-6.441645,-13.829646,23.194803,7.8580923,12.1101,11.545231,1.1827052,5.5291786,42.841743,24.902578,-17.05862,-36.695423,11.330954,7.1581616,-6.082159,-10.177206,-23.175137,32.149624,-24.933868,-7.093019,4.3764033,-1.6865422
1,-0.4257829785346985,0.018379610031843185,78.39884948730469,1.821411651065836,8.347053524250462,-81.76147742133017,-22.9201,-2.547824,9.310924,18.534761,-8.861733,-1.5084212,18.760221,-6.487953,-13.836441,26.247322,6.5351253,10.991172,10.8515215,1.0127382,5.91506,41.564808,25.029116,-17.022146,-36.592697,11.2216,7.1922684,-5.91164,-9.231359,-23.27864,32.510487,-25.641647,-7.1752143,4.149308,-1.4387623
2,-0.3012421727180481,-1.2078989744186401,78.1915283203125,1.8782757992175878,7.974313234152772,-81.06094343368378,-22.135813,-2.9321578,8.907343,18.171307,-8.449456,-2.3365865,18.468977,-6.474583,-13.813076,29.224503,5.2287407,9.817281,10.183192,0.8824139,6.2900186,40.317833,25.19118,-16.993977,-36.513386,11.1016865,7.2293663,-5.742138,-8.284179,-23.409658,32.871666,-26.374823,-7.2469378,3.9226582,-1.1861808
3,-0.16334378719329834,-2.4446940422058105,77.93316650390625,1.9957310485085915,7.598812888205703,-80.34412005623712,-21.416203,-3.3683846,8.487228,18.097515,-8.252324,-2.8867798,18.127653,-6.5674405,-13.7919235,32.269173,3.889752,8.71846,9.498002,0.6832943,6.6905975,38.997578,25.37596,-16.99714,-36.417427,10.966432,7.2627516,-5.5467043,-7.24418,-23.557154,33.161385,-27.153126,-7.3326945,3.6912453,-0.949457
4,-0.040924835950136185,-3.69760799407959,77.62899780273438,2.28873699991063,7.220178276462605,-79.59974509654118,-20.861343,-3.9517248,8.059437,18.736322,-8.569248,-2.7397342,17.636501,-6.920778,-13.806945,35.507206,2.4884937,7.8290067,8.756971,0.30467469,7.1500325,37.504795,25.574902,-17.054905,-36.26969,10.807767,7.2853127,-5.29653,-6.0227804,-23.70355,33.30933,-27.992159,-7.4570303,3.4494574,-0.7497335
5,0.061352819204330444,-4.940105438232422,77.26958465576172,2.8144479953652026,6.819638858520257,-78.79860557427885,-20.527285,-4.76844,7.575097,20.338926,-9.524694,-1.4412298,17.017868,-7.549958,-13.86932,38.964252,1.0459044,7.2429843,7.9290733,-0.3129923,7.681244,35.816113,25.791203,-17.183784,-36.05432,10.580257,7.283475,-4.9299498,-4.612149,-23.83287,33.325085,-28.905458,-7.639877,3.2222607,-0.6046461
6,0.1949625015258789,-6.116713047027588,76.93705749511719,3.4754677126110836,6.389237940010018,-77.97161296762043,-20.33207,-5.760305,7.0396037,22.595573,-10.87897,0.6671114,16.333712,-8.327104,-13.953932,42.551064,-0.4099449,6.8780236,7.056879,-1.077602,8.257101,33.986137,26.022076,-17.374647,-35.793316,10.301359,7.2640004,-4.478158,-3.067008,-23.93716,33.24419,-29.86236,-7.8647685,3.0032432,-0.49655414
7,0.34029921889305115,-7.308294773101807,76.53961944580078,4.16482771571144,5.947873524162343,-77.19301760141431,-20.161581,-6.8041916,6.540396,25.072186,-12.409091,2.8106325,15.544878,-9.207646,-14.040868,46.223347,-1.905615,6.6025233,6.2036242,-1.8818948,8.851149,32.034195,26.244823,-17.606524,-35.50813,10.059125,7.2515483,-4.0526476,-1.3979428,-24.010435,33.042046,-30.810886,-8.099878,2.7394044,-0.39443558
8,0.4749499261379242,-8.51298999786377,76.08256530761719,4.809470345369942,5.526617441869507,-76.52324732788442,-19.923344,-7.7658873,6.1704087,27.38281,-13.972026,4.219262,14.592659,-10.20183,-14.109478,49.96472,-3.4836414,6.2815614,5.4168606,-2.6470141,9.438655,29.971441,26.425856,-17.852367,-35.20959,9.946233,7.272279,-3.7681482,0.38400432,-24.048111,32.696957,-31.702284,-8.312547,2.377655,-0.26887733
9,0.6239681243896484,-9.703914642333984,75.59947967529297,5.4494892183829595,5.124266751206392,-75.96546815966157,-19.66213,-8.634054,5.9936323,29.640305,-15.707949,4.5990396,13.4605875,-11.416358,-14.158038,53.893723,-5.2172456,5.9125056,4.6919584,-3.3945572,10.0311165,27.786287,26.537178,-18.096106,-34.900906,9.996077,7.34985,-3.6905499,2.2791197,-24.04394,32.20444,-32.518253,-8.423591,1.8214066,-0.09294903
10,0.7875848412513733,-10.855229377746582,75.10674285888672,6.1274676183388594,4.7344866152556335,-75.48394641474101,-19.430481,-9.443163,5.951482,32.040718,-17.694483,4.398038,12.175049,-12.843313,-14.182807,57.999096,-7.0778112,5.556565,3.9881968,-4.168528,10.630508,25.47609,26.568085,-18.335772,-34.562443,10.165944,7.46354,-3.7543333,4.270235,-23.986433,31.602167,-33.271603,-8.467823,1.1268592,0.10794725
11,0.9532067179679871,-11.968250274658203,74.63414764404297,6.787420362615948,4.386350457917309,-75.07537017913411,-19.156616,-10.137168,5.9664407,34.337517,-19.726501,3.9604406,10.728903,-14.348144,-14.156025,62.072933,-8.959917,5.16602,3.2894008,-4.9345603,11.199347,23.070557,26.51403,-18.558014,-34.163155,10.435729,7.5736914,-3.8777552,6.3158584,-23.861776,30.935314,-33.953476,-8.588267,0.47000033,0.28313085
12,1.109999179840088,-13.07870864868164,74.19351959228516,7.364450922977441,4.107847996872701,-74.7389125403248,-18.74622,-10.697109,5.957664,36.224827,-21.571363,3.623425,9.1056,-15.788197,-14.05278,65.90985,-10.751961,4.6882663,2.5786245,-5.6487613,11.701298,20.599619,26.375975,-18.749546,-33.67527,10.783641,7.6418123,-3.979031,8.3739195,-23.657787,30.247086,-34.552433,-8.931844,0.02650266,0.38168588
13,1.2499346733093262,-14.188199996948242,73.7922134399414,7.86574825392667,3.9282247313634704,-74.47669447201709,-18.180988,-11.159435,5.9399934,37.581806,-23.177626,3.4554884,7.2289534,-17.191029,-13.847396,69.548645,-12.459222,4.081223,1.850531,-6.3164964,12.128035,18.000378,26.15471,-18.900614,-33.029892,11.17003,7.6366444,-4.040137,10.478514,-23.349434,29.507412,-35.03164,-9.640759,-0.14442411,0.38502914
14,1.3479747772216797,-15.297887802124023,73.4451675415039,8.320356954877067,3.828459775179562,-74.28661937933629,-17.507267,-11.547577,5.9602547,38.567734,-24.658913,3.289656,5.114981,-18.614288,-13.541492,73.07391,-14.133014,3.3712592,1.1002059,-6.957122,12.4902725,15.29433,25.852388,-18.992977,-32.26383,11.620768,7.586182,-4.1049976,12.604279,-22.926035,28.726835,-35.36579,-10.608599,-0.13818456,0.32823557
15,1.4358952045440674,-16.41314697265625,73.14636993408203,8.691173107272661,3.763609772198058,-74.16074171102551,-16.71617,-11.835806,5.974764,39.27247,-26.018213,3.1072447,2.8810773,-19.953098,-13.168641,76.345535,-15.721587,2.6135817,0.31792524,-7.5417366,12.78628,12.622273,25.476961,-19.016804,-31.4987,12.211024,7.541909,-4.1864624,14.645048,-22.414206,27.99663,-35.584167,-11.612517,-0.011708,0.23925844
16,1.5128084421157837,-17.545001983642578,72.89239501953125,8.937723293919207,3.688568838823028,-74.09533191869775,-15.78673,-11.981749,5.9363947,39.7829,-27.261684,2.8826687,0.6572999,-21.103153,-12.78535,79.21159,-17.170397,1.8606297,-0.4925429,-8.038296,13.022997,10.109988,25.037973,-18.980427,-30.853195,13.013409,7.553518,-4.29824,16.525143,-21.86833,27.39259,-35.7558,-12.425854,0.17573832,0.13896622
17,1.5853973627090454,-18.698501586914062,72.68597412109375,9.045440889437536,3.578132370561527,-74.09487266300789,-14.69552,-11.945825,5.82609,40.140606,-28.420835,2.5986652,-1.540331,-22.068403,-12.425694,81.6708,-18.441383,1.097826,-1.3188785,-8.439607,13.251912,7.7493467,24.529593,-18.877695,-30.36937,14.222501,7.649419,-4.499567,18.30432,-21.328737,26.907574,-35.9766,-13.052464,0.5033971,-0.012252356
18,1.6659786701202393,-19.86935806274414,72.52437591552734,9.037622297848733,3.4616097079423156,-74.16034731131879,-13.45264,-11.748234,5.6750574,40.292236,-29.48569,2.2740362,-3.7764382,-22.893871,-12.074664,83.79143,-19.566801,0.3039199,-2.1595302,-8.755745,13.466455,5.4653306,23.949335,-18.716057,-29.97325,15.74113,7.792501,-4.769586,20.046768,-20.811628,26.493074,-36.251595,-13.58127,0.972281,-0.21731311
19,1.757706642150879,-21.05291175842285,72.41043853759766,8.930762202094604,3.3754984506936347,-74.2813558446251,-12.092268,-11.429329,5.506322,40.189987,-30.401,1.9311393,-6.0457854,-23.532028,-11.720583,85.53213,-20.5806,-0.46207246,-3.016209,-8.980226,13.593981,3.2785418,23.3172,-18.54605,-29.616604,17.199354,7.939023,-4.995714,21.709835,-20.33952,26.144768,-36.537354,-13.912944,1.4021987,-0.4094914
20,1.85586678981781,-22.26970863342285,72.34660339355469,8.742054679846822,3.356340463514906,-74.44743951461108,-10.649006,-11.02539,5.339364,39.785114,-31.109064,1.5906693,-8.341897,-23.932577,-11.35384,86.849525,-21.512869,-1.136644,-3.88717,-9.1080475,13.565815,1.2262095,22.668236,-18.42025,-29.276423,18.22013,8.054066,-5.0573387,23.25664,-19.94018,25.849478,-36.803795,-13.950647,1.6117201,-0.524393
21,1.9490196704864502,-23.50043296813965,72.33904266357422,8.47605901010921,3.4224508706333814,-74.6578873320777,-9.147262,-10.531599,5.1767416,39.073498,-31.642872,1.2616347,-10.711928,-24.086233,-10.970366,87.74595,-22.379644,-1.7558988,-4.7836313,-9.141565,13.358784,-0.65298307,22.02036,-18.341463,-28.999159,18.694523,8.136945,-4.885548,24.703156,-19.637983,25.599152,-37.0882,-13.5423565,1.4906843,-0.5490793
22,2.0486772060394287,-24.755569458007812,72.38557434082031,8.124953012749733,3.549764018896926,-74.9181352902815,-7.5663533,-9.92422,5.0121503,38.08179,-32.018192,0.9281993,-13.13374,-24.012243,-10.5995655,88.2371,-23.149033,-2.3270915,-5.699256,-9.079154,13.028122,-2.3684275,21.37432,-18.290749,-28.81711,18.813253,8.20905,-4.545765,26.094772,-19.44283,25.384153,-37.439953,-12.774269,1.157051,-0.519745
23,2.1410443782806396,-26.03905487060547,72.48552703857422,7.685718096871402,3.7102918994144063,-75.22669271899406,-5.876078,-9.213142,4.8508472,36.812286,-32.15067,0.5696682,-15.481912,-23.715708,-10.300399,88.2935,-23.794914,-2.7557018,-6.6043873,-8.909249,12.625211,-3.941059,20.7428,-18.290302,-28.697212,18.6487,8.269229,-4.1146727,27.440718,-19.352434,25.186985,-37.85019,-11.908092,0.7709724,-0.4484387
24,2.2337703704833984,-27.36545181274414,72.6451187133789,7.156075170174842,3.8757163123906024,-75.58143331447502,-4.042967,-8.410295,4.6975617,35.259975,-31.954762,0.16375221,-17.627625,-23.210636,-10.134567,87.88502,-24.297064,-2.9509473,-7.466413,-8.625405,12.201937,-5.388521,20.146624,-18.364159,-28.610878,18.27066,8.316818,-3.6677709,28.744186,-19.354933,24.990295,-38.297806,-11.20819,0.49069244,-0.3519864
25,2.3211538791656494,-28.720861434936523,72.8570785522461,6.5227026724314126,4.021762668061872,-75.98613070970566,-1.9810472,-7.506472,4.5302486,33.301414,-31.431484,-0.30877173,-19.509892,-22.490932,-10.149791,86.946556,-24.650963,-2.7914205,-8.284779,-8.2253065,11.777036,-6.688467,19.603079,-18.536295,-28.575916,17.562147,8.362132,-3.1358688,29.989265,-19.447264,24.796562,-38.774426,-10.721042,0.36076263,-0.22411826
26,2.4164254665374756,-30.111297607421875,73.12123107910156,5.792783201010263,4.165153516753309,-76.4401822935171,0.25980222,-6.4995832,4.365281,30.979357,-30.615185,-0.84110606,-21.187374,-21.563221,-10.318727,85.50244,-24.865574,-2.352852,-9.073648,-7.719375,11.332153,-7.8181963,19.11628,-18.78999,-28.627506,16.522764,8.394849,-2.5026608,31.176424,-19.628836,24.60868,-39.289227,-10.314976,0.29578784,-0.059814364
27,2.5132644176483154,-31.53931427001953,73.4228744506836,4.9951292814986585,4.339952319265591,-76.93803139183738,2.5060742,-5.416322,4.2586823,28.550583,-29.478678,-1.411055,-22.72202,-20.451803,-10.5698805,83.66019,-24.928314,-1.827872,-9.821712,-7.122686,10.860302,-8.795965,18.68597,-19.088549,-28.757454,15.401436,8.391495,-1.9258187,32.325645,-19.884743,24.41376,-39.840122,-9.989879,0.2569871,0.11900844
28,2.5948710441589355,-33.0095329284668,73.74996185302734,4.159070718075594,4.580034261282455,-77.47601029706583,4.5889378,-4.2890935,4.255468,26.277084,-27.998085,-1.9866806,-24.172945,-19.175993,-10.829566,81.524216,-24.831856,-1.4092067,-10.514084,-6.4514465,10.350231,-9.648343,18.309464,-19.396833,-28.947887,14.448233,8.338528,-1.5652518,33.448227,-20.189613,24.20207,-40.410145,-9.747692,0.20485528,0.29252434
29,2.672105550765991,-34.48585891723633,74.10794067382812,3.2445244418806665,4.900216509830806,-78.09427430477173,6.5339847,-3.0897398,4.3470507,24.117268,-26.13101,-2.5843194,-25.561447,-17.644596,-11.068719,79.06512,-24.55271,-1.1585594,-11.113337,-5.6671143,9.788544,-10.364191,17.989662,-19.736814,-29.200832,13.681412,8.23748,-1.4422743,34.52258,-20.52881,23.97347,-40.97563,-9.631668,0.1264786,0.47837415
30,2.7349629402160645,-35.99661636352539,74.48168182373047,2.257128194530795,5.271957061104097,-78.78787023550409,8.401956,-1.8339146,4.504167,21.996313,-23.916178,-3.2035587,-26.830608,-15.874921,-11.324216,76.22806,-24.103151,-0.9603044,-11.627568,-4.787431,9.18498,-10.937527,17.72945,-20.123034,-29.516687,12.984428,8.1013365,-1.4802743,35.534885,-20.898214,23.733683,-41.525955,-9.632681,0.042250976,0.6840821
31,2.794036388397217,-37.50920486450195,74.86582946777344,1.294790172967099,5.667353836062863,-79.48652198276774,10.086388,-0.61862093,4.7260113,20.125454,-21.454742,-3.7866836,-27.936855,-14.052055,-11.610285,73.09358,-23.527237,-0.7457053,-12.110004,-3.912179,8.558811,-11.404572,17.523077,-20.508995,-29.87974,12.407377,7.939543,-1.6930566,36.502777,-21.286253,23.484558,-42.06209,-9.6756525,-0.036697224,0.8759787
32,2.832916736602783,-39.04728317260742,75.25639343261719,0.45310512642677275,6.064858284492171,-80.1167770208291,11.482816,0.46840197,5.0086517,18.714584,-18.839197,-4.279576,-28.852354,-12.3631315,-11.93534,69.74579,-22.868547,-0.45113078,-12.616544,-3.1352768,7.9258065,-11.808201,17.359724,-20.848942,-30.263699,12.002231,7.760353,-2.0957153,37.440403,-21.677359,23.22964,-42.577225,-9.686162,-0.09841126,1.0210725
33,2.8707685470581055,-40.60796356201172,75.64527130126953,-0.2748081959031993,6.490893286900482,-80.67451130714902,12.546406,1.4451047,5.3737307,17.8258,-15.986192,-4.674721,-29.590593,-10.833846,-12.324758,66.143364,-22.121574,-0.084414236,-13.156801,-2.4473052,7.2594457,-12.144677,17.23283,-21.136269,-30.644796,11.837983,7.5360665,-2.7630007,38.33807,-22.065052,22.977463,-43.05297,-9.654634,-0.13776252,1.1027042
34,2.903831720352173,-42.16812515258789,76.03324127197266,-0.9309188872882611,6.949121675079459,-81.19303266100745,13.343409,2.3513417,5.7950325,17.352966,-12.883505,-5.006643,-30.15929,-9.367134,-12.752691,62.24573,-21.262344,0.32625347,-13.697582,-1.8061228,6.5558167,-12.409147,17.142282,-21.398487,-31.026323,11.868243,7.270015,-3.6643622,39.18486,-22.448698,22.724918,-43.484367,-9.621473,-0.16167553,1.1437719
35,2.935519218444824,-43.74067306518555,76.40892028808594,-1.478305382626332,7.392580292457432,-81.64800156503829,13.943942,3.143708,6.2014413,17.223156,-9.710502,-5.2879577,-30.538754,-7.976152,-13.152246,58.144413,-20.31137,0.7981899,-14.238451,-1.2484269,5.8614826,-12.642584,17.085035,-21.644846,-31.422737,11.976159,7.0166354,-4.656393,39.995186,-22.819757,22.456915,-43.886097,-9.58833,-0.17564292,1.1719986
36,2.9706320762634277,-45.30563735961914,76.77108764648438,-1.874152751329612,7.776743536758533,-82.01204382283571,14.417407,3.771652,6.5287404,17.350067,-6.63769,-5.524209,-30.72223,-6.692119,-13.448393,53.94667,-19.299486,1.3406135,-14.782337,-0.8163905,5.2192664,-12.8896885,17.056002,-21.886106,-31.841906,12.048983,6.834044,-5.5977097,40.781696,-23.16372,22.159702,-44.2654,-9.55804,-0.18527824,1.2156398
37,3.0027525424957275,-46.870086669921875,77.1131591796875,-2.0927368793147423,8.124231570043568,-82.25479867925672,14.691931,4.2169843,6.761436,17.781574,-3.6055367,-5.6298857,-30.72294,-5.5521526,-13.61022,49.58832,-18.22716,1.9137847,-15.352096,-0.52339315,4.6043077,-13.177625,17.053051,-22.129103,-32.27159,12.100436,6.753631,-6.542034,41.56244,-23.464754,21.819874,-44.619408,-9.534654,-0.19642888,1.2871761
38,3.035719156265259,-48.44049835205078,77.43126678466797,-2.1663598237661597,8.459055758794396,-82.38337966981942,14.766519,4.5233574,6.934437,18.492136,-0.5198848,-5.6400733,-30.545116,-4.5556383,-13.676553,45.022816,-17.075335,2.5035322,-15.948412,-0.33811477,3.9952898,-13.4930525,17.074284,-22.375874,-32.69524,12.179773,6.7384744,-7.535239,42.322315,-23.716728,21.448494,-44.932316,-9.519429,-0.20472594,1.3742661
39,3.080871343612671,-50.02525329589844,77.7158203125,-2.1446253178014114,8.733706987731653,-82.43285560930799,14.813424,4.730447,7.0613685,19.303236,2.4885929,-5.7229295,-30.157957,-3.6693387,-13.675998,40.364944,-15.843989,3.1574478,-16.53654,-0.23500073,3.4459074,-13.819348,17.113644,-22.628439,-33.12387,12.229278,6.748745,-8.425977,43.02517,-23.922531,21.06782,-45.201935,-9.509852,-0.20051217,1.4673164
40,3.129716157913208,-51.60237503051758,77.95964813232422,-2.0685950997498437,8.894964190635786,-82.44294428027673,15.007368,4.8606353,7.1458077,20.04802,5.2754087,-6.0330853,-29.530382,-2.8544166,-13.631239,35.73321,-14.530273,3.9330907,-17.078632,-0.20053433,3.0131993,-14.140299,17.162943,-22.886766,-33.56287,12.190382,6.746287,-9.063162,43.63895,-24.091726,20.697426,-45.43507,-9.502319,-0.1741495,1.5552868
41,3.1884725093841553,-53.176124572753906,78.15782928466797,-1.8908586874799722,8.90625335728967,-82.38360939902444,15.463235,4.880117,7.221741,20.584528,7.9896917,-6.763124,-28.580069,-2.1278036,-13.49899,30.99597,-13.05245,4.964656,-17.59407,-0.28392515,2.7180912,-14.477849,17.217352,-23.159348,-34.0128,12.044146,6.7371535,-9.408856,44.188732,-24.227053,20.329012,-45.638474,-9.491168,-0.12506993,1.6337403
42,3.24929141998291,-54.75193405151367,78.30997467041016,-1.571357751976636,8.793471801537002,-82.23957476279263,16.076271,4.7477703,7.252396,21.027292,10.660288,-7.752826,-27.330046,-1.5490924,-13.256772,26.11355,-11.4315815,6.17867,-18.102503,-0.51851606,2.5205877,-14.84332,17.272715,-23.442024,-34.455254,11.825463,6.737074,-9.547418,44.68175,-24.321716,19.960062,-45.807907,-9.482597,-0.057209495,1.7085359
43,3.318085193634033,-56.33195114135742,78.40894317626953,-1.1665241830912887,8.598532552023466,-82.07688347442391,16.683756,4.4876165,7.157182,21.614845,12.938767,-8.62748,-25.929913,-1.1229914,-12.976141,21.387938,-9.827756,7.338296,-18.57058,-0.86196923,2.3875947,-15.195034,17.319407,-23.70486,-34.88274,11.5581,6.722413,-9.5145445,45.04845,-24.379677,19.62807,-45.918957,-9.488518,0.032903995,1.7795211
44,3.400477886199951,-57.91844177246094,78.45049285888672,-0.7591336590130842,8.372230010692364,-81.97298658774906,17.134743,4.1554093,6.896612,22.551521,14.476199,-9.025116,-24.567656,-0.8093509,-12.751203,17.182625,-8.416561,8.216791,-18.920137,-1.2288301,2.3088944,-15.471927,17.37729,-23.96112,-35.345627,11.253989,6.672946,-9.312352,45.332474,-24.4497,19.288223,-46.071384,-9.488688,0.14209206,1.8521237
45,3.4835774898529053,-59.49229431152344,78.43437957763672,-0.3717952733600183,8.131747704576666,-81.95241471300778,17.362194,3.7385802,6.3964343,23.944832,15.071258,-8.764799,-23.278728,-0.57210934,-12.653607,13.52023,-7.246937,8.767619,-19.166613,-1.6058095,2.2606447,-15.695958,17.427822,-24.168257,-35.80394,10.879059,6.5792394,-8.931794,45.430557,-24.521118,19.014076,-46.163967,-9.525247,0.29494384,1.9202105
46,3.5582735538482666,-61.04277801513672,78.35578918457031,0.005801978509478429,7.8611714732654105,-81.99621167150276,17.437696,3.2554588,5.7384043,25.696257,14.926297,-8.080352,-21.97476,-0.36890516,-12.643061,10.200281,-6.1944265,9.120223,-19.305334,-1.98907,2.269881,-15.865408,17.48557,-24.351267,-36.29248,10.435693,6.4514747,-8.355706,45.42657,-24.621672,18.751131,-46.268497,-9.56888,0.48096764,1.9818617
47,3.62668776512146,-62.578765869140625,78.22978210449219,0.29608592235062603,7.572158704962384,-82.12877074486732,17.389624,2.8500035,5.130892,27.741528,14.276829,-7.2478137,-20.691057,-0.09763681,-12.655743,7.3005524,-5.1893835,9.306958,-19.339668,-2.3011847,2.3522894,-15.916925,17.545238,-24.45809,-36.81902,10.021054,6.2861223,-7.680181,45.262222,-24.747717,18.531754,-46.34241,-9.593451,0.66605496,2.0234249
48,3.6998744010925293,-64.107666015625,78.05650329589844,0.4261611265955004,7.274793802753518,-82.36880883761997,17.24867,2.668608,4.7808247,30.014435,13.357375,-6.53729,-20.518158,0.08651246,-12.617615,7.2039366,-5.382647,9.360842,-19.25522,-2.4723792,2.5225327,-15.811614,17.593874,-24.466097,-37.37205,9.733078,6.0843177,-6.9950485,44.894535,-24.869217,18.371714,-46.347416,-9.573586,0.81388426,2.0403981
49,3.7665512561798096,-65.62618255615234,77.83689880371094,0.4118752546776585,6.961350541337894,-82.72855817255117,17.051012,2.6832447,4.7381,32.493015,12.073267,-5.9299407,-20.18692,0.4695174,-12.5151825,7.136718,-5.185696,9.508678,-19.06047,-2.511799,2.7885723,-15.522468,17.648628,-24.361275,-37.97414,9.559496,5.8013206,-6.23266,44.323563,-25.026815,18.27286,-46.29625,-9.441046,0.89451015,2.0223904
50,3.844193458557129,-67.149169921875,77.57044219970703,0.26245438931988496,6.632997203124331,-83.20131351261836,16.759706,2.8490636,4.8834996,35.24199,10.333042,-5.323967,-19.700373,1.0392549,-12.384174,7.0966535,-4.6872234,9.66053,-18.74359,-2.432304,3.139507,-15.096352,17.697153,-24.169966,-38.59639,9.466709,5.452976,-5.377853,43.546013,-25.188936,18.236895,-46.17179,-9.237563,0.93343025,1.9803003
51,3.9027810096740723,-68.64217376708984,77.29237365722656,-0.09725192064301631,6.306482043297562,-83.76647131390068,16.328974,3.2945566,5.177002,38.271526,8.40094,-4.8507533,-19.05426,1.8647995,-12.252364,7.1114364,-4.1132693,9.3567095,-18.31333,-2.1458108,3.5856836,-14.496992,17.739422,-23.877281,-39.28567,9.501783,5.1354113,-4.582436,42.59477,-25.356716,18.243616,-46.014328,-9.063226,0.97856224,1.9160929
52,3.9456632137298584,-70.0997085571289,76.9949951171875,-0.7361001591254824,5.991273014480115,-84.39435461102289,15.737614,4.153757,5.5747557,41.5655,6.556206,-4.6346707,-18.452574,2.9571154,-12.152785,7.672896,-3.9305487,8.138337,-17.788214,-1.5736295,4.1381235,-13.69337,17.772121,-23.469193,-40.079636,9.707326,4.9458995,-3.9986823,41.499134,-25.525461,18.27714,-45.862503,-9.019569,1.0784266,1.8323497
53,3.9682254791259766,-71.5381851196289,76.67820739746094,-1.7493711424165042,5.682669425269648,-85.09897508947877,15.022179,5.5939813,6.150682,45.1604,4.9000025,-4.8450694,-19.614233,4.038495,-12.156906,12.641141,-6.096166,5.3608785,-17.139505,-0.6155306,4.82074,-12.722311,17.78565,-22.955145,-40.979103,10.130988,4.9100876,-3.6502523,40.282326,-25.67711,18.323336,-45.732998,-9.077959,1.2414194,1.7175591
54,4.004788398742676,-72.98446655273438,76.28910827636719,-2.877080053781499,5.316169707256272,-85.81946203734846,14.307014,7.3018985,6.844841,48.912838,3.3564198,-5.3150926,-21.044235,5.169857,-12.141885,18.801327,-8.82468,1.4672318,-16.431557,0.4575355,5.600747,-11.594449,17.778143,-22.349419,-41.958908,10.732122,4.9802594,-3.4666402,38.958076,-25.807638,18.395002,-45.633766,-9.2046995,1.4445331,1.5772672
55,4.03441858291626,-74.42387390136719,75.84427642822266,-3.8111219036556756,4.855404387746661,-86.45947262104654,13.612771,8.860289,7.4487324,52.646645,1.8726679,-5.704848,-22.247826,6.137313,-12.049042,24.892956,-11.661993,-2.368753,-15.767158,1.3228029,6.4253573,-10.249201,17.750874,-21.657955,-43.011562,11.422338,5.139367,-3.4525757,37.518726,-25.914953,18.504465,-45.55554,-9.499939,1.6877382,1.4477223
56,4.055114269256592,-75.84891510009766,75.3664779663086,-4.535909039280962,4.32888593631552,-87.002622254774,12.843473,10.16185,7.783358,56.325066,0.3079619,-5.759558,-22.739443,7.010734,-11.924667,29.573805,-14.151141,-5.0200553,-15.179788,1.9584349,7.27622,-8.619938,17.700579,-20.878971,-44.137394,12.115341,5.365726,-3.6041203,35.91085,-26.000528,18.6607,-45.45062,-10.061587,1.9690753,1.3665123
57,4.069616794586182,-77.25650024414062,74.88027954101562,-5.2147465743840105,3.7353457415978104,-87.50970170011571,11.938987,11.336889,7.763488,60.102177,-1.4564154,-5.4058857,-22.448162,7.9400544,-11.85311,32.701206,-16.387371,-6.0490623,-14.6237755,2.500128,8.210689,-6.6385956,17.611038,-19.951797,-45.385994,12.8701935,5.6737747,-4.0576897,34.07122,-26.075144,18.873922,-45.298885,-10.85635,2.3011658,1.2978592
58,4.088925361633301,-78.64580535888672,74.42007446289062,-5.920051522056836,3.0938476840886815,-88.00350870556481,10.908324,12.490752,7.5053334,63.99719,-3.3524706,-4.8297787,-21.717262,8.911826,-11.817355,35.11785,-18.666319,-6.12439,-14.077204,3.0409257,9.230414,-4.3440557,17.470346,-18.886545,-46.761803,13.709277,6.0566573,-4.768951,32.025784,-26.140669,19.13688,-45.122166,-11.847172,2.6806319,1.2363651
59,4.117366313934326,-80.02874755859375,73.9955825805664,-6.5635990070566645,2.477505545271323,-88.43031407911413,9.731237,13.554839,7.128381,67.79927,-5.2521424,-4.1791964,-20.738638,9.778582,-11.7807665,37.066788,-20.900867,-5.788366,-13.581402,3.5516858,10.239466,-1.8371818,17.282024,-17.798643,-48.18818,14.487582,6.468639,-5.457474,29.850807,-26.175531,19.423101,-44.927597,-13.128152,3.0789475,1.2702138
60,4.1482696533203125,-81.4200439453125,73.61184692382812,-7.046597102247497,1.9569728290517587,-88.73394229920287,8.389106,14.474669,6.7528715,71.29908,-7.0316744,-3.5818064,-19.67949,10.424179,-11.699604,38.72033,-22.973442,-5.583432,-13.164852,3.9815087,11.142058,0.76884675,17.062168,-16.822727,-49.576626,15.05477,6.8765764,-5.839431,27.628723,-26.14013,19.694592,-44.715435,-14.803104,3.4622684,1.4958042
61,4.192708492279053,-82.80986785888672,73.27989196777344,-7.342501085116934,1.5414733451216485,-88.91501210111527,6.878955,15.283009,6.4294844,74.48961,-8.687605,-3.0559309,-18.526611,10.843704,-11.55952,40.034683,-24.86718,-5.599205,-12.827343,4.2960715,11.9369545,3.515058,16.8168,-16.003717,-50.91735,15.2903595,7.2892714,-5.762165,25.282583,-25.998804,19.948599,-44.42941,-17.04997,3.815865,1.9543992
62,4.2607269287109375,-84.19378662109375,73.00263977050781,-7.5084156691893815,1.1997370643410359,-89.00188852939011,5.1994834,16.009352,6.084078,77.478386,-10.27987,-2.5243723,-17.207872,11.110962,-11.410082,40.93438,-26.63228,-5.569058,-12.520707,4.5154705,12.661467,6.39743,16.544558,-15.312561,-52.210506,15.294478,7.725962,-5.395482,22.811466,-25.735407,20.164303,-44.07014,-19.777525,4.1358757,2.609344
63,4.344870090484619,-85.58062744140625,72.78783416748047,-7.562629458789913,0.9411799103911178,-88.97632987864264,3.3320017,16.597168,5.6569285,80.22267,-11.776128,-1.9599353,-15.788504,11.238746,-11.290666,41.504925,-28.238104,-5.5004296,-12.204152,4.6637583,13.273739,9.224626,16.260662,-14.769941,-53.35904,15.247598,8.169363,-4.9406166,20.3998,-25.3439,20.284111,-43.71131,-22.68858,4.4016185,3.4402378
64,4.432519912719727,-86.96931457519531,72.62911224365234,-7.524329390157277,0.7746984648901687,-88.81972331224459,1.2562565,16.976797,5.0930624,82.67241,-13.134476,-1.345201,-14.334449,11.231165,-11.232221,41.833588,-29.655348,-5.3963704,-11.844153,4.7685895,13.733422,11.821208,15.990551,-14.383783,-54.283176,15.334456,8.605048,-4.598438,18.221092,-24.825775,20.269007,-43.419125,-25.48618,4.5988154,4.4228625
65,4.510913848876953,-88.37734985351562,72.51334381103516,-7.389168143463343,0.7183477655256928,-88.4769409936732,-1.1144115,17.116117,4.3283424,84.87348,-14.323285,-0.64313835,-12.868693,11.049556,-11.284693,41.947,-30.90893,-5.250464,-11.490675,4.8371496,14.022685,14.202592,15.757271,-14.158807,-54.980427,15.612075,9.057582,-4.3596053,16.303274,-24.159868,20.09717,-43.224686,-28.309704,4.6981406,5.714441
66,4.581944465637207,-89.78321838378906,72.44552612304688,-7.149294853286075,0.7603249371580445,-87.97317614907087,-3.737978,17.030167,3.4322474,86.82249,-15.354975,0.12403522,-11.351379,10.699108,-11.427702,41.79358,-32.003567,-5.058462,-11.138073,4.851581,14.159866,16.43383,15.5737505,-14.089114,-55.475735,15.978504,9.528155,-4.1339445,14.529541,-23.339405,19.797724,-43.052208,-31.251125,4.67745,7.273457
67,4.646195411682129,-91.1849136352539,72.42789459228516,-6.824446259844599,0.8639653939638342,-87.41511589740877,-6.4472184,16.73768,2.5623918,88.41295,-16.268076,0.88836795,-9.770482,10.245669,-11.587716,41.366127,-32.88149,-4.8178024,-10.687638,4.8088326,14.167353,18.45713,15.450978,-14.134283,-55.77153,16.384464,9.967128,-4.002974,12.846208,-22.412619,19.438862,-42.81172,-33.934727,4.580283,8.768639
68,4.7221760749816895,-92.58102416992188,72.45509338378906,-6.434619966937682,0.9939846970074184,-86.90969635450584,-9.07666,16.271015,1.8687612,89.53694,-17.09823,1.574156,-8.112784,9.757901,-11.6859255,40.65461,-33.485184,-4.533269,-10.055043,4.710708,14.076887,20.244862,15.393617,-14.2382555,-55.90671,16.779526,10.322824,-4.046301,11.228517,-21.464817,19.095852,-42.461105,-35.9755,4.503596,9.862377
69,4.816776275634766,-93.98246765136719,72.54071044921875,-5.985390023650101,1.152943801748169,-86.47678101974067,-11.636864,15.636235,1.3859535,90.182655,-17.869974,2.157095,-6.364565,9.250505,-11.710325,39.606388,-33.837532,-4.205319,-9.212669,4.5824323,13.89216,21.79409,15.400382,-14.383174,-55.897697,17.17526,10.591935,-4.346088,9.712297,-20.557407,18.784636,-42.059536,-37.19842,4.5420365,10.44747
70,4.929422378540039,-95.4058609008789,72.68059539794922,-5.467712894925726,1.3537535586405605,-86.06213633504802,-14.182642,14.826637,1.059933,90.39141,-18.551298,2.6712782,-4.536723,8.687751,-11.70559,38.24472,-33.958378,-3.8338768,-8.230369,4.427418,13.6142,23.15795,15.467775,-14.572209,-55.769516,17.588255,10.794954,-4.836284,8.3319645,-19.705978,18.48614,-41.674652,-37.814762,4.676994,10.691109
71,5.061622142791748,-96.84394836425781,72.87456512451172,-4.876963394417001,1.578147733605476,-85.66147731284418,-16.61971,13.870896,0.89898926,90.14214,-19.104136,3.130555,-2.657723,8.057955,-11.675452,36.681824,-33.78892,-3.4207327,-7.175166,4.212557,13.272815,24.405788,15.592543,-14.7770605,-55.591125,17.973858,10.916586,-5.373552,7.071521,-18.929966,18.229301,-41.292423,-38.024082,4.852946,10.669466
72,5.203559398651123,-98.30281066894531,73.11438751220703,-4.209194655091054,1.808015017305121,-85.27043342179252,-18.853373,12.796874,0.9065941,89.413155,-19.492933,3.5478892,-0.7561121,7.3498006,-11.621688,35.02667,-33.269814,-2.9634194,-6.116901,3.904039,12.900936,25.61046,15.769801,-14.96792,-55.431164,18.284065,10.943762,-5.813978,5.9172587,-18.249891,18.04576,-40.903835,-38.023693,5.007726,10.455854
73,5.354300022125244,-99.77986907958984,73.40165710449219,-3.4378071996735193,2.031468940143152,-84.88901204263671,-20.852303,11.579427,1.1282616,88.158554,-19.725815,3.926986,1.197931,6.543032,-11.515083,33.249016,-32.393364,-2.4592736,-5.0585027,3.4759398,12.510769,26.768734,16.000557,-15.141058,-55.297386,18.50655,10.843622,-6.1471267,4.8859043,-17.68082,17.95274,-40.510178,-37.79389,5.1310544,9.96746
74,5.518741607666016,-101.28845977783203,73.73522186279297,-2.5752861149583857,2.2582438439419397,-84.5176825903522,-22.651783,10.219904,1.5517331,86.388054,-19.819948,4.248035,3.1956391,5.649608,-11.36545,31.320124,-31.192276,-1.9070269,-3.9722264,2.9555807,12.095261,27.853209,16.282804,-15.3111315,-55.163395,18.663555,10.634237,-6.4391556,3.9966834,-17.227232,17.937391,-40.137325,-37.244713,5.2527823,9.191159
75,5.684743404388428,-102.81727600097656,74.09838104248047,-1.6754197356862797,2.503179830857467,-84.15211374403815,-24.262672,8.78151,2.0857499,84.16896,-19.754982,4.4916725,5.1500955,4.7113385,-11.225621,29.359755,-29.66499,-1.3115318,-2.8811069,2.3911037,11.656904,28.89697,16.602528,-15.479557,-55.046852,18.76048,10.379257,-6.6636577,3.240103,-16.887913,17.983341,-39.81194,-36.46927,5.369384,8.306056
76,5.859450817108154,-104.37276458740234,74.4874267578125,-0.7918621450518404,2.78180627618878,-83.78756982848945,-25.696577,7.3267794,2.6350052,81.56457,-19.51236,4.643994,6.9816675,3.7738254,-11.139477,27.489271,-27.814505,-0.6822719,-1.810657,1.8296376,11.193329,29.929829,16.938915,-15.645012,-54.956654,18.806587,10.141591,-6.7981806,2.5979733,-16.659721,18.076818,-39.548977,-35.56432,5.48188,7.493243
77,6.0501580238342285,-105.9447021484375,74.89146423339844,0.09519509484467673,3.1109304669262134,-83.40110256608048,-26.973612,5.8312316,3.1955397,78.54995,-19.086115,4.748596,8.704391,2.821464,-11.114853,25.678509,-25.5789,-0.002041815,-0.7774302,1.2578768,10.684843,30.934916,17.28326,-15.817228,-54.878525,18.813646,9.927137,-6.8327436,2.0840492,-16.54508,18.215883,-39.34906,-34.498543,5.592352,6.7815576
78,6.247167110443115,-107.5386734008789,75.31121063232422,0.998703457625911,3.4750498507587886,-82.99848552657986,-28.064192,4.266941,3.7985759,75.0867,-18.486927,4.7899165,10.345232,1.8534484,-11.105528,23.907759,-22.993055,0.7196814,0.23070881,0.66439366,10.141702,31.893099,17.634172,-15.997737,-54.79769,18.780083,9.7049055,-6.7871513,1.7045712,-16.546492,18.408167,-39.20344,-33.239574,5.6940384,6.0803723
79,6.453242301940918,-109.14016723632812,75.73756408691406,1.8550002503777927,3.84402484618334,-82.61975322420811,-28.924692,2.700405,4.3859086,71.23201,-17.712543,4.6762376,11.862444,0.9359777,-11.069804,22.288027,-20.196552,1.43659,1.2312881,0.09959789,9.599892,32.83334,17.97899,-16.168505,-54.727512,18.695927,9.482011,-6.685876,1.4245207,-16.65886,18.65705,-39.11322,-31.884695,5.7826033,5.3935037
80,6.661215305328369,-110.73497772216797,76.16316986083984,2.6000492598555986,4.190895317052419,-82.30685048205697,-29.526712,1.211856,4.886596,67.04881,-16.762846,4.328102,13.213372,0.12983124,-10.971923,20.936586,-17.323719,2.108477,2.2399967,-0.38448685,9.08956,33.784016,18.297855,-16.308285,-54.674763,18.553204,9.264754,-6.5560985,1.1991348,-16.872261,18.97086,-39.066647,-30.532726,5.8556046,4.726543
81,6.883653163909912,-112.34849548339844,76.57527923583984,3.241105241269354,4.542424444160914,-82.06736710761234,-29.885607,-0.19479482,5.268371,62.452724,-15.564725,3.7396035,14.375404,-0.5811083,-10.808237,19.83538,-14.296707,2.7742772,3.267918,-0.7936822,8.584587,34.741077,18.577873,-16.413092,-54.62666,18.344318,9.04993,-6.3993454,1.0078539,-17.188215,19.371695,-39.037903,-29.201475,5.9305983,4.059825
82,7.096617698669434,-113.9873275756836,76.96736145019531,3.7964852901063817,4.904066857845071,-81.88308018486093,-30.009647,-1.5340407,5.530327,57.425877,-14.137544,2.9683545,15.388147,-1.2112274,-10.572545,18.930279,-11.081206,3.4614668,4.3008265,-1.1401054,8.073694,35.691185,18.814953,-16.490995,-54.575165,18.080984,8.833506,-6.2104363,0.868317,-17.60829,19.855448,-39.030956,-27.842434,6.0025773,3.397886
83,7.295546531677246,-115.63087463378906,77.34300231933594,4.224712103682525,5.2203696917575035,-81.76374801245997,-29.86169,-2.74543,5.6545744,52.105316,-12.6071825,2.0401254,16.314644,-1.7035266,-10.238918,18.234137,-7.8390436,4.1108656,5.3238764,-1.3863555,7.6038723,36.64983,19.003149,-16.53743,-54.534695,17.784355,8.620687,-6.0076747,0.78832155,-18.11725,20.39393,-39.075222,-26.459818,6.03774,2.7867856
84,7.492292881011963,-117.28034210205078,77.68511199951172,4.482028271133265,5.436920475563357,-81.72236684938697,-29.414577,-3.7638643,5.6344013,46.63707,-11.100444,0.97956645,17.202566,-1.9997337,-9.795674,17.775728,-4.7276855,4.646025,6.3246393,-1.493113,7.218081,37.6342,19.13608,-16.545336,-54.51478,17.476284,8.416652,-5.8092,0.76550543,-18.68893,20.95985,-39.18937,-25.062084,6.0034733,2.2773592
85,7.6841630935668945,-118.9447250366211,77.99280548095703,4.531853439603155,5.535778178168118,-81.80066741893522,-28.56944,-4.5410795,5.450938,40.810577,-9.589078,-0.3119308,18.074078,-2.061224,-9.20629,17.507174,-1.6677452,5.011323,7.333868,-1.4336156,6.922003,38.685215,19.208233,-16.49886,-54.526306,17.150328,8.21218,-5.6152425,0.76583,-19.313885,21.578426,-39.34359,-23.54535,5.8821797,1.8710414
86,7.855383396148682,-120.62242126464844,78.25155639648438,4.385710712255676,5.5469479635802355,-81.99482382433456,-27.341894,-5.0625253,5.0967503,34.54667,-7.9930654,-1.7871794,18.912823,-1.9079949,-8.491606,17.391193,1.4272577,5.252606,8.357571,-1.2135338,6.681842,39.791325,19.21759,-16.400772,-54.564125,16.80112,8.007315,-5.4204645,0.7779118,-19.991344,22.259798,-39.51811,-21.947239,5.697534,1.554446
87,8.02273178100586,-122.31947326660156,78.46284484863281,4.070153921329253,5.486695474562892,-82.25083881785083,-25.888824,-5.323131,4.6086082,28.216015,-6.3685226,-3.2208622,19.728456,-1.5637589,-7.7374315,17.422674,4.4312205,5.425755,9.347891,-0.8394182,6.480868,40.890434,19.166714,-16.272554,-54.620434,16.451448,7.8225417,-5.233678,0.8320276,-20.702944,22.950489,-39.739647,-20.4917,5.482468,1.358714
88,8.172327041625977,-124.03742980957031,78.61783599853516,3.6183723261737875,5.373342398070914,-82.51201878897801,-24.406776,-5.348077,4.046377,22.273397,-4.801912,-4.4097323,20.523924,-1.0620587,-7.029106,17.609396,7.205066,5.5837135,10.255885,-0.32966384,6.3025355,41.920208,19.064087,-16.13617,-54.687557,16.123907,7.6791043,-5.0619316,0.95435035,-21.421017,23.595207,-40.0259,-19.406845,5.270715,1.3157756
89,8.311853408813477,-125.7592544555664,78.7169189453125,2.9726138649811586,5.177158571827275,-82.79804521768044,-22.921713,-5.083836,3.387481,16.79057,-3.310893,-5.3217,21.33747,-0.36332008,-6.4100757,17.960196,9.845517,5.702209,11.089329,0.3685278,6.148353,42.923637,18.915424,-15.975713,-54.785072,15.801248,7.5914483,-4.90532,1.1356822,-22.125252,24.19945,-40.359707,-18.808535,5.0516567,1.4901366
90,8.451676368713379,-127.46976470947266,78.76406860351562,2.1328335497855178,4.897393430737137,-83.12723813444818,-21.362202,-4.525556,2.656019,11.563457,-1.8590218,-6.0731597,22.15099,0.51803565,-5.8363576,18.485668,12.38284,5.7384677,11.868986,1.247003,6.013477,43.92602,18.722984,-15.783637,-54.91806,15.477116,7.5464964,-4.757085,1.3443156,-22.810183,24.788054,-40.710434,-18.562302,4.8175426,1.8512648
91,8.584436416625977,-129.17897033691406,78.76869201660156,1.2764710258321272,4.609817163290575,-83.41827044959278,-19.896328,-3.8769877,2.000862,6.862547,-0.5505934,-6.696424,22.84057,1.4127376,-5.28555,19.267504,14.527798,5.740992,12.544569,2.1350243,5.8820806,44.826168,18.493631,-15.594286,-55.046738,15.18991,7.524511,-4.613382,1.5781722,-23.468681,25.33174,-41.08005,-18.518919,4.603506,2.2830367
92,8.717053413391113,-130.86306762695312,78.72429656982422,0.5866325236882561,4.394969691792422,-83.5871582533145,-20.448605,-3.3304572,1.6473601,6.6965833,-1.4659767,-7.22708,23.277403,2.1650407,-4.740436,20.389374,15.981463,5.780442,13.063853,2.8539937,5.748598,45.5164,18.239328,-15.442212,-55.127003,14.978039,7.5063877,-4.468744,1.8404597,-24.094666,25.79638,-41.472206,-18.531391,4.444525,2.6713328
93,8.849104881286621,-132.50428771972656,78.62238311767578,0.10964235172234804,4.325500505272347,-83.60548072861681,-20.982954,-3.0440755,1.5517473,6.6027994,-2.2981412,-7.6214466,23.338646,2.7899814,-4.1299686,21.954763,16.570734,5.874345,13.408636,3.3448708,5.5755014,45.96947,17.963432,-15.330937,-55.15026,14.877722,7.4989967,-4.31694,2.1143067,-24.684929,26.167889,-41.88429,-18.661118,4.360231,3.0296917
94,8.972075462341309,-134.1204833984375,78.4660873413086,-0.23720032318234546,4.349503238403886,-83.49274433577911,-21.469412,-2.9357693,1.6188087,6.5827026,-3.0387585,-7.89829,23.093939,3.3583558,-3.5260842,23.94726,16.449394,5.9954944,13.58298,3.6919203,5.3861113,46.232105,17.667046,-15.243269,-55.12885,14.857242,7.509698,-4.158231,2.4008713,-25.236242,26.463291,-42.3073,-18.95488,4.324993,3.404413
95,9.094086647033691,-135.7109832763672,78.26851654052734,-0.4168543559892465,4.346793530136661,-83.24706899873593,-21.72458,-3.0508811,1.6831977,6.567877,-3.5327983,-8.158213,22.718023,3.753191,-3.1156785,26.277124,15.798326,6.1681013,13.628987,3.823059,5.2635946,46.355865,17.505167,-15.184188,-55.10047,14.831258,7.5326266,-3.9501045,2.621457,-25.509283,26.664621,-42.524364,-19.288858,4.291242,3.7931628
96,9.2127103805542,-137.2832489013672,78.02839660644531,-0.430255271345157,4.249124052880092,-82.86781460551884,-21.625809,-3.389925,1.5542829,6.484901,-3.6155262,-8.494181,22.35295,3.8935456,-3.0734835,28.790136,14.842505,6.405797,13.4659815,3.8211772,5.301564,46.339184,17.34241,-15.132244,-55.04471,14.746284,7.533455,-3.7449694,2.9325829,-25.761068,26.842888,-42.77064,-19.441961,4.2601495,4.0455194
97,9.319957733154297,-138.85592651367188,77.72383117675781,-0.465610310202549,3.9732303783807876,-82.35907657475485,-21.15048,-3.7693508,1.0503017,6.5132337,-3.260687,-9.365911,22.21501,4.019035,-3.4028618,31.258127,13.61802,6.706819,13.082489,3.9026043,5.5525727,46.167336,17.113304,-15.088097,-54.95709,14.585494,7.5001116,-3.5609589,3.4105434,-26.102577,26.991331,-43.171017,-19.349125,4.2410064,4.1193657
98,9.41539192199707,-140.4402313232422,77.3715591430664,-0.38734000545938874,3.5897771263213416,-81.7151237914853,-20.31565,-4.34689,0.34398723,6.50733,-2.518966,-10.576053,22.130133,4.00714,-4.035739,33.89342,11.971696,7.0802884,12.531393,3.8823407,5.9652605,45.829807,16.911749,-15.073277,-54.84079,14.376912,7.4509854,-3.3666174,4.004644,-26.401558,27.053825,-43.619797,-19.127274,4.231344,4.093792
99,9.501863479614258,-142.04286193847656,76.9801025390625,-0.0317917746749623,3.1869976173143297,-80.96523827576964,-19.283794,-5.2643228,-0.3549655,6.5083113,-1.606272,-11.301289,21.876873,3.5758328,-4.975001,36.8842,10.024455,7.477106,11.833254,3.5919476,6.490096,45.266254,16.717073,-15.107397,-54.63343,14.179173,7.396524,-3.1740174,4.7098923,-26.679247,27.024958,-44.103504,-18.79056,4.2065706,3.9852235
100,9.610774040222168,-143.60626220703125,76.61101531982422,0.7043049246281382,2.8458624963169705,-80.1515596937691,-18.258347,-6.571989,-0.8671221,6.6351967,-0.7149188,-10.713943,21.29132,2.4956946,-6.1888824,40.333298,7.95029,7.837443,11.029555,2.9326522,7.0574794,44.404385,16.496584,-15.222124,-54.26145,14.058754,7.3487554,-2.9988513,5.5198655,-26.946527,26.888569,-44.59432,-18.355509,4.1405168,3.8213165
101,9.742915153503418,-145.1326446533203,76.27410888671875,2.135847056804857,2.5694388367963006,-79.21614437628418,-17.21967,-8.608055,-1.1399395,6.849681,0.43219054,-7.916743,20.387856,0.3292466,-7.7787747,44.40013,5.7374716,8.318889,10.07249,1.5538714,7.6825385,43.27388,16.300608,-15.400066,-53.76296,14.015713,7.3052225,-2.8327246,6.3027825,-27.091547,26.685146,-44.977367,-17.743088,4.027895,3.5893521
102,9.870645523071289,-146.64292907714844,75.90261840820312,3.955900362269095,2.2590657850672833,-78.22752350071306,-19.226439,-11.113158,-0.7723954,13.724054,-1.6093558,-3.598648,19.441574,-2.54079,-9.588787,48.778683,3.4445007,8.872037,9.024594,-0.23069541,8.368088,41.94445,16.116743,-15.62931,-53.199066,14.024429,7.262569,-2.6748028,7.0739427,-27.117699,26.427593,-45.271694,-16.977617,3.881086,3.296173
103,10.000640869140625,-148.1271514892578,75.470947265625,5.577906570025211,1.8690046846929587,-77.38541319005074,-20.987598,-13.326179,-0.26101047,20.316227,-3.678101,0.7622154,18.553621,-5.378176,-11.259547,53.080215,1.2118784,9.1722,8.058959,-1.8170063,9.063917,40.471203,15.933207,-15.90563,-52.580063,14.073656,7.2359176,-2.5098076,7.9087954,-27.03552,26.107807,-45.45776,-16.260738,3.697819,3.0113444
104,10.149347305297852,-149.61900329589844,74.99752807617188,6.755080562878185,1.4341095810146718,-76.79851156077044,-21.950453,-14.945423,0.1777257,25.41111,-5.6733184,3.7496297,17.613634,-7.812654,-12.519589,57.16182,-0.9836679,8.9740095,7.262059,-2.9469423,9.733883,38.849506,15.738864,-16.214382,-51.857037,14.147819,7.238269,-2.3195822,8.876078,-26.84871,25.720512,-45.504738,-15.790752,3.4759667,2.7889116
105,10.312552452087402,-151.1121826171875,74.53627014160156,7.638403788402704,0.9803880629325006,-76.43641913321771,-22.040619,-16.109911,0.54480004,28.897316,-7.835427,4.8667393,16.474415,-10.010985,-13.273978,61.229103,-3.3035161,8.147952,6.6055603,-3.7531273,10.414807,37.02408,15.522545,-16.55404,-50.983936,14.208929,7.257669,-2.0798073,10.053467,-26.53516,25.204544,-45.4198,-15.566103,3.1319363,2.6724982
106,10.461551666259766,-152.57754516601562,74.13529968261719,8.430260845076504,0.5269995855442352,-76.21601583550367,-21.660158,-17.036291,0.9227743,31.621315,-10.302434,4.950937,15.124823,-12.216368,-13.667819,65.37265,-5.7558966,6.8876915,6.012467,-4.453267,11.108414,34.99657,15.278463,-16.916208,-49.973663,14.276292,7.290471,-1.8062564,11.362973,-26.084593,24.594448,-45.195164,-15.49822,2.695133,2.6191194
107,10.577644348144531,-154.02220153808594,73.81103515625,9.105120491062475,0.12438020289995798,-76.1306608032367,-20.98809,-17.716173,1.2726392,33.802765,-12.820033,4.5955005,13.589054,-14.340847,-13.815295,69.34214,-8.184931,5.466178,5.45991,-5.060063,11.730465,32.83735,15.006889,-17.266817,-48.85672,14.41982,7.3665304,-1.5459601,12.641228,-25.523048,24.03337,-44.775303,-15.653707,2.3341832,2.5435774
108,10.666617393493652,-155.45626831054688,73.552978515625,9.613731101828755,-0.18338943176349642,-76.17912673205664,-20.170624,-18.148827,1.5293002,35.585903,-15.1004,4.390694,11.902974,-16.292587,-13.858353,72.88879,-10.430531,4.1368027,4.9314756,-5.554678,12.204298,30.611858,14.710354,-17.57635,-47.663723,14.709436,7.516419,-1.3485751,13.753825,-24.902163,23.658972,-44.137375,-16.097244,2.2190921,2.3553112
109,10.747716903686523,-156.88470458984375,73.36027526855469,9.911841989146733,-0.3859378396061241,-76.38010292031737,-19.18376,-18.3071,1.6594,36.923794,-17.117908,4.4316945,10.044952,-18.092646,-13.867451,75.9995,-12.467982,2.8932962,4.4499216,-5.8854127,12.53883,28.256214,14.377588,-17.849592,-46.349,15.190408,7.7816606,-1.2456615,14.742581,-24.25064,23.482954,-43.28844,-17.012136,2.5041127,1.9545907
110,10.831306457519531,-158.32571411132812,73.22164154052734,10.039906123802584,-0.5036989361541202,-76.72178104509241,-17.971802,-18.222298,1.7258368,37.761593,-19.003824,4.4331317,7.970874,-19.77907,-13.76315,78.809006,-14.393843,1.6131885,4.0005813,-6.0676475,12.775668,25.761547,14.001302,-18.079796,-44.918697,15.817865,8.134528,-1.2128204,15.680681,-23.57656,23.442442,-42.27323,-18.298466,3.073277,1.4129661
111,10.922080993652344,-159.80499267578125,73.12309265136719,10.061207266562555,-0.5417511015093436,-77.16485055302577,-16.610882,-17.993576,1.7773802,38.19548,-20.698547,4.409024,5.700284,-21.27601,-13.490765,81.27553,-16.207397,0.3741522,3.5314124,-6.1676645,12.887135,23.254343,13.602037,-18.24417,-43.460335,16.525864,8.501775,-1.2138517,16.506653,-22.917145,23.543943,-41.140495,-19.60136,3.6844797,0.89064
112,11.013873100280762,-161.29449462890625,73.06668853759766,10.039278529143386,-0.5053870333119569,-77.66815903964635,-15.181706,-17.70888,1.8525326,38.32505,-22.141214,4.3623443,3.25396,-22.500626,-13.006819,83.35626,-17.897457,-0.73968637,2.9952219,-6.2525296,12.847833,20.861217,13.21549,-18.341423,-42.069,17.241388,8.810788,-1.203928,17.184378,-22.324253,23.780968,-39.971565,-20.565836,4.084877,0.5223628
113,11.103074073791504,-162.7850341796875,73.05673217773438,9.992526399952343,-0.3723064984133617,-78.27402662434645,-13.701284,-17.360094,1.9971197,38.13806,-23.351341,4.2825766,0.5370367,-23.437292,-12.245554,85.09092,-19.46326,-1.7157604,2.4245515,-6.336189,12.62787,18.578035,12.859134,-18.400959,-40.731163,17.998232,9.057723,-1.1578492,17.742304,-21.841362,24.163761,-38.79677,-21.114895,4.200371,0.28819847
114,11.191658973693848,-164.257568359375,73.09668731689453,9.885540226517374,-0.14927343281946492,-78.98609905732972,-12.132273,-16.903753,2.183583,37.600224,-24.352331,4.164517,-2.43097,-24.09422,-11.285644,86.47866,-20.891802,-2.5937274,1.8367946,-6.374614,12.259514,16.34637,12.533477,-18.436892,-39.422455,18.805931,9.277536,-1.094747,18.243156,-21.4818,24.669739,-37.640396,-21.418867,4.165992,0.1104512
115,11.262370109558105,-165.72213745117188,73.19705200195312,9.702889840061129,0.11504112089698229,-79.70594416362253,-10.472122,-16.364367,2.3337193,36.776,-25.087572,4.011592,-5.4505486,-24.450762,-10.308098,87.437805,-22.138327,-3.3639507,1.1717252,-6.350905,11.80938,14.20554,12.254976,-18.446165,-38.214157,19.553625,9.455343,-1.0298436,18.705267,-21.24409,25.235518,-36.567528,-21.496885,4.035787,0.031534314
116,11.325575828552246,-167.18556213378906,73.3448715209961,9.431539945814386,0.3719347744602848,-80.33521533519202,-8.719824,-15.765138,2.369455,35.73378,-25.502728,3.8315642,-8.310554,-24.50843,-9.498071,87.8851,-23.164755,-4.0154223,0.3751885,-6.253814,11.346036,12.201964,12.053181,-18.431917,-37.18653,20.128248,9.576868,-0.97390336,19.14478,-21.117702,25.795069,-35.6438,-21.370256,3.8634622,0.09931942
117,11.365647315979004,-168.66854858398438,73.5513916015625,9.074768590279824,0.6161590471271592,-80.84636257744198,-6.845742,-15.11624,2.261136,34.41481,-25.600807,3.6489973,-10.983028,-24.277554,-8.920552,87.78959,-23.966713,-4.518591,-0.5863065,-6.096853,10.87224,10.343614,11.956418,-18.397772,-36.382027,20.531343,9.640999,-0.92203057,19.547558,-21.096693,26.347584,-34.878166,-20.920876,3.6260502,0.38493204
118,11.391056060791016,-170.1748046875,73.80939483642578,8.641098044498555,0.8686289200381792,-81.29260788980318,-4.8668084,-14.3971195,2.061004,32.81875,-25.411404,3.452698,-13.536185,-23.778095,-8.509932,87.194664,-24.558823,-4.883465,-1.6683133,-5.888444,10.364567,8.619974,11.973057,-18.362255,-35.773563,20.801168,9.656012,-0.86025393,19.912352,-21.17956,26.916607,-34.243095,-20.176613,3.3121853,0.8501297
119,11.39683723449707,-171.70741271972656,74.11433410644531,8.127100388054757,1.1206366051834031,-81.69734983560961,-2.8486252,-13.590679,1.812002,31.094604,-24.917501,3.1981275,-15.906618,-23.035679,-8.246464,86.13416,-24.937138,-5.156047,-2.8074565,-5.610294,9.853337,7.0533776,12.098807,-18.350794,-35.337948,20.882643,9.621849,-0.78566664,20.273464,-21.357168,27.473007,-33.74597,-19.379168,2.9898438,1.3778734
120,11.409316062927246,-173.258056640625,74.45831298828125,7.528951807748847,1.363297397227337,-82.08465373873686,-0.8578326,-12.6839695,1.5554719,29.39204,-24.102339,2.838562,-18.033573,-22.070011,-8.104743,84.64318,-25.099693,-5.3806043,-3.938763,-5.244675,9.3679085,5.659161,12.32185,-18.389198,-35.041782,20.724041,9.538158,-0.69775856,20.665384,-21.616486,27.987167,-33.391003,-18.774254,2.7187624,1.8486754
121,11.405941009521484,-174.83348083496094,74.84156036376953,6.809260218345806,1.588144895977767,-82.46150200162427,1.1317014,-11.643731,1.243016,27.689682,-22.957115,2.3240416,-19.885015,-20.832542,-8.130396,82.684135,-25.039652,-5.6085215,-5.061521,-4.756328,8.919817,4.449,12.63657,-18.473005,-34.89176,20.266554,9.385672,-0.5960399,21.064575,-21.954697,28.471455,-33.17459,-18.467607,2.5005128,2.2776058
122,11.405712127685547,-176.42283630371094,75.25222778320312,5.987149539020282,1.799409114635823,-82.81764966112453,3.1272335,-10.491373,0.87326336,25.941797,-21.498621,1.6915734,-21.479883,-19.34145,-8.318693,80.24508,-24.762901,-5.792451,-6.204845,-4.169208,8.498191,3.4115372,13.042159,-18.594692,-34.894188,19.555552,9.16985,-0.48404813,21.454935,-22.370094,28.940363,-33.085354,-18.317236,2.304404,2.7129526
123,11.39333438873291,-178.0198974609375,75.68084716796875,5.142864200134807,2.007244791274406,-83.15049213931418,5.0433173,-9.302122,0.54795814,24.256697,-19.743635,1.0259894,-22.835281,-17.714437,-8.565122,77.392746,-24.295717,-5.837213,-7.3468156,-3.5547094,8.0948,2.5243905,13.530881,-18.774544,-35.010254,18.69646,8.9265995,-0.36768606,21.88053,-22.84878,29.363983,-33.101192,-18.202446,2.1359816,3.0858362
124,11.360016822814941,-179.64060974121094,76.11592102050781,4.355782290832156,2.2228329333703134,-83.45724083285184,6.807921,-8.155736,0.36319777,22.73851,-17.706142,0.41230282,-23.973467,-16.068407,-8.758094,74.19382,-23.662443,-5.6528993,-8.4607,-2.9820514,7.6950617,1.7595716,14.0905075,-19.037241,-35.194927,17.797974,8.692551,-0.2521701,22.38562,-23.368694,29.707178,-33.198578,-18.005133,2.001233,3.3306813
125,11.323993682861328,-181.27938842773438,76.56497192382812,3.609121509354117,2.4551848501761233,-83.74519675757855,8.437346,-7.0306835,0.33343267,21.367498,-15.306737,-0.15907028,-24.891973,-14.343044,-8.846738,70.58242,-22.818876,-5.191006,-9.548604,-2.439139,7.286458,1.1269761,14.718309,-19.384352,-35.426804,16.807657,8.46707,-0.12868775,22.947556,-23.919281,29.976171,-33.349693,-17.731565,1.9020364,3.4234242
126,11.282980918884277,-182.9408721923828,77.01242065429688,2.880438812421907,2.6933845830474343,-84.01670141465253,9.962115,-5.9172573,0.39434916,20.127842,-12.577035,-0.7209141,-25.5687,-12.514068,-8.864874,66.53435,-21.768702,-4.514458,-10.615992,-1.9048678,6.8768706,0.63462305,15.414553,-19.8045,-35.72773,15.698945,8.233082,-0.00012628137,23.544008,-24.497974,30.18548,-33.55407,-17.438665,1.8327584,3.4058065
127,11.242688179016113,-184.60641479492188,77.44648742675781,2.2360875923366303,2.9214685924027486,-84.25932384268721,11.35128,-4.906817,0.52296484,19.098066,-9.683194,-1.2268333,-26.008554,-10.749169,-8.829046,62.176426,-20.601786,-3.7014432,-11.642786,-1.4289463,6.4756002,0.24959882,16.168371,-20.30038,-36.10903,14.620808,8.003574,0.11111842,24.218876,-25.090235,30.308537,-33.82355,-17.084799,1.7884537,3.3116934
128,11.201393127441406,-186.2831573486328,77.87052154541016,1.7367448961416503,3.1270037042389807,-84.45740470209104,12.575103,-4.080137,0.70072585,18.342276,-6.7798405,-1.632819,-26.230677,-9.212138,-8.7686825,57.63488,-19.405346,-2.8315177,-12.607383,-1.0554757,6.0852695,-0.07433285,16.961876,-20.878622,-36.569973,13.725826,7.7923574,0.1817074,25.017046,-25.673264,30.31192,-34.165874,-16.62966,1.763759,3.177178
129,11.166108131408691,-187.96762084960938,78.27503967285156,1.3876409777876682,3.3276062449975634,-84.59507368117917,13.569107,-3.4519575,0.90523565,17.922361,-3.8089552,-1.8224674,-26.235775,-7.921041,-8.654549,52.805214,-18.13807,-1.9045762,-13.516184,-0.7785616,5.68026,-0.3821558,17.792707,-21.573875,-37.077328,13.072804,7.6287456,0.23100926,25.96126,-26.229164,30.171013,-34.55861,-16.021702,1.7674994,2.9903076
130,11.134119987487793,-189.6671905517578,78.6587142944336,1.1567765044042664,3.5272161589795994,-84.6785744447413,14.380104,-2.9701111,1.1522192,17.763512,-0.7008336,-1.8649513,-26.011824,-6.798531,-8.476546,47.633762,-16.758055,-0.8923949,-14.375271,-0.5766314,5.255852,-0.65622735,18.661297,-22.374859,-37.625122,12.579786,7.4983163,0.2620538,27.021208,-26.750374,29.900309,-34.990326,-15.300772,1.795954,2.7433653
131,11.11597728729248,-191.37591552734375,78.99745178222656,1.0447084897363539,3.6963381541721185,-84.72249296211336,15.133959,-2.6152997,1.4731214,17.735083,2.4108882,-1.9881986,-25.582598,-5.8665476,-8.306707,42.33426,-15.361924,0.16809009,-15.169936,-0.4658615,4.8401246,-0.8540309,19.549154,-23.21162,-38.247635,12.190812,7.3501625,0.22297525,28.154837,-27.230715,29.527168,-35.466152,-14.5642185,1.8274187,2.4785326
132,11.116264343261719,-193.0901641845703,79.29170989990234,1.0498930929616161,3.802837168385042,-84.74009675028508,15.979529,-2.3781495,1.8790464,17.654547,5.415985,-2.4115965,-24.969233,-5.146842,-8.225612,37.09874,-14.031799,1.23967,-15.89006,-0.4594345,4.4621873,-0.93872225,20.426657,-24.010418,-38.964184,11.855054,7.1328516,0.057005763,29.317085,-27.665155,29.084255,-35.992085,-13.910408,1.8427194,2.2371259
133,11.113199234008789,-194.81256103515625,79.53950500488281,1.2217365452662743,3.833833004929854,-84.71007612230537,17.027927,-2.3155594,2.3730984,17.307804,8.486071,-3.3356423,-24.122536,-4.724489,-8.274962,31.799562,-12.793367,2.3601081,-16.545914,-0.59934986,4.1036024,-0.9510851,21.278557,-24.77257,-39.74099,11.591279,6.813926,-0.30796167,30.547138,-28.049578,28.552362,-36.570557,-13.323405,1.8307685,2.0150573
134,11.122313499450684,-196.54031372070312,79.73382568359375,1.5627566507925157,3.805287219701682,-84.61962060338068,18.20493,-2.4532497,2.8971515,16.780258,11.657532,-4.594461,-23.036226,-4.5882797,-8.420705,26.320555,-11.562396,3.5333383,-17.15403,-0.882341,3.7443757,-0.9217552,22.102554,-25.528257,-40.54883,11.421337,6.427511,-0.82997286,31.853802,-28.37949,27.924458,-37.195698,-12.764909,1.805519,1.7942368
135,11.134309768676758,-198.26988220214844,79.8684310913086,2.009037971602903,3.7271404430646493,-84.49556870810638,19.359001,-2.7298868,3.3934817,16.391302,14.586922,-5.8359613,-21.821354,-4.628487,-8.623245,20.931087,-10.286856,4.6711736,-17.712217,-1.2645984,3.409738,-0.80117655,22.887337,-26.24505,-41.399708,11.300278,6.0218296,-1.3972267,33.14252,-28.65207,27.254263,-37.846027,-12.302308,1.7879505,1.5952775
136,11.16301155090332,-199.99879455566406,79.948974609375,2.4900317346942002,3.610944078793939,-84.3716468058624,20.333258,-3.047884,3.8573098,16.478853,16.919586,-6.6852446,-20.61594,-4.7334747,-8.82995,15.970196,-8.954863,5.6818414,-18.21339,-1.6963989,3.1265826,-0.5354306,23.618486,-26.885717,-42.309326,11.1869955,5.6445713,-1.901242,34.307163,-28.868305,26.602377,-38.49244,-12.003235,1.8001212,1.4382855
137,11.1947603225708,-201.72560119628906,79.97284698486328,3.006294068624061,3.469582455582425,-84.24971169819172,21.07922,-3.3492608,4.3701186,17.157455,18.578625,-7.0621324,-19.483074,-4.9003534,-9.03675,11.509693,-7.5294414,6.546739,-18.649443,-2.1787355,2.8796344,-0.12546386,24.284706,-27.455383,-43.26409,11.106939,5.284538,-2.3404198,35.35271,-29.028204,25.969622,-39.14267,-11.922813,1.865488,1.3316492
138,11.20733642578125,-203.439208984375,79.95021057128906,3.5655355283169743,3.298255925943454,-84.13236198465628,21.651297,-3.6186054,4.9701867,18.314901,19.706686,-7.116502,-18.25857,-5.1392684,-9.281917,7.1758876,-5.932386,7.3045454,-19.00766,-2.7122743,2.661925,0.38622454,24.881817,-27.97375,-44.23635,11.07417,4.92262,-2.7664487,36.31732,-29.13039,25.334164,-39.796196,-12.012347,1.9680026,1.2622708
139,11.213602066040039,-205.1352996826172,79.87435913085938,4.070142420949367,3.094870661928713,-84.0720558103938,22.024536,-3.7749527,5.6270638,19.977112,20.25032,-6.829993,-18.783895,-5.637401,-9.375639,7.00033,-6.3639407,7.948941,-19.253914,-3.2085226,2.5200872,0.9975682,25.406158,-28.423832,-45.212376,11.032471,4.594673,-3.14989,37.13828,-29.176199,24.7255,-40.406326,-12.185683,2.0701556,1.2171488
140,11.209656715393066,-206.7990264892578,79.75057220458984,4.438833767331222,2.8575340865950487,-84.11196457230615,22.198036,-3.7816045,6.285846,22.11063,20.186893,-6.206265,-19.09396,-5.9688134,-9.484953,6.878709,-6.726608,8.478404,-19.36478,-3.5952356,2.4978125,1.7160751,25.856258,-28.78397,-46.19003,10.925837,4.3371305,-3.4633172,37.748997,-29.170944,24.176147,-40.924717,-12.357644,2.134626,1.1825601
141,11.203012466430664,-208.43992614746094,79.58146667480469,4.70568734914053,2.5727145848251527,-84.25087154985094,22.159195,-3.7204964,6.8649516,24.783672,19.33421,-5.032791,-19.166887,-6.1535883,-9.663624,6.817106,-7.236007,9.021279,-19.343166,-3.908419,2.6046205,2.5591383,26.230381,-29.050913,-47.193405,10.698085,4.1776333,-3.6970117,38.146965,-29.120886,23.68342,-41.35416,-12.544521,2.137653,1.1773509
142,11.196948051452637,-210.07733154296875,79.37141418457031,4.883272187505887,2.2550205493710296,-84.4825827581066,21.92461,-3.5773864,7.3867364,27.950981,17.761236,-3.4093463,-19.03097,-6.1959443,-9.9052,6.7955627,-7.773846,9.542481,-19.182772,-4.154944,2.8199081,3.51673,26.525307,-29.241165,-48.211292,10.393704,4.0904336,-3.8661852,38.359814,-29.029608,23.233042,-41.714977,-12.778355,2.1034122,1.2002503
143,11.201692581176758,-211.71676635742188,79.11793518066406,4.873036359718912,1.9419494971300508,-84.82880110944832,21.559065,-3.211463,7.9475017,31.361813,15.866771,-1.8167267,-18.72189,-5.971682,-10.120226,6.7960224,-7.919463,9.80166,-18.860767,-4.2301073,3.1379204,4.5588164,26.736977,-29.360058,-49.196175,10.104646,4.032721,-3.980994,38.36911,-28.896893,22.844124,-41.990757,-12.996438,2.0668,1.206143
144,11.22164535522461,-213.35000610351562,78.82666015625,4.569337885889381,1.6674823047609817,-85.30524582825787,21.129402,-2.4606962,8.680973,34.786133,14.057652,-0.71517813,-18.277718,-5.352713,-10.219602,6.8087497,-7.257102,9.558637,-18.360897,-4.0240726,3.5520146,5.651325,26.860235,-29.414465,-50.09126,9.9231825,3.9616401,-4.052073,38.155224,-28.72091,22.535555,-42.16237,-13.138366,2.0632296,1.1512399
145,11.258292198181152,-214.9871826171875,78.49518585205078,3.886658725307707,1.4381405577246125,-85.95357958168556,20.696108,-1.222134,9.725604,38.18069,12.440353,-0.28177878,-17.699913,-4.2169585,-10.129001,6.81524,-5.153989,8.7129965,-17.63582,-3.4424436,4.0784287,6.775849,26.885593,-29.432005,-50.915634,9.896902,3.9016092,-4.046262,37.71415,-28.497751,22.307392,-42.229435,-13.171468,2.109923,1.0145035
146,11.252028465270996,-216.561767578125,78.17854309082031,2.9149589009371972,1.2118758142358508,-86.73339400693061,20.263952,0.37780538,10.959786,41.643234,10.825558,-0.25508535,-16.973095,-2.6801505,-9.947499,6.835213,-1.9807206,7.4576387,-16.723764,-2.5759773,4.7042947,7.934959,26.806131,-29.419153,-51.664753,9.968428,3.8629694,-3.9709344,37.073715,-28.22626,22.14299,-42.210842,-13.135411,2.1855016,0.8242446
147,11.186305046081543,-218.0785369873047,77.88031005859375,1.8290996548348302,0.9497621824525624,-87.53285770598924,19.815428,2.1499548,12.154757,45.156075,9.179696,-0.41816872,-17.347193,-1.2110369,-9.783706,9.591201,-0.25630128,5.963531,-15.745168,-1.6099149,5.3797235,9.138754,26.625639,-29.341818,-52.278515,10.070219,3.7872636,-3.899497,36.260456,-27.910383,22.037436,-42.11464,-13.076132,2.2674034,0.61014205
148,11.146440505981445,-219.6441192626953,77.4674301147461,0.7891666568582534,0.6307943939824925,-88.25093648659617,19.29772,3.9167333,13.093457,48.714497,7.4561586,-0.5572003,-18.329367,0.044625677,-9.796075,14.073173,-0.5487261,4.324084,-14.813892,-0.7149144,6.065595,10.412047,26.35503,-29.154264,-52.711082,10.133417,3.6137888,-3.9022481,35.285526,-27.55746,21.992432,-41.9387,-13.037699,2.3334053,0.39935675
149,11.095340728759766,-221.17092895507812,77.01335906982422,-0.245130002494588,0.26161369942003043,-88.91176065298684,18.697783,5.747634,13.797568,52.41276,5.5928154,-0.7625073,-19.380072,1.2335552,-9.941008,19.232609,-2.718505,2.2143083,-13.923554,0.14392528,6.7775393,11.792441,25.999228,-28.807356,-52.991543,10.11743,3.245887,-4.0284905,34.154972,-27.17142,22.004509,-41.71914,-12.969923,2.3635607,0.1976702
150,11.036397933959961,-222.67469787597656,76.51554870605469,-1.2795461872232896,-0.15948679691577947,-89.53964517791992,18.05625,7.621666,14.360619,56.20823,3.639317,-1.093633,-20.53901,2.3586686,-10.043013,25.145498,-6.2150145,-0.33121118,-13.0494995,0.9795795,7.526892,13.278265,25.559074,-28.329464,-53.16179,10.060764,2.7415452,-4.227714,32.863716,-26.752329,22.077229,-41.456497,-12.866855,2.374669,-0.013552787
151,10.966911315917969,-224.17807006835938,76.02230072021484,-2.2259486151648304,-0.627504345376715,-90.06707528521966,17.322086,9.36678,14.684662,59.954174,1.676201,-1.325434,-21.378271,3.3686664,-10.050471,30.702717,-10.046186,-2.721309,-12.239799,1.7206851,8.288839,14.831325,25.03818,-27.792452,-53.18848,10.015307,2.273677,-4.4160986,31.390394,-26.300968,22.21391,-41.079357,-12.837717,2.3987083,-0.24277109
152,10.875764846801758,-225.68812561035156,75.57657623291016,-3.037443226285676,-1.1266648537212518,-90.43486176412013,16.419664,10.851358,14.660536,63.509903,-0.2192406,-1.2425348,-21.522919,4.2458024,-10.060768,34.886204,-13.230442,-4.3653736,-11.528839,2.330827,9.042113,16.41006,24.442497,-27.266073,-53.030144,10.035768,2.0116706,-4.5091395,29.717455,-25.818151,22.408913,-40.51963,-12.991743,2.468662,-0.497022
153,10.798893928527832,-227.18540954589844,75.19600677490234,-3.767723596507457,-1.67948332025135,-90.65723601289224,15.307923,12.090396,14.192323,66.92671,-2.0794995,-0.67991996,-20.793339,5.0511575,-10.199573,37.383915,-15.587271,-4.984993,-10.909254,2.8421354,9.843298,18.086044,23.75701,-26.718634,-52.650078,10.084328,1.9908792,-4.512856,27.75687,-25.308811,22.6716,-39.695194,-13.30877,2.5765843,-0.8607049
154,10.75586223602295,-228.6466064453125,74.88748168945312,-4.463891189123803,-2.2689417782032444,-90.76603996275745,13.99004,13.152972,13.348728,70.265274,-3.9275386,0.18870735,-19.473375,5.8283467,-10.454214,38.846977,-17.654465,-4.946492,-10.355798,3.3080301,10.688233,19.843557,22.974754,-26.12606,-52.067757,10.149606,2.1230583,-4.4652233,25.56239,-24.771412,22.969404,-38.67882,-13.743488,2.7136788,-1.304896
155,10.750317573547363,-230.08567810058594,74.6395034790039,-5.062374966713452,-2.8194320621778046,-90.73015039834794,12.453378,13.989091,12.268042,73.40239,-5.66748,1.081011,-17.880447,6.488248,-10.782361,39.724403,-19.525858,-4.6262355,-9.869436,3.7010462,11.468282,21.521917,22.131449,-25.567259,-51.33685,10.330071,2.3937354,-4.3274198,23.324862,-24.194727,23.234304,-37.632385,-14.372626,2.9107163,-1.6582575
156,10.771951675415039,-231.51307678222656,74.45140838623047,-5.4983131364852955,-3.257425124321404,-90.51923676496988,10.68898,14.579002,11.100075,76.22483,-7.217439,1.7293947,-16.320173,6.929922,-11.12423,40.456757,-21.284494,-4.3897295,-9.447568,3.9870663,12.08052,22.98532,21.292744,-25.124773,-50.54246,10.722202,2.7899761,-4.0518804,21.21736,-23.559944,23.41358,-36.69849,-15.274585,3.1935914,-1.7425886
157,10.775702476501465,-232.93067932128906,74.31336975097656,-5.736068374142157,-3.581478381619386,-90.07808048208715,8.664668,14.912147,9.823361,78.75598,-8.5241,2.0462816,-14.798681,7.065064,-11.490057,41.10687,-22.975178,-4.2816052,-9.133781,4.1118875,12.53821,24.268345,20.511301,-24.817604,-49.75205,11.489366,3.4374738,-3.5154686,19.22189,-22.835535,23.504654,-35.880108,-16.604635,3.6101441,-1.4413964
158,10.748490333557129,-234.34690856933594,74.20117950439453,-5.818775058238906,-3.8245846452656416,-89.44380139682993,6.389019,15.004753,8.399855,81.05628,-9.645171,2.194657,-13.172997,6.956174,-11.9150305,41.458557,-24.54466,-4.1202445,-8.894487,4.089233,12.893267,25.46174,19.808865,-24.60261,-48.96131,12.5195875,4.310747,-2.7719727,17.245287,-22.010788,23.522259,-35.088955,-18.289486,4.1145554,-0.8507273
159,10.70754337310791,-235.76025390625,74.11424255371094,-5.802446203195204,-3.9658590205915036,-88.72011067062276,3.931317,14.894089,6.95837,83.054535,-10.669696,2.2851052,-11.514237,6.7228837,-12.363071,41.534824,-25.931032,-3.9216318,-8.62651,3.9904358,13.1011095,26.53321,19.20761,-24.458368,-48.16301,13.502,5.162177,-2.0282106,15.331655,-21.114553,23.471088,-34.32489,-20.061062,4.593068,-0.11869541
160,10.678922653198242,-237.17906188964844,74.06944274902344,-5.740815388508428,-3.9839227672369044,-88.01330321667498,1.3563508,14.626603,5.6262636,84.68087,-11.688221,2.426325,-9.902708,6.4887285,-12.792448,41.366566,-27.072845,-3.7044933,-8.231443,3.8955781,13.120706,27.459782,18.727335,-24.357676,-47.362152,14.1344595,5.7309313,-1.4745183,13.543502,-20.203714,23.367403,-33.614132,-21.637278,4.9470577,0.5887129
161,10.662142753601074,-238.58290100097656,74.06846618652344,-5.649251546408787,-3.8264676556608928,-87.29665637618604,-1.4467691,14.182759,4.35444,85.97002,-12.746001,2.6410816,-8.390155,6.273462,-13.232196,40.93461,-27.98324,-3.4777932,-7.7235765,3.8423429,12.895585,28.234322,18.388668,-24.307919,-46.560394,14.330368,5.9048824,-1.1131262,11.951803,-19.305758,23.204952,-33.046803,-23.03888,5.1652155,1.2938908
162,10.665643692016602,-239.9851837158203,74.11747741699219,-5.496763641359151,-3.523426733521003,-86.53257079946835,-4.4561825,13.540974,3.124926,86.93337,-13.775696,2.8730686,-6.924443,6.015624,-13.695983,40.233658,-28.684313,-3.2247665,-7.1446514,3.7853308,12.473764,28.898417,18.199509,-24.309662,-45.797626,14.25009,5.8312893,-0.8421189,10.522559,-18.425508,22.99648,-32.622192,-24.368177,5.2959304,2.045737
163,10.689939498901367,-241.38687133789062,74.22818756103516,-5.27178735146817,-3.1745273941171925,-85.80974786557964,-7.4133215,12.765333,2.0961576,87.457466,-14.7001,3.1034806,-5.431051,5.717975,-14.112862,39.315166,-29.129532,-2.9329703,-6.450921,3.682344,11.970859,29.504961,18.147871,-24.3159,-45.135094,13.966349,5.6326265,-0.69372934,9.169295,-17.599276,22.800863,-32.243942,-25.457882,5.352695,2.7054012
164,10.740067481994629,-242.79368591308594,74.39405822753906,-4.962979639174181,-2.8784933111384174,-85.21672180256003,-10.06691,11.938799,1.4151263,87.4312,-15.447222,3.310413,-3.8356483,5.3812437,-14.410619,38.22968,-29.273653,-2.5953565,-5.6098194,3.4988637,11.504949,30.109623,18.204956,-24.275894,-44.632057,13.552407,5.4319563,-0.70427465,7.8209553,-16.884031,22.68174,-31.83762,-26.133276,5.360035,3.1276717
165,10.80574893951416,-244.20877075195312,74.60550689697266,-4.553560295059475,-2.6487212183096545,-84.7895860926592,-12.378632,11.098061,1.1761402,86.80047,-16.019636,3.471071,-2.107479,4.994781,-14.555776,36.940327,-29.12407,-2.2282143,-4.5864663,3.2273655,11.089459,30.696774,18.350218,-24.176155,-44.300415,12.949716,5.237429,-0.96918225,6.4781995,-16.329046,22.663628,-31.43066,-26.29682,5.322589,3.2263024
166,10.895957946777344,-245.64149475097656,74.85855102539062,-4.055922010577249,-2.43756993614362,-84.47659107233707,-14.466896,10.224303,1.2829689,85.6224,-16.454659,3.5959346,-0.29256564,4.5583944,-14.593223,35.44229,-28.703606,-1.8333862,-3.4208667,2.9011564,10.676235,31.243284,18.573202,-24.041758,-44.104824,12.14603,4.996598,-1.4503566,5.208585,-15.947885,22.731243,-31.100254,-26.038132,5.243163,3.078174
167,11.000365257263184,-247.0935516357422,75.15391540527344,-3.511712578471626,-2.2502414997599454,-84.23400754082917,-16.322927,9.317731,1.5895084,83.95811,-16.737463,3.7142336,1.5653572,4.08419,-14.565267,33.838825,-27.992779,-1.383823,-2.1919482,2.5485153,10.288286,31.787315,18.853788,-23.880844,-44.02373,11.286376,4.738814,-1.9836838,4.0389457,-15.737879,22.887213,-30.840424,-25.467634,5.143554,2.7867022
168,11.117769241333008,-248.56063842773438,75.47521209716797,-2.959316147721205,-2.091866688734711,-84.01837407253859,-17.936432,8.369181,1.9481622,81.86985,-16.855429,3.856787,3.4237933,3.5876112,-14.510953,32.229946,-26.969635,-0.85161835,-0.97947884,2.1969109,9.94461,32.361088,19.165792,-23.700405,-44.025738,10.519299,4.485754,-2.40565,2.9847968,-15.68545,23.13486,-30.625343,-24.699568,5.044788,2.4569764
169,11.250075340270996,-250.0418701171875,75.82411193847656,-2.386955854833546,-1.985454617717183,-83.82495689494536,-19.276081,7.369434,2.3828301,79.34227,-16.807083,4.117632,5.322354,3.0598676,-14.412682,30.594013,-25.598362,-0.20649509,0.20936139,1.8406501,9.665371,32.946495,19.494854,-23.501724,-44.08375,9.8523855,4.2123246,-2.7024004,2.0316606,-15.786831,23.497845,-30.422953,-23.67176,4.939053,2.050307
170,11.39401626586914,-251.5306396484375,76.19058227539062,-1.7828225718360018,-1.920279036302919,-83.67385101820149,-20.343657,6.3126335,2.947771,76.34576,-16.607092,4.4380627,7.2619505,2.49799,-14.248346,28.90043,-23.90502,0.52539617,1.4101884,1.4752309,9.433016,33.517723,19.83503,-23.284767,-44.19397,9.2235775,3.9143975,-2.958226,1.1696255,-16.041153,23.977392,-30.239073,-22.356163,4.8116345,1.5346239
171,11.55494213104248,-253.01844787597656,76.57423400878906,-1.1854965242956532,-1.851704469746789,-83.559079020653,-21.18092,5.1995707,3.5351593,72.914696,-16.260233,4.6314387,9.141581,1.9306905,-14.04689,27.242504,-21.964245,1.2891616,2.6103585,1.125693,9.205808,34.090885,20.171728,-23.05588,-44.349445,8.681271,3.63892,-3.1543536,0.41538858,-16.43386,24.5363,-30.109678,-20.91956,4.6785183,1.0277523
172,11.734330177307129,-254.5268096923828,76.97225952148438,-0.6311049485383625,-1.7356386444129195,-83.47479624802227,-21.835037,4.0434833,4.025612,69.07524,-15.759918,4.5197225,10.872602,1.3931241,-13.834971,25.694221,-19.840466,2.0298555,3.7971714,0.81470394,8.93861,34.676136,20.485466,-22.821463,-44.539055,8.275799,3.4324832,-3.2716,-0.21870895,-16.942417,25.133905,-30.06031,-19.532066,4.5630164,0.6484984
173,11.918205261230469,-256.0391540527344,77.37297058105469,-0.1009613841864858,-1.5455330809285663,-83.41271255068347,-22.316196,2.8119357,4.388476,64.72609,-15.066717,4.081617,12.433095,0.8622896,-13.601741,24.241985,-17.465393,2.7788756,4.970705,0.5185506,8.604313,35.250027,20.760807,-22.594803,-44.730427,8.058166,3.3197746,-3.272599,-0.74212176,-17.56198,25.767736,-30.058716,-18.162989,4.48208,0.43424457
174,12.104076385498047,-257.567138671875,77.76378631591797,0.4078465252802534,-1.310950981584336,-83.37568950448167,-22.585892,1.5226024,4.6542354,59.861187,-14.184805,3.4119008,13.88094,0.34611297,-13.319241,22.848644,-14.836999,3.5527115,6.1316676,0.238533,8.227809,35.800846,20.993479,-22.370422,-44.91565,7.9961147,3.270113,-3.1814284,-1.1711187,-18.293966,26.45712,-30.088306,-16.751196,4.424553,0.32213634
175,12.290203094482422,-259.1112060546875,78.13391876220703,0.8321903278582758,-1.0710323719694896,-83.3803134345031,-22.625753,0.28444782,4.8014503,54.63046,-13.166963,2.5310967,15.220059,-0.09112999,-12.999593,21.604939,-12.129436,4.282994,7.2725606,0.02736361,7.8366776,36.36012,21.183666,-22.124466,-45.119545,8.015077,3.2478156,-3.070118,-1.5098372,-19.121326,27.192984,-30.186224,-15.425984,4.3765745,0.2834536
176,12.468910217285156,-260.65472412109375,78.47904205322266,1.1065729750414557,-0.8634537440994694,-83.44324134427394,-22.430576,-0.7846338,4.80825,49.18855,-12.07348,1.4644698,16.456898,-0.384047,-12.666804,20.59195,-9.509041,4.900022,8.385018,-0.06213519,7.451909,36.96533,21.335663,-21.829655,-45.37256,8.038731,3.217163,-3.0100636,-1.7688676,-20.0152,27.966324,-30.38362,-14.321586,4.3218675,0.29357466
177,12.648942947387695,-262.2120361328125,78.79154968261719,1.2176100320989243,-0.682660961357847,-83.59597492495794,-21.93496,-1.6625963,4.6300917,43.305244,-10.855518,0.123563476,17.58736,-0.5122799,-12.300325,19.785183,-6.9443836,5.3794627,9.502757,-0.023884386,7.0491858,37.647797,21.450912,-21.469833,-45.69089,8.092585,3.178145,-3.0198538,-1.9814427,-20.962332,28.797743,-30.642023,-13.485737,4.2622733,0.36571527
178,12.81881046295166,-263.7945556640625,79.06025695800781,1.1789803068875129,-0.5156075284579659,-83.83016096124594,-21.125198,-2.34855,4.2611637,36.88585,-9.46569,-1.4402812,18.629429,-0.49238068,-11.891716,19.116776,-4.3440304,5.767338,10.622961,0.12691954,6.614732,38.39314,21.528688,-21.05568,-46.06441,8.201004,3.1468625,-3.0611043,-2.152629,-21.960066,29.687265,-30.937305,-12.850924,4.2064295,0.51177603
179,12.972611427307129,-265.3902587890625,79.2806167602539,0.9852388112829771,-0.38979241314924984,-84.10866147804241,-20.100111,-2.7670734,3.7679858,30.334972,-7.9724054,-3.0082445,19.627432,-0.31539312,-11.488252,18.583782,-1.7682142,6.0910506,11.690087,0.4119723,6.183519,39.16884,21.573067,-20.602749,-46.48096,8.2869,3.1121728,-3.118228,-2.2516139,-22.98938,30.588348,-31.313032,-12.378607,4.145843,0.7065645
180,13.106003761291504,-266.9915466308594,79.44805145263672,0.6308300150672275,-0.3314497123120105,-84.39312504298816,-18.995949,-2.8744872,3.2441726,24.131584,-6.4670167,-4.38848,20.619238,0.023437565,-11.138679,18.193642,0.7171172,6.3704906,12.648448,0.8480073,5.7894588,39.9458,21.593235,-20.124073,-46.930748,8.272349,3.0631196,-3.1746614,-2.253192,-24.021925,31.452394,-31.797537,-12.035239,4.0708175,0.92788315
181,13.23669147491455,-268.61138916015625,79.55547332763672,0.05011149102701798,-0.35201143074468705,-84.70707432254306,-17.834824,-2.5971508,2.7037997,18.292244,-4.898972,-5.6471825,21.649893,0.5898624,-10.859116,17.876598,3.1904013,6.602695,13.509435,1.4920081,5.4160147,40.783245,21.594898,-19.593307,-47.44997,8.109119,2.985209,-3.236997,-2.180879,-25.039635,32.295895,-32.375294,-11.886758,3.973297,1.1953206
182,13.371917724609375,-270.2312316894531,79.60952758789062,-0.7676476751346366,-0.4441961265603895,-85.07406598691361,-16.57445,-1.932289,2.133969,12.625696,-3.2570093,-6.8689566,22.710127,1.3947062,-10.605612,17.607965,5.6890535,6.7616553,14.308193,2.3506894,5.038166,41.69726,21.579123,-19.00585,-48.05094,7.845617,2.8891764,-3.30778,-2.060689,-26.038286,33.135574,-33.005592,-11.933786,3.858924,1.5185924
183,13.504997253417969,-271.8350524902344,79.61610412597656,-1.67332016741956,-0.5918489250494245,-85.43179645766996,-15.174422,-1.0726587,1.6207932,7.111551,-1.5693183,-7.90166,23.698675,2.2675948,-10.373334,17.574108,8.020519,6.8412557,15.003387,3.2905629,4.6914372,42.577877,21.551506,-18.408758,-48.675365,7.5481415,2.8021193,-3.3642845,-1.8697588,-27.007578,33.919918,-33.687016,-12.043274,3.7376826,1.8583751
184,13.632658004760742,-273.4331970214844,79.59473419189453,-2.4601263077601416,-0.7644341162203605,-85.69556320888915,-15.943098,-0.25771657,1.2626175,6.7062397,-2.4873164,-8.579854,24.469093,2.9735577,-10.198911,18.036467,9.946546,6.848295,15.534278,4.120772,4.425191,43.294884,21.523561,-17.854399,-49.24348,7.2832923,2.750701,-3.3814418,-1.5842665,-27.93172,34.592678,-34.412735,-12.081987,3.619749,2.174607
185,13.764063835144043,-275.0133972167969,79.54688262939453,-3.0386349543498983,-0.9367427006996158,-85.81627229832606,-16.61686,0.3172982,1.0756341,6.5915723,-3.5059893,-8.70871,24.90944,3.3964374,-10.147777,19.20394,11.381357,6.7644596,15.845821,4.753199,4.257233,43.8191,21.501461,-17.351002,-49.728687,7.0267177,2.7534032,-3.3320944,-1.2105486,-28.794064,35.145756,-35.169445,-12.046582,3.5005949,2.496864
186,13.896292686462402,-276.5845031738281,79.4736328125,-3.4588327012279154,-1.1094126532468722,-85.81878491953994,-17.122444,0.7054458,1.0264329,6.546321,-4.4779897,-8.435591,25.076221,3.586322,-10.239884,20.96168,12.4155,6.5872188,15.955266,5.227595,4.171784,44.20327,21.487928,-16.873688,-50.159355,6.754393,2.7917428,-3.2318537,-0.7753169,-29.583818,35.609478,-35.93245,-11.999786,3.3760803,2.8336344
187,14.031523704528809,-278.14422607421875,79.3613052368164,-3.748867051008973,-1.2916047680469118,-85.73650906872285,-17.43199,0.9242462,1.0028564,6.53058,-5.3005624,-8.108454,25.083336,3.5980017,-10.436897,23.068602,13.084245,6.3451324,15.910776,5.5709724,4.1667795,44.44489,21.493416,-16.422564,-50.54021,6.5325947,2.836914,-3.120276,-0.2820926,-30.294807,35.986423,-36.68127,-11.907981,3.2585306,3.114055
188,14.153284072875977,-279.6951599121094,79.18936157226562,-3.945033651685616,-1.4964334950105775,-85.60191540327195,-17.526514,1.0053073,0.887208,6.5279818,-5.8761907,-8.061636,25.039463,3.4974346,-10.693433,25.304838,13.41046,6.078436,15.7654505,5.814113,4.2408943,44.54265,21.534927,-16.000175,-50.88329,6.4272165,2.8603716,-3.0355787,0.2790455,-30.926266,36.271217,-37.40843,-11.73801,3.159997,3.2675009
189,14.277460098266602,-281.22900390625,78.94762420654297,-4.116552744318371,-1.7431447785558387,-85.43485244438253,-17.370813,1.01748,0.58344597,6.542631,-6.3702445,-8.577904,24.983381,3.38668,-10.963134,27.634699,13.415772,5.7860727,15.537791,6.0249557,4.39349,44.523785,21.63053,-15.59828,-51.224064,6.4763985,2.8516545,-2.9853063,0.92345315,-31.478502,36.467693,-38.127483,-11.405289,3.083211,3.2405472
190,14.391407012939453,-282.7526550292969,78.65142822265625,-4.229753717635818,-2.019310869445571,-85.210282953824,-16.978165,0.9255593,0.18190251,6.568888,-6.7733397,-9.4082155,24.857758,3.1963248,-11.27728,30.17088,13.0735035,5.448268,15.199998,6.1646676,4.6267543,44.386967,21.786463,-15.2187395,-51.557606,6.633036,2.827168,-2.9442356,1.6525542,-31.948786,36.571877,-38.843964,-10.952529,3.0203037,3.0824487
191,14.493810653686523,-284.268310546875,78.30118560791016,-4.149751815464436,-2.2901708136560206,-84.8984792780131,-16.419441,0.60147166,-0.16673279,6.605175,-6.722962,-10.095912,24.621386,2.749291,-11.700139,32.91437,12.348791,5.0931835,14.741097,6.1012206,4.9405293,44.082657,21.998184,-14.882655,-51.83188,6.835628,2.7993696,-2.9023898,2.461563,-32.330803,36.564182,-39.53966,-10.537802,2.9681027,2.8753061
192,14.58428955078125,-285.7881164550781,77.91387176513672,-3.749623824803411,-2.5280748440609835,-84.48132809428563,-15.769697,-0.07458077,-0.3254613,6.6594453,-5.838082,-10.193499,24.258518,1.8849801,-12.279842,35.82288,11.23428,4.758528,14.159475,5.705928,5.3330493,43.561935,22.254456,-14.612346,-51.994095,7.0258837,2.780922,-2.85182,3.336491,-32.61602,36.43072,-40.193775,-10.316876,2.926266,2.7023275
193,14.649520874023438,-287.31787109375,77.49402618408203,-2.9106816212199407,-2.7380138926479765,-83.93338131591392,-14.983132,-1.19634,-0.20629264,6.6642685,-3.4387956,-9.581131,23.821102,0.50823283,-13.037095,38.882683,9.610862,4.463165,13.427054,4.857629,5.8213577,42.807217,22.552341,-14.409771,-52.039936,7.226949,2.7789414,-2.7964213,4.254513,-32.793015,36.196156,-40.80965,-10.315167,2.916199,2.5528185
194,14.740474700927734,-288.80767822265625,77.08657836914062,-1.7476658696082379,-2.954808024193129,-83.29287889367814,-14.049988,-2.6616325,0.12565906,6.650425,0.09441609,-8.524761,23.363226,-1.2395232,-13.89537,42.05777,7.5595565,4.2052,12.57405,3.6654332,6.3872094,41.857388,22.892271,-14.266067,-52.002884,7.4593925,2.7855635,-2.7406394,5.2113843,-32.85364,35.87757,-41.377094,-10.453207,2.9334383,2.3947947
195,14.889243125915527,-290.21923828125,76.71926879882812,-0.4377247464257844,-3.2010285974609483,-82.63989237153129,-13.810655,-4.303717,0.62524366,8.319078,2.721719,-7.115789,22.875292,-3.1961148,-14.758371,45.28735,5.3640256,3.9966445,11.687385,2.3258858,6.9928627,40.741066,23.26297,-14.188544,-51.876225,7.6621876,2.7909982,-2.6783168,6.2271085,-32.7949,35.448124,-41.86387,-10.727819,2.9395397,2.27634
196,15.028858184814453,-291.6749572753906,76.2735595703125,0.8361926314610402,-3.48194956976016,-82.04207772825019,-14.7415285,-5.93556,1.2280555,12.609869,2.804551,-5.4204197,22.311613,-5.216636,-15.549663,48.539837,3.2884297,3.8395476,10.841156,1.0335771,7.6054955,39.475098,23.645576,-14.185934,-51.645485,7.776377,2.7851176,-2.604331,7.3229485,-32.619865,34.877018,-42.238346,-11.135533,2.8949304,2.2453048
197,15.182823181152344,-293.06915283203125,75.80186462402344,2.1207597956004554,-3.8038451014837067,-81.48209618359088,-15.962916,-7.6646423,1.7836181,17.724209,0.87394017,-3.0931554,21.657736,-7.411777,-16.306623,51.943516,1.3791677,3.800916,10.014616,-0.25305074,8.246903,38.053585,24.031872,-14.2538805,-51.319424,7.6915526,2.7422545,-2.5106049,8.5061035,-32.329887,34.12464,-42.52211,-11.734063,2.7472079,2.3778687
198,15.301188468933105,-294.46343994140625,75.27293395996094,3.4105300500243563,-4.167263919619906,-80.9430418783628,-17.463314,-9.434624,2.2496347,23.687933,-2.4711154,-0.20847023,20.958437,-9.73358,-17.04442,55.444813,-0.4815657,3.8375335,9.194112,-1.5361701,8.915142,36.466694,24.418602,-14.392326,-50.902462,7.4728694,2.6749334,-2.4033222,9.764567,-31.925007,33.22169,-42.735634,-12.501124,2.5291212,2.6247356
199,15.430842399597168,-295.8577880859375,74.75879669189453,4.557059048581944,-4.5429279043561,-80.46911622446345,-18.759981,-11.019998,2.5309024,29.371363,-6.205368,2.539932,20.184284,-11.932207,-17.677303,58.82564,-2.3301835,3.8033812,8.428049,-2.6692572,9.562728,34.708706,24.786064,-14.613225,-50.35119,7.3251743,2.6292257,-2.3007197,11.085461,-31.402777,32.25135,-42.838684,-13.315154,2.3293483,2.8410738
200,15.578429222106934,-297.2398986816406,74.31669616699219,5.46646610451515,-4.891120208300698,-80.0947703107961,-19.41659,-12.255052,2.6808186,33.71523,-9.298294,4.4690046,19.273748,-13.81547,-18.116655,61.891674,-4.2179804,3.5707474,7.7381735,-3.557722,10.147663,32.775272,25.103474,-14.923129,-49.612038,7.455919,2.6514702,-2.2262259,12.440591,-30.759346,31.309124,-42.77415,-14.057357,2.2412636,2.886794
201,15.702399253845215,-298.58074951171875,73.96379089355469,6.163865588169572,-5.19567574911741,-79.7960721418899,-19.268143,-13.150597,2.7955024,36.3658,-11.52586,5.2796884,18.165041,-15.40295,-18.341623,64.66108,-6.2357645,3.0608146,7.090623,-4.201854,10.679148,30.56574,25.349573,-15.349937,-48.579865,7.9273057,2.7476778,-2.1708815,13.858159,-29.970045,30.378922,-42.46552,-14.705356,2.2935822,2.7122636
202,15.796364784240723,-299.9056091308594,73.68997192382812,6.735672482294184,-5.466189814267732,-79.55298071802295,-18.610561,-13.852583,2.8907163,37.997795,-13.451204,5.384754,16.85706,-16.821028,-18.387257,67.2493,-8.348621,2.3767276,6.4517155,-4.6960726,11.1757965,28.12447,25.51318,-15.8615,-47.30675,8.631452,2.8958802,-2.1355994,15.297914,-29.025549,29.449995,-41.91679,-15.322744,2.43924,2.4053805
203,15.856867790222168,-301.1995544433594,73.46717834472656,7.166293567014153,-5.699942819613804,-79.40555805360277,-17.696812,-14.348869,2.9702947,39.112946,-15.22477,5.1799817,15.371169,-18.036728,-18.266651,69.61595,-10.431379,1.6425393,5.8349557,-5.0693493,11.61505,25.66304,25.576872,-16.367723,-45.97722,9.518818,3.099896,-2.1676302,16.643728,-27.963825,28.627804,-41.20982,-15.924394,2.6596627,2.0307412
204,15.902283668518066,-302.4874267578125,73.29178619384766,7.436329917480382,-5.896723206735274,-79.39547046137302,-16.766674,-14.624727,3.0151794,40.191963,-16.980227,5.0502977,13.737566,-19.020967,-18.00799,71.71823,-12.361768,0.97337115,5.2543225,-5.34106,11.978967,23.378672,25.520973,-16.78483,-44.757965,10.544825,3.3598099,-2.3227289,17.8019,-26.857832,28.015419,-40.455814,-16.522593,2.9358165,1.6427797
205,15.958883285522461,-303.7798767089844,73.14928436279297,7.480874454563813,-6.074954290045252,-79.5390110627841,-15.840566,-14.595802,2.972883,41.365963,-18.8029,5.0366945,11.958544,-19.695126,-17.612017,73.55395,-14.099681,0.3742013,4.7215056,-5.435662,12.304123,21.275547,25.31369,-17.093405,-43.65664,11.836422,3.6878033,-2.7086685,18.83798,-25.764166,27.620495,-39.738144,-17.171177,3.345289,1.1463693
206,16.02579689025879,-305.0717468261719,73.03765869140625,7.3309317664047,-6.228814253110487,-79.81038030379973,-14.80056,-14.283976,2.8786461,42.375523,-20.606066,4.9540052,10.013796,-20.087141,-17.085806,75.14809,-15.713444,-0.20970829,4.2088003,-5.349609,12.599585,19.244814,24.943018,-17.326262,-42.570107,13.381374,4.0662746,-3.2873497,19.818066,-24.708487,27.38893,-39.042812,-17.834553,3.875945,0.5347614
207,16.101606369018555,-306.3578796386719,72.96250915527344,7.110274432272913,-6.322038824793609,-80.19138183613123,-13.673766,-13.830213,2.8238678,43.11241,-22.260254,4.842483,7.910729,-20.328154,-16.468943,76.48217,-17.228386,-0.7538674,3.6893697,-5.2075377,12.804689,17.294527,24.437298,-17.502295,-41.495136,14.922362,4.4560137,-3.8875232,20.677034,-23.722252,27.312954,-38.36702,-18.3923,4.3686776,-0.013942933
208,16.1568546295166,-307.6260681152344,72.92642211914062,6.941929070610326,-6.3166341918702305,-80.6623453049096,-12.494544,-13.383725,2.894763,43.477688,-23.636034,4.742698,5.6473083,-20.552061,-15.792242,77.54044,-18.66769,-1.2309653,3.1413536,-5.1417737,12.8599415,15.455599,23.85129,-17.639254,-40.457813,16.19136,4.831933,-4.322655,21.358461,-22.836908,27.378084,-37.724865,-18.727318,4.65956,-0.3285433
209,16.201236724853516,-308.8929138183594,72.94290924072266,6.8775620480833854,-6.174410297137716,-81.27395554603132,-11.283475,-12.966657,3.1768463,43.421505,-24.721815,4.673684,3.1184468,-20.801685,-14.9886465,78.36592,-20.07308,-1.5938203,2.6112068,-5.2126026,12.7281475,13.766659,23.21232,-17.728256,-39.494255,17.108309,5.2136693,-4.5175033,21.868849,-22.07754,27.59502,-37.170704,-18.763918,4.6699004,-0.37325132
210,16.236825942993164,-310.1487121582031,73.013427734375,6.843530918240769,-5.925115750671116,-82.01711926585577,-10.019134,-12.509544,3.6043253,43.00721,-25.57898,4.6058683,0.36365095,-20.981855,-14.080651,78.93914,-21.408627,-1.8691827,2.099296,-5.340579,12.455338,12.218516,22.524132,-17.767984,-38.615868,17.804745,5.6160235,-4.5630527,22.26862,-21.453176,27.948378,-36.72831,-18.569515,4.498364,-0.24763875
211,16.27775001525879,-311.40545654296875,73.14264678955078,6.7807954680701705,-5.632040352589009,-82.78240861335088,-8.677198,-12.0289135,4.0336237,42.310726,-26.188988,4.5097466,-2.4057326,-21.033579,-13.2278595,79.15892,-22.586237,-2.1389046,1.5253103,-5.450724,12.106925,10.774699,21.817661,-17.794403,-37.821457,18.325651,6.014272,-4.511472,22.586199,-20.960493,28.376133,-36.368374,-18.245003,4.2452993,0.0175876
212,16.31583023071289,-312.6592712402344,73.32723999023438,6.636991666594961,-5.359393638515514,-83.46233088581303,-7.234758,-11.535894,4.322424,41.408268,-26.535082,4.359548,-4.9709387,-20.915226,-12.592705,78.926605,-23.523367,-2.4819703,0.8193585,-5.4751406,11.751855,9.406859,21.142475,-17.847433,-37.12783,18.710941,6.38325,-4.4085245,22.854702,-20.586933,28.809214,-36.064713,-17.893642,4.00909,0.39358276
213,16.356351852416992,-313.9259948730469,73.56365966796875,6.40772473927893,-5.1159979808745,-84.04281270109055,-5.651595,-11.044157,4.428916,40.22423,-26.61166,4.156087,-7.319368,-20.645702,-12.215253,78.226326,-24.208479,-2.9623404,-0.04276193,-5.4255934,11.403064,8.150728,20.535337,-17.926182,-36.606815,18.939228,6.7452836,-4.1825404,23.04384,-20.324638,29.25038,-35.82013,-17.476503,3.785026,0.9389086
214,16.378387451171875,-315.2023620605469,73.84375,6.121754627014088,-4.871698836603955,-84.57736542403808,-3.9555535,-10.539178,4.434093,38.755802,-26.432413,3.9128025,-9.533194,-20.246511,-12.027164,77.10339,-24.688475,-3.516124,-1.0141026,-5.3400416,11.034479,7.037949,20.006643,-18.015938,-36.27238,18.982733,7.1080728,-3.8189237,23.149971,-20.168701,29.72531,-35.65255,-16.958231,3.5348861,1.650558
215,16.399803161621094,-316.4930114746094,74.1683349609375,5.770260016453011,-4.6324071205561195,-85.05951670301688,-2.2276945,-9.989001,4.379822,37.185013,-26.005354,3.6245224,-11.537749,-19.69575,-12.02392,75.554214,-24.96781,-4.028708,-2.051436,-5.191814,10.66018,6.031003,19.565304,-18.141266,-36.054703,18.87568,7.4233847,-3.4494693,23.2481,-20.105747,30.195507,-35.55918,-16.45177,3.301451,2.4064624
216,16.418039321899414,-317.8033447265625,74.53192138671875,5.3484780094315125,-4.404196213858367,-85.48267673197861,-0.54755145,-9.366146,4.307046,35.692856,-25.3386,3.2835655,-13.255337,-18.977894,-12.202566,73.5712,-25.052677,-4.388513,-3.1040232,-4.9539614,10.295504,5.08265,19.217718,-18.335758,-35.87195,18.655071,7.6443353,-3.2057908,23.417618,-20.11634,30.61631,-35.53516,-16.072842,3.1205447,3.0850656
217,16.427066802978516,-319.11407470703125,74.92367553710938,4.818276310502511,-4.182392412720098,-85.8421638929127,1.071196,-8.631044,4.199843,34.305683,-24.434464,2.8647244,-14.670673,-18.081947,-12.627781,71.109344,-24.951294,-4.632016,-4.1783752,-4.5881376,9.942168,4.187283,18.970314,-18.612957,-35.72012,18.260862,7.744781,-3.1046655,23.64165,-20.190643,30.99148,-35.55943,-15.86434,2.996693,3.691169
218,16.44650650024414,-320.4429016113281,75.33729553222656,4.197273384493279,-3.966741006659671,-86.14385318792934,2.661392,-7.8103456,4.0440974,32.942177,-23.291998,2.3797977,-15.811576,-17.024,-13.280268,68.17405,-24.659372,-4.7887278,-5.288409,-4.1233993,9.601622,3.3711207,18.824945,-18.963081,-35.64245,17.694527,7.75584,-3.0787282,23.883068,-20.324198,31.338877,-35.62944,-15.765558,2.9073358,4.280173
219,16.454975128173828,-321.79730224609375,75.76002502441406,3.5631600373480286,-3.76876266784703,-86.39781948628614,4.216156,-6.9790363,3.8798623,31.619465,-21.912241,1.8781339,-16.687702,-15.832753,-14.001339,64.839355,-24.146984,-4.7384315,-6.3935456,-3.6359515,9.28393,2.6273937,18.777056,-19.386572,-35.616116,17.086475,7.7182937,-3.1356497,24.191082,-20.503065,31.633062,-35.762924,-15.738939,2.8442342,4.8071966
220,16.454219818115234,-323.1588134765625,76.19721984863281,2.995542976496275,-3.5996143699936898,-86.61268348476618,5.7343626,-6.214671,3.7447145,30.35285,-20.295216,1.409725,-17.316975,-14.551383,-14.618624,61.178574,-23.383095,-4.3762197,-7.450969,-3.2030566,8.991411,1.9421896,18.817608,-19.889214,-35.611305,16.569586,7.6730494,-3.283005,24.615274,-20.706978,31.844578,-35.971188,-15.748853,2.7992566,5.2291336
221,16.43977165222168,-324.53961181640625,76.637939453125,2.4808207611245177,-3.464049695351407,-86.78326592641079,7.243543,-5.5044127,3.6185,29.111965,-18.389948,0.9798841,-17.67322,-13.143867,-15.075407,57.09231,-22.301664,-3.6743636,-8.464305,-2.813705,8.724331,1.300743,18.94702,-20.485167,-35.591877,16.17524,7.618257,-3.5630467,25.152473,-20.920889,31.97606,-36.234795,-15.8625145,2.7787867,5.5420613
222,16.424720764160156,-325.9363098144531,77.07487487792969,1.9930057407776947,-3.3557948998572673,-86.90761789360359,8.739463,-4.827308,3.4820833,27.902119,-16.215427,0.5655948,-17.758743,-11.628705,-15.416293,52.555202,-20.938906,-2.71278,-9.447796,-2.4461203,8.476228,0.7082874,19.165453,-21.176128,-35.576443,15.834682,7.5385084,-3.9590454,25.770826,-21.13908,32.038723,-36.533356,-16.079062,2.7819648,5.770918
223,16.40323829650879,-327.34918212890625,77.5022964477539,1.5955618551166297,-3.2692698664896924,-86.99611674314323,10.1701565,-4.2478156,3.3729267,26.807297,-13.882621,0.17164397,-17.633116,-10.14508,-15.633972,47.75408,-19.423536,-1.5545514,-10.378888,-2.157937,8.231384,0.17892836,19.458956,-21.944386,-35.604107,15.533661,7.45179,-4.391729,26.478418,-21.353811,32.017883,-36.88017,-16.259377,2.7916834,5.9144425
224,16.380720138549805,-328.76708984375,77.91080474853516,1.3476298536999973,-3.19795351155314,-87.05808746142782,11.493155,-3.8298528,3.3267872,25.887613,-11.49076,-0.19737513,-17.355556,-8.825053,-15.73908,42.871372,-17.880806,-0.25739026,-11.235249,-2.001913,7.969098,-0.28285897,19.8059,-22.771824,-35.70539,15.262241,7.3746514,-4.784883,27.283388,-21.5579,31.895605,-37.28233,-16.26515,2.7920563,5.9719596
225,16.352733612060547,-330.19927978515625,78.29512023925781,1.2813271377607856,-3.1450144360330166,-87.07470181016338,12.708771,-3.6150103,3.3385642,25.128716,-8.955832,-0.4630435,-16.84961,-7.690759,-15.733615,37.724384,-16.241695,1.3234135,-12.028978,-2.003216,7.6692424,-0.7101685,20.199625,-23.687407,-35.84408,15.063112,7.319434,-5.147373,28.205347,-21.746622,31.653324,-37.734375,-16.05098,2.7795777,5.9206347
226,16.32975196838379,-331.64599609375,78.63977813720703,1.3744056083186307,-3.1138359551649675,-87.04229427171992,13.852412,-3.580717,3.3845053,24.477232,-6.2405934,-0.6551956,-16.081076,-6.7109947,-15.589268,32.214382,-14.453733,3.145385,-12.7692375,-2.142835,7.335626,-1.1087717,20.639595,-24.692627,-36.001904,14.93199,7.273319,-5.5143533,29.237898,-21.916456,31.300415,-38.231434,-15.695273,2.762227,5.769488
227,16.31995964050293,-333.1003723144531,78.94265747070312,1.604027232547461,-3.096811624400156,-86.99016610019612,14.934651,-3.696558,3.4642534,23.92674,-3.5034914,-0.9295626,-15.18847,-5.931476,-15.308418,26.686491,-12.66459,4.8858724,-13.436194,-2.4029458,6.981221,-1.4331411,21.110798,-25.72033,-36.235706,14.792434,7.2142057,-5.852906,30.344357,-22.062883,30.864927,-38.78382,-15.245253,2.7422893,5.565394
228,16.32146453857422,-334.5517272949219,79.1982650756836,1.9404394134025746,-3.0838713281786014,-86.9480127378055,15.963222,-3.9271007,3.5685365,23.472643,-0.9063602,-1.4418224,-14.347563,-5.3857155,-14.920438,21.568638,-11.042574,6.237701,-14.012553,-2.7549992,6.618452,-1.6433624,21.591032,-26.698864,-36.58669,14.571301,7.119823,-6.133507,31.483711,-22.18195,30.378952,-39.395973,-14.74904,2.7234473,5.3541293
229,16.31742286682129,-336.00457763671875,79.40611267089844,2.4074607542462316,-3.0603215500198195,-86.91481549364707,16.953583,-4.3054423,3.6925836,23.048208,1.6029646,-2.304839,-13.64964,-5.111683,-14.409536,16.994898,-9.661488,7.09899,-14.488907,-3.2091718,6.2207103,-1.7657008,22.068933,-27.635504,-37.042995,14.250177,6.981634,-6.351199,32.693,-22.267954,29.833021,-40.085674,-14.128213,2.714215,5.117243
230,16.30499839782715,-337.45751953125,79.56501770019531,3.006517131834224,-3.033418034675075,-86.87346818326337,17.896427,-4.8423986,3.8149192,22.672447,4.0807366,-3.4195926,-13.029752,-5.0949817,-13.803868,12.821929,-8.45287,7.649027,-14.882565,-3.7672799,5.784153,-1.8303038,22.543243,-28.558214,-37.562492,13.874537,6.811867,-6.5268617,33.976273,-22.316788,29.217974,-40.83874,-13.388037,2.7090335,4.839347
231,16.294116973876953,-338.8896789550781,79.67293548583984,3.642994730586409,-3.0209116042250788,-86.83904136935088,18.731878,-5.4278855,3.9241552,22.53418,6.33444,-4.621772,-12.418468,-5.220171,-13.218689,9.018505,-7.3427434,8.01533,-15.206161,-4.3569875,5.3618937,-1.8071663,23.006182,-29.424196,-38.142574,13.465577,6.618202,-6.6706476,35.233765,-22.331095,28.566376,-41.599186,-12.70299,2.6931374,4.5716586
232,16.28187370300293,-340.3113708496094,79.73703002929688,4.221168740710479,-3.0393975349428444,-86.83199098144158,19.395712,-5.936878,4.036602,22.831554,8.171694,-5.7361317,-12.484393,-5.520464,-12.688675,7.144284,-7.0970197,8.332645,-15.47027,-4.902071,5.00888,-1.6583111,23.44741,-30.184387,-38.781345,13.045498,6.407349,-6.794307,36.361153,-22.31932,27.916471,-42.306652,-12.247814,2.6546512,4.3636603
233,16.27291488647461,-341.72509765625,79.75735473632812,4.702605314993499,-3.0699776993330716,-86.86766885010923,19.827053,-6.3130097,4.1944914,23.669575,9.546203,-6.803328,-13.155474,-5.891857,-12.295112,7.0030017,-7.5923996,8.594967,-15.663844,-5.3647976,4.720232,-1.3745593,23.858667,-30.830933,-39.48336,12.598273,6.1692452,-6.9061737,37.346542,-22.2882,27.258732,-42.957508,-12.113176,2.5849495,4.238027
234,16.255922317504883,-343.12420654296875,79.73225402832031,5.106840036605918,-3.1040347405844555,-86.9494244114311,20.035843,-6.57101,4.4231153,25.004047,10.522181,-7.875579,-13.688297,-6.1658907,-12.04896,6.916007,-7.968137,8.752477,-15.769427,-5.7526054,4.480481,-0.98459774,24.235933,-31.386694,-40.232304,12.12188,5.902527,-7.000374,38.234215,-22.238968,26.581438,-43.574677,-12.188736,2.4942935,4.161772
235,16.236448287963867,-344.52001953125,79.65887451171875,5.434322608915173,-3.1737364519608993,-87.07686875934803,20.076977,-6.69906,4.7224145,26.783953,11.083743,-8.787793,-14.043981,-6.33455,-11.833014,6.86089,-8.22353,8.875942,-15.78584,-6.072301,4.32523,-0.50437355,24.576017,-31.852497,-40.99359,11.660111,5.627389,-7.067063,39.007633,-22.176073,25.913458,-44.140076,-12.349217,2.4005084,4.1033792
236,16.2119140625,-345.8992614746094,79.53093719482422,5.684890652971546,-3.3105913896371653,-87.24530098501896,20.017473,-6.692376,5.083363,28.929424,11.22917,-9.382376,-14.188986,-6.3926873,-11.53151,6.82899,-8.36684,9.032507,-15.718028,-6.330566,4.2893243,0.05683623,24.877626,-32.225655,-41.742455,11.256565,5.363668,-7.096451,39.65099,-22.107769,25.282627,-44.638348,-12.469595,2.3209112,4.0321746
237,16.18411636352539,-347.2706298828125,79.34574890136719,5.905134917015551,-3.5371168866503577,-87.44548487749094,19.896015,-6.603098,5.507821,31.43715,10.862237,-9.512798,-14.08639,-6.3963866,-11.083237,6.8208237,-8.540753,9.354425,-15.570054,-6.5759554,4.380104,0.6925977,25.14066,-32.509647,-42.481823,10.902629,5.1019692,-7.0798945,40.194447,-22.046457,24.675669,-45.089672,-12.547914,2.2566056,3.953668
238,16.158823013305664,-348.63482666015625,79.10980987548828,6.076302256381134,-3.828494025538661,-87.68171192577852,19.69129,-6.4002976,5.9951797,34.3018,10.032958,-9.294002,-13.763354,-6.3267612,-10.567337,6.8364706,-8.691827,9.770647,-15.338906,-6.782372,4.5812187,1.4145931,25.36311,-32.703484,-43.22733,10.582121,4.835753,-7.02401,40.64386,-21.998219,24.07968,-45.509426,-12.637885,2.1994133,3.8781846
239,16.129987716674805,-349.9901428222656,78.82982635498047,6.096287848673521,-4.147057501505321,-87.96454059002404,19.392307,-5.968092,6.52246,37.421043,8.967042,-8.973031,-13.280827,-6.0664873,-10.075997,6.8676095,-8.535663,10.041354,-15.023731,-6.8434043,4.89066,2.237966,25.54016,-32.79906,-43.964565,10.325937,4.58956,-6.941197,40.941605,-21.959946,23.52749,-45.862602,-12.701504,2.1529932,3.7837188
240,16.11412239074707,-351.351318359375,78.50350189208984,5.861000908720993,-4.4586968460369585,-88.30105018179782,18.996166,-5.2005434,7.0679717,40.68743,7.8978257,-8.800657,-12.698271,-5.4968452,-9.696918,6.90806,-7.788085,9.928335,-14.626885,-6.6560698,5.3037877,3.1747622,25.665152,-32.790295,-44.677464,10.164853,4.3883476,-6.844173,41.02335,-21.921692,23.056307,-46.10244,-12.702716,2.1212096,3.6493857
