unveil-humanoid-operators/unveil-humanoid-operators.github.io/feature-analysis-animation/data/feature_matrix_instances/age_waist_mean_vel_jogging_A043_jog_sideway_090_stop_005__A043.csv
Frame,root_translateX,root_translateY,root_translateZ,root_rotateX,root_rotateY,root_rotateZ,left_hip_pitch_joint_dof,left_hip_roll_joint_dof,left_hip_yaw_joint_dof,left_knee_joint_dof,left_ankle_pitch_joint_dof,left_ankle_roll_joint_dof,right_hip_pitch_joint_dof,right_hip_roll_joint_dof,right_hip_yaw_joint_dof,right_knee_joint_dof,right_ankle_pitch_joint_dof,right_ankle_roll_joint_dof,waist_yaw_joint_dof,waist_roll_joint_dof,waist_pitch_joint_dof,left_shoulder_pitch_joint_dof,left_shoulder_roll_joint_dof,left_shoulder_yaw_joint_dof,left_elbow_joint_dof,left_wrist_roll_joint_dof,left_wrist_pitch_joint_dof,left_wrist_yaw_joint_dof,right_shoulder_pitch_joint_dof,right_shoulder_roll_joint_dof,right_shoulder_yaw_joint_dof,right_elbow_joint_dof,right_wrist_roll_joint_dof,right_wrist_pitch_joint_dof,right_wrist_yaw_joint_dof
0,-0.10295873880386353,2.537059783935547,78.4769058227539,0.46040454714421025,-1.6681973854572547,-88.22985332289913,3.5642238,5.556162,12.022438,7.5473003,-8.825112,-6.4740806,2.2221556,-6.2531095,-10.686642,10.417452,-12.088185,5.0234056,-2.3248763,-1.0251172,9.094823,-8.517839,18.78143,-40.078568,65.944695,11.260128,-0.41549638,1.1752924,-8.974882,-13.200705,41.006027,68.180176,-4.7143207,-4.753646,0.5557913
1,-0.10285607725381851,2.537234306335449,78.48814392089844,0.483861136986301,-1.5670413064607902,-88.20045108535358,3.4101326,5.511208,11.981426,7.5846004,-8.804884,-6.346154,2.1502006,-6.2824917,-10.706666,10.312112,-12.001452,5.0668206,-2.3303666,-1.0450945,9.035194,-8.538197,18.793335,-40.068672,65.913185,11.2644,-0.41023323,1.1758837,-9.024134,-13.199758,40.99911,68.19162,-4.680192,-4.7436967,0.5928255
2,-0.09877820312976837,2.5465269088745117,78.50135040283203,0.5090880628342312,-1.471601361537078,-88.17645400125544,3.2658455,5.465159,11.945515,7.6242433,-8.7916565,-6.2155204,2.0856142,-6.3135805,-10.720763,10.206336,-11.916749,5.1098967,-2.3319738,-1.0714809,8.973432,-8.56136,18.802874,-40.06424,65.895226,11.2664,-0.40648887,1.1725078,-9.06442,-13.201233,40.994576,68.196045,-4.6404815,-4.7339053,0.634813
3,-0.08637765049934387,2.5697150230407715,78.51604461669922,0.5323317699919312,-1.364654881247593,-88.14174519631666,3.1016445,5.418207,11.898525,7.663481,-8.768273,-6.086087,2.0073085,-6.344792,-10.745759,10.098617,-11.826403,5.1538334,-2.3666155,-1.0878034,8.90451,-8.567131,18.80959,-40.024055,65.862434,11.276326,-0.40483502,1.1759254,-9.03872,-13.205204,40.899605,68.14609,-4.737335,-4.7202096,0.6681075
4,-0.073448546230793,2.595658302307129,78.53274536132812,0.550206042381506,-1.2281659837712195,-88.08182219872029,2.8923507,5.365717,11.827057,7.6878614,-8.71056,-5.9604707,1.888741,-6.3796206,-10.795772,9.996859,-11.727856,5.2000923,-2.380507,-1.0915959,8.859206,-8.62004,18.81373,-39.980145,65.81875,11.30771,-0.4120378,1.1936276,-9.0683775,-13.218615,40.795555,68.11682,-4.812296,-4.707978,0.6852076
5,-0.06215057149529457,2.63631272315979,78.55233764648438,0.5694223022698864,-1.0578539147055874,-87.9853106922483,2.6323175,5.2992735,11.719306,7.692554,-8.613444,-5.843072,1.729303,-6.4265738,-10.880637,9.895577,-11.617564,5.2477264,-2.368885,-1.0934522,8.8405075,-8.737397,18.81168,-39.955357,65.77664,11.3577795,-0.4316744,1.2353742,-9.266167,-13.23391,40.84064,68.19868,-4.687311,-4.698974,0.67020905
6,-0.04128793254494667,2.6809394359588623,78.56834411621094,0.568519564140886,-0.8602183554163186,-87.85857009126521,2.1665,5.28022,11.562546,8.039596,-8.674486,-5.732976,1.5362278,-6.4616213,-10.997408,9.79875,-11.501321,5.294978,-2.4381683,-1.0597363,8.810373,-8.825294,18.798014,-39.83477,65.716576,11.445816,-0.462606,1.2913759,-9.374215,-13.267702,40.77466,68.19135,-4.771008,-4.6817985,0.6340991
7,-0.010385319590568542,2.7384848594665527,78.56805419921875,0.5166372254858599,-0.6355892928753596,-87.71567477463374,1.3282048,5.3786883,11.350976,9.095612,-9.085207,-5.622675,1.297346,-6.4500303,-11.137393,9.725202,-11.387195,5.34216,-2.4882362,-0.9586572,8.782738,-8.868708,18.768887,-39.610485,65.58931,11.652437,-0.4919616,1.3539636,-9.484376,-13.316415,40.660316,68.17825,-4.869539,-4.666388,0.598752
8,0.029684344306588173,2.8066844940185547,78.56509399414062,0.434874284282153,-0.3917746447333875,-87.58113587790173,0.4020825,5.5125804,11.137749,10.277597,-9.544732,-5.495791,1.0249033,-6.4112654,-11.274872,9.653772,-11.261505,5.393874,-2.5576332,-0.8019762,8.7765875,-9.04035,18.739483,-39.52896,65.518166,11.634405,-0.5199672,1.421006,-9.657248,-13.366585,40.572052,68.20213,-4.9387403,-4.6560955,0.5778751
9,0.07800959795713425,2.8844411373138428,78.55809783935547,0.3191236588400371,-0.12174352973329183,-87.4573445643411,-0.63818187,5.688461,10.918816,11.622059,-10.072248,-5.3443155,0.7062522,-6.3429704,-11.408074,9.590439,-11.124715,5.451562,-2.5850089,-0.569013,8.782389,-9.170835,18.661549,-39.319996,65.3802,11.733982,-0.5334682,1.4894978,-9.816253,-13.482878,40.427853,68.18106,-4.9832892,-4.6468706,0.59229124
10,0.14081284403800964,2.9728751182556152,78.54460144042969,0.17665398841039842,0.17267606261421692,-87.33636756705107,-1.783523,5.8969736,10.685325,13.110704,-10.65789,-5.172448,0.34755966,-6.25304,-11.543917,9.532265,-10.977097,5.5141454,-2.6132917,-0.28092936,8.801119,-9.36023,18.56626,-39.14523,65.25514,11.752285,-0.5415064,1.5645605,-10.006665,-13.619835,40.274532,68.168396,-5.0097504,-4.6397233,0.62235504
11,0.21370239555835724,3.0711400508880615,78.52287292480469,0.013172015650298345,0.47545467990483053,-87.21977584122777,-2.9835598,6.1271,10.445768,14.680521,-11.26275,-4.9877276,-0.030485354,-6.146344,-11.680443,9.479596,-10.824729,5.580502,-2.637101,0.048622865,8.833671,-9.566689,18.455036,-38.961227,65.10847,11.75461,-0.55432177,1.643088,-10.170171,-13.779043,40.062366,68.12059,-5.105189,-4.6355777,0.6570449
12,0.28423792123794556,3.171677589416504,78.49302673339844,-0.16661580327900907,0.7714285704103715,-87.10893578699275,-4.191397,6.3691897,10.209301,16.27272,-11.84882,-4.8003855,-0.4066607,-6.0265193,-11.81623,9.429191,-10.67111,5.6492763,-2.6345186,0.4062795,8.893042,-9.764262,18.330965,-38.741734,64.90178,11.8022375,-0.5802281,1.7231152,-10.384269,-13.963589,39.92416,68.09634,-5.13501,-4.639956,0.6830284
13,0.367569237947464,3.278862237930298,78.46067810058594,-0.3743589465196339,1.060982271279903,-87.00073251419421,-5.433929,6.623825,9.908386,17.92557,-12.428201,-4.590964,-0.7796607,-5.880774,-11.957662,9.376789,-10.512175,5.719113,-2.619351,0.8092817,8.98604,-10.002369,18.200453,-38.55016,64.66993,11.802204,-0.6371213,1.7919303,-10.656474,-14.174932,39.873856,68.09552,-5.107953,-4.654205,0.6944021
14,0.4618383049964905,3.3918886184692383,78.42372131347656,-0.6094690733396342,1.3510501099501562,-86.89541803493714,-6.723165,6.8925,9.5594635,19.649122,-13.011181,-4.363031,-1.159355,-5.710591,-12.10305,9.324149,-10.347161,5.790178,-2.5893202,1.2564728,9.104462,-10.23278,18.062464,-38.318996,64.37745,11.828911,-0.71162224,1.8524059,-10.966078,-14.414051,39.871925,68.10442,-5.0457745,-4.6761575,0.6997256
15,0.5573234558105469,3.5177524089813232,78.38626861572266,-0.8477962850162968,1.63663467366069,-86.79929908087537,-7.9873133,7.1708865,9.301228,21.338425,-13.556715,-4.1636887,-1.5410637,-5.541786,-12.24181,9.277325,-10.1852,5.8659945,-2.5508614,1.7149317,9.244332,-10.472257,17.92062,-38.08664,64.04457,11.858038,-0.78322047,1.9333199,-11.308076,-14.67859,39.92157,68.11962,-4.9431286,-4.7033877,0.70599294
16,0.6554814577102661,3.6475777626037598,78.34330749511719,-1.0649749798266452,1.9127634907544016,-86.7184793885763,-9.158428,7.461171,9.273444,22.900114,-14.029216,-4.0401397,-1.9210308,-5.401181,-12.36252,9.242833,-10.034987,5.9498377,-2.5095828,2.1491065,9.396122,-10.69894,17.778095,-37.840977,63.665085,11.92157,-0.8304277,2.0618763,-11.631371,-14.962575,39.961605,68.106026,-4.8655386,-4.731908,0.7202188
17,0.7565256953239441,3.7772059440612793,78.29908752441406,-1.262768539608895,2.1772519014908336,-86.6510193218321,-10.242646,7.777388,9.519995,24.352158,-14.408155,-3.983415,-2.2978942,-5.287999,-12.466131,9.223009,-9.90148,6.04059,-2.4600224,2.561583,9.5681305,-10.903384,17.635294,-37.553,63.212612,12.060917,-0.8349028,2.2414587,-11.96252,-15.265752,40.016087,68.07727,-4.7681284,-4.764128,0.7457927
18,0.866017758846283,3.902196168899536,78.25294494628906,-1.4513475005859053,2.4333922934109697,-86.5943685056093,-11.270491,8.122745,9.964925,25.74009,-14.720406,-3.9777577,-2.674688,-5.191029,-12.557307,9.214607,-9.779082,6.137261,-2.4040947,2.9666836,9.76209,-11.100956,17.493544,-37.241005,62.701694,12.24141,-0.8144687,2.4590502,-12.31565,-15.587609,40.104107,68.04393,-4.6389575,-4.8009896,0.77818924
19,0.9855695962905884,4.028318405151367,78.21012878417969,-1.6192483380290255,2.684623025883045,-86.55346589852381,-12.211686,8.486234,10.570687,27.016058,-15.006088,-4.061472,-3.0529194,-5.1203375,-12.630811,9.215803,-9.662156,6.2429423,-2.3412833,3.3437886,9.9606085,-11.289174,17.356716,-36.94303,62.16092,12.419919,-0.79302824,2.7157419,-12.68602,-15.923024,40.23601,68.02269,-4.4905305,-4.839361,0.81215656
20,1.1052650213241577,4.144853591918945,78.17488098144531,-1.754312926270155,2.9341282403902875,-86.53345534184051,-13.04092,8.85382,11.300747,28.14022,-15.305463,-4.273689,-3.4344049,-5.087145,-12.680606,9.22596,-9.546016,6.360933,-2.271884,3.669695,10.145276,-11.456115,17.229105,-36.68574,61.617256,12.565266,-0.79901296,3.0129066,-13.054184,-16.26303,40.400078,68.02007,-4.360624,-4.8757634,0.8420634
21,1.2286697626113892,4.258299827575684,78.1427001953125,-1.854007181418563,3.1906463783904275,-86.54215742661283,-13.720078,9.226181,12.247822,29.019224,-15.638903,-4.7263517,-3.8313441,-5.0925183,-12.701324,9.244003,-9.425145,6.495847,-2.1768358,3.9383087,10.317612,-11.614402,17.115345,-36.491283,61.068405,12.657436,-0.8473946,3.3786511,-13.523221,-16.602371,40.73765,68.11512,-4.0903177,-4.9194055,0.86772573
22,1.3495391607284546,4.363598823547363,78.11309814453125,-1.924244813702253,3.4499050133960587,-86.57416413148981,-14.278528,9.609034,13.4033165,29.712872,-15.989501,-5.368584,-4.2389455,-5.132098,-12.696995,9.270723,-9.303681,6.645106,-2.087909,4.1592083,10.473236,-11.742175,17.018349,-36.318954,60.49927,12.716109,-0.9215281,3.800968,-13.948781,-16.935379,41.04187,68.1928,-3.9245996,-4.964629,0.8904676
23,1.4721580743789673,4.462395191192627,78.09517669677734,-1.9656703783083112,3.69579291727033,-86.6151161862738,-14.785441,9.993236,14.576931,30.39645,-16.336441,-5.9936967,-4.633718,-5.2078185,-12.67552,9.30826,-9.191646,6.801128,-1.9959654,4.3320765,10.626555,-11.85291,16.936905,-36.186634,59.92465,12.755878,-1.0003408,4.2272162,-14.371737,-17.258245,41.350334,68.29253,-3.7895386,-5.001577,0.9071199
24,1.5957412719726562,4.555294990539551,78.08494567871094,-1.979101329309459,3.9123714116928907,-86.65061238809216,-15.305188,10.370785,15.572919,31.235779,-16.649115,-6.39378,-4.989186,-5.3201966,-12.645228,9.350913,-9.093986,6.9560046,-1.9250326,4.4587765,10.777737,-11.958112,16.869356,-36.110405,59.37826,12.761661,-1.0640855,4.604086,-14.70158,-17.565426,41.52905,68.35878,-3.8334877,-5.0158973,0.9137419
25,1.7353333234786987,4.643555164337158,78.07757568359375,-1.9493531143672806,4.0968972303272535,-86.68880973684907,-15.83315,10.735547,16.398882,32.253628,-16.908943,-6.468828,-5.3093104,-5.4855876,-12.591535,9.408667,-9.015334,7.106253,-1.8342098,4.5238657,10.944731,-12.087301,16.813301,-36.13967,58.865093,12.680723,-1.1132994,4.9310613,-15.111325,-17.854527,41.808186,68.5351,-3.791983,-5.0113316,0.91058743
26,1.8748668432235718,4.720837593078613,78.07308959960938,-1.8825246493185428,4.257402387053222,-86.73360663983064,-16.335176,11.092853,17.136993,33.35377,-17.125544,-6.3420906,-5.6016335,-5.69556,-12.515397,9.474015,-8.948086,7.256021,-1.7448426,4.53283,11.1124325,-12.2115755,16.767912,-36.234062,58.371853,12.538578,-1.157792,5.231217,-15.517699,-18.121721,42.082165,68.75533,-3.803438,-4.991137,0.89805895
27,2.0164523124694824,4.786410808563232,78.0694808959961,-1.8115382965286746,4.394887091503037,-86.76387417022818,-16.831572,11.451814,17.700161,34.52218,-17.30678,-6.1391597,-5.850479,-5.9142203,-12.448557,9.526859,-8.885726,7.408279,-1.6740403,4.518593,11.277097,-12.333775,16.73154,-36.361717,57.904976,12.435659,-1.1887666,5.493159,-15.873523,-18.365223,42.26613,68.96914,-3.9154987,-4.953528,0.87499446
28,2.158616304397583,4.843067169189453,78.0678482055664,-1.7692298049801172,4.5101177970423505,-86.75885871105835,-17.34646,11.819845,18.00031,35.748825,-17.462479,-5.9863205,-6.0399427,-6.106386,-12.423393,9.545854,-8.820695,7.5661016,-1.6294085,4.51444,11.440098,-12.461257,16.701141,-36.493664,57.467575,12.47806,-1.1958692,5.7061834,-16.185432,-18.584122,42.346832,69.167725,-4.0897684,-4.8982134,0.84081745
29,2.3064370155334473,4.902194023132324,78.05889129638672,-1.7730946589765284,4.594341799997931,-86.71504803967052,-17.886507,12.211582,18.005089,37.063854,-17.61231,-5.9098377,-6.1468825,-6.2490087,-12.451597,9.507277,-8.743147,7.726027,-1.6162348,4.539016,11.610145,-12.597905,16.67463,-36.632763,57.07378,12.712393,-1.169992,5.8546257,-16.459568,-18.775578,42.32156,69.36481,-4.3528433,-4.817209,0.8012691
30,2.4579052925109863,4.950314521789551,78.045654296875,-1.8028340469520543,4.649964601276192,-86.64328864889475,-18.440609,12.615381,17.76248,38.45724,-17.743511,-5.84154,-6.1842813,-6.364617,-12.515562,9.424473,-8.657192,7.887594,-1.6332201,4.5710435,11.779615,-12.733508,16.651094,-36.78499,56.719173,13.0801935,-1.1181207,5.9483724,-16.66916,-18.940073,42.167423,69.548225,-4.7493114,-4.7129736,0.7549186
31,2.609945297241211,4.994442462921143,78.02884674072266,-1.834534014975288,4.694940325505401,-86.54375607418496,-19.00854,12.995511,17.30588,39.8622,-17.81885,-5.7689714,-6.1961603,-6.488033,-12.603659,9.345106,-8.583954,8.058562,-1.6612263,4.586165,11.9377575,-12.88175,16.629728,-36.9523,56.38658,13.513759,-1.0540073,6.0166698,-16.864227,-19.080616,41.967773,69.73547,-5.115125,-4.602421,0.691354
32,2.7710161209106445,5.03154993057251,78.01119232177734,-1.843877181279403,4.746986234451154,-86.41659104033977,-19.58804,13.313667,16.67116,41.210392,-17.800434,-5.682934,-6.2222924,-6.653543,-12.704115,9.307844,-8.539477,8.246752,-1.708114,4.5600944,12.06143,-13.03592,16.610931,-37.113937,56.059055,13.944722,-0.9921657,6.087279,-16.97982,-19.202251,41.652706,69.856026,-5.475157,-4.4994874,0.59863293
33,2.9455907344818115,5.065144062042236,77.99266815185547,-1.8217989316056094,4.811647108503699,-86.24906784559391,-20.20054,13.524115,15.79027,42.507587,-17.624056,-5.5951953,-6.269207,-6.8752537,-12.8236,9.320553,-8.5306,8.462119,-1.7659644,4.482532,12.15104,-13.206747,16.595058,-37.282402,55.72997,14.395847,-0.932052,6.1508937,-17.076168,-19.308569,41.293007,69.949844,-5.7162614,-4.401258,0.4657246
34,3.1179423332214355,5.091009140014648,77.9740982055664,-1.7817439601231382,4.878981811516128,-86.0452624083886,-20.838068,13.64789,14.673732,43.779285,-17.3259,-5.511416,-6.3156705,-7.1338725,-12.965218,9.362684,-8.547738,8.698146,-1.8472562,4.3686256,12.212092,-13.391064,16.583097,-37.45894,55.413136,14.880173,-0.8683755,6.197328,-17.108488,-19.400068,40.824993,69.99087,-5.9525332,-4.3005943,0.30149686
35,3.2921128273010254,5.106136798858643,77.96065521240234,-1.7330446951797793,4.944017109190151,-85.83034413596722,-21.457352,13.752104,13.473777,44.99336,-17.021196,-5.412718,-6.3641443,-7.4131103,-13.111491,9.436767,-8.5861,8.937656,-1.9272773,4.230258,12.254866,-13.5694895,16.571651,-37.61749,55.09159,15.365371,-0.8045589,6.2556515,-17.086971,-19.480963,40.29664,69.98479,-6.1494665,-4.2117715,0.12546541
36,3.4806602001190186,5.116939067840576,77.9421615600586,-1.6854371416354061,5.001637023621385,-85.62967610568536,-22.018578,13.911484,12.33938,46.118824,-16.82639,-5.275345,-6.4160185,-7.6962953,-13.245066,9.543917,-8.639952,9.163377,-1.9925113,4.081166,12.286776,-13.728036,16.556654,-37.73389,54.75897,15.804838,-0.74448895,6.3549833,-16.994638,-19.556211,39.719646,69.91718,-6.3225327,-4.149688,-0.043424983
37,3.6764984130859375,5.116985321044922,77.92369842529297,-1.6435750141478143,5.04887487454579,-85.44430040161404,-22.51665,14.142441,11.267347,47.16068,-16.795631,-5.0933156,-6.461865,-7.977301,-13.3711815,9.673878,-8.705784,9.369799,-2.0174599,3.926217,12.317343,-13.882853,16.53406,-37.824024,54.418358,16.207523,-0.68546075,6.5129533,-16.940584,-19.627735,39.251724,69.86798,-6.2572775,-4.116845,-0.20498791
38,3.8752312660217285,5.112955570220947,77.89960479736328,-1.6015762304443286,5.088947496776762,-85.26249590118377,-22.974188,14.409752,10.189808,48.1315,-16.860138,-4.8771067,-6.5028977,-8.265004,-13.496151,9.827149,-8.785681,9.5664,-2.0441406,3.7603736,12.328414,-14.018781,16.503916,-37.8711,54.076756,16.589165,-0.62733465,6.709572,-16.79041,-19.694149,38.690334,69.73527,-6.1979094,-4.104144,-0.36844283
39,4.077449321746826,5.101371765136719,77.87618255615234,-1.5536978079779644,5.1260985166212905,-85.09101232436154,-23.397299,14.716275,9.157412,49.014297,-16.95311,-4.624408,-6.5588427,-8.566842,-13.602743,10.02182,-8.882396,9.758678,-2.0529325,3.5787966,12.334413,-14.145904,16.465189,-37.882008,53.725826,16.927404,-0.57412124,6.9240837,-16.605042,-19.759754,38.130825,69.56284,-6.085453,-4.1121845,-0.5256125
40,4.289580345153809,5.092037677764893,77.85330200195312,-1.4946635531257795,5.164886789938569,-84.93626320203735,-23.791409,15.065112,8.221437,49.790516,-17.00675,-4.332686,-6.653324,-8.890762,-13.673276,10.284789,-9.003633,9.952018,-2.0414793,3.3791385,12.346459,-14.26228,16.417248,-37.846054,53.353687,17.202253,-0.5310449,7.1345253,-16.415403,-19.826328,37.62645,69.37512,-5.9227695,-4.1448517,-0.6690266
41,4.512190341949463,5.078924655914307,77.83157348632812,-1.4205620350981234,5.203153245300515,-84.80522599626028,-24.149496,15.468393,7.401383,50.461964,-17.019232,-3.9942675,-6.784949,-9.238609,-13.694881,10.607989,-9.141857,10.1449,-1.9959124,3.1577046,12.3723345,-14.370036,16.35895,-37.756527,52.957123,17.391392,-0.5049798,7.347522,-16.267809,-19.894506,37.238796,69.20401,-5.6022964,-4.2117906,-0.8016393
42,4.737590789794922,5.0637407302856445,77.80850982666016,-1.3345749817199386,5.239614112181196,-84.69257202701998,-24.474806,15.923436,6.667608,51.03707,-17.02299,-3.6114998,-6.9443345,-9.606689,-13.678869,10.981394,-9.295752,10.335169,-1.9392763,2.9179184,12.397937,-14.465259,16.291773,-37.6128,52.54846,17.501867,-0.4929374,7.57002,-16.069921,-19.96305,36.841675,68.9784,-5.2620225,-4.307385,-0.92562187
43,4.968182563781738,5.052465438842773,77.78181457519531,-1.2416515247265445,5.279749767242129,-84.58682085020324,-24.786238,16.411549,5.9990916,51.507187,-17.001814,-3.197614,-7.1432524,-9.995375,-13.643031,11.426545,-9.4775095,10.527356,-1.8811169,2.6637673,12.419291,-14.536846,16.216309,-37.42034,52.117058,17.59474,-0.4826618,7.7819304,-15.815079,-20.03323,36.43283,68.696655,-4.9926424,-4.4113536,-1.0315378
44,5.2070465087890625,5.037513732910156,77.74771118164062,-1.1456108945357175,5.32904380376985,-84.47627438346919,-25.100418,16.91148,5.3763022,51.86217,-16.937872,-2.7660334,-7.381091,-10.403363,-13.607284,11.939406,-9.69188,10.726504,-1.8246518,2.399066,12.439384,-14.594266,16.134083,-37.201935,51.66101,17.715893,-0.46208683,7.9640727,-15.568063,-20.105503,36.1012,68.41392,-4.7836285,-4.5042925,-1.1109068
45,5.453415393829346,5.017524242401123,77.70693969726562,-1.048767474461562,5.391321764619915,-84.36320154770291,-25.427025,17.435783,4.8029876,52.113518,-16.820871,-2.2776425,-7.6640506,-10.827033,-13.572997,12.523395,-9.940393,10.929825,-1.7416935,2.1242886,12.47319,-14.666016,16.046106,-36.97467,51.18202,17.872355,-0.42322743,8.116883,-15.511807,-20.178545,36.08373,68.27246,-4.3795652,-4.5864162,-1.1617117
46,5.702803134918213,5.001963138580322,77.66126251220703,-0.947607424430018,5.462821216880676,-84.25167376691847,-25.755075,17.98915,4.288814,52.263287,-16.662989,-1.739654,-7.988656,-11.26888,-13.530286,13.174487,-10.218973,11.135624,-1.6890378,1.8365635,12.490533,-14.684807,15.953587,-36.66618,50.666748,18.05867,-0.37589023,8.244452,-15.345909,-20.246313,35.99999,68.03473,-4.1940784,-4.661101,-1.1892711
47,5.965490818023682,4.989612579345703,77.60504913330078,-0.8386738012170535,5.538053771232995,-84.13365896365188,-26.071878,18.539495,3.8223586,52.292126,-16.481573,-1.236082,-8.35358,-11.738698,-13.47916,13.906856,-10.531177,11.350471,-1.6389531,1.5342335,12.510973,-14.703019,15.858571,-36.35509,50.134857,18.234974,-0.32848448,8.346542,-15.184719,-20.312996,35.969883,67.80003,-4.0585213,-4.7308545,-1.1964742
48,6.234453201293945,4.976535797119141,77.5443344116211,-0.7182411362378167,5.611431664295451,-84.00086248772405,-26.36348,19.054253,3.3922753,52.181324,-16.293255,-0.8515707,-8.757321,-12.246258,-13.419762,14.734431,-10.881012,11.581098,-1.5987611,1.2169356,12.540692,-14.727713,15.762486,-36.06947,49.588955,18.384851,-0.29094493,8.419656,-15.028929,-20.378902,35.976578,67.57646,-3.983019,-4.795015,-1.1865839
49,6.5063982009887695,4.963119029998779,77.47906494140625,-0.5812658342329712,5.6836926288949785,-83.85319463986083,-26.612833,19.55238,3.0462618,51.90373,-16.102734,-0.6123183,-9.206918,-12.797631,-13.349824,15.667241,-11.272749,11.830587,-1.5664461,0.877945,12.581616,-14.761469,15.665716,-35.81278,49.026516,18.475422,-0.26640517,8.457149,-14.87986,-20.445028,36.02641,67.36457,-3.9825428,-4.855176,-1.1510655
50,6.792478084564209,4.947060585021973,77.40242004394531,-0.42977160090894795,5.757017811356214,-83.6939650702933,-26.82907,20.041363,2.7756426,51.4786,-15.90057,-0.47317585,-9.699681,-13.387463,-13.268613,16.692661,-11.701876,12.095029,-1.5389981,0.5181644,12.630792,-14.790194,15.567138,-35.562973,48.43833,18.536066,-0.24926694,8.462391,-14.733411,-20.511192,36.12311,67.156685,-4.047616,-4.910873,-1.0912528
51,7.085942268371582,4.9342169761657715,77.30778503417969,-0.2704624411722243,5.8275563007448525,-83.52051581970629,-27.035967,20.471935,2.48376,50.954445,-15.68044,-0.41128278,-10.22013,-14.009114,-13.177802,17.792,-12.159348,12.371479,-1.5211406,0.14831938,12.685433,-14.829571,15.469017,-35.34014,47.84365,18.606577,-0.23714028,8.448228,-14.588458,-20.578058,36.247482,66.956856,-4.1523533,-4.959575,-1.0257521
52,7.393613338470459,4.917358875274658,77.20271301269531,-0.11029100545795147,5.891627713656993,-83.33014670370017,-27.255663,20.79557,2.0736125,50.376965,-15.43438,-0.40245786,-10.751335,-14.654756,-13.079926,18.9447,-12.63544,12.657163,-1.5137476,-0.2212933,12.744389,-14.88689,15.373817,-35.160503,47.25333,18.736383,-0.22689047,8.427524,-14.445094,-20.646513,36.38193,66.76831,-4.2635293,-4.9986224,-0.9725955
53,7.707062244415283,4.900927543640137,77.07904052734375,0.05389294990884868,5.949215136320532,-83.1186147364574,-27.487358,21.006386,1.5380695,49.736374,-15.178946,-0.42735457,-11.29527,-15.328197,-12.976999,20.160465,-13.135988,12.947275,-1.5239153,-0.5931798,12.802661,-14.959365,15.284091,-35.037388,46.6726,18.945177,-0.21868771,8.414695,-14.269838,-20.716629,36.49538,66.56481,-4.443,-5.02285,-0.9332634
54,8.030637741088867,4.883152484893799,76.94743347167969,0.2246168559791008,6.001654846598006,-82.88854054220086,-27.716385,21.130743,0.9225837,49.014362,-14.911972,-0.50082636,-11.857575,-16.030775,-12.866432,21.442923,-13.662917,13.245486,-1.5442446,-0.97246796,12.864422,-15.047177,15.2002535,-34.96484,46.09352,19.201956,-0.2135704,8.399453,-14.083646,-20.789728,36.618073,66.36063,-4.6668696,-5.035492,-0.89901006
55,8.369054794311523,4.863501071929932,76.8025894165039,0.3938090981085654,6.047234301685163,-82.64737165470225,-27.946539,21.169144,0.20607407,48.251232,-14.602421,-0.650158,-12.4243555,-16.750715,-12.745842,22.75847,-14.197568,13.562681,-1.5616364,-1.3514998,12.939146,-15.14697,15.120247,-34.915264,45.4986,19.492405,-0.21064919,8.356172,-13.939001,-20.867355,36.79092,66.19484,-4.8159294,-5.0457907,-0.87242985
56,8.71402359008789,4.8437700271606445,76.64277648925781,0.5524512528756813,6.084400466706602,-82.40269770863732,-28.181702,21.12226,-0.6333795,47.486794,-14.219591,-0.90370375,-12.983434,-17.475826,-12.61319,24.077013,-14.723536,13.909636,-1.5856413,-1.7203481,13.023121,-15.2453,15.042651,-34.845913,44.877083,19.794506,-0.21070497,8.25779,-13.757021,-20.947525,36.882637,66.0055,-4.975223,-5.05915,-0.85526425
57,9.066682815551758,4.8267340660095215,76.46692657470703,0.7049177820411431,6.110626518901653,-82.1489800216084,-28.417158,20.957119,-1.6423342,46.70396,-13.718282,-1.2951301,-13.531484,-18.21289,-12.480014,25.405035,-15.253035,14.287541,-1.6075742,-2.0835266,13.12488,-15.346258,14.965205,-34.757088,44.22466,20.107544,-0.2262806,8.081597,-13.574748,-21.031506,36.937096,65.82284,-5.058572,-5.0824137,-0.8415459
58,9.432205200195312,4.811429023742676,76.27425384521484,0.8536946346204829,6.127245107352089,-81.88513517191903,-28.642855,20.688389,-2.7970765,45.889,-13.132951,-1.8013165,-14.077138,-18.963892,-12.343472,26.759281,-15.790966,14.692521,-1.6334703,-2.4566786,13.238461,-15.439551,14.915838,-34.66875,43.531372,20.431337,-0.25237107,7.846224,-13.403685,-21.086079,36.958447,65.67172,-5.1106095,-5.112062,-0.83604234
59,9.811856269836426,4.794186115264893,76.06475067138672,0.9558992504241246,6.146192811606086,-81.63847070357552,-28.87421,20.424686,-4.031065,45.09637,-12.554559,-2.3759859,-14.617286,-19.649565,-12.187161,28.080671,-16.293762,15.000033,-1.6480305,-2.7679608,13.35407,-15.551466,14.831241,-34.5646,42.84226,20.78856,-0.26856732,7.5911155,-13.204775,-21.188368,36.951496,65.47937,-5.155113,-5.1336837,-0.84303045
60,10.19293212890625,4.781942367553711,75.84249114990234,0.9652420857881281,6.181633079974492,-81.43982288304518,-29.132572,20.278309,-5.2766623,44.377598,-12.069023,-2.9742293,-15.155868,-20.17539,-11.996215,29.314323,-16.718334,15.000033,-1.6169237,-2.9929187,13.456781,-15.674732,14.747346,-34.47768,42.138588,21.16372,-0.2448717,7.356657,-12.987007,-21.29508,36.89059,65.272026,-5.243366,-5.1427383,-0.8799113
61,10.582807540893555,4.766731262207031,75.60604858398438,0.9357962612597539,6.216392941249068,-81.2648282576758,-29.38029,20.172485,-6.5181956,43.694458,-11.671041,-3.6090035,-15.7074,-20.656284,-11.761963,30.553972,-17.10486,15.000033,-1.5641263,-3.1784782,13.565373,-15.811902,14.663411,-34.40607,41.416645,21.578602,-0.16870487,7.150873,-12.765835,-21.409164,36.79304,65.06001,-5.389864,-5.13213,-0.9534605
62,10.989371299743652,4.755393981933594,75.3565902709961,0.8727672645745203,6.249450775825102,-81.10721352963165,-29.617037,20.080074,-7.787278,43.033024,-11.325266,-4.2944584,-16.268179,-21.098507,-11.498852,31.802393,-17.465773,15.000033,-1.4963078,-3.3291771,13.679516,-15.958354,14.578988,-34.342216,40.675125,22.027178,-0.056468192,6.952403,-12.522781,-21.5307,36.63772,64.82931,-5.594283,-5.106972,-1.0552727
63,11.408880233764648,4.7494354248046875,75.09893035888672,0.7725701291326189,6.288858004991872,-80.96949935305032,-29.864983,20.034563,-9.023026,42.450375,-11.053294,-4.9470587,-16.814344,-21.489286,-11.215207,32.99066,-17.786083,15.000033,-1.4162124,-3.443125,13.784794,-16.11187,14.493336,-34.282585,39.925804,22.47002,0.07405219,6.7548923,-12.270777,-21.661213,36.45232,64.58497,-5.7801785,-5.0763226,-1.1756346
64,11.849624633789062,4.748120307922363,74.82991027832031,0.632445075892555,6.34263453476977,-80.8536989279579,-30.1497,20.065462,-10.164513,42.003548,-10.871972,-5.4841714,-17.32191,-21.819792,-10.91819,34.05073,-18.050665,15.000033,-1.3319104,-3.5179453,13.865042,-16.2608,14.405126,-34.21509,39.17461,22.873466,0.20490603,6.551544,-12.00119,-21.800547,36.237118,64.31624,-5.9040823,-5.049773,-1.3048763
65,12.30439281463623,4.743748188018799,74.5553207397461,0.4555554243053166,6.413298774679239,-80.75650134005029,-30.544058,20.203245,-11.171804,41.79781,-10.803139,-5.6528096,-17.821367,-22.094587,-10.576107,35.03152,-18.26385,15.000033,-1.2442589,-3.5567534,13.919878,-16.408342,14.314877,-34.12933,38.402184,23.228899,0.34152925,6.3176894,-11.713299,-21.949966,35.985935,64.01469,-5.94603,-5.0237975,-1.4329734
66,12.765701293945312,4.737112522125244,74.28243255615234,0.24197732836810207,6.496383903637989,-80.67771803156874,-31.01846,20.416636,-12.085881,41.769547,-10.821231,-5.5757117,-18.311737,-22.317835,-10.19917,35.94724,-18.43143,15.000033,-1.1491038,-3.558668,13.957526,-16.55945,14.223233,-34.034477,37.611977,23.554163,0.49002767,6.0645223,-11.421345,-22.110867,35.714737,63.695705,-5.916118,-4.9963646,-1.5676357
67,13.250186920166016,4.732604026794434,74.00559997558594,-0.015207570393205593,6.588692197743904,-80.62395967418593,-31.44883,20.644102,-12.968139,41.73533,-10.88393,-5.7344737,-18.728779,-22.480448,-9.850402,36.688942,-18.544952,15.000033,-1.0540781,-3.517394,13.970228,-16.704268,14.128539,-33.945335,36.84885,23.85204,0.6340051,5.8393784,-11.098243,-22.281034,35.404724,63.349174,-5.878342,-4.9733315,-1.7249337
68,13.759973526000977,4.726962566375732,73.73844146728516,-0.3220556940248756,6.686660321111106,-80.60171230741074,-31.70337,20.831959,-13.871971,41.503963,-10.953079,-6.608207,-19.001486,-22.57821,-9.592591,37.13441,-18.585857,15.000033,-0.960775,-3.4282732,13.95279,-16.836546,14.026282,-33.880795,36.159798,24.127253,0.75756323,5.690603,-10.750407,-22.458488,35.07811,62.993122,-5.847892,-4.961346,-1.9216912
69,14.292746543884277,4.7241058349609375,73.483154296875,-0.6917731542762164,6.791001252596675,-80.6111707210883,-31.70991,20.99327,-14.845519,40.94417,-10.991629,-8.579348,-19.12704,-22.59722,-9.426593,37.285244,-18.580368,15.000033,-0.8640358,-3.2803016,13.897699,-16.962507,13.913916,-33.84479,35.55025,24.366846,0.8506009,5.6418414,-10.357085,-22.641687,34.727024,62.609375,-5.851059,-4.958457,-2.1721206
70,14.86078929901123,4.705587863922119,73.24172973632812,-1.1160659719665764,6.901993129058763,-80.6483242751075,-31.554274,21.160591,-15.8282385,40.1935,-11.057399,-11.297923,-19.134745,-22.54735,-9.320353,37.189808,-18.522388,15.000033,-0.7631578,-3.0804038,13.810168,-17.088829,13.790277,-33.830593,35.004124,24.571661,0.9245573,5.6649084,-9.933662,-22.831038,34.358368,62.208076,-5.8555274,-4.962743,-2.464478
71,15.449838638305664,4.6830973625183105,73.02356719970703,-1.5685470135001536,7.015428476729877,-80.71364494708725,-31.342047,21.309437,-16.710896,39.467964,-11.252945,-14.1449995,-19.003618,-22.46003,-9.281669,36.799194,-18.348635,15.000033,-0.67757297,-2.8493848,13.699075,-17.20282,13.65248,-33.83089,34.53588,24.768005,0.99516577,5.7297997,-9.482988,-23.023207,33.944973,61.80336,-5.8752885,-4.9792867,-2.7754104
72,16.100383758544922,4.673151969909668,72.84319305419922,-1.7836043724513868,7.146110258885677,-80.74596694696518,-31.116144,21.083443,-17.039476,38.93324,-11.604088,-15.000033,-18.804163,-22.667515,-9.204426,36.148186,-18.021975,15.000033,-0.6783965,-2.824617,13.558928,-17.296848,13.498061,-33.84301,34.163357,24.98384,1.0772555,5.8072295,-9.013516,-23.209293,33.465992,61.41315,-5.9104624,-5.01296,-3.083684
73,16.788902282714844,4.649111270904541,72.70350646972656,-1.886139522528606,7.281006800306437,-80.7670382326049,-30.886452,20.58965,-17.13613,38.60999,-12.176427,-15.000033,-18.447817,-23.016115,-9.181885,35.14819,-17.56964,15.000033,-0.75532806,-2.8994682,13.392284,-17.351973,13.318779,-33.853184,33.901745,25.23225,1.1734391,5.9188237,-8.513893,-23.382027,32.898796,61.03945,-5.997266,-5.074852,-3.3915615
74,17.507339477539062,4.644949436187744,72.60015869140625,-2.0587087597831077,7.408558890333252,-80.82483929793182,-30.664873,20.059814,-17.227913,38.461468,-12.96434,-15.000033,-17.883194,-23.272081,-9.281884,33.75997,-16.976557,15.000033,-0.85266316,-2.9022083,13.206426,-17.387016,13.110741,-33.870102,33.752125,25.492958,1.2771157,6.0710835,-7.9871964,-23.540573,32.262455,60.684006,-6.1240983,-5.159249,-3.708051
75,18.27157211303711,4.633032321929932,72.53970336914062,-2.2830617235958486,7.534200508369358,-80.94092468355895,-30.507336,19.586246,-17.181438,38.512966,-13.867076,-15.000033,-17.188845,-23.445066,-9.437918,32.0673,-16.144411,15.000033,-0.943567,-2.848941,13.012123,-17.419651,12.879153,-33.91084,33.684307,25.762787,1.3899952,6.2101603,-7.4591126,-23.685997,31.589306,60.36021,-6.2350717,-5.246219,-4.0204763
76,19.06682014465332,4.621023178100586,72.51822662353516,-2.5391285221496527,7.664751282147479,-81.13455901001183,-30.472334,19.26371,-16.858227,38.782814,-14.768458,-15.000033,-16.446432,-23.552204,-9.582636,30.157145,-14.977472,15.000033,-1.005825,-2.7584047,12.818905,-17.481672,12.638877,-33.99923,33.675915,26.020838,1.5130341,6.282344,-6.9558244,-23.82189,30.909754,60.080948,-6.279215,-5.316467,-4.316317
77,19.87527084350586,4.614654541015625,72.53816986083984,-2.850893056427742,7.798123221364412,-81.41047469250938,-30.606432,19.184536,-16.129236,39.34101,-15.670793,-15.000033,-15.598572,-23.557163,-9.744212,27.92973,-13.427333,15.000033,-1.0459229,-2.6122227,12.633712,-17.547989,12.396248,-34.127186,33.721695,26.283175,1.6579232,6.2816796,-6.4730706,-23.946966,30.217234,59.847248,-6.239091,-5.371046,-4.60903
78,20.697704315185547,4.616077423095703,72.59510803222656,-3.2136202010516572,7.929317746142174,-81.7574821880072,-30.858543,19.284185,-15.0883875,40.145447,-16.612364,-15.000033,-14.619044,-23.467384,-9.935516,25.361204,-11.543888,15.000033,-1.0745323,-2.4162064,12.453771,-17.613405,12.1538105,-34.28867,33.82777,26.54565,1.8197689,6.2327538,-6.0031867,-24.059465,29.503532,59.652374,-6.141955,-5.418804,-4.899284
79,21.54355812072754,4.629449844360352,72.67880249023438,-3.5658522648370514,8.06197239003775,-82.17135099405613,-31.138226,19.423372,-13.930189,41.041126,-17.526606,-15.000033,-13.640443,-23.378078,-10.070754,22.664347,-9.382635,15.000033,-1.0775039,-2.2257578,12.275471,-17.695997,11.921988,-34.492023,33.95101,26.787657,1.9742554,6.1258893,-5.549525,-24.16189,28.78054,59.47572,-6.018336,-5.451967,-5.153998
80,22.428926467895508,4.663057804107666,72.78302001953125,-3.8497633113026546,8.205100738030003,-82.64483580829872,-31.370272,19.453749,-12.853209,41.873383,-18.341177,-15.000033,-12.811059,-23.38584,-10.076334,20.079731,-7.01119,15.000033,-1.045001,-2.0919423,12.092776,-17.816587,11.717279,-34.74741,34.04473,26.981424,2.097189,5.9517374,-5.116978,-24.258856,28.062277,59.293663,-5.8949866,-5.4621916,-5.3398094
81,23.329124450683594,4.704275131225586,72.90582275390625,-4.0583683641278,8.376836629592729,-83.1864805647257,-31.574415,19.338375,-11.917425,42.643036,-19.006498,-15.000033,-12.089381,-23.471188,-9.887778,17.418901,-4.212546,15.000033,-0.97384703,-2.0255358,11.898545,-17.97953,11.552446,-35.077297,34.098793,27.091398,2.1778786,5.6852775,-4.6924295,-24.350895,27.31173,59.09366,-5.788686,-5.430776,-5.449683
82,24.2437801361084,4.74871301651001,73.03858184814453,-4.217237880917189,8.566594588236356,-83.79553584206964,-31.777266,19.150639,-11.01413,43.41966,-19.573345,-15.000033,-11.424719,-23.617157,-9.564425,14.647655,-1.0299324,15.000033,-0.8696193,-2.0067086,11.7045355,-18.163755,11.431376,-35.47167,34.117363,27.138227,2.2311013,5.3378077,-4.2815785,-24.436214,26.537806,58.88512,-5.674152,-5.3673,-5.4996567
83,25.17668914794922,4.80385684967041,73.16988372802734,-4.334853223213937,8.749283677025801,-84.45319403941885,-31.92786,18.916409,-10.095322,44.143444,-20.108759,-15.000033,-11.001064,-23.89587,-9.217274,12.3066,2.0361416,15.000033,-0.74460983,-2.023061,11.520311,-18.344748,11.357219,-35.880985,34.074802,27.182215,2.2699137,4.954136,-3.8952246,-24.520155,25.798943,58.65956,-5.555081,-5.305151,-5.4918556
84,26.148632049560547,4.8778910636901855,73.30350494384766,-4.435904880167629,8.904165928980685,-85.14711663425582,-31.980135,18.679785,-9.117499,44.75067,-20.678604,-15.000033,-11.065416,-24.345287,-8.928365,11.035784,4.4300957,15.000033,-0.6092718,-2.0418189,11.352141,-18.504663,11.333585,-36.25431,33.9475,27.27723,2.3063433,4.580171,-3.5540059,-24.614798,25.166414,58.41568,-5.4252267,-5.278111,-5.428893
85,27.15200424194336,4.941598892211914,73.44011688232422,-4.5090866274255585,9.037761970504697,-85.89003436383734,-31.878483,18.432228,-8.04389,45.1514,-21.308397,-15.000033,-11.833679,-25.045816,-8.616604,11.115641,6.0823674,15.000033,-0.46612325,-2.0611167,11.1877365,-18.634,11.363656,-36.59761,33.70709,27.474682,2.3401031,4.2059526,-3.2523253,-24.7341,24.657394,58.140266,-5.2555637,-5.2955246,-5.294854
86,28.175098419189453,4.997346878051758,73.56441497802734,-4.540588478441153,9.161887585420345,-86.68739959903894,-31.655794,18.149765,-6.8910904,45.387905,-21.954592,-15.000033,-13.190065,-25.93603,-8.196085,12.238913,7.2019577,15.000033,-0.31032544,-2.100636,11.023922,-18.732752,11.448877,-36.92358,33.35864,27.738901,2.3644376,3.812957,-2.983144,-24.882792,24.24196,57.8313,-5.0528264,-5.3381677,-5.092281
87,29.209623336791992,5.058348178863525,73.67285919189453,-4.503367224232762,9.260264468639093,-87.49510475424854,-31.378399,17.785482,-5.666575,45.57829,-22.56973,-14.84316,-14.854423,-26.906322,-7.751323,14.13494,7.6807575,15.000033,-0.16190787,-2.2022858,10.882055,-18.817036,11.593287,-37.199055,32.942513,27.974457,2.3818805,3.4339142,-2.74962,-25.053238,23.909834,57.495033,-4.8749785,-5.396876,-4.8513713
88,30.239051818847656,5.134810924530029,73.76920318603516,-4.327162305665615,9.318291287846437,-88.23795341349383,-31.102674,17.196762,-4.3592014,45.819736,-23.090183,-13.9944315,-16.471457,-27.929243,-7.433792,16.433556,7.4824657,15.000033,-0.07420244,-2.443765,10.785999,-18.881134,11.801026,-37.378227,32.483715,28.105429,2.3965025,3.100805,-2.5676801,-25.229647,23.659346,57.150604,-4.7797346,-5.4635754,-4.60463
89,31.251569747924805,5.222477912902832,73.8455581665039,-4.135688956141104,9.288909599529207,-88.95693070563733,-30.865244,16.595087,-3.072649,46.237488,-23.556128,-13.065667,-17.882654,-28.832762,-7.306958,19.038847,6.4678097,15.000033,-0.016779844,-2.7186885,10.780605,-18.929626,12.079849,-37.44378,31.960493,28.111044,2.4073117,2.8026266,-2.4640026,-25.405964,23.512484,56.80328,-4.776578,-5.5471478,-4.318357
90,32.227569580078125,5.33091926574707,73.89815521240234,-3.9291066565879826,9.18199577069915,-89.65734361027897,-30.621836,15.977487,-1.8025167,46.74766,-23.988106,-12.077436,-19.17861,-29.693102,-7.340672,21.98918,4.781174,15.000033,0.006510353,-3.0162628,10.852249,-18.958387,12.4346895,-37.41759,31.360655,28.031553,2.414367,2.5275145,-2.440573,-25.582516,23.475449,56.460663,-4.833909,-5.6494913,-3.9916422
91,33.167724609375,5.4558916091918945,73.96043395996094,-4.0692919368993286,9.104533438990682,-90.47602839444815,-30.563988,15.776375,-0.7577728,47.398502,-24.443172,-11.172812,-20.324232,-30.071815,-8.085976,24.968008,2.9005868,13.4713745,0.12299425,-3.0051553,10.885713,-18.953985,12.858316,-37.3109,30.729538,27.873878,2.4251213,2.3110316,-2.4787493,-25.755123,23.519066,56.15063,-4.9607267,-5.7542596,-3.7072089
92,34.09246826171875,5.583480358123779,74.02198791503906,-4.266179852489473,9.023711886189735,-91.24019363023841,-30.527554,15.609396,0.17528394,47.99896,-24.872568,-10.298061,-21.285505,-30.400316,-9.241028,28.029303,1.0717632,11.689181,0.20200433,-2.9372654,10.914624,-18.912317,13.338109,-37.14411,30.129879,27.649797,2.4457865,2.1846702,-2.5493162,-25.91035,23.609537,55.897583,-5.157277,-5.84326,-3.5470648
93,35.006378173828125,5.705456256866455,74.07611083984375,-4.452845361285211,8.924515969684263,-91.8921222894268,-30.484764,15.376211,1.0034256,48.520126,-25.26519,-9.435201,-22.043898,-30.821373,-10.8083515,31.306082,-0.74538237,10.133016,0.2021511,-2.8696826,10.953386,-18.853786,13.867768,-36.92632,29.58476,27.328627,2.4800503,2.1711757,-2.659444,-26.039635,23.759918,55.72202,-5.446158,-5.9168763,-3.554692
94,35.91102981567383,5.8246378898620605,74.12246704101562,-4.631246908069743,8.799327504255531,-92.46034820906507,-30.439716,15.095823,1.7532073,49.00309,-25.624434,-8.566281,-22.640259,-31.337011,-12.693588,34.907764,-2.762044,8.74854,0.14186177,-2.8051622,11.008753,-18.792332,14.44683,-36.655384,29.083712,26.908905,2.5233028,2.2499657,-2.821756,-26.14124,23.97832,55.61606,-5.8208714,-5.982272,-3.6813688
95,36.81022644042969,5.939198017120361,74.1585464477539,-4.7959696204665345,8.659103431779023,-92.98103677745897,-30.371794,14.783708,2.4712017,49.430508,-25.953527,-7.6961083,-23.073694,-31.916843,-14.694668,38.65538,-4.853851,7.452032,0.051101744,-2.7536507,11.066193,-18.68514,15.06462,-36.32232,28.623428,26.470884,2.5684564,2.3896027,-3.0108707,-26.210434,24.217909,55.559418,-6.24627,-6.0318465,-3.8706906
96,37.69811248779297,6.038712501525879,74.19789123535156,-4.939733708906007,8.513389865677288,-93.48896534390592,-30.2586,14.451904,3.2038946,49.782738,-26.25375,-6.8299255,-23.338057,-32.5046,-16.625372,42.32895,-6.8695583,6.173577,-0.03488577,-2.7263684,11.111711,-18.521168,15.705488,-35.932846,28.226807,26.074104,2.6112826,2.5592387,-3.2092328,-26.244331,24.434696,55.543762,-6.6800656,-6.0588865,-4.0667357
97,38.58232498168945,6.125225067138672,74.23436737060547,-5.056104577709533,8.359974355811731,-93.98119329795895,-30.091076,14.09179,3.959115,50.05401,-26.522213,-5.9657364,-23.415916,-33.081398,-18.476572,45.905014,-8.807956,4.9142833,-0.11473749,-2.7289646,11.136488,-18.292423,16.355356,-35.48768,27.911303,25.734388,2.6570125,2.777491,-3.398145,-26.238522,24.620548,55.578842,-7.1598067,-6.061948,-4.2981377
98,39.46465301513672,6.196989059448242,74.27128601074219,-5.149177426866831,8.195807447270232,-94.44302562694222,-29.882946,13.697657,4.714485,50.255714,-26.75935,-5.1026397,-23.303125,-33.6595,-20.349138,49.481567,-10.725057,3.7077167,-0.1969401,-2.756127,11.147243,-18.022188,17.007492,-34.99092,27.686735,25.419516,2.7055783,3.0537992,-3.597448,-26.193266,24.797817,55.678143,-7.6862907,-6.043309,-4.5808105
99,40.340023040771484,6.259903430938721,74.3135757446289,-5.226946317331469,8.027291301215218,-94.89037029814097,-29.645878,13.283562,5.470696,50.39143,-26.967146,-4.2476163,-23.024372,-34.208076,-22.231346,53.0066,-12.541094,2.539155,-0.26725978,-2.8013954,11.153076,-17.72382,17.655882,-34.440754,27.549469,25.130379,2.7445421,3.3430102,-3.8029015,-26.112371,24.9394,55.79687,-8.191526,-6.003867,-4.8378143
100,41.21248245239258,6.318515777587891,74.35911560058594,-5.297049092866287,7.860753353637817,-95.33899393073038,-29.393127,12.862882,6.228646,50.466263,-27.146894,-3.4075758,-22.604897,-34.702835,-24.111643,56.425274,-14.176388,1.3913615,-0.3096864,-2.8581424,11.164259,-17.418446,18.295116,-33.84068,27.500893,24.862219,2.7622051,3.6000824,-4.007444,-26.004154,25.015865,55.88706,-8.607427,-5.9462943,-4.991744
101,42.077781677246094,6.372215747833252,74.40595245361328,-5.360913526184294,7.692718793896246,-95.79139804708838,-29.120338,12.437257,6.994521,50.47419,-27.295206,-2.582591,-22.019543,-35.188866,-26.06922,59.77009,-15.5968895,0.22236517,-0.31467474,-2.9210644,11.187733,-17.107283,18.919048,-33.182133,27.542019,24.63398,2.7471828,3.8032753,-4.2040615,-25.873117,25.00029,55.936092,-8.928764,-5.855736,-5.0027227
102,42.939945220947266,6.431476593017578,74.44667053222656,-5.413911539145774,7.520579629661906,-96.23831577599087,-28.824688,11.997207,7.765316,50.414665,-27.409029,-1.7697226,-21.246326,-35.65543,-28.104671,63.049,-16.851273,-0.9566796,-0.28992802,-2.9932146,11.218129,-16.789124,19.523026,-32.47136,27.682968,24.437315,2.7089157,3.9801402,-4.3862486,-25.721148,24.906963,55.95823,-9.189966,-5.7376013,-4.916764
103,43.7984619140625,6.498019218444824,74.48128509521484,-5.455140667482844,7.352342327115239,-96.67850262081093,-28.523746,11.540155,8.529638,50.3026,-27.49048,-0.97109425,-20.352737,-35.99191,-30.066078,66.18278,-17.969343,-2.0724607,-0.2439093,-3.079157,11.248804,-16.445047,20.10235,-31.720615,27.906277,24.253576,2.6667306,4.1590548,-4.560147,-25.552593,24.779001,55.95538,-9.367943,-5.6256394,-4.7852106
104,44.64518737792969,6.5615668296813965,74.51245880126953,-5.484184078346159,7.196968097747967,-97.11149657386642,-28.235529,11.06519,9.275685,50.152775,-27.541155,-0.18883778,-19.434254,-36.082424,-31.793488,69.0882,-18.972162,-3.0397878,-0.18406592,-3.1823406,11.274876,-16.105572,20.65654,-30.960808,28.230062,24.032845,2.640741,4.3687377,-4.7545896,-25.376032,24.676414,55.946903,-9.422973,-5.5527573,-4.6607018
105,45.48028564453125,6.6264519691467285,74.542236328125,-5.4967360867404835,7.056612607134232,-97.53889999804835,-27.963764,10.569717,10.00367,49.963566,-27.56237,0.57207566,-18.530989,-35.927174,-33.2813,71.78676,-19.8619,-3.884797,-0.10640671,-3.3074734,11.295635,-15.71523,21.18177,-30.168386,28.610512,23.806353,2.635177,4.6243896,-4.966437,-25.19176,24.587168,55.923824,-9.277151,-5.5301356,-4.5320516
106,46.30913162231445,6.6934943199157715,74.56880950927734,-5.49405860644669,6.9272800315341785,-97.9606672499363,-27.703598,10.055439,10.719295,49.731083,-27.550718,1.3146373,-17.627598,-35.570026,-34.59478,74.30945,-20.611872,-4.6251736,-0.01284692,-3.4497404,11.313974,-15.343135,21.679777,-29.359016,29.107952,23.545137,2.6389182,4.908853,-5.178322,-25.00001,24.485842,55.873024,-8.980034,-5.538289,-4.3799276
107,47.13740158081055,6.756757736206055,74.59404754638672,-5.484566548090692,6.809156813048493,-98.37409605650136,-27.4588,9.528733,11.420082,49.463932,-27.499805,2.0487273,-16.760632,-34.9554,-35.678436,76.57867,-21.185972,-5.1523395,0.096177846,-3.6013618,11.325815,-14.916895,22.144821,-28.520624,29.652725,23.296295,2.6491177,5.1977105,-5.4067,-24.806652,24.422354,55.822342,-8.653906,-5.564675,-4.240845
108,47.953548431396484,6.820118427276611,74.61662292480469,-5.480254543168566,6.702848725021642,-98.77627421403147,-27.237822,9.000049,12.100878,49.17982,-27.409124,2.7839093,-15.972579,-34.021297,-36.483227,78.51533,-21.545626,-5.3532786,0.21085282,-3.74697,11.330244,-14.479016,22.575113,-27.677122,30.271812,23.036604,2.6622925,5.468136,-5.678772,-24.622772,24.45797,55.803074,-8.417927,-5.597602,-4.1529946
109,48.77309799194336,6.884470462799072,74.63615417480469,-5.47887744844133,6.616555248349922,-99.17162823287615,-27.045246,8.471937,12.774286,48.873814,-27.27524,3.519497,-15.319094,-32.722248,-36.958862,80.10651,-21.708296,-5.2099457,0.3294043,-3.8866544,11.323872,-14.065419,22.96816,-26.825777,31.007849,22.722433,2.6773121,5.7153163,-5.9861965,-24.454483,24.599272,55.79995,-8.2974,-5.646184,-4.131106
110,49.58385467529297,6.950528144836426,74.65780639648438,-5.4769705330671155,6.5484653400027195,-99.5613550991626,-26.878149,7.9417934,13.440343,48.541218,-27.099192,4.251619,-14.794147,-31.093355,-37.155495,81.38954,-21.678555,-4.76027,0.46007836,-4.024316,11.306443,-13.611852,23.319223,-25.943626,31.804932,22.401354,2.695777,5.949821,-6.320965,-24.301727,24.821812,55.804634,-8.22129,-5.7128158,-4.1519194
111,50.39731979370117,7.016939163208008,74.68093872070312,-5.479633281288251,6.483543305060364,-99.93858038264551,-26.722662,7.4068837,14.081862,48.184513,-26.881968,4.9857554,-14.343765,-29.196608,-37.17024,82.351295,-21.401546,-3.9735832,0.60209936,-4.153177,11.282163,-13.071589,23.62757,-25.043879,32.594696,22.148203,2.7180333,6.172384,-6.6784997,-24.16453,25.116116,55.82613,-8.194858,-5.775798,-4.196402
112,51.21522521972656,7.091037273406982,74.69957733154297,-5.492182777913604,6.407040731820324,-100.29660531229696,-26.564756,6.8647666,14.680964,47.80765,-26.625792,5.7270355,-13.910876,-27.091423,-37.09025,82.97428,-20.8267,-2.8185613,0.7425857,-4.2623053,11.265031,-12.585921,23.905203,-24.209738,33.468052,21.92944,2.7449114,6.3872795,-7.0640035,-24.044285,25.479082,55.87008,-8.226183,-5.8129673,-4.2478228
113,52.027278900146484,7.1611151695251465,74.72174835205078,-5.516616479176666,6.316261367847115,-100.63177702600083,-26.398848,6.3092046,15.222249,47.402405,-26.336857,6.4778657,-13.492513,-24.740849,-36.901352,83.237854,-19.914284,-1.2297795,0.88432914,-4.352781,11.256962,-12.090929,24.154087,-23.41809,34.38094,21.769226,2.7778513,6.6063128,-7.4697704,-23.940912,25.911903,55.93195,-8.350641,-5.8144107,-4.3122487
114,52.840538024902344,7.2310791015625,74.74603271484375,-5.549660372379497,6.219813214087493,-100.950516878837,-26.233007,5.745259,15.722244,46.970642,-26.013155,7.235114,-13.122864,-22.112438,-36.563168,83.14818,-18.737232,0.77658385,1.035654,-4.42933,11.252536,-11.558356,24.373285,-22.646006,35.31293,21.66557,2.8167262,6.8236785,-7.9124303,-23.85432,26.427929,56.021965,-8.537415,-5.7929587,-4.3952246
115,53.658050537109375,7.300002098083496,74.77039337158203,-5.587642323506078,6.118880293040622,-101.26075137255474,-26.071272,5.184733,16.212503,46.527576,-25.642767,7.9961147,-12.799356,-19.280085,-36.113712,82.73375,-17.40945,3.1010096,1.192701,-4.491831,11.248639,-11.096042,24.571968,-21.949633,36.321365,21.593023,2.861115,7.015928,-8.371512,-23.781986,26.99133,56.119324,-8.747922,-5.761313,-4.4765244
116,54.468101501464844,7.369675636291504,74.80155944824219,-5.625030732201706,6.014086416797105,-101.57002288534939,-25.916933,4.6377244,16.725674,46.087505,-25.212189,8.758696,-12.516734,-16.324055,-35.58324,82.024284,-16.031923,5.6426864,1.3786919,-4.5497384,11.231215,-10.549902,24.748629,-21.291965,37.231308,21.670399,2.9111114,7.1562443,-8.821044,-23.719337,27.558683,56.217125,-8.926803,-5.7332325,-4.532638
117,55.28042221069336,7.442615032196045,74.83378601074219,-5.670954657302117,5.900777275177808,-101.86541304920266,-25.765373,4.111013,17.25079,45.64834,-24.729708,9.52669,-12.230204,-13.214793,-34.992374,80.98277,-14.555086,8.455667,1.5849587,-4.595406,11.202723,-9.930052,24.905867,-20.68513,38.064713,21.93697,2.9793203,7.2419944,-9.263963,-23.664396,28.14789,56.322166,-9.0606365,-5.7119246,-4.5597863
118,56.09632110595703,7.523862838745117,74.8697280883789,-5.722039794812711,5.779776543153095,-102.1478074545742,-25.614704,3.596003,17.78117,45.20335,-24.198412,10.300575,-11.947224,-9.923702,-34.296482,79.60376,-12.995519,11.57314,1.7901059,-4.6282134,11.178469,-9.465002,25.057814,-20.20837,39.03468,22.238115,3.0627432,7.288619,-9.723696,-23.619072,28.778492,56.434517,-9.185274,-5.6902213,-4.571824
119,56.91078186035156,7.600936412811279,74.90602111816406,-5.752532258957567,5.657934001841417,-102.44218487305626,-25.47186,3.0772767,18.354378,44.75608,-23.59395,11.073688,-11.712401,-6.5589,-33.45115,77.97061,-11.535993,14.835894,2.0348668,-4.6765842,11.144048,-8.916599,25.195938,-19.758606,39.88579,22.621023,3.1359894,7.2895823,-10.18305,-23.579855,29.398062,56.547623,-9.2936945,-5.6670218,-4.5671234
120,57.6795654296875,7.720766067504883,74.94468688964844,-6.092501683918312,5.7296164438536525,-103.11047160642883,-25.770658,3.1585803,19.006443,44.73879,-23.067345,11.726758,-11.474352,-3.3545058,-33.451263,76.0317,-10.13722,15.000033,2.5979013,-4.4692206,10.873184,-8.331047,25.321312,-19.335106,40.62457,22.979506,3.1735563,7.2429433,-10.621865,-23.545172,29.953623,56.63536,-9.418474,-5.6401196,-4.5480175
121,58.45486068725586,7.8483452796936035,74.97960662841797,-6.416524041519594,5.827463926912664,-103.87024647612685,-26.134014,3.2991838,19.757292,44.781555,-22.479666,12.36081,-11.312912,-0.1452205,-33.264954,73.85261,-8.963128,15.000033,3.262907,-4.282139,10.547584,-7.7146754,25.437857,-18.95512,41.256145,23.339607,3.1662002,7.132394,-11.043466,-23.514322,30.453852,56.706482,-9.55497,-5.6069975,-4.500974
122,59.2338981628418,7.985236644744873,75.00971221923828,-6.670259020469781,5.909481911973583,-104.64075995439921,-26.483917,3.394922,20.585304,44.813362,-21.805635,12.996458,-11.147221,3.055631,-32.848434,71.43664,-7.9641967,15.000033,3.961936,-4.161444,10.222437,-7.075483,25.54765,-18.625196,41.803337,23.723299,3.12739,6.9649973,-11.459467,-23.48786,30.921371,56.771103,-9.691963,-5.5694656,-4.4298587
123,60.02806854248047,8.12627124786377,75.03997802734375,-6.823278516759712,5.955555396260516,-105.37585381807867,-26.798004,3.3894415,21.48013,44.826443,-21.007612,13.640116,-10.934281,6.059865,-32.219925,68.91881,-7.047757,15.000033,4.636733,-4.1192937,9.944285,-6.4114122,25.644865,-18.315435,42.24805,24.05013,3.0663123,6.7740936,-11.855993,-23.466297,31.314476,56.804375,-9.844661,-5.532369,-4.362252
124,60.84577560424805,8.260417938232422,75.07180786132812,-6.8616403817573115,5.955741369235455,-106.04178042390029,-27.07032,3.245925,22.430342,44.819435,-20.049355,14.294629,-10.650008,8.677526,-31.430315,66.43768,-6.0816207,15.000033,5.249451,-4.1508174,9.754372,-5.7334104,25.719599,-18.006218,42.577396,24.239891,2.9935105,6.5944204,-12.2787075,-23.454369,31.641417,56.83023,-9.964801,-5.5007744,-4.3264594
125,61.68301773071289,8.398996353149414,75.1014175415039,-6.81259519086493,5.91463410560849,-106.6803723442247,-27.308594,3.0195355,23.465897,44.81059,-18.945097,14.994365,-10.295154,10.964382,-30.474888,63.936947,-4.973746,15.000033,5.850227,-4.230465,9.638869,-5.0598645,25.759722,-17.723751,42.80676,24.278671,2.915716,6.4395924,-12.691211,-23.45522,31.857115,56.818607,-10.091426,-5.4702473,-4.325435
126,62.52716064453125,8.541762351989746,75.13909149169922,-6.753348660850035,5.807870535895381,-107.35128122116308,-27.504534,2.883313,24.50599,44.89076,-17.759865,15.000033,-9.806293,13.102487,-29.318476,61.277695,-3.727351,15.000033,6.4935017,-4.2963786,9.595162,-4.29241,25.772488,-17.42427,42.860588,24.245363,2.8249815,6.286556,-13.086112,-23.465645,31.981438,56.771317,-10.229721,-5.4398093,-4.3459215
127,63.406585693359375,8.68417739868164,75.17498779296875,-6.621520227779839,5.677441070754109,-107.95295500962837,-27.703846,2.6361094,25.537003,44.955864,-16.406702,15.000033,-9.2499,14.860097,-28.062574,58.66697,-2.4239233,15.000033,7.052718,-4.3871036,9.6240225,-3.600385,25.760328,-17.148033,42.893436,24.058342,2.7162604,6.129651,-13.516758,-23.491098,32.06919,56.728607,-10.329981,-5.4195724,-4.3923388
128,64.32505798339844,8.822970390319824,75.21166229248047,-6.428380187024689,5.529039367915857,-108.44011389017572,-27.929407,2.2490234,26.496094,44.995407,-14.856289,15.000033,-8.652692,16.114712,-26.816088,56.23437,-1.088224,15.000033,7.488703,-4.4755435,9.729726,-2.9060197,25.707884,-16.839056,42.838978,23.763447,2.5823212,5.9602795,-14.0159645,-23.544289,32.164997,56.73231,-10.324395,-5.419643,-4.4656053
129,65.28411102294922,8.966941833496094,75.24480438232422,-6.203254655435389,5.372247391535035,-108.85110373259495,-28.176067,1.7893938,27.479382,45.011448,-13.133277,15.000033,-8.03201,16.735361,-25.760696,53.92841,0.5995576,15.000033,7.818217,-4.5168424,9.886718,-2.1476598,25.577694,-16.453041,42.649742,23.332628,2.4090884,5.7794275,-14.475359,-23.642048,32.17989,56.690296,-10.302945,-5.441128,-4.58206
130,66.28661346435547,9.110574722290039,75.26576232910156,-5.941000380173244,5.210913843368707,-109.20795083798843,-28.445066,1.2608995,28.491344,45.000515,-11.239885,15.000033,-7.446041,16.82953,-24.860111,51.750076,2.5279136,15.000033,8.098926,-4.530969,10.098101,-1.4493067,25.385784,-16.087698,42.417496,22.739664,2.208642,5.596816,-15.015581,-23.778873,32.194427,56.703278,-10.157815,-5.480315,-4.7364073
131,67.3160171508789,9.2503080368042,75.27301025390625,-5.604000981556296,5.042891200642848,-109.44111775915962,-28.772024,0.54841536,29.340527,44.949406,-9.116274,15.000033,-6.994585,16.612547,-23.895124,49.958412,3.9941528,15.000033,8.252146,-4.5533776,10.340504,-0.7374231,25.132988,-15.710088,42.124832,22.138712,2.0035102,5.4046636,-15.46921,-23.953478,32.111183,56.654655,-10.04948,-5.534479,-4.8888044
132,68.36636352539062,9.404228210449219,75.27774810791016,-5.157416317738108,4.871038369271645,-109.48384936897182,-29.196512,-0.45656264,29.85139,44.835922,-6.6983714,15.000033,-6.7563934,16.259289,-22.644604,48.817253,4.354952,15.000033,8.23356,-4.6246777,10.623131,-0.1203177,24.837755,-15.380505,41.879974,21.616638,1.8196566,5.204675,-15.939376,-24.173338,32.041435,56.635406,-9.881347,-5.6020594,-5.0027337
133,69.45011901855469,9.549422264099121,75.26663208007812,-4.548375681088289,4.669362805228151,-109.29452023036283,-29.725664,-1.839516,30.00181,44.696068,-3.9151723,15.000033,-6.8390164,15.754061,-20.799173,48.638718,3.3461351,15.000033,8.002603,-4.787665,10.977708,0.48727933,24.49659,-15.056688,41.608788,21.173512,1.6573489,5.002593,-16.360899,-24.438454,31.918282,56.587414,-9.690432,-5.6912627,-5.078082
134,70.5688705444336,9.699634552001953,75.20895385742188,-4.020840656896929,4.547313510380819,-109.11178705452109,-30.58951,-3.1214235,29.92625,44.845802,-0.9737147,15.000033,-7.2311463,15.059103,-18.976492,49.146942,1.5806994,14.081124,7.7656975,-4.8419156,11.249619,1.1000994,24.109758,-14.728346,41.283527,20.770863,1.5052218,4.794358,-16.748827,-24.748672,31.74587,56.516388,-9.466618,-5.7993493,-5.1289196
135,71.6394271850586,9.908174514770508,75.08426666259766,-3.9329147078437474,4.59555678286541,-109.18212187616469,-32.06135,-3.7266774,29.351671,45.708786,1.7344847,14.021879,-7.5340824,14.118205,-19.076195,49.571243,-0.4539232,7.6366982,7.7181306,-4.5152874,11.293185,1.5418606,23.710814,-14.468401,41.07067,20.43083,1.3690155,4.564836,-17.124706,-25.101551,31.580086,56.443226,-9.246158,-5.9079056,-5.139775
136,72.69216918945312,10.107038497924805,74.929931640625,-3.930075004891001,4.542654177081881,-109.30209992395656,-33.473003,-4.5330567,27.976759,46.40481,4.285069,10.988043,-7.5310736,13.357529,-19.276964,49.701546,-2.8375018,2.5645077,7.755575,-4.094139,11.400318,1.9379927,23.323433,-14.255168,40.85932,20.313808,1.2497144,4.296857,-17.443445,-25.492884,31.417164,56.36364,-9.089795,-6.001169,-5.0979724
137,73.74861145019531,10.305913925170898,74.73661804199219,-3.888402632212859,4.4352731658142,-109.34082123734959,-34.793755,-5.9937086,25.649046,46.55719,6.859418,6.068766,-7.16394,12.541897,-19.746563,49.49551,-5.767468,-0.7065068,7.7580094,-3.6909823,11.534839,2.384289,22.950438,-14.054494,40.556725,20.533722,1.1416705,3.93067,-17.692265,-25.927155,31.24754,56.267384,-9.042155,-6.0755706,-4.967491
138,74.79359436035156,10.500600814819336,74.50700378417969,-3.8121146168077797,4.284924433507077,-109.30445662185653,-36.045425,-8.065528,22.475237,46.4205,9.161435,-0.4339429,-6.5467463,11.655026,-20.377298,49.135323,-9.2697525,-2.8782082,7.6762195,-3.296334,11.731083,2.5124571,22.618002,-13.975029,40.48808,20.834764,1.045068,3.5006156,-17.92396,-26.405254,31.093851,56.146336,-9.068086,-6.1392274,-4.769667
139,75.81742095947266,10.692825317382812,74.24866485595703,-3.720329034380423,4.126070342109296,-109.22473560465296,-37.158005,-10.204784,19.272488,46.472797,10.652619,-7.327087,-5.867987,10.767191,-21.031273,48.69944,-12.883128,-4.287111,7.587033,-2.929122,11.936345,2.6962757,22.321022,-13.916368,40.3237,21.275251,0.96510965,3.1012168,-18.096537,-26.915874,30.933928,56.025463,-9.07677,-6.197061,-4.562944
140,76.82861328125,10.877100944519043,73.97666931152344,-3.643336157409589,4.0031150347056474,-109.12680951538421,-38.16889,-11.769621,16.930283,47.13689,11.1819,-13.30511,-5.3425026,9.955837,-21.579042,48.290386,-16.156548,-5.293008,7.4666862,-2.5800507,12.128499,2.7000408,22.089203,-13.959422,40.294502,21.614326,0.914799,2.8414297,-18.213467,-27.436922,30.780636,55.908623,-9.029302,-6.2517014,-4.4139905
141,77.83734893798828,11.054910659790039,73.68464660644531,-3.556518150212183,3.947968763536312,-108.94288315444565,-38.942207,-12.029253,17.075716,48.37097,11.163118,-15.000033,-5.046002,9.107908,-22.123442,48.003098,-19.089495,-5.8148804,7.2782297,-2.269553,12.269001,2.5888855,21.944422,-14.121848,40.327694,21.856415,0.9070743,2.7400277,-18.33081,-27.962444,30.696262,55.85543,-8.84887,-6.315062,-4.3272853
142,78.87924194335938,11.223848342895508,73.38624572753906,-3.232759198999879,4.015426345564146,-108.46433684064911,-39.53836,-11.688876,18.790823,49.71237,11.108881,-15.000033,-5.025057,7.8177376,-22.890879,48.05659,-22.031767,-5.6756907,6.793788,-2.2120762,12.334108,2.364747,21.882547,-14.391655,40.42188,22.04452,0.935464,2.7407026,-18.433796,-28.494812,30.658173,55.849636,-8.598746,-6.383589,-4.269622
143,79.88932037353516,11.4054536819458,73.11951446533203,-2.985203244149994,4.111014459895523,-108.02433360572962,-40.215614,-10.8710985,20.562489,51.57788,10.685624,-15.000033,-5.0760655,6.6349573,-23.591265,48.05414,-24.637749,-5.2606897,6.3309193,-2.1320024,12.386704,2.0306864,21.889994,-14.698681,40.59615,22.193209,0.9795259,2.8334465,-18.420258,-29.00834,30.541388,55.812187,-8.379726,-6.43569,-4.2605405
144,80.85148620605469,11.593171119689941,72.89060974121094,-2.8097914089102365,4.186775920401753,-107.734610916939,-40.984745,-9.756727,21.844097,53.887035,9.763368,-15.000033,-5.2023497,5.627227,-23.995861,48.05767,-26.853216,-4.8397064,6.001171,-2.0398958,12.494598,1.6526219,21.940376,-14.965917,40.80367,22.346748,1.0217375,3.0097759,-18.35103,-29.472706,30.342737,55.819393,-8.168955,-6.452051,-4.315254
145,81.74344635009766,11.779830932617188,72.70828247070312,-2.750719009547707,4.205437503176387,-107.69310422415383,-41.85847,-8.314968,22.40509,56.721046,8.029974,-15.000033,-5.37001,4.911617,-23.962996,47.97429,-28.629726,-4.4596195,5.8679576,-1.9018563,12.683195,1.2082597,22.02579,-15.187391,41.111027,22.463444,1.0448904,3.3248813,-18.208025,-29.862946,30.049095,55.88213,-8.004164,-6.4336977,-4.468789
146,82.6023178100586,11.961130142211914,72.56539154052734,-2.8028644260548465,4.174155581186014,-107.84378219579929,-42.752842,-6.53325,22.463638,59.95481,5.619644,-15.000033,-5.572836,4.4378705,-23.618153,47.805256,-30.008867,-3.9959884,5.889072,-1.7133518,12.949435,0.61273843,22.156446,-15.421713,41.566116,22.516563,1.0648568,3.7698596,-18.116846,-30.168173,29.755554,56.098545,-7.808883,-6.3892617,-4.706655
147,83.43601989746094,12.137848854064941,72.45890808105469,-2.8820792807781976,4.106272762285949,-108.06741471737112,-43.561913,-4.6409197,22.175425,63.21192,3.0404844,-15.000033,-5.857295,4.0217447,-23.10855,47.760044,-31.083946,-3.4698558,5.9598465,-1.5413272,13.25518,0.05504097,22.30832,-15.57731,41.974957,22.652369,1.1105769,4.2312646,-17.951553,-30.384077,29.376877,56.357204,-7.6751456,-6.3144565,-4.974912
148,84.26229095458984,12.305193901062012,72.37208557128906,-2.8901540140584174,4.027406400174592,-108.23281011112063,-44.21182,-2.8774137,21.724602,66.147484,0.79056007,-15.000033,-6.285466,3.4528568,-22.582315,48.066216,-31.959242,-2.9061408,5.957423,-1.4539906,13.583728,-0.52023304,22.461092,-15.653892,42.349552,22.909817,1.214054,4.6040998,-17.701395,-30.513885,28.902077,56.61772,-7.6289744,-6.202344,-5.218626
149,85.09593963623047,12.484221458435059,72.29694366455078,-2.773505596566423,3.938352018041869,-108.33576184355447,-44.706474,-1.3023272,21.158886,68.72779,-1.0453738,-15.000033,-6.9475517,2.6537156,-21.976778,48.912815,-32.648483,-2.3203983,5.874205,-1.4971393,13.953913,-1.1002072,22.594463,-15.611651,42.68848,23.384659,1.4022276,4.8585467,-17.374744,-30.549778,28.29334,56.8922,-7.7107043,-6.02284,-5.462152
150,85.94051361083984,12.655668258666992,72.23808288574219,-2.5348066965422236,3.857461921013524,-108.374826987164,-45.10498,0.14406024,20.45292,71.07827,-2.6899738,-15.000033,-7.851582,1.6459463,-21.263727,50.219746,-33.150898,-1.7062193,5.698087,-1.6736093,14.34051,-1.7056023,22.705595,-15.478637,43.034954,24.016777,1.6537691,5.053193,-16.9937,-30.490297,27.5876,57.21228,-7.891741,-5.7882586,-5.720517
151,86.80789184570312,12.80827808380127,72.19413757324219,-2.1611799649771464,3.8338333497098565,-108.24011485256057,-45.331722,1.7157092,20.174562,73.14088,-4.114022,-13.569922,-8.924336,0.36251375,-20.614431,51.804497,-33.541,-1.0413167,5.3497562,-1.9813168,14.66367,-2.3244731,22.799583,-15.322796,43.349575,24.673328,1.9260943,5.212153,-16.57237,-30.35428,26.874956,57.57722,-8.082187,-5.554543,-5.922585
152,87.68247985839844,12.941324234008789,72.16915130615234,-1.819134486846951,3.837534918526175,-107.98607120957065,-45.44442,3.4408808,20.027597,74.99938,-5.457326,-11.194909,-9.92383,-0.95091337,-20.137478,53.241806,-33.770264,-0.36409074,4.9095488,-2.2604985,14.892214,-2.9027379,22.88633,-15.190842,43.55862,25.239769,2.1747437,5.3600035,-16.057657,-30.175428,26.210934,57.924538,-8.21672,-5.378828,-6.0005126
153,88.5603256225586,13.054910659790039,72.16886901855469,-1.5149648045856354,3.880597744346606,-107.56765577388792,-45.55179,5.098238,19.659777,76.64889,-6.7587543,-8.683637,-10.817487,-2.3137188,-19.92998,54.51912,-33.81417,0.32305783,4.3367095,-2.5003088,15.026706,-3.537432,22.978827,-15.13395,43.72353,25.663198,2.3952985,5.4850755,-15.449074,-29.974344,25.596872,58.233547,-8.256838,-5.2746925,-5.9170465
154,89.43497467041016,13.14986801147461,72.19242095947266,-1.2203765728740208,3.9498385648953445,-107.02142613631646,-45.658077,6.6842804,19.093681,78.100624,-8.014882,-6.0614295,-11.660875,-3.7424483,-19.883003,55.75826,-33.672695,1.0262842,3.6654243,-2.729887,15.103805,-4.2313075,23.076576,-15.124647,43.85156,26.006481,2.6069274,5.579215,-14.75485,-29.75384,24.998121,58.507126,-8.231404,-5.2115064,-5.711097
155,90.30667877197266,13.220447540283203,72.23786926269531,-0.9526775726667818,4.023302008569923,-106.42809408069766,-45.71595,8.321922,18.461191,79.370155,-9.214558,-3.3871188,-12.421672,-5.1474876,-19.868595,56.86372,-33.402992,1.7563714,2.9848833,-2.9403033,15.11314,-4.7386527,23.159056,-15.070243,43.743694,26.349968,2.8010085,5.673631,-13.907248,-29.5214,24.390558,58.70035,-8.196312,-5.1797347,-5.426291
156,91.1803207397461,13.277748107910156,72.29991912841797,-0.7314956189188878,4.080310528086289,-105.86965378858646,-45.67247,10.144246,17.897402,80.47119,-10.348487,-0.71493655,-13.077821,-6.43594,-19.764044,57.741966,-33.060806,2.518768,2.3494077,-3.105488,15.107699,-5.3823094,23.233812,-15.089023,43.687912,26.50611,2.9764628,5.813248,-13.052001,-29.291824,23.883486,58.894623,-8.114649,-5.166012,-5.110842
157,92.0537109375,13.315157890319824,72.37593078613281,-0.5525640814214644,4.113741002138282,-105.33224240751348,-45.50931,12.216985,17.463655,81.42546,-11.42996,2.0030115,-13.6324835,-7.611214,-19.548635,58.404106,-32.62697,3.3305929,1.775389,-3.2265584,15.07596,-6.0027575,23.288893,-15.134169,43.534447,26.520817,3.1168664,6.0183,-12.120364,-29.075813,23.461313,59.049557,-7.9584975,-5.1777506,-4.72466
158,92.92639923095703,13.334671974182129,72.4659652709961,-0.411006117408715,4.135211018136952,-104.78537786273496,-45.27132,14.469844,17.093342,82.21937,-12.492581,4.771867,-14.0927,-8.709302,-19.288189,58.890865,-32.08963,4.18886,1.2274489,-3.3032506,15.012777,-6.6149325,23.32156,-15.205494,43.29694,26.416107,3.2289336,6.2665033,-11.099379,-28.876833,23.103487,59.1541,-7.7348413,-5.215745,-4.2582088
159,93.79911804199219,13.341142654418945,72.56588745117188,-0.32352506071272397,4.151983618587352,-104.2853469939969,-44.993843,16.82929,16.735378,82.81772,-13.532796,7.473542,-14.450248,-9.689696,-18.993982,59.154892,-31.511374,5.0598044,0.7346071,-3.3269782,14.924138,-7.2067194,23.331627,-15.27993,42.98739,26.250631,3.3391397,6.524861,-10.042868,-28.689983,22.796764,59.250195,-7.524216,-5.2613115,-3.800565
160,94.66492462158203,13.33283805847168,72.68146514892578,-0.30578562184601477,4.172254710117179,-103.88836273964722,-44.70767,19.221928,16.33919,83.187935,-14.51827,9.992658,-14.700552,-10.515657,-18.679863,59.149334,-30.950092,5.904597,0.3254381,-3.292695,14.811157,-7.7214413,23.31818,-15.315369,42.57954,26.103445,3.4743495,6.7591205,-9.006988,-28.503454,22.529522,59.387447,-7.408202,-5.2977943,-3.4423172
161,95.5280990600586,13.314847946166992,72.80378723144531,-0.3810268624501551,4.197164011257446,-103.62090360688853,-44.396637,21.770224,15.9705305,83.355484,-15.42777,12.376807,-14.832296,-11.146023,-18.34987,58.829155,-30.415316,6.714681,0.02090196,-3.1785963,14.674021,-8.19805,23.283962,-15.306651,42.09173,25.9555,3.651132,6.956499,-8.00669,-28.314194,22.330433,59.57852,-7.425964,-5.328361,-3.1948893
162,96.39065551757812,13.280638694763184,72.93798065185547,-0.5337854022021091,4.223448876999863,-103.44960028151321,-44.05775,24.467628,15.650307,83.327835,-16.267971,14.659365,-14.853029,-11.614828,-18.00364,58.231342,-29.87443,7.5066123,-0.19920552,-2.9979508,14.50843,-8.610743,23.22922,-15.256859,41.499054,25.794949,3.8520155,7.1360354,-7.018374,-28.122805,22.20088,59.810493,-7.5291047,-5.360784,-3.0158422
163,97.21749114990234,13.22757625579834,73.07473754882812,-0.8774034291781592,4.174710140427411,-103.46996100029406,-43.767803,26.978067,14.60203,83.11099,-17.047796,15.000033,-14.672528,-11.742736,-17.638649,57.32664,-29.28263,8.216691,-0.26469362,-2.663752,14.388425,-8.972189,23.159624,-15.195688,40.86076,25.63045,4.054655,7.313943,-6.0619373,-27.921795,22.102783,60.09821,-7.6685467,-5.3858356,-2.917727
164,98.0307388305664,13.16164779663086,73.2149429321289,-1.3337111760967388,4.067833435743378,-103.61459124291987,-43.481667,29.294006,13.265843,82.63599,-17.70746,15.000033,-14.3593855,-11.67733,-17.253677,56.23297,-28.638155,8.867621,-0.2374838,-2.2427304,14.309065,-9.261469,23.080654,-15.145831,40.202454,25.487247,4.236558,7.505864,-5.17119,-27.699045,22.00495,60.472805,-7.783164,-5.3942447,-2.9134207
165,98.85694122314453,13.078655242919922,73.3600082397461,-1.746307761438603,3.989476640548518,-103.75334190447984,-43.214096,31.274725,11.853057,81.80475,-18.152235,15.000033,-14.027358,-11.654167,-16.864042,55.046757,-28.006668,9.502808,-0.26380172,-1.8884038,14.176755,-9.480204,22.99711,-15.105521,39.53332,25.344296,4.3994274,7.739462,-4.278593,-27.43846,21.864914,60.889004,-7.9481063,-5.3857403,-3.0430017
166,99.69837951660156,12.992745399475098,73.50584411621094,-2.136770030642484,3.9375294938611214,-103.90353649535987,-42.93917,33.03072,10.408625,80.66661,-18.392786,15.000033,-13.662575,-11.634313,-16.472105,53.727436,-27.377184,10.127311,-0.31274018,-1.5802556,13.996371,-9.654531,22.913303,-15.077485,38.850697,25.18831,4.5535064,7.999207,-3.4224756,-27.137775,21.725136,61.378864,-8.152965,-5.364174,-3.2902849
167,100.55060577392578,12.897415161132812,73.65607452392578,-2.471381111762473,3.917315422944072,-104.03025817626913,-42.645023,34.45712,8.972541,79.27877,-18.463482,15.000033,-13.292874,-11.692047,-16.09676,52.336475,-26.715115,10.767644,-0.4021479,-1.3407048,13.781706,-9.793081,22.831083,-15.079378,38.16774,25.055208,4.6879535,8.2346325,-2.7055256,-26.806374,21.62839,62.005074,-8.26531,-5.3256273,-3.582746
168,101.42215728759766,12.791747093200684,73.81310272216797,-2.7192615109320077,3.933441472422815,-104.09827807694535,-42.314274,35.45055,7.579301,77.70164,-18.402428,15.000033,-12.944814,-11.901651,-15.756286,50.9403,-25.99362,11.447786,-0.58124185,-1.1869009,13.529265,-9.913414,22.751856,-15.118208,37.532326,24.963568,4.791006,8.393782,-2.0393262,-26.454874,21.469128,62.665077,-8.316761,-5.2723694,-3.8454
169,102.31505584716797,12.680459022521973,73.97474670410156,-2.8667176692233682,3.992734414523717,-104.09877278318426,-41.891087,35.998978,6.266703,75.86969,-18.263813,15.000033,-12.635349,-12.290221,-15.44305,49.57521,-25.231886,12.16914,-0.8567454,-1.1320982,13.233197,-10.002531,22.677195,-15.197559,36.923428,24.935555,4.8541403,8.45276,-1.4000343,-26.085407,21.223106,63.343895,-8.280154,-5.1949005,-4.083705
170,103.23604583740234,12.556533813476562,74.1484146118164,-2.9329038591265633,4.08982028373362,-104.05413317714915,-41.362232,36.159042,4.98882,73.799614,-18.025362,15.000033,-12.343046,-12.811359,-15.151113,48.194572,-24.434847,12.918735,-1.2043966,-1.1602777,12.898622,-10.075773,22.608353,-15.31959,36.343597,24.943512,4.8853636,8.442266,-0.7993118,-25.69709,20.916996,64.055016,-8.175419,-5.0972133,-4.327885
171,104.18343353271484,12.432928085327148,74.32848358154297,-2.934649687483161,4.209062243906776,-103.97856481437256,-40.764153,35.934753,3.6652815,71.66674,-17.609467,15.000033,-12.035727,-13.432486,-14.894162,46.745,-23.550848,13.694174,-1.599613,-1.2476002,12.543829,-10.12283,22.536503,-15.476909,35.80052,24.975273,4.897775,8.3921585,-0.24609677,-25.301542,20.552694,64.775505,-8.049779,-4.993121,-4.5360084
172,105.16126251220703,12.297073364257812,74.52055358886719,-2.8873521635091213,4.335729720889822,-103.88441246804406,-40.138214,35.326324,2.2237957,69.64417,-16.936438,15.000033,-11.682887,-14.125944,-14.683994,45.180256,-22.533709,14.493018,-2.0244465,-1.3654021,12.187769,-10.175725,22.450161,-15.675061,35.3427,24.998867,4.904582,8.333836,0.2780632,-24.919147,20.107523,65.45336,-7.9740057,-4.8952093,-4.6644216
173,106.1549072265625,12.156042098999023,74.72372436523438,-2.8777462034627215,4.472398220346328,-103.80677748504634,-39.57435,34.30675,0.39276752,67.79849,-15.910087,15.000033,-11.240397,-14.742957,-14.557979,43.387257,-21.358452,15.000033,-2.4451683,-1.4256351,11.83001,-10.246008,22.341034,-15.922642,34.97891,25.01805,4.9027576,8.260131,0.78683007,-24.56271,19.541899,66.07514,-7.9593067,-4.7977195,-4.6763754
174,107.16571807861328,12.003150939941406,74.94493103027344,-2.9165934217436797,4.631715529124995,-103.75546939247825,-39.00031,32.960346,-1.7270936,66.038765,-14.612907,15.000033,-10.735562,-15.258399,-14.505827,41.390736,-20.040487,15.000033,-2.8511858,-1.4185691,11.461089,-10.325487,22.2045,-16.219223,34.69019,25.047474,4.8871694,8.161288,1.2724912,-24.236938,18.878674,66.658714,-7.958547,-4.696247,-4.6004043
175,108.21516418457031,11.835633277893066,75.1745834350586,-2.868828367808042,4.802280878502193,-103.69302702888939,-38.222965,31.404495,-3.6323175,64.28301,-13.22618,15.000033,-10.233219,-15.907921,-14.447809,39.374943,-18.607313,15.000033,-3.2720075,-1.4638239,11.094229,-10.427438,22.03552,-16.557573,34.493244,25.064758,4.867868,8.064126,1.7342889,-23.950493,18.179245,67.185745,-7.965869,-4.6047115,-4.4901667
176,109.3023910522461,11.666679382324219,75.41927337646484,-2.6907157698631274,4.988255939962356,-103.63184411848616,-37.16542,29.856668,-4.925787,62.444366,-11.921564,15.000033,-9.818565,-16.74999,-14.330897,37.457893,-17.04175,15.000033,-3.693636,-1.5983541,10.726703,-10.553372,21.828026,-16.924547,34.395844,25.052261,4.8547716,7.995379,2.1679683,-23.717295,17.505836,67.64412,-7.9768553,-4.5394087,-4.4000545
177,110.42416381835938,11.484857559204102,75.67345428466797,-2.457349979186321,5.154680993549895,-103.60103941378841,-35.81614,28.313475,-5.8118777,60.531044,-10.617701,14.676981,-9.404346,-17.668915,-14.196597,35.523388,-15.251573,15.000033,-4.084419,-1.7463338,10.388432,-10.696333,21.571838,-17.325777,34.414444,24.98454,4.8415914,7.97606,2.5863688,-23.547363,16.85433,68.02411,-7.9755254,-4.504309,-4.3337193
178,111.52854919433594,11.295755386352539,75.90860748291016,-2.6269370015895035,5.184345538116317,-103.80687381499251,-34.179176,26.971394,-7.447748,58.651493,-9.392176,11.457035,-8.749231,-18.036993,-14.092524,33.294666,-13.174656,15.000033,-4.250168,-1.4987825,10.209219,-10.87467,21.261986,-17.76631,34.555866,24.869839,4.827598,7.9862213,2.9890769,-23.450954,16.199278,68.33316,-7.9668593,-4.4922466,-4.2617087
179,112.6593017578125,11.099145889282227,76.13148498535156,-2.772705676219037,5.216889522861074,-104.07302789939096,-32.36209,25.71481,-8.702621,56.65602,-8.400354,7.8487153,-8.201753,-18.471844,-13.897907,31.205378,-11.045496,15.000033,-4.3649826,-1.2408063,10.0533495,-11.062877,20.901978,-18.210386,34.75523,24.778978,4.8266935,7.992384,3.359791,-23.428518,15.573437,68.56459,-7.967008,-4.4927225,-4.1903987
180,113.82715606689453,10.893180847167969,76.31636810302734,-2.8560182869909325,5.2734841480383965,-104.42362677256575,-30.46032,24.690454,-9.277331,54.478065,-7.8155107,4.1439714,-7.9145536,-19.03783,-13.514182,29.467268,-9.008549,15.000033,-4.416775,-1.0173438,9.909784,-11.2736025,20.50613,-18.633265,34.98179,24.754007,4.8546114,7.9596844,3.657406,-23.481823,15.031538,68.733376,-7.9815025,-4.4956903,-4.127006
181,115.01615905761719,10.690433502197266,76.48270416259766,-2.9233702383992215,5.368629408922664,-104.90111057353222,-28.392155,24.037016,-8.943347,51.853813,-7.6480546,-0.04421088,-7.9024396,-19.650236,-12.898894,27.98477,-6.8922915,15.000033,-4.378847,-0.7850414,9.766448,-11.475838,20.07024,-19.010588,35.229927,24.812141,4.9172153,7.888335,3.876094,-23.617804,14.588703,68.84018,-8.025079,-4.5004573,-4.061817
182,116.21568298339844,10.499323844909668,76.63528442382812,-2.979620828194707,5.489497440816366,-105.48136201536937,-26.176392,23.603365,-7.8549705,48.857025,-7.727483,-4.701442,-8.1140175,-20.29138,-12.106206,26.701752,-4.689483,15.000033,-4.2699637,-0.5363465,9.630104,-11.66944,19.591858,-19.356874,35.51182,24.928993,5.005031,7.7925725,4.025127,-23.839922,14.225604,68.88592,-8.083506,-4.511921,-3.9942534
183,117.42841339111328,10.3057861328125,76.76622009277344,-2.9204757480146797,5.619895698287611,-106.09113026335507,-24.071005,23.100332,-6.31675,45.948437,-7.9525,-8.943987,-8.627583,-21.126854,-11.162717,25.91573,-2.80149,15.000033,-4.147868,-0.37797382,9.512438,-11.885812,19.09755,-19.695543,35.797718,25.08837,5.110014,7.6563377,4.1142426,-24.13372,13.920581,68.86036,-8.147331,-4.528677,-3.9430463
184,118.65643310546875,10.130878448486328,76.88654327392578,-2.6340260349652995,5.746035011602709,-106.65831904928608,-22.338825,22.265242,-4.697901,43.606365,-8.281859,-11.897977,-9.532417,-22.325472,-10.071695,25.928617,-1.6342463,15.000033,-4.069974,-0.434656,9.424238,-12.125,18.629343,-20.038948,36.02566,25.282347,5.224284,7.460534,4.150036,-24.470493,13.653821,68.75632,-8.210574,-4.549339,-3.9283004
185,119.91134643554688,9.958510398864746,76.9759750366211,-1.9372011105997256,5.854589881667017,-107.17374079468006,-21.006344,20.873993,-2.9794135,41.930088,-8.777946,-13.155375,-11.091052,-24.147758,-8.41297,27.097492,-1.3410892,15.000033,-4.0615263,-0.898842,9.379672,-12.363766,18.216364,-20.375195,36.149265,25.535261,5.3603616,7.1689353,4.102101,-24.835802,13.435883,68.56946,-8.298791,-4.5705,-3.9563398
186,121.11277770996094,9.827320098876953,77.05802917480469,-1.7932685054143165,6.130234787183285,-108.0287803008991,-20.338196,20.199135,-1.4164152,40.91272,-9.541992,-13.555759,-13.199558,-25.168718,-7.2494087,28.555626,-1.3479671,10.781695,-3.7765663,-0.88133615,9.25753,-12.580952,17.857807,-20.692345,36.173172,25.83249,5.517537,6.802218,3.950326,-25.232813,13.284852,68.32166,-8.412352,-4.594935,-4.0196233
187,122.29219818115234,9.713892936706543,77.12118530273438,-1.7213433078186682,6.445349793622423,-108.89716751221827,-20.023214,19.62165,0.1305267,40.323734,-10.380081,-13.402194,-15.377989,-26.057741,-6.5577474,30.176666,-1.8254205,6.071758,-3.4725635,-0.8216846,9.131183,-12.812958,17.567894,-21.025711,36.150486,26.10888,5.6666465,6.415297,3.7491567,-25.64179,13.1866865,68.03138,-8.496597,-4.627529,-4.1168
188,123.4561538696289,9.628137588500977,77.1694564819336,-1.6489343631832405,6.741250171476445,-109.61092902950065,-19.919033,19.034199,1.5955077,40.01105,-11.134577,-13.136094,-17.059097,-26.916912,-6.659568,31.464447,-2.67632,2.695996,-3.261964,-0.78287077,9.034079,-13.092727,17.365215,-21.41319,36.124706,26.295897,5.7810955,6.066188,3.5322943,-26.030249,13.130295,67.741196,-8.494779,-4.678622,-4.250882
189,124.59712982177734,9.568103790283203,77.20800018310547,-1.5735149286714147,7.027038064303781,-110.14656285828588,-20.080708,18.465446,3.0253537,40.059223,-11.791235,-12.758444,-18.059305,-27.79881,-7.7859945,32.213867,-4.052353,1.1493348,-3.1702664,-0.7807603,8.964494,-13.440182,17.278013,-21.870838,36.057053,26.427076,5.8770833,5.7226415,3.3020563,-26.37753,13.102529,67.426735,-8.3893795,-4.7531495,-4.4425287
190,125.7033462524414,9.5331449508667,77.21923828125,-1.4939509809012166,7.312704540586165,-110.56641981740395,-20.536495,17.92287,4.4421124,40.511898,-12.42145,-12.072926,-18.62651,-28.712345,-9.664439,32.72964,-5.9232507,0.69860244,-3.1557033,-0.82720643,8.92123,-13.831057,17.314045,-22.384676,35.92614,26.513052,5.962679,5.3677835,3.0236175,-26.67876,13.120557,67.0963,-8.209047,-4.8466253,-4.6892037
191,126.78744506835938,9.517925262451172,77.20318603515625,-1.4393258931735966,7.557851463243898,-110.87061236603047,-21.132793,17.39125,5.712281,41.168396,-13.008092,-11.25559,-18.848066,-29.587921,-11.978116,33.258728,-7.8571835,0.8571451,-3.2067666,-0.8836062,8.913574,-14.221552,17.44826,-22.93351,35.810837,26.458284,6.000531,5.085014,2.7509165,-26.9268,13.165777,66.76985,-8.025622,-4.9490848,-4.9592853
192,127.84310913085938,9.514745712280273,77.17932891845703,-1.4330446367851448,7.722066609119914,-111.05813724799569,-21.712454,16.842117,6.7056093,41.828262,-13.53768,-10.476828,-18.82076,-30.361012,-14.381839,34.03061,-9.436298,1.1146983,-3.285873,-0.9071562,8.967335,-14.592802,17.63396,-23.51166,35.7996,26.177155,5.9546885,4.9624915,2.3856542,-27.117249,13.303986,66.610214,-7.8167114,-5.0486307,-5.2239184
193,128.8781280517578,9.509574890136719,77.15170288085938,-1.4860382344545673,7.794333227707456,-111.0804817642126,-22.2867,16.26365,7.3537073,42.51662,-14.008622,-9.738346,-18.467838,-31.028677,-17.003595,35.046124,-10.525708,1.5720879,-3.4371855,-0.8746343,9.06464,-14.99633,17.853226,-24.170969,35.99229,25.563984,5.776847,5.0707846,2.1038315,-27.25018,13.4542265,66.503944,-7.635321,-5.1681523,-5.5209365
194,129.90394592285156,9.493182182312012,77.12413787841797,-1.5815739888203943,7.798190730983719,-110.95507818712082,-22.912668,15.667492,7.7480235,43.31399,-14.426679,-8.963961,-17.784725,-31.60428,-19.973383,36.24582,-11.362307,2.399456,-3.6391113,-0.8065821,9.203752,-15.453287,18.100563,-24.915998,36.340626,24.702976,5.496503,5.3495445,1.8247472,-27.328806,13.643844,66.48502,-7.4300065,-5.3049603,-5.8528514
195,130.9313201904297,9.46823787689209,77.0975570678711,-1.6996564638991387,7.742531625512842,-110.77849938897145,-23.49866,15.051999,7.995808,44.106056,-14.796585,-8.202404,-16.968382,-32.0552,-22.908707,37.703125,-12.090832,3.1858306,-3.8491094,-0.7345512,9.356638,-15.845865,18.350492,-25.604431,36.766495,23.786604,5.193174,5.688392,1.6128635,-27.353735,13.802084,66.452576,-7.360235,-5.410158,-6.1379523
196,131.94583129882812,9.431411743164062,77.08049774169922,-1.8202355431426631,7.634763147364246,-110.64653374148742,-23.95583,14.417328,8.199099,44.782047,-15.126375,-7.5012584,-16.209423,-32.375973,-25.413967,39.462418,-12.846344,3.5268207,-3.9999166,-0.6811507,9.515233,-16.08781,18.568384,-26.112322,37.20368,23.00631,4.9521885,5.9844074,1.37355,-27.328926,13.940293,66.45097,-7.4952774,-5.432046,-6.2954035
197,132.945068359375,9.38541030883789,77.06761932373047,-1.9563681756135838,7.4556366702287615,-110.55033568276077,-24.248323,13.752043,8.295399,45.31424,-15.42822,-6.8997507,-15.519702,-32.585735,-27.3979,41.605213,-13.646868,3.2245848,-4.0791845,-0.62011325,9.707146,-16.184946,18.722054,-26.425743,37.695534,22.34069,4.7772756,6.276178,0.9615254,-27.25227,14.112452,66.63339,-7.854628,-5.3301916,-6.284897
198,133.93753051757812,9.330037117004395,77.05853271484375,-2.111987650059421,7.206593104382483,-110.44838434078798,-24.419695,13.057159,8.259814,45.763218,-15.698619,-6.3613167,-14.807498,-32.67683,-29.054916,44.03609,-14.408669,2.529293,-4.1572556,-0.5491399,9.880186,-16.151237,18.807817,-26.575361,38.30819,21.727922,4.628319,6.5993905,0.7467194,-27.128603,14.146642,66.69501,-8.562584,-5.14463,-6.155514
199,134.92166137695312,9.265230178833008,77.05281829833984,-2.252866913452903,6.926598464483318,-110.38713678179582,-24.507053,12.355517,8.245244,46.150414,-15.921639,-5.8205695,-14.113001,-32.629837,-30.41214,46.535313,-15.114864,1.7114998,-4.1530013,-0.49727157,10.041886,-16.050636,18.83559,-26.613226,38.962597,21.274137,4.5342827,6.85818,0.47969162,-26.98018,14.217579,66.8031,-9.289437,-4.9348364,-5.9573183
200,135.8887176513672,9.194636344909668,77.05410766601562,-2.344049202708047,6.6545945450172965,-110.41394748573202,-24.549355,11.6703005,8.40562,46.493694,-16.080042,-5.212165,-13.484966,-32.436,-31.493942,48.90708,-15.760444,1.0402547,-4.047564,-0.5095104,10.157533,-15.889063,18.835215,-26.537079,39.577824,21.085918,4.5244236,6.951634,0.15666434,-26.81554,14.387239,66.90672,-9.85998,-4.760357,-5.7485466
201,136.845703125,9.123698234558105,77.05665588378906,-2.3668506710094506,6.3852298592212104,-110.56407490498282,-24.530392,11.009332,8.806634,46.802345,-16.168203,-4.5177026,-12.952647,-32.132175,-32.268646,51.190395,-16.353207,0.52184045,-3.8486445,-0.6063995,10.209555,-15.588707,18.820625,-26.256641,40.081226,21.298817,4.6471715,6.779973,-0.062144272,-26.644783,14.549766,66.84111,-10.38493,-4.6149135,-5.4835362
202,137.79075622558594,9.058048248291016,77.06342315673828,-2.341678359198679,6.103373280945271,-110.80543067422091,-24.437849,10.360661,9.35695,47.062435,-16.197807,-3.771222,-12.49604,-31.724878,-32.73109,53.468445,-16.89528,0.03575561,-3.5479434,-0.7621021,10.245256,-15.175585,18.792208,-25.810873,40.497566,21.813051,4.8724146,6.4178467,-0.38327792,-26.47023,14.827727,66.81054,-10.785292,-4.4738083,-5.150785
203,138.72140502929688,8.987489700317383,77.07292175292969,-2.2927956759527013,5.832556980836613,-111.08515943194432,-24.31962,9.718237,9.976441,47.25836,-16.176867,-2.9867747,-12.098131,-31.160503,-32.945263,55.629738,-17.380735,-0.33622652,-3.2069166,-0.9449836,10.252597,-14.694443,18.761557,-25.292736,40.88109,22.39427,5.1089125,6.0180106,-0.7100471,-26.297937,15.180142,66.72803,-11.078009,-4.371261,-4.8453765
204,139.6471405029297,8.921424865722656,77.08157348632812,-2.2447646803134096,5.5964157112239645,-111.34990187103773,-24.22589,9.075172,10.5854645,47.377193,-16.112486,-2.1796393,-11.745151,-30.379074,-32.98158,57.560158,-17.802492,-0.50786406,-2.8637052,-1.1221219,10.23259,-14.211678,18.746086,-24.819397,41.284767,22.79823,5.2718825,5.738518,-1.0173178,-26.138554,15.604884,66.56885,-11.221924,-4.3391423,-4.6609416
205,140.56333923339844,8.861417770385742,77.09270477294922,-2.1895695687904806,5.407332766570017,-111.60973357708983,-24.171072,8.428581,11.198846,47.41529,-15.99933,-1.3365483,-11.478598,-29.360191,-32.79949,59.269913,-18.203535,-0.47045156,-2.4970272,-1.3017254,10.182909,-13.7326975,18.759449,-24.402313,41.68587,22.999615,5.3596377,5.610755,-1.3338847,-26.000816,16.16167,66.34239,-11.087268,-4.405055,-4.6328206
206,141.46983337402344,8.811464309692383,77.10858917236328,-2.119897456013072,5.251149496357547,-111.88531029380933,-24.12903,7.7830086,11.849054,47.379196,-15.836235,-0.455404,-11.292283,-28.129627,-32.39761,60.804745,-18.573353,-0.2564992,-2.0966182,-1.4958819,10.11085,-13.218602,18.804268,-23.987885,42.05095,23.107254,5.4119844,5.5531554,-1.67616,-25.883167,16.844824,66.06208,-10.718153,-4.544899,-4.7038784
207,142.3704833984375,8.767951965332031,77.12384033203125,-2.0603449338642474,5.111668862524134,-112.13999429536912,-24.089962,7.142812,12.486918,47.269623,-15.631235,0.43268284,-11.121615,-26.69098,-31.888294,62.118484,-18.822214,0.16362411,-1.7138468,-1.6772337,10.029598,-12.666006,18.877508,-23.592352,42.416264,23.085718,5.410509,5.5572176,-1.9894173,-25.775534,17.53981,65.70173,-10.345743,-4.7131324,-4.8302555
208,143.262451171875,8.732880592346191,77.14175415039062,-2.0350499736853385,4.972509288810083,-112.33701859341133,-24.044426,6.511909,13.063151,47.087032,-15.390884,1.2973917,-10.902291,-25.047848,-31.37813,63.154236,-18.859962,0.8187698,-1.3706043,-1.8206357,9.964268,-12.109645,18.97173,-23.263414,42.83464,22.894182,5.338069,5.61821,-2.332153,-25.671967,18.216642,65.341805,-10.097651,-4.862922,-4.9732676
209,144.14602661132812,8.699432373046875,77.16447448730469,-2.064142458809958,4.836408653026551,-112.47705139477291,-23.989132,5.909298,13.560305,46.811527,-15.143524,2.114348,-10.635567,-23.143578,-30.850628,63.887405,-18.684093,1.7207344,-1.0680754,-1.9062487,9.903348,-11.551598,19.082556,-23.004786,43.331047,22.45357,5.157223,5.781833,-2.650048,-25.566423,18.823982,64.92314,-10.085211,-4.9890766,-5.152022
210,145.03143310546875,8.680763244628906,77.19331359863281,-2.129055706557581,4.70977638112993,-112.57630747909708,-23.930708,5.3261337,14.007675,46.450645,-14.874473,2.9071023,-10.351807,-20.992197,-30.26432,64.34484,-18.348696,2.8572454,-0.77814335,-1.9546534,9.842156,-11.001491,19.210062,-22.814468,43.891533,21.806286,4.8868904,6.035818,-2.9847252,-25.46137,19.42657,64.47959,-10.168719,-5.1134734,-5.3808503
211,145.9210205078125,8.664895057678223,77.23300170898438,-2.196927284647999,4.58122183800975,-112.62113744978507,-23.873339,4.726918,14.426368,46.044876,-14.524594,3.7104993,-10.033589,-18.702765,-29.675528,64.54128,-17.847118,4.2210674,-0.52216023,-1.997158,9.789474,-10.453064,19.349972,-22.682367,44.496346,21.106739,4.5937643,6.284596,-3.320103,-25.354362,19.997187,64.03625,-10.299075,-5.2293706,-5.610526
212,146.8098602294922,8.661995887756348,77.28258514404297,-2.2361766930938183,4.439806369623671,-112.59739662788297,-23.824238,4.0780454,14.837388,45.64001,-14.038886,4.55977,-9.665814,-16.384138,-29.134338,64.494316,-17.173725,5.8043795,-0.31356815,-2.0626955,9.757651,-9.927267,19.497437,-22.618408,45.146423,20.493504,4.348275,6.437489,-3.6643126,-25.243778,20.525694,63.641205,-10.403687,-5.330572,-5.7926517
213,147.69125366210938,8.656778335571289,77.3410415649414,-2.232328948673817,4.276568794639049,-112.49052974857149,-23.765413,3.3575144,15.24722,45.21768,-13.407331,5.485554,-9.206865,-14.044618,-28.658314,64.169,-16.303402,7.6702724,-0.16273353,-2.168183,9.747442,-9.409644,19.648191,-22.615154,45.839455,19.982782,4.1777043,6.4626637,-4.005097,-25.127535,21.004457,63.292305,-10.50018,-5.415305,-5.9179316
214,148.58897399902344,8.657037734985352,77.40902709960938,-2.204037227927771,4.099811412774692,-112.31207535295286,-23.699982,2.5904186,15.6503105,44.76503,-12.658595,6.462908,-8.6819935,-11.626943,-28.19394,63.56035,-15.269087,9.803872,-0.0546668,-2.294471,9.754182,-8.91461,19.803732,-22.68135,46.59192,19.500385,4.043979,6.414125,-4.3695483,-25.007795,21.461203,62.99451,-10.59127,-5.486696,-6.0126405
215,149.4838409423828,8.662303924560547,77.48360443115234,-2.1679415337997687,3.9236347096025916,-112.08809537989879,-23.661232,1.8131158,16.055954,44.32274,-11.786769,7.444496,-8.173181,-9.145498,-27.681713,62.72984,-14.13807,12.081991,0.024456944,-2.4196684,9.772349,-8.447332,19.96247,-22.812502,47.391212,19.08383,3.921012,6.3284564,-4.7349257,-24.885483,21.863388,62.730442,-10.6650095,-5.5480814,-6.0787745
216,150.3838653564453,8.677582740783691,77.56814575195312,-2.1404355417141883,3.7621336732169732,-111.84404901193543,-23.682978,1.0627515,16.471468,43.932457,-10.785621,8.38173,-7.7528296,-6.620046,-27.071339,61.74146,-12.968679,14.381951,0.0928861,-2.5206754,9.799393,-8.031162,20.122688,-23.018002,48.238117,18.760492,3.7822487,6.24337,-5.0957255,-24.763474,22.19323,62.494972,-10.689636,-5.5998306,-6.117993
217,151.27340698242188,8.726653099060059,77.65961456298828,-2.3727318799481187,3.7136118748692493,-111.73594319566249,-24.014547,0.73116726,16.840115,43.889027,-9.779756,9.233902,-7.433614,-3.8351758,-26.827787,60.43091,-11.54902,15.000033,0.29224893,-2.3708274,9.738196,-7.6677356,20.284306,-23.326141,49.151234,18.538837,3.6229563,6.1627145,-5.4783235,-24.642233,22.465366,62.316765,-10.615653,-5.6389127,-6.1190114
218,152.15745544433594,8.801741600036621,77.74970245361328,-2.7314353892664163,3.7206825846107177,-111.6799993681342,-24.523182,0.6157513,17.195143,44.04575,-8.717843,10.049452,-7.145942,-0.9124191,-26.711496,58.829624,-9.909964,15.000033,0.549296,-2.0913587,9.633241,-7.3566155,20.449532,-23.730417,50.137287,18.394323,3.456329,6.068927,-5.8483453,-24.520407,22.659319,62.164833,-10.499046,-5.665351,-6.083969
219,153.0378875732422,8.880219459533691,77.83627319335938,-3.030589189112655,3.729860113023202,-111.59604365664104,-25.055582,0.45325783,17.600393,44.20884,-7.509494,10.789502,-6.9017563,1.9169939,-26.452824,57.083485,-8.308248,15.000033,0.79610187,-1.8557017,9.546393,-7.0806293,20.612907,-24.16754,51.130474,18.34746,3.2833266,5.96755,-6.212645,-24.404844,22.790554,62.035053,-10.364745,-5.687512,-6.0361342
220,153.9268798828125,8.967170715332031,77.91879272460938,-3.2194057723482574,3.7456785982130802,-111.49251993583826,-25.592825,0.18792328,18.089014,44.33689,-6.133225,11.372659,-6.7488427,4.560766,-25.940863,55.260544,-6.9400845,15.000033,1.0385091,-1.7099296,9.479548,-6.8159122,20.76391,-24.56509,52.062828,18.42284,3.1044767,5.864148,-6.573255,-24.307615,22.875658,61.91672,-10.2423725,-5.7135534,-5.9980493
221,154.83291625976562,9.054926872253418,77.99095916748047,-3.2981015344144073,3.7789510716442396,-111.3662875820759,-26.14791,-0.15958619,18.727465,44.44017,-4.5796895,11.874356,-6.7290635,7.1287913,-25.041346,53.33962,-5.942598,15.000033,1.273862,-1.6499277,9.425097,-6.577343,20.895926,-24.94031,52.957855,18.66514,2.907594,5.762814,-6.9324737,-24.23504,22.911617,61.803818,-10.117125,-5.743738,-5.966847
222,155.7545623779297,9.140892028808594,78.04782104492188,-3.29162928297574,3.818605221874881,-111.2056748682789,-26.720903,-0.5706625,19.467548,44.523968,-2.855693,12.295979,-6.769484,9.638156,-23.826693,51.290977,-5.1925745,15.000033,1.4895304,-1.6482902,9.389041,-6.3587427,21.005642,-25.30699,53.83298,19.061398,2.6956055,5.660683,-7.261947,-24.187763,22.873127,61.678143,-10.001846,-5.7739897,-5.9314513
223,156.69879150390625,9.233738899230957,78.08753967285156,-3.200850418533332,3.843952434964446,-111.01496455770831,-27.289766,-1.100185,20.15572,44.54166,-0.966126,12.434311,-6.7699184,11.868058,-22.50915,49.16974,-4.4723063,15.000033,1.6810374,-1.6965773,9.393101,-6.1638384,21.08429,-25.627155,54.659306,19.503473,2.4906187,5.556914,-7.5870957,-24.176273,22.807404,61.565006,-9.905153,-5.8060975,-5.903928
224,157.66387939453125,9.323565483093262,78.11152648925781,-3.0357857041379965,3.8443709625858338,-110.81025091844536,-27.84776,-1.7988824,20.627111,44.454895,1.0739744,12.074973,-6.6668468,13.599711,-21.326777,47.02858,-3.527853,15.000033,1.853401,-1.7848005,9.447944,-5.971165,21.130373,-25.84446,55.384693,19.900229,2.3153937,5.447442,-7.936022,-24.199202,22.760046,61.495674,-9.840887,-5.8423977,-5.898216
225,158.65188598632812,9.413544654846191,78.1163101196289,-2.8175718959599294,3.8587327882182803,-110.6518232284536,-28.482498,-2.6258132,20.87556,44.332207,3.26303,11.210017,-6.449825,14.817921,-20.434738,44.631805,-1.97322,15.000033,2.0774834,-1.9039469,9.526282,-5.7803936,21.162048,-25.968817,55.97664,20.266766,2.1928198,5.327471,-8.278678,-24.263926,22.70272,61.439114,-9.839533,-5.8869658,-5.9244046
226,159.65219116210938,9.511251449584961,78.09441375732422,-2.545815829712958,3.887457563511438,-110.52182217838774,-29.188528,-3.5860724,20.938683,44.164917,5.582923,9.894963,-6.172869,15.634071,-19.701044,42.016846,-0.0017422803,15.000033,2.3293476,-2.0366945,9.637718,-5.5853534,21.172771,-26.003202,56.43932,20.644531,2.1022956,5.1949906,-8.593553,-24.41579,22.63,61.34458,-9.870437,-5.9364944,-5.9618907
227,160.68270874023438,9.597949981689453,78.04646301269531,-2.2118598807251573,3.869550478443846,-110.33245181014908,-29.830364,-4.7928343,20.701124,43.820915,7.9684963,7.99554,-5.918751,16.036112,-18.952597,39.70034,1.7188199,15.000033,2.511761,-2.1855464,9.814676,-5.3929815,21.151339,-25.955,56.822567,20.943499,2.0087342,5.057959,-8.894395,-24.616304,22.55368,61.247715,-9.920386,-5.9847684,-5.996411
228,161.7595672607422,9.6692476272583,77.96818542480469,-1.8161676566016067,3.7471893253812656,-110.00241863527604,-30.268015,-6.3524404,20.041727,43.17299,10.340629,5.373812,-5.8186765,15.993707,-18.045546,38.293533,2.50324,15.000033,2.5484474,-2.3412533,10.101924,-5.222956,21.113083,-25.86455,57.154625,21.042965,1.8771867,4.9198704,-9.177265,-24.866205,22.475739,61.144787,-9.954633,-6.0256696,-6.004194
229,162.88906860351562,9.71686840057373,77.88729858398438,-1.3175057643170422,3.469175362225671,-109.46048137470507,-30.364632,-8.5631695,18.635042,41.939903,12.84103,1.6874021,-6.1028414,15.315764,-16.834421,38.3991,2.1079698,15.000033,2.3715668,-2.5292058,10.563895,-5.0640883,21.062813,-25.720387,57.417038,20.845678,1.6862642,4.7803454,-9.466777,-25.170294,22.412271,61.041718,-9.958576,-6.0575085,-5.980188
230,164.03990173339844,9.750432968139648,77.8076400756836,-0.7262281444573855,3.0915519743296698,-108.78955181176072,-30.178677,-11.298061,16.5879,40.24209,15.322958,-2.950354,-6.815934,14.007766,-15.569289,39.85485,0.9237125,15.000033,2.0528183,-2.751981,11.144214,-4.90627,20.999134,-25.507206,57.593147,20.434795,1.4598578,4.634805,-9.7330885,-25.528463,22.335888,60.91264,-9.972271,-6.0837765,-5.9351215
231,165.10525512695312,9.852012634277344,77.61614227294922,-0.9780731413626701,2.997151921268577,-108.6729132049378,-30.927784,-12.678522,14.282205,40.23409,16.509344,-8.210408,-7.479358,13.08306,-16.472559,40.84495,-0.1201308,8.096677,2.2317219,-2.2052946,11.402468,-4.7690187,20.944067,-25.259157,57.71039,19.971153,1.2298917,4.475671,-9.958711,-25.923899,22.247557,60.769794,-9.967122,-6.1044016,-5.8673735
232,166.17649841308594,9.951167106628418,77.3351058959961,-1.1689053028822245,2.9175824788283244,-108.55054962918037,-31.713345,-13.713,12.647971,40.730568,16.973793,-13.064441,-7.893161,12.1100855,-17.778894,41.678963,-1.9433671,1.6009505,2.3911254,-1.7237519,11.628636,-4.660224,20.910852,-25.003742,57.768623,19.608343,1.0303558,4.3061705,-10.143358,-26.34543,22.142553,60.63517,-9.932216,-6.124355,-5.783911
233,167.2501983642578,10.044239044189453,76.989013671875,-1.1627721296763713,2.824657818676284,-108.36414813458242,-32.333397,-14.055048,13.042129,41.51097,17.087574,-15.000033,-7.87013,11.043386,-19.027184,42.18786,-4.8129706,-2.2543433,2.4978817,-1.4118372,11.832404,-4.562432,20.907465,-24.727741,57.745346,19.366323,0.857179,4.053967,-10.250676,-26.79013,21.994698,60.49299,-9.90312,-6.144913,-5.6686234
234,168.36087036132812,10.141704559326172,76.5943374633789,-0.7995313279227043,2.780960559807913,-107.92637047511286,-32.770435,-14.03087,15.153737,42.22142,17.292858,-15.000033,-7.7721086,9.458821,-20.379011,42.967167,-8.784012,-4.541158,2.3468351,-1.4336389,11.965438,-4.4613414,20.930315,-24.421177,57.64042,19.164438,0.70008856,3.743704,-10.31404,-27.237013,21.817219,60.377277,-9.892733,-6.166291,-5.529672
235,169.4448699951172,10.266716003417969,76.19902801513672,-0.45463034769562055,2.786598540804636,-107.45318828484301,-33.389996,-13.641216,17.440248,43.50009,17.135696,-15.000033,-7.6387653,7.945358,-21.627174,43.606796,-12.866624,-5.8770256,2.1364179,-1.4389008,12.076036,-4.387959,20.985432,-24.110128,57.45979,19.020601,0.5726078,3.513606,-10.35339,-27.741907,21.639002,60.23834,-9.804698,-6.1842566,-5.386471
236,170.48899841308594,10.404775619506836,75.81771850585938,-0.32045656884710483,2.8381624337087294,-107.08013751739058,-34.32457,-12.75491,19.285297,45.60337,16.271847,-15.000033,-7.6607003,6.8171,-22.551239,44.07755,-16.301441,-6.857887,1.9734195,-1.2796662,12.179616,-4.375232,21.074404,-23.828505,57.272972,18.952263,0.49295506,3.5128968,-10.385634,-28.23148,21.445593,60.103245,-9.651012,-6.1977153,-5.288365
237,171.4867401123047,10.547676086425781,75.45516204833984,-0.5058096971159212,2.92608685690273,-106.86702596408868,-35.64402,-11.208812,20.476162,48.778122,14.326198,-15.000033,-7.87656,6.21849,-23.112206,44.337097,-18.880583,-7.508633,1.9056921,-0.857517,12.294393,-4.4407706,21.211601,-23.602144,57.07528,18.981358,0.4744017,3.8109841,-10.467167,-28.699293,21.272549,60.006977,-9.376159,-6.2088785,-5.2397265
238,172.44619750976562,10.69459056854248,75.10515594482422,-0.9201236761582446,3.0206253017644698,-106.7845390210119,-37.145298,-9.121632,21.196285,52.679363,11.534599,-15.000033,-8.141118,5.975774,-23.456175,44.38808,-20.958843,-7.6130214,1.9145395,-0.25380984,12.431859,-4.556772,21.401825,-23.406452,56.842655,19.091112,0.50572556,4.319628,-10.580458,-29.144255,21.112043,59.95114,-9.013432,-6.2183228,-5.2260385
239,173.38656616210938,10.8479642868042,74.78201293945312,-1.3918787970849456,3.0967406382991407,-106.79415744214539,-38.56802,-6.8619795,21.52071,56.61642,8.477811,-15.000033,-8.432313,5.85253,-23.596869,44.387135,-22.712677,-7.408645,1.969172,0.36447385,12.607567,-4.6740465,21.62805,-23.184137,56.584045,19.254047,0.5664477,4.9475093,-10.653716,-29.543062,20.919977,59.90855,-8.652519,-6.2221746,-5.2574987
240,174.31130981445312,11.004261016845703,74.50153350830078,-1.7290641309533041,3.148156014512814,-106.83925396181776,-39.725548,-4.804721,21.610645,59.986187,5.742306,-15.000033,-8.762324,5.586678,-23.540102,44.510414,-24.33423,-7.121426,2.0256727,0.8118301,12.821372,-4.768161,21.863503,-22.89227,56.333836,19.43523,0.6360213,5.6075053,-10.670941,-29.85937,20.678669,59.909233,-8.363787,-6.216257,-5.347376
