unveil-humanoid-operators/unveil-humanoid-operators.github.io/feature-analysis-animation/data/feature_matrix_instances/age_waist_rom_jogging_A042_jog_forward_loop_002__A042.csv
Frame,root_translateX,root_translateY,root_translateZ,root_rotateX,root_rotateY,root_rotateZ,left_hip_pitch_joint_dof,left_hip_roll_joint_dof,left_hip_yaw_joint_dof,left_knee_joint_dof,left_ankle_pitch_joint_dof,left_ankle_roll_joint_dof,right_hip_pitch_joint_dof,right_hip_roll_joint_dof,right_hip_yaw_joint_dof,right_knee_joint_dof,right_ankle_pitch_joint_dof,right_ankle_roll_joint_dof,waist_yaw_joint_dof,waist_roll_joint_dof,waist_pitch_joint_dof,left_shoulder_pitch_joint_dof,left_shoulder_roll_joint_dof,left_shoulder_yaw_joint_dof,left_elbow_joint_dof,left_wrist_roll_joint_dof,left_wrist_pitch_joint_dof,left_wrist_yaw_joint_dof,right_shoulder_pitch_joint_dof,right_shoulder_roll_joint_dof,right_shoulder_yaw_joint_dof,right_elbow_joint_dof,right_wrist_roll_joint_dof,right_wrist_pitch_joint_dof,right_wrist_yaw_joint_dof
0,-0.10784042626619339,2.0387918949127197,78.9270248413086,1.6076988192265589,1.6461295243298184,-91.00543293896995,-3.2960453,3.4085338,2.8780708,7.9836326,-7.6147523,-3.336661,-7.494546,-7.227582,-1.3718827,17.423988,-9.115281,3.2653131,0.031100018,-1.599394,6.657929,-1.562299,15.149026,-33.78378,60.070972,7.8751583,7.582567,6.589928,-6.1763573,-18.966534,52.956726,55.879818,-2.531474,7.2090063,-10.453282
1,-0.11322963982820511,2.0434463024139404,78.91885375976562,1.6613301472139674,1.6615091762858547,-91.01562195849867,-3.2027895,3.3497245,2.9066405,7.778342,-7.616876,-3.470295,-7.6582723,-7.2857137,-1.3188238,17.73341,-9.322079,3.2360873,0.0485857,-1.6519924,6.6555853,-1.5666425,15.155588,-33.740402,60.066143,7.818465,7.5806594,6.6325555,-6.155229,-18.98888,52.935654,55.855644,-2.50757,7.2080417,-10.46086
2,-0.11324790865182877,2.0482046604156494,78.90995025634766,1.7153457029409591,1.6764744737305148,-91.02721786647304,-3.105679,3.2900722,2.9372704,7.5661774,-7.6151114,-3.6056404,-7.8212023,-7.343678,-1.2630593,18.041203,-9.527828,3.2105205,0.06238521,-1.7049613,6.6552043,-1.5657753,15.162451,-33.686653,60.055897,7.7644253,7.5792437,6.6760435,-6.1396413,-19.009968,52.918865,55.83492,-2.4856303,7.207935,-10.468022
3,-0.1142667829990387,2.0463790893554688,78.89923095703125,1.766593837311979,1.6922747290463813,-91.03546072714026,-3.015604,3.234738,2.9629729,7.366123,-7.6188903,-3.7384014,-7.9868565,-7.3980594,-1.2137346,18.355646,-9.735697,3.1777422,0.0769852,-1.7554662,6.648066,-1.5706674,15.167102,-33.646935,60.05708,7.7070017,7.5778723,6.71917,-6.121812,-19.021538,52.90258,55.82471,-2.4586132,7.20706,-10.478085
4,-0.12012772262096405,2.0498971939086914,78.88957977294922,1.8121568291821855,1.7095692582544333,-91.03565346734347,-2.9308796,3.1884298,2.9776871,7.1718187,-7.6242948,-3.8643937,-8.147006,-7.4454284,-1.1812822,18.662691,-9.941781,3.1269708,0.08234058,-1.8019481,6.640641,-1.5792358,15.17412,-33.60301,60.06153,7.667609,7.5745034,6.7515454,-6.097132,-19.033033,52.880314,55.804203,-2.4317708,7.204927,-10.487182
5,-0.13352544605731964,2.0566608905792236,78.87837219238281,1.855470983431057,1.7362648711081192,-91.02898557207043,-2.863072,3.1478715,2.9834836,6.9862156,-7.634878,-3.98781,-8.32467,-7.489337,-1.1632128,18.985306,-10.15108,3.0514126,0.08402089,-1.8484924,6.626219,-1.5947682,15.188077,-33.563454,60.069756,7.640864,7.5692782,6.7718205,-6.062528,-19.046917,52.84813,55.772015,-2.4011366,7.2013574,-10.496987
6,-0.14980004727840424,2.057708740234375,78.86873626708984,1.8986295477424382,1.76917660619052,-91.01728944591265,-2.8383563,3.1108568,2.9818103,6.873343,-7.6841373,-4.1093435,-8.511586,-7.531935,-1.1553719,19.313745,-10.359742,2.958179,0.08879631,-1.8985312,6.6065974,-1.6130334,15.212292,-33.538105,60.07412,7.618646,7.565003,6.7847,-6.015145,-19.061834,52.803715,55.72708,-2.3688002,7.198464,-10.508651
7,-0.17224633693695068,2.0489635467529297,78.86270904541016,1.93668946332077,1.793329687600642,-90.99677505872253,-2.8551042,3.082984,2.9668117,6.8699894,-7.78856,-4.2194138,-8.670872,-7.5679893,-1.1632223,19.61866,-10.562829,2.8569684,0.0908169,-1.9451987,6.5893598,-1.63361,15.241991,-33.527866,60.083168,7.5989513,7.5596557,6.7930264,-5.9576163,-19.07293,52.754147,55.67865,-2.334394,7.193126,-10.520905
8,-0.192456915974617,2.0355570316314697,78.85953521728516,1.9635634563252584,1.7934794361910333,-90.96382276835946,-2.8437855,3.0682733,2.9356563,6.8693237,-7.88833,-4.3081417,-8.766113,-7.5912094,-1.1925765,19.872147,-10.756,2.7574782,0.08595544,-1.9831325,6.5871763,-1.6476016,15.282136,-33.533512,60.085957,7.5813327,7.5543118,6.7984633,-5.885639,-19.081942,52.698105,55.619316,-2.3045158,7.185379,-10.532101
9,-0.21926788985729218,2.024667978286743,78.85337829589844,1.9706537695139377,1.7584699688265297,-90.91179604769775,-2.7955313,3.0769334,2.8788579,6.8775277,-7.982588,-4.373514,-8.7723675,-7.593039,-1.2547349,20.057085,-10.934582,2.6602354,0.070313744,-2.0066314,6.610931,-1.6470611,15.346704,-33.559875,60.066246,7.5543075,7.5491457,6.7980843,-5.792554,-19.089823,52.631077,55.53991,-2.2872202,7.172348,-10.540375
10,-0.24338260293006897,2.0128331184387207,78.84210205078125,1.940340536425008,1.6984315525229066,-90.84407637257927,-2.783545,3.1292856,2.7929227,7.0252175,-8.143539,-4.4223905,-8.727191,-7.5577936,-1.3494337,20.222382,-11.118862,2.5604343,0.033234414,-1.986687,6.6441646,-1.6558093,15.387279,-33.587585,60.077377,7.5327153,7.541484,6.7972517,-5.6927185,-19.090508,52.575294,55.465088,-2.2718065,7.155751,-10.548283
11,-0.292254775762558,1.9596531391143799,78.83936309814453,1.9062294194114275,1.6310090267196697,-90.77278337094907,-2.9279902,3.1930907,2.693135,7.5287447,-8.49136,-4.453453,-8.661559,-7.5177875,-1.4507328,20.375101,-11.306805,2.4604495,0.010575652,-1.9749687,6.686638,-1.6441283,15.473834,-33.644726,60.0455,7.516042,7.536583,6.790307,-5.576272,-19.08877,52.493282,55.370705,-2.2574425,7.139771,-10.556374
12,-0.3222610354423523,1.9233306646347046,78.82941436767578,1.884929498145506,1.5734041479531224,-90.70993014893341,-3.0419466,3.2404428,2.6071126,7.9548965,-8.802127,-4.4669676,-8.611007,-7.4894743,-1.5378512,20.53546,-11.503957,2.3624508,-0.014929806,-1.9734597,6.715793,-1.6211302,15.557469,-33.692154,60.014248,7.5378227,7.531984,6.786029,-5.469857,-19.084478,52.42942,55.282185,-2.2174213,7.1309466,-10.570153
13,-0.3537372350692749,1.8878387212753296,78.81803894042969,1.8818136456785637,1.5271073917771938,-90.65626127279137,-3.1097069,3.2634184,2.5377371,8.264797,-9.058249,-4.45192,-8.581181,-7.4806023,-1.6079134,20.710117,-11.717803,2.2662945,-0.034858454,-1.9855722,6.7297487,-1.597333,15.632072,-33.74297,59.9941,7.614285,7.524161,6.7868266,-5.3679123,-19.079802,52.376057,55.194782,-2.1441567,7.1332407,-10.5926
14,-0.38753217458724976,1.8485692739486694,78.80891418457031,1.888319569301201,1.4839862314190746,-90.6063812888087,-3.1438355,3.2734778,2.4756541,8.503528,-9.278731,-4.411522,-8.551796,-7.4816446,-1.671291,20.88282,-11.940474,2.17101,-0.05396627,-2.0010726,6.733328,-1.5793996,15.687886,-33.797188,59.99721,7.733744,7.513241,6.792278,-5.266663,-19.07655,52.33213,55.108875,-2.0466254,7.1431155,-10.621111
15,-0.42294299602508545,1.8069615364074707,78.8001937866211,1.8995768313692203,1.4465738214385346,-90.56255583007126,-3.1534956,3.280327,2.4217806,8.687344,-9.474107,-4.3671913,-8.527076,-7.4835854,-1.726082,21.054718,-12.1637335,2.077805,-0.063605815,-2.023114,6.728329,-1.5539255,15.74909,-33.85629,59.997746,7.858991,7.508049,6.7980294,-5.161455,-19.07351,52.28195,55.020756,-1.9460286,7.1538963,-10.649115
16,-0.461189866065979,1.7543113231658936,78.79256439208984,1.9108257804668678,1.417526694648958,-90.52730424898226,-3.1447496,3.2933998,2.3773189,8.825747,-9.65073,-4.3403997,-8.511127,-7.4774585,-1.7703409,21.226427,-12.378583,1.9880065,-0.06401031,-2.0523531,6.715433,-1.5053091,15.830783,-33.907776,59.975117,7.96003,7.5164366,6.8002405,-5.0561647,-19.06887,52.22435,54.933327,-1.8574581,7.1588783,-10.670541
17,-0.5068614482879639,1.6969541311264038,78.78075408935547,1.9195471588464912,1.4017113565822257,-90.50305124611525,-3.1181803,3.3173373,2.3439758,8.91034,-9.808449,-4.3398485,-8.508128,-7.4577413,-1.8016343,21.393358,-12.580792,1.9035996,-0.06137076,-2.078203,6.6817236,-1.4531437,15.896599,-33.943123,59.970478,8.034322,7.5474706,6.805947,-4.958221,-19.06268,52.177696,54.86166,-1.7790211,7.157084,-10.684385
18,-0.5533755421638489,1.632548451423645,78.77276611328125,1.928482637914467,1.3963407541838209,-90.48798486032652,-3.070624,3.3467786,2.320692,8.93825,-9.943347,-4.35303,-8.515735,-7.4305196,-1.8214535,21.558704,-12.776473,1.8234109,-0.052117385,-2.1033256,6.631063,-1.3993349,15.950636,-33.97291,59.98107,8.095537,7.5946927,6.8148036,-4.8625712,-19.054869,52.134724,54.800354,-1.70532,7.151812,-10.693745
19,-0.6029811501502991,1.5686140060424805,78.76302337646484,1.9412651408753439,1.392403214869255,-90.47770841646086,-3.0040135,3.3756444,2.3046463,8.933675,-10.061058,-4.3694615,-8.523157,-7.403423,-1.8348873,21.724243,-12.968553,1.7438768,-0.039948653,-2.130861,6.5749974,-1.3374982,15.994815,-33.98956,60.00258,8.154301,7.6379194,6.821281,-4.7671027,-19.046038,52.08519,54.746277,-1.637829,7.1439986,-10.700042
20,-0.6657625436782837,1.5108187198638916,78.7492446899414,1.961299565590363,1.3809481802171095,-90.46802933531826,-2.9205027,3.3976202,2.2928426,8.919612,-10.165869,-4.378691,-8.523223,-7.384166,-1.8465528,21.899918,-13.161033,1.6614144,-0.026169455,-2.1669586,6.526805,-1.2546418,16.043188,-33.988113,60.0173,8.219557,7.657849,6.8184547,-4.670443,-19.0344,52.015217,54.6977,-1.579101,7.1343336,-10.704586
21,-0.7128913402557373,1.4336469173431396,78.74148559570312,1.9926873413150348,1.356018046701328,-90.45882983155639,-2.8084862,3.406654,2.2880952,8.889099,-10.252136,-4.3780813,-8.510452,-7.3803296,-1.8557174,22.09071,-13.35718,1.5772945,-0.016899774,-2.2097213,6.486893,-1.1516625,16.075771,-33.95405,60.046177,8.304291,7.6361127,6.8031025,-4.572048,-19.025223,51.930958,54.657223,-1.5233018,7.118825,-10.706602
22,-0.7740047574043274,1.3643465042114258,78.72988891601562,2.033043730614259,1.3234960853231639,-90.45205156410651,-2.669842,3.4073038,2.2908583,8.831294,-10.3178215,-4.373373,-8.4903145,-7.3860006,-1.8605328,22.292044,-13.554117,1.4926368,-0.0024182028,-2.2646878,6.455451,-1.0225474,16.119463,-33.899246,60.061546,8.398056,7.5887785,6.775156,-4.470132,-19.012354,51.820843,54.62008,-1.4788669,7.097733,-10.7040825
23,-0.8414809703826904,1.2900829315185547,78.71939849853516,2.0739181992367146,1.2923836419593315,-90.44649686374167,-2.5303018,3.4104724,2.2942145,8.774022,-10.380339,-4.3663607,-8.467959,-7.388206,-1.8643754,22.488838,-13.74569,1.4037838,0.007995431,-2.317909,6.422195,-0.8866742,16.15245,-33.83235,60.083626,8.486499,7.542281,6.748704,-4.371489,-19.001074,51.709137,54.58781,-1.4401287,7.081536,-10.702769
24,-0.9029439687728882,1.1973190307617188,78.71299743652344,2.1077275589141826,1.27159732678795,-90.44102608422702,-2.412827,3.4266841,2.2915936,8.739202,-10.454003,-4.3590035,-8.452553,-7.374414,-1.8699503,22.675737,-13.926604,1.307045,0.018321443,-2.3664072,6.386982,-0.75098896,16.188288,-33.768322,60.095512,8.555657,7.5252748,6.731372,-4.277704,-18.98672,51.589672,54.55566,-1.4176412,7.0792747,-10.705016
25,-0.9787594676017761,1.1030484437942505,78.70904541015625,2.132664341270407,1.263094821560727,-90.44000565362643,-2.3217747,3.4593914,2.2863219,8.73391,-10.544436,-4.3523836,-8.447147,-7.3396425,-1.8737772,22.849194,-14.093919,1.2021015,0.030397698,-2.4064393,6.3457446,-0.6190754,16.217548,-33.705566,60.101994,8.60177,7.5490713,6.727217,-4.1902304,-18.971327,51.467545,54.526314,-1.4071071,7.1019335,-10.715163
26,-1.058212399482727,1.0230189561843872,78.6963119506836,2.152786901132078,1.262233046528587,-90.44254055351034,-2.242607,3.502479,2.28042,8.739748,-10.639963,-4.345434,-8.446716,-7.291428,-1.8756969,23.013279,-14.250702,1.0907083,0.04829003,-2.4461453,6.304303,-0.48048213,16.255936,-33.643475,60.090683,8.629748,7.598282,6.728304,-4.107751,-18.945444,51.329475,54.503494,-1.4130545,7.1408095,-10.729412
27,-1.1473772525787354,0.9176132082939148,78.68719482421875,2.1685742948728337,1.2682411749830642,-90.43943308980039,-2.1818938,3.5534217,2.2645667,8.76658,-10.74332,-4.336327,-8.447828,-7.235155,-1.8837274,23.171818,-14.403006,0.97217655,0.055582874,-2.479615,6.258793,-0.3445805,16.283848,-33.580643,60.090027,8.646628,7.657236,6.736559,-4.030325,-18.921103,51.197506,54.48188,-1.4282683,7.178862,-10.74376
28,-1.2243993282318115,0.853584885597229,78.67445373535156,2.1812931293285693,1.2803361348544902,-90.4217012987752,-2.1424143,3.6084323,2.2297652,8.81689,-10.853595,-4.3232427,-8.446181,-7.176449,-1.9058248,23.326454,-14.556013,0.845967,0.050374378,-2.5136275,6.212848,-0.20931585,16.319899,-33.530285,60.093273,8.652516,7.7123523,6.7476444,-3.9581366,-18.886736,51.06375,54.464966,-1.461883,7.196711,-10.751699
29,-1.3225332498550415,0.7504285573959351,78.66542053222656,2.18801343101927,1.2997592946829426,-90.38167702524856,-2.135417,3.6698835,2.1659143,8.906909,-10.9760065,-4.3053813,-8.440621,-7.114248,-1.9484555,23.481037,-14.711414,0.7019353,0.013198536,-2.5368307,6.159838,-0.0781125,16.341576,-33.48614,60.121536,8.644504,7.767514,6.7728915,-3.8850775,-18.864609,50.945297,54.435925,-1.5109934,7.186228,-10.752483
30,-1.4160807132720947,0.6625596880912781,78.65450286865234,2.1893844486291503,1.3263087593776846,-90.32592353442467,-2.1541476,3.7380757,2.080523,9.026584,-11.107207,-4.283781,-8.433594,-7.0465355,-2.0056825,23.634066,-14.866791,0.54370064,-0.034986224,-2.5582643,6.1055446,0.052553415,16.370806,-33.456715,60.15159,8.620011,7.8291097,6.806435,-3.811495,-18.83609,50.813145,54.4053,-1.5869317,7.1568894,-10.746783
31,-1.5150991678237915,0.562771201133728,78.64453887939453,2.19053432743716,1.3577202416314684,-90.26679876369145,-2.1825538,3.8087258,1.9899011,9.1548605,-11.242038,-4.259439,-8.425985,-6.9766383,-2.0677803,23.778349,-15.020521,0.3912365,-0.0809156,-2.5849245,6.055849,0.18501462,16.417292,-33.43706,60.171402,8.590494,7.8817263,6.8318124,-3.7479107,-18.792952,50.681843,54.383644,-1.6682259,7.122665,-10.738607
32,-1.62119460105896,0.47358962893486023,78.62863159179688,2.1960332643172085,1.3914770807008277,-90.21660460570737,-2.2048843,3.8781867,1.9103526,9.270312,-11.374318,-4.233383,-8.419508,-6.9073834,-2.125054,23.907692,-15.171245,0.26464617,-0.12048971,-2.6137304,6.016109,0.31275097,16.462763,-33.40513,60.19131,8.578718,7.9083877,6.83488,-3.7006948,-18.752298,50.57597,54.364647,-1.7309369,7.0993447,-10.730835
33,-1.7212128639221191,0.366211473941803,78.61804962158203,2.2095764345216353,1.4276704754693996,-90.17882533239454,-2.2188802,3.941941,1.8466104,9.367392,-11.502653,-4.205871,-8.419594,-6.8429565,-2.1750016,24.024963,-15.319695,0.17338775,-0.14711112,-2.6409483,5.987634,0.41573983,16.486868,-33.363674,60.2382,8.594914,7.892853,6.804955,-3.6622431,-18.73188,50.4966,54.329845,-1.7692611,7.0959964,-10.723199
34,-1.8223849534988403,0.3047613799571991,78.6011962890625,2.2282144770372563,1.4672737174908255,-90.14695426370211,-2.2320738,4.003095,1.7899486,9.457161,-11.629953,-4.1764936,-8.424753,-6.7808228,-2.2226102,24.13401,-15.46695,0.10539768,-0.16025482,-2.6746254,5.9729667,0.51384586,16.522385,-33.32004,60.27512,8.628414,7.850384,6.7483053,-3.63865,-18.706446,50.41802,54.299183,-1.8060381,7.10033,-10.711789
35,-1.9519848823547363,0.17843158543109894,78.59551239013672,2.2456339307896105,1.509395143276617,-90.11794964739069,-2.2455728,4.0694804,1.7362533,9.546984,-11.759496,-4.1449676,-8.424181,-6.713101,-2.2702005,24.225597,-15.610021,0.048469055,-0.17013068,-2.7065032,5.9632235,0.6105151,16.558332,-33.274986,60.309727,8.660604,7.8031764,6.6895843,-3.6190627,-18.683989,50.356487,54.26561,-1.8316044,7.1047883,-10.7008915
36,-2.0590500831604004,0.09697839617729187,78.58177185058594,2.25570801230785,1.553383367298951,-90.08915384602989,-2.2593937,4.148555,1.6815648,9.641853,-11.893021,-4.1109858,-8.40712,-6.6319785,-2.3197315,24.291302,-15.74622,-0.009574621,-0.18023834,-2.735256,5.956975,0.72220236,16.609135,-33.22916,60.317665,8.675109,7.7766705,6.6484904,-3.6037238,-18.656479,50.309475,54.23941,-1.8489692,7.098528,-10.690926
37,-2.1734657287597656,-0.0021598024759441614,78.57050323486328,2.2572188948584144,1.5961220309703192,-90.059373019523,-2.2673647,4.242496,1.6256135,9.737936,-12.031635,-4.075413,-8.363779,-6.5357213,-2.37298,24.321358,-15.87281,-0.06584647,-0.18665937,-2.7494144,5.9507694,0.822574,16.638363,-33.195213,60.34,8.668353,7.7811174,6.637185,-3.5773969,-18.642366,50.27782,54.20629,-1.8554054,7.0778356,-10.682934
38,-2.31484055519104,-0.14300955832004547,78.5641098022461,2.2531939878894742,1.6391896580230487,-90.03029148590099,-2.2699912,4.347217,1.570354,9.831168,-12.172404,-4.0380588,-8.301937,-6.428304,-2.428401,24.322527,-15.991637,-0.11585055,-0.18771753,-2.757989,5.948349,0.917689,16.664246,-33.1681,60.363953,8.648625,7.8015475,6.6404324,-3.5483859,-18.631987,50.257973,54.171852,-1.8537271,7.0479307,-10.675812
39,-2.447598695755005,-0.26258206367492676,78.55323791503906,2.243775988315871,1.6878467728762288,-90.00321150715642,-2.2856488,4.461453,1.5142738,9.944574,-12.3212595,-3.996873,-8.237271,-6.31032,-2.4833403,24.310759,-16.107248,-0.16909625,-0.18559037,-2.757738,5.946151,1.0174886,16.686787,-33.138123,60.378727,8.620416,7.825326,6.6538568,-3.5220797,-18.624762,50.245956,54.14068,-1.8450767,7.0160756,-10.667344
40,-2.56156325340271,-0.3487204611301422,78.53855895996094,2.2291449590055428,1.7474800417813596,-89.97938653030855,-2.325003,4.5838356,1.4563328,10.085078,-12.475384,-3.9498374,-8.184352,-6.1819553,-2.5353868,24.299784,-16.222849,-0.23533088,-0.18341856,-2.7513425,5.940745,1.1263107,16.712503,-33.09052,60.382107,8.590088,7.8352904,6.6701403,-3.500459,-18.618494,50.23783,54.11181,-1.8315384,6.9901533,-10.655798
41,-2.689988613128662,-0.46554332971572876,78.5262451171875,2.2104582782490074,1.8224027741233797,-89.96057279751754,-2.3858843,4.7126913,1.3992177,10.238645,-12.627585,-3.9032185,-8.15146,-6.045164,-2.5840266,24.296135,-16.342697,-0.31718886,-0.18919675,-2.7412095,5.9306507,1.256943,16.751448,-33.012264,60.358418,8.556932,7.8310537,6.688061,-3.49099,-18.612244,50.24421,54.085712,-1.806132,6.9714184,-10.64114
42,-2.8335094451904297,-0.5903844833374023,78.5128402709961,2.187060699307636,1.9087750786003346,-89.94560906536758,-2.4651036,4.8494453,1.342172,10.408466,-12.782422,-3.855821,-8.128826,-5.898862,-2.630651,24.2902,-16.463324,-0.4094767,-0.18493229,-2.721502,5.9124846,1.3767264,16.775366,-32.935577,60.351063,8.513715,7.818835,6.7157483,-3.47872,-18.610868,50.250477,54.062206,-1.7721484,6.956227,-10.624522
43,-2.9650325775146484,-0.7124571204185486,78.49787139892578,2.1559507516998786,2.0001779736153593,-89.93143986227093,-2.5713754,4.997257,1.2790583,10.626535,-12.953892,-3.7946608,-8.10634,-5.738702,-2.675539,24.276327,-16.578362,-0.51048446,-0.19584161,-2.69428,5.8992805,1.5241625,16.81248,-32.824314,60.30804,8.475141,7.7960835,6.7431526,-3.479385,-18.612717,50.276344,54.038784,-1.7338053,6.9445148,-10.605156
44,-3.102937698364258,-0.8372717499732971,78.48137664794922,2.1134783341622123,2.0904612972334333,-89.91513260322151,-2.7184193,5.1600037,1.2031106,10.934321,-13.16108,-3.7067447,-8.073908,-5.5599847,-2.7189407,24.249163,-16.682276,-0.61836964,-0.1896653,-2.6526394,5.887781,1.6534594,16.834723,-32.731083,60.28513,8.430783,7.758006,6.7744226,-3.4693666,-18.615688,50.281708,54.018543,-1.7080052,6.9353514,-10.582297
45,-3.2523136138916016,-0.9677666425704956,78.46697998046875,2.0613047578047943,2.1782847490464285,-89.89648317156623,-2.8942478,5.336245,1.1154379,11.311994,-13.394248,-3.5881975,-8.027841,-5.36146,-2.75457,24.205236,-16.770632,-0.73471916,-0.18143451,-2.6014383,5.882101,1.7796193,16.854174,-32.638554,60.269947,8.381712,7.6900654,6.808168,-3.4578328,-18.61908,50.283665,54.000458,-1.6900715,6.9291887,-10.553594
46,-3.3878226280212402,-1.1000312566757202,78.45246887207031,1.9991507700587823,2.2667647848347947,-89.87663563506177,-3.1001365,5.5256486,1.0172385,11.75412,-13.650908,-3.446372,-7.973846,-5.144126,-2.7851014,24.148932,-16.848356,-0.85998696,-0.17829207,-2.5390291,5.8819785,1.9193054,16.876532,-32.532845,60.239437,8.33242,7.601321,6.8447733,-3.4531152,-18.623476,50.29024,53.988018,-1.6764177,6.9264507,-10.5197
47,-3.5443406105041504,-1.2312052249908447,78.4312744140625,1.9205484231596828,2.35697096936014,-89.85520272635601,-3.3531282,5.733696,0.90364474,12.292049,-13.945712,-3.2856252,-7.9110975,-4.9064164,-2.8240597,24.075409,-16.916416,-0.99058783,-0.16363692,-2.4590652,5.882882,2.0518472,16.894192,-32.430344,60.20757,8.283232,7.5153413,6.8797226,-3.4428775,-18.627321,50.284107,53.97895,-1.6720823,6.9255896,-10.486536
48,-3.697324514389038,-1.3674116134643555,78.4064712524414,1.8185188276186157,2.4494554021789083,-89.83134799243618,-3.6743064,5.966295,0.7685268,12.964116,-14.296572,-3.1104722,-7.8395133,-4.646191,-2.8854337,23.981436,-16.97691,-1.1231073,-0.14883761,-2.350561,5.88729,2.2001538,16.909887,-32.303677,60.135845,8.252958,7.461352,6.906999,-3.4388962,-18.631756,50.273483,53.97863,-1.679369,6.9261837,-10.457911
49,-3.849057197570801,-1.506018877029419,78.38285827636719,1.6941068776372827,2.545369075012813,-89.80749516522317,-4.063633,6.2207303,0.60802823,13.768711,-14.702077,-2.913593,-7.762415,-4.364647,-2.9722612,23.868538,-17.029367,-1.2625186,-0.1389845,-2.2186437,5.897269,2.3696165,16.930296,-32.135822,60.010563,8.256784,7.4577336,6.916399,-3.442818,-18.639002,50.266315,53.982887,-1.6948116,6.925536,-10.439925
50,-3.997619390487671,-1.6437798738479614,78.35354614257812,1.5483375153157604,2.6438143783257004,-89.78333766065998,-4.5092516,6.496276,0.4243886,14.68261,-15.151221,-2.6959107,-7.6770177,-4.0601487,-3.0777996,23.733898,-17.070866,-1.4090121,-0.11819886,-2.0630589,5.908107,2.5421805,16.947466,-31.959902,59.86,8.276277,7.486816,6.916817,-3.4444437,-18.646837,50.247112,53.994816,-1.7203475,6.9246135,-10.428964
51,-4.147894859313965,-1.7940949201583862,78.31993865966797,1.3753584104595131,2.74314975037883,-89.75434606907136,-5.012718,6.799679,0.2210408,15.710874,-15.6476965,-2.4739149,-7.576737,-3.7274156,-3.2000334,23.572811,-17.10356,-1.5518086,-0.10150497,-1.8747311,5.923851,2.726896,16.963545,-31.76477,59.684074,8.296612,7.516896,6.918736,-3.4513855,-18.657423,50.225777,54.008244,-1.758335,6.929117,-10.414584
52,-4.3008832931518555,-1.9347021579742432,78.27479553222656,1.1701749271258484,2.8415282328462075,-89.71624473128959,-5.5742364,7.136669,0.0020410335,16.854424,-16.19293,-2.2639923,-7.4555726,-3.36215,-3.3362489,23.381523,-17.130001,-1.6800364,-0.08137471,-1.6456462,5.941722,2.9113088,16.973038,-31.575758,59.50787,8.290013,7.516496,6.9369006,-3.4593809,-18.669344,50.19243,54.023605,-1.8128763,6.943925,-10.38751
53,-4.426076412200928,-2.0584237575531006,78.22379302978516,0.9223132986771547,2.9420570645194593,-89.6735290153038,-6.2039375,7.522296,-0.23400627,18.13134,-16.820305,-2.0731244,-7.314986,-2.9497867,-3.482499,23.15262,-17.146973,-1.7867223,-0.06882278,-1.3645937,5.9625583,3.1071138,16.978992,-31.36996,59.321568,8.257028,7.4660563,6.972861,-3.4770155,-18.68643,50.15965,54.03776,-1.8835473,6.969525,-10.340083
54,-4.560279846191406,-2.2053866386413574,78.17179870605469,0.6398485522758421,3.04424362319759,-89.62719916229678,-6.891949,7.9444366,-0.48888502,19.5219,-17.51292,-1.891694,-7.1578956,-2.4993477,-3.639034,22.89003,-17.153748,-1.878642,-0.073816694,-1.0401245,5.9905615,3.3252301,16.982903,-31.12684,59.10761,8.216219,7.3855677,7.0179453,-3.5060534,-18.720217,50.139957,54.04073,-1.9642923,7.004476,-10.278441
55,-4.705212593078613,-2.365442991256714,78.11736297607422,0.3448122345097377,3.1415981705709757,-89.56740453384703,-7.621415,8.370022,-0.76038814,20.998888,-18.205685,-1.7109227,-6.9797697,-2.0412269,-3.8099954,22.606447,-17.157528,-1.9657558,-0.07338049,-0.6947188,6.026317,3.537882,16.979454,-30.896086,58.89104,8.158356,7.3036427,7.073209,-3.5261202,-18.761978,50.100754,54.034115,-2.0624573,7.0496583,-10.213776
56,-4.854310512542725,-2.5281434059143066,78.06092071533203,0.05881650171686826,3.227462288917725,-89.4841103368517,-8.369518,8.767372,-1.0445967,22.521126,-18.832785,-1.5209641,-6.777043,-1.6053884,-4.0002093,22.31555,-17.165588,-2.058195,-0.072589286,-0.3515573,6.0756736,3.7432444,16.969852,-30.6835,58.67167,8.089785,7.2482605,7.1351023,-3.5391622,-18.799633,50.03832,54.026688,-2.180883,7.1062183,-10.156668
57,-4.994905948638916,-2.687849283218384,78.00263977050781,-0.23011359816061502,3.2980519397008363,-89.37208128009944,-9.135954,9.146849,-1.3751322,24.090275,-19.40183,-1.3387151,-6.534512,-1.1786649,-4.2195973,21.998945,-17.171318,-2.1607683,-0.11025571,0.011305195,6.1529326,3.9630635,16.944551,-30.438618,58.42818,8.033707,7.235113,7.2074122,-3.5429766,-18.87968,49.984543,53.971027,-2.3289387,7.189472,-10.103825
58,-5.116754531860352,-2.856799840927124,77.94317626953125,-0.5260311002981413,3.357957752044885,-89.2374067123109,-9.931873,9.517276,-1.7427181,25.722528,-19.94093,-1.1599617,-6.260278,-0.753174,-4.4616942,21.657635,-17.173807,-2.267324,-0.1458681,0.39159474,6.243756,4.171416,16.90941,-30.218319,58.18581,7.962106,7.247876,7.294161,-3.529526,-18.970299,49.90415,53.898426,-2.5085049,7.2919087,-10.053231
59,-5.223616600036621,-3.0244078636169434,77.8894271850586,-0.7995415597644683,3.413287090266685,-89.086601013767,-10.76271,9.853537,-2.0820124,27.424953,-20.418102,-0.94731706,-5.9802766,-0.3621359,-4.709316,21.32665,-17.186274,-2.371695,-0.18065006,0.7567913,6.347567,4.3741713,16.862799,-29.993824,57.940758,7.88815,7.259289,7.376494,-3.5109386,-19.076704,49.808735,53.808594,-2.681482,7.39133,-10.007131
60,-5.317780017852783,-3.1930878162384033,77.84040069580078,-1.0213831013902226,3.469816855788615,-88.92613316319662,-11.634133,10.133001,-2.3273702,29.208267,-20.80321,-0.6628177,-5.721484,-0.03864427,-4.9464326,21.044981,-17.223612,-2.467771,-0.20368744,1.0731522,6.4603624,4.5687733,16.806564,-29.758017,57.69608,7.8146873,7.242925,7.4370527,-3.4947608,-19.194954,49.69822,53.708523,-2.812221,7.4648848,-9.969087
61,-5.407991409301758,-3.367246389389038,77.7957534790039,-1.1841730269350004,3.5287065672073816,-88.75147157251364,-12.559037,10.357761,-2.4541516,31.110065,-21.072788,-0.29121774,-5.489682,0.20714125,-5.174338,20.821636,-17.28982,-2.549628,-0.2170549,1.3347003,6.582865,4.7534556,16.740555,-29.509584,57.44931,7.7598457,7.184488,7.459087,-3.4811792,-19.326872,49.568043,53.59578,-2.8918166,7.5019865,-9.938889
62,-5.500728130340576,-3.5426323413848877,77.7555160522461,-1.3042509466309773,3.5868868842982136,-88.56099737466089,-13.532762,10.544431,-2.4998043,33.119858,-21.250294,0.15041646,-5.2715,0.3941693,-5.4013605,20.639187,-17.378233,-2.6221187,-0.22526214,1.5590888,6.716425,4.931189,16.664669,-29.251343,57.198578,7.7168,7.100659,7.455647,-3.4665174,-19.473797,49.419857,53.46793,-2.9401655,7.516509,-9.91522
63,-5.581799507141113,-3.729130268096924,77.7170181274414,-1.388912445898863,3.643197883573088,-88.3658753119223,-14.526432,10.692202,-2.488853,35.161922,-21.37688,0.6502218,-5.0616646,0.5335214,-5.6225777,20.489891,-17.484884,-2.6956365,-0.22170629,1.7499886,6.858181,5.1048446,16.57969,-28.982151,56.95035,7.6505857,7.010969,7.453979,-3.4538307,-19.633856,49.26681,53.33086,-2.958888,7.521937,-9.899931
64,-5.652331352233887,-3.9158825874328613,77.68826293945312,-1.444816352608922,3.696587265625324,-88.17721839745225,-15.51044,10.797183,-2.4447205,37.159046,-21.490843,1.1929458,-4.856685,0.63601446,-5.832858,20.370382,-17.60799,-2.7805572,-0.20063752,1.9100019,7.004875,5.2798495,16.486671,-28.69822,56.70905,7.528199,6.935047,7.4810734,-3.4483612,-19.8027,49.122433,53.194046,-2.9511125,7.5318155,-9.895159
65,-5.727493762969971,-4.107975482940674,77.65786743164062,-1.472434905399542,3.747721849128031,-87.98935379537015,-16.504087,10.865062,-2.3525279,39.16698,-21.59154,1.8293403,-4.659138,0.70088667,-6.0380864,20.285889,-17.75004,-2.8867614,-0.16631724,2.0378988,7.157384,5.4554496,16.385761,-28.396544,56.47646,7.3229346,6.876848,7.5511646,-3.4559374,-19.976423,48.993538,53.064533,-2.8962226,7.546882,-9.901736
66,-5.789483070373535,-4.315114974975586,77.63232421875,-1.4690492934575194,3.796391465403948,-87.79912137785375,-17.511148,10.899212,-2.2034292,41.198013,-21.660604,2.5496914,-4.468829,0.7238713,-6.2391973,20.235731,-17.9109,-3.006354,-0.12128799,2.13255,7.316051,5.6309223,16.27706,-28.078249,56.249832,7.0586653,6.825892,7.6473236,-3.47573,-20.153498,48.87307,52.94319,-2.8009834,7.560606,-9.918771
67,-5.845247745513916,-4.531498432159424,77.61177062988281,-1.436384577206868,3.840514037342231,-87.62127347897273,-18.488714,10.886507,-2.0313158,43.130447,-21.718063,3.2430234,-4.281026,0.7097873,-6.423367,20.211998,-18.08647,-3.12318,-0.05633647,2.197248,7.4773893,5.811184,16.161993,-27.747375,56.025032,6.7774067,6.78099,7.7495756,-3.5036888,-20.331938,48.75704,52.827427,-2.703865,7.5751047,-9.945948
68,-5.899294853210449,-4.7508039474487305,77.59153747558594,-1.3757182807068242,3.878440388124337,-87.47023285706186,-19.394321,10.810099,-1.8702635,44.84308,-21.783411,3.7957528,-4.0899796,0.6625931,-6.5776787,20.204275,-18.27174,-3.2209306,0.037582897,2.2344818,7.638048,6.002586,16.042665,-27.40689,55.79597,6.5222926,6.74097,7.837767,-3.536121,-20.509306,48.640762,52.714645,-2.6440005,7.592617,-9.982884
69,-5.930518627166748,-4.98101806640625,77.57455444335938,-1.2758400417889368,3.903288647666411,-87.3466458392463,-20.207611,10.653913,-1.7068487,46.316353,-21.879246,4.169481,-3.8936086,0.5666663,-6.701343,20.225788,-18.47329,-3.296171,0.16337305,2.2324746,7.8033586,6.2050138,15.9192,-27.060041,55.564827,6.2908645,6.716039,7.9070406,-3.5738564,-20.684021,48.528503,52.611034,-2.628128,7.611146,-10.035824
70,-5.97472620010376,-5.225419044494629,77.56202697753906,-1.1393487367005364,3.918129282404877,-87.24358646809826,-20.95658,10.427941,-1.5285715,47.617153,-21.990705,4.4236884,-3.6957006,0.42417616,-6.8006806,20.277767,-18.691593,-3.3570855,0.31601563,2.1931624,7.972957,6.4166784,15.791564,-26.704533,55.33254,6.0643997,6.703372,7.9678726,-3.6199493,-20.85529,48.42128,52.519093,-2.636517,7.6302457,-10.103072
71,-6.0084428787231445,-5.4836320877075195,77.55143737792969,-0.9885719023985964,3.9356292675881726,-87.16474744204653,-21.674099,10.150354,-1.3707749,48.757015,-22.08258,4.58907,-3.5000405,0.26636794,-6.873541,20.334394,-18.913494,-3.4049792,0.49289295,2.1397755,8.135195,6.642107,15.662842,-26.335386,55.089916,5.8616486,6.682953,8.023169,-3.6733196,-21.021402,48.309383,52.42908,-2.6691716,7.654344,-10.172005
72,-6.0478901863098145,-5.744613170623779,77.53954315185547,-0.8459608442286582,3.968464485642841,-87.11399094492221,-22.390278,9.838787,-1.2679031,49.740955,-22.116018,4.6950593,-3.3111608,0.12435207,-6.9175076,20.370953,-19.12611,-3.441105,0.6913785,2.0951405,8.278451,6.8868604,15.538355,-25.948627,54.826035,5.6994004,6.6349382,8.075431,-3.7317927,-21.179989,48.18155,52.330936,-2.7278001,7.6878495,-10.229957
73,-6.09075927734375,-6.026968002319336,77.52333068847656,-0.7113788996410462,4.022000984807855,-87.100035658405,-23.109785,9.483996,-1.2283798,50.559536,-22.090939,4.7328477,-3.1331503,0.0010795195,-6.922888,20.381294,-19.327839,-3.4538267,0.91846895,2.057478,8.395185,7.1590486,15.423075,-25.542456,54.53645,5.568882,6.550611,8.12318,-3.7952867,-21.327324,48.037083,52.22796,-2.8251443,7.7423954,-10.275733
74,-6.124754428863525,-6.306829452514648,77.50566864013672,-0.5752136594963003,4.089007419584758,-87.11827623477839,-23.817635,9.07923,-1.2325491,51.211323,-22.02313,4.687795,-2.9634573,-0.118525065,-6.8939557,20.379642,-19.52577,-3.4464333,1.1728569,2.0153956,8.49366,7.4578414,15.318452,-25.119705,54.221172,5.4638553,6.442108,8.164634,-3.867501,-21.461721,47.882233,52.127384,-2.9561422,7.811791,-10.3154
75,-6.137870788574219,-6.575115203857422,77.4869613647461,-0.444907946456548,4.163120796199517,-87.15265609329231,-24.513441,8.646832,-1.2732583,51.711624,-21.897152,4.581321,-2.795452,-0.2299254,-6.8490415,20.369576,-19.717958,-3.442496,1.440028,1.9773612,8.58624,7.777554,15.2230425,-24.680157,53.874245,5.408947,6.320695,8.202179,-3.949056,-21.584753,47.713257,52.020016,-3.0962136,7.87394,-10.3470955
76,-6.151515483856201,-6.869284152984619,77.4675064086914,-0.32910689032071994,4.238205362879997,-87.18681093963774,-25.195866,8.209698,-1.3443741,52.07478,-21.696703,4.4360967,-2.621919,-0.32825136,-6.806414,20.353668,-19.902142,-3.4657748,1.7060604,1.9536108,8.685167,8.110067,15.133639,-24.22545,53.49166,5.4284086,6.1975565,8.238689,-4.0392137,-21.700489,47.527348,51.893436,-3.2186534,7.9069824,-10.3690195
77,-6.177053451538086,-7.178645610809326,77.44956970214844,-0.23086652376721875,4.313522341801382,-87.22551814534825,-25.863745,7.7661023,-1.4558712,52.29122,-21.408167,4.257476,-2.4554284,-0.40938833,-6.762557,20.353216,-20.076218,-3.5519693,1.9747307,1.9498131,8.794821,8.45332,15.047114,-23.747904,53.075535,5.5418487,6.0728827,8.266685,-4.132807,-21.812069,47.307472,51.744,-3.3366587,7.89936,-10.3760195
78,-6.189717769622803,-7.486695766448975,77.42615509033203,-0.14593748812631716,4.392076352268336,-87.27444885136812,-26.516394,7.3078203,-1.6095511,52.35563,-21.043688,4.033619,-2.2956116,-0.4767343,-6.7102404,20.361855,-20.24289,-3.6788468,2.2519495,1.9614117,8.908157,8.8097925,14.962531,-23.250765,52.62954,5.732188,5.941593,8.288462,-4.229305,-21.921024,47.05973,51.574005,-3.4573247,7.8648896,-10.370442
79,-6.190492153167725,-7.803478717803955,77.3996810913086,-0.07032683371522341,4.472668063195539,-87.31903193669754,-27.15243,6.8476086,-1.7868928,52.28867,-20.6253,3.7629914,-2.1145473,-0.5355676,-6.6623197,20.337973,-20.404573,-3.7832983,2.5261645,1.9825892,9.019717,9.176708,14.880592,-22.751577,52.153954,5.9678802,5.80678,8.320819,-4.3344398,-22.03008,46.814785,51.380405,-3.5470061,7.819802,-10.361749
80,-6.176027774810791,-8.093137741088867,77.36729431152344,-0.00041764956337985993,4.554493071485665,-87.34434630292763,-27.77072,6.398551,-1.9690982,52.111946,-20.175526,3.44463,-1.8808936,-0.591016,-6.632024,20.23217,-20.563389,-3.802274,2.7854674,2.0074177,9.124739,9.552958,14.80279,-22.266397,51.64709,6.2188835,5.671718,8.380336,-4.4527044,-22.142454,46.602436,51.158043,-3.5734005,7.7805176,-10.35934
81,-6.177448272705078,-8.42111587524414,77.331298828125,0.06034345376224695,4.634325968621231,-87.34189088832203,-28.368572,5.9615874,-2.163852,51.815075,-19.704453,3.060826,-1.5658302,-0.63751507,-6.626081,19.999569,-20.717094,-3.6778677,3.0225477,2.0391133,9.222065,9.940389,14.7318125,-21.798906,51.10747,6.4997244,5.532195,8.467279,-4.581116,-22.26148,46.426254,50.890926,-3.5160105,7.754899,-10.361603
82,-6.164064407348633,-8.75448226928711,77.29173278808594,0.11172057772597783,4.713730523569963,-87.3213236712843,-28.944742,5.531641,-2.3787038,51.389008,-19.198616,2.6196468,-1.1909481,-0.67458206,-6.637091,19.672491,-20.863346,-3.457219,3.2454069,2.078874,9.314945,10.341027,14.668189,-21.340162,50.533077,6.819374,5.388646,8.573885,-4.7153487,-22.388685,46.270596,50.58059,-3.3965967,7.733418,-10.364548
83,-6.150881767272949,-9.111618041992188,77.25225830078125,0.1621165085199683,4.798081396634114,-87.29577486205336,-29.502922,5.110686,-2.5936267,50.861244,-18.645838,2.1588042,-0.8085133,-0.71613044,-6.656066,19.33572,-21.008621,-3.2346356,3.464981,2.1173162,9.404913,10.7517,14.609432,-20.88937,49.925533,7.136665,5.251097,8.705058,-4.8621254,-22.52432,46.141014,50.252987,-3.2427883,7.7059307,-10.374058
84,-6.1379218101501465,-9.462644577026367,77.20425415039062,0.21956427802185077,4.89274727328173,-87.27777105265389,-30.046297,4.7017055,-2.789328,50.257263,-18.032042,1.7152609,-0.46810257,-0.7747435,-6.674522,19.070143,-21.159618,-3.1047313,3.691207,2.147117,9.493713,11.167877,14.55091,-20.445604,49.288437,7.4106693,5.1294713,8.865604,-5.0272336,-22.6665,46.042625,49.93436,-3.0830839,7.662264,-10.395971
85,-6.108623027801514,-9.822281837463379,77.1601791381836,0.28468592266401166,5.001065031083593,-87.26777230610062,-30.580801,4.29992,-2.9694676,49.568855,-17.310368,1.287693,-0.19849305,-0.8547203,-6.694938,18.924307,-21.321075,-3.1270847,3.9255404,2.1695158,9.579572,11.584941,14.490501,-20.014664,48.62281,7.6259537,5.0286603,9.070054,-5.217811,-22.813807,45.98297,49.635353,-2.9073708,7.593781,-10.434793
86,-6.083370208740234,-10.19568157196045,77.11463928222656,0.3529952138506068,5.119188985900752,-87.25994868924239,-31.101028,3.905437,-3.1432931,48.784737,-16.500498,0.8601486,0.031050345,-0.9482733,-6.7197814,18.849413,-21.491129,-3.240251,4.162323,2.1889591,9.661591,12.005324,14.427927,-19.5948,47.930187,7.807143,4.94243,9.311505,-5.429906,-22.96579,45.957966,49.344208,-2.707525,7.5075183,-10.486332
87,-6.034512519836426,-10.559447288513184,77.06338500976562,0.42437016459029675,5.241996143470225,-87.25720408283006,-31.59544,3.5289543,-3.2990978,47.928482,-15.68976,0.44789737,0.26200232,-1.0490575,-6.7402077,18.774895,-21.659292,-3.3572993,4.4009557,2.2034647,9.74242,12.434071,14.360421,-19.17459,47.215855,7.9720454,4.8644323,9.5635605,-5.6556673,-23.121464,45.957977,49.0552,-2.5110106,7.417628,-10.543778
88,-6.008959770202637,-10.958025932312012,77.00935363769531,0.4980308752031396,5.364420804711536,-87.26265091569442,-32.053677,3.1827934,-3.424534,47.024532,-14.965821,0.066843234,0.53275657,-1.1509799,-6.747642,18.635921,-21.818398,-3.3910093,4.640324,2.2109158,9.824024,12.875442,14.283607,-18.741241,46.48689,8.139418,4.7880363,9.799823,-5.886775,-23.28015,45.97122,48.765232,-2.3494663,7.338189,-10.60046
89,-5.973442077636719,-11.360424041748047,76.95711517333984,0.5723816408786542,5.483060250469587,-87.2725264750438,-32.468903,2.866132,-3.527874,46.061565,-14.385834,-0.27915338,0.86593264,-1.2495513,-6.7444496,18.398275,-21.965544,-3.308276,4.8767486,2.2135053,9.908525,13.331481,14.195649,-18.290752,45.743267,8.315225,4.7107396,10.014987,-6.1250134,-23.440683,46.006943,48.47357,-2.2260907,7.2703037,-10.662364
90,-5.926970958709717,-11.767252922058105,76.90077209472656,0.6481570234230936,5.601113382781659,-87.2871318020608,-32.847435,2.576308,-3.6111557,45.0302,-13.890101,-0.5966287,1.2380139,-1.3489395,-6.7341247,18.09988,-22.103775,-3.158692,5.111059,2.2119572,9.99386,13.798065,14.09634,-17.829288,44.984432,8.489546,4.6361675,10.222805,-6.375593,-23.602592,46.069153,48.18554,-2.126002,7.207302,-10.730716
91,-5.877603054046631,-12.186566352844238,76.84478759765625,0.7279388566329913,5.724276673984536,-87.31520734110687,-33.20125,2.3213513,-3.651728,43.962353,-13.3928585,-0.88567656,1.6169084,-1.4568437,-6.7097845,17.785597,-22.235502,-2.9794338,5.3507123,2.2030082,10.076542,14.269372,13.982602,-17.360334,44.216373,8.658412,4.5669026,10.426347,-6.631797,-23.76546,46.13621,47.898777,-2.0511158,7.152047,-10.79162
92,-5.824516296386719,-12.608899116516113,76.78722381591797,0.8133620658663414,5.858230007488135,-87.36526421989642,-33.541912,2.1079824,-3.6275454,42.8892,-12.80742,-1.1479424,1.9719131,-1.580065,-6.664557,17.497755,-22.362179,-2.8077114,5.6033616,2.1848593,10.152849,14.737012,13.850179,-16.88854,43.44763,8.817443,4.505509,10.629282,-6.885267,-23.929375,46.184696,47.61104,-2.0048776,7.1075153,-10.831338
93,-5.766983985900879,-13.040428161621094,76.72632598876953,0.9090260013378346,6.006527563467134,-87.44008360145918,-33.88209,1.944398,-3.5082517,41.82327,-12.113156,-1.348302,2.29125,-1.7254381,-6.5951557,17.248692,-22.490353,-2.6483426,5.875286,2.1532707,10.222369,15.197743,13.69444,-16.410484,42.679848,8.966309,4.4534335,10.841215,-7.136877,-24.095142,46.20685,47.320286,-1.9977437,7.0789676,-10.836691
94,-5.690306186676025,-13.476778984069824,76.6671142578125,1.0123533212447995,6.165724662944168,-87.53477536471378,-34.211956,1.8227392,-3.3123734,40.745758,-11.354029,-1.4988494,2.5927541,-1.8875726,-6.505909,17.0146,-22.616785,-2.4833949,6.161026,2.1120014,10.286641,15.652259,13.5147915,-15.926182,41.91311,9.107418,4.4089966,11.058298,-7.3914127,-24.26378,46.217278,47.02964,-2.0227103,7.063444,-10.818318
95,-5.614957809448242,-13.922114372253418,76.6102294921875,1.1147194935585483,6.330404183091946,-87.64641461936372,-34.512486,1.724878,-3.0926769,39.647465,-10.54411,-1.6721886,2.8887584,-2.055894,-6.400971,16.788025,-22.73083,-2.3157187,6.4505734,2.070814,10.344824,16.100649,13.314382,-15.444198,41.149845,9.24183,4.3699284,11.263226,-7.6409235,-24.43523,46.21975,46.740032,-2.0644732,7.051678,-10.797434
96,-5.537903308868408,-14.377808570861816,76.5501708984375,1.207202677035693,6.495031124375717,-87.77233676920783,-34.764122,1.6330392,-2.9040737,38.51858,-9.697368,-1.9407842,3.1904185,-2.2195418,-6.2842126,16.563753,-22.823048,-2.1482098,6.735655,2.0393093,10.39637,16.544186,13.098611,-14.974784,40.390587,9.369741,4.333952,11.438218,-7.877604,-24.60833,46.218136,46.450783,-2.1045246,7.0345383,-10.795485
97,-5.451091766357422,-14.847016334533691,76.48909759521484,1.2896115827075059,6.657596304717065,-87.9136018339625,-34.954327,1.5513287,-2.7443492,37.325848,-8.768886,-2.3496969,3.512519,-2.377622,-6.1562176,16.317213,-22.891685,-1.9769567,7.016926,2.0171309,10.440321,16.99091,12.869958,-14.517923,39.626667,9.484791,4.301911,11.574101,-8.105686,-24.783026,46.221767,46.166283,-2.1418562,7.0102444,-10.820564
98,-5.363160133361816,-15.320500373840332,76.42900085449219,1.3656427797468258,6.821075907514979,-88.0714003950639,-35.09497,1.485346,-2.592542,36.083374,-7.7667775,-2.8509815,3.8440084,-2.5349326,-6.0146093,16.061024,-22.942392,-1.801829,7.298683,1.9995081,10.47816,17.43977,12.628235,-14.069178,38.857,9.588283,4.274368,11.681268,-8.326131,-24.959076,46.22448,45.883915,-2.1856294,6.9834538,-10.860438
99,-5.267608642578125,-15.806672096252441,76.37242126464844,1.4309571321032628,6.986695482458195,-88.2432633728273,-35.20138,1.4205167,-2.4785495,34.847134,-6.782768,-3.3815222,4.1649528,-2.6881824,-5.8590307,15.831405,-22.971346,-1.6316029,7.577795,1.9883405,10.512129,17.87654,12.376621,-13.63254,38.094536,9.69026,4.2491403,11.771303,-8.532405,-25.135435,46.211002,45.598774,-2.2291753,6.9541016,-10.906146
100,-5.175537109375,-16.299646377563477,76.31177520751953,1.4821025315565375,7.156471999409733,-88.4265812557991,-35.291405,1.345415,-2.4286654,33.676353,-5.9106703,-3.8757026,4.44671,-2.8354893,-5.688451,15.682609,-22.979034,-1.4750376,7.852285,1.9845325,10.544579,18.288425,12.12034,-13.212891,37.350613,9.80031,4.224021,11.855653,-8.71361,-25.309977,46.161423,45.30252,-2.2688725,6.92227,-10.948684
101,-5.079983711242676,-16.793941497802734,76.24932861328125,1.5141956724878805,7.335077113446175,-88.62497505560259,-35.36643,1.2594875,-2.4686837,32.545567,-5.156433,-4.3435006,4.6803875,-2.9706357,-5.4995418,15.619553,-22.964088,-1.3472536,8.130415,1.9904929,10.575258,18.678425,11.861017,-12.806316,36.612328,9.926791,4.1971655,11.928237,-8.868891,-25.481543,46.05961,44.991634,-2.306823,6.884498,-10.984302
102,-4.976698875427246,-17.305618286132812,76.19148254394531,1.530173627912157,7.520119774818377,-88.83862564336364,-35.418983,1.1721387,-2.5778387,31.438643,-4.478548,-4.8094234,4.8799167,-3.09625,-5.2931247,15.620825,-22.928534,-1.2392635,8.412022,2.0038025,10.603226,19.051973,11.599361,-12.413107,35.876892,10.061442,4.1702023,11.9854555,-9.00207,-25.649986,45.91684,44.670185,-2.344595,6.841877,-11.018222
103,-4.867903232574463,-17.83115005493164,76.13630676269531,1.5387686691478422,7.702960249247238,-89.05926075959692,-35.454178,1.0846597,-2.7098963,30.430048,-3.8994176,-5.2296743,5.0608177,-3.2224748,-5.075588,15.679859,-22.871708,-1.1240677,8.681943,2.0168474,10.629588,19.40141,11.34046,-12.044233,35.169888,10.188847,4.1462855,12.042782,-9.112555,-25.814787,45.75729,44.345764,-2.3759615,6.8007565,-11.055157
104,-4.758476257324219,-18.36331558227539,76.08436584472656,1.5496292415650188,7.8753106810462565,-89.27821605592673,-35.480896,0.9945727,-2.8167987,29.600252,-3.4429553,-5.561214,5.2384257,-3.3608184,-4.853765,15.789026,-22.792511,-0.9743133,8.925368,2.0204673,10.655511,19.720242,11.091841,-11.710757,34.51529,10.292927,4.128591,12.114639,-9.197533,-25.97443,45.603058,44.023457,-2.395194,6.767447,-11.099821
105,-4.640972137451172,-18.91265869140625,76.03579711914062,1.5604341331698215,8.034067529796962,-89.49476429460881,-35.49522,0.90357935,-2.8976314,28.944195,-3.1388917,-5.8122053,5.4232183,-3.5078704,-4.63233,15.935281,-22.689405,-0.7829314,9.142224,2.017176,10.683257,20.011486,10.857112,-11.417368,33.908295,10.358146,4.120252,12.215104,-9.256682,-26.127445,45.449432,43.701626,-2.4078941,6.746745,-11.146669
106,-4.525600910186768,-19.478487014770508,75.9896240234375,1.5693451530147207,8.184897287101801,-89.7119948874792,-35.499325,0.8082595,-2.970681,28.434607,-2.968396,-5.9987535,5.605762,-3.6609006,-4.407629,16.122358,-22.561407,-0.56367564,9.3394985,2.0068035,10.710974,20.278343,10.636828,-11.157838,33.337822,10.395136,4.1188226,12.332209,-9.291226,-26.272896,45.286987,43.37888,-2.413873,6.7340417,-11.195581
107,-4.405069828033447,-20.051851272583008,75.94512939453125,1.5877410525928335,8.333368788965062,-89.92627872170864,-35.509514,0.6958288,-3.0162356,28.114668,-2.8797874,-6.0908027,5.7621765,-3.8334763,-4.1739845,16.387644,-22.419598,-0.32039535,9.511907,1.974876,10.73341,20.515646,10.434081,-10.926751,32.81789,10.427491,4.119036,12.4419985,-9.301178,-26.410131,45.130356,43.062855,-2.40223,6.721501,-11.259536
108,-4.27316951751709,-20.64340591430664,75.90572357177734,1.6273364009241789,8.485299822648058,-90.13407807100317,-35.54271,0.55326957,-3.0146265,28.027832,-2.820931,-6.0589094,5.867179,-4.040016,-3.9252305,16.770754,-22.274187,-0.056693554,9.653844,1.90574,10.745244,20.71849,10.253024,-10.71783,32.362022,10.478527,4.1156,12.520232,-9.288555,-26.538588,44.996067,42.76249,-2.3604167,6.701188,-11.351446
109,-4.146566390991211,-21.244199752807617,75.86670684814453,1.6952809004863287,8.644242403394918,-90.33172756652013,-35.621193,0.3570481,-2.9851515,28.211855,-2.6752815,-5.9074116,5.93024,-4.288144,-3.6648023,17.248783,-22.123867,0.2441681,9.762842,1.7908838,10.744846,20.885508,10.096012,-10.5282345,31.974617,10.541701,4.105102,12.553424,-9.255962,-26.656687,44.890682,42.478912,-2.2936163,6.6719003,-11.474633
110,-4.018820285797119,-21.859874725341797,75.82878112792969,1.7849815477778601,8.806556184757728,-90.52208552957931,-35.73015,0.11967078,-2.9275422,28.633762,-2.5035264,-5.648394,5.957343,-4.5694547,-3.3931346,17.815102,-21.96485,0.5785439,9.842093,1.63752,10.735004,21.020563,9.963029,-10.360603,31.64755,10.6080885,4.090928,12.556671,-9.204462,-26.763836,44.806164,42.212273,-2.2053115,6.6370726,-11.622349
111,-3.882366895675659,-22.492284774780273,75.79436492919922,1.8863520450984268,8.96667485268566,-90.71122945106643,-35.82845,-0.1162119,-2.7952251,29.229128,-2.5194461,-5.263383,5.938591,-4.8707137,-3.1011121,18.493721,-21.79306,0.91261995,9.895981,1.4570097,10.718619,21.125237,9.853985,-10.218542,31.374243,10.697242,4.0783877,12.548147,-9.123854,-26.859072,44.730923,41.955994,-2.0819817,6.5964136,-11.7926035
112,-3.720242500305176,-23.127836227416992,75.767822265625,1.989808359927122,9.119107002248079,-90.90514895422268,-35.87453,-0.3094603,-2.5452068,29.933596,-2.9382687,-4.7338376,5.86408,-5.1783147,-2.7802014,19.307852,-21.603983,1.2133496,9.9287,1.2597148,10.698067,21.201807,9.769043,-10.105568,31.14811,10.828877,4.072729,12.546177,-9.007119,-26.94228,44.655525,41.70699,-1.9088781,6.5493746,-11.983138
113,-3.573072671890259,-23.781723022460938,75.73536682128906,2.094637371150534,9.259908510972727,-91.10938341002282,-35.86414,-0.4387092,-2.12864,30.829197,-3.9562392,-3.9560547,5.7462726,-5.489406,-2.4212284,20.244398,-21.406181,1.4773654,9.946743,1.0435816,10.672952,21.255613,9.708562,-10.015383,30.970104,11.00825,4.07255,12.5446,-8.849533,-27.010708,44.576885,41.460716,-1.6388692,6.4966946,-12.220331
114,-3.4202349185943604,-24.455469131469727,75.69818115234375,2.204950560969819,9.391546658260733,-91.32090813309173,-35.80903,-0.5310971,-1.5965493,31.908142,-5.413455,-2.9774737,5.5926356,-5.8078723,-2.030056,21.285183,-21.192728,1.722787,9.94658,0.80647737,10.643319,21.28315,9.669102,-9.947644,30.844498,11.226509,4.0759034,12.537864,-8.655652,-27.068512,44.5008,41.21901,-1.2946917,6.4374995,-12.495976
115,-3.2642621994018555,-25.133319854736328,75.66028594970703,2.3205745995606324,9.519530461915295,-91.53167112648143,-35.699455,-0.6209641,-1.0501702,32.983295,-6.9950213,-2.0047455,5.3829165,-6.1318927,-1.6214199,22.450472,-20.938387,1.9502373,9.914736,0.5489051,10.607217,21.282469,9.659615,-9.914532,30.761787,11.473994,4.087941,12.543757,-8.448681,-27.092829,44.438812,41.01918,-0.96446663,6.3675194,-12.758957
116,-3.104733943939209,-25.820785522460938,75.61930084228516,2.4413871320706586,9.650770642747064,-91.73212745045419,-35.533195,-0.73996776,-0.57519215,33.876534,-8.384374,-1.239146,5.0963287,-6.4597597,-1.2107651,23.758905,-20.616396,2.1607978,9.841879,0.2824837,10.570109,21.230444,9.667328,-9.928188,30.728928,11.755076,4.112474,12.580113,-8.218291,-27.11326,44.38223,40.83801,-0.7394627,6.288361,-12.952938
117,-2.941934823989868,-26.518383026123047,75.5844955444336,2.5732112184527014,9.796246859661926,-91.92361708147924,-35.30495,-0.8943803,-0.1732374,34.519733,-9.504402,-0.75092,4.734369,-6.7971344,-0.7892626,25.188704,-20.237236,2.3641007,9.742525,-0.0037181424,10.521295,21.126139,9.713149,-10.011026,30.746939,12.077049,4.1546936,12.664503,-7.939306,-27.13839,44.308414,40.65403,-0.6644396,6.193477,-13.0550995
118,-2.7735726833343506,-27.22671127319336,75.55296325683594,2.714599924737261,9.950193156945556,-92.10850555416006,-35.02143,-1.068057,0.20178112,35.019424,-10.521112,-0.42513007,4.3088446,-7.1398005,-0.35419285,26.73138,-19.805502,2.5608795,9.618095,-0.3162436,10.461913,20.984081,9.80817,-10.151359,30.804329,12.4304695,4.211345,12.779957,-7.6199684,-27.157455,44.226368,40.475334,-0.680678,6.0848107,-13.098027
119,-2.610058069229126,-27.9408016204834,75.5206298828125,2.854915419355303,10.094834702482052,-92.27896087585539,-34.7045,-1.2552625,0.544756,35.465805,-11.4830675,-0.18228477,3.810217,-7.4721465,0.06986014,28.43471,-19.289326,2.7382905,9.460494,-0.63471484,10.410088,20.795446,9.938416,-10.3424,30.895615,12.780779,4.2769146,12.901675,-7.278438,-27.162159,44.14828,40.3215,-0.73322594,5.976939,-13.109943
120,-2.4536468982696533,-28.66338539123535,75.48799896240234,2.983368199943588,10.211952326784065,-92.42745372857017,-34.374855,-1.4508076,0.848441,35.947716,-12.439428,0.057074886,3.2285907,-7.780103,0.45877033,30.347937,-18.657242,2.8816826,9.274916,-0.94259346,10.385276,20.550602,10.107231,-10.590494,31.010092,13.0849495,4.346223,13.004844,-6.917418,-27.15339,44.070095,40.198105,-0.7680448,5.8838725,-13.118193
121,-2.288712739944458,-29.393041610717773,75.4515380859375,3.0983278144955055,10.296901987677638,-92.55189822621453,-34.037018,-1.6599418,1.1049299,36.484848,-13.3897705,0.30347952,2.571988,-8.063246,0.81397855,32.47823,-17.892704,3.0013492,9.061368,-1.2379118,10.390453,20.247187,10.315354,-10.900855,31.155497,13.339658,4.421181,13.084278,-6.5266337,-27.131516,43.98416,40.098133,-0.78323543,5.808379,-13.123929
122,-2.130871057510376,-30.1245174407959,75.41217803955078,3.2045369560347527,10.359155991852756,-92.65611549926881,-33.68093,-1.8816442,1.3201191,37.03274,-14.313438,0.5187752,1.8410203,-8.325931,1.1457388,34.804302,-17.013664,3.1014125,8.820324,-1.528466,10.41498,19.887915,10.562758,-11.272947,31.335468,13.563489,4.5031967,13.152714,-6.1050754,-27.097057,43.891174,40.019676,-0.8044539,5.7433066,-13.114356
123,-1.9814375638961792,-30.855363845825195,75.36650085449219,3.2993436193697963,10.400843995721969,-92.74184186267574,-33.301308,-2.1013944,1.5055851,37.577824,-15.224416,0.7091139,1.0196166,-8.564118,1.4428841,37.3226,-16.041946,3.1533473,8.556731,-1.8114914,10.459173,19.474083,10.851146,-11.703278,31.529856,13.747133,4.5859985,13.212001,-5.670793,-27.050863,43.80397,39.972794,-0.8146947,5.687553,-13.09593
124,-1.8366612195968628,-31.590774536132812,75.31587219238281,3.380069441929688,10.42414381345277,-92.81082817318925,-32.892284,-2.3059633,1.6733602,38.105484,-16.136591,0.88069695,0.090597175,-8.777414,1.6941829,40.033222,-14.998143,3.123893,8.275081,-2.0852866,10.523702,19.0066,11.183189,-12.1875925,31.71861,13.88072,4.663066,13.263273,-5.2427444,-26.994116,43.73574,39.968723,-0.79716605,5.64005,-13.074804
125,-1.6979011297225952,-32.32624053955078,75.26432037353516,3.44377113184907,10.425800572250164,-92.85929176727491,-32.442917,-2.4930732,1.8266435,38.604225,-17.050016,1.0348529,-0.956135,-8.975655,1.887458,42.977787,-13.833706,3.0284817,7.9712334,-2.3472874,10.610529,18.48452,11.559441,-12.735323,31.906715,13.956794,4.7328644,13.310519,-4.8202324,-26.926025,43.68521,40.015167,-0.7130209,5.5946674,-13.052335
126,-1.5609041452407837,-33.060546875,75.203857421875,3.4923590946563428,10.405737474187601,-92.88752065755081,-31.958654,-2.6699305,1.9600012,39.08275,-17.95767,1.1691047,-2.1137965,-9.166777,2.0315297,46.151207,-12.559218,2.8615289,7.6453524,-2.600396,10.718159,17.906828,11.978509,-13.34847,32.101536,13.980965,4.798516,13.351305,-4.395092,-26.846361,43.64685,40.105286,-0.5823711,5.55386,-13.025066
127,-1.4415234327316284,-33.789546966552734,75.13772583007812,3.5324547397500092,10.37121941068326,-92.90337379202315,-31.458385,-2.839679,2.0738103,39.557762,-18.862976,1.2844043,-3.373209,-9.352345,2.144084,49.481976,-11.281221,2.5567799,7.3088408,-2.8503451,10.843019,17.273567,12.439075,-14.01261,32.286396,13.9632015,4.860477,13.378205,-3.9702275,-26.756445,43.625248,40.22206,-0.47721857,5.52955,-12.992924
128,-1.320947527885437,-34.509986877441406,75.05484008789062,3.5705284971657734,10.329580513175118,-92.9148327764114,-30.96247,-3.006134,2.1690214,40.047615,-19.769499,1.3820037,-4.7262473,-9.532778,2.2403984,52.903168,-10.107492,2.0520616,6.97217,-3.103698,10.981341,16.586054,12.93963,-14.71235,32.443798,13.913945,4.9194202,13.383383,-3.551136,-26.659492,43.626904,40.351192,-0.46974137,5.5336094,-12.955942
129,-1.2058320045471191,-35.22844314575195,74.96249389648438,3.6048198490603203,10.274178589527123,-92.91739056189743,-30.46994,-3.1720212,2.2391124,40.56069,-20.683857,1.4566506,-6.2206707,-9.719414,2.3102407,56.54192,-8.91569,1.2309581,6.6330743,-3.3613749,11.142635,15.840367,13.47733,-15.447541,32.57267,13.822962,4.9777784,13.3679085,-3.1383865,-26.55757,43.663803,40.490105,-0.6108511,5.5856977,-12.901607
130,-1.103036642074585,-35.93699645996094,74.8592758178711,3.6353091545599105,10.20382893495776,-92.90806854496492,-29.97231,-3.3396816,2.2893307,41.084,-21.60037,1.5113728,-7.8449526,-9.932734,2.3396828,60.386116,-7.6976414,0.13839322,6.2863235,-3.621947,11.325789,15.035519,14.049745,-16.228111,32.682396,13.689145,5.034237,13.334441,-2.7290468,-26.450935,43.730537,40.64408,-0.85028327,5.6739745,-12.833773
131,-1.0061142444610596,-36.63459777832031,74.74668884277344,3.6715167740374293,10.134245118587385,-92.89671790784358,-29.481754,-3.5112624,2.3378186,41.608963,-22.50645,1.5588847,-9.501926,-10.169491,2.3488178,64.16677,-6.740724,-1.0282214,5.938482,-3.888128,11.510501,14.176378,14.656322,-17.053728,32.769222,13.53723,5.084298,13.278043,-2.3203115,-26.340918,43.803852,40.809013,-1.1106771,5.763189,-12.77693
132,-0.9102805256843567,-37.33518981933594,74.62675476074219,3.717198441011647,10.081733824861441,-92.89801335240358,-29.003628,-3.6811786,2.40125,42.122303,-23.391241,1.611212,-11.09023,-10.395959,2.3741634,67.61752,-6.330352,-2.047414,5.6014585,-4.1568837,11.67707,13.265675,15.297587,-17.925798,32.828842,13.39067,5.1233478,13.1934185,-1.9075458,-26.229244,43.85946,40.97663,-1.312947,5.8183055,-12.755738
133,-0.8249695301055908,-38.01863098144531,74.4929428100586,3.7840821857415077,10.047853862044393,-92.91982087693731,-28.545477,-3.8536942,2.4930463,42.634422,-24.256834,1.6678408,-12.5771885,-10.597457,2.4493,70.72314,-6.6712737,-2.8160045,5.285649,-4.4407616,11.827872,12.292467,15.976206,-18.85681,32.85251,13.257413,5.155164,13.057282,-1.4968556,-26.117744,43.901604,41.155178,-1.4349298,5.8227324,-12.779834
134,-0.7511976361274719,-38.70555877685547,74.356689453125,3.863409292975626,10.025342304941587,-92.9549992539747,-28.103092,-4.0259714,2.6008976,43.149597,-25.109222,1.7228103,-14.019991,-10.766246,2.5635452,73.6275,-7.5785522,-3.4438572,4.986438,-4.7345934,11.971627,11.25583,16.690239,-19.848656,32.84198,13.122195,5.180932,12.878911,-1.0842956,-26.007317,43.936523,41.34002,-1.5189049,5.7977524,-12.834909
135,-0.6659585237503052,-39.40712356567383,74.2280502319336,3.929800936434222,10.017211735466683,-92.99365692926625,-27.667088,-4.181855,2.7010484,43.648167,-25.942764,1.7789445,-15.458483,-10.866523,2.68476,76.313194,-8.755851,-4.017164,4.689635,-5.008831,12.097623,10.173462,17.431297,-20.885214,32.80904,12.975187,5.1922727,12.703162,-0.6512686,-25.898714,43.943424,41.504498,-1.5830902,5.7655106,-12.910233
136,-0.594298779964447,-40.0951042175293,74.09774780273438,3.9586582522793523,10.0261011472342,-93.02575127184205,-27.227167,-4.3055253,2.7701437,44.10887,-26.750711,1.8393643,-16.929483,-10.868033,2.775195,78.748314,-9.897802,-4.624744,4.3796983,-5.233174,12.195808,9.061384,18.18838,-21.948513,32.768246,12.8079,5.180645,12.575834,-0.18102248,-25.793243,43.90381,41.623383,-1.6444675,5.748125,-12.994864
137,-0.5228801369667053,-40.79145050048828,73.97018432617188,3.9398421239248633,10.058103519102861,-93.05319232594114,-26.795382,-4.384315,2.8036637,44.548767,-27.540459,1.9030768,-18.454552,-10.728956,2.8408747,80.93721,-11.026694,-5.329241,4.052621,-5.3901443,12.254437,7.888197,18.962673,-23.07786,32.745945,12.573176,5.132057,12.520953,0.32432738,-25.692284,43.827324,41.70195,-1.6982945,5.754744,-13.092941
138,-0.45782434940338135,-41.490631103515625,73.85388946533203,3.887908522686902,10.10969384739034,-93.0800665826388,-26.37117,-4.428413,2.8140836,44.971127,-28.312445,1.9688387,-20.009508,-10.4664955,2.890001,82.89113,-12.261694,-6.060491,3.7169085,-5.4979773,12.283962,6.650986,19.752092,-24.271944,32.725513,12.29028,5.0550942,12.510621,0.85963005,-25.596876,43.71826,41.74702,-1.738943,5.7725987,-13.207555
139,-0.3924770653247833,-42.193721771240234,73.75069427490234,3.8160225394632112,10.168790429646887,-93.09888516938925,-25.925533,-4.4573364,2.802923,45.33606,-29.050459,2.0399976,-21.561792,-10.155475,2.8817132,84.581184,-13.446759,-6.721184,3.3701506,-5.5778756,12.306441,5.412085,20.537807,-25.443087,32.662083,12.056104,4.974488,12.513455,1.4317005,-25.508408,43.55626,41.74106,-1.7810593,5.791271,-13.326799
140,-0.3241446912288666,-42.89680862426758,73.65765380859375,3.7377436744218273,10.222953554486171,-93.10182383762542,-25.429647,-4.4903836,2.7712188,45.605022,-29.739532,2.119799,-23.081953,-9.879575,2.7760973,85.98064,-14.425374,-7.2184806,3.005434,-5.646996,12.341107,4.235166,21.295034,-26.496656,32.523407,11.972892,4.9148245,12.499803,2.043762,-25.428915,43.326702,41.670837,-1.8379391,5.800706,-13.43861
141,-0.26780956983566284,-43.5868034362793,73.56961059570312,3.6531226981894918,10.270699597106013,-93.08591096186306,-24.884752,-4.5276127,2.7183359,45.783012,-30.382935,2.2103188,-24.57006,-9.676602,2.5416372,87.07677,-15.127241,-7.5099,2.615906,-5.697501,12.389056,3.0883973,22.015827,-27.443655,32.36608,12.058675,4.8564124,12.457872,2.7033823,-25.359415,43.0175,41.540062,-1.9074105,5.8024654,-13.547772
142,-0.197053000330925,-44.30076599121094,73.50379943847656,3.5568315112238893,10.317339120790782,-93.05497896763845,-24.303047,-4.5597553,2.6434,45.886806,-30.987207,2.3093503,-26.03833,-9.508317,2.2022557,87.882416,-15.641828,-7.653807,2.2045093,-5.7190204,12.43874,1.9475656,22.701675,-28.32064,32.20709,12.268581,4.793872,12.407081,3.4060683,-25.301449,42.642517,41.356876,-1.9833615,5.801076,-13.658133
143,-0.12821561098098755,-45.03449249267578,73.4538345336914,3.4539166690360474,10.361684967603036,-93.01148768164902,-23.67063,-4.593529,2.545024,45.890484,-31.538233,2.414515,-27.47441,-9.3500805,1.7994092,88.4083,-16.05865,-7.7149816,1.7753208,-5.7228065,12.488244,0.8879455,23.343187,-29.06551,31.96379,12.6113825,4.7726026,12.365086,4.1374564,-25.257408,42.229473,41.11567,-2.0721636,5.7912493,-13.7567835
144,-0.06155335158109665,-45.7628173828125,73.41816711425781,3.349322947413049,10.402522017989853,-92.95778799960217,-22.973516,-4.6354184,2.4209182,45.767525,-32.021805,2.523989,-28.865583,-9.174611,1.3746063,88.663475,-16.467558,-7.757796,1.3270627,-5.7186975,12.533396,-0.01119265,23.926472,-29.60554,31.555975,13.101188,4.8378286,12.348929,4.8770127,-25.230854,41.812843,40.81589,-2.1791737,5.768068,-13.831666
145,-0.0032904259860515594,-46.50031280517578,73.4007339477539,3.250269113649109,10.432191914006813,-92.88621505602154,-22.204851,-4.6987476,2.2643635,45.518776,-32.445065,2.6387672,-30.210072,-8.998225,0.91945064,88.63931,-16.904285,-7.781638,0.85052884,-5.711898,12.579671,-0.73506534,24.440372,-29.89941,30.975271,13.845823,5.029631,12.3598585,5.6313467,-25.22458,41.396107,40.45735,-2.3203077,5.7305274,-13.883293
146,0.048818644136190414,-47.24052429199219,73.39704895019531,3.1519499715671917,10.453757928797812,-92.79799392248358,-21.373098,-4.774316,2.0772505,45.156673,-32.814415,2.7591798,-31.511663,-8.827841,0.41826493,88.33,-17.314936,-7.755762,0.3460855,-5.6927147,12.624201,-1.328409,24.88525,-29.985447,30.279795,14.809155,5.3137727,12.386937,6.407982,-25.239939,40.966072,40.04057,-2.4859502,5.6816983,-13.917493
147,0.11153784394264221,-47.991485595703125,73.41838836669922,3.0417398522126633,10.481926747173455,-92.70884944216078,-20.487675,-4.8349338,1.871235,44.672554,-33.108288,2.881271,-32.76765,-8.6198225,-0.09667358,87.74777,-17.655003,-7.697815,-0.17119677,-5.6482854,12.652021,-1.8040283,25.267038,-29.912024,29.488708,15.783628,5.624624,12.430169,7.1915493,-25.276457,40.529938,39.560566,-2.641768,5.622845,-13.929667
148,0.16988538205623627,-48.75210952758789,73.45783996582031,2.9067066723080597,10.531458250817114,-92.6348150315728,-19.557936,-4.8535357,1.6592374,44.05751,-33.305237,3.000195,-33.975185,-8.329382,-0.593062,86.90485,-17.88026,-7.625051,-0.68771565,-5.5671926,12.649164,-2.170296,25.596,-29.725187,28.613665,16.560707,5.8970423,12.49398,7.9634714,-25.332024,40.098206,39.015453,-2.7534442,5.554747,-13.914839
149,0.23058682680130005,-49.49266052246094,73.52007293701172,2.742130147363,10.605507224439362,-92.56879814718273,-18.583685,-4.8225036,1.434982,43.30313,-33.41776,3.1168091,-35.14367,-7.9538145,-1.0818872,85.79153,-17.987978,-7.556799,-1.207767,-5.4457326,12.613646,-2.4105659,25.876665,-29.39397,27.62051,17.156853,6.1349616,12.580893,8.727055,-25.405396,39.66593,38.38785,-2.8192942,5.4781146,-13.849888
150,0.252714067697525,-50.30478286743164,73.62725830078125,2.5555921173589184,10.696369711939624,-92.50592338456634,-17.561241,-4.7558146,1.1958525,42.415867,-33.452003,3.2314298,-36.266933,-7.515104,-1.5738456,84.40054,-18.000565,-7.4794035,-1.7354128,-5.292909,12.554499,-2.5250034,26.110312,-28.905088,26.51073,17.654879,6.367384,12.690088,9.49105,-25.495926,39.230892,37.683243,-2.855168,5.3920903,-13.744479
151,0.28359556198120117,-51.11338424682617,73.74974060058594,2.3539082302383765,10.802802838516984,-92.4659423590408,-16.496586,-4.658576,0.96365607,41.411465,-33.37701,3.336598,-37.320778,-7.002529,-2.0330172,82.74764,-17.909306,-7.3582845,-2.2554936,-5.116208,12.474268,-2.5385597,26.303122,-28.329332,25.339275,17.949556,6.5673594,12.824022,10.245385,-25.599974,38.8056,36.933968,-2.8546865,5.2954226,-13.642917
152,0.3267860412597656,-51.91281509399414,73.89026641845703,2.1440261464740566,10.923539257467358,-92.46856407630354,-15.394907,-4.5374765,0.75950164,40.305,-33.162094,3.4257357,-38.280376,-6.40732,-2.4234107,80.84657,-17.706753,-7.1623254,-2.7499785,-4.9243293,12.375034,-2.4837902,26.464193,-27.744526,24.169031,17.931124,6.705257,12.9875555,10.978393,-25.711958,38.39918,36.1769,-2.8132076,5.1863155,-13.58962
153,0.3571542203426361,-52.74254608154297,74.0545654296875,1.9290513049084053,11.065847239812527,-92.52379716305498,-14.239596,-4.3965077,0.58850217,39.04264,-32.80225,3.4925976,-39.159157,-5.733306,-2.7370296,78.68611,-17.41274,-6.902076,-3.210017,-4.7205806,12.249949,-2.3557956,26.598568,-27.1491,22.978842,17.49114,6.764429,13.209505,11.684177,-25.828339,38.017395,35.411743,-2.7191544,5.0522857,-13.605551
154,0.38089650869369507,-53.57830047607422,74.23831176757812,1.705541994927602,11.227157529226126,-92.61953082812845,-13.033863,-4.234255,0.44215715,37.635162,-32.312805,3.5401115,-39.957386,-4.9864287,-2.9865522,76.256584,-17.025026,-6.5919766,-3.6448653,-4.5036783,12.100636,-2.1389797,26.707132,-26.509521,21.742392,16.711435,6.761297,13.47962,12.366476,-25.947222,37.653416,34.62849,-2.580641,4.897573,-13.663853
155,0.40168726444244385,-54.441864013671875,74.44255065917969,1.4717246234327126,11.391550413243618,-92.7420570596629,-11.814289,-4.050538,0.32136136,36.195866,-31.692152,3.5770953,-40.63493,-4.161934,-3.1632543,73.576775,-16.503576,-6.2081065,-4.063321,-4.2741623,11.943137,-1.8446271,26.79254,-25.855238,20.505247,15.769861,6.719153,13.741822,13.028165,-26.062672,37.298122,33.84753,-2.420463,4.7457147,-13.737753
156,0.4142111539840698,-55.30370330810547,74.6568374633789,1.2262455338630363,11.542586429570834,-92.877695367319,-10.616549,-3.844778,0.22675994,34.837654,-30.937511,3.613717,-41.151897,-3.256293,-3.2551053,70.663864,-15.808471,-5.7273006,-4.4712505,-4.033302,11.79268,-1.4897978,26.857738,-25.221575,19.315363,14.84235,6.6665177,13.94065,13.674152,-26.16509,36.937,33.0908,-2.263398,4.6203966,-13.800753
157,0.42367568612098694,-56.187896728515625,74.88322448730469,0.9580368060976393,11.680035320907201,-93.04126990600044,-9.426931,-3.6043794,0.16489227,33.540924,-30.040861,3.652897,-41.497147,-2.226502,-3.2256453,67.46254,-14.9227705,-5.120162,-4.8595667,-3.7739973,11.652197,-1.0677199,26.90289,-24.607313,18.169937,13.892929,6.603798,14.08336,14.293608,-26.246767,36.56828,32.366684,-2.100729,4.534128,-13.85014
158,0.4172547161579132,-57.10340881347656,75.11911010742188,0.6744009729334801,11.809591952010448,-93.23332337069758,-8.235525,-3.339416,0.13488013,32.26492,-29.007334,3.6912868,-41.681725,-1.102194,-3.0733123,63.970592,-13.871362,-4.418177,-5.2275696,-3.5039012,11.513848,-0.57562226,26.927664,-23.999996,17.049793,12.8543415,6.5197124,14.191431,14.880726,-26.304937,36.19836,31.674955,-1.9262639,4.4714937,-13.899684
159,0.401263952255249,-58.02204513549805,75.35728454589844,0.40148664553979097,11.925074523785089,-93.41909561806486,-7.0861726,-3.0803785,0.12562656,31.097075,-27.857775,3.731709,-41.70513,0.01904603,-2.8369536,60.28451,-12.673779,-3.6791372,-5.594144,-3.244146,11.377666,-0.033410575,26.933474,-23.416115,15.974778,11.856684,6.4268837,14.232601,15.450289,-26.334867,35.824856,31.019487,-1.7674553,4.4146247,-13.94741
160,0.3952576220035553,-58.957679748535156,75.59365844726562,0.16539003937830635,12.020920894379255,-93.56381772172914,-6.021249,-2.8549943,0.12353252,30.123516,-26.61143,3.7788315,-41.571625,1.0463451,-2.5637653,56.503036,-11.347141,-2.957049,-5.9703326,-3.0157568,11.241064,0.5265207,26.92157,-22.885736,14.97682,11.027187,6.3398266,14.177714,16.019243,-26.329138,35.439777,30.409916,-1.6529286,4.345208,-13.991907
161,0.3618951737880707,-59.9162712097168,75.82965850830078,-0.03540053843483167,12.093997227772219,-93.66608503402995,-5.0384355,-2.657935,0.1318729,29.354626,-25.253115,3.851322,-41.251415,2.0008948,-2.227499,52.51778,-9.798479,-2.2496405,-6.3657885,-2.8217406,11.1109495,1.1281329,26.897503,-22.390753,14.043736,10.399927,6.2517595,13.98738,16.5884,-26.292416,35.04874,29.84462,-1.5968753,4.2534347,-14.035979
162,0.33725282549858093,-60.88130569458008,76.05575561523438,-0.20758898317245036,12.146121428517379,-93.74007922982094,-4.116289,-2.481071,0.15330523,28.747465,-23.77819,3.9460518,-40.7402,2.9078405,-1.802432,48.299255,-8.0441885,-1.5346532,-6.7822037,-2.656968,10.989084,1.7921519,26.855389,-21.90115,13.154514,9.917531,6.1592884,13.679373,17.12421,-26.205406,34.658108,29.34936,-1.5919152,4.149588,-14.07823
163,0.3080911636352539,-61.868202209472656,76.2745361328125,-0.3355098114775176,12.180645640993658,-93.77442364093399,-3.2677984,-2.3462937,0.1713759,28.30609,-22.218613,4.0343475,-40.09699,3.6954765,-1.3536453,44.084484,-6.26191,-0.8276424,-7.2005215,-2.5270498,10.860868,2.4562156,26.801054,-21.480963,12.340033,9.539482,6.0852437,13.3333025,17.648672,-26.079203,34.25695,28.898891,-1.6047751,4.04877,-14.115977
164,0.27578794956207275,-62.8629264831543,76.47859191894531,-0.4054147643243395,12.201741194583644,-93.75819659831741,-2.5060577,-2.27232,0.16783899,28.034372,-20.603779,4.082699,-39.388657,4.30637,-0.9618942,40.117214,-4.632147,-0.13898236,-7.62173,-2.4324424,10.721575,3.0962343,26.736063,-21.144003,11.595509,9.245488,6.048013,13.011349,18.163496,-25.921202,33.836327,28.476929,-1.6159607,3.9657757,-14.140262
165,0.25419729948043823,-63.87255096435547,76.66520690917969,-0.4066797926819761,12.214593172719727,-93.67968964017253,-1.8218094,-2.2760746,0.14399819,27.896296,-18.89157,4.0918927,-38.601463,4.7376914,-0.6242281,36.3226,-3.169312,0.58610034,-8.060243,-2.3770742,10.5657,3.7107127,26.662956,-20.90285,10.926215,9.033063,6.054058,12.725205,18.683935,-25.735418,33.382854,28.070555,-1.606972,3.9133425,-14.151886
166,0.23196181654930115,-64.90234375,76.83297729492188,-0.34477941510014076,12.213462540673905,-93.54443796939958,-1.20125,-2.34949,0.10244654,27.885445,-17.07101,4.0708256,-37.711777,5.024134,-0.31912178,32.608906,-1.7797748,1.3425927,-8.514095,-2.3610868,10.400884,4.3168225,26.582968,-20.743322,10.32517,8.914856,6.091213,12.441455,19.207565,-25.522627,32.900642,27.681602,-1.5935352,3.8811672,-14.15316
167,0.20969262719154358,-65.9437255859375,76.98011779785156,-0.24323711370917286,12.190179925996512,-93.37292712830451,-0.64895195,-2.4612129,0.02925745,28.035791,-15.218497,4.002168,-36.78683,5.190462,-0.11758542,29.212915,-0.48407885,2.0364108,-8.95152,-2.3679945,10.237324,4.9065733,26.495947,-20.651201,9.782612,8.88816,6.150135,12.158376,19.712595,-25.288914,32.409794,27.316534,-1.6032858,3.8493304,-14.139102
168,0.1957046538591385,-66.9899673461914,77.10497283935547,-0.13588950265667016,12.141651993107,-93.19138338693206,-0.17726192,-2.5693173,-0.08677458,28.388369,-13.414939,3.8664415,-35.912533,5.2787538,-0.09684774,26.40267,0.68391126,2.574944,-9.336102,-2.3710525,10.0822735,5.472343,26.399815,-20.611958,9.28818,8.9507675,6.2214327,11.874305,20.179777,-25.044437,31.929712,26.979074,-1.6631078,3.7979257,-14.104574
169,0.18063318729400635,-68.04100036621094,77.20687103271484,-0.03035390217225579,12.075250376741367,-92.9982843513057,0.21765018,-2.66383,-0.23936623,28.919966,-11.648722,3.6395612,-35.08028,5.276012,-0.3677193,24.17635,1.7823496,3.1794093,-9.671929,-2.359511,9.929047,6.0129533,26.292383,-20.628952,8.852412,9.137594,6.307257,11.574865,20.63473,-24.794792,31.442507,26.645535,-1.7544354,3.7169468,-14.0378895
170,0.15907838940620422,-69.0980224609375,77.28185272216797,0.07487628329476104,11.99800559426774,-92.79064975999115,0.5341124,-2.7566514,-0.42469326,29.616604,-9.887433,3.3229406,-34.285553,5.208264,-0.8752798,22.455057,2.7950957,3.822908,-9.967428,-2.3307223,9.77214,6.531258,26.17268,-20.70797,8.477872,9.438673,6.4091253,11.2649,21.082878,-24.542202,30.943764,26.313402,-1.8697826,3.6188428,-13.944753
171,0.1358223408460617,-70.1630630493164,77.32705688476562,0.1420298741517008,11.913614452039413,-92.60131779587446,0.7351071,-2.820738,-0.65149796,30.555143,-8.196266,2.9341865,-33.641865,5.1755667,-1.4585816,21.428505,3.5488503,4.0316067,-10.185204,-2.254729,9.617229,7.026591,26.03939,-20.836521,8.141945,9.78561,6.516973,10.97182,21.468924,-24.296345,30.4742,26.025093,-2.051735,3.5168273,-13.845815
172,0.11728878319263458,-71.2356185913086,77.34269714355469,0.1314472728663455,11.82464011343913,-92.46227063298888,0.78247213,-2.8260503,-0.9287859,31.817513,-6.6382723,2.4927616,-33.260914,5.2616577,-1.9639064,21.28199,3.861848,3.3280315,-10.292875,-2.0985975,9.472156,7.5039325,25.890678,-20.996016,7.8170495,10.109852,6.621698,10.722831,21.73804,-24.070776,30.078379,25.818281,-2.3410332,3.424524,-13.761895
173,0.10294189304113388,-72.31583404541016,77.3317642211914,-0.005564828960813068,11.743755543989206,-92.39370270959093,0.6578213,-2.7216005,-1.2447293,33.43957,-5.2291675,1.9748644,-33.329796,5.5352015,-2.3816774,22.394276,3.7460346,1.1255513,-10.277137,-1.8111336,9.327709,7.973183,25.721336,-21.184685,7.501418,10.417487,6.730044,10.52861,21.893377,-23.87542,29.758152,25.695217,-2.7912385,3.3512833,-13.673748
174,0.0757487490773201,-73.38773345947266,77.30007934570312,-0.21206801646122408,11.652284103945563,-92.36137741430663,0.41839966,-2.5780137,-1.6125773,35.334732,-3.9191394,1.3716757,-33.717415,5.900163,-2.8031924,24.532187,3.3044875,-2.1808596,-10.173287,-1.4444238,9.1917515,8.431812,25.530565,-21.407072,7.2073646,10.73883,6.8439765,10.371674,21.96616,-23.715021,29.494732,25.626263,-3.3632615,3.2884574,-13.578781
175,0.06337685883045197,-74.4659423828125,77.23153686523438,-0.3817003341210223,11.51241158473573,-92.32142076218865,0.12562424,-2.5316916,-2.070451,37.419235,-2.6845968,0.72628254,-34.062187,6.21714,-3.1886215,26.969683,2.4750662,-5.581348,-10.019009,-1.1092546,9.094936,8.869857,25.325806,-21.651884,6.9231706,11.038843,6.9478188,10.238377,21.944427,-23.593449,29.303911,25.598848,-3.9589033,3.223361,-13.52293
176,0.056425780057907104,-75.56128692626953,77.09982299804688,-0.44953648769715965,11.305811976201742,-92.25079835103796,-0.20008332,-2.6691036,-2.6409001,39.65802,-1.5270972,0.07484206,-34.040527,6.4004793,-3.456023,29.039022,1.1350636,-8.056445,-9.8337145,-0.8776601,9.057545,9.280965,25.1185,-21.905825,6.631885,11.281159,7.025728,10.11569,21.80636,-23.516,29.203442,25.609325,-4.479375,3.1442814,-13.552285
177,0.058479782193899155,-76.65637969970703,76.91458892822266,-0.3841261328969836,11.012804613768031,-92.15008020908435,-0.5539395,-3.0821126,-3.3970428,42.112118,-0.33388945,-0.61545473,-33.498013,6.417109,-3.4944315,30.600025,-1.0309975,-9.219174,-9.614923,-0.78152853,9.08589,9.670118,24.919138,-22.183043,6.311831,11.45457,7.0826077,10.0025835,21.552174,-23.486328,29.210163,25.66504,-4.92558,3.0464678,-13.659717
178,0.048873335123062134,-77.73943328857422,76.6986083984375,-0.23479613662807278,10.653915734771026,-92.03790019664758,-0.95657176,-3.7130477,-4.2924666,44.80455,0.8371788,-1.3752213,-32.640026,6.332838,-3.358188,32.01386,-3.8838303,-9.647666,-9.3500185,-0.77134824,9.166977,10.048359,24.729687,-22.481318,5.9639864,11.57483,7.1242747,9.905475,21.191498,-23.505043,29.31324,25.760416,-5.3392515,2.9381711,-13.826453
179,0.020950110629200935,-78.79704284667969,76.45782470703125,-0.08073113292174507,10.281564112255577,-91.92925270075517,-1.454272,-4.377433,-5.15866,47.67979,1.7164663,-2.141976,-31.719643,6.223591,-3.210975,33.42513,-6.9092174,-9.771248,-9.034983,-0.77097183,9.286716,10.416761,24.545105,-22.760794,5.607029,11.643642,7.136382,9.824188,20.713488,-23.5686,29.492807,25.87573,-5.6808567,2.8241954,-14.08086
180,-0.00475208880379796,-79.82186126708984,76.19924926757812,-0.001456878418651509,9.947174544866243,-91.8352180579607,-2.1037228,-4.8607216,-5.8266287,50.691837,2.0391278,-2.8164346,-30.982355,6.1785865,-3.189887,34.967026,-9.583773,-10.009874,-8.668863,-0.7036314,9.429996,10.775597,24.356277,-22.981064,5.2624254,11.665473,7.104278,9.758011,20.104805,-23.672653,29.728434,25.99569,-5.913487,2.7090855,-14.451816
181,-0.03503038361668587,-80.82820892333984,75.91333770751953,-0.028828928400280618,9.644350824497606,-91.75054263760566,-2.9131343,-5.099706,-6.3080964,53.938892,1.6535628,-3.4129782,-30.495672,6.220146,-3.3525224,36.740173,-11.814987,-10.448279,-8.2483225,-0.5352096,9.604975,11.105977,24.162573,-23.146088,4.9192896,11.617532,7.032029,9.659575,19.364443,-23.812855,30.024048,26.111032,-6.016195,2.5804155,-14.9643
182,-0.06787866353988647,-81.82012176513672,75.59556579589844,-0.11914812930821277,9.354256189241287,-91.67202625573974,-3.8695192,-5.173321,-6.6644387,57.43519,0.7231308,-3.9296825,-30.130022,6.2926087,-3.6181972,38.65506,-13.871581,-10.871281,-7.774786,-0.30706546,9.811978,11.411646,23.96445,-23.272537,4.5749993,11.507075,6.924954,9.544758,18.494099,-23.987513,30.387947,26.23542,-6.0146646,2.4389513,-15.597051
183,-0.09774777293205261,-82.79132843017578,75.25511169433594,-0.24036447514403655,9.110602114899365,-91.6120256687876,-5.003362,-5.0512753,-6.8177743,60.999924,-0.5327248,-4.2203445,-29.834187,6.385277,-3.8977263,40.556904,-15.769864,-11.2456,-7.257118,-0.0519134,10.023973,11.7254305,23.749235,-23.338991,4.266997,11.384202,6.769586,9.507467,17.485813,-24.195705,30.808718,26.38542,-5.937684,2.3085155,-16.309689
184,-0.11091935634613037,-83.73357391357422,74.91310119628906,-0.3615261223358631,8.946572386989764,-91.58292106918603,-6.3470974,-4.702071,-6.70732,64.448586,-1.8864324,-4.141537,-29.557499,6.4945765,-4.1081967,42.28866,-17.522285,-11.537062,-6.7050443,0.19975248,10.213076,12.075831,23.495869,-23.323753,4.0412626,11.302926,6.551622,9.641094,16.331625,-24.437975,31.27717,26.57858,-5.8132033,2.2136383,-17.062677
185,-0.13912765681743622,-84.69563293457031,74.59073638916016,-0.4897797216182332,8.89009234307716,-91.59536197201227,-7.944945,-4.0215263,-6.266305,67.79463,-3.3909254,-3.571914,-29.332827,6.6388345,-4.2434516,43.841286,-19.102715,-11.723216,-6.109367,0.45927784,10.365754,12.459273,23.179674,-23.213278,3.9108708,11.2393,6.2451067,9.97371,14.973244,-24.72147,31.84318,26.867952,-5.5774307,2.1474745,-17.890465
186,-0.12988600134849548,-85.6131591796875,74.28652954101562,-0.6415987157866239,8.917989484353166,-91.6415365854261,-9.763927,-3.0220082,-5.5995092,71.11514,-5.139277,-2.6002758,-29.177225,6.8148837,-4.352097,45.29545,-20.516932,-11.829361,-5.4725866,0.7473103,10.493872,12.851698,22.79271,-23.019367,3.8734047,11.189015,5.863491,10.452124,13.4334755,-25.046408,32.500347,27.222588,-5.236345,2.098272,-18.800293
187,-0.11092864722013474,-86.51524353027344,74.00188446044922,-0.7988216811884055,8.986661717281864,-91.70482018270089,-11.715493,-1.8672479,-4.8944373,74.30088,-6.952329,-1.4082619,-29.010988,6.9950037,-4.437485,46.618664,-21.819101,-11.890535,-4.8158865,1.0414269,10.60818,13.2446785,22.346731,-22.766926,3.9546235,11.231228,5.453471,11.050427,11.8258915,-25.401299,33.149937,27.54448,-4.924582,2.0866973,-19.71108
188,-0.12464282661676407,-87.42620849609375,73.73346710205078,-0.9410003572634341,9.05251706177211,-91.76734533121052,-13.7214775,-0.73745424,-4.3064756,77.24042,-8.635837,-0.17932194,-28.753807,7.1558986,-4.504118,47.775223,-23.061111,-11.940135,-4.155781,1.3149469,10.721244,13.63276,21.867325,-22.487137,4.1707597,11.438782,5.0642858,11.745985,10.268944,-25.76681,33.68715,27.73811,-4.780674,2.138228,-20.541147
189,-0.13080714643001556,-88.30504608154297,73.46985626220703,-1.0724198026185154,9.128475513756898,-91.83370189067273,-15.829596,0.35298532,-3.8436234,79.96998,-10.153478,1.109481,-28.421925,7.310303,-4.5627074,48.76117,-24.243431,-11.978493,-3.4760566,1.5558022,10.834197,14.010933,21.366762,-22.167658,4.5757813,11.821517,4.653048,12.584926,8.733546,-26.130478,34.125134,27.849394,-4.8706694,2.2950935,-21.315063
190,-0.13963636755943298,-89.20318603515625,73.22586822509766,-1.2004139417917312,9.229216558347115,-91.91024411627286,-18.061258,1.4701394,-3.4330993,82.52461,-11.606226,2.5256438,-28.04666,7.474241,-4.616127,49.5919,-25.341139,-11.992028,-2.7683854,1.7714261,10.941426,14.388619,20.848095,-21.803034,5.1311183,12.339941,4.2199645,13.566332,7.1721497,-26.487461,34.506535,27.918505,-5.11299,2.5366273,-22.059645
191,-0.15625540912151337,-90.11995697021484,73.00787353515625,-1.307866869661781,9.313561798716746,-91.98050936047358,-20.307838,2.5495267,-3.0748153,84.788734,-12.9851,3.9541261,-27.565815,7.6278696,-4.6539836,50.252823,-26.3641,-11.993321,-2.0591564,1.9615698,11.045903,14.787077,20.330658,-21.438671,5.7071514,12.986582,3.8800766,14.599093,5.6695824,-26.832497,34.768826,27.855003,-5.4264607,2.7943063,-22.695137
192,-0.186072438955307,-91.04007720947266,72.81636810302734,-1.376771816640622,9.34039300591234,-92.02775198100241,-22.460825,3.527248,-2.7585065,86.64629,-14.27602,5.276139,-26.916273,7.745766,-4.661701,50.73008,-27.322697,-11.994034,-1.3677151,2.1252222,11.152324,15.228883,19.845543,-21.12822,6.168749,13.742716,3.7468085,15.591861,4.318198,-27.164244,34.83804,27.565264,-5.733502,2.9956086,-23.141825
193,-0.20591507852077484,-91.96115112304688,72.65841674804688,-1.4079647147020586,9.284487224967034,-92.04777703389294,-24.50845,4.4219365,-2.461232,88.09042,-15.489053,6.4906793,-26.058456,7.8219247,-4.6375904,51.01549,-28.235632,-11.992373,-0.68782204,2.2592018,11.280309,15.719618,19.411009,-20.889921,6.524591,14.745737,3.9283686,16.589493,3.1452408,-27.482471,34.652332,27.013514,-6.073828,3.1300623,-23.335222
194,-0.2278086245059967,-92.90225219726562,72.54129791259766,-1.4079473153413486,9.171836570849921,-92.04940811342563,-26.503227,5.2457414,-2.171555,89.17416,-16.619535,7.6421294,-25.03173,7.865586,-4.5866423,51.117805,-29.092318,-11.984498,-0.0043411856,2.3601308,11.425376,16.258318,19.032084,-20.702202,6.8116045,15.937965,4.3487563,17.61332,2.109478,-27.789343,34.25145,26.249018,-6.473487,3.2303562,-23.330753
195,-0.24539384245872498,-93.84435272216797,72.45694732666016,-1.367235724614119,9.038055290504083,-92.03536825078739,-28.431204,5.929423,-1.8867748,89.86951,-17.62307,8.67838,-23.891891,7.8684926,-4.501286,51.05372,-29.861954,-11.977025,0.671157,2.4243588,11.557225,16.867958,18.723022,-20.552216,6.92947,17.010674,4.830446,18.538668,1.1907239,-28.09164,33.721462,25.310316,-6.8319883,3.2874446,-23.231117
196,-0.25529980659484863,-94.78398895263672,72.40589141845703,-1.2767492851875315,8.919049678516634,-92.00859520014318,-30.277273,6.4082065,-1.6012522,90.14769,-18.45219,9.549969,-22.69527,7.821087,-4.373995,50.84042,-30.513947,-11.974754,1.3260127,2.4463747,11.648047,17.579124,18.504032,-20.424608,6.767476,17.66028,5.1816254,19.249968,0.37954435,-28.396685,33.146076,24.22184,-7.051231,3.2936037,-23.139618
197,-0.26371175050735474,-95.74468994140625,72.39131164550781,-1.118775843834773,8.806965649789785,-91.97841641349707,-32.037586,6.676463,-1.2786034,89.98562,-19.102152,10.260496,-21.436893,7.7033567,-4.1845145,50.491352,-31.071184,-11.995196,1.9592508,2.4056175,11.703374,18.432735,18.397434,-20.318277,6.2352443,17.779097,5.360935,19.739214,-0.32286325,-28.708124,32.51491,22.942501,-7.0736938,3.2299318,-23.057802
198,-0.2709711790084839,-96.75865936279297,72.42176055908203,-0.9034298892622286,8.688017819153897,-91.94112615797296,-33.71354,6.7720966,-0.9137463,89.40034,-19.588806,10.829654,-20.094715,7.5193515,-3.9432495,49.996407,-31.541231,-12.026421,2.5762713,2.3060453,11.740697,19.422096,18.408558,-20.237396,5.384002,17.533798,5.4545093,20.061787,-0.90783644,-29.02537,31.79176,21.461039,-6.958889,3.106882,-22.94088
199,-0.2876128852367401,-97.73650360107422,72.47648620605469,-0.6638540969734847,8.58905894967586,-91.87981141596151,-35.29976,6.699004,-0.55258423,88.42364,-19.892466,11.232013,-18.699959,7.2975864,-3.6893244,49.338905,-31.870659,-12.029286,3.1737666,2.180365,11.748123,20.499264,18.524199,-20.174688,4.325605,17.039135,5.4584575,20.202093,-1.3806584,-29.348194,31.027014,19.851736,-6.777828,2.9627964,-22.82187
200,-0.2871287167072296,-98.7139663696289,72.56427764892578,-0.4333855350524109,8.536821530952514,-91.77739726215279,-36.791576,6.4605904,-0.24361043,87.08658,-19.993797,11.444484,-17.281752,7.069706,-3.46089,48.499584,-32.00451,-11.966196,3.742989,2.0623176,11.709942,21.610847,18.718258,-20.116802,3.1843581,16.413918,5.3720393,20.143507,-1.7539734,-29.677048,30.279224,18.199268,-6.6039634,2.8353724,-22.734295
201,-0.29265275597572327,-99.74070739746094,72.69405364990234,-0.21869512474155609,8.551879505515595,-91.6285868878521,-38.227814,6.055213,0.0018011373,85.38282,-19.875189,11.4564085,-15.8482,6.846502,-3.2519708,47.44396,-31.958784,-11.806545,4.271388,1.9671074,11.60635,22.752981,18.978458,-20.052551,1.9423155,15.545364,5.15145,19.804922,-2.0344956,-30.013237,29.545835,16.490017,-6.433874,2.7349756,-22.693071
202,-0.28438055515289307,-100.77864837646484,72.86002349853516,-0.003593537005662656,8.614894679424301,-91.44303722058633,-39.591316,5.4920416,0.20731859,83.29338,-19.55059,11.286411,-14.384552,6.612492,-3.0483527,46.192234,-31.75165,-11.575499,4.762605,1.8794633,11.4477215,23.941217,19.301142,-19.990547,0.5681172,14.422782,4.8221116,19.21283,-2.217406,-30.356695,28.805273,14.695431,-6.2365336,2.6421118,-22.67986
203,-0.2672387361526489,-101.82198333740234,73.05887603759766,0.21200363871720998,8.69310211133208,-91.22583185633016,-40.793266,4.790172,0.3710692,80.82809,-19.05116,10.956858,-12.88425,6.364555,-2.8753254,44.80844,-31.332388,-11.319965,5.232669,1.7890815,11.261752,25.145723,19.666393,-19.945349,-0.82582235,13.323445,4.482776,18.519567,-2.3028274,-30.70582,28.089306,12.885634,-6.040456,2.5488412,-22.678337
204,-0.25387272238731384,-102.88162231445312,73.29275512695312,0.4272462066816982,8.753977297149177,-90.9818276181926,-41.74899,3.969741,0.48596948,77.9987,-18.40814,10.491255,-11.341166,6.1005983,-2.7583513,43.357685,-30.652094,-11.088043,5.69307,1.6890329,11.074442,26.330679,20.043447,-19.926529,-2.1155345,12.53215,4.2185383,17.884382,-2.2960727,-31.056814,27.43607,11.137825,-5.8751497,2.4471984,-22.672905
205,-0.24443566799163818,-103.96525573730469,73.56522369384766,0.6417533094720059,8.8020451115844,-90.69683605948839,-42.45966,2.991837,0.50575453,74.75863,-17.664097,9.9241495,-9.733238,5.8222075,-2.7081203,41.79118,-29.69232,-10.918483,6.1300373,1.5856658,10.876087,27.475212,20.41441,-19.936213,-3.260192,12.144716,4.036544,17.299046,-2.209657,-31.410276,26.866041,9.465854,-5.7302966,2.3346734,-22.682571
206,-0.2304704636335373,-105.09109497070312,73.865234375,0.8518599111722275,8.84914213181001,-90.37305119465992,-42.95572,1.8802696,0.4221622,71.10914,-16.797226,9.248308,-8.073169,5.5396733,-2.7124329,40.10496,-28.486769,-10.777873,6.5347557,1.4899378,10.655739,28.589178,20.774662,-19.965027,-4.305292,12.013665,3.8886545,16.698614,-2.0459614,-31.76742,26.364147,7.841715,-5.598056,2.2157843,-22.708147
207,-0.22541925311088562,-106.24327850341797,74.18455505371094,1.0521537941181323,8.872999463450984,-90.04019623063472,-43.20016,0.7408104,0.28566623,67.12606,-15.734552,8.42005,-6.406868,5.2627025,-2.7597752,38.432972,-27.063517,-10.6091,6.92685,1.4018298,10.437716,29.680538,21.112206,-20.003498,-5.2545485,12.062082,3.7685707,16.160835,-1.7931384,-32.121624,25.913727,6.2806926,-5.512087,2.0926902,-22.706663
208,-0.2085358202457428,-107.41846466064453,74.51826477050781,1.2389418464175297,8.85210630806643,-89.72958827292054,-43.15722,-0.33410558,0.15201062,62.870625,-14.393149,7.3861337,-4.7764654,4.997574,-2.832003,36.897125,-25.440435,-10.357298,7.325626,1.3191376,10.245031,30.756275,21.410625,-20.040085,-6.1073446,12.214812,3.6715138,15.763394,-1.4474025,-32.461147,25.502205,4.808361,-5.507858,1.9673407,-22.634935
209,-0.18333005905151367,-108.62110900878906,74.85535430908203,1.4226191597976576,8.772346245991685,-89.43609764763417,-42.766075,-1.3736134,0.01709336,58.206863,-12.750221,6.115222,-3.1558387,4.7347627,-2.9255004,35.491238,-23.585,-10.03236,7.72946,1.2372751,10.086112,31.814472,21.658491,-20.087755,-6.834839,12.582979,3.6048276,15.542258,-1.0017012,-32.777657,25.129566,3.440165,-5.5923185,1.8401209,-22.483427
210,-0.16465342044830322,-109.84628295898438,75.18919372558594,1.5987433237872095,8.644680021048863,-89.1501503912986,-42.04027,-2.4078271,-0.1742901,53.097942,-10.829885,4.644676,-1.5279592,4.481622,-3.0381296,34.155254,-21.493773,-9.661751,8.126786,1.162262,9.948532,32.84988,21.85393,-20.142004,-7.4370227,13.169987,3.5663605,15.451086,-0.4758814,-33.070377,24.809633,2.1770504,-5.75098,1.7089831,-22.27374
211,-0.1604834496974945,-111.08627319335938,75.5121078491211,1.72449601563441,8.485684208600981,-88.89874361774218,-41.07681,-3.3489754,-0.44783002,47.79404,-8.640801,3.0081208,0.052180987,4.28653,-3.1511018,32.935986,-19.23246,-9.219495,8.523952,1.124208,9.821586,33.871006,21.994938,-20.163813,-7.963365,13.738618,3.5399349,15.442679,0.09540745,-33.337154,24.551306,1.0205381,-5.9869137,1.5727612,-22.011518
212,-0.15430012345314026,-112.34912872314453,75.82298278808594,1.7585275245066159,8.31343137086813,-88.70901001551196,-39.982815,-4.116857,-0.81827945,42.56076,-6.1891723,1.2284948,1.5317736,4.196536,-3.2421987,31.874374,-16.860914,-8.678328,8.927227,1.1508005,9.693035,34.889065,22.079208,-20.1139,-8.465328,14.05158,3.5090544,15.470026,0.6714158,-33.575016,24.367334,-0.022155037,-6.3019233,1.4298278,-21.70218
213,-0.15817655622959137,-113.61254119873047,76.11245727539062,1.670119333143801,8.12412039297492,-88.58976079169388,-38.696148,-4.71621,-1.3690999,37.206642,-3.174197,-0.92118084,2.9373753,4.2474127,-3.3309712,30.914711,-14.278887,-8.032507,9.346406,1.2707604,9.556158,35.919865,22.101894,-19.984852,-8.940346,14.01455,3.4720597,15.549855,1.2567437,-33.780415,24.269543,-0.9354224,-6.766005,1.2693559,-21.334486
214,-0.16904981434345245,-114.89138793945312,76.37894439697266,1.4647332006561486,7.900245274443722,-88.53984508574814,-37.147675,-5.1584415,-2.1264632,31.607111,0.3267348,-3.4009173,4.316582,4.439641,-3.3908231,30.013454,-11.469538,-7.30037,9.785105,1.4847519,9.423188,36.96028,22.05977,-19.793234,-9.371736,13.765672,3.4371886,15.697191,1.8564143,-33.953693,24.256754,-1.717493,-7.35625,1.0927503,-20.909355
215,-0.19416747987270355,-116.17849731445312,76.61561584472656,1.1631358575697612,7.644588454758845,-88.56647570918983,-35.48185,-5.383522,-2.9438066,26.211046,3.714022,-5.7819386,5.636185,4.7543364,-3.3367732,29.245605,-8.618151,-6.4838214,10.237761,1.7710083,9.306678,37.992302,21.9541,-19.536983,-9.791141,13.416524,3.4022167,15.863418,2.4409764,-34.098236,24.318172,-2.3911557,-7.9366727,0.9185638,-20.45072
216,-0.2320169061422348,-117.47273254394531,76.81494903564453,0.8126105056481037,7.3739103813266516,-88.66406681614947,-33.90976,-5.3725276,-3.5765214,21.567627,6.3690224,-7.6170325,6.8398128,5.1394277,-3.100275,28.705713,-5.9258556,-5.5746555,10.687831,2.0798922,9.210816,38.994694,21.789415,-19.214624,-10.228026,13.076985,3.3654282,15.999595,2.9808528,-34.21824,24.443037,-2.9804213,-8.370361,0.7677767,-19.982197
217,-0.2751612663269043,-118.76805877685547,76.98390197753906,0.453999069431549,7.120372435989187,-88.82545053960231,-32.54933,-5.158897,-3.841778,17.874748,8.006771,-8.751132,7.9011145,5.549208,-2.6674619,28.380434,-3.3792803,-4.460097,11.139189,2.3578386,9.115768,39.98215,21.560654,-18.801195,-10.701346,12.740046,3.3089159,16.114582,3.484691,-34.313435,24.62658,-3.4935246,-8.63746,0.6548821,-19.50515
218,-0.3255305588245392,-120.05561828613281,77.1174087524414,0.09348724791782291,6.887742948042291,-89.03314926457423,-31.35392,-4.820691,-3.8109286,14.930439,8.973481,-9.432792,8.817623,5.983188,-2.0823324,28.26839,-0.92293745,-3.1497016,11.577981,2.6013372,9.011597,40.948643,21.26444,-18.307514,-11.184588,12.358389,3.2390733,16.227123,3.9585333,-34.382786,24.878704,-3.9143343,-8.80549,0.5673959,-19.008354
219,-0.37639352679252625,-121.33161163330078,77.22071838378906,-0.2371035825134877,6.667652731369842,-89.24587150766976,-30.324501,-4.4642467,-3.5863972,12.72621,9.59158,-9.811165,9.525418,6.409351,-1.4024707,28.536482,1.2775352,-1.8149554,11.9432955,2.7985284,8.910464,41.836468,20.915056,-17.786285,-11.633174,11.977444,3.191097,16.303059,4.3735447,-34.427135,25.208166,-4.2361045,-8.867345,0.48815796,-18.498182
220,-0.41988229751586914,-122.6058578491211,77.29642486572266,-0.5134638604819868,6.4479414435033195,-89.42514757895272,-29.466015,-4.176897,-3.2894764,11.278675,10.167918,-10.031888,9.966424,6.7982492,-0.7010096,29.346022,3.0666504,-0.6402113,12.180727,2.943568,8.829514,42.594704,20.53963,-17.290024,-12.012675,11.639603,3.2011337,16.309145,4.7085023,-34.44913,25.616274,-4.4583445,-8.8148575,0.40011722,-17.98048
221,-0.4619821310043335,-123.86369323730469,77.3399887084961,-0.7443271653344393,6.223757017934807,-89.56060542168487,-28.792978,-3.939399,-2.8455772,10.663823,11.003769,-10.29482,10.106375,7.2120647,0.102979824,30.777206,4.4853477,0.35905233,12.286667,3.0444026,8.771184,43.23907,20.152897,-16.812078,-12.338769,11.331443,3.2769744,16.23201,4.976338,-34.449062,26.100002,-4.591926,-8.625602,0.30162567,-17.454523
222,-0.5058478116989136,-125.11766052246094,77.34676361083984,-0.9148715773401371,6.0103432611544445,-89.66124668739711,-28.335615,-3.745236,-2.2227807,10.914436,11.829835,-10.45575,9.969658,7.6323776,0.982426,32.752876,5.578395,1.2872503,12.2836485,3.0741751,8.727532,43.78677,19.758434,-16.333702,-12.627901,11.031221,3.4013622,16.09325,5.1903095,-34.424393,26.650751,-4.639301,-8.30918,0.20338278,-16.917723
223,-0.5564841628074646,-126.36238098144531,77.30533599853516,-0.9816413336606272,5.8149969176258045,-89.72912889916401,-28.086803,-3.663309,-1.6082628,11.926889,12.116156,-10.151503,9.609867,7.9100537,1.7009518,35.159065,6.2204976,2.1050818,12.167974,2.9940085,8.706955,44.19962,19.373812,-15.888672,-12.855831,10.769021,3.573148,15.911649,5.34074,-34.373062,27.254944,-4.5986643,-7.907198,0.10659212,-16.373121
224,-0.6284840703010559,-127.61174774169922,77.20865631103516,-0.9101954773036739,5.641461827940068,-89.77169834257185,-28.020576,-3.766646,-1.1923128,13.567926,11.344498,-9.041519,9.077521,7.880658,2.0266654,37.88772,6.2921247,2.744031,11.945992,2.7724237,8.719296,44.445164,19.026747,-15.512303,-13.006848,10.5722885,3.791235,15.707365,5.4272513,-34.295288,27.890537,-4.4730268,-7.462519,0.011316443,-15.822672
225,-0.674911379814148,-128.82125854492188,77.08061981201172,-0.6794537374536392,5.485011938620103,-89.78454528975193,-28.206656,-4.1613913,-1.1917762,16.08908,9.099834,-6.6078005,8.394214,7.470342,1.8759831,40.98901,5.6843505,3.1844642,11.617313,2.3858166,8.770314,44.532497,18.742987,-15.215119,-13.107326,10.42329,4.1069627,15.476537,5.4663835,-34.189102,28.553183,-4.2836223,-6.9381375,-0.09192072,-15.253806
226,-0.7117105722427368,-130.0115966796875,76.900390625,-0.36609198540821436,5.3181468104409015,-89.79638082618109,-28.589258,-4.801024,-1.5390335,19.427612,5.822366,-3.187107,7.5841794,6.792456,1.4112535,44.444775,4.524891,3.4131207,11.22269,1.9086248,8.865283,44.492683,18.532072,-14.983374,-13.181706,10.308388,4.50547,15.21561,5.4759216,-34.055458,29.233557,-4.036341,-6.3288164,-0.19785155,-14.666811
227,-0.7722046375274658,-131.21694946289062,76.64019012451172,-0.049388557722909905,5.127604847068913,-89.84771005729291,-28.964348,-5.5417852,-1.9617658,22.963282,2.2523015,0.2661529,6.6686077,5.917332,0.76247746,48.080215,3.032401,3.3709772,10.8142,1.4257631,9.005953,44.316925,18.394138,-14.817403,-13.202328,10.2597065,4.8856654,14.944194,5.461811,-33.899517,29.901249,-3.7195945,-5.7199726,-0.2863913,-14.085739
228,-0.8409897089004517,-132.41220092773438,76.33537292480469,0.25064473619362765,4.925233607161329,-89.95169294102446,-29.163954,-6.1865335,-2.0941153,26.09837,-0.9824206,2.801919,5.6252646,4.865988,0.042858977,51.763927,1.3954889,3.0229073,10.416302,0.9613258,9.18454,43.983135,18.32367,-14.716111,-13.128384,10.30929,5.1448326,14.680296,5.4283834,-33.72783,30.527239,-3.3218715,-5.1970034,-0.34008506,-13.536949
229,-0.8847173452377319,-133.5543212890625,76.00887298583984,0.5942606557978586,4.700645895989625,-90.09719853941945,-29.14933,-6.6331596,-1.7126622,28.777054,-3.9565616,4.0747504,4.445396,3.4982095,-0.8076329,55.611748,-0.50364923,2.2865179,10.01102,0.45155323,9.420949,43.508812,18.314947,-14.663564,-12.972637,10.458066,5.22231,14.379696,5.3618994,-33.54795,31.114946,-2.8563616,-4.7662582,-0.3546292,-12.966714
230,-0.9145585894584656,-134.6680145263672,75.6466064453125,1.0082427537692997,4.469484336615579,-90.26512352089487,-29.04533,-6.974587,-1.0058463,31.328669,-6.995305,4.6286273,3.1396272,1.7986935,-1.7763863,59.66235,-2.73574,1.2151735,9.577673,-0.13191143,9.702798,42.888317,18.36735,-14.6654415,-12.740225,10.690753,5.1818624,14.048009,5.2704782,-33.361958,31.674246,-2.33229,-4.3860517,-0.34036168,-12.383596
231,-0.940811812877655,-135.76815795898438,75.24745178222656,1.4439852991448503,4.29209452735216,-90.44467069529111,-28.95246,-7.2575083,-0.1854548,33.764572,-9.928438,4.8555665,1.6832042,-0.027499694,-2.6692176,63.686253,-5.049621,-0.010616999,9.126551,-0.7339681,9.969755,42.060703,18.48309,-14.753869,-12.375298,11.014916,5.107807,13.78001,5.1904097,-33.164776,32.18501,-1.7293937,-4.0703135,-0.3053522,-11.907956
232,-0.9479494690895081,-136.85360717773438,74.81786346435547,1.843487178600489,4.225274122063347,-90.62830991795336,-28.955547,-7.5478554,0.51291484,36.066837,-12.564415,5.145625,0.028603876,-1.7593157,-3.3230894,67.46257,-7.181795,-1.2166414,8.673897,-1.2884802,10.164652,40.96491,18.666721,-14.96487,-11.823999,11.4377365,5.0860286,13.671164,5.161821,-32.946873,32.622623,-1.0268898,-3.833717,-0.25921348,-11.658952
233,-0.9355359077453613,-137.9148712158203,74.4024658203125,2.2060642842184044,4.320747309909356,-90.8215202752979,-29.148233,-7.8746495,1.0625346,38.266174,-14.825168,5.558914,-1.9375634,-3.387788,-3.7072172,71.02801,-9.111092,-2.4273133,8.227643,-1.7978662,10.249779,39.538815,18.917469,-15.322614,-11.018616,11.887388,5.08274,13.825059,5.188841,-32.69936,32.970394,-0.20775095,-3.67148,-0.23452136,-11.660957
234,-0.9301337599754333,-138.9552764892578,74.02853393554688,2.5611038911381256,4.5388053082306,-91.02225281944473,-29.468094,-8.185923,1.5817099,40.38132,-16.833996,5.9081025,-4.180633,-5.000115,-3.898476,74.47708,-10.960584,-3.7090473,7.7812514,-2.295554,10.261931,37.827946,19.231508,-15.807444,-10.012491,12.380231,5.074791,14.169126,5.2569637,-32.41955,33.235477,0.71470165,-3.5815508,-0.2190656,-11.851588
235,-0.9507348537445068,-139.96054077148438,73.69963073730469,2.8885174206319566,4.795308554712034,-91.2150851650981,-29.751417,-8.45682,2.0375178,42.33419,-18.679546,6.2076755,-6.539058,-6.512629,-3.9375753,77.67728,-12.6747,-4.9603496,7.3315425,-2.7549264,10.257586,35.931026,19.60947,-16.391935,-8.931491,13.054876,5.1649547,14.532128,5.3726974,-32.110332,33.4316,1.7231079,-3.5821989,-0.15508118,-12.219071
236,-0.9675439596176147,-140.96896362304688,73.40145111083984,3.1672183573611554,5.004646890638559,-91.38646672068889,-29.834497,-8.6776,2.401182,44.03631,-20.441938,6.4657235,-8.848939,-7.8492436,-3.8839924,80.49692,-14.196815,-6.083288,6.878722,-3.1475265,10.293612,33.941734,20.055305,-17.05579,-7.8973117,14.049189,5.4544234,14.739023,5.5471206,-31.777956,33.572266,2.796202,-3.6889746,0.016169222,-12.75252
237,-1.0041286945343018,-141.96249389648438,73.11661529541016,3.3921091179567147,5.177810780498005,-91.52806257805373,-29.715864,-8.863243,2.667281,45.453514,-22.112438,6.662238,-11.143485,-8.99926,-3.761438,82.93216,-15.478792,-7.0867367,6.4131155,-3.459186,10.368044,31.780277,20.587374,-17.866438,-6.857357,15.463974,6.054663,14.822334,5.788039,-31.4202,33.645763,3.9536364,-3.8984246,0.29540893,-13.505983
238,-1.0448939800262451,-142.99961853027344,72.8671646118164,3.5745020972480135,5.348160614347533,-91.6492807630961,-29.471043,-9.033619,2.8654284,46.631355,-23.652336,6.801079,-13.496453,-9.9983225,-3.565362,85.050476,-16.557049,-8.017034,5.954501,-3.7109356,10.459099,29.420464,21.199503,-18.836447,-5.788186,17.192532,6.8849163,14.836789,6.107426,-31.035025,33.63256,5.18631,-4.2003107,0.6596529,-14.464718
239,-1.094630479812622,-144.04383850097656,72.65336608886719,3.7167887038701988,5.462688640020241,-91.76459737715638,-29.047115,-9.181657,3.0152295,47.590847,-25.091682,6.9222608,-15.798062,-10.842885,-3.324894,86.82123,-17.497904,-8.827719,5.530397,-3.923823,10.593047,27.042381,21.848206,-19.849308,-4.837677,19.081182,7.744888,14.63458,6.5008526,-30.636122,33.558224,6.441295,-4.5962276,1.133555,-15.515175
