unveil-humanoid-operators/unveil-humanoid-operators.github.io/feature-analysis-animation/data/feature_matrix_instances/age_waist_rom_jogging_A061_jog_arc_cw_loop_001__A061.csv
Frame,root_translateX,root_translateY,root_translateZ,root_rotateX,root_rotateY,root_rotateZ,left_hip_pitch_joint_dof,left_hip_roll_joint_dof,left_hip_yaw_joint_dof,left_knee_joint_dof,left_ankle_pitch_joint_dof,left_ankle_roll_joint_dof,right_hip_pitch_joint_dof,right_hip_roll_joint_dof,right_hip_yaw_joint_dof,right_knee_joint_dof,right_ankle_pitch_joint_dof,right_ankle_roll_joint_dof,waist_yaw_joint_dof,waist_roll_joint_dof,waist_pitch_joint_dof,left_shoulder_pitch_joint_dof,left_shoulder_roll_joint_dof,left_shoulder_yaw_joint_dof,left_elbow_joint_dof,left_wrist_roll_joint_dof,left_wrist_pitch_joint_dof,left_wrist_yaw_joint_dof,right_shoulder_pitch_joint_dof,right_shoulder_roll_joint_dof,right_shoulder_yaw_joint_dof,right_elbow_joint_dof,right_wrist_roll_joint_dof,right_wrist_pitch_joint_dof,right_wrist_yaw_joint_dof
0,-0.22380049526691437,-2.32564640045166,75.24419403076172,10.260242767480094,-1.2616713161283086,60.65619162624726,-30.980238,18.696756,19.217937,58.14819,-16.745768,4.0990505,11.514031,-0.8420126,-6.13826,35.44706,-27.495367,-11.440531,7.117961,-1.8464689,10.087495,36.583874,27.219172,-15.108108,-28.842808,0.9126224,-4.1966505,4.9031696,-15.187124,-19.355932,36.170284,-27.313206,-1.5680938,-4.8353796,-0.2762346
1,0.12506429851055145,-0.8484477996826172,75.673583984375,10.11886344559304,-1.0926000197728054,60.27423312421805,-29.78146,16.303043,18.239328,51.919983,-15.447592,1.7221155,11.535023,-1.4578499,-6.354195,36.74828,-24.775955,-11.184755,7.381119,-1.7073954,9.55445,37.56216,27.186382,-14.9719925,-28.86567,0.78501034,-4.331265,4.746354,-14.756826,-19.554922,36.514797,-28.215137,-1.5789301,-4.6962686,-0.06467081
2,0.49901604652404785,0.6379073262214661,76.0772476196289,9.955999668781182,-0.9203502820348248,59.87404434649562,-28.433012,13.997344,17.120325,45.362022,-14.14145,-0.62638384,11.684818,-1.993575,-6.532711,37.81293,-21.950762,-10.856956,7.649541,-1.5197668,9.017144,38.505825,27.086767,-14.833498,-28.829458,0.6823357,-4.4663115,4.5593023,-14.320921,-19.847595,36.918243,-29.23589,-1.5725335,-4.551814,0.12466808
3,0.8976391553878784,2.107323408126831,76.44377899169922,9.766717456648859,-0.7811960978756151,59.45434000467726,-26.913986,11.98469,15.99915,38.932236,-12.970602,-2.6275847,11.771261,-2.4935248,-6.711178,39.024227,-19.145252,-10.462453,7.922589,-1.3018326,8.540643,39.48181,26.926527,-14.713346,-28.881788,0.60073084,-4.6053557,4.373325,-13.784858,-20.205887,37.234257,-30.249178,-1.5628941,-4.414087,0.31582758
4,1.3108564615249634,3.5628092288970947,76.7621078491211,9.554481069662694,-0.7086068779171386,59.0207074724705,-25.264862,10.404696,15.047898,33.17018,-12.064033,-4.01722,11.598593,-3.0162272,-6.936177,40.772705,-16.486965,-10.023597,8.150764,-1.0788195,8.197605,40.216675,26.714796,-14.587987,-28.848864,0.39266223,-4.753993,4.207991,-13.087071,-20.59621,37.357307,-31.12084,-1.5628678,-4.2953863,0.5274227
5,1.7317501306533813,4.999900817871094,77.02233123779297,9.301025503077543,-0.7163204703871646,58.585768555591294,-23.510681,9.237359,14.276264,28.161446,-11.404174,-4.7938375,11.075399,-3.571322,-7.225263,43.262325,-13.875458,-9.518703,8.324656,-0.84739894,7.9939284,40.787632,26.448664,-14.440245,-28.80641,0.078353226,-4.919005,4.0496407,-12.19284,-20.989584,37.239613,-31.809507,-1.5883398,-4.2020006,0.8170095
6,2.1410622596740723,6.418988227844238,77.22611999511719,9.008670755488684,-0.7857725863301551,58.154019420077645,-21.694715,8.351546,13.641584,23.692852,-10.907085,-5.1569633,10.297809,-4.150128,-7.5561843,46.30509,-11.312826,-8.995042,8.451097,-0.5958181,7.8891754,41.2656,26.132175,-14.28074,-28.77803,-0.29974133,-5.095122,3.896545,-11.163909,-21.369833,36.95099,-32.350887,-1.6335177,-4.1268835,1.1618426
7,2.5396294593811035,7.822635650634766,77.35535430908203,8.732590534755222,-0.8961801342625405,57.728885255892614,-19.944456,7.656667,13.254232,19.949514,-10.631726,-5.174576,9.341957,-4.8266153,-7.9321537,49.728268,-9.095068,-8.592176,8.511728,-0.35883594,7.878537,41.59481,25.77776,-14.14027,-28.724346,-0.76340926,-5.2693944,3.7882195,-10.073019,-21.724688,36.546066,-32.72493,-1.6749144,-4.0625024,1.4595703
8,2.9199159145355225,9.192184448242188,77.42068481445312,8.541350039653585,-1.022439731755305,57.31309150589552,-18.386263,7.0492325,13.223676,17.123314,-10.647158,-4.9048247,8.290585,-5.689421,-8.358697,53.352,-7.5167694,-8.435301,8.49732,-0.18674573,7.956026,41.76258,25.401733,-14.054682,-28.646063,-1.315812,-5.429224,3.7658062,-8.984369,-22.045574,36.072487,-32.914387,-1.6900158,-4.0010333,1.6078308
9,3.275346279144287,10.547125816345215,77.41674041748047,8.496411393318116,-1.1520177855173304,56.90864648635089,-17.092972,6.52814,13.833094,15.4734955,-11.158776,-4.1894526,7.143028,-6.870816,-8.882249,57.251984,-6.6875114,-8.524819,8.403813,-0.14795879,8.135793,41.758595,25.013727,-14.008833,-28.563278,-2.0004952,-5.559236,3.8489037,-7.888116,-22.31974,35.52025,-32.91439,-1.6592478,-3.930924,1.5743874
10,3.623171091079712,11.890532493591309,77.33627319335938,8.595860640518564,-1.293512895964063,56.52557250207891,-16.016987,6.052521,14.946255,14.875291,-12.11815,-3.082313,5.856015,-8.402962,-9.461493,61.532406,-6.4829354,-8.846282,8.227351,-0.2522129,8.414197,41.593456,24.616385,-13.987177,-28.468197,-2.806469,-5.6727405,4.0151277,-6.767209,-22.534803,34.87588,-32.71657,-1.6000838,-3.859928,1.4159062
11,3.9740591049194336,13.231507301330566,77.19396209716797,8.802898760253669,-1.4523962588940542,56.17249507692409,-15.106395,5.505139,16.036139,14.961944,-13.200233,-1.9258295,4.460914,-10.17697,-9.970941,66.01954,-6.8243003,-9.462765,7.9621134,-0.4538383,8.757918,41.235146,24.219288,-14.018388,-28.270887,-3.67669,-5.8006663,4.2415423,-5.679387,-22.688963,34.18444,-32.307495,-1.54384,-3.809101,1.1635283
12,4.321131706237793,14.579176902770996,76.98573303222656,9.069637439948268,-1.6320565831800946,55.85688886292233,-14.335872,4.791318,16.589117,15.39472,-14.052307,-1.0417106,2.980477,-12.029642,-10.29952,70.52986,-7.608959,-10.403754,7.6060853,-0.6973668,9.130436,40.645977,23.835394,-14.131147,-27.879091,-4.5581937,-5.973113,4.5048676,-4.67566,-22.789143,33.48782,-31.68149,-1.5223546,-3.7993543,0.84832436
13,4.674854278564453,15.924647331237793,76.70832061767578,9.385815289361343,-1.8226138971878514,55.57620791108485,-13.709307,3.8727987,16.3945,16.166592,-14.616373,-0.4676184,1.4079506,-13.947794,-10.473389,75.1266,-9.086718,-11.834029,7.1611876,-0.9735717,9.516954,39.822025,23.468803,-14.339588,-27.298742,-5.513684,-6.2127967,4.818269,-3.7370307,-22.840826,32.79123,-30.849514,-1.5430458,-3.8254,0.41619384
14,5.0153021812438965,17.254941940307617,76.36744689941406,9.769273933013583,-2.0236536081137406,55.322480658102364,-13.249696,2.8226454,15.765418,17.449982,-15.056427,-0.033984583,-0.26643604,-15.937287,-10.479641,79.85799,-11.2154875,-13.641436,6.6390133,-1.3075638,9.932943,38.787514,23.118168,-14.625596,-26.57369,-6.5483427,-6.502454,5.187619,-2.8360345,-22.84485,32.072567,-29.821218,-1.5893917,-3.879783,-0.12889484
15,5.286268711090088,18.554044723510742,76.01837921142578,10.220698023846841,-2.2510085339895376,55.0991832000097,-12.966466,1.6961982,14.991377,19.175991,-15.337888,0.2545744,-2.0548377,-17.769577,-10.062443,84.515686,-13.4200325,-15.000033,6.052551,-1.6972735,10.385966,37.53993,22.790016,-14.96953,-25.66927,-7.5253263,-6.809445,5.5801945,-2.0060186,-22.804934,31.328604,-28.58232,-1.6575955,-3.9804018,-0.66982055
16,5.553282737731934,19.87681770324707,75.62789916992188,10.764697007965237,-2.526326759938133,54.917515596684915,-12.850503,0.53438,14.356029,21.254744,-15.424819,0.41205278,-3.9735456,-19.23709,-8.969695,88.89838,-15.115734,-15.000033,5.409356,-2.1650841,10.889941,36.079014,22.495354,-15.3525095,-24.553606,-8.308331,-7.0981007,5.966898,-1.2765155,-22.7272,30.552647,-27.126379,-1.7458862,-4.1454496,-1.0891676
17,5.798713207244873,21.185298919677734,75.18616485595703,11.547660598163882,-2.8683834578782297,54.825104832625264,-13.013687,-0.8096541,13.835369,23.800417,-14.964452,0.4526006,-6.0080557,-20.787987,-7.578046,93.07681,-16.129877,-15.000033,4.656929,-2.8870003,11.475981,34.3928,22.233526,-15.757571,-23.21838,-8.933641,-7.3913646,6.2879634,-0.6509764,-22.618803,29.709688,-25.501965,-1.8531694,-4.338115,-1.2693555
18,6.074453353881836,22.483306884765625,74.67660522460938,12.373271972964528,-3.2191140349608083,54.757023790796325,-13.586492,-2.0548902,13.306217,27.118858,-14.240621,0.36626467,-8.210816,-22.220074,-5.96991,97.09137,-16.727587,-15.000033,3.8682168,-3.666371,12.074819,32.480858,22.000336,-16.202446,-21.682598,-9.453529,-7.6964865,6.580604,-0.095191896,-22.484026,28.807062,-23.710056,-1.9810873,-4.5648026,-1.3037378
19,6.345010757446289,23.739139556884766,74.14390563964844,13.15507789951987,-3.605786619483997,54.68217988598187,-14.130689,-3.1193705,12.918847,30.587027,-13.766072,0.20472369,-10.477516,-23.33781,-4.229218,100.81486,-17.142471,-15.000033,3.0806718,-4.4113493,12.698537,30.381695,21.80902,-16.712975,-19.979343,-9.754802,-7.9503474,6.9642735,0.4206324,-22.323526,27.898016,-21.686699,-2.130328,-4.9053802,-1.3917826
20,6.628182411193848,24.993791580200195,73.65042877197266,13.821191933600348,-4.0564201013476815,54.57160657366075,-14.207858,-3.9670453,12.806525,33.56965,-14.043458,-0.029429996,-12.697665,-23.969603,-2.446422,104.12181,-17.607792,-15.000033,2.3330386,-5.046177,13.364815,28.138477,21.681602,-17.321022,-18.153217,-9.726235,-8.089032,7.5630827,0.924703,-22.135645,27.029041,-19.36326,-2.3043315,-5.439399,-1.7321302
21,6.9451212882995605,26.24700355529785,73.17562866210938,14.385369074260092,-4.610396355360099,54.39892889073306,-13.647542,-4.6282597,13.121027,35.91048,-15.372592,-0.4235771,-14.855618,-24.031832,-0.5475694,107.02112,-18.140558,-15.000033,1.6574014,-5.5785108,14.124062,25.673126,21.634766,-18.080301,-16.052826,-9.309304,-8.0937195,8.468779,1.415213,-21.910206,26.167183,-16.623817,-2.5984561,-6.266771,-2.3479652
22,7.298897743225098,27.470184326171875,72.713623046875,14.880157875989278,-5.241848413658638,54.18282117646199,-12.699315,-5.140048,13.738055,37.93958,-17.427126,-0.9750308,-16.978958,-23.63951,1.4064875,109.58607,-18.632927,-15.000033,1.0422724,-6.054082,14.962305,22.999197,21.662788,-18.97452,-13.732649,-8.588428,-7.987188,9.606246,1.9007984,-21.648129,25.280579,-13.552777,-2.99394,-7.316386,-3.1455567
23,7.675443649291992,28.67329978942871,72.27269744873047,15.261099473430539,-5.880684109132411,53.96270565838611,-11.559341,-5.5037355,14.385371,39.745407,-19.764162,-1.5739079,-19.050352,-22.953653,3.1835222,111.78032,-19.111937,-15.000033,0.4513707,-6.445865,15.800474,20.283651,21.750206,-19.9345,-11.524557,-7.6664276,-7.7663875,10.84226,2.4160473,-21.372837,24.425999,-10.378536,-3.3238387,-8.413347,-4.146809
24,8.101284980773926,29.88399887084961,71.8421401977539,15.484755242147324,-6.458480205707285,53.781315909942876,-10.418478,-5.7233644,14.800796,41.40223,-21.939053,-2.101413,-21.076267,-22.146881,4.5835195,113.55791,-19.601002,-15.000033,-0.16279446,-6.718496,16.558168,17.683218,21.880442,-20.88948,-9.743383,-6.6393304,-7.4320145,12.035395,2.9894874,-21.119385,23.673779,-7.3291273,-3.4106956,-9.38786,-5.370887
25,8.525885581970215,31.08094024658203,71.44395446777344,15.523496611394432,-6.977109087899073,53.62599799180496,-9.269375,-5.7920313,14.958269,42.90463,-23.917006,-2.5267706,-23.09729,-21.2062,5.602047,114.91126,-20.131044,-15.000033,-0.80144525,-6.8240876,17.253263,15.1633005,22.046827,-21.898485,-8.340854,-5.322854,-6.8968234,13.353515,3.569252,-20.907349,23.083363,-4.2399015,-3.1397471,-10.237664,-7.0482635
26,8.959663391113281,32.26624298095703,71.09130859375,15.411435673553665,-7.471730184665335,53.487568709997,-8.011593,-5.76151,15.01506,44.188484,-25.895582,-2.9010015,-25.10952,-20.093027,6.334809,115.85772,-20.669811,-15.000033,-1.4563149,-6.78717,17.923061,12.655926,22.242943,-22.989944,-7.1777906,-3.7446518,-6.1675315,14.781843,4.1681056,-20.743994,22.607458,-1.0795836,-2.6300209,-11.056237,-9.092068
27,9.400411605834961,33.43967819213867,70.78466796875,15.196802937742612,-7.923724996399561,53.41431100836048,-6.697491,-5.6903853,14.972098,45.243137,-27.78259,-3.230367,-27.069756,-18.950432,6.7592635,116.3874,-21.151033,-15.000033,-2.1594677,-6.6751275,18.511967,10.250958,22.458265,-24.05116,-6.4030547,-2.2976913,-5.42597,15.914217,4.9068503,-20.645493,22.159193,1.7301108,-2.0322993,-11.815477,-11.045562
28,9.889062881469727,34.615665435791016,70.52995300292969,14.924428605179555,-8.3146869613685,53.45489612816776,-5.3841047,-5.6120405,14.813469,46.06568,-29.487612,-3.5324733,-28.936443,-17.928885,6.86275,116.48764,-21.516838,-15.000033,-2.9433548,-6.555596,18.962986,8.034021,22.687151,-24.960386,-6.1601677,-1.3539805,-4.8895016,16.363365,5.9012184,-20.633764,21.656498,3.767334,-1.4800415,-12.469481,-12.456721
29,10.409612655639648,35.76240921020508,70.29559326171875,14.584573136194656,-8.662166924295931,53.6871135433044,-4.1131954,-5.4931865,14.44839,46.72904,-31.026608,-3.8153417,-30.701685,-17.112219,6.5829387,116.14657,-21.755754,-15.000033,-3.868037,-6.4342723,19.281242,6.01684,22.94151,-25.680742,-6.557796,-1.1539713,-4.722206,15.869546,7.22703,-20.722935,21.05318,4.8177214,-0.93677276,-12.984297,-13.163003
30,10.965846061706543,36.904937744140625,70.10836029052734,14.159893545428421,-8.966290585084066,54.06594548282954,-2.8459654,-5.304513,13.907296,47.216778,-32.437637,-4.072188,-32.389374,-16.43208,5.9668655,115.36352,-21.906862,-15.000033,-4.891766,-6.273354,19.495527,4.1440415,23.231592,-26.295345,-7.4867654,-1.4455333,-4.789508,14.704109,8.827192,-20.913176,20.39421,5.1203065,-0.32681957,-13.381041,-13.418648
31,11.56553840637207,38.04658889770508,69.9754867553711,13.68767019906213,-9.179980777259473,54.45294863737746,-1.5286429,-5.060779,13.346633,47.407436,-33.670444,-4.3080273,-34.00442,-15.79134,5.1671057,114.155014,-21.984776,-15.000033,-5.897698,-6.0687795,19.582106,2.4047596,23.546572,-26.847351,-8.766168,-1.8451202,-4.873372,13.285838,10.608354,-21.198479,19.739523,4.9427156,0.2788913,-13.68533,-13.39952
32,12.222002029418945,39.215301513671875,69.90531158447266,13.207313763484922,-9.258749105323737,54.70876424915274,-0.1077406,-4.7822328,12.923997,47.180264,-34.67287,-4.526123,-35.5454,-15.0868435,4.3291106,112.5305,-22.006533,-15.000033,-6.7781982,-5.810756,19.514746,0.7881986,23.86276,-27.363909,-10.205772,-1.9526186,-4.774608,12.03162,12.461447,-21.571186,19.155584,4.5689635,0.80223894,-13.9264145,-13.284876
33,12.8803071975708,40.39167785644531,69.88541412353516,12.724028016298984,-9.174593005204592,54.809147747757315,1.4341248,-4.4613285,12.661336,46.455,-35.473087,-4.7179027,-37.057472,-14.246977,3.4973602,110.477684,-21.975315,-15.000033,-7.497378,-5.4842257,19.248987,-0.74531573,24.16645,-27.846209,-11.792358,-1.6274794,-4.4242754,10.990212,14.409774,-22.03848,18.639687,3.96114,1.2009717,-14.0847025,-13.018604
34,13.580009460449219,41.58808517456055,69.9398193359375,12.216872696411013,-8.957820371969339,54.82199738298184,3.0628674,-4.0846663,12.483034,45.31542,-36.086563,-4.8892856,-38.506107,-13.338417,2.5957057,107.98872,-21.897627,-15.000033,-8.111833,-5.0811563,18.810432,-2.192751,24.457928,-28.277534,-13.592763,-1.0786434,-3.9443986,9.953158,16.49738,-22.599363,18.160233,3.0092921,1.5244962,-14.147556,-12.541442
35,14.315520286560059,42.789268493652344,70.06063079833984,11.687365092429259,-8.651115215948446,54.74457132357257,4.7543902,-3.6606572,12.40267,43.89017,-36.437035,-5.069819,-39.769238,-12.449998,1.5764934,105.075294,-21.79274,-15.000033,-8.659661,-4.607391,18.27382,-3.4950597,24.734066,-28.642029,-15.532672,-0.42044643,-3.4359992,8.952036,18.615149,-23.23132,17.74355,1.9215579,1.8226199,-14.162585,-12.028767
36,15.07396411895752,44.00608825683594,70.23688507080078,11.133524393357305,-8.297055514561182,54.57360885176859,6.4855165,-3.2046502,12.42982,42.304306,-36.45459,-5.2833924,-40.730816,-11.655006,0.3857261,101.746056,-21.667215,-15.000033,-9.18525,-4.072073,17.709661,-4.5830455,24.990341,-28.91288,-17.543634,0.23286776,-2.9920866,8.021078,20.632467,-23.897541,17.422838,0.9280808,2.1386096,-14.180335,-11.658072
37,15.862968444824219,45.24886703491211,70.46470642089844,10.544213014194922,-7.863911924701862,54.300456183891065,8.306807,-2.7268298,12.603502,40.389217,-36.132484,-5.5227118,-41.406868,-10.98694,-1.0038195,97.948265,-21.517323,-15.000033,-9.697831,-3.463507,17.085825,-5.4597197,25.229088,-29.069311,-19.629587,0.9369208,-2.61584,7.180335,22.486168,-24.58416,17.238602,0.14264534,2.4612398,-14.211435,-11.505439
38,16.66501235961914,46.49054718017578,70.7204360961914,9.898632360554751,-7.341133192873368,53.917074036602926,10.202498,-2.1969683,12.917353,38.160603,-35.51364,-5.791192,-41.81871,-10.339917,-2.6204667,93.67465,-21.33639,-15.000033,-10.160589,-2.7627084,16.381548,-6.1554494,25.456854,-29.117481,-21.817234,1.7264451,-2.2640946,6.4048223,24.23403,-25.292614,17.158745,-0.5501604,2.762996,-14.233545,-11.468148
39,17.49211311340332,47.721317291259766,71.00654602050781,9.26520269239909,-6.815586108156057,53.46115758915921,12.081699,-1.6802863,13.278822,35.948666,-34.549522,-6.1044354,-41.891884,-9.661091,-4.349314,89.02543,-21.125126,-15.000033,-10.589362,-2.060665,15.675001,-6.6531744,25.675152,-29.075209,-24.055117,2.4499466,-1.9537821,5.6683455,25.920998,-26.008097,17.104239,-1.2523392,3.0599394,-14.248698,-11.452663
40,18.340770721435547,48.94826889038086,71.31166076660156,8.719599410170645,-6.376100363248869,52.97611832830259,13.857612,-1.2543249,13.575194,34.079357,-33.19489,-6.453622,-41.578102,-8.873675,-5.9345126,84.09776,-20.894505,-14.601506,-11.001917,-1.4549326,15.04011,-6.940398,25.881056,-28.966948,-26.282692,2.957215,-1.6984867,4.9481115,27.585371,-26.70348,17.0016,-2.055073,3.3653655,-14.258202,-11.364898
41,19.22209930419922,50.185237884521484,71.63980865478516,8.249422528318304,-6.043662465916092,52.47262777454485,15.554614,-0.90684557,13.743251,32.566174,-31.396482,-6.917244,-40.829426,-8.021278,-7.4454446,78.783226,-20.645496,-14.104778,-11.409005,-0.94932663,14.509521,-7.0087395,26.071432,-28.774353,-28.516987,3.2265089,-1.5034406,4.2025533,29.239676,-27.359451,16.82943,-2.9834979,3.6648455,-14.265844,-11.178906
42,20.14093017578125,51.42927932739258,71.98127746582031,7.829287593002453,-5.772792381044185,51.92901391319141,17.200874,-0.61628926,13.828803,31.26398,-29.19547,-7.458682,-39.699406,-7.115895,-8.94235,73.056786,-20.363424,-13.569448,-11.792194,-0.5085377,14.035843,-6.8784337,26.245445,-28.50157,-30.76867,3.3312798,-1.3540678,3.460416,30.858677,-27.97275,16.6249,-3.9754994,3.9484992,-14.270262,-10.942743
43,21.085926055908203,52.68614959716797,72.33131408691406,7.515737548341107,-5.548945943621148,51.33941910207621,18.708935,-0.4239183,13.886113,30.281445,-26.698805,-7.920298,-38.299137,-6.170789,-10.317947,67.12719,-20.036003,-12.865335,-12.129309,-0.17652944,13.569171,-6.586269,26.401638,-28.208275,-32.95761,3.2629068,-1.2307628,2.8045652,32.41801,-28.539074,16.407906,-4.9844036,4.23658,-14.264124,-10.673064
44,22.06154441833496,53.95242691040039,72.69429779052734,7.365465281651106,-5.358829537013235,50.69904104996506,19.997435,-0.3729836,13.981766,29.717762,-24.00184,-8.1568775,-36.73908,-5.21971,-11.467664,61.194584,-19.645302,-11.875074,-12.39462,0.00094015396,13.058339,-6.175705,26.536768,-27.962088,-34.998463,3.0147789,-1.1139089,2.317425,33.89677,-29.05334,16.192795,-5.963931,4.5477533,-14.240262,-10.38562
45,23.071733474731445,55.242103576660156,73.05054473876953,7.437641045037004,-5.215639332324608,49.98677910862661,21.104359,-0.55055684,14.165994,29.531229,-20.974094,-8.09636,-34.94967,-4.2383337,-12.281287,55.0616,-19.121191,-10.463195,-12.569046,-0.034051582,12.487505,-5.6315947,26.644514,-27.79355,-36.888165,2.5102155,-0.99138045,2.0579221,35.31051,-29.512276,15.999418,-6.8968563,4.9323597,-14.199452,-10.090611
46,24.10671615600586,56.53597640991211,73.4021224975586,7.696124786965096,-5.119527728186658,49.218478295680995,22.059263,-0.9246307,14.4025135,29.658644,-17.584354,-7.8725653,-32.88779,-3.2707098,-12.822325,48.638115,-18.478909,-8.772485,-12.674945,-0.2541348,11.878667,-4.95511,26.721107,-27.671629,-38.65198,1.7777044,-0.873657,1.9687558,36.666515,-29.913298,15.813939,-7.8083086,5.3608284,-14.144019,-9.777541
47,25.154081344604492,57.82609558105469,73.72454071044922,8.057723829021217,-5.030978027095722,48.4452303603975,22.765417,-1.3570019,14.635647,30.175133,-14.077259,-7.655804,-30.71048,-2.436441,-13.277734,42.30323,-17.81505,-7.0763407,-12.753178,-0.5726539,11.236561,-4.209098,26.768171,-27.570333,-40.24674,0.9697442,-0.77643603,1.9568807,37.924297,-30.248032,15.611223,-8.711741,5.7370334,-14.06953,-9.431688
48,26.206640243530273,59.13128662109375,74.01519775390625,8.433668362067467,-4.911741700478697,47.71754086734576,23.134235,-1.7097069,14.795938,31.157604,-10.7034,-7.6038322,-28.589397,-1.8093799,-13.86282,36.46666,-17.222033,-5.6057606,-12.837591,-0.89851296,10.566408,-3.457705,26.790041,-27.4669,-41.630856,0.23875982,-0.7135409,1.929517,39.036,-30.50509,15.366316,-9.612855,5.964477,-13.972772,-9.037145
49,27.261491775512695,60.42817306518555,74.26502227783203,8.844053852774952,-4.726932691814616,47.030361608834596,23.134922,-2.0495384,14.827339,32.58632,-7.4172273,-7.743686,-26.51413,-1.3799614,-14.654044,31.042423,-16.65426,-4.2124815,-12.923003,-1.2383136,9.809093,-2.6860719,26.78798,-27.362926,-42.7926,-0.44016424,-0.6937139,1.8636962,40.013462,-30.67757,15.075488,-10.518568,5.984951,-13.852683,-8.565719
50,28.331348419189453,61.714351654052734,74.46175384521484,9.342469393245548,-4.506518976001354,46.37285368071102,22.840536,-2.4816074,14.757553,34.361637,-4.081262,-8.058494,-24.409277,-1.1081372,-15.560898,25.846958,-16.058136,-2.8060684,-13.002338,-1.6589863,8.975754,-1.8807578,26.762941,-27.277647,-43.747795,-1.1283433,-0.70688665,1.8069621,40.86947,-30.7565,14.761058,-11.4165745,5.85169,-13.714125,-8.033157
51,29.40188980102539,62.98016357421875,74.61127471923828,9.86985790957943,-4.306384785951448,45.775266452329895,22.310474,-2.8947365,14.6418295,36.49061,-0.84524435,-8.594389,-22.399166,-0.9781064,-16.566036,21.255442,-15.55291,-1.6734412,-13.096084,-2.1260498,8.181189,-1.0941204,26.718847,-27.206207,-44.511753,-1.7278652,-0.7385683,1.774523,41.555977,-30.750927,14.431595,-12.29114,5.654164,-13.562047,-7.4885464
52,30.46141815185547,64.216064453125,74.70892333984375,10.324537853844927,-4.17240237785126,45.25202496815934,21.580387,-3.1010518,14.557121,39.0536,2.1001463,-9.344599,-20.64835,-0.9408676,-17.655638,17.739748,-15.308835,-1.10716,-13.197013,-2.5607076,7.539688,-0.39812467,26.651321,-27.153635,-45.075333,-2.1394825,-0.7744835,1.7804552,42.044895,-30.64363,14.088262,-13.133181,5.4587884,-13.400427,-6.977502
53,31.517499923706055,65.41929626464844,74.75884246826172,10.660477155689305,-4.124270734858876,44.805437060449464,20.60002,-3.0430722,14.43258,42.219055,4.9491878,-10.463154,-19.157715,-1.0209631,-18.969841,15.477256,-15.569617,-1.1907729,-13.310087,-2.9308188,7.084689,0.21893558,26.567001,-27.116924,-45.45153,-2.3035595,-0.8186514,1.8367246,42.30103,-30.42282,13.720988,-13.924557,5.2212915,-13.229558,-6.471704
54,32.547481536865234,66.58536529541016,74.74857330322266,10.873402860709831,-4.118940431526494,44.407616345078985,19.342993,-2.7577608,14.243702,45.962097,7.6809816,-11.893296,-17.905418,-1.1737224,-20.478773,14.313483,-16.264038,-1.7566389,-13.4028635,-3.2112076,6.7580185,0.77057886,26.463703,-27.106781,-45.62848,-2.2839453,-0.877229,1.9357767,42.343166,-30.085203,13.327699,-14.663411,4.919745,-13.049153,-5.9557405
55,33.55672836303711,67.73047637939453,74.67158508300781,10.89308794215472,-4.1075623894556665,44.02384148447196,17.887812,-2.0894961,14.180834,50.108967,9.776529,-13.2164345,-17.015266,-1.2478201,-21.89815,14.2282,-17.111479,-2.768832,-13.423605,-3.3140385,6.5393186,1.2097137,26.34017,-27.128475,-45.57422,-2.1673958,-0.93900114,2.0644383,42.141117,-29.642439,12.96172,-15.290008,4.6677647,-12.862764,-5.5077825
56,34.537376403808594,68.84477996826172,74.53031921386719,10.664173373017935,-4.048678420045365,43.62451851905401,16.342514,-0.8312164,14.467295,54.47572,10.733562,-13.942925,-16.608875,-1.1193212,-22.948772,15.196252,-17.813595,-4.2233753,-13.335038,-3.1676347,6.4098325,1.5023799,26.196747,-27.17661,-45.268646,-2.040286,-0.9929086,2.2082431,41.676567,-29.11505,12.679101,-15.762698,4.5796046,-12.669414,-5.2091246
57,35.500370025634766,69.9247055053711,74.33857727050781,10.12560039533005,-3.916232528227587,43.23922801781123,14.7671,1.3441805,15.324081,59.151913,10.177001,-13.776438,-16.861027,-0.78172517,-23.516977,17.54026,-18.170893,-6.4223614,-13.160294,-2.6990159,6.3590584,1.639638,26.035824,-27.255705,-44.72582,-1.9183074,-1.0214361,2.3854647,40.96029,-28.507896,12.479916,-16.108692,4.7362213,-12.442655,-5.1264315
58,36.44822692871094,70.97540283203125,74.09906768798828,9.388652828858442,-3.7647778339786027,42.88545146596135,13.208197,4.290024,16.517162,64.14103,8.470419,-12.901359,-17.593159,-0.38852018,-23.799528,21.052742,-18.309238,-9.290365,-12.931019,-2.0367448,6.4021144,1.6535655,25.86118,-27.356926,-43.96621,-1.7583905,-1.0340813,2.594319,40.01912,-27.822546,12.327426,-16.361002,5.063351,-12.189443,-5.204382
59,37.38581466674805,72.03077697753906,73.78469848632812,8.615558299409892,-3.6620845920528216,42.50864667323603,11.706942,7.5241904,17.630203,69.15936,6.1976895,-11.575233,-18.429386,0.003406402,-23.974098,24.951885,-18.427813,-12.262987,-12.624422,-1.364926,6.5567536,1.5840999,25.674831,-27.443064,-42.97495,-1.5586329,-1.0618973,2.7916286,38.844315,-27.080116,12.234644,-16.481667,5.4513135,-11.957872,-5.3430815
60,38.300315856933594,73.03726959228516,73.39822387695312,7.909036081350669,-3.6638036289702227,42.055284275034495,10.21299,10.574376,18.294722,73.9638,3.9556453,-10.096137,-19.055029,0.37859657,-24.1513,28.606981,-18.85085,-14.805476,-12.225405,-0.8010241,6.8435807,1.4776478,25.47535,-27.468596,-41.741856,-1.3171058,-1.1377866,2.9354336,37.40975,-26.317053,12.216359,-16.418055,5.79478,-11.795704,-5.44339
61,39.176700592041016,74.04547119140625,72.96682739257812,7.377505797575265,-3.8363065628087325,41.599401332625504,8.707595,13.258173,18.455687,78.55381,1.7262222,-8.347644,-19.568922,0.23769607,-24.339249,32.6066,-19.93515,-15.000033,-11.8273115,-0.43840003,7.3023887,1.3178461,25.257563,-27.395988,-40.235516,-1.0541334,-1.3160267,2.979509,35.67325,-25.551268,12.25848,-16.15084,6.110029,-11.732099,-5.445309
62,40.038116455078125,75.02547454833984,72.52787017822266,6.763280615696748,-4.05362460735065,41.027310067019386,7.075927,15.979709,18.292845,83.166245,-0.83391976,-6.386893,-20.086075,0.24623121,-24.331532,36.690586,-21.25922,-15.000033,-11.312131,0.0034969316,7.8863606,1.1121033,25.022392,-27.23296,-38.487057,-0.76454276,-1.5654491,2.9561431,33.665565,-24.784082,12.356825,-15.725065,6.449181,-11.735567,-5.419178
63,40.90904998779297,75.99197387695312,72.09786987304688,6.164985141883472,-4.3387088598976415,40.42353795997967,5.3149657,18.508541,17.787277,87.58088,-3.3793952,-4.3812795,-20.409172,0.33799106,-24.180012,40.520535,-22.77482,-15.000033,-10.769877,0.41523919,8.558419,0.9383244,24.772335,-27.001772,-36.569115,-0.40907088,-1.7934569,2.9470716,31.426535,-24.032848,12.544537,-15.140616,6.769637,-11.76459,-5.459669
64,41.777793884277344,76.94989013671875,71.69573211669922,5.685219086647759,-4.717642599286704,39.87592655894263,3.4330835,20.649649,16.957928,91.58283,-5.560842,-2.4608006,-20.316668,0.43401524,-23.973152,43.74013,-24.409876,-15.000033,-10.295159,0.67927814,9.292212,0.88645524,24.512135,-26.71812,-34.564846,0.05234976,-1.9060788,3.032972,28.999441,-23.325304,12.862312,-14.408949,7.0315404,-11.778111,-5.6646404
65,42.62937545776367,77.88018798828125,71.31068420410156,5.350895695785101,-5.249463565279162,39.43935393531624,1.387533,22.334217,15.713727,95.17496,-7.196993,-0.55994475,-19.674192,0.52544904,-23.801962,46.251762,-26.248852,-15.000033,-9.96281,0.73753417,10.149204,1.0062443,24.231413,-26.322191,-32.396473,0.7598767,-1.8506941,3.188953,26.30693,-22.672451,13.3829775,-13.406623,7.302265,-11.804931,-6.110906
66,43.479835510253906,78.79217529296875,70.938232421875,5.104798807364068,-5.896957807676562,39.04648617663562,-0.8496317,23.6749,14.109761,98.47085,-8.488942,1.3736482,-18.654322,0.6596415,-23.637423,48.30567,-28.303936,-15.000033,-9.708052,0.67108977,11.126318,1.2563007,23.930004,-25.805212,-30.063944,1.6486528,-1.6845164,3.3798733,23.359667,-22.06991,14.06973,-12.186339,7.588892,-11.85575,-6.7389584
67,44.34235382080078,79.72537994384766,70.58547973632812,4.915332481129537,-6.546227076552775,38.61537644543722,-3.2239194,24.780552,12.397909,101.41529,-9.657267,3.2037766,-17.467133,0.8538247,-23.40865,50.02034,-30.367193,-15.000033,-9.426333,0.5702634,12.105579,1.5990037,23.638794,-25.266357,-27.772133,2.4530706,-1.4772825,3.6787782,20.326977,-21.525732,14.809747,-11.023284,7.761533,-11.857419,-7.438528
68,45.19357681274414,80.65423583984375,70.25284576416016,4.755082460721974,-7.084792224203848,38.06490522567309,-5.668508,25.756208,10.830006,103.95033,-10.922195,4.780297,-16.32321,1.1112611,-23.037321,51.514137,-32.23523,-15.000033,-9.018559,0.5209285,12.968146,2.0160882,23.406677,-24.80496,-25.749107,2.9043183,-1.3005785,4.1719522,17.361408,-21.058046,15.505031,-10.175402,7.692473,-11.735376,-8.094964
69,46.034393310546875,81.56291198730469,69.95849609375,4.61450494934088,-7.494178627910829,37.38548895652069,-8.21451,26.59154,9.410177,106.08643,-12.354194,6.010007,-15.247401,1.442031,-22.526539,52.78887,-33.87919,-15.000033,-8.478306,0.5384856,13.709035,2.5228271,23.269403,-24.454235,-24.025414,2.9036064,-1.143879,5.075311,14.451861,-20.675392,16.182669,-9.672068,7.2264185,-11.4012375,-8.781394
70,46.88609313964844,82.45032501220703,69.70521545410156,4.509988584763345,-7.830857273371538,36.616518637872,-10.867266,27.23955,8.055191,107.85092,-13.811844,6.9850698,-14.13906,1.835946,-21.917421,53.801662,-35.403046,-15.000033,-7.860604,0.5729046,14.387926,3.1612802,23.235586,-24.14797,-22.540363,2.589881,-0.98799855,6.293869,11.520653,-20.371363,16.90723,-9.389893,6.4859095,-10.909005,-9.516471
71,47.75255584716797,83.33322143554688,69.49211883544922,4.454636912790287,-8.096321626955977,35.74877989841376,-13.516981,27.760305,6.8702164,109.207855,-15.198521,7.813444,-13.018158,2.252612,-21.184843,54.604637,-36.807354,-15.000033,-7.169299,0.6096612,14.977987,3.964376,23.310547,-23.829065,-21.381283,2.052736,-0.89254564,7.449781,8.601033,-20.14652,17.66178,-9.335693,5.7519336,-10.403167,-10.107188
72,48.616310119628906,84.22296905517578,69.31446075439453,4.46068910572287,-8.292926851096723,34.77238560923061,-16.051867,28.223866,5.9629316,110.11894,-16.422224,8.606391,-11.90331,2.6494448,-20.301268,55.244915,-38.084873,-15.000033,-6.406023,0.63736326,15.45329,4.968097,23.49477,-23.444115,-20.641548,1.3841317,-0.90627843,8.164547,5.7327456,-20.007544,18.427832,-9.521031,5.2979746,-10.038392,-10.368828
73,49.468719482421875,85.1280746459961,69.17613220214844,4.538478166132944,-8.422556227412066,33.60710930830706,-18.42196,28.669165,5.412528,110.57863,-17.480453,9.389627,-10.798856,3.039144,-19.19768,55.75882,-39.252895,-15.000033,-5.5256886,0.6601106,15.817168,6.2397175,23.790825,-22.959265,-20.455034,0.3908471,-1.0750595,8.264001,2.8802052,-19.971918,19.243532,-9.973739,5.312252,-9.924226,-10.128782
74,50.33576965332031,86.03571319580078,69.08776092529297,4.674391970368024,-8.484505729578121,32.284354586060765,-20.673086,29.079676,5.1606874,110.60471,-18.412643,10.100234,-9.68564,3.4273016,-17.909916,56.113403,-40.30728,-15.000033,-4.559433,0.68583184,16.083586,7.7811217,24.193918,-22.390253,-20.77057,-0.9125229,-1.3495263,7.9673624,0.023995847,-20.037264,20.15475,-10.676162,5.619666,-9.958158,-9.534587
75,51.22591781616211,86.96731567382812,69.05934143066406,4.8507658199248525,-8.469991271151228,30.961790649234654,-22.83706,29.437181,5.1090064,110.195435,-19.199717,10.714465,-8.545419,3.757131,-16.572514,56.248173,-41.22744,-15.000033,-3.6062107,0.7024968,16.240686,9.500196,24.683895,-21.777695,-21.371084,-2.117864,-1.6300305,7.4897366,-2.7617977,-20.173977,21.12578,-11.571228,5.934449,-9.983502,-8.883045
76,52.13894271850586,87.88990020751953,69.0910415649414,5.0499670764061095,-8.37313873748532,29.79687411856603,-24.939503,29.708525,5.170629,109.345695,-19.82446,11.206824,-7.3623195,3.973782,-15.31959,56.09855,-41.99037,-15.000033,-2.7484558,0.68975335,16.270798,11.263519,25.234026,-21.184685,-21.994564,-2.8047678,-1.8325354,7.05489,-5.3973203,-20.344967,22.08563,-12.593769,5.9540167,-9.850698,-8.465705
77,53.07887268066406,88.79940795898438,69.18669128417969,5.268086206384348,-8.176971794135937,28.821649524717596,-27.020988,29.864956,5.3322687,108.03985,-20.234913,11.503824,-6.152011,4.0621476,-14.164603,55.64836,-42.617653,-15.000033,-1.9934384,0.63603455,16.13502,13.017207,25.833914,-20.644957,-22.57536,-2.7348652,-1.9401423,6.6586905,-7.931194,-20.542574,23.03316,-13.715535,5.552903,-9.486199,-8.375101
78,54.03960418701172,89.71585845947266,69.34663391113281,5.5128852808321716,-7.889813444742766,27.958331579064243,-29.0182,29.913485,5.677072,106.277504,-20.461306,11.624848,-4.9160457,4.047269,-13.043306,54.92864,-43.112972,-15.000033,-1.2925197,0.54383534,15.845627,14.801214,26.477499,-20.144388,-23.20147,-2.1654375,-2.0029407,6.206897,-10.382694,-20.771858,23.98622,-14.958057,4.893504,-8.981573,-8.438777
79,55.005889892578125,90.63236236572266,69.55924987792969,5.785798624076757,-7.543230477886979,27.19926920096083,-30.801573,29.863089,6.264396,104.073166,-20.612322,11.676628,-3.626248,3.9330068,-11.975811,53.950737,-43.431606,-15.000033,-0.6351144,0.4106107,15.457378,16.58989,27.143867,-19.685925,-23.807413,-1.4144855,-2.044926,5.7910314,-12.632955,-21.019238,24.878323,-16.318954,4.0961123,-8.441647,-8.547678
80,56.00078201293945,91.54991149902344,69.83329010009766,6.089128332683605,-7.165875694012806,26.536926739827116,-32.252846,29.725658,7.136909,101.44089,-20.797647,11.760096,-2.2582154,3.7259696,-10.98306,52.72734,-43.51961,-15.000033,-0.0034469217,0.23648772,15.01917,18.34304,27.805387,-19.281847,-24.31096,-0.7925532,-2.0830235,5.5014358,-14.562661,-21.263351,25.633442,-17.781878,3.2699552,-7.973456,-8.594859
81,57.01626968383789,92.4732437133789,70.15715026855469,6.429784145318473,-6.743018503128714,25.99912051162594,-33.347733,29.597216,8.417377,98.350876,-21.153473,11.970894,-0.7815333,3.4187577,-10.08564,51.148453,-43.38509,-15.000033,0.58649665,0.012209104,14.507639,20.02825,28.449146,-18.945627,-24.636368,-0.28362665,-2.1043572,5.379313,-16.179842,-21.496355,26.208868,-19.318857,2.278812,-7.6118526,-8.526498
82,58.05645751953125,93.38883972167969,70.52063751220703,6.804147606855905,-6.264752515482577,25.584470519455234,-34.12495,29.398754,10.055773,94.798615,-21.589483,12.179881,0.7725041,3.0129855,-9.272481,49.244225,-43.042927,-15.000033,1.1249778,-0.25991383,13.899342,21.653545,29.076048,-18.677965,-24.816442,0.25702134,-2.1025805,5.3681,-17.55559,-21.726933,26.651018,-20.913612,1.107886,-7.299153,-8.402861
83,59.13188552856445,94.31489562988281,70.92820739746094,7.193354515594352,-5.7702250217602575,25.237692453097427,-34.59103,28.924904,11.802266,90.83657,-21.879688,12.1910515,2.341618,2.5357583,-8.517949,47.232082,-42.459183,-15.000033,1.6442136,-0.554497,13.245725,23.239014,29.679804,-18.466654,-24.933197,0.71126163,-2.1005745,5.4094048,-18.664196,-21.957445,27.011915,-22.564909,0.05116363,-7.0033484,-8.297663
84,60.22817611694336,95.25316619873047,71.36298370361328,7.580470459797559,-5.301003664663727,24.901349754219027,-34.778034,28.017118,13.37828,86.516785,-21.80512,11.86527,3.878976,1.9051642,-7.8690886,45.34362,-41.603123,-14.547609,2.1759956,-0.84332776,12.599568,24.741615,30.253204,-18.299511,-25.005682,0.93579507,-2.122558,5.4437194,-19.485418,-22.187101,27.348078,-24.265278,-0.5975104,-6.688549,-8.286879
85,61.33644485473633,96.20145416259766,71.81846618652344,7.997296416564964,-4.862866527612891,24.581105826936763,-34.67634,26.662529,14.770917,81.74993,-21.314804,11.311849,5.4596224,1.1217564,-7.2897215,43.452484,-40.45916,-13.6947155,2.726586,-1.1562465,11.9628935,26.198744,30.793627,-18.18731,-25.054815,0.8513554,-2.1729019,5.454863,-19.974123,-22.415867,27.645103,-26.05597,-0.7036126,-6.327083,-8.42666
86,62.466068267822266,97.15840911865234,72.2878189086914,8.573664049986668,-4.452572506544523,24.32583607231938,-34.21786,24.840546,16.178694,76.465515,-20.52418,10.651486,7.0510893,0.055652946,-6.7986565,41.615757,-39.121136,-12.710553,3.2471309,-1.6318439,11.334307,27.61548,31.303024,-18.125418,-25.064434,0.55044985,-2.2397316,5.471152,-20.159618,-22.647406,27.879599,-27.92491,-0.44493845,-5.943197,-8.672363
87,63.61056137084961,98.1226806640625,72.75746154785156,9.103839144153834,-4.062813135572192,24.062281095291482,-33.579525,22.79229,17.264854,70.881,-19.49772,9.687774,8.503319,-0.9987258,-6.3630443,40.0379,-37.536106,-11.772639,3.7751439,-2.0640578,10.718303,28.989254,31.77394,-18.07744,-25.073088,0.18283257,-2.3234537,5.500687,-20.12166,-22.883503,28.087858,-29.785975,0.004146278,-5.577825,-8.948318
88,64.76812744140625,99.08894348144531,73.22554779052734,9.50678065439404,-3.6997896698320463,23.746523116436713,-32.832863,20.630817,17.851715,65.15258,-18.288723,8.276265,9.659361,-1.9512628,-5.988923,39.02697,-35.724777,-10.998165,4.3147407,-2.3733447,10.129792,30.324017,32.19004,-18.004301,-25.12472,-0.09728305,-2.424737,5.549442,-19.946371,-23.122284,28.316187,-31.547827,0.46628392,-5.269903,-9.175465
89,65.93773651123047,100.05743408203125,73.6810531616211,9.771127582494943,-3.3603987664468518,23.353615719026408,-31.915228,18.29493,17.829992,59.05603,-16.753546,6.225419,10.544773,-2.7712612,-5.6509657,38.552116,-33.580532,-10.362494,4.885955,-2.5332217,9.553034,31.634539,32.54033,-17.90476,-25.220032,-0.23612146,-2.5532267,5.6155586,-19.642975,-23.361004,28.599934,-33.19133,1.0368452,-5.0420814,-9.348025
90,67.12716674804688,101.03768920898438,74.12017822265625,9.932782158160522,-3.0450310328677217,22.902510546195852,-30.751242,15.838514,17.265228,52.524155,-14.963112,3.742328,11.24753,-3.4909723,-5.330496,38.455395,-31.118258,-9.803173,5.4819546,-2.5824342,8.982931,32.917973,32.82036,-17.792343,-25.337059,-0.31408277,-2.705743,5.692942,-19.181585,-23.597878,28.910984,-34.752617,1.7601504,-4.869873,-9.503328
91,68.34074401855469,102.00816345214844,74.5355453491211,9.994408708687589,-2.7642039526760445,22.414748472383863,-29.378729,13.516901,16.311924,45.944656,-13.242768,1.2558783,11.717809,-4.131603,-5.054237,38.823185,-28.515259,-9.367675,6.0677905,-2.5505776,8.447101,34.151737,33.021038,-17.65133,-25.47784,-0.3779991,-2.8639426,5.782146,-18.598042,-23.832232,29.204807,-36.208458,2.3849182,-4.7173114,-9.621278
92,69.55701446533203,102.96460723876953,74.92672729492188,9.960725601898213,-2.5274774600986647,21.91385382212906,-27.874527,11.541679,15.18089,39.743217,-11.866963,-0.8504199,11.8988085,-4.7195134,-4.860377,39.74812,-25.942244,-9.108732,6.605592,-2.4647346,7.9737673,35.316765,33.13013,-17.464312,-25.648912,-0.47283491,-3.009677,5.882489,-17.928522,-24.060785,29.43833,-37.53667,2.6610837,-4.5471306,-9.681368
93,70.77245330810547,103.89604187011719,75.27607727050781,9.7768625601119,-2.33673997060229,21.400206189914137,-26.206287,9.897932,13.765966,33.791496,-10.809074,-2.7103417,11.775151,-5.2031155,-4.811523,41.248695,-23.271902,-9.031667,7.090937,-2.2724164,7.541594,36.441463,33.13312,-17.209269,-25.854853,-0.5689059,-3.1487496,5.973841,-17.177402,-24.283075,29.61746,-38.725143,2.4176462,-4.3377447,-9.650874
94,71.9884033203125,104.82168579101562,75.588623046875,9.433423536228807,-2.194128651901121,20.855253699198506,-24.313028,8.553312,12.042368,27.899445,-9.919414,-4.4477315,11.408988,-5.5447454,-4.8917665,43.213898,-20.416,-9.067339,7.5441256,-1.9438598,7.1428404,37.523056,33.023994,-16.903221,-26.087822,-0.652441,-3.2874544,6.0612645,-16.34078,-24.498058,29.76626,-39.77741,1.8244374,-4.1116447,-9.544392
95,73.19027709960938,105.73857879638672,75.85885620117188,9.019953588340737,-2.1034997357865963,20.28670622204441,-22.343683,7.581876,10.396613,22.525986,-9.263603,-5.744526,10.833683,-5.830329,-5.0343757,45.59479,-17.631311,-9.187668,7.952045,-1.5558565,6.8237543,38.4954,32.80823,-16.587029,-26.339758,-0.793345,-3.4089231,6.1832285,-15.447665,-24.698984,29.872046,-40.696278,1.1452454,-3.897278,-9.412886
96,74.38910675048828,106.62678527832031,76.07926940917969,8.664109351218485,-2.057487548786809,19.719301078351318,-20.530693,6.9320335,9.227204,18.222616,-8.9183035,-6.33239,10.053532,-6.209088,-5.172341,48.40351,-15.217271,-9.408115,8.287664,-1.2292151,6.6276894,39.29216,32.50177,-16.298807,-26.597513,-1.063081,-3.4970937,6.3792562,-14.527716,-24.875244,29.920025,-41.481895,0.64424336,-3.7218206,-9.309888
97,75.56459045410156,107.50395202636719,76.24195098876953,8.46559294048262,-2.0351100988118476,19.178909210610264,-19.064022,6.487052,8.72207,15.379183,-9.059167,-5.95754,8.937648,-6.804318,-5.2438874,51.889355,-13.183922,-9.824046,8.532329,-1.0824655,6.5635915,39.934776,32.110912,-16.016842,-26.889902,-1.485462,-3.5404367,6.673565,-13.565315,-25.01284,29.8913,-42.156788,0.37175933,-3.5941525,-9.236564
98,76.7096939086914,108.36164855957031,76.3337173461914,8.412808152815952,-2.031482660899692,18.67800567859054,-17.907366,6.1111856,8.6707945,13.773178,-9.649132,-4.897614,7.4863853,-7.642904,-5.304133,56.037155,-11.441381,-10.443499,8.674954,-1.1069546,6.6059113,40.438797,31.638065,-15.729176,-27.205917,-2.025107,-3.5528705,7.042837,-12.56561,-25.101767,29.80468,-42.698696,0.19344479,-3.4999852,-9.1697
99,77.82261657714844,109.20970153808594,76.3519058227539,8.480040801284103,-2.057825404570397,18.220082264592136,-16.96214,5.703757,8.872719,13.058017,-10.441179,-3.672546,5.895177,-8.761319,-5.4380155,60.491035,-10.165064,-11.186232,8.703605,-1.2484508,6.7459006,40.735332,31.101002,-15.484077,-27.48345,-2.6634605,-3.557205,7.4554424,-11.583941,-25.138206,29.700861,-43.0453,0.09371767,-3.4299262,-9.12826
100,78.92658996582031,110.05320739746094,76.28780364990234,8.613443162620813,-2.1281063447205635,17.802189380861638,-16.123995,5.2232995,9.125828,12.883336,-11.153672,-2.7776954,4.365355,-10.153324,-5.72729,64.90994,-9.536534,-11.963295,8.618008,-1.4249122,6.973437,40.758564,30.527403,-15.331081,-27.665108,-3.384894,-3.575294,7.881345,-10.662168,-25.123905,29.609644,-43.150105,0.057936303,-3.3745868,-9.130383
101,80.01209259033203,110.88813781738281,76.14744567871094,8.807048221370454,-2.247114593091785,17.41473167849489,-15.340826,4.678278,9.502392,13.255956,-11.801833,-2.231141,2.976721,-11.944611,-6.2923055,69.32847,-9.835704,-12.776067,8.424828,-1.6335363,7.297535,40.533295,29.934982,-15.268274,-27.802921,-4.2826095,-3.6106346,8.354067,-9.785343,-25.059011,29.540876,-43.02205,0.16178393,-3.3317258,-9.210798
102,81.08722686767578,111.721923828125,75.94395446777344,9.085524190761205,-2.4101474642926513,17.05720425429776,-14.671233,4.0924406,10.068057,14.319492,-12.493771,-1.7930136,1.628752,-14.135097,-6.9869413,73.92966,-10.946668,-13.702167,8.13629,-1.9151,7.721448,40.103714,29.327137,-15.271072,-27.926783,-5.334336,-3.6566718,8.880449,-8.928923,-24.941135,29.469484,-42.68456,0.38695833,-3.3069797,-9.349287
103,82.12747192382812,112.55917358398438,75.70025634765625,9.430835875620765,-2.61287420594984,16.74135660925887,-14.158546,3.4624374,10.62504,15.883859,-13.05121,-1.5642238,0.24475963,-16.471685,-7.528143,78.58152,-12.431887,-14.725894,7.7589235,-2.2460108,8.221392,39.39488,28.713888,-15.351435,-27.913153,-6.3684363,-3.7159908,9.389327,-8.11946,-24.774673,29.37196,-42.118153,0.5768147,-3.3017344,-9.480693
104,83.123291015625,113.40995025634766,75.40919494628906,9.841454840512933,-2.84927664646564,16.485086829359208,-13.863191,2.7695482,10.981842,17.798262,-13.317566,-1.633595,-1.2946551,-18.532625,-7.418196,83.13334,-13.802976,-15.000033,7.3058825,-2.6089222,8.770725,38.36843,28.10632,-15.527077,-27.676777,-7.19597,-3.7855048,9.811703,-7.369196,-24.568142,29.214262,-41.310287,0.57589805,-3.3169405,-9.541365
105,84.096923828125,114.27154541015625,75.06971740722656,10.392467881145281,-3.1114752872839095,16.327971319095166,-13.906159,1.9391316,11.025792,20.182241,-12.978234,-2.168983,-3.0500982,-20.411339,-6.7328887,87.66997,-15.025483,-15.000033,6.739924,-3.0926268,9.372228,36.98379,27.506218,-15.793813,-27.204369,-7.8584824,-3.8863654,10.106431,-6.6819167,-24.332706,28.988428,-40.27656,0.31488454,-3.3458228,-9.482278
106,85.05931854248047,115.14474487304688,74.66828918457031,11.170913984015199,-3.428672225862746,16.28105539346,-14.142501,0.8627728,10.912147,22.939043,-12.141293,-3.0280595,-4.9365745,-22.30449,-5.630599,92.23803,-16.32106,-15.000033,6.043452,-3.7970629,10.06173,35.29771,26.91366,-16.139551,-26.567856,-8.421704,-4.0080795,10.319567,-6.0275545,-24.072899,28.703592,-39.039955,-0.112146005,-3.3914957,-9.35205
107,86.02182006835938,115.9979476928711,74.21712493896484,11.9806627578862,-3.7950122772824897,16.258155134681314,-14.437255,-0.20543681,10.800833,25.938448,-11.449715,-3.9065866,-6.914592,-23.912914,-4.2269983,96.6047,-17.52346,-15.000033,5.3200016,-4.522724,10.802773,33.330147,26.34223,-16.571728,-25.725094,-8.768636,-4.0988603,10.516164,-5.36957,-23.786722,28.354143,-37.59476,-0.61937743,-3.4702263,-9.232163
108,86.927001953125,116.82556915283203,73.77173614501953,12.733565726175769,-4.235318383424723,16.19978929777382,-14.488503,-1.1838338,10.871289,28.750898,-11.402659,-4.487694,-8.907483,-25.06138,-2.623477,100.566414,-18.504532,-15.000033,4.6446056,-5.174795,11.606093,31.097614,25.81561,-17.097187,-24.637215,-8.790565,-4.106467,10.764873,-4.6670375,-23.469269,27.928318,-35.936348,-1.1215354,-3.595416,-9.201709
109,87.83428955078125,117.62415313720703,73.34467315673828,13.43978899662575,-4.783072933538375,16.08869576878539,-14.22538,-2.0925956,11.192711,31.3231,-12.177592,-4.671056,-10.912904,-25.682213,-0.78508043,104.12836,-19.162651,-15.000033,4.04812,-5.760491,12.521214,28.523714,25.349611,-17.74224,-23.1954,-8.451328,-4.0225334,11.058159,-3.896997,-23.112328,27.381355,-34.030983,-1.6209975,-3.7787344,-9.227486
110,88.78966522216797,118.39110565185547,72.92520141601562,14.11112427736804,-5.408479638567811,15.942231385122058,-13.805782,-2.9294755,11.639142,33.861324,-13.496415,-4.647404,-12.961656,-25.848042,1.2501309,107.39472,-19.568047,-15.000033,3.516585,-6.3037586,13.526986,25.635681,24.941643,-18.494741,-21.474321,-7.825055,-3.8705847,11.378531,-3.0594935,-22.717295,26.717438,-31.902729,-2.1581695,-4.0113287,-9.283869
111,89.77392578125,119.1468505859375,72.5359115600586,14.679863689685636,-6.047714088382067,15.76051384201265,-13.237799,-3.625165,12.096991,36.265476,-15.143406,-4.5448933,-15.006845,-25.63841,3.2176402,110.31787,-19.882647,-15.000033,3.044215,-6.7465606,14.540512,22.618843,24.583836,-19.31018,-19.719343,-6.9584603,-3.643661,11.775887,-2.1552253,-22.299658,25.999804,-29.629894,-2.7050657,-4.273129,-9.461057
112,90.74398040771484,119.87936401367188,72.15972900390625,15.082130210830293,-6.638281294116607,15.548654984079139,-12.53226,-4.122548,12.4714575,38.434082,-16.900112,-4.4900246,-17.02962,-25.155376,4.903489,112.841606,-20.257072,-15.000033,2.6139526,-7.028375,15.479014,19.64429,24.267841,-20.150866,-18.16231,-5.897174,-3.332132,12.293753,-1.1917667,-21.883348,25.295694,-27.292904,-3.2323942,-4.5417657,-9.851937
113,91.75223541259766,120.5948257446289,71.80178833007812,15.298285464769624,-7.180995401412669,15.24291411453128,-11.612622,-4.3970857,12.817217,40.307312,-18.83277,-4.5139256,-19.070028,-24.332212,6.3432636,114.96081,-20.72317,-15.000033,2.2772577,-7.0964923,16.3628,16.666225,23.988556,-21.087746,-16.72357,-4.4437933,-2.8563607,13.1008,-0.1865273,-21.481056,24.618153,-24.753883,-3.6947355,-4.814387,-10.604341
114,92.72366333007812,121.31570434570312,71.45708465576172,15.371875044708899,-7.707649598993349,14.86552035070846,-10.487482,-4.519627,13.172251,41.93018,-21.005089,-4.5524116,-21.122538,-23.176195,7.5940685,116.709564,-21.188822,-15.000033,2.0159848,-6.991,17.232807,13.618063,23.737455,-22.126328,-15.325757,-2.652285,-2.2241542,14.106964,0.88113683,-21.099678,23.927338,-22.041868,-4.1210847,-5.09752,-11.631494
115,93.72673797607422,121.9972152709961,71.13320922851562,15.33836033524253,-8.203937975461802,14.557489449928035,-9.295286,-4.5765557,13.429851,43.352646,-23.189907,-4.5857077,-23.131636,-21.937353,8.518855,118.07036,-21.630798,-15.000033,1.70352,-6.7969637,18.03278,10.623481,23.505033,-23.146385,-14.186006,-0.93063724,-1.5787632,14.969487,2.055207,-20.757938,23.214249,-19.486687,-4.590561,-5.382204,-12.677972
116,94.73532104492188,122.66523742675781,70.8514175415039,15.230233139099145,-8.652847922710942,14.458971257655962,-8.179933,-4.6373897,13.477565,44.63047,-25.162884,-4.5940704,-25.064178,-20.859333,9.01146,119.02248,-22.008568,-15.000033,1.2130622,-6.604018,18.703772,7.8020787,23.287457,-24.031944,-13.5109215,0.3297366,-1.0965244,15.358238,3.3806095,-20.478516,22.477377,-17.425436,-5.1747518,-5.6597366,-13.494037
117,95.73371887207031,123.3084945678711,70.58788299560547,15.042788774536284,-9.067494686742235,14.656896085062519,-7.1962886,-4.724364,13.250843,45.814056,-26.888485,-4.54722,-26.932177,-20.03905,9.010262,119.54852,-22.310274,-15.000033,0.47604132,-6.428069,19.246887,5.1525393,23.089405,-24.786724,-13.37567,0.9454885,-0.901019,15.103338,4.8991647,-20.270288,21.674026,-15.95228,-6.046096,-5.924537,-14.036442
118,96.75370788574219,123.92561340332031,70.36376953125,14.765862770420174,-9.448677795063656,15.063639611736216,-6.2619324,-4.799099,12.828323,46.863132,-28.478973,-4.4603457,-28.766922,-19.368242,8.613582,119.653336,-22.551655,-15.000033,-0.42344603,-6.230201,19.691843,2.6028316,22.913223,-25.495716,-13.64489,1.1563345,-0.8931643,14.4183235,6.5991426,-20.13143,20.81007,-14.917093,-7.102733,-6.1804967,-14.437414
119,97.79947662353516,124.49040222167969,70.17095947265625,14.419632662977625,-9.76676238701755,15.559684550736659,-5.314889,-4.834848,12.306206,47.6973,-29.933613,-4.386417,-30.558945,-18.780998,7.958863,119.35465,-22.753008,-15.000033,-1.3841463,-6.011293,20.019447,0.15929306,22.753498,-26.16207,-14.204157,1.2136043,-0.92302555,13.553183,8.439846,-20.06435,19.962793,-14.278193,-8.0011,-6.439546,-14.709784
120,98.8681411743164,125.03334045410156,70.00789642333984,14.0241183354316,-9.991094813333328,16.02515122055939,-4.29644,-4.7929435,11.778406,48.24207,-31.255785,-4.3807917,-32.292255,-18.201506,7.1745825,118.67047,-22.935505,-15.000033,-2.3150065,-5.7658854,20.20968,-2.1585586,22.602367,-26.768517,-14.947438,1.3785564,-0.8429045,12.752349,10.3673935,-20.077028,19.222021,-13.981169,-8.398835,-6.7160187,-14.864903
121,99.97537231445312,125.56625366210938,69.89057159423828,13.548058066300777,-10.120707662661154,16.485836229488417,-3.2260628,-4.624701,11.199636,48.543854,-32.48944,-4.4795694,-33.955933,-17.621737,6.208347,117.59294,-23.136442,-15.000033,-3.2304842,-5.460741,20.251474,-4.362496,22.457144,-27.297077,-15.894299,1.7053317,-0.62549114,12.017463,12.431421,-20.177977,18.602516,-14.153856,-8.048134,-7.028162,-14.854647
122,101.117431640625,126.07612609863281,69.83112335205078,12.986284190826813,-10.16693351810872,16.986069909208663,-2.1308541,-4.340212,10.545553,48.632145,-33.62634,-4.6513834,-35.538204,-17.07868,5.007164,116.108604,-23.346174,-15.000033,-4.1687837,-5.0914583,20.160347,-6.461853,22.31784,-27.76505,-17.078829,2.0648613,-0.34840757,11.237581,14.640426,-20.365423,18.064833,-14.77778,-7.1751175,-7.363313,-14.682396
123,102.28837585449219,126.57289123535156,69.82208251953125,12.399917984841503,-10.118518471359819,17.43163427979406,-0.9648888,-3.9847047,9.941179,48.411407,-34.589836,-4.8513446,-37.01849,-16.559826,3.6925042,114.2319,-23.517471,-15.000033,-5.0769935,-4.692947,19.953537,-8.434706,22.181557,-28.188395,-18.413925,2.4488254,-0.028006468,10.483644,16.865623,-20.629885,17.622658,-15.565846,-6.1552205,-7.689866,-14.438557
124,103.46166229248047,127.0518798828125,69.86406707763672,11.85275936004814,-9.964918301543323,17.72723341749531,0.32384855,-3.614871,9.51175,47.77908,-35.30061,-5.032294,-38.37976,-16.042551,2.3890162,111.97789,-23.599552,-15.000033,-5.9064126,-4.3041286,19.643995,-10.253862,22.046667,-28.565851,-19.812841,2.8508756,0.32160375,9.82389,18.963835,-20.957703,17.291946,-16.217077,-5.3704505,-7.981806,-14.220658
125,104.66779327392578,127.54554748535156,69.97251892089844,11.365531686165895,-9.689145861892355,17.835673549979315,1.7827822,-3.2449684,9.310452,46.611237,-35.759197,-5.181375,-39.65587,-15.508563,1.1317868,109.32566,-23.568762,-15.000033,-6.6274624,-3.945893,19.2066,-11.939983,21.91786,-28.887007,-21.288456,3.3244426,0.74454767,9.321726,20.884346,-21.351004,17.09934,-16.639572,-4.8876767,-8.242617,-14.047993
126,105.91584777832031,128.01881408691406,70.14266204833984,10.89710378344485,-9.301533926629975,17.806693615889397,3.371331,-2.8414674,9.271842,44.996555,-36.00064,-5.32561,-40.81824,-14.946756,-0.16914882,106.26856,-23.466663,-15.000033,-7.2680626,-3.584149,18.641588,-13.497841,21.80315,-29.137753,-22.879473,3.8583984,1.2338156,8.920526,22.691061,-21.811056,17.029902,-16.98245,-4.519638,-8.483321,-13.873146
127,107.18962860107422,128.47608947753906,70.35800170898438,10.421869613236968,-8.836982724987019,17.67742063438683,5.011914,-2.4002166,9.342694,43.149994,-36.001358,-5.4763675,-41.76615,-14.342326,-1.5603337,102.835075,-23.335709,-15.000033,-7.8657446,-3.184754,17.99808,-14.87297,21.709152,-29.309113,-24.545368,4.355021,1.700234,8.510543,24.403774,-22.320593,17.028717,-17.296873,-4.272184,-8.694787,-13.695983
128,108.48062896728516,128.9213104248047,70.60772705078125,9.913002599246019,-8.33116300471648,17.48295936898779,6.6256,-1.9164073,9.469728,41.28795,-35.740303,-5.649158,-42.41708,-13.686968,-3.0574381,99.04776,-23.206974,-15.000033,-8.453907,-2.714962,17.325668,-16.018393,21.641874,-29.396044,-26.233265,4.713592,2.054563,7.9857125,26.044903,-22.849146,17.038584,-17.630268,-4.1561317,-8.868668,-13.514383
129,109.79173278808594,129.36627197265625,70.87956237792969,9.349914343148379,-7.748200763957755,17.227993457023842,8.236793,-1.389218,9.66598,39.280476,-35.2182,-5.8470764,-42.789745,-12.992034,-4.70091,94.85108,-23.125896,-15.000033,-9.046238,-2.1483865,16.59354,-16.92669,21.61131,-29.36789,-27.959665,4.88545,2.2523375,7.264831,27.603745,-23.380224,17.05288,-17.949541,-4.288896,-8.991127,-13.319027
130,111.13045501708984,129.79702758789062,71.17793273925781,8.748472235362295,-7.085500242770591,16.89189876729821,9.871303,-0.8307694,9.956751,37.072277,-34.43985,-6.068466,-42.912186,-12.227553,-6.470746,90.23989,-23.061066,-15.000033,-9.613591,-1.5099584,15.793835,-17.623655,21.626867,-29.236137,-29.748621,4.9291196,2.351713,6.424977,29.070387,-23.913858,17.089733,-18.237356,-4.636297,-9.073505,-13.1109295
131,112.48843383789062,130.21676635742188,71.4831314086914,8.154936335620823,-6.430592906264103,16.480567855723983,11.458386,-0.27737916,10.292458,34.984344,-33.38761,-6.3071136,-42.7297,-11.32715,-8.263329,85.30396,-22.926178,-15.000033,-10.131045,-0.86625224,15.008505,-18.116325,21.689144,-29.066753,-31.553925,4.9063077,2.4174125,5.5996,30.469206,-24.444035,17.124128,-18.561768,-4.9843225,-9.144255,-12.900163
132,113.86320495605469,130.61294555664062,71.80342102050781,7.6271239080875946,-5.873667148202461,16.00574203724833,12.930848,0.22983457,10.614205,33.338764,-32.039715,-6.551312,-42.200066,-10.243114,-9.93459,80.12855,-22.644245,-15.000033,-10.577845,-0.296263,14.315668,-18.419489,21.789087,-28.932228,-33.315926,4.882696,2.512333,4.9227953,31.82118,-24.957645,17.134684,-18.986824,-5.1180034,-9.230197,-12.695759
133,115.2520523071289,130.99024963378906,72.12691497802734,7.168106945432402,-5.450338278680766,15.470902950605586,14.338838,0.6736285,10.875356,32.136703,-30.360064,-6.826835,-41.28095,-8.893272,-11.371064,74.57983,-22.127913,-15.000033,-10.952144,0.18244867,13.752083,-18.546389,21.919744,-28.857012,-35.03012,4.9033356,2.6646113,4.424666,33.13605,-25.447351,17.122114,-19.535532,-4.9394245,-9.349799,-12.504068
134,116.66854858398438,131.35336303710938,72.4605484008789,6.800003234875831,-5.125351817436573,14.904021192617565,15.721466,1.0066296,11.069293,31.189407,-28.341589,-7.109647,-40.024475,-7.3741913,-12.538385,68.657,-21.453981,-15.000033,-11.293907,0.55555695,13.268265,-18.499226,22.077646,-28.807219,-36.709938,4.926091,2.8378363,4.035456,34.40159,-25.910467,17.09318,-20.165176,-4.580679,-9.483844,-12.315287
135,118.12242126464844,131.7310333251953,72.80786895751953,6.643658989166915,-4.887091076528725,14.378212030740395,17.011557,1.084786,11.162455,30.494026,-25.998535,-7.2747555,-38.55693,-5.9590797,-13.212575,62.684044,-20.768156,-13.965679,-11.662072,0.7214501,12.805294,-18.285637,22.25437,-28.771887,-38.309895,4.886812,2.9980903,3.73885,35.600735,-26.34027,17.035685,-20.835245,-4.1730647,-9.6020975,-12.113924
136,119.6081314086914,132.12075805664062,73.15532684326172,6.625059551698242,-4.66886932070839,13.828270136822898,18.036663,1.0579951,11.274287,30.270454,-23.469418,-7.303622,-36.96219,-4.6994267,-13.716982,56.82562,-20.122671,-12.606422,-11.979632,0.7719608,12.305931,-17.917532,22.438606,-28.743607,-39.775246,4.7213984,3.1121557,3.5172253,36.718098,-26.723444,16.940693,-21.49895,-3.8480883,-9.675177,-11.886069
137,121.11621856689453,132.50782775878906,73.4910888671875,6.793813817752901,-4.478313201438367,13.236489252046,18.834515,0.83833754,11.439259,30.45211,-20.617054,-7.1759977,-35.18547,-3.5521562,-13.993453,50.926258,-19.457283,-11.023986,-12.229062,0.6582906,11.746192,-17.392023,22.619379,-28.746181,-41.07493,4.3556733,3.1584644,3.3929584,37.77119,-27.053846,16.81397,-22.14675,-3.6167254,-9.69132,-11.635008
138,122.63955688476562,132.87356567382812,73.80628967285156,7.1283858759571945,-4.327059508768661,12.613003346315189,19.451319,0.43718615,11.634265,30.969849,-17.416767,-6.986616,-33.174843,-2.5033097,-14.0481415,44.87426,-18.728216,-9.256312,-12.423497,0.3920861,11.152236,-16.724255,22.790667,-28.785002,-42.219864,3.8455637,3.1599338,3.3632286,38.76117,-27.328268,16.658466,-22.795425,-3.4190834,-9.667904,-11.365752
139,124.17076873779297,133.24134826660156,74.10013580322266,7.540984119181827,-4.18020324493441,12.002362455990239,19.7824,0.010682911,11.8251095,31.931652,-14.1060915,-6.8543296,-31.054222,-1.6762756,-14.180155,38.98745,-18.041506,-7.6419225,-12.596006,0.056899942,10.540572,-15.96154,22.949213,-28.827652,-43.215973,3.3178632,3.1500964,3.373435,39.651608,-27.536161,16.45694,-23.444914,-3.2850995,-9.619942,-11.065731
140,125.69217681884766,133.60467529296875,74.35518646240234,7.935883582353602,-4.0029316954250795,11.445657298067259,19.730658,-0.2787089,11.97053,33.456356,-10.932703,-6.8766885,-28.979374,-1.1382815,-14.71516,33.630066,-17.499372,-6.4787374,-12.772483,-0.2556771,9.928498,-15.150298,23.093758,-28.841852,-44.06976,2.8985202,3.163158,3.3703084,40.403458,-27.662718,16.195261,-24.094534,-3.2462537,-9.563029,-10.721503
141,127.20559692382812,133.95362854003906,74.56613159179688,8.306885827314185,-3.7533068690651064,10.935988174491156,19.226654,-0.4639545,12.007295,35.60254,-7.868067,-7.0998087,-26.964077,-0.8914312,-15.875278,28.786121,-17.13373,-5.8142843,-12.942189,-0.52591,9.2661,-14.272719,23.220875,-28.825565,-44.770733,2.5968406,3.212666,3.3477166,41.018448,-27.695404,15.867194,-24.746378,-3.4146433,-9.493987,-10.310436
142,128.70558166503906,134.2862091064453,74.72747039794922,8.703435708931762,-3.457979215370204,10.459304790535397,18.361458,-0.6656265,11.9600115,38.231213,-4.778321,-7.543131,-24.959229,-0.82632244,-17.490824,24.309616,-16.87654,-5.4270043,-13.091495,-0.8089375,8.556355,-13.329792,23.326569,-28.805964,-45.305798,2.352289,3.2791853,3.3318071,41.508682,-27.629433,15.487054,-25.391167,-3.7438347,-9.410015,-9.843927
143,130.19552612304688,134.60189819335938,74.83594512939453,9.095616686559296,-3.182877838896215,10.036612448250285,17.2648,-0.80664015,11.919291,41.23642,-1.7952828,-8.19281,-23.065765,-0.83889544,-19.296274,20.463898,-16.724985,-5.2227464,-13.229756,-1.1049066,7.897837,-12.388914,23.409903,-28.796072,-45.684475,2.1901572,3.3479867,3.318964,41.837486,-27.464882,15.068878,-25.996344,-4.02328,-9.325363,-9.359273
144,131.67291259765625,134.90989685058594,74.88435363769531,9.431082511099335,-2.9898054447702522,9.680556568407988,16.051508,-0.7346953,11.989946,44.57482,0.9229239,-8.951872,-21.393776,-0.85789275,-21.008266,17.550367,-16.705458,-5.1550493,-13.358289,-1.3885938,7.3924193,-11.5144005,23.473131,-28.80275,-45.919254,2.1343174,3.4041326,3.3053298,41.965458,-27.206146,14.623976,-26.528002,-4.0409446,-9.250663,-8.894533
145,133.12388610839844,135.19967651367188,74.86333465576172,9.701914601158405,-2.921575380109047,9.430860363732396,14.716849,-0.3666313,12.160565,48.395348,3.6098056,-9.89632,-19.87433,-0.96069115,-22.696321,15.641752,-16.96078,-5.1319175,-13.51171,-1.6626234,7.078509,-10.698628,23.519287,-28.84121,-46.01662,2.2353277,3.4191568,3.2978585,41.928043,-26.85234,14.113166,-27.01394,-3.679701,-9.1785345,-8.394085
146,134.5538787841797,135.4794921875,74.77021026611328,9.888271774924569,-2.9268141844412625,9.252545297340001,13.19791,0.29871905,12.37204,52.736164,6.229489,-10.964949,-18.503485,-1.1449059,-24.459913,14.649146,-17.485037,-5.236932,-13.657123,-1.8876742,6.902962,-9.917031,23.546822,-28.906538,-45.968803,2.466616,3.4085174,3.2976844,41.723537,-26.402254,13.53984,-27.455406,-3.073071,-9.102074,-7.859218
147,135.95626831054688,135.75765991210938,74.60365295410156,9.900213218375384,-2.9278977216879847,9.046650477303597,11.5342865,1.383538,12.688303,57.414062,8.215154,-11.7746105,-17.50142,-1.259117,-26.041279,14.68256,-18.115313,-5.731783,-13.696782,-1.9566029,6.8379335,-9.206832,23.551622,-28.970676,-45.768116,2.7343342,3.4225101,3.2910192,41.260773,-25.868324,12.971358,-27.771461,-2.3839984,-9.033213,-7.4127135
148,137.3182373046875,136.0187225341797,74.37783813476562,9.661686485941015,-2.852866424412756,8.720752583771398,9.791637,3.0085049,13.18696,62.221878,9.00611,-11.93668,-17.085636,-1.178541,-27.179651,15.840752,-18.686613,-6.8865414,-13.547248,-1.7763858,6.855646,-8.595167,23.528725,-28.998577,-45.414017,2.9460742,3.5117848,3.2625816,40.45656,-25.271963,12.477968,-27.894192,-1.7739431,-8.9884205,-7.1795487
149,138.6328887939453,136.26353454589844,74.11211395263672,9.111730673413515,-2.645987140699022,8.277579528560421,7.982019,5.490266,14.07476,67.28843,8.108608,-11.068007,-17.509033,-0.92762214,-27.760784,18.521147,-19.037048,-9.09181,-13.203962,-1.2648783,6.920928,-8.102848,23.479294,-28.984182,-44.94191,3.0443375,3.7300045,3.1998487,39.30604,-24.615421,12.05208,-27.821259,-1.2181647,-8.975768,-7.2504964
150,139.93804931640625,136.5071258544922,73.79246520996094,8.386184659998529,-2.3863477742555426,7.773635513075684,6.1710596,8.648456,15.162469,72.61724,5.929404,-9.389345,-18.523478,-0.6588363,-27.976257,22.423555,-19.209318,-12.098809,-12.732664,-0.5790411,7.05124,-7.700448,23.406881,-28.939083,-44.345657,3.08964,4.03784,3.1110382,37.872223,-23.899248,11.656488,-27.608105,-0.6521418,-8.989423,-7.542035
151,141.21095275878906,136.73477172851562,73.4059066772461,7.725434067452011,-2.230286340185462,7.251938144609589,4.4593186,11.766965,15.971563,77.82401,3.2780032,-7.43959,-19.639582,-0.56151766,-28.037893,26.817541,-19.478992,-15.000033,-12.218051,-0.0021457886,7.3141093,-7.337893,23.308033,-28.845499,-43.568336,3.1636581,4.3451962,3.0128655,36.16043,-23.156103,11.311029,-27.258684,-0.17008807,-9.026196,-7.9184976
152,142.4340057373047,136.9752960205078,72.95121765136719,7.333416759610303,-2.3387191521490647,6.78072487850917,2.890428,14.152623,16.152775,82.54006,0.99525094,-5.710538,-20.352201,-1.0575815,-28.106825,31.249247,-20.290575,-15.000033,-11.769918,0.2432318,7.796552,-6.955219,23.173111,-28.671858,-42.551136,3.3498688,4.559791,2.921139,34.16293,-22.442791,11.038577,-26.776062,0.14100279,-9.079459,-8.249447
153,143.61940002441406,137.21377563476562,72.46947479248047,6.891428616556163,-2.584920925493761,6.0574722550730815,1.3123976,16.153412,15.757294,86.97517,-0.9308271,-4.448496,-20.784086,-1.1144242,-27.857513,35.16517,-21.493832,-15.000033,-11.112397,0.49289855,8.504875,-6.5489316,22.996838,-28.362196,-41.30408,3.7343059,4.6422167,2.718866,31.826208,-21.806417,10.841993,-26.14215,0.27786562,-9.168811,-8.563808
154,144.82359313964844,137.4482879638672,72.00636291503906,6.377667702824888,-2.923812345614077,5.147306562726039,-0.32647026,17.947798,14.965842,91.27312,-2.8728085,-3.3917763,-21.17281,-0.89982027,-27.294422,39.06268,-23.010357,-15.000033,-10.317834,0.8110948,9.389193,-6.1108046,22.778725,-27.90876,-39.87288,4.2521305,4.642674,2.4357762,29.169407,-21.256714,10.718609,-25.380323,0.29975337,-9.288946,-8.927382
155,146.03616333007812,137.69436645507812,71.5805435180664,5.9017453608549175,-3.332966385696217,4.218101812933669,-2.1259809,19.285778,13.751443,95.2968,-4.668199,-2.5979478,-21.379147,-0.6191569,-26.594692,42.706932,-24.745352,-15.000033,-9.561644,1.0971066,10.352271,-5.573468,22.520866,-27.355095,-38.256474,4.758292,4.609055,2.30193,26.318962,-20.784004,10.691156,-24.57842,0.21193203,-9.391062,-9.266358
156,147.2141571044922,137.92234802246094,71.17215728759766,5.581835002081953,-3.793052844046785,3.4364643404802657,-4.1668353,19.916271,12.106567,98.9105,-6.152985,-2.1129158,-21.243519,-0.46559182,-25.95763,45.831944,-26.576864,-15.000033,-8.998242,1.2188276,11.309867,-4.8806257,22.228315,-26.760212,-36.44844,5.1081567,4.5943027,2.5461254,23.404837,-20.368061,10.774161,-23.817808,0.016376944,-9.425891,-9.500684
157,148.3791046142578,138.12872314453125,70.77572631835938,5.476177343362965,-4.356805511534725,2.9176787736769203,-6.5125327,19.495293,9.820172,102.08721,-7.1542215,-2.0639167,-20.615736,-0.5201276,-25.520882,48.335285,-28.582605,-15.000033,-8.74121,1.0581809,12.309223,-3.9816096,21.894423,-26.116877,-34.345837,5.2084756,4.609532,3.321329,20.368809,-19.986897,11.020068,-23.01343,-0.32292083,-9.371376,-9.625065
158,149.5432586669922,138.32859802246094,70.39258575439453,5.5138311254036365,-5.014508366653346,2.5460267902016347,-9.025786,18.191113,7.069814,104.919525,-7.7915173,-2.41527,-19.61979,-0.6665574,-25.196804,50.41201,-30.805689,-15.000033,-8.661277,0.6955514,13.379327,-2.9358256,21.521435,-25.40942,-31.971977,5.1561337,4.626841,4.470448,17.175354,-19.629818,11.398872,-22.156507,-0.7967627,-9.254745,-9.673739
159,150.71432495117188,138.524658203125,70.02993774414062,5.610272402406192,-5.6549946746873685,2.1504687491689674,-11.515823,16.580729,4.395583,107.42373,-8.331554,-2.9210193,-18.480806,-0.774978,-24.849926,52.174236,-33.005802,-15.000033,-8.554422,0.2967434,14.414133,-1.8409954,21.136593,-24.689806,-29.518236,5.0936394,4.643737,5.7627325,13.979557,-19.297476,11.812218,-21.437822,-1.3385302,-9.101596,-9.619883
160,151.89523315429688,138.728515625,69.705078125,5.678060692654122,-6.166018265685972,1.563583081287396,-13.898116,15.31391,2.2504141,109.59719,-9.026262,-3.2910779,-17.422268,-0.729044,-24.34206,53.726665,-34.95079,-15.000033,-8.2316265,0.039612927,15.30833,-0.76996607,20.779852,-24.008286,-27.20253,5.158807,4.6630507,6.977163,10.920807,-18.999943,12.179365,-21.034065,-1.8816468,-8.939937,-9.4343
161,153.0733184814453,138.92947387695312,69.4158706665039,5.680817456744881,-6.509883366561609,0.7393779746617732,-16.283146,14.505364,0.6064802,111.44563,-9.937659,-3.5289967,-16.50267,-0.48064882,-23.65333,55.080772,-36.5837,-15.000033,-7.645178,-0.010400693,16.040562,0.26490077,20.469053,-23.369722,-24.982033,5.413131,4.7027845,8.233017,8.007479,-18.741016,12.492568,-21.023844,-2.4946992,-8.761864,-9.044103
162,154.22557067871094,139.13026428222656,69.15262603759766,5.661118661781844,-6.7499912594206855,-0.23315286119934453,-18.723312,13.883125,-0.7817682,112.9651,-10.918415,-3.7359276,-15.600939,-0.0964833,-22.85943,56.19088,-38.027542,-15.000033,-6.903281,0.05405992,16.66236,1.334174,20.205969,-22.74328,-22.812254,5.7640305,4.7614064,9.600674,5.148609,-18.516716,12.822678,-21.28204,-3.180914,-8.563989,-8.483434
163,155.38023376464844,139.32443237304688,68.92632293701172,5.648001122263189,-6.922824546363963,-1.316161348618214,-21.130817,13.557871,-1.8499806,114.11041,-11.889167,-3.7473016,-14.66857,0.35704923,-21.962639,57.060455,-39.319817,-15.000033,-6.0708103,0.17706378,17.177094,2.5143933,20.011002,-22.115473,-20.925571,6.1169853,4.8111353,10.789624,2.3186383,-18.332592,13.226884,-21.66316,-3.7780755,-8.378542,-7.886203
164,156.567138671875,139.50694274902344,68.75202941894531,5.674438411509845,-7.063072630879245,-2.4722330723475334,-23.417234,13.63538,-2.5331218,114.84131,-12.773783,-3.406023,-13.661133,0.8090976,-20.962826,57.699223,-40.49496,-15.000033,-5.2154365,0.2992184,17.597311,3.8977587,19.916435,-21.470503,-19.577757,6.374817,4.8173547,11.512705,-0.49956888,-18.198431,13.760871,-22.035492,-4.1186137,-8.231336,-7.3902807
165,157.7705078125,139.6914520263672,68.6290512084961,5.755364043853492,-7.195978863125683,-3.770204995461453,-25.52958,14.213927,-2.75371,115.135,-13.59548,-2.661122,-12.541569,1.267192,-19.793287,58.116398,-41.575634,-15.000033,-4.30898,0.40921363,17.96085,5.5743494,19.953306,-20.771889,-18.979258,6.521525,4.750338,11.572867,-3.3422322,-18.12194,14.495112,-22.38394,-4.033442,-8.153201,-7.067776
166,158.99447631835938,139.87091064453125,68.5649642944336,5.87473992587461,-7.295338371343835,-5.205040230107462,-27.526682,15.223835,-2.5754583,115.01319,-14.397282,-1.6100469,-11.335282,1.7437948,-18.47033,58.312855,-42.544373,-15.000033,-3.3476114,0.5294931,18.26251,7.5313306,20.123117,-20.028143,-19.010626,6.585743,4.6331,11.167513,-6.191545,-18.092033,15.419197,-22.781828,-3.6415575,-8.118589,-6.845196
167,160.24569702148438,140.037109375,68.56549072265625,6.019815119535133,-7.318575100616215,-6.628062216686689,-29.472412,16.504204,-2.1238117,114.50385,-15.145304,-0.32511926,-10.094085,2.174451,-17.117409,58.28113,-43.373524,-15.000033,-2.4197218,0.64430225,18.452387,9.671053,20.40274,-19.305813,-19.395674,6.545304,4.5086555,10.599664,-8.961948,-18.084873,16.43752,-23.254812,-3.2134447,-8.067481,-6.6362004
168,161.50608825683594,140.19818115234375,68.62578582763672,6.1759501831106425,-7.224363068948086,-7.889814355597221,-31.429096,17.885443,-1.5088291,113.63201,-15.805388,1.1238818,-8.874906,2.4981563,-15.859915,58.01053,-44.03408,-15.000033,-1.6012383,0.7330453,18.47442,11.856177,20.757584,-18.67791,-19.81886,6.390689,4.41962,10.172846,-11.564073,-18.078,17.426186,-23.82104,-3.0304465,-7.9410458,-6.3459854
169,162.779052734375,140.34115600585938,68.741455078125,6.3446810141480166,-6.971769868333484,-8.959349478988619,-33.4595,19.392637,-0.6761186,112.41659,-16.397074,2.7810423,-7.736188,2.6845155,-14.709725,57.508842,-44.539833,-15.000033,-0.9106696,0.77832794,18.270142,14.054241,21.174103,-18.167545,-20.226719,6.0712457,4.385793,9.938761,-14.050049,-18.075588,18.364065,-24.456942,-3.2483678,-7.710103,-5.9191337
170,164.06802368164062,140.4595184326172,68.91654205322266,6.540875484497071,-6.593480821021202,-9.910116426891713,-35.440628,21.039042,0.49573618,110.83568,-16.986872,4.62317,-6.6386857,2.7509,-13.600023,56.787907,-44.905994,-15.000033,-0.29912728,0.7756839,17.881126,16.291632,21.650011,-17.748234,-20.72608,5.6191077,4.3836217,9.742299,-16.437098,-18.086166,19.293058,-25.162561,-3.7000391,-7.4147882,-5.406135
171,165.35687255859375,140.5594024658203,69.13902282714844,6.766286316303243,-6.158551852492348,-10.746497115964258,-37.168003,22.6389,1.9839984,108.852394,-17.593496,6.478226,-5.4968596,2.7136962,-12.545015,55.834633,-45.101566,-15.000033,0.2595444,0.72407955,17.392765,18.50674,22.166845,-17.413416,-21.22828,5.1589127,4.388297,9.577274,-18.597383,-18.101969,20.173866,-25.969084,-4.1913433,-7.0985193,-4.86494
172,166.6638641357422,140.63262939453125,69.41120147705078,7.017198415955744,-5.734368177002009,-11.47204188377477,-38.472015,24.02001,3.7251217,106.430595,-18.203814,8.176225,-4.2260118,2.5963702,-11.563648,54.628338,-45.089954,-15.000033,0.7936883,0.6320215,16.882122,20.624535,22.698956,-17.162539,-21.62401,4.82112,4.3741903,9.437079,-20.410189,-18.110992,20.959976,-26.894793,-4.5286727,-6.800159,-4.3516
173,168.0164031982422,140.67446899414062,69.74817657470703,7.290643786327891,-5.322147908576083,-12.057854498858912,-39.320976,25.315445,5.838062,103.5497,-18.883644,9.857364,-2.7805927,2.4028351,-10.682659,53.065018,-44.88191,-15.000033,1.2841699,0.49989438,16.338491,22.624266,23.235989,-17.00456,-21.845865,4.6643825,4.336345,9.33702,-21.863522,-18.113058,21.62754,-27.949072,-4.693079,-6.519291,-3.8384244
174,169.38101196289062,140.71315002441406,70.12857055664062,7.591279792713747,-4.888353765402395,-12.50255056789109,-39.757126,26.479809,8.353631,100.23402,-19.62859,11.479374,-1.2251056,2.1184514,-9.893805,51.18492,-44.486988,-15.000033,1.7079388,0.32331756,15.722758,24.537056,23.780756,-16.928514,-21.950092,4.6210613,4.286464,9.271988,-23.033558,-18.11944,22.206982,-29.10226,-4.783695,-6.2362413,-3.3067596
175,170.7639923095703,140.73741149902344,70.5417251586914,7.910816368218983,-4.448467009505365,-12.857250078046665,-39.812225,27.16045,10.985551,96.50581,-20.253101,12.670428,0.3630053,1.7615497,-9.166364,49.181538,-43.85438,-15.000033,2.094808,0.121536635,15.068629,26.368952,24.325897,-16.904232,-22.013643,4.6330423,4.223957,9.203678,-23.92839,-18.135206,22.733091,-30.306469,-4.7847924,-5.9574933,-2.8293307
176,172.15126037597656,140.78408813476562,70.98483276367188,8.231283684411967,-4.021486167615451,-13.1809787856154,-39.594433,27.102472,13.359945,92.37408,-20.530312,13.132393,1.9180429,1.3623941,-8.464689,47.242023,-42.934044,-15.000033,2.480999,-0.074727006,14.411588,28.117758,24.857489,-16.904276,-22.104212,4.6424427,4.148191,9.092197,-24.560661,-18.160711,23.241701,-31.507559,-4.6774797,-5.689219,-2.47899
177,173.57833862304688,140.8079833984375,71.45623779296875,8.575339425283612,-3.6078994794040193,-13.475712472997156,-39.129597,26.328957,15.433034,87.736534,-20.409866,12.905723,3.5195086,0.7670517,-7.858769,45.264107,-41.70226,-14.330044,2.8750424,-0.27647495,13.750735,29.783072,25.368855,-16.93446,-22.212482,4.6701074,4.0519905,8.913115,-24.907904,-18.194395,23.731466,-32.716553,-4.405349,-5.4298763,-2.3007364
178,175.02757263183594,140.82235717773438,71.93839263916016,9.006748032017573,-3.214118529773113,-13.704039446185606,-38.399105,24.977907,17.343779,82.57991,-19.984674,12.228464,5.159618,-0.061684888,-7.357452,43.266094,-40.233753,-13.246651,3.2376835,-0.55685705,13.086402,31.370852,25.860281,-16.99877,-22.31386,4.7409573,3.9372168,8.689214,-24.984385,-18.239534,24.189114,-33.942055,-3.9942405,-5.176042,-2.2486806
179,176.48037719726562,140.84791564941406,72.42095184326172,9.486658020463258,-2.8589817124893147,-13.900527120195553,-37.50221,23.1171,18.886278,77.03615,-19.243557,11.137804,6.69684,-1.0265261,-6.9542027,41.532368,-38.563984,-12.144341,3.577394,-0.881735,12.4456835,32.878204,26.325228,-17.07302,-22.435524,4.8012786,3.817176,8.45072,-24.840528,-18.29917,24.63189,-35.144684,-3.5571318,-4.931371,-2.2606091
180,177.95021057128906,140.87400817871094,72.90411376953125,9.829211030789699,-2.545456190645606,-14.128931190486904,-36.612858,20.975313,19.720472,71.32006,-18.211084,9.630599,8.023193,-1.8688098,-6.6264324,40.23974,-36.660896,-11.211117,3.9331484,-1.0650581,11.831926,34.31642,26.749725,-17.133142,-22.61634,4.803714,3.7054837,8.226695,-24.531137,-18.374863,25.080612,-36.276455,-3.2065952,-4.6990504,-2.272514
181,179.4418487548828,140.88650512695312,73.38066864013672,10.012874738824994,-2.2718755346408814,-14.396147711928172,-35.715923,18.47737,19.664083,65.27936,-16.758406,7.622512,9.182479,-2.54269,-6.3692627,39.310078,-34.40146,-10.417129,4.3129244,-1.0737288,11.227201,35.701443,27.122707,-17.185057,-22.865528,4.7478395,3.6057749,8.018313,-24.053041,-18.466934,25.549438,-37.34174,-2.9631374,-4.47461,-2.2680151
182,180.95358276367188,140.8803253173828,73.83732604980469,10.078692085432511,-2.0365450824224616,-14.69167867013865,-34.680275,15.719594,18.817068,58.84394,-15.007915,5.238546,10.234934,-3.0884802,-6.1511297,38.633003,-31.812445,-9.695804,4.715125,-0.94939816,10.62923,37.052444,27.438864,-17.237192,-23.18458,4.6728225,3.510556,7.809549,-23.391153,-18.576355,26.023733,-38.351048,-2.7691402,-4.257952,-2.2795873
183,182.48675537109375,140.85488891601562,74.26817321777344,10.044209519360138,-1.8523729836972715,-15.027209227028303,-33.41741,13.038247,17.44844,52.297638,-13.303896,2.785914,11.094995,-3.5527725,-5.9634247,38.3961,-29.1216,-9.117254,5.1228814,-0.72771585,10.079772,38.12975,27.706457,-17.265327,-23.369255,4.4813676,3.415806,7.6026464,-22.596159,-18.702812,26.501226,-39.26775,-2.62292,-4.0577016,-2.3169878
184,184.02244567871094,140.8218994140625,74.67050170898438,9.930090410687301,-1.7298175077901685,-15.412768264966774,-31.892982,10.707262,15.880476,45.93126,-11.907063,0.5170573,11.676369,-3.9880538,-5.814542,38.78395,-26.542608,-8.748677,5.555776,-0.44954082,9.607289,39.324696,27.903418,-17.253328,-23.79411,4.3432984,3.320287,7.4033594,-21.687597,-18.849962,26.944164,-40.061466,-2.5239873,-3.882463,-2.3854325
185,185.56080627441406,140.7802734375,75.03893280029297,9.68529507201116,-1.6971104162398845,-15.853381049586247,-29.984108,8.687246,14.029712,39.464756,-10.756735,-1.8120041,12.013698,-4.3352985,-5.7598557,39.785763,-23.957682,-8.595805,6.0016975,-0.055723213,9.2187805,40.4672,28.026016,-17.190617,-24.289764,4.1944985,3.2273324,7.196267,-20.659582,-19.019411,27.378029,-40.72136,-2.4885187,-3.7272997,-2.5081937
186,187.0894775390625,140.73472595214844,75.3619155883789,9.290742094084926,-1.747194036906194,-16.353241167368168,-27.671799,6.9469347,11.800532,32.75967,-9.70661,-4.216232,12.168357,-4.538903,-5.802379,41.25317,-21.250319,-8.571082,6.4492903,0.48612854,8.902336,41.267597,28.089273,-17.083902,-24.586866,3.9033034,3.135955,6.982283,-19.524565,-19.209694,27.8254,-41.258423,-2.5084748,-3.5892656,-2.6750324
187,188.60208129882812,140.68209838867188,75.6295166015625,8.821449628200714,-1.832751663451481,-16.913439168079403,-25.203644,5.6411524,9.552384,26.403538,-8.812109,-6.2135234,12.088898,-4.6752586,-5.8790846,43.17449,-18.640755,-8.638925,6.9220166,1.0920784,8.650664,42.074303,28.080917,-16.952332,-25.03522,3.6112604,3.0384572,6.7913213,-18.315613,-19.419062,28.23863,-41.672794,-2.5505228,-3.480186,-2.8424768
188,190.09494018554688,140.6189727783203,75.83706665039062,8.388493308880342,-1.8959444610366438,-17.515771592202057,-22.954226,4.7802877,7.6739807,21.144955,-8.150631,-7.3924036,11.689919,-4.890754,-5.9323897,45.614365,-16.3998,-8.808545,7.394156,1.6411748,8.460405,42.838543,27.99868,-16.805605,-25.615625,3.2944374,2.9247391,6.6477985,-17.09083,-19.639223,28.601696,-41.96007,-2.5807352,-3.4125955,-2.9719806
189,191.55096435546875,140.5460968017578,75.98161315917969,8.069702484147601,-1.8875822105382198,-18.15069523044174,-21.182941,4.2461014,6.273966,17.400463,-7.8443103,-7.5388303,10.790413,-5.283679,-5.8768125,48.84592,-14.551816,-9.151397,7.8568287,2.0425658,8.315302,43.39795,27.845705,-16.61499,-26.194304,2.8851063,2.7875094,6.5447392,-15.857786,-19.858858,28.917477,-42.11176,-2.5637896,-3.4074404,-3.0454748
190,192.98300170898438,140.49229431152344,76.06990051269531,7.860443844850333,-1.8339332878063501,-18.79675152687549,-19.794668,3.8570004,5.199248,14.869408,-7.857057,-7.003826,9.448564,-5.8761606,-5.7832932,52.818043,-13.009516,-9.678882,8.266649,2.3033829,8.222087,43.52225,27.640535,-16.365187,-26.54053,2.2785764,2.6316748,6.4694195,-14.622967,-20.068483,29.223625,-42.110783,-2.5266051,-3.4535875,-3.0883362
191,194.3824005126953,140.43978881835938,76.08834075927734,7.782922662437193,-1.7805688494626821,-19.407207876160165,-18.685637,3.4523642,4.445574,13.310822,-8.055643,-6.2282786,7.911114,-6.772384,-5.808838,57.177536,-11.924121,-10.3554325,8.592091,2.4096863,8.196149,43.650696,27.375996,-16.130507,-27.032701,1.6702193,2.4671252,6.447881,-13.390908,-20.263649,29.504879,-41.95742,-2.5350642,-3.516405,-3.1234033
192,195.76458740234375,140.38836669921875,76.02527618408203,7.825243105082808,-1.777839529959856,-19.95056603116139,-17.703445,2.9475162,3.9982388,12.430583,-8.275977,-5.634104,6.450556,-8.040027,-6.0932846,61.552063,-11.438606,-11.15242,8.760652,2.389544,8.270819,43.61426,27.072924,-15.947188,-27.487726,0.9780418,2.3009014,6.495396,-12.209769,-20.440125,29.795261,-41.640503,-2.6503186,-3.5606441,-3.1784933
193,197.1353302001953,140.3292999267578,75.8844223022461,8.013478642223841,-1.8329246421004273,-20.42722948952052,-16.825027,2.3218791,3.9880793,12.329896,-8.59607,-5.142343,5.154915,-9.88911,-6.8000164,65.987404,-11.831884,-12.143638,8.76186,2.2091885,8.463109,43.362316,26.750004,-15.803369,-27.884953,0.08393334,2.1292598,6.6428113,-11.075917,-20.591791,30.105595,-41.16617,-2.882725,-3.5548472,-3.2500572
194,198.49407958984375,140.264892578125,75.67218017578125,8.359975688989776,-1.9222990619220555,-20.854566610095752,-16.120096,1.6084473,4.376269,13.098633,-9.068061,-4.5782485,3.898282,-12.304305,-7.721343,70.67034,-13.015668,-13.375342,8.635191,1.849948,8.758527,42.951733,26.409664,-15.682554,-28.28189,-0.9602542,1.9470134,6.8743577,-9.9722395,-20.713924,30.419298,-40.53151,-3.2024724,-3.5254757,-3.3263392
195,199.8462371826172,140.21536254882812,75.43098449707031,8.810923864719443,-2.0496095874344737,-21.227942413157983,-15.57489,0.8419259,4.8907104,14.425207,-9.465682,-4.209674,2.6230345,-14.93875,-8.481253,75.42703,-14.554863,-14.735854,8.38466,1.382231,9.137184,42.33748,26.058348,-15.604387,-28.5805,-2.0041392,1.7605066,7.135334,-8.925597,-20.808382,30.728159,-39.716183,-3.6102414,-3.5230987,-3.42246
196,201.16078186035156,140.21263122558594,75.1449966430664,9.330583836747582,-2.2156808007322164,-21.533877391630597,-15.198782,0.013486221,5.2740383,16.035002,-9.568064,-4.292663,1.2112672,-17.261366,-8.449693,80.0746,-15.950789,-15.000033,8.011778,0.8712665,9.574311,41.448208,25.706167,-15.58721,-28.663939,-2.9095511,1.5790666,7.37192,-7.959201,-20.882568,31.02211,-38.702976,-4.1070566,-3.5982301,-3.5550547
197,202.4705810546875,140.2426300048828,74.8051528930664,10.101383200970439,-2.4540993419580994,-21.70770823613891,-14.9008045,-1.1345321,5.4649515,17.656136,-8.804855,-5.1603775,-0.34282988,-19.471727,-7.750923,84.71512,-17.179914,-15.000033,7.436467,0.12095454,10.122427,40.29827,25.353092,-15.625936,-28.594723,-3.7098887,1.4035448,7.567103,-7.0967836,-20.945633,31.302893,-37.505104,-4.7362027,-3.738558,-3.712085
198,203.78036499023438,140.26480102539062,74.40155029296875,11.0086173239086,-2.7224961610959144,-21.79465307197208,-14.877355,-2.409282,5.5822806,19.789003,-7.59849,-6.592761,-2.0393684,-21.589281,-6.6493106,89.36115,-18.40773,-15.000033,6.7176595,-0.7738724,10.725301,38.89881,24.99681,-15.715762,-28.391785,-4.461209,1.2292632,7.7526894,-6.306956,-20.99947,31.569649,-36.13823,-5.483737,-3.9263062,-3.8958483
199,205.05857849121094,140.27053833007812,73.94245910644531,11.966274014919884,-3.032174218707304,-21.84200564891966,-14.990442,-3.69993,5.7451167,22.316298,-6.7021585,-7.949866,-3.838985,-23.416042,-5.203115,93.8126,-19.511347,-15.000033,5.929035,-1.7249931,11.368001,37.24221,24.649837,-15.865893,-27.940834,-5.047446,1.0631771,7.9490676,-5.5291777,-21.04053,31.803183,-34.59972,-6.2586737,-4.1992664,-4.1442666
200,206.3050537109375,140.2700958251953,73.49444580078125,12.88099150706452,-3.402037981126751,-21.899654043922656,-15.028551,-4.885421,6.081628,24.981981,-6.8011966,-8.6029,-5.6879034,-24.769192,-3.5029798,97.876144,-20.384304,-15.000033,5.1483254,-2.634094,12.050543,35.32201,24.334734,-16.088673,-27.133873,-5.3569007,0.91283584,8.180523,-4.694441,-21.06352,31.977835,-32.891365,-6.9725437,-4.594736,-4.492942
201,207.53436279296875,140.25860595703125,73.09114074707031,13.760506933460649,-3.8569977456143527,-21.970929124646617,-14.991278,-5.966899,6.675525,27.865316,-8.27251,-8.220599,-7.589682,-25.547758,-1.504773,101.55748,-20.923306,-15.000033,4.3985457,-3.5140736,12.813329,33.06332,24.068905,-16.396055,-25.852648,-5.3960705,0.75398535,8.411984,-3.7700686,-21.057707,32.055855,-30.983725,-7.6332626,-5.157662,-4.9306974
202,208.74073791503906,140.20237731933594,72.687255859375,14.599110642258935,-4.378335927460535,-22.050573925464175,-14.950396,-6.9725757,7.4039426,30.997446,-10.659681,-7.220579,-9.538683,-25.814299,0.70321506,104.96203,-21.207483,-15.000033,3.6707788,-4.3686223,13.64073,30.503756,23.850842,-16.787449,-24.204592,-5.2235703,0.59237015,8.656587,-2.7807658,-21.022373,32.04513,-28.889051,-8.283587,-5.855817,-5.44624
203,209.94448852539062,140.10498046875,72.29176330566406,15.292930884693837,-4.920585008683382,-22.172171915001012,-14.7865715,-7.8248,8.089245,34.034077,-13.387328,-6.0915856,-11.4798155,-25.674736,2.8522322,108.035805,-21.39525,-15.000033,2.9850829,-5.0872035,14.463375,27.794106,23.672205,-17.257103,-22.409697,-4.807276,0.4823455,9.008405,-1.7364416,-20.972734,31.989834,-26.691843,-8.886949,-6.611046,-6.0755053
204,211.16409301757812,139.99459838867188,71.92554473876953,15.773317448608212,-5.440230374386869,-22.35743423461235,-14.371352,-8.459578,8.607743,36.630863,-15.886529,-5.3084593,-13.37933,-25.27967,4.698614,110.72853,-21.663185,-15.000033,2.3457859,-5.58725,15.2188015,25.082792,23.523254,-17.798603,-20.685314,-4.109628,0.4821677,9.555915,-0.647255,-20.936152,31.936232,-24.479681,-9.40441,-7.3446445,-6.8539042
205,212.38308715820312,139.86737060546875,71.56928253173828,15.999259397109789,-5.943711409213337,-22.659637793058696,-13.610439,-8.796978,8.978392,38.7083,-18.127453,-5.0186296,-15.257938,-24.568731,6.263486,113.03163,-22.024757,-15.000033,1.7967619,-5.7950377,15.929617,22.30384,23.397625,-18.492472,-18.877623,-2.9002411,0.66847456,10.497608,0.51053375,-20.932552,31.902771,-22.187359,-9.764327,-8.067584,-7.9433813
206,213.5998992919922,139.74813842773438,71.23836517333984,16.035138966986793,-6.451450734981037,-23.045103724910597,-12.578323,-8.911733,9.272516,40.441547,-20.37412,-4.956106,-17.127823,-23.54188,7.6273556,114.9802,-22.388554,-15.000033,1.314169,-5.7815638,16.636387,19.411013,23.286913,-19.321573,-16.946268,-1.2789824,1.0171952,11.719986,1.7533853,-20.972279,31.852518,-19.825613,-10.012265,-8.812175,-9.275389
207,214.8061065673828,139.60653686523438,70.93161010742188,15.978064390931086,-6.937572056419725,-23.400645370429103,-11.414615,-8.943841,9.478658,41.892803,-22.515982,-4.9734564,-18.99245,-22.467985,8.720241,116.58206,-22.773394,-15.000033,0.7933589,-5.6876445,17.292902,16.564857,23.1842,-20.13708,-15.258331,0.30523732,1.4141132,12.839642,3.056899,-21.070156,31.75268,-17.599497,-10.274903,-9.53018,-10.541458
208,216.02442932128906,139.44537353515625,70.66932678222656,15.920962223162311,-7.3731000572742635,-23.613575631905213,-10.260158,-9.043934,9.572957,43.114704,-24.435848,-4.921198,-20.874994,-21.599957,9.501343,117.836235,-23.17623,-15.000033,0.12921205,-5.6550303,17.844627,13.914321,23.091469,-20.792034,-14.163013,1.4173551,1.7069571,13.47963,4.3961453,-21.240189,31.57664,-15.7147255,-10.667555,-10.169781,-11.437748
209,217.21141052246094,139.2747344970703,70.42959594726562,15.885202799064647,-7.769117912659702,-23.60878538419738,-9.159595,-9.267397,9.517151,44.14151,-26.10281,-4.7503457,-22.805029,-21.051598,9.95216,118.741264,-23.634407,-15.000033,-0.7443271,-5.7227106,18.287018,11.470565,23.020351,-21.255243,-13.751904,1.9333308,1.7823788,13.4395075,5.78306,-21.488962,31.28971,-14.201449,-11.29758,-10.721668,-11.847545
210,218.3946533203125,139.08953857421875,70.22857666015625,15.826203273996377,-8.136448039609398,-23.455862652782447,-8.036641,-9.53634,9.334766,44.940247,-27.578957,-4.540018,-24.78608,-20.694143,10.131014,119.29004,-24.122145,-15.000033,-1.7585945,-5.821914,18.644287,9.145752,22.980145,-21.61978,-13.824688,2.0920873,1.725075,12.956649,7.2456436,-21.81689,30.903944,-12.984861,-12.062304,-11.213603,-11.949291
211,219.572021484375,138.86605834960938,70.04653930664062,15.735915289545968,-8.44361673026405,-23.2584729682596,-6.8632884,-9.78884,9.088593,45.48315,-28.895489,-4.3346963,-26.79295,-20.430387,10.109404,119.47088,-24.575712,-15.000033,-2.8135803,-5.928171,18.898418,6.926404,22.972052,-21.932432,-14.275267,2.0108685,1.6671791,12.31682,8.7827215,-22.225023,30.465528,-12.098462,-12.760279,-11.649172,-11.879213
212,220.7317657470703,138.6061553955078,69.89728546142578,15.607112835044807,-8.661829373178298,-23.122822840587666,-5.6108556,-9.959265,8.843506,45.74002,-30.082857,-4.18059,-28.794542,-20.15629,9.947194,119.2728,-24.928513,-15.000033,-3.8151925,-6.010126,19.032217,4.8087482,22.991692,-22.230963,-15.003666,1.8112487,1.7417092,11.804408,10.381718,-22.714664,30.032291,-11.567732,-13.190664,-12.029084,-11.771724
213,221.90516662597656,138.28831481933594,69.78346252441406,15.431106078182706,-8.791420360456096,-23.05285766539379,-4.273588,-10.025586,8.58415,45.72306,-31.1802,-4.097198,-30.799784,-19.877403,9.6170025,118.69765,-25.169062,-15.000033,-4.75916,-6.06264,19.040674,2.8043153,23.036863,-22.52869,-16.071394,1.3702089,2.0061414,11.498373,12.068143,-23.293621,29.608068,-11.492243,-13.304535,-12.344536,-11.586021
214,223.09715270996094,137.93882751464844,69.72578430175781,15.205888436606008,-8.84857268178711,-22.998888418658748,-2.8688202,-10.003145,8.2873,45.452045,-32.16685,-4.0626426,-32.79113,-19.646101,9.067578,117.741844,-25.343964,-15.000033,-5.686299,-6.0822873,18.934683,0.9028459,23.107708,-22.822588,-17.49396,0.6760531,2.3847535,11.252695,13.852266,-23.962526,29.16159,-11.83649,-13.201121,-12.597173,-11.269416
215,224.2889404296875,137.57423400878906,69.72636413574219,14.93266809522955,-8.819466110464377,-22.990686918023165,-1.403069,-9.889564,8.013038,44.90559,-32.98651,-4.0603795,-34.69863,-19.406506,8.321834,116.381775,-25.460995,-15.000033,-6.5731606,-6.0410438,18.720118,-0.92426306,23.201242,-23.109678,-19.100317,0.02225587,2.8065424,11.009364,15.682824,-24.707535,28.706953,-12.4028845,-12.911144,-12.799297,-10.937087
216,225.49755859375,137.184326171875,69.779296875,14.616880618937673,-8.689789196432748,-23.05988305210987,0.1202709,-9.691315,7.8262405,44.051746,-33.577435,-4.070709,-36.461563,-19.097332,7.4163523,114.59356,-25.520382,-15.000033,-7.3998165,-5.9169664,18.400019,-2.6996465,23.314066,-23.369665,-20.724346,-0.29192063,3.198996,10.699596,17.488352,-25.50504,28.262432,-12.975944,-12.468306,-12.963151,-10.705121
217,226.7194061279297,136.7570343017578,69.89115142822266,14.256465612410475,-8.436421922167726,-23.228308421537633,1.740267,-9.40151,7.7742395,42.77754,-33.96361,-4.0629168,-38.111732,-18.643656,6.390413,112.34751,-25.508945,-15.000033,-8.150031,-5.7031507,17.946465,-4.466452,23.451477,-23.590853,-22.353928,-0.11697036,3.5650735,10.310049,19.24458,-26.342125,27.85646,-13.4968,-11.743312,-13.082164,-10.632641
218,227.95443725585938,136.30389404296875,70.05098724365234,13.847762785649664,-8.06993322971108,-23.480041022109,3.4413419,-9.020221,7.82991,41.132084,-34.16288,-4.054664,-39.643654,-18.082653,5.2093124,109.652885,-25.440428,-15.000033,-8.834781,-5.4091816,17.366796,-6.194446,23.619547,-23.771027,-24.072567,0.3698793,3.9307258,9.866102,20.97054,-27.213278,27.475277,-14.05502,-10.7691,-13.153899,-10.646984
219,229.19642639160156,135.83203125,70.25281524658203,13.395371312371676,-7.623602130099333,-23.79034568081663,5.1389413,-8.570176,7.945537,39.32849,-34.10933,-4.0983477,-40.94435,-17.5126,3.8124514,106.54367,-25.356453,-15.000033,-9.480618,-5.039704,16.71551,-7.79146,23.815468,-23.891708,-25.863573,0.978817,4.258496,9.353487,22.659819,-28.099771,27.076597,-14.647729,-9.829571,-13.19932,-10.669381
220,230.4400634765625,135.33355712890625,70.48946380615234,12.901621901982795,-7.131054760080418,-24.135972039874808,6.745146,-8.065987,8.068558,37.585964,-33.73808,-4.2505403,-41.907482,-17.029829,2.1331813,103.05277,-25.295412,-15.000033,-10.113961,-4.5979404,16.04406,-9.172497,24.031214,-23.934515,-27.700195,1.5202088,4.5138063,8.760977,24.295807,-28.974754,26.621304,-15.255403,-9.210418,-13.237111,-10.620143
221,231.7007293701172,134.8032684326172,70.7596664428711,12.327007035757058,-6.5573546171742265,-24.507934933875692,8.239393,-7.474858,8.179701,35.873745,-33.044224,-4.5482717,-42.55104,-16.696909,0.09384476,99.12371,-25.290728,-15.000033,-10.753842,-4.0382934,15.320257,-10.350379,24.270105,-23.870413,-29.58499,2.017709,4.6809063,8.0244465,25.852562,-29.823193,26.101904,-15.831636,-9.082832,-13.268504,-10.467832
222,232.95262145996094,134.2428436279297,71.05990600585938,11.679241455261012,-5.898096677724797,-24.925409580227694,9.660018,-6.7987356,8.311053,34.109943,-32.05922,-4.9574604,-42.886436,-16.397537,-2.2953548,94.74949,-25.318287,-15.000033,-11.373688,-3.3727083,14.5325775,-11.361849,24.539042,-23.71192,-31.524723,2.5487216,4.7776575,7.1697397,27.327774,-30.641539,25.540476,-16.372114,-9.2665615,-13.286558,-10.257162
223,234.2122039794922,133.66140747070312,71.3922348022461,11.021688186243223,-5.226771865010557,-25.414646769981687,11.002646,-6.1008286,8.486652,32.454063,-30.783276,-5.4272065,-42.861256,-15.962291,-4.851069,90.0173,-25.276669,-15.000033,-11.928294,-2.6817777,13.756654,-12.155464,24.828402,-23.502516,-33.489742,3.0066624,4.827215,6.325002,28.760927,-31.416346,24.944477,-16.941057,-9.535159,-13.295889,-10.021906
224,235.46482849121094,133.0352020263672,71.73954772949219,10.434053069678512,-4.620239854293676,-25.993075380508817,12.271302,-5.463621,8.719823,31.056166,-29.211359,-5.9004035,-42.46612,-15.251171,-7.3123207,85.01119,-25.062265,-15.000033,-12.375651,-2.0643947,13.060183,-12.698491,25.116327,-23.297026,-35.43185,3.2880223,4.857884,5.618053,30.146006,-32.13076,24.325401,-17.557116,-9.643027,-13.299193,-9.794523
225,236.7064666748047,132.3965606689453,72.09425354003906,9.943447197210611,-4.095450387201794,-26.658090552245824,13.519293,-4.9315243,9.001815,29.857193,-27.27331,-6.3769813,-41.69819,-14.23963,-9.566355,79.6109,-24.640003,-15.000033,-12.708556,-1.5589492,12.454843,-12.99934,25.384233,-23.10829,-37.33144,3.3464048,4.8743567,5.0634837,31.483486,-32.770996,23.676168,-18.21615,-9.532456,-13.30104,-9.564605
226,237.9716339111328,131.72604370117188,72.45970153808594,9.525036552304984,-3.618928783972419,-27.39171956485435,14.7387905,-4.49056,9.302379,28.794344,-24.988565,-6.8781214,-40.613163,-12.997589,-11.644173,73.797585,-24.062199,-15.000033,-12.952911,-1.1319625,11.895637,-13.0952635,25.625744,-22.918951,-39.182774,3.2490416,4.8684855,4.5978074,32.81686,-33.32891,22.991222,-18.93189,-9.362636,-13.298158,-9.319039
227,239.2505645751953,131.03396606445312,72.83036804199219,9.190306598212414,-3.1951590118909974,-28.181026521799676,15.856646,-4.1464067,9.595956,27.993883,-22.475916,-7.3836193,-39.30288,-11.564153,-13.45614,67.7938,-23.359797,-15.000033,-13.125411,-0.78516644,11.363692,-12.998146,25.835949,-22.739082,-40.956528,3.0643291,4.8513336,4.2307625,34.198887,-33.796513,22.288334,-19.75308,-9.212416,-13.279508,-9.086306
228,240.553955078125,130.3148651123047,73.20032501220703,8.95139861898692,-2.828759392394566,-29.01046370595476,16.802204,-3.9039562,9.857529,27.577377,-19.846119,-7.8798623,-37.84529,-9.983915,-14.921213,61.809013,-22.556301,-15.000033,-13.220046,-0.5219141,10.847198,-12.748618,26.009098,-22.605263,-42.610596,2.8601558,4.83326,3.9734943,35.29236,-34.188976,21.621777,-20.393373,-8.966357,-13.236473,-8.892686
229,241.88458251953125,129.6118927001953,73.56562805175781,9.061825361188692,-2.6177523612213394,-29.725329722359323,17.820139,-4.1342683,9.921686,27.126818,-16.78078,-8.316326,-36.17185,-8.612208,-15.600399,55.86981,-21.666145,-13.235726,-13.42142,-0.584644,10.344096,-12.297019,26.137014,-22.501047,-44.16909,2.5989723,4.818338,3.8633525,36.337864,-34.504784,20.972984,-21.04919,-8.711554,-13.16267,-8.759891
230,243.23526000976562,128.8938446044922,73.90643310546875,9.33737311632653,-2.4885195561625104,-30.4536909077093,18.792269,-4.5872602,9.921428,26.828987,-13.402089,-8.796246,-34.229317,-7.2746863,-15.820725,49.74066,-20.654013,-10.6380625,-13.592038,-0.7928164,9.858154,-11.658642,26.216297,-22.425865,-45.629223,2.265436,4.8007474,3.8792758,37.341976,-34.742916,20.33024,-21.731539,-8.438746,-13.064223,-8.669251
231,244.60118103027344,128.16012573242188,74.22112274169922,9.692355367968435,-2.3996723584175,-31.162183792912327,19.55297,-5.1194987,9.802792,26.912636,-9.9835825,-9.325629,-32.161667,-6.1070485,-15.875759,43.781803,-19.717089,-8.158971,-13.75003,-1.0747882,9.38301,-10.909204,26.251892,-22.378706,-46.949272,1.9605813,4.7762375,3.9423397,38.318565,-34.89439,19.69756,-22.480742,-8.242874,-12.948416,-8.592285
232,245.96946716308594,127.42259216308594,74.49881744384766,10.045748895658303,-2.314413639499146,-31.810308284668018,19.94586,-5.598884,9.517446,27.608627,-6.7954345,-9.8937645,-30.141735,-5.2225122,-16.029633,38.41664,-19.02348,-6.2424173,-13.902846,-1.36311,8.914813,-10.141346,26.25244,-22.371984,-48.073658,1.782873,4.739199,3.976532,39.12272,-34.955723,19.094727,-23.197569,-8.144574,-12.823393,-8.497024
233,247.3233184814453,126.67005157470703,74.73191833496094,10.41371912171934,-2.2322418566296647,-32.4053131121073,19.956606,-6.100085,8.959646,28.935415,-3.7925413,-10.456495,-28.135548,-4.6200194,-16.366432,33.621128,-18.642052,-4.8138013,-14.042879,-1.6678412,8.434738,-9.330323,26.221897,-22.410542,-49.008724,1.7620559,4.690762,3.9677866,39.75322,-34.924377,18.512154,-23.87665,-8.1915455,-12.682914,-8.358262
234,248.6531219482422,125.91736602783203,74.912109375,10.825499643812861,-2.165367995646276,-32.95998168070362,19.680943,-6.702476,8.186948,30.729122,-0.8375813,-11.102838,-26.093584,-4.211206,-16.7969,29.230927,-18.446934,-3.6426234,-14.18479,-2.0143683,7.9430594,-8.432315,26.160656,-22.477627,-49.781696,1.8425717,4.6331162,3.9551976,40.44793,-34.78438,17.94281,-24.71764,-8.448918,-12.524948,-8.200423
235,249.96917724609375,125.16175842285156,75.04827880859375,11.200679047185417,-2.093382139591185,-33.45040991527131,19.111069,-7.2471633,7.4071255,32.999348,1.90517,-11.975153,-24.21739,-3.9273825,-17.332409,25.556875,-18.331392,-2.9045908,-14.3313055,-2.3401701,7.470279,-7.5353665,26.073381,-22.578848,-50.365845,1.9943144,4.5654273,3.9445899,41.14679,-34.527294,17.428734,-25.685257,-8.834928,-12.366058,-8.059107
236,251.26380920410156,124.4090347290039,75.13909149169922,11.442600557271998,-1.9938893222870684,-33.85971086734868,18.219133,-7.5251718,6.832816,35.81135,4.2390733,-13.155552,-22.726593,-3.6921346,-17.965881,22.963707,-18.22434,-2.79136,-14.377604,-2.5727992,7.0757294,-6.8274603,25.963497,-22.820814,-50.697605,2.1873314,4.4873395,3.949261,40.702183,-34.228928,17.038237,-25.769941,-8.732342,-12.230526,-7.9459677
237,252.5419921875,123.67816925048828,75.17229461669922,11.494980337397209,-1.8336519263115616,-34.146408397163796,16.889849,-7.494428,6.353883,39.34196,6.265467,-14.900681,-21.722609,-3.5274513,-18.820246,21.687603,-18.131813,-3.542148,-14.512039,-2.6385863,6.703502,-6.1434827,25.837374,-23.047792,-50.846245,2.458651,4.3978796,3.9611013,40.59599,-33.81807,16.738184,-26.31019,-8.851642,-12.113335,-7.9237003
238,253.77581787109375,122.98401641845703,75.16464233398438,11.604205071261692,-1.590619934691138,-34.279432223872945,15.1831255,-7.1769133,6.6512933,43.389927,8.154653,-15.000033,-21.374878,-3.8015733,-19.768145,22.028294,-18.360182,-4.928777,-14.704394,-2.7481527,6.26533,-5.515222,25.696323,-23.325867,-50.79196,2.8074598,4.297282,3.9854481,40.396873,-33.293236,16.515816,-26.898022,-9.016885,-12.010828,-7.949293
239,254.93777465820312,122.29183959960938,75.09523010253906,11.602749847165493,-1.3526764715403872,-34.39986978651844,13.277146,-6.347537,7.361503,47.904057,9.489695,-15.000033,-21.33684,-4.102734,-20.656252,23.323803,-18.780262,-6.631681,-14.812283,-2.781356,5.9207516,-4.985926,25.540771,-23.652725,-50.525375,3.1513417,4.184503,4.0196724,39.827175,-32.682472,16.359854,-27.27279,-9.097366,-11.913474,-7.989679
