unveil-humanoid-operators/unveil-humanoid-operators.github.io/feature-analysis-animation/data/feature_matrix_instances/age_ankle_rom_walking_A044_walk_hands_on_back_stop_002__A044.csv
Frame,root_translateX,root_translateY,root_translateZ,root_rotateX,root_rotateY,root_rotateZ,left_hip_pitch_joint_dof,left_hip_roll_joint_dof,left_hip_yaw_joint_dof,left_knee_joint_dof,left_ankle_pitch_joint_dof,left_ankle_roll_joint_dof,right_hip_pitch_joint_dof,right_hip_roll_joint_dof,right_hip_yaw_joint_dof,right_knee_joint_dof,right_ankle_pitch_joint_dof,right_ankle_roll_joint_dof,waist_yaw_joint_dof,waist_roll_joint_dof,waist_pitch_joint_dof,left_shoulder_pitch_joint_dof,left_shoulder_roll_joint_dof,left_shoulder_yaw_joint_dof,left_elbow_joint_dof,left_wrist_roll_joint_dof,left_wrist_pitch_joint_dof,left_wrist_yaw_joint_dof,right_shoulder_pitch_joint_dof,right_shoulder_roll_joint_dof,right_shoulder_yaw_joint_dof,right_elbow_joint_dof,right_wrist_roll_joint_dof,right_wrist_pitch_joint_dof,right_wrist_yaw_joint_dof
0,-0.06818248331546783,2.409865617752075,77.884521484375,0.28687945206314736,-4.079309234530594,-89.06833231837638,5.1147842,3.9907281,8.800059,7.4860835,-10.161445,-5.1351914,6.392671,-7.825998,-17.334953,10.855533,-12.167196,7.8474197,-3.9227908,0.20549782,6.274346,15.671653,13.226999,-93.72176,38.9483,23.619516,-12.865487,-4.3495317,22.236174,-8.891992,79.0549,36.908295,-31.335804,-8.648741,8.040629
1,-0.0879204049706459,2.233372926712036,77.88079071044922,0.27689616906157527,-4.004909835013044,-89.10316564426435,5.025467,4.0066667,8.8343725,7.4750166,-10.147526,-5.1289434,6.2421055,-7.8218536,-17.294317,10.932335,-12.173671,7.818787,-3.8957565,0.23937325,6.230843,15.640999,13.260998,-93.70245,38.887627,23.64755,-12.866161,-4.359915,22.204678,-8.92058,79.04084,36.889435,-31.20054,-8.721158,8.134794
2,-0.07027465850114822,2.408949375152588,77.88866424560547,0.2655397410897964,-3.916132271770137,-89.14547200944023,4.920677,4.0244646,8.876054,7.459542,-10.129097,-5.121016,6.0638623,-7.817106,-17.24491,11.021548,-12.179941,7.786019,-3.863925,0.27851307,6.1791725,15.6025915,13.283416,-93.68011,38.834217,23.675365,-12.868026,-4.372407,22.167162,-8.942666,79.025185,36.879005,-31.05638,-8.793484,8.234701
3,-0.049520429223775864,2.584127426147461,77.89730072021484,0.2562736282230003,-3.8573892560105514,-89.17247816131321,4.849801,4.0387883,8.902686,7.449402,-10.117873,-5.116559,5.94598,-7.811297,-17.214094,11.07804,-12.182846,7.761398,-3.842749,0.3063737,6.141018,15.582138,13.292634,-93.66927,38.808857,23.698114,-12.869665,-4.3757005,22.144651,-8.953161,79.0163,36.880013,-30.93326,-8.864869,8.317495
4,-0.06006664037704468,2.464482069015503,77.89419555664062,0.2543962934451125,-3.8693477693459255,-89.1628507603377,4.8591356,4.040953,8.893832,7.4527006,-10.124112,-5.1200604,5.960477,-7.8106537,-17.22575,11.080833,-12.190898,7.7576113,-3.8519545,0.30749905,6.150143,15.586281,13.309775,-93.661934,38.789925,23.721354,-12.8681135,-4.3741665,22.14969,-8.972502,79.00517,36.859486,-30.87162,-8.93833,8.380365
5,-0.06740496307611465,2.479809522628784,77.88765716552734,0.26299593020371187,-4.017224076999862,-89.08344113981316,5.0231733,4.025351,8.816896,7.478687,-10.163316,-5.140123,6.2400312,-7.810718,-17.322153,10.953624,-12.194765,7.7904406,-3.9134343,0.2587119,6.2326508,15.65009,13.332449,-93.69003,38.8125,23.722721,-12.861335,-4.3466325,22.227661,-8.992854,79.00543,36.821903,-30.885738,-9.026988,8.39846
6,-0.06920413672924042,2.5384440422058105,77.8802261352539,0.2785859258442565,-4.2600691800923265,-88.95508427334195,5.2949457,3.9963777,8.692278,7.5219154,-10.226356,-5.1715884,6.7042975,-7.811755,-17.477812,10.7373295,-12.196918,7.849143,-4.009416,0.17443193,6.3687177,15.754948,13.3592,-93.74039,38.862484,23.71373,-12.850874,-4.3024545,22.34844,-9.009232,79.01137,36.77655,-30.949522,-9.1272335,8.387213
7,-0.0732656940817833,2.562976598739624,77.87188720703125,0.2945253468049463,-4.4881579286968565,-88.83468559063932,5.551156,3.9684796,8.575215,7.5599756,-10.282661,-5.2002573,7.141093,-7.812026,-17.622002,10.532453,-12.196424,7.9058805,-4.097108,0.09421375,6.4957004,15.850379,13.38941,-93.791954,38.903496,23.709763,-12.839958,-4.25916,22.465229,-9.022073,79.01543,36.735382,-31.053238,-9.20485,8.361218
8,-0.09987462311983109,2.3352291584014893,77.85999298095703,0.3022421335332644,-4.5910223411560045,-88.77917413291766,5.6650324,3.9553273,8.521165,7.57833,-10.306645,-5.2115674,7.336569,-7.8122597,-17.684069,10.44265,-12.194403,7.932677,-4.1365213,0.0579387,6.5519543,15.893201,13.407355,-93.815186,38.917274,23.736277,-12.834422,-4.234485,22.517122,-9.028375,79.01855,36.717068,-31.17244,-9.227286,8.335756
9,-0.10407797247171402,2.2534737586975098,77.86264038085938,0.2953565064170853,-4.496552309785942,-88.82421353564781,5.552365,3.9655726,8.565152,7.568817,-10.279983,-5.194521,7.149272,-7.8143334,-17.615652,10.540453,-12.192308,7.912993,-4.0930915,0.09223362,6.4936075,15.846733,13.422646,-93.81006,38.871937,23.811512,-12.834861,-4.232455,22.47054,-9.034663,79.01824,36.72413,-31.321186,-9.15764,8.307285
10,-0.09455186128616333,2.241523265838623,77.87002563476562,0.2813603571188666,-4.27773198273001,-88.93292411322332,5.298729,3.9900405,8.67103,7.538662,-10.219149,-5.159264,6.7223926,-7.8168173,-17.464182,10.754122,-12.188663,7.864767,-4.000527,0.17047948,6.363568,15.744325,13.433356,-93.781494,38.789135,23.921211,-12.837314,-4.246392,22.364508,-9.041155,79.01697,36.74559,-31.508757,-9.021792,8.271638
11,-0.06338759511709213,2.468961715698242,77.8879623413086,0.2658145440575567,-4.042085945834792,-89.05227856953461,5.0270205,4.016449,8.787093,7.502709,-10.152931,-5.123043,6.2637463,-7.817964,-17.302496,10.978624,-12.182857,7.811845,-3.9050508,0.25352407,6.2263055,15.636645,13.441902,-93.739525,38.702904,24.02841,-12.842948,-4.267972,22.248217,-9.049908,79.0169,36.768238,-31.690977,-8.882654,8.238876
12,-0.0589216873049736,2.478579521179199,77.89417266845703,0.2549673884486938,-3.89667445244327,-89.1290812588251,4.859315,4.033238,8.861494,7.4777412,-10.11173,-5.103203,5.9787483,-7.817618,-17.203129,11.114271,-12.177368,7.777891,-3.8455021,0.30751964,6.141557,15.571022,13.444779,-93.71685,38.650673,24.08539,-12.846297,-4.28467,22.172768,-9.054821,79.0182,36.78429,-31.817993,-8.798999,8.216685
13,-0.07375579327344894,2.2480015754699707,77.88516998291016,0.25265851913094767,-3.865889886888009,-89.1545748079141,4.824348,4.037761,8.886084,7.464383,-10.101763,-5.107557,5.909408,-7.81785,-17.182877,11.144337,-12.177353,7.768055,-3.833559,0.32530844,6.132618,15.554344,13.446275,-93.70739,38.63923,24.069263,-12.849801,-4.301646,22.138742,-9.058,79.01942,36.79225,-31.870962,-8.79991,8.208873
14,-0.08017411828041077,2.1798019409179688,77.8805160522461,0.2536791046798812,-3.892533659953929,-89.15610164138525,4.8571672,4.0352173,8.887572,7.45384,-10.106622,-5.125636,5.945685,-7.82023,-17.202553,11.124845,-12.18266,7.7702074,-3.846074,0.32552135,6.1661034,15.5600815,13.447782,-93.7025,38.646664,24.006174,-12.8531685,-4.320873,22.12282,-9.061408,79.01979,36.79668,-31.879667,-8.847986,8.207759
15,-0.07988603413105011,2.2319419384002686,77.87925720214844,0.25604155869318573,-3.96534173539463,-89.13292138652565,4.9427066,4.0279136,8.864715,7.450591,-10.12363,-5.147711,6.074749,-7.820474,-17.253283,11.055666,-12.184763,7.7815394,-3.879405,0.31007668,6.2243996,15.5863285,13.4505415,-93.70343,38.665615,23.936289,-12.856004,-4.335845,22.135195,-9.067034,79.01993,36.79082,-31.868725,-8.911595,8.214137
16,-0.05936330929398537,2.4760797023773193,77.88301849365234,0.2626307951739379,-4.06649114241251,-89.08673639493092,5.05632,4.0160027,8.818471,7.4640465,-10.15138,-5.163517,6.2638288,-7.821197,-17.322271,10.962631,-12.187155,7.7996554,-3.923639,0.2808699,6.285396,15.628961,13.456314,-93.71695,38.688915,23.898314,-12.857977,-4.3383427,22.178034,-9.075913,79.02161,36.770733,-31.854515,-8.956276,8.225959
17,-0.05735110491514206,2.515623092651367,77.88232421875,0.27496990322134846,-4.252931871364355,-88.98119883871476,5.2606854,3.9923751,8.71246,7.5095253,-10.206611,-5.172818,6.6276174,-7.8216147,-17.44722,10.7922535,-12.188664,7.835499,-4.010266,0.21383719,6.382922,15.709081,13.461384,-93.73638,38.733982,23.916082,-12.862546,-4.3256392,22.277645,-9.07988,79.02645,36.7367,-31.844872,-8.976651,8.246572
18,-0.06913488358259201,2.282383680343628,77.864990234375,0.28981799435425487,-4.513381698241211,-88.82727064062189,5.5444922,3.9608588,8.557666,7.580112,-10.285566,-5.1805086,7.1459846,-7.817408,-17.622477,10.543221,-12.184526,7.8863535,-4.124162,0.11730401,6.4991293,15.829804,13.479358,-93.78678,38.786285,23.953936,-12.863301,-4.294569,22.44481,-9.08572,79.03582,36.67944,-31.82802,-8.98428,8.271056
19,-0.09272179752588272,2.267521381378174,77.85552215576172,0.30406928237193664,-4.729710041685351,-88.6988112219912,5.780792,3.9330113,8.428265,7.638857,-10.349702,-5.1832757,7.5774627,-7.814549,-17.766466,10.336395,-12.18021,7.93008,-4.217639,0.034890726,6.5970836,15.927025,13.503437,-93.82495,38.819782,24.001862,-12.863391,-4.2654705,22.584568,-9.088309,79.03827,36.632473,-31.804798,-8.990146,8.300545
20,-0.09947390109300613,2.309656858444214,77.85504150390625,0.30968197730099384,-4.783721622701515,-88.66870772798978,5.839124,3.9227853,8.397451,7.6558747,-10.364175,-5.1781726,7.6846547,-7.816236,-17.799372,10.284112,-12.177104,7.9437656,-4.238675,0.013528405,6.6189446,15.950135,13.519223,-93.83536,38.81851,24.03627,-12.860297,-4.248424,22.623163,-9.08925,79.036865,36.61529,-31.765429,-8.997442,8.330258
21,-0.08995415270328522,2.313788890838623,77.86196899414062,0.3023638237562256,-4.548583413481476,-88.81242843593718,5.5805163,3.9425054,8.540984,7.599594,-10.290526,-5.1570926,7.2138867,-7.8283415,-17.63478,10.509718,-12.178131,7.9057684,-4.124577,0.10176255,6.5006914,15.841757,13.531385,-93.80916,38.739002,24.054075,-12.846427,-4.247237,22.492422,-9.093166,79.02248,36.64463,-31.702028,-9.004842,8.363059
22,-0.07678594440221786,2.2691407203674316,77.87226104736328,0.28435817768588656,-4.1202164054094155,-89.0720004285295,5.1110864,3.982451,8.800383,7.4923797,-10.156215,-5.1242285,6.362154,-7.843055,-17.338326,10.910004,-12.175339,7.8336496,-3.9231477,0.2605745,6.290747,15.642242,13.533682,-93.7517,38.61293,24.066736,-12.826842,-4.2570734,22.241676,-9.100513,79.00259,36.701992,-31.616001,-9.011775,8.401777
23,-0.04179542139172554,2.4472129344940186,77.89540100097656,0.26579813883267767,-3.7122614513966936,-89.32109562400608,4.664767,4.022826,9.0490465,7.3877387,-10.02717,-5.094747,5.553202,-7.8514524,-17.054758,11.283341,-12.167795,7.7632427,-3.7403736,0.40998366,6.094208,15.455503,13.525373,-93.673874,38.503323,24.077248,-12.812351,-4.2738004,21.998602,-9.118713,78.98794,36.749523,-31.533575,-9.019594,8.437519
24,-0.01531998161226511,2.6035492420196533,77.90752410888672,0.2546681019836916,-3.5355971427057415,-89.43412226360452,4.473398,4.041415,9.161758,7.3389506,-9.969405,-5.0834956,5.2001915,-7.853183,-16.926851,11.444436,-12.161949,7.7299976,-3.6621811,0.47840068,6.0106387,15.375472,13.513345,-93.635506,38.46282,24.067553,-12.805923,-4.2823544,21.890987,-9.136592,78.986946,36.760807,-31.465242,-9.02579,8.4545555
25,-0.031040804460644722,2.482233762741089,77.8998031616211,0.26122594678450184,-3.7164524547681395,-89.33718316784079,4.672975,4.0254955,9.06544,7.3841214,-10.024903,-5.1003485,5.546562,-7.8505864,-17.039104,11.290323,-12.166351,7.7517443,-3.7473557,0.42293385,6.1051464,15.458683,13.508248,-93.64812,38.516396,24.023521,-12.81555,-4.2868295,21.991064,-9.147087,79.000534,36.724277,-31.405945,-9.038936,8.450689
26,-0.04638969898223877,2.4667747020721436,77.88550567626953,0.2773657301533505,-4.11932510611833,-89.11044471353941,5.1157484,3.98943,8.83963,7.4857564,-10.149708,-5.1356063,6.329634,-7.841678,-17.300657,10.933556,-12.172922,7.806786,-3.9325812,0.28789544,6.309076,15.646516,13.511166,-93.69103,38.62763,23.955498,-12.834993,-4.288988,22.22511,-9.1517,79.02236,36.65384,-31.355238,-9.054168,8.431511
27,-0.07533916085958481,2.321821451187134,77.86711120605469,0.2939355313860789,-4.561044211557166,-88.86025066518879,5.6029906,3.951135,8.589481,7.5924454,-10.285333,-5.1742806,7.19488,-7.8259234,-17.588608,10.529538,-12.173625,7.870793,-4.129515,0.138263,6.529691,15.84896,13.524863,-93.75201,38.73824,23.889761,-12.8521595,-4.2837367,22.479773,-9.151419,79.04569,36.58326,-31.325354,-9.061406,8.401078
28,-0.08660226315259933,2.3111534118652344,77.85553741455078,0.3019901684993434,-4.856477831745561,-88.69337206661497,5.9309998,3.9268904,8.421316,7.658572,-10.376364,-5.2009277,7.7772613,-7.810462,-17.778875,10.250723,-12.168399,7.9191284,-4.2634053,0.038057692,6.6810875,15.982194,13.536628,-93.785355,38.809624,23.86978,-12.861044,-4.276385,22.6478,-9.148658,79.05653,36.538837,-31.349888,-9.052654,8.371886
29,-0.08520102500915527,2.325212240219116,77.8519058227539,0.3014878615791242,-4.939669862548758,-88.64632492292247,6.0240927,3.92231,8.370694,7.6753736,-10.409206,-5.210073,7.945431,-7.801066,-17.826385,10.166009,-12.162116,7.9473934,-4.3026886,0.012307031,6.723817,16.02016,13.544861,-93.79956,38.824097,23.918346,-12.852152,-4.2535787,22.700686,-9.146324,79.058975,36.527805,-31.45872,-9.00961,8.335947
30,-0.06026073172688484,2.5447535514831543,77.86000061035156,0.2952824957063575,-4.915162565366143,-88.65909365362528,5.998847,3.9289875,8.378222,7.664611,-10.411988,-5.2105227,7.9069295,-7.7926826,-17.801811,10.172975,-12.151381,7.967767,-4.290599,0.025800154,6.70825,16.010916,13.565811,-93.810165,38.7971,24.010548,-12.832145,-4.2206817,22.70334,-9.140048,79.05045,36.5355,-31.636219,-8.942848,8.293388
31,-0.07300466299057007,2.382211208343506,77.8564224243164,0.28715413001425705,-4.848953293263094,-88.69573993371485,5.926026,3.9391274,8.409913,7.646995,-10.403298,-5.2072663,7.784488,-7.787351,-17.750862,10.222474,-12.143313,7.9808416,-4.2642026,0.053090394,6.675931,15.981957,13.577837,-93.8072,38.766388,24.104786,-12.812112,-4.192053,22.673426,-9.13634,79.04218,36.55011,-31.807844,-8.8789215,8.252311
32,-0.08095905929803848,2.319105386734009,77.85684204101562,0.28151557760425744,-4.8080932809947265,-88.7195338473038,5.8812056,3.9458458,8.43092,7.6349735,-10.396976,-5.20559,7.7096405,-7.783317,-17.72132,10.249065,-12.1366415,7.9869246,-4.2501383,0.06774064,6.6563034,15.965837,13.583962,-93.805145,38.750454,24.148533,-12.800528,-4.175034,22.65839,-9.134421,79.0364,36.556507,-31.915075,-8.840581,8.216796
33,-0.0797744169831276,2.321390151977539,77.85594177246094,0.28136734260203483,-4.8095947055556545,-88.7222039368043,5.882725,3.947344,8.433987,7.6341934,-10.397115,-5.207517,7.709754,-7.7826457,-17.725725,10.247201,-12.136894,7.982884,-4.2500405,0.065199725,6.661733,15.966621,13.594521,-93.80765,38.74292,24.121904,-12.799793,-4.175946,22.657537,-9.131043,79.02834,36.555267,-31.921745,-8.843937,8.188536
34,-0.07789308577775955,2.339057207107544,77.85576629638672,0.28154657694155244,-4.818388555419849,-88.72246098934521,5.891338,3.947847,8.436556,7.6363797,-10.395425,-5.2101784,7.721507,-7.783569,-17.739779,10.2399025,-12.138736,7.9694505,-4.2526593,0.057584073,6.671325,15.971531,13.601405,-93.81196,38.741867,24.05043,-12.8046465,-4.1858797,22.658363,-9.128989,79.021904,36.551434,-31.869282,-8.871224,8.162456
35,-0.07891842722892761,2.338809013366699,77.85574340820312,0.28191957440271825,-4.821393576469701,-88.72557654318061,5.894067,3.94759,8.442771,7.6370115,-10.39073,-5.2109556,7.722251,-7.7863317,-17.751087,10.237297,-12.140987,7.953461,-4.252819,0.05105067,6.676896,15.973536,13.6054945,-93.81535,38.741936,23.965445,-12.811731,-4.2019777,22.651701,-9.127884,79.01795,36.547943,-31.79204,-8.903265,8.141514
36,-0.07779193669557571,2.3244283199310303,77.85713195800781,0.2825971260923431,-4.805984247809818,-88.73666892447079,5.8759937,3.947991,8.455829,7.635574,-10.383322,-5.207513,7.692405,-7.7887144,-17.748459,10.245471,-12.141325,7.94133,-4.246693,0.05065471,6.6693773,15.969311,13.61055,-93.81799,38.73562,23.894886,-12.817263,-4.2190666,22.64235,-9.126654,79.01363,36.54801,-31.738625,-8.919851,8.126865
37,-0.05423644185066223,2.538670301437378,77.86693572998047,0.2847676748647253,-4.769430239397902,-88.7559258986332,5.8348613,3.9474757,8.475466,7.6306868,-10.373381,-5.1967926,7.62786,-7.792577,-17.729315,10.266689,-12.141109,7.9373426,-4.231604,0.058882624,6.6460223,15.95368,13.6205435,-93.82061,38.713127,23.829563,-12.820913,-4.245969,22.625132,-9.124503,79.00793,36.554752,-31.711979,-8.917908,8.124153
38,-0.034176602959632874,2.70682954788208,77.87409210205078,0.2857052156577101,-4.7198489969359425,-88.7802177001286,5.779318,3.9470627,8.499318,7.624297,-10.361607,-5.1811147,7.545194,-7.795828,-17.701065,10.287905,-12.136386,7.9371524,-4.2148495,0.071370855,6.610088,15.937335,13.623396,-93.81911,38.69212,23.7642,-12.825246,-4.2795396,22.603102,-9.124041,79.00802,36.564087,-31.690092,-8.906099,8.130636
39,-0.02470341883599758,2.729670524597168,77.87760162353516,0.2869791907715803,-4.653688377676371,-88.81340048639396,5.7047157,3.947357,8.53226,7.615472,-10.344991,-5.1650906,7.4263268,-7.80157,-17.660103,10.334469,-12.136104,7.934667,-4.1922092,0.08878094,6.5677786,15.910951,13.627212,-93.81309,38.664753,23.72073,-12.827534,-4.3091965,22.570387,-9.123658,79.0086,36.576397,-31.672634,-8.887275,8.136656
40,-0.06185126677155495,2.370976448059082,77.86339569091797,0.2854790322988951,-4.573484360510523,-88.85701090896417,5.6158605,3.9518917,8.5769415,7.599554,-10.320217,-5.1540284,7.2755947,-7.805497,-17.60745,10.398252,-12.132345,7.9236884,-4.1615973,0.111532584,6.521541,15.875727,13.629528,-93.8032,38.636356,23.727114,-12.826044,-4.3202653,22.529474,-9.12374,79.00766,36.58929,-31.658115,-8.864146,8.134753
41,-0.06831713765859604,2.2740068435668945,77.86214447021484,0.2813663754158899,-4.459818440182186,-88.92208318685559,5.491964,3.9626765,8.645561,7.5692005,-10.278812,-5.1500063,7.0506773,-7.8088517,-17.530855,10.505403,-12.1274,7.8969398,-4.113904,0.1461312,6.465543,15.820486,13.631421,-93.78319,38.60166,23.81993,-12.818078,-4.304113,22.464148,-9.1245365,79.00369,36.604794,-31.648268,-8.8319435,8.12041
42,-0.06546910852193832,2.2608935832977295,77.8652114868164,0.27429993014874837,-4.319185693311362,-89.003737063521,5.3379626,3.9777355,8.732374,7.5313215,-10.22646,-5.1500287,6.769156,-7.811401,-17.435057,10.64168,-12.119456,7.859664,-4.053569,0.19036983,6.3995905,15.748339,13.631207,-93.75696,38.56113,23.973616,-12.805071,-4.269604,22.380835,-9.1262045,78.99798,36.623524,-31.643524,-8.79129,8.098889
43,-0.060570087283849716,2.262211322784424,77.87373352050781,0.265926390642068,-4.1884425837627,-89.08193479336762,5.1955886,3.9931307,8.81516,7.4944077,-10.175976,-5.1515164,6.504615,-7.812492,-17.342209,10.772451,-12.11151,7.824158,-3.9957604,0.23182386,6.3394485,15.680959,13.629163,-93.73188,38.52613,24.127338,-12.792194,-4.2313538,22.30361,-9.128432,78.991264,36.640404,-31.636755,-8.752773,8.076636
44,-0.03539315238595009,2.476026773452759,77.89209747314453,0.2581099140274102,-4.106396001212692,-89.1357523082425,5.105932,4.0060887,8.870667,7.4741764,-10.145013,-5.1519985,6.3375425,-7.809356,-17.276194,10.853179,-12.102055,7.8028536,-3.955259,0.258955,6.2973504,15.6442995,13.62811,-93.721725,38.506104,24.217484,-12.783842,-4.203526,22.260406,-9.1293,78.98779,36.649426,-31.616817,-8.72713,8.059886
45,-0.030713457614183426,2.499178647994995,77.89442443847656,0.2557745727103675,-4.090024959229828,-89.15922588554427,5.0903254,4.0112634,8.892008,7.471195,-10.136118,-5.152132,6.2872634,-7.8098145,-17.238806,10.898821,-12.106685,7.803103,-3.9419286,0.26472238,6.301855,15.631821,13.62648,-93.71107,38.504444,24.22,-12.786144,-4.195594,22.236544,-9.130573,78.98182,36.650658,-31.571787,-8.72508,8.052562
46,-0.05168215557932854,2.3034610748291016,77.88392639160156,0.2544611792072815,-4.120523126181719,-89.1615247328028,5.125995,4.0147004,8.889296,7.4827256,-10.143557,-5.1533747,6.3270135,-7.806508,-17.222721,10.902064,-12.110577,7.816632,-3.9456503,0.25776318,6.3278785,15.645716,13.625108,-93.7085,38.516487,24.167269,-12.793568,-4.1971006,22.23979,-9.131693,78.97728,36.645504,-31.510626,-8.737185,8.049905
47,-0.05580446496605873,2.24015474319458,77.88146209716797,0.2537503870655439,-4.164211762009725,-89.1545426072056,5.1761355,4.0163803,8.876881,7.4977074,-10.157686,-5.151766,6.3963823,-7.802927,-17.21943,10.887469,-12.114343,7.8337493,-3.953808,0.24579741,6.3566904,15.6681385,13.622945,-93.71275,38.53441,24.100056,-12.801606,-4.1998405,22.258492,-9.133566,78.970695,36.63495,-31.455038,-8.751049,8.051193
48,-0.033153925091028214,2.466461181640625,77.8879165649414,0.25306372891943596,-4.184787303031295,-89.1496907372668,5.198951,4.0164275,8.8686695,7.5097475,-10.17118,-5.143271,6.432693,-7.8017592,-17.220943,10.87724,-12.117423,7.8444614,-3.957584,0.2370076,6.366841,15.682382,13.62168,-93.71688,38.54477,24.061403,-12.804554,-4.195496,22.27447,-9.134688,78.96636,36.62856,-31.421074,-8.752846,8.050925
49,-0.010129433125257492,2.641744375228882,77.8895263671875,0.2555578785864811,-4.170070077231175,-89.14716248634689,5.178529,4.0141892,8.865619,7.5185266,-10.185657,-5.120936,6.4199004,-7.804615,-17.2322,10.87229,-12.119802,7.8455434,-3.956424,0.23320109,6.3473477,15.683894,13.619682,-93.7189,38.544853,24.070206,-12.800293,-4.179122,22.28755,-9.136158,78.96452,36.62563,-31.417318,-8.736824,8.052715
50,-0.02333654649555683,2.5139284133911133,77.88583374023438,0.25915526959083246,-4.139535796510714,-89.1419597960905,5.1392803,4.0094075,8.861471,7.5253925,-10.203366,-5.088759,6.390343,-7.8099394,-17.254835,10.86172,-12.120844,7.842397,-3.955912,0.22889087,6.313506,15.678958,13.6185465,-93.71762,38.539825,24.102692,-12.792551,-4.157084,22.29579,-9.136742,78.967995,36.626743,-31.42618,-8.710821,8.057099
51,-0.03266437351703644,2.4622347354888916,77.88361358642578,0.26137500966718874,-4.107719210322778,-89.13731701665614,5.0990796,4.0045476,8.858461,7.530514,-10.218421,-5.0595965,6.3572245,-7.815451,-17.27648,10.854325,-12.123189,7.8384757,-3.9576914,0.22432695,6.278603,15.675156,13.616678,-93.71264,38.53403,24.13595,-12.78439,-4.1382008,22.305256,-9.13734,78.9746,36.628704,-31.44565,-8.683566,8.05882
52,-0.03525523096323013,2.458500862121582,77.88612365722656,0.2645910988923835,-4.089846870376461,-89.13650174146818,5.077944,4.001866,8.8587265,7.5316067,-10.224261,-5.046193,6.336568,-7.818621,-17.285357,10.852853,-12.125479,7.837281,-3.9575002,0.2207432,6.260676,15.671156,13.616094,-93.71053,38.53003,24.143671,-12.77963,-4.131552,22.30948,-9.137434,78.97721,36.630154,-31.463804,-8.665576,8.055268
53,-0.0548214353621006,2.2645018100738525,77.87909698486328,0.264149272547363,-4.092089424156473,-89.141975915147,5.0848856,4.003032,8.863903,7.526762,-10.215197,-5.0584626,6.3325,-7.81792,-17.273697,10.863445,-12.129702,7.841098,-3.9565718,0.21845537,6.2653513,15.671479,13.614928,-93.70773,38.529594,24.118492,-12.777785,-4.1433907,22.30714,-9.137614,78.97953,36.632343,-31.491634,-8.654887,8.0348
54,-0.04116016998887062,2.4070522785186768,77.88355255126953,0.262910893263803,-4.10701995827276,-89.15150218619826,5.1117463,4.005701,8.872755,7.512299,-10.193288,-5.0873895,6.3390713,-7.8151755,-17.249552,10.880354,-12.134794,7.8477554,-3.9540555,0.2169575,6.286059,15.671289,13.613642,-93.70616,38.531475,24.072054,-12.777717,-4.1675467,22.299707,-9.137875,78.97893,36.63539,-31.531246,-8.648581,8.003301
55,-0.03723593056201935,2.4674549102783203,77.88682556152344,0.26169683287477913,-4.12316027978594,-89.1610556333435,5.1367755,4.009918,8.88185,7.505633,-10.175068,-5.117569,6.3455033,-7.8118467,-17.223927,10.900898,-12.1402855,7.8533416,-3.9510627,0.21623768,6.307538,15.672017,13.612755,-93.7063,38.533623,24.018932,-12.780708,-4.1938677,22.290398,-9.138108,78.97768,36.63723,-31.552177,-8.650618,7.981646
56,-0.036834653466939926,2.461583375930786,77.8895034790039,0.2620307903656456,-4.131544100713952,-89.1682567077931,5.153237,4.0113573,8.890875,7.496383,-10.162089,-5.133431,6.342291,-7.8125696,-17.205265,10.924947,-12.14753,7.8544583,-3.9463055,0.21369715,6.321464,15.668684,13.6111965,-93.70697,38.535187,23.969145,-12.787908,-4.217196,22.282013,-9.138524,78.97563,36.637363,-31.52979,-8.666044,7.9862795
57,-0.0300363227725029,2.455118179321289,77.89071655273438,0.2630327705983954,-4.107109225048141,-89.1812581709848,5.1274486,4.012229,8.90962,7.491135,-10.156279,-5.126013,6.284482,-7.8187547,-17.185202,10.9737,-12.157331,7.8450823,-3.934195,0.21373615,6.310532,15.653065,13.608662,-93.705124,38.534897,23.915548,-12.80479,-4.235085,22.270164,-9.139176,78.97147,36.633274,-31.430063,-8.701391,8.039999
58,-0.02942936308681965,2.461653709411621,77.89058685302734,0.26553372689146487,-4.062417902272377,-89.19837837384534,5.074631,4.014005,8.935005,7.490095,-10.154922,-5.105397,6.1920867,-7.827463,-17.162542,11.0389185,-12.1683855,7.828727,-3.9173033,0.21596566,6.2834716,15.632367,13.606418,-93.700905,38.531708,23.857561,-12.828612,-4.2519274,22.251001,-9.139778,78.96959,36.628765,-31.26965,-8.752092,8.126549
59,-0.034433361142873764,2.4790561199188232,77.889404296875,0.2672105433009648,-4.042895054950863,-89.20112769425975,5.049057,4.013236,8.94489,7.496764,-10.165465,-5.084099,6.151614,-7.8353477,-17.159649,11.07573,-12.178127,7.815926,-3.913183,0.2106705,6.268858,15.625137,13.60369,-93.69794,38.533863,23.814892,-12.850649,-4.26425,22.246857,-9.140592,78.96896,36.62247,-31.120909,-8.8049345,8.21183
60,-0.038506150245666504,2.460874557495117,77.88680267333984,0.2698024870894708,-4.092439891837902,-89.17105029697855,5.1027694,4.0068846,8.91699,7.5139437,-10.19381,-5.074903,6.244056,-7.840153,-17.198174,11.048469,-12.189084,7.817217,-3.937009,0.18764473,6.293082,15.648439,13.602074,-93.70282,38.547997,23.808216,-12.862597,-4.2675767,22.27368,-9.141191,78.97078,36.613655,-31.047039,-8.847482,8.262634
61,-0.06032894179224968,2.2975831031799316,77.8695068359375,0.27660127030647164,-4.266175146043683,-89.08245576532002,5.2972345,3.9912882,8.821706,7.555296,-10.259161,-5.0835013,6.5807214,-7.8368783,-17.311369,10.894343,-12.195131,7.8427124,-4.0076184,0.13442667,6.38064,15.72979,13.601644,-93.73248,38.583633,23.858242,-12.8574505,-4.2539186,22.367157,-9.142134,78.97551,36.599033,-31.083527,-8.876435,8.257747
62,-0.0629354789853096,2.228874921798706,77.85677337646484,0.2831142747787477,-4.526056514814276,-88.95221085602059,5.589078,3.9688764,8.678894,7.613884,-10.351641,-5.102435,7.087093,-7.8279095,-17.478067,10.653001,-12.198779,7.8844867,-4.109804,0.059405535,6.514641,15.848725,13.60431,-93.777245,38.631332,23.94868,-12.841875,-4.2293177,22.502174,-9.142649,78.979385,36.581085,-31.18837,-8.899619,8.220337
63,-0.06889346987009048,2.2477777004241943,77.85195922851562,0.28928474073123117,-4.778802731026923,-88.82483645789311,5.874588,3.9480996,8.539069,7.6660256,-10.437427,-5.1248345,7.582354,-7.8160505,-17.641855,10.4108305,-12.19895,7.9254804,-4.2027407,-0.012706212,6.6438975,15.961982,13.611654,-93.833786,38.674686,24.033861,-12.821323,-4.1990123,22.638088,-9.142861,78.97852,36.56161,-31.320787,-8.914856,8.174824
64,-0.07105114310979843,2.2723050117492676,77.8494873046875,0.29180095321721894,-4.930624982323624,-88.74513122598486,6.0454726,3.937347,8.452928,7.6968493,-10.486888,-5.143585,7.8810596,-7.806694,-17.745388,10.264028,-12.200327,7.948628,-4.2586412,-0.059226453,6.7236676,16.029493,13.620019,-93.868866,38.70091,24.079372,-12.806018,-4.1764884,22.71925,-9.142581,78.975784,36.549545,-31.43641,-8.922987,8.149724
65,-0.0721704289317131,2.2762153148651123,77.85277557373047,0.29203653843562954,-4.946441845274106,-88.72849996812909,6.06437,3.9391448,8.43992,7.6936793,-10.484074,-5.1600385,7.911839,-7.8031545,-17.769037,10.252469,-12.207112,7.9476385,-4.267073,-0.07160634,6.736346,16.037474,13.623011,-93.87334,38.7136,24.061617,-12.798262,-4.1647353,22.721495,-9.142258,78.97649,36.546417,-31.527838,-8.922093,8.155403
66,-0.06793121993541718,2.4911868572235107,77.8648452758789,0.2897537963424889,-4.883164577226293,-88.74807803198496,5.9936295,3.9504502,8.46893,7.6707654,-10.449202,-5.177215,7.790289,-7.7994413,-17.747751,10.309716,-12.211456,7.9321756,-4.2456875,-0.06481273,6.7096715,16.01006,13.628851,-93.86873,38.715168,24.000803,-12.79063,-4.152124,22.684845,-9.141031,78.978966,36.54555,-31.627129,-8.911658,8.172324
67,-0.0649314597249031,2.5417656898498535,77.86614990234375,0.28476685364045584,-4.77233490024809,-88.79160784411278,5.868304,3.9658167,8.522462,7.641082,-10.40089,-5.189257,7.5763955,-7.7981095,-17.69563,10.413021,-12.217239,7.908762,-4.207176,-0.04366005,6.6582475,15.961506,13.634271,-93.85166,38.70462,23.93894,-12.785911,-4.1453686,22.621183,-9.139248,78.98291,36.551537,-31.706594,-8.896012,8.194207
68,-0.08575271815061569,2.3358945846557617,77.85980987548828,0.2799260812366098,-4.65132793319404,-88.84399811972715,5.7320876,3.981043,8.579903,7.61199,-10.355715,-5.190527,7.3468037,-7.7966356,-17.631626,10.518043,-12.2180605,7.8841033,-4.160717,-0.014320226,6.596212,15.911539,13.636827,-93.83663,38.68386,23.912046,-12.781847,-4.1406245,22.55817,-9.138152,78.98625,36.56147,-31.753305,-8.877674,8.208877
69,-0.06720923632383347,2.4759812355041504,77.87090301513672,0.27266660865507486,-4.49886557952316,-88.91760823792283,5.5588355,3.9961715,8.650887,7.5860515,-10.31349,-5.1721816,7.0569015,-7.7994385,-17.538427,10.654358,-12.219444,7.8545456,-4.10194,0.027474023,6.519194,15.838871,13.640806,-93.80751,38.63735,23.946012,-12.77962,-4.1413374,22.474646,-9.13608,78.99248,36.582146,-31.750631,-8.855713,8.216525
70,-0.057649340480566025,2.4941153526306152,77.87614440917969,0.262795758158856,-4.308667591527264,-89.01300741014832,5.3416476,4.015449,8.73893,7.558193,-10.266948,-5.1400814,6.700085,-7.8006024,-17.416931,10.813283,-12.213659,7.8182535,-4.0203505,0.08798471,6.412439,15.755383,13.640929,-93.786446,38.575024,24.012964,-12.776171,-4.1412454,22.386028,-9.135851,78.99414,36.60664,-31.716446,-8.827587,8.221377
71,-0.05350949242711067,2.473015785217285,77.88227844238281,0.2541711047021503,-4.129000851865848,-89.10457920434312,5.137456,4.033075,8.822669,7.531067,-10.223265,-5.109159,6.3647985,-7.8014245,-17.300589,10.959508,-12.205696,7.785208,-3.940178,0.14579745,6.309339,15.67621,13.639734,-93.77068,38.516945,24.073738,-12.77499,-4.143577,22.307629,-9.136303,78.99347,36.629242,-31.673115,-8.799016,8.219989
72,-0.052858855575323105,2.458394765853882,77.88481140136719,0.24845950813715015,-4.009435354839357,-89.1656687430303,5.003802,4.0434756,8.879879,7.508115,-10.190273,-5.0943623,6.1416035,-7.8029428,-17.224031,11.056857,-12.201017,7.765275,-3.8885925,0.18240528,6.2514257,15.617307,13.636647,-93.7507,38.48252,24.095797,-12.780204,-4.1532707,22.242788,-9.137558,78.991936,36.647316,-31.638557,-8.776855,8.210306
73,-0.05322326719760895,2.446852207183838,77.88475036621094,0.24862790018384287,-3.9219225990234063,-89.21589185328153,4.916064,4.0466685,8.932979,7.4726176,-10.152831,-5.1000323,5.9729943,-7.809446,-17.166777,11.133802,-12.200439,7.758397,-3.8519926,0.20943005,6.2150707,15.579023,13.629308,-93.72581,38.46982,24.055761,-12.793693,-4.172955,22.18648,-9.140717,78.986015,36.66866,-31.630535,-8.756422,8.18084
74,-0.05467059090733528,2.4381420612335205,77.88616180419922,0.2503062171978704,-3.8532305792127093,-89.26051126154076,4.854122,4.0451727,8.984488,7.4323697,-10.114208,-5.1180596,5.8365693,-7.819411,-17.120096,11.198306,-12.202015,7.7601137,-3.817413,0.23224254,6.188993,15.549755,13.624186,-93.71135,38.46575,23.97035,-12.810975,-4.1966953,22.135637,-9.14319,78.97597,36.694397,-31.629166,-8.734639,8.1342325
75,-0.05511564016342163,2.4399070739746094,77.88534545898438,0.2537843268816833,-3.878452199026185,-89.2504383461206,4.8933697,4.0385013,8.980731,7.4152412,-10.10484,-5.145099,5.8854895,-7.8222294,-17.13839,11.170591,-12.20054,7.7737265,-3.8265672,0.22256228,6.217026,15.561368,13.618168,-93.70478,38.49064,23.883259,-12.8306265,-4.22167,22.136478,-9.145935,78.968956,36.699062,-31.62294,-8.724286,8.095625
76,-0.06241248920559883,2.4519195556640625,77.88066101074219,0.26235433662748187,-4.072219194494134,-89.13645885156822,5.1055503,4.026492,8.867759,7.4558735,-10.1588955,-5.177791,6.2723813,-7.806589,-17.276169,10.971201,-12.191551,7.8025436,-3.9164555,0.15086718,6.333968,15.644334,13.615153,-93.72483,38.56071,23.824602,-12.846854,-4.2379503,22.235348,-9.146256,78.98548,36.659763,-31.585258,-8.733176,8.083747
77,-0.2148156464099884,1.7748912572860718,77.84071350097656,0.27112095113058116,-4.558188848252019,-88.8435209848504,5.6211495,4.0060797,8.5674,7.587731,-10.317398,-5.2226973,7.247265,-7.7549825,-17.620222,10.467286,-12.165295,7.8573356,-4.144239,-0.030703176,6.6050754,15.85087,13.625768,-93.7891,38.699585,23.80998,-12.857267,-4.2378645,22.500051,-9.13724,79.04573,36.550365,-31.481842,-8.775909,8.117306
78,-0.0965883731842041,2.6021103858947754,77.85497283935547,0.2815896385074522,-5.264473529372112,-88.41761213539603,6.370203,3.9806912,8.128503,7.7793407,-10.549462,-5.2792945,8.671795,-7.6673675,-18.118484,9.71509,-12.114948,7.9346294,-4.4685297,-0.30120188,6.9904227,16.148483,13.686855,-93.88742,38.85085,23.818693,-12.861264,-4.227594,22.88209,-9.093904,79.13903,36.416924,-31.330717,-8.842995,8.17629
79,-0.25649937987327576,1.911133885383606,77.80244445800781,0.28943119309252735,-5.971012429056233,-87.99141009725203,7.1251264,3.9561589,7.6894608,7.9586387,-10.775286,-5.3333573,10.107557,-7.567553,-18.616253,8.935228,-12.048599,8.015527,-4.7824755,-0.5810988,7.374156,16.441256,13.792308,-93.98558,38.95852,23.834917,-12.863045,-4.2213874,23.257008,-9.021895,79.22471,36.309414,-31.19549,-8.90884,8.232666
80,-0.27381283044815063,1.9516984224319458,77.78730010986328,0.29424477404842625,-6.453756327477655,-87.69904639527321,7.6463494,3.9373903,7.389313,8.070368,-10.923565,-5.370714,11.099789,-7.4936547,-18.95841,8.378117,-11.99021,8.078476,-4.9883385,-0.7815618,7.6352057,16.63943,13.912146,-94.057365,38.9891,23.836464,-12.864818,-4.2277822,23.517832,-8.940855,79.27233,36.266323,-31.144367,-8.945199,8.251572
81,-0.2833840548992157,1.9700957536697388,77.77758026123047,0.30145547346415386,-6.674032141928316,-87.5643751803074,7.8893795,3.922816,7.253248,8.113062,-10.985311,-5.389366,11.566356,-7.4609823,-19.118912,8.096749,-11.950259,8.124804,-5.0720263,-0.8817687,7.7560883,16.72845,14.026755,-94.10112,38.954853,23.807413,-12.871171,-4.2553988,23.63475,-8.863285,79.27919,36.292618,-31.2127,-8.931286,8.207481
82,-0.2877785265445709,1.9778265953063965,77.77311706542969,0.31004714309215126,-6.742735148118038,-87.52045044946287,7.970622,3.9107811,7.2114263,8.118417,-10.998433,-5.3963246,11.722269,-7.4559436,-19.174417,7.992326,-11.927825,8.16234,-5.090867,-0.9212917,7.7971063,16.758701,14.107637,-94.12715,38.91352,23.761127,-12.881732,-4.294798,23.665033,-8.8076935,79.26944,36.340473,-31.35122,-8.885074,8.125297
83,-0.28816401958465576,1.9701344966888428,77.77400207519531,0.317508611737677,-6.659986292598246,-87.56544350709125,7.88763,3.906243,7.259992,8.09067,-10.966949,-5.3914866,11.567865,-7.473825,-19.125256,8.065718,-11.927161,8.178106,-5.044028,-0.8991554,7.7553124,16.72551,14.176844,-94.13343,38.83762,23.72408,-12.888612,-4.331972,23.629034,-8.759144,79.237465,36.414455,-31.505793,-8.838828,8.046082
84,-0.27667781710624695,1.9503928422927856,77.78598022460938,0.3168497616105112,-6.425833727070977,-87.6974919750874,7.635428,3.9145737,7.395036,8.037667,-10.896115,-5.3746033,11.098821,-7.509585,-18.971384,8.326158,-11.95352,8.159379,-4.938266,-0.8127437,7.6305666,16.630735,14.198849,-94.11328,38.756744,23.722109,-12.886959,-4.3483195,23.50872,-8.74335,79.20797,36.48561,-31.573828,-8.822133,8.01168
85,-0.03234173357486725,3.109206199645996,77.84324645996094,0.30424145210634596,-5.930008980925282,-87.97689819278428,7.09551,3.9423153,7.6771426,7.9292445,-10.7504015,-5.33643,10.100228,-7.571926,-18.640623,8.8778105,-12.012707,8.084808,-4.7194433,-0.6206124,7.3607483,16.420158,14.208043,-94.05465,38.597862,23.786797,-12.865217,-4.3326344,23.25909,-8.736318,79.15514,36.597485,-31.52688,-8.860442,8.0497
86,-0.10609835386276245,2.6039183139801025,77.85492706298828,0.2826937342028762,-5.210736330304462,-88.38423055412797,6.3156495,3.984923,8.087581,7.762903,-10.534792,-5.279887,8.655833,-7.651417,-18.157398,9.661293,-12.088256,7.9689946,-4.400467,-0.34481108,6.964696,16.114449,14.201252,-93.96926,38.37967,23.89298,-12.82817,-4.292517,22.889711,-8.740692,79.09204,36.743095,-31.401821,-8.929554,8.129752
87,-0.10203707218170166,2.481954574584961,77.87580871582031,0.2581192549519417,-4.491248830715692,-88.79759804816744,5.5421247,4.0302567,8.503816,7.585734,-10.31493,-5.223138,7.2198143,-7.717958,-17.668495,10.418336,-12.148621,7.852269,-4.089426,-0.07261444,6.577205,15.809729,14.138444,-93.84052,38.212265,24.006865,-12.802948,-4.2667584,22.508663,-8.781578,79.0203,36.85771,-31.285078,-9.003303,8.225577
88,-0.08749188482761383,2.429047107696533,77.88754272460938,0.23880716696468168,-3.9905726235914494,-89.09609143201955,5.0124497,4.0644193,8.804209,7.455133,-10.161927,-5.184567,6.2287617,-7.7548428,-17.319435,10.923278,-12.180594,7.772152,-3.8655145,0.11721278,6.301971,15.60631,14.048959,-93.762474,38.140408,24.045166,-12.79133,-4.256639,22.246006,-8.840576,78.98463,36.91356,-31.224663,-9.033767,8.271425
89,-0.07698909938335419,2.460585117340088,77.89269256591797,0.23371925136429003,-3.793873015339067,-89.23824421235348,4.819961,4.079811,8.947671,7.39705,-10.106429,-5.1718354,5.843106,-7.7649207,-17.161404,11.1087265,-12.190623,7.74052,-3.7615755,0.19719222,6.189084,15.543184,13.961539,-93.736626,38.162422,23.978872,-12.805375,-4.2898803,22.157406,-8.898432,78.9732,36.911713,-31.286684,-9.002659,8.248924
90,-0.07525987178087234,2.4736995697021484,77.89247131347656,0.23747388719976134,-3.773668659533273,-89.29196595942952,4.8233333,4.08398,9.002498,7.3829584,-10.109454,-5.174326,5.8055515,-7.762183,-17.111666,11.115661,-12.192266,7.7355113,-3.7211573,0.21318196,6.1693068,15.559788,13.9045,-93.74546,38.209965,23.844938,-12.833706,-4.35215,22.164894,-8.936474,78.97635,36.894928,-31.415405,-8.9344015,8.185051
91,-0.07712920010089874,2.4299066066741943,77.88716125488281,0.24255146452867715,-3.828623954699533,-89.30121215927218,4.906456,4.0833006,9.01236,7.388963,-10.136754,-5.182545,5.9177127,-7.753837,-17.114155,11.045583,-12.189204,7.74289,-3.7129772,0.2006773,6.1905303,15.607067,13.869833,-93.767334,38.260708,23.705841,-12.8640175,-4.4162564,22.208883,-8.959837,78.98668,36.87525,-31.53883,-8.866827,8.115911
92,-0.07591494917869568,2.422581911087036,77.88748931884766,0.2454846526169811,-3.8574559675920366,-89.30990506512389,4.952177,4.0852313,9.020623,7.394347,-10.156177,-5.186954,5.980224,-7.7464943,-17.11263,11.002611,-12.186628,7.7484975,-3.7060292,0.19705416,6.200724,15.636678,13.835125,-93.781006,38.306087,23.626137,-12.884266,-4.4534016,22.236073,-8.9834,78.99431,36.854664,-31.590378,-8.837519,8.077528
93,-0.07240377366542816,2.453155040740967,77.889404296875,0.24264862932357933,-3.85259493637216,-89.31541565389097,4.951209,4.089694,9.024223,7.3919907,-10.161015,-5.1856394,5.9781847,-7.7412915,-17.107752,10.996552,-12.185163,7.7533126,-3.7018666,0.20275168,6.199675,15.63872,13.832167,-93.78109,38.31197,23.635904,-12.887511,-4.4505234,22.243261,-8.9854,78.99465,36.851242,-31.54356,-8.864797,8.080865
94,-0.0737566128373146,2.45902156829834,77.88922119140625,0.23812967763180962,-3.859277731032497,-89.30027132961531,4.952753,4.095778,9.005601,7.4018126,-10.172282,-5.1836376,6.0039535,-7.732504,-17.123377,10.973677,-12.179569,7.7628546,-3.7158034,0.20396669,6.2013783,15.649523,13.811354,-93.77908,38.348057,23.699142,-12.886592,-4.420922,22.252953,-8.999541,79.002426,36.82885,-31.412619,-8.931945,8.112194
95,-0.07677800208330154,2.450631856918335,77.8887939453125,0.23392743291166984,-3.862382670258433,-89.28359378808779,4.9512424,4.099876,8.986006,7.4057107,-10.178661,-5.1812353,6.0201225,-7.7266016,-17.139246,10.960965,-12.177002,7.771383,-3.7284937,0.20684135,6.2065396,15.644865,13.807366,-93.77812,38.3588,23.765215,-12.880534,-4.3937373,22.264894,-9.002234,79.00368,36.816383,-31.289156,-8.999582,8.144814
96,-0.08016394823789597,2.417369842529297,77.88705444335938,0.22821976351254944,-3.846931732077957,-89.280116727222,4.92847,4.106535,8.980648,7.4089637,-10.179858,-5.179627,6.0050774,-7.719049,-17.142231,10.9526825,-12.168075,7.772233,-3.73312,0.2118424,6.1988406,15.643651,13.797698,-93.77051,38.37615,23.81705,-12.880585,-4.3768897,22.251781,-9.008948,79.00948,36.807922,-31.179676,-9.055452,8.181207
97,-0.07891377806663513,2.405146360397339,77.88905334472656,0.2249612611860917,-3.7923096181581184,-89.30629176311584,4.869283,4.113325,9.007497,7.3951015,-10.165086,-5.1790156,5.9112616,-7.716491,-17.114422,10.982104,-12.161768,7.759226,-3.714743,0.22968876,6.170084,15.621019,13.78468,-93.756096,38.37356,23.824987,-12.884648,-4.3936014,22.217062,-9.018396,79.01286,36.812935,-31.13364,-9.080667,8.204124
98,-0.07784934341907501,2.4320056438446045,77.8934097290039,0.2220854375012874,-3.7127047404741242,-89.34794935658101,4.7851152,4.121026,9.051301,7.3712215,-10.139701,-5.17898,5.7698493,-7.71565,-17.070583,11.03157,-12.154948,7.73728,-3.6877968,0.25341547,6.129171,15.589474,13.759327,-93.72937,38.375942,23.82019,-12.893071,-4.426822,22.163874,-9.037729,79.01617,36.81546,-31.112877,-9.093813,8.228233
99,-0.07483641803264618,2.455007553100586,77.89813995361328,0.2210458876165254,-3.639116673228753,-89.3883437385346,4.7082124,4.127377,9.0941305,7.34917,-10.11496,-5.178606,5.6391597,-7.715203,-17.027006,11.076621,-12.14689,7.7168694,-3.6568332,0.27738875,6.0901985,15.557992,13.744194,-93.71398,38.365295,23.80027,-12.899734,-4.462908,22.114216,-9.049709,79.01777,36.826088,-31.105387,-9.097634,8.246221
100,-0.07367907464504242,2.4596309661865234,77.89847564697266,0.2194606475072466,-3.602357050068164,-89.40953410347616,4.6707096,4.1302233,9.117294,7.339691,-10.100485,-5.1769404,5.576625,-7.7149653,-17.000816,11.096242,-12.138653,7.7086945,-3.641551,0.288701,6.071731,15.543027,13.73166,-93.7057,38.366337,23.776995,-12.906414,-4.490411,22.087095,-9.059769,79.024864,36.828102,-31.101582,-9.093714,8.256022
101,-0.07425829768180847,2.4476699829101562,77.89604949951172,0.2224453044608337,-3.62211071889444,-89.40313482248223,4.6940904,4.1271257,9.11193,7.3500013,-10.1012335,-5.1724606,5.617413,-7.715179,-16.99775,11.077926,-12.128605,7.7201505,-3.6526868,0.28461272,6.083815,15.555948,13.713979,-93.708824,38.387547,23.747293,-12.910203,-4.503838,22.096874,-9.0736685,79.04569,36.815155,-31.104963,-9.076254,8.251114
102,-0.07873918861150742,2.408217430114746,77.89356994628906,0.22766925573385932,-3.6780986191821907,-89.37961273969093,4.7559476,4.120141,9.089096,7.3756137,-10.112678,-5.166103,5.724365,-7.7159057,-17.008446,11.035662,-12.11718,7.744035,-3.6758578,0.27037725,6.11594,15.584127,13.700361,-93.723465,38.414646,23.708563,-12.912732,-4.510717,22.128363,-9.083987,79.07014,36.798824,-31.119722,-9.047237,8.236341
103,-0.07889661937952042,2.396472692489624,77.8952407836914,0.23182821830529662,-3.741070432102898,-89.35076712487691,4.8259296,4.112968,9.060698,7.4009748,-10.126541,-5.1604996,5.84653,-7.715761,-17.02667,10.984658,-12.106265,7.7689104,-3.7024558,0.25117093,6.149581,15.617756,13.689951,-93.741486,38.44507,23.66582,-12.915992,-4.5149956,22.169806,-9.091343,79.09621,36.7783,-31.135754,-9.015352,8.217857
104,-0.07899492979049683,2.4071054458618164,77.8969497680664,0.2341451938396127,-3.7819672526767474,-89.32907146619546,4.871841,4.1101775,9.038962,7.4179144,-10.139444,-5.15834,5.9329433,-7.712724,-17.045557,10.941273,-12.098366,7.783246,-3.7233298,0.2401755,6.171144,15.639631,13.679878,-93.75431,38.46821,23.624617,-12.92038,-4.5260625,22.197386,-9.098156,79.11414,36.76422,-31.14188,-8.995054,8.204299
105,-0.08231975138187408,2.4118611812591553,77.89543914794922,0.2303626278379304,-3.794427399313276,-89.31437535212194,4.8874288,4.113237,9.023713,7.421246,-10.1515465,-5.161641,5.9778323,-7.7046423,-17.070662,10.899119,-12.092522,7.7827773,-3.7378256,0.23737556,6.176189,15.648096,13.673653,-93.75684,38.480946,23.578295,-12.930022,-4.5513744,22.214165,-9.102221,79.11663,36.7544,-31.144022,-8.990041,8.200708
106,-0.08454462885856628,2.4301350116729736,77.8951187133789,0.2270276946308064,-3.7925670770557725,-89.3024318692584,4.888461,4.118281,9.010873,7.416435,-10.16464,-5.16831,5.999278,-7.6959357,-17.101084,10.864923,-12.093817,7.7741942,-3.7504332,0.23607,6.1730757,15.652952,13.671481,-93.75556,38.489952,23.530005,-12.941391,-4.5790567,22.226429,-9.103593,79.11356,36.74777,-31.142878,-8.991769,8.198718
107,-0.0870051234960556,2.4204354286193848,77.89781951904297,0.21869089011342085,-3.782245522016161,-89.29358493972815,4.8771057,4.1284657,9.000473,7.4143662,-10.178496,-5.1758046,6.0126367,-7.6808066,-17.130455,10.819088,-12.0864105,7.7616906,-3.7580638,0.24284437,6.1629405,15.65051,13.6622095,-93.752045,38.501835,23.487875,-12.954304,-4.6142507,22.236885,-9.109537,79.09939,36.73784,-31.137629,-9.00088,8.202555
108,-0.08864074945449829,2.3930468559265137,77.89262390136719,0.21406370824418286,-3.764652802192497,-89.2958191468188,4.8588862,4.1360297,9.001863,7.409316,-10.184351,-5.1800423,5.997723,-7.671744,-17.139702,10.803986,-12.085574,7.7505617,-3.7590141,0.24842533,6.154084,15.645089,13.659476,-93.749626,38.505054,23.478878,-12.958943,-4.629914,22.238403,-9.111319,79.09233,36.734257,-31.124214,-9.009676,8.198915
109,-0.09008117765188217,2.373394727706909,77.89364624023438,0.20947303703559603,-3.7314638744272455,-89.31461019008822,4.823173,4.143771,9.020212,7.4014144,-10.178776,-5.1797204,5.9380054,-7.6663604,-17.118973,10.824767,-12.086826,7.740092,-3.7458322,0.26282087,6.1446714,15.628969,13.652074,-93.746475,38.502567,23.53313,-12.951508,-4.6221385,22.22175,-9.1164255,79.07974,36.733932,-31.093626,-9.024469,8.190314
110,-0.08758945018053055,2.3771097660064697,77.89564514160156,0.20612973651229324,-3.6841995699005667,-89.3459318479597,4.770966,4.152645,9.051192,7.391927,-10.166168,-5.176858,5.843615,-7.662226,-17.078068,10.867965,-12.088604,7.728291,-3.7238867,0.28135315,6.130941,15.605721,13.646107,-93.74316,38.49366,23.630003,-12.935403,-4.5964675,22.190351,-9.120781,79.07189,36.737045,-31.045147,-9.042661,8.175786
111,-0.08798287808895111,2.399038076400757,77.90068054199219,0.2036265558583977,-3.642116007960443,-89.37735783999855,4.726158,4.159284,9.08281,7.3816504,-10.152076,-5.173466,5.756025,-7.660413,-17.036705,10.911853,-12.091415,7.717981,-3.7032824,0.29717985,6.1190085,15.586108,13.641825,-93.73974,38.483692,23.71474,-12.920372,-4.573893,22.166065,-9.124049,79.06542,36.742096,-31.00496,-9.059491,8.162133
112,-0.08727375417947769,2.418469190597534,77.90249633789062,0.20506542456689728,-3.6248178050492967,-89.39623071744911,4.710673,4.1611557,9.102504,7.3775663,-10.145712,-5.1715584,5.7180223,-7.6614485,-17.014915,10.933143,-12.0949135,7.7118826,-3.6917102,0.30383945,6.1168194,15.579454,13.639382,-93.737885,38.48031,23.73484,-12.916857,-4.5742707,22.15802,-9.1259365,79.06217,36.746475,-30.985086,-9.069578,8.156987
113,-0.08743784576654434,2.4189538955688477,77.90281677246094,0.21267874229106717,-3.647636407068602,-89.39806122596849,4.744907,4.1525955,9.106981,7.379528,-10.148839,-5.1719003,5.755091,-7.6709065,-17.022236,10.926507,-12.104206,7.712372,-3.692511,0.29511207,6.134756,15.588808,13.634499,-93.73624,38.491703,23.643473,-12.933606,-4.6153116,22.175163,-9.129504,79.05841,36.746563,-30.99488,-9.075684,8.173725
114,-0.0893470048904419,2.411032199859619,77.89851379394531,0.2249242706655059,-3.6978874011760614,-89.38898781132058,4.8121676,4.138023,9.101634,7.3876066,-10.158432,-5.1735897,5.844982,-7.684356,-17.048018,10.896537,-12.114236,7.7172475,-3.7005143,0.27631047,6.1630354,15.6131115,13.628223,-93.73794,38.514065,23.478817,-12.962715,-4.681177,22.210575,-9.133604,79.059456,36.74351,-31.020546,-9.07725,8.20371
115,-0.08925078809261322,2.40375018119812,77.89386749267578,0.23775454644132638,-3.7471464844136895,-89.37704744030785,4.877323,4.12373,9.092829,7.397014,-10.169568,-5.17504,5.934455,-7.6976414,-17.07519,10.868292,-12.1249275,7.7231584,-3.712099,0.2571194,6.1915994,15.636378,13.625145,-93.73957,38.53306,23.319128,-12.99073,-4.7435594,22.243855,-9.135261,79.06188,36.742786,-31.056227,-9.073027,8.225362
116,-0.0907084122300148,2.370370626449585,77.89048767089844,0.24184776726276075,-3.771025955713835,-89.3683841329188,4.91042,4.118256,9.085117,7.4020514,-10.177357,-5.1751437,5.98411,-7.7014103,-17.089684,10.848497,-12.127776,7.726444,-3.720908,0.24711351,6.200103,15.65205,13.622182,-93.743225,38.54712,23.23427,-13.005972,-4.781138,22.26941,-9.136665,79.0657,36.74019,-31.094929,-9.057601,8.217374
117,-0.09350983053445816,2.3656203746795654,77.89266204833984,0.23652771001563988,-3.756025326478763,-89.3635272561182,4.8941045,4.125733,9.07718,7.4008517,-10.181297,-5.172198,5.9694695,-7.6929917,-17.084034,10.852403,-12.12442,7.7260203,-3.7286317,0.2518093,6.1856537,15.652253,13.621482,-93.74562,38.54927,23.25722,-13.00185,-4.7883058,22.263924,-9.136981,79.06758,36.738197,-31.136986,-9.032593,8.171287
118,-0.09527905285358429,2.3748483657836914,77.89443969726562,0.22325146497937007,-3.712481001393184,-89.35839547097247,4.8385024,4.141893,9.065775,7.402979,-10.186082,-5.167132,5.9102736,-7.6770587,-17.067919,10.872527,-12.118033,7.723546,-3.7358487,0.26835626,6.153875,15.643012,13.619429,-93.753365,38.545105,23.350014,-12.9834585,-4.774209,22.247993,-9.137789,79.07496,36.736008,-31.200207,-8.990138,8.077632
119,-0.09479767084121704,2.3898725509643555,77.89825439453125,0.2101140472003208,-3.6635598669215277,-89.35789865425564,4.7767816,4.158287,9.059631,7.4033885,-10.188397,-5.162885,5.838589,-7.6613765,-17.046797,10.898906,-12.111737,7.720738,-3.7406976,0.28558877,6.1201525,15.629001,13.615034,-93.763054,38.542034,23.47054,-12.962286,-4.7355695,22.226427,-9.139405,79.08563,36.73313,-31.242943,-8.945287,7.9847264
120,-0.09644587337970734,2.376600742340088,77.90137481689453,0.20424535719957682,-3.6264444558379756,-89.36595802137015,4.736311,4.166417,9.066052,7.3947396,-10.1826,-5.162047,5.778308,-7.654586,-17.026346,10.923878,-12.109068,7.7191386,-3.7370741,0.2982656,6.0996065,15.614645,13.611712,-93.767334,38.537407,23.593359,-12.95014,-4.675194,22.205471,-9.140692,79.0925,36.733013,-31.243858,-8.908098,7.9226065
121,-0.09661967307329178,2.3584179878234863,77.89990234375,0.2112926894654983,-3.6031839774621566,-89.38995015139838,4.719638,4.1622653,9.094777,7.3801794,-10.166908,-5.16655,5.7258735,-7.662359,-17.00355,10.953824,-12.113309,7.718783,-3.7199244,0.3038882,6.095619,15.598891,13.6080885,-93.76728,38.532818,23.745419,-12.9486,-4.5589886,22.192314,-9.14232,79.0992,36.734486,-31.181414,-8.87046,7.898894
122,-0.09694209694862366,2.3741984367370605,77.89763641357422,0.22500880671855328,-3.5850871388319563,-89.42559920883335,4.715596,4.150114,9.1394005,7.356631,-10.141325,-5.1745386,5.670823,-7.6796484,-16.976568,10.991012,-12.122305,7.7190967,-3.6955192,0.30518487,6.101779,15.5796795,13.601849,-93.76139,38.52909,23.93126,-12.952506,-4.3988676,22.178417,-9.14585,79.10851,36.737858,-31.073053,-8.830649,7.8967533
123,-0.09341181814670563,2.391307830810547,77.89867401123047,0.23815602994199267,-3.5723819723615504,-89.45910524779899,4.717521,4.1376243,9.181976,7.3344207,-10.117708,-5.183198,5.6275,-7.696414,-16.95459,11.018924,-12.129862,7.7201524,-3.6714787,0.30533832,6.111289,15.562546,13.59694,-93.7557,38.52678,24.085167,-12.958714,-4.2543664,22.167133,-9.148989,79.116455,36.73936,-30.96084,-8.802937,7.902285
124,-0.0933675765991211,2.386981725692749,77.89895629882812,0.24528421856205718,-3.5653514383754783,-89.47683457802967,4.720181,4.1316037,9.204865,7.320475,-10.105592,-5.1896887,5.6075044,-7.704224,-16.946085,11.028928,-12.135078,7.721935,-3.657653,0.30655438,6.1171203,15.5540285,13.595264,-93.753525,38.525326,24.141066,-12.96351,-4.185354,22.16566,-9.150106,79.11944,36.739296,-30.891981,-8.801036,7.899379
125,-0.09290024638175964,2.381094455718994,77.89850616455078,0.24383963968677627,-3.567886000006228,-89.47130059162137,4.7257185,4.1340184,9.198684,7.3168874,-10.11022,-5.194841,5.6224656,-7.7000203,-16.957872,11.01322,-12.137464,7.726268,-3.6634314,0.30571815,6.123575,15.560169,13.593002,-93.752075,38.537228,24.028273,-12.972219,-4.2332582,22.164656,-9.151622,79.12525,36.73386,-30.878864,-8.845778,7.8804474
126,-0.09369213134050369,2.373035430908203,77.8990707397461,0.23697133428366227,-3.578755586766495,-89.45020400852168,4.7347093,4.142078,9.173538,7.3224277,-10.12675,-5.199765,5.6649885,-7.687642,-16.984905,10.976302,-12.137144,7.732475,-3.681716,0.30398637,6.129325,15.5744505,13.59104,-93.7522,38.555294,23.794981,-12.983284,-4.3616414,22.17286,-9.152844,79.130684,36.72542,-30.903936,-8.924017,7.854035
127,-0.0963188037276268,2.3698172569274902,77.89753723144531,0.22710178761650435,-3.589789856986374,-89.42611779879779,4.741694,4.1520348,9.144407,7.332954,-10.14722,-5.2015452,5.7120824,-7.6725883,-17.013872,10.933778,-12.134408,7.7372155,-3.7028775,0.30274135,6.131702,15.591448,13.587708,-93.75326,38.57326,23.571054,-12.988764,-4.4941964,22.187328,-9.154633,79.13685,36.71466,-30.935356,-8.996161,7.8293343
128,-0.10012860596179962,2.3655614852905273,77.89282989501953,0.2229593696807886,-3.5920863892132897,-89.41325468719174,4.7427654,4.1572547,9.128528,7.338921,-10.160471,-5.1967874,5.733704,-7.664868,-17.02888,10.91322,-12.135171,7.737606,-3.713913,0.3028133,6.134884,15.600589,13.58677,-93.753105,38.579636,23.49559,-12.983585,-4.549297,22.192259,-9.155069,79.13813,36.707104,-30.938362,-9.023123,7.819916
129,-0.10150281339883804,2.358952045440674,77.89204406738281,0.22007906229214913,-3.5830813606753598,-89.41131716407605,4.7290463,4.161545,9.125915,7.353785,-10.170762,-5.1792502,5.7325354,-7.6595044,-17.030624,10.900487,-12.128915,7.7288094,-3.7192624,0.3062398,6.128981,15.596159,13.584416,-93.749825,38.56675,23.638824,-12.954654,-4.5030894,22.194675,-9.156167,79.142235,36.702625,-30.877855,-8.982889,7.835624
130,-0.10305467247962952,2.3493216037750244,77.89629364013672,0.2220443166641369,-3.5661514844105806,-89.41711806630124,4.706924,4.162623,9.132518,7.370933,-10.17872,-5.1518774,5.710222,-7.6596026,-17.021555,10.906031,-12.125417,7.714178,-3.7173572,0.31073523,6.120827,15.583019,13.583217,-93.74681,38.542995,23.928894,-12.911388,-4.3876963,22.193764,-9.156744,79.14383,36.698555,-30.782629,-8.896484,7.8677073
131,-0.1038939580321312,2.348834753036499,77.90060424804688,0.22449641988000085,-3.54780768881498,-89.42690274233162,4.6851935,4.163316,9.142881,7.385332,-10.184323,-5.128031,5.683931,-7.660267,-17.008348,10.913507,-12.1212015,7.700932,-3.7166104,0.31524804,6.115095,15.5734415,13.5813,-93.737625,38.519356,24.230047,-12.869493,-4.2611356,22.188562,-9.157826,79.147354,36.695576,-30.707064,-8.804753,7.8972993
132,-0.10621780157089233,2.3521156311035156,77.90339660644531,0.2255650833431658,-3.5357083078041174,-89.4376120238159,4.6759586,4.164146,9.152657,7.387551,-10.186049,-5.1205535,5.66823,-7.659367,-16.996363,10.915102,-12.118156,7.696676,-3.7128522,0.31883407,6.111672,15.566912,13.579919,-93.73271,38.505543,24.386261,-12.848003,-4.1893215,22.183884,-9.15874,79.15006,36.700615,-30.705595,-8.751295,7.9011674
133,-0.10741584748029709,2.3544394969940186,77.90159606933594,0.22584258479826633,-3.532750801996435,-89.45226594827537,4.687874,4.164732,9.163277,7.3681097,-10.181467,-5.141336,5.669548,-7.6560817,-16.986383,10.902983,-12.114679,7.707945,-3.706785,0.32108188,6.116349,15.569527,13.578299,-93.7275,38.50818,24.322184,-12.858911,-4.2007093,22.176075,-9.159898,79.15404,36.71469,-30.82722,-8.753272,7.8621116
134,-0.10556139796972275,2.3508148193359375,77.8975601196289,0.2264003867083327,-3.534844943651277,-89.47101592533691,4.7121935,4.1646023,9.176192,7.3360276,-10.173149,-5.1806345,5.6798177,-7.651726,-16.975983,10.882903,-12.110495,7.7291827,-3.694903,0.32269314,6.1234493,15.578071,13.577515,-93.727135,38.51997,24.124207,-12.88958,-4.259271,22.166836,-9.160567,79.15593,36.73695,-31.029593,-8.786496,7.796776
135,-0.10085072368383408,2.3397958278656006,77.89612579345703,0.22538554703004418,-3.537917194409895,-89.48782021111003,4.738331,4.165015,9.187679,7.3008366,-10.162046,-5.219116,5.6913776,-7.646408,-16.964752,10.863905,-12.106201,7.749861,-3.6821074,0.3255119,6.131533,15.580622,13.5756855,-93.73085,38.53267,23.910265,-12.92268,-4.320399,22.161743,-9.161901,79.15639,36.7592,-31.240082,-8.827239,7.7285132
136,-0.10458654910326004,2.3371591567993164,77.8919906616211,0.2236399250950012,-3.535792169507113,-89.49641664260656,4.746843,4.168473,9.193763,7.2872853,-10.157581,-5.2372947,5.6930656,-7.640618,-16.952583,10.858106,-12.10338,7.759431,-3.6738522,0.33028755,6.135258,15.580907,13.572594,-93.73737,38.54084,23.814053,-12.939734,-4.3296003,22.158566,-9.163904,79.1557,36.76996,-31.372368,-8.850023,7.692432
137,-0.10591725260019302,2.32999849319458,77.89159393310547,0.21910347034184025,-3.5258753706975754,-89.49161062670875,4.728605,4.17705,9.190982,7.3055024,-10.161307,-5.222232,5.6789336,-7.632919,-16.936235,10.874156,-12.101897,7.7511806,-3.677643,0.33609003,6.133171,15.570879,13.571053,-93.74153,38.535576,23.906532,-12.9327965,-4.257593,22.161257,-9.164749,79.15825,36.765854,-31.39669,-8.843296,7.699637
138,-0.10920846462249756,2.3261373043060303,77.89378356933594,0.2113832671295818,-3.5112522125786816,-89.4778620197019,4.6941276,4.189102,9.1821995,7.3424964,-10.169102,-5.186855,5.6559186,-7.623826,-16.91678,10.902907,-12.100524,7.7321177,-3.6883318,0.34283027,6.127919,15.555876,13.569398,-93.74633,38.52407,24.107685,-12.911913,-4.136066,22.163475,-9.165477,79.16517,36.75235,-31.35309,-8.821724,7.7322717
139,-0.11173811554908752,2.323593854904175,77.90149688720703,0.20430389938881002,-3.496475914535476,-89.46348241191595,4.659673,4.2004466,9.173091,7.379302,-10.177581,-5.15068,5.632535,-7.61589,-16.9008,10.932688,-12.101296,7.711973,-3.701731,0.34906533,6.1216393,15.543357,13.567869,-93.748505,38.5132,24.31271,-12.889285,-4.0133147,22.168453,-9.16603,79.17215,36.73898,-31.291273,-8.801197,7.7741823
140,-0.11504919826984406,2.322801113128662,77.90547180175781,0.2012462532472681,-3.4873080271056573,-89.457010619481,4.642364,4.2067537,9.169634,7.3979387,-10.184029,-5.133074,5.621103,-7.611562,-16.89468,10.945962,-12.103371,7.700714,-3.709817,0.354675,6.118659,15.537945,13.566689,-93.74883,38.508957,24.411411,-12.87822,-3.9416602,22.171246,-9.166444,79.174675,36.73624,-31.252918,-8.799018,7.809461
141,-0.11486510932445526,2.3237180709838867,77.90422821044922,0.20316261392697776,-3.485681108492392,-89.46279217183303,4.6508217,4.205154,9.175158,7.385678,-10.185308,-5.1439123,5.6258035,-7.6131854,-16.904297,10.934987,-12.108059,7.7029753,-3.7101693,0.3598197,6.120868,15.54528,13.564248,-93.74654,38.51917,24.347784,-12.886551,-3.9454734,22.16738,-9.167502,79.16878,36.75004,-31.242533,-8.828584,7.8400135
142,-0.11333788186311722,2.319924831390381,77.8995132446289,0.2093155459424538,-3.48891635797947,-89.47587164186,4.674536,4.1984353,9.185974,7.357215,-10.185474,-5.171214,5.6396427,-7.619522,-16.924555,10.911819,-12.116319,7.7128654,-3.7071848,0.36337802,6.1258454,15.5594845,13.56297,-93.743286,38.536705,24.18515,-12.905848,-3.9946253,22.166245,-9.168169,79.15859,36.772987,-31.245583,-8.876811,7.86969
143,-0.11366583406925201,2.3131160736083984,77.89604949951172,0.21485122521583574,-3.4936498059494143,-89.48968907846432,4.703714,4.1908255,9.197101,7.3215423,-10.182847,-5.2018876,5.658449,-7.6254992,-16.946383,10.88231,-12.123048,7.724299,-3.6975527,0.36983198,6.132312,15.571331,13.559964,-93.74108,38.554306,24.009706,-12.92651,-4.055101,22.1628,-9.169692,79.13615,36.79697,-31.258127,-8.927965,7.900154
144,-0.11487377434968948,2.3072195053100586,77.89610290527344,0.21838924301647913,-3.4952915232365793,-89.49767113452207,4.7219505,4.186912,9.203217,7.3010535,-10.183653,-5.2226686,5.672654,-7.6276712,-16.960314,10.860733,-12.127378,7.731189,-3.691794,0.37445447,6.135438,15.583313,13.558201,-93.74063,38.563786,23.908394,-12.934457,-4.076958,22.165281,-9.170574,79.12485,36.812294,-31.280148,-8.953132,7.915119
145,-0.11923008412122726,2.299044609069824,77.89604949951172,0.2189144642858448,-3.493860834589655,-89.49736088143254,4.7288046,4.18823,9.201646,7.295084,-10.185056,-5.2294717,5.683501,-7.6235323,-16.962168,10.848488,-12.127711,7.731705,-3.688935,0.37926573,6.1347203,15.5882,13.55519,-93.74388,38.561127,23.914158,-12.925102,-4.044196,22.174726,-9.171867,79.12199,36.814243,-31.322231,-8.9411125,7.912171
146,-0.1214163601398468,2.294557571411133,77.89492797851562,0.21490268328514586,-3.4909622053549545,-89.49253684451918,4.7286406,4.1927423,9.195629,7.300615,-10.189221,-5.22956,5.693072,-7.6158886,-16.957272,10.841479,-12.126173,7.729128,-3.68836,0.38240594,6.132383,15.59313,13.553996,-93.7461,38.55083,23.980217,-12.905403,-3.9810102,22.187403,-9.17227,79.12852,36.809814,-31.379396,-8.905232,7.894568
147,-0.12385787069797516,2.28692626953125,77.89618682861328,0.2120787663624531,-3.4861220632582004,-89.48598701008812,4.7245398,4.1981287,9.18854,7.3085623,-10.192903,-5.2267847,5.6996517,-7.6075387,-16.951208,10.836451,-12.123672,7.725086,-3.693028,0.3834127,6.125658,15.600557,13.552485,-93.74747,38.53936,24.059988,-12.882182,-3.9113193,22.203062,-9.1726465,79.145195,36.803204,-31.430202,-8.864767,7.8713727
148,-0.12374958395957947,2.277843952178955,77.89457702636719,0.20987134422042059,-3.4785891522218235,-89.48045661209093,4.718469,4.2016954,9.184006,7.3123736,-10.194696,-5.2249737,5.7009983,-7.6021647,-16.949408,10.831078,-12.121794,7.7213917,-3.6963458,0.38369438,6.1202135,15.602535,13.551752,-93.74621,38.53146,24.109114,-12.866072,-3.8666923,22.207706,-9.172731,79.1548,36.800323,-31.449898,-8.846135,7.859424
149,-0.12463207542896271,2.2743518352508545,77.89523315429688,0.21037454771153088,-3.46716866991317,-89.47549490030772,4.7087255,4.202912,9.1828,7.3117275,-10.193901,-5.2243342,5.694587,-7.600902,-16.95434,10.826271,-12.121504,7.7176533,-3.7025144,0.3818869,6.114585,15.604439,13.551158,-93.74077,38.53045,24.118397,-12.857585,-3.853797,22.208988,-9.172782,79.156044,36.79961,-31.433693,-8.858552,7.860754
150,-0.12726882100105286,2.2716622352600098,77.89714050292969,0.2115240957228404,-3.4536808327879758,-89.47063608520203,4.696783,4.202719,9.183633,7.3093925,-10.191819,-5.223185,5.6829877,-7.602065,-16.96199,10.823362,-12.122025,7.713299,-3.7066495,0.37971717,6.1097364,15.602531,13.5507145,-93.73618,38.532177,24.108955,-12.853298,-3.8588495,22.206629,-9.172821,79.15134,36.798492,-31.392729,-8.887366,7.8675895
151,-0.12645670771598816,2.26955509185791,77.89940643310547,0.21358349440748703,-3.4378324980739903,-89.46659268845526,4.6827655,4.202471,9.18491,7.305272,-10.189385,-5.222015,5.6681333,-7.603451,-16.97069,10.820473,-12.122533,7.7092896,-3.7095008,0.37827185,6.105288,15.596098,13.549663,-93.72751,38.535213,24.090551,-12.852572,-3.8737502,22.198044,-9.172908,79.13802,36.799145,-31.344082,-8.924562,7.8832803
152,-0.1280306726694107,2.2648074626922607,77.90113067626953,0.2132538550413389,-3.42495678457902,-89.46554595889195,4.6729455,4.203439,9.186501,7.3015914,-10.190039,-5.2216516,5.6565065,-7.60328,-16.97659,10.818712,-12.124259,7.706654,-3.7082589,0.3794783,6.102487,15.591437,13.548654,-93.72237,38.53691,24.07174,-12.854013,-3.880606,22.189302,-9.173046,79.12861,36.803356,-31.310968,-8.944721,7.894778
153,-0.1286972016096115,2.2578368186950684,77.90385437011719,0.21096986754932365,-3.413437513811033,-89.47025129678283,4.6654224,4.2068424,9.189205,7.298903,-10.196666,-5.221963,5.645084,-7.600229,-16.97792,10.818914,-12.126909,7.7064395,-3.7019947,0.38600498,6.1010413,15.587065,13.547345,-93.71749,38.536095,24.043598,-12.859498,-3.8810716,22.183216,-9.173265,79.12145,36.809986,-31.30467,-8.941754,7.9045467
154,-0.1305743306875229,2.257099151611328,77.89755249023438,0.20913341308746522,-3.402958831985011,-89.4789390637095,4.6609206,4.2119074,9.193016,7.2943606,-10.206207,-5.222812,5.633542,-7.5955105,-16.97674,10.821381,-12.130956,7.707875,-3.6928492,0.39501292,6.098887,15.585709,13.54658,-93.714554,38.534855,24.005064,-12.86807,-3.878372,22.180687,-9.173494,79.12015,36.818188,-31.312796,-8.92228,7.910584
155,-0.13290514051914215,2.2556838989257812,77.89147186279297,0.20713921269503072,-3.3946597360258535,-89.48671775948004,4.659059,4.2161074,9.195957,7.290202,-10.215066,-5.224238,5.6263213,-7.591043,-16.975906,10.822162,-12.135087,7.7092314,-3.6860626,0.40279642,6.0983787,15.584884,13.544416,-93.71213,38.534214,23.97552,-12.875462,-3.8683124,22.176298,-9.174388,79.12417,36.826073,-31.320192,-8.898582,7.913262
156,-0.1350700408220291,2.2456612586975098,77.89025115966797,0.20617168858665275,-3.3907297199487294,-89.48813691512663,4.661507,4.217348,9.195799,7.2868304,-10.218739,-5.2265005,5.627535,-7.5890894,-16.978258,10.820571,-12.139643,7.7088637,-3.6846035,0.4037938,6.0998073,15.586851,13.543448,-93.713,38.53575,23.977043,-12.877746,-3.8441353,22.175865,-9.174839,79.128075,36.83011,-31.322538,-8.882263,7.912088
157,-0.14158503711223602,2.232764482498169,77.89315795898438,0.2117730610238207,-3.3928529156638665,-89.48083626920757,4.6687803,4.212971,9.192162,7.2884655,-10.216294,-5.2298236,5.641288,-7.5919113,-16.984722,10.814889,-12.145399,7.706624,-3.6917064,0.39550036,6.1037645,15.586795,13.543108,-93.715965,38.537296,24.028677,-12.871755,-3.8031585,22.179634,-9.174985,79.129974,36.83089,-31.321548,-8.879747,7.9076962
158,-0.1430303305387497,2.2260923385620117,77.89447784423828,0.219035827897086,-3.402713366202216,-89.46576148833199,4.68563,4.204501,9.184087,7.287436,-10.206645,-5.234159,5.670977,-7.59718,-16.996395,10.800751,-12.149581,7.703619,-3.7041395,0.37982696,6.1160393,15.592766,13.5424385,-93.72785,38.54627,24.132025,-12.859367,-3.7281377,22.180689,-9.175254,79.135086,36.828255,-31.314432,-8.882042,7.8970566
159,-0.14329710602760315,2.218317747116089,77.89828491210938,0.22523136645878655,-3.412048365592609,-89.45037971121678,4.7004457,4.1973295,9.175593,7.2897596,-10.198497,-5.2387805,5.698652,-7.6017833,-17.007456,10.790017,-12.15514,7.698999,-3.714279,0.36480504,6.125556,15.59663,13.541218,-93.747475,38.554768,24.220322,-12.845514,-3.6572435,22.185173,-9.175604,79.14045,36.82272,-31.300474,-8.883101,7.884082
160,-0.14421036839485168,2.213846445083618,77.89900970458984,0.2277284010442661,-3.415089672560309,-89.43975703409942,4.709537,4.1948695,9.168934,7.2895055,-10.194583,-5.242844,5.714165,-7.6020284,-17.01507,10.785922,-12.161314,7.6923714,-3.715406,0.35836235,6.130318,15.5967655,13.53925,-93.76697,38.55927,24.252174,-12.837059,-3.6154726,22.191862,-9.1760235,79.138954,36.816654,-31.278559,-8.876604,7.872981
161,-0.14666730165481567,2.2109992504119873,77.89749145507812,0.2223415438363721,-3.41235298224862,-89.43654750130779,4.7092276,4.203489,9.16485,7.295346,-10.202052,-5.244187,5.721557,-7.5917873,-17.019163,10.778774,-12.160963,7.683244,-3.7092185,0.36350393,6.1341696,15.59164,13.537622,-93.77104,38.55744,24.201637,-12.837742,-3.6198967,22.19279,-9.17635,79.12932,36.810738,-31.23405,-8.861971,7.8716373
162,-0.14993220567703247,2.2046236991882324,77.89575958251953,0.21192557719118948,-3.4064410076694904,-89.43711149127282,4.7052503,4.2180357,9.162266,7.3023467,-10.215399,-5.243716,5.7241697,-7.5756354,-17.0212,10.770968,-12.157363,7.672111,-3.7017229,0.37406,6.135775,15.587337,13.53693,-93.765816,38.55094,24.10197,-12.842652,-3.6502168,22.192917,-9.17646,79.12088,36.803722,-31.17273,-8.841413,7.8734026
163,-0.15468217432498932,2.1955137252807617,77.8978500366211,0.20310627512101231,-3.3952536736133276,-89.43836766692957,4.6961436,4.2315774,9.15903,7.305849,-10.227077,-5.246129,5.7123494,-7.5620484,-17.020943,10.780158,-12.162364,7.6595273,-3.6933067,0.38684633,6.137168,15.575889,13.535389,-93.75356,38.541855,23.992455,-12.853184,-3.6934104,22.192715,-9.1768875,79.10429,36.79911,-31.124647,-8.819131,7.873916
164,-0.15721456706523895,2.190951108932495,77.89790344238281,0.20158528485271807,-3.3766388523260686,-89.43754845671751,4.6839285,4.2344556,9.154357,7.294622,-10.226403,-5.255728,5.6713123,-7.5634327,-17.016798,10.83589,-12.194997,7.6464324,-3.6867208,0.3936296,6.1335206,15.566991,13.533729,-93.74569,38.535397,23.922358,-12.868016,-3.7199905,22.191797,-9.177455,79.094955,36.79893,-31.107737,-8.798052,7.859002
165,-0.1649308055639267,2.1922099590301514,77.89620971679688,0.20893021446169696,-3.351978935101363,-89.43163052281194,4.6696367,4.225368,9.144326,7.268331,-10.211082,-5.277614,5.6084867,-7.578665,-17.011356,10.92754,-12.252776,7.6352053,-3.6845522,0.39299566,6.1242375,15.559474,13.532532,-93.748276,38.53214,23.917488,-12.884958,-3.709226,22.194519,-9.177924,79.10043,36.80563,-31.142164,-8.773803,7.815033
166,-0.16590428352355957,2.1904516220092773,77.89757537841797,0.22126060502341274,-3.321171486881953,-89.42320031662383,4.6531243,4.207698,9.1315975,7.228242,-10.184506,-5.3080344,5.524724,-7.6047807,-17.003778,11.051086,-12.330966,7.6248693,-3.6853454,0.38682756,6.1090646,15.5548315,13.531066,-93.75769,38.53193,23.94673,-12.904303,-3.6767735,22.201998,-9.178551,79.11892,36.81579,-31.21146,-8.744486,7.749025
167,-0.17122730612754822,2.1905722618103027,77.89559173583984,0.24079412186909233,-3.2814250197560515,-89.41650872042601,4.6304903,4.1834035,9.121475,7.178889,-10.151958,-5.338511,5.407365,-7.643306,-16.989626,11.222914,-12.432473,7.610375,-3.6860433,0.3777004,6.086257,15.5501795,13.529273,-93.76818,38.52998,23.967426,-12.927146,-3.6550837,22.205336,-9.179471,79.14124,36.828743,-31.275654,-8.71647,7.6822243
168,-0.17239315807819366,2.1807475090026855,77.89071655273438,0.26329443784364936,-3.229194629386604,-89.415909897348,4.5960135,4.15406,9.119888,7.127501,-10.120402,-5.360456,5.2393026,-7.6976943,-16.963829,11.467793,-12.564344,7.586697,-3.684347,0.36713418,6.0521383,15.545431,13.52817,-93.772255,38.522175,23.93741,-12.954762,-3.6764798,22.21231,-9.18021,79.150276,36.84082,-31.31368,-8.695452,7.6353116
169,-0.1748887300491333,2.167544364929199,77.88468933105469,0.2921939108309036,-3.158841228616608,-89.42360883153033,4.543359,4.1186814,9.130321,7.07378,-10.089799,-5.367722,5.0063963,-7.771161,-16.921717,11.799111,-12.730542,7.554219,-3.677284,0.3555982,5.9996486,15.542098,13.526923,-93.77168,38.505016,23.815798,-12.990982,-3.7712765,22.216993,-9.181236,79.15069,36.85034,-31.299429,-8.681205,7.613509
170,-0.17687153816223145,2.164405107498169,77.88021087646484,0.3266782548936969,-3.073625052118816,-89.4369671003967,4.477229,4.0767717,9.14912,7.0151157,-10.0577345,-5.3661857,4.720598,-7.8609214,-16.866667,12.201379,-12.92646,7.5149884,-3.667136,0.34295124,5.933084,15.537441,13.524339,-93.766594,38.48167,23.636223,-13.034261,-3.9165404,22.226332,-9.183913,79.139206,36.858658,-31.263308,-8.672302,7.607308
171,-0.17808318138122559,2.16652250289917,77.8758544921875,0.3655456284021763,-2.984087010910176,-89.45293486377176,4.4030404,4.0312624,9.17079,6.963523,-10.029944,-5.3652387,4.4075723,-7.9613595,-16.806154,12.650216,-13.143872,7.466741,-3.6557271,0.32828102,5.865524,15.532671,13.521996,-93.761475,38.459354,23.461214,-13.075572,-4.0585184,22.228083,-9.186622,79.12405,36.867386,-31.21316,-8.669316,7.6106386
172,-0.1827973872423172,2.173356056213379,77.87046813964844,0.4102015953978258,-2.8992867343561572,-89.4700082761662,4.3121,3.9839873,9.190798,6.959801,-10.028107,-5.3738165,4.084485,-8.071908,-16.744566,13.134525,-13.380842,7.4077053,-3.6455796,0.30811897,5.807091,15.524463,13.51901,-93.75799,38.444874,23.352974,-13.106837,-4.145053,22.227627,-9.190184,79.10321,36.876007,-31.17839,-8.673362,7.617609
173,-0.18701587617397308,2.185649871826172,77.86144256591797,0.46147302176509614,-2.8186518585296563,-89.48964762451536,4.225409,3.930674,9.211233,6.955205,-10.024398,-5.395598,3.742766,-8.195134,-16.681597,13.668524,-13.642178,7.3317475,-3.637029,0.2828415,5.7614813,15.510485,13.515961,-93.75846,38.441555,23.335987,-13.125478,-4.1479654,22.215721,-9.193612,79.08475,36.88855,-31.164595,-8.6825,7.629115
174,-0.1932157576084137,2.1907172203063965,77.85232543945312,0.5195649234912643,-2.737682328454625,-89.51257826375445,4.138246,3.870542,9.234053,6.9498405,-10.019509,-5.4250855,3.3725688,-8.3332815,-16.613638,14.261694,-13.930181,7.241935,-3.6271214,0.25334236,5.721945,15.494355,13.511104,-93.7612,38.446224,23.376917,-13.136092,-4.1,22.196316,-9.198486,79.063034,36.90146,-31.160198,-8.697424,7.6483226
175,-0.20381195843219757,2.1814703941345215,77.841064453125,0.5807613993737234,-2.66263845840435,-89.53330970832228,4.0590453,3.8092608,9.254734,6.9450097,-10.018336,-5.4586964,3.0165062,-8.470525,-16.5478,14.845095,-14.220172,7.149254,-3.620093,0.22079371,5.6875424,15.4785,13.50464,-93.76588,38.45561,23.44097,-13.140778,-4.036509,22.177505,-9.204601,79.03406,36.91146,-31.147755,-8.720006,7.668064
176,-0.21155588328838348,2.174550771713257,77.8265151977539,0.6371643584536264,-2.5993434737331507,-89.54583873627185,3.9963799,3.7530215,9.268145,6.9409027,-10.02481,-5.492937,2.7079458,-8.594615,-16.490871,15.370703,-14.491633,7.064814,-3.622904,0.18929063,5.655267,15.472126,13.494799,-93.770836,38.463196,23.496166,-13.139879,-3.9924357,22.168282,-9.213958,78.99479,36.91522,-31.108084,-8.752549,7.6801486
177,-0.22179409861564636,2.1665408611297607,77.8116226196289,0.6930909510004292,-2.549335506482823,-89.54917064450679,3.9560513,3.7000136,9.273814,6.9291043,-10.036352,-5.5252733,2.45193,-8.705559,-16.442701,15.834592,-14.744793,6.991927,-3.6435902,0.15019079,5.621804,15.482833,13.489803,-93.76595,38.46385,23.533968,-13.134071,-3.977073,22.172367,-9.219294,78.95553,36.914574,-31.011438,-8.798027,7.6678805
178,-0.23533499240875244,2.152529716491699,77.79991912841797,0.7463762838998351,-2.5093489535453197,-89.54638779216948,3.9227362,3.6498642,9.273578,6.9340973,-10.0644245,-5.5581284,2.228911,-8.809788,-16.400232,16.266102,-14.9911785,6.924731,-3.6555085,0.116630286,5.5956416,15.492308,13.474143,-93.77363,38.472008,23.570576,-13.125622,-3.9757657,22.188025,-9.239303,78.868935,36.891582,-30.889454,-8.863499,7.655145
179,-0.2550843060016632,2.135990619659424,77.78907775878906,0.7973677728367897,-2.4786564886581206,-89.53798303459725,3.9046986,3.60467,9.268217,6.9324455,-10.0918865,-5.5955133,2.040307,-8.903373,-16.366526,16.656652,-15.223958,6.859955,-3.6891818,0.078603394,5.5699067,15.513801,13.466675,-93.76894,38.47151,23.617281,-13.109533,-3.975236,22.205593,-9.250474,78.809265,36.880142,-30.771288,-8.924599,7.643083
180,-0.2772541046142578,2.109400987625122,77.77554321289062,0.8429675418003721,-2.4566190805942147,-89.52509292743277,3.8993547,3.5685642,9.2581835,6.9298625,-10.120094,-5.6410527,1.884559,-8.982837,-16.34355,17.004791,-15.44055,6.7942905,-3.722499,0.04954402,5.551332,15.531911,13.457951,-93.77429,38.472736,23.68124,-13.087081,-3.9688122,22.223305,-9.264573,78.74966,36.871532,-30.713936,-8.974226,7.663679
181,-0.3031836450099945,2.072216510772705,77.76256561279297,0.8801959469116776,-2.4490757350964203,-89.50430594195952,3.9126408,3.5442107,9.240629,6.9281983,-10.149238,-5.694708,1.778388,-9.045023,-16.33831,17.293266,-15.6352825,6.7288938,-3.7679796,0.024627065,5.539872,15.551657,13.451468,-93.78262,38.475304,23.770119,-13.051736,-3.9612038,22.248732,-9.274522,78.705864,36.872993,-30.746809,-9.00076,7.726914
182,-0.3298947215080261,2.029932737350464,77.75186157226562,0.9107331172745619,-2.4543802158760943,-89.47615831112968,3.9430156,3.528901,9.216114,6.9266915,-10.180471,-5.7547307,1.716486,-9.092865,-16.347755,17.529455,-15.81169,6.66477,-3.8196695,0.0065166363,5.5350003,15.57359,13.44306,-93.79817,38.479305,23.878061,-13.005624,-3.9546955,22.284657,-9.28592,78.65904,36.878414,-30.844173,-9.01578,7.821547
183,-0.35569795966148376,2.001765251159668,77.74005889892578,0.9389370067808539,-2.460444687985579,-89.44834627759583,3.9750965,3.5191476,9.190683,6.9251547,-10.212897,-5.8227406,1.6649182,-9.13231,-16.358442,17.747143,-15.980294,6.598565,-3.8703763,-0.006612543,5.533542,15.590782,13.434181,-93.817726,38.48432,23.990232,-12.961703,-3.9354007,22.308846,-9.296414,78.62406,36.886295,-30.94931,-9.03027,7.924437
184,-0.38475531339645386,1.9822388887405396,77.73020935058594,0.9663235341078119,-2.455243697503714,-89.42826153313966,3.9937937,3.511044,9.170245,6.923002,-10.245726,-5.900309,1.589191,-9.169605,-16.357159,17.980314,-16.150108,6.526867,-3.9131489,-0.014410974,5.531365,15.6018505,13.426422,-93.83704,38.487186,24.09458,-12.932537,-3.890063,22.318031,-9.305027,78.600685,36.893925,-31.029152,-9.056782,8.013717
185,-0.4042799174785614,1.9690159559249878,77.71870422363281,0.9919563107490798,-2.436526139259332,-89.41863501838235,3.9948313,3.504756,9.155421,6.9207954,-10.280526,-5.9896126,1.4849972,-9.202937,-16.339443,18.227625,-16.320583,6.449532,-3.9363816,-0.009894901,5.53279,15.594675,13.412197,-93.8716,38.495514,24.18509,-12.92557,-3.8013582,22.294518,-9.321132,78.5835,36.891907,-31.070656,-9.103644,8.086561
186,-0.43044522404670715,1.9463220834732056,77.70663452148438,1.0180778552610052,-2.4103504525254653,-89.41515760294597,3.9863296,3.5014503,9.143398,6.917565,-10.316175,-6.0891447,1.3660154,-9.231659,-16.312155,18.480986,-16.488848,6.3680215,-3.9575984,0.002166362,5.537065,15.580139,13.399935,-93.90333,38.4987,24.275072,-12.932379,-3.6835077,22.248688,-9.335542,78.58357,36.89393,-31.098154,-9.162505,8.151208
187,-0.46649450063705444,1.914177417755127,77.69490051269531,1.040832656651022,-2.3774783563066193,-89.41507931810668,3.9717052,3.5016813,9.134933,6.9151483,-10.3524,-6.195113,1.2373087,-9.257228,-16.280682,18.73786,-16.657858,6.28139,-3.970253,0.016062297,5.5381465,15.562494,13.384478,-93.93969,38.507378,24.355856,-12.942929,-3.559661,22.203804,-9.354361,78.58992,36.88469,-31.107494,-9.220493,8.213521
188,-0.5137857794761658,1.8759759664535522,77.68245697021484,1.0681834175440017,-2.3385935842115138,-89.41557703464346,3.9550374,3.5044296,9.130831,6.9119763,-10.385891,-6.3035383,1.103953,-9.2821045,-16.25025,18.995955,-16.831432,6.188836,-3.980474,0.025450643,5.530395,15.550798,13.363986,-93.97121,38.521385,24.42495,-12.947,-3.458193,22.171072,-9.380215,78.60652,36.86406,-31.086084,-9.266899,8.2775345
189,-0.5613817572593689,1.8133351802825928,77.66986846923828,1.0996903366167372,-2.296721375232308,-89.416125397371,3.942493,3.5091422,9.132304,6.90808,-10.41882,-6.420304,0.96620184,-9.308886,-16.220793,19.266691,-17.017893,6.0837245,-3.9906487,0.027345372,5.5095854,15.551125,13.339936,-93.99619,38.538147,24.503641,-12.939017,-3.3720748,22.168842,-9.412111,78.638054,36.829514,-31.020658,-9.3026705,8.353051
190,-0.6076818108558655,1.7601780891418457,77.66252899169922,1.1326532153718585,-2.2503658712706844,-89.41810391405672,3.929209,3.5163412,9.138528,6.904841,-10.451528,-6.545284,0.8225124,-9.335797,-16.189974,19.545813,-17.212748,5.968623,-3.994578,0.024303855,5.4804363,15.555895,13.324092,-94.02042,38.548065,24.585733,-12.925138,-3.292523,22.174944,-9.434748,78.68332,36.79791,-30.91146,-9.33326,8.434916
191,-0.6526739597320557,1.7337571382522583,77.65322875976562,1.166148571611852,-2.194555955998213,-89.42171451976988,3.9061658,3.5267947,9.147697,6.9009957,-10.479616,-6.665345,0.66885906,-9.359627,-16.15895,19.820944,-17.402912,5.856439,-3.9934168,0.022527022,5.4477596,15.559716,13.315942,-94.03642,38.548546,24.63298,-12.913458,-3.2455842,22.18114,-9.447248,78.72007,36.777542,-30.81261,-9.355257,8.504843
192,-0.7065848112106323,1.7236289978027344,77.6463623046875,1.1975383208258197,-2.1236424664908298,-89.42686949475191,3.861986,3.54158,9.157557,6.897524,-10.499314,-6.76743,0.5033981,-9.37701,-16.12955,20.075123,-17.572586,5.76009,-4.0012507,0.022235906,5.412585,15.562498,13.30417,-94.03588,38.55169,24.597878,-12.909982,-3.2500556,22.182714,-9.466581,78.75447,36.75555,-30.768635,-9.357209,8.536274
193,-0.7657299041748047,1.7107417583465576,77.63866424560547,1.2282787585798647,-2.0253947196496496,-89.43879399183605,3.7803724,3.562616,9.172136,6.8947544,-10.506401,-6.8459916,0.30702645,-9.38538,-16.096779,20.308146,-17.713995,5.6837916,-4.0044537,0.031624343,5.3759723,15.556426,13.294514,-94.01261,38.544373,24.43392,-12.922752,-3.3471694,22.152636,-9.483492,78.765915,36.75159,-30.796051,-9.3376665,8.522908
194,-0.8268353343009949,1.6860971450805664,77.63017272949219,1.2565978271947458,-1.9062924126943641,-89.45557584539259,3.6716294,3.5884054,9.190988,6.89205,-10.504022,-6.908898,0.08787427,-9.38703,-16.061968,20.5255,-17.835283,5.620359,-4.0104613,0.0451796,5.335356,15.546517,13.283196,-93.96633,38.532776,24.175228,-12.94595,-3.5136757,22.120157,-9.504499,78.76272,36.748512,-30.885967,-9.299464,8.476977
195,-0.8852594494819641,1.6549546718597412,77.61895751953125,1.2860252965196244,-1.7897422889284962,-89.46748375400217,3.5652065,3.6151063,9.205974,6.8894386,-10.499636,-6.9634433,-0.11864316,-9.386865,-16.034618,20.728271,-17.950615,5.565991,-4.013896,0.057558615,5.2978277,15.5345745,13.27836,-93.92879,38.520695,23.907188,-12.96737,-3.6823165,22.084124,-9.514094,78.75202,36.757576,-30.981129,-9.256087,8.415371
196,-0.9467661380767822,1.6056528091430664,77.61243438720703,1.3181909121408641,-1.6991309816870481,-89.46474095733996,3.4912603,3.6383443,9.209025,6.887123,-10.501387,-7.0163198,-0.27781445,-9.390089,-16.02422,20.918377,-18.074156,5.5168867,-4.028845,0.06068668,5.269944,15.533487,13.276275,-93.90361,38.521008,23.724277,-12.978808,-3.790272,22.069675,-9.518383,78.743225,36.763954,-31.055532,-9.2209635,8.357801
197,-1.0155905485153198,1.568245530128479,77.5997543334961,1.3565434788194153,-1.6490986111392005,-89.43531982250862,3.4652987,3.6535914,9.188961,6.885645,-10.51247,-7.0646224,-0.36304238,-9.4007635,-16.04166,21.088264,-18.210281,5.479855,-4.0673327,0.048918694,5.2645063,15.542923,13.274634,-93.88471,38.542374,23.657005,-12.979093,-3.8217306,22.078209,-9.52165,78.73667,36.761353,-31.10259,-9.199358,8.300963
198,-1.0894646644592285,1.5127164125442505,77.58538055419922,1.4016239641088766,-1.6224401476783372,-89.38819570966105,3.4667928,3.661166,9.154248,6.8853445,-10.528797,-7.1055775,-0.4043402,-9.419335,-16.077423,21.245815,-18.354017,5.454818,-4.1312757,0.0221005,5.271953,15.566671,13.270627,-93.84473,38.58087,23.665403,-12.97711,-3.8202655,22.106934,-9.528537,78.72896,36.749107,-31.152063,-9.186087,8.241615
199,-1.166365623474121,1.4588119983673096,77.57469177246094,1.444655042459428,-1.6011666982176984,-89.34309400238614,3.4771917,3.674088,9.1224785,6.884924,-10.545264,-7.1479764,-0.43297446,-9.432747,-16.115595,21.395113,-18.495863,5.426339,-4.1904845,-0.002900909,5.2801585,15.588806,13.268449,-93.82445,38.62195,23.703545,-12.969914,-3.7851958,22.13723,-9.53135,78.7239,36.738197,-31.180576,-9.172601,8.1898985
200,-1.2514853477478027,1.4027363061904907,77.56436157226562,1.4829968865635226,-1.564637789499401,-89.32095560658264,3.4763868,3.701488,9.11335,6.8836823,-10.558198,-7.1999693,-0.48675302,-9.432243,-16.137703,21.546656,-18.629133,5.379374,-4.2311954,-0.013873728,5.2808824,15.59992,13.267555,-93.813065,38.65031,23.746403,-12.963208,-3.738402,22.154364,-9.53201,78.71715,36.73215,-31.188917,-9.15834,8.166521
201,-1.3327957391738892,1.3405767679214478,77.55720520019531,1.5134488107610427,-1.5075993974810609,-89.32803039378082,3.458749,3.744061,9.13367,6.882294,-10.567229,-7.267775,-0.5804564,-9.4197035,-16.139277,21.71629,-18.759039,5.30257,-4.253079,-0.011115654,5.2721243,15.605862,13.266082,-93.79262,38.666073,23.825014,-12.9612055,-3.6752183,22.146149,-9.532722,78.70365,36.732002,-31.165527,-9.1415415,8.194497
202,-1.414319634437561,1.2980637550354004,77.54429626464844,1.5403248369497164,-1.4416457447246933,-89.35282700859774,3.4364984,3.7986722,9.17221,6.8809295,-10.574671,-7.346225,-0.6886606,-9.395821,-16.13087,21.888174,-18.883957,5.2060914,-4.26646,0.0021797176,5.261935,15.606464,13.263299,-93.76687,38.674625,23.938486,-12.959927,-3.590354,22.12784,-9.533896,78.68455,36.73322,-31.12222,-9.123123,8.256598
203,-1.5056902170181274,1.2542378902435303,77.5363998413086,1.5657061817525653,-1.3677797998536776,-89.39042706511579,3.4090984,3.8598332,9.223994,6.8786674,-10.57923,-7.4247465,-0.80599886,-9.363645,-16.111597,22.051226,-18.999575,5.1085505,-4.268374,0.020825446,5.24812,15.5978565,13.261147,-93.75015,38.679646,24.038927,-12.960261,-3.507417,22.09699,-9.53484,78.67004,36.737114,-31.067114,-9.112928,8.325596
204,-1.5984151363372803,1.1860004663467407,77.5323486328125,1.5913899644159382,-1.288088728821312,-89.43547144721153,3.3754451,3.9236856,9.282747,6.877744,-10.581348,-7.493144,-0.9244931,-9.3243475,-16.081688,22.190601,-19.099821,5.02854,-4.2618184,0.041230917,5.227849,15.581394,13.259422,-93.74198,38.68283,24.08083,-12.963788,-3.455676,22.066338,-9.53557,78.6622,36.741066,-31.025589,-9.121308,8.375613
205,-1.6852730512619019,1.1200066804885864,77.52777862548828,1.621414650482922,-1.1832406462960674,-89.50476189192177,3.3145835,3.9865866,9.367263,6.875445,-10.575904,-7.5428953,-1.0875317,-9.281961,-16.017708,22.3272,-19.183603,4.971075,-4.2322793,0.06826916,5.2141333,15.527881,13.254645,-93.72871,38.682182,24.038338,-12.979449,-3.4588583,21.995049,-9.537382,78.64904,36.752796,-30.999693,-9.171291,8.409242
206,-1.7904069423675537,0.9011844992637634,77.5157241821289,1.652712944860875,-1.0605135975743212,-89.59360361125492,3.2344894,4.0537214,9.472033,6.873726,-10.565248,-7.581975,-1.2788612,-9.231712,-15.930075,22.454412,-19.251104,4.9260535,-4.183308,0.10046873,5.1893754,15.459383,13.250928,-93.72444,38.677807,23.935352,-13.001149,-3.493383,21.90756,-9.538758,78.64565,36.770218,-30.973793,-9.24571,8.430442
207,-1.8827226161956787,0.9355836510658264,77.51334381103516,1.6812990003128585,-0.9543499235629801,-89.6707094226277,3.1758945,4.1254425,9.562637,6.8723707,-10.5563755,-7.6228175,-1.4241813,-9.173011,-15.858776,22.544907,-19.311384,4.890154,-4.146281,0.13057983,5.171953,15.39649,13.244829,-93.72361,38.677612,23.827639,-13.02083,-3.530672,21.836111,-9.540802,78.64203,36.780586,-30.961226,-9.317796,8.44652
208,-1.9762318134307861,0.9868077039718628,77.50627136230469,1.7032960101517716,-0.899787878813675,-89.70399596142815,3.1799867,4.2030277,9.604066,6.872486,-10.557347,-7.677886,-1.4462987,-9.10355,-15.845048,22.565866,-19.370604,4.85987,-4.1475525,0.14964563,5.1652417,15.3727455,13.241632,-93.73085,38.68914,23.770441,-13.030717,-3.54187,21.802614,-9.541732,78.64592,36.776787,-30.943111,-9.359626,8.464537
209,-2.079617500305176,0.9394786357879639,77.49334716796875,1.7196619666219175,-0.931808415182641,-89.66822118814757,3.2822871,4.2843475,9.569071,6.889839,-10.584857,-7.75348,-1.2818576,-9.029428,-15.919568,22.509052,-19.44293,4.844433,-4.212886,0.14620338,5.1946397,15.397017,13.23956,-93.74782,38.7181,23.788944,-13.026518,-3.5085583,21.826948,-9.542055,78.65548,36.749817,-30.9212,-9.354634,8.481528
210,-2.196497678756714,0.805108904838562,77.47537231445312,1.7219959351833227,-1.023688213716955,-89.58309578838693,3.4496367,4.3809543,9.478366,6.9246125,-10.63262,-7.8429084,-0.98660517,-8.940197,-16.058079,22.394993,-19.523249,4.841956,-4.3146243,0.13653372,5.22723,15.470115,13.237114,-93.81008,38.76712,23.836475,-13.005746,-3.4326973,21.898151,-9.541556,78.693535,36.704178,-30.870031,-9.311454,8.486489
211,-2.3180906772613525,0.667387843132019,77.45966339111328,1.7148359077101074,-1.1171088362077062,-89.49372998877801,3.618479,4.4901147,9.381225,6.962077,-10.67917,-7.9360747,-0.67093533,-8.833911,-16.204506,22.248228,-19.594107,4.8345876,-4.4233947,0.13397537,5.2635155,15.541392,13.238597,-93.85335,38.81061,23.90043,-12.985729,-3.3673959,21.980387,-9.539324,78.71672,36.658062,-30.852867,-9.268556,8.497645
212,-2.447289228439331,0.5511951446533203,77.45231628417969,1.6937701989262397,-1.1546466394064658,-89.44174559898303,3.7162604,4.622533,9.321268,7.007381,-10.713202,-8.023158,-0.44764656,-8.700222,-16.308157,22.103563,-19.64419,4.8039656,-4.4932165,0.16381234,5.2795177,15.577357,13.2418165,-93.878105,38.839756,23.94128,-12.971061,-3.3348832,22.014551,-9.536451,78.730675,36.629234,-30.850481,-9.248877,8.515019
213,-2.5678560733795166,0.4759509563446045,77.44659423828125,1.6533207585480398,-1.1093870344774934,-89.44787774101307,3.7089624,4.7873273,9.317929,7.063978,-10.731714,-8.102826,-0.3658379,-8.528565,-16.346903,21.969793,-19.66415,4.738051,-4.506814,0.24085823,5.2625465,15.556296,13.245487,-93.87662,38.845592,23.9428,-12.961571,-3.3626978,21.988298,-9.53295,78.729805,36.624325,-30.88223,-9.261464,8.545186
214,-2.6778931617736816,0.41762813925743103,77.43968200683594,1.5964965818741796,-1.0157488724309773,-89.4862632744585,3.6407394,4.977637,9.344884,7.127343,-10.742518,-8.17898,-0.358159,-8.326212,-16.35168,21.827457,-19.661707,4.648803,-4.4918923,0.34969303,5.226336,15.504724,13.249239,-93.84775,38.838146,23.931387,-12.955496,-3.4317687,21.936342,-9.528535,78.71141,36.634113,-30.95484,-9.29314,8.586086
215,-2.7993311882019043,0.33594295382499695,77.43265533447266,1.53231126738262,-0.9083097061486969,-89.52897970680786,3.275157,5.22432,9.350538,7.7899876,-11.059178,-8.256809,-0.3624381,-8.1094,-16.351347,21.667702,-19.650438,4.554048,-4.4713364,0.4697407,5.186347,15.4479065,13.252061,-93.815056,38.832195,23.916048,-12.954128,-3.4928434,21.874638,-9.524215,78.69199,36.644867,-31.033136,-9.331802,8.622749
216,-2.918002128601074,0.2545555531978607,77.42693328857422,1.4688806576863145,-0.8219954637751384,-89.54827693560426,2.9187543,5.4695153,9.331111,8.481639,-11.3823,-8.341017,-0.3159153,-7.894241,-16.374075,21.479696,-19.642822,4.4714055,-4.4692574,0.58045137,5.1590996,15.417075,13.253839,-93.79446,38.84097,23.913643,-12.960228,-3.500185,21.824785,-9.521094,78.68059,36.646492,-31.093904,-9.3672,8.642464
217,-3.0385420322418213,0.17665718495845795,77.41981506347656,1.410904299620319,-0.7700357628754814,-89.53324700274435,2.6077735,5.706604,9.278693,9.158482,-11.695768,-8.436183,-0.18955834,-7.681799,-16.429695,21.248081,-19.641054,4.4083557,-4.5003724,0.675441,5.1534014,15.421176,13.257934,-93.78396,38.86921,23.931753,-12.9831085,-3.422446,21.809454,-9.513592,78.664444,36.634396,-31.16149,-9.401413,8.635728
218,-3.1667022705078125,0.10010051727294922,77.40667724609375,1.349996499685059,-0.7320919389580136,-89.50014861354475,2.3111145,5.9436703,9.207805,9.836653,-12.004795,-8.538733,-0.020591356,-7.464477,-16.5018,20.98049,-19.637388,4.354613,-4.545979,0.76656145,5.1542926,15.446801,13.26032,-93.790695,38.912586,23.955765,-13.015668,-3.2846797,21.805655,-9.509532,78.65645,36.610424,-31.220861,-9.435201,8.606918
219,-3.2921340465545654,0.01308341883122921,77.39591979980469,1.2863708428208402,-0.6933821197348655,-89.460897845997,1.9879376,6.187123,9.127498,10.564615,-12.322396,-8.64161,0.15340956,-7.2430773,-16.580194,20.70507,-19.632746,4.3005943,-4.58615,0.86027074,5.157304,15.476537,13.264054,-93.80854,38.957413,23.977442,-13.043039,-3.140807,21.80659,-9.503504,78.648926,36.585827,-31.267736,-9.464704,8.576495
220,-3.414628744125366,-0.08064612001180649,77.38545227050781,1.2207543003802017,-0.6390039411925531,-89.42797540391149,1.6038419,6.4407654,9.0476,11.376517,-12.653418,-8.737547,0.29218316,-7.021356,-16.653769,20.455753,-19.630316,4.2369637,-4.6104627,0.95814776,5.1555066,15.499703,13.268468,-93.822754,38.994896,23.990765,-13.049619,-3.0428085,21.80067,-9.496985,78.65624,36.56606,-31.286705,-9.482169,8.559552
221,-3.5437211990356445,-0.16470016539096832,77.37093353271484,1.1491397545484923,-0.5626974990801916,-89.40649655526245,1.1553692,6.7108502,8.977219,12.267397,-13.007982,-8.826366,0.38568765,-6.794294,-16.721262,20.23397,-19.628864,4.157697,-4.6164403,1.0626482,5.1455383,15.51642,13.27704,-93.82366,39.01994,23.97991,-13.026565,-3.022601,21.776434,-9.485791,78.70136,36.560215,-31.257105,-9.479281,8.549549
222,-3.6681129932403564,-0.23547397553920746,77.35202026367188,1.070934925340052,-0.47320656105423636,-89.38927555351755,0.657796,6.9937143,8.907984,13.225948,-13.380329,-8.911191,0.45498827,-6.5619807,-16.78813,20.024761,-19.627537,4.068917,-4.6207056,1.1699814,5.131562,15.536099,13.288884,-93.80508,39.03629,23.957077,-12.984681,-3.0491176,21.743912,-9.472206,78.78101,36.561775,-31.194798,-9.461797,8.540943
223,-3.792896032333374,-0.312950074672699,77.33879852294922,0.9927092101745596,-0.3776024314266178,-89.36996928347813,0.11205719,7.2798533,8.822908,14.260766,-13.748773,-8.990553,0.5096879,-6.332176,-16.854918,19.830505,-19.627588,3.979221,-4.626331,1.2751122,5.118163,15.555037,13.303051,-93.78032,39.047207,23.951853,-12.936083,-3.0751686,21.702187,-9.457933,78.86977,36.56828,-31.11388,-9.442164,8.549417
224,-3.9179749488830566,-0.3911876976490021,77.32379150390625,0.9204863642708748,-0.28320101768465356,-89.34202683866948,-0.49362186,7.5616174,8.703814,15.407825,-14.100317,-9.062797,0.55793434,-6.1128263,-16.922136,19.656246,-19.631773,3.897032,-4.6375523,1.3733289,5.107341,15.574958,13.316846,-93.76092,39.056965,23.996426,-12.892728,-3.0539153,21.676592,-9.445448,78.92908,36.570835,-31.056486,-9.433199,8.591358
225,-4.03920841217041,-0.4441326856613159,77.30714416503906,0.8534256240125111,-0.18363387045696897,-89.30059606995819,-1.1801608,7.8373103,8.539455,16.691517,-14.437909,-9.118475,0.5905353,-5.9055495,-16.990162,19.506544,-19.635292,3.824782,-4.6570086,1.4646618,5.094021,15.593485,13.324786,-93.75737,39.071495,24.127098,-12.849931,-2.950018,21.67418,-9.438864,78.94532,36.55846,-31.025948,-9.438127,8.698402
226,-4.166691780090332,-0.5216445326805115,77.29047393798828,0.7875744242635544,-0.07785519337570121,-89.24999030652539,-1.9324024,8.109738,8.34072,18.08061,-14.764269,-9.161923,0.60620445,-5.7057467,-17.058975,19.378944,-19.63922,3.757634,-4.684894,1.5515393,5.0788074,15.612243,13.341484,-93.7573,39.07139,24.32049,-12.801576,-2.7968335,21.661217,-9.426321,78.9563,36.554325,-30.97887,-9.449697,8.849335
227,-4.284358024597168,-0.6058692932128906,77.26932525634766,0.7235796542896805,0.019535543786995752,-89.19806561236136,-2.7105536,8.378348,8.122784,19.532898,-15.062967,-9.211812,0.62884164,-5.510153,-17.12857,19.25891,-19.649801,3.6930356,-4.7065654,1.6376711,5.075522,15.626333,13.350659,-93.76109,39.078907,24.502901,-12.764049,-2.6464107,21.647871,-9.419897,78.95234,36.548416,-30.941479,-9.466833,8.993398
228,-4.3984527587890625,-0.6897412538528442,77.24710845947266,0.661064231658613,0.09383328753000347,-89.15246170578948,-3.4705746,8.641942,7.902187,20.998178,-15.317007,-9.286158,0.6809095,-5.3174314,-17.198406,19.135363,-19.674713,3.6286693,-4.720552,1.7235368,5.093712,15.638004,13.3583555,-93.75577,39.085377,24.604448,-12.750721,-2.5524483,21.655695,-9.414655,78.93612,36.551697,-30.952127,-9.486918,9.072319
229,-4.512611389160156,-0.7911723256111145,77.22868347167969,0.5975956008465376,0.13771495486233318,-89.11445947002098,-4.1993313,8.902413,7.6808085,22.471577,-15.532768,-9.385561,0.7715301,-5.1271563,-17.269632,19.006292,-19.718979,3.566074,-4.719733,1.8121254,5.144503,15.643969,13.366449,-93.73574,39.089607,24.596827,-12.777393,-2.5393007,21.650259,-9.408955,78.91063,36.578106,-30.996609,-9.515803,9.049554
230,-4.6248860359191895,-0.8882976770401001,77.19745635986328,0.5348730435682229,0.16002485352845955,-89.08029527440078,-4.9206796,9.159422,7.4510155,23.977863,-15.716529,-9.500713,0.88667285,-4.9413157,-17.341566,18.879416,-19.77875,3.5058563,-4.717117,1.8988311,5.217211,15.648449,13.374904,-93.6974,39.090717,24.521667,-12.833311,-2.5768979,21.670439,-9.402182,78.864235,36.616707,-31.106258,-9.551885,8.961644
231,-4.728384494781494,-0.9609781503677368,77.1769790649414,0.476401705772235,0.17025068859616807,-89.04996603545052,-5.6480455,9.409069,7.2136426,25.514406,-15.850941,-9.634243,1.0174656,-4.7603774,-17.411184,18.751343,-19.844112,3.4442935,-4.707032,1.9817251,5.3016806,15.649414,13.379883,-93.664,39.093506,24.41398,-12.892364,-2.6331327,21.68505,-9.397548,78.82626,36.657074,-31.201525,-9.585812,8.866326
232,-4.830591201782227,-1.0103299617767334,77.15435028076172,0.42194285617182914,0.17780095648013547,-89.02363521752537,-6.393608,9.647331,6.969922,27.076902,-15.919792,-9.788322,1.1541219,-4.586063,-17.475346,18.6208,-19.906496,3.3777506,-4.6840067,2.0588777,5.3901067,15.646416,13.382602,-93.65073,39.097412,24.312567,-12.930878,-2.6811123,21.666378,-9.394803,78.81603,36.69023,-31.213116,-9.611806,8.826445
233,-4.926362991333008,-1.0759601593017578,77.13402557373047,0.3727304285952792,0.18056365793479692,-89.00772675418364,-7.161712,9.876331,6.716201,28.683805,-15.917846,-9.965444,1.297847,-4.417634,-17.530857,18.48796,-19.963322,3.302927,-4.6564274,2.125806,5.479537,15.6409,13.384156,-93.65123,39.09791,24.209602,-12.938392,-2.7269506,21.688707,-9.393279,78.81426,36.701862,-31.19571,-9.632806,8.878644
234,-5.026792049407959,-1.1844770908355713,77.11369323730469,0.3260286354153287,0.1749589862849826,-89.00002698900188,-7.946246,10.097662,6.451917,30.333132,-15.856028,-10.161368,1.4529536,-4.2550454,-17.580173,18.353313,-20.019419,3.2226472,-4.6039863,2.19045,5.582287,15.622495,13.385488,-93.6775,39.096256,24.091858,-12.929464,-2.7809966,21.646849,-9.392678,78.84333,36.713978,-31.057943,-9.654525,8.988612
235,-5.119720458984375,-1.2601481676101685,77.09598541259766,0.2860872345791063,0.16835688767921436,-88.98776509998092,-8.749656,10.306326,6.1828246,32.00281,-15.739842,-10.367588,1.614514,-4.1005197,-17.62859,18.214294,-20.075857,3.142557,-4.565618,2.2436564,5.677207,15.616525,13.386298,-93.703026,39.09495,23.981514,-12.914197,-2.8192227,21.680605,-9.3932705,78.863304,36.711964,-31.000877,-9.656517,9.085803
236,-5.209662914276123,-1.3685574531555176,77.07624053955078,0.2523793483711434,0.16777573436182816,-88.95798240788056,-9.572746,10.496469,5.9152284,33.66773,-15.573322,-10.575799,1.7792221,-3.9563215,-17.68139,18.06542,-20.132301,3.06853,-4.54795,2.286539,5.7553296,15.634233,13.386638,-93.717224,39.097363,23.91224,-12.907113,-2.825122,21.81737,-9.395762,78.839905,36.695217,-31.108065,-9.630709,9.116936
237,-5.299410820007324,-1.4601666927337646,77.05735778808594,0.22367785426062375,0.18008898860363723,-88.9126626062936,-10.427567,10.673428,5.643363,35.34776,-15.322453,-10.825671,1.9378837,-3.8174117,-17.733215,17.90166,-20.1839,2.9972684,-4.507849,2.337727,5.8413835,15.631307,13.3870735,-93.748436,39.10584,23.91056,-12.916676,-2.7822258,21.7354,-9.398332,78.88875,36.71786,-31.081354,-9.566804,9.042196
238,-5.381895065307617,-1.548016905784607,77.04296875,0.19866213640967337,0.2000687678153286,-88.85658721590077,-11.310636,10.837498,5.3656135,37.049416,-14.997059,-11.104387,2.0946546,-3.6856003,-17.783247,17.727867,-20.232843,2.9275138,-4.49865,2.377676,5.9102874,15.652093,13.38739,-93.75809,39.11501,23.952688,-12.931578,-2.7011526,21.755907,-9.401266,78.92126,36.727863,-31.231234,-9.46245,8.886537
239,-5.461381912231445,-1.6464084386825562,77.02983856201172,0.18578954759810723,0.21589611990760385,-88.78240565947713,-12.201837,10.979082,5.09499,38.736855,-14.672153,-11.327696,2.2679534,-3.5698183,-17.844568,17.551188,-20.28846,2.8679917,-4.4998584,2.4002352,5.977616,15.687373,13.387982,-93.76187,39.128937,24.002592,-12.947602,-2.619642,21.789978,-9.403648,78.94384,36.735207,-31.367136,-9.361061,8.74533
240,-5.544831275939941,-1.7870144844055176,77.0106430053711,0.1904563257816244,0.21598662800767673,-88.68280723507817,-13.077736,11.088352,4.847484,40.367172,-14.419976,-11.414348,2.476469,-3.478832,-17.92943,17.377544,-20.35927,2.827157,-4.517752,2.3904846,6.046428,15.747755,13.389666,-93.76093,39.14967,24.019636,-12.9570465,-2.5690863,21.850845,-9.4057665,78.9558,36.73115,-31.401274,-9.297118,8.699479
241,-5.624073505401611,-1.8676152229309082,76.99203491210938,0.21816453180651957,0.17978419861280298,-88.53509240197388,-13.933109,11.158095,4.617244,41.999905,-14.258349,-11.30728,2.7615933,-3.418233,-18.059942,17.194916,-20.453835,2.8142178,-4.5687437,2.3319743,6.122829,15.85292,13.392491,-93.75845,39.18813,24.000244,-12.955749,-2.556094,21.958843,-9.406173,78.949036,36.707207,-31.271828,-9.288523,8.808593
