unveil-humanoid-operators/unveil-humanoid-operators.github.io/feature-analysis-animation/data/feature_matrix_instances/age_ankle_rom_jogging_A058_exercise_2_003__A058.csv
Frame,root_translateX,root_translateY,root_translateZ,root_rotateX,root_rotateY,root_rotateZ,left_hip_pitch_joint_dof,left_hip_roll_joint_dof,left_hip_yaw_joint_dof,left_knee_joint_dof,left_ankle_pitch_joint_dof,left_ankle_roll_joint_dof,right_hip_pitch_joint_dof,right_hip_roll_joint_dof,right_hip_yaw_joint_dof,right_knee_joint_dof,right_ankle_pitch_joint_dof,right_ankle_roll_joint_dof,waist_yaw_joint_dof,waist_roll_joint_dof,waist_pitch_joint_dof,left_shoulder_pitch_joint_dof,left_shoulder_roll_joint_dof,left_shoulder_yaw_joint_dof,left_elbow_joint_dof,left_wrist_roll_joint_dof,left_wrist_pitch_joint_dof,left_wrist_yaw_joint_dof,right_shoulder_pitch_joint_dof,right_shoulder_roll_joint_dof,right_shoulder_yaw_joint_dof,right_elbow_joint_dof,right_wrist_roll_joint_dof,right_wrist_pitch_joint_dof,right_wrist_yaw_joint_dof
0,-1.470546007156372,1.3024933338165283,78.09911346435547,0.9108814851438838,-3.036459598034743,-84.95065347337545,5.3819003,2.9180408,1.1065204,7.5875635,-10.275394,-6.386736,6.3184876,-8.521464,-13.901828,8.154198,-11.470221,7.7308064,-0.8346759,-0.18242224,11.243295,-6.5639076,11.052097,-46.760967,62.69821,5.435707,-0.8499589,3.9909015,-1.2323868,-11.052072,33.796085,58.83873,-20.571278,-7.671242,1.645225
1,-1.4915003776550293,1.3100665807724,78.10344696044922,0.9249858356597489,-2.980389347599492,-84.87366568673986,5.3011293,2.9066358,1.0419679,7.565408,-10.234828,-6.3982434,6.295142,-8.531816,-13.983907,8.111058,-11.457288,7.7533364,-0.79109144,-0.20156415,11.344753,-6.6138196,11.015166,-46.564575,62.67468,5.4504147,-0.83511364,3.9951186,-1.2776775,-11.064827,33.77346,58.855606,-20.681223,-7.646697,1.5749344
2,-1.512954592704773,1.3121286630630493,78.11194610595703,0.9389744731283928,-2.929182452776671,-84.79944996936605,5.226581,2.8964982,0.9799687,7.544966,-10.19685,-6.409959,6.274648,-8.5419445,-14.061858,8.07371,-11.446945,7.773398,-0.75884354,-0.22174777,11.448073,-6.657822,10.984987,-46.377964,62.65553,5.4731283,-0.81724846,3.9989944,-1.3234243,-11.079501,33.76151,58.869076,-20.793858,-7.623394,1.5074052
3,-1.5326519012451172,1.3216135501861572,78.12114715576172,0.9541241353872573,-2.868250605707659,-84.71992162229573,5.140394,2.8839989,0.9129248,7.5198584,-10.153255,-6.4209027,6.2461085,-8.553825,-14.147411,8.030282,-11.434561,7.7985826,-0.73484844,-0.23738626,11.551563,-6.696622,10.946438,-46.12879,62.608845,5.4934196,-0.8058716,4.000391,-1.3765396,-11.102881,33.763805,58.882927,-20.892206,-7.595465,1.4351827
4,-1.5523760318756104,1.3287264108657837,78.13292694091797,0.9702394843947953,-2.78299731822499,-84.62699675719745,5.02418,2.8650475,0.8333406,7.484889,-10.096191,-6.4300885,6.200199,-8.568975,-14.2531185,7.9662437,-11.414781,7.8363066,-0.70879346,-0.24472772,11.651949,-6.7207694,10.89492,-45.756386,62.486652,5.4983273,-0.8085501,3.998991,-1.4346204,-11.140243,33.779324,58.89397,-20.958614,-7.556259,1.3492801
5,-1.5671948194503784,1.3454971313476562,78.14356994628906,0.9922146049808536,-2.6809818249735553,-84.52541516749602,4.8885465,2.8357105,0.7477528,7.441682,-10.030126,-6.4335437,6.142989,-8.595532,-14.375117,7.887858,-11.396335,7.8953643,-0.6732143,-0.24671146,11.75901,-6.731485,10.833304,-45.25221,62.302174,5.4988313,-0.8069799,3.9663603,-1.4949992,-11.191091,33.80666,58.904736,-21.0025,-7.5099335,1.2464325
6,-1.586822748184204,1.3560768365859985,78.15904998779297,1.0180337377163977,-2.5664677602970474,-84.41715511715962,4.738365,2.7990417,0.6573437,7.3911257,-9.956188,-6.4327884,6.0778346,-8.630781,-14.509032,7.7974014,-11.3778,7.969298,-0.62189215,-0.2489526,11.871128,-6.7306557,10.774908,-44.66408,62.062107,5.4915743,-0.80244577,3.9123378,-1.5570847,-11.243691,33.82962,58.91893,-21.0348,-7.4589505,1.131116
7,-1.6019566059112549,1.3751747608184814,78.1773452758789,1.0405397981816589,-2.4190395396858118,-84.29024448111728,4.5470552,2.7624288,0.54645205,7.328721,-9.864234,-6.435483,5.984633,-8.662349,-14.6653185,7.688194,-11.345625,8.042974,-0.5750376,-0.24291116,11.969785,-6.711813,10.714928,-43.982452,61.720078,5.446498,-0.83421576,3.891872,-1.6264561,-11.302405,33.860535,58.926476,-21.028069,-7.3927445,1.0070218
8,-1.618929147720337,1.4035024642944336,78.19971466064453,1.0504570076824504,-2.2182498147686713,-84.1327453366879,4.2871175,2.7333648,0.3994874,7.252466,-9.746285,-6.4499736,5.8378134,-8.678391,-14.853669,7.5653534,-11.292633,8.101261,-0.532059,-0.22087027,12.036047,-6.6739945,10.658449,-43.229477,61.224445,5.320901,-0.9398531,3.960498,-1.7051039,-11.364578,33.887238,58.9216,-20.961424,-7.3022094,0.87736344
9,-1.6332937479019165,1.4293690919876099,78.22296905517578,1.0570192245377377,-1.9598475440046028,-83.94688083126049,3.9588454,2.7005959,0.22699511,7.154468,-9.611361,-6.4651184,5.6328373,-8.694955,-15.074466,7.4281874,-11.215918,8.152754,-0.505711,-0.19086656,12.067853,-6.604822,10.600236,-42.34365,60.565388,5.1182976,-1.1344709,4.137887,-1.7997577,-11.4403515,33.952354,58.908104,-20.878403,-7.150382,0.7391052
10,-1.642661213874817,1.4694609642028809,78.24817657470703,1.0633614217667013,-1.654798262422734,-83.7373254921403,3.5770488,2.6646,0.03260846,7.033898,-9.457858,-6.481814,5.380695,-8.715838,-15.322224,7.28013,-11.122779,8.201004,-0.47334576,-0.15617962,12.074784,-6.514011,10.550103,-41.36645,59.76448,4.842439,-1.3956648,4.3923244,-1.9025015,-11.519312,34.025036,58.88862,-20.779158,-6.955005,0.5917202
11,-1.6553881168365479,1.5257923603057861,78.2750473022461,1.0437639649318624,-1.3058973016664694,-83.49571786400648,3.1262507,2.64965,-0.20992917,6.9209566,-9.273104,-6.5274124,5.0904617,-8.706827,-15.600397,7.1072116,-11.007339,8.223363,-0.4536192,-0.09173561,12.057867,-6.4015026,10.506805,-40.3518,58.813778,4.5100055,-1.7097144,4.6972113,-2.0077999,-11.602111,34.06775,58.84265,-20.55654,-6.7851076,0.44235426
12,-1.6680681705474854,1.587186336517334,78.30648803710938,0.9786832907936922,-0.9148514946819901,-83.21535446820492,2.5626502,2.670212,-0.52545696,6.9057703,-9.076403,-6.627949,4.72219,-8.653827,-15.904041,6.997008,-10.916157,8.198447,-0.45201582,0.019091988,12.01761,-6.278026,10.467061,-39.372467,57.712116,4.1287622,-2.0624902,5.0274467,-2.1069434,-11.69058,34.03186,58.747738,-20.102892,-6.710851,0.2987471
13,-1.6881184577941895,1.6574816703796387,78.33292388916016,0.8815793744418102,-0.4414570397429223,-82.88236083756583,1.8776402,2.738405,-0.85883635,6.887748,-8.849636,-6.7911124,4.2155666,-8.56732,-16.244192,6.9820247,-10.863553,8.115485,-0.4728813,0.16912833,11.919535,-6.1526475,10.428921,-38.42688,56.440468,3.6516306,-2.4852726,5.391689,-2.1939173,-11.7855015,33.902973,58.613483,-19.384382,-6.7593083,0.16981533
14,-1.7025638818740845,1.7362598180770874,78.34174346923828,0.6994404553939507,0.10101675447388286,-82.49905022394859,0.5982413,2.9004378,-1.2551372,7.907622,-9.14235,-6.996775,3.6344335,-8.384115,-16.637518,6.962145,-10.7978525,7.987257,-0.5151715,0.41340747,11.775965,-6.0192013,10.390808,-37.483963,55.005955,3.0936575,-2.9750788,5.7957864,-2.2742226,-11.888161,33.70427,58.446896,-18.459349,-6.8915763,0.051761486
15,-1.7106831073760986,1.8270299434661865,78.33302307128906,0.4693396249015327,0.629402347879543,-82.1009015825372,-1.3947256,3.055626,-1.8234935,10.456642,-10.135317,-7.2235045,3.0696568,-8.149921,-17.04772,6.9418178,-10.727818,7.833735,-0.5577761,0.70709425,11.660241,-5.879957,10.3500595,-36.582657,53.45672,2.542081,-3.465792,6.213353,-2.3445113,-11.9994135,33.436337,58.209312,-17.365122,-7.0783477,-0.06598844
16,-1.7253117561340332,1.9274048805236816,78.3141098022461,0.22731836892934768,1.0663642236987758,-81.7185085525421,-3.353286,3.12283,-2.6257694,13.178728,-11.023913,-7.468412,2.6065419,-7.904587,-17.439915,6.9246163,-10.661945,7.671194,-0.5805668,1.0049685,11.637343,-5.7340264,10.3013935,-35.76002,51.8394,2.090358,-3.8892248,6.6210175,-2.4027705,-12.122289,33.096394,57.864273,-16.13898,-7.2908425,-0.1943933
17,-1.7404409646987915,2.026052236557007,78.28678894042969,-0.06222007761012913,1.4060317290856557,-81.33151038959988,-5.2972207,3.123523,-3.6812482,16.11984,-11.822822,-7.7671747,2.2607255,-7.6081686,-17.83464,6.9100957,-10.604962,7.4832387,-0.5927835,1.3500941,11.714692,-5.5785966,10.239996,-35.016636,50.12705,1.741756,-4.22967,7.0164423,-2.4303226,-12.258999,32.66458,57.39585,-14.728042,-7.537285,-0.33362433
18,-1.735512375831604,2.1205968856811523,78.25144958496094,-0.40116945218835653,1.6888378540591746,-80.93244580514087,-7.298238,3.0616124,-4.935639,19.331856,-12.601636,-8.126312,1.9883486,-7.2545943,-18.242525,6.893412,-10.550724,7.267056,-0.59992546,1.746467,11.856067,-5.4202867,10.164004,-34.33715,48.312717,1.4527763,-4.5207605,7.4143457,-2.4340894,-12.411701,32.144943,56.82425,-13.132005,-7.828982,-0.47378793
19,-1.7214577198028564,2.1914334297180176,78.21497344970703,-0.7391247800272333,1.907012359611069,-80.56729423759676,-9.231668,2.8519106,-6.3701816,22.636896,-13.261177,-8.517381,1.7825029,-6.895855,-18.61556,6.879219,-10.496627,7.055095,-0.58095425,2.1292737,12.060767,-5.2730556,10.072514,-33.737774,46.474125,1.2416372,-4.767917,7.818909,-2.4401515,-12.581512,31.56958,56.156994,-11.469908,-8.141314,-0.6120662
20,-1.7038772106170654,2.2506654262542725,78.17472076416016,-1.0254034066071578,2.0508937231203723,-80.28199621583684,-10.968831,2.4145615,-7.9635305,25.85938,-13.704104,-8.912925,1.6398567,-6.584735,-18.901114,6.868939,-10.438476,6.876639,-0.51325995,2.4328973,12.32801,-5.150562,9.96551,-33.236107,44.690742,1.1271497,-4.9769683,8.234091,-2.4784331,-12.770026,30.973997,55.40754,-9.859297,-8.449743,-0.7486797
21,-1.673620581626892,2.3099114894866943,78.13069152832031,-1.3017209703024424,2.097985243498871,-80.03471692297461,-12.522714,1.6310596,-10.031771,29.170534,-13.861331,-9.367154,1.6072773,-6.306318,-19.138325,6.862114,-10.419701,6.7112265,-0.4107656,2.7058434,12.673562,-5.060115,9.841341,-32.86576,42.952766,1.1419867,-5.1299376,8.684051,-2.5378463,-12.984583,30.355486,54.577557,-8.29848,-8.761746,-0.870747
22,-1.6300857067108154,2.355799913406372,78.0931396484375,-1.5940733517962882,2.0582900986426322,-79.81809425385474,-13.887417,0.55314153,-12.463023,32.56024,-13.790711,-9.926023,1.6767247,-6.034757,-19.331259,6.8599277,-10.429743,6.54306,-0.27792913,2.9811444,13.093182,-4.9921675,9.698902,-32.609818,41.228928,1.2672744,-5.2285094,9.160735,-2.6028473,-13.228659,29.699137,53.654243,-6.734948,-9.085543,-0.98029464
23,-1.5686830282211304,2.414699077606201,78.05715942382812,-1.8383095041221655,1.9694967230969915,-79.72780117217837,-14.958628,-0.56878406,-14.626723,35.611286,-13.587378,-10.49781,1.7668988,-5.7991943,-19.378607,6.8581896,-10.377449,6.3995123,-0.08052597,3.1796124,13.554346,-4.9346404,9.540843,-32.40824,39.567043,1.4427692,-5.308775,9.618787,-2.7070367,-13.495123,29.026623,52.64008,-5.211096,-9.397752,-1.104768
24,-1.4995568990707397,2.471158266067505,78.02606964111328,-1.9482608537337007,1.8682313796134382,-79.85948509577388,-15.741567,-1.4440696,-15.914883,38.0119,-13.387009,-10.92711,1.7208107,-5.680906,-19.17218,7.024009,-10.262062,6.301294,0.21312137,3.2007596,14.0269375,-4.8740907,9.3714695,-32.19578,38.01274,1.6093177,-5.408383,10.01285,-2.8962233,-13.768452,28.364649,51.549988,-3.7689934,-9.676407,-1.2751589
25,-1.4338040351867676,2.5235531330108643,77.96713256835938,-1.8113532041922487,1.7934768706092201,-80.26585260908809,-16.304718,-1.9810712,-16.0258,39.61534,-13.090791,-11.099737,0.81377316,-6.057631,-18.587446,8.860109,-10.961895,6.290373,0.66001546,2.9234285,14.486846,-4.8087335,9.189453,-31.95649,36.56577,1.7860068,-5.532596,10.345438,-3.2048059,-14.03693,27.736797,50.469627,-2.410988,-9.92176,-1.5238813
26,-1.356499195098877,2.5917177200317383,77.88431549072266,-1.473881042517108,1.7255759642765642,-80.89189497612684,-16.660435,-2.302467,-15.335035,40.594532,-12.648839,-11.05617,-1.1608005,-6.9870687,-17.620802,12.868295,-12.748809,6.3159113,1.2324297,2.4015918,14.953038,-4.742212,8.996203,-31.71944,35.209003,1.994648,-5.662973,10.634869,-3.617034,-14.294575,27.1342,49.38604,-1.116516,-10.1455345,-1.8320794
27,-1.2740163803100586,2.65140700340271,77.76705169677734,-1.0293557891596856,1.6132612125437933,-81.67707171778066,-16.788397,-2.4923635,-14.226142,41.192413,-12.306559,-10.861127,-3.4196692,-8.068489,-16.36792,17.372265,-14.534372,6.2693286,1.8402481,1.7383714,15.459533,-4.667498,8.804885,-31.487034,33.958332,2.1790748,-5.8026037,10.858743,-4.1031866,-14.531435,26.529768,48.163986,0.10217993,-10.34103,-2.155353
28,-1.1815208196640015,2.697097063064575,77.63287353515625,-0.5849225335610865,1.4003955621970072,-82.55925415553125,-16.669281,-2.6347423,-13.094134,41.64848,-12.306245,-10.603867,-5.8048544,-9.083968,-14.888719,22.158186,-15.995318,6.0750995,2.3888147,1.0493143,16.036737,-4.572694,8.636654,-31.259722,32.819874,2.2810438,-5.954847,10.993679,-4.634502,-14.734502,25.897842,46.666332,1.2347314,-10.49901,-2.4493835
29,-1.0849987268447876,2.7322838306427,77.46839904785156,-0.14079238902510538,1.0438974022817733,-83.60826180323981,-16.177593,-2.7268658,-11.956071,41.847206,-12.724879,-10.297572,-8.296776,-9.937443,-13.157781,27.274242,-16.958405,5.6904483,2.9198923,0.31954965,16.71946,-4.401104,8.5056505,-31.000008,31.741592,2.2974608,-6.116441,11.000439,-5.1998396,-14.890559,25.210157,44.88443,2.2732334,-10.599856,-2.7131417
30,-0.9976809620857239,2.7636327743530273,77.25535583496094,0.35473346774179587,0.5847219870032834,-84.82797582147073,-15.351067,-2.7546518,-10.639736,41.708214,-13.424814,-9.916066,-10.91226,-10.655371,-11.188458,32.679634,-17.551779,5.220607,3.460014,-0.49821296,17.487913,-4.164648,8.417558,-30.71417,30.718702,2.2518063,-6.286291,10.901178,-5.83146,-14.993955,24.495926,42.896187,3.2251794,-10.651029,-2.972217
31,-0.9218604564666748,2.7868313789367676,77.00011444091797,0.853833483720646,0.0875375770989002,-86.05882400364659,-14.435263,-2.765182,-9.265267,41.536163,-14.327644,-9.4925165,-13.56214,-11.199265,-9.127714,38.137146,-17.948639,4.835503,3.8891578,-1.3288683,18.276262,-3.9531639,8.382241,-30.470278,29.829681,2.124388,-6.471492,10.763953,-6.564576,-15.049549,23.8154,40.690887,4.103956,-10.682694,-3.2211537
32,-0.8318564891815186,2.8101389408111572,76.6987533569336,1.3030651747373108,-0.3868684121996537,-87.13996624750354,-13.682561,-2.7855382,-7.950855,41.643757,-15.3587675,-9.054443,-16.183233,-11.567815,-7.1085176,43.48871,-18.369833,4.676861,4.0859985,-2.1027262,19.010853,-3.8534443,8.411243,-30.342707,29.15209,1.8942307,-6.679363,10.655777,-7.421036,-15.070815,23.223986,38.24151,4.9234457,-10.725304,-3.450523
33,-0.7288088202476501,2.8569703102111816,76.34574127197266,1.688153200698957,-0.8243460241051912,-88.06612753845526,-13.161338,-2.8025506,-6.64426,42.13843,-16.597042,-8.556025,-18.848104,-11.679351,-5.016734,48.872974,-18.86436,4.8880134,3.9913566,-2.8251688,19.640356,-3.8297923,8.511882,-30.332615,28.643557,1.4570285,-6.9564433,10.604044,-8.412749,-15.074779,22.765766,35.485462,5.7071557,-10.787531,-3.6275153
34,-0.614620566368103,2.897120952606201,75.96562194824219,2.0238503394259926,-1.259461212256051,-88.91169115203674,-12.745066,-2.7932186,-5.318814,42.860413,-18.057407,-8.000997,-21.552073,-11.498867,-2.8866363,54.398163,-19.367603,5.427704,3.674779,-3.524052,20.20137,-3.844972,8.685889,-30.408182,28.271137,0.85202515,-7.2843795,10.565139,-9.506518,-15.0674925,22.405933,32.427814,6.4463964,-10.848595,-3.765507
35,-0.5044090747833252,2.945159912109375,75.56236267089844,2.2956946536239795,-1.7072078223350284,-89.63465509189342,-12.395028,-2.765557,-4.118501,43.716984,-19.565226,-7.485238,-24.147373,-11.193324,-1.0267162,59.896404,-19.950169,6.080326,3.2107532,-4.179395,20.751675,-3.9825597,8.932561,-30.603155,28.12994,0.27538446,-7.573099,10.502263,-10.645207,-15.043243,22.068182,29.13056,7.100493,-10.897008,-3.9230483
36,-0.40718749165534973,2.9903221130371094,75.15795135498047,2.4986807118336523,-2.1832475748259283,-90.19140093876975,-12.067436,-2.7306252,-3.1785486,44.60087,-20.93703,-7.1015882,-26.509073,-11.009136,0.3088227,65.179634,-20.653833,6.5604367,2.6780977,-4.7762084,21.353361,-4.3327074,9.247869,-30.957483,28.321247,-0.07702446,-7.7319736,10.383922,-11.779795,-14.990574,21.667439,25.66178,7.6270943,-10.924387,-4.158804
37,-0.32587510347366333,3.04133677482605,74.7699966430664,2.621993897947602,-2.728864841003625,-90.5273558041586,-11.757578,-2.7002745,-2.5611556,45.555595,-22.1617,-6.88765,-28.596453,-11.066764,1.1040134,70.274124,-21.507627,6.7958035,2.0370214,-5.3230915,22.060072,-5.0244513,9.636882,-31.55262,28.995934,-0.26767588,-7.8237395,10.189478,-12.938582,-14.906209,21.185474,21.958233,8.054211,-10.919025,-4.5140347
38,-0.2673318088054657,3.102025032043457,74.40896606445312,2.6776995846719243,-3.32566092642619,-90.67864549069846,-11.484965,-2.6673787,-2.1724584,46.605747,-23.318771,-6.7859135,-30.494904,-11.307812,1.5224277,75.280754,-22.48846,6.8744144,1.2698414,-5.845439,22.825651,-5.9789357,10.095009,-32.35702,30.053904,-0.36850703,-7.8666906,9.944042,-14.120903,-14.796156,20.650578,17.993782,8.387093,-10.89001,-4.9474277
39,-0.2167569398880005,3.1536083221435547,74.0954818725586,2.681589644347717,-3.899121981824263,-90.73593423038557,-11.246356,-2.6171398,-1.9120048,47.623585,-24.365036,-6.74608,-32.288162,-11.754957,1.624217,80.11509,-23.537569,6.7107253,0.48347843,-6.3424234,23.566345,-6.9777007,10.596036,-33.232193,31.230305,-0.1905775,-7.7057858,9.685907,-15.237277,-14.657922,20.04935,13.893996,8.543523,-10.86046,-5.3964376
40,-0.16817812621593475,3.191899061203003,73.82604217529297,2.6568582411426203,-4.375119566358708,-90.78983616824704,-11.0379925,-2.5334842,-1.6841202,48.480877,-25.256214,-6.717984,-34.057747,-12.42112,1.4678847,84.68072,-24.594172,6.2214036,-0.2178718,-6.7986374,24.194403,-7.811925,11.10499,-34.034557,32.289154,0.46277583,-7.189401,9.448719,-16.218437,-14.4824915,19.373865,9.80959,8.442178,-10.852689,-5.80045
41,-0.137354776263237,3.21016788482666,73.60258483886719,2.592893570444962,-4.739923854387403,-90.78636358632741,-10.909711,-2.4236412,-1.5376321,49.22548,-25.976763,-6.7034616,-35.808777,-13.522391,0.921864,89.02464,-25.727278,5.2068024,-0.85868394,-7.20602,24.706259,-8.572914,11.601963,-34.827633,33.397137,1.8773156,-6.1138973,9.163848,-17.051218,-14.25595,18.562578,5.685242,7.9919124,-10.857085,-6.163438
42,-0.1109836995601654,3.1875224113464355,73.43484497070312,2.486737603638137,-5.032508492570441,-90.70011701412174,-10.843688,-2.2954967,-1.498273,49.896885,-26.550854,-6.7236347,-37.482964,-15.034707,0.061602946,93.18952,-26.97417,3.7312353,-1.4818809,-7.567107,25.13904,-9.340075,12.079449,-35.6538,34.641266,3.8815634,-4.624514,8.801139,-17.784622,-13.977337,17.637083,1.4888299,7.253124,-10.864655,-6.510229
43,-0.09384926408529282,3.16209077835083,73.30740356445312,2.367213577374637,-5.257047869341336,-90.66629346633583,-10.737587,-2.128148,-1.439259,50.358166,-26.994572,-6.7567925,-39.087944,-16.57232,-0.78105336,97.05903,-28.200287,2.1364784,-2.0149953,-7.867855,25.46326,-9.887733,12.527295,-36.325443,35.683254,5.9890966,-3.0887582,8.46793,-18.454664,-13.658026,16.72431,-2.57878,6.372917,-10.901143,-6.816079
44,-0.08491768687963486,3.1103270053863525,73.2364501953125,2.265390198588531,-5.417606682741462,-90.82240412261505,-10.490995,-1.8976066,-1.2344012,50.4741,-27.324331,-6.780671,-40.66853,-17.718718,-1.315787,100.505165,-29.22619,0.78674895,-2.39228,-8.089277,25.647676,-9.987896,12.941511,-36.6391,36.18569,7.7117367,-1.859962,8.316451,-19.101206,-13.31221,15.964463,-6.3112407,5.499019,-10.995258,-7.06208
45,-0.08354850858449936,3.0393478870391846,73.22612762451172,2.1900517057885325,-5.497340486740046,-91.22300017410257,-10.089708,-1.5839559,-0.82470936,50.212555,-27.588017,-6.786929,-42.31965,-18.377527,-1.5084991,103.53562,-29.994467,-0.26088578,-2.5904868,-8.2187605,25.667585,-9.516039,13.319976,-36.46846,36.00404,9.146711,-0.9656457,8.499676,-19.76421,-12.93292,15.360275,-9.690106,4.6264,-11.185933,-7.2271433
46,-0.08451784402132034,2.944688320159912,73.28825378417969,2.1260573936679155,-5.501272850125492,-91.78962601086116,-9.581222,-1.2040526,-0.2860768,49.646053,-27.762907,-6.7892985,-44.014362,-18.744339,-1.5429128,106.21153,-30.576283,-1.1762502,-2.6590261,-8.262537,25.546576,-8.604797,13.6656885,-35.920753,35.330067,10.476635,-0.22456239,8.915349,-20.434603,-12.51209,14.862016,-12.800058,3.6877482,-11.451242,-7.3345795
47,-0.08478860557079315,2.8331007957458496,73.42518615722656,2.0568299997947106,-5.465164298457135,-92.46094541131372,-8.96086,-0.78852046,0.3067465,48.8011,-27.761904,-6.8000903,-45.63835,-18.83506,-1.4760712,108.47406,-30.949463,-1.9168966,-2.632472,-8.228739,25.330967,-7.416014,13.987457,-35.14993,34.324867,11.341643,0.32396865,9.374052,-21.063002,-12.072879,14.526497,-15.604754,2.7454228,-11.727114,-7.4263988
48,-0.09026236087083817,2.7058305740356445,73.63326263427734,1.9676684337810202,-5.425070305220941,-93.1755873946709,-8.225345,-0.36681703,0.879043,47.704407,-27.498343,-6.8326044,-47.07555,-18.662966,-1.3631978,110.25772,-31.089613,-2.4381483,-2.543676,-8.118705,25.072721,-6.107879,14.299113,-34.315723,33.139736,11.386972,0.6269358,9.689357,-21.58007,-11.656375,14.411048,-18.086538,1.8726811,-11.949987,-7.5441313
49,-0.09644929319620132,2.561016082763672,73.91838073730469,1.870441392354026,-5.387521092009111,-93.96715813024524,-7.3298454,0.043845728,1.4655948,46.285454,-26.978205,-6.8763757,-48.365532,-18.08899,-1.1265284,111.5441,-30.947842,-2.6349993,-2.3501236,-7.9286933,24.78173,-4.641472,14.607713,-33.41231,31.684235,10.152633,0.5199845,9.782727,-21.95841,-11.294561,14.53048,-20.318266,1.1098173,-12.065886,-7.723866
50,-0.11455153673887253,2.3944077491760254,74.2738265991211,1.7668327687015912,-5.3357592201336805,-94.8517199975994,-6.2882223,0.45452175,2.092937,44.555244,-26.238781,-6.9353266,-49.55056,-17.137115,-0.7896564,112.36853,-30.530264,-2.5428288,-2.0415387,-7.650193,24.448858,-2.938511,14.906568,-32.383076,29.873999,7.943326,0.07867422,9.753708,-22.205359,-10.991517,14.849189,-22.334667,0.42654896,-12.119863,-7.9383383
51,-0.14633506536483765,2.2106614112854004,74.7020034790039,1.6246997034502761,-5.2717993141103126,-95.74127600440876,-5.1901927,0.8813457,2.6732435,42.66374,-25.239632,-7.0426126,-50.517155,-16.088785,-0.54076964,112.73831,-29.904984,-2.335851,-1.6966969,-7.2772927,24.093021,-1.115601,15.188437,-31.316856,27.897526,5.5562387,-0.39467645,9.694722,-22.30856,-10.744909,15.34021,-24.052402,-0.19979477,-12.195054,-8.131076
52,-0.18881164491176605,2.022186756134033,75.19185638427734,1.4096468615086164,-5.198050067142839,-96.54825627577344,-4.1298513,1.3441381,3.1169288,40.76117,-23.939125,-7.226964,-51.161263,-15.234249,-0.55553836,112.66509,-29.138983,-2.2009873,-1.3853167,-6.799634,23.731363,0.68821603,15.447712,-30.308577,25.964365,3.7931185,-0.606416,9.733091,-22.243177,-10.546434,15.975569,-25.38813,-0.8082593,-12.375231,-8.246997
53,-0.2474348098039627,1.823533296585083,75.74224853515625,1.0957616647766988,-5.122130545641381,-97.28961152931439,-3.0618427,1.8678507,3.4079523,38.769367,-22.305729,-7.5368724,-51.438107,-14.648301,-0.93001246,112.1165,-28.194273,-2.2009044,-1.0845364,-6.1763177,23.371214,2.4677742,15.680053,-29.36716,24.103903,2.9061022,-0.4676267,9.918444,-21.99943,-10.40138,16.77491,-26.322527,-1.3998301,-12.715203,-8.249508
54,-0.31438595056533813,1.6110665798187256,76.34524536132812,0.704214031423432,-5.042453643022596,-98.00010220150476,-1.9740682,2.4239635,3.5921257,36.653572,-20.365107,-7.939848,-51.405426,-14.176344,-1.5493239,111.094406,-27.059498,-2.2368493,-0.7608141,-5.423035,22.998182,4.270278,15.881103,-28.454803,22.22811,2.4539165,-0.14007562,10.189136,-21.590122,-10.311834,17.73926,-26.899027,-1.9622399,-13.160711,-8.178333
55,-0.39908039569854736,1.3928437232971191,76.9897689819336,0.28193526462546387,-4.944882168600455,-98.61940475027255,-1.0166448,2.964672,3.6678529,34.639954,-18.167562,-8.332235,-51.120598,-13.764003,-2.267468,109.6748,-25.840097,-2.2555041,-0.4749361,-4.621919,22.593231,6.0290656,16.053041,-27.583012,20.389065,2.2017496,0.28455457,10.524763,-21.062235,-10.267334,18.80202,-27.080462,-2.489649,-13.632109,-8.085079
56,-0.511325478553772,1.176977515220642,77.6796646118164,-0.11992540628081216,-4.813517069238074,-99.08723760325819,-0.33894634,3.4543674,3.6327016,32.966114,-15.774052,-8.603864,-50.64289,-13.358186,-2.9341638,107.9247,-24.640932,-2.2014835,-0.2860958,-3.8571584,22.140133,7.677927,16.203224,-26.765139,18.640774,1.9159873,0.7139564,10.906925,-20.456108,-10.248966,19.89494,-26.83664,-2.9820242,-14.049647,-8.01755
57,-0.6386942267417908,0.9566895961761475,78.39805603027344,-0.5336020831185918,-4.629543618586771,-99.39529749223082,0.054546446,3.9435978,3.4498258,31.611742,-13.084871,-8.743593,-49.92674,-13.035759,-3.6286216,105.802345,-23.545752,-2.1195533,-0.22393462,-3.1003973,21.611797,9.234992,16.33878,-26.003235,17.04624,1.6661627,1.1944835,11.410163,-19.789022,-10.248567,21.071428,-26.075634,-3.4024556,-14.38309,-7.9670625
58,-0.7722815871238708,0.7481998801231384,79.1324462890625,-0.9677142845797584,-4.402449639628332,-99.57564527920013,0.20817778,4.433025,3.1312308,30.508688,-10.12239,-8.782097,-48.953037,-12.778864,-4.392893,103.2896,-22.48618,-2.011626,-0.25255308,-2.327171,21.023693,10.728854,16.464262,-25.280315,15.558139,1.5314105,1.7530763,12.017363,-19.042467,-10.264875,22.34725,-24.829266,-3.7700806,-14.678761,-7.9118004
59,-0.9149076342582703,0.533905565738678,79.87239074707031,-1.3451200991638645,-4.156872731523232,-99.62546244984777,0.06592828,4.8340178,2.7489057,29.810513,-7.1282983,-8.682987,-47.832302,-12.410695,-5.0033035,100.4926,-21.338282,-1.7657071,-0.3400545,-1.6319139,20.421904,12.111374,16.58805,-24.580912,14.066578,1.2949125,2.26519,12.577686,-18.216726,-10.291854,23.600174,-23.23574,-4.164907,-14.970683,-7.874746
60,-1.0717755556106567,0.3348996043205261,80.59919738769531,-1.5881673672267487,-3.9168379121465926,-99.53926891867157,-0.3993753,5.074277,2.3751924,29.63401,-4.3227334,-8.432781,-46.681507,-11.774434,-5.2147875,97.5154,-19.97985,-1.2783006,-0.4550291,-1.1093762,19.851135,13.335016,16.721882,-23.899153,12.460435,0.741781,2.6040888,12.943843,-17.30458,-10.319708,24.703209,-21.439829,-4.669188,-15.2929735,-7.878779
61,-1.2500104904174805,0.15124478936195374,81.30902862548828,-1.6559014011389217,-3.6705248349914137,-99.31562464019925,-1.1938968,5.1731057,2.1529138,29.934546,-1.5556605,-7.93991,-45.54218,-10.816407,-4.870086,94.34965,-18.454012,-0.5739195,-0.6053544,-0.81317514,19.295696,14.415183,16.878328,-23.218473,10.734354,-0.313361,2.7131834,13.026973,-16.298677,-10.337892,25.68259,-19.397781,-5.2384706,-15.595461,-7.9452925
62,-1.4399521350860596,-0.028129547834396362,81.99663543701172,-1.597591881238976,-3.409635791505979,-98.95233813654082,-2.2743871,5.185329,2.0102289,30.618322,1.2691927,-7.28337,-44.32568,-9.662974,-4.0992923,90.95564,-16.82949,0.28437528,-0.8130238,-0.68302196,18.736616,15.386662,17.063225,-22.544422,8.924628,-1.715506,2.6730585,12.9201145,-15.206669,-10.343779,26.590874,-17.053165,-5.8553376,-15.879543,-8.055845
63,-1.6495417356491089,-0.19710925221443176,82.64195251464844,-1.4756431763451054,-3.1673163897125423,-98.44344419294698,-3.5635467,5.0734563,1.6849103,31.684343,3.861977,-6.7260933,-42.959614,-8.422286,-3.0680408,87.38302,-15.018433,1.3548913,-1.0633322,-0.63928956,18.215446,16.221792,17.277523,-21.913969,6.9894066,-3.1669114,2.5607312,12.750213,-14.038919,-10.341757,27.33379,-14.537632,-6.6370916,-16.255571,-8.178766
64,-1.8704978227615356,-0.34943845868110657,83.2294692993164,-1.3453538951884902,-2.9777370823488365,-97.78741715361068,-4.986117,4.7602057,0.90303004,33.157017,5.9085608,-6.527008,-41.3863,-7.175097,-1.9360298,83.67321,-12.922199,2.7168672,-1.3291626,-0.6026212,17.776514,16.881645,17.52341,-21.374435,4.8955164,-4.367726,2.4454904,12.648304,-12.795429,-10.342774,27.808199,-11.9927635,-7.702011,-16.833948,-8.2881155
65,-2.1009435653686523,-0.4993748962879181,83.76305389404297,-1.1878001851807474,-2.846404639530229,-96.96524733799829,-6.5419183,4.004748,-0.68653893,35.050144,7.281959,-6.8405275,-39.595173,-5.8814945,-0.6063234,79.77137,-10.342055,4.4778967,-1.6121565,-0.5955328,17.425964,17.350147,17.815517,-20.95922,2.619878,-5.294079,2.3333542,12.654869,-11.428689,-10.353517,27.975477,-9.431531,-9.192252,-17.69829,-8.352476
66,-2.345209836959839,-0.6311377286911011,84.22124481201172,-0.9726018042646504,-2.766270596470299,-95.98866345872159,-8.225027,2.8110783,-2.8404028,37.367737,8.120823,-7.5835004,-37.588192,-4.5153055,1.039185,75.67709,-7.424767,6.5948143,-1.9095471,-0.6534068,17.147259,17.64698,18.163885,-20.64949,0.18195328,-6.0903854,2.1896374,12.696967,-9.925252,-10.374582,27.886347,-6.8196487,-11.011555,-18.769611,-8.420079
67,-2.595262289047241,-0.763321578502655,84.59427642822266,-0.7452197833391868,-2.7479896730248807,-94.90228371970697,-9.983051,1.4902639,-4.93457,40.153748,8.486422,-8.591061,-35.356686,-3.169346,2.848565,71.50444,-4.5641675,8.919001,-2.1884859,-0.7190698,16.950342,17.779352,18.558283,-20.41396,-2.3788834,-6.7062697,2.0171785,12.738942,-8.344257,-10.409314,27.572798,-4.2186747,-12.919846,-19.91536,-8.581751
68,-2.8483622074127197,-0.9039355516433716,84.88895416259766,-0.5547179636769541,-2.7944456933821264,-93.74601360197799,-11.816757,0.4341939,-6.355807,43.44749,8.488194,-9.617985,-32.920013,-1.9512472,4.6164646,67.358,-2.1227057,11.272549,-2.4210947,-0.72907996,16.84021,17.744759,18.974808,-20.221338,-5.0094633,-7.086356,1.8185941,12.746369,-6.74592,-10.463504,27.066698,-1.6874837,-14.675233,-20.998323,-8.910168
69,-3.0965075492858887,-1.036306619644165,85.0918197631836,-0.4083730850586722,-2.9205380790678506,-92.49370231781401,-13.773656,-0.22900689,-6.976245,47.429554,8.073146,-10.69384,-30.205858,-0.8735031,6.332546,63.133526,-0.25184736,13.860313,-2.6210718,-0.6622768,16.83165,17.50297,19.404295,-20.09204,-7.693576,-7.0851035,1.5713348,12.699055,-5.0940137,-10.542316,26.322483,0.7612964,-16.278093,-22.018085,-9.420451
70,-3.3873331546783447,-1.1631107330322266,85.20620727539062,-0.4803696899872596,-3.13265643740581,-91.1691440900254,-15.916056,-0.4010487,-7.2226796,52.22023,7.1031294,-11.882155,-27.217962,-0.051479373,7.309515,58.652374,1.3664656,15.000033,-2.7655554,-0.36930066,16.935812,17.053488,19.846672,-20.040081,-10.442607,-6.771174,1.2794929,12.620454,-3.3575494,-10.646642,25.340416,3.1470757,-17.840322,-23.026932,-10.074345
71,-3.689528226852417,-1.2961944341659546,85.23043823242188,-0.7428288150763376,-3.3932726477436157,-89.81130600163682,-18.23925,-0.07099109,-7.178688,57.507015,5.789277,-12.809541,-24.150545,0.66047055,7.7597504,54.12973,2.9996004,15.000033,-2.8484533,0.10776951,17.115566,16.457064,20.283857,-20.015604,-13.241783,-6.4062476,0.9863114,12.542784,-1.6169369,-10.773184,24.22843,5.4747953,-19.282143,-23.968454,-10.845786
72,-3.9765264987945557,-1.422009825706482,85.17048645019531,-0.9272840117782916,-3.63528809304547,-88.43014098957289,-20.71324,0.4971261,-6.7642803,62.812225,4.451215,-13.053923,-21.27003,1.2861413,8.363573,49.997124,4.749045,15.000033,-2.9028137,0.495658,17.291643,15.779055,20.685421,-19.954609,-16.072374,-6.24505,0.73711014,12.493639,0.02925472,-10.913625,23.10749,7.769198,-20.519804,-24.789078,-11.70369
73,-4.244201183319092,-1.550222635269165,85.02093505859375,-1.0755806271150172,-3.8516174363578117,-87.02102716689399,-23.37238,1.5270017,-5.8800116,68.224236,3.011398,-12.3948765,-18.628302,1.8654819,9.043461,46.280697,7.005255,15.000033,-2.9320207,0.84208554,17.457283,14.986593,21.029327,-19.84109,-18.93053,-6.3134413,0.53519213,12.441434,1.5546736,-11.060061,21.97384,10.1082115,-21.443624,-25.501839,-12.707351
74,-4.493829250335693,-1.7014429569244385,84.79566955566406,-1.2234365739581643,-4.057817552565356,-85.57931182265676,-26.188118,3.108501,-4.630474,73.872055,1.3521998,-10.989584,-16.140099,2.4048629,9.709213,42.863823,9.565133,15.000033,-2.935454,1.190238,17.626621,14.055627,21.310545,-19.696491,-21.803507,-6.477328,0.35957983,12.38027,2.9931705,-11.211025,20.787655,12.486141,-22.12629,-26.1296,-13.8377
75,-4.769381046295166,-1.8309613466262817,84.48019409179688,-1.3018907591570432,-4.235844471290987,-84.16619348208295,-29.072168,4.9488454,-3.3026764,79.497025,-0.36749843,-9.114991,-13.854069,2.8085482,10.366849,39.879665,11.722689,15.000033,-2.892977,1.4651238,17.777191,13.060878,21.522396,-19.511066,-24.653196,-6.749448,0.21568361,12.375851,4.328711,-11.364798,19.616364,14.806036,-22.75174,-26.634905,-14.944242
76,-5.055244445800781,-1.9190961122512817,84.0777816772461,-1.233405081328631,-4.369991621888054,-82.83939574715477,-31.960564,6.6866283,-2.1061633,84.84008,-1.9484053,-7.082855,-11.816768,2.9701939,11.014961,37.466476,12.769537,15.000033,-2.7927153,1.5817842,17.886942,12.080224,21.656916,-19.268408,-27.44317,-7.1418276,0.108483985,12.491696,5.531778,-11.520153,18.53352,16.980333,-23.50126,-26.97676,-15.879418
77,-5.310489654541016,-2.0106115341186523,83.60382080078125,-0.9058194727188275,-4.415965563019059,-81.59253765596218,-34.901733,8.253442,-0.8650166,89.900375,-3.330097,-4.80588,-10.110855,2.7861567,11.729245,35.776165,12.51785,15.000033,-2.6285367,1.433823,17.904356,11.0768385,21.707783,-18.985605,-30.193607,-7.7487526,0.04682108,12.830962,6.58087,-11.673561,17.517927,19.08046,-24.553118,-27.09025,-16.60957
78,-5.559145450592041,-2.115739583969116,83.0679931640625,-0.5487437858856562,-4.423810922998667,-80.41700565496332,-37.893845,9.965998,0.3058297,94.877754,-4.701578,-2.2417862,-8.646569,2.4337556,12.174063,34.600048,11.433518,14.7780285,-2.392546,1.2503333,17.88908,10.014736,21.673151,-18.66691,-32.901436,-8.528321,0.020640528,13.330148,7.483091,-11.826515,16.54042,21.137215,-25.758635,-27.01598,-17.200758
79,-5.808933258056641,-2.2242441177368164,82.44140625,-0.5322411292717673,-4.513564872169296,-79.34580989989544,-40.869946,11.861102,0.7915674,99.76816,-6.123908,0.15564868,-7.2289147,2.041261,11.035325,33.534454,9.727862,11.424899,-2.093784,1.3722867,17.97311,8.976115,21.552435,-18.272564,-35.49574,-9.288839,0.01039264,13.800407,8.251549,-11.989361,15.66727,22.996798,-26.810505,-26.874378,-17.66215
80,-6.05731725692749,-2.3262579441070557,81.75343322753906,-0.620324540520697,-4.701756511545489,-78.39391423385293,-43.732906,13.549963,0.8514231,104.33307,-7.4730673,2.2860012,-5.8316727,1.81353,9.831548,32.718254,7.2507024,8.769422,-1.7615025,1.5914512,18.178448,8.0495205,21.34713,-17.751175,-37.913464,-9.839227,0.004228436,14.048081,8.896321,-12.17839,14.973681,24.50277,-27.40586,-26.788473,-18.013794
81,-6.303741931915283,-2.418672561645508,81.03265380859375,-0.8324713288256395,-5.0308208249447715,-77.49845051586645,-46.53576,14.883884,0.421253,108.6063,-8.650562,4.082909,-4.329926,1.7046041,8.441927,32.05765,3.6714664,7.077473,-1.4325833,1.9310254,18.55304,7.196993,21.05378,-17.067493,-40.208405,-10.198021,0.031076275,13.971616,9.44941,-12.400687,14.473981,25.59169,-27.387497,-26.809559,-18.216963
82,-6.565202236175537,-2.513777494430542,80.2878189086914,-1.122469240860682,-5.449725369783855,-76.66213393601394,-49.32912,15.905078,-0.3531334,112.63402,-9.646971,5.640691,-2.7760978,1.6628026,6.875603,31.565567,-0.88768506,5.9632626,-1.0960821,2.3450859,19.04383,6.3911605,20.670727,-16.248209,-42.397125,-10.444057,0.091409475,13.686644,9.889958,-12.660224,14.137162,26.354275,-26.939846,-26.871635,-18.277742
83,-6.823816299438477,-2.599165678024292,79.5291748046875,-1.4549976059491567,-5.878259285631293,-76.01124561701991,-52.038605,16.701647,-1.3233848,116.29917,-10.516983,6.848746,-1.3391324,1.759224,5.4419193,31.211931,-5.6164393,5.1824093,-0.7005829,2.7984848,19.577578,5.742389,20.20534,-15.333883,-44.375202,-10.481952,0.13422777,13.325832,10.149961,-12.970221,13.968458,26.860186,-26.274956,-26.925915,-18.289877
84,-7.08835506439209,-2.673295021057129,78.77172088623047,-1.7882384613031173,-6.240820708316669,-75.67210168928315,-54.58042,17.37748,-2.3417556,119.47436,-11.325333,7.608051,-0.20358816,2.047012,4.4452405,31.002245,-9.737817,4.4441957,-0.19762915,3.2536955,20.086082,5.370829,19.670345,-14.362338,-46.051144,-10.22044,0.106604084,13.02262,10.161264,-13.350752,13.974861,27.17104,-25.603079,-26.924526,-18.348227
85,-7.331727504730225,-2.7332096099853516,78.03620910644531,-2.137390546690632,-6.546668243904632,-75.75060593130458,-56.983433,17.990028,-3.4238927,122.1712,-12.09479,7.847343,0.52788067,2.5789237,3.9639196,31.056927,-13.171608,3.6299436,0.4973444,3.7409286,20.58825,5.323052,19.060427,-13.2958555,-47.49203,-9.506114,-0.04550654,12.789485,9.874343,-13.833623,14.23383,27.276075,-24.919582,-26.845533,-18.514034
86,-7.537481307983398,-2.7624597549438477,77.35105895996094,-2.503380731706073,-6.828985900354729,-76.15127600441704,-59.265003,18.466217,-4.5724015,124.44939,-12.778839,7.6343045,0.95130336,3.264976,3.8029444,31.370026,-16.317413,2.8705997,1.3173573,4.270602,21.1088,5.54054,18.366457,-12.121425,-48.740803,-8.438923,-0.283414,12.567951,9.329624,-14.419237,14.735001,27.132835,-24.116665,-26.721003,-18.722992
87,-7.711967945098877,-2.7792587280273438,76.7259521484375,-2.822332661930851,-7.05201477616397,-76.70144434142966,-61.3264,18.739964,-5.6274347,126.24754,-13.34055,7.0919995,1.1805601,3.9480822,3.8563328,31.763834,-19.135267,2.2174032,2.098992,4.76326,21.597878,5.989276,17.603582,-10.928333,-49.67871,-7.3067293,-0.5191703,12.385665,8.602723,-15.063056,15.338711,26.75595,-23.261372,-26.582037,-18.882875
88,-7.863378524780273,-2.7989606857299805,76.16657257080078,-3.030255748340675,-7.178631881061882,-77.23218330575702,-63.074745,18.759499,-6.4363403,127.5008,-13.740819,6.3498898,1.3311529,4.481632,4.0156174,32.046257,-21.564253,1.7187757,2.7019942,5.1241393,22.013395,6.6359644,16.806969,-9.824372,-50.183033,-6.3958025,-0.66327924,12.269491,7.779669,-15.698412,15.880178,26.168348,-22.438236,-26.457092,-18.903154
89,-7.985965251922607,-2.805953025817871,75.69097900390625,-3.099554893665667,-7.182869701425618,-77.78816907927136,-64.54439,18.516783,-6.990236,128.17996,-13.949455,5.337412,1.3710243,4.8409505,4.322174,32.212784,-23.633226,1.3839705,3.150948,5.28557,22.357649,7.571992,16.006252,-8.802493,-50.311714,-5.7904153,-0.6795426,12.2358465,6.805762,-16.292099,16.331984,25.388891,-21.749296,-26.363266,-18.724058
90,-8.077596664428711,-2.824171543121338,75.31587219238281,-3.066118639402282,-7.092437939460445,-78.43464210169351,-65.77188,18.076416,-7.3632584,128.32756,-14.009493,4.040029,1.2597907,5.0967717,4.787376,32.35101,-25.357878,1.1621523,3.5275779,5.285393,22.653427,8.787121,15.20971,-7.847453,-50.09805,-5.341026,-0.61978006,12.2781315,5.658983,-16.838697,16.76215,24.423512,-21.142506,-26.28065,-18.408327
91,-8.164046287536621,-2.852884292602539,75.0657958984375,-2.9725877144619672,-6.9473314949040095,-79.03535388831085,-66.68065,17.491133,-7.543927,127.97371,-13.969665,2.661788,1.1019516,5.2487073,5.2634864,32.396275,-26.644976,1.0187578,3.7856536,5.186788,22.891039,10.090543,14.424944,-7.0564623,-49.378094,-4.977401,-0.52573127,12.383806,4.4810524,-17.312754,17.132782,23.279278,-20.478127,-26.175837,-18.050432
92,-8.25131607055664,-2.909669876098633,74.954833984375,-2.858404729166689,-6.787617362940705,-79.45352947950849,-67.193,16.806206,-7.518441,127.145645,-13.864026,1.4031556,1.0026935,5.294162,5.6051364,32.279526,-27.397614,0.9284805,3.8883138,5.056467,23.05592,11.275858,13.665155,-6.5277295,-47.972202,-4.6226544,-0.43888438,12.5399885,3.413592,-17.68015,17.387281,21.97234,-19.627174,-26.018282,-17.746477
93,-8.314751625061035,-2.966188907623291,74.9653549194336,-2.7364045772535506,-6.614272154460616,-79.60985358212933,-67.28586,16.002129,-7.2667847,125.80569,-13.7074375,0.30993533,0.9615383,5.2192426,5.732679,32.01142,-27.553558,0.9108886,3.776019,4.895467,23.136442,12.3190975,12.945914,-6.2939053,-45.6811,-4.235013,-0.35736886,12.75599,2.441667,-17.917412,17.492395,20.518908,-18.533287,-25.795687,-17.518124
94,-8.348115921020508,-3.0184085369110107,75.09339904785156,-2.5877481606048622,-6.4081854002849,-79.59203483870071,-67.00625,15.064812,-6.8289814,123.95066,-13.479074,-0.7257033,0.9331882,5.028967,5.7358537,31.614532,-27.175404,0.97481,3.498307,4.667486,23.130543,13.320272,12.281937,-6.30178,-42.634945,-3.857597,-0.26492232,13.041322,1.4977989,-18.025257,17.467234,18.936546,-17.288465,-25.525658,-17.321217
95,-8.336369514465332,-3.0826668739318848,75.32511138916016,-2.3977314127595637,-6.180657522753168,-79.51291987390162,-66.382095,14.036381,-6.2743993,121.66254,-13.150238,-1.7360921,0.9510169,4.748887,5.7226057,31.043016,-26.354456,1.0824012,3.1755602,4.3840747,23.04247,14.270464,11.686039,-6.505519,-39.17731,-3.5409365,-0.18080212,13.384597,0.6401614,-18.010092,17.33867,17.237064,-15.981412,-25.22357,-17.154434
96,-8.286773681640625,-3.1679723262786865,75.6605224609375,-2.1560366239386095,-5.942936907750846,-79.48533904809466,-65.441986,12.962392,-5.6739216,119.021324,-12.695089,-2.7493129,1.0461345,4.406641,5.8002095,30.254665,-25.182735,1.1936839,2.9278398,4.0587187,22.881285,15.155091,11.167415,-6.8575425,-35.645058,-3.3370621,-0.12334079,13.774246,-0.069742374,-17.881477,17.13597,15.4229965,-14.698126,-24.904486,-17.013933
97,-8.224873542785645,-3.273298978805542,76.08948516845703,-1.8479148907828304,-5.713182495206448,-79.4943538100109,-64.10474,11.892678,-4.9783807,115.99187,-12.144029,-3.6846855,1.3186322,3.977867,5.979225,29.106358,-23.608757,1.2868543,2.7558498,3.684448,22.656956,15.922773,10.726752,-7.386677,-31.846565,-3.2788155,-0.06502003,14.263389,-0.56039655,-17.623344,16.80703,13.427065,-13.407316,-24.537638,-16.929735
98,-8.155354499816895,-3.395153522491455,76.60447692871094,-1.4890551260685876,-5.478785786553483,-79.49083771155404,-62.385147,10.778334,-4.193437,112.54893,-11.508917,-4.55103,1.7060283,3.4660754,6.203053,27.688263,-21.620163,1.3860959,2.605413,3.2616177,22.358442,16.614569,10.366773,-8.092028,-27.701817,-3.3353925,-0.008665255,14.846189,-0.89241683,-17.229555,16.355932,11.27539,-12.082664,-24.127405,-16.898998
99,-8.073699951171875,-3.522942304611206,77.18070983886719,-1.1201137907922534,-5.204319425635057,-79.53883968450967,-60.45881,9.537675,-3.4821267,108.78066,-10.740511,-5.4992104,1.9984981,2.9446392,6.484357,26.30413,-19.363554,1.5190217,2.5075433,2.8181298,21.9736,17.348026,10.093832,-8.880787,-23.725126,-3.4664745,-0.01662639,15.419385,-1.18903,-16.733917,15.90446,9.0896845,-10.808018,-23.740887,-16.862936
100,-7.984784126281738,-3.647606372833252,77.79656982421875,-0.7743328032752684,-4.854106197057479,-79.70572167184402,-58.49982,8.109627,-3.0185447,104.76982,-9.793712,-6.6743813,2.0058868,2.483837,6.84597,25.21879,-16.965,1.7164279,2.4882245,2.381256,21.496199,18.226517,9.911181,-9.65891,-20.42885,-3.633363,-0.14881456,15.87405,-1.5596083,-16.194475,15.580889,6.971304,-9.656126,-23.442024,-16.756575
101,-7.877684593200684,-3.7908971309661865,78.44587707519531,-0.46525989464835676,-4.386818946554976,-79.99440305624063,-56.53374,6.4340596,-2.9076948,100.46544,-8.635104,-8.106984,1.6839426,2.1136446,7.3254194,24.404854,-14.28797,1.8882382,2.5440493,1.9750752,20.891829,19.239819,9.825356,-10.45379,-17.895878,-3.9024847,-0.46879977,16.202957,-1.9685029,-15.640977,15.388521,4.847944,-8.588242,-23.232471,-16.540411
102,-7.758030414581299,-3.9363250732421875,79.10182189941406,-0.17967809760296702,-3.830040114577405,-80.3768963756392,-54.46229,4.6131616,-3.0849323,95.84375,-7.327813,-9.679599,1.1321069,1.8046716,7.9103403,23.74693,-11.313611,2.0565794,2.6627226,1.5921551,20.183403,20.327257,9.830778,-11.302044,-15.863496,-4.2747493,-0.9286725,16.450579,-2.3486862,-15.072818,15.270079,2.6538947,-7.567022,-23.077436,-16.253979
103,-7.624027729034424,-4.062237739562988,79.74876403808594,0.09637441819469246,-3.251345959227292,-80.87608891780833,-52.268593,2.8234806,-3.4447765,91.008156,-5.9608293,-11.317999,0.39644316,1.5289668,8.570369,23.342854,-8.324389,2.4249933,2.849625,1.2024657,19.453514,21.51424,9.90264,-12.117345,-14.326379,-4.608907,-1.414726,16.579887,-2.7652855,-14.5096245,15.2698345,0.51233625,-6.665969,-22.99317,-15.944487
104,-7.493154525756836,-4.16446590423584,80.36257934570312,0.38482596604923314,-2.719216160910496,-81.51276318165216,-49.9407,1.2022077,-3.8777568,86.048645,-4.60107,-12.993491,-0.45863357,1.2540444,9.290863,23.264297,-5.594968,3.2004244,3.0956829,0.77326244,18.788681,22.842735,10.000166,-12.799546,-13.29134,-4.7601995,-1.814489,16.551285,-3.287414,-13.981268,15.446933,-1.4529619,-5.95325,-22.996279,-15.659415
105,-7.3504157066345215,-4.282848358154297,80.94966125488281,0.7276429521926295,-2.209736683421905,-82.31907840520726,-47.46006,-0.33911094,-4.39562,80.857,-3.2623343,-14.830828,-1.398782,0.93498284,10.160165,23.290829,-3.0322564,4.6206965,3.4092371,0.26785287,18.172739,24.400467,10.0856285,-13.303545,-12.881721,-4.554992,-2.0969424,16.27972,-3.953417,-13.515104,15.861003,-3.257915,-5.473466,-23.071606,-15.43614
106,-7.159922122955322,-4.382388114929199,81.48938751220703,1.1714723892748908,-1.705321123364129,-83.24615609164114,-44.848114,-1.410766,-4.3293257,75.348755,-1.8404036,-15.000033,-2.4577866,0.5146173,11.208477,23.516573,-0.6150538,6.5821733,3.7465925,-0.33293733,17.588932,26.13781,10.143508,-13.674654,-13.046398,-4.1033916,-2.3255742,15.801483,-4.716842,-13.115447,16.488813,-4.956491,-5.1690307,-23.217442,-15.24188
107,-6.971400260925293,-4.499238967895508,81.97550201416016,1.716599535346563,-1.2883548342983608,-84.21084376573044,-42.05987,-2.3998084,-4.1353345,69.66025,-0.25428006,-15.000033,-3.686392,0.036941096,12.292603,24.49434,1.2981262,8.710887,4.0344186,-1.0275433,17.126402,27.891365,10.171487,-13.954428,-13.53536,-3.6856804,-2.5267901,15.262487,-5.518358,-12.7698555,17.25553,-6.483953,-4.9553337,-23.472496,-15.016889
108,-6.808259963989258,-4.632700443267822,82.40184783935547,2.099598887257868,-1.0247605379879796,-85.21793756933361,-39.15644,-3.1350875,-4.0822268,64.115364,1.465672,-15.000033,-5.0343513,-0.16401315,13.207457,26.441362,2.6063654,10.53148,4.2938485,-1.5463562,16.83426,29.500498,10.180797,-14.184128,-14.102509,-3.5826926,-2.7186902,14.807987,-6.3081236,-12.457242,18.082573,-7.7693844,-4.7527413,-23.874458,-14.698399
109,-6.671685218811035,-4.762752056121826,82.76216888427734,2.2987811558300093,-0.9544891309057596,-86.28692013421094,-36.071564,-3.5293467,-4.0712204,58.62806,3.3995013,-15.000033,-6.573096,-0.07321164,13.840285,29.671846,3.1876142,11.937093,4.552786,-1.8675058,16.758177,31.012213,10.173219,-14.350388,-14.78685,-3.9383354,-2.9008448,14.474901,-7.135475,-12.173504,19.000797,-8.837583,-4.4747915,-24.521328,-14.207357
110,-6.5267415046691895,-4.886820316314697,83.03273010253906,2.366611736216505,-1.032334426028078,-87.43166435309169,-32.816666,-3.671922,-4.0751657,53.1095,5.524312,-15.000033,-8.321114,0.20618442,14.259074,33.980602,3.1729662,13.081679,4.819487,-2.0410047,16.848152,32.477875,10.147109,-14.443259,-15.6843815,-4.579796,-3.061268,14.186425,-8.015571,-11.9179125,20.027641,-9.7100525,-4.1800423,-25.363262,-13.589559
111,-6.408817291259766,-5.005767822265625,83.20880889892578,2.3385808442210885,-1.1996332332610034,-88.5849046891708,-29.557892,-3.6678443,-4.1254582,47.806625,7.714585,-15.000033,-10.246771,0.59581774,14.509212,39.059227,2.7113476,13.915513,5.0273585,-2.0888238,17.019161,33.73676,10.120281,-14.514117,-16.626001,-5.314902,-3.1974795,13.919758,-8.849537,-11.671302,21.05498,-10.306521,-4.016095,-26.21935,-12.971746
112,-6.316260814666748,-5.125232696533203,83.28560638427734,2.253222476652172,-1.3959765413526009,-89.67778828534595,-26.47537,-3.6119545,-4.2421603,42.99744,9.833344,-15.000033,-12.293294,1.0362238,14.643628,44.579998,1.9548613,14.424747,5.115898,-2.0438666,17.188292,34.630684,10.127676,-14.61976,-17.449118,-5.956175,-3.3068926,13.6554165,-9.532774,-11.405445,21.968025,-10.540339,-4.1439934,-26.916183,-12.487815
113,-6.230168342590332,-5.252772808074951,83.25458526611328,2.146516097820786,-1.624372984027155,-90.71251234817122,-23.57859,-3.5149524,-4.326466,38.662354,12.293906,-15.000033,-14.487274,1.5061324,14.682025,50.74574,0.7777569,14.568565,5.081523,-1.9425997,17.354353,35.12221,10.206399,-14.805142,-18.122667,-6.538716,-3.3865266,13.397357,-10.064256,-11.0931225,22.74815,-10.33369,-4.7617855,-27.399988,-12.162634
114,-6.142370223999023,-5.353538990020752,83.11746978759766,2.008441481477433,-1.906354208024567,-91.71501042638197,-20.821793,-3.3406377,-4.3297806,34.731773,14.99185,-15.000033,-16.852058,1.9516503,14.602509,57.65253,-0.86906517,14.328131,4.9660044,-1.7885945,17.550793,35.30209,10.369622,-15.038981,-18.746496,-7.1467586,-3.437228,13.162024,-10.491338,-10.7290535,23.433266,-9.739318,-5.7474537,-27.771921,-11.930251
115,-6.055522918701172,-5.455810070037842,82.88375854492188,1.804474154938211,-2.2084540579510894,-92.64973103760886,-18.304836,-3.1027586,-4.353126,31.432764,16.99017,-15.000033,-19.310364,2.309334,14.394232,64.823845,-2.7192402,13.769824,4.771283,-1.5674305,17.748804,35.200264,10.609999,-15.263257,-19.342434,-7.665591,-3.467339,12.947138,-10.776698,-10.326355,23.998608,-8.868999,-6.784058,-28.088263,-11.791423
116,-5.963313579559326,-5.563263416290283,82.55826568603516,1.496659682215103,-2.4987680516059103,-93.47918946156797,-16.116571,-2.7933416,-4.484956,28.978971,17.365526,-15.000033,-21.784872,2.54059,14.029933,71.80879,-4.4984527,12.978869,4.4937844,-1.2598084,17.922318,34.84251,10.907649,-15.420828,-19.925264,-7.9763703,-3.486694,12.748432,-10.880426,-9.912108,24.424778,-7.8435907,-7.5502887,-28.400642,-11.746449
117,-5.896847248077393,-5.674807548522949,82.15924072265625,0.9981907917346763,-2.7567413223624686,-94.19304001096317,-14.302376,-2.2884803,-4.766156,27.597485,15.467039,-15.000033,-24.270926,2.6799672,13.355549,78.63088,-6.183539,11.918011,4.1130686,-0.7734697,18.025362,34.202625,11.252114,-15.530659,-20.42992,-7.8822002,-3.5036206,12.5287,-10.74991,-9.497989,24.730509,-6.60778,-7.868606,-28.719427,-11.874485
118,-5.863639831542969,-5.77978515625,81.68083953857422,0.4208045184525221,-3.0099551468117745,-94.7972833978033,-12.783968,-1.6160783,-4.942852,27.064665,11.917748,-15.000033,-26.78461,2.6236928,12.492873,85.55307,-7.968235,10.57251,3.6219258,-0.20741735,18.100935,33.26961,11.641193,-15.619173,-20.85849,-7.497739,-3.514354,12.299657,-10.411758,-9.088949,24.923954,-5.1395073,-7.9388504,-29.014994,-12.149126
119,-5.739934921264648,-5.860383987426758,81.14295196533203,0.2869313565162652,-3.3195927976543107,-95.23823441674752,-11.24628,-1.2228398,-3.743089,26.48982,7.936093,-11.740976,-29.21574,1.9565955,12.125363,92.56671,-9.989944,9.248114,2.996367,-0.059897307,18.285355,32.09678,12.063726,-15.637335,-21.33652,-7.1693316,-3.5082219,12.127322,-9.949975,-8.711734,24.974337,-3.6098516,-8.001681,-29.28104,-12.415317
120,-5.614262580871582,-5.925838947296143,80.56722259521484,0.27779533751804336,-3.669593766361846,-95.61160455131265,-9.899815,-1.1026393,-2.7520483,26.086222,4.1477804,-9.094276,-31.578913,1.1373856,12.127296,99.31601,-12.003595,7.8722534,2.3538017,-0.049920514,18.594748,30.719982,12.503369,-15.535259,-21.974628,-7.2421603,-3.472972,12.0769825,-9.441154,-8.404728,24.85082,-2.2022164,-8.294596,-29.51069,-12.524154
121,-5.46449089050293,-5.961716175079346,79.96227264404297,0.4021929332190144,-4.098135017905242,-95.97156659768538,-8.676257,-1.1919433,-1.9054348,25.714598,0.63925344,-7.3912206,-33.83525,0.31142074,12.617777,105.85821,-13.994875,6.55028,1.7071463,-0.18761285,19.07547,29.169441,12.940189,-15.303516,-22.827843,-7.98047,-3.42116,12.190653,-8.902418,-8.204734,24.552889,-0.92728126,-8.91394,-29.71098,-12.399108
122,-5.313022136688232,-5.979011058807373,79.3427734375,0.6144444910162032,-4.576353072126852,-96.29528914525113,-7.601329,-1.3946372,-1.1241614,25.516306,-2.9810839,-6.2096024,-35.982956,-0.5109691,13.420663,112.28684,-16.01754,5.2274933,1.0358785,-0.413685,19.672636,27.407906,13.369712,-14.969612,-23.819004,-9.136124,-3.3581378,12.423026,-8.259413,-8.122702,24.102308,0.25418782,-9.7118,-29.882421,-12.140888
123,-5.170934200286865,-5.971556663513184,78.70509338378906,0.8746693878557539,-5.019500007594389,-96.49049841291527,-6.8305774,-1.7031273,-0.50490993,25.629032,-6.418971,-5.3520412,-38.08354,-1.4297099,14.392449,118.44229,-18.063549,3.888485,0.34202603,-0.6893,20.301723,25.375566,13.80769,-14.541488,-24.863585,-10.2869425,-3.2574902,12.709318,-7.4517617,-8.149545,23.498238,1.239013,-10.559566,-30.006754,-11.863577
124,-5.048374652862549,-5.9337029457092285,78.05667877197266,1.14927135518521,-5.346526023539096,-96.46231169097247,-6.524217,-2.124559,-0.1486417,26.204102,-9.392383,-4.6002474,-40.214935,-2.5613952,15.411887,124.141685,-20.115564,2.5105476,-0.36916664,-0.98227537,20.878073,23.012917,14.285148,-14.035173,-25.882292,-11.015945,-3.0866013,12.98615,-6.42898,-8.2639475,22.734224,1.9413469,-11.330571,-30.064281,-11.675283
125,-4.967820644378662,-5.8751935958862305,77.42155456542969,1.4693165829573884,-5.532201909527778,-96.14794985556296,-6.8764815,-2.7164972,-0.06035183,27.519844,-11.8874,-3.8600287,-42.46175,-3.8829682,16.595278,129.46051,-22.162493,1.2270018,-1.1537056,-1.3445187,21.38726,20.197636,14.859711,-13.427886,-26.87976,-11.235809,-2.8191588,13.270361,-5.188623,-8.451757,21.776793,2.31436,-12.026179,-30.0393,-11.533998
126,-4.902894496917725,-5.779301643371582,76.83683013916016,1.8332219949624458,-5.617578313085505,-95.61783450016608,-7.783835,-3.4326963,-0.14057603,29.463215,-14.05059,-3.2025354,-44.75223,-5.3221664,17.946123,134.47916,-24.228886,0.028086457,-1.9593005,-1.7733724,21.856037,17.006182,15.552239,-12.756016,-27.906414,-11.177143,-2.4775712,13.591255,-3.7192872,-8.703559,20.616789,2.4005055,-12.698217,-29.947424,-11.398232
127,-4.825270652770996,-5.656592845916748,76.32622528076172,2.174329776365094,-5.626574069409419,-94.9687977926471,-8.945419,-4.1545377,-0.34488094,31.576202,-15.82094,-2.6598985,-46.980343,-6.9584594,19.200964,139.00012,-26.317778,-1.3549508,-2.6438456,-2.1558707,22.275463,13.654645,16.309837,-12.117953,-28.919802,-10.895824,-2.097838,13.901174,-1.9761617,-8.991854,19.29768,2.2674742,-13.293483,-29.81276,-11.375932
128,-4.7584123611450195,-5.492012023925781,75.87886047363281,2.4320240326146503,-5.5917311071599185,-94.28543038499691,-10.038751,-4.7857304,-0.64341736,33.37597,-17.11906,-2.2742016,-49.08123,-8.898775,20.119005,142.81094,-28.402294,-3.214265,-3.1127598,-2.3891544,22.647923,10.341029,17.025438,-11.575864,-29.841515,-10.432063,-1.7147903,14.144952,0.03464207,-9.275839,17.89398,2.0341012,-13.760957,-29.657475,-11.576595
129,-4.718669891357422,-5.319866180419922,75.52336120605469,2.584925728420169,-5.505961428918291,-93.41737080181903,-11.144601,-5.376138,-1.15648,34.93772,-17.835958,-2.0974095,-51.204807,-11.337322,20.728098,145.90576,-30.458004,-5.7761946,-3.4448967,-2.4309068,22.987864,6.7941675,17.634874,-11.115555,-30.481552,-9.495278,-1.2908703,14.20241,2.3436687,-9.532552,16.327324,1.734565,-14.176412,-29.486341,-12.096519
130,-4.702709674835205,-5.177896499633789,75.28531646728516,2.6714863770593156,-5.380273552157912,-92.35240171808172,-12.338144,-5.983325,-1.8534435,36.4268,-18.029083,-2.1073468,-53.37979,-14.114734,21.220385,148.39102,-32.448994,-8.755884,-3.714419,-2.341944,23.292654,2.9534934,18.117964,-10.713187,-30.84014,-8.1383095,-0.82341826,14.112912,4.8947353,-9.747507,14.624529,1.3920175,-14.536957,-29.285326,-12.8519335
131,-4.698215961456299,-5.071197986602783,75.16751098632812,2.7178887698831424,-5.283377498868447,-91.37186426676672,-13.280867,-6.508331,-2.5134003,37.501804,-17.872019,-2.2277153,-55.37434,-16.798162,21.617287,150.19661,-34.26868,-11.631003,-3.8742504,-2.1824853,23.55186,-0.6233806,18.419607,-10.331555,-31.151867,-6.9024963,-0.39097625,14.058833,7.47011,-9.894132,13.055687,1.167435,-14.696212,-29.049149,-13.687832
132,-4.709158897399902,-5.00360631942749,75.16670989990234,2.750725137588078,-5.282971062118467,-90.7581781536527,-13.645269,-6.839869,-2.928375,37.82084,-17.535212,-2.3549623,-56.953766,-19.111237,21.70913,151.26259,-35.83648,-14.119391,-3.8870544,-2.0135493,23.752079,-3.3553512,18.485807,-9.890145,-31.664188,-6.3110733,-0.059530653,14.217593,9.81932,-9.965066,11.890339,1.2343065,-14.535734,-28.774748,-14.454891
133,-4.693103790283203,-4.97835636138916,75.27293395996094,2.7938320477961205,-5.45561821619195,-90.65909553948588,-13.2142105,-6.93171,-2.9863107,37.196877,-17.10354,-2.4413166,-57.80203,-20.61575,21.829748,151.52779,-37.236866,-15.000033,-3.6559174,-1.8421384,23.93845,-5.0744247,18.25514,-9.293034,-32.480293,-6.6346827,0.17017235,14.7506075,11.917704,-9.976678,11.2059,1.6874726,-13.900389,-28.418932,-15.210425
134,-4.640171051025391,-4.996418476104736,75.47655487060547,3.1538075443188025,-5.807762155448122,-90.7373445256801,-11.991256,-7.2830977,-2.8348713,35.44973,-16.2328,-2.44534,-58.0763,-21.916033,22.182793,151.09169,-38.570705,-15.000033,-3.3892183,-1.9871224,24.129087,-6.125847,17.770689,-8.588838,-33.441036,-7.5356183,0.32463476,15.520538,13.885945,-9.957345,10.839472,2.3947809,-12.9192915,-28.002962,-16.011564
135,-4.5833635330200195,-5.035663604736328,75.77474975585938,3.411016630685344,-6.189111885252225,-90.91613830318602,-10.491259,-7.455713,-2.7212894,33.280277,-15.079993,-2.473761,-58.044018,-23.106352,21.86663,150.00533,-39.460068,-15.000033,-3.1016703,-1.9631726,24.251242,-6.751012,17.024467,-7.937228,-34.359905,-8.579979,0.38335052,16.22629,15.709683,-9.980947,10.630846,3.1531103,-11.9027815,-27.617664,-16.70808
136,-4.534335136413574,-5.093145847320557,76.16967010498047,3.375738469599591,-6.441652393684541,-91.06380635873934,-9.180192,-7.3001466,-2.785719,31.198967,-13.677812,-2.5843954,-57.78283,-23.924658,20.658358,148.36864,-39.599674,-15.000033,-2.8824353,-1.5997705,24.228085,-7.019564,16.201393,-7.4467244,-35.239395,-9.4142065,0.3393788,16.622873,17.349804,-10.065034,10.483278,3.7595584,-11.145904,-27.345905,-17.142971
137,-4.500814437866211,-5.151556968688965,76.65812683105469,3.0045299413911204,-6.485027087531545,-91.24709536087008,-8.113989,-6.751888,-2.9743974,29.149797,-12.024653,-2.773815,-57.323124,-24.117695,18.49883,146.12917,-38.830284,-15.000033,-2.7020214,-0.8696853,23.992268,-6.7375436,15.359356,-7.0880313,-36.272316,-10.148187,0.15200673,16.65671,18.792742,-10.221694,10.452135,4.183857,-10.714618,-27.226377,-17.212389
138,-4.487342357635498,-5.192936420440674,77.22197723388672,2.3844078974143175,-6.36324101802633,-91.5729325918837,-7.175194,-5.876727,-3.1442454,27.003494,-10.147475,-3.0394514,-56.62783,-23.768187,15.589928,143.25607,-37.363693,-15.000033,-2.4697816,0.124228984,23.575321,-5.8451443,14.491313,-6.813464,-37.519012,-10.954014,-0.1602395,16.48919,20.062128,-10.442856,10.578827,4.4943957,-10.4361515,-27.204594,-17.017319
139,-4.499744892120361,-5.2168049812316895,77.85581970214844,1.6348141548143222,-6.121641020166741,-91.92319622978691,-6.514634,-4.865217,-3.3000805,25.057053,-8.0510435,-3.4046211,-55.695232,-23.14714,12.316424,139.88705,-35.45977,-15.000033,-2.225717,1.2535806,23.048727,-4.6278963,13.637646,-6.7046833,-38.73397,-11.552242,-0.50173485,16.176754,21.182077,-10.703788,10.743493,4.6472425,-10.253798,-27.218773,-16.702686
140,-4.534778594970703,-5.2243828773498535,78.52462005615234,0.873849858168613,-5.814080153614807,-92.16504565585474,-6.261413,-3.8713813,-3.500292,23.602716,-5.7344785,-3.8768938,-54.521523,-22.543232,8.996721,136.16684,-33.354916,-15.000033,-2.012884,2.3941166,22.495926,-3.3789525,12.868829,-6.8424573,-39.659344,-11.667157,-0.7819411,15.789931,22.171448,-10.961838,10.821331,4.606263,-10.115429,-27.210287,-16.409042
141,-4.576249122619629,-5.21983528137207,79.2079849243164,0.4239318688684784,-5.509364401168952,-92.03443482974573,-6.1255493,-3.3522544,-3.9017112,22.098217,-2.7280836,-4.286532,-53.001896,-22.214588,6.0346074,132.12784,-31.151428,-15.000033,-2.0842137,3.1771967,21.971828,-2.0557144,12.240025,-7.2712603,-40.27509,-11.043218,-1.0026011,15.330265,23.05901,-11.17206,10.802037,4.3382964,-10.102584,-27.177273,-16.117975
142,-4.609954357147217,-5.205925464630127,79.89065551757812,-0.006432475991591759,-5.125433299173654,-91.7637438942382,-6.294663,-2.9159827,-4.415488,20.883026,0.64122796,-4.693343,-51.12154,-20.972345,3.8550432,127.65925,-28.688498,-12.561541,-2.2109187,3.935499,21.387705,-0.5598449,11.7652,-7.9532094,-40.672737,-9.902814,-1.217764,14.791512,23.79942,-11.314856,10.748028,3.912548,-10.223007,-27.152185,-15.766584
143,-4.670614719390869,-5.1646318435668945,80.56989288330078,-0.3822839939691276,-4.7094367757051465,-91.39507422523708,-6.7146115,-2.577539,-5.0094748,19.95806,4.136147,-5.2664685,-49.11063,-19.525335,1.9703938,122.89356,-26.152737,-9.737252,-2.3415334,4.6089573,20.799803,0.9219211,11.453759,-8.8337345,-40.786976,-8.683435,-1.406849,14.233357,24.351393,-11.391164,10.651084,3.3971407,-10.3113785,-27.120346,-15.427505
144,-4.746787071228027,-5.092285633087158,81.22293853759766,-0.6508433720821106,-4.320506711266351,-90.95363962409893,-7.2921834,-2.3844466,-5.665066,19.292023,7.531147,-6.174073,-47.049522,-18.007668,0.48501316,117.961815,-23.68236,-6.8236303,-2.4299893,5.146619,20.270054,2.209792,11.307011,-9.859643,-40.56486,-7.822021,-1.5378002,13.712345,24.678782,-11.413836,10.498929,2.8514032,-10.198427,-27.06498,-15.173418
145,-4.845576763153076,-5.005344390869141,81.84522247314453,-0.8080335347226544,-3.957062304630608,-90.42993427076335,-7.9279385,-2.347265,-6.474182,18.563416,11.121939,-7.72276,-44.91114,-16.407042,-0.6263439,112.813416,-21.264095,-3.8260405,-2.4898274,5.5518126,19.804209,3.268665,11.3403635,-11.056255,-39.966568,-7.459566,-1.5600201,13.220208,24.760656,-11.381161,10.282151,2.2848747,-9.786883,-26.986809,-15.034755
146,-4.950875282287598,-4.903160572052002,82.42362976074219,-0.8823801503890026,-3.6052400967064187,-89.81100733309918,-8.633447,-2.4350617,-7.528393,17.821468,14.89214,-9.857016,-42.643005,-14.730511,-1.4179502,107.398994,-18.876646,-0.7257267,-2.5397472,5.850104,19.377323,4.178039,11.5581255,-12.435273,-39.01857,-7.355214,-1.4982872,12.741836,24.619074,-11.286688,10.01316,1.6758221,-9.182135,-26.892525,-14.970027
147,-5.07301139831543,-4.785887718200684,82.95825958251953,-0.879137515814661,-3.3076691671260923,-89.11543196309889,-9.483646,-2.6438603,-8.724323,17.59292,18.159332,-12.146925,-40.229687,-13.154127,-1.9721156,101.849884,-16.63343,2.2140384,-2.5469048,6.0291295,19.010838,4.949073,11.928266,-13.92238,-37.791462,-7.369189,-1.4267439,12.315312,24.285034,-11.15101,9.708103,1.026332,-8.5169525,-26.772532,-14.943934
148,-5.190974235534668,-4.671234130859375,83.44685363769531,-0.802271998912393,-3.1010314395629526,-88.36160916668905,-10.591024,-2.9840343,-9.823036,18.441046,20.307669,-14.043557,-37.66638,-11.848749,-2.397867,96.28616,-14.593992,4.7581534,-2.4911864,6.0808306,18.725103,5.612066,12.397238,-15.432632,-36.37352,-7.3582177,-1.4224812,11.964801,23.792349,-11.015793,9.38781,0.32809475,-7.920455,-26.61559,-14.923241
149,-5.307441711425781,-4.5536274909973145,83.87234497070312,-0.6321414041932008,-3.00643079311974,-87.5042991769568,-12.035781,-3.5338306,-10.6839905,20.629213,21.09032,-15.000033,-34.8875,-10.858222,-2.744358,90.641945,-12.726436,6.944557,-2.4173644,5.9964685,18.552057,6.1668267,12.926405,-16.96475,-34.74239,-7.2674327,-1.5026988,11.654949,23.14244,-10.9095,9.058301,-0.43779606,-7.4213,-26.40468,-14.923626
150,-5.419912338256836,-4.439218521118164,84.20777893066406,-0.3555713006858767,-3.0050788552270142,-86.54790993623799,-13.76696,-4.252358,-11.175153,23.841986,20.911982,-15.000033,-31.90555,-10.137849,-2.9863849,84.8848,-10.971303,8.8529825,-2.3405833,5.781124,18.473732,6.6059856,13.505923,-18.543934,-32.871086,-7.168774,-1.6269392,11.370015,22.330442,-10.841442,8.713327,-1.2775446,-6.9443808,-26.149027,-14.959942
151,-5.545867443084717,-4.343141078948975,84.47248077392578,0.009599057066311334,-3.0671513051041925,-85.58392303879965,-15.703389,-5.0098677,-11.338407,27.77292,20.18388,-15.000033,-28.842276,-9.697648,-3.1736133,79.17615,-9.30413,10.342699,-2.2029624,5.444004,18.436588,6.9653826,14.1279335,-20.117626,-30.84372,-7.1095285,-1.786642,11.160574,21.381542,-10.832895,8.360155,-2.1862154,-6.462112,-25.875107,-14.996341
152,-5.665864944458008,-4.245129585266113,84.63992309570312,0.376821736588337,-3.1456111812689396,-84.70523131356077,-17.849514,-5.5446844,-10.956274,32.250847,19.252867,-15.000033,-25.819862,-9.466954,-3.4263654,73.6387,-7.6698933,11.282632,-1.9527754,5.073584,18.37663,7.2945647,14.785818,-21.622925,-28.752407,-7.138068,-1.9731114,11.076375,20.314516,-10.912326,8.018054,-3.1557157,-5.942723,-25.608347,-14.9991865
153,-5.780874729156494,-4.1643877029418945,84.70895385742188,0.7277015445397063,-3.249420161804878,-83.89010970097007,-20.246817,-5.717522,-9.860349,37.46675,18.070415,-15.000033,-22.804508,-9.459179,-3.9010496,68.1963,-5.9579434,11.549887,-1.6017923,4.6849566,18.294842,7.5872793,15.468119,-23.05842,-26.556082,-7.274199,-2.208419,11.183548,19.153725,-11.099713,7.7105336,-4.215557,-5.3775415,-25.33934,-14.949772
154,-5.930981636047363,-4.09402322769165,84.67697143554688,1.0419657218108247,-3.386454134810893,-83.10669839893475,-22.915905,-5.51916,-8.323569,43.511555,16.464148,-15.000033,-19.754162,-9.592043,-4.6228714,62.797554,-4.1882267,11.270328,-1.1833789,4.2988005,18.216173,7.8502517,16.169292,-24.437698,-24.242949,-7.4875536,-2.4903939,11.432449,17.882586,-11.402072,7.4399633,-5.364394,-4.7752686,-25.057655,-14.872934
155,-6.103438377380371,-4.018238067626953,84.53496551513672,1.312435761826048,-3.522869533184325,-82.4305514891662,-25.745447,-4.9677024,-6.720309,49.934143,14.66649,-15.000033,-16.788588,-9.712569,-5.413941,57.633045,-2.5192852,10.725233,-0.6849257,3.9371023,18.124727,8.1550455,16.897629,-25.715092,-21.943684,-7.750823,-2.7739599,11.701276,16.453188,-11.8253565,7.203956,-6.540461,-4.1282945,-24.78719,-14.800936
156,-6.279450416564941,-3.9349660873413086,84.28382873535156,1.5494569611924196,-3.6263207335547674,-81.93580765369175,-28.623625,-4.1935735,-5.377954,56.287846,12.913554,-15.000033,-14.028953,-9.7122345,-6.0513434,52.88253,-1.1016037,10.188591,-0.097117536,3.601123,18.005716,8.5719385,17.672379,-26.838037,-19.791529,-8.042145,-3.012503,11.87201,14.808093,-12.377784,7.0066466,-7.674215,-3.4286911,-24.55261,-14.764995
157,-6.462575435638428,-3.864581823348999,83.93651580810547,1.758517284596389,-3.6769250638504025,-81.64974921292932,-31.563917,-3.2664156,-4.3203707,62.618145,11.184626,-15.000033,-11.511796,-9.560568,-6.4412284,48.49926,0.45391956,9.665432,0.6006357,3.2693326,17.836926,9.116547,18.50177,-27.765636,-17.795475,-8.482187,-3.2111967,11.88712,12.935077,-13.056235,6.8682413,-8.78811,-2.607364,-24.338844,-14.744279
158,-6.6490607261657715,-3.764249324798584,83.47970581054688,1.928982579338877,-3.698676659655888,-81.53605409187524,-34.57494,-2.159195,-3.4543476,69.11006,9.373593,-15.000033,-9.179492,-9.306516,-6.701204,44.401608,2.0857923,9.049522,1.3882794,2.9444718,17.634777,9.781046,19.388435,-28.512182,-15.911953,-9.045217,-3.3881392,11.819819,10.837083,-13.858887,6.8187995,-9.876793,-1.687859,-24.140657,-14.734495
159,-6.8175883293151855,-3.6908392906188965,82.93905639648438,2.169575430478093,-3.729785331465042,-81.54105763126101,-37.545937,-0.77130216,-2.4669244,75.46906,7.64261,-14.381995,-7.028164,-9.132753,-6.849772,40.777374,2.957757,8.481973,2.1772358,2.5536606,17.448637,10.605384,20.347406,-29.102245,-14.206466,-9.491279,-3.516903,11.752972,8.47072,-14.795827,6.8927937,-10.824357,-0.7950528,-23.999907,-14.791751
160,-6.962434768676758,-3.610525608062744,82.31027221679688,2.4244379773688136,-3.7925069404102043,-81.64808622254503,-40.41319,0.8869914,-1.5246723,81.51433,6.0805335,-13.224937,-4.9993167,-9.016347,-6.9761696,37.662804,2.3358681,8.041461,2.9096057,2.184456,17.312891,11.639126,21.400496,-29.5554,-12.761543,-9.583701,-3.5735815,11.7725525,5.7836275,-15.878098,7.1377816,-11.514068,-0.04673874,-23.96222,-14.972981
161,-7.076330661773682,-3.506640672683716,81.55807495117188,2.7359567426258837,-3.8763269129816584,-81.83434463115125,-43.21254,2.5589054,-0.8116665,87.28066,4.725952,-12.065818,-2.9873445,-9.022004,-7.1366987,34.986454,-0.36046296,7.7219024,3.548132,1.8030746,17.193277,12.895972,22.580519,-29.900562,-11.594479,-9.255894,-3.56349,11.901417,2.721311,-17.099615,7.607711,-11.94352,0.62035817,-24.060282,-15.339053
162,-7.204299449920654,-3.410611629486084,80.77543640136719,3.0956484119573155,-3.9670452028844814,-82.12250796083582,-45.975307,4.275819,-0.27890873,92.88835,3.5056498,-10.858946,-1.0240287,-9.112439,-7.279711,32.644173,-4.540881,7.4847283,4.122472,1.4060159,17.085236,14.4037075,23.892527,-30.093798,-10.723032,-8.648989,-3.4959385,12.098044,-0.722725,-18.436157,8.340567,-12.141214,1.2518318,-24.269726,-15.84869
163,-7.336400985717773,-3.3150506019592285,79.99980163574219,3.387555923082265,-4.08561938831801,-82.56303061455846,-48.626884,6.1041703,-0.05065944,98.2377,2.3697202,-9.671986,0.7359971,-9.142527,-7.3218164,30.662924,-9.199644,7.3221145,4.6794105,1.1075755,17.067804,16.21595,25.299194,-30.049671,-10.211688,-7.834599,-3.3490825,12.347482,-4.516548,-19.864895,9.349832,-12.05945,1.703553,-24.546047,-16.405853
164,-7.441237449645996,-3.208554983139038,79.18876647949219,3.5030789441548262,-4.256013643261753,-83.2066049709198,-51.096867,8.116631,-0.18768117,103.20523,1.2753155,-8.516041,2.1308444,-8.975914,-7.173836,29.115171,-13.375442,7.1987815,5.281622,1.0260222,17.217634,18.348766,26.732067,-29.69814,-10.07832,-6.877839,-3.1004589,12.630146,-8.599697,-21.36825,10.616662,-11.684424,1.8274215,-24.839441,-16.915325
165,-7.5101637840271,-3.0683820247650146,78.36831665039062,3.3913243321201154,-4.567667857613703,-84.03984647159332,-53.401554,10.22059,-0.8656972,107.83728,0.30409822,-7.548413,3.2806673,-8.584552,-6.898041,27.918365,-17.142353,7.113283,5.946175,1.2484779,17.600098,20.724323,28.15865,-29.086315,-10.247583,-5.5476947,-2.6721113,12.917667,-13.063202,-22.96876,12.167856,-11.002973,1.5295379,-25.154942,-17.401537
166,-7.572660446166992,-2.911567211151123,77.55492401123047,3.1308232887400917,-4.983428858822268,-85.03840329595113,-55.59619,12.342803,-1.963358,112.17652,-0.533675,-6.743127,4.180163,-8.053273,-6.508159,27.139585,-20.958376,7.0185084,6.6770062,1.7232121,18.155918,23.284958,29.551447,-28.284197,-10.655498,-3.8921566,-2.0958087,13.215299,-17.848148,-24.644081,13.989441,-10.132737,0.91396487,-25.506786,-17.912691
167,-7.61511754989624,-2.7323639392852783,76.77609252929688,2.7900211227799177,-5.343001366995535,-86.23464291878383,-57.687405,14.53309,-3.2671669,116.07924,-1.3731416,-6.0031967,4.502953,-7.4069924,-5.844465,27.07164,-24.446514,6.858006,7.557067,2.345864,18.761156,25.988214,30.82552,-27.305534,-11.237568,-2.383977,-1.5129839,13.562334,-22.604181,-26.299335,15.902129,-9.267138,0.10364064,-25.85777,-18.370539
168,-7.658975601196289,-2.546374797821045,76.06222534179688,2.425854552035455,-5.488586193429805,-87.6669604456209,-59.69301,16.868,-4.591965,119.40046,-2.3471265,-5.224097,3.9608095,-6.6610417,-4.7657743,27.969236,-27.19892,6.6390333,8.667298,2.990765,19.26843,28.755484,31.868479,-26.173681,-11.859246,-1.4825507,-1.0654303,14.0113,-27.00944,-27.828804,17.705381,-8.50617,-0.80365133,-26.174442,-18.67457
169,-7.690818786621094,-2.3687121868133545,75.47122192382812,1.9428325222387035,-5.31208105906777,-89.61007024492272,-61.81605,19.628567,-6.1350074,122.1694,-3.4869783,-4.438383,2.0739317,-5.605139,-2.9875624,30.411661,-29.017344,6.385405,10.168706,3.711061,19.57741,31.736456,32.56415,-24.740004,-12.489943,-1.3486631,-0.80433196,14.594787,-31.38515,-29.230865,19.546185,-7.5212483,-2.0245152,-26.48074,-18.724586
170,-7.640674114227295,-2.141355276107788,74.95532989501953,1.3251003764273943,-4.939223001418888,-91.95711605824532,-64.05648,22.669924,-7.967359,124.44555,-4.690607,-3.6938217,-0.7978541,-4.215634,-0.7388319,34.061794,-30.137642,6.151531,11.965409,4.545505,19.725523,34.768692,32.855953,-23.142607,-13.0044565,-1.7028314,-0.6562172,15.276617,-35.81088,-30.508186,21.48297,-6.291844,-3.562928,-26.789902,-18.596773
171,-7.547855377197266,-1.899228572845459,74.52618408203125,0.7537395941684834,-4.546412871217635,-94.18228085683619,-66.08629,25.479609,-9.667839,126.133385,-5.8977137,-2.8910651,-3.688888,-2.8498006,1.3875773,37.749485,-30.784662,6.0001583,13.712646,5.3139386,19.794962,37.39795,32.777054,-21.762604,-13.19956,-2.309457,-0.5767247,16.017275,-39.66962,-31.58121,23.169191,-5.242474,-5.008966,-27.051329,-18.41994
172,-7.450037956237793,-1.675276279449463,74.23416137695312,0.43769010176814344,-4.286946859055566,-95.76014469790175,-67.48925,27.581558,-10.721755,127.15092,-7.0696673,-1.927652,-5.7002583,-1.9715425,2.8837411,40.305763,-31.187468,5.9888825,15.01017,5.799726,19.912897,39.335724,32.459103,-20.843334,-13.008626,-2.9348357,-0.5164683,16.785627,-42.374184,-32.361343,24.25607,-4.7405486,-5.9736977,-27.208143,-18.296003
173,-7.362548351287842,-1.5156201124191284,74.10429382324219,0.5042983661032916,-4.181122673135815,-96.55713483853793,-68.04027,28.980967,-10.765449,127.432785,-8.369818,-0.5780718,-6.6749797,-1.8431264,3.6899822,41.466988,-31.37581,6.1778116,15.722223,5.8339887,20.186932,40.73023,32.00387,-20.2843,-12.534095,-3.6929097,-0.45558998,17.720737,-43.88683,-32.780445,24.567595,-4.7044516,-6.3696604,-27.190437,-18.22273
174,-7.2439985275268555,-1.4251846075057983,74.133544921875,0.8419119537561297,-4.135881806653647,-96.84813323652101,-67.911354,29.898066,-10.024526,127.05257,-9.783196,1.0245073,-7.0918536,-2.2489958,4.099826,41.839924,-31.24797,6.5183935,16.006456,5.503762,20.546764,41.862453,31.449501,-19.87079,-11.9537735,-4.6813235,-0.43339846,18.80397,-44.521923,-32.84235,24.32576,-4.9013405,-6.4473486,-27.049034,-18.134928
175,-7.111349105834961,-1.3907123804092407,74.30142974853516,1.3026006036473736,-4.128595685241246,-96.72220900822303,-67.26038,30.209871,-8.850192,126.14251,-11.0016985,2.4606085,-7.051566,-2.974038,4.17543,41.585377,-30.839188,6.890064,15.918448,4.994498,20.89904,42.68743,30.867477,-19.64042,-11.387836,-5.6354246,-0.47630423,19.768318,-44.62092,-32.59047,23.835394,-5.1391473,-6.1874375,-26.908585,-18.049906
176,-6.978316783905029,-1.4058576822280884,74.58280181884766,1.7237204500222,-4.14496958113206,-96.27789360406744,-66.30484,29.842201,-7.667394,124.824554,-11.689849,3.3456929,-6.656785,-3.7658007,3.9708912,40.85362,-30.167107,7.170279,15.545224,4.508883,21.144447,43.128605,30.345747,-19.665415,-10.933936,-6.3008533,-0.59414166,20.352869,-44.2132,-32.098965,23.295652,-5.501153,-5.6642766,-26.8892,-17.988968
177,-6.839663505554199,-1.4476730823516846,74.94664001464844,2.071461586351908,-4.23976352948893,-95.32869771637085,-65.04551,28.613113,-6.5569696,123.06407,-11.713928,3.5931041,-5.6889515,-4.631588,3.2800112,39.397392,-29.243683,7.3378897,14.788155,4.082449,21.302946,43.070927,29.98275,-20.078161,-10.618078,-6.6783614,-0.7734813,20.47166,-43.150776,-31.41947,22.624832,-6.179348,-4.5291967,-27.047583,-17.989996
178,-6.724838733673096,-1.519363522529602,75.38436126708984,2.4200970316189414,-4.4092023165551675,-93.89506438769732,-63.42792,26.616701,-5.3763733,120.8051,-11.265195,3.4128532,-4.169938,-5.637567,2.1173573,37.24004,-28.055948,7.459289,13.715371,3.6276767,21.403566,42.58193,29.805923,-20.842653,-10.428848,-6.921288,-1.0024467,20.284737,-41.326878,-30.570276,21.678509,-7.229269,-2.8646595,-27.311768,-18.03762
179,-6.625588893890381,-1.6234749555587769,75.88806915283203,2.753702267602935,-4.551590607164783,-92.39368148366644,-61.599648,24.241323,-4.246056,118.1478,-10.490906,2.8882904,-2.5794983,-6.616196,0.8820279,34.92824,-26.574753,7.5413675,12.653694,3.1726043,21.385393,41.859966,29.764668,-21.76881,-10.406274,-6.984876,-1.2888744,19.8924,-39.004738,-29.592978,20.606455,-8.383441,-1.3081878,-27.609709,-18.062395
180,-6.517792701721191,-1.7594317197799683,76.45695495605469,3.070709694503094,-4.56124133422021,-91.24330138440881,-59.686768,21.891356,-3.252158,115.19182,-9.543785,2.1155033,-1.4234723,-7.4419723,0.0021796902,33.016144,-24.773268,7.5650043,11.881501,2.743832,21.201403,41.116905,29.752052,-22.633024,-10.581618,-6.7994323,-1.6462303,19.386192,-36.568645,-28.548985,19.604073,-9.274455,-0.4376854,-27.86527,-17.997528
181,-6.353480339050293,-1.9172595739364624,77.0732650756836,3.4006096255391816,-4.37248771401788,-90.52387974953956,-57.695118,19.589764,-2.397743,111.895454,-8.313971,1.0803233,-0.8342356,-8.124727,-0.38690692,31.558731,-22.536238,7.4101205,11.457694,2.3490074,20.811003,40.27056,29.696657,-23.477352,-10.898004,-6.1175456,-2.1395397,18.652382,-33.95499,-27.458038,18.71245,-9.923744,-0.5298805,-28.040691,-17.807161
182,-6.143589496612549,-2.0724313259124756,77.71575164794922,3.7364233412614123,-4.053512875695488,-90.02439304602422,-55.56395,17.160692,-1.6998907,108.228775,-6.8055983,-0.2432727,-0.5842793,-8.6940975,-0.5279939,30.321339,-19.940094,7.080288,11.212442,1.9989544,20.263481,39.211277,29.57843,-24.392208,-11.302977,-5.0290794,-2.7597885,17.68368,-31.034357,-26.313454,17.893679,-10.492482,-1.2077616,-28.183039,-17.5432
183,-5.88783073425293,-2.221407175064087,78.3687973022461,4.016082663906289,-3.6941034500801675,-89.72995826788494,-53.295624,14.739809,-1.2142091,104.3012,-5.335747,-1.7508644,-0.6328743,-9.108581,-0.5185732,29.412336,-17.224398,6.727816,11.07512,1.7253376,19.655087,38.108665,29.360096,-25.213095,-11.828479,-3.950967,-3.3992126,16.724894,-28.02906,-25.134075,17.20876,-10.854507,-2.1331878,-28.33785,-17.279028
184,-5.607580184936523,-2.357241153717041,79.01480865478516,4.176985506375583,-3.3834086894733115,-89.62894359542285,-50.889416,12.48079,-0.97171974,100.22448,-4.205646,-3.3245027,-0.9032406,-9.364013,-0.42930225,28.906849,-14.585356,6.5380716,10.967942,1.5654522,19.080523,37.13197,28.995186,-25.771357,-12.496794,-3.2843058,-3.9285629,16.005129,-25.175089,-23.94692,16.716654,-10.877413,-2.9682033,-28.545515,-17.09132
185,-5.299513339996338,-2.479145050048828,79.63253021240234,4.192350997506562,-3.1064857129616277,-89.77714370145365,-48.313946,10.3892565,-1.0030596,95.96109,-3.5954826,-5.006509,-1.3759942,-9.497062,-0.2511301,28.642143,-11.804837,6.61172,10.927265,1.5676016,18.520452,36.285133,28.431023,-26.043425,-13.279556,-3.0986936,-4.306082,15.568237,-22.469955,-22.767206,16.47604,-10.509252,-3.6517818,-28.801075,-17.070393
186,-4.982092380523682,-2.6016128063201904,80.21656799316406,4.089890244681539,-2.82758800142688,-90.16865227966795,-45.562515,8.479268,-1.2872044,91.474625,-3.3247929,-6.7675614,-2.0656993,-9.510261,0.07736546,28.602022,-8.829373,6.859683,10.956647,1.711086,17.933027,35.46894,27.646349,-26.102522,-14.121112,-3.1681392,-4.5947084,15.285886,-19.840887,-21.59956,16.478302,-9.790138,-4.3557677,-29.084768,-17.160131
187,-4.650137424468994,-2.724172592163086,80.74887084960938,3.8896909197429257,-2.6058753154615886,-90.6939998070254,-42.670765,6.8849134,-1.697321,86.867744,-3.1202083,-8.376142,-2.9084275,-9.381705,0.5656531,29.013975,-6.0673547,7.2211256,10.935578,1.9282714,17.37886,34.686745,26.663227,-25.939344,-15.003746,-3.4519458,-4.810797,15.123518,-17.392464,-20.458794,16.648579,-8.734076,-5.1016917,-29.413631,-17.216738
188,-4.3361663818359375,-2.8625614643096924,81.22364044189453,3.621165294166829,-2.4998439008147115,-91.23691444278452,-39.678143,5.6674557,-2.0938287,82.23725,-2.6886604,-9.6616335,-3.8423402,-9.09493,1.2004324,30.116953,-3.9411542,7.627903,10.752359,2.1464386,16.925018,33.95115,25.53688,-25.549593,-15.938631,-3.9187217,-4.970998,15.047983,-15.203915,-19.36084,16.882792,-7.387029,-5.9041677,-29.80569,-17.0991
189,-4.047590255737305,-2.989551067352295,81.63909912109375,3.2425696099792396,-2.5503865091910227,-91.77656896005651,-36.537666,4.845219,-2.4752223,77.55003,-2.019912,-10.647841,-4.814956,-8.528341,2.075372,31.94673,-2.5572865,8.179338,10.404937,2.400286,16.611732,33.315144,24.295008,-24.906982,-16.985903,-4.688396,-5.054634,15.107347,-13.241496,-18.314741,17.104094,-5.7457595,-6.8073463,-30.326782,-16.737911
190,-3.762051820755005,-3.1154539585113525,81.97491455078125,2.7519024998860515,-2.7225185028355847,-92.36405655693565,-33.243126,4.350564,-2.8712244,72.77679,-1.2312895,-11.442072,-5.860246,-7.674975,3.1383858,34.392338,-1.7163738,8.948972,9.960326,2.7162526,16.399101,32.749664,22.945791,-24.038269,-18.142944,-5.7465687,-5.0635643,15.306813,-11.439335,-17.323076,17.340303,-3.824843,-7.784769,-30.95109,-16.228338
191,-3.5007686614990234,-3.228875160217285,82.21891784667969,2.2512963837016304,-2.958223907893599,-92.9893411527102,-29.902523,4.057074,-3.1947982,68.01326,-0.21396382,-12.049486,-7.0647783,-6.719995,4.14016,37.5144,-1.393446,9.766587,9.41513,3.0041583,16.236727,32.152374,21.535294,-23.012615,-19.34754,-6.8644953,-5.04518,15.547427,-9.817864,-16.393366,17.625023,-1.7046605,-8.743962,-31.560848,-15.671162
192,-3.2628700733184814,-3.3372323513031006,82.36764526367188,1.8447173988608316,-3.1958608101892287,-93.644937628446,-26.624,3.8225968,-3.3648043,63.34703,1.1431289,-12.4803095,-8.522096,-5.9190216,4.8465962,41.38673,-1.5327334,10.389461,8.776161,3.165032,16.075283,31.440746,20.139036,-21.890934,-20.569393,-7.818485,-5.0404334,15.729489,-8.38557,-15.539759,17.97386,0.5224523,-9.59232,-32.033916,-15.160017
193,-3.0351402759552,-3.4470887184143066,82.42436981201172,1.570086692738035,-3.4202745972315616,-94.35939191916198,-23.404325,3.4881637,-3.4672923,58.64667,3.494134,-12.847224,-10.32416,-5.3781743,5.2615986,46.29434,-2.2725053,10.717417,8.082301,3.1369958,15.91093,30.67114,18.810785,-20.653534,-21.883818,-8.586563,-5.0645633,15.815193,-7.129385,-14.767901,18.350052,2.8934677,-10.3191395,-32.324894,-14.710324
194,-2.8239686489105225,-3.551687002182007,82.38011932373047,1.3787564176696028,-3.660321729020344,-95.12759296889854,-20.207176,3.1369314,-3.506155,53.92471,6.5629106,-13.137039,-12.424322,-5.041704,5.507919,52.177917,-3.618216,10.792418,7.3441,2.9714825,15.768119,29.887737,17.57235,-19.28373,-23.344988,-9.292866,-5.0917597,15.868604,-6.008698,-14.080144,18.709492,5.39342,-10.965013,-32.50039,-14.270708
195,-2.5983312129974365,-3.643784284591675,82.21935272216797,1.240274450851566,-3.9180758542814225,-95.89360776274492,-17.079733,2.95387,-3.2404528,49.46,9.088435,-13.170821,-14.69694,-4.9775314,5.5639124,58.570057,-5.277413,10.546409,6.5324035,2.737523,15.642196,28.995787,16.460482,-17.845592,-24.894262,-9.934809,-5.1008396,15.938717,-4.9835835,-13.49238,19.046627,7.8450394,-11.514595,-32.603603,-13.831908
196,-2.364983320236206,-3.742412805557251,81.94905090332031,1.1315834837062617,-4.196922188827456,-96.60060321336022,-14.0357485,3.0777273,-2.408102,45.485264,9.836845,-12.801575,-16.997505,-5.2178917,5.4018455,64.988045,-6.9447794,9.949016,5.62564,2.5079613,15.535492,27.906137,15.521686,-16.41044,-26.48476,-10.513036,-5.0723557,16.075014,-4.005651,-13.030578,19.349342,10.060238,-11.948262,-32.67811,-13.385633
197,-2.118062973022461,-3.858604669570923,81.58369445800781,1.0307246381375854,-4.483144582257495,-97.2413183202351,-10.907581,3.6100934,-0.71297807,41.907284,8.122744,-12.022587,-19.321102,-5.8836136,4.8976502,71.50969,-8.646837,8.880234,4.60526,2.3108528,15.409714,26.66749,14.798663,-15.029641,-28.191055,-11.013656,-4.9846983,16.347843,-3.0596113,-12.715429,19.59921,12.033955,-12.269227,-32.708958,-12.89728
198,-1.876988410949707,-3.9474680423736572,81.12974548339844,0.980654861243503,-4.782637536836795,-97.84220848465631,-7.622771,4.2473207,1.5827105,38.480152,4.769507,-11.1659565,-21.697916,-7.0300403,4.2124662,78.33112,-10.56369,7.33827,3.5153894,2.0829298,15.293351,25.326714,14.309042,-13.687014,-30.054245,-11.459994,-4.8575306,16.7196,-2.1325994,-12.552722,19.766848,13.797615,-12.475254,-32.680515,-12.37859
199,-1.6018493175506592,-4.0216169357299805,80.59345245361328,1.0319662951173776,-5.124611256862156,-98.39436410581547,-4.386398,4.616246,3.9067016,35.25107,0.8163071,-10.497105,-24.052284,-8.479254,3.6867604,85.17561,-12.596375,5.5406804,2.4262745,1.7776532,15.27895,23.79155,14.053121,-12.353602,-31.965317,-11.904408,-4.7323956,17.077427,-1.1862646,-12.544979,19.830172,15.229728,-12.539617,-32.63507,-11.890537
200,-1.322381615638733,-4.0650410652160645,80.00695037841797,1.2178813299860654,-5.531654400137353,-98.89274295603117,-1.5060946,4.523537,5.7514963,32.406555,-2.7481375,-10.021515,-26.337534,-9.963487,3.5883703,91.75787,-14.597616,3.7462156,1.4091679,1.3646129,15.446084,21.962523,14.020191,-10.995371,-33.80415,-12.392885,-4.649105,17.306513,-0.18869583,-12.693012,19.7764,16.219501,-12.434501,-32.613907,-11.493234
201,-1.0393131971359253,-4.0898213386535645,79.38566589355469,1.5914081701813392,-6.058782008029563,-99.3950319261767,0.9634118,3.9731665,7.0627785,30.048265,-5.919155,-9.52337,-28.538345,-11.408768,4.0091867,98.14897,-16.549261,1.9958946,0.4825481,0.79182196,15.852967,19.834906,14.215204,-9.583992,-35.60754,-12.993933,-4.6235695,17.363138,0.82495016,-13.018796,19.652376,16.700886,-12.104373,-32.634335,-11.206314
202,-0.7641268968582153,-4.068734645843506,78.73375701904297,2.1086893872739143,-6.665242011884024,-99.88755393263628,3.1295395,3.162868,8.063494,28.1094,-9.167164,-8.964379,-30.690224,-12.876487,4.808572,104.47121,-18.524162,0.22304387,-0.37957835,0.09808701,16.427593,17.465866,14.641207,-8.165199,-37.41702,-13.665279,-4.631613,17.311993,1.8698272,-13.527244,19.441504,16.72699,-11.572403,-32.670277,-10.991532
203,-0.4946412444114685,-4.0095133781433105,78.06532287597656,2.6534425417850453,-7.233824500370831,-100.26530912052117,4.8627667,2.2853024,8.736066,26.659956,-12.294933,-8.439627,-32.830345,-14.258606,5.7956166,110.5092,-20.466343,-1.4810246,-1.1728517,-0.60488325,17.0543,14.827041,15.273707,-6.8103538,-39.087513,-14.277792,-4.652848,17.201303,3.0470014,-14.172827,19.043346,16.3888,-10.934045,-32.700073,-10.821458
204,-0.2751011252403259,-3.926302909851074,77.40428924560547,3.1065348002148623,-7.656867597436445,-100.42070124747676,6.0262184,1.525156,9.102154,25.792006,-15.104266,-8.029363,-34.989452,-15.462079,6.7499514,116.03626,-22.300318,-3.0326638,-1.90429,-1.2080463,17.618841,11.865321,16.073786,-5.585585,-40.443535,-14.692257,-4.6679664,17.076817,4.4310126,-14.879432,18.366768,15.825314,-10.296378,-32.703373,-10.671003
205,-0.09250055253505707,-3.815484046936035,76.77420806884766,3.441224682722176,-7.909715249280347,-100.31838158181799,6.4430575,0.9517309,9.15117,25.76395,-17.688787,-7.683392,-37.23194,-16.370213,7.6444745,121.088936,-23.955294,-4.3597026,-2.6031795,-1.6880049,18.093113,8.3839,17.069195,-4.481102,-41.391647,-14.864549,-4.664495,16.928518,5.987941,-15.61468,17.38961,15.047579,-9.652012,-32.681755,-10.523545
206,0.06207938492298126,-3.6712260246276855,76.18669891357422,3.72583093329452,-8.055124125209941,-100.02672282473924,6.191868,0.47695848,8.92457,26.54615,-20.159616,-7.3071027,-39.503513,-17.03827,8.524358,125.78706,-25.463453,-5.49682,-3.2412362,-2.1165295,18.534397,4.461801,18.271824,-3.5091205,-42.029404,-14.863763,-4.65808,16.74458,7.701202,-16.361795,16.161375,14.038764,-8.966687,-32.64727,-10.3941965
207,0.22046351432800293,-3.4871420860290527,75.66870880126953,3.982421683948851,-8.12251854822871,-99.5871411853165,5.5394754,0.038962286,8.537568,27.759638,-22.314037,-6.93088,-41.675625,-17.661423,9.287718,130.00504,-26.881676,-6.524627,-3.8001103,-2.5280952,18.950285,0.43152606,19.570871,-2.7165337,-42.418354,-14.711747,-4.6704636,16.561522,9.586522,-17.036568,14.753452,12.982245,-8.309741,-32.595573,-10.312037
208,0.38253214955329895,-3.2921030521392822,75.23515319824219,4.238096846547929,-8.143014666951922,-99.03548445315126,4.7659044,-0.41792592,8.099307,29.004642,-23.935102,-6.6000195,-43.644577,-18.442225,9.863368,133.59554,-28.250942,-7.5248113,-4.317093,-2.9575987,19.331549,-3.3970315,20.789055,-2.0935845,-42.56215,-14.403412,-4.7135143,16.383133,11.540038,-17.529823,13.2827425,12.172616,-7.7780304,-32.522537,-10.313783
209,0.5318486094474792,-3.093311309814453,74.88971710205078,4.537068132171844,-8.099112785275636,-98.21596638009822,3.6933491,-0.97029364,7.5244184,30.507895,-24.9144,-6.3091516,-45.52781,-19.585934,10.289546,136.5701,-29.564503,-8.559444,-4.9150114,-3.4583616,19.682295,-7.226761,21.829481,-1.6079752,-42.261272,-13.72342,-4.810175,16.009426,13.465773,-17.775518,11.7012,11.844713,-7.5319247,-32.41894,-10.464556
210,0.6546969413757324,-2.904315233230591,74.64299011230469,4.853304472229964,-7.993974765039249,-97.15523697185714,2.2826765,-1.5796688,6.81354,32.337288,-25.363935,-6.065847,-47.37783,-20.938711,10.601729,138.9914,-30.742868,-9.557043,-5.5799565,-3.9952545,19.986904,-11.194544,22.68893,-1.2686338,-41.496113,-12.701625,-4.9415584,15.452778,15.316663,-17.778818,10.016895,11.925845,-7.520382,-32.290344,-10.730214
211,0.7321471571922302,-2.7388718128204346,74.51651000976562,5.099462421466272,-7.891914399754787,-96.15747415467852,1.0201374,-2.1089604,6.177756,33.87009,-25.409773,-5.923037,-49.001415,-22.193108,10.695676,140.77737,-31.711517,-10.442789,-6.1700854,-4.467655,20.223425,-14.858241,23.33449,-1.0605344,-40.567448,-11.697965,-5.040464,15.02012,17.036634,-17.572014,8.44378,12.238502,-7.5368085,-32.15332,-11.007528
212,0.7910014390945435,-2.624415874481201,74.50335693359375,5.188612417909895,-7.854612588469828,-95.52751882907742,0.3823113,-2.398542,5.7990456,34.508488,-25.196907,-5.9013186,-50.198235,-23.064102,10.428253,141.83855,-32.400444,-11.168631,-6.542337,-4.7540026,20.387083,-17.73682,23.729082,-0.9314337,-39.803463,-11.06453,-5.0206633,15.001931,18.600634,-17.226011,7.1781135,12.568607,-7.3844433,-32.023277,-11.204292
213,0.8361127972602844,-2.569694757461548,74.62012481689453,5.077540549416892,-7.92717412889783,-95.40181830981372,0.58760726,-2.3488898,5.757394,34.01287,-24.786871,-6.022576,-50.89879,-23.535826,9.656431,142.09401,-32.831665,-11.821266,-6.611013,-4.767455,20.518972,-19.653118,23.813179,-0.7995368,-39.268814,-10.892206,-4.776343,15.603311,20.060987,-16.793762,6.2084756,12.873906,-7.0166345,-31.878656,-11.295883
214,0.8822420835494995,-2.5648629665374756,74.85372161865234,4.811401240882507,-8.071727293220034,-95.5942473600872,1.3556393,-2.0357566,5.9209714,32.75212,-24.116701,-6.2477956,-51.21356,-23.761023,8.434956,141.60822,-33.00811,-12.416807,-6.460786,-4.5349336,20.634592,-20.87666,23.576777,-0.6748414,-38.81335,-10.988798,-4.3716135,16.603256,21.465073,-16.31086,5.3975134,13.177097,-6.5315766,-31.715166,-11.341278
215,0.9252541661262512,-2.6061832904815674,75.18985748291016,4.440579948419756,-8.219701309221717,-95.9299507393444,2.4006622,-1.5606792,6.151559,31.054157,-23.148523,-6.494777,-51.220192,-23.692911,6.9478245,140.51073,-32.83354,-12.774624,-6.194945,-4.107889,20.693306,-21.553833,23.085178,-0.6360079,-38.494278,-11.279047,-3.97758,17.67105,22.813885,-15.82742,4.749574,13.337097,-5.940812,-31.575344,-11.375406
216,0.9505699276924133,-2.6911914348602295,75.61534881591797,4.0204353498824394,-8.299947702753034,-96.23513985676958,3.4294538,-1.0443653,6.3178105,29.232166,-21.828278,-6.7011743,-51.02012,-23.293644,5.416195,138.93465,-32.214287,-12.716707,-5.941482,-3.5682855,20.653185,-21.788843,22.449799,-0.7377625,-38.392517,-11.699365,-3.76795,18.493906,24.093872,-15.391532,4.314088,13.228835,-5.242169,-31.503372,-11.429891
217,0.9695578217506409,-2.8060009479522705,76.11839294433594,3.540965272082288,-8.314826647251252,-96.56476552866934,4.5637484,-0.515955,6.470399,27.060362,-20.081137,-6.852403,-50.59371,-22.417929,3.898564,136.83328,-31.071978,-12.130103,-5.697133,-2.9171462,20.505424,-21.43611,21.73033,-0.951674,-38.657063,-12.540208,-3.85133,19.10975,25.303215,-15.0392685,4.2062736,12.783608,-4.267916,-31.538895,-11.518801
218,0.9799125790596008,-2.9331109523773193,76.69400787353516,2.9901955891525906,-8.287504851003023,-96.98811733745664,5.867626,0.045023914,6.6843143,24.472097,-17.948803,-6.993731,-49.91202,-21.094885,2.3512797,134.15965,-29.524765,-11.095906,-5.4308124,-2.1486063,20.261328,-20.447685,20.932005,-1.2276112,-39.25061,-13.764666,-4.130068,19.671492,26.434107,-14.772628,4.4068794,12.086153,-3.045913,-31.650896,-11.61866
219,0.9841430187225342,-3.075080156326294,77.3219985961914,2.418476148696682,-8.1785355460449,-97.35059949802637,6.958575,0.59374446,6.8477225,22.02427,-15.550552,-7.146272,-49.07837,-19.561352,0.8542872,131.04378,-27.76415,-9.744981,-5.2316213,-1.3572414,19.916374,-19.04847,20.08545,-1.6126593,-39.992813,-14.7928295,-4.4503846,20.0478,27.453857,-14.564508,4.7832355,11.261342,-1.8732963,-31.776497,-11.702629
220,0.9621605277061462,-3.2122254371643066,77.99677276611328,1.8788061391479152,-7.947900905063366,-97.4954887595345,7.4569917,1.1222876,6.8210063,20.290981,-13.014812,-7.3084188,-48.194286,-18.070118,-0.5285017,127.61456,-25.957422,-8.213732,-5.178117,-0.64261764,19.47217,-17.479113,19.238451,-2.159585,-40.67648,-15.054446,-4.645822,20.120863,28.331516,-14.362372,5.1994967,10.4351425,-1.0581772,-31.852303,-11.747113
221,0.89798903465271,-3.34283447265625,78.70711517333984,1.3474121707956537,-7.534981310563713,-97.36748500499037,7.2227154,1.69611,6.548333,19.425884,-10.27978,-7.445462,-47.281765,-16.644806,-1.7948381,123.81787,-24.103535,-6.420498,-5.315944,-0.019089855,18.864367,-15.688402,18.424154,-2.9057415,-41.297382,-14.237832,-4.669144,19.796255,29.054008,-14.1253,5.6879907,9.627745,-0.75887746,-31.855236,-11.714634
222,0.8167942762374878,-3.445094347000122,79.4355239868164,0.8154741601983542,-6.969520234682936,-97.05505226711723,6.4496074,2.288328,6.086532,19.13639,-7.3110228,-7.540445,-46.27344,-15.184994,-2.9720085,119.61022,-22.181673,-4.3791203,-5.574967,0.5465194,18.111912,-13.616804,17.658226,-3.8526082,-41.910885,-12.706854,-4.619349,19.167866,29.634598,-13.845687,6.2985873,8.795583,-0.8034169,-31.822481,-11.624464
223,0.7080327868461609,-3.512174367904663,80.1655502319336,0.34211317971364247,-6.346301684980736,-96.60892895708743,5.277736,2.8012857,5.4456067,19.321316,-4.2702026,-7.634831,-45.1583,-13.734206,-3.9714358,115.13518,-20.263414,-2.2700417,-5.86938,1.0338855,17.340412,-11.486641,16.96576,-4.9832854,-42.398132,-10.90518,-4.5446773,18.407022,30.083174,-13.517409,6.925522,7.9667273,-1.0034889,-31.780018,-11.540875
224,0.5710262060165405,-3.547795534133911,80.88209533691406,-0.01007903114415688,-5.76564382633048,-96.07850739456873,3.881178,3.1530323,4.6369324,19.847368,-1.3006492,-7.806977,-43.923683,-12.333256,-4.707943,110.5254,-18.39438,-0.25856853,-6.110015,1.4164772,16.675838,-9.527889,16.370905,-6.2793074,-42.634197,-9.280034,-4.4755325,17.691751,30.41437,-13.131045,7.455461,7.1653905,-1.1718949,-31.753159,-11.528046
225,0.4165079593658447,-3.5455472469329834,81.57750701904297,-0.22229661736028164,-5.201534524149004,-95.44409703805835,2.2980363,3.3456001,3.6707463,20.51458,1.8160397,-8.233221,-42.600418,-10.983657,-5.1487126,105.74776,-16.600046,1.6225837,-6.30894,1.6663845,16.098488,-7.7555146,15.891916,-7.7772593,-42.593483,-7.828694,-4.406344,17.077904,30.62629,-12.657356,7.8828244,6.414326,-1.3072214,-31.750835,-11.597548
226,0.2638207674026489,-3.52982234954834,82.24664306640625,-0.3294923453526614,-4.621846655016002,-94.68402426651285,0.49981287,3.4123776,2.4933777,21.355536,5.115003,-8.921019,-41.163113,-9.696834,-5.339097,100.74834,-14.851176,3.4326818,-6.494028,1.7998093,15.551708,-6.0965614,15.537067,-9.48315,-42.301594,-6.3538527,-4.326387,16.476372,30.715448,-12.083171,8.252867,5.7058783,-1.4992125,-31.759228,-11.714351
227,0.10675918310880661,-3.513758659362793,82.88139343261719,-0.35344699183919415,-4.124567843218686,-93.84778279367406,-1.4120153,3.3126874,1.0600412,22.556581,8.184872,-9.694053,-39.518227,-8.510437,-5.3125973,95.62798,-13.082667,5.173721,-6.604355,1.8504456,15.112498,-4.6301026,15.302744,-11.314924,-41.730488,-5.017951,-4.2404776,15.851045,30.690617,-11.434884,8.533706,5.0149703,-1.6910485,-31.769537,-11.87438
228,-0.0418655090034008,-3.484497308731079,83.46735382080078,-0.3220977695174726,-3.808216215556393,-92.98840354856289,-3.3485634,2.9978201,-0.6145971,24.328049,10.618564,-10.314096,-37.577515,-7.4417295,-5.125322,90.48004,-11.220024,6.849006,-6.587967,1.8567485,14.8637905,-3.406876,15.171206,-13.177658,-40.88541,-3.9833448,-4.15128,15.164326,30.557041,-10.76332,8.699276,4.3083873,-1.816924,-31.77159,-12.074891
229,-0.16680863499641418,-3.439260721206665,83.99717712402344,-0.21249285222879327,-3.734699260188993,-92.09518373815246,-5.3069196,2.3011456,-2.7270153,26.792267,12.31986,-10.617783,-35.258545,-6.516007,-4.776831,85.25773,-9.117154,8.510751,-6.4622836,1.8123384,14.880854,-2.431459,15.124896,-15.059542,-39.787678,-3.4177792,-4.0372715,14.354648,30.338343,-10.081866,8.746974,3.5482743,-1.7569886,-31.76187,-12.337717
230,-0.2841207981109619,-3.395899772644043,84.4629135131836,-0.01402422545466297,-3.8503747400634274,-91.15471906055599,-7.282356,1.2112343,-5.159479,29.80316,13.518306,-10.799629,-32.62151,-5.718325,-4.234631,79.93203,-6.844096,10.149055,-6.249632,1.6950057,15.108446,-1.6644777,15.151947,-16.99126,-38.44917,-3.1914916,-3.895257,13.460052,30.01933,-9.388833,8.695286,2.7568278,-1.5705024,-31.745373,-12.660705
231,-0.40041595697402954,-3.3475518226623535,84.8333511352539,0.22301957956691068,-4.074809533114331,-90.2146784142086,-9.260934,-0.039645802,-7.401262,33.283348,14.255606,-11.060912,-29.804964,-5.001549,-3.5490859,74.617294,-4.6406693,11.653282,-5.9210443,1.5277683,15.4353285,-1.0585383,15.237579,-18.925602,-36.880405,-3.024057,-3.7584946,12.588276,29.545618,-8.729762,8.559874,1.9846002,-1.4532857,-31.723324,-13.004906
232,-0.5148179531097412,-3.3195953369140625,85.11227416992188,0.45053181231537465,-4.320464327539476,-89.31728619158933,-11.300941,-1.149088,-8.957865,37.226513,14.5360775,-11.5426855,-26.95293,-4.3259454,-2.7921124,69.419975,-2.736317,12.902487,-5.4723525,1.3425899,15.749447,-0.5369846,15.366762,-20.793005,-35.116604,-2.637043,-3.6688883,11.841924,28.866465,-8.1826725,8.368866,1.2709935,-1.59004,-31.694265,-13.332266
233,-0.6130873560905457,-3.286597967147827,85.28314208984375,0.6556620456599546,-4.5897131043545,-88.45358093739178,-13.482022,-2.0017743,-9.69497,41.88175,14.194473,-12.270837,-24.0373,-3.6501548,-1.957347,64.25403,-1.1534657,13.874097,-4.9212236,1.1657674,16.053617,-0.0614202,15.531142,-22.597757,-33.22748,-2.1764479,-3.6227207,11.1829605,27.996845,-7.8117585,8.207549,0.5429154,-1.8883382,-31.63453,-13.644641
234,-0.7214809060096741,-3.252577781677246,85.35414123535156,0.8619262326000309,-4.914078553313801,-87.6023401946965,-15.850237,-2.670671,-9.85191,47.30824,13.223675,-13.053503,-21.014545,-3.0297854,-1.0433496,59.084084,0.240999,14.619061,-4.3145037,0.9869948,16.396189,0.38293523,15.726076,-24.321526,-31.22742,-1.7194186,-3.6039999,10.571899,26.954187,-7.630973,8.072851,-0.21015678,-2.270645,-31.548494,-13.965486
235,-0.8402369022369385,-3.2194387912750244,85.31200408935547,1.072661451911959,-5.246570287233874,-86.78674918501252,-18.397549,-3.0620553,-9.519448,53.13513,11.919654,-13.66606,-18.006031,-2.5596838,-0.2018879,54.07579,1.4719254,15.000033,-3.6901243,0.78975236,16.73409,0.8363927,15.945298,-25.861185,-29.052204,-0.8835644,-3.6458097,10.10601,25.697483,-7.639962,7.856142,-0.8613253,-2.9473705,-31.47431,-14.286077
236,-0.9700849652290344,-3.2149453163146973,85.17293548583984,1.2848759237093093,-5.54257886599853,-86.03223730736208,-21.080658,-3.112577,-8.819424,58.95548,10.596444,-13.926496,-15.134807,-2.2786791,0.44263265,49.395485,2.564106,15.000033,-3.0758066,0.5615031,17.028221,1.3314075,16.182419,-27.120188,-26.633465,0.71617866,-3.7827656,9.883832,24.189583,-7.83165,7.442324,-1.2883664,-4.1351337,-31.44896,-14.59848
237,-1.1124207973480225,-3.215036630630493,84.9344482421875,1.4668320296873318,-5.784820860700255,-85.35734974091875,-23.917011,-2.6086576,-7.638098,64.826935,9.240285,-13.737467,-12.3951645,-2.1018481,0.9015986,44.944923,3.734168,15.000033,-2.4352357,0.3212183,17.254757,1.8779892,16.439676,-28.100986,-23.963408,3.4246788,-4.0472193,9.879875,22.42592,-8.222535,6.7673073,-1.4694228,-6.2922263,-31.520515,-14.868027
