unveil-humanoid-operators/unveil-humanoid-operators.github.io/feature-analysis-animation/data/feature_matrix_instances/age_ankle_rom_jogging_A025_jog_sideway_090_start_001__A025.csv
Frame,root_translateX,root_translateY,root_translateZ,root_rotateX,root_rotateY,root_rotateZ,left_hip_pitch_joint_dof,left_hip_roll_joint_dof,left_hip_yaw_joint_dof,left_knee_joint_dof,left_ankle_pitch_joint_dof,left_ankle_roll_joint_dof,right_hip_pitch_joint_dof,right_hip_roll_joint_dof,right_hip_yaw_joint_dof,right_knee_joint_dof,right_ankle_pitch_joint_dof,right_ankle_roll_joint_dof,waist_yaw_joint_dof,waist_roll_joint_dof,waist_pitch_joint_dof,left_shoulder_pitch_joint_dof,left_shoulder_roll_joint_dof,left_shoulder_yaw_joint_dof,left_elbow_joint_dof,left_wrist_roll_joint_dof,left_wrist_pitch_joint_dof,left_wrist_yaw_joint_dof,right_shoulder_pitch_joint_dof,right_shoulder_roll_joint_dof,right_shoulder_yaw_joint_dof,right_elbow_joint_dof,right_wrist_roll_joint_dof,right_wrist_pitch_joint_dof,right_wrist_yaw_joint_dof
0,0.7135928869247437,1.8230100870132446,78.34162902832031,0.32244632664476774,-3.247397437828785,-96.25608935527417,4.750812,7.290686,20.222582,16.218307,-14.221913,-5.2753196,-0.71400195,-5.506472,-10.959557,15.862666,-13.802084,4.8331385,0.40549946,1.0116019,7.3937554,-4.4019313,13.536903,-46.175552,57.882072,1.815055,-6.529672,-3.6089044,-14.922107,-11.041291,66.79212,68.06081,22.24486,1.562881,5.856006
1,0.7628916501998901,1.8318127393722534,78.33661651611328,0.3518139962284419,-3.081039959618166,-96.27895449608083,4.4230566,7.261783,20.238459,16.502369,-14.319274,-5.1813254,-1.0118095,-5.601389,-10.912049,16.033371,-13.832542,4.9051366,0.41279498,1.0103732,7.306487,-4.4171815,13.540975,-46.169216,57.826637,1.8370256,-6.5599055,-3.6025724,-14.981078,-11.036444,66.78853,68.088585,22.27909,1.5706048,5.8546047
2,0.816121518611908,1.8485069274902344,78.33089447021484,0.3826220632517806,-2.9174123009218125,-96.30611717618034,4.1056147,7.230512,20.259743,16.77324,-14.4117565,-5.088283,-1.3072758,-5.695798,-10.860012,16.204756,-13.86379,4.977378,0.43435976,1.0054212,7.224845,-4.440577,13.543223,-46.16586,57.777023,1.864382,-6.591306,-3.5992513,-15.054477,-11.034178,66.79914,68.11872,22.345306,1.5794991,5.854982
3,0.8714488744735718,1.8625011444091797,78.32215118408203,0.4091324722953253,-2.749677773884896,-96.32473364566805,3.7679381,7.204771,20.271086,17.07079,-14.512452,-4.9959145,-1.6055547,-5.7905107,-10.8155775,16.373348,-13.893311,5.05004,0.4365061,1.0073795,7.143647,-4.4634533,13.544206,-46.154446,57.723927,1.8885769,-6.6213818,-3.5919287,-15.131791,-11.034149,66.81849,68.14913,22.403606,1.5870903,5.8549423
4,0.9339087009429932,1.8837928771972656,78.3133544921875,0.430532028905183,-2.573012680902326,-96.32339330487855,3.385054,7.190627,20.258818,17.428513,-14.631545,-4.9046645,-1.90801,-5.8863077,-10.790318,16.5328,-13.917606,5.1233344,0.41966552,1.0187078,7.056396,-4.483982,13.542988,-46.14353,57.66633,1.915066,-6.646574,-3.5753825,-15.196317,-11.036737,66.81392,68.17591,22.418913,1.5918239,5.85369
5,1.007143259048462,1.9049220085144043,78.30389404296875,0.44156106217664437,-2.381976851190457,-96.30141078573361,2.9436543,7.1921,20.231234,17.861088,-14.773239,-4.804089,-2.2208402,-5.981736,-10.784901,16.681187,-13.935659,5.193531,0.37880397,1.041086,6.9643903,-4.5038877,13.539356,-46.121117,57.599304,1.9479522,-6.662712,-3.5493922,-15.257525,-11.043325,66.78834,68.20144,22.378149,1.5913104,5.849757
6,1.0753613710403442,1.9239585399627686,78.2944107055664,0.4475612246066276,-2.181270604864646,-96.2641478248549,2.464152,7.2042108,20.192045,18.339882,-14.929437,-4.6988177,-2.5396514,-6.075764,-10.794412,16.820555,-13.948721,5.261394,0.3401153,1.0712575,6.885413,-4.5494175,13.5263405,-46.09522,57.537758,1.9984119,-6.6731744,-3.5201688,-15.35421,-11.067407,66.77917,68.22375,22.358072,1.5900795,5.8498564
7,1.146430492401123,1.9525699615478516,78.28359985351562,0.44858796768890985,-1.9790041674328431,-96.20926970442166,1.9556924,7.2202086,20.119766,18.86156,-15.095974,-4.6117663,-2.8568485,-6.1745405,-10.820297,16.95709,-13.9590025,5.334689,0.27709344,1.1129518,6.7998166,-4.583388,13.511747,-46.074627,57.470737,2.0399995,-6.684549,-3.481494,-15.425338,-11.0950165,66.74511,68.242134,22.305109,1.5866156,5.8502
8,1.2334269285202026,1.9880722761154175,78.26944732666016,0.44567918896949305,-1.785352536156658,-96.13448103122792,1.4325503,7.233599,19.992842,19.415823,-15.269792,-4.5666857,-3.1595223,-6.281212,-10.864659,17.090168,-13.965295,5.420647,0.2144768,1.1578135,6.7342906,-4.6497545,13.487631,-46.078613,57.43365,2.0755942,-6.708604,-3.4380903,-15.500816,-11.144061,66.70655,68.23829,22.302952,1.5914978,5.857535
9,1.3252952098846436,2.019801616668701,78.25566864013672,0.44192728446733176,-1.5970443777787213,-96.03938965918955,0.89380366,7.246188,19.841125,20.003572,-15.458208,-4.5614104,-3.4577992,-6.3988156,-10.927468,17.233868,-13.973554,5.5231166,0.15013796,1.2187406,6.680135,-4.735664,13.4463625,-46.117863,57.416317,2.0895727,-6.7456336,-3.3896503,-15.563741,-11.233215,66.65422,68.206924,22.35551,1.6005785,5.878449
10,1.4184170961380005,2.0510175228118896,78.241455078125,0.4361446763754154,-1.4114167379740419,-95.92535799467854,0.3355645,7.257671,19.665323,20.625292,-15.658811,-4.5881705,-3.7513378,-6.524826,-11.007592,17.37913,-13.979738,5.637526,0.087704726,1.2864857,6.6448393,-4.841983,13.405856,-46.1854,57.403313,2.089821,-6.7909675,-3.3361998,-15.694822,-11.325868,66.70602,68.20477,22.584137,1.6098144,5.910978
11,1.5159493684768677,2.086369752883911,78.2277603149414,0.42754480129092015,-1.23573188933557,-95.7921932474915,-0.2396218,7.256009,19.400309,21.279356,-15.859041,-4.6617556,-4.027018,-6.6586742,-11.105314,17.518759,-13.982824,5.7590404,-0.0048466236,1.356099,6.616254,-4.9384017,13.373597,-46.243164,57.38685,2.099788,-6.841059,-3.2744346,-15.777883,-11.4056635,66.66625,68.19252,22.70065,1.6221732,5.9419475
12,1.6216719150543213,2.127546787261963,78.2127456665039,0.41798762137497886,-1.0773679489239776,-95.63976541169872,-0.82946455,7.228213,18.98131,21.964996,-16.047377,-4.7974434,-4.2693405,-6.799386,-11.221369,17.640247,-13.97941,5.8828444,-0.11442559,1.4309028,6.59421,-5.035115,13.332234,-46.298748,57.386673,2.1382263,-6.8933797,-3.196963,-15.7497225,-11.522821,66.44683,68.099304,22.588467,1.643196,5.960017
13,1.7300689220428467,2.1685290336608887,78.19855499267578,0.40663536558099767,-0.9342637169421175,-95.46317074849252,-1.447386,7.145797,18.339088,22.673662,-16.205614,-5.0369844,-4.4833612,-6.948004,-11.359416,17.750116,-13.971631,6.006427,-0.18019514,1.5032487,6.6269755,-5.188965,13.29631,-46.411892,57.393154,2.2178712,-6.9479322,-3.1002185,-16.004627,-11.64805,66.70122,68.11325,23.062378,1.663066,5.977555
14,1.8462952375411987,2.206211566925049,78.18657684326172,0.3937066338634851,-0.8043490704946376,-95.26395283965711,-2.0853155,7.014888,17.529182,23.40304,-16.346495,-5.364451,-4.6684313,-7.104755,-11.518684,17.841,-13.9560375,6.13301,-0.31841803,1.5803252,6.6495085,-5.2990556,13.266649,-46.474224,57.3907,2.335078,-7.0066776,-2.9970868,-16.032944,-11.77842,66.57535,68.01962,23.032265,1.6958623,5.980887
15,1.964280605316162,2.2446963787078857,78.17609405517578,0.3814136365575281,-0.6928867004800779,-95.05245084081028,-2.718148,6.876797,16.672037,24.176777,-16.510122,-5.706832,-4.825667,-7.271634,-11.689033,17.92692,-13.940572,6.2662764,-0.43782315,1.6523402,6.6967,-5.424397,13.243591,-46.553364,57.39095,2.4591446,-7.064438,-2.8736145,-16.120335,-11.917272,66.54509,67.94555,23.130575,1.7246908,5.979948
16,2.0918993949890137,2.284728765487671,78.1631088256836,0.37262938975007853,-0.605307174526252,-94.83869069588037,-3.3193147,6.776562,15.885458,25.01217,-16.729551,-5.9878035,-4.9491205,-7.448238,-11.862278,18.007597,-13.927438,6.409744,-0.55615747,1.7191477,6.7598343,-5.5449014,13.228505,-46.613182,57.391476,2.5671487,-7.117995,-2.725203,-16.198648,-12.061876,66.50847,67.86683,23.210268,1.7441093,5.971071
17,2.22723650932312,2.323751926422119,78.14912414550781,0.3641630202311531,-0.5488442345095488,-94.61603285636916,-3.8891275,6.710893,15.152525,25.924437,-17.026237,-6.1879306,-5.0262184,-7.6327972,-12.046412,18.079958,-13.918293,6.566953,-0.67826617,1.7837274,6.8449035,-5.656647,13.222503,-46.654015,57.390923,2.6764143,-7.165598,-2.5431678,-16.264507,-12.211289,66.456116,67.78385,23.240313,1.745851,5.9479938
18,2.3617160320281982,2.351516008377075,78.13591766357422,0.3553926349876928,-0.5184749848532125,-94.38217226409628,-4.440259,6.6604314,14.425232,26.902199,-17.374363,-6.3462434,-5.061662,-7.8246174,-12.243312,18.140558,-13.909211,6.734935,-0.8062325,1.8464333,6.950516,-5.76629,13.22641,-46.68607,57.390465,2.7857478,-7.209425,-2.333303,-16.323273,-12.365395,66.39401,67.69765,23.235292,1.73589,5.913302
19,2.4965996742248535,2.3836987018585205,78.12359619140625,0.351261601947068,-0.5008195579957385,-94.15323951547683,-4.9615507,6.6517606,13.772783,27.910143,-17.733742,-6.4711137,-5.0817423,-8.024479,-12.434784,18.200611,-13.900299,6.9071836,-0.9228539,1.9012828,7.0625196,-5.866479,13.239926,-46.693806,57.38212,2.872096,-7.2506,-2.1111894,-16.377186,-12.522964,66.331276,67.60949,23.251728,1.727823,5.879762
20,2.6424896717071533,2.4097719192504883,78.1114273071289,0.35378894480625567,-0.4829984112295684,-93.94551506568374,-5.4415755,6.7148223,13.263037,28.912634,-18.06352,-6.570124,-5.1091847,-8.23272,-12.602693,18.263876,-13.8894,7.077502,-1.0125163,1.9423891,7.1664047,-5.9496617,13.262367,-46.6602,57.359085,2.9126759,-7.2907367,-1.892364,-16.430162,-12.682636,66.27924,67.52576,23.346033,1.7347476,5.8601127
21,2.7887868881225586,2.4395852088928223,78.09925079345703,0.3655619489431267,-0.46428189403664755,-93.7577670129691,-5.876621,6.867391,12.92326,29.912651,-18.36178,-6.6411657,-5.147928,-8.448872,-12.74881,18.338398,-13.878363,7.240031,-1.0734266,1.9697055,7.2612677,-6.0174794,13.293997,-46.578697,57.323643,2.8951461,-7.329618,-1.6785095,-16.483852,-12.842905,66.24395,67.449196,23.561693,1.7640419,5.86523
22,2.946881055831909,2.4668736457824707,78.0876235961914,0.38067243389020095,-0.4507777271255655,-93.58291038836407,-6.2718487,7.097121,12.710234,30.921606,-18.6449,-6.6782064,-5.1838036,-8.671098,-12.88135,18.413815,-13.86563,7.3993826,-1.1147295,1.9871521,7.3536572,-6.073349,13.335388,-46.45862,57.278835,2.8325524,-7.367203,-1.462246,-16.537466,-13.002723,66.220245,67.3795,23.859495,1.807256,5.885495
23,3.110050916671753,2.4878268241882324,78.0777359008789,0.4021103257330641,-0.4389526186932664,-93.42918055823137,-6.6345315,7.391048,12.585617,31.927155,-18.903927,-6.682544,-5.226813,-8.901911,-12.988952,18.49737,-13.85233,7.564761,-1.1359173,1.9941349,7.4402537,-6.112236,13.385525,-46.30725,57.217487,2.7400444,-7.404823,-1.2456424,-16.589348,-13.160833,66.20104,67.31321,24.171764,1.854287,5.903582
24,3.2768778800964355,2.5103018283843994,78.06776428222656,0.43452207270289767,-0.42513312833742023,-93.30420646654059,-6.970787,7.7348022,12.511726,32.914124,-19.129162,-6.656292,-5.2857885,-9.143146,-13.060731,18.593729,-13.838621,7.745065,-1.1363863,1.9904457,7.5169907,-6.1248164,13.441957,-46.126064,57.130936,2.6402242,-7.4437532,-1.0305091,-16.63882,-13.316529,66.17933,67.24978,24.430622,1.8945482,5.9024014
25,3.456432819366455,2.527308225631714,78.05691528320312,0.47624078108497686,-0.4074646086120745,-93.21351297603371,-7.2794247,8.141511,12.508003,33.893227,-19.314707,-6.5937834,-5.3624473,-9.394226,-13.090765,18.698133,-13.82071,7.9422417,-1.1116806,1.9777443,7.581828,-6.113098,13.503015,-45.91873,57.01669,2.5224001,-7.482413,-0.814558,-16.682014,-13.4688425,66.14807,67.18983,24.630539,1.925648,5.8700013
26,3.6439504623413086,2.545163154602051,78.04634094238281,0.5265539385444117,-0.38816133651211937,-93.15181106519479,-7.556828,8.617378,12.582695,34.866474,-19.466063,-6.493737,-5.451737,-9.653406,-13.085789,18.808659,-13.799335,8.151578,-1.0630416,1.956547,7.6366873,-6.0812,13.568054,-45.68348,56.881985,2.380489,-7.521152,-0.5975445,-16.721224,-13.617671,66.112434,67.1369,24.803205,1.9525899,5.8184257
27,3.8319599628448486,2.554539680480957,78.03600311279297,0.5823595408317381,-0.37014058757423046,-93.11085080361912,-7.8058224,9.135118,12.682383,35.806244,-19.591091,-6.3658338,-5.551515,-9.921478,-13.054202,18.93192,-13.779782,8.372333,-0.99854106,1.9249635,7.684553,-6.0291758,13.636018,-45.42023,56.73635,2.2360532,-7.5640097,-0.38443354,-16.761665,-13.762541,66.08279,67.08605,24.93732,1.9770237,5.765105
28,4.025631904602051,2.5793540477752686,78.01924133300781,0.6445618704629696,-0.3562117412672066,-93.08230625566347,-8.029335,9.665991,12.754403,36.683987,-19.697067,-6.2205195,-5.6596518,-10.199071,-13.004134,19.074154,-13.766751,8.604027,-0.9267423,1.8813397,7.7285028,-5.9607143,13.705897,-45.13265,56.592175,2.1052384,-7.6150646,-0.18020433,-16.80881,-13.90268,66.06983,67.033646,25.021452,2.0002353,5.728091
29,4.22724723815918,2.5961074829101562,78.00141906738281,0.7120131277453587,-0.3471330332825231,-93.07094607126739,-8.230512,10.21362,12.797748,37.511524,-19.779032,-6.041811,-5.776914,-10.486788,-12.930436,19.234531,-13.758645,8.850447,-0.8442635,1.8239249,7.768864,-5.8762665,13.777054,-44.816048,56.447083,1.9993984,-7.667593,0.008045681,-16.865519,-14.037511,66.07796,66.98238,25.042149,2.0225341,5.714723
30,4.442079067230225,2.6052463054656982,77.97905731201172,0.7877775061989634,-0.34138146560794597,-93.07892788121241,-8.407483,10.790337,12.836043,38.297523,-19.83539,-5.829591,-5.90348,-10.783491,-12.831117,19.409134,-13.7534895,9.110743,-0.7490425,1.7543762,7.8040843,-5.7744884,13.849261,-44.470016,56.297478,1.90738,-7.7220244,0.18495962,-16.929129,-14.166737,66.1022,66.935295,25.009565,2.042997,5.7149506
31,4.658669471740723,2.60870361328125,77.95641326904297,0.8642794702868681,-0.3384967139136255,-93.0939524670251,-8.558611,11.379037,12.854081,39.012302,-19.880295,-5.6192904,-6.0385675,-11.089362,-12.718524,19.60493,-13.7579775,9.377278,-0.65079784,1.6751565,7.834783,-5.6558127,13.921508,-44.10493,56.153698,1.8116875,-7.792857,0.3630016,-16.996065,-14.289372,66.13707,66.88504,24.94579,2.0621994,5.7194037
32,4.880198001861572,2.6178464889526367,77.931396484375,0.9401909759559133,-0.3379916515723244,-93.10364892294191,-8.682684,11.961919,12.836912,39.626106,-19.92734,-5.4467096,-6.1810226,-11.404497,-12.605467,19.82827,-13.778536,9.64254,-0.55986106,1.5882325,7.860811,-5.5257277,13.9927845,-43.73606,56.030563,1.6893193,-7.8948727,0.554992,-17.06469,-14.405104,66.17857,66.82955,24.873482,2.0802386,5.718998
33,5.113866806030273,2.6224265098571777,77.902587890625,1.0138183348808782,-0.3379396071294649,-93.10754495829637,-8.778191,12.540234,12.784896,40.129757,-19.982075,-5.3132186,-6.3290067,-11.727674,-12.493064,20.072832,-13.814636,9.904775,-0.47836572,1.4939475,7.878269,-5.3791795,14.061276,-43.35559,55.932896,1.5561996,-8.031824,0.7704418,-17.1342,-14.513454,66.23282,66.76621,24.774746,2.0983016,5.712974
34,5.353569507598877,2.616551160812378,77.86719512939453,1.0861649242749976,-0.3393354776738396,-93.11144257087524,-8.848721,13.121044,12.704897,40.54313,-20.03856,-5.2026124,-6.483038,-12.059279,-12.375363,20.337027,-13.863489,10.168263,-0.40113652,1.3909259,7.888033,-5.216625,14.1260805,-42.96007,55.855076,1.4172169,-8.196231,1.0005746,-17.206211,-14.614197,66.299904,66.69916,24.645327,2.115781,5.7055664
35,5.594215393066406,2.6162219047546387,77.82596588134766,1.15959111923132,-0.34547370880144895,-93.11161182551452,-8.899071,13.694982,12.592381,40.87467,-20.089663,-5.124069,-6.648272,-12.403236,-12.253659,20.639515,-13.930602,10.434442,-0.3255309,1.2789584,7.897821,-5.048864,14.187644,-42.56849,55.792286,1.2363892,-8.386057,1.2301749,-17.279585,-14.707114,66.363655,66.629974,24.528746,2.1307156,5.6952815
36,5.854607582092285,2.6204733848571777,77.78181457519531,1.2347867006163504,-0.36008085265474116,-93.10480461611724,-8.935372,14.252636,12.442357,41.13753,-20.130543,-5.0868893,-6.828866,-12.762956,-12.129191,20.994709,-14.018888,10.704607,-0.24712974,1.1574528,7.914696,-4.8931026,14.245137,-42.207733,55.7462,0.97104967,-8.599907,1.4442309,-17.354303,-14.789779,66.405716,66.565605,24.467194,2.1405764,5.680904
37,6.117196559906006,2.6243624687194824,77.73059844970703,1.3134595896233592,-0.38374550240452765,-93.09147181325905,-8.953748,14.783172,12.242092,41.31133,-20.154911,-5.106407,-7.0272956,-13.141829,-12.000179,21.406874,-14.130393,10.978224,-0.16486716,1.0233366,7.941527,-4.746381,14.302284,-41.87739,55.716785,0.6029702,-8.857906,1.6445494,-17.429054,-14.86677,66.42486,66.49917,24.48713,2.1450784,5.658405
38,6.3849101066589355,2.6231443881988525,77.6729736328125,1.3952922493113908,-0.41467184704104454,-93.07306105388871,-8.954602,15.294352,11.998322,41.400894,-20.16904,-5.173464,-7.241293,-13.537623,-11.866166,21.867653,-14.262759,11.254754,-0.079084285,0.8771411,7.974275,-4.605583,14.359096,-41.5712,55.705307,0.15300903,-9.154601,1.8362019,-17.50405,-14.938697,66.42701,66.43045,24.560274,2.1453068,5.6294785
39,6.661870956420898,2.623300552368164,77.6106185913086,1.4756486517002874,-0.452864468714831,-93.0471787117268,-8.94607,15.803551,11.736176,41.44541,-20.180874,-5.2606406,-7.4688625,-13.945465,-11.730352,22.375761,-14.412569,11.535237,0.0065202527,0.72493225,8.011756,-4.4684806,14.415846,-41.286045,55.69538,-0.34643015,-9.449292,2.0075572,-17.578394,-15.005831,66.41248,66.35914,24.649206,2.1423497,5.6016517
40,6.9470415115356445,2.6211745738983154,77.53861999511719,1.5508340853445823,-0.498138451299385,-93.01132075424677,-8.937325,16.32881,11.480508,41.484493,-20.19867,-5.340673,-7.709256,-14.361051,-11.595514,22.933115,-14.577968,11.820615,0.0882022,0.5725277,8.052674,-4.3336024,14.473136,-41.01955,55.67143,-0.86409366,-9.700875,2.148007,-17.652306,-15.068668,66.38165,66.28658,24.716835,2.137271,5.58187
41,7.238397121429443,2.621570110321045,77.45527648925781,1.6228169395603596,-0.5487801866809159,-92.96596369806134,-8.930988,16.871183,11.228899,41.514965,-20.223791,-5.4105225,-7.967071,-14.785378,-11.463792,23.544836,-14.758689,12.113541,0.16649543,0.421527,8.093386,-4.200795,14.5258,-40.774723,55.632492,-1.4418766,-9.884626,2.244057,-17.727268,-15.123474,66.33131,66.220726,24.75358,2.129857,5.5801706
42,7.5352864265441895,2.619335651397705,77.36541748046875,1.6894619664228145,-0.6054860458961177,-92.91202949968697,-8.923249,17.422598,10.970984,41.520195,-20.251951,-5.483454,-8.242505,-15.221217,-11.332319,24.210144,-14.955494,12.411706,0.23836854,0.26806098,8.139434,-4.0628934,14.58642,-40.54441,55.57047,-2.0794106,-10.025902,2.3035536,-17.802309,-15.182365,66.267075,66.14194,24.781042,2.1208072,5.589435
43,7.843326568603516,2.626552104949951,77.26730346679688,1.7523798676333755,-0.671659898892554,-92.84788764296475,-8.913767,17.986897,10.719311,41.520107,-20.28307,-5.5566096,-8.526983,-15.665839,-11.196851,24.918428,-15.167229,12.708344,0.3100512,0.11291185,8.191002,-3.9374983,14.646177,-40.33737,55.5114,-2.6873238,-10.160532,2.3545725,-17.875593,-15.235493,66.18681,66.064095,24.80215,2.1092095,5.5933766
44,8.15777587890625,2.626976728439331,77.15735626220703,1.8093835395027442,-0.750994849707056,-92.77215629528682,-8.90176,18.56774,10.486591,41.53464,-20.317022,-5.626879,-8.813266,-16.116539,-11.053057,25.66313,-15.395205,12.997457,0.37766144,-0.044491224,8.254705,-3.8309107,14.715424,-40.151855,55.45713,-3.1795206,-10.323831,2.421807,-17.94583,-15.287286,66.09858,65.97671,24.823488,2.0957038,5.574588
45,8.478767395019531,2.631894588470459,77.03844451904297,1.8601381850782237,-0.8487019811692261,-92.68311402218387,-8.874858,19.177013,10.290477,41.556618,-20.348627,-5.7000294,-9.093514,-16.572609,-10.901686,26.44334,-15.644651,13.269433,0.41170368,-0.19659546,8.311521,-3.7294748,14.76623,-39.963535,55.43828,-3.5017078,-10.512302,2.513195,-17.885681,-15.317162,65.80039,65.84984,24.588358,2.0829911,5.521799
46,8.805849075317383,2.641158103942871,76.90819549560547,1.9055721191461668,-0.9612638460427971,-92.58198499035042,-8.837585,19.808252,10.120068,41.577904,-20.378525,-5.775488,-9.373872,-17.036646,-10.743941,27.261822,-15.915189,13.530319,0.48754844,-0.36320817,8.407929,-3.6593297,14.864158,-39.83917,55.3879,-3.7220652,-10.706191,2.6145456,-17.966864,-15.365968,65.71392,65.75206,24.658525,2.065159,5.4549932
47,9.142051696777344,2.6492090225219727,76.77338409423828,1.9450416818729572,-1.0798029802042595,-92.47159436491285,-8.815634,20.440786,9.943162,41.620396,-20.417643,-5.8411665,-9.66419,-17.507284,-10.57778,28.111666,-16.189678,13.796804,0.5537822,-0.5314684,8.513865,-3.6018066,14.973621,-39.72482,55.3283,-3.8969305,-10.932077,2.7206016,-18.084957,-15.410088,65.68789,65.66419,24.790651,2.043853,5.3767133
48,9.487626075744629,2.6565654277801514,76.62690734863281,1.9824398860565924,-1.1952336087052489,-92.35460528774122,-8.83446,21.053648,9.727105,41.707283,-20.47804,-5.884731,-9.972508,-17.98421,-10.401345,28.982294,-16.453691,14.085547,0.6171675,-0.7036679,8.622762,-3.560194,15.097108,-39.619976,55.253525,-4.0892425,-11.212813,2.8246076,-18.215374,-15.449628,65.66615,65.5747,24.918741,2.0198302,5.2956343
49,9.843073844909668,2.6793527603149414,76.46810150146484,2.0226228661204964,-1.3070214348850624,-92.23552036686395,-8.892179,21.640438,9.46894,41.842537,-20.564772,-5.9000773,-10.315421,-18.476105,-10.208398,29.898333,-16.709356,14.397765,0.66350335,-0.8845726,8.722734,-3.51286,15.234977,-39.501846,55.15939,-4.3232965,-11.573858,2.9180448,-18.251343,-15.484544,65.46891,65.43836,24.794298,2.0030465,5.212776
50,10.206645965576172,2.6986756324768066,76.30110168457031,2.063688221359585,-1.4191911253132516,-92.1116043392289,-8.978167,22.212534,9.183188,42.015366,-20.67171,-5.894652,-10.68601,-18.980843,-10.000074,30.857899,-16.963112,14.723942,0.7264799,-1.0746521,8.834781,-3.4915295,15.388841,-39.41012,55.054974,-4.567134,-11.996344,3.0087566,-18.358877,-15.518061,65.37074,65.32581,24.778088,1.9860806,5.1283345
51,10.575984001159668,2.7244157791137695,76.12001037597656,2.0664481779369197,-1.5238498380702532,-91.98611729859178,-9.113602,22.811615,8.859296,42.232716,-20.79517,-5.884736,-11.0544,-19.437986,-9.790614,31.786425,-17.19081,15.000033,0.79152364,-1.2353895,8.945156,-3.4890146,15.560273,-39.33804,54.93243,-4.789742,-12.436803,3.1048267,-18.472424,-15.549565,65.27186,65.20552,24.787706,1.9579692,5.0342474
52,10.95067310333252,2.752319574356079,75.93254089355469,2.0027299577690107,-1.6152865834631382,-91.85828341266293,-9.314693,23.467232,8.487086,42.492588,-20.92625,-5.8844237,-11.395477,-19.782831,-9.597081,32.621956,-17.375978,15.000033,0.85468394,-1.3408405,9.045498,-3.5091767,15.751293,-39.29676,54.788235,-4.9635563,-12.851491,3.216532,-18.546318,-15.579635,65.10228,65.05372,24.790985,1.9064376,4.9240265
53,11.338889122009277,2.7854130268096924,75.73583984375,1.9114776678846102,-1.7103892023675185,-91.71128417976317,-9.554557,24.129519,8.076759,42.78136,-21.051098,-5.88775,-11.703696,-20.102612,-9.416569,33.412643,-17.547188,15.000033,0.9187303,-1.4295452,9.157792,-3.5709407,15.965059,-39.306557,54.62172,-5.075473,-13.219013,3.3530352,-18.650454,-15.610759,64.9805,64.89643,24.95613,1.8336024,4.800385
54,11.731973648071289,2.8194241523742676,75.53580474853516,1.7977376066540238,-1.8075390678765773,-91.5486032208877,-9.831659,24.792725,7.6291347,43.09878,-21.17566,-5.887506,-11.992893,-20.404512,-9.243973,34.177288,-17.706318,15.000033,0.9728129,-1.5059019,9.275321,-3.654446,16.201984,-39.3458,54.427612,-5.139897,-13.565529,3.5061858,-18.731827,-15.642413,64.81854,64.71032,25.141878,1.7454789,4.6640615
55,12.133848190307617,2.865180015563965,75.3343505859375,1.6558536911311166,-1.891200952067082,-91.36797761191265,-10.170186,25.444391,7.133095,43.43609,-21.31253,-5.8735113,-12.260065,-20.679342,-9.081265,34.873898,-17.836285,15.000033,1.0138782,-1.5647534,9.387907,-3.7589364,16.461664,-39.41741,54.21535,-5.180987,-13.9190235,3.6659591,-18.803766,-15.675143,64.627426,64.50775,25.347267,1.6279835,4.512634
56,12.543313026428223,2.9101076126098633,75.12986755371094,1.4819346519149388,-1.946172954101734,-91.1672488450236,-10.59547,26.072025,6.5767007,43.786358,-21.475357,-5.8349476,-12.502116,-20.919937,-8.92897,35.461987,-17.920467,15.000033,1.0384487,-1.6008489,9.486288,-3.8790205,16.742281,-39.51863,53.9909,-5.2169666,-14.30755,3.821748,-18.892096,-15.709644,64.438416,64.30723,25.59312,1.4667186,4.343988
57,12.96408748626709,2.9641449451446533,74.92176818847656,1.26749466660194,-1.9702191975534167,-90.94227268174252,-11.112803,26.702978,5.9715447,44.14569,-21.676624,-5.763099,-12.721776,-21.103888,-8.768231,35.939278,-17.956774,15.000033,1.0358186,-1.6080989,9.562457,-4.010856,17.044857,-39.633907,53.75621,-5.2248836,-14.756565,3.973219,-18.952982,-15.745541,64.189095,64.083855,25.761179,1.2687917,4.1534967
58,13.400997161865234,3.01694655418396,74.71751403808594,1.0185502364376369,-1.9708370639203263,-90.69566471549771,-11.710691,27.33163,5.3164988,44.51881,-21.906633,-5.66589,-12.921687,-21.242748,-8.603772,36.331524,-17.95759,15.000033,1.0171746,-1.5915327,9.626813,-4.163791,17.37012,-39.775646,53.508514,-5.204331,-15.24473,4.12624,-19.017944,-15.783339,63.932487,63.849056,25.940384,1.0370417,3.9447513
59,13.856169700622559,3.0776827335357666,74.5160903930664,0.7487928385435652,-1.94701613160629,-90.43469103429577,-12.386627,27.892431,4.5804825,44.907276,-22.141699,-5.5564632,-13.09019,-21.372276,-8.479318,36.61724,-17.91288,15.000033,0.97654516,-1.5604599,9.678391,-4.3250017,17.71281,-39.95147,53.245064,-5.206921,-15.731293,4.275585,-19.053095,-15.822802,63.604557,63.60232,26.119116,0.7559993,3.7238293
60,14.327645301818848,3.1413793563842773,74.32010650634766,0.4739939123582702,-1.8974318129557468,-90.1671792713387,-13.136892,28.32022,3.7354314,45.31581,-22.360348,-5.448744,-13.217781,-21.527508,-8.436263,36.77728,-17.815145,15.000033,0.94455206,-1.5256556,9.735171,-4.513269,18.064367,-40.198463,52.971107,-5.281399,-16.175686,4.419093,-19.210733,-15.8659,63.418808,63.42884,26.642124,0.4043587,3.5023263
61,14.821159362792969,3.2165322303771973,74.12813568115234,0.19600116710117968,-1.8258196335639942,-89.88103270094477,-13.981064,28.60673,2.7346354,45.76216,-22.574644,-5.3196077,-13.289948,-21.718493,-8.507248,36.815292,-17.694147,15.000033,0.86346185,-1.4841136,9.77057,-4.6972904,18.42026,-40.492664,52.687508,-5.4972544,-16.578733,4.543848,-19.212471,-15.907786,62.975433,63.199936,27.001465,-0.02831443,3.270312
62,15.332818031311035,3.2875380516052246,73.94883728027344,-0.09162957461997936,-1.7309672782547076,-89.57758823215477,-14.9087925,28.778677,1.6115366,46.238914,-22.789745,-5.172336,-13.316953,-21.924145,-8.658299,36.741077,-17.548302,15.000033,0.7770977,-1.4341627,9.80025,-4.9171104,18.779531,-40.864536,52.408222,-5.8136597,-16.95928,4.6578403,-19.232063,-15.952405,62.52963,62.99212,27.500746,-0.53481215,3.0329344
63,15.872719764709473,3.3680996894836426,73.78363800048828,-0.3855835899284275,-1.605056079746258,-89.28425925307982,-15.873427,28.823305,0.45618248,46.724316,-22.979408,-5.05954,-13.318256,-22.131935,-8.84407,36.52864,-17.303232,15.000033,0.68661904,-1.3729602,9.815164,-5.136937,19.131907,-41.259018,52.1247,-6.102811,-17.30336,4.7729874,-19.238249,-15.99988,62.019733,62.795116,28.067585,-1.0831575,2.8010705
64,16.43964958190918,3.4480292797088623,73.63565826416016,-0.6806829268168101,-1.4407001706776164,-89.0283341366226,-16.827824,28.73256,-0.63883615,47.194817,-23.117813,-5.034585,-13.314357,-22.331436,-9.016465,36.156353,-16.890518,15.000033,0.60693777,-1.2974228,9.808953,-5.33738,19.462324,-41.63836,51.842144,-6.2399874,-17.59723,4.9049487,-19.234293,-16.051899,61.43102,62.61816,28.698479,-1.6426055,2.5865548
65,17.033512115478516,3.53472900390625,73.50778198242188,-0.9882739410232955,-1.22967617227158,-88.7980838365383,-17.803062,28.48778,-1.7441485,47.667877,-23.189432,-5.1428647,-13.311826,-22.513515,-9.190808,35.638317,-16.341343,15.000033,0.53335637,-1.1980398,9.771501,-5.535744,19.761185,-42.01417,51.576424,-6.214461,-17.818153,5.0574603,-19.21235,-16.108809,60.74866,62.461754,29.414026,-2.2398274,2.3933055
66,17.662822723388672,3.6335997581481934,73.40270233154297,-1.3040919893938605,-0.9781660210425779,-88.58557376613103,-18.803698,28.098164,-2.8701746,48.15254,-23.215736,-5.349101,-13.294686,-22.688435,-9.387074,34.972466,-15.669254,15.000033,0.46265435,-1.0762519,9.707144,-5.746562,20.025042,-42.404438,51.33888,-6.086167,-17.980448,5.22511,-19.169867,-16.171242,59.98323,62.323833,30.209116,-2.880001,2.2181637
67,18.328632354736328,3.7329354286193848,73.32271575927734,-1.6076482935243415,-0.7018888762601978,-88.42367143215813,-19.747149,27.608263,-3.8341174,48.61056,-23.225643,-5.583769,-13.261648,-22.859402,-9.547401,34.133156,-14.80747,15.000033,0.41137654,-0.94517434,9.631884,-5.940467,20.246473,-42.773018,51.122356,-5.829157,-18.125336,5.4104824,-19.119453,-16.241037,59.164078,62.204338,31.048908,-3.498993,2.0598009
68,19.03063201904297,3.8443260192871094,73.26837921142578,-1.8799367223719292,-0.4169939619890981,-88.34452541348263,-20.557795,27.068367,-4.4593506,48.999233,-23.242691,-5.772916,-13.209311,-23.033257,-9.617075,33.090996,-13.684962,15.000033,0.38389173,-0.8154676,9.557454,-6.101688,20.417011,-43.093758,50.93612,-5.4411817,-18.294703,5.615867,-19.031286,-16.320261,58.263332,62.08025,31.820213,-4.0309505,1.9128462
69,19.772537231445312,3.9586915969848633,73.24534606933594,-2.1240515666168047,-0.10928577561013134,-88.34819812580152,-21.255816,26.451925,-4.7591896,49.31281,-23.219854,-5.9285917,-13.131973,-23.19801,-9.588688,31.802902,-12.283061,15.000033,0.39696822,-0.68341035,9.482604,-6.2346725,20.52759,-43.388332,50.790215,-4.866191,-18.505203,5.8532987,-18.996565,-16.411268,57.384556,62.005207,32.684654,-4.442549,1.771239
70,20.552539825439453,4.077761650085449,73.24947357177734,-2.3489856629288335,0.22224364057180465,-88.41873775268549,-21.876585,25.75284,-4.8125043,49.569603,-23.160025,-6.0768523,-13.026232,-23.357468,-9.493249,30.286211,-10.633338,15.000033,0.4265355,-0.54096526,9.394206,-6.350403,20.57418,-43.659657,50.697025,-4.1359296,-18.732311,6.1186037,-18.923616,-16.513433,56.41181,61.931923,33.513454,-4.7715564,1.634877
71,21.37758445739746,4.199687480926514,73.27473449707031,-2.54192747908351,0.5426322040983487,-88.564885316034,-22.376717,25.054323,-4.5462375,49.76968,-23.162989,-6.160909,-12.9088545,-23.534952,-9.323481,28.629078,-8.756939,15.000033,0.48876992,-0.4000501,9.320578,-6.450128,20.557457,-43.868187,50.637688,-3.3199751,-18.954033,6.396281,-18.85472,-16.62921,55.435127,61.871964,34.35498,-5.0681386,1.5145273
72,22.241844177246094,4.319812774658203,73.31681823730469,-2.6930652317781063,0.8177353068937827,-88.79514479042709,-22.71049,24.438927,-3.888079,49.91272,-23.328266,-6.122639,-12.786758,-23.760954,-9.083218,26.903406,-6.66195,15.000033,0.5920822,-0.2710503,9.292886,-6.5457015,20.483622,-43.981216,50.59695,-2.5083773,-19.149605,6.6686883,-18.853218,-16.759665,54.56955,61.847626,35.277287,-5.3823843,1.4215205
73,23.13888931274414,4.447092533111572,73.36982727050781,-2.7918289235436613,1.055462312360436,-89.12413523020047,-22.826376,23.944853,-2.6344247,49.948227,-23.728626,-5.8557153,-12.641353,-24.047056,-8.795604,25.045845,-4.2694287,15.000033,0.7283238,-0.1582088,9.299237,-6.5870175,20.351906,-43.92824,50.552864,-1.5724481,-19.313639,6.9321365,-18.840136,-16.903448,53.70894,61.82472,36.190407,-5.714401,1.3532348
74,24.068880081176758,4.575080394744873,73.42623901367188,-2.848770128296538,1.2692408791523173,-89.54216661774261,-22.755438,23.515114,-0.88882154,49.890762,-24.29966,-5.426023,-12.477905,-24.385492,-8.452855,23.054777,-1.6045376,15.000033,0.8899062,-0.055548627,9.329806,-6.59604,20.162956,-43.75654,50.525867,-0.5337988,-19.456732,7.194612,-18.803873,-17.059652,52.82306,61.794308,37.07228,-6.0406075,1.304668
75,25.025657653808594,4.705328941345215,73.4850082397461,-2.875808094329305,1.4335872223352861,-90.0232074574558,-22.569746,23.094698,0.9633998,49.836258,-24.931942,-5.0336657,-12.349483,-24.771965,-8.002647,21.110888,1.1531078,15.000033,1.0820129,0.041541126,9.40645,-6.597347,19.925867,-43.52734,50.50344,0.38422972,-19.581512,7.4520006,-18.844673,-17.229397,52.056664,61.787884,37.987556,-6.3740673,1.2844998
76,26.00955581665039,4.840563774108887,73.53826904296875,-2.8888289031871204,1.5227962266602773,-90.54361643036755,-22.346657,22.642439,2.5378726,49.881035,-25.508318,-4.871693,-12.326916,-25.194887,-7.381572,19.423159,3.8131514,15.000033,1.2774833,0.14271338,9.534685,-6.5984926,19.656326,-43.285946,50.47204,0.93863237,-19.693218,7.696231,-18.898026,-17.411339,51.358227,61.733868,38.739418,-6.7239637,1.2972484
77,27.03111457824707,4.967916488647461,73.56489562988281,-2.9019048086833497,1.5232268500460513,-91.13430315607515,-22.058496,22.190231,3.7143633,50.021988,-25.99339,-5.120815,-12.388651,-25.622143,-6.5524063,17.831999,6.6384544,15.000033,1.4934611,0.2729066,9.725083,-6.562433,19.358917,-43.003212,50.395172,1.0429748,-19.79187,7.9440637,-18.984978,-17.609652,50.760017,61.64397,39.33141,-7.09452,1.3420421
78,28.067445755004883,5.094974040985107,73.57324981689453,-2.9095927615322865,1.4540077364444632,-91.80007046341797,-21.679094,21.764023,4.7008233,50.22276,-26.439495,-5.6328855,-12.553048,-26.071596,-5.529152,16.372044,9.593357,15.000033,1.727349,0.42661,9.965456,-6.4877725,19.034973,-42.6604,50.279045,0.82847404,-19.877886,8.190239,-19.080797,-17.826069,50.217777,61.51216,39.77326,-7.478561,1.4149001
79,29.11939239501953,5.226204872131348,73.5755615234375,-2.888969176106485,1.3396770222126893,-92.47850010360636,-21.296015,21.3163,5.608827,50.52387,-26.863613,-6.097689,-12.9403105,-26.580093,-4.326681,15.492744,12.067388,15.000033,1.9951323,0.5587296,10.266226,-6.475976,18.702679,-42.36412,50.161564,0.40026265,-19.954916,8.401418,-19.431982,-18.057428,50.007607,61.481792,40.460773,-7.8761783,1.5227563
80,30.176513671875,5.366036415100098,73.55924987792969,-2.8065444169315046,1.2019921994610474,-93.10432134664278,-20.991125,20.775429,6.5596733,50.95271,-27.295475,-6.203737,-13.644818,-27.167572,-2.9639394,15.572356,13.488477,15.000033,2.2009764,0.61151785,10.568843,-6.5042343,18.386753,-42.113575,50.05601,-0.1254063,-20.02502,8.530423,-19.609081,-18.287384,49.617085,61.268528,40.773743,-8.275085,1.6622686
81,31.232288360595703,5.509130001068115,73.51756286621094,-2.5966060297696605,1.0391952151794692,-93.65236730597208,-20.79489,20.043795,7.598329,51.54609,-27.747944,-5.7744203,-14.705026,-27.88649,-1.2627262,16.599575,13.622811,15.000033,2.3660038,0.5093637,10.905155,-6.6105595,18.111502,-41.96029,49.964523,-0.8468488,-20.077877,8.566291,-19.816624,-18.511616,49.26208,60.993954,41.001984,-8.686261,1.8625395
82,32.28298568725586,5.653261184692383,73.45630645751953,-2.265881202899901,0.8430740734873047,-94.15751536538438,-20.657654,19.15075,8.674862,52.25794,-28.20623,-4.998303,-16.019043,-28.686209,0.72951007,18.25765,12.882541,15.000033,2.5030572,0.26574433,11.282948,-6.7539797,17.88793,-41.863445,49.846664,-1.7823052,-20.113003,8.527542,-20.087532,-18.725525,48.988075,60.68915,41.18049,-9.110017,2.1125903
83,33.31912612915039,5.814507007598877,73.37435150146484,-1.892265638472997,0.6158394573089782,-94.63489737797045,-20.534672,18.208776,9.758804,52.995365,-28.667507,-4.117476,-17.378296,-29.441378,2.6203544,20.346186,11.695245,15.000033,2.6366432,-0.046728898,11.689139,-6.9401026,17.725796,-41.838776,49.686653,-2.727316,-20.145393,8.428552,-20.395845,-18.924835,48.78843,60.35525,41.328728,-9.530658,2.361827
84,34.310874938964844,5.985476493835449,73.26244354248047,-1.565679050086852,0.35373809266809464,-95.09678341310206,-20.380198,17.349226,10.801525,53.67845,-29.130737,-3.3794336,-18.571554,-30.048084,4.0246673,22.726774,10.440204,15.000033,2.7912784,-0.3344075,12.115928,-7.1756845,17.6315,-41.905094,49.46957,-3.4769247,-20.190805,8.284824,-20.711834,-19.108856,48.65184,59.990612,41.462074,-9.932756,2.5607011
85,35.28063201904297,6.174980163574219,73.13044738769531,-1.3399822860836974,0.04261393583087453,-95.5562271122803,-20.184092,16.642984,11.783106,54.311085,-29.60713,-2.8772078,-19.567963,-30.467781,4.9371233,25.505753,9.00936,15.000033,2.9780543,-0.54477066,12.575552,-7.469965,17.609636,-42.08477,49.18283,-4.020161,-20.237234,8.070239,-21.051252,-19.281363,48.610874,59.591812,41.6086,-10.321893,2.7010894
86,36.24762725830078,6.370147228240967,72.99250030517578,-1.1651134132531582,-0.3141508749258524,-96.00072479864038,-19.972849,16.01203,12.726623,54.933323,-30.08972,-2.4721103,-20.496542,-30.842827,5.5797396,28.807806,7.1811094,15.000033,3.1815245,-0.72578996,13.072931,-7.813211,17.661762,-42.363213,48.826706,-4.452571,-20.279854,7.7866783,-21.430647,-19.44289,48.668106,59.162556,41.76314,-10.703676,2.8077548
87,37.199886322021484,6.572304725646973,72.84593200683594,-1.1191356191477237,-0.6765144389316122,-96.45286419084628,-19.811344,15.552769,13.58361,55.590202,-30.585485,-2.1076329,-21.4345,-31.211517,5.7032084,32.606117,5.1631236,14.428434,3.4281826,-0.8020681,13.562946,-8.180692,17.784233,-42.699837,48.406635,-4.7258487,-20.347475,7.4932303,-21.81163,-19.590342,48.75748,58.708862,41.871674,-11.064135,2.8811986
88,38.12742614746094,6.773792266845703,72.70079040527344,-1.1424221579866454,-1.0264630284332388,-96.88336984600922,-19.70165,15.17728,14.36099,56.257973,-31.068544,-1.6851525,-22.415283,-31.750751,5.1679626,36.83593,3.1722407,12.933161,3.698549,-0.8358496,14.02847,-8.551425,17.971859,-43.058586,47.935707,-4.791894,-20.470613,7.2481656,-22.158176,-19.718327,48.814983,58.242405,41.886364,-11.388887,2.9208672
89,39.040611267089844,6.9816389083862305,72.54713439941406,-1.0733636732314058,-1.4147618524228494,-97.2295719677617,-19.539452,14.657896,15.130144,56.849827,-31.513374,-1.1256084,-23.417255,-32.73569,4.101771,41.677742,1.2119153,11.454256,3.9427435,-0.9857554,14.52935,-8.963261,18.229046,-43.492302,47.442406,-4.600514,-20.684263,7.0745773,-22.46851,-19.822266,48.838135,57.758167,41.79279,-11.676332,2.9069655
90,39.9396858215332,7.191040992736816,72.39031219482422,-0.9333161828683966,-1.8405874924668766,-97.50343614155075,-19.334986,14.025138,15.88822,57.373314,-31.9255,-0.47948924,-24.419289,-34.149097,2.644751,47.15673,-0.86754715,9.980191,4.169798,-1.2303115,15.0664625,-9.41624,18.556572,-44.006775,46.91179,-4.191005,-20.964363,6.940323,-22.764692,-19.900854,48.857315,57.26068,41.621296,-11.9338455,2.8451867
91,40.81964874267578,7.397809028625488,72.22574615478516,-0.762134700707207,-2.23853289976248,-97.71559700096866,-19.176971,13.324033,16.607653,57.855263,-32.29793,0.22129855,-25.381437,-35.7895,1.1483345,52.912247,-3.0301723,8.384345,4.383555,-1.523729,15.567041,-9.83166,18.941328,-44.49051,46.300404,-3.6481729,-21.25386,6.819077,-23.018373,-19.950735,48.836727,56.757515,41.36589,-12.158914,2.7715058
92,41.68818283081055,7.596168041229248,72.0595474243164,-0.6026474742578677,-2.5427828483745682,-97.87827042001217,-19.152966,12.610139,17.265648,58.329525,-32.628017,0.941247,-26.273876,-37.377346,-0.061354574,58.563328,-5.209226,6.5905232,4.5890555,-1.817649,15.955069,-10.126785,19.362732,-44.822872,45.570427,-3.045831,-21.496405,6.6835938,-23.215694,-19.96772,48.754242,56.272125,41.034782,-12.349611,2.722271
93,42.54098129272461,7.793580055236816,71.88512420654297,-0.44592739610970145,-2.7302883825422852,-97.98400541340008,-19.305424,11.876657,17.860395,58.827236,-32.917175,1.6862549,-27.153934,-38.830612,-0.89487666,64.16812,-7.3930845,4.5478897,4.783437,-2.1269116,16.201605,-10.329542,19.81244,-45.011776,44.765083,-2.3599825,-21.692795,6.5307884,-23.339146,-19.942715,48.576817,55.812126,40.595776,-12.496684,2.7054243
94,43.374149322509766,7.9784088134765625,71.70545196533203,-0.27745192844952593,-2.837572999506223,-98.03119269136558,-19.58012,11.109608,18.407434,59.3284,-33.170956,2.4692178,-27.983896,-40.206596,-1.5594716,69.871254,-9.587508,2.3578548,4.965198,-2.465929,16.345995,-10.477402,20.289282,-45.110382,43.906635,-1.5659409,-21.870142,6.375093,-23.414286,-19.871777,48.33581,55.38579,40.063107,-12.605312,2.702399
95,44.19486999511719,8.1558837890625,71.52815246582031,-0.13765651498391074,-2.886510724172572,-98.0406498012315,-19.921022,10.351401,18.907148,59.78743,-33.391117,3.2692378,-28.616325,-41.398796,-2.199373,75.41514,-11.713933,0.20436439,5.137119,-2.7831228,16.410433,-10.49661,20.780739,-45.055813,42.9283,-0.7339858,-22.011353,6.21366,-23.470766,-19.760668,48.09366,54.99717,39.497894,-12.694849,2.7091072
96,45.013912200927734,8.326276779174805,71.35790252685547,-0.06598592671746457,-2.89986257829326,-98.03298450041306,-20.273088,9.642115,19.358492,60.159557,-33.578102,4.0651293,-28.905054,-42.32345,-2.9712384,80.537155,-13.697279,-1.7394488,5.2974195,-3.0252092,16.415565,-10.308148,21.267937,-44.77446,41.76541,0.06845536,-22.100199,6.0424433,-23.525091,-19.621693,47.90817,54.63839,38.951767,-12.784106,2.7207484
97,45.829124450683594,8.4765625,71.20772552490234,-0.07447872835451415,-2.8657849081735693,-97.99417121209252,-20.659264,8.990016,19.739798,60.45919,-33.74514,4.850522,-28.82281,-43.01211,-3.9736946,85.245186,-15.533313,-3.508685,5.430901,-3.181662,16.345085,-9.889999,21.736395,-44.195633,40.40071,0.90051,-22.108511,5.86574,-23.562551,-19.46181,47.771385,54.28996,38.409405,-12.878444,2.72245
98,46.633548736572266,8.624692916870117,71.08348846435547,-0.14153686807283739,-2.7782421215396815,-97.91977552541552,-21.097767,8.374092,20.061365,60.707462,-33.88936,5.6356726,-28.437347,-43.46679,-5.149686,89.67361,-17.24181,-5.1573606,5.5417733,-3.2791343,16.19459,-9.28396,22.180336,-43.363247,38.878323,1.7773873,-22.054981,5.681804,-23.581366,-19.282627,47.666725,53.957573,37.8584,-12.967007,2.720412
99,47.438419342041016,8.767454147338867,70.98283386230469,-0.2508736989153408,-2.6677256741626074,-97.84575657107239,-21.522778,7.79173,20.368382,60.861946,-33.985367,6.4244404,-27.763748,-43.567993,-6.4329042,93.730286,-18.772932,-6.553108,5.6563964,-3.314458,16.000257,-8.528856,22.593056,-42.395382,37.242374,2.5393293,-21.992313,5.4787107,-23.57922,-19.091106,47.607765,53.6411,37.319534,-13.0442095,2.7415538
100,48.24563217163086,8.908672332763672,70.91305541992188,-0.3971580987427852,-2.564583128322581,-97.80850064045407,-21.87097,7.246021,20.702085,60.881386,-34.006657,7.220109,-26.84576,-43.190342,-7.754991,97.30546,-20.061352,-7.558876,5.8190722,-3.2788239,15.807791,-7.6900115,22.96761,-41.43374,35.549503,3.0212684,-21.972723,5.2489944,-23.643951,-18.898525,47.67871,53.400227,36.91807,-13.10517,2.812899
101,49.056209564208984,9.050048828125,70.87498474121094,-0.6004039472298922,-2.482665941164795,-97.80401201705216,-22.133728,6.760699,21.051886,60.77676,-33.970245,8.029699,-25.70754,-42.220238,-9.108729,100.38442,-21.052608,-8.162623,6.0205646,-3.1461656,15.621313,-6.7445354,23.293213,-40.456516,33.7648,3.1478097,-22.009266,4.9803476,-23.696745,-18.717552,47.82406,53.16342,36.58362,-13.147821,2.9451246
102,49.87614059448242,9.182387351989746,70.8711166381836,-0.8646695223197595,-2.4042743321212243,-97.81704168221695,-22.344774,6.3324833,21.398602,60.56778,-33.88332,8.848626,-24.416044,-40.718197,-10.522684,103.00941,-21.761093,-8.428827,6.2582045,-2.9208074,15.421772,-5.6838627,23.55995,-39.4249,31.885487,3.017809,-22.072063,4.6822,-23.74162,-18.556053,48.038666,52.931053,36.318424,-13.17381,3.12336
103,50.71167755126953,9.302414894104004,70.90306854248047,-1.1458255600261755,-2.313294482195479,-97.86651516433834,-22.506279,5.922444,21.771942,60.2253,-33.703373,9.66151,-23.091389,-38.8379,-11.967746,105.148506,-22.22824,-8.331951,6.5440016,-2.6425006,15.190546,-4.560151,23.762774,-38.42128,30.018747,2.7245536,-22.15021,4.3757963,-23.747686,-18.414118,48.294876,52.70929,36.081497,-13.182179,3.3362243
104,51.54673385620117,9.42465591430664,70.97017669677734,-1.3990147056440918,-2.1931575704284043,-97.97200307459654,-22.619394,5.489752,22.203918,59.71669,-33.385315,10.453652,-21.82658,-36.745144,-13.436217,106.77345,-22.507565,-7.8663883,6.901161,-2.3556585,14.913946,-3.4385366,23.899961,-37.536945,28.27533,2.3645678,-22.233341,4.085016,-23.736858,-18.288532,48.599525,52.54656,35.88541,-13.172926,3.572825
105,52.38938903808594,9.541720390319824,71.07112884521484,-1.6191396523972081,-2.039120250658236,-98.15121399308605,-22.670229,5.040342,22.714222,59.014034,-32.960495,11.236211,-20.629759,-34.447086,-14.939777,107.86772,-22.57763,-6.977647,7.3550997,-2.0641243,14.571296,-2.3033319,23.964931,-36.785862,26.667164,1.8881984,-22.333418,3.8171804,-23.666391,-18.176609,48.915283,52.431454,35.65941,-13.143832,3.8413017
106,53.238040924072266,9.664247512817383,71.20613098144531,-1.8256530861993678,-1.8609156381999028,-98.38852922373712,-22.665636,4.5889626,23.28337,58.141464,-32.436623,12.013995,-19.514458,-31.884233,-16.446129,108.44399,-22.428608,-5.697637,7.8864594,-1.7523388,14.1682625,-1.1487238,23.952568,-36.132725,25.15955,1.2643101,-22.44987,3.5601604,-23.50265,-18.080662,49.217632,52.327396,35.377438,-13.096069,4.144367
107,54.096466064453125,9.789582252502441,71.3736343383789,-2.0020749258213177,-1.662788206237717,-98.65324448793464,-22.640337,4.108863,23.888262,57.146164,-31.73428,12.762943,-18.545353,-29.148928,-17.88885,108.521736,-22.135815,-4.145894,8.45861,-1.4387957,13.739053,-0.028007336,23.868828,-35.580475,23.766394,0.6444843,-22.556465,3.3092647,-23.336008,-18.002407,49.57749,52.27726,35.18907,-13.033957,4.462317
108,54.95940399169922,9.91562271118164,71.5749740600586,-2.1345553782532383,-1.4495147786571996,-98.91450076935196,-22.624773,3.5708506,24.508184,56.06719,-30.770666,13.457507,-17.764034,-26.34329,-19.21272,108.12265,-21.773323,-2.4416878,9.015885,-1.1425921,13.308333,1.0302265,23.725847,-35.11543,22.490555,0.17799863,-22.626635,3.0579123,-23.157658,-17.941942,49.992718,52.259228,35.130005,-12.960405,4.7752247
109,55.84165573120117,10.043717384338379,71.80986022949219,-2.214993251092407,-1.211720760690956,-99.19501378694743,-22.60877,2.9556305,25.143822,54.851513,-29.553684,14.094395,-17.150633,-23.501171,-20.449547,107.22285,-21.358782,-0.62060785,9.578707,-0.87164855,12.86167,2.0509522,23.536083,-34.74405,21.309187,-0.091741644,-22.637922,2.807798,-22.971493,-17.898994,50.49719,52.28159,35.234673,-12.870937,5.0735874
110,56.740509033203125,10.180205345153809,72.07827758789062,-2.244717600733195,-0.9501739462690378,-99.49930998548871,-22.580803,2.2743766,25.80911,53.488808,-28.114565,14.686936,-16.68155,-20.609322,-21.595694,105.82254,-20.879856,1.3731775,10.158242,-0.6273845,12.396093,3.0500982,23.30475,-34.463978,20.21439,-0.24559337,-22.611706,2.5605252,-22.766714,-17.872534,51.07322,52.340187,35.461597,-12.764075,5.368987
111,57.6523551940918,10.32280158996582,72.37832641601562,-2.2578736296688042,-0.703745212505625,-99.79887400216685,-22.55272,1.6335138,26.493578,52.134453,-26.429996,15.000033,-16.334536,-17.648273,-22.568775,103.962425,-20.361,3.5377772,10.724373,-0.3761152,11.969812,3.975865,23.035103,-34.25908,19.23256,-0.3206484,-22.584286,2.3108022,-22.564875,-17.862284,51.67895,52.430164,35.791813,-12.64634,5.672253
112,58.575225830078125,10.492098808288574,72.69908905029297,-2.226917816610575,-0.48368858904252926,-100.01710138045405,-22.559128,0.997197,27.190887,50.867744,-24.432003,15.000033,-16.112179,-14.680696,-23.279366,101.71843,-19.844723,5.8943386,11.182768,-0.14496724,11.613653,4.794886,22.725653,-34.100792,18.393644,-0.35518727,-22.593943,2.0512156,-22.268208,-17.868912,52.174725,52.474457,36.064144,-12.523439,5.9943852
113,59.505035400390625,10.676009178161621,73.03545379638672,-2.106709301000906,-0.29402076719494,-100.1314661914053,-22.57869,0.2672709,27.942217,49.61779,-22.075,15.000033,-16.009075,-11.631491,-23.621527,99.01768,-19.358387,8.622003,11.565264,0.031740718,11.378659,5.4582767,22.384125,-34.039967,17.69985,-0.3442026,-22.669445,1.7832371,-22.217379,-17.895908,52.860336,52.689205,36.72518,-12.387682,6.3518248
114,60.45283508300781,10.867375373840332,73.38526153564453,-1.8989488862423356,-0.12370471193319202,-100.16549468553238,-22.608376,-0.57062703,28.734095,48.335487,-19.382864,15.000033,-15.956781,-8.576688,-23.663414,95.86663,-18.94407,11.610644,11.845388,0.15618593,11.211668,6.042317,22.008095,-34.037697,17.130468,-0.27608457,-22.785458,1.5030769,-22.10149,-17.939821,53.506386,52.89058,37.4077,-12.235421,6.7311926
115,61.418212890625,11.07321834564209,73.73796081542969,-1.639760906389949,0.04838906671390365,-100.10425535279997,-22.728949,-1.472237,29.503803,47.108574,-16.378178,15.000033,-15.889507,-5.7979746,-23.57929,92.477585,-18.63098,14.473604,12.0181055,0.25518438,11.099761,6.498724,21.600828,-34.08799,16.715034,-0.16305459,-22.897522,1.2227261,-22.01219,-18.002161,54.123173,53.106552,38.13502,-12.086215,7.1085095
116,62.38347244262695,11.313648223876953,74.08568572998047,-1.545824397819569,0.32362629035149315,-100.05368113310757,-23.208427,-2.054055,30.17575,46.276855,-13.182575,15.000033,-15.727774,-3.6788452,-24.175789,88.99426,-18.285278,15.000033,12.155791,0.5001972,10.902065,6.812784,21.16303,-34.15568,16.474358,-0.020254547,-22.961185,0.9494932,-21.86943,-18.082834,54.57729,53.26166,38.714085,-11.9603,7.4590774
117,63.34883117675781,11.587563514709473,74.41962432861328,-1.5954434054008517,0.6934589055989064,-99.97342072864272,-24.00481,-2.3437123,30.821817,45.818283,-9.694285,15.000033,-15.659763,-1.7707313,-24.81598,85.35795,-17.903458,15.000033,12.246753,0.88729405,10.638508,6.9647765,20.697004,-34.248142,16.4263,0.14925864,-22.959063,0.66818905,-21.762531,-18.183455,54.935505,53.403797,39.20575,-11.866805,7.7742786
118,64.31475830078125,11.879183769226074,74.7410659790039,-1.6477868476748097,1.0385485354702049,-99.79132637752144,-24.862795,-2.5873973,31.472916,45.467815,-5.8542275,15.000033,-15.560995,-0.028274497,-25.258928,81.517845,-17.536077,15.000033,12.222319,1.3097444,10.4521675,6.9716535,20.204012,-34.37055,16.55558,0.35122734,-22.91756,0.37954703,-21.666111,-18.303288,55.205223,53.527576,39.634617,-11.79486,8.067989
119,65.27373504638672,12.172887802124023,75.04913330078125,-1.7360127590801182,1.2816234921842744,-99.59001788606264,-25.748142,-2.8336387,31.584122,45.228394,-1.9207294,13.223519,-15.210008,1.4482435,-25.624382,77.55301,-17.080091,15.000033,12.147718,1.7959051,10.396103,6.8409767,19.689257,-34.51466,16.833935,0.5925266,-22.856554,0.120437615,-21.566378,-18.442184,55.365406,53.61901,40.050255,-11.736811,8.352933
120,66.24840545654297,12.46900463104248,75.33558654785156,-1.7544580176504432,1.4578525751890943,-99.29517805781003,-26.629168,-3.362712,31.18388,44.843636,1.9778764,10.597681,-14.564997,2.285161,-26.148954,73.71903,-16.470531,15.000033,11.94623,2.2381015,10.450889,6.580447,19.159847,-34.677406,17.22895,0.8748037,-22.794348,-0.07114188,-21.458862,-18.602333,55.40785,53.66853,40.520138,-11.683302,8.642598
121,67.24115753173828,12.77492618560791,75.59120178222656,-1.7526448194045239,1.5717189713705115,-98.89952795182832,-27.597834,-4.2775345,29.957304,44.273964,6.1333284,6.5922675,-13.499746,2.2986398,-27.24273,70.01499,-15.678336,15.000033,11.609546,2.684656,10.622541,6.179886,18.61579,-34.856487,17.75272,1.2053405,-22.718828,-0.18843989,-21.37432,-18.786032,55.327976,53.677162,41.136303,-11.62155,8.96493
122,68.24859619140625,13.0888090133667,75.81351470947266,-1.7413078316409767,1.637407882110214,-98.40556826838012,-28.667166,-5.624223,27.907915,43.604187,10.304721,1.2384796,-12.108001,1.7212204,-28.845192,66.37866,-14.75949,15.000033,11.140517,3.1429849,10.897889,5.6424136,18.057276,-35.051544,18.409407,1.5789869,-22.624672,-0.25074926,-21.309511,-18.994408,55.136333,53.64768,41.846283,-11.558023,9.304627
123,69.27806091308594,13.402048110961914,76.00086212158203,-1.63555277110668,1.645681557093002,-97.84248323704757,-29.64662,-7.2787232,25.577282,42.97562,13.559332,-4.447055,-10.617746,0.91158324,-30.451714,62.916046,-13.768635,15.000033,10.56524,3.5201032,11.26331,5.0003576,17.495857,-35.2612,19.148514,1.9824129,-22.541145,-0.2593675,-21.211748,-19.22726,54.84752,53.57279,42.505962,-11.514133,9.610777
124,70.31200408935547,13.70901870727539,76.13530731201172,-1.3575438269083944,1.584891612779397,-97.24830447704943,-30.349869,-8.8950815,23.763306,42.543865,15.267364,-9.127327,-9.27787,0.13944216,-31.487074,59.74942,-12.74804,15.000033,9.932134,3.7267616,11.709469,4.2771797,16.95334,-35.494076,19.913383,2.4013066,-22.497215,-0.21317077,-21.125853,-19.48534,54.565113,53.500683,43.093403,-11.514285,9.834778
125,71.33605194091797,13.994858741760254,76.20761108398438,-0.9433632061267632,1.4854244857779928,-96.68260961731121,-30.765478,-10.172498,22.867872,42.349693,15.262991,-12.269242,-8.221427,-0.5299014,-31.718351,56.8093,-11.150604,14.588062,9.302816,3.78034,12.192348,3.4830348,16.441486,-35.74219,20.691414,2.8366194,-22.50473,-0.098369285,-21.02475,-19.768475,54.259247,53.403053,43.53812,-11.569656,9.963977
126,72.31263732910156,14.32055950164795,76.22186279296875,-0.7539653241242799,1.5613739092165295,-96.42872027281234,-31.484562,-10.575608,22.59453,42.89805,13.851862,-14.499343,-7.434113,-1.027442,-32.292843,53.90921,-8.998063,10.438724,8.950162,3.9740736,12.473253,2.617009,15.964646,-36.004227,21.489933,3.2921865,-22.544956,0.0801511,-20.909687,-20.075245,53.90529,53.269093,43.892334,-11.668194,10.025195
127,73.31098937988281,14.668442726135254,76.1905517578125,-0.5048172376116217,1.6242913613731942,-96.20051331844671,-32.125942,-10.532849,23.127068,43.789833,11.878612,-15.000033,-6.778322,-1.6996651,-32.817566,51.528522,-7.601673,6.248157,8.597963,4.099803,12.765676,1.6921933,15.532645,-36.290737,22.280663,3.7498424,-22.600657,0.29472998,-20.797306,-20.40428,53.54801,53.137295,44.22013,-11.801086,10.029002
128,74.3230972290039,15.015107154846191,76.08332061767578,-0.13463885510475077,1.682788865252628,-95.93597092872767,-32.832203,-10.3225565,23.907703,45.052044,9.954193,-15.000033,-6.2277355,-2.566644,-33.314945,49.81554,-7.9770255,3.1344628,8.168344,4.1012754,13.050822,0.7384372,15.158863,-36.60075,23.0262,4.192232,-22.655872,0.5152859,-20.640371,-20.751083,53.176563,53.0061,44.50806,-11.958355,9.984851
129,75.32014465332031,15.355823516845703,75.92869567871094,0.31376510888944625,1.7064193705745259,-95.73914217254378,-33.64189,-9.807499,24.860506,46.932,7.965924,-15.000033,-5.619525,-3.364661,-33.570366,48.482006,-10.752717,1.4824901,7.7697463,4.0124044,13.349448,-0.26090896,14.862235,-36.951736,23.707396,4.636743,-22.707478,0.7370794,-20.502584,-21.109905,52.849358,52.91109,44.84258,-12.15402,9.882459
130,76.29722595214844,15.689767837524414,75.73466491699219,0.8167937598107899,1.6964026122279405,-95.62475884297093,-34.480766,-8.984177,25.939793,49.324978,5.682611,-15.000033,-5.0048122,-4.090794,-33.51638,47.388935,-15.127685,0.7357127,7.415739,3.8476412,13.665935,-1.3001806,14.648906,-37.335487,24.322887,5.0800543,-22.762705,0.97385037,-20.371136,-21.475878,52.536842,52.833534,45.17921,-12.389439,9.72101
131,77.27108001708984,16.012447357177734,75.49384307861328,1.2977095737097908,1.6468951573365684,-95.56448650542481,-35.361473,-8.063398,26.684845,51.976948,3.3431365,-15.000033,-4.534594,-4.851148,-33.290974,46.662083,-19.792406,0.54594326,7.074008,3.687443,14.008045,-2.3486953,14.51224,-37.72612,24.87944,5.4777613,-22.821655,1.225033,-20.192387,-21.845835,52.186554,52.751858,45.441887,-12.636844,9.523704
132,78.25888061523438,16.33860969543457,75.21256256103516,1.7102898255243726,1.5687717328099047,-95.48635250295081,-36.337852,-7.3108225,26.743315,54.60425,1.2355094,-14.821851,-4.394601,-5.796258,-33.04623,46.520676,-23.510382,0.5452609,6.6905866,3.5879033,14.382882,-3.401132,14.438579,-38.115166,25.394653,5.7879195,-22.884384,1.4930992,-20.076252,-22.22,51.896137,52.747135,45.75447,-12.867835,9.316193
133,79.26028442382812,16.68164825439453,74.90625,2.0322609006167345,1.4078894915756162,-95.35261051432005,-37.478237,-6.814871,26.029585,57.256996,-0.5956276,-13.843651,-4.6118803,-6.995056,-32.80565,47.16151,-26.04931,0.70674187,6.227096,3.5907063,14.843006,-4.5127397,14.42524,-38.521847,25.88219,5.989475,-22.957901,1.7766781,-19.998247,-22.599112,51.643837,52.807526,46.115574,-13.082143,9.095514
134,80.2681884765625,17.021142959594727,74.59822082519531,2.2892426020069263,1.1754603358404456,-95.20842269122517,-38.77717,-6.5340843,24.642735,60.02441,-2.2731857,-12.642818,-5.074935,-8.383386,-32.513954,48.427505,-28.037436,1.1555921,5.7209625,3.657403,15.371174,-5.6766844,14.472268,-38.947018,26.339754,6.1105137,-23.040806,2.0756526,-19.933483,-22.982927,51.40774,52.913746,46.490345,-13.293073,8.851468
135,81.25987243652344,17.34578514099121,74.29252624511719,2.495015708542458,0.9733079758059705,-95.12226689536,-40.115364,-6.3479714,22.930843,62.73234,-3.7771742,-11.515669,-5.7651005,-9.854205,-32.14495,50.007763,-29.558035,1.7370197,5.2297444,3.7468448,15.865863,-6.780597,14.563299,-39.329845,26.76928,6.182348,-23.122862,2.3909426,-19.869825,-23.365507,51.18149,53.063293,46.797447,-13.491932,8.595212
136,82.26078796386719,17.668203353881836,74.0139389038086,2.663817695307405,0.9048148582970663,-95.16064477079688,-41.37406,-6.0837994,21.236189,65.22277,-5.109186,-10.746383,-6.67091,-11.287945,-31.67008,51.591835,-30.694712,2.3055315,4.811545,3.824677,16.223982,-7.7149706,14.670957,-39.60887,27.180613,6.2424574,-23.193626,2.7236247,-19.84109,-23.735434,51.00144,53.291035,47.002872,-13.669503,8.337699
137,83.28679656982422,17.96651268005371,73.78650665283203,2.7881337372391353,1.0658883299251936,-95.34900009472683,-42.630413,-5.714979,19.55894,67.43074,-6.243585,-10.494158,-7.92171,-12.676833,-31.069109,53.217735,-31.367826,2.836097,4.4434047,3.8969715,16.339838,-8.435118,14.766163,-39.746166,27.646374,6.238996,-23.26747,3.1356275,-19.702505,-24.084309,50.759735,53.553867,46.787792,-13.82952,8.060476
138,84.3192138671875,18.233455657958984,73.60588073730469,2.865363946561365,1.3789443304927098,-95.64724210471928,-43.90984,-5.3243084,17.75533,69.45639,-7.1969886,-10.573648,-9.48303,-14.0537405,-30.334057,55.00095,-31.571917,3.395417,4.1343923,3.990195,16.305367,-9.046894,14.83971,-39.8058,28.175276,6.1796637,-23.345388,3.6096842,-19.67989,-24.409155,50.64891,53.9906,46.494286,-13.973252,7.765176
139,85.36165618896484,18.484704971313477,73.43963623046875,2.9186082818336017,1.6876374338986018,-96.02443133070649,-45.024162,-4.8501124,15.946942,71.39124,-8.041984,-10.7349205,-11.098972,-15.362355,-29.469563,56.755466,-31.494833,3.9872372,3.8629289,4.0806375,16.232994,-9.548462,14.899439,-39.766323,28.681572,6.1861324,-23.400595,4.0128994,-19.579697,-24.699883,50.45644,54.412735,46.146275,-14.089743,7.485208
140,86.39480590820312,18.717750549316406,73.27342224121094,2.9720705779765395,1.8360984307237078,-96.45019392432653,-45.79185,-4.2191334,14.243711,73.32136,-8.846985,-10.737025,-12.510885,-16.557045,-28.498135,58.302074,-31.328655,4.6151743,3.6487257,4.143491,16.25763,-9.969241,14.96736,-39.64932,29.06927,6.3761234,-23.403831,4.218257,-19.407576,-24.948786,50.1438,54.758446,46.011196,-14.169906,7.258959
141,87.41486358642578,18.929641723632812,73.11892700195312,3.0600953264303086,1.7730565411943062,-96.95166054386846,-46.16084,-3.4029222,12.6759205,75.28118,-9.604266,-10.557034,-13.712612,-17.682907,-27.372728,59.71689,-31.038734,5.302588,3.5064764,4.1504164,16.4281,-10.280509,15.058584,-39.412884,29.305933,6.8515186,-23.32231,4.155194,-19.132986,-25.147446,49.628437,55.004917,46.13104,-14.191781,7.1231437
142,88.41317749023438,19.133224487304688,72.98095703125,3.161355195263834,1.5854690012317398,-97.53469492863292,-46.243004,-2.4116726,11.180805,77.21941,-10.284399,-10.307689,-14.818612,-18.733938,-26.102848,61.05277,-30.556772,6.053117,3.4247746,4.1173015,16.670036,-10.469617,15.178721,-39.065994,29.426758,7.523179,-23.181614,3.9027045,-18.761852,-25.292118,48.949528,55.186863,46.37158,-14.167943,7.050206
143,89.39028930664062,19.326513290405273,72.86253356933594,3.217263299362726,1.3238055207981467,-98.13653477662747,-46.103382,-1.2231636,9.723659,79.07933,-10.928138,-9.955139,-15.742021,-19.610228,-24.820099,62.10862,-30.028458,6.828661,3.3718874,4.0831594,16.932165,-10.586731,15.341848,-38.697227,29.4338,8.217695,-23.037655,3.5576494,-18.343702,-25.383282,48.245453,55.323483,46.710533,-14.1428585,6.981868
144,90.34474182128906,19.50501823425293,72.76951599121094,3.1690166591986357,1.0368534296085234,-98.69352759408952,-45.81531,0.18138206,8.268448,80.81152,-11.573452,-9.46511,-16.39387,-20.231699,-23.665411,62.696087,-29.60062,7.578344,3.302664,4.08379,17.156282,-10.665509,15.567635,-38.383743,29.322065,8.760515,-22.942875,3.2171085,-17.850065,-25.423878,47.58471,55.3784,47.036877,-14.161189,6.8591914
145,91.27803802490234,19.663793563842773,72.70496368408203,2.9887910048273585,0.6994450843539853,-99.18459023424643,-45.37717,1.8530453,6.781278,82.45926,-12.244171,-8.812556,-16.704723,-20.552534,-22.646786,62.754066,-29.311346,8.299882,3.2107704,4.1343026,17.36439,-10.719514,15.880962,-38.140316,29.043325,9.140389,-22.899189,2.8697624,-17.308624,-25.414017,46.993774,55.34427,47.410385,-14.233846,6.6695685
146,92.19358825683594,19.817075729370117,72.66547393798828,2.7118061001449045,0.29523333665993157,-99.64469590170785,-44.78298,3.7906494,5.2832875,84.02199,-12.918533,-8.024127,-16.723307,-20.645802,-21.71724,62.400196,-29.08947,9.003859,3.1094847,4.2096343,17.578465,-10.70757,16.292007,-37.9186,28.583467,9.431985,-22.880796,2.4746158,-16.704382,-25.350655,46.419815,55.21947,47.83413,-14.33819,6.444172
147,93.10247039794922,19.947956085205078,72.65602111816406,2.3723434337784632,-0.11395859178721719,-100.09377223022464,-44.101646,5.923831,3.8202333,85.38802,-13.572106,-7.1453547,-16.541739,-20.61751,-20.934475,61.713585,-28.91182,9.650814,3.0070984,4.2863493,17.750975,-10.596146,16.788511,-37.718094,27.993086,9.600613,-22.893236,2.087848,-16.068792,-25.237514,45.918934,55.06264,48.251316,-14.468444,6.190495
148,94.00516510009766,20.061851501464844,72.67520904541016,2.0045964112992953,-0.4657609550258403,-100.55259136715928,-43.395767,8.174978,2.441822,86.45131,-14.179787,-6.220973,-16.25975,-20.569939,-20.35197,60.770805,-28.749655,10.206206,2.9120727,4.344957,17.831089,-10.3616705,17.341652,-37.536083,27.341232,9.614362,-22.942598,1.7661159,-15.421306,-25.081415,45.53715,54.923504,48.595924,-14.618211,5.915172
149,94.90906524658203,20.151756286621094,72.71994018554688,1.5821002914401405,-0.7706594934954757,-101.00701383134566,-42.663757,10.572229,1.1147733,87.21723,-14.753453,-5.2693944,-15.816943,-20.49837,-20.073412,59.535267,-28.681702,10.628825,2.8284357,4.409093,17.81447,-10.02505,17.931814,-37.40233,26.661127,9.36537,-23.057842,1.539628,-14.764396,-24.88776,45.31702,54.818554,48.883858,-14.8012085,5.5972595
150,95.83671569824219,20.23740005493164,72.78573608398438,1.096499239536905,-1.0548237692711153,-101.45264586613536,-41.898766,13.144301,-0.17232832,87.73291,-15.3060055,-4.2741904,-15.193224,-20.3556,-20.040686,57.984226,-28.688726,10.949183,2.7527397,4.4880757,17.721067,-9.603079,18.552761,-37.305225,25.93676,8.908447,-23.225266,1.3725631,-14.078616,-24.658226,45.216152,54.71385,49.130383,-15.01533,5.2396913
151,96.77718353271484,20.30868148803711,72.87923431396484,0.6093909001588358,-1.2776321641324198,-101.927146860117,-41.13751,15.801475,-1.3246738,87.960754,-15.815056,-3.2232347,-14.549696,-20.181032,-20.061533,56.20916,-28.59201,11.245918,2.6899047,4.5377955,17.539267,-9.087794,19.191187,-37.191284,25.184763,8.449286,-23.392818,1.2261841,-13.382174,-24.397366,45.17529,54.60778,49.3001,-15.229594,4.883852
152,97.7244873046875,20.366024017333984,73.0110855102539,0.183266766698159,-1.3977764063672578,-102.46762283231958,-40.402878,18.44685,-2.2422519,87.87174,-16.26327,-2.1042516,-14.046059,-20.019684,-19.944422,54.303947,-28.216059,11.594051,2.6508842,4.5166273,17.260803,-8.474024,19.82795,-37.01189,24.42285,8.199588,-23.509579,1.0645708,-12.729363,-24.110842,45.169514,54.52288,49.404743,-15.412123,4.570929
153,98.69418334960938,20.409257888793945,73.18024444580078,-0.1711986817743189,-1.3708013297802044,-103.09365270676615,-39.70302,21.094458,-2.8814652,87.44857,-16.666384,-0.9365987,-13.744838,-19.875605,-19.661139,52.262993,-27.593142,11.997193,2.6381912,4.404251,16.83654,-7.750838,20.451874,-36.74493,23.658743,8.233671,-23.567575,0.8748262,-12.114877,-23.802387,45.20612,54.448612,49.419537,-15.549784,4.3146524
154,99.6968765258789,20.450244903564453,73.38433837890625,-0.48258388153096954,-1.2294072761125607,-103.78335309005296,-39.000515,23.75921,-3.2752438,86.71802,-17.039047,0.26645458,-13.553115,-19.726786,-19.305038,50.040783,-26.785835,12.423551,2.6612298,4.2267313,16.29361,-6.9412413,21.057463,-36.43109,22.893543,8.440086,-23.593473,0.6799807,-11.601366,-23.475441,45.3743,54.436222,49.457798,-15.660722,4.091222
155,100.7256851196289,20.47791862487793,73.6304931640625,-0.7520094163824461,-1.0466317448519482,-104.5097977063129,-38.241486,26.347084,-3.4341693,85.738815,-17.37851,1.5368056,-13.398378,-19.587751,-18.863466,47.678585,-25.677095,12.892937,2.6910777,4.0061483,15.706909,-6.0714555,21.631586,-36.085236,22.164259,8.733357,-23.592974,0.49528873,-11.058227,-23.134735,45.51004,54.41196,49.39237,-15.7577915,3.8854873
156,101.77992248535156,20.50065803527832,73.91978454589844,-0.9793660769424797,-0.8950192646227287,-105.24517332531873,-37.36902,28.769308,-3.3690479,84.57239,-17.685427,2.9104936,-13.211981,-19.476131,-18.318563,45.22499,-24.15294,13.422357,2.7348726,3.7716665,15.16367,-5.192496,22.154165,-35.754158,21.5098,9.038263,-23.56985,0.3405105,-10.481199,-22.790962,45.558083,54.385914,49.256653,-15.85392,3.6830602
157,102.8580322265625,20.507802963256836,74.24993133544922,-1.1715806915572895,-0.7849717502553462,-106.00086051473525,-36.316948,31.127596,-2.9646955,83.21047,-18.000378,4.532652,-12.9853,-19.379702,-17.622622,42.68243,-22.191725,14.015753,2.8383603,3.542545,14.687969,-4.359288,22.60708,-35.476463,20.956467,9.39585,-23.50587,0.20904027,-10.007858,-22.458618,45.630283,54.454796,49.239468,-15.960251,3.4699032
158,103.95976257324219,20.505264282226562,74.61930847167969,-1.3238079954192705,-0.6783757195587758,-106.78296390586198,-35.080536,33.400997,-2.209115,81.647835,-18.345585,6.317804,-12.756432,-19.297571,-16.787107,40.03401,-19.856596,14.663789,2.9739914,3.3008645,14.219437,-3.5312681,22.979658,-35.218628,20.501871,9.83408,-23.407425,0.09325828,-9.478717,-22.14099,45.609856,54.5015,49.140434,-16.063892,3.255704
159,105.08815002441406,20.495494842529297,75.02273559570312,-1.4889940616544362,-0.5526079459565602,-107.59442743875131,-33.76244,35.420376,-1.351357,79.94856,-18.659657,7.9460597,-12.542284,-19.134476,-15.898882,37.246803,-17.128067,15.000033,3.160727,3.0983562,13.742673,-2.748413,23.269604,-35.011417,20.182365,10.230254,-23.311745,0.022905085,-8.977781,-21.844795,45.587406,54.573143,49.052658,-16.150244,3.065433
160,106.23247528076172,20.483051300048828,75.45420837402344,-1.6528010261327981,-0.4090477302103412,-108.39783713150688,-32.43786,36.95374,-0.60651636,78.159035,-18.849033,9.152525,-12.3302145,-18.948017,-15.043976,34.34227,-14.017905,15.000033,3.3648384,2.9210093,13.266169,-2.0272686,23.480154,-34.8663,20.018692,10.467452,-23.255733,0.025873043,-8.549686,-21.573557,45.621197,54.688717,49.017662,-16.204645,2.9232497
161,107.403076171875,20.47595977783203,75.8961410522461,-1.7764235533364547,-0.27210845120623267,-109.15407213120496,-31.060495,37.94144,0.0388989,76.25291,-18.991207,10.021264,-12.028317,-18.842705,-14.202342,31.249578,-10.402303,15.000033,3.5427096,2.7374046,12.818056,-1.3732109,23.612202,-34.80667,20.02032,10.50447,-23.248526,0.11950418,-8.185782,-21.330938,45.728897,54.85638,49.025635,-16.218023,2.8330207
162,108.59158325195312,20.4674129486084,76.34408569335938,-1.8657972463372816,-0.13802987921187193,-109.88060055840535,-29.599298,38.498745,0.67266434,74.2209,-19.080519,10.666966,-11.661975,-18.826973,-13.345202,28.019606,-6.3436317,15.000033,3.711875,2.5542173,12.393554,-0.7776989,23.665102,-34.820107,20.172924,10.408859,-23.270533,0.28523478,-7.8712225,-21.118732,45.88417,55.06332,49.068214,-16.199862,2.7821538
163,109.80538177490234,20.460186004638672,76.78224182128906,-1.8900214972882075,0.012858194643689763,-110.58477296097068,-28.121044,38.57889,1.2314209,72.125534,-18.883425,10.940833,-11.399095,-18.97412,-12.502772,24.951452,-2.1742291,15.000033,3.8837743,2.335362,11.975831,-0.24867816,23.647179,-34.863335,20.474419,10.2092085,-23.315392,0.49676043,-7.6044965,-20.933756,46.041225,55.273525,49.13637,-16.163212,2.7706976
164,111.03756713867188,20.452938079833984,77.19554138183594,-1.820731433415297,0.20306935752896146,-111.27769897321517,-26.707664,38.144093,1.6337211,70.029884,-18.16534,10.70678,-11.430067,-19.340322,-11.694329,22.361877,1.7765366,15.000033,4.0727,2.0436366,11.545841,0.22878371,23.571663,-34.883312,20.901123,9.943836,-23.376522,0.72705394,-7.3770795,-20.767355,46.14847,55.444813,49.212837,-16.120737,2.7986767
165,112.29108428955078,20.44415855407715,77.58322143554688,-1.6465655097209329,0.4787365537222398,-111.98504976003656,-25.444786,37.031193,1.6517695,67.91637,-16.807156,9.838677,-11.90907,-19.886122,-10.830723,20.227875,5.950887,15.000033,4.2979946,1.6575911,11.063689,0.65801823,23.448421,-34.881474,21.462866,9.577789,-23.462662,0.9799053,-7.190099,-20.611712,46.198143,55.581852,49.306873,-16.075405,2.8782015
166,113.5406494140625,20.433109283447266,77.93689727783203,-1.3999089690420885,0.8277568829518961,-112.70489011388756,-24.293295,35.338528,1.3206851,65.74781,-14.963413,8.453446,-12.771483,-20.60147,-9.891946,18.527308,10.317594,15.000033,4.5568924,1.2099693,10.542067,1.0462611,23.280787,-34.87625,22.147823,9.106575,-23.574522,1.2657021,-7.0551567,-20.464302,46.2201,55.71046,49.425453,-16.021564,3.0060525
167,114.80567169189453,20.428321838378906,78.24591064453125,-1.094416807068074,1.1810564448311747,-113.40122516495529,-23.151667,33.381218,0.9634903,63.55574,-12.805408,6.776997,-13.885104,-21.551796,-8.9885235,17.5369,13.866052,15.000033,4.81919,0.7219291,10.045036,1.3869056,23.075708,-34.846184,22.92324,8.5921755,-23.692286,1.5670022,-6.9747443,-20.325434,46.209927,55.81902,49.530186,-15.959209,3.158895
168,116.07947540283203,20.43404769897461,78.52495574951172,-0.7142347029854563,1.4560298844372428,-114.02446363005235,-21.925001,31.427803,0.92444885,61.372272,-10.477187,5.042415,-15.070323,-22.777771,-8.24711,17.417831,15.632798,15.000033,5.043857,0.18800956,9.65217,1.6769816,22.844175,-34.76823,23.75052,8.099005,-23.796305,1.8660259,-6.956288,-20.197113,46.17027,55.893703,49.59347,-15.887832,3.3131213
169,117.3675765991211,20.43067741394043,78.75144958496094,-0.16758420807238708,1.6098465392803392,-114.5562944407939,-20.587969,29.279243,1.1376281,59.14272,-7.604289,3.1223001,-16.255526,-24.40695,-7.7694464,18.099804,15.04902,15.000033,5.2060494,-0.48455906,9.410166,1.9450036,22.595873,-34.59765,24.618793,7.6418276,-23.877361,2.145299,-6.9819093,-20.074139,46.0677,55.90096,49.59734,-15.779485,3.4885235
170,118.64604949951172,20.425762176513672,78.90791320800781,0.3844855629378747,1.7115967040384965,-115.07751921372852,-19.268307,26.987108,1.3059015,56.86377,-4.2566214,0.8546582,-17.397728,-26.179375,-7.6700845,19.135843,12.902721,14.867113,5.3840284,-1.1446794,9.240623,2.1913686,22.336237,-34.356052,25.532663,7.1832995,-23.946646,2.4174492,-7.0645795,-19.954268,45.921047,55.862755,49.567913,-15.644266,3.6894922
171,119.90122985839844,20.454378128051758,79.01869201660156,0.6305061503270492,1.8331787112450493,-115.66604247052673,-18.074282,25.168222,1.5503736,54.64789,-1.1799557,-1.5168784,-18.414703,-27.614174,-8.580427,20.285742,10.16001,12.148792,5.6524343,-1.5056295,9.058146,2.3722758,22.06932,-34.11702,26.477226,6.7100577,-24.01335,2.7093217,-7.2285075,-19.848005,45.783733,55.825687,49.510418,-15.536924,3.8687584
172,121.17547607421875,20.492679595947266,79.1087417602539,0.7723988414183811,1.919477544883329,-116.16030878947514,-16.89919,23.821594,2.3555026,52.578423,0.90530664,-3.4627094,-19.310507,-28.83796,-9.386468,21.76138,7.53711,9.547636,5.8816314,-1.7221259,8.928985,2.4350781,21.803183,-33.957077,27.442543,6.2056537,-24.08607,3.044727,-7.4859443,-19.771942,45.701866,55.817257,49.428257,-15.509789,3.9758055
173,122.47084045410156,20.542997360229492,79.16324615478516,0.76575773402624,1.9786461645092228,-116.56458509999081,-15.692941,23.203417,4.1634264,50.65455,1.9368098,-4.8038325,-20.09106,-29.943237,-10.273438,23.699354,4.9516516,6.779526,6.076899,-1.7408377,8.845313,2.3437617,21.543215,-33.91232,28.438026,5.6041512,-24.180494,3.4529827,-7.8536177,-19.745363,45.703606,55.831795,49.32429,-15.586974,3.9884415
174,123.79200744628906,20.594528198242188,79.17239379882812,0.6451253916463752,1.9984450977702883,-116.89550808516154,-14.422184,23.064766,6.7784967,48.836544,2.30803,-5.778913,-20.706057,-31.002295,-11.279565,26.006035,1.9863886,3.7872095,6.2494054,-1.6021657,8.820507,2.1358063,21.290089,-33.934444,29.45486,4.933125,-24.289528,3.9134715,-8.3040695,-19.775148,45.750797,55.825653,49.19312,-15.734371,3.934
175,125.13932037353516,20.657365798950195,79.1291732788086,0.46386853849352894,1.9639339389154382,-117.14015718040704,-13.1335335,23.042355,9.629819,47.168377,2.0078259,-6.5592995,-21.115248,-31.860767,-12.022639,28.42754,-0.88696045,1.1196299,6.393939,-1.3665327,8.8675375,1.8669297,21.044806,-33.975006,30.45777,4.3133984,-24.387028,4.3775864,-8.802473,-19.856558,45.807507,55.78899,49.046635,-15.918332,3.839793
176,126.49606323242188,20.740528106689453,79.03009796142578,0.2785838853702972,1.864406020230761,-117.28320445538169,-11.931008,22.821676,12.108265,45.68441,1.0111108,-7.285704,-21.35079,-32.367477,-12.172786,30.804657,-3.1294699,-0.7284212,6.5026474,-1.099051,8.995156,1.5940578,20.80888,-33.988136,31.412287,3.8665545,-24.443699,4.7974205,-9.32213,-19.977016,45.8415,55.72702,48.89863,-16.106401,3.7340946
177,127.858642578125,20.83579444885254,78.87789916992188,0.08051804257937811,1.6984786336446027,-117.30603792392499,-10.813642,22.414066,14.179632,44.351856,-1.0179331,-7.9610443,-21.464008,-32.475407,-11.601485,33.20455,-4.4342465,-1.544479,6.5508924,-0.7792108,9.203183,1.2897309,20.584085,-34.00425,32.3596,3.6056626,-24.443678,5.1681223,-9.876569,-20.13051,45.856045,55.66599,48.74544,-16.316021,3.6113133
178,129.21063232421875,20.936704635620117,78.6753158569336,-0.1512023215553994,1.480606699596183,-117.22304143268548,-9.752455,21.979156,16.132631,43.150978,-3.9587407,-8.52156,-21.524055,-32.320477,-10.526495,35.858337,-5.1453505,-1.6917148,6.5525928,-0.38763893,9.479619,0.9434808,20.370592,-34.03024,33.296997,3.4752111,-24.402206,5.5142093,-10.491182,-20.316908,45.87664,55.615654,48.594666,-16.556948,3.4614525
179,130.54347229003906,21.050643920898438,78.42051696777344,-0.3829466144389133,1.221333434249646,-117.06902399981642,-8.851438,21.479666,17.815693,42.152004,-7.1725206,-8.956619,-21.573364,-32.00287,-9.176049,38.831425,-5.6586385,-1.5291073,6.548205,0.012230636,9.813353,0.62292856,20.169744,-33.992718,34.1418,3.4773953,-24.335417,5.8301315,-11.115378,-20.525148,45.86998,55.53043,48.429077,-16.784843,3.306579
180,131.84788513183594,21.180524826049805,78.12373352050781,-0.5806211129496792,0.9269200752176782,-116.87873602606513,-8.211742,20.888403,19.074804,41.442753,-10.037361,-9.24189,-21.628225,-31.586458,-7.78114,42.145023,-6.3529706,-1.3928144,6.58155,0.35447773,10.198274,0.40295506,19.984905,-33.819313,34.803215,3.6229157,-24.259611,6.109443,-11.735766,-20.737759,45.833626,55.39632,48.271202,-16.956741,3.1698463
181,133.13438415527344,21.332277297973633,77.79724884033203,-0.7818020720591969,0.5190613430512899,-116.65724126329815,-7.843054,20.253325,19.741268,41.148106,-12.51894,-9.381452,-21.640205,-30.88148,-6.2202144,45.926434,-7.2855463,-1.2563907,6.6463275,0.67670906,10.712875,0.30923894,19.813803,-33.43308,35.27049,4.069509,-24.157904,6.35519,-12.367075,-20.943153,45.741013,55.202477,48.104202,-17.059618,3.063259
182,134.3998260498047,21.503934860229492,77.42923736572266,-0.9948134547997783,0.021004860249750994,-116.39023530280558,-7.7100835,19.595911,19.931404,41.227734,-14.935664,-9.3522415,-21.599573,-29.828045,-4.4782414,50.145985,-8.27796,-0.9140639,6.710699,0.99642104,11.3237095,0.31030712,19.655891,-32.881344,35.589043,4.759432,-24.02671,6.5646667,-12.958355,-21.135818,45.554802,54.93724,47.85005,-17.118294,2.973644
183,135.6396484375,21.702560424804688,77.03201293945312,-1.1380374778104212,-0.4133258824822665,-116.08245030361745,-7.836904,18.841154,19.913921,41.511818,-17.192427,-9.103786,-21.562704,-28.716913,-2.932648,54.526806,-9.328499,-0.4574162,6.827416,1.2184182,11.896614,0.34571677,19.526268,-32.32126,35.752106,5.3792706,-23.904408,6.730948,-13.709377,-21.3069,45.520714,54.798515,47.798588,-17.15014,2.8879385
184,136.84463500976562,21.906574249267578,76.62464141845703,-1.12282301438823,-0.6329903500984267,-115.73731765508569,-8.236276,17.910223,19.958263,41.806942,-19.18193,-8.604702,-21.597683,-27.9129,-1.9201646,58.769703,-10.415997,-0.035995897,6.971434,1.2301313,12.241748,0.4381972,19.446648,-31.844126,35.750244,5.60602,-23.830618,6.8402567,-14.29178,-21.430983,45.42417,54.632565,47.61844,-17.170506,2.7905266
185,138.0145721435547,22.111270904541016,76.2353515625,-0.8438644124912866,-0.5640082049789115,-115.34705327544904,-8.977087,16.691612,20.117935,42.086704,-20.928572,-7.792878,-21.8125,-27.664696,-1.488386,62.92327,-11.538836,0.38268873,7.189333,0.90629745,12.316007,0.55071384,19.441486,-31.502245,35.551586,5.333969,-23.81389,6.926579,-14.835373,-21.49929,45.361477,54.533707,47.490074,-17.193403,2.6672926
186,139.1463165283203,22.329381942749023,75.87934875488281,-0.3700513004629429,-0.30444488463123137,-114.90994935407528,-10.015216,15.249221,20.258018,42.43193,-22.467548,-6.717355,-22.12962,-27.76201,-1.4587483,67.09247,-12.70138,0.82319665,7.458882,0.32347554,12.219179,0.7202268,19.521177,-31.21499,35.139927,4.736418,-23.833418,6.981313,-15.354206,-21.509155,45.310047,54.48254,47.383244,-17.20904,2.530308
187,140.25146484375,22.569543838500977,75.58502197265625,0.13016774425953137,0.03992509276484019,-114.43717496997115,-11.194164,13.76807,20.367783,42.800667,-23.700634,-5.5172396,-22.345222,-27.920187,-1.797977,71.032646,-13.857454,1.0924675,7.7422385,-0.3217217,12.026278,0.98798573,19.67723,-30.960873,34.551388,3.9149213,-23.883284,6.9420366,-15.832755,-21.454893,45.284054,54.488415,47.225834,-17.19852,2.4063418
188,141.3388671875,22.809078216552734,75.36239624023438,0.48955264989162284,0.3668224119008317,-113.94175104282178,-12.362802,12.433079,20.433605,43.15158,-24.525948,-4.32558,-22.259853,-27.842567,-2.474417,74.47174,-14.943903,1.0116642,8.003161,-0.8255496,11.803195,1.3813705,19.870693,-30.721083,33.85059,2.980315,-23.958054,6.748112,-16.246746,-21.343065,45.300087,54.553112,46.947754,-17.14101,2.321313
189,142.4131317138672,23.040096282958984,75.20360565185547,0.6671859645493995,0.7133506936177019,-113.40150510396903,-13.620438,11.313207,20.451,43.596004,-24.885464,-3.1220737,-21.875534,-27.567535,-3.630588,77.419754,-15.985862,0.25933868,8.2069025,-1.1521856,11.492062,1.9331357,20.075222,-30.486435,33.029118,1.7652267,-24.085514,6.3182936,-16.571012,-21.169579,45.30813,54.68784,46.429966,-17.011389,2.277809
190,143.45791625976562,23.23724365234375,75.1269760131836,0.7567589038253189,1.1129206663008007,-112.81643163495704,-14.990007,10.307094,20.454067,44.109375,-24.842793,-1.8559877,-21.274841,-27.208857,-5.2129107,79.96719,-16.98187,-0.98145074,8.364058,-1.3997388,11.064751,2.6145945,20.28242,-30.261234,32.097664,0.27740416,-24.25006,5.7025046,-16.72091,-20.930058,45.229256,54.82687,45.62306,-16.825905,2.264267
191,144.48365783691406,23.405635833740234,75.14031982421875,0.7898516584848577,1.4612888182336088,-112.23550536990719,-16.220764,9.351064,20.47505,44.4587,-24.47701,-0.6145917,-20.420963,-26.554962,-6.9070773,81.95799,-17.811478,-2.1243067,8.565925,-1.565681,10.671868,3.3122246,20.487173,-30.092207,31.144028,-1.0966582,-24.38688,5.0489,-16.971777,-20.647806,45.38633,55.110596,45.02935,-16.629978,2.2857368
192,145.49124145507812,23.549680709838867,75.23883819580078,0.7931228666945725,1.6538314597757888,-111.70865291747518,-17.0657,8.384481,20.533848,44.409187,-23.862627,0.5119879,-19.304916,-25.392025,-8.40371,83.22754,-18.33789,-2.5761917,8.842177,-1.6410089,10.424822,3.9769855,20.675097,-29.969763,30.245708,-1.9688728,-24.445604,4.501981,-17.208227,-20.350422,45.776043,55.400787,44.70454,-16.462713,2.3418062
193,146.4952392578125,23.701425552368164,75.41458892822266,0.7349525709244693,1.60636321739923,-111.25481513846023,-17.369823,7.4259143,20.61359,43.851017,-23.044777,1.5023865,-17.843779,-23.550497,-9.640042,83.66119,-18.503338,-2.1854289,9.222417,-1.5682019,10.395927,4.5944285,20.834473,-29.914434,29.43138,-2.166782,-24.4086,4.094821,-17.360184,-20.061743,46.39591,55.653248,44.727913,-16.33502,2.4146044
194,147.5178985595703,23.859811782836914,75.65486907958984,0.6140890182631503,1.3950639766627955,-110.84418432927191,-17.303717,6.5008445,20.700237,42.931587,-21.97427,2.4061306,-16.140873,-21.167316,-10.729056,83.35187,-18.37835,-1.2671727,9.686134,-1.361837,10.5086355,5.1824336,20.959745,-29.929146,28.669117,-1.914048,-24.315538,3.7542338,-17.469522,-19.792616,47.242382,55.90407,45.045856,-16.221415,2.507154
195,148.55642700195312,24.02486228942871,75.94189453125,0.5033394414109444,1.155660879576322,-110.45434347070838,-17.110287,5.555169,20.811544,41.797276,-20.58321,3.239834,-14.455403,-18.501604,-11.649177,82.443954,-18.027103,0.065325156,10.186106,-1.1209867,10.643344,5.7410064,21.044716,-29.9811,27.952606,-1.4202842,-24.207584,3.467368,-17.4966,-19.549442,48.210064,56.079586,45.39549,-16.103811,2.650798
196,149.58558654785156,24.18916893005371,76.28134155273438,0.47520182934980615,1.023216456284544,-110.0648302933656,-17.029905,4.5348725,20.972223,40.587933,-18.801147,4.0145636,-13.015989,-15.824724,-12.407645,81.09427,-17.521757,1.7036048,10.694672,-0.9486308,10.695361,6.253157,21.086342,-30.051964,27.276232,-0.8931811,-24.12308,3.2253256,-17.527061,-19.341116,49.30683,56.189373,45.664223,-15.966733,2.8785138
197,150.62632751464844,24.36452293395996,76.66094970703125,0.5605840807222967,1.021199516160027,-109.69799873433512,-17.070719,3.3979445,21.19817,39.257214,-16.582485,4.79897,-11.825861,-13.158761,-12.994795,79.23343,-16.84094,3.7919006,11.245062,-0.87786627,10.639426,6.718706,21.08448,-30.15492,26.630854,-0.27984825,-24.068253,3.0498326,-17.541656,-19.178085,50.609512,56.204468,45.765484,-15.80249,3.212309
198,151.6783905029297,24.555686950683594,77.07779693603516,0.7232229540605475,1.0809798963043669,-109.35509990781344,-17.12112,2.1817348,21.483301,37.751472,-13.97382,5.5620275,-10.766076,-10.413422,-13.38914,76.81006,-16.019129,6.310615,11.842997,-0.8563453,10.536223,7.1386347,21.038094,-30.298311,26.024315,0.49559882,-24.024195,2.937437,-17.524971,-19.066088,52.114475,56.13522,45.81432,-15.619981,3.6304238
199,152.7440948486328,24.762922286987305,77.52133178710938,0.9309361737156737,1.19793137474261,-108.98461475377792,-17.231657,0.94290787,21.812927,36.17155,-11.024807,6.1611686,-9.8506565,-7.695964,-13.620263,74.00859,-15.185962,8.907227,12.403307,-0.85634375,10.4013605,7.510954,20.941364,-30.443592,25.475752,1.2557995,-23.98986,2.8406327,-17.46335,-19.000746,53.60214,55.98094,45.854824,-15.428129,4.0995393
200,153.82662963867188,24.991539001464844,77.97763061523438,1.1494798586933659,1.367081717696427,-108.53629360583139,-17.455624,-0.26516804,22.161217,34.62363,-7.785958,6.4520793,-9.090796,-5.1047263,-13.732762,71.01815,-14.430415,11.240718,12.847451,-0.84828264,10.2493925,7.8329945,20.787003,-30.55679,25.008104,1.8278394,-23.966331,2.7140517,-17.358786,-18.973297,54.85649,55.754314,45.940792,-15.235788,4.586108
201,154.9120330810547,25.225034713745117,78.44149780273438,1.4111086673230102,1.6164149221233666,-107.98300216900874,-17.861383,-1.4648366,22.677546,33.178577,-4.1307187,6.805744,-8.525666,-2.5961607,-13.61289,67.77697,-13.76407,13.267121,13.151438,-0.8661741,10.06744,8.101842,20.569052,-30.634592,24.625864,2.1065934,-23.960672,2.528827,-17.218403,-18.979525,55.849796,55.431778,46.064632,-15.039864,5.109985
202,156.00440979003906,25.47986602783203,78.90065002441406,1.7216032373624588,1.935451929869482,-107.35508592121488,-18.40396,-2.66987,23.327751,31.762602,-0.07928107,7.162091,-8.082742,-0.18847021,-13.311139,64.21286,-13.131559,15.000033,13.3615265,-0.9108376,9.855706,8.307559,20.287796,-30.700644,24.330261,2.2031796,-23.969906,2.3170905,-17.053377,-19.020716,56.691715,55.027607,46.21427,-14.837081,5.6785183
203,157.08628845214844,25.755521774291992,79.3387222290039,1.8236365622083712,2.316179533300029,-106.77639929052401,-19.1431,-3.5680423,23.676126,30.537378,3.984952,6.647165,-7.642872,2.1073053,-13.449095,60.371567,-12.357113,15.000033,13.581549,-0.750956,9.55635,8.449337,19.946428,-30.753464,24.128777,2.2718136,-23.97669,2.123992,-16.845076,-19.094826,57.33871,54.597717,46.388035,-14.6353445,6.2394867
204,158.1940155029297,26.06146240234375,79.74032592773438,1.7839682589555528,2.655017155555412,-106.22038559803804,-19.776638,-4.459416,23.252037,29.055374,7.944542,4.441483,-7.09417,4.163726,-13.8124895,56.489273,-11.447249,15.000033,13.783933,-0.4184135,9.265187,8.511021,19.553974,-30.802298,24.036516,2.4576561,-23.964296,1.9958638,-16.60248,-19.19964,57.771896,54.213367,46.62283,-14.442339,6.741287
205,159.29481506347656,26.370546340942383,80.09628295898438,1.5703128496440242,2.9462171412910636,-105.6778457326189,-20.099083,-5.50791,21.77169,26.87698,12.121771,-0.6401471,-6.3821564,5.973967,-14.58544,52.48531,-10.3670635,15.000033,13.963995,0.120442934,8.987111,8.501632,19.11134,-30.833193,24.054134,2.8370562,-23.915094,1.9528043,-16.316523,-19.333666,57.942875,53.874485,46.96508,-14.259626,7.1740437
206,160.40652465820312,26.68560791015625,80.41507720947266,1.2287064586676866,3.211853054437715,-105.13431194325403,-20.195951,-6.7515893,19.276712,24.21709,16.307556,-7.986675,-5.542836,7.6206627,-15.593277,48.256542,-9.118619,15.000033,14.110704,0.81916183,8.716126,8.426432,18.618711,-30.846827,24.171343,3.317254,-23.841255,1.9672096,-15.994143,-19.496878,57.87596,53.551773,47.385773,-14.081794,7.563528
207,161.53268432617188,26.99674415588379,80.68512725830078,0.9515175223643818,3.422045508377632,-104.53598463056116,-20.16567,-8.137825,16.237768,21.58613,19.661854,-15.000033,-4.6608973,8.924147,-16.61161,44.139183,-7.8130784,15.000033,14.157789,1.4984591,8.511264,8.281203,18.086344,-30.869083,24.370932,3.7950027,-23.770216,2.013961,-15.658918,-19.68943,57.654896,53.26716,47.80007,-13.907347,7.9131074
208,162.72642517089844,27.277347564697266,80.86761474609375,1.1414383007918543,3.5694698593776373,-103.69183177548113,-19.71925,-9.572897,15.057786,18.650568,22.218088,-15.000033,-4.0549326,9.331614,-17.53536,40.983334,-6.826762,15.000033,13.908211,1.8054411,8.447439,8.080663,17.525951,-30.927614,24.620094,4.1653247,-23.728157,2.0700488,-15.326771,-19.916174,57.365902,53.04609,48.11817,-13.73623,8.22996
209,163.8875732421875,27.545419692993164,80.99048614501953,1.2638156835622043,3.4912082794117083,-102.97380127055226,-19.560097,-10.803956,12.341996,16.981277,22.948238,-15.000033,-3.2062914,9.606213,-18.371237,38.04547,-5.7483735,15.000033,13.706571,2.2083292,8.58128,7.8004513,16.949556,-31.011639,24.94239,4.3799877,-23.736404,2.147935,-14.995095,-20.167046,56.97016,52.871017,48.289665,-13.564318,8.516362
210,165.06028747558594,27.81420135498047,81.09323120117188,1.3678718187071737,3.2463695220840387,-102.33098810237571,-19.515562,-11.945802,8.483278,16.172516,22.2846,-15.000033,-2.1977553,9.674771,-19.248129,35.346962,-4.6209693,15.000033,13.5095005,2.6526423,8.877285,7.453354,16.361454,-31.110188,25.32904,4.4990892,-23.77474,2.253407,-14.659808,-20.435223,56.442554,52.738243,48.37315,-13.395632,8.770037
211,166.2513427734375,28.111732482910156,81.19830322265625,1.5356266900287558,2.934177536509155,-101.76835417913014,-19.61927,-12.937921,4.4525394,16.209997,20.751453,-15.000033,-1.2176533,9.603282,-19.863388,32.913258,-3.3761332,15.000033,13.319927,3.030767,9.263446,7.030833,15.7784195,-31.234543,25.758678,4.579158,-23.821733,2.3464696,-14.341757,-20.716085,55.866276,52.65829,48.436302,-13.244544,8.977169
212,167.4348602294922,28.41608238220215,81.25835418701172,1.8387344063210327,2.6540412006786873,-101.29022871073145,-19.932997,-13.704344,1.2537946,16.99743,18.940004,-15.000033,-0.46588254,9.438,-19.892313,30.774786,-1.9318448,15.000033,13.141723,3.2473767,9.660741,6.5337086,15.223989,-31.39224,26.196394,4.675485,-23.854563,2.386302,-14.064198,-21.006239,55.329113,52.641045,48.54897,-13.125014,9.1236725
213,168.5814208984375,28.726621627807617,81.26333618164062,2.2737647840948205,2.46967450843409,-100.89735323330177,-20.626915,-14.1287775,-0.761236,18.632484,16.832777,-15.000033,-0.0068833437,9.284244,-19.134089,28.704609,0.16535896,15.000033,12.983367,3.2833908,10.012076,5.9660544,14.712259,-31.589212,26.618464,4.747807,-23.87038,2.3448968,-13.842716,-21.30409,54.850407,52.70721,48.732136,-13.046217,9.199369
214,169.7112274169922,29.043956756591797,81.22440338134766,2.775973607773006,2.3332674104098703,-100.56032621976104,-21.653708,-14.285032,-2.1724577,21.02294,14.266332,-15.000033,0.23504499,9.096288,-17.824389,26.76532,2.733455,15.000033,12.815809,3.2146776,10.343213,5.345537,14.246179,-31.816477,27.020887,4.7786193,-23.878918,2.2485425,-13.663398,-21.608118,54.389534,52.84939,48.948467,-13.000042,9.2154875
215,170.85433959960938,29.356277465820312,81.14636993408203,3.326780913004193,2.16635992838438,-100.26244144417632,-22.754267,-14.351712,-3.3622227,23.785727,11.588181,-15.000033,0.24894781,8.693314,-16.26392,25.469976,4.8961,15.000033,12.609786,3.0900779,10.707426,4.6963215,13.831747,-32.05759,27.395487,4.861624,-23.876093,2.1382048,-13.5062,-21.917141,53.942257,53.03713,49.178806,-12.9746895,9.190266
216,172.02996826171875,29.6540470123291,81.01985168457031,3.939659801457558,1.9016264464979715,-99.99858281567919,-23.674854,-14.550208,-4.685317,26.538465,9.171276,-15.000033,-0.028334571,7.889254,-14.71869,25.386507,5.7407846,15.000033,12.34584,2.922751,11.157688,4.039344,13.477497,-32.295456,27.734282,5.0903573,-23.85791,2.054527,-13.357246,-22.228374,53.507957,53.240417,49.40975,-12.958236,9.141221
217,173.20474243164062,29.948795318603516,80.88566589355469,4.493235268872687,1.5892379351746266,-99.88377573691383,-24.62093,-14.766144,-6.2358747,29.635363,6.886473,-15.000033,-0.7683856,6.7678413,-13.265723,26.736526,5.1490545,13.916822,12.131963,2.8186328,11.634234,3.3743935,13.190317,-32.516037,28.031197,5.5681515,-23.80915,1.9905303,-13.217824,-22.538366,53.077007,53.468784,49.62343,-12.9519415,9.05692
218,174.3401336669922,30.266448974609375,80.67933654785156,4.716063289691184,1.371627990243016,-100.05895465172073,-25.963009,-14.553254,-7.8738256,33.59305,4.351736,-15.000033,-1.8134997,5.8113723,-12.724345,28.632032,3.8383143,7.8780293,12.120143,2.9717817,11.974923,2.6969995,12.976083,-32.730427,28.281288,6.2173915,-23.73561,1.9280539,-13.099379,-22.843992,52.656178,53.73543,49.835266,-12.960212,8.932812
219,175.4821014404297,30.581850051879883,80.40765380859375,4.947223206183754,1.142694718728843,-100.3033892325416,-27.180758,-14.344882,-9.482747,37.479507,2.04023,-15.000033,-2.9429257,4.7845173,-12.278772,30.911648,1.570042,1.7950336,12.106906,3.098766,12.314456,2.0159023,12.838482,-32.962875,28.484608,6.8560624,-23.666431,1.8929511,-12.98333,-23.143198,52.247974,54.004574,50.05523,-12.977364,8.797576
220,176.65379333496094,30.872413635253906,80.06975555419922,5.453859627029488,0.8413996794161055,-100.55332301282623,-28.040735,-14.265351,-10.411941,40.81898,0.16739242,-13.828963,-3.8260639,3.475748,-11.780423,33.148327,-1.5427444,-2.5659325,12.038298,2.9531517,12.747375,1.3361188,12.782464,-33.237736,28.643372,7.303529,-23.630419,1.9106326,-12.860213,-23.43287,51.860645,54.242954,50.30357,-12.997147,8.679039
221,177.84268188476562,31.161426544189453,79.64710235595703,6.181547181155325,0.49493295587326114,-100.80112614310775,-28.652718,-14.348357,-11.052405,43.850227,-1.3364115,-12.881226,-4.218389,1.923797,-11.362624,34.956654,-5.595376,-4.682156,11.902083,2.5668705,13.214536,0.6546812,12.821471,-33.578358,28.75575,7.5433145,-23.645666,2.0209787,-12.706231,-23.705881,51.478672,54.43112,50.57674,-13.014739,8.591539
222,179.00997924804688,31.450725555419922,79.19269561767578,7.034979036154505,0.12105385116235591,-101.07947834113354,-29.119936,-14.510777,-11.569871,46.792377,-2.5844195,-12.380809,-4.3107414,0.13436903,-11.044945,36.573643,-10.491397,-5.433668,11.730559,2.0270643,13.697944,-0.02825625,12.959977,-33.973976,28.811913,7.657018,-23.692543,2.1988358,-12.543787,-23.958046,51.10747,54.59743,50.87463,-13.035155,8.518302
223,180.17320251464844,31.725860595703125,78.71678161621094,7.833638867627339,-0.21619333421952702,-101.34841959274223,-29.538015,-14.549909,-12.048022,49.662952,-3.6924586,-12.088219,-4.3480887,-1.684163,-10.799879,37.964027,-15.407595,-5.390661,11.518761,1.4985075,14.141686,-0.7107988,13.18354,-34.38779,28.814325,7.6140227,-23.746271,2.3709328,-12.398422,-24.188648,50.75355,54.7547,51.180603,-13.066835,8.4377165
224,181.33145141601562,32.0028076171875,78.23723602294922,8.400264883717073,-0.4567610314288684,-101.56303517739768,-29.99267,-14.276418,-12.584552,52.453415,-4.762593,-11.763675,-4.566971,-3.2495651,-10.533104,39.131424,-19.580307,-5.19889,11.254081,1.1450673,14.490816,-1.3974618,13.466,-34.77638,28.77858,7.3880386,-23.783133,2.4653385,-12.289221,-24.400145,50.419735,54.914364,51.47135,-13.1181555,8.327955
225,182.4672393798828,32.29082489013672,77.77362823486328,8.670991041770334,-0.5863796428438108,-101.68952516866894,-30.501581,-13.632174,-13.224782,55.16914,-5.8078513,-11.411639,-4.987654,-4.456087,-10.253886,40.05894,-22.872828,-4.9613986,10.9130125,1.0297551,14.733094,-2.149644,13.797565,-35.159218,28.732443,6.863591,-23.804188,2.4684181,-12.23909,-24.595991,50.1335,55.080254,51.791264,-13.200491,8.174221
226,183.56610107421875,32.600799560546875,77.33540344238281,8.744935665521945,-0.639439893226907,-101.75339421514155,-31.017517,-12.727569,-13.915248,57.807583,-6.774865,-11.140031,-5.4949546,-5.477846,-10.061293,40.821854,-25.700146,-4.4308004,10.502362,1.0644728,14.897002,-2.956432,14.175598,-35.543797,28.678268,6.096786,-23.820255,2.4179688,-12.231035,-24.776875,49.88631,55.248863,52.13522,-13.306981,7.9906926
227,184.68203735351562,32.92632293701172,76.91060638427734,8.695324343169906,-0.6309649752532979,-101.79681201021236,-31.522171,-11.629039,-14.615288,60.325314,-7.6601233,-10.862405,-6.105313,-6.388819,-9.903194,41.545105,-28.162832,-3.7568612,10.053549,1.1858199,14.992027,-3.7203312,14.57869,-35.86918,28.6043,5.3193035,-23.821869,2.3209965,-12.235377,-24.94134,49.64076,55.42846,52.422623,-13.417867,7.7983756
228,185.82029724121094,33.22911834716797,76.49929809570312,8.593936526532644,-0.5754419330160625,-101.86284612942708,-32.006798,-10.398432,-15.284834,62.68782,-8.465117,-10.488681,-6.8382387,-7.2569304,-9.711969,42.34114,-30.346191,-3.0730271,9.591795,1.3323436,15.018281,-4.3412166,14.973355,-36.069214,28.512642,4.766606,-23.800999,2.1843474,-12.185163,-25.086756,49.323856,55.60934,52.52359,-13.512411,7.6176257
229,186.97055053710938,33.51667785644531,76.09188842773438,8.425644437442752,-0.44010160176774243,-101.95431277657435,-32.52824,-9.016592,-15.93973,64.93187,-9.197763,-10.0010605,-7.7258987,-8.061509,-9.472744,43.194008,-32.275658,-2.389165,9.120761,1.5237006,14.9286995,-4.798934,15.328042,-36.122,28.446419,4.501906,-23.754799,1.9940474,-12.094957,-25.213882,48.963352,55.83623,52.389843,-13.586709,7.4486513
230,188.11355590820312,33.78315353393555,75.70124816894531,8.163607469588532,-0.229844753813792,-102.05127388913702,-33.084126,-7.458443,-16.602245,67.0662,-9.857802,-9.442694,-8.748658,-8.773566,-9.214535,44.064598,-33.91854,-1.6458235,8.656058,1.7980801,14.752379,-5.1887393,15.632963,-36.088455,28.433205,4.407632,-23.690079,1.7564574,-12.16608,-25.325096,48.765873,56.22263,52.318016,-13.650691,7.2825933
231,189.2509765625,34.05121994018555,75.31997680664062,7.856397532339885,-0.01594240218412532,-102.16330822525289,-33.577927,-5.770842,-17.236744,69.01398,-10.433889,-8.812965,-9.846986,-9.442212,-8.924689,45.014515,-35.249577,-0.86031467,8.164033,2.1049473,14.5489235,-5.5071235,15.891843,-35.961185,28.446678,4.44508,-23.615026,1.4990144,-12.11818,-25.412947,48.427574,56.544643,52.07754,-13.70285,7.123583
232,190.37416076660156,34.317256927490234,74.96241760253906,7.551986929629676,0.1309999425779752,-102.29960548330139,-33.913227,-3.9971337,-17.800507,70.705,-10.917662,-8.1116295,-10.962662,-10.112561,-8.589459,46.10366,-36.233635,-0.047382787,7.682179,2.39853,14.41658,-5.8139715,16.120628,-35.803703,28.457588,4.5700006,-23.535799,1.2593344,-12.023398,-25.477308,47.9924,56.802624,51.893036,-13.74243,6.980051
233,191.48233032226562,34.573089599609375,74.63448333740234,7.235019361844099,0.18618122779204058,-102.46807505237426,-34.06799,-2.1266987,-18.335394,72.16189,-11.279098,-7.3161874,-12.144872,-10.764521,-8.1942215,47.481056,-36.790287,0.78686905,7.214019,2.6933234,14.395059,-6.1134086,16.329708,-35.591885,28.45164,4.8737345,-23.44813,1.0469815,-11.883095,-25.514688,47.408585,56.974167,51.75909,-13.76118,6.862184
234,192.59152221679688,34.82514190673828,74.34842681884766,6.8906117367722635,0.18898974058779205,-102.66222926907062,-34.09918,-0.13615464,-18.837204,73.41303,-11.53423,-6.433035,-13.406694,-11.372868,-7.732042,49.071182,-36.95561,1.6455505,6.753493,2.9999173,14.434373,-6.3857455,16.521685,-35.320465,28.440002,5.338531,-23.35137,0.8428615,-11.705658,-25.524647,46.711147,57.0913,51.631897,-13.762322,6.764244
235,193.69317626953125,35.06706237792969,74.09333801269531,6.565078455237024,0.16566098633020027,-102.86918667747395,-34.024292,1.951997,-19.18924,74.400215,-11.748201,-5.5068507,-14.632796,-11.976857,-7.205674,50.586796,-36.870285,2.5306783,6.292654,3.2615964,14.486971,-6.6076865,16.702145,-35.04275,28.403439,5.7735353,-23.25544,0.6370638,-11.483111,-25.508532,45.991238,57.17272,51.557312,-13.7630625,6.6694207
236,194.80320739746094,35.2867317199707,73.87965393066406,6.305866226211301,0.14302605579888522,-103.0760946242583,-33.857113,4.111277,-19.275608,75.07278,-11.990363,-4.5852695,-15.70363,-12.618709,-6.62896,51.73264,-36.67609,3.4587917,5.824284,3.4220204,14.503583,-6.7548904,16.878862,-34.811234,28.32047,5.9875956,-23.168865,0.42042762,-11.20978,-25.46904,45.340565,57.237785,51.58049,-13.780582,6.560308
237,195.9193115234375,35.48810577392578,73.71197509765625,6.14933642524429,0.13119357869157022,-103.29476793390927,-33.58204,6.3290043,-19.050497,75.41887,-12.323089,-3.6581292,-16.61938,-13.329534,-5.956947,52.47097,-36.402164,4.4609165,5.340142,3.4318073,14.478245,-6.8017497,17.056692,-34.602196,28.181435,5.868595,-23.087135,0.18417248,-10.894443,-25.40403,44.778824,57.281742,51.741764,-13.815774,6.428685
238,197.03506469726562,35.66596984863281,73.59347534179688,6.064059021124765,0.11499855814053922,-103.52756340750437,-33.183178,8.615668,-18.569145,75.4806,-12.706633,-2.7172432,-17.428053,-14.079088,-5.195907,52.940796,-35.981796,5.5276194,4.842407,3.3293989,14.432761,-6.757503,17.237808,-34.39284,27.986553,5.540972,-23.005735,-0.06482341,-10.544665,-25.310734,44.265266,57.30047,52.0084,-13.861508,6.284931
239,198.14376831054688,35.822017669677734,73.53384399414062,5.994619373135032,0.08337443870650516,-103.74735525702448,-32.66847,10.9795475,-17.866238,75.28724,-13.057258,-1.8098943,-18.077406,-14.82568,-4.445591,53.10834,-35.416092,6.618856,4.342215,3.192517,14.361865,-6.6662946,17.427715,-34.245705,27.738716,5.156846,-22.931923,-0.31131443,-10.146356,-25.193222,43.794613,57.30669,52.31634,-13.92294,6.1402493
240,199.23873901367188,35.953765869140625,73.53062438964844,5.887692852215834,0.02472564869724876,-103.92709542562369,-32.04865,13.431483,-16.975985,74.86801,-13.288907,-0.9815355,-18.519573,-15.53098,-3.807649,52.946907,-34.698055,7.6912775,3.8287323,3.095576,14.246857,-6.53868,17.631424,-34.201054,27.432186,4.8752456,-22.874586,-0.54321945,-9.51799,-25.057934,43.196243,57.192955,52.403625,-14.0023775,6.0046396
