unveil-humanoid-operators/unveil-humanoid-operators.github.io/feature-analysis-animation/data/feature_matrix_instances/age_waist_rom_jogging_A449_jog_ff_start_180_R_003__A449.csv
Frame,root_translateX,root_translateY,root_translateZ,root_rotateX,root_rotateY,root_rotateZ,left_hip_pitch_joint_dof,left_hip_roll_joint_dof,left_hip_yaw_joint_dof,left_knee_joint_dof,left_ankle_pitch_joint_dof,left_ankle_roll_joint_dof,right_hip_pitch_joint_dof,right_hip_roll_joint_dof,right_hip_yaw_joint_dof,right_knee_joint_dof,right_ankle_pitch_joint_dof,right_ankle_roll_joint_dof,waist_yaw_joint_dof,waist_roll_joint_dof,waist_pitch_joint_dof,left_shoulder_pitch_joint_dof,left_shoulder_roll_joint_dof,left_shoulder_yaw_joint_dof,left_elbow_joint_dof,left_wrist_roll_joint_dof,left_wrist_pitch_joint_dof,left_wrist_yaw_joint_dof,right_shoulder_pitch_joint_dof,right_shoulder_roll_joint_dof,right_shoulder_yaw_joint_dof,right_elbow_joint_dof,right_wrist_roll_joint_dof,right_wrist_pitch_joint_dof,right_wrist_yaw_joint_dof
0,0.13838106393814087,1.348921298980713,78.76903533935547,-1.2584934791196538,3.8118895140577798,-90.06645489278422,-3.3919451,5.680238,-1.06903,7.3165565,-8.968498,-6.161415,-2.623188,-2.8249192,-10.548871,6.8598495,-8.030352,3.063281,-0.070650354,2.1828392,3.1985242,-3.9553661,11.846517,-45.777554,65.50376,-8.168234,3.2945054,15.008103,-0.49225426,-10.957135,29.350267,58.796158,16.189531,6.0910788,-13.635133
1,0.14346684515476227,1.3494064807891846,78.7706527709961,-1.2600242111464823,3.784915324687702,-90.06335264068626,-3.3636315,5.6809196,-1.0737928,7.345111,-9.010438,-6.1341734,-2.5838497,-2.8205905,-10.548746,6.860521,-8.062387,3.0932791,-0.079914816,2.1920373,3.2452438,-3.9723363,11.839464,-45.78494,65.51942,-8.169777,3.2909791,14.98809,-0.49914733,-10.957899,29.35438,58.811684,16.18504,6.0969324,-13.6269865
2,0.13817396759986877,1.340852975845337,78.77184295654297,-1.2602974406997323,3.7599588169123987,-90.06175777469772,-3.338752,5.68097,-1.0772659,7.3764076,-9.052542,-6.10515,-2.5478904,-2.817711,-10.546866,6.8609414,-8.089498,3.123587,-0.0873363,2.201125,3.287878,-3.9908333,11.830094,-45.796505,65.53876,-8.173365,3.287168,14.968891,-0.50873554,-10.957451,29.36064,58.83237,16.18267,6.1026416,-13.619007
3,0.13402941823005676,1.3310552835464478,78.77053833007812,-1.2612750376698993,3.730748109980607,-90.05718621016092,-3.308628,5.6811547,-1.0832515,7.406444,-9.097048,-6.078303,-2.505156,-2.8145812,-10.548008,6.8618546,-8.125734,3.153904,-0.09608079,2.2108214,3.3341546,-4.012133,11.813819,-45.80879,65.56257,-8.17902,3.2864773,14.952077,-0.5163795,-10.954619,29.362728,58.85354,16.177721,6.1073313,-13.612657
4,0.13335154950618744,1.325577974319458,78.76988220214844,-1.2635109614054962,3.690729170357551,-90.04521918865811,-3.26269,5.6808133,-1.0949228,7.428205,-9.144664,-6.0567837,-2.4455955,-2.8116057,-10.556748,6.8636565,-8.184713,3.1841843,-0.10980342,2.2191312,3.3946154,-4.034884,11.79655,-45.816425,65.58194,-8.187106,3.293353,14.938873,-0.5196263,-10.949731,29.354048,58.869957,16.166405,6.10959,-13.608629
5,0.13583432137966156,1.3180980682373047,78.76901245117188,-1.2677028701799724,3.640101658818972,-90.02418331216118,-3.2042646,5.682312,-1.1136003,7.4475713,-9.1992235,-6.0478306,-2.3687265,-2.8067029,-10.569989,6.866407,-8.265264,3.2031026,-0.13386671,2.2266254,3.4723365,-4.0523767,11.788266,-45.818657,65.58067,-8.205419,3.3196332,14.928108,-0.5156471,-10.9461,29.341074,58.875366,16.149448,6.1100254,-13.608855
6,0.13515107333660126,1.3125513792037964,78.77091217041016,-1.273977410924552,3.5813608095421454,-89.99677449935794,-3.1364777,5.6865835,-1.137479,7.4652877,-9.259074,-6.047251,-2.2796283,-2.799983,-10.58672,6.870357,-8.361628,3.214422,-0.15743311,2.232968,3.5611303,-4.080243,11.774996,-45.824512,65.58576,-8.231658,3.357804,14.919117,-0.5075754,-10.938443,29.312353,58.879566,16.122215,6.1084967,-13.610675
7,0.13608533143997192,1.308555006980896,78.7674331665039,-1.2824325000880281,3.513097166896393,-89.96455603499382,-3.059051,5.6917167,-1.166901,7.484864,-9.325794,-6.041168,-2.1753569,-2.7947896,-10.615043,6.87505,-8.4813385,3.240451,-0.19238093,2.242219,3.658968,-4.091403,11.770223,-45.822136,65.569145,-8.25647,3.3900986,14.916279,-0.49336758,-10.93501,29.293228,58.87234,16.104,6.1050253,-13.615601
8,0.13324657082557678,1.300047755241394,78.75971984863281,-1.2923113526643424,3.432444085498969,-89.9294244051635,-2.981912,5.694578,-1.2028441,7.53551,-9.415526,-6.0156937,-2.0512564,-2.794493,-10.662623,6.8785315,-8.63072,3.3031082,-0.20749283,2.2504025,3.7729187,-4.1245294,11.748201,-45.824425,65.57599,-8.260327,3.3953035,14.919021,-0.47911182,-10.918863,29.221106,58.86428,16.067354,6.0990176,-13.613189
9,0.13758650422096252,1.2971097230911255,78.74738311767578,-1.3192720886820677,3.3398700259770693,-89.88283336290509,-3.1718376,5.7034883,-1.2853969,8.17021,-9.817378,-5.968708,-1.9057168,-2.7857378,-10.74575,6.880824,-8.8192625,3.4154263,-0.23489168,2.277796,3.8956268,-4.146912,11.726502,-45.821384,65.57722,-8.250562,3.3593662,14.934638,-0.46084526,-10.903172,29.151014,58.845135,16.047558,6.0892777,-13.614355
10,0.14461076259613037,1.2910428047180176,78.72698211669922,-1.3677068217652097,3.2363648610837963,-89.82668157136581,-3.5654795,5.7254696,-1.4065564,9.254985,-10.460824,-5.906747,-1.740989,-2.762014,-10.8583765,6.8823204,-9.0405,3.5629942,-0.2719347,2.3275332,4.032093,-4.160428,11.710545,-45.808212,65.564735,-8.227017,3.2967405,14.958716,-0.43885493,-10.892106,29.075287,58.811703,16.034851,6.0772147,-13.616484
11,0.15494370460510254,1.280017614364624,78.70765686035156,-1.4209615800338227,3.122564398683008,-89.77784161792243,-3.9248083,5.7536187,-1.52049,10.301851,-11.096441,-5.83055,-1.5620544,-2.7359111,-10.9754505,6.884831,-9.279151,3.7254694,-0.30581257,2.3839712,4.1785936,-4.1617317,11.697986,-45.78631,65.534424,-8.195289,3.230168,14.985241,-0.4145243,-10.884237,28.997055,58.76997,16.023546,6.0644345,-13.613449
12,0.1603240817785263,1.2683004140853882,78.68313598632812,-1.4783879035377874,2.9992346280539715,-89.75277282508553,-4.2173586,5.7932515,-1.6057302,11.256771,-11.699793,-5.742466,-1.372741,-2.7027671,-11.075592,6.887799,-9.518784,3.8809786,-0.3281618,2.4465542,4.3284154,-4.1425176,11.690148,-45.7527,65.47958,-8.158816,3.1824927,15.008051,-0.39102426,-10.880594,28.929125,58.729774,16.010496,6.0516996,-13.599956
13,0.16777785122394562,1.2476564645767212,78.65667724609375,-1.5468435668405893,2.860356178074316,-89.75453186778317,-4.4418416,5.851684,-1.6648582,12.129102,-12.267424,-5.6436486,-1.1674073,-2.6570847,-11.16303,6.8904843,-9.751094,4.0317836,-0.32878768,2.5285342,4.4996,-4.122799,11.673466,-45.702538,65.40566,-8.105766,3.1622536,15.020454,-0.3757347,-10.87829,28.82957,58.69167,15.97254,6.0411115,-13.555749
14,0.17860224843025208,1.2236741781234741,78.63497924804688,-1.625679452158532,2.708066984755423,-89.77474374549516,-4.627211,5.9252467,-1.7084503,12.96914,-12.826533,-5.5332384,-0.94631404,-2.6013823,-11.245909,6.8932834,-9.9860735,4.186454,-0.32814124,2.6271336,4.679169,-4.0838456,11.658261,-45.642998,65.306656,-8.052146,3.156126,15.031873,-0.36422053,-10.88189,28.74488,58.655518,15.940872,6.0295453,-13.497724
15,0.19100207090377808,1.1977468729019165,78.60990905761719,-1.7019074634126614,2.5536708167846625,-89.81189861546822,-4.763533,6.002274,-1.725329,13.737568,-13.374947,-5.4112883,-0.7205663,-2.5459146,-11.309075,6.8969135,-10.234497,4.3333855,-0.31609645,2.719761,4.8503385,-4.0216265,11.648812,-45.574535,65.19108,-7.9942756,3.1562812,15.045615,-0.34578064,-10.887059,28.677477,58.615532,15.912614,6.0183096,-13.448579
16,0.2023850977420807,1.1599581241607666,78.5816421508789,-1.7555309369753938,2.4078466020643168,-89.86471812774438,-4.848059,6.064221,-1.7032251,14.413217,-13.920759,-5.27753,-0.50217855,-2.5077155,-11.336182,6.9058633,-10.509867,4.4610224,-0.2894174,2.7856798,5.006282,-3.9379141,11.632754,-45.465355,65.07545,-7.9053316,3.1525044,15.061413,-0.31625438,-10.900986,28.619677,58.56088,15.872438,6.011226,-13.424734
17,0.20389117300510406,1.1146767139434814,78.54788970947266,-1.7819313957335374,2.267212399801021,-89.94075525041936,-4.883306,6.112023,-1.62618,15.022575,-14.49518,-5.124217,-0.31433475,-2.4929402,-11.311348,6.9782066,-10.856223,4.564193,-0.24333687,2.8157697,5.135603,-3.8244362,11.614968,-45.341274,64.9655,-7.7973332,3.143888,15.085382,-0.27028933,-10.9197,28.61206,58.498524,15.833783,6.005698,-13.453019
18,0.21012523770332336,1.059901475906372,78.51695251464844,-1.7938640232665866,2.1282643687029648,-90.038574693283,-4.8585396,6.1550226,-1.5040681,15.543375,-15.071476,-4.953412,-0.12693004,-2.4862394,-11.247768,7.055254,-11.233374,4.6499934,-0.18775128,2.8277385,5.249441,-3.6825163,11.592999,-45.184322,64.852974,-7.662182,3.1347604,15.113302,-0.21646698,-10.946291,28.644478,58.430187,15.793515,6.002098,-13.514636
19,0.2195533812046051,0.9845223426818848,78.4897689819336,-1.7944495330993855,2.000576539731074,-90.14076084845073,-4.800204,6.1872673,-1.371069,15.987075,-15.629915,-4.7856946,0.05283099,-2.4900331,-11.17346,7.132549,-11.616372,4.7241664,-0.12462179,2.8227344,5.3423715,-3.515396,11.574165,-45.010586,64.727036,-7.5321198,3.1264856,15.146585,-0.1516336,-10.970919,28.676945,58.355877,15.761105,6.000145,-13.579883
20,0.22264274954795837,0.9038658738136292,78.46052551269531,-1.7865368878247048,1.893796226048262,-90.22995071872255,-4.740899,6.2023034,-1.2615712,16.377733,-16.153261,-4.641075,0.219138,-2.5063553,-11.115898,7.204293,-11.98322,4.7924805,-0.075013995,2.8049395,5.4110384,-3.3165755,11.558287,-44.798637,64.57534,-7.418577,3.1196318,15.185281,-0.07993625,-10.994201,28.690416,58.276695,15.749544,6.000229,-13.619315
21,0.22645068168640137,0.8108253479003906,78.43612670898438,-1.7656204221491523,1.8129241173788657,-90.30865898358006,-4.677573,6.193554,-1.1762872,16.69832,-16.63569,-4.5291514,0.36596385,-2.538997,-11.0737505,7.269364,-12.326266,4.851487,-0.05590469,2.7715397,5.4505143,-3.0712714,11.542341,-44.511826,64.384056,-7.3110485,3.1139438,15.226294,-0.007259646,-11.023437,28.705269,58.194786,15.772609,6.000617,-13.623395
22,0.225408673286438,0.7189739346504211,78.40908813476562,-1.7309561136002745,1.7521899065691464,-90.38388298486865,-4.5980334,6.16463,-1.0988675,16.9464,-17.08751,-4.4380484,0.35313892,-2.615951,-11.027798,7.642172,-12.822403,4.900795,-0.036697406,2.7159455,5.461729,-2.7906969,11.532592,-44.191833,64.16273,-7.2133446,3.110204,15.271951,0.07562777,-11.048564,28.704475,58.11068,15.813906,6.000545,-13.608114
23,0.2365189790725708,0.6268088817596436,78.38107299804688,-1.6918543970953936,1.704909041201877,-90.44462406334915,-4.5188723,6.1245217,-1.0380768,17.162981,-17.513659,-4.3544903,0.29438347,-2.709572,-10.994601,8.099002,-13.358515,4.94863,-0.026143638,2.6527424,5.459979,-2.4911299,11.530284,-43.85744,63.925255,-7.1380854,3.108178,15.324839,0.16515873,-11.068359,28.682617,58.016956,15.863289,6.006163,-13.583032
24,0.2348673939704895,0.532375156879425,78.35397338867188,-1.6580978658960053,1.6642719300909323,-90.47982274528026,-4.4557424,6.082923,-1.002823,17.387259,-17.91853,-4.265469,0.2537886,-2.8021083,-10.98873,8.522997,-13.876872,5.003573,-0.030808236,2.5970654,5.460357,-2.191481,11.536202,-43.532146,63.690357,-7.100103,3.1057308,15.388076,0.26162565,-11.085813,28.630457,57.902863,15.907877,6.0237617,-13.557694
25,0.24315205216407776,0.4248828589916229,78.33068084716797,-1.6309288010509773,1.6313875662226505,-90.48441513996285,-4.416416,6.039218,-0.99954265,17.62842,-18.295168,-4.161776,0.22154652,-2.8954976,-11.017115,8.936413,-14.385937,5.0647435,-0.032502353,2.5492733,5.4569945,-1.9028308,11.543361,-43.24493,63.452618,-7.122053,3.1324754,15.470581,0.38452733,-11.095048,28.509985,57.761402,15.9294615,6.0528827,-13.534536
26,0.253599613904953,0.31497642397880554,78.30733489990234,-1.6055264111204335,1.6086079335107144,-90.46496428437825,-4.390636,5.989109,-1.0219291,17.864643,-18.643312,-4.052111,0.19739099,-2.9914432,-11.072355,9.330459,-14.880166,5.1284857,-0.07079477,2.5067139,5.4565363,-1.5955734,11.561938,-42.918255,63.182957,-7.168516,3.178706,15.5610075,0.50812227,-11.10811,28.370035,57.59884,15.942,6.0931697,-13.506178
27,0.2688048779964447,0.19791963696479797,78.2845230102539,-1.5827566519888292,1.591982645860866,-90.42799462447029,-4.3695464,5.936813,-1.0600106,18.093882,-18.980024,-3.9500186,0.19753478,-3.0836837,-11.145042,9.674311,-15.351942,5.1991005,-0.1061816,2.4674115,5.454016,-1.2906971,11.588161,-42.619675,62.93894,-7.24052,3.1899056,15.657042,0.638366,-11.121363,28.213045,57.4181,15.9726715,6.1438966,-13.473574
28,0.2822071611881256,0.08329923450946808,78.25669860839844,-1.5634543053792385,1.5773662274937745,-90.38000659490972,-4.345705,5.8866625,-1.1039999,18.317566,-19.322596,-3.8691516,0.23740037,-3.1668668,-11.225519,9.9394865,-15.794629,5.281245,-0.1424075,2.4326816,5.4606876,-0.9822868,11.634956,-42.34209,62.739143,-7.3075676,3.1131306,15.746208,0.75369483,-11.14281,28.078283,57.223713,16.051579,6.2070675,-13.433723
29,0.29350394010543823,-0.046023786067962646,78.23359680175781,-1.5470959897806345,1.5593320567190703,-90.32009606038915,-4.3022294,5.838877,-1.1513275,18.516731,-19.679562,-3.8189707,0.3374798,-3.2398036,-11.31624,10.09845,-16.20617,5.3833,-0.17515409,2.4025922,5.473841,-0.6792499,11.695441,-42.107197,62.624832,-7.373644,2.8789861,15.832528,0.86723584,-11.168164,27.949371,57.015285,16.222565,6.2916956,-13.385029
30,0.30470535159111023,-0.17491057515144348,78.20868682861328,-1.533003115119742,1.5417561117492495,-90.24576044281012,-4.251455,5.791678,-1.2072859,18.704567,-20.04056,-3.790285,0.48287946,-3.3060005,-11.420954,10.174536,-16.590424,5.501177,-0.20920223,2.3764956,5.4906077,-0.37882176,11.765554,-41.90061,62.572826,-7.4454017,2.5340788,15.918846,0.9788161,-11.196535,27.819344,56.79429,16.458649,6.394226,-13.329261
31,0.3251796066761017,-0.3016062080860138,78.17904663085938,-1.5235916903779627,1.533865547875718,-90.16100846678906,-4.214891,5.7462416,-1.2722031,18.896513,-20.393044,-3.7691872,0.64100593,-3.3656476,-11.531928,10.207814,-16.946657,5.620218,-0.23732895,2.3559213,5.513181,-0.07769649,11.849546,-41.707283,62.53197,-7.517041,2.1979563,15.997023,1.069468,-11.234561,27.715153,56.559113,16.675545,6.4968286,-13.270019
32,0.35478052496910095,-0.4296669661998749,78.14910888671875,-1.5213557963100903,1.5451178207186989,-90.06985989342269,-4.213036,5.704237,-1.3465302,19.107067,-20.724024,-3.7415564,0.77866167,-3.4182699,-11.641059,10.238045,-17.2737,5.7251716,-0.25009397,2.343407,5.540728,0.21837467,11.93998,-41.515945,62.46821,-7.5852165,1.9891337,16.060455,1.1176168,-11.287595,27.663599,56.31544,16.790031,6.5811787,-13.211075
33,0.38576850295066833,-0.562597930431366,78.1212387084961,-1.52615228271569,1.5722279828803054,-89.96747719094452,-4.248263,5.6625466,-1.4358269,19.342909,-21.027859,-3.6981943,0.8909266,-3.46508,-11.746546,10.284817,-17.572699,5.8149796,-0.24660103,2.3404386,5.5799766,0.5036969,12.031449,-41.309044,62.37598,-7.6704473,1.961253,16.104103,1.1293465,-11.360501,27.676771,56.053837,16.780968,6.640076,-13.141819
34,0.40872418880462646,-0.7031151056289673,78.09691619873047,-1.5368423125948754,1.612115403758268,-89.85372202853816,-4.3132586,5.62086,-1.5381131,19.601349,-21.312237,-3.6480885,0.99316996,-3.5059953,-11.852282,10.326023,-17.84493,5.896497,-0.2324217,2.3477185,5.628669,0.7784792,12.122312,-41.09716,62.279404,-7.7687173,2.043129,16.133444,1.1130878,-11.455234,27.741728,55.77262,16.694126,6.684454,-13.063724
35,0.4460897445678711,-0.8414193987846375,78.07188415527344,-1.5544371215622175,1.6743493352087908,-89.73951944709752,-4.402173,5.584519,-1.6412634,19.856728,-21.582766,-3.6045732,1.0884391,-3.5365458,-11.958752,10.3285475,-18.085234,5.9659853,-0.207665,2.3681252,5.6752415,1.0540057,12.214815,-40.902603,62.176636,-7.829898,2.1667938,16.156355,1.0589755,-11.571116,27.843899,55.476772,16.545254,6.723536,-12.997499
36,0.48786014318466187,-0.9741175174713135,78.04803466796875,-1.5791889864585749,1.7683364145786387,-89.63589645837085,-4.510511,5.5586166,-1.7331488,20.086107,-21.844435,-3.5809648,1.1756784,-3.5542653,-12.06601,10.268533,-18.29375,6.020018,-0.1725508,2.4022584,5.7078843,1.3412249,12.314829,-40.751293,62.065113,-7.808703,2.2643714,16.181017,0.95279557,-11.707496,27.970024,55.176907,16.350412,6.766195,-12.964259
37,0.525855541229248,-1.1103073358535767,78.0233383178711,-1.6135307474059584,1.898096838406045,-89.55002463491776,-4.6356244,5.5453506,-1.8155545,20.274353,-22.093262,-3.5884728,1.2397844,-3.5550609,-12.165254,10.161975,-18.478737,6.036617,-0.12047032,2.4535968,5.723587,1.6469034,12.425952,-40.63082,61.942375,-7.676352,2.3268793,16.202337,0.78650653,-11.864863,28.143745,54.88987,16.06985,6.803124,-12.97048
38,0.5648655891418457,-1.2439078092575073,77.99785614013672,-1.6558744580116236,2.05794108603693,-89.47480892019175,-4.780502,5.54135,-1.8928562,20.43735,-22.328476,-3.617452,1.2858171,-3.5418859,-12.258994,10.015091,-18.638186,6.0248303,-0.054533627,2.5193932,5.729294,1.9663441,12.549505,-40.534554,61.80536,-7.4655466,2.387816,16.218035,0.5675462,-12.043218,28.364853,54.605976,15.71017,6.833636,-13.004274
39,0.6173485517501831,-1.3852286338806152,77.9779281616211,-1.7009339009352948,2.2432163130674243,-89.39967844252644,-4.948099,5.543029,-1.9569304,20.595308,-22.559433,-3.6495693,1.3468382,-3.5210304,-12.364892,9.780889,-18.751509,6.0277877,0.013173678,2.5911725,5.728168,2.2978227,12.68886,-40.49118,61.645447,-7.211976,2.4436507,16.238981,0.31076697,-12.238637,28.57883,54.288998,15.353793,6.8803363,-13.059257
40,0.6702374815940857,-1.5468478202819824,77.96385192871094,-1.7431038257958384,2.4493074564562827,-89.31426649164749,-5.141348,5.546574,-1.999519,20.769001,-22.79576,-3.6664338,1.4559239,-3.4995148,-12.500942,9.41044,-18.796034,6.0888057,0.07357308,2.6595588,5.7230196,2.6370254,12.848921,-40.53553,61.45498,-6.9559026,2.4909813,16.276445,0.033889316,-12.444026,28.7261,53.901497,15.081644,6.9653683,-13.128429
41,0.7204748392105103,-1.7059693336486816,77.94652557373047,-1.7812163911108336,2.683387609285013,-89.2079622724366,-5.360476,5.538704,-2.0699368,20.9321,-23.031296,-3.6911714,1.640567,-3.4730618,-12.684455,8.840102,-18.74628,6.2256236,0.12370203,2.7200794,5.701627,2.9861891,13.03578,-40.686718,61.229263,-6.7143373,2.5241697,16.341217,-0.26497352,-12.655338,28.80685,53.45273,14.941438,7.109107,-13.224614
42,0.7661839127540588,-1.8689535856246948,77.93020629882812,-1.8160040687016308,2.9453026783707306,-89.089523298529,-5.6031213,5.5229163,-2.154004,21.08205,-23.26266,-3.723778,1.8849716,-3.4398463,-12.901956,8.093478,-18.610413,6.4134192,0.17110758,2.7733564,5.666535,3.3483186,13.252403,-40.924133,60.968704,-6.4645205,2.547238,16.424662,-0.59307295,-12.871729,28.843529,52.958805,14.879011,7.2942815,-13.346716
43,0.8327330350875854,-2.0392942428588867,77.90887451171875,-1.8435040177780224,3.219596818191543,-88.9772123144679,-5.870769,5.521425,-2.149224,21.280327,-23.506395,-3.7112758,1.9466788,-3.4603186,-13.111363,7.7123528,-18.658531,6.6321793,0.22204016,2.817083,5.641392,3.720383,13.497762,-41.22421,60.676952,-6.188205,2.5715265,16.508923,-0.9479451,-13.092811,28.814125,52.40119,14.825194,7.486522,-13.467712
44,0.9103652834892273,-2.204460620880127,77.8908462524414,-1.8631695891906406,3.490663362531505,-88.88873467955284,-6.1653357,5.559355,-1.9549952,21.589993,-23.779764,-3.6008132,1.8452355,-3.532951,-13.287758,7.670763,-18.862015,6.8604355,0.2838417,2.8516684,5.6494455,4.098817,13.76743,-41.56185,60.360073,-5.863434,2.6080809,16.57688,-1.3233973,-13.3193,28.691872,51.759808,14.705546,7.651682,-13.559831
45,0.9952205419540405,-2.346484899520874,77.87214660644531,-1.8722154966291835,3.771779157433748,-88.8254499883282,-6.5125732,5.6035433,-1.6695867,21.97917,-24.119534,-3.3122213,1.7203867,-3.626584,-13.445882,7.6275845,-19.048351,7.1011434,0.36353737,2.8790326,5.6849327,4.4705186,14.058811,-41.951305,60.024048,-5.466938,2.6644022,16.617334,-1.7245916,-13.552263,28.45098,51.031082,14.511665,7.783974,-13.604786
46,1.0874336957931519,-2.509023427963257,77.85476684570312,-1.8732629062684745,4.0652860362865155,-88.77876457537086,-6.9008718,5.6559176,-1.307228,22.428375,-24.505627,-2.8956847,1.5736581,-3.7387445,-13.595699,7.5854883,-19.22344,7.36224,0.45592427,2.8999448,5.7379804,4.8395567,14.371583,-42.399326,59.669506,-5.01617,2.732742,16.642048,-2.1515698,-13.793514,28.109943,50.226707,14.276818,7.900637,-13.620666
47,1.1791625022888184,-2.6581177711486816,77.83492279052734,-1.8739212977994821,4.339244741429926,-88.75088414266914,-7.2760687,5.7997475,-0.6411545,23.02291,-24.873175,-2.4921749,1.4403888,-3.8547835,-13.719057,7.54831,-19.36845,7.6288238,0.54883677,2.916509,5.8265376,5.228269,14.703569,-42.868484,59.293266,-4.5501294,2.8006556,16.66737,-2.5914483,-14.042175,27.715265,49.344383,13.999427,8.002756,-13.634078
48,1.2719520330429077,-2.818880319595337,77.81190490722656,-1.8826294775944814,4.561378979594647,-88.74406963835135,-7.580888,6.123071,0.55432403,23.852415,-25.160696,-2.2427084,1.356896,-3.957835,-13.798672,7.5185924,-19.464613,7.885663,0.627545,2.9313166,5.9680343,5.661185,15.051547,-43.317497,58.892605,-4.106888,2.8559299,16.710077,-3.0403957,-14.297019,27.319801,48.391052,13.681796,8.091015,-13.67241
49,1.3771755695343018,-2.970020055770874,77.78163146972656,-1.8990939854405038,4.708839151971981,-88.75023887113333,-7.730126,6.706706,2.5402017,24.853441,-25.380177,-2.2545068,1.3543943,-4.048944,-13.842665,7.492658,-19.510307,8.141495,0.68554586,2.9469059,6.1867237,6.146808,15.415348,-43.74753,58.471394,-3.6350296,2.8903027,16.81785,-3.4996767,-14.556637,26.919209,47.36711,13.3140135,8.168109,-13.741263
50,1.4876708984375,-3.1381454467773438,77.74922943115234,-1.9206367813276113,4.804015510555313,-88.77059607547268,-7.7550373,7.494645,5.1240783,26.028313,-25.564415,-2.4147735,1.4079299,-4.1329026,-13.856642,7.466941,-19.513132,8.399461,0.72818094,2.962063,6.4654245,6.674118,15.79534,-44.17084,58.030437,-3.1330707,2.9125295,16.967989,-3.9799817,-14.821151,26.499065,46.277294,12.902108,8.233007,-13.8271
51,1.5995793342590332,-3.321470260620117,77.71174621582031,-1.9533607818160867,4.8824160457296975,-88.8217886939889,-7.774904,8.381109,7.84898,27.557981,-25.677172,-2.5283742,1.4617039,-4.1994357,-13.818278,7.458462,-19.473545,8.636073,0.75764877,2.976672,6.7602887,7.236796,16.187635,-44.56223,57.561756,-2.7151532,2.934872,17.07223,-4.4753833,-15.089012,26.089231,45.119427,12.460727,8.282172,-13.928953
52,1.7089041471481323,-3.514899730682373,77.66670227050781,-2.0077910468822426,4.978079335244962,-88.92155855949396,-7.9162197,9.271704,10.258332,29.585737,-25.675777,-2.406208,1.4607109,-4.234833,-13.705082,7.486407,-19.393377,8.826902,0.77441514,2.9937098,7.027625,7.8296027,16.585394,-44.89183,57.059937,-2.492817,2.9678798,17.041916,-4.9868793,-15.3592,25.725874,43.899357,12.007824,8.311519,-14.046547
53,1.8422716856002808,-3.7120625972747803,77.6056137084961,-2.0968104011227564,5.105293777732196,-89.07810662597429,-8.293536,10.233491,12.346368,32.397213,-25.529675,-1.8226764,1.3890437,-4.227632,-13.488957,7.5579615,-19.32202,8.960118,0.7816136,3.0260386,7.2381773,8.483523,16.982138,-45.136257,56.513683,-2.5012352,3.0503013,16.84874,-5.5355854,-15.635738,25.447887,42.651447,11.56946,8.306559,-14.208012
54,1.9667688608169556,-3.9000942707061768,77.53152465820312,-2.223646142424893,5.24244608796125,-89.28410445678945,-8.769861,11.315573,14.323151,35.759113,-25.236677,-0.9333968,1.2766504,-4.1779394,-13.18754,7.6663346,-19.244734,9.04596,0.77657354,3.082026,7.4212966,9.191097,17.375225,-45.3092,55.934128,-2.6767774,3.1646242,16.542645,-6.115178,-15.919539,25.232796,41.36244,11.129156,8.274957,-14.405027
55,2.1139140129089355,-4.081151008605957,77.44304656982422,-2.378683256348363,5.370750051910149,-89.53341511733578,-9.1454525,12.367495,16.058851,39.059017,-24.80239,-0.14027275,1.1351801,-4.0976987,-12.845725,7.8113437,-19.066494,9.092841,0.75527,3.151381,7.6198993,9.884726,17.763624,-45.44366,55.35276,-2.9842572,3.237198,16.152231,-6.6860275,-16.201859,25.020376,39.969078,10.645631,8.244674,-14.582313
56,2.264213800430298,-4.248204231262207,77.3253173828125,-2.537464637010224,5.474380778682894,-89.81924932925129,-9.275863,13.2024,17.417892,41.750065,-24.260027,0.14776738,0.18826027,-4.1920924,-12.448933,9.692203,-19.59318,9.112512,0.7150093,3.206416,7.8732595,10.493393,18.147896,-45.579296,54.80505,-3.3919199,3.1942968,15.705242,-7.2060337,-16.46736,24.744484,38.409454,10.072412,8.242686,-14.685101
57,2.4082579612731934,-4.414376735687256,77.17788696289062,-2.6768527656719,5.567048999522543,-90.14752606057357,-9.212369,13.705967,18.27883,43.857178,-23.393658,-0.27132162,-1.2427915,-4.3881273,-11.950328,12.552412,-20.365171,9.157887,0.6575066,3.2165346,8.168847,11.033835,18.528957,-45.73972,54.294838,-4.081835,2.9794266,15.163897,-7.701849,-16.706676,24.388472,36.700726,9.339147,8.299841,-14.685898
58,2.5617868900299072,-4.578312873840332,76.99689483642578,-2.7797039262717327,5.657481798184693,-90.52234147085647,-9.046539,13.920662,18.7543,45.630188,-22.267172,-1.1670458,-2.9243696,-4.654258,-11.360215,15.87416,-21.16927,9.205786,0.590437,3.1624162,8.4847145,11.529351,18.907833,-45.90549,53.81141,-5.012265,2.6511118,14.524443,-8.187017,-16.917898,23.982811,34.87382,8.486365,8.391681,-14.617915
59,2.728793144226074,-4.739736557006836,76.76461029052734,-2.827831639032098,5.722511175284128,-90.93145847231388,-8.712809,13.900065,19.057144,46.896107,-21.351637,-2.290341,-4.772116,-5.0301495,-10.818197,19.563643,-22.033234,9.149662,0.5176871,3.0300655,8.846201,11.920057,19.285639,-46.05296,53.366894,-5.8141437,2.3010762,13.8670025,-8.604123,-17.095558,23.533033,32.888145,7.637565,8.461222,-14.520088
60,2.9076461791992188,-4.891491413116455,76.48433685302734,-2.814700918816498,5.736257927496329,-91.3610307563874,-8.135123,13.734579,19.407822,47.480545,-21.107208,-3.374423,-6.663,-5.5458417,-10.463238,23.461006,-22.95428,8.878903,0.44340688,2.8182452,9.282206,12.143224,19.662693,-46.16296,52.973145,-6.116008,2.0106153,13.278132,-8.89208,-17.2315,23.03996,30.698727,6.9170623,8.453098,-14.4333725
61,3.075326681137085,-5.05663537979126,76.16398620605469,-2.7256838691644707,5.686020726963763,-91.83398487661503,-7.184603,13.397937,19.851183,47.037098,-21.748478,-4.4682865,-8.581407,-6.249129,-10.3134985,27.605768,-23.935366,8.332038,0.37382331,2.5047853,9.8061,12.210384,20.03976,-46.249035,52.657215,-5.6390514,1.782894,12.710018,-9.050993,-17.315329,22.489006,28.28183,6.3612423,8.333609,-14.37549
62,3.245121717453003,-5.2150750160217285,75.80854034423828,-2.564052247607738,5.587367445052248,-92.34592034306603,-5.932519,12.870073,20.292315,45.740208,-22.980183,-5.6692915,-10.554111,-7.12637,-10.276859,31.996729,-24.954727,7.566103,0.30410287,2.091531,10.400687,12.145685,20.417192,-46.319004,52.40446,-4.6396937,1.567527,12.144419,-9.115238,-17.343992,21.883657,25.673025,5.9045596,8.13834,-14.326799
63,3.3934836387634277,-5.370555400848389,75.41401672363281,-2.3673862436620587,5.4543979183020745,-92.84215255313002,-4.6021686,12.281323,20.73786,44.211575,-24.500046,-6.7827682,-12.522949,-8.10705,-10.335531,36.43423,-25.976444,6.644823,0.22042598,1.6312641,11.050939,11.901677,20.793066,-46.348953,52.166134,-3.5506673,1.3679677,11.712345,-9.0654545,-17.325098,21.249437,22.903568,5.513468,7.917961,-14.272404
64,3.5374083518981934,-5.537064075469971,74.98308563232422,-2.1771821384982526,5.300373279753918,-93.26860446603732,-3.4293282,11.7590275,21.174616,43.104362,-26.031025,-7.6106353,-14.451947,-9.121673,-10.477862,40.770206,-26.990694,5.6302543,0.10850248,1.1806744,11.742579,11.431313,21.163046,-46.312725,51.893986,-2.8014414,1.1997383,11.542079,-8.876112,-17.275114,20.612919,19.994864,5.155677,7.723245,-14.194625
65,3.686535358428955,-5.718714714050293,74.52508544921875,-2.0236420051432247,5.139462824114512,-93.62861367279677,-2.4965084,11.342552,21.565006,42.605724,-27.651062,-8.069791,-16.380117,-10.200208,-10.772531,45.12124,-28.086452,4.432826,-0.04031612,0.7713327,12.438831,10.729615,21.527563,-46.252678,51.631603,-2.5400863,1.0502051,11.68425,-8.532639,-17.208855,19.98333,16.862057,4.832361,7.6337194,-14.057014
66,3.842515230178833,-5.900225639343262,74.03936767578125,-1.885716116368154,4.959962473885815,-93.9448889808865,-1.6778083,10.968494,21.909998,42.377106,-29.46814,-8.278349,-18.314198,-11.380012,-11.182347,49.550915,-29.277573,3.0304523,-0.21194264,0.37933603,13.162345,9.816901,21.88602,-46.170444,51.38489,-2.5238128,0.9215817,12.063677,-8.024589,-17.13156,19.340872,13.489659,4.561128,7.6012335,-13.876761
67,3.964312791824341,-6.079547882080078,73.55229187011719,-1.7282527584814644,4.734982458304397,-94.19340166054035,-0.90558314,10.607878,22.244135,42.312748,-31.272285,-8.3339815,-20.18753,-12.588348,-11.557874,53.85723,-30.43677,1.604803,-0.38751423,-0.021871451,13.987732,8.68253,22.230358,-45.974163,51.056854,-2.5954592,0.8533882,12.619079,-7.3345933,-17.04371,18.671965,10.006922,4.3293915,7.4842906,-13.71754
68,4.082136154174805,-6.252595901489258,73.08299255371094,-1.517904033481243,4.438039961587641,-94.35044654597941,-0.110775165,10.23372,22.604887,42.30346,-32.85043,-8.334142,-21.941856,-13.731315,-11.774868,57.835983,-31.419216,0.35912812,-0.55184305,-0.45620298,14.988004,7.3169928,22.548458,-45.565197,50.55676,-2.5961485,0.8869965,13.28978,-6.461068,-16.939453,17.969784,6.559319,4.127119,7.140657,-13.645294
69,4.184093475341797,-6.418996334075928,72.64424133300781,-1.2150974958115257,4.019515121152157,-94.40636486192197,0.76422584,9.808695,23.059273,42.343716,-34.1605,-8.235427,-23.546034,-14.828702,-11.82372,61.518658,-32.21341,-0.6436815,-0.6968174,-0.96006733,16.23549,5.620748,22.842276,-44.96596,49.9783,-2.5418346,1.0544173,14.115417,-5.4150853,-16.81045,17.208937,3.1158834,4.027159,6.469733,-13.650042
70,4.264123439788818,-6.596942901611328,72.25383758544922,-0.8521000514353898,3.506578775996824,-94.37716475343458,1.6706343,9.356863,23.558052,42.482754,-35.313644,-8.008468,-25.046938,-15.898524,-11.785296,65.00743,-32.880222,-1.4944321,-0.8267861,-1.5036733,17.670021,3.635661,23.118355,-44.201626,49.34669,-2.4991145,1.3247979,15.1123085,-4.2044277,-16.654732,16.406324,-0.36147276,4.0066414,5.5671206,-13.704815
71,4.341463088989258,-6.783458709716797,71.9072036743164,-0.5044558798631656,2.9879685664427287,-94.27683184636608,2.5194104,8.951291,23.978642,42.693768,-36.325542,-7.7729588,-26.512688,-16.833084,-11.693514,68.21244,-33.36387,-2.206746,-0.9560206,-2.0122085,19.16441,1.5570787,23.36805,-43.174034,48.480457,-2.3862147,1.6490906,16.182234,-2.8352118,-16.47297,15.626763,-3.7275217,3.9091938,4.5845222,-13.855491
72,4.412026405334473,-6.99456787109375,71.59239196777344,-0.2475916009532766,2.552951677836082,-94.11746142908851,3.2199605,8.669342,24.208366,42.956383,-37.2145,-7.6483517,-28.012335,-17.526176,-11.586886,71.04302,-33.60904,-2.7945359,-1.1140634,-2.4156718,20.589865,-0.4328876,23.57149,-41.783016,47.212963,-2.119097,1.9814267,17.223675,-1.3257059,-16.265844,14.945283,-6.82791,3.5797076,3.674577,-14.1546955
73,4.438130855560303,-7.197653293609619,71.29986572265625,-0.08934919079588688,2.1866870726508867,-93.89592933773228,3.742389,8.537851,24.203344,43.36579,-37.976646,-7.661234,-29.567509,-17.90943,-11.43691,73.51983,-33.535847,-3.2403295,-1.287604,-2.7024264,21.98037,-2.3627543,23.708338,-39.89947,45.51211,-1.6060611,2.3332155,18.246807,0.3690873,-16.021349,14.361839,-9.660764,2.9148133,2.7764413,-14.699767
74,4.449586868286133,-7.432570934295654,71.03852844238281,0.0030185040937508985,1.854243414025508,-93.6065772906883,4.138271,8.519084,24.038631,43.902756,-38.607544,-7.7485785,-31.142853,-18.045065,-11.263685,75.68552,-33.185295,-3.5261264,-1.4841794,-2.910919,23.370794,-4.3387227,23.777164,-37.60675,43.520775,-0.9189019,2.7289205,19.286266,2.2195623,-15.734853,13.856626,-12.269712,2.0076041,1.849968,-15.446343
75,4.433624744415283,-7.703179836273193,70.82243347167969,0.017625842660110913,1.6152902887447769,-93.25663546463832,4.4388614,8.593829,23.784122,44.37809,-39.12189,-7.8950195,-32.723965,-18.029718,-11.173544,77.48509,-32.69217,-3.6737561,-1.7574899,-3.048775,24.638515,-6.29895,23.781672,-35.132446,41.31509,-0.20964883,3.1411915,20.27792,4.1250954,-15.423162,13.461735,-14.598955,1.0061042,1.0767702,-16.227745
76,4.40390682220459,-8.01191520690918,70.65575408935547,-0.054976103752190725,1.5294393152476384,-92.85301607987222,4.6751037,8.743075,23.506708,44.604633,-39.531918,-8.082404,-34.29652,-17.965248,-11.263729,78.85917,-32.192753,-3.7101307,-2.1570435,-3.1218781,25.665691,-8.166709,23.724844,-32.70125,38.942497,0.3755477,3.5363507,21.163963,5.995458,-15.117829,13.208124,-16.602436,0.073408805,0.6294441,-16.865309
77,4.367079257965088,-8.361942291259766,70.54452514648438,-0.23851125374394708,1.619991884750026,-92.38484905958366,4.8097377,9.013035,23.205751,44.6217,-39.887806,-8.307397,-35.879993,-17.83322,-11.569245,79.76307,-31.779245,-3.581241,-2.6969,-3.1093943,26.432436,-9.923057,23.58407,-30.277208,36.29526,0.7576165,3.8966873,21.945957,7.8487964,-14.835973,13.127995,-18.290367,-0.7795258,0.6641148,-17.312328
78,4.324232578277588,-8.753607749938965,70.48171997070312,-0.5187645264977668,1.8539840870668467,-91.85273667392495,4.84524,9.39963,22.848864,44.5003,-40.16915,-8.576157,-37.476097,-17.602571,-12.035054,80.23663,-31.360888,-3.289578,-3.348961,-3.0126803,26.993322,-11.641447,23.3403,-27.777233,33.412285,1.0299976,4.239374,22.657764,9.728044,-14.578588,13.200697,-19.677206,-1.6106018,1.0468434,-17.653677
79,4.258030891418457,-9.190093994140625,70.47447204589844,-0.8472119757899784,2.206253394981504,-91.28240336852087,4.8700533,9.813632,22.453041,44.106728,-40.292683,-8.884316,-39.043507,-17.357607,-12.61641,80.346886,-30.798588,-2.9527364,-4.0922675,-2.861946,27.347298,-13.389675,23.020597,-25.384838,30.5415,1.2792119,4.578645,23.29187,11.590573,-14.357337,13.366223,-20.738297,-2.3551888,1.5117726,-17.906752
80,4.185931205749512,-9.671247482299805,70.52579498291016,-1.1754466518845774,2.6510836597798306,-90.69893645981028,4.970543,10.166218,22.035288,43.307728,-40.17362,-9.226745,-40.53963,-17.178886,-13.266883,80.16194,-29.953724,-2.6891446,-4.8964972,-2.6836228,27.504904,-15.20022,22.682123,-23.288973,27.869604,1.591736,4.9314933,23.835545,13.412002,-14.184941,13.546116,-21.479836,-2.9488504,1.7927134,-18.094263
81,4.0922956466674805,-10.219467163085938,70.63880157470703,-1.5047076526070051,3.207471152807031,-90.08964376687136,5.146442,10.452029,21.579868,42.040977,-39.849884,-9.617505,-41.96609,-17.098412,-14.030967,79.64822,-28.852808,-2.5121531,-5.781351,-2.481394,27.453827,-17.047443,22.36067,-21.542177,25.31895,1.91081,5.3134737,24.320768,15.178933,-14.069986,13.759024,-21.838516,-3.2851408,1.7688553,-18.1857
82,4.00150728225708,-10.824335098266602,70.81234741210938,-1.8518714135014709,3.8818101578119806,-89.44917105001709,5.3631234,10.720875,21.075409,40.387367,-39.351566,-10.047197,-43.33895,-17.072216,-14.909483,78.784515,-27.54975,-2.3653617,-6.7594395,-2.2474806,27.20891,-18.854448,22.048931,-20.017391,22.733604,2.2272732,5.713798,24.741684,16.897074,-14.004443,14.044524,-21.841179,-3.421849,1.5962195,-18.186577
83,3.8814890384674072,-11.478303909301758,71.06122589111328,-2.194772644073708,4.6276175507129,-88.81235771160227,5.652772,10.962368,20.547516,38.423805,-38.57697,-10.479873,-44.63458,-17.057814,-15.792832,77.654144,-25.94098,-2.2623136,-7.7738066,-1.971905,26.818043,-20.649912,21.77922,-18.699068,20.23308,2.6177855,6.10672,25.021175,18.591606,-13.978563,14.326165,-21.645042,-3.547221,1.4256278,-18.174536
84,3.7574973106384277,-12.20418643951416,71.36949920654297,-2.5111176883484414,5.3982001671495246,-88.2133066069562,6.0445657,11.157127,20.025434,36.222527,-37.41878,-10.886116,-45.832947,-17.010262,-16.57061,76.3425,-23.924786,-2.2166133,-8.778658,-1.673057,26.346045,-22.346119,21.565664,-17.509153,17.82681,3.2533567,6.471474,25.078514,20.282598,-13.971375,14.540043,-21.424807,-3.8476143,1.4065825,-18.223131
85,3.6320712566375732,-12.980878829956055,71.73311614990234,-2.794425261485469,6.200397029690886,-87.64658753157615,6.5743117,11.266584,19.505152,33.659153,-35.831078,-11.290645,-46.941444,-16.966072,-17.256086,74.835526,-21.331532,-2.2982466,-9.79936,-1.3676889,25.801334,-23.885065,21.401968,-16.44939,15.455741,4.180744,6.8002267,24.88037,21.95787,-13.969395,14.6869755,-21.162394,-4.4628463,1.6062679,-18.35446
86,3.5154476165771484,-13.795022964477539,72.14424133300781,-3.0599474985254784,7.0533235595997965,-87.09861435576798,7.217054,11.307178,18.969652,30.732796,-33.87223,-11.701203,-47.966393,-16.92545,-17.90026,73.10019,-18.262024,-2.480077,-10.803803,-0.992223,25.142496,-25.491175,21.374601,-15.662002,13.253742,5.125628,7.0899262,24.465303,23.657885,-13.974934,14.743801,-20.805313,-5.271156,1.9384208,-18.52327
87,3.365447759628296,-14.671857833862305,72.59498596191406,-3.310529383951278,7.926225120642536,-86.59066881908797,7.9085884,11.331681,18.438583,27.699747,-31.582476,-12.075856,-48.88992,-16.794605,-18.439316,71.19829,-15.019925,-2.629159,-11.816618,-0.6253114,24.426716,-26.855234,21.420605,-14.923295,10.981816,6.339843,7.348606,23.867136,25.300026,-13.976189,14.798352,-20.408405,-6.0589757,2.3176136,-18.698383
88,3.23342227935791,-15.579225540161133,73.07449340820312,-3.5510310310895283,8.787818057773121,-86.14540575222098,8.571917,11.39807,17.932764,24.842516,-29.017073,-12.372812,-49.695522,-16.47495,-18.79389,69.18562,-11.90477,-2.6022692,-12.767807,-0.24237053,23.667028,-28.064648,21.539642,-14.220711,8.752523,7.7999816,7.566702,23.116796,26.912548,-13.973256,14.818098,-20.063955,-6.6216383,2.6593912,-18.855247
89,3.0950334072113037,-16.538982391357422,73.56956481933594,-3.77929648983291,9.639724751093828,-85.78027302932125,9.226089,11.50324,17.469095,22.147734,-26.117813,-12.584202,-50.38801,-15.926132,-18.896078,67.02423,-8.857362,-2.3453753,-13.653657,0.1577887,22.854408,-29.103151,21.733261,-13.538808,6.5606937,9.611848,7.7180543,22.115301,28.503515,-13.971138,14.788837,-19.786459,-6.904701,2.970574,-19.014326
90,2.94818377494812,-17.542377471923828,74.0767822265625,-3.9888677559929806,10.49234829945358,-85.48264618606964,9.878965,11.607022,17.03514,19.526318,-22.896944,-12.732437,-50.971348,-15.200564,-18.768696,64.69558,-5.7656393,-1.9263965,-14.496197,0.57097274,21.987772,-29.978777,22.002947,-12.904643,4.387851,11.720854,7.784228,20.880945,30.074724,-13.973123,14.711929,-19.544416,-7.0186853,3.2856736,-19.182766
91,2.7898356914520264,-18.58989715576172,74.5914306640625,-4.168009878907252,11.32554137199579,-85.2307607094626,10.42623,11.716925,16.607677,17.183931,-19.520035,-12.820102,-51.430138,-14.345208,-18.453646,62.287975,-2.8491988,-1.3805145,-15.322847,0.94137335,21.11143,-30.579752,22.28413,-12.2742195,2.1217635,14.046708,7.795215,19.628403,31.57517,-13.9748335,14.646478,-19.330982,-7.0072722,3.5590994,-19.315638
92,2.61562180519104,-19.6503849029541,75.09701538085938,-4.3082597719248685,12.120724481939932,-85.0011789379487,10.767246,11.857079,16.161112,15.328669,-16.152426,-12.856004,-51.748306,-13.412654,-18.010624,59.89057,-0.3269834,-0.75403905,-16.000994,1.3550595,20.214994,-31.378122,22.700819,-11.789452,0.1475398,16.050016,7.7799063,18.540596,33.14081,-13.967988,14.471086,-19.229988,-6.9121428,3.7475345,-19.374403
93,2.4177401065826416,-20.739450454711914,75.60163879394531,-4.411008664393697,12.87804602629153,-84.79322931920197,10.851182,12.058623,15.697423,14.065139,-12.748862,-12.82092,-51.918056,-12.360033,-17.40033,57.471306,1.7349677,-0.036056876,-16.67088,1.6790206,19.34254,-31.866041,23.134512,-11.299669,-1.9485332,18.267809,7.7982144,17.651718,34.607418,-13.940756,14.345767,-19.161718,-6.7346253,3.8202338,-19.326029
94,2.210818290710449,-21.85712242126465,76.09224700927734,-4.469531035447249,13.603460518464061,-84.61627998064384,10.732166,12.303371,15.226325,13.29234,-9.259515,-12.739455,-51.93564,-11.202697,-16.601898,55.002296,3.4492123,0.77489746,-17.254032,1.9870411,18.45,-32.319344,23.6211,-10.883631,-3.9247606,20.554544,7.809591,16.849817,36.077892,-13.895316,14.163561,-19.172068,-6.4569855,3.8079383,-19.203026
95,2.0195326805114746,-23.00685691833496,76.57058715820312,-4.455580053986156,14.286474184148458,-84.45750607644527,10.487302,12.532442,14.730294,12.865827,-5.8060293,-12.686901,-51.804203,-10.082934,-15.717055,52.58805,4.8683844,1.6094452,-17.784754,2.2220962,17.553345,-32.64445,24.136372,-10.507526,-5.913075,22.572573,7.801107,16.20084,37.49402,-13.832614,13.964446,-19.212318,-6.1111436,3.7525797,-19.032969
96,1.829845666885376,-24.17839813232422,77.03134155273438,-4.347358624118815,14.9177540723838,-84.30489928717844,10.205894,12.682589,14.1922865,12.610949,-2.4978077,-12.726231,-51.53739,-9.126281,-14.857327,50.3337,6.0505133,2.4056816,-18.268559,2.363064,16.659092,-32.841217,24.657932,-10.160712,-7.9566183,23.92999,7.765355,15.765315,38.830902,-13.759628,13.757094,-19.252266,-5.726809,3.6965802,-18.846367
97,1.6294147968292236,-25.378284454345703,77.46373748779297,-4.131948698591435,15.495700821760572,-84.14486524580616,9.895878,12.724153,13.581449,12.466698,0.76683927,-12.908804,-51.138535,-8.31285,-13.978546,48.2343,6.9744887,3.1988246,-18.716175,2.4111667,15.758461,-32.89754,25.172573,-9.836118,-10.068085,24.517405,7.7459884,15.542757,40.11063,-13.677279,13.527968,-19.30802,-5.283501,3.6562688,-18.642576
98,1.4167587757110596,-26.597999572753906,77.86662292480469,-3.8378699306748776,16.031138151672042,-83.97933174039649,9.536404,12.697427,12.900979,12.4636135,4.0426702,-13.214286,-50.60604,-7.591349,-13.079965,46.24429,7.6271,3.9952416,-19.117168,2.405185,14.844754,-32.84619,25.683722,-9.543196,-12.19571,24.53466,7.748465,15.502899,41.354565,-13.586313,13.261336,-19.400438,-4.77385,3.6089447,-18.40836
99,1.2189688682556152,-27.82500457763672,78.21088409423828,-3.6008248544228674,16.56137089697554,-83.78794694596237,8.807541,12.828246,12.07799,13.245089,6.8065033,-13.586482,-49.96917,-6.9914117,-12.454746,44.396122,8.097814,4.694364,-19.493256,2.4781113,13.945143,-32.700336,26.176125,-9.288668,-14.332291,24.093216,7.7147803,15.6677685,42.52764,-13.501723,12.974747,-19.507639,-4.2471766,3.538961,-18.152544
100,1.018729567527771,-29.068078994750977,78.50666809082031,-3.385605227297958,17.071958554699208,-83.61804877568383,8.026105,12.993174,11.270595,14.263916,9.139556,-13.905136,-49.24421,-6.573647,-12.18106,42.73969,8.467083,5.219481,-19.797571,2.565428,13.0672455,-32.46375,26.631556,-9.07791,-16.47399,23.310572,7.5784597,16.05628,43.58971,-13.443886,12.691577,-19.600367,-3.7494736,3.4289103,-17.889553
101,0.8224030137062073,-30.324995040893555,78.74647521972656,-3.1610487840490276,17.565594784867525,-83.50333780185586,7.388333,13.1412325,10.672252,15.150061,11.122235,-14.133802,-48.4577,-6.3695545,-12.285809,41.296093,8.821268,5.626149,-19.993784,2.6361156,12.182187,-32.166557,27.047634,-8.9024515,-18.61123,22.03501,7.348203,16.686415,44.572098,-13.423794,12.397956,-19.7029,-3.237861,3.2599683,-17.5976
102,0.6142610311508179,-31.588958740234375,78.9331283569336,-2.9124853421379235,18.032543804709256,-83.43263345193436,6.86854,13.256714,10.230544,15.933088,12.872787,-14.294412,-47.59969,-6.325579,-12.675927,40.045433,9.0999975,5.948621,-20.100624,2.6762302,11.295193,-31.773006,27.421406,-8.755055,-20.76646,20.286343,7.0296516,17.537262,45.481934,-13.444588,12.091102,-19.823908,-2.7007983,3.0469277,-17.279716
103,0.4093433618545532,-32.845394134521484,79.05815124511719,-2.6455170302900664,18.43402038686704,-83.3898240235911,6.435248,13.299597,9.752208,16.718037,14.501509,-14.335503,-46.644844,-6.376205,-13.253253,39.00968,9.151649,6.081952,-20.138884,2.6708465,10.466585,-31.259312,27.751106,-8.642697,-22.92167,18.39475,6.549021,18.558065,46.25371,-13.510286,11.801306,-19.904682,-2.22733,2.820563,-16.992231
104,0.19815734028816223,-34.10060501098633,79.12359619140625,-2.3660929334302416,18.73196331079483,-83.35875643526126,6.060986,13.227071,9.044853,17.598276,16.121468,-14.210545,-45.564804,-6.461649,-13.918032,38.20701,8.821113,5.9181776,-20.128553,2.607385,9.75613,-30.61002,28.036703,-8.573496,-25.050646,16.68856,5.844846,19.697739,46.823013,-13.626374,11.556633,-19.890085,-1.9078286,2.6098886,-16.792454
105,-0.01593419536948204,-35.35716247558594,79.13895416259766,-2.0875548418200984,18.920224843142375,-83.34506387070007,5.7030797,13.086039,8.077362,18.68576,17.766636,-13.822574,-44.353275,-6.6017947,-14.748838,37.704956,8.139146,5.3376036,-20.069445,2.4887576,9.1728525,-29.837885,28.28227,-8.545466,-27.182459,15.074176,4.8832283,20.97094,47.184277,-13.79899,11.371921,-19.773863,-1.7953635,2.4212484,-16.71383
106,-0.23729225993156433,-36.621829986572266,79.09609985351562,-1.8796724724960965,19.03230567608536,-83.33475910879632,5.204803,13.014231,6.894424,20.240114,19.197962,-13.205597,-43.015667,-6.7644734,-15.83847,37.45559,7.161025,4.4306297,-19.97547,2.4050398,8.706617,-28.964962,28.48894,-8.55524,-29.305185,13.44795,3.6918669,22.379606,47.37542,-14.034126,11.22339,-19.595947,-1.8311911,2.238661,-16.719925
107,-0.4570527970790863,-37.886566162109375,79.00833892822266,-1.7323386586143552,19.06577751383753,-83.31437510111786,4.639129,12.934565,5.511736,22.098001,20.362892,-12.511601,-41.55569,-6.8666244,-16.979944,37.3416,5.756546,3.414434,-19.86362,2.3561053,8.367932,-27.94241,28.64496,-8.6060505,-31.368916,12.145558,2.3276658,23.870491,47.380035,-14.332581,11.097238,-19.346975,-1.9380748,2.0559304,-16.767542
108,-0.6701220273971558,-39.16602325439453,78.85970306396484,-1.599625062121298,19.011559738679264,-83.28166528496669,4.170952,12.708372,3.9646018,23.940504,21.297329,-11.9173765,-39.994156,-6.854574,-17.92426,37.26322,3.7996233,2.5061746,-19.735708,2.3022647,8.157022,-26.715117,28.732353,-8.70579,-33.330112,11.503131,0.8666317,25.408772,47.178677,-14.6896925,10.980263,-19.009138,-2.0398962,1.866169,-16.813663
109,-0.8819843530654907,-40.451995849609375,78.64896392822266,-1.448517520009705,18.83332637503959,-83.1995695975497,3.8201754,12.234463,2.0683148,25.848232,21.886127,-11.457722,-38.249832,-6.726348,-18.624794,37.189583,0.9970752,1.6773062,-19.616228,2.211563,8.086487,-25.268406,28.738634,-8.884357,-35.215538,11.687847,-0.7329594,27.084806,46.78893,-15.101737,10.863467,-18.567478,-2.1461322,1.6410614,-16.81177
110,-1.0959231853485107,-41.72119140625,78.38847351074219,-1.2762111214431084,18.541223836331795,-83.0902687257859,3.5415967,11.555228,-0.12998798,27.930344,22.15854,-11.069096,-36.356583,-6.5140243,-19.14635,37.18907,-2.4951162,0.8332015,-19.478794,2.0787947,8.140257,-23.644299,28.664694,-9.143868,-37.028885,12.519692,-2.44793,28.919535,46.219063,-15.564853,10.752437,-18.033873,-2.2885966,1.3923548,-16.797903
111,-1.3001593351364136,-42.97102737426758,78.09005737304688,-1.1279361205286145,18.208110472240318,-83.02378753758428,3.2421105,10.808221,-2.3160362,30.196682,22.2293,-10.8106785,-34.50177,-6.211094,-19.486427,37.284645,-6.1130953,0.07726773,-19.261564,1.95671,8.285864,-21.869438,28.510904,-9.461264,-38.69151,13.802832,-4.0973005,30.785433,45.44017,-16.07615,10.650121,-17.440876,-2.4261656,1.1746145,-16.85043
112,-1.49435293674469,-44.203704833984375,77.7570571899414,-1.0537258845855189,17.907941288660787,-83.07000975548898,2.8212197,10.135286,-4.168378,32.63978,22.222168,-10.730884,-32.86526,-5.828249,-19.665934,37.49649,-9.300637,-0.47387937,-18.904812,1.9048506,8.49174,-19.974972,28.278116,-9.810627,-40.11835,15.317503,-5.520541,32.53463,44.422348,-16.632301,10.564475,-16.819351,-2.5166106,1.042521,-17.047573
113,-1.684104084968567,-45.41855239868164,77.3973617553711,-1.0363196957487268,17.683153189640045,-83.23058133670126,2.2293355,9.4690275,-5.68439,35.28671,22.098356,-10.8820305,-31.531805,-5.4238834,-19.68868,37.86979,-11.979757,-0.7516669,-18.40301,1.9155887,8.702084,-17.95271,27.964176,-10.2404585,-41.322353,17.13234,-6.7830043,34.274788,43.141964,-17.227695,10.524478,-16.102457,-2.560807,1.0074497,-17.408268
114,-1.8683857917785645,-46.60379409790039,77.00357818603516,-1.0545787380505596,17.48690416983595,-83.47467520124677,1.4993596,8.732485,-7.0030937,38.195168,21.775528,-11.2437315,-30.392012,-5.0077443,-19.562687,38.39288,-14.435703,-0.8298446,-17.778633,1.9625059,8.944683,-15.809676,27.572187,-10.774188,-42.32507,19.317286,-7.9112086,36.04777,41.619354,-17.85739,10.522022,-15.295948,-2.5761094,1.0409559,-17.891405
115,-2.0386404991149902,-47.75224685668945,76.58451843261719,-1.1565616090438817,17.259841704066872,-83.82207404098224,0.65443647,8.079935,-8.012147,41.36285,21.338009,-11.730802,-29.327772,-4.5180874,-19.324574,38.990025,-16.657793,-0.7951821,-17.019266,2.0805721,9.314082,-13.588313,27.11028,-11.343215,-43.067177,21.621069,-8.73037,37.571396,39.888023,-18.52518,10.512915,-14.544653,-2.5462296,1.1378456,-18.483662
116,-2.199472188949585,-48.86371612548828,76.15787506103516,-1.3923992288047822,16.943177737379234,-84.28989830007885,-0.2771828,7.6987286,-8.608163,44.76017,20.889599,-12.237154,-28.222591,-3.8818884,-19.006283,39.584164,-18.63222,-0.7382041,-16.12276,2.3103566,9.904956,-11.311404,26.586283,-11.86245,-43.502544,23.77134,-9.102348,38.540337,37.97157,-19.245634,10.460963,-13.986667,-2.452154,1.2926407,-19.17158
117,-2.3383138179779053,-49.95207977294922,75.73802185058594,-1.8433008847987502,16.4819219003722,-84.94782171359039,-1.2286489,7.7495193,-8.672825,48.427708,20.525574,-12.815812,-27.070581,-2.9969316,-18.575583,40.23268,-20.29847,-0.67019016,-15.036497,2.7096536,10.807991,-8.932251,25.988588,-12.29622,-43.639717,25.809238,-9.083149,38.913437,35.796642,-20.04776,10.419279,-13.56713,-2.240208,1.5156873,-20.026411
118,-2.446207046508789,-51.01377868652344,75.32643127441406,-2.4604331967907913,15.916776225813036,-85.75951023020588,-2.240785,8.142381,-8.298698,52.364475,20.169632,-13.463076,-25.923986,-1.9323727,-18.029667,40.955833,-21.6851,-0.5485768,-13.8062,3.2706368,11.933311,-6.4408402,25.310432,-12.687894,-43.499695,27.817184,-8.764771,38.806747,33.356907,-20.938793,10.423808,-13.234106,-1.9192579,1.8019449,-21.036882
119,-2.527878761291504,-52.0587272644043,74.93675231933594,-3.102521335793935,15.333887426847653,-86.58324818076358,-3.4255688,8.715106,-7.707682,56.43258,19.703201,-13.973229,-24.745613,-0.8558759,-17.446245,41.596676,-22.900942,-0.38700312,-12.57152,3.922697,13.108918,-3.929294,24.572851,-13.066746,-43.03307,29.578596,-8.087825,38.14243,30.77543,-21.889988,10.410862,-13.121362,-1.5727155,2.1277132,-22.061289
120,-2.5949559211730957,-53.09581756591797,74.57090759277344,-3.633933165614906,14.824672876604197,-87.2824119579359,-4.897661,9.296262,-7.123044,60.49299,19.008207,-14.14795,-23.501925,0.0722074,-16.910715,41.995007,-24.05407,-0.20122918,-11.452406,4.567104,14.17521,-1.4964823,23.813747,-13.466531,-42.186024,30.890007,-6.9812264,36.853333,28.171137,-22.85146,10.30595,-13.3453,-1.2981,2.4717886,-22.950867
121,-2.6553733348846436,-54.13350296020508,74.23326110839844,-4.066463014148721,14.399911815376157,-87.83862110363607,-6.7072406,9.916956,-6.589824,64.62337,18.079712,-13.931251,-22.186571,0.8573872,-16.446377,42.13211,-25.158558,0.022723185,-10.445205,5.197828,15.137266,0.8376154,23.038952,-13.902184,-40.75419,31.773167,-5.2431893,34.775932,25.51121,-23.797657,10.106872,-13.905149,-1.1455564,2.881923,-23.719975
122,-2.703197956085205,-55.189842224121094,73.92848205566406,-4.464256592296365,14.017158792632294,-88.32217465173565,-8.774548,10.677901,-6.0198708,68.85536,16.970171,-13.411447,-20.814001,1.5852286,-16.018133,42.073837,-26.159199,0.279078,-9.474343,5.8413796,16.053352,3.1078844,22.244062,-14.370053,-38.800373,32.3926,-2.9700475,32.00992,22.72792,-24.722897,9.868737,-14.703436,-1.0688356,3.3549457,-24.42099
123,-2.740354299545288,-56.236637115478516,73.66796875,-4.771096312419033,13.69122466069883,-88.73443600098719,-11.022279,11.484131,-5.429149,72.96362,15.654142,-12.626247,-19.383322,2.2135856,-15.62424,41.784576,-27.057041,0.5216135,-8.546763,6.425295,16.859594,5.3084583,21.468874,-14.8636465,-36.685017,32.7472,-0.50494176,28.901428,19.864784,-25.602825,9.598082,-15.68519,-1.0284108,3.7939663,-24.961193
124,-2.7843968868255615,-57.2906608581543,73.45166015625,-4.927745574192166,13.437817653189152,-89.0762253140607,-13.375028,12.217613,-4.822277,76.71478,14.113558,-11.632255,-17.89342,2.6909144,-15.25918,41.233154,-27.852648,0.70747197,-7.6659255,6.8639426,17.502277,7.43985,20.784336,-15.374453,-34.786648,32.77334,1.834739,25.804117,16.966805,-26.403122,9.289067,-16.802628,-0.99570066,4.101668,-25.24506
125,-2.8434689044952393,-58.37220001220703,73.29407501220703,-4.8811749768289125,13.27854403359183,-89.29478408009294,-15.894259,12.770524,-4.2444935,80.12866,12.243212,-10.414016,-16.350388,2.9454503,-14.959825,40.429882,-28.629086,0.8152971,-6.8731627,7.0958414,17.9646,9.516693,20.243298,-15.893018,-33.167164,32.036945,4.3395376,22.459173,13.989617,-27.082975,8.926264,-18.078733,-1.0239813,4.2354746,-25.202108
126,-2.9191596508026123,-59.46194076538086,73.17794799804688,-4.67146067825303,13.200435901889328,-89.40829622494287,-18.584068,13.184524,-3.6816242,83.29831,10.087977,-8.991039,-14.753645,3.0137239,-14.717245,39.39446,-29.362179,0.8687442,-6.1422462,7.140883,18.284275,11.567482,19.862965,-16.410229,-31.678955,30.742222,7.173825,18.857664,10.876661,-27.633186,8.5349655,-19.471897,-1.1308396,4.2480803,-24.893156
127,-3.009246587753296,-60.566650390625,73.1076889038086,-4.3776454845126045,13.166583850649115,-89.52349803829665,-21.28473,13.564855,-3.0317054,86.089714,7.867056,-7.4730444,-13.091915,2.9988446,-14.454223,38.11476,-29.89461,0.8989903,-5.391156,7.0389123,18.497301,13.624749,19.660309,-16.902985,-30.388206,29.644793,9.736925,15.676248,7.636251,-28.079344,8.177464,-20.831846,-1.2211624,4.1835876,-24.424006
128,-3.1318440437316895,-61.70817565917969,73.0889892578125,-4.081317060130255,13.140752741120187,-89.74829095969784,-23.83691,14.043547,-2.1867356,88.364105,5.7989154,-5.952714,-11.350014,3.0033705,-14.089331,36.56811,-30.064528,0.9421301,-4.549233,6.8395,18.642597,15.743351,19.6468,-17.33933,-29.380102,29.385761,11.310904,13.528971,4.2894044,-28.461222,7.9262094,-22.029835,-1.1864426,4.088875,-23.905794
129,-3.2516796588897705,-62.8609733581543,73.13300323486328,-3.8068137220496556,13.105304541360322,-90.1169350733347,-26.225924,14.710292,-1.0780585,90.10324,3.9160328,-4.4001064,-9.476477,3.068763,-13.591838,34.671837,-29.86982,0.99698365,-3.6264858,6.5501513,18.749899,18.028399,19.84148,-17.646986,-28.739603,30.438381,11.347705,12.699022,0.7383035,-28.787153,7.847321,-23.05287,-0.9556432,3.9764502,-23.351534
130,-3.368318557739258,-64.06529235839844,73.23595428466797,-3.505977173410476,13.083416662212779,-90.57044946180844,-28.508938,15.4643345,0.24179111,91.367645,2.1126547,-2.803784,-7.495717,3.1172836,-13.003759,32.467484,-29.38568,1.0574164,-2.6706543,6.1497254,18.805523,20.47672,20.242193,-17.833593,-28.457956,32.241215,10.307368,12.822692,-3.0289385,-29.041187,7.923128,-23.94737,-0.583605,3.8211398,-22.722975
131,-3.4746012687683105,-65.3041000366211,73.40396881103516,-3.1556411243337066,13.100305496706953,-91.07711840984923,-30.637745,16.169743,1.707236,92.126656,0.40843546,-1.270025,-5.5082326,3.0769386,-12.353827,30.12025,-28.569605,1.1512227,-1.6593599,5.6565623,18.785042,22.960922,20.809692,-17.997047,-28.465128,33.8755,8.957266,13.493395,-6.8282137,-29.232801,8.072428,-24.701918,-0.15005532,3.6161757,-22.046972
132,-3.565173864364624,-66.56710815429688,73.63136291503906,-2.737708908278351,13.182311153984632,-91.60369986975245,-32.575893,16.69305,3.2516503,92.34903,-1.1706976,0.09722545,-3.6189098,2.8846157,-11.676483,27.803501,-27.384401,1.3007838,-0.56783473,5.098485,18.663876,25.325985,21.482866,-18.243357,-28.658377,34.436012,8.035133,14.232838,-10.451656,-29.397402,8.191262,-25.33565,0.26899323,3.355945,-21.345142
133,-3.653843402862549,-67.87474822998047,73.9099349975586,-2.248425932454685,13.314885060204238,-92.1867966493014,-34.274555,17.091646,4.985386,91.997765,-2.6695197,1.3457125,-1.7801884,2.5291896,-10.909128,25.462965,-25.802721,1.5165626,0.6566455,4.4973874,18.452066,27.502295,22.235899,-18.62046,-29.05051,33.52618,7.6695814,14.9852,-13.850217,-29.571825,8.19992,-25.871607,0.6690504,3.029177,-20.543552
134,-3.7214972972869873,-69.22090911865234,74.22720336914062,-1.7063857367643742,13.495028077112442,-92.82471320286288,-35.764046,17.389881,6.910264,91.092,-4.0788126,2.482873,0.02310813,2.0431314,-10.064064,23.069757,-23.86932,1.7839907,1.99161,3.8609545,18.173372,29.538483,23.066278,-19.08011,-29.645918,31.70156,7.4603124,15.95472,-17.104805,-29.770317,8.1384,-26.342154,1.0985106,2.6459773,-19.658567
135,-3.800987482070923,-70.60407257080078,74.58267211914062,-1.1355871203793115,13.763226732659236,-93.42612904581468,-37.149506,17.429092,8.788795,89.679146,-5.276787,3.3667552,1.6436055,1.4532694,-9.286608,20.82892,-21.64928,2.0860887,3.3348293,3.1941679,17.822355,31.46644,23.940119,-19.567516,-30.334118,29.474232,7.326414,17.02061,-20.177094,-30.001778,8.078989,-26.80355,1.5521868,2.2331405,-18.84612
136,-3.861692428588867,-72.04297637939453,74.97531127929688,-0.5629890412122819,14.155887779294044,-93.90141735830156,-38.551796,17.078516,10.379474,87.805885,-6.1350703,3.881478,2.9473984,0.8022698,-8.716142,18.92417,-19.194221,2.4087868,4.576894,2.5031686,17.389719,33.315235,24.804384,-20.02253,-30.99776,27.367645,7.207303,18.059254,-23.00548,-30.27859,8.090405,-27.325523,2.019868,1.8172907,-18.2578
137,-3.91357159614563,-73.51940155029297,75.38619995117188,0.013464075438826457,14.708117936677041,-94.25894342433664,-40.020615,16.370964,11.699361,85.436455,-6.631995,4.0707135,3.8807924,0.08154043,-8.36918,17.391981,-16.429018,2.774156,5.7050858,1.7614595,16.836687,35.11712,25.623713,-20.417109,-31.623268,25.321516,7.094314,19.141624,-25.603354,-30.640265,8.206614,-27.921337,2.5209703,1.4102862,-18.001263
138,-3.9815258979797363,-75.0169906616211,75.81948852539062,0.588800903844758,15.386548471561834,-94.53469973767417,-41.494373,15.389543,12.836888,82.54717,-6.8263035,3.997089,4.531539,-0.6972634,-8.15911,16.141087,-13.3575325,3.1941671,6.749164,0.9892379,16.184984,36.84485,26.3884,-20.773952,-32.250072,23.140045,6.9992094,20.292225,-27.97757,-31.104774,8.389077,-28.584787,3.0594344,0.9968079,-17.976198
139,-4.054288387298584,-76.53734588623047,76.25009155273438,1.1336645086742108,16.121598692483186,-94.68423444219894,-42.923542,14.101789,13.6568165,79.19388,-6.7086196,3.5986006,4.9864116,-1.4576982,-8.06784,15.14379,-10.124288,3.6410327,7.670429,0.25593096,15.507906,38.42986,27.087593,-21.112066,-32.826336,21.145576,6.9331365,21.317621,-30.038275,-31.639688,8.581352,-29.35831,3.59172,0.56311405,-18.013998
140,-4.109541893005371,-78.06143188476562,76.67537689208984,1.6222689733886204,16.8416711783202,-94.66579061167113,-44.250923,12.484265,14.021046,75.428734,-6.274758,2.8256705,5.3321886,-2.123852,-8.084209,14.362615,-6.8613787,4.081459,8.425845,-0.37755218,14.871923,39.811386,27.711489,-21.44261,-33.30598,19.662369,6.9316053,22.023827,-31.723068,-32.185272,8.732163,-30.246534,4.064258,0.098028235,-17.937513
141,-4.1572370529174805,-79.6118392944336,77.08549499511719,2.07315884462677,17.587636167995463,-94.44646977143296,-45.518654,10.422177,13.790913,71.111305,-5.424798,1.5738165,5.518635,-2.700735,-8.265265,13.750858,-3.4172308,4.5283914,8.961002,-0.94997627,14.235443,41.05911,28.243332,-21.722858,-33.711952,18.821007,7.0175285,22.371134,-33.08893,-32.714287,8.833819,-31.222927,4.405248,-0.42723146,-17.680363
142,-4.210444927215576,-81.20050048828125,77.47733306884766,2.492461153357189,18.369322626078965,-94.06584368564833,-46.664604,8.027556,13.04107,66.225525,-4.225323,-0.044521287,5.5425887,-3.216741,-8.575215,13.310348,0.24191563,5.01013,9.299071,-1.4826244,13.569526,42.198822,28.678488,-21.942566,-34.060818,18.439222,7.1915913,22.458187,-34.173107,-33.228462,8.917954,-32.25993,4.6437335,-0.9954567,-17.33088
143,-4.276578903198242,-82.82041931152344,77.8388671875,2.8454353076058867,19.06909659069498,-93.59192751109934,-47.48726,5.5967426,11.96653,61.0128,-2.9051526,-1.76213,5.5683417,-3.6284904,-8.884678,13.043217,3.8313646,5.4945426,9.516363,-1.9013963,12.960368,43.103073,29.035666,-22.162596,-34.298737,18.36755,7.463501,22.300535,-34.90796,-33.705746,8.990122,-33.331364,4.8829393,-1.5480655,-16.942093
144,-4.365852355957031,-84.45372772216797,78.17127990722656,3.0959756845445554,19.572569297621328,-93.09171590678456,-47.83555,3.3954518,10.784967,55.73963,-1.6697075,-3.3333237,5.755692,-3.884503,-9.085723,12.944648,7.0672307,5.925398,9.694322,-2.141487,12.49745,43.64931,29.349556,-22.446,-34.383167,18.45406,7.8403883,21.917253,-35.210796,-34.10928,9.043794,-34.42583,5.2187405,-2.0269191,-16.563185
145,-4.427013397216797,-86.13013458251953,78.45416259765625,3.252796236583379,19.850381250577676,-92.54747475469209,-47.632023,1.3245392,9.388778,50.17339,-0.50353706,-4.799473,6.1575108,-3.999146,-9.224923,12.9660015,9.9067955,6.2519903,9.83191,-2.207289,12.209085,43.832756,29.644556,-22.794363,-34.339886,18.776165,8.3892975,21.25861,-35.009834,-34.40753,9.036934,-35.5765,5.643345,-2.424651,-16.146805
146,-4.501993179321289,-87.8100814819336,78.67772674560547,3.3871963151771864,19.971506541100446,-91.97057448996647,-46.912968,-0.68180585,7.7781906,44.17657,0.72274286,-6.220607,6.4772434,-4.0984144,-9.303742,13.517646,12.301622,6.495051,9.923742,-2.2129345,12.049422,43.748985,29.927835,-23.163078,-34.219654,19.375116,9.079328,20.3307,-34.37435,-34.594532,8.974292,-36.763073,6.1060495,-2.768159,-15.677461
147,-4.580440521240234,-89.50248718261719,78.83834838867188,3.4204343636423733,19.94063760548622,-91.41854824057855,-45.77479,-2.3414161,6.206191,38.230427,2.0029066,-7.463745,6.8935385,-4.041557,-9.270502,14.193773,14.530692,6.6636095,9.998418,-2.098315,12.001744,43.40771,30.20373,-23.563292,-34.01558,20.03801,9.773315,19.245974,-33.405437,-34.67568,8.912373,-37.924408,6.6338606,-3.0510628,-15.253424
148,-4.650211811065674,-91.20275115966797,78.94612884521484,3.302425675030564,19.770145590535055,-90.93341954212184,-44.39449,-3.469769,4.9779415,32.895718,3.31384,-8.449216,7.5233617,-3.7267315,-9.074087,14.712027,16.803328,6.775705,10.073379,-1.8251203,12.046903,42.80862,30.47273,-24.011734,-33.70886,20.545162,10.343282,18.125437,-32.203197,-34.665302,8.913851,-38.99623,7.251086,-3.2711957,-14.975037
149,-4.72113561630249,-92.91614532470703,78.98511505126953,3.0148055913421183,19.442735212769936,-90.51004325346182,-42.76495,-4.0619516,4.278048,28.12186,4.828898,-9.392372,8.390449,-3.1545506,-8.690355,15.105001,19.220133,6.856481,10.151421,-1.3589361,12.199105,41.901215,30.737116,-24.537731,-33.273533,20.920332,10.805197,16.932182,-30.73001,-34.571354,9.01303,-40.026924,8.012627,-3.4045079,-14.905055
150,-4.788813591003418,-94.62327575683594,78.96131134033203,2.6530228025277003,18.9852807747947,-90.15598425445114,-40.887627,-4.3368154,4.0318184,23.679693,6.530439,-10.321438,9.155356,-2.5383928,-8.108224,16.045092,21.374563,6.8681593,10.248606,-0.808528,12.455646,40.712914,30.996046,-25.121408,-32.743313,21.250227,11.212159,15.626808,-28.965775,-34.39513,9.183661,-41.02784,8.8931265,-3.464046,-14.982931
151,-4.848147869110107,-96.31605529785156,78.88379669189453,2.2926244508157625,18.471155265388,-89.84994394484595,-39.05947,-4.464817,4.0770745,20.083164,8.00238,-10.885799,9.717078,-1.9532739,-7.3950224,17.542952,23.047583,6.7490363,10.33147,-0.27266774,12.76356,39.334267,31.238787,-25.71841,-32.16844,21.399141,11.505176,14.335878,-26.99604,-34.140907,9.392919,-41.91397,9.781387,-3.5009913,-15.124088
152,-4.908998489379883,-98.01709747314453,78.76056671142578,2.0427743017789437,17.986240524116297,-89.53792972221366,-37.60873,-4.6121287,4.2525177,17.904026,8.78688,-10.703444,9.982081,-1.4682289,-6.6326494,19.560604,24.037159,6.482589,10.333165,0.123852186,13.060232,37.845013,31.448225,-26.284012,-31.584518,21.22755,11.630149,13.186037,-24.921928,-33.81229,9.615042,-42.591766,10.570543,-3.5640168,-15.243334
153,-4.970498561859131,-99.71353149414062,78.59869384765625,1.9907744599070978,17.570706231356098,-89.14736761144216,-36.783806,-4.8571205,4.6151853,17.628855,8.885446,-9.442475,9.8021555,-0.9896809,-5.5657644,22.314945,24.101576,5.9756236,10.198835,0.31563103,13.325621,36.198986,31.60749,-26.829477,-30.905754,20.601408,11.516705,12.143457,-22.72145,-33.398987,9.873192,-43.0667,11.310803,-3.6984076,-15.338862
154,-5.040524959564209,-101.40184020996094,78.38621520996094,2.060313526919386,17.173344997099026,-88.68344442124501,-36.41518,-5.1155424,5.196206,18.952194,8.440358,-7.3720465,9.319765,-0.44069728,-4.263386,25.670334,23.44682,5.329409,9.92622,0.39188838,13.58954,34.368534,31.707344,-27.36725,-30.127707,19.620268,11.22501,11.160224,-20.398697,-32.89818,10.21695,-43.353737,12.030452,-3.868823,-15.444259
155,-5.086235046386719,-103.06085205078125,78.14364624023438,2.1488963695329795,16.753178351062424,-88.23683306135246,-36.160866,-5.316122,5.8074327,21.165138,7.2469535,-5.0058613,8.714957,0.0031425692,-3.2546797,29.359402,22.38187,4.8155293,9.558446,0.41943616,13.8619585,32.460396,31.745598,-27.857655,-29.409935,18.50134,10.892242,10.341796,-18.082233,-32.325233,10.652737,-43.374203,12.587429,-4.000391,-15.53606
156,-5.128781318664551,-104.70560455322266,77.84920501708984,2.19696716100973,16.290385023801313,-87.88852459296274,-35.702847,-5.449415,6.250068,23.558624,5.104383,-2.8639517,8.098329,0.033226162,-3.085724,33.203342,21.175726,4.649117,9.138286,0.42201665,14.141744,30.572462,31.729187,-28.264036,-28.906971,17.465458,10.644591,9.798721,-15.872607,-31.704428,11.1621,-43.067772,12.844625,-4.015008,-15.598958
157,-5.17894983291626,-106.37281036376953,77.47272491455078,2.19756085514947,15.774697243130616,-87.6644051002283,-34.99943,-5.5357943,6.390088,26.280746,1.4935331,-0.93647265,7.53058,-0.55875385,-4.052936,37.26626,19.762297,5.0314736,8.685388,0.40179622,14.39679,28.744558,31.66577,-28.603888,-28.638866,16.584604,10.485675,9.579585,-13.76508,-31.0441,11.755821,-42.33449,12.8185005,-3.9556978,-15.561489
158,-5.225187301635742,-108.06373596191406,77.02232360839844,2.162195510894784,15.205815666626755,-87.53644971918284,-34.16286,-5.6184688,6.2708726,29.533514,-3.283495,0.99598056,6.9285393,-1.6628996,-5.809551,41.731426,17.993876,5.7057023,8.193866,0.36679634,14.643676,26.927197,31.556278,-28.88398,-28.535007,15.736789,10.347694,9.621089,-11.7177,-30.343405,12.444865,-41.22521,12.5692005,-3.8446274,-15.462499
159,-5.2708635330200195,-109.71239471435547,76.55508422851562,2.1346513549940114,14.608738716691605,-87.46978641632627,-33.166927,-5.7633896,6.0390396,32.735554,-8.222385,2.73975,6.1951985,-3.2263958,-7.9367485,46.54012,16.029182,6.1941133,7.6455655,0.27908295,14.937797,25.059578,31.40335,-29.06221,-28.59712,14.851461,10.245165,9.8703985,-9.742512,-29.613804,13.183386,-39.935356,12.02305,-3.5763671,-15.455184
160,-5.301201820373535,-111.32740783691406,76.08280944824219,2.1822946913530656,14.019648144271665,-87.42027900753155,-32.0113,-5.9838514,5.914254,35.34138,-12.358883,4.0943546,5.238033,-5.1748734,-9.986181,51.566235,14.034771,6.0718365,7.0189767,0.07779511,15.328881,23.073875,31.213419,-29.102089,-28.824575,13.857715,10.193102,10.274591,-7.836962,-28.872988,13.907677,-38.668694,11.114924,-3.041667,-15.692675
161,-5.332658290863037,-112.90270233154297,75.612060546875,2.3880436521324473,13.430032439583282,-87.38537094681861,-30.700472,-6.2585497,6.091509,37.29322,-15.531829,4.9600015,4.0763183,-7.71998,-11.969168,56.920254,11.977392,5.224732,6.304038,-0.33768848,15.848269,20.93668,30.99314,-29.004137,-29.256,12.665254,10.194901,10.9252825,-6.0230794,-28.129925,14.597056,-37.375225,9.657654,-2.0694137,-16.214636
162,-5.371888637542725,-114.45166778564453,75.1617431640625,2.7301340646161782,12.832278087778745,-87.37352672087326,-29.246138,-6.5619545,6.4613194,38.87361,-18.254652,5.456938,2.834117,-10.907451,-14.001339,62.5747,9.758344,3.8636065,5.5144954,-0.94397753,16.453396,18.68297,30.748257,-28.786125,-29.874075,11.333356,10.228686,11.818828,-4.2678533,-27.382427,15.266061,-35.999516,7.7626486,-0.74861705,-16.917545
163,-5.422411918640137,-115.99129486083984,74.7530746459961,3.1162214074741263,12.269944071273834,-87.35927281019468,-27.67799,-6.8683386,6.822229,40.074368,-20.598312,5.7104077,1.5001096,-14.314666,-15.803095,68.167435,7.454964,2.1172364,4.6698017,-1.6136104,17.077682,16.334904,30.487316,-28.44889,-30.595114,10.0132675,10.279891,12.759309,-2.4787548,-26.635519,15.895182,-34.745422,5.8122854,0.6400581,-17.750647
164,-5.459286689758301,-117.51402282714844,74.3897933959961,3.440188651784686,11.79001633998807,-87.32137926413988,-26.035788,-7.159755,6.974086,40.888733,-22.625317,5.8514566,-0.019747864,-17.440845,-17.131687,73.34327,5.184569,0.15497904,3.7946327,-2.201223,17.65708,13.898082,30.220793,-28.008453,-31.325605,8.852242,10.347629,13.551138,-0.5517684,-25.903418,16.458754,-33.829945,4.182303,1.804578,-18.696146
165,-5.497515678405762,-119.02574157714844,74.09211730957031,3.7025819520101675,11.400404317728798,-87.26146739331729,-24.322998,-7.4639797,6.899414,41.305687,-24.351881,5.873096,-1.8732884,-20.162125,-17.884789,78.146164,2.9603531,-2.1107354,2.919611,-2.6924453,18.218132,11.2761345,29.955696,-27.514538,-32.04753,7.802024,10.480557,14.187223,1.6265739,-25.199875,16.926794,-33.375973,2.8568947,2.7453587,-19.957022
166,-5.553027153015137,-120.53892517089844,73.87127685546875,3.943908136301969,11.083986399977928,-87.19055038531853,-22.53524,-7.7682624,6.7162304,41.345943,-25.747625,5.7252574,-4.0620656,-22.633148,-18.190641,82.71295,0.7484105,-4.6666584,2.0410075,-3.1458666,18.773508,8.457946,29.691282,-26.98708,-32.78562,6.8026233,10.669329,14.765454,4.016885,-24.531494,17.295218,-33.279827,1.6879152,3.5989375,-21.489157
167,-5.632091999053955,-122.04547119140625,73.72260284423828,4.111961124528752,10.852321670222695,-87.10375399614419,-20.706528,-7.997927,6.430132,41.05383,-26.806505,5.479718,-6.5016737,-24.748283,-18.215881,86.83781,-1.3575711,-7.1835084,1.127835,-3.5138,19.244486,5.5759354,29.422865,-26.396612,-33.515465,5.9869103,10.836072,15.242336,6.4881344,-23.898897,17.582811,-33.40711,0.8315446,4.2499495,-22.93311
168,-5.7276105880737305,-123.53591918945312,73.64976501464844,4.155666104958148,10.715871312000727,-86.99582908751064,-18.867496,-8.077007,6.0459332,40.47236,-27.522501,5.207588,-9.0764885,-26.432951,-18.170345,90.30978,-3.2552314,-9.343827,0.14136067,-3.750972,19.556583,2.776036,29.14685,-25.694838,-34.214382,5.4974723,10.9051695,15.566805,8.895199,-23.295023,17.818775,-33.617924,0.42963818,4.566424,-23.933788
169,-5.830323696136475,-125.02772521972656,73.65872955322266,4.060188807241999,10.69552121680524,-86.8717048420281,-17.027618,-7.984945,5.556392,39.57942,-27.927214,4.9128532,-11.8694105,-27.648718,-18.105892,93.138824,-4.9083986,-11.149399,-0.92708796,-3.8432631,19.694633,0.04445078,28.857815,-24.852705,-34.898594,5.442896,10.874514,15.685816,11.250864,-22.70132,17.998112,-33.96763,0.7154469,4.401425,-24.35394
170,-5.934991836547852,-126.55684661865234,73.75122833251953,3.8524902684392486,10.781415307383181,-86.73400370627984,-15.174792,-7.7517905,4.9744806,38.37422,-28.02278,4.5694275,-14.912208,-28.426264,-17.99503,95.4212,-6.325403,-12.735836,-2.0599768,-3.815738,19.696657,-2.709896,28.554775,-23.912497,-35.536034,5.727832,10.782168,15.636356,13.610148,-22.1068,18.121452,-34.49285,1.5343341,3.849063,-24.394995
171,-6.028936862945557,-128.12327575683594,73.9201431274414,3.546343589577342,10.935807075445153,-86.57446020729785,-13.308387,-7.3835006,4.3345594,36.934277,-27.759624,4.197544,-17.98667,-28.83284,-17.953157,97.07805,-7.470904,-13.996714,-3.2547379,-3.6815772,19.577988,-5.4452434,28.24881,-22.919031,-36.059006,6.193425,10.61185,15.498287,15.891944,-21.516413,18.217438,-35.03065,2.4484203,3.1409435,-24.21502
172,-6.1215105056762695,-129.71607971191406,74.17064666748047,3.156681834608114,11.121123095146123,-86.38468681301684,-11.429176,-6.88946,3.6693935,35.338257,-27.08706,3.8104296,-20.874159,-28.949171,-18.084387,98.03191,-8.31847,-14.826564,-4.5089865,-3.454543,19.362152,-8.099807,27.962568,-21.905485,-36.429626,6.6786222,10.347818,15.350668,18.02155,-20.947784,18.304415,-35.43182,3.018989,2.5040178,-23.990107
173,-6.2146782875061035,-131.3549346923828,74.49234008789062,2.673454729563316,11.318759344098346,-86.15490471599755,-9.469844,-6.2670794,2.9335344,33.5046,-25.99185,3.38027,-23.540388,-28.732477,-18.40322,98.20025,-8.824749,-15.000033,-5.8591294,-3.1249678,19.066582,-10.669599,27.719692,-20.829058,-36.65473,7.205605,9.954205,15.156829,19.977226,-20.416433,18.390203,-35.69075,3.1339655,1.939567,-23.73109
174,-6.307342529296875,-133.02012634277344,74.87354278564453,2.097798906338169,11.553553768230831,-85.89623065439629,-7.4696054,-5.5079184,2.1325777,31.450935,-24.515385,2.9042106,-26.050919,-28.279259,-19.000957,97.64231,-9.010093,-14.916031,-7.2962503,-2.6959832,18.70311,-13.163973,27.53599,-19.675755,-36.792183,7.83468,9.446332,14.898482,21.818108,-19.922644,18.453682,-35.912357,3.0335228,1.3461678,-23.36823
175,-6.3882341384887695,-134.7042999267578,75.30388641357422,1.4747417778991898,11.848563940719254,-85.62487510749158,-5.5762577,-4.6463494,1.3704131,29.38877,-22.679716,2.4378295,-28.444605,-27.57437,-19.687279,96.47199,-8.924636,-14.4564295,-8.746886,-2.1977284,18.2889,-15.521802,27.420029,-18.52408,-36.910694,8.464833,8.890295,14.683232,23.596052,-19.46194,18.45823,-36.12015,2.802251,0.7896528,-22.966255
176,-6.469742774963379,-136.40301513671875,75.76957702636719,0.8436316707022977,12.227957414004715,-85.36062821655572,-3.9377332,-3.7162285,0.74562705,27.529297,-20.501186,2.0307066,-30.716995,-26.728088,-20.433508,94.81474,-8.63145,-13.919651,-10.133285,-1.6567228,17.832987,-17.699757,27.368982,-17.459581,-37.057217,8.989888,8.356704,14.617188,25.363708,-19.026094,18.363737,-36.32991,2.521823,0.33696848,-22.584625
177,-6.5520524978637695,-138.14793395996094,76.26988220214844,0.20098760919879088,12.712336187482997,-85.07311233790342,-2.5828047,-2.7102432,0.24086544,25.896519,-17.910122,1.7275062,-32.823643,-25.83449,-21.35798,92.6398,-8.164198,-13.337843,-11.478401,-1.0551472,17.323544,-19.69136,27.372242,-16.472694,-37.21863,9.441912,7.8585567,14.698126,27.13774,-18.610937,18.134794,-36.552414,2.1174269,0.004217506,-22.211237
178,-6.648695468902588,-139.92698669433594,76.78736877441406,-0.4587903211111121,13.283858056199346,-84.76798050752873,-1.4547384,-1.6395755,-0.19182238,24.43002,-14.94383,1.4877163,-34.779255,-24.83107,-22.42205,89.89269,-7.49378,-12.604386,-12.804083,-0.3895227,16.766699,-21.533464,27.422575,-15.53711,-37.37291,9.85871,7.3643208,14.880828,28.89718,-18.215496,17.79126,-36.7812,1.5736415,-0.24600312,-21.82263
179,-6.76789665222168,-141.73377990722656,77.31062316894531,-1.1017608966109358,13.90678287172701,-84.51501525984287,-0.5615073,-0.56931525,-0.5118009,23.209394,-11.758243,1.2305019,-36.667877,-23.56407,-23.323112,86.653946,-6.5927277,-11.716449,-14.0341425,0.29546517,16.190372,-23.22776,27.516186,-14.707397,-37.565716,10.144681,6.8805246,15.203353,30.632963,-17.834677,17.378233,-37.006824,1.0581554,-0.42342365,-21.456219
180,-6.898582935333252,-143.54486083984375,77.82246398925781,-1.6999806521468475,14.541816634589935,-84.3797262135463,0.1170234,0.4412129,-0.68965286,22.272013,-8.484234,0.8687017,-38.55726,-21.896479,-23.763073,83.00238,-5.44532,-10.685701,-15.091543,0.95544845,15.618907,-24.760378,27.653017,-14.03486,-37.85567,10.202181,6.412638,15.701347,32.334496,-17.460003,16.936356,-37.219837,0.7372051,-0.53474116,-21.145706
181,-7.026871204376221,-145.3834228515625,78.32294464111328,-2.275122466618443,15.216274911672356,-84.35370614924123,0.51399636,1.4123235,-0.75241256,21.638987,-4.990947,0.39890853,-40.495922,-19.74002,-23.63729,78.884926,-4.0680714,-9.636663,-15.973597,1.6282208,15.033266,-26.115726,27.839663,-13.515021,-38.28242,9.909734,6.0262194,16.400776,34.030876,-17.081469,16.435312,-37.428436,0.6526459,-0.57000154,-20.909563
182,-7.153802394866943,-147.23995971679688,78.80779266357422,-2.8341841824715583,15.932617635500874,-84.39980310904693,0.67785764,2.365533,-0.7559222,21.252918,-1.2417051,-0.17915615,-42.365456,-17.243671,-23.100916,74.27212,-2.508212,-8.567002,-16.721256,2.3208408,14.42926,-27.280087,28.07488,-13.115864,-38.82778,9.349136,5.691263,17.273857,35.712185,-16.6978,15.857486,-37.6336,0.71030897,-0.52683014,-20.720253
183,-7.277180194854736,-149.138916015625,79.27239990234375,-3.333335760455354,16.611515552441364,-84.53964992794445,0.82317305,3.23855,-0.7063856,20.97846,2.5180736,-0.9338423,-43.97564,-14.615378,-22.247726,69.2645,-0.7940545,-7.301584,-17.322971,2.9436731,13.85003,-28.229176,28.344286,-12.841422,-39.47234,8.733277,5.2711773,18.272764,37.310143,-16.320696,15.259427,-37.80997,0.8712339,-0.42178842,-20.541666
184,-7.399426460266113,-151.05577087402344,79.69914245605469,-3.727051497194037,17.17343458917841,-84.79900767975943,1.1574548,3.9535549,-0.5816835,20.672623,6.051666,-1.8953356,-45.161156,-12.030639,-21.157972,63.940376,1.0642121,-5.649233,-17.764772,3.4052806,13.336334,-28.931488,28.624586,-12.69374,-40.201717,8.289836,4.636611,19.348106,38.759964,-15.96949,14.698137,-37.93654,1.098034,-0.27165616,-20.340605
185,-7.508727073669434,-152.9947052001953,80.07510375976562,-4.025867405589839,17.63997963598046,-85.24430756629684,1.7286592,4.5788918,-0.1171748,20.174479,9.398904,-3.1500018,-45.91415,-9.343895,-19.64428,58.061775,3.192755,-3.3826153,-17.984676,3.7216995,12.857602,-29.408617,28.91353,-12.674322,-41.06497,7.9597783,3.7803745,20.533646,40.106976,-15.658126,14.146924,-38.044323,1.3951943,-0.03094865,-20.113895
186,-7.613742351531982,-154.95802307128906,80.38162231445312,-4.235125138744531,18.027531421649957,-85.83135356581465,2.464608,5.0876427,0.57602644,19.535147,12.703246,-4.6402392,-46.20571,-6.579683,-17.663841,51.58546,5.5380793,-0.701007,-18.019335,3.9144235,12.406234,-29.658083,29.211823,-12.765079,-42.05656,7.68003,2.761588,21.8334,41.375145,-15.391811,13.577439,-38.146587,1.7795489,0.2938807,-19.882988
187,-7.719020366668701,-156.9352569580078,80.61100006103516,-4.297305913348538,18.253246778477227,-86.42279343414219,3.3831048,5.2643166,0.99895704,18.909952,15.891348,-6.1514034,-45.93109,-4.122453,-15.532151,44.901302,7.868852,1.9877975,-17.99938,3.9068668,12.052319,-29.636219,29.496164,-12.933253,-43.056404,7.6611233,1.568696,23.155735,42.475937,-15.176049,13.044047,-38.200497,2.2359445,0.607955,-19.652836
188,-7.831157207489014,-158.91629028320312,80.75325775146484,-4.211996046396688,18.253577855732427,-86.87386538905189,4.3597937,4.990751,0.63709074,18.703962,18.753174,-7.4806857,-45.083202,-2.268499,-13.682599,38.41964,10.0054455,4.307011,-18.052471,3.7008264,11.86658,-29.358744,29.736126,-13.14144,-43.896477,8.075598,0.19760467,24.413649,43.34312,-15.017804,12.586841,-38.174934,2.751745,0.8167744,-19.427145
189,-7.944545745849609,-160.8963623046875,80.81597137451172,-3.8712585394581294,17.955819866817187,-87.15159205003556,5.566817,4.1289787,-0.69376975,18.756905,21.466103,-8.521803,-43.60012,-1.0524522,-12.071648,32.008614,12.031808,6.35737,-18.210472,3.177054,11.887412,-28.777874,29.910374,-13.403052,-44.621784,9.120956,-1.4922832,25.632761,43.99687,-14.921613,12.214582,-38.09675,3.4039786,0.8904623,-19.22124
190,-8.034882545471191,-162.91893005371094,80.82720947265625,-3.249050709077579,17.394452988396775,-87.32246160177309,7.144851,2.7667623,-2.6777987,18.73246,24.194181,-9.375142,-41.542957,-0.35962594,-10.513744,25.510567,14.054399,8.314197,-18.411833,2.3289924,12.0593,-27.932705,29.995327,-13.721443,-45.254543,10.670077,-3.4308093,26.858408,44.484962,-14.897782,11.9005165,-37.982944,4.1753807,0.8815048,-19.037815
191,-8.11988353729248,-164.9454803466797,80.75745391845703,-2.515663199593957,16.695995212428084,-87.38685023282459,8.763024,1.1728619,-5.0871396,19.05284,26.538162,-10.170749,-39.211346,-0.12781465,-9.338024,19.367887,15.944165,9.960105,-18.641865,1.3458108,12.321767,-26.88173,30.029823,-14.116097,-45.69606,12.4473715,-5.297351,28.089886,44.763687,-14.920747,11.6280775,-37.792263,4.91171,0.81882334,-18.83073
192,-8.193696022033691,-166.96554565429688,80.6066665649414,-1.8038671746483166,15.997019940798817,-87.39962130458332,10.265614,-0.4767387,-7.6056757,19.718424,28.305456,-11.0420685,-36.99962,-0.23649816,-8.797886,14.170657,17.521317,11.100866,-18.851364,0.3939014,12.577603,-25.665833,29.990479,-14.568557,-45.834385,14.177677,-6.7954235,29.250431,44.779457,-15.009934,11.396561,-37.468044,5.4621983,0.72879595,-18.582148
193,-8.274618148803711,-168.96096801757812,80.38809204101562,-1.1367999723293127,15.315500570398152,-87.40661271133743,11.66152,-2.324469,-10.404542,20.76421,29.195543,-11.974674,-34.948303,-0.58610207,-9.07029,9.882718,18.952896,11.899917,-19.00044,-0.503827,12.811223,-24.223547,29.839237,-15.070023,-45.694237,15.973849,-7.9753428,30.349947,44.535786,-15.181633,11.200187,-37.03522,5.8226213,0.59571433,-18.2607
194,-8.371953964233398,-170.93568420410156,80.11383056640625,-0.5109208363518328,14.63257510897725,-87.44903211639965,12.923046,-4.3708515,-13.489038,22.38824,29.271372,-12.941661,-32.90654,-1.0240264,-10.008861,6.1343126,20.366028,12.441029,-19.04814,-1.3660092,13.0407295,-22.546116,29.58501,-15.637907,-45.32377,17.919302,-8.958181,31.3979,44.03491,-15.423599,11.039143,-36.485783,6.0616555,0.41102058,-17.887266
195,-8.474130630493164,-172.89410400390625,79.80012512207031,-0.05904685920655155,14.047266551376323,-87.6197587273833,13.850024,-6.2504044,-16.223661,24.648947,28.951984,-14.06834,-32.254795,-1.5503489,-11.318387,5.7623553,20.057001,12.391102,-18.91648,-2.045349,13.218262,-20.743618,29.2425,-16.269485,-44.638607,19.678143,-9.590598,32.252003,43.205048,-15.740416,10.92456,-35.71698,6.1347713,0.20982648,-17.53035
196,-8.568613052368164,-174.8436737060547,79.4471664428711,0.10338285567238167,13.644960432893846,-87.97917296884617,14.247771,-7.5495996,-17.75875,27.444597,28.75071,-15.000033,-31.63396,-1.750443,-12.776759,5.7694073,19.387466,11.391609,-18.5622,-2.4032354,13.3040085,-18.932028,28.833126,-16.949314,-43.545605,20.893412,-9.736854,32.75681,41.975273,-16.139696,10.876832,-34.62755,5.9957814,0.026950065,-17.260244
197,-8.63782787322998,-176.812255859375,79.0702133178711,-0.07990716736603785,13.522038935838143,-88.6275211706268,13.979451,-8.020961,-17.285551,30.574808,28.971087,-15.000033,-30.992197,-1.510561,-14.458966,5.896001,18.630274,8.881067,-17.89963,-2.3753114,13.208134,-17.048191,28.362864,-17.700497,-42.050148,21.495607,-9.246211,32.854683,40.296604,-16.630404,10.899418,-33.208805,5.4452114,-0.09906195,-17.063938
198,-8.711557388305664,-178.74349975585938,78.69342041015625,-0.47584624487229304,13.586481600724095,-89.48494511509567,13.208005,-7.9845276,-15.589742,33.99164,29.392574,-15.000033,-31.478476,-1.3198193,-16.320116,8.785909,16.41971,5.225326,-17.0029,-2.1181862,12.964095,-15.073716,27.830969,-18.533175,-40.17246,21.650497,-8.250333,32.62508,38.22267,-17.213177,11.002077,-31.512295,4.5738554,-0.20003627,-16.92148
199,-8.832088470458984,-180.5650177001953,78.36288452148438,-0.9485900311694757,13.628243409281936,-90.27685731190607,12.102508,-7.523565,-13.358343,37.83082,29.77185,-15.000033,-32.274628,-1.233318,-18.077242,13.048726,13.091396,1.4588213,-16.131105,-1.766897,12.753417,-13.161251,27.249107,-19.403872,-37.87325,21.372047,-7.028093,32.130318,35.848633,-17.882656,11.214129,-29.554012,3.7671406,-0.3416136,-16.890364
200,-8.902548789978027,-182.49989318847656,77.88313293457031,-1.3767619731772933,13.455210844526267,-90.84155645885447,10.912513,-6.708546,-11.147551,42.031654,29.946894,-15.000033,-32.417725,-1.0913036,-19.368797,16.847399,9.234584,-1.3952329,-15.440912,-1.4513451,12.760494,-11.438889,26.634855,-20.241112,-35.133842,20.670422,-5.8521256,31.43996,33.22908,-18.630075,11.566523,-27.323273,3.4102397,-0.5884916,-17.027086
201,-8.947687149047852,-184.4837188720703,77.31499481201172,-1.7854262469687756,12.996123612857792,-91.21670976766579,9.791131,-5.3916607,-8.872163,46.56942,29.983477,-15.000033,-31.834978,-0.79960746,-19.981335,20.37592,4.2312365,-3.0869334,-14.915013,-1.1729946,13.041824,-9.863998,25.990395,-20.992937,-31.882563,19.29711,-4.6824794,30.355719,30.249044,-19.453793,12.101808,-24.626724,3.6840522,-1.1869898,-17.246117
202,-9.031906127929688,-186.39768981933594,76.77722930908203,-2.2746292959852186,12.367307719732853,-91.48432332125401,8.653855,-3.504176,-6.4244933,51.445644,29.930748,-15.000033,-30.829062,-0.35368952,-20.131413,24.02239,-1.791438,-4.1483507,-14.479742,-0.81313497,13.515344,-8.348082,25.31496,-21.676361,-28.198648,17.345495,-3.3684835,28.955585,26.912779,-20.346613,12.810495,-21.552734,4.3598676,-2.0307102,-17.548042
203,-9.156999588012695,-188.19314575195312,76.30193328857422,-2.8461040420568526,11.687695503167255,-91.66519317756163,7.419512,-1.3084879,-4.229506,56.451565,29.679,-15.000033,-29.58428,0.1886616,-20.08813,27.431482,-7.718972,-4.7670865,-14.098045,-0.3365523,14.133265,-6.9375134,24.625746,-22.319853,-24.291718,15.328725,-2.051236,27.70276,23.400026,-21.280775,13.649477,-18.459826,5.204507,-2.6613235,-18.119953
204,-9.336651802062988,-189.91241455078125,75.87614440917969,-3.5382289800144413,11.078296024076165,-91.75851605663681,5.921487,0.93460256,-2.710048,61.46849,29.063786,-15.000033,-28.268517,0.83638364,-20.195606,30.194157,-12.410761,-5.160067,-13.746226,0.3262539,14.852878,-5.697021,23.950186,-22.960035,-20.347488,13.728435,-0.92244464,27.029665,19.876272,-22.21786,14.568898,-15.68761,5.9920487,-2.6211567,-19.157888
205,-9.510809898376465,-191.60855102539062,75.4773941040039,-4.3709174769107415,10.548086066327675,-91.77960745881933,4.082598,3.210209,-1.9541864,66.54157,28.039448,-15.000033,-26.977526,1.6093439,-20.55077,32.328182,-15.488203,-5.2967105,-13.409239,1.1590934,15.700405,-4.753439,23.30042,-23.624306,-16.065544,12.504687,-0.043990646,27.113052,16.128138,-23.14555,15.750285,-12.976956,6.9006515,-1.5186118,-21.060163
206,-9.647825241088867,-193.3004150390625,75.09671783447266,-5.369127919890444,10.04835530145181,-91.7391806327199,1.9725317,5.599392,-1.8232186,71.706505,26.672188,-15.000033,-25.625206,2.532672,-21.044703,34.03951,-17.597275,-5.124946,-13.093815,2.1821866,16.695456,-4.0061817,22.678553,-24.265991,-11.489871,11.425703,0.65401495,27.687056,12.126995,-24.036917,17.152645,-10.278867,8.050031,0.2813969,-23.636438
207,-9.742859840393066,-195.0203399658203,74.74691009521484,-6.394967291899082,9.597523379943746,-91.64816291752747,-0.3408323,7.7817197,-2.2454517,76.67772,25.10826,-15.000033,-24.149755,3.5035841,-21.566597,35.28739,-19.178099,-4.8068824,-12.7608795,3.3041704,17.730593,-3.2374022,22.10833,-24.860056,-7.2522817,10.680197,1.1635398,28.498606,8.329491,-24.82524,18.393621,-8.174494,9.047978,2.1399024,-26.163336
208,-9.797714233398438,-196.74154663085938,74.44075775146484,-7.149901514509499,9.221729444160088,-91.4911113555387,-2.8553863,10.353884,-2.0862246,81.15193,23.523975,-13.163027,-22.577234,4.215185,-21.931253,36.224575,-20.759943,-4.4553733,-12.363862,4.27128,18.642076,-2.2879217,21.629274,-25.43322,-3.9266055,10.459821,1.4959573,29.30276,5.1409993,-25.452507,19.099586,-7.125132,9.390931,3.4817088,-27.855553
209,-9.830364227294922,-198.4314727783203,74.17631530761719,-7.655803991652016,8.92869936181205,-91.23073999023167,-5.6565924,12.682207,-2.039615,85.24037,21.870956,-10.562109,-20.837814,4.722006,-22.19397,36.72575,-22.41571,-4.098338,-11.921044,5.1063986,19.433302,-1.1501704,21.277393,-26.038807,-1.5892793,11.183577,1.6354533,30.200346,2.6764865,-25.89019,19.181404,-7.2984505,8.547258,4.247871,-28.469849
210,-9.866313934326172,-200.10838317871094,73.97582244873047,-8.044296638328927,8.708107047803878,-90.88544276645591,-8.771918,14.493549,-2.5065367,89.0789,20.073706,-7.967558,-18.93036,5.183816,-22.449255,36.71697,-23.867136,-3.6880288,-11.43143,5.889456,20.147245,0.08247593,21.067827,-26.677732,0.07699074,12.616827,1.6144925,31.27052,0.65484583,-26.142342,18.869041,-8.311402,6.841566,4.7353463,-28.392845
211,-9.909668922424316,-201.77200317382812,73.8287353515625,-8.28633967015178,8.544238594427087,-90.53951154297708,-12.011407,15.841856,-3.170742,92.46283,18.163551,-5.5678816,-16.894955,5.5889587,-22.631628,36.268497,-25.045536,-3.250723,-10.828638,6.5317054,20.709633,1.4356331,21.00252,-27.27527,1.0803396,13.974677,1.5007952,32.23091,-1.1264466,-26.22551,18.29772,-9.783842,4.9996495,4.915426,-27.792448
212,-9.95974349975586,-203.43563842773438,73.74674987792969,-8.357037733697513,8.417954288162605,-90.2791625943186,-15.154802,16.83391,-3.6990817,95.18104,16.17384,-3.5422077,-14.764242,5.911615,-22.66891,35.45492,-25.88136,-2.8032188,-10.039501,6.9547296,21.06001,2.9359877,21.075247,-27.759447,1.4124136,14.472323,1.3249233,32.79234,-2.8395147,-26.173374,17.566456,-11.373585,3.7580364,4.7766166,-26.847496
213,-10.019410133361816,-205.1321563720703,73.74344635009766,-8.230675861065189,8.326038050474752,-90.10403380686617,-18.190819,17.406185,-4.028678,97.20481,14.097263,-2.018996,-12.496075,6.131697,-22.53558,34.21149,-26.412704,-2.3337486,-9.05923,7.141672,21.190504,4.6709003,21.28627,-28.079836,0.7977788,13.715779,1.0184556,32.765114,-4.4560027,-25.994022,16.559675,-13.193342,3.3449316,4.1440687,-25.31643
214,-10.08350658416748,-206.85987854003906,73.81803894042969,-7.917712206705848,8.278021658724635,-89.97283913921886,-21.18995,17.513323,-4.2216578,98.63732,11.97044,-0.89424026,-10.087944,6.2326465,-22.274681,32.53834,-26.664839,-1.8356329,-7.943735,7.127304,21.147171,6.6411686,21.634295,-28.261236,-0.71474725,12.181161,0.5891129,32.31706,-5.960018,-25.692062,15.279237,-15.340549,3.3934178,3.080668,-23.225935
215,-10.150895118713379,-208.6253204345703,73.96942901611328,-7.452870990845357,8.272170046212798,-89.91258911712318,-24.04179,17.339796,-4.154195,99.456894,9.876511,0.0064008455,-7.6350346,6.1888,-21.914736,30.62148,-26.553719,-1.3206979,-6.7108808,6.9169846,20.961142,8.743286,22.09999,-28.336,-2.646811,10.39471,0.163398,31.700167,-7.5038075,-25.319153,13.980003,-17.484053,3.732176,1.9675552,-21.13857
216,-10.239686965942383,-210.41624450683594,74.19544982910156,-6.872641665645531,8.307563583474346,-89.95025954733936,-26.640425,17.072308,-3.7312536,99.64007,7.885718,0.85099596,-5.237239,5.9801893,-21.4836,28.649496,-25.995853,-0.7961064,-5.3886023,6.5229077,20.66796,10.8698435,22.650326,-28.318182,-4.51128,8.894915,-0.157016,31.18266,-9.191893,-24.955557,12.920003,-19.336992,4.1557593,1.1773539,-19.618126
217,-10.320385932922363,-212.25343322753906,74.4925765991211,-6.152204757972151,8.361618019107755,-90.13374644294235,-28.902544,16.745708,-2.8447328,99.11672,5.9033995,1.6504945,-2.8648782,5.5920253,-20.912548,26.60057,-24.978918,-0.25902063,-3.9267511,5.918543,20.286997,13.00449,23.261816,-28.184223,-6.247863,7.778908,-0.38411394,30.8165,-11.016127,-24.663767,12.151288,-20.92598,4.7157273,0.8367516,-18.909239
218,-10.406428337097168,-214.11505126953125,74.84874725341797,-5.293412828821057,8.446758206537908,-90.43231704133721,-30.885971,16.271786,-1.5874639,97.905785,3.930993,2.2862682,-0.50595534,5.0326147,-20.221954,24.420689,-23.5545,0.30030957,-2.3447876,5.1350565,19.836191,15.214093,23.91487,-27.9144,-8.105966,6.7816057,-0.5659291,30.466484,-12.858066,-24.45783,11.529535,-22.46022,5.488811,0.7418733,-18.688957
219,-10.45535659790039,-215.99085998535156,75.25245666503906,-4.374369406825729,8.612282699313011,-90.75364209682242,-32.702503,15.663191,-0.17013928,96.12234,2.169734,2.755229,1.7146025,4.334435,-19.565351,22.25188,-21.734936,0.88138705,-0.7640935,4.2710886,19.334965,17.483942,24.578133,-27.540222,-10.033276,5.9065366,-0.6764253,30.133686,-14.621332,-24.336994,11.004954,-23.949066,6.286377,0.7531988,-18.670513
220,-10.48548698425293,-217.90423583984375,75.69914245605469,-3.471697375527105,8.902305281592671,-91.00467866683027,-34.460167,14.94209,1.2155687,93.88305,0.81813246,3.0781567,3.684543,3.5434875,-19.086052,20.235064,-19.530315,1.4784849,0.69377613,3.420134,18.780815,19.775341,25.212648,-27.100565,-11.94701,5.1628027,-0.68979645,29.819149,-16.228682,-24.288477,10.539236,-25.380438,6.914218,0.73748285,-18.564312
221,-10.50090217590332,-219.86355590820312,76.17112731933594,-2.581785361487598,9.335263977833765,-91.19486673833786,-36.163498,14.188021,2.657711,91.16158,-0.09439096,3.3210318,5.4239798,2.6500568,-18.776566,18.329056,-16.847263,2.1319273,2.0386813,2.5787308,18.135921,22.064657,25.791796,-26.605469,-13.794208,4.597749,-0.55291224,29.548702,-17.68958,-24.311499,10.126963,-26.706528,7.2930145,0.6887062,-18.347786
222,-10.490606307983398,-221.851318359375,76.66207122802734,-1.6859302343157037,9.8804297485066,-91.353233966406,-37.74349,13.369342,4.209251,87.901566,-0.6759449,3.451892,6.9651113,1.667179,-18.553272,16.524807,-13.732137,2.8239045,3.3178816,1.7156122,17.407675,24.332985,26.305546,-26.05189,-15.573953,4.204327,-0.29929698,29.316288,-19.027033,-24.410131,9.784487,-27.949947,7.532903,0.6675757,-18.155437
223,-10.465682029724121,-223.85464477539062,77.15644073486328,-0.8361954691184549,10.502988246914937,-91.41881691040611,-39.20901,12.363001,5.627497,84.177666,-0.93184626,3.3764718,8.251413,0.6847197,-18.440632,14.971137,-10.392734,3.4660313,4.4693365,0.88279,16.641754,26.538355,26.744692,-25.462414,-17.271257,3.9109674,-0.030014794,29.073195,-20.204582,-24.574205,9.50575,-29.179089,7.725783,0.6467465,-17.927124
224,-10.420162200927734,-225.8449249267578,77.643798828125,-0.08152629521169243,11.165725552978802,-91.33694756533492,-40.580765,11.074833,6.6588483,80.0596,-0.8649678,3.0288544,9.247874,-0.2130178,-18.470087,13.786917,-7.0129967,3.9791672,5.43976,0.13527952,15.87848,28.63538,27.101587,-24.862337,-18.86511,3.6472552,0.15351285,28.770903,-21.17976,-24.786617,9.2760725,-30.46092,7.9597945,0.60040313,-17.599543
225,-10.36229419708252,-227.84669494628906,78.10991668701172,0.6007222715509302,11.937199831968744,-91.07741621469354,-41.963146,9.463962,7.2393274,75.473946,-0.42192724,2.5132363,9.861459,-1.0631818,-18.728834,12.98609,-3.45298,4.3603086,6.194589,-0.55436254,15.0517025,30.637829,27.367756,-24.224754,-20.351254,3.4014912,0.2090873,28.390787,-21.9595,-25.042997,9.083534,-31.797121,8.263201,0.54360694,-17.12241
226,-10.321972846984863,-229.8780975341797,78.55632019042969,1.220790252288131,12.803137138505107,-90.67960948938234,-43.28707,7.6384974,7.474619,70.39113,0.37273678,1.8707155,10.178394,-1.8937068,-19.14993,12.48606,0.34457394,4.6837087,6.7707357,-1.1887856,14.153434,32.55111,27.540676,-23.549488,-21.729507,3.2147834,0.1954702,27.95879,-22.556353,-25.345757,8.932977,-33.15699,8.584384,0.4856344,-16.536549
227,-10.288665771484375,-231.92718505859375,78.97638702392578,1.7233007023508946,13.603711606444362,-90.20341636706118,-44.312195,5.7453814,7.368965,64.92046,1.4014448,0.9689899,10.447285,-2.6041455,-19.55536,12.196468,4.111618,4.9753265,7.232112,-1.6872575,13.309722,34.313595,27.63064,-22.899555,-22.985474,3.0913734,0.16605172,27.493359,-22.936625,-25.687376,8.836828,-34.562534,8.8854265,0.39277595,-15.911653
228,-10.260396003723145,-234.00132751464844,79.35807800292969,2.055982984923267,14.179513666853088,-89.71072186748005,-44.806602,3.9257877,6.9262958,59.16189,2.5531545,-0.32153738,10.904053,-3.0776076,-19.791935,12.015341,7.586074,5.2277255,7.6443286,-1.9805233,12.652261,35.874493,27.658115,-22.334356,-24.111853,3.036849,0.17430198,27.013319,-23.077818,-26.057695,8.803231,-36.021515,9.132836,0.2302676,-15.314015
229,-10.231026649475098,-236.0907745361328,79.68413543701172,2.220722218536835,14.489809496587354,-89.18653267960026,-44.634155,2.1077511,5.988596,52.83144,3.8798263,-2.1990442,11.59905,-3.3315873,-19.9947,11.900877,10.846911,5.444955,8.007442,-2.079071,12.227354,37.273197,27.637724,-21.824852,-25.12883,3.0464344,0.204107,26.50664,-22.950443,-26.459896,8.816823,-37.606823,9.3574095,-0.021653246,-14.728988
230,-10.220718383789062,-238.19537353515625,79.9289321899414,2.3045397951167623,14.639309064846469,-88.66760283603939,-43.871895,0.33052966,4.6568885,45.839706,5.440279,-4.4604454,12.151794,-3.5786703,-20.135704,12.395206,13.76014,5.6264677,8.349985,-2.0935194,11.9553585,38.541683,27.579561,-21.342134,-26.061245,3.11701,0.23693368,25.9678,-22.583511,-26.895832,8.866885,-39.284264,9.570367,-0.3395717,-14.129873
231,-10.220341682434082,-240.3196563720703,80.0958251953125,2.2969427844028205,14.661863281300423,-88.24358593575737,-42.658157,-1.1295269,3.2389903,38.652794,7.135218,-6.689501,12.536132,-3.7398407,-19.918312,13.470004,16.133005,5.7146807,8.733587,-2.0064998,11.794944,39.616016,27.501852,-20.952099,-26.913054,3.2572439,0.32175747,25.42737,-22.02223,-27.34216,8.970502,-40.929977,9.692883,-0.697171,-13.567132
232,-10.214320182800293,-242.4519805908203,80.184326171875,2.0775046611326093,14.53643979814319,-87.92384743499095,-41.197144,-2.049049,1.9260606,31.908686,8.8279,-8.554262,13.226155,-3.4159248,-19.175388,14.133188,18.251423,5.6213737,9.141282,-1.6638846,11.733215,40.418064,27.42276,-20.730574,-27.672104,3.474635,0.5068661,24.920938,-21.309103,-27.76737,9.142045,-42.41693,9.640783,-1.0708873,-13.08314
233,-10.209157943725586,-244.58706665039062,80.19693756103516,1.5705967351902406,14.216962395677939,-87.74077186899648,-39.47143,-2.4226952,0.6720647,25.54892,10.603841,-10.145675,14.285769,-2.4838336,-17.652006,14.416838,20.018803,5.1827674,9.598731,-0.9920432,11.792353,40.97756,27.356047,-20.680143,-28.342442,3.798381,0.7963309,24.473795,-20.43848,-28.161842,9.407178,-43.767677,9.372283,-1.5319952,-12.677587
234,-10.193765640258789,-246.735595703125,80.14375305175781,0.7660095458475114,13.690284086254879,-87.66879969686882,-37.4343,-2.313793,-0.62599105,19.391695,12.470534,-11.639407,15.739465,-1.0321542,-15.537476,14.33552,21.568634,4.451113,10.092319,0.010621188,11.983876,41.3394,27.306688,-20.762383,-28.946194,4.2138343,1.1666685,24.063957,-19.404526,-28.52942,9.751003,-45.017807,8.933191,-2.0704613,-12.324757
235,-10.169013023376465,-248.88169860839844,80.02494812011719,-0.1902359720142347,13.06036829655144,-87.63567865857253,-35.394726,-1.827791,-1.6573213,14.014909,14.153676,-12.860398,17.464922,0.6514211,-13.260156,13.888031,23.001131,3.7138453,10.551852,1.2014236,12.233769,41.444057,27.27979,-20.98357,-29.484747,4.666258,1.6252327,23.652164,-18.239445,-28.853231,10.136726,-46.075153,8.359415,-2.5349603,-12.0325775
236,-10.14753532409668,-251.00274658203125,79.86560821533203,-1.0567669086046814,12.486640152688935,-87.54189798568142,-33.67074,-1.2288595,-2.0729673,9.916695,15.4416275,-13.628519,19.131186,2.1865115,-11.283512,13.342749,24.260668,3.2917125,10.880714,2.3280382,12.441465,41.221844,27.280561,-21.345102,-29.950146,5.1012163,2.179284,23.199617,-16.980927,-29.100729,10.527623,-46.841007,7.68393,-2.7751396,-11.803531
237,-10.129372596740723,-253.0732879638672,79.65753173828125,-1.599919258301058,12.102845088826557,-87.49253823554989,-32.348965,-0.691305,-1.2868677,7.0369835,16.581154,-14.086021,19.746468,3.2193856,-9.444328,14.449107,24.408,3.3698685,11.17122,3.097145,12.534309,40.66368,27.316725,-21.84259,-30.330519,5.5568085,2.903583,22.689539,-15.642934,-29.22356,10.961219,-47.298187,6.8010664,-2.7416544,-11.637622
238,-10.096330642700195,-255.12322998046875,79.4213638305664,-2.001601265038768,11.799443945945601,-87.3391618848937,-31.63698,-0.23537916,0.22355683,5.954905,17.203053,-14.292684,20.092682,4.190607,-7.739396,15.869744,24.083168,3.7539854,11.277131,3.7401597,12.584711,39.787914,27.375439,-22.46429,-30.615566,6.044607,3.7657695,22.137362,-14.210919,-29.239454,11.458169,-47.490406,5.7232404,-2.5195146,-11.520773
239,-10.059701919555664,-257.1749572753906,79.15483093261719,-2.220293902934993,11.58546295662917,-87.02581780505952,-31.214987,0.0147575755,1.8613731,5.958978,17.284327,-13.868686,20.139835,4.896975,-6.6051245,17.660543,23.328903,4.2816277,11.180398,4.2209272,12.572306,38.57097,27.474052,-23.235487,-30.80677,6.465893,4.625932,21.590797,-12.728149,-29.162394,11.962949,-47.345192,4.6480556,-2.151395,-11.428733
