unveil-humanoid-operators/unveil-humanoid-operators.github.io/feature-analysis-animation/data/feature_matrix_instances/age_waist_rom_jogging_A044_jog_forward_loop_001__A044.csv
Frame,root_translateX,root_translateY,root_translateZ,root_rotateX,root_rotateY,root_rotateZ,left_hip_pitch_joint_dof,left_hip_roll_joint_dof,left_hip_yaw_joint_dof,left_knee_joint_dof,left_ankle_pitch_joint_dof,left_ankle_roll_joint_dof,right_hip_pitch_joint_dof,right_hip_roll_joint_dof,right_hip_yaw_joint_dof,right_knee_joint_dof,right_ankle_pitch_joint_dof,right_ankle_roll_joint_dof,waist_yaw_joint_dof,waist_roll_joint_dof,waist_pitch_joint_dof,left_shoulder_pitch_joint_dof,left_shoulder_roll_joint_dof,left_shoulder_yaw_joint_dof,left_elbow_joint_dof,left_wrist_roll_joint_dof,left_wrist_pitch_joint_dof,left_wrist_yaw_joint_dof,right_shoulder_pitch_joint_dof,right_shoulder_roll_joint_dof,right_shoulder_yaw_joint_dof,right_elbow_joint_dof,right_wrist_roll_joint_dof,right_wrist_pitch_joint_dof,right_wrist_yaw_joint_dof
0,0.5438411831855774,-2.249629497528076,78.71980285644531,0.907173164619619,-1.4831436899958503,93.34483855295194,4.8532624,3.4398737,8.933771,7.4102035,-10.8187275,-4.7209563,4.7252936,-9.083931,-17.823927,11.970275,-13.048969,7.407158,-1.6875786,0.32493863,9.405882,-4.1252317,17.368828,-38.87283,59.526466,-11.757811,4.0345325,0.9572354,-3.7486796,-16.670591,31.319324,59.978573,-6.948558,6.0386167,-2.3201158
1,0.5653014183044434,-2.2505648136138916,78.71240997314453,0.9353174479614832,-1.441977962613823,93.34292183068477,4.8199635,3.4203334,8.924814,7.3704796,-10.779404,-4.7446437,4.556453,-9.135401,-17.790426,12.232634,-13.171839,7.3691897,-1.7010295,0.31067336,9.3932295,-4.1334286,17.394709,-38.906044,59.474407,-11.751457,4.027127,0.9248163,-3.7501233,-16.692053,31.284878,59.945698,-6.974578,6.0756164,-2.2387366
2,0.5882884860038757,-2.247779369354248,78.70582580566406,0.9640940372027916,-1.3984188098078016,93.33878088984353,4.7834435,3.400323,8.915988,7.330459,-10.738637,-4.768025,4.381419,-9.187556,-17.753086,12.499623,-13.294513,7.330105,-1.7096682,0.29645863,9.374893,-4.1506276,17.413004,-38.944767,59.43941,-11.745138,4.016589,0.88971335,-3.7556229,-16.70852,31.246843,59.92432,-7.0033984,6.11199,-2.1550097
3,0.608403205871582,-2.2454097270965576,78.70386505126953,0.9927267928977074,-1.3596249707208798,93.33929272536808,4.752908,3.381347,8.906556,7.2914495,-10.700718,-4.7920275,4.219565,-9.237899,-17.72317,12.755465,-13.416385,7.2932005,-1.7254498,0.28180188,9.357544,-4.171346,17.424633,-38.979267,59.415424,-11.738278,4.0072236,0.86075604,-3.767226,-16.720268,31.215292,59.914444,-7.028549,6.1460333,-2.0780466
4,0.6305301189422607,-2.241614580154419,78.70123291015625,1.02037140820888,-1.3326687753442554,93.35096431840792,4.73581,3.3655088,8.896128,7.256216,-10.669634,-4.8177123,4.0883,-9.284365,-17.710869,12.988146,-13.538793,7.2617254,-1.7409756,0.2656822,9.351898,-4.201239,17.436737,-39.02103,59.395103,-11.735356,4.004436,0.8474731,-3.7600024,-16.734009,31.175146,59.885975,-7.049648,6.177671,-2.0148132
5,0.6541243195533752,-2.233726739883423,78.69808197021484,1.0475147523880235,-1.3234172328501834,93.37819433409943,4.739094,3.352385,8.88595,7.2265377,-10.64921,-4.8439116,4.0015063,-9.327537,-17.723766,13.187284,-13.661786,7.240381,-1.77914,0.24518384,9.360651,-4.2362914,17.4422,-39.046158,59.390125,-11.726097,4.0070057,0.8601653,-3.7631812,-16.741129,31.153717,59.8658,-7.0533123,6.2098646,-1.9668674
6,0.6800463795661926,-2.228719472885132,78.69461822509766,1.0760690305488332,-1.3269516558137968,93.41688577592976,4.7581244,3.3412075,8.875657,7.198721,-10.635672,-4.870544,3.9459171,-9.368242,-17.7549,13.363956,-13.785936,7.2261987,-1.8258903,0.22278656,9.380355,-4.2767487,17.446424,-39.070724,59.392124,-11.716714,4.013688,0.89122957,-3.76022,-16.747463,31.13113,59.83918,-7.050815,6.24128,-1.9280859
7,0.7109779119491577,-2.221090078353882,78.68938446044922,1.1025341226457783,-1.3333326949922024,93.46015942465547,4.780081,3.3332136,8.862277,7.172321,-10.623467,-4.9001427,3.902495,-9.404643,-17.793327,13.528194,-13.908001,7.21076,-1.8696468,0.20213486,9.401211,-4.3194227,17.449888,-39.097626,59.392746,-11.711296,4.025138,0.9212933,-3.7491124,-16.754393,31.107681,59.812317,-7.0458565,6.264495,-1.9037715
8,0.7452148199081421,-2.2119686603546143,78.6815414428711,1.1254752805103703,-1.3332222612049855,93.50111163822275,4.7936964,3.3302305,8.843076,7.146206,-10.607726,-4.935389,3.8539734,-9.433365,-17.82824,13.686343,-14.02272,7.185426,-1.9002752,0.18832622,9.410353,-4.3559093,17.451933,-39.12863,59.381886,-11.71351,4.042809,0.9318385,-3.7190945,-16.762287,31.079985,59.788155,-7.0493217,6.2707734,-1.8995064
9,0.7791588306427002,-2.2001867294311523,78.6748046875,1.141870463144531,-1.3225859664188164,93.54083843110504,4.7939696,3.3351648,8.814795,7.1189275,-10.584778,-4.983224,3.795897,-9.45092,-17.860325,13.837674,-14.126801,7.144418,-1.9372616,0.18700925,9.398187,-4.366333,17.451796,-39.13769,59.348152,-11.711658,4.0777497,0.9051502,-3.6934042,-16.766909,31.074938,59.800476,-7.056182,6.2464786,-1.9305345
10,0.8129944205284119,-2.186344861984253,78.6683349609375,1.1544863029605887,-1.3068414941876374,93.5815401923761,4.7874913,3.3464727,8.78018,7.0915856,-10.557925,-5.04012,3.736859,-9.460025,-17.893797,13.98026,-14.224051,7.093454,-1.9740181,0.19570258,9.372726,-4.362797,17.448946,-39.1398,59.300137,-11.711894,4.125876,0.85595125,-3.653027,-16.776785,31.079132,59.820187,-7.066162,6.200618,-1.9885557
11,0.849327564239502,-2.1704680919647217,78.66258239746094,1.1668098720080529,-1.2909118933586494,93.62152577459882,4.779407,3.3583062,8.742172,7.067728,-10.533535,-5.093069,3.681608,-9.466991,-17.925945,14.116464,-14.319015,7.0413837,-2.011315,0.20452851,9.346307,-4.3539844,17.445505,-39.134705,59.248413,-11.716887,4.1632113,0.81025946,-3.6155913,-16.783745,31.09034,59.84749,-7.0743194,6.1554866,-2.0480745
12,0.8872247338294983,-2.154860019683838,78.65736389160156,1.1844984498048339,-1.2795369802324816,93.65892335793227,4.773304,3.365447,8.703877,7.0530453,-10.518817,-5.12891,3.634826,-9.477906,-17.954218,14.248257,-14.416414,6.9971285,-2.0468938,0.20716767,9.326732,-4.34668,17.440273,-39.129444,59.204227,-11.732718,4.165617,0.79476637,-3.5789351,-16.792307,31.10025,59.865723,-7.0805697,6.133426,-2.0825543
13,0.9253149628639221,-2.135342836380005,78.65428161621094,1.2111444090851013,-1.2746118265075252,93.69090990862222,4.7690167,3.3635306,8.664738,7.053882,-10.520018,-5.133507,3.5993495,-9.49696,-17.974543,14.374376,-14.516709,6.9661746,-2.0743325,0.19656983,9.317908,-4.3478303,17.436216,-39.136353,59.175472,-11.766647,4.1092963,0.82631785,-3.5455067,-16.799028,31.100172,59.871353,-7.088089,6.1472287,-2.0791442
14,0.9657007455825806,-2.1134772300720215,78.65037536621094,1.2425441753492796,-1.2735268353519709,93.7191638410727,4.763207,3.3572206,8.623558,7.068401,-10.532874,-5.1175866,3.572726,-9.519112,-17.989456,14.493434,-14.617234,6.9426208,-2.095091,0.17772387,9.315054,-4.351478,17.434275,-39.14826,59.15306,-11.813147,4.013054,0.88714725,-3.5100942,-16.802462,31.094608,59.867535,-7.0969286,6.1829677,-2.0539668
15,1.0056102275848389,-2.0924577713012695,78.64573669433594,1.2758600641165863,-1.273215317874011,93.74875320278285,4.7610025,3.350871,8.582485,7.079048,-10.544404,-5.1045847,3.5468156,-9.541475,-18.005625,14.615191,-14.721801,6.918985,-2.0974774,0.15922086,9.312874,-4.366934,17.429506,-39.183205,59.136936,-11.875581,3.916,0.95519954,-3.4576776,-16.811764,31.068457,59.853012,-7.1058908,6.221792,-2.022335
16,1.0455583333969116,-2.0704102516174316,78.6415786743164,1.3013158627528907,-1.272880274883508,93.78499125062358,4.7643814,3.3534515,8.542867,7.078944,-10.546679,-5.118822,3.522551,-9.555266,-18.031246,14.73518,-14.826943,6.8870764,-2.1139786,0.14795944,9.315459,-4.3766465,17.42732,-39.19027,59.105892,-11.935975,3.8586743,1.0019157,-3.4182823,-16.815275,31.054457,59.857956,-7.1085196,6.244838,-2.0030892
17,1.0910563468933105,-2.0502102375030518,78.63931274414062,1.3179916465608796,-1.2735899218124311,93.83263633969938,4.781423,3.367339,8.505912,7.0541325,-10.530447,-5.1751733,3.501502,-9.558591,-18.073645,14.854025,-14.934643,6.843815,-2.13068,0.15003105,9.32204,-4.386454,17.423595,-39.180798,59.054897,-12.006241,3.8643513,1.0189042,-3.381564,-16.819872,31.036047,59.88316,-7.097133,6.242856,-2.0055602
18,1.1376662254333496,-2.0336718559265137,78.6319351196289,1.3278075449044586,-1.2758767814089413,93.88749132869219,4.8071656,3.3885326,8.470874,7.0160184,-10.503942,-5.2579846,3.4841104,-9.5554085,-18.12637,14.972239,-15.045121,6.793839,-2.1546104,0.16685688,9.344558,-4.405167,17.407188,-39.133,58.995926,-12.069092,3.9071984,1.0154392,-3.3441865,-16.837831,31.00546,59.901966,-7.088927,6.227963,-2.0128357
19,1.1799103021621704,-2.018637180328369,78.62391662597656,1.3381233736782054,-1.275362758230118,93.94245974776962,4.826105,3.412467,8.435193,6.9864073,-10.481688,-5.34486,3.4597216,-9.550899,-18.177418,15.098687,-15.159177,6.7410636,-2.1887476,0.18635847,9.360499,-4.4159956,17.38556,-39.08025,58.941593,-12.123131,3.9528923,1.0109361,-3.3121476,-16.858227,30.996815,59.928623,-7.073503,6.2120366,-2.0178466
20,1.2288185358047485,-1.9989769458770752,78.61656188964844,1.3559825981436446,-1.267314355921091,93.99004496238747,4.8226023,3.4326813,8.397141,6.9853415,-10.47671,-5.413339,3.4114535,-9.553879,-18.212599,15.255102,-15.282436,6.689521,-2.2145355,0.19364527,9.364272,-4.422763,17.374128,-39.063175,58.89906,-12.161091,3.9700835,1.019357,-3.285994,-16.868267,30.993778,59.962772,-7.067997,6.2045755,-2.005057
21,1.2792912721633911,-1.976973056793213,78.60912322998047,1.3809114790684585,-1.2487750975181113,94.0251484714841,4.804023,3.4454224,8.356584,6.990379,-10.479585,-5.4521465,3.3352072,-9.564364,-18.222322,15.440014,-15.414598,6.640512,-2.230917,0.19171864,9.353454,-4.4287744,17.362637,-39.084076,58.88569,-12.161397,3.938472,1.0520612,-3.2567794,-16.878761,30.99398,59.987076,-7.083499,6.214701,-1.9526461
22,1.3321584463119507,-1.9498711824417114,78.59847259521484,1.4124082992998326,-1.2229370935610901,94.0523828771063,4.772262,3.4545276,8.314495,7.005464,-10.490234,-5.474916,3.236499,-9.580135,-18.215166,15.651764,-15.55548,6.591878,-2.2372472,0.18224163,9.331271,-4.4354606,17.354448,-39.141174,58.88956,-12.145162,3.880115,1.0997328,-3.2237039,-16.887016,30.99221,60.009117,-7.114742,6.23409,-1.875073
23,1.3898173570632935,-1.9234544038772583,78.58740997314453,1.444672952128114,-1.193938260935926,94.08063916315763,4.721612,3.466424,8.270171,7.0528684,-10.517267,-5.497074,3.128392,-9.598018,-18.208395,15.877795,-15.703736,6.542123,-2.2236629,0.17226672,9.304894,-4.455211,17.342926,-39.231388,58.90712,-12.127968,3.820479,1.1436126,-3.1735227,-16.898895,30.974468,60.018063,-7.1468744,6.25066,-1.8036125
24,1.4458364248275757,-1.893893837928772,78.57810974121094,1.472928144530471,-1.1664932929129839,94.1186331335709,4.6640587,3.4858358,8.224086,7.1185365,-10.549465,-5.5340195,3.027406,-9.612595,-18.21986,16.099466,-15.854309,6.489927,-2.2288504,0.16411367,9.288469,-4.468709,17.336475,-39.279594,58.90839,-12.104266,3.7865653,1.1562271,-3.1383233,-16.905827,30.970846,60.03365,-7.167572,6.25277,-1.7712456
25,1.5060893297195435,-1.8653879165649414,78.56954956054688,1.495527571962335,-1.1406116223734886,94.17309982017728,4.588327,3.5164177,8.173788,7.224587,-10.595763,-5.594325,2.932508,-9.624614,-18.259745,16.32257,-16.011757,6.4353423,-2.2493954,0.16163133,9.282638,-4.4823136,17.33171,-39.290115,58.888794,-12.079719,3.7917604,1.1235219,-3.1136103,-16.911057,30.97957,60.05815,-7.170376,6.23059,-1.7977879
26,1.57111656665802,-1.8461400270462036,78.55867004394531,1.51624406260898,-1.1139389582597972,94.23788170325136,4.4982452,3.5542321,8.12034,7.35768,-10.6514435,-5.668332,2.8380473,-9.635167,-18.316996,16.549574,-16.17452,6.378891,-2.2851467,0.16308632,9.280798,-4.49465,17.325478,-39.271915,58.862087,-12.048057,3.818537,1.0602425,-3.0956318,-16.91778,31.008955,60.083935,-7.1557236,6.1941533,-1.8629376
27,1.634508728981018,-1.8289331197738647,78.54736328125,1.5358784801187666,-1.0882957509340334,94.30215411779844,4.4030514,3.5955698,8.067461,7.5068693,-10.715911,-5.7438936,2.7468073,-9.643917,-18.376482,16.774944,-16.338827,6.320365,-2.3359048,0.16597353,9.281652,-4.496673,17.318024,-39.22853,58.834522,-12.0096035,3.8500433,0.99151206,-3.0886385,-16.926569,31.05322,60.110428,-7.1351547,6.156784,-1.9373071
28,1.7025259733200073,-1.804350733757019,78.53376770019531,1.557438689175414,-1.0649857933246363,94.35506380898002,4.324939,3.6350837,8.019777,7.632553,-10.772631,-5.809002,2.6656072,-9.648369,-18.424215,16.98311,-16.495325,6.259304,-2.3701735,0.16380045,9.282782,-4.4949927,17.313993,-39.19965,58.81928,-11.972522,3.869089,0.94505566,-3.077855,-16.932201,31.078787,60.124607,-7.116528,6.132361,-1.9914094
29,1.769930124282837,-1.7758084535598755,78.52362823486328,1.5840212214654827,-1.0461456711477835,94.39200058227219,4.271143,3.6696022,7.978246,7.7253466,-10.819626,-5.855937,2.5959842,-9.650709,-18.455149,17.174854,-16.64448,6.1946077,-2.390503,0.15411761,9.282281,-4.4846044,17.311872,-39.186386,58.824203,-11.929852,3.868695,0.92862993,-3.0617151,-16.937529,31.088383,60.12338,-7.1018486,6.1257124,-2.0210602
30,1.8380258083343506,-1.7348520755767822,78.5143051147461,1.6122270037188098,-1.0307365297752062,94.41932025991807,4.231607,3.7024977,7.9407005,7.8029118,-10.863444,-5.892653,2.536694,-9.650355,-18.477377,17.352715,-16.788134,6.126808,-2.3986502,0.14035141,9.283007,-4.4722147,17.311943,-39.18697,58.84331,-11.886846,3.8588133,0.9282457,-3.0408833,-16.940706,31.084114,60.10971,-7.0873656,6.128378,-2.0401154
31,1.9124153852462769,-1.6921300888061523,78.5043716430664,1.6400904364283593,-1.0140923734455765,94.4429990670117,4.1943774,3.7389803,7.9057045,7.8762417,-10.904983,-5.930578,2.4814,-9.643936,-18.496258,17.51931,-16.927324,6.058056,-2.4004912,0.12615985,9.282234,-4.458536,17.313314,-39.189556,58.86851,-11.85392,3.8467522,0.93732846,-3.0197246,-16.943092,31.069983,60.08903,-7.071957,6.1374516,-2.048991
32,1.9879072904586792,-1.6597094535827637,78.49302673339844,1.6623606926970163,-0.9922605521320228,94.46886969867897,4.145525,3.7850955,7.8717713,7.9635315,-10.949035,-5.981266,2.4275868,-9.626824,-18.517275,17.6708,-17.059223,5.99053,-2.38929,0.11683004,9.285422,-4.452117,17.319529,-39.19227,58.885395,-11.841848,3.8404949,0.9474396,-2.9870172,-16.94912,31.021658,60.04818,-7.0700793,6.148081,-2.0431948
33,2.0733394622802734,-1.6286234855651855,78.48275756835938,1.6787240626854405,-0.9663786109009382,94.4977210061178,4.084739,3.8437266,7.8398366,8.068253,-10.995628,-6.0513434,2.3765688,-9.596543,-18.54075,17.807117,-17.18378,5.9265065,-2.388603,0.11599875,9.2886095,-4.44221,17.326372,-39.170902,58.889416,-11.866783,3.847981,0.9589658,-2.9677107,-16.953285,30.971094,60.009586,-7.066061,6.1651864,-2.017425
34,2.1542367935180664,-1.59115731716156,78.4716567993164,1.689581058879338,-0.9374916052983029,94.52660246876482,4.024788,3.9102776,7.810812,8.167766,-11.038675,-6.1336136,2.3293254,-9.555937,-18.564135,17.928827,-17.301523,5.864283,-2.3937073,0.12022358,9.2890415,-4.42683,17.333048,-39.132954,58.888783,-11.916611,3.8627813,0.9752802,-2.9511468,-16.955713,30.913452,59.966736,-7.0646486,6.1888313,-1.9749444
35,2.230635643005371,-1.545164942741394,78.46026611328125,1.6994203214179686,-0.9042490867372396,94.55675978086603,3.954165,3.982187,7.7809253,8.279477,-11.084352,-6.2185144,2.2839127,-9.508411,-18.589216,18.036398,-17.413364,5.8000407,-2.3993673,0.12674157,9.290518,-4.4093757,17.340727,-39.087498,58.89085,-11.962706,3.8700235,0.99489266,-2.938997,-16.957518,30.852383,59.922955,-7.0668707,6.2088265,-1.933342
36,2.313168525695801,-1.503253698348999,78.448974609375,1.7090352566970433,-0.8644811658135171,94.58921994581509,3.865441,4.0561967,7.746628,8.41109,-11.135483,-6.296605,2.2381933,-9.457283,-18.618397,18.129438,-17.51973,5.72997,-2.4060044,0.13276379,9.291907,-4.3865356,17.356096,-39.040462,58.90134,-11.979133,3.8538713,1.015754,-2.9291108,-16.96022,30.795446,59.881138,-7.072228,6.2144055,-1.9107857
37,2.401428699493408,-1.4671071767807007,78.44165802001953,1.7210893936188578,-0.8199456320410081,94.62577839984276,3.7566602,4.1309156,7.705621,8.569448,-11.19628,-6.3625703,2.194792,-9.404387,-18.653341,18.20798,-17.622221,5.652458,-2.4204547,0.13585484,9.287251,-4.3500423,17.380116,-39.001358,58.92612,-11.961935,3.7941968,1.0451523,-2.9245033,-16.96317,30.769659,59.851265,-7.0634923,6.195738,-1.9250518
38,2.49657940864563,-1.430611252784729,78.43499755859375,1.7319145251707768,-0.7707280436165811,94.66516548111859,3.6330025,4.2077503,7.660411,8.746475,-11.263074,-6.4221807,2.1527376,-9.34821,-18.692093,18.274496,-17.719732,5.5698247,-2.431739,0.14116575,9.269281,-4.322686,17.387392,-38.983967,58.99639,-11.931436,3.7010474,1.0853145,-2.920759,-16.963564,30.762785,59.837616,-7.039944,6.160512,-1.9644046
39,2.587214946746826,-1.390140175819397,78.42799377441406,1.742182619200406,-0.7129790034723691,94.70494050722876,3.4912267,4.2899103,7.613448,8.938922,-11.331579,-6.482928,2.10852,-9.284716,-18.732807,18.32349,-17.810831,5.4839025,-2.4614692,0.14588742,9.261448,-4.2638755,17.425165,-38.92208,59.021248,-11.876217,3.617571,1.1169821,-2.935544,-16.964659,30.763365,59.82001,-7.0293875,6.1274,-2.0004559
40,2.678915500640869,-1.3467481136322021,78.42285919189453,1.748821461761898,-0.6431995809168511,94.74147964069346,3.3345182,4.3775086,7.5688753,9.134894,-11.394474,-6.55193,2.05191,-9.214489,-18.77036,18.36583,-17.896185,5.396895,-2.478506,0.15641885,9.242991,-4.211174,17.454996,-38.865574,59.051804,-11.832578,3.5745053,1.1432359,-2.9476538,-16.965271,30.74836,59.80059,-7.034211,6.115734,-2.0171938
41,2.7686469554901123,-1.3058005571365356,78.41573333740234,1.7536664569408615,-0.5581969817937277,94.77336408970109,3.17043,4.4674606,7.529879,9.311204,-11.4398985,-6.6318116,1.9806564,-9.137877,-18.803822,18.397718,-17.974575,5.310713,-2.4921055,0.17141682,9.221802,-4.1460156,17.494587,-38.79424,59.049797,-11.784145,3.5984402,1.1555419,-2.9727314,-16.966768,30.717825,59.777073,-7.059674,6.139547,-1.9964676
42,2.868196725845337,-1.2624708414077759,78.4102783203125,1.7578958378306346,-0.4607088162151222,94.80243371149703,2.997087,4.560176,7.493886,9.477531,-11.473654,-6.7185764,1.8989754,-9.055133,-18.835087,18.418362,-18.046404,5.2237954,-2.4994662,0.19001628,9.193739,-4.078923,17.534283,-38.720432,59.0424,-11.731117,3.6632907,1.1596563,-2.9983988,-16.969458,30.672066,59.7478,-7.1039033,6.185497,-1.9534135
43,2.9680192470550537,-1.2199543714523315,78.40579986572266,1.7573237582067487,-0.3559290431392498,94.83101804226204,2.7985232,4.66233,7.4551535,9.678338,-11.517402,-6.809824,1.8113223,-8.963822,-18.866632,18.431116,-18.111862,5.1329856,-2.5033977,0.21412453,9.170663,-4.004165,17.584845,-38.626453,59.015694,-11.686491,3.7364125,1.1605815,-3.026395,-16.975073,30.620028,59.711517,-7.158067,6.2320995,-1.9108958
44,3.066133975982666,-1.1822435855865479,78.40108489990234,1.7482645768762592,-0.2489134860956085,94.86131097941343,2.5530345,4.781234,7.4073186,9.969908,-11.599108,-6.9031425,1.7209654,-8.861594,-18.900639,18.442276,-18.173063,5.035089,-2.5006442,0.24836995,9.153942,-3.934943,17.629158,-38.50683,58.995865,-11.663625,3.781774,1.1667525,-3.0529876,-16.982513,30.568026,59.676384,-7.214169,6.2578726,-1.8942766
45,3.163064956665039,-1.1448009014129639,78.39521026611328,1.729293923012411,-0.14041539325878408,94.89295417638566,2.25856,4.9211144,7.350199,10.360208,-11.725181,-7.001393,1.6284897,-8.744527,-18.935532,18.451885,-18.227102,4.924891,-2.4985013,0.29422897,9.151902,-3.8554268,17.6848,-38.34214,58.956455,-11.686196,3.777961,1.1923457,-3.086936,-16.995472,30.529533,59.63815,-7.2474494,6.250113,-1.9289341
46,3.2654075622558594,-1.1085758209228516,78.38636016845703,1.70062671829319,-0.027719987714792546,94.92494344362716,1.9237726,5.077239,7.2862167,10.825228,-11.883443,-7.104681,1.5317216,-8.61523,-18.970901,18.458326,-18.27463,4.805593,-2.4945433,0.35053274,9.156068,-3.770749,17.742306,-38.145275,58.909428,-11.740266,3.7470613,1.2303284,-3.11629,-17.012062,30.491524,59.59131,-7.276556,6.222777,-1.9960482
47,3.375067949295044,-1.074841022491455,78.37718963623047,1.6686268689725858,0.08836076899892366,94.9588845702811,1.5549511,5.2427683,7.2138224,11.347003,-12.05816,-7.2066097,1.4358091,-8.477925,-19.011679,18.452345,-18.31651,4.686299,-2.4913352,0.41248518,9.168263,-3.6795073,17.806591,-37.919636,58.847275,-11.776804,3.7244537,1.2484277,-3.1472313,-17.033787,30.454681,59.54144,-7.332172,6.194469,-2.049618
48,3.4849205017089844,-1.0353140830993652,78.37151336669922,1.6361033290827414,0.2073370305072231,94.99631197607873,1.1602991,5.410292,7.1321163,11.905571,-12.234002,-7.2993436,1.3448503,-8.337686,-19.062965,18.42673,-18.353874,4.5763035,-2.4771883,0.477092,9.181453,-3.6054616,17.854673,-37.688072,58.804134,-11.746852,3.743048,1.2186791,-3.1792357,-17.05253,30.40401,59.50546,-7.4505434,6.183186,-2.0457263
49,3.5857081413269043,-0.9962120056152344,78.36279296875,1.6021327450773604,0.33155422264114776,95.04319400980481,0.7290005,5.5808563,7.033157,12.508749,-12.419178,-7.3773108,1.2613584,-8.191991,-19.135687,18.37017,-18.385155,4.482653,-2.474957,0.54373974,9.204636,-3.5234804,17.912241,-37.40373,58.732758,-11.596397,3.8347735,1.0975552,-3.2193458,-17.076683,30.352888,59.476357,-7.6731057,6.20029,-1.9418304
50,3.697432279586792,-0.9887173771858215,78.35575103759766,1.5649678271441354,0.4605205961924098,95.0968586248802,0.2636587,5.757123,6.919991,13.157309,-12.614823,-7.4456,1.1822729,-8.039559,-19.223946,18.28956,-18.409832,4.398982,-2.4681227,0.6146186,9.232778,-3.450619,17.964909,-37.09274,58.660088,-11.36904,3.9721928,0.91485536,-3.2635283,-17.099764,30.291502,59.458755,-7.9707193,6.2327285,-1.772884
51,3.81805419921875,-0.9672057032585144,78.34915161132812,1.528435808089967,0.5894158475782604,95.14578936359038,-0.21557215,5.934459,6.805958,13.835984,-12.802898,-7.516498,1.1062704,-7.8851185,-19.307869,18.200567,-18.430132,4.313883,-2.4652605,0.68622434,9.268515,-3.3590887,18.030092,-36.7725,58.567974,-11.142205,4.109761,0.7339233,-3.3045917,-17.129665,30.238386,59.428913,-8.268976,6.265272,-1.6033468
52,3.9278335571289062,-0.9208341836929321,78.34193420410156,1.4961311884714035,0.713378879023426,95.17839683702485,-0.69120467,6.109785,6.704142,14.5346365,-12.966729,-7.603886,1.0307301,-7.7335367,-19.367743,18.121145,-18.449045,4.215962,-2.4369955,0.75725335,9.308762,-3.2698267,18.093485,-36.514015,58.494537,-11.005883,4.1995583,0.62649125,-3.3646088,-17.16249,30.204662,59.41002,-8.463823,6.2824817,-1.5008373
53,4.030511379241943,-0.8732203245162964,78.33784484863281,1.465755922036689,0.831942747886957,95.18702440418497,-1.1516585,6.2856307,6.623947,15.238839,-13.098843,-7.7168326,0.95210993,-7.582483,-19.39123,18.058367,-18.465353,4.0964985,-2.388517,0.83089256,9.352154,-3.1644356,18.165108,-36.32367,58.424328,-10.999834,4.2216587,0.62303776,-3.4150653,-17.205936,30.182434,59.364594,-8.540681,6.2797475,-1.4884571
54,4.141571521759033,-0.8379510641098022,78.33160400390625,1.4367360727716576,0.9473267814288422,95.1792525445141,-1.6100512,6.4626365,6.556299,15.961549,-13.210096,-7.846726,0.87382185,-7.430121,-19.39138,17.999237,-18.476805,3.9634001,-2.3166518,0.90810794,9.401,-3.0571065,18.238617,-36.185883,58.362106,-11.074489,4.2032747,0.6841326,-3.4741294,-17.257935,30.172413,59.31519,-8.531413,6.265434,-1.5288898
55,4.254607677459717,-0.8000582456588745,78.32614135742188,1.4136550122065243,1.059011755355611,95.16674841752236,-2.074604,6.6339135,6.4880996,16.709484,-13.30427,-7.980635,0.80047673,-7.2838783,-19.385986,17.940575,-18.488958,3.8303862,-2.235062,0.9823261,9.456566,-2.9479594,18.313416,-36.069675,58.30788,-11.173885,4.171776,0.7675492,-3.5352814,-17.315958,30.172256,59.265923,-8.490523,6.2466397,-1.5953008
56,4.363042831420898,-0.7438892722129822,78.32283782958984,1.4016912305946763,1.166354300569569,95.16091775974375,-2.5523777,6.7920365,6.4062204,17.487316,-13.383978,-8.105085,0.73981506,-7.150318,-19.392912,17.871925,-18.503809,3.7112095,-2.1553712,1.0455915,9.52006,-2.840608,18.38818,-35.947853,58.264618,-11.244307,4.154785,0.8315997,-3.601513,-17.376068,30.182547,59.23143,-8.467337,6.230222,-1.6616147
57,4.4755988121032715,-0.6938961148262024,78.32235717773438,1.4049338280608503,1.2687885292603684,95.16498436831704,-3.0406768,6.932707,6.311287,18.289421,-13.451078,-8.212379,0.69316167,-7.035326,-19.419495,17.79301,-18.524181,3.611091,-2.0793471,1.092617,9.592113,-2.7396035,18.459164,-35.814835,58.24009,-11.272826,4.1635714,0.8694392,-3.6729062,-17.432428,30.208654,59.21784,-8.472341,6.214628,-1.7365588
58,4.58792781829834,-0.6544771790504456,78.32389831542969,1.4196829500307957,1.3667750924422364,95.17292906968721,-3.5341492,7.0604067,6.2092705,19.108969,-13.502642,-8.310688,0.65787065,-6.9335775,-19.455275,17.706093,-18.547039,3.5221436,-2.003353,1.1274223,9.668584,-2.6433375,18.524729,-35.684483,58.237953,-11.288321,4.1817226,0.90238035,-3.7453952,-17.483284,30.24554,59.219982,-8.487736,6.1971517,-1.830091
59,4.700092792510986,-0.6080952286720276,78.32709503173828,1.4394289794296162,1.4612607209778863,95.1819973105074,-4.0453596,7.181988,6.093968,19.968012,-13.53702,-8.41,0.63025004,-6.8364406,-19.4917,17.614779,-18.570429,3.4386332,-1.9231455,1.1589173,9.748502,-2.5531933,18.58351,-35.56234,58.25522,-11.296543,4.195247,0.931882,-3.8438814,-17.527454,30.295105,59.256573,-8.490982,6.1831017,-1.9179419
60,4.813443660736084,-0.5526018738746643,78.330078125,1.4574815361131517,1.5532603818621864,95.18946335198163,-4.5831122,7.3036985,5.9595165,20.879612,-13.552354,-8.520283,0.6058184,-6.7357473,-19.519398,17.525053,-18.594042,3.3548057,-1.8567401,1.1944032,9.834226,-2.4307024,18.663246,-35.42481,58.24057,-11.300998,4.1932783,0.9538108,-3.9353971,-17.5819,30.340054,59.2768,-8.502394,6.178872,-1.971648
61,4.930433750152588,-0.49470093846321106,78.33113098144531,1.4742256704836223,1.6412861689019018,95.19499393588082,-5.1480527,7.4236255,5.7990184,21.845787,-13.551205,-8.636983,0.5886745,-6.630135,-19.535229,17.430405,-18.6134,3.272861,-1.7896581,1.2342297,9.9186325,-2.3036742,18.742252,-35.297985,58.23562,-11.309457,4.1617265,0.9712665,-4.024821,-17.62852,30.35622,59.30731,-8.532035,6.1871114,-1.9800467
62,5.049235820770264,-0.44323819875717163,78.3335952758789,1.4927531882877474,1.7254252258799485,95.20003904567074,-5.736441,7.5396714,5.6169624,22.860003,-13.533693,-8.756018,0.5781401,-6.5241776,-19.544178,17.333254,-18.63168,3.1945875,-1.7205791,1.2752701,10.00595,-2.1757705,18.818808,-35.1786,58.241913,-11.3159075,4.110552,0.9845765,-4.140899,-17.666727,30.373268,59.371807,-8.5531645,6.203977,-1.9594742
63,5.1608781814575195,-0.38864997029304504,78.32964324951172,1.509663056759872,1.8088272789601738,95.20419794201135,-6.347676,7.6569138,5.424756,23.91972,-13.492482,-8.888249,0.56917286,-6.4167542,-19.550156,17.238634,-18.651775,3.1136281,-1.6529515,1.3164243,10.088305,-2.0379763,18.896206,-35.0594,58.252052,-11.315501,4.0589547,0.9950806,-4.2383676,-17.700087,30.3778,59.42638,-8.592257,6.2248144,-1.9289713
64,5.277247905731201,-0.3214803636074066,78.325439453125,1.5230713087613406,1.8944819256686527,95.20714722166932,-6.9836903,7.7809005,5.2333517,25.027315,-13.422456,-9.044888,0.55445313,-6.307175,-19.556929,17.156263,-18.679102,3.023512,-1.5755231,1.3593816,10.166583,-1.8966724,18.973078,-34.945225,58.262917,-11.302925,4.0254645,1.0059382,-4.341035,-17.73104,30.399023,59.48326,-8.609344,6.244084,-1.908185
65,5.373342514038086,-0.2805531919002533,78.31583404541016,1.5299679046062669,1.9913696304370652,95.20727501613226,-7.65101,7.916438,5.050852,26.180243,-13.318021,-9.248919,0.5179388,-6.1947684,-19.563051,17.095314,-18.71495,2.9173334,-1.4851862,1.4072994,10.23317,-1.7513205,19.050167,-34.83266,58.27179,-11.268231,4.0223074,1.0115134,-4.4353952,-17.762953,30.434052,59.5303,-8.609459,6.261277,-1.9056613
66,5.483797073364258,-0.22411872446537018,78.30792999267578,1.5327113150370337,2.0951542297562047,95.2052619844572,-8.34702,8.059223,4.8688912,27.378899,-13.185417,-9.4867735,0.46817455,-6.0799627,-19.567055,17.04868,-18.756842,2.7999969,-1.3821704,1.4603803,10.293123,-1.6071438,19.12325,-34.725906,58.28603,-11.216836,4.036476,1.0133089,-4.541859,-17.795498,30.488153,59.58755,-8.582005,6.2787986,-1.9099795
67,5.603907108306885,-0.14395040273666382,78.2984390258789,1.535574257363219,2.1890584384083764,95.20433768133228,-9.058049,8.200691,4.674175,28.627846,-13.03038,-9.716202,0.43500933,-5.964982,-19.5735,17.000277,-18.80288,2.6837182,-1.2795365,1.5124952,10.354905,-1.4597415,19.18837,-34.625084,58.31264,-11.166811,4.0499372,1.0223333,-4.6421676,-17.825499,30.54462,59.640087,-8.552974,6.2967825,-1.9098711
68,5.72382116317749,-0.048302095383405685,78.29046630859375,1.5429687142680413,2.2562542827045915,95.2075996171341,-9.765373,8.33155,4.4546537,29.920794,-12.857649,-9.897137,0.4485363,-5.851335,-19.586674,16.934237,-18.851374,2.5800126,-1.1904259,1.5566729,10.4320545,-1.297495,19.251642,-34.52614,58.343124,-11.135167,4.0456815,1.0487798,-4.738348,-17.853374,30.602224,59.684334,-8.529437,6.3150244,-1.8936938
69,5.839658260345459,0.04096279293298721,78.28081512451172,1.553088082055463,2.2857833880605987,95.21723162140624,-10.4586735,8.449356,4.1994424,31.259398,-12.668299,-10.019926,0.52836746,-5.7351637,-19.60966,16.836252,-18.89767,2.4921706,-1.1272638,1.5892575,10.535015,-1.1036749,19.326355,-34.416237,58.36068,-11.1256275,4.020206,1.0923862,-4.800164,-17.879574,30.640066,59.687935,-8.5400715,6.3369303,-1.8459283
70,5.95713996887207,0.1200900673866272,78.27037048339844,1.5664873636681653,2.2887087920243636,95.23101848329168,-11.1466055,8.557034,3.9186625,32.639545,-12.457312,-10.109263,0.657712,-5.6151404,-19.639841,16.711094,-18.942133,2.4136326,-1.0680377,1.6151872,10.6597395,-0.9022647,19.40373,-34.313488,58.379993,-11.130865,3.981828,1.1504176,-4.893837,-17.90005,30.69994,59.713173,-8.5199,6.36063,-1.7782197
71,6.073879241943359,0.2257249802350998,78.2638168334961,1.5812426988231578,2.281584709898433,95.2461705965172,-11.839297,8.654286,3.6318731,34.046787,-12.219138,-10.176173,0.80224216,-5.5001736,-19.671268,16.59312,-18.996634,2.3417053,-1.0123771,1.6366136,10.784541,-0.6909726,19.476767,-34.220325,58.404953,-11.148054,3.9338648,1.2223915,-4.9923244,-17.915354,30.769598,59.743504,-8.496289,6.3803277,-1.7155051
72,6.184821605682373,0.33923861384391785,78.2523422241211,1.5993070894122214,2.2808776448784207,95.25962278265345,-12.5478945,8.742097,3.3583074,35.468594,-11.949298,-10.229583,0.9323578,-5.3972874,-19.698708,16.506163,-19.071968,2.2737129,-0.9566082,1.6538984,10.897786,-0.46226606,19.555489,-34.140167,58.416256,-11.177251,3.8812847,1.3064454,-5.111082,-17.931282,30.869646,59.78726,-8.452453,6.3898215,-1.6818802
73,6.296855926513672,0.43812260031700134,78.23092651367188,1.619535704067578,2.292896867196921,95.272575748941,-13.284388,8.81952,3.089883,36.911552,-11.638814,-10.263524,1.0393788,-5.306621,-19.722374,16.454498,-19.170845,2.2092345,-0.91255283,1.6698049,10.975501,-0.20942746,19.625628,-34.07832,58.436546,-11.229161,3.8118157,1.4204957,-5.128957,-17.946636,30.91562,59.753147,-8.504812,6.385891,-1.6915463
74,6.402015686035156,0.5552776455879211,78.20784759521484,1.6415290885349785,2.3083264750846872,95.28596060072213,-14.039617,8.88686,2.821154,38.37814,-11.291668,-10.27545,1.1397196,-5.2246933,-19.744663,16.42549,-19.287817,2.1496065,-0.8552755,1.6871624,11.048274,0.035804763,19.686583,-34.05273,58.46955,-11.303277,3.7262807,1.5616765,-5.2188883,-17.965515,31.023912,59.777416,-8.483505,6.3711777,-1.7300029
75,6.49734354019165,0.6865769624710083,78.18648529052734,1.6682478374120207,2.3199112966454116,95.2966443969377,-14.795715,8.948796,2.5743213,39.85679,-10.927249,-10.277319,1.2405573,-5.154414,-19.763327,16.419453,-19.421131,2.0951407,-0.7899274,1.7018833,11.118301,0.28007713,19.736563,-34.03367,58.507553,-11.371341,3.6489277,1.6934469,-5.336633,-17.986032,31.157722,59.825752,-8.431917,6.3525558,-1.7745824
76,6.59040641784668,0.8161531090736389,78.16326904296875,1.7013425959332888,2.3203277466474668,95.30169625502172,-15.534527,9.010573,2.3715045,41.3347,-10.564121,-10.280523,1.3495713,-5.098689,-19.776344,16.435553,-19.56829,2.0460837,-0.7327301,1.7070385,11.182207,0.5446348,19.7801,-33.98154,58.534554,-11.406651,3.6052263,1.7777069,-5.37712,-18.00722,31.23724,59.8119,-8.454737,6.3377895,-1.8016489
77,6.683134078979492,0.9555565118789673,78.13368225097656,1.7418893753140856,2.3054029886335496,95.29733795576463,-16.250914,9.072864,2.2070162,42.812645,-10.192539,-10.291369,1.4687016,-5.0570583,-19.778467,16.47846,-19.731426,2.0006044,-0.6554402,1.7030917,11.252758,0.798847,19.81299,-33.91286,58.56262,-11.393465,3.6109877,1.798422,-5.4236407,-18.028101,31.307953,59.809643,-8.466459,6.3251095,-1.8068737
78,6.774502754211426,1.0951076745986938,78.10861206054688,1.7881286555178597,2.2798784933509753,95.28614637817009,-16.954887,9.134899,2.0729249,44.296352,-9.807424,-10.301262,1.5945655,-5.02828,-19.772696,16.545637,-19.910511,1.959202,-0.5799864,1.6920546,11.336899,1.0744251,19.856361,-33.810345,58.552155,-11.34481,3.6520739,1.7733808,-5.510049,-18.061798,31.42322,59.824516,-8.42921,6.3126097,-1.8003738
79,6.8573317527771,1.246977686882019,78.08929443359375,1.8417394524901036,2.2497474766486794,95.2745482248899,-17.652626,9.201395,1.9871027,45.786503,-9.438411,-10.298074,1.7222296,-5.0155425,-19.768082,16.635098,-20.10218,1.9255058,-0.48440868,1.6749467,11.415335,1.3344234,19.88175,-33.728874,58.56111,-11.298728,3.6999533,1.7346272,-5.613046,-18.08889,31.535637,59.864304,-8.3810215,6.301859,-1.7881573
80,6.931979179382324,1.4076029062271118,78.05901336669922,1.9023798187438579,2.221137746006766,95.26906417904823,-18.350624,9.278419,1.9672168,47.284676,-9.115614,-10.2682705,1.8521624,-5.0200667,-19.77444,16.733757,-20.302834,1.9030544,-0.4108198,1.6503452,11.475168,1.6246952,19.897776,-33.64086,58.563194,-11.280606,3.730766,1.7039505,-5.6531243,-18.113415,31.609585,59.852814,-8.411043,6.2975,-1.7725384
81,7.011270523071289,1.5648337602615356,78.0290298461914,1.9740642212429895,2.1949599793476384,95.27184926534272,-19.059765,9.374843,2.0304728,48.818165,-8.830612,-10.206121,1.9791667,-5.0483613,-19.79778,16.85317,-20.521252,1.8945913,-0.36874238,1.6204236,11.538331,1.967672,19.920155,-33.52272,58.512547,-11.299763,3.7375937,1.6842728,-5.7430987,-18.160414,31.753017,59.854557,-8.401806,6.305316,-1.7505864
82,7.079459190368652,1.7400500774383545,78.00167846679688,2.055208314095049,2.1680939647855477,95.2792271065381,-19.773668,9.490395,2.1628487,50.380123,-8.574857,-10.114063,2.1058822,-5.0975204,-19.831953,16.992828,-20.757025,1.897598,-0.31381223,1.5810498,11.587767,2.3077078,19.928999,-33.433914,58.476246,-11.354356,3.7321982,1.6690408,-5.8158846,-18.198195,31.8663,59.85506,-8.423979,6.3201833,-1.7241621
83,7.145793914794922,1.914210557937622,77.9742660522461,2.138817014471675,2.1409968466239895,95.28880459616208,-20.473139,9.617796,2.3346155,51.918777,-8.377147,-9.992446,2.2362378,-5.155125,-19.868206,17.139917,-20.988935,1.9074702,-0.26437527,1.538559,11.627936,2.6582527,19.930101,-33.347626,58.436985,-11.410259,3.7237377,1.6512481,-5.8663893,-18.234863,31.96751,59.834522,-8.472211,6.333324,-1.6944582
84,7.203790664672852,2.0979042053222656,77.94782257080078,2.2179109791041363,2.114065189847793,95.29795193749703,-21.13952,9.746326,2.5165112,53.38233,-8.266067,-9.84516,2.384965,-5.205622,-19.898924,17.255339,-21.191183,1.9197317,-0.21453333,1.5001173,11.666998,3.0071084,19.925455,-33.26622,58.393852,-11.43969,3.7204978,1.6266304,-5.929613,-18.28166,32.089195,59.811245,-8.497519,6.3349433,-1.6626396
85,7.256477355957031,2.301140069961548,77.92542266845703,2.2882847174775844,2.086841222076747,95.31021980769042,-21.77462,9.893954,2.7270343,54.78974,-8.255158,-9.659296,2.5557778,-5.2416058,-19.926508,17.333984,-21.36268,1.9244388,-0.1425698,1.4663899,11.705408,3.3307824,19.91714,-33.217876,58.361614,-11.436661,3.725733,1.5931097,-6.017732,-18.327276,32.22546,59.803486,-8.483201,6.3134246,-1.628913
86,7.306278705596924,2.495940685272217,77.90210723876953,2.3531620823162824,2.0592649626764135,95.3254072081234,-22.384562,10.059983,2.9722586,56.1561,-8.329749,-9.438663,2.7438276,-5.271182,-19.953926,17.387978,-21.51307,1.9268411,-0.08800602,1.4390001,11.737417,3.6697435,19.900648,-33.15858,58.31848,-11.40922,3.734926,1.550111,-6.0618935,-18.392324,32.35578,59.739693,-8.495529,6.279357,-1.5903108
87,7.344966888427734,2.702449321746826,77.87545776367188,2.4215147304952795,2.032525061606617,95.33655671605186,-22.961857,10.19957,3.2056336,57.431,-8.469331,-9.216009,2.9378028,-5.308254,-19.972809,17.435757,-21.643642,1.9456522,-0.017054677,1.4155084,11.77398,3.9938695,19.873976,-33.121815,58.277576,-11.378564,3.7429247,1.5078903,-6.1479535,-18.479023,32.51748,59.6935,-8.453621,6.2484055,-1.5479933
88,7.384019374847412,2.9148659706115723,77.84855651855469,2.5016017411606546,2.0076118677916823,95.33634189474482,-23.498327,10.2648735,3.3826993,58.561096,-8.653036,-9.02609,3.1267447,-5.3673434,-19.974703,17.494415,-21.754507,1.999552,0.061046835,1.3786502,11.796763,4.3200107,19.845081,-33.104942,58.24387,-11.367811,3.74689,1.4728009,-6.1993484,-18.552189,32.62722,59.62982,-8.469984,6.2369223,-1.5081729
89,7.416005611419678,3.141315221786499,77.82968139648438,2.6003751761157075,1.9819999420413235,95.32587310232182,-23.994677,10.226317,3.4833012,59.545025,-8.907323,-8.871785,3.3163476,-5.457211,-19.960182,17.56204,-21.854408,2.1004138,0.13860285,1.3347431,11.814823,4.647321,19.801498,-33.10726,58.215893,-11.390079,3.742663,1.4525912,-6.2692494,-18.64445,32.750835,59.570045,-8.477579,6.256559,-1.4592476
90,7.44235372543335,3.3658313751220703,77.8196792602539,2.713024258767443,1.9560641146341133,95.30809635461397,-24.455309,10.1093235,3.5362077,60.40693,-9.231184,-8.741178,3.509767,-5.5696716,-19.933176,17.63146,-21.940224,2.236143,0.22086956,1.2749099,11.820709,4.9787054,19.758165,-33.13283,58.192066,-11.43544,3.7345388,1.4415932,-6.33182,-18.721851,32.85071,59.51313,-8.517121,6.2945657,-1.407046
91,7.460171699523926,3.60363507270813,77.81978607177734,2.8262664317164528,1.935657169656941,95.2788931953251,-24.880156,9.951518,3.5690458,61.13469,-9.563928,-8.646473,3.6911385,-5.69095,-19.890295,17.714907,-21.99711,2.3897233,0.31182536,1.2207197,11.826572,5.300789,19.699394,-33.1607,58.17372,-11.4671335,3.724998,1.4267483,-6.4066806,-18.81445,32.951714,59.457745,-8.541767,6.3376584,-1.3651593
92,7.471790790557861,3.83302903175354,77.82840728759766,2.928536535626078,1.9265691583027869,95.23393032745652,-25.267906,9.791405,3.6094859,61.713917,-9.843389,-8.598636,3.8461716,-5.8077693,-19.827795,17.820547,-22.009647,2.5442014,0.4202674,1.1700547,11.8329525,5.617368,19.6441,-33.176105,58.146744,-11.456942,3.7202792,1.3940271,-6.4820223,-18.890923,33.020992,59.410336,-8.573879,6.369558,-1.3538313
93,7.472146511077881,4.072521686553955,77.8406753540039,3.019653016999243,1.9287805317094628,95.17135243516674,-25.616123,9.63256,3.6602182,62.147614,-10.05647,-8.62181,3.970254,-5.9208035,-19.740751,17.961031,-21.982702,2.6999598,0.548741,1.1321714,11.84599,5.9186244,19.574913,-33.175,58.124428,-11.373618,3.718292,1.3304797,-6.561592,-18.977648,33.07706,59.36565,-8.599487,6.3877473,-1.3772973
94,7.46932315826416,4.305523872375488,77.86278533935547,3.104747962300815,1.93971481276876,95.09342692191089,-25.926254,9.456954,3.7085347,62.440582,-10.234448,-8.702925,4.072723,-6.035282,-19.632103,18.124983,-21.92064,2.8645756,0.6950316,1.0990281,11.861524,6.2102404,19.49862,-33.16738,58.10375,-11.241756,3.717734,1.2464086,-6.6458793,-19.064556,33.11708,59.32752,-8.62551,6.399582,-1.4266572
95,7.461594581604004,4.559953689575195,77.89019012451172,3.1795061145593677,1.9616005390696265,95.00318852973658,-26.202393,9.271953,3.7579608,62.58198,-10.383872,-8.796322,4.151417,-6.146514,-19.509367,18.30499,-21.810747,3.032193,0.84667593,1.0741864,11.873124,6.4963613,19.418234,-33.148182,58.07571,-11.108192,3.7208252,1.1641644,-6.725143,-19.147343,33.127438,59.28181,-8.651761,6.407745,-1.494259
96,7.451699733734131,4.821743488311768,77.92509460449219,3.239625598021906,1.996500533128538,94.90314262887465,-26.449083,9.08531,3.8112073,62.562294,-10.511991,-8.85664,4.2054176,-6.2485127,-19.380272,18.490385,-21.637968,3.1970394,0.9995805,1.0628719,11.881335,6.7731977,19.337152,-33.11825,58.030758,-11.018809,3.7296097,1.1067679,-6.8415,-19.22318,33.132305,59.253822,-8.626006,6.4144506,-1.5723803
97,7.428336143493652,5.064769744873047,77.97530364990234,3.278620258611678,2.046954312574129,94.78937408504251,-26.677982,8.901388,3.8609414,62.39199,-10.624021,-8.860788,4.220074,-6.337398,-19.243185,18.69925,-21.39617,3.3454235,1.1513684,1.0717443,11.882971,7.0407906,19.24996,-33.06436,57.974384,-10.988258,3.7498662,1.0818807,-6.9661627,-19.294962,33.102943,59.21392,-8.551842,6.4147534,-1.6717995
98,7.4005255699157715,5.317318916320801,78.03535461425781,3.299947620416011,2.1112253673883448,94.66195579467032,-26.882816,8.715733,3.9077163,62.07186,-10.71525,-8.836317,4.202013,-6.4158177,-19.095015,18.926893,-21.092411,3.485477,1.3104633,1.0984278,11.883093,7.2926,19.153543,-32.99554,57.91261,-10.990878,3.7782307,1.0777112,-7.12685,-19.36554,33.06492,59.189392,-8.41448,6.408836,-1.7922683
99,7.375670433044434,5.575787544250488,78.10260009765625,3.3152956822552566,2.184853024721569,94.52950935823391,-27.04099,8.522696,3.966318,61.573975,-10.775688,-8.813486,4.1779575,-6.4906125,-18.940586,19.140018,-20.738049,3.6441815,1.4625567,1.1291986,11.875151,7.5446854,19.057444,-32.923557,57.831093,-11.011563,3.804722,1.0844814,-7.291731,-19.428183,33.012917,59.165253,-8.289296,6.4084406,-1.9092401
100,7.339888572692871,5.838876724243164,78.183349609375,3.332441616692739,2.2633894865850612,94.40086347144167,-27.129297,8.317211,4.0512605,60.870552,-10.795774,-8.82248,4.177253,-6.567612,-18.783531,19.299534,-20.341896,3.847634,1.5938994,1.1561371,11.852913,7.8030314,18.957552,-32.86292,57.72911,-11.034424,3.817985,1.0936978,-7.427839,-19.48726,32.944584,59.12269,-8.246359,6.4260073,-1.9969949
101,7.297779083251953,6.1068243980407715,78.27467346191406,3.3577886012307103,2.3466117569914693,94.27780402696388,-27.142212,8.104014,4.1825213,59.950493,-10.787846,-8.84307,4.2123804,-6.6522098,-18.62714,19.380962,-19.895744,4.1347675,1.7077109,1.1725781,11.822169,8.075659,18.86075,-32.814114,57.59502,-11.07714,3.8065658,1.1194541,-7.5741844,-19.538517,32.887135,59.096283,-8.267484,6.472137,-2.0428746
102,7.243163108825684,6.390385150909424,78.37062072753906,3.385304459130675,2.4365095916516557,94.15567745435284,-27.090197,7.8850055,4.345744,58.82755,-10.751774,-8.867591,4.267288,-6.7392254,-18.46727,19.407953,-19.398756,4.4809847,1.803502,1.1811306,11.780578,8.367267,18.773083,-32.765232,57.4251,-11.142057,3.7803216,1.1596892,-7.7037067,-19.577986,32.81138,59.060467,-8.358001,6.53796,-2.0627525
103,7.187539100646973,6.680466175079346,78.47174072265625,3.4063424651562295,2.5321523211403703,94.03381997511222,-26.97594,7.650689,4.5036216,57.511543,-10.659296,-8.944784,4.325499,-6.819136,-18.298134,19.419827,-18.872892,4.8178334,1.8879412,1.1927687,11.728499,8.652248,18.689632,-32.732876,57.23349,-11.189598,3.7584202,1.184316,-7.8300695,-19.611483,32.73148,59.021465,-8.480223,6.6056476,-2.0738883
104,7.123850345611572,6.974480152130127,78.57833099365234,3.413187334181311,2.6324939307680935,93.91130004549471,-26.801067,7.3924174,4.6187415,56.010094,-10.481242,-9.12282,4.3705263,-6.8825626,-18.115171,19.455378,-18.338898,5.0769515,1.9638214,1.2121024,11.665714,8.92219,18.624088,-32.728245,57.012356,-11.183111,3.7625756,1.1613134,-7.947875,-19.636791,32.645485,58.969643,-8.618166,6.657239,-2.0941384
105,7.057847023010254,7.264538288116455,78.67610168457031,3.4040179611559895,2.737560100665551,93.79219181128688,-26.55431,7.111445,4.690988,54.283943,-10.214629,-9.430245,4.3998327,-6.9238224,-17.915638,19.520092,-17.78821,5.2305183,2.0266187,1.2452915,11.589293,9.168987,18.5722,-32.768238,56.766483,-11.107217,3.8080118,1.0736659,-8.048391,-19.65824,32.546963,58.897457,-8.786694,6.689859,-2.1267624
106,6.991321563720703,7.568048477172852,78.78020477294922,3.38170599396081,2.8476446934929367,93.67527188249312,-26.234106,6.8138337,4.734386,52.334614,-9.872678,-9.833857,4.422568,-6.948261,-17.703331,19.59262,-17.211918,5.318673,2.0775142,1.2868127,11.503702,9.405306,18.538826,-32.840332,56.485207,-10.98376,3.8809755,0.94033474,-8.1508255,-19.674202,32.449112,58.820385,-8.97483,6.712414,-2.1627076
107,6.921754837036133,7.88517951965332,78.89546203613281,3.3490112936278953,2.961808420103151,93.55157115818966,-25.858868,6.499319,4.731822,50.236073,-9.4487,-10.288585,4.4379263,-6.964366,-17.484472,19.677004,-16.633389,5.374896,2.1205556,1.3315436,11.413628,9.640579,18.523323,-32.908783,56.167625,-10.828233,3.9561896,0.7850738,-8.265922,-19.683205,32.36794,58.743004,-9.150766,6.725325,-2.201276
108,6.847508430480957,8.19294261932373,78.98762512207031,3.307364665631987,3.0792222839840195,93.41230940166241,-25.447214,6.1682215,4.666261,48.06309,-8.940066,-10.749673,4.44596,-6.980111,-17.26462,19.774464,-16.073977,5.4319396,2.1922162,1.38088,11.313176,9.841855,18.506819,-32.984554,55.86196,-10.666176,4.006266,0.6361752,-8.302473,-19.699926,32.218544,58.596073,-9.358737,6.72909,-2.23738
109,6.765787124633789,8.510442733764648,79.07617950439453,3.255821260554007,3.1981406046082834,93.25211324878475,-24.987524,5.809119,4.511684,45.778603,-8.303469,-11.227111,4.4459696,-6.99479,-17.044676,19.888727,-15.531667,5.483931,2.2685874,1.4323988,11.21943,10.044541,18.502394,-33.02499,55.525047,-10.489121,4.0174475,0.4912093,-8.4017935,-19.712332,32.134655,58.479385,-9.485377,6.7205453,-2.2807314
110,6.682081699371338,8.834336280822754,79.1613998413086,3.1922363263306015,3.319009027853323,93.07605034560301,-24.471247,5.433307,4.2787895,43.356853,-7.555255,-11.734013,4.438886,-7.0037107,-16.821993,20.01706,-14.996593,5.517337,2.3460715,1.4893105,11.115964,10.244388,18.504642,-33.05075,55.171432,-10.291796,4.005715,0.338599,-8.417345,-19.728283,31.99866,58.278004,-9.667375,6.7016134,-2.326911
111,6.589685916900635,9.178046226501465,79.23851013183594,3.1214540845856895,3.444796930303501,92.89207371829433,-23.922174,5.0705333,4.008833,40.88707,-6.778284,-12.232241,4.424398,-7.009502,-16.596584,20.155567,-14.482389,5.553323,2.4327064,1.548727,11.006148,10.427504,18.518583,-33.06495,54.7996,-10.078842,3.993642,0.18614218,-8.391904,-19.754025,31.82941,58.034542,-9.850731,6.6777143,-2.3636591
112,6.49398136138916,9.5183744430542,79.30908966064453,3.0461366278084947,3.578804443138946,92.70842937457199,-23.366161,4.7453265,3.747428,38.459152,-6.0537014,-12.686466,4.400179,-7.0152926,-16.368195,20.305359,-14.006254,5.6130443,2.5179842,1.6091691,10.894574,10.585183,18.535744,-33.052307,54.412346,-9.849669,4.0018086,0.043792102,-8.490582,-19.777664,31.751486,57.90279,-9.889148,6.6532326,-2.385313
113,6.389342308044434,9.864076614379883,79.37548065185547,2.9638924050877993,3.7301024978034025,92.52594694008418,-22.803965,4.455063,3.4900515,36.028362,-5.364982,-13.112591,4.3585925,-7.014865,-16.138935,20.455997,-13.563629,5.703712,2.5833592,1.6710818,10.760503,10.743833,18.561735,-32.989094,53.996655,-9.597843,4.0336075,-0.101089165,-8.550015,-19.80925,31.647274,57.734898,-9.916533,6.632382,-2.3713157
114,6.274281978607178,10.219803810119629,79.42666625976562,2.871018376941458,3.8937485138081236,92.34015181381598,-22.219505,4.190134,3.2196958,33.56052,-4.675715,-13.523346,4.304787,-7.005478,-15.908048,20.607956,-13.147349,5.8124733,2.6343584,1.7386475,10.602039,10.892095,18.582914,-32.891914,53.576694,-9.327732,4.076627,-0.24521242,-8.588467,-19.83537,31.530617,57.559135,-9.932407,6.6111994,-2.3358514
115,6.166503429412842,10.58411979675293,79.4619140625,2.7736363455392583,4.051136088825644,92.15106301208598,-21.622149,3.9587154,2.96739,31.173777,-4.0415187,-13.882296,4.25633,-6.99726,-15.6707735,20.77877,-12.770545,5.931201,2.661685,1.8036008,10.440083,11.059333,18.624924,-32.746567,53.108063,-9.041211,4.1396713,-0.37995082,-8.449684,-19.885578,31.302212,57.22973,-10.071384,6.5878906,-2.2978024
116,6.057209014892578,10.93916130065918,79.46985626220703,2.68020070809021,4.184962661160129,91.95946498082755,-21.025764,3.7639894,2.7664819,28.993933,-3.5210352,-14.153585,4.2304792,-7.002102,-15.423245,20.982988,-12.444371,6.0521493,2.727981,1.8685462,10.318603,11.145398,18.655956,-32.634815,52.66112,-8.757786,4.22055,-0.46835592,-8.61908,-19.923933,31.28985,57.19634,-9.932265,6.556171,-2.3014622
117,5.926623344421387,11.328898429870605,79.47759246826172,2.594660793835656,4.289337983160226,91.7632184149468,-20.432976,3.5920122,2.5925355,27.037535,-3.1692843,-14.3072195,4.2347765,-7.023995,-15.160036,21.220715,-12.170701,6.175168,2.7316089,1.9191065,10.19306,11.28586,18.69559,-32.442,52.160137,-8.455736,4.3379264,-0.5270433,-8.513505,-19.972935,31.14035,56.954666,-10.023245,6.511543,-2.3573644
118,5.794800281524658,11.727099418640137,79.47386932373047,2.512835098915363,4.375102246136528,91.5636219337362,-19.845043,3.4384315,2.4429965,25.255095,-2.946492,-14.372272,4.257965,-7.0581937,-14.885545,21.485157,-11.943704,6.3038487,2.7606099,1.9665861,10.093729,11.374566,18.734398,-32.25762,51.658314,-8.145076,4.481221,-0.5506758,-8.56328,-20.022503,31.102388,56.86964,-9.956833,6.454384,-2.4512823
119,5.654601573944092,12.11773681640625,79.4625015258789,2.435497940027574,4.44838023088473,91.36729441562272,-19.27298,3.3154335,2.3842187,23.672743,-2.7682052,-14.407105,4.2864146,-7.1071258,-14.609924,21.790224,-11.768208,6.4364243,2.7512195,2.0038524,9.990372,11.467541,18.775011,-32.042538,51.141895,-7.839036,4.632248,-0.5501236,-8.47628,-20.07484,30.985619,56.69013,-10.011074,6.405273,-2.5465515
120,5.5237507820129395,12.49685287475586,79.43113708496094,2.3655680609912704,4.516090316340725,91.1810337190927,-18.731733,3.2331605,2.4824662,22.323694,-2.5538394,-14.469635,4.3066754,-7.174049,-14.343806,22.14864,-11.648398,6.571476,2.72193,2.0305827,9.886681,11.522645,18.811117,-31.842203,50.646492,-7.561054,4.7684116,-0.52186215,-8.338075,-20.120079,30.818356,56.494194,-10.12981,6.3810115,-2.611992
121,5.3822174072265625,12.89309310913086,79.38615417480469,2.2973953856299545,4.579202766542693,91.00251359944512,-18.192009,3.2082157,2.7901442,21.143658,-2.1825998,-14.725598,4.3182096,-7.253505,-14.091549,22.554144,-11.585736,6.706813,2.7078726,2.0526829,9.8187475,11.502212,18.85038,-31.677725,50.163975,-7.317413,4.8882375,-0.45147106,-8.426491,-20.16456,30.773487,56.500446,-10.094864,6.392781,-2.632181
122,5.234556198120117,13.291512489318848,79.33155059814453,2.2454144848998823,4.634846571121168,90.83385031059552,-17.652744,3.2025425,3.2754064,20.127104,-1.7238876,-15.000033,4.3197427,-7.364009,-13.84793,23.020802,-11.5871,6.8477836,2.621986,2.0509882,9.720991,11.5032015,18.880886,-31.472198,49.68463,-7.0931616,5.0043273,-0.35163137,-8.176163,-20.195421,30.506796,56.255013,-10.387426,6.431885,-2.6243634
123,5.073490142822266,13.720004081726074,79.26589965820312,2.230760365280742,4.686115387829391,90.68636020728786,-17.18503,3.1651387,3.8588834,19.422693,-1.3915924,-15.000033,4.2985334,-7.536456,-13.608655,23.579426,-11.657974,7.0016336,2.544463,2.0130842,9.644115,11.436352,18.922094,-31.312744,49.220085,-6.8903947,5.1091604,-0.23559456,-8.079762,-20.231892,30.323671,56.155533,-10.524665,6.475536,-2.612522
124,4.921199798583984,14.127090454101562,79.1837158203125,2.2040363291732574,4.734180378888767,90.54203776689586,-16.920908,3.1762946,4.3822045,19.325203,-1.4876174,-14.927047,4.2870035,-7.691099,-13.363655,24.149542,-11.744997,7.147711,2.465024,1.9846413,9.555716,11.312631,18.949028,-31.190819,48.807873,-6.700229,5.194865,-0.1229603,-8.086508,-20.251629,30.214867,56.184753,-10.525853,6.5054297,-2.6270752
125,4.753796577453613,14.537344932556152,79.10005950927734,2.2760582236639295,4.783870515779248,90.4490359335674,-16.855516,3.0633132,4.978915,19.85088,-2.0400832,-13.809125,4.245638,-7.988373,-13.126244,24.844793,-11.934873,7.3317175,2.3156703,1.8580325,9.442213,11.202444,19.005852,-31.068193,48.373302,-6.5412,5.2532845,-0.027640376,-7.913131,-20.28046,29.996922,56.081284,-10.595548,6.5180826,-2.6687565
126,4.584906578063965,14.96726131439209,79.00477600097656,2.3953805067292335,4.830946820743845,90.38451241175935,-16.956696,2.913831,5.6244054,20.926226,-2.942448,-12.139444,4.200742,-8.352938,-12.894003,25.600035,-12.189587,7.534162,2.1360426,1.6860769,9.30695,11.0583515,19.062416,-30.977337,47.96891,-6.4177732,5.286973,0.071821146,-7.7098026,-20.299349,29.760933,55.995197,-10.640671,6.5225816,-2.7316835
127,4.411647319793701,15.44379711151123,78.88536071777344,2.518397985588039,4.865835147107368,90.32056049689847,-17.109993,2.7589834,6.233208,22.225365,-4.0289154,-10.344744,4.1333447,-8.732003,-12.647538,26.445284,-12.469679,7.7347517,1.951831,1.5042658,9.179405,10.878085,19.131489,-30.913881,47.580166,-6.2786484,5.325469,0.16336906,-7.4812226,-20.315687,29.502516,55.903633,-10.676973,6.522605,-2.7930508
128,4.230358600616455,15.909379959106445,78.74217224121094,2.6116710842379143,4.88119703854961,90.23157427935641,-17.203665,2.62202,6.7288594,23.423845,-5.1381173,-8.8505945,4.016868,-9.083728,-12.366622,27.42124,-12.740105,7.914669,1.764147,1.3481027,9.073234,10.650136,19.182726,-30.859446,47.23805,-6.0656257,5.394238,0.23970366,-7.2635694,-20.325382,29.258419,55.82771,-10.708978,6.523075,-2.8371599
129,4.047221660614014,16.37757110595703,78.58656311035156,2.6694155549310072,4.877001111035875,90.10448294107785,-17.230387,2.5041277,7.0867596,24.49393,-6.292243,-7.722389,3.850088,-9.402881,-12.032387,28.528187,-13.035326,8.087949,1.6079174,1.214463,9.000747,10.371048,19.240456,-30.825977,46.920143,-5.7494106,5.505157,0.28979954,-7.0334296,-20.338064,28.98463,55.728622,-10.760665,6.5323806,-2.840544
130,3.856950283050537,16.831235885620117,78.41950225830078,2.7095549684894107,4.8569690190988775,89.95551767628349,-17.241062,2.3897421,7.3471622,25.583857,-7.551351,-6.748582,3.6456325,-9.710773,-11.659738,29.745302,-13.360107,8.257511,1.4618261,1.091345,8.949777,10.049445,19.300581,-30.809544,46.625294,-5.3629,5.64188,0.32024032,-6.7884264,-20.354368,28.693972,55.613922,-10.816445,6.546149,-2.8189178
131,3.661231279373169,17.286849975585938,78.25912475585938,2.737146745911414,4.820562186409728,89.80486403496178,-17.231142,2.275376,7.543034,26.67233,-8.82813,-5.93779,3.3853033,-10.017482,-11.276304,31.105564,-13.640233,8.388575,1.2972777,0.9804848,8.914137,9.675224,19.348284,-30.819284,46.378147,-4.959084,5.7929173,0.34724078,-6.538732,-20.369944,28.417517,55.513634,-10.848852,6.547341,-2.8055875
132,3.4704084396362305,17.72440528869629,78.08618927001953,2.7568350734774394,4.767511735700097,89.672696538041,-17.194141,2.1606433,7.70966,27.736868,-10.037278,-5.2996607,3.05638,-10.332717,-10.909669,32.631153,-13.801028,8.44662,1.1069902,0.8784801,8.892584,9.235253,19.392355,-30.886282,46.186897,-4.599393,5.948547,0.38707206,-6.2714834,-20.388561,28.154959,55.433792,-10.8377285,6.518099,-2.8306324
133,3.263596773147583,18.210599899291992,77.91649627685547,2.7661077861391323,4.696578745868131,89.563509598098,-17.133345,2.0584836,7.851542,28.79153,-11.170519,-4.892508,2.671004,-10.655372,-10.570934,34.317196,-13.843962,8.407714,0.89225453,0.7878047,8.885834,8.72303,19.441788,-31.028898,46.04845,-4.3287745,6.117563,0.4356471,-5.971952,-20.417124,27.902987,55.360825,-10.765579,6.440426,-2.9085116
134,3.059748888015747,18.686046600341797,77.74559783935547,2.7674090831607825,4.608813573096025,89.46763704215836,-17.052416,1.9696918,7.9582157,29.847658,-12.27429,-4.6925106,2.2313817,-10.986745,-10.242248,36.152626,-13.801114,8.292026,0.62908405,0.70574474,8.890143,8.164678,19.479225,-31.194695,45.956562,-4.095106,6.300716,0.48518375,-5.6794467,-20.443436,27.69952,55.32234,-10.639424,6.3286414,-3.02477
135,2.869537830352783,19.161731719970703,77.57345581054688,2.7698772991212475,4.507904742985697,89.38369225305244,-16.943918,1.8764476,8.041949,30.876616,-13.344228,-4.5866385,1.7130184,-11.337637,-9.907963,38.1423,-13.637736,8.131824,0.39730796,0.6218279,8.919854,7.521708,19.53534,-31.456755,45.902878,-3.8648727,6.4810443,0.5539684,-5.317405,-20.491766,27.430872,55.248108,-10.512092,6.210582,-3.1457603
136,2.6674914360046387,19.6324462890625,77.3999252319336,2.786628737730019,4.397279321785391,89.31005959331965,-16.799566,1.7573131,8.112359,31.845243,-14.373772,-4.462148,1.0927358,-11.715124,-9.5530405,40.289253,-13.317322,7.9613423,0.1402924,0.5254105,8.971365,6.846394,19.588728,-31.724771,45.86882,-3.554355,6.638456,0.64939696,-4.9592066,-20.537893,27.17449,55.20145,-10.393372,6.117708,-3.2580357
137,2.466383934020996,20.115978240966797,77.22785949707031,2.816960314032517,4.279240221607869,89.25330203145306,-16.6382,1.6055126,8.154518,32.77498,-15.352478,-4.3116584,0.3496544,-12.115178,-9.173477,42.62431,-12.795604,7.7980113,-0.1362951,0.41369137,9.048981,6.1199307,19.636806,-32.010986,45.876026,-3.1584585,6.754477,0.7897746,-4.6043005,-20.574636,26.907185,55.184372,-10.291917,6.0512795,-3.3615417
138,2.2608628273010254,20.61034393310547,77.0568618774414,2.8549483562167284,4.151612357700252,89.21212084849665,-16.457096,1.4326522,8.170109,33.673237,-16.2865,-4.1874595,-0.4965392,-12.53366,-8.777035,45.129562,-12.099838,7.6212287,-0.42423847,0.28994688,9.149443,5.3354683,19.682814,-32.33273,45.924725,-2.7101748,6.8450046,0.96490216,-4.2392707,-20.605099,26.623598,55.18829,-10.196788,5.997173,-3.465601
139,2.0632944107055664,21.06690788269043,76.89041137695312,2.9057269499127742,4.0107491368439145,89.17283713316056,-16.217428,1.2417462,8.191225,34.488064,-17.195156,-4.066565,-1.4099839,-12.971514,-8.366566,47.73982,-11.301887,7.409814,-0.71445644,0.15511346,9.261586,4.508402,19.726637,-32.687088,45.99232,-2.2074628,6.9410653,1.1462678,-3.8628175,-20.62615,26.341335,55.21965,-10.110945,5.96197,-3.5641654
140,1.86903715133667,21.533292770385742,76.71052551269531,2.971196964426024,3.853167905847602,89.12154819458793,-15.879746,1.0352345,8.24913,35.166683,-18.097204,-3.9262733,-2.356128,-13.435606,-7.944042,50.394737,-10.475852,7.142455,-0.99178356,0.009123977,9.374362,3.6487436,19.77111,-33.079662,46.05799,-1.651921,7.0736437,1.3052448,-3.467545,-20.636759,26.07013,55.2808,-10.039307,5.952245,-3.6509306
141,1.687397837638855,21.98883819580078,76.53055572509766,3.067971302281652,3.6636557195267088,89.04236796182923,-15.401007,0.79828787,8.369222,35.67517,-19.000244,-3.765185,-3.34759,-13.935109,-7.4630213,53.13969,-9.5739975,6.7501125,-1.2300241,-0.16302298,9.493034,2.7553432,19.821892,-33.55116,46.124893,-1.0282785,7.2564163,1.4448812,-3.0293312,-20.637001,25.786024,55.36674,-9.999708,5.9775186,-3.7231944
142,1.4864751100540161,22.513574600219727,76.36215209960938,3.1884210824197448,3.448915028883252,88.94654641709168,-14.813173,0.53195643,8.527661,36.045883,-19.8919,-3.593505,-4.3950157,-14.463113,-6.93921,55.982395,-8.575133,6.2669067,-1.4535137,-0.35700142,9.620676,1.8302721,19.875242,-34.07626,46.19572,-0.34104255,7.4713726,1.5741944,-2.5685902,-20.625631,25.504187,55.483536,-9.980852,6.031833,-3.7855823
143,1.2951343059539795,23.048076629638672,76.20520782470703,3.3048269665546366,3.238443032500145,88.8612495538827,-14.189003,0.26251036,8.681914,36.326206,-20.761633,-3.4063363,-5.4609466,-14.999827,-6.4671144,58.81022,-7.596071,5.819634,-1.6826843,-0.54522115,9.746171,0.8717289,19.930311,-34.603664,46.24884,0.375696,7.702309,1.6773752,-2.104955,-20.603638,25.238344,55.61944,-9.957459,6.0979233,-3.838214
144,1.1269468069076538,23.509992599487305,76.04047393798828,3.3910650576969212,3.060954618266632,88.8148173327468,-13.602201,0.016656507,8.790134,36.565445,-21.599207,-3.1993365,-6.513377,-15.534978,-6.135664,61.529892,-6.770281,5.5296326,-1.9542464,-0.703267,9.847294,-0.11125059,19.988047,-35.071846,46.266838,1.0843961,7.9324436,1.737668,-1.5628138,-20.567678,24.951872,55.683743,-9.978444,6.15854,-3.8801777
145,0.9697025418281555,23.9506893157959,75.8805923461914,3.4391171764223243,2.92640315415306,88.82193933495152,-13.07255,-0.20108075,8.838387,36.770832,-22.429033,-2.9546728,-7.565321,-16.089077,-5.9704795,64.19411,-6.0573807,5.4894857,-2.2503471,-0.8197336,9.949255,-1.1764752,20.057602,-35.5161,46.24978,1.76525,8.181895,1.7351776,-1.2070637,-20.521677,24.796207,55.89319,-9.836458,6.2162724,-3.9292045
146,0.8354570865631104,24.386960983276367,75.7435073852539,3.464169340254961,2.8182532785761114,88.86584781187013,-12.559326,-0.4035688,8.849,36.917305,-23.247564,-2.6812387,-8.630258,-16.674232,-5.9156775,66.85106,-5.426725,5.6025414,-2.5997117,-0.9110146,10.035249,-2.2728539,20.13508,-35.912384,46.1996,2.4486604,8.449986,1.6790177,-0.84919465,-20.46436,24.680393,56.100388,-9.68643,6.279021,-3.9792023
147,0.690759003162384,24.8814640045166,75.61804962158203,3.471378029089955,2.72603608546622,88.92639570396635,-12.041653,-0.586203,8.836698,36.999783,-24.002234,-2.4147034,-9.671113,-17.259787,-5.9425783,69.38816,-5.0153694,5.7064967,-2.9673924,-0.98526007,10.109237,-3.3573918,20.217718,-36.23879,46.1031,3.1590476,8.688513,1.6126204,-0.4540746,-20.394182,24.567326,56.283295,-9.559716,6.3334794,-4.002511
148,0.5616496801376343,25.362815856933594,75.50853729248047,3.464420948183969,2.6395561400097485,88.98291252434713,-11.498713,-0.74396986,8.817926,37.0128,-24.639687,-2.189924,-10.6501875,-17.81205,-6.0267715,71.68564,-4.957836,5.6463027,-3.3116436,-1.0467042,10.19036,-4.3973927,20.301083,-36.472824,45.94306,3.92372,8.850465,1.5809227,-0.13221335,-20.314676,24.51507,56.539932,-9.375267,6.3663044,-3.974557
149,0.4465014636516571,25.864282608032227,75.42919158935547,3.4455125252403405,2.554218171527485,89.03046911365044,-10.913307,-0.878267,8.805401,36.941628,-25.168623,-2.0003002,-11.545662,-18.36164,-6.2070794,73.74849,-5.357858,5.372306,-3.6519842,-1.0976845,10.259747,-5.381197,20.386108,-36.612823,45.731773,4.7843266,8.910704,1.5780668,0.26751128,-20.224192,24.454487,56.747993,-9.262712,6.3701816,-3.863493
150,0.3421410322189331,26.331335067749023,75.37091827392578,3.41217867484264,2.4760544287673514,89.07957513825879,-10.300909,-0.98945,8.789545,36.794598,-25.610302,-1.8325644,-12.3787365,-18.91217,-6.4804707,75.630936,-6.124753,4.9773493,-3.9996157,-1.1343693,10.312792,-6.3279076,20.474815,-36.670174,45.47833,5.714515,8.899159,1.5888436,0.76433384,-20.12166,24.36909,56.888996,-9.230345,6.353881,-3.6899848
151,0.24773986637592316,26.81092643737793,75.34569549560547,3.359462043598539,2.411442729222799,89.13172362615012,-9.691656,-1.0694011,8.755327,36.604347,-25.93086,-1.7106837,-13.176563,-19.372307,-6.7648573,77.27364,-7.0905466,4.53334,-4.323075,-1.1516547,10.377279,-7.2348666,20.561533,-36.623158,45.16463,6.639206,8.851069,1.6421047,1.1384507,-20.01024,24.35547,57.14103,-9.087068,6.328829,-3.5079334
152,0.16908268630504608,27.294584274291992,75.3547592163086,3.2857277426677354,2.366654672226001,89.18837377991176,-9.113147,-1.110749,8.688385,36.399113,-26.094118,-1.657837,-13.97016,-19.6455,-6.9866347,78.61572,-8.081877,4.108255,-4.637742,-1.1487793,10.442537,-8.054615,20.635286,-36.410034,44.781914,7.48822,8.80192,1.761023,1.4762799,-19.882318,24.336832,57.425495,-8.887748,6.307927,-3.3666315
153,0.10435251891613007,27.772409439086914,75.39299774169922,3.182073632055306,2.3471300663438455,89.25203283899754,-8.5863,-1.1025323,8.580679,36.200867,-26.093245,-1.6907909,-14.7921295,-19.668291,-7.111682,79.65791,-9.15253,3.6594377,-4.945766,-1.1207039,10.50705,-8.795049,20.688105,-35.988132,44.347584,8.2919235,8.736869,1.9378808,1.8183789,-19.731228,24.27162,57.70666,-8.621115,6.2753887,-3.2821338
154,0.03669644892215729,28.22223663330078,75.45674133300781,3.051950335457849,2.3483851872527723,89.3206403373608,-8.091341,-1.0510942,8.443256,35.989613,-25.946693,-1.7931373,-15.62232,-19.49089,-7.1893263,80.42476,-10.352828,3.18091,-5.2606015,-1.0719895,10.55406,-9.464741,20.719381,-35.386765,43.883484,9.070778,8.645958,2.1645327,2.2667966,-19.552345,24.117823,57.907127,-8.394073,6.231514,-3.2253036
155,-0.0006806434830650687,28.70721435546875,75.55006408691406,2.911440886236567,2.3616336805887417,89.38944748273153,-7.599471,-0.9762974,8.2902355,35.73932,-25.66127,-1.9381385,-16.411304,-19.20053,-7.2789426,80.88911,-11.504488,2.7855914,-5.551242,-1.0111898,10.599094,-10.069937,20.727736,-34.699875,43.374714,9.745008,8.573051,2.46699,2.6047611,-19.35426,24.023314,58.22031,-8.114645,6.210347,-3.184938
156,-0.021427340805530548,29.238140106201172,75.70330810546875,2.7744571942731864,2.377817427293233,89.45370215153142,-7.080479,-0.8975039,8.13493,35.421326,-25.242401,-2.0991986,-17.107248,-18.89068,-7.442353,81.02304,-12.431689,2.5827289,-5.8480673,-0.952037,10.608742,-10.562468,20.711687,-33.975212,42.816067,10.231344,8.56027,2.865064,3.02232,-19.13533,23.90008,58.49586,-8.022394,6.2481513,-3.1423125
157,-0.0431663952767849,29.76814842224121,75.87580108642578,2.644466650428866,2.3935485711977873,89.51365637056509,-6.5245643,-0.8148134,7.97534,35.032215,-24.686062,-2.2779174,-17.691376,-18.586184,-7.705084,80.80144,-13.058948,2.6455688,-6.1358113,-0.8946832,10.594261,-10.933672,20.662107,-33.205112,42.185272,10.529798,8.661125,3.4129744,3.4359913,-18.894484,23.793606,58.8241,-8.092069,6.3760424,-3.1058195
158,-0.07141538709402084,30.274608612060547,76.0576400756836,2.512841957212189,2.4138059555333915,89.57159203503542,-5.947818,-0.7206259,7.8046074,34.58589,-23.992025,-2.4861064,-18.190636,-18.24583,-8.037054,80.24191,-13.489838,2.8960724,-6.418023,-0.83428353,10.555761,-11.205475,20.574371,-32.364002,41.50357,10.675742,8.838003,4.0827355,3.8699415,-18.629768,23.68068,59.17472,-8.292177,6.5676074,-3.0790904
159,-0.0804005116224289,30.83629035949707,76.28495025634766,2.3839545062243253,2.442094088711139,89.62560497440154,-5.360993,-0.62238705,7.629373,34.08411,-23.172659,-2.712309,-18.62166,-17.860582,-8.410347,79.37749,-13.81276,3.2247431,-6.684193,-0.77004015,10.492805,-11.428239,20.45742,-31.526209,40.81167,10.641538,8.9957905,4.777344,4.296186,-18.351543,23.58331,59.534836,-8.534546,6.7710533,-3.0427077
160,-0.0777551531791687,31.37679672241211,76.53099060058594,2.2597191239906116,2.481574425413362,89.67403017574959,-4.7767963,-0.5270369,7.455784,33.532207,-22.24212,-2.9450023,-18.999933,-17.42664,-8.799111,78.243126,-14.12172,3.5175393,-6.9258513,-0.7014256,10.405081,-11.628302,20.327343,-30.754517,40.127785,10.411902,9.038691,5.3986,4.7156277,-18.07459,23.50547,59.862198,-8.751119,6.934649,-2.9759016
161,-0.05982745811343193,31.853952407836914,76.78644561767578,2.138497787814978,2.539270417036972,89.71934253689443,-4.2012815,-0.43719622,7.274122,32.912376,-21.176022,-3.192396,-19.339243,-16.942654,-9.209712,76.835526,-14.452075,3.7374792,-7.141545,-0.6245026,10.300596,-11.805314,20.194101,-30.043869,39.430325,9.932403,8.929851,5.9586267,5.103353,-17.809141,23.465614,60.16226,-8.902684,7.038517,-2.8932433
162,-0.05353675037622452,32.396915435791016,77.06324768066406,2.021995816966361,2.6113399120145435,89.7616299105339,-3.6282752,-0.3497186,7.0826225,32.23097,-19.977549,-3.4570467,-19.624441,-16.412134,-9.64975,75.13585,-14.7521305,3.9468665,-7.341273,-0.5410131,10.179133,-11.926223,20.058971,-29.357119,38.69175,9.232473,8.719395,6.4931417,5.500871,-17.554409,23.437151,60.413784,-9.055522,7.112609,-2.7958176
163,-0.056486621499061584,32.97020721435547,77.36347961425781,1.9119838714698068,2.6852054241154097,89.7948440281545,-3.0504837,-0.2635406,6.9011154,31.524498,-18.698528,-3.7185507,-19.830011,-15.834268,-10.088997,73.154724,-14.98053,4.185108,-7.5154104,-0.45620304,10.042771,-12.006746,19.928894,-28.7385,37.93602,8.403676,8.443846,6.9403324,5.8893566,-17.313854,23.43025,60.635944,-9.193874,7.1785045,-2.6467562
164,-0.04999230057001114,33.55725860595703,77.67179107666016,1.813450411879559,2.748628987285077,89.81299578740318,-2.460455,-0.17723371,6.750645,30.829187,-17.390087,-3.9571245,-19.931181,-15.209435,-10.495942,70.90175,-15.096555,4.4905148,-7.656503,-0.3753498,9.89211,-12.056277,19.813278,-28.229952,37.182507,7.5363183,8.143517,7.239429,6.2739987,-17.090336,23.439198,60.82618,-9.322235,7.257872,-2.4077284
165,-0.032190676778554916,34.163612365722656,77.9863510131836,1.7273238266747801,2.7945934221338637,89.80546726077732,-1.8362958,-0.09198502,6.6470265,30.123741,-16.035,-4.16195,-19.913355,-14.540922,-10.864028,68.35071,-15.083167,4.8545346,-7.755938,-0.30206606,9.727421,-12.058145,19.71762,-27.837696,36.417828,6.59534,7.82688,7.3554134,6.675181,-16.885668,23.45629,60.959953,-9.459255,7.37072,-2.0292976
166,-0.013247775845229626,34.751731872558594,78.29090118408203,1.6531379923507306,2.8306318239513444,89.77846871707993,-1.1889067,-0.009543288,6.5757895,29.3997,-14.615863,-4.34785,-19.787931,-13.830532,-11.203003,65.50079,-14.966284,5.259112,-7.8202367,-0.23450159,9.551396,-12.00779,19.643106,-27.540678,35.627262,5.547348,7.4784293,7.3237906,7.084385,-16.699747,23.485924,61.042328,-9.596886,7.500064,-1.5439547
167,0.01235246006399393,35.34086990356445,78.58124542236328,1.5902052294443998,2.866051007495863,89.75130474957118,-0.5597321,0.07048528,6.515511,28.713356,-13.183744,-4.5249734,-19.569555,-13.082035,-11.505832,62.395824,-14.768718,5.7205734,-7.868135,-0.17171429,9.364418,-11.92102,19.592325,-27.332502,34.8231,4.492302,7.1031613,7.191523,7.488614,-16.531254,23.52087,61.0949,-9.7253475,7.612399,-1.0363464
168,0.04776054620742798,35.926483154296875,78.86017608642578,1.536257621315825,2.90988432782749,89.74344915314263,0.01125642,0.14909089,6.444025,28.118069,-11.787879,-4.705878,-19.273228,-12.301827,-11.765045,59.075745,-14.512225,6.2527466,-7.91857,-0.11246074,9.166474,-11.816653,19.568628,-27.208748,34.020756,3.527671,6.7041874,7.0068274,7.880274,-16.376554,23.55066,61.13506,-9.838247,7.6746316,-0.5913678
169,0.09234140068292618,36.52656936645508,79.12934875488281,1.4902976294731571,2.9705704566177658,89.764381690022,0.50607353,0.22761033,6.3575225,27.62025,-10.418849,-4.8940463,-18.88017,-11.478609,-11.987304,55.43828,-14.215995,6.8789134,-7.9821677,-0.055852868,8.948154,-11.687638,19.57603,-27.180748,33.21608,2.6879256,6.257461,6.7750483,8.266931,-16.233778,23.569601,61.16255,-9.933497,7.6656146,-0.23379803
170,0.13593614101409912,37.14548110961914,79.3814926147461,1.4570747601982095,3.040619907931947,89.80315410677765,0.9523101,0.30213273,6.2669578,27.186491,-9.051161,-5.0826197,-18.379574,-10.6289835,-12.162926,51.478333,-13.862124,7.5695267,-8.047829,-0.0056305095,8.714018,-11.525923,19.615839,-27.246937,32.4001,1.9139391,5.7719865,6.4724855,8.645659,-16.101603,23.586601,61.172455,-10.011165,7.6073465,0.081621006
171,0.18454085290431976,37.755802154541016,79.60655212402344,1.4392432993446171,3.1062776987376446,89.84884970390506,1.3704991,0.36682767,6.1708465,26.824493,-7.725418,-5.268726,-17.803675,-9.798413,-12.266109,47.38791,-13.413589,8.263114,-8.103012,0.030119989,8.481345,-11.34301,19.686008,-27.38038,31.579948,1.170507,5.2984686,6.1053996,9.001908,-15.979288,23.602804,61.17107,-10.081718,7.5321975,0.3745787
172,0.23589928448200226,38.36996841430664,79.80746459960938,1.437291323100477,3.153718549476878,89.89002151329584,1.7804228,0.41734776,6.068515,26.54423,-6.4782667,-5.4497848,-17.185516,-9.0199175,-12.276696,43.35805,-12.8331175,8.910255,-8.135802,0.045516614,8.266901,-11.152629,19.782461,-27.55397,30.765396,0.4220671,4.887904,5.680793,9.325551,-15.865716,23.61715,61.16049,-10.159544,7.4722104,0.66503716
173,0.28695282340049744,38.998748779296875,79.9817886352539,1.4587872926633936,3.1780071470054416,89.92366753925992,2.1957235,0.44680393,5.9615393,26.330215,-5.2967606,-5.6280556,-16.481958,-8.250092,-12.148035,39.238316,-12.037504,9.593658,-8.142265,0.034437254,8.071598,-10.951521,19.903217,-27.768282,29.961685,-0.38426667,4.5393753,5.169138,9.620023,-15.759437,23.625174,61.140366,-10.252085,7.4306707,0.9566372
174,0.35993966460227966,39.6221923828125,80.12220001220703,1.504135617768624,3.1859926564965075,89.95691107074747,2.6083403,0.4524868,5.850313,26.174032,-4.1629887,-5.803597,-15.677064,-7.498688,-11.897747,34.964104,-11.059376,10.306502,-8.130479,-0.0036774054,7.886605,-10.737252,20.048828,-28.035309,29.167122,-1.215608,4.2335544,4.5781484,9.89215,-15.660182,23.62636,61.10832,-10.354151,7.3923483,1.2387226
175,0.4267427921295166,40.26628112792969,80.2406997680664,1.5693241747086604,3.1821311830075483,89.99278465441589,3.0005155,0.4410384,5.733149,26.104345,-3.112698,-5.970965,-14.862914,-6.849529,-11.621348,30.884232,-10.036454,10.890063,-8.102822,-0.062223393,7.7152295,-10.522505,20.217566,-28.344992,28.377731,-1.973672,3.990755,3.972986,10.115914,-15.570501,23.6412,61.08223,-10.440779,7.36144,1.5103451
176,0.4972042143344879,40.89809799194336,80.33048248291016,1.6388593772607984,3.1726764461412675,90.03264263829902,3.349996,0.42793986,5.608898,26.157223,-2.1857352,-6.125774,-14.154086,-6.3559747,-11.432497,27.383987,-9.116217,11.204188,-8.063554,-0.12637363,7.5591493,-10.314044,20.406105,-28.68236,27.585783,-2.5559416,3.82808,3.4196188,10.278254,-15.494034,23.682861,61.068,-10.499506,7.3429565,1.771203
177,0.5574365854263306,41.51846694946289,80.38433837890625,1.6962826748090778,3.160969543741518,90.07132444478081,3.6591504,0.4305592,5.4731674,26.32075,-1.3933336,-6.27448,-13.602625,-6.000213,-11.355858,24.542112,-8.3249035,11.146443,-8.007711,-0.17830251,7.419532,-10.128812,20.613329,-29.059374,26.794832,-2.9089975,3.7717762,2.9253218,10.370378,-15.434767,23.762444,61.071205,-10.4925165,7.3353496,2.0159857
178,0.6281021237373352,42.1534309387207,80.4038314819336,1.7437531121695367,3.145418512188289,90.10777320272618,3.9304035,0.44951212,5.329088,26.59332,-0.7196651,-6.4185596,-13.171837,-5.7211847,-11.357069,22.207941,-7.6103253,10.839258,-7.934371,-0.21738383,7.2942657,-9.956642,20.838737,-29.476543,26.005484,-3.0923662,3.8016467,2.4605544,10.405392,-15.393922,23.868597,61.082623,-10.441172,7.337771,2.2475126
179,0.7160742282867432,42.79441833496094,80.39309692382812,1.7841670825640747,3.125536100389734,90.14829762384764,4.1397367,0.48392847,5.186952,27.027908,-0.16466045,-6.5474796,-12.849645,-5.497522,-11.463998,20.430403,-7.0054626,10.478005,-7.851152,-0.24618569,7.183059,-9.773335,21.078255,-29.905405,25.21687,-3.1772344,3.8580604,2.0364194,10.38418,-15.370473,23.995052,61.10188,-10.40289,7.354354,2.4774148
180,0.8102077841758728,43.43424606323242,80.34378051757812,1.82697280349129,3.10094430772779,90.19960701920769,4.2625184,0.53079015,5.057182,27.679493,0.26999474,-6.6507244,-12.62516,-5.325522,-11.694176,19.267427,-6.5351562,10.2470875,-7.76661,-0.27003443,7.084198,-9.5564375,21.326641,-30.316517,24.433287,-3.2349203,3.8823118,1.6638528,10.308839,-15.364457,24.13201,61.129013,-10.439895,7.3894453,2.716571
181,0.9054528474807739,44.05426025390625,80.25887298583984,1.8813680020753243,3.0767860675004925,90.26163966462242,4.302769,0.5781435,4.961196,28.538895,0.5668473,-6.7160115,-12.474655,-5.2493615,-12.162189,18.727308,-6.1062717,10.408227,-7.679686,-0.2974818,6.987842,-9.319134,21.58291,-30.725069,23.6677,-3.265134,3.8516865,1.3496985,10.179328,-15.377131,24.27988,61.172222,-10.587153,7.4604716,2.9996438
182,0.9728160500526428,44.6734733581543,80.1314926147461,1.931961634493281,3.053471775833745,90.32975247061916,4.266303,0.6430289,4.8876443,29.590117,0.72781295,-6.7539015,-12.427276,-5.2631874,-12.816955,18.817839,-5.7481656,10.771735,-7.584647,-0.3121642,6.897312,-9.069483,21.846508,-31.139374,22.916933,-3.2357616,3.7990227,1.0873456,9.992464,-15.4097185,24.443216,61.231056,-10.804423,7.5586634,3.3105662
183,1.0559755563735962,45.3159065246582,79.96723937988281,1.9480480253960395,3.021595337707377,90.40446221260757,4.1355567,0.75863236,4.7973,30.870644,0.7894088,-6.788182,-12.542577,-5.306307,-13.42601,19.580162,-5.672629,10.848875,-7.4857283,-0.28576174,6.830999,-8.7783785,22.111153,-31.51751,22.16659,-3.170596,3.7468193,0.8670653,9.750511,-15.46087,24.619364,61.288124,-11.04221,7.649541,3.5841079
184,1.1391355991363525,45.95854187011719,79.76395416259766,1.912722383523963,2.969947611139231,90.48786893243567,3.9044907,0.9428497,4.650814,32.397938,0.7947057,-6.8422565,-12.865042,-5.316658,-13.759778,21.014524,-6.0853515,10.172486,-7.389029,-0.20050974,6.8066216,-8.420637,22.368505,-31.817879,21.406916,-3.0943124,3.718071,0.6786882,9.453599,-15.528067,24.808725,61.328667,-11.247997,7.6994944,3.7540467
185,1.2307183742523193,46.6034049987793,79.53123474121094,1.8264890279530535,2.887365601081209,90.57902117140374,3.6025033,1.1839255,4.43626,34.155487,0.70929885,-6.898289,-13.548318,-5.2640114,-13.640382,23.47628,-7.1083193,8.252404,-7.303729,-0.05690565,6.8268094,-7.985127,22.612125,-32.02896,20.63834,-2.993821,3.724201,0.5159622,9.100459,-15.610007,25.018127,61.352425,-11.434198,7.689208,3.8159347
186,1.3258652687072754,47.2373046875,79.28053283691406,1.7394778255471006,2.775838811364383,90.68403575996342,3.250809,1.4214442,4.177682,36.09349,0.5494962,-6.945863,-14.479619,-5.168979,-13.212211,26.733957,-8.500499,5.483523,-7.229954,0.09443755,6.880911,-7.4922185,22.842182,-32.173473,19.875181,-2.8602412,3.750856,0.38417512,8.691541,-15.70605,25.248856,61.368195,-11.616401,7.64127,3.7997339
187,1.431960105895996,47.862098693847656,78.99327850341797,1.6730824187928675,2.647919237763743,90.81088149194352,2.8117905,1.635833,3.8855813,38.216026,0.41621748,-7.0282354,-15.330482,-5.032424,-12.735691,29.968441,-9.984298,2.7255218,-7.1561995,0.2266524,6.9670215,-6.956226,23.060318,-32.25764,19.12196,-2.7218144,3.782992,0.29136768,8.235928,-15.814241,25.484173,61.369083,-11.756955,7.5854344,3.6907842
188,1.5253219604492188,48.50989532470703,78.68212127685547,1.6108893703469984,2.5228987931799876,90.96071107305427,2.2286367,1.8520644,3.5659783,40.559914,0.39176562,-7.197695,-15.815775,-4.898018,-12.473157,32.484035,-11.443202,0.8082671,-7.064046,0.35214347,7.084173,-6.391114,23.267658,-32.288387,18.380917,-2.6070147,3.8055503,0.24676003,7.7321854,-15.933215,25.712248,61.355988,-11.811242,7.5505605,3.4748209
189,1.6124002933502197,49.13480758666992,78.34475708007812,1.5373520827503167,2.398151935688725,91.13590581040955,1.4623498,2.0941157,3.2080781,43.22103,0.50697345,-7.454147,-15.841286,-4.8333173,-12.497174,34.154324,-13.030704,0.068431646,-6.9468937,0.48177627,7.2448545,-5.808357,23.467081,-32.275528,17.6475,-2.551777,3.8123894,0.27024817,7.1821647,-16.06015,25.922152,61.332233,-11.74111,7.538639,3.103319
190,1.7130132913589478,49.74613952636719,77.985107421875,1.451016718114016,2.270044756540064,91.33091317351803,0.5426411,2.3493063,2.8099084,46.16851,0.70115405,-7.787106,-15.599593,-4.818546,-12.674007,35.41772,-14.8307,0.0102766985,-6.8100457,0.6211048,7.444654,-5.199146,23.6586,-32.21474,16.921335,-2.5333812,3.8125854,0.35221645,6.5851927,-16.194063,26.118681,61.29636,-11.582041,7.534536,2.5984552
191,1.8357630968093872,50.34210205078125,77.60781860351562,1.3366501985706072,2.1581328678413016,91.53372429823061,-0.4966076,2.6118574,2.3860474,49.27527,0.9092433,-8.229039,-15.244438,-4.799794,-12.952692,36.46658,-16.689188,0.1981049,-6.6515217,0.7900508,7.657275,-4.544525,23.835537,-32.09002,16.209543,-2.488284,3.8132534,0.4575823,5.927035,-16.340096,26.32033,61.24933,-11.390414,7.54178,2.051799
192,1.9762555360794067,50.94542694091797,77.21868896484375,1.18372357335263,2.0808369928673005,91.73357141776819,-1.6259354,2.8844976,1.9503947,52.427895,1.062039,-8.800722,-14.922945,-4.7127314,-13.261828,37.475544,-18.43735,0.20045911,-6.470945,1.0075023,7.8562555,-3.829627,23.98643,-31.887434,15.525103,-2.3543937,3.8214417,0.5507575,5.1931677,-16.508245,26.547527,61.191772,-11.220633,7.5656295,1.55531
193,2.0788025856018066,51.54592514038086,76.82870483398438,0.960645786869556,2.0534178739323576,91.96568218823485,-2.905977,3.1790383,1.4053952,55.730618,1.1937438,-9.588389,-14.646698,-4.5249734,-13.644704,38.45175,-20.086267,-0.09338976,-6.2892756,1.317696,8.025528,-3.0646324,24.102177,-31.613775,14.865104,-2.1497996,3.839069,0.596397,4.394438,-16.706,26.79732,61.09019,-11.073669,7.620751,1.1519808
194,2.164562702178955,52.14630889892578,76.4498519897461,0.6834572267878116,2.063494898659057,92.22242844146618,-4.3351254,3.4900355,0.7736799,59.2222,1.3115624,-10.5437355,-14.342197,-4.283853,-14.107573,39.313293,-21.70981,-0.44848096,-6.098724,1.6997235,8.179847,-2.2596035,24.177744,-31.27789,14.235972,-1.8951569,3.8616393,0.6214273,3.5431666,-16.934813,27.05722,60.94294,-10.927121,7.7005186,0.7878603
195,2.2435367107391357,52.731407165527344,76.08922576904297,0.4103079399600296,2.086762757337618,92.42994357436594,-5.7938976,3.8244596,0.25089383,62.691563,1.3126254,-11.4674225,-14.027797,-4.031171,-14.515204,40.091682,-23.226223,-0.7818599,-5.8588734,2.0790207,8.337977,-1.394427,24.205439,-30.866726,13.662431,-1.5295776,3.886914,0.6829628,2.6485763,-17.190887,27.32247,60.778244,-10.816611,7.779235,0.41100848
196,2.307272434234619,53.3055419921875,75.75894165039062,0.1964917127878814,2.09781984447696,92.51476904601118,-7.165873,4.2151647,0.03306506,65.92642,1.1028576,-12.149828,-13.724456,-3.805108,-14.743782,40.817898,-24.549314,-1.0166316,-5.5205855,2.3859696,8.5261135,-0.4586069,24.176453,-30.374355,13.167845,-0.99119925,3.9136188,0.8387363,1.63763,-17.46932,27.643959,60.69547,-10.704371,7.830038,-0.0320165
197,2.3399081230163574,53.861106872558594,75.4624252319336,0.0570630200979365,2.091841663402512,92.42418552471864,-8.423346,4.737821,0.23952267,68.94194,0.74157363,-12.599244,-13.457236,-3.6024537,-14.735024,41.511806,-25.665842,-1.1366144,-5.0587587,2.5980155,8.733481,0.583613,24.075981,-29.760021,12.7569065,-0.21369787,3.9421942,1.0748013,0.6340955,-17.771301,27.970917,60.622097,-10.723109,7.819843,-0.5630487
198,2.371077537536621,54.40913009643555,75.21878051757812,-0.04265374451653387,2.080714044088795,92.20767406571049,-9.625147,5.4043674,0.73424476,71.83877,0.25209692,-12.874553,-13.206896,-3.403451,-14.572823,42.148586,-26.614311,-1.1853142,-4.4699397,2.7701128,8.974787,1.6743194,23.897839,-29.075438,12.426376,0.75412613,3.9755497,1.3719586,-0.60758066,-18.100286,28.458187,60.73449,-10.626289,7.7687182,-1.1527599
199,2.3730521202087402,55.01887130737305,75.0435791015625,-0.11520321702474831,2.062983727810628,91.94784870653255,-10.774838,6.137458,1.3324858,74.50282,-0.50317657,-12.861332,-12.926797,-3.2235897,-14.350889,42.68761,-27.382849,-1.1776707,-3.868823,2.9102042,9.210827,2.818886,23.64711,-28.34205,12.209365,1.80671,4.0199885,1.7673875,-1.7820334,-18.434069,28.839645,60.74014,-10.676686,7.7454357,-1.7711267
200,2.3751907348632812,55.60853576660156,74.9107437133789,-0.17116554206044898,2.037886501699716,91.72849360702241,-11.881996,6.823019,1.853088,76.80647,-1.6595715,-12.474797,-12.57148,-3.08032,-14.161786,43.08973,-27.960262,-1.1276327,-3.3157656,3.02702,9.436908,3.9662206,23.341572,-27.63071,12.132681,2.8318372,4.082893,2.3066196,-2.8918803,-18.749062,29.037834,60.614784,-10.856558,7.8145275,-2.3924832
201,2.382361888885498,56.18699264526367,74.81327819824219,-0.20587561564514759,1.9973687448320177,91.55425805112321,-12.948,7.422133,2.2902246,78.74525,-3.443805,-11.563884,-12.125943,-2.9836473,-14.020986,43.35178,-28.346563,-1.022186,-2.8225465,3.0986466,9.660259,5.150648,22.987186,-26.899572,12.21207,3.9568326,4.1354103,3.0332134,-3.9296803,-19.030426,29.01308,60.35357,-11.270532,8.033558,-3.0369787
202,2.397510528564453,56.76940155029297,74.77671813964844,-0.2096915962087015,1.9446386801466315,91.38768177641832,-13.970143,7.9360213,2.705816,80.36993,-5.726209,-10.272887,-11.616925,-2.9265141,-13.88385,43.495228,-28.548674,-0.8588011,-2.3476899,3.116105,9.885274,6.37564,22.584908,-26.142748,12.421432,5.1849446,4.1950765,3.9151437,-4.9568315,-19.27801,28.84291,60.03593,-11.846978,8.357848,-3.710609
203,2.3877878189086914,57.3997917175293,74.80770874023438,-0.18771779202024497,1.8959992054559092,91.24989463653861,-14.961132,8.308007,3.0421872,81.62837,-8.094437,-8.954116,-11.060969,-2.9005704,-13.751873,43.516823,-28.565416,-0.6668973,-1.9054822,3.0995462,10.084398,7.5785007,22.15372,-25.448818,12.720794,6.2176323,4.3309984,4.8803434,-5.9279895,-19.493677,28.529842,59.640965,-12.450229,8.698612,-4.3685517
204,2.390470266342163,57.99940872192383,74.87652587890625,-0.1487834053209198,1.8673314322803232,91.16111269010892,-15.933854,8.526059,3.270344,82.4701,-10.126116,-7.9236917,-10.473336,-2.8933072,-13.626379,43.408833,-28.392872,-0.4767461,-1.5019393,3.0720358,10.234257,8.698975,21.727203,-24.911875,13.062818,6.75228,4.59938,5.859166,-6.7987304,-19.681267,28.071785,59.142612,-12.941238,8.9629755,-4.967229
205,2.3860795497894287,58.62251663208008,75.00080108642578,-0.09425173008819446,1.8586984083962519,91.12618795231414,-16.89544,8.578665,3.3888988,82.86485,-11.75745,-7.2523303,-9.846422,-2.9007008,-13.496028,43.15625,-28.016088,-0.29974288,-1.1363766,3.0255554,10.341471,9.759621,21.331825,-24.544998,13.434111,6.7027087,5.0411377,6.930921,-7.564645,-19.840021,27.404184,58.510593,-13.334246,9.155401,-5.477253
206,2.3729300498962402,59.26754379272461,75.17129516601562,-0.020292812856098488,1.8624657834423715,91.13401961841883,-17.83897,8.487164,3.4351246,82.84104,-13.185138,-6.762439,-9.17503,-2.9264624,-13.363272,42.76596,-27.441359,-0.11896863,-0.80470306,2.9465072,10.419331,10.799725,20.978672,-24.294592,13.832362,6.2161717,5.5991273,8.108331,-8.2210455,-19.970552,26.528173,57.736748,-13.706714,9.313104,-5.9266624
207,2.3674044609069824,59.88170623779297,75.38200378417969,0.06284741550194546,1.882850654835009,91.18063841749351,-18.751146,8.316114,3.4513197,82.43473,-14.379057,-6.3796015,-8.478389,-2.967405,-13.249617,42.26608,-26.697573,0.077153556,-0.5008904,2.8546042,10.466202,11.782226,20.681408,-24.155396,14.217669,5.345585,6.1746173,9.224095,-8.808644,-20.079441,25.592768,56.893772,-13.948056,9.388762,-6.3604407
208,2.3533923625946045,60.51477813720703,75.63247680664062,0.1479076188082452,1.9242360862159846,91.26237772637546,-19.617111,8.124065,3.477305,81.68056,-15.31055,-6.034548,-7.7773857,-3.0212257,-13.176235,41.686417,-25.814014,0.30029032,-0.22774728,2.7672496,10.474779,12.678305,20.451853,-24.115898,14.549431,4.1503882,6.6764455,10.106367,-9.331114,-20.176577,24.731398,56.022224,-13.976548,9.334939,-6.8241467
209,2.340937852859497,61.15180206298828,75.90934753417969,0.23525614476320605,1.9960012999140848,91.39650953871525,-20.461706,7.9127636,3.515901,80.569885,-15.937636,-5.7043934,-7.068797,-3.0872626,-13.155792,40.999104,-24.777102,0.57094383,-0.0064542843,2.691206,10.433472,13.477847,20.304386,-24.205494,14.807142,2.4004989,7.1285543,10.7679,-9.767356,-20.261736,23.931356,55.073425,-13.715994,9.114678,-7.3395076
210,2.304548740386963,61.83835220336914,76.22772216796875,0.3265025831910511,2.0927174385623624,91.57904035135783,-21.27412,7.654843,3.558498,79.084206,-16.287504,-5.4278183,-6.3455606,-3.1646707,-13.171472,40.20281,-23.579842,0.87695885,0.16931497,2.6122153,10.351445,14.210403,20.244102,-24.412083,15.001849,0.1443161,7.5570345,11.288464,-10.110416,-20.332216,23.132437,54.02651,-13.236523,8.756594,-7.8753304
211,2.2812788486480713,62.48810958862305,76.5578842163086,0.4220727815883359,2.196741195018603,91.77416904364944,-21.986515,7.361783,3.6240704,77.24191,-16.440601,-5.2322216,-5.62302,-3.25121,-13.201273,39.36447,-22.259155,1.1814085,0.3458871,2.523609,10.262442,14.88958,20.26059,-24.670723,15.141895,-2.1320982,7.897248,11.582876,-10.45966,-20.39404,22.43234,53.02588,-12.622824,8.312789,-8.397871
212,2.2589492797851562,63.13193893432617,76.9058609008789,0.5197568875172911,2.2906703256870315,91.94659891996213,-22.536152,7.0469246,3.7276783,75.06636,-16.47098,-5.1442842,-4.9153686,-3.3458407,-13.2248955,38.550037,-20.8509,1.4477352,0.5398624,2.4194822,10.178387,15.55567,20.32454,-24.89391,15.241626,-3.9348774,8.099035,11.551529,-10.736724,-20.45369,21.863253,52.06583,-12.067759,7.838486,-8.875824
213,2.216951847076416,63.78786087036133,77.26564025878906,0.6209012238563567,2.369030754294317,92.0950655653139,-22.907793,6.734828,3.886779,72.522285,-16.374731,-5.158583,-4.2173867,-3.450009,-13.243337,37.756374,-19.33349,1.6780691,0.7580104,2.3050258,10.105796,16.190054,20.41644,-25.07663,15.338385,-5.167289,8.137141,11.0631275,-10.962074,-20.516504,21.464546,51.176685,-11.533757,7.292846,-9.342676
214,2.1818833351135254,64.46378326416016,77.63213348388672,0.7234582667188628,2.441442872847919,92.23635255592146,-23.127377,6.406346,4.0902514,69.60532,-16.119387,-5.270173,-3.526791,-3.562744,-13.265698,36.960205,-17.700222,1.8882911,0.9793894,2.1906316,10.030889,16.776983,20.529371,-25.252317,15.431647,-6.0710835,8.063259,10.193378,-11.135825,-20.582577,21.205769,50.329037,-10.965535,6.6651964,-9.799869
215,2.1344103813171387,65.15142822265625,78.00643157958984,0.8234953737027101,2.5132429585743012,92.36074034015974,-23.195047,6.0199494,4.3023076,66.37378,-15.734554,-5.498764,-2.8625503,-3.6811528,-13.285301,36.19718,-16.008413,2.0626614,1.2029884,2.0823395,9.952803,17.329485,20.653719,-25.412807,15.48441,-6.662024,7.936343,9.154119,-11.30609,-20.652538,21.078995,49.5641,-10.426741,6.0596814,-10.173944
216,2.05859375,65.8667221069336,78.38692474365234,0.9163800181969256,2.5895367069368906,92.4583112902096,-23.114859,5.549808,4.4770784,62.884953,-15.251207,-5.8525653,-2.243339,-3.801652,-13.296882,35.50308,-14.3151045,2.1852717,1.414851,1.9865422,9.859668,17.87458,20.77471,-25.539558,15.461667,-6.952689,7.806853,8.158149,-11.419666,-20.723011,21.037842,48.83639,-10.039584,5.5828223,-10.39405
217,1.9877545833587646,66.57286071777344,78.753173828125,1.0023939248728195,2.675922590066485,92.52573487934914,-22.87342,5.001537,4.5928216,59.054672,-14.680497,-6.310049,-1.681184,-3.9321184,-13.309165,34.88174,-12.589545,2.2276273,1.6272818,1.9049394,9.755174,18.401564,20.885635,-25.639011,15.359727,-6.805644,7.65403,7.1463704,-11.615699,-20.801605,21.173967,48.27282,-9.7344,5.273291,-10.4621935
218,1.9084975719451904,67.2850341796875,79.09461975097656,1.0808903769804257,2.7677609944640356,92.5676558168897,-22.46747,4.4130764,4.6554837,54.868206,-14.002826,-6.854498,-1.1629244,-4.069321,-13.325533,34.31522,-10.814634,2.2053514,1.8334233,1.8407524,9.636226,18.904467,20.98134,-25.711828,15.206425,-6.2601714,7.444333,6.0444465,-11.8109,-20.88739,21.458733,47.800755,-9.511201,5.073734,-10.41216
219,1.8266876935958862,67.9965591430664,79.4202651977539,1.141714915501179,2.855597979529529,92.58615943171027,-21.922215,3.8165636,4.6568556,50.485813,-13.206586,-7.4891405,-0.6693819,-4.1926045,-13.331632,33.80417,-9.066049,2.1688514,2.034073,1.8021516,9.515889,19.370583,21.060001,-25.762144,15.01343,-5.586298,7.215327,5.048806,-12.005757,-20.974771,21.814997,47.415085,-9.372855,4.945994,-10.227903
220,1.747101902961731,68.71598052978516,79.72100067138672,1.172689804945898,2.9297890293087363,92.58312485120537,-21.266178,3.239463,4.5909243,46.068745,-12.27535,-8.22401,-0.17913806,-4.2795124,-13.309911,33.344925,-7.4176593,2.1694682,2.2270582,1.7956729,9.40353,19.78958,21.12174,-25.792902,14.793013,-5.0534344,7.018834,4.353299,-12.158905,-21.054522,22.144413,47.075016,-9.351251,4.851289,-9.8926325
221,1.6575615406036377,69.44366455078125,79.99280548095703,1.1664117125749929,2.990250806792949,92.5484505316705,-20.450108,2.639567,4.379444,41.441574,-11.148584,-9.160109,0.31567544,-4.314678,-13.253736,32.91126,-5.850948,2.2093177,2.438888,1.8223262,9.293403,20.125463,21.15315,-25.824585,14.575268,-4.706207,6.8640885,4.0784626,-12.272077,-21.10139,22.420675,46.809,-9.533011,4.7918177,-9.352773
222,1.563364863395691,70.18376159667969,80.22748565673828,1.1216028024222986,3.0395395485339542,92.48164605443948,-19.460592,2.0691442,4.0224814,36.549175,-9.847835,-10.230747,0.81038135,-4.2995157,-13.171871,32.50056,-4.331912,2.263647,2.6287782,1.8924748,9.195992,20.469164,21.186642,-25.805178,14.2572775,-4.417663,6.732624,4.086411,-12.363039,-21.163279,22.750465,46.58909,-9.842341,4.7829976,-8.634396
223,1.475936770439148,70.9272232055664,80.42105102539062,1.032118769961975,3.0715713011519554,92.40073513718107,-18.395374,1.6535738,3.6587763,31.76036,-8.478573,-11.231838,1.3111985,-4.234796,-13.070374,32.139072,-2.909254,2.3446991,2.8238373,2.0092103,9.105157,20.741564,21.20632,-25.791918,13.948264,-4.16727,6.6380377,4.2217164,-12.435123,-21.210138,23.041126,46.43985,-10.1811695,4.7972736,-7.838784
224,1.3900333642959595,71.68257141113281,80.56097412109375,0.9048903088111909,3.082549237795216,92.32630220165387,-17.376942,1.4541026,3.4609394,27.484121,-7.144602,-12.000533,1.8176001,-4.131922,-12.954931,31.864193,-1.6387177,2.4668665,2.9869068,2.1739302,9.019448,20.965939,21.216467,-25.772331,13.657098,-3.9437745,6.5929604,4.313847,-12.456576,-21.241207,23.266062,46.313362,-10.436856,4.8154383,-7.071905
225,1.2963486909866333,72.44017791748047,80.66710662841797,0.7428636228874645,3.0755289950696745,92.26372074957655,-16.427988,1.4582093,3.5565047,23.75507,-5.8099513,-12.506547,2.3429885,-3.9918168,-12.824987,31.64741,-0.5267045,2.6421082,3.1084106,2.3845472,8.937564,21.152773,21.220411,-25.738953,13.373402,-3.7596147,6.6200805,4.3641276,-12.461066,-21.261192,23.435879,46.241642,-10.56005,4.836287,-6.3155665
226,1.2033542394638062,73.20235443115234,80.72760772705078,0.546045515200116,3.0527595529358638,92.20357799650914,-15.513005,1.575692,3.8605893,20.414207,-4.442304,-12.876118,2.8832195,-3.8120642,-12.677287,31.478554,0.45450076,2.862315,3.2425406,2.6329472,8.861008,21.231504,21.219622,-25.734406,13.140839,-3.620368,6.7061405,4.4503074,-12.3946705,-21.26201,23.484694,46.19441,-10.658321,4.8680387,-5.5216236
227,1.1064648628234863,73.96001434326172,80.7394790649414,0.33245717080341985,3.0125636700976166,92.14823263217366,-14.69321,1.7203534,4.236656,17.625923,-3.171195,-13.186698,3.3989065,-3.621358,-12.513938,31.442911,1.290182,3.1152117,3.2802906,2.908964,8.785101,21.374329,21.213997,-25.660723,12.82802,-3.490213,6.8103237,4.502181,-12.356313,-21.257584,23.61346,46.211708,-10.663698,4.9200706,-4.784377
228,1.0013225078582764,74.71821594238281,80.70978546142578,0.13085025117933846,2.954940060685453,92.09988666038491,-14.035484,1.8227255,4.5418086,15.571452,-2.1294167,-13.497882,3.8428652,-3.4630265,-12.335316,31.637417,1.9602145,3.3897808,3.3148293,3.1702042,8.726421,21.408966,21.209604,-25.608252,12.573734,-3.3493803,6.8882117,4.4629087,-12.26884,-21.243252,23.682076,46.225903,-10.646699,4.9878526,-4.1608367
229,0.9040597677230835,75.49380493164062,80.63571166992188,-0.05823680111820813,2.8809223347831945,92.06122159989229,-13.541295,1.8985606,4.798399,14.291347,-1.2436774,-14.038006,4.2240376,-3.3412845,-12.151849,32.050545,2.4440339,3.6918554,3.3198187,3.4179373,8.677104,21.383753,21.208113,-25.545074,12.342248,-3.1924498,6.9432645,4.3027654,-12.168084,-21.218422,23.748747,46.269135,-10.561719,5.089028,-3.666155
230,0.8084454536437988,76.24779510498047,80.51460266113281,-0.21763834127948184,2.7955949800104842,92.03501261490905,-13.21168,1.953843,5.0646887,13.744819,-0.50098073,-14.686403,4.5418916,-3.2730932,-11.959453,32.67354,2.7414322,4.0294266,3.291246,3.6369522,8.634801,21.303864,21.210823,-25.470842,12.124628,-3.0341375,6.9927845,4.0586696,-12.042823,-21.185223,23.801285,46.335327,-10.414829,5.2188764,-3.2642663
231,0.7066042423248291,76.99324798583984,80.34661865234375,-0.2990723337817604,2.70426522900601,92.02636228886972,-13.102674,1.9283258,5.2499113,13.976404,-0.13347232,-14.977914,4.73898,-3.3192844,-11.741562,33.604153,2.8645875,4.395442,3.2060938,3.7675493,8.606257,21.1853,21.224646,-25.384186,11.905375,-2.8687966,7.0152497,3.762841,-11.9243765,-21.12288,23.851828,46.43901,-10.243125,5.3464594,-2.9671252
232,0.6089505553245544,77.7455062866211,80.12614440917969,-0.2700782221729009,2.6093443891525108,92.037096515556,-13.251702,1.7734231,5.2675176,14.997283,-0.3666211,-14.46234,4.769688,-3.5193038,-11.481251,34.921055,2.8350384,4.781016,3.0643556,3.7665741,8.596736,21.026117,21.265554,-25.311554,11.678797,-2.7010593,6.989842,3.4564028,-11.798778,-21.020102,23.878654,46.557407,-10.099971,5.441413,-2.7838652
233,0.5198403596878052,78.48278045654297,79.86466217041016,-0.11171395078967129,2.507148207981971,92.08708307293314,-13.819138,1.4178964,4.9648595,17.175283,-1.3034067,-12.697301,4.634645,-3.8897595,-11.180071,36.65832,2.6252158,5.1810775,2.8585794,3.6227372,8.617879,20.823225,21.337719,-25.269264,11.436469,-2.538581,6.877595,3.131414,-11.651172,-20.899609,23.869663,46.669456,-9.97205,5.4898114,-2.7463868
234,0.4125870168209076,79.21356964111328,79.57907104492188,0.09593101527061763,2.387542741972956,92.15886062055995,-14.696253,0.9228984,4.4137673,20.305796,-2.7191565,-10.054725,4.390504,-4.3295813,-10.849701,38.71207,2.2622433,5.5884666,2.6030126,3.4198966,8.667848,20.58843,21.441027,-25.244862,11.16937,-2.3822882,6.7018657,2.7746012,-11.478968,-20.76575,23.830435,46.77907,-9.845083,5.5094543,-2.837157
235,0.3065812289714813,79.93327331542969,79.23538208007812,0.2725788873265378,2.248462879089793,92.20448703920634,-15.524437,0.41084865,3.8620248,23.555408,-4.389698,-7.2950234,4.0562744,-4.7470345,-10.483896,40.990273,1.8308289,6.0018673,2.3352587,3.2355223,8.742959,20.323437,21.571272,-25.230495,10.874126,-2.2198071,6.533587,2.4143457,-11.293751,-20.626337,23.776085,46.881187,-9.7295475,5.5168495,-2.9835231
236,0.20005516707897186,80.66317749023438,78.837646484375,0.4043609584972145,2.0983083531848075,92.18710742459047,-15.994608,0.0022803126,3.5588748,26.195202,-6.2317863,-5.141291,3.6168919,-5.129729,-10.06978,43.45969,1.3854384,6.4364505,2.0852745,3.0812545,8.835487,20.017603,21.721159,-25.218805,10.560127,-2.036764,6.4423704,2.0776234,-11.104226,-20.492926,23.720795,46.966446,-9.63346,5.5292726,-3.1141472
237,0.08401570469141006,81.3893051147461,78.40373229980469,0.5117812716688979,1.9254066762682607,92.09906789400834,-16.006777,-0.23668014,3.567692,28.116758,-8.494743,-3.7954628,3.0554857,-5.4895983,-9.569045,46.21491,0.88685924,6.9087477,1.8584448,2.941969,8.9592495,19.680279,21.883596,-25.191101,10.198853,-1.8406498,6.44609,1.7269061,-10.901885,-20.375498,23.658588,47.005363,-9.58457,5.549637,-3.2011445
238,-0.029422512277960777,82.10270690917969,77.92933654785156,0.6214195686841947,1.7347933371434676,91.96494293733754,-15.759778,-0.3897636,3.7437935,29.738037,-11.199821,-2.8511434,2.3691883,-5.8528175,-8.99989,49.271667,0.3025615,7.4178405,1.6355736,2.7944045,9.111487,19.304218,22.056328,-25.157902,9.805206,-1.6321241,6.5065503,1.3611441,-10.676646,-20.275007,23.58392,46.999645,-9.568231,5.569835,-3.2847502
239,-0.13116808235645294,82.77738189697266,77.42501831054688,0.7507792919712105,1.5641639204091067,91.80024423447618,-15.429946,-0.53010136,4.0304313,31.206394,-14.008637,-2.1048167,1.5528649,-6.259284,-8.428609,52.494335,-0.30766732,7.955431,1.4065853,2.6133504,9.25591,18.852356,22.2402,-25.155499,9.453689,-1.3853872,6.609342,1.0621511,-10.438531,-20.186916,23.512001,46.99148,-9.52977,5.5905504,-3.3962827
240,-0.24727417528629303,83.48162841796875,76.9178237915039,0.9180458150198584,1.450482179821968,91.61957056885608,-15.1824665,-0.7280558,4.366887,32.648438,-16.567942,-1.3586869,0.6024234,-6.7538915,-7.915898,55.746346,-0.8788683,8.506469,1.1601422,2.3753157,9.354826,18.29017,22.436623,-25.218142,9.21725,-1.0762169,6.7408724,0.91217446,-10.180105,-20.101593,23.449171,47.00909,-9.428754,5.6123724,-3.567073
241,-0.370130330324173,84.1881103515625,76.41218566894531,1.1619003739409541,1.416548632024931,91.39586560624784,-15.03596,-1.0182616,4.8345137,34.06156,-18.889917,-0.53055304,-0.55001986,-7.384801,-7.380364,59.13966,-1.317064,9.186284,0.9051806,2.0269642,9.378289,17.646273,22.644077,-25.315006,9.045179,-0.693499,6.9072275,0.9258924,-9.945565,-20.021393,23.435478,47.062763,-9.21696,5.6488523,-3.789469
242,-0.48004767298698425,84.88400268554688,75.93033599853516,1.4673175468754234,1.4402500909117621,91.13320875442294,-14.905548,-1.3382276,5.428515,35.39559,-21.146147,0.2523866,-1.8802532,-8.117288,-6.8103,62.70243,-1.687735,9.961644,0.63886064,1.5934445,9.351662,16.929548,22.859783,-25.436348,8.917696,-0.2518672,7.114276,1.0620402,-9.724931,-19.945213,23.457384,47.13688,-8.930537,5.694534,-4.052969
