unveil-humanoid-operators/unveil-humanoid-operators.github.io/feature-analysis-animation/data/feature_matrix_instances/age_ankle_rom_jogging_A060_jog_ff_stop_360_001__A060.csv
Frame,root_translateX,root_translateY,root_translateZ,root_rotateX,root_rotateY,root_rotateZ,left_hip_pitch_joint_dof,left_hip_roll_joint_dof,left_hip_yaw_joint_dof,left_knee_joint_dof,left_ankle_pitch_joint_dof,left_ankle_roll_joint_dof,right_hip_pitch_joint_dof,right_hip_roll_joint_dof,right_hip_yaw_joint_dof,right_knee_joint_dof,right_ankle_pitch_joint_dof,right_ankle_roll_joint_dof,waist_yaw_joint_dof,waist_roll_joint_dof,waist_pitch_joint_dof,left_shoulder_pitch_joint_dof,left_shoulder_roll_joint_dof,left_shoulder_yaw_joint_dof,left_elbow_joint_dof,left_wrist_roll_joint_dof,left_wrist_pitch_joint_dof,left_wrist_yaw_joint_dof,right_shoulder_pitch_joint_dof,right_shoulder_roll_joint_dof,right_shoulder_yaw_joint_dof,right_elbow_joint_dof,right_wrist_roll_joint_dof,right_wrist_pitch_joint_dof,right_wrist_yaw_joint_dof
0,-0.4472701847553253,2.3171193599700928,73.96446990966797,3.949278985480133,-0.26959466074410965,-91.85303813710739,-24.169716,1.7833631,-1.1086066,40.965996,-16.014973,-11.018377,-14.863669,-10.5832,11.8659115,85.8892,-16.249815,6.4529643,6.7464275,0.6075586,20.310204,34.788513,21.447502,-8.089135,-22.510508,6.7179613,-5.216537,-1.2742095,-14.3953285,-35.940407,30.972069,-18.75588,-19.588577,-16.517315,-8.281974
1,-0.5620551109313965,3.4130401611328125,74.31263732910156,3.806170619859142,0.12685941342342266,-91.8961321976617,-24.289665,2.0618749,-1.2763196,38.124382,-13.458281,-11.267584,-13.912757,-9.518867,12.089326,84.10137,-15.105913,6.54004,7.669274,0.8804194,19.545143,37.24892,21.212593,-8.046754,-23.27223,6.2005115,-5.382118,-1.0102357,-15.1008,-36.241634,30.7385,-19.158821,-19.315449,-16.492561,-8.205855
2,-0.6942512392997742,4.514586448669434,74.67937469482422,3.661647401611069,0.5294971156231888,-91.9439382289631,-24.441227,2.3184037,-1.4391358,35.316288,-10.89807,-11.515904,-12.960309,-8.434551,12.360726,82.34611,-13.976472,6.6023207,8.563685,1.1995735,18.772072,39.67058,20.810724,-8.051901,-23.982006,5.731286,-5.5580254,-0.78210133,-15.81054,-36.69748,30.563007,-19.649452,-19.034515,-16.452137,-8.141625
3,-0.8334831595420837,5.633654594421387,75.0545654296875,3.4910144104039813,0.9103944019331962,-91.9954798501396,-24.473497,2.6145341,-1.6056519,32.346073,-8.303182,-11.773161,-11.999374,-7.395571,12.60423,80.51914,-12.830633,6.6863503,9.415809,1.5748866,18.02113,41.987873,20.297634,-8.076441,-24.606014,5.313002,-5.746223,-0.58725804,-16.392912,-37.26232,30.366692,-20.26385,-18.7009,-16.409466,-8.1019
4,-0.9743548035621643,6.762496471405029,75.42718505859375,3.266187120323831,1.2410799611394052,-92.05097842193761,-24.235725,3.009244,-1.7809026,29.010117,-5.6383634,-12.051907,-11.021378,-6.460114,12.741025,78.5126,-11.639794,6.840375,10.207674,2.0247948,17.328083,44.142963,19.716888,-8.077354,-25.121403,4.9531913,-5.9495955,-0.42871237,-16.761915,-37.889614,30.079351,-20.998936,-18.256893,-16.3768,-8.102215
5,-1.124584436416626,7.892261981964111,75.78243255615234,2.9468201147218918,1.4999479885275422,-92.1294889608116,-23.507448,3.5080469,-2.1280515,24.78174,-2.5394857,-12.5329,-9.9702,-5.521166,12.810982,76.221924,-10.305408,7.2091737,10.973608,2.5982273,16.701004,46.156696,19.09868,-8.039768,-25.52129,4.6413183,-6.174045,-0.26314938,-16.852707,-38.54687,29.65628,-21.858276,-17.645954,-16.36675,-8.16261
6,-1.2696105241775513,9.016819953918457,76.10228729248047,2.5277043540044515,1.6968029092134975,-92.23616461171494,-22.398972,4.112191,-2.5983405,19.864283,0.88920367,-13.167151,-8.852094,-4.541906,12.833334,73.7175,-8.868187,7.720898,11.736181,3.289037,16.11922,48.0799,18.462116,-7.9768195,-25.851685,4.361247,-6.4124336,-0.09171842,-16.735891,-39.217625,29.122528,-22.805004,-16.917324,-16.374233,-8.262741
7,-1.4269479513168335,10.121176719665527,76.36959838867188,2.0504903067914038,1.8568554512579565,-92.34352474704575,-21.287926,4.8366113,-2.8478782,15.215976,3.9432118,-13.61834,-7.7582254,-3.6991982,12.684503,71.15376,-7.5068736,8.107078,12.440003,4.013834,15.57157,49.90471,17.820293,-7.8721433,-26.165653,4.116158,-6.648465,0.013094601,-16.49428,-39.886555,28.515707,-23.809593,-16.18447,-16.384405,-8.35722
8,-1.5906544923782349,11.206302642822266,76.56721496582031,1.6200543956996825,2.0252141941924506,-92.40237263784074,-20.607279,5.604493,-2.4980075,11.885382,5.875012,-13.531641,-6.8020673,-3.2361147,12.22947,68.7037,-6.4135156,8.115383,13.007876,4.6248026,15.050253,51.60342,17.183193,-7.707249,-26.496737,3.9093845,-6.8657985,-0.023429308,-16.221235,-40.53451,27.880423,-24.83192,-15.562075,-16.38114,-8.404571
9,-1.7638953924179077,12.31608772277832,76.72305297851562,1.291927950429381,2.2226552019514734,-92.38212363783887,-20.452011,6.398629,-1.2853206,10.085662,6.264405,-12.644483,-6.0094113,-3.3352191,11.297915,66.41477,-5.57803,7.6057014,13.414782,5.0454326,14.540451,53.239513,16.539558,-7.417265,-26.857048,3.7570145,-7.069123,-0.28816923,-15.920226,-41.145153,27.214132,-25.868242,-15.057932,-16.355574,-8.384496
10,-1.9363462924957275,13.464210510253906,76.84941864013672,1.0428764152210543,2.4361769669950393,-92.29690886051732,-20.627327,7.2033033,0.52324176,9.349817,5.5047765,-11.2213745,-5.311623,-3.8452516,9.968865,64.21021,-4.9507656,6.7721596,13.675297,5.324176,14.05485,54.80263,15.885972,-7.012746,-27.220778,3.6515658,-7.263075,-0.71907735,-15.57922,-41.704773,26.516571,-26.903965,-14.623294,-16.317396,-8.3225765
11,-2.1223201751708984,14.623697280883789,76.90068817138672,0.8883229365910618,2.670950656908153,-92.15537186028881,-21.145983,7.9441566,2.5085752,9.704554,4.080777,-9.657078,-4.699025,-4.54254,8.490966,62.0856,-4.6655183,5.877833,13.763918,5.465181,13.626099,56.150616,15.25467,-6.587765,-27.564735,3.5586076,-7.43081,-1.1662141,-15.266235,-42.199677,25.838602,-27.89392,-14.291192,-16.279873,-8.245401
12,-2.314196825027466,15.803468704223633,76.89013671875,0.8323624974553997,2.9306003447939353,-91.97125502000706,-22.015594,8.584283,4.2813163,11.138311,2.5436203,-8.295144,-4.1785746,-5.199955,7.132732,60.020306,-4.82378,5.1766706,13.672176,5.479845,13.279698,57.148018,14.69949,-6.24464,-27.872936,3.4365964,-7.554918,-1.4749895,-15.041464,-42.615665,25.222378,-28.790247,-14.095616,-16.25727,-8.179478
13,-2.5188515186309814,17.01267433166504,76.82832336425781,0.8575883102575707,3.2539122470763133,-91.73858158464117,-23.351612,9.231291,5.952037,13.852789,0.94928694,-7.1366873,-3.7644138,-5.7708235,5.9371066,57.87861,-5.3498178,4.7180486,13.387596,5.3637757,12.973264,57.792973,14.261778,-6.010669,-28.166119,3.2397902,-7.6083503,-1.5845406,-14.951746,-42.94017,24.661873,-29.57898,-14.1124735,-16.264912,-8.112245
14,-2.729576826095581,18.265945434570312,76.70087432861328,0.9126074708515516,3.6120191671203226,-91.47013604375006,-25.057812,10.024354,7.616603,17.722847,-0.9301017,-5.9811645,-3.4267893,-6.296528,4.766582,55.68013,-6.19532,4.3813696,12.955858,5.1682353,12.697967,58.169315,13.951371,-5.8366637,-28.468142,2.987797,-7.6062956,-1.5710908,-14.942997,-43.17012,24.124557,-30.275833,-14.305514,-16.293152,-8.030286
15,-2.948330879211426,19.541305541992188,76.5058364868164,0.967563714863542,3.9101520922037856,-91.20661997586527,-26.85239,10.90086,8.912223,22.250996,-2.923693,-4.8558273,-3.1362565,-6.7272673,3.6445887,53.642227,-7.4812994,4.150974,12.458408,4.967711,12.532021,58.263985,13.772865,-5.7132177,-28.754272,2.7375634,-7.594976,-1.4870925,-14.910748,-43.30995,23.603247,-30.895994,-14.5392065,-16.317564,-7.960741
16,-3.1770951747894287,20.837535858154297,76.24635314941406,1.0292971124797943,4.0639685221315025,-90.9770792732681,-28.482557,11.674291,9.511907,26.940165,-4.8372273,-3.819279,-2.8820002,-7.072586,2.606089,51.993565,-9.341254,4.010065,11.965305,4.7938523,12.556176,58.052788,13.726927,-5.629138,-28.991154,2.5462873,-7.620531,-1.386068,-14.752776,-43.36917,23.092487,-31.45626,-14.677406,-16.312948,-7.933284
17,-3.412842035293579,22.14751434326172,75.93515014648438,1.1248293836254382,4.047753218321235,-90.7587026849233,-29.987719,12.19732,9.307101,31.897877,-6.6382437,-2.8271198,-2.6376011,-7.372582,1.6673629,50.76202,-12.063808,3.9567063,11.45741,4.630993,12.815856,57.47457,13.829899,-5.600568,-29.165571,2.432214,-7.6974,-1.2776054,-14.439827,-43.35058,22.572254,-32.00891,-14.671085,-16.260323,-7.959057
18,-3.651031494140625,23.463150024414062,75.58966827392578,1.2567010025052532,3.9086005774406534,-90.54549035385064,-31.448204,12.453626,8.531483,37.22803,-8.34169,-1.9281094,-2.4330544,-7.650744,0.8230293,49.832912,-15.484369,4.003744,10.922815,4.44936,13.261581,56.552746,14.090231,-5.6321435,-29.29465,2.359827,-7.8001294,-1.1318858,-14.013103,-43.25786,22.035187,-32.538208,-14.596764,-16.177,-8.0213785
19,-3.8789517879486084,24.803796768188477,75.19938659667969,1.4173817699583344,3.6821073374680835,-90.37973124215686,-32.74618,12.411527,7.3950753,42.56681,-9.88754,-1.3317313,-2.3630385,-7.933022,0.07199053,49.24999,-19.073977,4.137431,10.424084,4.236348,13.831155,55.38267,14.482613,-5.6942334,-29.380354,2.3103468,-7.915331,-0.94727826,-13.4733305,-43.10352,21.49862,-32.968727,-14.505055,-16.091742,-8.111534
20,-4.089836120605469,26.14527702331543,74.77875518798828,1.6012488805534784,3.4052498242996845,-90.30150794611794,-33.784164,12.100201,6.093934,47.622677,-11.276172,-1.2153429,-2.5236075,-8.247906,-0.58984655,49.07205,-22.321194,4.3265705,10.009265,3.9849865,14.465466,54.05662,14.958161,-5.7549524,-29.424692,2.2716334,-8.030555,-0.7279401,-12.829376,-42.901703,20.992329,-33.231144,-14.443848,-16.032661,-8.223724
21,-4.280154705047607,27.48021697998047,74.31958770751953,1.8566982227495639,3.0462445830890763,-90.30604104100776,-34.541927,11.367152,4.5051274,52.46444,-12.574439,-1.7389034,-2.9285567,-8.7083845,-1.2312114,49.419807,-25.243576,4.5465446,9.666059,3.6586413,15.211493,52.56603,15.486639,-5.8119907,-29.426752,2.3027608,-8.169956,-0.47033438,-12.075493,-42.65999,20.53126,-33.342556,-14.381494,-16.001648,-8.37605
22,-4.46956729888916,28.825637817382812,73.84443664550781,2.182942336923494,2.6040422944674506,-90.37223933135597,-35.06851,10.190767,2.6577437,57.288918,-13.848167,-2.813157,-3.5489626,-9.299752,-1.8247358,50.25966,-28.089437,4.79423,9.355475,3.264722,16.081165,50.864506,16.061012,-5.882278,-29.373497,2.4018068,-8.33181,-0.18376695,-11.230556,-42.380035,20.122133,-33.327995,-14.30481,-15.984358,-8.568636
23,-4.653773784637451,30.173419952392578,73.36385345458984,2.496816095247692,2.1600893598952466,-90.51577517803119,-35.386673,8.892154,0.92185545,62.00576,-15.10207,-4.177373,-4.40707,-9.844153,-2.2302785,51.405907,-30.693485,5.0569863,9.077264,2.8677664,16.96553,48.992424,16.658924,-5.955402,-29.246475,2.4659374,-8.465659,0.10739518,-10.337785,-42.066128,19.788094,-33.131664,-14.289057,-15.984211,-8.7676935
24,-4.816395282745361,31.524133682250977,72.87918090820312,2.711748234902398,1.7942118075164606,-90.75138026611624,-35.54408,7.8446364,-0.38935274,66.499535,-16.288849,-5.5299644,-5.5247884,-10.1500025,-2.3113465,52.667362,-32.883335,5.320639,8.819583,2.5364473,17.758635,46.996006,17.246159,-6.012107,-29.030031,2.3945792,-8.522927,0.37599295,-9.451251,-41.72215,19.563782,-32.690464,-14.408013,-16.004211,-8.940284
25,-4.957022666931152,32.867305755615234,72.4129638671875,2.7884348756068014,1.5224097157508967,-91.13987758262616,-35.558434,7.1633234,-1.289352,70.767914,-17.351622,-6.9343157,-6.9807487,-10.09698,-1.9155128,54.07226,-34.597855,5.6084824,8.602528,2.2996,18.451307,44.887108,17.77888,-6.0278993,-28.720947,2.1381602,-8.478106,0.6150074,-8.643301,-41.351692,19.512865,-31.959808,-14.6987915,-16.03503,-9.0630455
26,-5.071822643280029,34.196067810058594,71.97319030761719,2.779802312313077,1.3017705888642004,-91.65204038758725,-35.411438,6.6931396,-1.9412302,74.87954,-18.336027,-8.467678,-8.731102,-9.7895775,-1.1652994,55.692997,-35.942993,5.9115796,8.386945,2.1166332,19.095602,42.661274,18.238482,-5.992337,-28.331825,1.7699809,-8.364671,0.8283279,-7.885282,-40.954742,19.639797,-30.981894,-15.120154,-16.077276,-9.1605625
27,-5.188992977142334,35.5147590637207,71.56507873535156,2.733732470057688,1.1237963022281667,-92.16828977266663,-35.114166,6.4371147,-2.311766,78.78772,-19.284487,-9.82039,-10.614615,-9.370336,-0.33817568,57.4008,-36.977062,6.1701083,8.085593,1.9589325,19.679474,40.332554,18.644215,-5.915064,-27.875181,1.3701997,-8.222302,1.0087593,-7.0966687,-40.52594,19.88095,-29.800325,-15.622782,-16.148705,-9.272456
28,-5.314223766326904,36.813209533691406,71.20052337646484,2.695540106507275,0.9814835457952964,-92.57068895757928,-34.68497,6.4062266,-2.3821676,82.43515,-20.21613,-10.675733,-12.479911,-8.995031,0.30327412,59.067547,-37.757626,6.3184886,7.6410894,1.8044194,20.193201,37.89661,19.045103,-5.829365,-27.362871,1.0115454,-8.088733,1.1558217,-6.287991,-40.05598,20.168999,-28.364775,-16.125772,-16.26799,-9.437989
29,-5.436833381652832,38.07522201538086,70.87324523925781,2.6510651713698516,0.9052280680867121,-92.85505313058422,-34.161667,6.7342997,-2.1076694,85.83895,-21.123823,-10.840014,-14.373021,-8.66199,0.72284305,60.715973,-38.222694,6.301881,7.0564456,1.6621629,20.600096,35.333305,19.471039,-5.7499657,-26.774557,0.6538384,-7.955627,1.290657,-5.3040805,-39.54208,20.465492,-26.777784,-16.685266,-16.445599,-9.64969
30,-5.538607120513916,39.30661392211914,70.56920623779297,2.5801770548864744,0.8877853808716042,-93.07679655858267,-33.528923,7.4135747,-1.5693169,89.02646,-21.977623,-10.485588,-16.347958,-8.30346,1.0490017,62.395878,-38.36664,6.173203,6.384021,1.5432401,20.914787,32.656147,19.927711,-5.666891,-26.13008,0.26594722,-7.8075733,1.4191896,-4.1585207,-38.987312,20.78181,-25.041407,-17.322182,-16.670801,-9.892412
31,-5.625631809234619,40.51067352294922,70.29518127441406,2.520281707347836,0.8669767260310554,-93.20910696409335,-32.718575,8.235011,-0.9300649,91.926025,-22.74949,-9.85286,-18.263662,-7.990714,1.280026,63.996212,-38.312637,6.0197377,5.635127,1.4174808,21.192339,29.909359,20.432577,-5.580603,-25.492258,-0.06911245,-7.670402,1.5184983,-2.9526722,-38.393402,21.085405,-23.091482,-17.935183,-16.930063,-10.190313
32,-5.702256202697754,41.67946243286133,70.04601287841797,2.5115735479391557,0.7810092457221839,-93.22348896218121,-31.677572,8.976077,-0.3356026,94.47415,-23.414482,-9.1910305,-19.985807,-7.797091,1.4220829,65.42145,-38.198605,5.926301,4.819065,1.2454579,21.480133,27.126701,21.010464,-5.501415,-24.913696,-0.2703975,-7.568808,1.5663391,-1.6214317,-37.762783,21.303576,-21.00565,-18.472946,-17.209728,-10.564634
33,-5.783873558044434,42.82874298095703,69.82450103759766,2.588928096182107,0.5944056577633914,-93.09951662108016,-30.351637,9.622547,0.2555852,96.65844,-23.949724,-8.468552,-21.492472,-7.7808204,1.4718871,66.715576,-38.012726,5.9054027,3.9385757,0.99895376,21.81308,24.248999,21.6823,-5.453457,-24.374596,-0.27369562,-7.505995,1.5359914,-0.08389685,-37.08993,21.390636,-18.789108,-18.932873,-17.518108,-11.052481
34,-5.873928070068359,43.963043212890625,69.62657165527344,2.7214886831160445,0.3452651806378942,-92.85918049117737,-28.788857,10.285732,0.8890436,98.51801,-24.375273,-7.5757694,-22.851734,-7.8930907,1.4380027,67.90621,-37.698734,5.915896,3.012933,0.7041681,22.149359,21.243298,22.452295,-5.468221,-23.837791,-0.14774458,-7.469125,1.4543505,1.6522853,-36.372383,21.367306,-16.435625,-19.342354,-17.859213,-11.632162
35,-5.961427211761475,45.078739166259766,69.45218658447266,2.849743450479048,0.08284703451163197,-92.53519094398203,-27.102488,10.915773,1.4340013,100.060356,-24.720549,-6.666549,-24.066357,-8.049055,1.3443886,68.87872,-37.32804,5.95585,2.0765932,0.4052509,22.423798,18.162174,23.316402,-5.5806556,-23.309143,-0.009535389,-7.4595947,1.3775607,3.523336,-35.62031,21.254711,-14.014137,-19.69452,-18.213642,-12.237901
36,-6.046337127685547,46.16803741455078,69.30923461914062,2.9166409367116533,-0.14218910830300946,-92.15836938596394,-25.412474,11.459993,1.7600192,101.2907,-25.005644,-5.9080176,-25.14052,-8.164941,1.2127056,69.520454,-36.974545,6.0170646,1.1609259,0.15138382,22.577707,15.058148,24.265009,-5.8235116,-22.794863,0.025838153,-7.478668,1.360046,5.4557433,-34.852104,21.071852,-11.585691,-19.972666,-18.561918,-12.805506
37,-6.125270843505859,47.2421989440918,69.19178009033203,2.9120780436596725,-0.32291109505124765,-91.69253954980987,-23.742428,11.877526,1.8083066,102.210686,-25.21828,-5.3523564,-26.046675,-8.233718,1.0452598,69.77524,-36.67663,6.1286364,0.24467003,-0.030962573,22.595848,11.86548,25.300013,-6.2581596,-22.274124,-0.07954829,-7.5391207,1.4231819,7.4901223,-34.072792,20.785467,-9.137454,-20.14844,-18.90761,-13.329622
38,-6.204813480377197,48.300472259521484,69.10639190673828,2.864521451521633,-0.4829035756711342,-91.13469479890944,-22.049421,12.2075,1.6600757,102.82103,-25.341707,-4.9174194,-26.793648,-8.296643,0.83094203,69.71467,-36.391205,6.2775254,-0.67068,-0.16597804,22.512093,8.540277,26.412413,-6.892699,-21.732016,-0.268709,-7.638034,1.540225,9.668331,-33.275955,20.38662,-6.6716228,-20.227177,-19.26063,-13.8414345
39,-6.280426025390625,49.343353271484375,69.04907989501953,2.7742509769384425,-0.6167890233190128,-90.56468957915638,-20.353552,12.5110035,1.4070635,103.12479,-25.385815,-4.5654373,-27.43906,-8.3421,0.56873614,69.41329,-36.06563,6.3959203,-1.5403882,-0.2807153,22.347656,5.196541,27.56531,-7.6493864,-21.204893,-0.50510865,-7.753118,1.6849958,11.904522,-32.465675,19.949734,-4.2677536,-20.250275,-19.607193,-14.332226
40,-6.347404956817627,50.37126541137695,69.02662658691406,2.641845712966814,-0.7192940781935178,-90.0622588513597,-18.67104,12.844281,1.1432377,103.12479,-25.361921,-4.258264,-28.040752,-8.358423,0.25647265,68.947556,-35.6502,6.4172153,-2.341318,-0.4013276,22.125103,1.981241,28.710886,-8.4140215,-20.737011,-0.73971933,-7.8615575,1.820246,14.077169,-31.658344,19.573061,-1.9784764,-20.260983,-19.930275,-14.796685
41,-6.402009963989258,51.38422775268555,69.03614807128906,2.4456459408511777,-0.7872585577018277,-89.62670015911985,-16.99643,13.216283,0.8385937,102.824615,-25.26808,-4.0011578,-28.560873,-8.343059,-0.1646455,68.26846,-35.212902,6.289292,-3.0991125,-0.5053277,21.829708,-1.0814302,29.825396,-9.15064,-20.335787,-0.932131,-7.958368,1.9133085,16.151628,-30.87342,19.297152,0.26240316,-20.262423,-20.228157,-15.257746
42,-6.434729099273682,52.382911682128906,69.08527374267578,2.1925278848206773,-0.822583311707498,-89.22230008141341,-15.326037,13.597612,0.46940243,102.22609,-25.098677,-3.8098533,-28.982403,-8.297669,-0.68262804,67.35741,-34.75705,6.0603952,-3.8439991,-0.5782297,21.46149,-4.0365777,30.908157,-9.892306,-19.992908,-1.0994227,-8.056581,1.9757614,18.16899,-30.120907,19.08872,2.4691517,-20.231869,-20.504892,-15.713967
43,-6.455062389373779,53.38789749145508,69.16576385498047,1.925106213339834,-0.8288661303281579,-88.87673509691506,-13.6781,13.982182,0.13861871,101.33122,-24.86263,-3.6603196,-29.397026,-8.218158,-1.1906583,66.334076,-34.12571,5.8164673,-4.559413,-0.6544758,21.063633,-6.858749,31.954117,-10.620437,-19.710232,-1.2818073,-8.159506,2.0338864,20.110424,-29.408304,18.932009,4.5258055,-20.17523,-20.751451,-16.124714
44,-6.4643754959106445,54.39626693725586,69.28726959228516,1.684304885563137,-0.8103157019384813,-88.61615233713393,-12.070051,14.35706,-0.05304222,100.1393,-24.568516,-3.5288944,-29.89814,-8.10846,-1.5772467,65.3163,-33.16166,5.637575,-5.235047,-0.773825,20.677723,-9.494291,32.95577,-11.301261,-19.511105,-1.5126932,-8.270247,2.112083,21.945652,-28.743258,18.817717,6.3233395,-20.099337,-20.958303,-16.449553
45,-6.458837509155273,55.42055892944336,69.45745849609375,1.4641055960496832,-0.7549753851449504,-88.454051793481,-10.496589,14.744793,-0.079298995,98.61808,-24.216347,-3.4442859,-30.5578,-7.9527364,-1.8124361,64.38414,-31.769384,5.542236,-5.867186,-0.92750996,20.297218,-11.9516325,33.91058,-11.914616,-19.393217,-1.8384206,-8.384343,2.2036853,23.66618,-28.13987,18.74135,7.84648,-20.010714,-21.115416,-16.664837
46,-6.429226875305176,56.457359313964844,69.67648315429688,1.2477120506828614,-0.6651317270021367,-88.37325688281372,-8.9473295,15.133173,0.011532502,96.78317,-23.808903,-3.4038835,-31.312662,-7.7583327,-1.9534129,63.457405,-30.04876,5.4868507,-6.463234,-1.0939536,19.907509,-14.239377,34.82312,-12.469596,-19.354633,-2.220904,-8.501932,2.296956,25.294235,-27.607975,18.695766,9.145711,-19.89961,-21.229307,-16.796381
47,-6.375795364379883,57.506507873535156,69.94632720947266,1.0666283146716986,-0.5666456025471216,-88.35330985434166,-7.4308896,15.455126,0.19781528,94.69777,-23.356707,-3.345512,-32.05499,-7.5657325,-2.015083,62.416424,-28.135775,5.4563584,-7.0329223,-1.2953463,19.536125,-16.368244,35.701122,-12.983487,-19.364643,-2.5854208,-8.632674,2.4082637,26.842108,-27.14128,18.673248,10.211815,-19.750204,-21.315105,-16.877316
48,-6.307861804962158,58.574623107910156,70.24639892578125,0.9546866796452268,-0.4850842120065099,-88.37384759598683,-5.958176,15.644094,0.4616873,92.42527,-22.871237,-3.199373,-32.676323,-7.4138317,-2.012166,61.142265,-26.16694,5.4352865,-7.5810947,-1.5583088,19.2076,-18.323563,36.554726,-13.4724655,-19.41356,-2.8515432,-8.7856045,2.55487,28.31851,-26.724058,18.664497,11.043154,-19.552235,-21.38907,-16.93976
49,-6.231558322906494,59.65493392944336,70.57394409179688,0.9319111615078083,-0.43057061681108943,-88.43895300790629,-4.5195165,15.709064,0.8497839,89.95778,-22.387127,-2.8445306,-33.16769,-7.312208,-1.930646,59.636803,-24.18305,5.413561,-8.100052,-1.9144657,18.923637,-20.151367,37.40141,-13.959523,-19.461647,-3.012562,-8.969748,2.761071,29.730955,-26.350058,18.668165,11.609246,-19.296682,-21.457096,-16.98944
50,-6.136409759521484,60.749359130859375,70.9286117553711,0.9781898513110427,-0.38796911180798355,-88.55638738241858,-3.1083145,15.667902,1.3523883,87.27342,-21.89917,-2.3539946,-33.58087,-7.2405133,-1.7626042,57.954487,-22.111504,5.402515,-8.581639,-2.3472366,18.669107,-21.819323,38.24899,-14.426564,-19.551935,-3.106335,-9.176652,3.0144465,31.073875,-26.016754,18.680725,11.928204,-18.995146,-21.511435,-17.008812
51,-6.032566547393799,61.86150360107422,71.31233215332031,1.0638154749682034,-0.3454849367235904,-88.71099742545302,-1.7448597,15.47368,1.8583986,84.40567,-21.3516,-1.9472188,-33.896748,-7.1877832,-1.535455,56.050774,-19.916037,5.4172964,-9.037317,-2.8145804,18.447096,-23.300821,39.0864,-14.84732,-19.701897,-3.132196,-9.389136,3.2765772,32.320568,-25.712816,18.698408,12.078602,-18.669687,-21.547567,-16.995401
52,-5.906855583190918,62.98494338989258,71.72113800048828,1.1565419883628605,-0.29149104104909085,-88.88738343669644,-0.45206112,15.086841,2.2492874,81.381386,-20.682007,-1.8402426,-34.094933,-7.1380696,-1.2798032,53.877083,-17.558142,5.472724,-9.475274,-3.269301,18.259165,-24.566097,39.89198,-15.194218,-19.92575,-3.0819492,-9.589663,3.506548,33.445225,-25.421124,18.715096,12.1434355,-18.344387,-21.560427,-16.947893
53,-5.771457195281982,64.1223373413086,72.15167236328125,1.269131922379034,-0.2403919891204122,-89.09437529009013,0.8100666,14.475048,2.5231233,78.10495,-19.829481,-2.1584191,-34.13442,-7.077221,-0.98855937,51.382248,-15.066491,5.5707836,-9.879955,-3.7247427,18.120228,-25.629917,40.65554,-15.454398,-20.200388,-2.8763502,-9.779432,3.6622806,34.45289,-25.132362,18.721622,12.121962,-18.010283,-21.54394,-16.862097
54,-5.617466449737549,65.27921295166016,72.5989761352539,1.409507658301366,-0.19243580048318357,-89.33580750430147,2.0406213,13.66997,2.7110605,74.584404,-18.84009,-2.7597656,-34.03518,-7.0058756,-0.6518182,48.603455,-12.4461,5.7055836,-10.243931,-4.1935797,18.022945,-26.51869,41.378742,-15.648036,-20.500935,-2.5368438,-9.964785,3.7734773,35.35585,-24.845556,18.714245,11.984423,-17.66478,-21.501705,-16.74109
55,-5.444941997528076,66.44010162353516,73.0511703491211,1.5439866896392491,-0.11520246365172258,-89.58797776838419,3.1548064,12.74151,2.7441392,70.99624,-17.81055,-3.454258,-33.865276,-6.9259396,-0.29964617,45.610146,-9.620226,5.8796606,-10.581051,-4.6235843,17.935095,-27.218006,42.05831,-15.797714,-20.848045,-2.2093766,-10.13582,3.9046848,36.148853,-24.557192,18.685251,11.767122,-17.345526,-21.44462,-16.594389
56,-5.253809928894043,67.62406921386719,73.50416564941406,1.6376195274818452,0.022599373013349532,-89.82774717865446,4.0677547,11.766378,2.5659552,67.52194,-16.836432,-4.048822,-33.695293,-6.8396277,0.041481506,42.474213,-6.5098753,6.0949144,-10.909298,-4.9660654,17.827477,-27.728354,42.6825,-15.931791,-21.24313,-2.0315878,-10.282624,4.1210985,36.8194,-24.262344,18.633728,11.509615,-17.09017,-21.383677,-16.431244
57,-5.051905155181885,68.81415557861328,73.9522476196289,1.6791770901338219,0.24656171527148127,-90.05849830336669,4.7333927,10.651459,2.040895,64.14115,-15.919099,-4.525734,-33.561516,-6.729953,0.37016892,39.13834,-2.8887758,6.226029,-11.225305,-5.200092,17.686523,-28.042093,43.24089,-16.05936,-21.683033,-2.0259542,-10.40099,4.4819555,37.35855,-23.952742,18.550154,11.2190895,-16.920324,-21.322023,-16.253607
58,-4.839180946350098,70.01627349853516,74.38521575927734,1.6856562491691973,0.5332026827858761,-90.29032260221852,5.2167025,9.420994,1.2349874,60.77726,-15.016651,-4.9583745,-33.422466,-6.5858583,0.69617134,35.59363,1.1348399,6.311434,-11.511614,-5.3515453,17.5313,-28.182306,43.73069,-16.176338,-22.14703,-2.117641,-10.49758,4.936902,37.780327,-23.624594,18.4308,10.8777075,-16.81526,-21.254076,-16.057085
59,-4.618549823760986,71.2222671508789,74.79475402832031,1.6722706612732756,0.8392882080513486,-90.51017080547669,5.5925493,8.301647,0.41699934,57.522606,-14.149718,-5.3066454,-33.21902,-6.425327,1.0358917,31.956467,5.1524963,6.605533,-11.763432,-5.444275,17.378826,-28.183218,44.15511,-16.285997,-22.619394,-2.3053207,-10.57978,5.3843665,38.114574,-23.280016,18.282555,10.482868,-16.747086,-21.177746,-15.841947
60,-4.384936332702637,72.44366455078125,75.16512298583984,1.6609578763894806,1.1184730155978464,-90.70137766539987,5.9275694,7.484159,-0.13038294,54.460335,-13.32981,-5.5514727,-32.872875,-6.2806277,1.439272,28.30511,8.779058,7.380375,-11.987205,-5.5133724,17.24912,-28.07752,44.51625,-16.390135,-23.082857,-2.581055,-10.654633,5.725452,38.385124,-22.924805,18.11916,10.031436,-16.686152,-21.09083,-15.608489
61,-4.156856536865234,73.65003967285156,75.47564697265625,1.6750707356386545,1.369127979269988,-90.85054157218619,6.217942,7.002506,-0.29140645,51.55808,-12.370504,-5.6863933,-32.236824,-6.1970415,1.9746246,24.235317,12.424345,9.057475,-12.204282,-5.580506,17.135935,-27.825548,44.810337,-16.469954,-23.553423,-3.0060382,-10.724297,5.938006,38.602222,-22.56201,17.927122,9.519402,-16.640701,-20.992716,-15.335538
62,-3.92148494720459,74.83020782470703,75.72467041015625,1.7334952142424849,1.5914521593247661,-90.94942888836447,6.453557,6.6764765,-0.2131884,48.76359,-11.312103,-5.74295,-31.319942,-6.1863065,2.6890702,19.728922,16.184576,11.419723,-12.426201,-5.6635423,17.043678,-27.421577,45.036762,-16.527143,-24.034817,-3.561737,-10.785474,6.071704,38.759434,-22.191061,17.706394,8.939294,-16.619856,-20.884176,-15.030696
63,-3.6890103816986084,76.03672790527344,75.92166900634766,1.8422471197072219,1.7472409857887723,-90.99320130215155,6.677437,6.3845935,-0.008382849,46.14194,-10.501078,-5.76774,-30.320885,-6.2846475,3.5121126,15.515996,19.159119,13.739364,-12.633045,-5.780846,17.003277,-26.950054,45.210197,-16.598482,-24.492273,-4.131334,-10.8350115,6.1354294,38.862267,-21.81539,17.479225,8.281285,-16.59703,-20.764524,-14.736855
64,-3.47218656539917,77.28002166748047,76.05316925048828,1.8599157792672443,1.8103810725011582,-91.02224281907641,6.9057074,6.2093625,0.19952261,43.834476,-10.336196,-5.84517,-29.405285,-6.4138937,4.0477214,12.245499,20.48352,15.000033,-12.764665,-5.8107123,17.070477,-26.494453,45.350006,-16.719652,-24.892117,-4.594864,-10.8696,6.1434655,38.904034,-21.43966,17.27493,7.5426064,-16.543736,-20.63353,-14.496157
65,-3.2549266815185547,78.51042938232422,76.10383605957031,1.8999305490480984,1.8343565676472688,-91.02496640026226,7.1291957,6.0245166,0.45939988,41.74132,-10.96396,-5.8884835,-28.87711,-6.653896,4.5423093,10.452387,19.179981,15.000033,-12.836996,-5.8431478,17.160826,-26.053122,45.46877,-16.89828,-25.249226,-4.932717,-10.883068,6.100287,38.896675,-21.068018,17.087261,6.7098656,-16.45865,-20.481686,-14.320478
66,-3.028256416320801,79.72181701660156,76.09233856201172,1.9701980070506397,1.8579972055550684,-91.01323094613339,7.299153,5.8515763,0.8353499,39.81582,-12.140411,-5.890419,-28.716637,-6.98383,5.2374473,9.868147,15.873419,14.796438,-12.856259,-5.873245,17.244965,-25.58199,45.56432,-17.109383,-25.581392,-5.2030706,-10.878425,6.0061483,38.81757,-20.701637,16.910118,5.8010864,-16.35196,-20.31334,-14.185935
67,-2.8306097984313965,80.95729064941406,76.05437469482422,1.8780728198919872,1.8705526406439064,-91.04996793150588,7.322462,5.9031014,1.2480389,38.254715,-13.638455,-6.0050144,-28.823103,-7.179566,5.5322127,10.29093,11.943389,13.824857,-12.76368,-5.7386966,17.397451,-25.088488,45.6387,-17.329185,-25.869263,-5.416286,-10.867008,5.865337,38.610703,-20.34004,16.762526,4.8669543,-16.21265,-20.148733,-14.0808735
68,-2.6478428840637207,82.23860168457031,75.9961929321289,1.7054511565184842,1.893401681061191,-91.13981438489378,7.1009164,6.0484996,1.6429856,37.110237,-15.120223,-6.269916,-29.279398,-7.3080406,5.477448,11.785146,8.610751,13.053473,-12.563228,-5.5226793,17.60109,-24.57867,45.696354,-17.533691,-26.100996,-5.5839686,-10.860112,5.683491,38.215332,-19.982258,16.661839,3.963267,-16.029825,-20.008814,-13.993556
69,-2.4689910411834717,83.5453872680664,75.90630340576172,1.468412718413269,1.931889956163661,-91.27514255124122,6.577734,6.287466,2.022984,36.462498,-16.612389,-6.7015862,-30.082474,-7.4566493,4.851839,14.387511,6.2070394,12.745751,-12.268586,-5.2456245,17.854536,-24.077263,45.750614,-17.7217,-26.27943,-5.699319,-10.868239,5.4265356,37.61324,-19.626707,16.611012,3.0779006,-15.768032,-19.907347,-13.925944
70,-2.294182300567627,84.86910247802734,75.79199981689453,1.200620116219616,1.9559469974525125,-91.42918445025606,5.8282814,6.605314,2.402749,36.249798,-18.246927,-7.235798,-31.151726,-7.698759,3.802435,18.010817,4.0850425,12.596362,-11.9023485,-4.9433203,18.163187,-23.56129,45.808903,-17.897402,-26.421486,-5.7663136,-10.882225,5.1033154,36.844997,-19.272638,16.602764,2.1835773,-15.443919,-19.830238,-13.882837
71,-2.133282423019409,86.18998718261719,75.65983581542969,0.9885751700568453,1.9108481376495876,-91.57152165190939,4.977888,6.879669,2.7238085,36.325073,-19.862635,-7.801796,-32.327915,-8.109281,2.7041745,22.32463,2.0655956,12.332359,-11.488913,-4.7109637,18.54896,-22.975897,45.857628,-18.051775,-26.518217,-5.8035645,-10.88401,4.783331,35.942566,-18.92261,16.640913,1.3061262,-15.126144,-19.75662,-13.855992
72,-1.9766218662261963,87.52429962158203,75.49850463867188,0.8988304592552323,1.7533485997320952,-91.68087965665868,4.140603,7.0025706,2.9332976,36.543888,-21.298138,-8.338463,-33.44936,-8.675138,1.9366324,26.968716,-0.0036623473,11.7002945,-11.043975,-4.616932,19.029696,-22.274794,45.8683,-18.179932,-26.547714,-5.822428,-10.856199,4.5339985,34.934467,-18.581377,16.728634,0.47358364,-14.881983,-19.665237,-13.8376255
73,-1.835671305656433,88.86622619628906,75.31396484375,0.9618313267333746,1.4396567310197828,-91.76551385146894,3.3649607,6.9241853,3.002372,36.892536,-22.522888,-8.883305,-34.53063,-9.389152,1.5766152,32.07884,-2.1572044,10.465829,-10.5376625,-4.6884403,19.65169,-21.482925,45.82428,-18.291592,-26.492767,-5.82018,-10.81277,4.3524294,33.84389,-18.24538,16.85246,-0.33783364,-14.728114,-19.534332,-13.828852
74,-1.7103614807128906,90.20313262939453,75.10489654541016,1.1542841392611825,0.9928919327593716,-91.8212438039429,2.5948567,6.680595,2.958075,37.43594,-23.621601,-9.450218,-35.545532,-10.2538595,1.4523575,37.606205,-4.2322226,8.826186,-9.973002,-4.8924356,20.400461,-20.631855,45.723156,-18.402185,-26.348555,-5.7858224,-10.757004,4.204204,32.661537,-17.912745,17.003845,-1.1395992,-14.62924,-19.379717,-13.833081
75,-1.5836633443832397,91.51941680908203,74.86949920654297,1.421027428168647,0.49341358929572027,-91.83121922396249,1.7618712,6.339483,2.8426142,38.16063,-24.611092,-9.956026,-36.35669,-11.16934,1.5471721,43.031216,-6.1318254,7.1997633,-9.391494,-5.1588707,21.18715,-19.680105,45.555653,-18.51315,-26.123234,-5.7186227,-10.655486,4.1086864,31.364332,-17.598845,17.185984,-1.8813732,-14.5741625,-19.237375,-13.844979
76,-1.450439214706421,92.836181640625,74.61912536621094,1.6945644024772453,0.02863439864361596,-91.7853258558515,0.7909355,5.984465,2.7001295,39.055363,-25.505295,-10.32044,-36.887074,-12.023938,1.8229281,47.95081,-7.8152456,6.0058465,-8.836099,-5.4046607,21.913435,-18.569063,45.310596,-18.612295,-25.836512,-5.619212,-10.475223,4.082591,29.932411,-17.32924,17.40614,-2.5170774,-14.546697,-19.142706,-13.860446
77,-1.321558952331543,94.12562561035156,74.36821746826172,1.9696507019543035,-0.40670489780440067,-91.68030243840681,-0.350836,5.6179657,2.5221386,40.199596,-26.32189,-10.515464,-37.147507,-12.784006,2.311225,52.423244,-9.326447,5.395176,-8.328126,-5.6255,22.590601,-17.26824,44.971806,-18.691435,-25.468473,-5.4704986,-10.18159,4.1592054,28.333487,-17.116266,17.685385,-3.017865,-14.539092,-19.121502,-13.898175
78,-1.2092105150222778,95.4001693725586,74.12324523925781,2.260178196255545,-0.8403949576522713,-91.53188613080316,-1.6266629,5.2152586,2.298074,41.57239,-27.04693,-10.597809,-37.21265,-13.468944,2.9810684,56.70198,-10.711707,5.1438637,-7.8363934,-5.83212,23.249,-15.796816,44.536873,-18.749245,-25.024446,-5.2747655,-9.800541,4.3133445,26.594288,-16.96215,18.010836,-3.4229906,-14.554405,-19.148373,-13.955764
79,-1.0959686040878296,96.65616607666016,73.90481567382812,2.527670069287429,-1.218264964318932,-91.35622933265749,-3.0089557,4.8232665,2.0633197,43.013992,-27.646255,-10.610862,-37.113647,-14.061199,3.690019,60.706406,-11.956444,5.100502,-7.3462367,-5.9783745,23.819975,-14.19445,44.014515,-18.787315,-24.537857,-5.0591464,-9.390258,4.480763,24.771246,-16.87927,18.360924,-3.7873325,-14.58847,-19.181767,-13.997657
80,-0.9837315678596497,97.88544464111328,73.70555114746094,2.7353877055771756,-1.4867274311558716,-91.16755546604995,-4.4703445,4.491244,1.8489074,44.365715,-28.0866,-10.594238,-36.887917,-14.557801,4.308111,64.35508,-13.039216,5.1063585,-6.8449454,-6.017749,24.230835,-12.444173,43.424473,-18.7862,-24.093512,-4.848121,-9.010359,4.5987644,22.927687,-16.883938,18.71522,-4.1719494,-14.63417,-19.179785,-13.988844
81,-0.8781918287277222,99.10810089111328,73.52737426757812,2.8623467267694243,-1.5969092480306908,-90.94756808991565,-6.0874324,4.2444024,1.6437595,45.6608,-28.322458,-10.533748,-36.565117,-14.945026,4.818795,67.62556,-13.919402,5.1717534,-6.363733,-5.932891,24.434656,-10.486469,42.771908,-18.733467,-23.72101,-4.6527553,-8.670141,4.675537,21.042753,-16.981987,19.096643,-4.578414,-14.681928,-19.135256,-13.917905
82,-0.7859354615211487,100.2608871459961,73.37747192382812,2.930032100267166,-1.5873336900280852,-90.6957875694881,-7.8459063,4.0565295,1.4329683,46.953735,-28.379229,-10.420634,-36.130665,-15.229796,5.275755,70.592674,-14.634366,5.363186,-5.931319,-5.769821,24.487064,-8.580559,42.046333,-18.698437,-23.172298,-4.529059,-8.342132,4.7407403,19.073612,-17.174324,19.543251,-4.990544,-14.731474,-19.06882,-13.807456
83,-0.7059484124183655,101.38899230957031,73.25616455078125,2.967092839037649,-1.535490577443109,-90.45264605441136,-9.578885,3.904216,1.2403506,48.114998,-28.330353,-10.29678,-35.555973,-15.445048,5.667539,73.30448,-15.269454,5.5986657,-5.460702,-5.538974,24.436361,-6.3653913,41.258846,-18.594976,-22.849962,-4.3387055,-8.029771,4.7668304,17.11701,-17.46239,19.993925,-5.444959,-14.789144,-18.98073,-13.66803
84,-0.6370344758033752,102.50215148925781,73.14010620117188,3.0028310690388715,-1.5191992528290168,-90.258970769841,-11.1212435,3.76457,1.0937035,49.019836,-28.253035,-10.199992,-34.814972,-15.628729,5.9917974,75.803665,-15.905133,5.7958784,-4.944307,-5.2940617,24.363867,-4.159865,40.43034,-18.452427,-22.540762,-4.154134,-7.7371926,4.725003,15.186247,-17.865215,20.47095,-5.95746,-14.86064,-18.870726,-13.5127735
85,-0.5817350745201111,103.6026840209961,73.0326919555664,3.0277687078521636,-1.5566312344731412,-90.11575456185498,-12.44958,3.642577,0.9836177,49.66694,-28.158966,-10.130242,-33.879368,-15.808748,6.2188478,78.09912,-16.573063,5.92924,-4.3648314,-5.0255957,24.274796,-1.7379849,39.564754,-18.198431,-22.44699,-3.8978927,-7.464325,4.604883,13.278548,-18.395004,21.00399,-6.5418844,-14.929391,-18.730316,-13.353735
86,-0.526071310043335,104.67957305908203,72.93578338623047,3.0340717439889384,-1.607027963938126,-90.00413481575363,-13.645951,3.5493941,0.8991367,50.114246,-28.010883,-10.065638,-32.777718,-15.969572,6.3666105,80.17636,-17.225842,6.035196,-3.760077,-4.7256775,24.139893,0.88527495,38.65995,-17.835768,-22.526258,-3.607396,-7.210896,4.4235673,11.360593,-19.05267,21.622389,-7.1880183,-14.990275,-18.56164,-13.183914
87,-0.47766077518463135,105.74165344238281,72.84668731689453,3.0459900187775153,-1.6605116885673374,-89.93347763325168,-14.703841,3.471576,0.8651168,50.324512,-27.81196,-10.005832,-31.562084,-16.083702,6.5001144,82.0257,-17.820898,6.120638,-3.1344388,-4.4144554,23.967068,3.6743252,37.72125,-17.393757,-22.782028,-3.3129938,-6.979358,4.2075796,9.474464,-19.82576,22.279427,-7.8936563,-15.064022,-18.382832,-12.98213
88,-0.43697240948677063,106.79755401611328,72.76834869384766,3.0869509812297182,-1.7075013101907193,-89.9133557389542,-15.616749,3.395748,0.9076825,50.260834,-27.565796,-9.950636,-30.286577,-16.122314,6.6839566,83.64094,-18.311243,6.194343,-2.4842248,-4.114603,23.765486,6.5829887,36.75925,-16.909462,-23.207859,-3.046653,-6.7712936,3.9861696,7.663325,-20.69678,22.91588,-8.65029,-15.176014,-18.213867,-12.724083
89,-0.41168755292892456,107.84254455566406,72.70744323730469,3.1645900861561707,-1.7665014543159252,-89.97335219017752,-16.30305,3.3286693,1.0763073,49.833412,-27.353025,-9.903248,-28.934414,-16.092638,6.942464,85.034836,-18.723816,6.2522297,-1.782413,-3.8441975,23.549768,9.673365,35.77084,-16.365768,-23.860455,-2.796104,-6.572117,3.7535255,5.8880715,-21.670504,23.549416,-9.437804,-15.340978,-18.071867,-12.379171
90,-0.3816361427307129,108.87495422363281,72.67149353027344,3.2655212379074996,-1.835868634140033,-90.09913586170136,-16.790424,3.2721515,1.3453767,49.086567,-27.145126,-9.862268,-27.49416,-16.011784,7.244409,86.212944,-19.065641,6.2881193,-1.0358126,-3.5926921,23.31757,12.954851,34.746616,-15.749,-24.74737,-2.5542812,-6.3864665,3.5042398,4.1343102,-22.748388,24.20944,-10.26573,-15.541589,-17.944859,-11.966744
91,-0.3637916147708893,109.90389251708984,72.66349029541016,3.387092721840652,-1.8749833648437755,-90.23483613122839,-17.23287,3.2036004,1.6305664,48.179157,-26.779385,-9.82051,-26.022684,-15.863245,7.567914,87.14318,-19.271206,6.3100057,-0.2814084,-3.3438153,23.049826,16.280577,33.694706,-15.119427,-25.761076,-2.3611166,-6.242733,3.2686443,2.4861312,-23.901,24.834044,-11.15854,-15.765249,-17.809362,-11.533436
92,-0.3641473948955536,110.92497253417969,72.69610595703125,3.5265059890155004,-1.8438336083411353,-90.32464615306843,-17.78701,3.1022463,1.8477201,47.27307,-26.094284,-9.76859,-24.579327,-15.631632,7.8925257,87.79448,-19.272415,6.3268814,0.45774996,-3.0852783,22.721817,19.481691,32.64053,-14.559592,-26.766987,-2.2561853,-6.1676292,3.0789185,1.0288024,-25.081295,25.339355,-12.121302,-16.006924,-17.644936,-11.122188
93,-0.3849011957645416,111.94773864746094,72.77134704589844,3.7201018333501747,-1.7286640929810775,-90.37810280907513,-18.512224,2.929661,2.018675,46.45155,-25.02542,-9.674675,-23.182941,-15.3471575,8.264265,88.17187,-19.077543,6.336749,1.2083776,-2.861362,22.314045,22.559002,31.610125,-14.093853,-27.750576,-2.3060012,-6.189443,2.964232,-0.24190156,-26.26272,25.679716,-13.132714,-16.349781,-17.428682,-10.706229
94,-0.4259088933467865,112.97865295410156,72.8953857421875,3.9558562259660213,-1.55207912689662,-90.41661614461422,-19.316383,2.7037609,2.1827517,45.61267,-23.665842,-9.549961,-21.805466,-15.00877,8.681667,88.29184,-18.71199,6.3335037,1.9896752,-2.6802826,21.841526,25.583084,30.613552,-13.689614,-28.766254,-2.4778264,-6.284316,2.9075084,-1.3680727,-27.44236,25.88449,-14.167705,-16.782122,-17.182772,-10.267922
95,-0.49590185284614563,114.0208511352539,73.06329345703125,4.1606773166730795,-1.3289890181279822,-90.40238584905441,-20.131392,2.4877532,2.2757294,44.641537,-22.089489,-9.447716,-20.439445,-14.551651,9.058351,88.14253,-18.137758,6.322051,2.7651846,-2.474586,21.325436,28.481508,29.657784,-13.342132,-29.76025,-2.6612628,-6.3999987,2.867938,-2.3282504,-28.60681,25.978395,-15.215924,-17.155949,-16.949457,-9.865664
96,-0.5927046537399292,115.06298828125,73.27434539794922,4.263024959263574,-1.0742685907697025,-90.29839325693152,-20.888042,2.3459399,2.2265897,43.417484,-20.365854,-9.425885,-19.080196,-13.9037075,9.3118725,87.71116,-17.315428,6.307082,3.5009668,-2.1736665,20.782011,31.171642,28.749163,-13.050704,-30.672043,-2.7432063,-6.4839826,2.80525,-3.097531,-29.737215,25.984068,-16.26652,-17.328293,-16.767857,-9.557319
97,-0.7158053517341614,116.11051940917969,73.51951599121094,4.228659254238638,-0.781826901791367,-90.09041858929157,-21.601284,2.3090904,1.9835461,41.944397,-18.516321,-9.498605,-17.725344,-12.99519,9.434402,86.98018,-16.144665,6.2582073,4.1934333,-1.739184,20.188086,33.646816,27.903767,-12.815575,-31.496853,-2.678186,-6.5003896,2.7121153,-3.6694558,-30.820353,25.888935,-17.290659,-17.241285,-16.654392,-9.369661
98,-0.860176682472229,117.16191864013672,73.79255676269531,4.103707230616735,-0.44659322053102224,-89.80136534547054,-22.295277,2.3365357,1.5884289,40.26764,-16.498274,-9.637547,-16.389301,-11.880533,9.483584,85.96269,-14.675144,6.182953,4.863487,-1.221995,19.537708,35.957848,27.13055,-12.622234,-32.262634,-2.534165,-6.4836755,2.6113036,-4.0551558,-31.852108,25.67813,-18.28911,-16.98697,-16.584282,-9.2674265
99,-1.0328304767608643,118.22026824951172,74.09413146972656,3.9285103401167074,-0.08510005223621721,-89.45034266392766,-22.916916,2.3872516,1.105922,38.332245,-14.286231,-9.839916,-15.093723,-10.675192,9.4792,84.692245,-13.0973425,6.144545,5.510657,-0.6803087,18.87168,38.10364,26.417732,-12.447762,-32.953785,-2.3650115,-6.48693,2.5062463,-4.288656,-32.829117,25.375889,-19.268095,-16.633076,-16.534235,-9.216172
100,-1.2225161790847778,119.28663635253906,74.4168701171875,3.745059475737427,0.2860791491401142,-89.05644329046554,-23.409517,2.4249487,0.6019792,36.075893,-11.850464,-10.103045,-13.85486,-9.491903,9.434042,83.20097,-11.601437,6.200896,6.126187,-0.16676536,18.230343,40.078133,25.738802,-12.270228,-33.54819,-2.2200208,-6.5628185,2.3962276,-4.3991504,-33.74708,25.013165,-20.24041,-16.254168,-16.480165,-9.18212
101,-1.4290403127670288,120.36824035644531,74.75226593017578,3.5524851690985977,0.6968472282385968,-88.60311651692768,-23.762968,2.4369218,0.041371554,33.364555,-9.067295,-10.427942,-12.68554,-8.265784,9.389684,81.4362,-10.145813,6.4718084,6.695648,0.323801,17.591684,41.848515,25.07359,-12.080912,-33.99731,-2.113312,-6.7481914,2.2826016,-4.3687534,-34.59966,24.583239,-21.213076,-15.83638,-16.409777,-9.184152
102,-1.636199712753296,121.46244049072266,75.09373474121094,3.330301354433339,1.143386455982064,-88.0913420231875,-23.990635,2.4638147,-0.60664445,30.247898,-5.981389,-10.8192,-11.56787,-6.9614015,9.339226,79.39432,-8.664685,6.8896685,7.215535,0.8237564,16.944435,43.431904,24.420086,-11.881203,-34.315754,-2.010155,-7.0068665,2.1586401,-4.227516,-35.38517,24.09109,-22.142038,-15.346309,-16.337492,-9.230615
103,-1.849057674407959,122.56790161132812,75.42827606201172,3.0835682901247576,1.5573156708445386,-87.56584296805146,-24.077284,2.542909,-1.2644421,26.947918,-2.8176858,-11.279188,-10.47114,-5.7360706,9.207095,77.19131,-7.30809,7.227687,7.689002,1.3245643,16.344612,44.901684,23.775799,-11.662479,-34.578915,-1.8859581,-7.2816405,2.0110812,-3.9325008,-36.105476,23.562157,-23.087446,-14.883718,-16.278244,-9.271456
104,-2.0618903636932373,123.7000961303711,75.74210357666016,2.8160924788286286,1.8707062863127217,-87.07051213340443,-24.016193,2.696381,-1.8475549,23.6936,0.19772634,-11.809545,-9.364349,-4.7440944,8.898212,74.94158,-6.2219334,7.2575555,8.12503,1.8261837,15.856,46.322002,23.1412,-11.422836,-34.863853,-1.717163,-7.5165486,1.8274913,-3.765178,-36.76548,23.080114,-23.82886,-14.429846,-16.246908,-9.262038
105,-2.275120735168457,124.83663940429688,76.01349639892578,2.493371283133633,2.049877454971398,-86.61393084461459,-23.674553,2.9319065,-2.4273112,20.149353,3.3334131,-12.497052,-8.204336,-3.9155834,8.411412,72.62896,-5.43847,6.8918567,8.519272,2.3622034,15.5000925,47.739388,22.503523,-11.133731,-35.18441,-1.4788414,-7.7059803,1.588537,-3.4254444,-37.363773,22.59603,-24.612167,-14.095269,-16.252121,-9.174481
106,-2.4957938194274902,125.96142578125,76.21595001220703,2.096211010309763,2.1276303629132483,-86.18264676489169,-23.084278,3.2593412,-3.0317106,16.30124,6.6130056,-13.322984,-6.9984946,-3.1600904,7.7672615,70.19969,-4.879705,6.260142,8.874072,2.9596796,15.251745,49.114994,21.86088,-10.8009405,-35.51007,-1.1872538,-7.877692,1.3048141,-3.007644,-37.901905,22.109945,-25.354961,-13.806048,-16.283875,-9.03846
107,-2.7237801551818848,127.05976104736328,76.33873748779297,1.6771523156224284,2.1449988579805135,-85.77509758004122,-22.52423,3.655756,-3.4853516,12.913689,9.429653,-14.118537,-5.794295,-2.6129656,6.8936167,67.71773,-4.5350533,5.486075,9.168666,3.554089,15.076759,50.41708,21.221756,-10.443877,-35.85109,-0.87908435,-8.024312,1.006948,-2.5813727,-38.383743,21.658056,-26.0494,-13.573773,-16.326752,-8.885526
108,-2.9566433429718018,128.1781768798828,76.4054946899414,1.332119259925718,2.1580854386294472,-85.37245484378919,-22.300547,4.044005,-3.586299,10.780629,11.160732,-14.697355,-4.6499543,-2.4495862,5.715,65.25918,-4.4077353,4.7176204,9.369896,4.0331597,14.93494,51.60372,20.601015,-10.081732,-36.20901,-0.5938212,-8.138025,0.7262352,-2.215514,-38.8114,21.27637,-26.690315,-13.410579,-16.366287,-8.749851
109,-3.1949267387390137,129.33839416503906,76.43995666503906,1.0929092670921337,2.186907519204382,-84.95412489232702,-22.497513,4.439571,-3.0309753,10.12517,11.463037,-15.000033,-3.537479,-2.8285801,4.02515,62.78061,-4.4082003,3.9727824,9.456495,4.349789,14.811104,52.702103,20.00576,-9.6950245,-36.60432,-0.33004037,-8.205788,0.4495974,-1.9225094,-39.184853,20.975967,-27.283262,-13.344023,-16.402706,-8.633455
110,-3.4364237785339355,130.49710083007812,76.4109878540039,0.9476446362188096,2.210791913426489,-84.51345781814247,-22.986967,4.825099,-1.9658594,10.578329,10.702579,-15.000033,-2.3993676,-3.5996084,1.8965514,60.269756,-4.5985465,3.2651527,9.436239,4.52933,14.730037,53.711395,19.437834,-9.279352,-37.02408,-0.073828004,-8.235655,0.16910036,-1.7691723,-39.500538,20.758823,-27.739622,-13.327286,-16.443382,-8.523824
111,-3.6888766288757324,131.6593475341797,76.31732177734375,0.9035531137468941,2.2362847951534426,-84.06001519133962,-23.804033,5.127771,-0.977908,12.117326,9.273957,-15.000033,-1.2841849,-4.465882,-0.33308586,57.82612,-5.169832,2.7087696,9.311689,4.569263,14.684952,54.56588,18.900984,-8.861186,-37.419716,0.15510277,-8.250325,-0.07614127,-1.4663172,-39.756844,20.5613,-28.299774,-13.411223,-16.48316,-8.425935
112,-3.942715644836426,132.84658813476562,76.17752838134766,0.9559477807864702,2.2616493979934362,-83.61383059504051,-24.942455,5.26169,-0.56556785,14.6404705,7.6106324,-14.906995,-0.27365533,-5.1688995,-2.294422,55.53828,-6.288443,2.3835127,9.120862,4.499103,14.687185,55.17981,18.414097,-8.489003,-37.745865,0.3350065,-8.272196,-0.24589619,-1.1997977,-39.957836,20.402023,-28.78314,-13.4802065,-16.51806,-8.348425
113,-4.197062015533447,134.06222534179688,75.99006652832031,1.1273262352856726,2.2913624271144375,-83.15645309127984,-26.455162,5.1453614,-0.75319225,18.24975,5.7412806,-14.045949,0.63988817,-5.719658,-3.9261692,53.28278,-8.063017,2.332407,8.852148,4.297759,14.735537,55.548218,17.995161,-8.162158,-38.019638,0.46456745,-8.297299,-0.3234409,-1.0761851,-40.107647,20.298721,-29.126732,-13.50472,-16.55058,-8.27968
114,-4.460798263549805,135.2935333251953,75.74693298339844,1.3276527904583728,2.2991928647030324,-82.71989640213798,-28.240496,4.907044,-1.3604591,22.82939,3.529406,-12.805256,1.5080801,-6.152532,-5.4145703,50.99835,-10.322075,2.4927316,8.539874,4.0494967,14.837031,55.724854,17.650879,-7.867918,-38.276794,0.5507684,-8.315688,-0.32775778,-1.1144923,-40.20915,20.253618,-29.30719,-13.492533,-16.581625,-8.218323
115,-4.718273162841797,136.5370330810547,75.4612045288086,1.500202988820589,2.2385493572586173,-82.36933933692922,-29.990997,4.5782113,-2.2799156,27.809122,1.248983,-11.562471,2.257143,-6.4503307,-6.710159,48.952045,-12.858375,2.771409,8.244085,3.8296793,15.020867,55.731056,17.373486,-7.624151,-38.497684,0.58415484,-8.340461,-0.27161455,-1.0019969,-40.261284,20.196524,-29.533901,-13.506887,-16.603193,-8.188353
116,-4.979478359222412,137.78929138183594,75.13475036621094,1.633257151537118,2.080655341882726,-82.14795185856977,-31.459333,4.162457,-3.3774326,32.725315,-0.8907554,-10.677564,2.784709,-6.668807,-7.7592335,47.449726,-15.498935,3.05504,8.019284,3.6758983,15.318223,55.555485,17.158169,-7.458959,-38.64877,0.5566619,-8.385742,-0.17025141,-0.7631811,-40.263664,20.121012,-29.722065,-13.498931,-16.608849,-8.216712
117,-5.223773002624512,139.05555725097656,74.77177429199219,1.7683384928890489,1.8077934635908215,-82.03962196617222,-32.65654,3.5470128,-4.718101,37.69903,-2.92833,-10.21021,3.0338383,-6.927474,-8.580059,46.68702,-18.439335,3.2528045,7.8515105,3.5607657,15.759279,55.1718,17.013657,-7.382978,-38.719955,0.433835,-8.474347,-0.0072386134,-0.33917993,-40.213387,20.007723,-29.9361,-13.44056,-16.596375,-8.320633
118,-5.446872234344482,140.33364868164062,74.36701965332031,1.922125121998833,1.4446045808763024,-82.02332930695833,-33.66912,2.6860762,-6.285041,42.90914,-4.9577436,-10.009284,3.0307846,-7.238898,-9.173896,46.51215,-21.728006,3.4000502,7.737426,3.461962,16.329765,54.565887,16.953522,-7.393233,-38.72202,0.22986622,-8.593445,0.21922226,-0.12442736,-40.111446,19.932993,-29.85105,-13.232326,-16.571077,-8.485032
119,-5.653874397277832,141.60543823242188,73.94000244140625,2.064967479181359,1.0334165161272288,-82.12489243132788,-34.425823,1.7289875,-7.820458,48.08176,-6.9166126,-10.086889,2.782757,-7.520721,-9.460926,46.739098,-24.993452,3.5581987,7.677563,3.3752997,16.956501,53.805763,16.944506,-7.4547515,-38.65049,0.009654082,-8.702403,0.4729444,0.29285493,-39.954136,19.842773,-29.779226,-13.1009865,-16.533756,-8.685346
120,-5.846893310546875,142.858642578125,73.49952697753906,2.165100897991155,0.6168791688102803,-82.36880760939866,-34.88715,0.87053716,-9.093724,52.968666,-8.753121,-10.429184,2.3030462,-7.6832676,-9.373704,47.173042,-27.858187,3.7919936,7.691654,3.319418,17.588316,52.92042,16.946033,-7.5505414,-38.493786,-0.15497112,-8.760724,0.7089396,0.6884305,-39.74414,19.801863,-29.48407,-13.056724,-16.486732,-8.898218
121,-6.016266345977783,144.11257934570312,73.04789733886719,2.2227914665229984,0.15134689204802904,-82.80604174448202,-35.001102,0.13395675,-10.119993,57.611973,-10.5169,-11.141032,1.5895153,-7.685562,-8.746815,47.841843,-30.275843,4.15832,7.7878776,3.2954054,18.269197,51.952625,16.912415,-7.6615114,-38.25064,-0.22968484,-8.771348,0.92305917,1.1911831,-39.47995,19.831135,-29.081978,-13.170561,-16.405941,-9.145194
122,-6.166000843048096,145.371337890625,72.5919189453125,2.2626886831231903,-0.36634692899414034,-83.40364704507522,-34.822906,-0.548106,-10.979534,62.159145,-12.259223,-12.177118,0.6336779,-7.581528,-7.6725698,48.84044,-32.449997,4.5897155,7.930078,3.2958083,19.014557,50.868195,16.832792,-7.7916346,-37.9189,-0.24567056,-8.751711,1.1221646,1.6047918,-39.162804,19.96985,-28.432058,-13.338039,-16.297203,-9.42924
123,-6.310640335083008,146.63677978515625,72.14822387695312,2.2874321230405616,-0.8330907568330914,-84.06088165731502,-34.49209,-1.0791081,-11.580173,66.50232,-13.909119,-13.273791,-0.54889584,-7.4144807,-6.4706593,50.04896,-34.3589,4.9751925,8.035097,3.3022616,19.705053,49.632164,16.708733,-7.928373,-37.493847,-0.23436826,-8.682384,1.2831509,1.996922,-38.790577,20.186354,-27.589827,-13.587421,-16.203938,-9.701153
124,-6.457985877990723,147.8875732421875,71.72274017333984,2.2905082415581117,-1.1450862826422579,-84.67831176038256,-34.1549,-1.3540803,-11.855326,70.514915,-15.361663,-14.158283,-1.9470606,-7.231534,-5.4494123,51.339783,-35.970856,5.203499,8.034237,3.2978065,20.223228,48.20361,16.554327,-8.065703,-36.975433,-0.2301193,-8.544365,1.3868439,2.3969138,-38.36108,20.441256,-26.575167,-13.9270935,-16.171045,-9.911842
125,-6.588588714599609,149.1187744140625,71.33675384521484,2.2530780956149052,-1.2361597066849532,-85.27394461902213,-33.890854,-1.2674758,-11.770584,74.18903,-16.553923,-14.8267145,-3.6689034,-7.0161886,-4.6258855,52.758392,-37.24342,5.2213254,7.9552207,3.2864769,20.500648,46.55615,16.366581,-8.206626,-36.3332,-0.2644306,-8.292527,1.4274102,2.7980397,-37.870144,20.730251,-25.357124,-14.399505,-16.217289,-10.015582
126,-6.710569381713867,150.3189697265625,71.00234985351562,2.1824256855092763,-1.1746521574413764,-85.88471464743762,-33.636036,-0.83273864,-11.305474,77.59776,-17.530407,-15.000033,-5.6776967,-6.7493453,-3.853292,54.33565,-38.198288,5.105544,7.822593,3.2720315,20.610472,44.729782,16.140299,-8.338237,-35.590336,-0.3129741,-7.950922,1.41839,3.1995673,-37.316414,21.06657,-23.943705,-14.98885,-16.31785,-10.049982
127,-6.833161354064941,151.50592041015625,70.72132110595703,2.1044084569300336,-1.057468913605527,-86.44096397697788,-33.29636,-0.22971722,-10.703254,80.72957,-18.363361,-15.000033,-7.7520237,-6.4761415,-3.2000582,55.917976,-38.89415,4.931095,7.5751753,3.2369893,20.645708,42.775883,15.90028,-8.438696,-34.822807,-0.3284976,-7.603928,1.3725874,3.6309395,-36.70739,21.430775,-22.399479,-15.611387,-16.452337,-10.0905695
128,-6.951087951660156,152.6609344482422,70.4816665649414,2.0417890172897883,-0.9808260970190665,-86.87321243214731,-32.7802,0.35500935,-10.166485,83.565895,-19.123129,-15.000033,-9.67515,-6.254583,-2.7282526,57.359516,-39.389328,4.772314,7.1656494,3.1681964,20.698954,40.73067,15.692823,-8.505075,-34.102077,-0.26878044,-7.3352838,1.3082359,4.1444077,-36.05536,21.78298,-20.802486,-16.180294,-16.59864,-10.213803
129,-7.068341255187988,153.79159545898438,70.27610778808594,2.011000239449643,-0.9625001996411439,-87.15764279299316,-32.077084,0.91597486,-9.712942,86.12711,-19.806028,-15.000033,-11.443164,-6.1319947,-2.489828,58.70921,-39.649982,4.6269355,6.5927377,3.0588686,20.789036,38.558907,15.550619,-8.568313,-33.422203,-0.12652436,-7.163005,1.2437361,4.8010817,-35.3645,22.09943,-19.174423,-16.699717,-16.76024,-10.477105
130,-7.173089504241943,154.90281677246094,70.09883117675781,2.0007565230105415,-0.9536747265839416,-87.33381503035156,-31.246532,1.6147313,-9.109371,88.416176,-20.373138,-14.345882,-13.15532,-6.095516,-2.4297323,60.011,-39.656883,4.4770274,5.9075265,2.922233,20.865604,36.24843,15.480307,-8.637892,-32.760082,0.06449827,-7.0436606,1.1780955,5.5958385,-34.63455,22.37288,-17.498367,-17.202154,-16.944763,-10.83036
131,-7.263750076293945,155.99154663085938,69.95551300048828,1.9876056233945434,-0.9499145315023736,-87.42756295209176,-30.28237,2.35399,-8.483842,90.39513,-20.865236,-13.35059,-14.757021,-6.08813,-2.457472,61.125202,-39.50204,4.351395,5.141603,2.7763884,20.915655,33.856117,15.493023,-8.694968,-32.15278,0.2860553,-6.968004,1.0994775,6.501679,-33.876877,22.583488,-15.80438,-17.654205,-17.13694,-11.187026
132,-7.348116397857666,157.06021118164062,69.84339904785156,1.9439327144850205,-0.9467287981237537,-87.4643784725296,-29.179167,2.9977732,-8.005868,92.02536,-21.31589,-12.505013,-16.194853,-6.044395,-2.4857247,61.91718,-39.28249,4.2686834,4.3278255,2.6416051,20.928574,31.427269,15.603922,-8.731181,-31.629562,0.51907474,-6.9271374,0.99531305,7.493869,-33.11085,22.704357,-14.129553,-18.016129,-17.32255,-11.461321
133,-7.426334857940674,158.11444091796875,69.76213073730469,1.8637614212494273,-0.9526256426882495,-87.42502264735553,-27.925173,3.5157127,-7.703295,93.31187,-21.730806,-11.837895,-17.432245,-5.9501286,-2.5009456,62.334152,-39.039158,4.2449436,3.4552321,2.5334244,20.91035,28.92961,15.822853,-8.780215,-31.194971,0.77146184,-6.930358,0.84227026,8.63209,-32.34196,22.687277,-12.50528,-18.25439,-17.498634,-11.620433
134,-7.509000778198242,159.155029296875,69.71744537353516,1.762991376135717,-0.9666044371619968,-87.30480489649958,-26.53507,3.959597,-7.5138,94.27527,-22.088982,-11.22476,-18.506876,-5.839211,-2.5458288,62.45681,-38.71797,4.2585177,2.5294433,2.4448202,20.863129,26.322495,16.151072,-8.875107,-30.813908,1.0412071,-6.9789786,0.65914935,9.938705,-31.570011,22.539227,-10.934847,-18.391476,-17.673496,-11.714237
135,-7.589572906494141,160.17874145507812,69.71422576904297,1.6412901538559983,-0.9699439623924199,-87.14997614125525,-25.053442,4.339372,-7.402733,94.89978,-22.372906,-10.712884,-19.474943,-5.718219,-2.6180766,62.34944,-38.276623,4.2709947,1.6033338,2.36487,20.772223,23.638367,16.587536,-9.009816,-30.453074,1.2960533,-7.052344,0.49449643,11.337642,-30.806864,22.315971,-9.4120035,-18.473,-17.85113,-11.785068
136,-7.653297424316406,161.18231201171875,69.75386047363281,1.5063337446287004,-0.9442115006384177,-87.00656827421344,-23.523348,4.661874,-7.3337746,95.17053,-22.564276,-10.349425,-20.392275,-5.5932875,-2.7164917,62.076527,-37.669376,4.2450767,0.7230812,2.2824142,20.624517,20.91957,17.128643,-9.1686535,-30.089075,1.5060481,-7.1293426,0.3948377,12.747826,-30.072243,22.079367,-7.929322,-18.543839,-18.03376,-11.877256
137,-7.719451904296875,162.18023681640625,69.84136962890625,1.3479540299882036,-0.8839251442108347,-86.86115917713269,-21.931671,4.914624,-7.334318,95.066505,-22.671972,-10.203391,-21.25131,-5.463184,-2.8755653,61.62955,-36.909073,4.15176,-0.12372379,2.2134953,20.408682,18.12107,17.7785,-9.373492,-29.711704,1.6632495,-7.209326,0.3794419,14.180135,-29.378345,21.833796,-6.476816,-18.574379,-18.231833,-11.993542
138,-7.77215576171875,163.16505432128906,69.97919464111328,1.1657940586422348,-0.7983954913035546,-86.69716251377467,-20.26931,5.0945945,-7.407198,94.60435,-22.696043,-10.231957,-22.028414,-5.3239703,-3.089017,60.981564,-36.01173,4.015428,-0.9532249,2.1625707,20.136137,15.226723,18.532085,-9.647528,-29.33173,1.7802567,-7.3025093,0.4229868,15.680131,-28.723501,21.548616,-5.0797415,-18.547129,-18.440104,-12.116094
139,-7.812910556793213,164.1484832763672,70.17033386230469,0.9839466877191141,-0.691819243427785,-86.55639892014382,-18.582388,5.2200947,-7.47916,93.82564,-22.60688,-10.312864,-22.755636,-5.1769214,-3.2941568,60.17243,-34.939384,3.880302,-1.736574,2.0997324,19.82833,12.329428,19.365622,-9.960072,-28.956516,1.86148,-7.4039035,0.49942982,17.20269,-28.106974,21.242739,-3.7704513,-18.526646,-18.63573,-12.258239
140,-7.842691421508789,165.135009765625,70.4111099243164,0.8238995359335879,-0.5688444996835232,-86.48069505329289,-16.91768,5.307457,-7.4777822,92.77412,-22.376867,-10.323506,-23.466232,-5.023529,-3.4251282,59.24133,-33.65663,3.7912765,-2.458797,1.9934525,19.506018,9.534817,20.245424,-10.262982,-28.5991,1.9185094,-7.5087357,0.5760361,18.681541,-27.531662,20.949255,-2.5643866,-18.580952,-18.794981,-12.435052
141,-7.857865810394287,166.1144256591797,70.70244598388672,0.6828920174577148,-0.4302064953733117,-86.4813419249856,-15.263175,5.351362,-7.3975205,91.43717,-22.015108,-10.207148,-24.180927,-4.8599944,-3.4601111,58.217407,-32.130306,3.762217,-3.1273248,1.846862,19.16456,6.8362193,21.152876,-10.545041,-28.245108,1.9779149,-7.622365,0.6337892,20.097975,-27.007055,20.679218,-1.4400097,-18.766684,-18.899033,-12.669803
142,-7.851755619049072,167.10386657714844,71.02720642089844,0.5529688923774602,-0.27345375674497163,-86.53520429863127,-13.601678,5.3427997,-7.274449,89.80342,-21.534607,-10.033038,-24.876228,-4.682957,-3.4357488,57.070663,-30.386992,3.7677865,-3.7633653,1.6772809,18.795658,4.1846204,22.085024,-10.828074,-27.885761,2.0351942,-7.746198,0.6838069,21.473557,-26.539133,20.42402,-0.38750213,-19.035109,-18.962036,-12.949637
143,-7.841058731079102,168.0789337158203,71.38331604003906,0.44300254260625904,-0.09843018044494763,-86.6337277121686,-11.970954,5.292321,-7.0991635,87.91863,-20.916145,-9.869802,-25.525526,-4.4963455,-3.3679862,55.75987,-28.477587,3.7961595,-4.3759766,1.4756284,18.41378,1.6281232,23.033466,-11.102165,-27.541508,2.0565987,-7.8687353,0.73654485,22.790491,-26.124992,20.192497,0.57148796,-19.29582,-19.01016,-13.235321
144,-7.816982269287109,169.06021118164062,71.77455139160156,0.3637486088106528,0.0950320252204053,-86.76796948056838,-10.409952,5.208634,-6.862479,85.82488,-20.137957,-9.788929,-26.100504,-4.3102694,-3.2693074,54.239693,-26.451107,3.8371944,-4.977173,1.2305746,18.031357,-0.78119415,23.989227,-11.350202,-27.23652,2.0100555,-7.9787097,0.799573,24.020622,-25.757744,19.999731,1.4264041,-19.461658,-19.070389,-13.487437
145,-7.787540435791016,170.0488739013672,72.1983413696289,0.3212145914060042,0.31083384672807357,-86.9467439512257,-8.916752,5.0945663,-6.5300684,83.49108,-19.154633,-9.784965,-26.591997,-4.13682,-3.1292188,52.47912,-24.325262,3.8775938,-5.571367,0.922411,17.638823,-3.0324428,24.951254,-11.555947,-26.959295,1.874722,-8.06474,0.862726,25.1462,-25.44025,19.870947,2.1905541,-19.511692,-19.152346,-13.725522
146,-7.756005764007568,171.05978393554688,72.6400375366211,0.3130443839572742,0.547880481232114,-87.1706365099264,-7.471061,4.940996,-6.120827,80.90861,-17.996555,-9.830091,-27.013313,-3.9778178,-2.9346695,50.50608,-22.075129,3.9283638,-6.1559505,0.56363565,17.230461,-5.155985,25.92322,-11.730746,-26.69928,1.6751059,-8.13608,0.9221652,26.179111,-25.177904,19.79133,2.8736498,-19.4935,-19.241001,-13.960725
147,-7.707971572875977,172.07423400878906,73.1141357421875,0.3197450288027429,0.7994555800269524,-87.41876665230672,-6.083253,4.7363887,-5.706833,78.14558,-16.75064,-9.965718,-27.375803,-3.828159,-2.692712,48.37088,-19.679813,4.016276,-6.7299204,0.1902114,16.823618,-7.16433,26.905216,-11.895276,-26.46796,1.4460466,-8.211292,0.995306,27.138205,-24.96246,19.715576,3.4591303,-19.42414,-19.327162,-14.13945
148,-7.6455979347229,173.09597778320312,73.60205841064453,0.3304933835559589,1.0582765701326196,-87.67015316837768,-4.765473,4.4712434,-5.361802,75.26733,-15.502194,-10.232429,-27.687973,-3.6748085,-2.4139047,46.116364,-17.118809,4.168426,-7.2883725,-0.16325168,16.436447,-9.065734,27.895649,-12.070378,-26.281647,1.2265848,-8.308666,1.0992408,28.038933,-24.776688,19.597492,3.936248,-19.323418,-19.402071,-14.20719
149,-7.58207893371582,174.1337890625,74.09378814697266,0.34209376454778795,1.335722532762347,-87.9230756850528,-3.5060878,4.107806,-5.1204557,72.19798,-14.137978,-10.832791,-27.95238,-3.496996,-2.0931926,43.717995,-14.351661,4.2809043,-7.8314543,-0.49733892,16.05809,-10.869039,28.901493,-12.257084,-26.124903,0.9944972,-8.434307,1.2271832,28.875183,-24.610106,19.418486,4.3069453,-19.181587,-19.46975,-14.110416
150,-7.506169319152832,175.186767578125,74.58301544189453,0.3619272941032788,1.6312088271146628,-88.18739420642322,-2.2985108,3.6600382,-4.9520073,68.9232,-12.657201,-11.684034,-28.162943,-3.3071308,-1.7265949,41.16265,-11.400193,4.37687,-8.352942,-0.82985175,15.683594,-12.575491,29.927902,-12.44985,-25.988478,0.74144447,-8.577712,1.3744639,29.641384,-24.460278,19.199707,4.5828424,-18.99767,-19.532776,-13.889462
151,-7.423950672149658,176.23817443847656,75.06538391113281,0.3914842817736254,1.9187154854659005,-88.45802411270382,-1.1638479,3.203033,-4.8176155,65.597855,-11.307857,-12.393888,-28.31007,-3.1305614,-1.315094,38.49861,-8.329076,4.676907,-8.83945,-1.1537576,15.342016,-14.172306,30.967113,-12.651142,-25.909771,0.5304122,-8.731207,1.5596206,30.352816,-24.319962,18.953596,4.7705994,-18.807898,-19.580833,-13.630681
152,-7.333000183105469,177.30938720703125,75.52359008789062,0.4350180896085528,2.1709471342766284,-88.72929991358393,-0.12573124,2.8145833,-4.6586514,62.383278,-10.336572,-12.56811,-28.378214,-2.986363,-0.8397779,35.761726,-5.1976924,5.4067116,-9.274829,-1.4617312,15.062424,-15.681282,32.005306,-12.869368,-25.887157,0.41763583,-8.887011,1.7993731,31.02546,-24.180336,18.688738,4.8782616,-18.650103,-19.603956,-13.420227
153,-7.224064826965332,178.384765625,75.95123291015625,0.5029267947972625,2.389162550530096,-89.00499943664755,0.79489887,2.4858496,-4.4493103,59.298756,-9.924939,-12.002946,-28.370003,-2.8404315,-0.20847403,32.843792,-1.8215187,6.5587373,-9.648193,-1.7530591,14.84967,-17.104593,33.03913,-13.110121,-25.942215,0.49622944,-9.039052,2.1158466,31.671028,-24.033207,18.38089,4.9044013,-18.55496,-19.592861,-13.285593
154,-7.109013080596924,179.4699249267578,76.34782409667969,0.5992653525179947,2.5806936784593826,-89.28275621902249,1.6197083,2.1671228,-4.212203,56.27042,-9.909765,-10.946418,-28.269758,-2.6973424,0.593771,29.732622,1.7693112,8.054204,-9.964409,-2.0406473,14.6912155,-18.446575,34.07187,-13.370075,-26.05092,0.7115515,-9.190538,2.4925177,32.2823,-23.876665,18.025774,4.849137,-18.50019,-19.555048,-13.179057
155,-6.989566326141357,180.55349731445312,76.70813751220703,0.7219048577113922,2.725751444106716,-89.54501176294336,2.386335,1.8672204,-3.9531503,53.32778,-10.028344,-9.687212,-28.033901,-2.6264427,1.4747795,26.607143,5.1956778,10.012458,-10.241625,-2.342638,14.592367,-19.73837,35.091415,-13.646126,-26.145378,0.9059653,-9.348199,2.889171,32.84118,-23.712894,17.669136,4.7274804,-18.444113,-19.508553,-13.076463
156,-6.872814178466797,181.64028930664062,77.01905059814453,0.866753793608952,2.8041844304459613,-89.77538887346306,3.1355553,1.6036078,-3.6694672,50.486916,-10.001877,-8.512736,-27.61586,-2.6886523,2.3165352,23.6343,8.093458,12.543133,-10.492793,-2.6696236,14.5536995,-20.827835,36.075268,-13.899262,-26.322214,0.96781504,-9.520324,3.2606306,33.336647,-23.546713,17.350674,4.554408,-18.345837,-19.469778,-12.953287
157,-6.780960559844971,182.71339416503906,77.26081848144531,0.9138457145567547,2.773735918236649,-90.00658243653902,3.911281,1.5507027,-3.3680577,47.76245,-9.715934,-7.4678297,-26.65126,-2.786125,2.5929484,20.13471,10.829455,15.000033,-10.683806,-2.9206815,14.633034,-21.754402,37.01488,-14.134359,-26.539019,0.83645195,-9.723366,3.591821,33.797943,-23.384905,17.058989,4.309862,-18.17508,-19.445723,-12.794407
158,-6.757061004638672,183.77545166015625,77.43338775634766,0.6503252852269892,2.5998343490395883,-90.29825299538078,4.7031727,1.9648075,-3.0649185,45.320965,-9.491067,-6.5327773,-24.9238,-2.6497881,1.5585089,15.616484,13.855648,15.000033,-10.746501,-2.9102948,14.902982,-22.515842,37.917847,-14.353229,-26.815294,0.59232944,-9.948614,3.8968937,34.258648,-23.228123,16.770988,3.9660964,-17.959879,-19.423847,-12.617161
159,-6.7282819747924805,184.84034729003906,77.54908752441406,0.5052119253751534,2.3883732400439124,-90.54646323485807,5.43845,2.2547195,-2.6894553,43.00032,-9.367915,-5.6627245,-23.36796,-2.6454835,0.6191188,11.851902,16.168211,15.000033,-10.798793,-3.0086195,15.193172,-23.161274,38.773956,-14.552606,-27.085976,0.29345843,-10.170965,4.185782,34.65155,-23.078505,16.527367,3.5612254,-17.744814,-19.394276,-12.445289
160,-6.666013717651367,185.9515380859375,77.62987518310547,0.3772343130005424,2.245764795539541,-90.7708017968203,6.0004888,2.481807,-2.2575436,40.876453,-9.575813,-4.985613,-22.712431,-2.7302115,0.19422606,10.251463,16.822361,15.000033,-10.834027,-3.07593,15.426716,-23.647432,39.565514,-14.699057,-27.37483,0.011838347,-10.365689,4.467821,34.88951,-22.940945,16.354935,3.1589968,-17.574753,-19.349287,-12.301846
161,-6.5571980476379395,187.0577392578125,77.67544555664062,0.1971621400029789,2.2221028775005136,-90.97471554596463,6.37592,2.7191296,-1.7840989,38.865334,-10.144948,-4.5544457,-23.376015,-2.8863199,0.57243854,11.6669235,14.868802,15.000033,-10.856947,-3.0123506,15.570199,-23.971792,40.28046,-14.784476,-27.692518,-0.25928515,-10.526885,4.757811,34.94413,-22.825718,16.254076,2.776402,-17.458435,-19.281343,-12.195416
162,-6.409402847290039,188.1674346923828,77.68289184570312,0.014483505733603748,2.26261699595271,-91.15586872365131,6.6283455,2.9316587,-1.2727524,36.914375,-10.929366,-4.3106065,-24.878843,-3.122262,1.4276539,15.135368,11.08759,15.000033,-10.857899,-2.8816361,15.659735,-24.125448,40.92105,-14.810125,-28.047968,-0.5465904,-10.6677065,5.041145,34.8736,-22.736565,16.201334,2.374323,-17.370396,-19.19602,-12.113276
163,-6.248149871826172,189.30026245117188,77.64512634277344,-0.09845623698182075,2.2935503502296175,-91.301199904833,6.7818027,3.0426438,-0.75324523,35.147453,-11.888678,-4.1974645,-26.703934,-3.4773915,2.3007503,19.661448,6.871831,15.000033,-10.846659,-2.7999825,15.753303,-24.125849,41.48404,-14.776849,-28.380693,-0.801994,-10.791225,5.288743,34.702625,-22.666945,16.204287,1.9378142,-17.30455,-19.106205,-12.046417
164,-6.112146854400635,190.45123291015625,77.55370330810547,-0.16103719867343738,2.2478408420183373,-91.40940370883165,6.8263564,3.100268,-0.26001954,33.7636,-13.030014,-4.1606913,-28.375553,-3.944043,2.7835186,24.357042,3.4448924,15.000033,-10.813147,-2.784254,15.918622,-23.960373,41.966755,-14.675443,-28.667831,-0.98063046,-10.900472,5.470923,34.444626,-22.603642,16.260906,1.4694505,-17.256828,-19.025589,-11.985591
165,-6.005659580230713,191.61288452148438,77.40853118896484,-0.2504344131368802,2.1323036163068227,-91.47883126285923,6.677764,3.2346978,0.23118836,32.945335,-14.503341,-4.176245,-29.875427,-4.5448303,2.7125862,29.249166,1.044067,15.000033,-10.752092,-2.7633498,16.164112,-23.65716,42.36895,-14.509838,-28.89439,-1.0419272,-11.007856,5.5733633,34.09091,-22.53879,16.365139,0.9611543,-17.248053,-18.957752,-11.91767
166,-5.898773193359375,192.7746124267578,77.2118911743164,-0.31292528053446533,1.9541597970090918,-91.48718826952752,6.381627,3.379853,0.7078679,32.55265,-16.256708,-4.2454085,-31.329496,-5.35956,2.4221556,34.59972,-0.9457689,15.000033,-10.682353,-2.775622,16.46962,-23.21146,42.692585,-14.287808,-29.080194,-1.0242251,-11.106827,5.612427,33.645706,-22.46864,16.515598,0.41475168,-17.275553,-18.895588,-11.850839
167,-5.829283714294434,193.93125915527344,76.98871612548828,-0.48118020099959175,1.6858729489846929,-91.5143264774518,5.9959364,3.690106,1.127506,32.555,-18.157728,-4.436505,-32.48833,-6.1789637,1.7928662,39.819412,-2.602226,13.829089,-10.534391,-2.7102659,16.88927,-22.598255,42.926018,-14.021318,-29.21185,-0.98338014,-11.17363,5.614364,33.09945,-22.390726,16.721672,-0.12285383,-17.302279,-18.83964,-11.806498
168,-5.773745536804199,195.10305786132812,76.73686981201172,-0.5781389215241932,1.3147583326925634,-91.54466016275566,5.6493497,3.9039268,1.426414,32.64806,-19.893847,-4.708406,-33.317924,-7.0516315,1.3227096,44.72179,-4.199144,12.330902,-10.324806,-2.728465,17.406069,-21.787422,43.052666,-13.722002,-29.288027,-0.97891587,-11.184551,5.601039,32.45453,-22.302746,16.98419,-0.61093026,-17.29122,-18.789902,-11.806232
169,-5.7274322509765625,196.2775115966797,76.46551513671875,-0.5323927903657052,0.7865939760675673,-91.56901055041342,5.4269605,3.9178047,1.563452,32.747307,-21.413616,-5.101188,-33.82486,-7.9979386,1.1541977,49.45906,-5.830584,10.949833,-10.042745,-2.8967445,18.063095,-20.77885,43.05604,-13.394208,-29.298935,-1.0229616,-11.140253,5.5729947,31.722406,-22.197235,17.302906,-1.0600593,-17.2052,-18.7446,-11.875778
170,-5.689131259918213,197.439697265625,76.1778793334961,-0.3839767057096641,0.1359723002907272,-91.58356203014708,5.2402525,3.7958975,1.5869193,32.971363,-22.848179,-5.582713,-34.09528,-9.035413,1.1619915,54.197952,-7.406778,9.683964,-9.687138,-3.165511,18.832678,-19.61127,42.929893,-13.05381,-29.232388,-1.0786994,-11.051486,5.5169797,30.903425,-22.071577,17.664997,-1.4846724,-17.075218,-18.704487,-11.99683
171,-5.660224914550781,198.57791137695312,75.88091278076172,-0.17221651739157892,-0.522788329612382,-91.59086384175747,4.9534593,3.5869,1.5599715,33.35991,-24.184889,-6.0293465,-34.184345,-10.065751,1.3782599,58.722847,-8.875063,8.617596,-9.27698,-3.4746208,19.60541,-18.295244,42.678764,-12.720412,-29.09423,-1.13832,-10.909783,5.433344,29.988276,-21.933537,18.05068,-1.8515105,-16.963596,-18.67372,-12.125247
172,-5.624372482299805,199.70150756835938,75.58290100097656,0.06380495170038644,-1.075020631302128,-91.59293290284786,4.4394236,3.3434005,1.5404915,33.939575,-25.396036,-6.325458,-34.1606,-10.98186,1.8273606,62.839737,-10.183427,7.8408422,-8.842383,-3.7701716,20.272734,-16.841114,42.31098,-12.409162,-28.88569,-1.1929739,-10.70685,5.325405,28.962425,-21.79669,18.44926,-2.129728,-16.929539,-18.6561,-12.217168
173,-5.591786861419678,200.81277465820312,75.29161834716797,0.33437932413446686,-1.5090317935674058,-91.58371189621697,3.6462843,3.0475562,1.5115517,34.785732,-26.479113,-6.430352,-34.035423,-11.749823,2.5494874,66.55983,-11.33444,7.460414,-8.402345,-4.060896,20.828968,-15.192941,41.82301,-12.102039,-28.627813,-1.2558591,-10.414326,5.1755443,27.803102,-21.66274,18.87258,-2.296859,-16.97537,-18.661123,-12.265385
174,-5.56097936630249,201.91180419921875,75.02162170410156,0.647954807598378,-1.8775442571209193,-91.56794738699921,2.6481707,2.6854322,1.4515951,35.86125,-27.444857,-6.419456,-33.78469,-12.394404,3.4805732,70.0087,-12.364246,7.422878,-7.938089,-4.3624043,21.32621,-13.357297,41.211792,-11.800534,-28.321493,-1.3245302,-10.045885,4.988943,26.526117,-21.530159,19.320387,-2.3809297,-17.070698,-18.6837,-12.292784
175,-5.530507564544678,203.01966857910156,74.77345275878906,0.963245572298028,-2.162827483349646,-91.56078462699192,1.5118834,2.3210633,1.4067147,37.015873,-28.277296,-6.352371,-33.429134,-12.906788,4.4938555,73.16725,-13.27465,7.5728617,-7.4295497,-4.6332994,21.738106,-11.432752,40.49518,-11.542244,-27.953112,-1.3779473,-9.656696,4.803594,25.178728,-21.410572,19.767416,-2.4299338,-17.223978,-18.70468,-12.300286
176,-5.499874591827393,204.1056365966797,74.5585708618164,1.243329550326912,-2.347027469267352,-91.57551488567239,0.3011428,2.0201938,1.4208055,38.101658,-28.960987,-6.2859645,-32.99536,-13.286995,5.4772477,76.006935,-14.058718,7.7488127,-6.8587627,-4.8326225,22.035109,-9.460525,39.705784,-11.343253,-27.55672,-1.3987926,-9.302007,4.6606297,23.813225,-21.320469,20.190987,-2.495192,-17.439898,-18.705061,-12.288804
177,-5.478821754455566,205.17852783203125,74.37080383300781,1.4877254655680314,-2.3913629475112796,-91.617821304479,-1.0289508,1.7941762,1.5195655,39.124798,-29.456999,-6.2234097,-32.523342,-13.504736,6.471509,78.522575,-14.69367,7.961449,-6.2293243,-4.972355,22.184422,-7.4142485,38.86054,-11.208195,-27.133606,-1.4242759,-8.986096,4.6014814,22.410618,-21.263618,20.607359,-2.5684118,-17.769741,-18.661997,-12.266132
178,-5.481568813323975,206.2080078125,74.20812225341797,1.711675103492994,-2.3160997380018027,-91.67785161610952,-2.490065,1.6164759,1.6716814,40.144634,-29.782454,-6.1396933,-31.990421,-13.570941,7.5061684,80.74495,-15.196425,8.279938,-5.5571823,-5.0771456,22.210289,-5.271883,37.959503,-11.131243,-26.684916,-1.4608895,-8.683949,4.6014886,20.956076,-21.236311,21.029797,-2.640314,-18.188356,-18.591759,-12.229873
179,-5.4956746101379395,207.21981811523438,74.06153106689453,1.9003384016588194,-2.1929380492665427,-91.74654553886855,-3.9662385,1.4931681,1.8347874,41.09015,-30.00494,-6.0471787,-31.339499,-13.56171,8.469261,82.6942,-15.613055,8.616226,-4.8492646,-5.1307774,22.16721,-3.0594327,37.01215,-11.097509,-26.25243,-1.4382248,-8.406262,4.604014,19.494543,-21.25051,21.443306,-2.751253,-18.585505,-18.533941,-12.164115
180,-5.520385265350342,208.21974182128906,73.92670440673828,2.038719304396734,-2.09352954025774,-91.81505416171828,-5.3425965,1.4266998,1.9666811,41.893967,-30.193996,-5.9571037,-30.518902,-13.560581,9.255171,84.383415,-15.985112,8.876981,-4.119847,-5.1150684,22.11186,-0.81810355,36.032806,-11.077503,-25.860615,-1.2955873,-8.163314,4.553454,18.067055,-21.328156,21.845066,-2.9442828,-18.84668,-18.527676,-12.053708
181,-5.5404229164123535,209.19923400878906,73.80636596679688,2.096681818547854,-2.0405602119883595,-91.88410076415606,-6.574705,1.4449245,2.0526576,42.525402,-30.403875,-5.8655376,-29.501186,-13.586312,9.817335,85.81501,-16.317625,9.040314,-3.375641,-4.9992313,22.064022,1.4902451,35.023754,-11.040791,-25.51783,-1.0059518,-7.9680505,4.452221,16.662786,-21.488363,22.266888,-3.230494,-18.891773,-18.618656,-11.876932
182,-5.573342323303223,210.18621826171875,73.69810485839844,2.0910960911063388,-1.9949283982425043,-91.95707633862251,-7.7267194,1.5346746,2.1132529,43.023136,-30.584677,-5.7670345,-28.330858,-13.608032,10.230092,86.9855,-16.585606,9.144491,-2.620891,-4.803661,21.990507,3.9004087,33.981323,-10.988821,-25.236605,-0.61057854,-7.8125143,4.3256764,15.265216,-21.73425,22.723436,-3.5976157,-18.787518,-18.772423,-11.648989
183,-5.6100287437438965,211.15338134765625,73.60079193115234,2.0819144433754126,-1.9346743327634244,-92.02925030063521,-8.848276,1.6325464,2.1620326,43.4237,-30.64922,-5.669722,-27.070778,-13.62813,10.570309,87.900925,-16.778532,9.184362,-1.8644223,-4.587765,21.870516,6.3792224,32.914135,-10.92918,-25.057678,-0.14895184,-7.6753335,4.154621,13.900354,-22.062866,23.185652,-4.047437,-18.643486,-18.909336,-11.409099
184,-5.638922691345215,212.10296630859375,73.52346801757812,2.125861778511045,-1.8380792502466654,-92.09610315498684,-9.987247,1.6749722,2.2159991,43.761433,-30.510067,-5.5815997,-25.781214,-13.65047,10.9118595,88.56662,-16.886692,9.156915,-1.1128953,-4.414058,21.688213,8.877462,31.84012,-10.870246,-25.006052,0.33146727,-7.5350013,3.9217532,12.594992,-22.468054,23.618277,-4.5832176,-18.57279,-18.951227,-11.19652
185,-5.677186489105225,213.04296875,73.4727554321289,2.2599634594686027,-1.7029297850864893,-92.17106768559464,-11.157467,1.6178493,2.3095388,44.062077,-30.133677,-5.481191,-24.47848,-13.728934,11.28031,89.00109,-16.891317,9.003433,-0.34807968,-4.3301907,21.447357,11.4282255,30.763891,-10.790991,-25.120047,0.870481,-7.3729777,3.5857997,11.323253,-22.956013,24.02894,-5.2229347,-18.611597,-18.863157,-11.014077
186,-5.737703800201416,213.97816467285156,73.46087646484375,2.4453551035301193,-1.53951199013295,-92.2514457790528,-12.33023,1.5000728,2.431068,44.299393,-29.569946,-5.3675237,-23.136126,-13.847869,11.635591,89.19816,-16.799078,8.739749,0.42693055,-4.2997665,21.161375,14.05304,29.681961,-10.687112,-25.392223,1.470535,-7.2069173,3.1714826,10.079335,-23.52969,24.435093,-5.9637976,-18.697279,-18.692545,-10.84288
187,-5.797044277191162,214.90321350097656,73.4737548828125,2.6309603939272503,-1.345191744123003,-92.3088205522608,-13.493054,1.3793396,2.5258987,44.435226,-28.857893,-5.277469,-21.748068,-13.899073,11.954838,89.1287,-16.643412,8.480188,1.1798915,-4.2629175,20.827888,16.68826,28.606314,-10.595302,-25.773373,2.032172,-7.066445,2.7628217,8.919338,-24.172028,24.80547,-6.771663,-18.800024,-18.486868,-10.688545
188,-5.872234344482422,215.8213653564453,73.52140808105469,2.7662450376301337,-1.117483555329965,-92.31520411007851,-14.634564,1.3120387,2.5360749,44.429638,-28.034685,-5.2516007,-20.30828,-13.773602,12.219842,88.76442,-16.459223,8.338719,1.8873472,-4.16265,20.440964,19.260706,27.562286,-10.560379,-26.208181,2.453746,-6.977402,2.4472303,7.8970838,-24.852491,25.100492,-7.6019516,-18.892738,-18.294426,-10.554929
189,-5.968505382537842,216.73121643066406,73.59172058105469,2.8488286538005747,-0.852050001113092,-92.26830572629994,-15.76841,1.300467,2.4436657,44.29568,-27.098326,-5.3063555,-18.795849,-13.465467,12.42614,88.082085,-16.290365,8.366944,2.5626404,-4.0057316,19.986109,21.788502,26.574196,-10.597261,-26.709116,2.6708236,-6.9490833,2.270651,7.016758,-25.55291,25.30314,-8.443796,-19.007263,-18.121895,-10.453967
190,-6.0813117027282715,217.63204956054688,73.68241882324219,2.905643814342333,-0.5512627633730653,-92.18203713409945,-16.896978,1.3095515,2.2808022,44.044422,-26.029734,-5.416554,-17.226152,-13.023172,12.595133,87.1061,-16.109385,8.4910555,3.2258527,-3.829155,19.47005,24.30321,25.65117,-10.678114,-27.300259,2.7427688,-6.962514,2.186284,6.246164,-26.269314,25.426626,-9.304547,-19.15073,-17.947727,-10.376206
191,-6.232613563537598,218.50726318359375,73.80985260009766,2.92281169858463,-0.22299050734932496,-92.05357788755417,-17.986465,1.343051,2.0602303,43.623165,-24.836876,-5.5662785,-15.64582,-12.42209,12.754266,85.87895,-15.8464,8.638949,3.864587,-3.620923,18.914686,26.748625,24.795517,-10.784635,-27.931879,2.7555325,-7.000369,2.141752,5.589977,-26.987825,25.473415,-10.165812,-19.264654,-17.778608,-10.295315
192,-6.405263423919678,219.385009765625,73.97154998779297,2.8904263017368215,0.125257030932895,-91.87987526646972,-19.004644,1.4100153,1.7922173,42.98401,-23.531483,-5.742841,-14.103007,-11.638911,12.932545,84.44622,-15.430928,8.740367,4.467964,-3.3668838,18.33865,29.055965,24.005747,-10.905756,-28.541803,2.796297,-7.045508,2.0839803,5.047048,-27.68958,25.444242,-10.998119,-19.29209,-17.621029,-10.184262
193,-6.587322235107422,220.2585906982422,74.15956115722656,2.7888791708836265,0.49161907558325846,-91.65065829118537,-19.948898,1.5367292,1.4540027,42.127113,-22.125317,-5.9478793,-12.568403,-10.589519,13.154242,82.77975,-14.831019,8.754906,5.032089,-3.0450938,17.729223,31.219923,23.286165,-11.045514,-29.127184,2.891918,-7.088177,2.0071788,4.6293397,-28.360373,25.31625,-11.785289,-19.218496,-17.475199,-10.002408
194,-6.781329154968262,221.1402587890625,74.3717269897461,2.630771403012654,0.8810416149979339,-91.37164981603725,-20.833813,1.714218,1.0406132,41.070316,-20.60801,-6.1910477,-11.035101,-9.319934,13.418795,80.87322,-14.0884695,8.721531,5.5686274,-2.6745665,17.077381,33.27063,22.640923,-11.203645,-29.708698,2.9939532,-7.1384096,1.9376364,4.3232074,-28.99632,25.092112,-12.523872,-19.080462,-17.33963,-9.774524
195,-6.979109287261963,222.03424072265625,74.60174560546875,2.4548530448406787,1.2958049251333668,-91.06387980517128,-21.650536,1.9022765,0.588938,39.79023,-18.957853,-6.472845,-9.573409,-7.9940777,13.709382,78.79176,-13.254548,8.6993065,6.0870113,-2.2972376,16.407322,35.191322,22.062305,-11.365743,-30.263538,3.0790296,-7.2089477,1.8693225,4.0931106,-29.593063,24.81193,-13.209189,-18.89591,-17.214493,-9.57234
196,-7.186205863952637,222.92640686035156,74.8548355102539,2.296835734176687,1.7376584385697207,-90.74889640624248,-22.387217,2.0607944,0.13957569,38.258556,-17.149973,-6.792799,-8.247257,-6.7681613,13.992185,76.59343,-12.374128,8.746822,6.5910063,-1.9510944,15.74317,36.965363,21.53459,-11.51539,-30.768864,3.126998,-7.3128457,1.7931051,3.8982172,-30.145899,24.523325,-13.832991,-18.685099,-17.100645,-9.467878
197,-7.399469375610352,223.8399200439453,75.1202163696289,2.153954637672956,2.2067558731201675,-90.42501409139403,-23.00184,2.1944168,-0.30725923,36.393677,-15.186568,-7.1536217,-7.032686,-5.589164,14.289173,74.22636,-11.407318,8.995773,7.0715184,-1.6298234,15.080128,38.59362,21.049458,-11.646084,-31.212736,3.1148372,-7.466994,1.7091179,3.7283828,-30.648567,24.237146,-14.366004,-18.431755,-17.009777,-9.499306
198,-7.628040790557861,224.76708984375,75.39293670654297,2.008497312453532,2.701352753145107,-90.08513503301364,-23.504246,2.327993,-0.77447593,34.222004,-13.073055,-7.555748,-5.8971505,-4.3951373,14.606313,71.67369,-10.347575,9.383518,7.5234647,-1.3132758,14.407756,40.086773,20.604918,-11.758977,-31.608747,3.0630736,-7.6598363,1.6173698,3.589155,-31.098341,23.939014,-14.803374,-18.134747,-16.93807,-9.621472
199,-7.858542442321777,225.6991424560547,75.6647720336914,1.8710637711172733,3.219297985733254,-89.74227395795808,-23.963676,2.4509678,-1.255941,31.881529,-10.789166,-7.995918,-4.8945665,-3.322164,14.866534,69.047806,-9.289794,9.683612,7.9536915,-1.014489,13.74293,41.440372,20.19227,-11.849555,-31.957392,3.0185332,-7.861591,1.5078076,3.4609394,-31.499088,23.640966,-15.178194,-17.834707,-16.862432,-9.781492
200,-8.083617210388184,226.64256286621094,75.92981719970703,1.7521429708705334,3.757983088662271,-89.40901062144137,-24.448439,2.553438,-1.7473238,29.509619,-8.313317,-8.472502,-4.0818906,-2.4991639,14.976764,66.46381,-8.3294735,9.672833,8.364648,-0.74425876,13.102935,42.65021,19.79758,-11.912238,-32.261112,3.0295684,-8.043327,1.3688253,3.3315282,-31.85794,23.357,-15.529491,-17.574497,-16.75876,-9.927912
201,-8.310195922851562,227.60462951660156,76.17730712890625,1.659595557708546,4.360014955518535,-89.09497470327402,-25.016434,2.6264634,-2.2603703,27.103277,-5.532299,-8.868871,-3.528319,-1.8952672,14.971453,63.943317,-7.4188557,9.315117,8.761732,-0.5114504,12.450875,43.706356,19.407331,-11.938701,-32.50084,3.1167347,-8.205548,1.1854806,3.190942,-32.179207,23.103783,-15.851259,-17.381214,-16.596308,-10.079997
202,-8.531630516052246,228.5867156982422,76.41632843017578,1.5811192181861917,5.008958243243347,-88.79341112624506,-25.611805,2.6940503,-2.7996373,24.599264,-2.492982,-9.23069,-3.176493,-1.4411427,14.849066,61.42656,-6.5389066,8.731032,9.133456,-0.2972341,11.794889,44.614723,19.017561,-11.930068,-32.675133,3.2565477,-8.36189,0.9635838,3.044656,-32.464024,22.878128,-16.130327,-17.227335,-16.395065,-10.254975
203,-8.75560474395752,229.5899658203125,76.63214874267578,1.4921206774325195,5.611773509104182,-88.49322196013456,-26.131113,2.7915804,-3.3639596,22.0396,0.5905183,-9.802169,-2.8960125,-1.1960846,14.45688,58.91466,-5.836693,7.9411054,9.460201,-0.06648601,11.221334,45.39797,18.633165,-11.8931875,-32.824688,3.431875,-8.502249,0.7238814,2.8817732,-32.720776,22.664495,-16.378963,-17.064766,-16.207066,-10.396659
204,-8.975956916809082,230.62855529785156,76.80548095703125,1.3612915163507258,6.072777437067275,-88.1854553964779,-26.456959,2.9518328,-3.968922,19.446688,3.5052316,-10.829991,-2.5413294,-1.2002931,13.64843,56.399254,-5.462031,6.9795976,9.728629,0.2243123,10.818948,46.079063,18.264326,-11.834305,-32.992573,3.623208,-8.616578,0.4888003,2.7082925,-32.96219,22.439232,-16.623753,-16.84693,-16.084621,-10.449799
205,-9.193814277648926,231.69102478027344,76.92218780517578,1.1360493553073139,6.372407981769878,-87.87254217598424,-26.470556,3.2274978,-4.666115,16.496967,6.4264026,-12.529335,-2.0864904,-1.4931923,12.251573,53.83702,-5.4284167,5.701397,9.947123,0.63680565,10.610237,46.66843,17.91471,-11.749757,-33.18939,3.8495252,-8.702662,0.25928146,2.5420196,-33.195374,22.16756,-16.882738,-16.54441,-16.05273,-10.3726
206,-9.418688774108887,232.7485809326172,76.97270202636719,0.8099104117268501,6.539778151352229,-87.57208730519501,-26.222544,3.6311922,-5.4813905,13.248493,9.393232,-14.737906,-1.5250899,-1.9416869,10.383656,51.22066,-5.7025084,4.204067,10.137528,1.1752571,10.564485,47.15916,17.585852,-11.637984,-33.40428,4.1116304,-8.765775,0.027250065,2.3914866,-33.425537,21.859081,-17.155973,-16.183338,-16.078571,-10.202325
207,-9.616138458251953,233.78440856933594,76.96129608154297,0.6714070876556991,6.5235065652954,-87.24541073681003,-25.616304,3.8244498,-5.71051,9.89851,12.220819,-15.000033,-0.745599,-2.6485147,8.425702,48.707943,-6.4280205,2.9754794,10.257626,1.5835344,10.757627,47.55406,17.286537,-11.510911,-33.65572,4.362095,-8.807454,-0.19782124,2.2606091,-33.6622,21.55252,-17.457935,-15.798181,-16.12739,-10.004053
208,-9.819036483764648,234.8233184814453,76.89490509033203,0.6546378831426461,6.380134806734202,-86.90024744428145,-25.053875,3.9007127,-5.7875924,7.3870325,14.348958,-15.000033,0.21798284,-3.3132737,6.609627,46.29684,-7.5180197,2.3037434,10.311072,1.883365,11.110583,47.825848,17.03024,-11.375206,-33.936317,4.549012,-8.829501,-0.40642157,2.1385002,-33.91161,21.29062,-17.78395,-15.421221,-16.165913,-9.849692
209,-10.027881622314453,235.8811798095703,76.77479553222656,0.7659900209043922,6.115123248535074,-86.50756710933321,-24.788477,3.811924,-5.7061334,6.271559,15.381233,-15.000033,1.4434512,-3.9528587,4.9114165,43.79386,-8.937852,2.352339,10.27869,2.0562346,11.619637,47.978203,16.830982,-11.217209,-34.264977,4.655513,-8.820836,-0.6176512,2.038336,-34.175,21.077938,-18.17095,-15.028283,-16.183947,-9.755617
210,-10.235082626342773,236.95716857910156,76.60404205322266,1.0009122390689442,5.752967102396864,-86.05519526960676,-24.80624,3.5424492,-5.481781,6.3343616,15.508673,-15.000033,2.857447,-4.6677566,3.1668966,41.204617,-10.627693,2.926205,10.154749,2.1049616,12.269813,48.00663,16.69154,-11.0365,-34.629864,4.704429,-8.783989,-0.826555,1.9730262,-34.44845,20.886143,-18.6165,-14.614426,-16.200243,-9.689253
211,-10.454242706298828,238.05868530273438,76.42060852050781,1.3754609035045797,5.389952370455167,-85.55236401172336,-25.120245,3.0931323,-5.308803,7.3600426,15.04406,-15.000033,4.14059,-5.4569454,1.4353579,38.889797,-12.505563,3.7418091,9.943897,1.9957161,12.965911,47.86475,16.605835,-10.857443,-34.9669,4.7058377,-8.741345,-0.9886563,1.8996185,-34.726864,20.717302,-19.038221,-14.235801,-16.226156,-9.648056
212,-10.682151794433594,239.16978454589844,76.2308120727539,1.8665896060401241,5.09833202639145,-85.0259236693613,-26.309288,2.4450476,-5.4249635,10.412864,13.620742,-15.000033,5.0000052,-6.2964644,-0.18551338,37.202034,-14.517262,4.4706283,9.663111,1.7424741,13.626041,47.51609,16.56015,-10.703989,-35.219135,4.6721272,-8.71532,-1.0609537,1.7879255,-35.004818,20.576345,-19.365385,-13.95511,-16.27276,-9.627865
213,-10.930069923400879,240.3038330078125,76.01165008544922,2.436901668575989,4.864279650929015,-84.47466973187557,-28.107954,1.6252795,-6.0094995,14.977747,11.577682,-15.000033,5.36076,-7.186863,-1.6964618,36.305885,-16.809086,4.9584885,9.315853,1.3858916,14.257825,46.946716,16.549034,-10.575311,-35.396362,4.6106987,-8.70551,-1.0301672,1.6052924,-35.28932,20.463081,-19.605038,-13.784796,-16.361773,-9.603984
214,-11.182106018066406,241.45346069335938,75.75910186767578,2.9513576639924017,4.5918254635926345,-83.95754918020108,-30.228209,0.7431838,-6.951573,20.684612,9.009112,-15.000033,5.444883,-8.002561,-3.0811667,35.955814,-19.356781,5.3104463,8.955605,1.0747324,14.932044,46.214405,16.570604,-10.467392,-35.553177,4.5187387,-8.701024,-0.9211343,1.3871651,-35.591244,20.372576,-19.799307,-13.691354,-16.4801,-9.578963
215,-11.43044376373291,242.6007537841797,75.47523498535156,3.2888234434743016,4.245198264267871,-83.57940729042527,-32.285442,-0.031116793,-8.003255,26.81322,6.2295213,-15.000033,5.3599486,-8.586333,-4.1882186,35.956615,-21.90922,5.578883,8.659414,0.93777895,15.658938,45.379013,16.612501,-10.395236,-35.684303,4.3943977,-8.709028,-0.74937737,1.186663,-35.908928,20.311497,-19.913294,-13.666989,-16.585655,-9.591245
216,-11.645825386047363,243.7511749267578,75.1611557006836,3.460144947627996,3.839405331669111,-83.38893384584469,-34.000504,-0.60033655,-8.858121,32.736862,3.4956715,-15.000033,5.14021,-8.931011,-4.9035044,36.1651,-24.237312,5.8511086,8.446827,0.96551466,16.419323,44.4715,16.657183,-10.363141,-35.752598,4.235528,-8.7380905,-0.53328156,1.031153,-36.225483,20.30125,-19.88769,-13.70671,-16.637999,-9.684553
217,-11.844161987304688,244.8994598388672,74.82682037353516,3.503993482723851,3.371579150565846,-83.39547643164482,-35.424007,-0.9501389,-9.448383,38.62869,0.6275134,-15.000033,4.740374,-9.068025,-5.126212,36.63355,-26.341951,6.1531153,8.298834,1.1202955,17.22711,43.489063,16.690521,-10.371212,-35.733635,4.021161,-8.822766,-0.23102596,0.8697905,-36.530266,20.389627,-19.672562,-13.870815,-16.605717,-9.90247
218,-12.027793884277344,246.04978942871094,74.46980285644531,3.449217683694385,2.8504201753131357,-83.55861980872294,-36.67042,-1.1607773,-9.948469,44.71104,-2.4331908,-15.000033,4.121212,-9.039866,-4.9377575,37.45484,-28.358765,6.42367,8.18285,1.3727361,18.079824,42.412876,16.707644,-10.403046,-35.63878,3.7641644,-8.949481,0.14581409,0.6710794,-36.820183,20.5785,-19.281746,-14.1445465,-16.516283,-10.211341
219,-12.204070091247559,247.1937713623047,74.09600830078125,3.339285195584539,2.3298131424949244,-83.82420715309026,-37.67437,-1.2699783,-10.3624,50.611546,-5.354416,-15.000033,3.3129761,-8.914754,-4.5257816,38.53439,-30.246918,6.644468,8.073409,1.6741812,18.916798,41.239357,16.70903,-10.436118,-35.480854,3.5122674,-9.053979,0.49909198,0.48777094,-37.07917,20.81892,-18.750116,-14.411128,-16.419176,-10.540021
220,-12.362868309020996,248.31088256835938,73.7142333984375,3.22330970323568,1.865481814407226,-84.13554777519045,-38.39631,-1.3143014,-10.667881,56.001915,-7.8298836,-15.000033,2.345271,-8.773932,-4.0757685,39.776894,-31.963005,6.804435,7.9482555,1.965958,19.674797,39.966797,16.701464,-10.4495,-35.272163,3.3117833,-9.070309,0.73256093,0.38553894,-37.285183,21.052834,-18.114405,-14.5611105,-16.366032,-10.815482
221,-12.49458122253418,249.41053771972656,73.33820343017578,3.126290950820787,1.4480623456882493,-84.5159853559688,-38.845,-1.2710834,-10.796552,60.94611,-9.807406,-15.000033,1.1957002,-8.643316,-3.547709,41.23416,-33.532974,6.9125576,7.8303785,2.2192864,20.365688,38.59247,16.686989,-10.439115,-35.005554,3.1695619,-8.948625,0.8203332,0.36223644,-37.419678,21.278873,-17.345304,-14.538252,-16.361872,-11.034354
222,-12.61723518371582,250.4854736328125,72.98345184326172,3.0600776751077805,1.0592566348154657,-84.96843247947625,-39.071507,-1.1342274,-10.724228,65.64125,-11.484213,-15.000033,-0.14499204,-8.519216,-2.874483,42.942932,-34.97774,6.988663,7.715448,2.421374,21.011658,37.11694,16.67654,-10.40901,-34.67734,3.0628483,-8.733225,0.8153301,0.3798935,-37.4674,21.517199,-16.4109,-14.418715,-16.386427,-11.220311
223,-12.739313125610352,251.5383758544922,72.6629409790039,2.9747236610824936,0.7501954575779155,-85.42289924475503,-39.140293,-0.9102459,-10.566291,70.02582,-12.954823,-15.000033,-1.622893,-8.350015,-2.203522,44.73218,-36.205666,7.014113,7.548379,2.6200693,21.549492,35.54997,16.676981,-10.353198,-34.311794,2.9887693,-8.499961,0.7402762,0.46182647,-37.46416,21.750063,-15.382693,-14.275946,-16.45001,-11.358253
224,-12.851783752441406,252.58120727539062,72.39078521728516,2.8949788471567057,0.5629244617496721,-85.7952922742102,-39.089596,-0.66819304,-10.373935,73.980286,-14.276284,-15.000033,-3.1934628,-8.193757,-1.674853,46.48394,-37.161095,6.9946513,7.256819,2.7744265,21.922865,33.913494,16.702255,-10.261751,-33.93191,2.9449294,-8.32403,0.6249764,0.55750155,-37.39015,22.003109,-14.24146,-14.194424,-16.563606,-11.432641
225,-12.957225799560547,253.59568786621094,72.1661605834961,2.8092847638473777,0.5538728383675827,-86.06963586270693,-38.96849,-0.39021367,-10.155128,77.48092,-15.436244,-15.000033,-4.922715,-8.056638,-1.3454993,48.214317,-37.789482,6.899587,6.868904,2.8942122,22.081093,32.16882,16.773415,-10.147782,-33.523804,2.9199023,-8.221787,0.43345514,0.7444559,-37.258827,22.183292,-13.055625,-14.154207,-16.755636,-11.368685
226,-13.049345016479492,254.55897521972656,71.98081970214844,2.7142250185782477,0.687292819257567,-86.287650546563,-38.76158,-0.040896133,-9.883684,80.62168,-16.420963,-15.000033,-6.810842,-7.927134,-1.1344709,49.967876,-38.13033,6.747938,6.416609,2.9891343,22.06224,30.333315,16.891817,-10.014882,-33.098854,2.9127772,-8.1544285,0.17446603,1.0266658,-37.071198,22.309124,-11.810056,-14.125487,-17.011305,-11.203476
227,-13.125917434692383,255.49349975585938,71.82209777832031,2.6683250899658995,0.8653203886187356,-86.44642369260276,-38.402744,0.30604178,-9.554254,83.434105,-17.274193,-15.000033,-8.715138,-7.870904,-0.96673316,51.6754,-38.275185,6.6259146,5.894843,3.0137482,21.98047,28.452892,17.06816,-9.874433,-32.706722,2.9376984,-8.1150465,-0.07272345,1.4014832,-36.83327,22.399267,-10.512439,-14.159328,-17.285664,-11.051286
228,-13.189811706542969,256.3980712890625,71.68000030517578,2.6334502297631985,0.9965553669684352,-86.56556448375699,-37.8429,0.64078313,-9.261651,85.98556,-18.063625,-15.000033,-10.482699,-7.8187947,-0.78599286,53.22069,-38.28432,6.5816965,5.324456,3.017554,21.933327,26.560505,17.320477,-9.748265,-32.388187,3.0049648,-8.096081,-0.2282937,1.8702586,-36.554638,22.467596,-9.169943,-14.306108,-17.535822,-11.027242
229,-13.250909805297852,257.2989807128906,71.56001281738281,2.6291481301902726,1.0542481007881408,-86.64260752082863,-37.04671,0.9277442,-9.015398,88.285446,-18.788301,-15.000033,-12.111011,-7.790474,-0.5678747,54.65555,-38.12798,6.6361284,4.707117,2.98861,21.957346,24.626917,17.662382,-9.668363,-32.14085,3.1662529,-8.105187,-0.25843352,2.4703836,-36.23508,22.505505,-7.778889,-14.624035,-17.754448,-11.2216835
230,-13.303810119628906,258.18048095703125,71.46116638183594,2.7191121827132574,1.085168344894972,-86.65759264097613,-36.044353,1.1398185,-8.729689,90.280235,-19.395247,-15.000033,-13.676128,-7.8782854,-0.32348037,56.04192,-37.807415,6.7828493,4.0313287,2.856318,21.999565,22.629107,18.095251,-9.637785,-31.938246,3.3921702,-8.142631,-0.20462163,3.2064753,-35.872177,22.498348,-6.3488564,-15.071114,-17.961975,-11.55554
231,-13.360444068908691,259.04693603515625,71.38599395751953,2.808219636925937,1.112354436275543,-86.6354365895024,-34.8921,1.3632327,-8.47922,91.98762,-19.923044,-15.000033,-15.117083,-7.962472,-0.09700124,57.20578,-37.397972,6.9805117,3.3291068,2.7049675,22.012165,20.605146,18.616528,-9.643087,-31.773607,3.5735035,-8.18994,-0.10102989,4.040912,-35.476856,22.44749,-4.917096,-15.549633,-18.156815,-11.8902645
232,-13.406515121459961,259.8926086425781,71.34139251708984,2.8499926105172873,1.1558514067131733,-86.58945242324904,-33.65504,1.7424299,-8.144185,93.40322,-20.39037,-14.515099,-16.382116,-7.994269,0.08339712,58.002197,-36.989853,7.1989355,2.6184144,2.5803275,21.958067,18.595621,19.219942,-9.667137,-31.643219,3.6017315,-8.229759,0.016896892,4.9382725,-35.067543,22.354044,-3.526476,-15.957664,-18.340147,-12.088697
233,-13.45080852508545,260.7164611816406,71.32406616210938,2.834015071598179,1.2195354690285558,-86.49694140674738,-32.320656,2.206372,-7.857909,94.53161,-20.80268,-13.899437,-17.442642,-7.9656453,0.20476146,58.36675,-36.617695,7.4387255,1.8749647,2.4945831,21.83015,16.589125,19.904848,-9.722959,-31.552921,3.401515,-8.259695,0.1577594,5.9215875,-34.656155,22.199255,-2.1944864,-16.270033,-18.515562,-12.075182
234,-13.485382080078125,261.5233154296875,71.32610321044922,2.7850388631011853,1.292731208461804,-86.35997937201581,-30.871119,2.7226021,-7.6153,95.376434,-21.150663,-13.212115,-18.334047,-7.908054,0.28743127,58.38963,-36.23144,7.7017756,1.1014063,2.4313507,21.64982,14.553319,20.668087,-9.833745,-31.491238,3.043428,-8.289864,0.33519956,7.0160236,-34.244835,21.98122,-0.91578746,-16.533028,-18.68228,-11.936794
235,-13.521599769592285,262.3020324707031,71.36359405517578,2.698245266335805,1.3746099927681448,-86.23026329609544,-29.334288,3.3230693,-7.371722,95.93185,-21.439425,-12.501498,-19.103008,-7.8110003,0.34160948,58.15961,-35.79897,7.94234,0.34950304,2.3929033,21.426224,12.50869,21.494385,-9.986024,-31.43968,2.6426551,-8.32183,0.5185297,8.177896,-33.83789,21.7342,0.30885515,-16.751888,-18.836086,-11.78134
236,-13.548357963562012,263.06475830078125,71.43109130859375,2.568569806689697,1.4641540143581295,-86.15959798496445,-27.733805,4.0364213,-7.078243,96.19159,-21.6737,-11.816786,-19.793556,-7.660967,0.3749287,57.763294,-35.28416,8.11716,-0.3386482,2.3800983,21.169409,10.484428,22.36252,-10.150639,-31.381237,2.3167436,-8.356572,0.67222404,9.351528,-33.441216,21.505062,1.4861586,-16.933838,-18.970642,-11.717803
237,-13.559792518615723,263.81591796875,71.52958679199219,2.378860158749627,1.5513039532236548,-86.15133971234941,-26.041315,4.9066463,-6.7132397,96.15869,-21.842367,-11.169482,-20.36233,-7.4424562,0.35312632,57.151653,-34.7103,8.193299,-0.9687577,2.4128916,20.882326,8.46673,23.265116,-10.321199,-31.307379,2.086995,-8.394666,0.7774366,10.5205345,-33.062195,21.323212,2.6364534,-17.055008,-19.088478,-11.788443
238,-13.56038761138916,264.55816650390625,71.65757751464844,2.1372584352682695,1.6391211286036396,-86.18144577282833,-24.25256,5.8955483,-6.289613,95.83576,-21.945446,-10.539933,-20.799866,-7.164615,0.2794953,56.298992,-34.08377,8.198658,-1.5684428,2.4861438,20.562729,6.452209,24.200563,-10.50494,-31.231417,1.8987409,-8.435959,0.85002273,11.704431,-32.702957,21.171576,3.7541795,-17.118921,-19.189852,-11.932127
