unveil-humanoid-operators/unveil-humanoid-operators.github.io/feature-analysis-animation/data/feature_matrix_instances/age_waist_mean_vel_jogging_A059_jog_ff_loop_315_002__A059.csv
Frame,root_translateX,root_translateY,root_translateZ,root_rotateX,root_rotateY,root_rotateZ,left_hip_pitch_joint_dof,left_hip_roll_joint_dof,left_hip_yaw_joint_dof,left_knee_joint_dof,left_ankle_pitch_joint_dof,left_ankle_roll_joint_dof,right_hip_pitch_joint_dof,right_hip_roll_joint_dof,right_hip_yaw_joint_dof,right_knee_joint_dof,right_ankle_pitch_joint_dof,right_ankle_roll_joint_dof,waist_yaw_joint_dof,waist_roll_joint_dof,waist_pitch_joint_dof,left_shoulder_pitch_joint_dof,left_shoulder_roll_joint_dof,left_shoulder_yaw_joint_dof,left_elbow_joint_dof,left_wrist_roll_joint_dof,left_wrist_pitch_joint_dof,left_wrist_yaw_joint_dof,right_shoulder_pitch_joint_dof,right_shoulder_roll_joint_dof,right_shoulder_yaw_joint_dof,right_elbow_joint_dof,right_wrist_roll_joint_dof,right_wrist_pitch_joint_dof,right_wrist_yaw_joint_dof
0,-1.9145466089248657,0.3142276108264923,77.78132629394531,-4.476476124834556,1.703238175516188,4.3928648933730345,0.5405551,4.432448,16.023338,35.45371,-17.540422,-0.11722728,-33.02719,8.673175,-4.3008127,43.400364,0.81660944,11.413051,-9.944117,-2.215219,17.177582,-2.1268475,28.758377,-44.89009,19.66768,18.583632,5.3443356,19.572878,10.2396345,-5.9149647,7.7184205,33.235054,-15.324855,7.760002,-14.274526
1,-2.5707292556762695,-0.13386566936969757,77.32341003417969,-4.230404583438098,1.4307036137070264,4.423321807609831,0.05457131,4.6124835,16.190165,36.422775,-19.397274,-0.36836183,-33.779476,6.7105284,-5.0130672,47.163933,-1.0881838,9.82734,-9.443735,-2.4814062,17.575943,-1.4810784,28.916813,-44.53351,20.561243,17.620995,5.1280627,20.004557,8.75261,-6.0736127,7.3281627,31.410181,-16.326714,8.049586,-14.13162
2,-3.215226173400879,-0.5761778354644775,76.84922790527344,-3.963980087295205,1.1509083005829204,4.458049053579746,-0.40838486,4.751581,16.358927,37.358242,-21.287857,-0.60812247,-34.484283,4.6557126,-5.6598644,50.82964,-3.0204892,8.206632,-8.992669,-2.7505531,17.983912,-0.728996,29.124304,-44.108818,21.33264,16.660011,4.887132,20.448483,7.25017,-6.325554,7.009988,29.595322,-17.301294,8.328587,-13.996307
3,-3.846024990081787,-1.0113765001296997,76.3646011352539,-3.666115556751879,0.8647393823852101,4.506321453645356,-0.90103745,4.865115,16.527685,38.356964,-23.11232,-0.8287044,-35.090336,2.5829444,-6.1100054,54.39407,-4.889676,6.61105,-8.581795,-3.0378828,18.37789,0.06488852,29.36843,-43.671402,22.081814,15.68452,4.6654286,20.848772,5.8151264,-6.620313,6.720236,27.690529,-18.232485,8.625018,-13.786866
4,-4.468045234680176,-1.447776436805725,75.87494659423828,-3.3236302059747005,0.5728302774492344,4.578168543312851,-1.4729747,4.966406,16.693258,39.51242,-24.768908,-1.0267444,-35.5551,0.5669548,-6.244289,57.854828,-6.5927453,5.0990024,-8.198492,-3.357342,18.735678,0.827551,29.634165,-43.28205,22.913052,14.67479,4.5076694,21.152658,4.538714,-6.917591,6.405472,25.582443,-19.104767,8.964611,-13.417033
5,-5.078826904296875,-1.895113468170166,75.39339447021484,-2.920756244228273,0.290643675612782,4.695877400187881,-2.1703382,5.047122,16.860023,40.877605,-26.254211,-1.1992037,-35.927208,-1.4073968,-6.040658,61.282394,-8.132969,3.625144,-7.8507686,-3.7250223,19.04118,1.4899862,29.90813,-43.011967,23.95007,13.503261,4.4310546,21.379025,3.4430795,-7.1823335,6.0036583,23.207287,-19.904112,9.384783,-12.837229
6,-5.672412872314453,-2.3519129753112793,74.92557525634766,-2.472836737211618,0.013081099269901662,4.845883148262047,-2.9559216,5.1124187,17.02566,42.394733,-27.616486,-1.3548158,-36.23457,-3.349286,-5.581742,64.665276,-9.548183,2.1802132,-7.516215,-4.135014,19.305185,2.063624,30.18088,-42.841084,25.155962,12.218955,4.4130735,21.550758,2.4783185,-7.4053173,5.5278845,20.647608,-20.665205,9.856621,-12.10616
7,-6.252580165863037,-2.81197190284729,74.4734115600586,-2.013966136810798,-0.2894999706570445,4.984370462855789,-3.7501962,5.1948767,17.178047,43.984802,-28.828218,-1.51078,-36.405743,-5.180669,-4.9216385,67.88014,-10.7846155,0.8747012,-7.1512403,-4.559396,19.549152,2.6141994,30.445345,-42.675938,26.372507,11.068037,4.443405,21.620323,1.6369327,-7.600184,5.0528927,17.985153,-21.434343,10.31039,-11.296832
8,-6.811753749847412,-3.2812039852142334,74.04515075683594,-1.5792438494148402,-0.6458411438384637,5.067424068553605,-4.472944,5.3241496,17.306488,45.56544,-29.858921,-1.6846763,-36.36847,-6.8326283,-4.12164,70.811226,-11.791621,-0.18238132,-6.7201605,-4.9655857,19.797348,3.2199771,30.69739,-42.410927,27.428692,10.299076,4.5130553,21.538218,0.91055405,-7.795512,4.663867,15.300364,-22.247814,10.674915,-10.483196
9,-7.35396671295166,-3.753532886505127,73.64582061767578,-1.1751151416591779,-1.086608640062934,5.076141612752547,-5.113613,5.5182877,17.408743,47.201046,-30.68047,-1.8811764,-36.084904,-8.2772875,-3.1683793,73.469246,-12.471997,-0.8938333,-6.2069845,-5.3434935,20.08878,3.9005222,30.93352,-42.006634,28.304317,10.04325,4.6577888,21.221643,0.3236296,-8.007919,4.3713636,12.534291,-23.123764,10.944892,-9.643202
10,-7.874973297119141,-4.232105255126953,73.275390625,-0.7865807599578021,-1.5866839192419588,5.034942670944963,-5.706907,5.755737,17.491865,48.898064,-31.312277,-2.0956478,-35.610153,-9.565168,-2.0630126,75.92235,-12.879661,-1.3402919,-5.6417875,-5.6979666,20.40446,4.625005,31.151833,-41.50858,29.06983,10.151245,4.869607,20.717928,-0.12506975,-8.237086,4.143226,9.655798,-24.02665,11.151127,-8.754273
11,-8.369959831237793,-4.7214484214782715,72.94378662109375,-0.41656096113800495,-2.091347235880029,4.965225286550718,-6.2439704,6.012263,17.561943,50.49456,-31.796331,-2.3340206,-35.010063,-10.748909,-0.89143556,78.14854,-13.200922,-1.6850545,-5.058122,-6.017065,20.682655,5.39934,31.352169,-40.939945,29.684612,10.448009,5.073223,20.172504,-0.47635508,-8.484976,4.0015917,6.7820024,-24.907164,11.279367,-7.8897934
12,-8.844147682189941,-5.216424942016602,72.6540298461914,-0.06844485336760986,-2.5459211212331367,4.888804300105936,-6.7199054,6.264623,17.62041,51.8324,-32.17641,-2.5932913,-34.348072,-11.869122,0.26654977,80.12061,-13.61724,-2.0814505,-4.494593,-6.29333,20.860165,6.234118,31.536703,-40.31905,30.104145,10.756112,5.196482,19.731773,-0.77483225,-8.757477,3.9737568,4.0349026,-25.715572,11.318685,-7.124007
13,-9.29838752746582,-5.712113380432129,72.40498352050781,0.24584579985087981,-2.950979105048643,4.796513414783004,-7.1390276,6.540965,17.664324,52.92925,-32.455578,-2.8799162,-33.614872,-12.855056,1.4496869,81.849815,-14.175057,-2.5414457,-3.9396799,-6.518336,20.927025,7.1515,31.707485,-39.62284,30.283575,11.113901,5.206474,19.395947,-1.0185838,-9.063186,4.065324,1.4004768,-26.398706,11.266984,-6.48411
14,-9.734943389892578,-6.218396186828613,72.1993408203125,0.5300165029871818,-3.330280376881516,4.68195989071027,-7.504286,6.846826,17.691378,53.853622,-32.61416,-3.1918814,-32.780117,-13.706085,2.6705782,83.35359,-14.778002,-2.9844928,-3.3824227,-6.6970406,20.916605,8.144268,31.86335,-38.84959,30.247492,11.58546,5.144796,19.099634,-1.1841171,-9.403024,4.2611485,-1.1802001,-26.989414,11.13464,-5.9318447
15,-10.159043312072754,-6.729536533355713,72.04257202148438,0.8037890761676989,-3.6643869200430634,4.571512908918268,-7.8057823,7.129269,17.70466,54.514477,-32.66581,-3.5111723,-31.87775,-14.56261,3.8113823,84.61333,-15.393951,-3.4274995,-2.8601532,-6.8456564,20.83017,9.17664,31.99993,-38.05232,30.0602,12.033235,5.0565367,18.892756,-1.2863749,-9.76938,4.5540576,-3.6462443,-27.56907,10.929851,-5.443882
16,-10.564241409301758,-7.231808662414551,71.93778228759766,1.08743936093508,-3.9343906572336254,4.491808789959574,-8.035505,7.338726,17.708813,54.82626,-32.62554,-3.819541,-30.944061,-15.570544,4.752781,85.60439,-15.997666,-3.8947303,-2.4073951,-6.9807725,20.668957,10.20491,32.109745,-37.289597,29.795624,12.32114,4.988398,18.825386,-1.3400378,-10.147803,4.9340124,-5.932944,-28.221941,10.658793,-4.99653
17,-10.961289405822754,-7.744683265686035,71.88204193115234,1.39711736288152,-4.1329422147620845,4.444720157140068,-8.17195,7.442849,17.714233,54.726707,-32.524357,-4.1083865,-29.982258,-16.774826,5.4887476,86.33649,-16.598335,-4.350717,-2.0332916,-7.1183114,20.406927,11.225521,32.18826,-36.58579,29.464687,12.400641,4.944202,18.950813,-1.3543773,-10.537101,5.4165096,-8.028574,-28.991112,10.308827,-4.5908813
18,-11.342588424682617,-8.260452270507812,71.885009765625,1.7178187109701106,-4.271376689933908,4.418522120694567,-8.226318,7.47713,17.71537,54.275627,-32.343964,-4.3869305,-28.973927,-18.091227,6.0652223,86.81851,-17.204906,-4.7947345,-1.7156008,-7.247783,20.052013,12.244521,32.232296,-35.917557,29.046795,12.349347,4.902878,19.230425,-1.3220657,-10.940242,5.99315,-9.963654,-29.828667,9.880837,-4.238497
19,-11.717185020446777,-8.781904220581055,71.9476547241211,2.023652872161362,-4.359568274676104,4.419019922267557,-8.242034,7.4869585,17.688726,53.567547,-32.025265,-4.6586056,-27.931625,-19.468573,6.4520683,87.034035,-17.782963,-5.290154,-1.4401207,-7.3478584,19.655424,13.223796,32.236233,-35.27442,28.577868,12.21882,4.8741097,19.575493,-1.2355694,-11.345767,6.615963,-11.731518,-30.686512,9.399812,-3.9313662
20,-12.094014167785645,-9.314058303833008,72.07008361816406,2.2884437726872506,-4.407259466564733,4.451805515829269,-8.262369,7.518174,17.610392,52.696262,-31.50914,-4.926236,-26.863672,-20.848803,6.617724,86.9674,-18.3005,-5.9010763,-1.187805,-7.398878,19.266726,14.119906,32.193077,-34.6485,28.101585,12.062131,4.8683662,19.898355,-1.0863173,-11.734986,7.2332187,-13.324076,-31.523636,8.890665,-3.657924
21,-12.470242500305176,-9.867789268493652,72.25492858886719,2.5057115324237476,-4.417312517151588,4.520152783640377,-8.2875395,7.5723214,17.47091,51.666924,-30.803947,-5.175737,-25.739262,-22.25914,6.514016,86.611916,-18.807983,-6.659582,-0.9543529,-7.3909097,18.88479,14.93324,32.09579,-34.02598,27.633932,11.895937,4.9039164,20.192549,-0.8630671,-12.100454,7.8372273,-14.747298,-32.445984,8.309606,-3.3867497
22,-12.84626579284668,-10.439844131469727,72.49828338623047,2.687484997226326,-4.384700446078116,4.620279191568946,-8.296679,7.6252365,17.28402,50.431107,-29.932074,-5.4118094,-24.546043,-23.69534,6.1527925,85.981575,-19.313108,-7.5165467,-0.7478093,-7.3375087,18.484497,15.67165,31.943115,-33.417995,27.16629,11.693174,4.9696236,20.501057,-0.58425856,-12.444266,8.451176,-15.991143,-33.444225,7.6592507,-3.1339629
23,-13.235651016235352,-11.03823471069336,72.79912567138672,2.8359573581262314,-4.30604904505346,4.747137354472945,-8.309462,7.6872606,17.055225,49.018486,-28.858828,-5.6640897,-23.330523,-25.063457,5.6001086,85.10721,-19.71778,-8.417022,-0.5669135,-7.2539625,18.080587,16.299185,31.74038,-32.856873,26.706524,11.437572,5.0328116,20.810608,-0.28436118,-12.758294,9.0696125,-17.019157,-34.30656,7.034147,-2.9553435
24,-13.637001991271973,-11.661611557006836,73.15222930908203,2.9544533678870684,-4.178219566445238,4.89601399546197,-8.342695,7.7685122,16.786743,47.452183,-27.552368,-5.960651,-22.1446,-26.275406,4.9255366,84.01806,-19.921616,-9.315452,-0.40906164,-7.159386,17.687328,16.780582,31.498959,-32.37563,26.26248,11.113151,5.0610514,21.10795,0.002794236,-13.03029,9.684971,-17.793863,-34.827442,6.53049,-2.8973312
25,-14.053177833557129,-12.315601348876953,73.55120086669922,3.0422410469840533,-3.998756423497876,5.068244315773619,-8.39417,7.878049,16.465279,45.72291,-26.012678,-6.3083243,-20.987995,-27.324724,4.1198697,82.699875,-19.86675,-10.298941,-0.26525757,-7.056888,17.304258,17.131416,31.226677,-31.947098,25.810766,10.637937,5.0334296,21.370012,0.2884216,-13.248414,10.300937,-18.313562,-34.947323,6.165375,-2.9889092
26,-14.475607872009277,-12.985937118530273,73.99585723876953,3.09871122811734,-3.7694093288417454,5.265256797758326,-8.458186,8.008074,16.08425,43.825626,-24.258123,-6.6911626,-19.833405,-28.246635,3.147622,81.16087,-19.626457,-11.361138,-0.1398603,-6.9421787,16.923586,17.369621,30.928547,-31.559885,25.348581,10.04577,4.971128,21.609735,0.57542455,-13.410554,10.922497,-18.58594,-34.786522,5.890113,-3.1898205
27,-14.916780471801758,-13.681607246398926,74.477783203125,3.1287038026858536,-3.4921257448150866,5.482716278509334,-8.544231,8.1458845,15.651175,41.783142,-22.280369,-7.1030498,-18.692617,-29.020468,2.0403728,79.446724,-19.295912,-12.328386,-0.046914555,-6.820362,16.551025,17.463877,30.614143,-31.273046,24.910099,9.493725,4.9055977,21.868095,0.82903516,-13.518608,11.54088,-18.598148,-34.406616,5.7021065,-3.4416268
28,-15.378231048583984,-14.403030395507812,74.99268341064453,3.1376163448371135,-3.1689604095711745,5.716411372906239,-8.661663,8.281636,15.171668,39.618393,-20.070976,-7.5387955,-17.582767,-29.62662,0.8402662,77.59738,-18.958288,-13.023959,0.004317608,-6.6945925,16.193298,17.377289,30.29518,-31.152552,24.531614,9.1357355,4.868585,22.187424,1.0229089,-13.576061,12.141122,-18.345877,-33.86569,5.598957,-3.6873586
29,-15.859426498413086,-15.145112991333008,75.52998352050781,3.1413492394408613,-2.7876457608274756,5.954164031579303,-8.79545,8.40781,14.631142,37.274975,-17.569422,-8.023243,-16.52601,-30.077787,-0.4509565,75.56221,-18.61091,-13.413093,0.028542114,-6.5788655,15.847812,17.086992,29.980038,-31.24338,24.23745,9.023051,4.8729115,22.642847,1.1621512,-13.578897,12.724752,-17.797056,-33.074574,5.60637,-3.957261
30,-16.363361358642578,-15.909714698791504,76.07992553710938,3.134721373419946,-2.3504593613426796,6.2023359520015715,-8.947334,8.54095,14.009636,34.767643,-14.809138,-8.553529,-15.516674,-30.376045,-1.8378949,73.34056,-18.210299,-13.586068,0.03172242,-6.4675226,15.51382,16.618708,29.670992,-31.504765,23.99618,9.065427,4.902477,23.191166,1.2667781,-13.523599,13.290715,-16.97345,-32.033913,5.7117004,-4.2679644
31,-16.880413055419922,-16.692838668823242,76.63755798339844,3.0912891234878566,-1.8809730358871808,6.484305335416748,-9.149992,8.710404,13.307328,32.222218,-11.918268,-9.083352,-14.532321,-30.484358,-3.2814422,71.03202,-17.765003,-13.552798,-0.011335507,-6.33448,15.200329,16.014126,29.369959,-31.869774,23.75587,9.205881,4.9470353,23.695591,1.3293678,-13.420402,13.822061,-15.944121,-30.937706,5.8599677,-4.54204
32,-17.423229217529297,-17.503530502319336,77.18424224853516,2.9851040587365185,-1.4028671458294015,6.8234185201175634,-9.439688,8.945088,12.5321665,29.76863,-9.02207,-9.566724,-13.552422,-30.367006,-4.740294,68.731705,-17.282713,-13.327168,-0.12631528,-6.1516953,14.917752,15.314667,29.078259,-32.27212,23.465794,9.388143,4.9926825,24.019363,1.3466383,-13.287188,14.302146,-14.787446,-29.976944,6.0024676,-4.701957
33,-17.987096786499023,-18.322696685791016,77.71475219726562,2.772111576709497,-0.9102205731762821,7.2230762360974206,-9.82849,9.2262535,11.504035,27.273624,-5.784881,-10.144191,-12.550266,-29.971134,-6.2682214,66.37813,-16.841225,-12.849876,-0.32188416,-5.8744044,14.671848,14.514498,28.798105,-32.71689,23.13258,9.614328,5.0423074,24.131067,1.3179917,-13.127401,14.731015,-13.485024,-29.186012,6.146979,-4.721758
34,-18.55714225769043,-19.14990997314453,78.2149887084961,2.485533644925307,-0.39163323084899226,7.672846027794817,-10.301256,9.568378,10.241105,24.749239,-2.283369,-10.808072,-11.566024,-29.339165,-7.838802,63.933018,-16.402035,-12.139685,-0.5856739,-5.5324616,14.458178,13.6040325,28.529308,-33.230045,22.767237,9.90754,5.1002836,24.10048,1.2538251,-12.938557,15.116337,-12.018615,-28.463846,6.3175793,-4.6480556
35,-19.133874893188477,-19.998390197753906,78.66351318359375,2.2104264076894804,0.1365475428858016,8.173737881997177,-10.860731,10.028333,9.119384,22.528925,0.76721555,-11.2617035,-10.674018,-28.575243,-9.2968025,61.527496,-15.807214,-11.335645,-0.91218615,-5.203181,14.271667,12.619385,28.268024,-33.777157,22.3229,10.243596,5.1554637,23.941921,1.1657394,-12.736477,15.454858,-10.464846,-27.797853,6.495247,-4.5106287
36,-19.712446212768555,-20.859086990356445,79.04999542236328,2.0268715446880186,0.6557261656568425,8.725717674906667,-11.52234,10.630991,8.587483,20.93447,2.6903028,-11.173251,-9.945472,-27.78903,-10.489851,59.310516,-14.907079,-10.578982,-1.2970556,-4.9564223,14.10785,11.597243,28.00907,-34.32098,21.751144,10.5986805,5.196271,23.669304,1.0647306,-12.54904,15.747196,-8.902105,-27.170897,6.660333,-4.3426485
37,-20.306196212768555,-21.701065063476562,79.3808822631836,1.944851238295989,1.1816531344780754,9.356625391201137,-12.318459,11.37075,8.838493,19.950954,3.1307108,-10.286762,-9.483837,-26.92443,-11.261933,57.38816,-13.424903,-10.127005,-1.7649006,-4.798397,13.955605,10.5570135,27.745455,-34.83693,21.017395,10.959411,5.212754,23.225475,0.94675016,-12.402906,16.004477,-7.3446097,-26.604465,6.819044,-4.128647
38,-20.91738510131836,-22.51833152770996,79.6628646850586,1.920504769517491,1.717102600872463,10.057213653814834,-13.228393,12.191755,9.646171,19.409534,2.5088532,-8.84505,-9.228778,-25.96814,-11.722632,55.663082,-11.531419,-9.829848,-2.3114116,-4.6797934,13.8218155,9.478859,27.473345,-35.34899,20.150734,11.341959,5.2089925,22.622795,0.82157123,-12.304499,16.22654,-5.7739873,-26.087671,6.9822702,-3.8644183
39,-21.543310165405273,-23.320369720458984,79.89645385742188,1.9463217222583096,2.2209875955266374,10.771952724931536,-14.168258,13.045679,10.848257,19.359938,1.3421552,-7.2493243,-8.982675,-25.070143,-12.1302805,53.96906,-9.748989,-9.223699,-2.886279,-4.5833097,13.729716,8.337339,27.194138,-35.895393,19.19776,11.764387,5.197229,21.979668,0.72126603,-12.246157,16.394032,-4.2198496,-25.555614,7.136333,-3.5978613
40,-22.189685821533203,-24.119216918945312,80.05717468261719,2.0128063408108954,2.6499151937216268,11.444513547064803,-15.059081,13.926384,12.300847,19.87506,0.16843899,-5.8566265,-8.535677,-24.352314,-12.750509,52.127766,-8.59211,-7.862711,-3.4358888,-4.496221,13.70494,7.109027,26.91263,-36.513187,18.201303,12.24534,5.190537,21.414494,0.6764851,-12.210546,16.485048,-2.7079332,-24.946314,7.265707,-3.3748717
41,-22.84016990661621,-24.920635223388672,80.15394592285156,2.1251224957492023,2.993627678261538,12.08310986426695,-15.867736,14.933347,14.247547,21.028141,-0.9770489,-4.675674,-7.737657,-23.863369,-13.761612,49.964428,-8.152011,-5.264687,-3.9604187,-4.4240417,13.758411,5.7732725,26.633415,-37.230705,17.139702,12.81087,5.1980968,20.935041,0.68415594,-12.189633,16.482136,-1.2486935,-24.224554,7.351481,-3.160626
42,-23.4915828704834,-25.739967346191406,80.19740295410156,2.284602896217596,3.269202003895505,12.70889922016073,-16.57493,16.083652,16.6694,22.727419,-2.3592775,-3.5214484,-6.703295,-23.49923,-15.042779,47.56898,-8.093823,-1.7924339,-4.476903,-4.37841,13.876477,4.349852,26.356133,-38.02254,15.993944,13.441944,5.211186,20.486654,0.73298115,-12.18331,16.394806,0.1759427,-23.434298,7.4060044,-2.942449
43,-24.138957977294922,-26.558055877685547,80.18562316894531,2.472450098754758,3.4747370106748607,13.283705090185984,-17.16951,17.271053,19.04522,24.850351,-3.849327,-2.4169173,-5.624167,-23.159851,-16.407177,45.175343,-8.310025,1.7266911,-4.9607606,-4.3571863,14.047668,2.877065,26.078228,-38.840538,14.812494,14.08989,5.2181892,20.09245,0.8333,-12.183104,16.245497,1.5929371,-22.633913,7.457781,-2.7992806
44,-24.761760711669922,-27.374435424804688,80.12832641601562,2.6670246183094397,3.6096308938837787,13.768782539379215,-17.680351,18.362463,20.854174,27.26456,-5.284113,-1.3931011,-4.696119,-22.770777,-17.625433,43.041637,-8.769803,4.470761,-5.3902717,-4.3552876,14.258892,1.3907639,25.796364,-39.63722,13.649893,14.706095,5.2088275,19.775957,0.98814124,-12.175161,16.058828,3.0376291,-21.883179,7.532427,-2.8104873
45,-25.389373779296875,-28.190935134887695,80.01051330566406,2.886764238080185,3.658893514461629,14.14504443267082,-18.13754,19.290464,21.96807,30.018806,-6.6059923,-0.44105348,-3.9197378,-22.361849,-18.660845,41.19197,-9.583289,6.2187567,-5.750727,-4.398404,14.5188055,-0.111017264,25.511854,-40.42022,12.516771,15.293524,5.17329,19.568594,1.1948086,-12.14417,15.832334,4.535023,-21.150988,7.634418,-3.0025768
46,-26.021394729614258,-29.015296936035156,79.84207153320312,3.134406623231191,3.628576748326232,14.434044100739554,-18.534206,20.107853,22.666208,33.133575,-7.86073,0.45037726,-3.2040992,-21.974342,-19.624872,39.511192,-10.747232,7.42915,-6.0592933,-4.4878187,14.825169,-1.6414841,25.224997,-41.205513,11.387744,15.872812,5.122304,19.449545,1.4410474,-12.0870075,15.558288,6.078606,-20.427063,7.74526,-3.3307014
47,-26.638797760009766,-29.83243751525879,79.63216400146484,3.3629836986006647,3.5499472380703088,14.659239537576061,-18.881832,20.84752,23.0444,36.46151,-9.031929,1.239582,-2.611358,-21.56502,-20.48213,38.07472,-12.13677,8.286687,-6.3429823,-4.575207,15.151197,-3.182775,24.928827,-41.956955,10.267241,16.424583,5.076009,19.363438,1.7173758,-12.010957,15.25585,7.652296,-19.799063,7.8566065,-3.768408
48,-27.254018783569336,-30.63433074951172,79.37985229492188,3.526737679065482,3.4551657173086574,14.844881714659556,-19.189436,21.556618,23.189829,39.86345,-10.115241,1.8924462,-2.2161262,-21.09908,-21.185804,36.969257,-13.626951,8.953934,-6.632713,-4.6109295,15.471091,-4.718342,24.613035,-42.63384,9.165587,16.932129,5.052625,19.254362,2.014956,-11.930063,14.948906,9.23729,-19.35199,7.963268,-4.290617
49,-27.876651763916016,-31.43228530883789,79.08551025390625,3.622972181108196,3.3382479214564587,15.00604888977405,-19.508062,22.193632,22.975315,43.413754,-11.095987,2.3544207,-2.0694895,-20.580524,-21.66959,36.29841,-15.294029,9.4037895,-6.9400725,-4.5865164,15.789726,-6.266318,24.270372,-43.24072,8.083347,17.361555,5.066944,19.117409,2.3305314,-11.851099,14.646566,10.854099,-19.136162,8.0588255,-4.9487047
50,-28.50090789794922,-32.21549987792969,78.75066375732422,3.6759379863931234,3.1882078663156057,15.129474776733892,-19.83622,22.716066,22.413317,47.16185,-11.977624,2.6355891,-2.1447365,-20.038916,-21.952057,36.03193,-17.20272,9.544738,-7.251558,-4.5261564,16.116777,-7.835404,23.89856,-43.79257,7.0294065,17.734455,5.105071,18.97874,2.6735485,-11.774112,14.338574,12.498231,-19.0919,8.151562,-5.737332
51,-29.12082290649414,-32.9818115234375,78.38304901123047,3.6774848969094402,3.0283253165598647,15.196921939817756,-20.087137,23.212849,21.79754,50.9415,-12.8051405,2.8230484,-2.3926647,-19.474657,-22.125181,36.049957,-19.207342,9.44255,-7.558431,-4.424757,16.436169,-9.396633,23.495916,-44.263626,6.0278907,18.117765,5.1408067,18.828785,3.0556526,-11.705315,14.021017,14.112163,-19.137985,8.259864,-6.5473795
52,-29.73879623413086,-33.74251174926758,77.99394989013672,3.616689373552328,2.8810845337784574,15.188330489579162,-20.164886,23.804144,21.41218,54.587673,-13.627365,3.0241978,-2.7544172,-18.88358,-22.286648,36.216644,-21.154984,9.179117,-7.8533006,-4.2727947,16.733229,-10.919635,23.062151,-44.626137,5.1004696,18.578909,5.147487,18.65742,3.4885027,-11.656491,13.691452,15.637592,-19.19202,8.400409,-7.2705626
53,-30.3437557220459,-34.498355865478516,77.589599609375,3.477728000213889,2.7409704282746907,15.069374212508485,-20.026352,24.5507,21.297878,58.117638,-14.462252,3.2384431,-3.2357621,-18.259277,-22.450117,36.548267,-23.055717,8.734981,-8.112506,-4.050949,17.023745,-12.403783,22.592756,-44.851353,4.2476497,19.143644,5.096491,18.45567,3.9766788,-11.636842,13.3489065,17.046616,-19.288338,8.599731,-7.8978624
54,-30.957523345947266,-35.24026870727539,77.17375183105469,3.2677533203765594,2.5980764023344083,14.860263978727934,-19.7136,25.396328,21.31375,61.60649,-15.289785,3.428245,-3.8623574,-17.591415,-22.555998,37.100185,-24.970098,8.083885,-8.349568,-3.7617836,17.312103,-13.870801,22.08702,-44.95846,3.4679625,19.77439,5.0078735,18.231195,4.5181594,-11.648622,12.997403,18.369774,-19.4468,8.843925,-8.480826
55,-31.56229019165039,-35.96497344970703,76.75960540771484,3.0070885552474937,2.468427315352519,14.620221911837067,-19.248308,26.307339,21.466518,64.965454,-16.099688,3.6626008,-4.588479,-16.871809,-22.604176,37.773457,-26.817076,7.31084,-8.608817,-3.4267445,17.569082,-15.320187,21.554296,-44.99481,2.77344,20.442596,4.92693,17.99928,5.117544,-11.691414,12.64002,19.631413,-19.562927,9.08506,-9.002493
56,-32.155914306640625,-36.66777801513672,76.34588623046875,2.7156989485315846,2.3683613820934815,14.407817076131767,-18.65732,27.254608,21.761526,68.10649,-16.8787,4.013502,-5.3635197,-16.096294,-22.601768,38.46824,-28.519167,6.5045366,-8.932607,-3.0689785,17.766771,-16.7426,21.011055,-45.009502,2.1608262,21.11929,4.9014,17.773508,5.7783475,-11.762983,12.278132,20.855206,-19.533747,9.272565,-9.446088
57,-32.72748947143555,-37.360145568847656,75.94148254394531,2.3781717763696912,2.3161384470367103,14.222720603178978,-17.916622,28.321459,22.281864,71.03117,-17.64473,4.5578384,-6.149855,-15.223024,-22.526375,39.089188,-30.116451,5.657479,-9.327773,-2.6711035,17.893957,-18.107988,20.46449,-44.973923,1.598167,21.861639,4.964781,17.519167,6.497122,-11.861127,11.922267,22.07169,-19.282032,9.3567505,-9.827764
58,-33.2850456237793,-38.050357818603516,75.54242706298828,1.9885952198015857,2.2968070191494503,14.037459128486214,-17.004404,29.510244,22.99951,73.78406,-18.405699,5.2526827,-6.9705734,-14.26247,-22.3874,39.704803,-31.631533,4.737983,-9.773266,-2.2276194,17.971935,-19.423307,19.918558,-44.87557,1.082151,22.662899,5.08404,17.239508,7.26966,-11.984617,11.56986,23.262442,-18.880634,9.373756,-10.148943
59,-33.847557067871094,-38.73398971557617,75.15570068359375,1.5802127503494026,2.279010026125638,13.869498931723014,-15.969274,30.66205,23.749033,76.339066,-19.1264,5.975155,-7.864105,-13.298802,-22.250505,40.466618,-32.97018,3.8047922,-10.267208,-1.7807395,18.022852,-20.727573,19.388918,-44.79065,0.641579,23.396671,5.2097993,17.007866,8.103206,-12.128603,11.200091,24.370514,-18.45251,9.403588,-10.370175
60,-34.407352447509766,-39.41645050048828,74.77670288085938,1.186411734321658,2.232924849243199,13.737370462029531,-14.87905,31.611378,24.361614,78.66456,-19.760742,6.5954447,-8.864665,-12.419589,-22.188873,41.51932,-34.038136,2.9168358,-10.806805,-1.3741332,18.06811,-22.056122,18.898724,-44.798733,0.29484782,23.930668,5.296165,16.900543,9.005857,-12.282907,10.790354,25.338932,-18.120531,9.526437,-10.45232
61,-34.969947814941406,-40.08941650390625,74.40388488769531,0.8082262080831226,2.154639695578572,13.623177317803048,-13.744441,32.358154,24.824718,80.77056,-20.287846,7.1130924,-10.073895,-11.668525,-22.211533,43.087616,-34.774918,2.076169,-11.379734,-1.0218241,18.114353,-23.417326,18.469496,-44.918903,0.021332057,24.178335,5.3401313,16.976463,9.9753065,-12.436253,10.336972,26.147684,-17.89643,9.797302,-10.316828
62,-35.511573791503906,-40.76980209350586,74.06044006347656,0.4299938829548574,2.0596874264638814,13.525074202773645,-12.547893,32.973244,25.21799,82.66904,-20.727207,7.5817356,-11.427587,-11.012917,-22.293953,45.04082,-35.27004,1.2329861,-11.993346,-0.70699036,18.151896,-24.773817,18.110388,-45.113754,-0.21497545,24.220968,5.366838,17.184803,11.0009365,-12.583276,9.855269,26.836872,-17.72746,10.163242,-10.007542
63,-36.03219223022461,-41.435546875,73.7444076538086,0.06215369403284977,1.949587487704348,13.485791657931353,-11.335415,33.395416,25.502941,84.333405,-21.088352,7.947484,-12.72108,-10.42311,-22.457577,46.984013,-35.6389,0.3823198,-12.675437,-0.4288856,18.175858,-26.087288,17.822594,-45.376633,-0.41855446,24.182337,5.373128,17.437517,12.078821,-12.72427,9.352163,27.438341,-17.638733,10.542682,-9.668952
64,-36.52355194091797,-42.077842712402344,73.46268463134766,-0.2851365749664543,1.8261495589137875,13.548146715208096,-10.155808,33.564423,25.639605,85.73602,-21.3811,8.156884,-13.758439,-9.848924,-22.725452,48.5048,-35.967365,-0.44393197,-13.450643,-0.18494615,18.18013,-27.331293,17.601395,-45.7035,-0.58219844,24.182718,5.356333,17.646397,13.210094,-12.864961,8.82847,27.976309,-17.653612,10.855716,-9.443797
65,-37.004119873046875,-42.702762603759766,73.21973419189453,-0.6054965557563143,1.6714919944081084,13.73740486405764,-9.014184,33.42151,25.575459,86.86335,-21.634466,8.199088,-14.473194,-9.276816,-23.118345,49.492615,-36.25563,-1.2082963,-14.36151,0.017213756,18.178377,-28.494318,17.442787,-46.094807,-0.70384985,24.20274,5.300091,17.8369,14.393187,-13.011822,8.295256,28.469093,-17.81509,11.095031,-9.3712845
66,-37.4843635559082,-43.30363845825195,73.00922393798828,-0.9054603350858544,1.4928134585112816,14.026600968229726,-7.903664,33.017693,25.339806,87.73658,-21.830992,8.10072,-14.985435,-8.727082,-23.618498,50.159843,-36.444786,-1.9216646,-15.383512,0.18263817,18.166245,-29.606243,17.349512,-46.55508,-0.78274876,24.181032,5.210057,18.039116,15.630064,-13.164846,7.7473345,28.898037,-18.09533,11.298575,-9.373297
67,-37.95269012451172,-43.89604187011719,72.8397216796875,-1.1931250778499134,1.3295782514130177,14.379903475586602,-6.850696,32.454056,25.016346,88.37781,-21.91145,7.863944,-15.3873205,-8.188614,-24.193253,50.57614,-36.522972,-2.6021917,-16.456018,0.33066034,18.119473,-30.630428,17.310837,-47.070812,-0.8469908,24.245438,5.119662,18.174763,16.911043,-13.316911,7.1764,29.240509,-18.409779,11.453042,-9.418417
68,-38.406829833984375,-44.47611999511719,72.71221923828125,-1.47703377163416,1.221379775729725,14.760699219626668,-5.8802357,31.829506,24.69064,88.80908,-21.818161,7.49019,-15.76795,-7.6524034,-24.811577,50.812782,-36.48191,-3.2708948,-17.497185,0.4872453,18.004154,-31.608341,17.323235,-47.644966,-0.8770794,24.45382,5.0598187,18.162333,18.244911,-13.456118,6.5589523,29.47262,-18.67449,11.544366,-9.475387
69,-38.844627380371094,-45.0618896484375,72.62852478027344,-1.7679031389335491,1.1868183706207782,15.212709217749559,-5.038428,31.15148,24.322985,89.0421,-21.504915,6.931202,-16.134838,-7.130227,-25.523933,50.868774,-36.325188,-3.9281611,-18.540936,0.663274,17.801657,-32.530285,17.376179,-48.298634,-0.8613481,24.913694,5.0527134,17.965517,19.657698,-13.571911,5.888612,29.580076,-18.877563,11.538742,-9.562288
70,-39.286319732666016,-45.6451530456543,72.58506774902344,-2.057469136062434,1.2036323155518873,15.73723102193301,-4.2983174,30.370209,23.888878,89.06451,-21.015171,6.200166,-16.451271,-6.6237054,-26.328018,50.711872,-36.04953,-4.5626535,-19.601572,0.8508401,17.532623,-33.397434,17.464773,-49.037445,-0.79773116,25.558197,5.0748377,17.634983,21.148077,-13.666647,5.1700296,29.575691,-19.063501,11.452154,-9.684133
71,-39.729984283447266,-46.227699279785156,72.58393096923828,-2.325574375800772,1.2475566613097753,16.235347440784835,-3.5785496,29.496607,23.49409,88.86136,-20.42555,5.391119,-16.735971,-6.1097665,-27.115137,50.366627,-35.64441,-5.176757,-20.595472,1.0239211,17.218977,-34.210514,17.587343,-49.810833,-0.68822163,26.240963,5.0867405,17.21336,22.641298,-13.7323475,4.441611,29.513235,-19.234259,11.35066,-9.805042
72,-40.16270446777344,-46.813411712646484,72.62454986572266,-2.5513622768126125,1.292516957239732,16.60765524455753,-2.799606,28.542408,23.242739,88.41514,-19.8096,4.6003914,-17.005558,-5.565799,-27.776464,49.85917,-35.098892,-5.774759,-21.45302,1.1526799,16.897106,-34.89226,17.72869,-50.5594,-0.577892,26.896135,5.055976,16.751783,24.05619,-13.773098,3.739542,29.432148,-19.396431,11.298436,-9.884659
73,-40.60372543334961,-47.39170837402344,72.7061538696289,-2.7496229719532295,1.3430138834500265,16.828275515390747,-1.9572166,27.543245,23.157318,87.73553,-19.18627,3.9072337,-17.271914,-4.966985,-28.296976,49.18162,-34.407997,-6.3606424,-22.137589,1.2496248,16.55778,-35.47881,17.884077,-51.288822,-0.43464178,27.501616,4.9538174,16.21058,25.411863,-13.796435,3.0564952,29.311947,-19.551453,11.319674,-9.929617
74,-41.046875,-47.9613037109375,72.8287124633789,-2.9250065554051794,1.40788903151903,16.94972569574187,-1.094147,26.481245,23.174702,86.824295,-18.517012,3.24361,-17.523033,-4.3319764,-28.730223,48.324856,-33.5777,-6.931795,-22.692259,1.3244699,16.188665,-35.987957,18.051987,-52.023174,-0.24317503,28.106783,4.8020444,15.581688,26.741793,-13.805357,2.3785446,29.13641,-19.69518,11.377524,-9.954936
75,-41.487892150878906,-48.51831817626953,72.99700164794922,-3.044014271599675,1.4660953023550563,16.98941889941885,-0.20350194,25.292755,23.269434,85.65172,-17.794489,2.49109,-17.73615,-3.7031481,-29.07135,47.312927,-32.61271,-7.4810495,-23.148376,1.3500627,15.808822,-36.387787,18.22767,-52.739372,-0.032591853,28.685926,4.644957,14.958181,28.000908,-13.795866,1.7156206,28.946938,-19.820902,11.444468,-9.932618
76,-41.93480682373047,-49.05873107910156,73.20869445800781,-3.074053636697166,1.497809795536198,16.965521086229835,0.71760374,23.911213,23.406101,84.18622,-17.005884,1.5249382,-17.891703,-3.123107,-29.31323,46.174206,-31.520355,-8.004637,-23.529478,1.3012493,15.43379,-36.670807,18.411104,-53.42087,0.1758959,29.190865,4.528853,14.43004,29.147991,-13.762611,1.0666065,28.78403,-19.92219,11.492498,-9.835148
77,-42.39467239379883,-49.58934783935547,73.46368408203125,-2.9775355916779516,1.483818050645987,16.857756988367672,1.7458229,22.297401,23.657328,82.35385,-16.16038,0.29830584,-17.970062,-2.6337783,-29.423582,44.916542,-30.33946,-8.507216,-23.814312,1.1384023,15.061099,-36.831814,18.600807,-54.07024,0.36784798,29.628778,4.472352,13.986674,30.193274,-13.701875,0.40759125,28.644247,-19.985666,11.505489,-9.640323
78,-42.86720275878906,-50.126121520996094,73.75736236572266,-2.7859762582743386,1.4401334403471506,16.664925372548517,2.8427336,20.494791,23.986372,80.18618,-15.264012,-1.1169258,-17.98552,-2.2054203,-29.412989,43.5327,-29.057877,-8.992029,-23.994587,0.8889912,14.685017,-36.889095,18.795597,-54.697212,0.56608605,30.014637,4.45124,13.589835,31.153915,-13.615172,-0.26510942,28.506208,-20.020906,11.500754,-9.367662
79,-43.341941833496094,-50.64793395996094,74.0910873413086,-2.5686851967790854,1.3996696875265782,16.433489111715826,3.8575659,18.565128,24.209404,77.804184,-14.308783,-2.6628041,-17.970312,-1.7765381,-29.337545,42.026356,-27.604006,-9.449524,-24.12336,0.6283286,14.319473,-36.844322,18.995169,-55.28463,0.7945714,30.335989,4.45083,13.289474,31.99096,-13.503538,-0.91088134,28.385992,-20.054478,11.501047,-9.052893
80,-43.828369140625,-51.155269622802734,74.45735168457031,-2.3951167796309183,1.3936695065385165,16.209588779187687,4.6551013,16.577522,24.157423,75.335335,-13.291913,-4.281683,-17.956743,-1.2845823,-29.253237,40.395336,-25.903097,-9.867576,-24.255514,0.430956,13.980668,-36.691208,19.198282,-55.813053,1.0739253,30.588734,4.4571586,13.136205,32.664845,-13.372619,-1.4894011,28.296898,-20.114178,11.529545,-8.731877
81,-44.327388763427734,-51.665260314941406,74.8531494140625,-2.295646931171405,1.422563653767997,16.01513256007497,5.2380543,14.540681,23.782642,72.76605,-12.19295,-6.053595,-17.898392,-0.68149453,-29.159292,38.536827,-23.93126,-10.23692,-24.417841,0.32849798,13.673675,-36.4164,19.409605,-56.286434,1.4056987,30.745863,4.47369,13.182119,33.17519,-13.225079,-2.015017,28.242874,-20.20326,11.600819,-8.381035
82,-44.8486442565918,-52.166481018066406,75.27671813964844,-2.231029061360263,1.4714967219608979,15.821099207308919,5.69757,12.43358,23.1781,70.03949,-11.038848,-7.971578,-17.792742,-0.016458785,-29.022903,36.482067,-21.730999,-10.564065,-24.57921,0.27913198,13.394085,-36.017162,19.629038,-56.706013,1.7753325,30.828867,4.507605,13.388085,33.536655,-13.06452,-2.5047283,28.213013,-20.309126,11.699543,-7.9919534
83,-45.39249801635742,-52.666439056396484,75.7179946899414,-2.16745523876956,1.5494773415481757,15.59855632814523,6.036883,10.286543,22.399721,67.22848,-9.893315,-9.849823,-17.74528,0.62873167,-28.855892,34.436317,-19.325407,-10.855395,-24.69886,0.25287938,13.134998,-35.537453,19.854334,-57.056038,2.1889853,30.862906,4.5476494,13.665205,33.73998,-12.896414,-2.9228978,28.201591,-20.429403,11.802558,-7.6226377
84,-45.96253204345703,-53.17182540893555,76.1770248413086,-2.071698410847027,1.6657658798411241,15.318655100077336,6.253866,8.1282,21.510098,64.40516,-8.804892,-11.505604,-17.863441,1.1758221,-28.673948,32.60304,-16.731499,-11.111323,-24.736895,0.21912025,12.890458,-35.01756,20.080593,-57.31991,2.6533506,30.878279,4.5825343,13.924501,33.776424,-12.730683,-3.2341528,28.202614,-20.561022,11.887293,-7.3313036
85,-46.55331039428711,-53.67323303222656,76.64330291748047,-1.929789021974906,1.8261834412768834,14.98651316015476,6.3304243,5.8898244,20.463398,61.554775,-7.7182217,-12.947341,-18.169252,1.5972527,-28.470196,31.010181,-13.914825,-11.368734,-24.702623,0.1708944,12.651913,-34.44496,20.301065,-57.49573,3.1860178,30.886244,4.5874195,14.20049,33.62808,-12.574131,-3.4289348,28.236862,-20.686308,11.952067,-7.1311145
86,-47.175071716308594,-54.16734313964844,77.11563110351562,-1.7657000532169167,2.0253847192688723,14.612216679842552,6.299206,3.5923424,19.25364,58.64336,-6.621232,-14.252204,-18.606068,1.939316,-28.238668,29.552048,-10.87224,-11.597957,-24.616222,0.12667538,12.427114,-33.789997,20.508442,-57.582302,3.7807486,30.88679,4.5755734,14.521687,33.29972,-12.429985,-3.5222788,28.30303,-20.809317,12.008036,-6.991511
87,-47.832672119140625,-54.64602279663086,77.58773040771484,-1.4780336472092321,2.298030188983909,14.227362424630083,6.1931844,1.2895082,18.120327,55.64863,-5.549481,-15.000033,-19.306181,2.0283046,-27.966482,28.456413,-7.764896,-11.665284,-24.507284,0.0016448193,12.145076,-33.073357,20.697803,-57.56688,4.412336,30.884651,4.592783,14.790626,32.81735,-12.301133,-3.5123343,28.365423,-20.958248,12.051065,-6.9055457
88,-48.51831817626953,-55.11204528808594,78.04802703857422,-1.2221026233030774,2.586479314120308,13.753937349898832,6.0988064,-0.74212176,17.209614,52.670048,-4.633366,-15.000033,-20.104036,2.1409667,-27.674162,27.453892,-4.5270944,-11.492114,-24.274935,-0.092448734,11.909842,-32.39393,20.887165,-57.464798,5.06839,30.797667,4.6819725,14.905922,32.22521,-12.187686,-3.4135647,28.383368,-21.157671,12.07659,-6.864206
89,-49.22831726074219,-55.58742141723633,78.49147033691406,-1.010134886085578,2.8937489412838313,13.16175980279667,5.9792705,-2.570478,16.368496,49.69551,-3.9545462,-15.000033,-21.075003,2.322215,-27.392258,26.644577,-1.1243976,-11.392488,-23.921776,-0.15610643,11.743731,-31.62516,21.056532,-57.211334,5.7176356,30.768856,4.8650484,14.816472,31.481173,-12.097939,-3.1808798,28.365213,-21.40571,12.086731,-6.894982
90,-49.9571533203125,-56.07219314575195,78.9148941040039,-0.8299572787205316,3.2236878529222137,12.471517745163927,5.8174143,-4.270826,15.54925,46.701004,-3.4281518,-15.000033,-22.178156,2.545795,-27.100174,25.942524,2.4832644,-11.268568,-23.462692,-0.19433504,11.626898,-30.798225,21.202389,-56.8293,6.3914943,30.750025,5.1139727,14.582588,30.584116,-12.034227,-2.8240294,28.33263,-21.685799,12.083033,-6.99122
91,-50.7033576965332,-56.565181732177734,79.30908203125,-0.7104413544360357,3.5451309193202736,11.71912296092388,5.659401,-5.7778597,14.717238,43.738018,-2.9111035,-15.000033,-23.156952,2.8863702,-26.673126,24.934559,6.276118,-10.423161,-22.936087,-0.1997531,11.57949,-29.955883,21.33213,-56.362343,7.0695076,30.679056,5.4110317,14.281464,29.582155,-11.988852,-2.3874757,28.257677,-22.021765,12.062831,-7.098884
92,-51.47270584106445,-57.07115936279297,79.66857147216797,-0.6717035940137372,3.819145391857474,10.944043235789197,5.5517244,-7.0317674,13.832254,40.86481,-2.2643425,-15.000033,-23.750422,3.451651,-25.917479,23.206177,10.197552,-8.170303,-22.388294,-0.17528813,11.62843,-29.111275,21.454603,-55.846294,7.7147794,30.523653,5.7405686,13.991631,28.523033,-11.948043,-1.9135164,28.104801,-22.442776,12.023441,-7.1648235
93,-52.24903106689453,-57.5800666809082,79.99169921875,-0.6839564499128231,4.048085546330074,10.160418664801638,5.4963684,-8.060208,12.910293,38.007168,-1.4702723,-15.000033,-23.76589,4.3189297,-24.737766,20.308123,14.64666,-3.60625,-21.833063,-0.15184763,11.774842,-28.272057,21.580427,-55.272972,8.316841,30.260414,6.1583614,13.691745,27.396612,-11.894627,-1.4028028,27.860289,-23.012787,11.960672,-7.166825
94,-53.02728271484375,-58.10240936279297,80.27494049072266,-0.6613134506744075,4.2198955469666775,9.379644901736189,5.5257654,-9.003509,11.959247,35.06543,-0.54150754,-15.000033,-23.360477,5.3891506,-22.993914,16.594332,19.394672,2.7620614,-21.274492,-0.209112,11.996126,-27.420021,21.715477,-54.63514,8.87799,29.915096,6.655155,13.353891,26.200212,-11.820939,-0.83635026,27.529808,-23.703093,11.877531,-7.1377163
95,-53.8067626953125,-58.64646911621094,80.5048828125,-0.5836537136944054,4.290508623210198,8.622280133252742,5.6813946,-9.897327,10.93379,32.141956,0.570869,-15.000033,-22.81087,6.4603558,-20.6278,12.937997,23.421047,9.372995,-20.723886,-0.37054256,12.28573,-26.558773,21.864285,-53.980404,9.394509,29.500586,7.1162086,13.047622,24.99156,-11.732474,-0.2336006,27.1113,-24.403147,11.782135,-7.105944
96,-54.580902099609375,-59.19332504272461,80.67621612548828,-0.5201078939135976,4.251531014209892,7.87991574024727,5.905168,-10.646645,9.90014,29.487728,1.8341722,-14.614461,-22.370968,7.3722563,-17.892548,10.099617,25.890635,14.5207405,-20.16206,-0.5563006,12.642278,-25.711094,22.030378,-53.359173,9.872982,29.011753,7.4249396,12.844187,23.812532,-11.643822,0.38256902,26.619762,-25.001398,11.680053,-7.10025
97,-55.36463928222656,-59.78109359741211,80.78242492675781,-0.5143721107597486,4.145020812094245,7.047311703222395,5.99637,-11.143614,9.031112,27.34734,3.3960016,-13.202412,-21.913715,8.129435,-15.80138,7.7491755,26.755247,15.000033,-19.49861,-0.719449,13.0308275,-24.868282,22.216473,-52.76871,10.292485,28.429144,7.5598125,12.74722,22.680721,-11.559815,1.0212965,26.040976,-25.47311,11.577579,-7.1396055
98,-56.119667053222656,-60.35148620605469,80.82225799560547,-0.5005903648506569,3.924830028427721,6.245568322130445,6.085423,-11.5159,8.145708,25.51418,5.2178645,-11.386413,-21.507963,8.755538,-13.087909,6.0388083,26.304455,15.000033,-18.85051,-0.91183215,13.503276,-24.020947,22.421818,-52.180626,10.654512,27.75847,7.5780697,12.726893,21.545683,-11.481446,1.6943604,25.396036,-25.875141,11.468903,-7.2050467
99,-56.838844299316406,-60.87794494628906,80.79224395751953,-0.5415478261434601,3.6656145518681686,5.465883634027868,6.090461,-11.675054,7.50129,24.149097,6.658311,-9.231151,-21.395065,9.242938,-10.289944,5.3181305,25.03045,15.000033,-18.204878,-1.0560182,14.0101795,-23.170544,22.64463,-51.604454,10.999781,27.044233,7.4792914,12.794772,20.385845,-11.413192,2.39968,24.724422,-26.211214,11.347114,-7.2661853
100,-57.54963302612305,-61.38316345214844,80.71849060058594,-0.7268879695667431,3.4439073568323004,4.663461354746696,5.9063816,-11.501234,7.3320704,23.455347,7.0473733,-6.8417726,-21.613136,9.685921,-8.159523,5.44962,23.703794,15.000033,-17.512163,-1.057766,14.498643,-22.32061,22.884382,-51.051758,11.370244,26.33099,7.262732,12.960395,19.188808,-11.357708,3.13175,24.056795,-26.484198,11.204862,-7.292154
101,-58.27879333496094,-61.9184684753418,80.60771942138672,-1.1162469301308773,3.2830805569273407,3.826450485633269,5.4574237,-10.876636,7.690707,23.653603,6.036242,-3.9750402,-22.320059,10.107583,-7.0419908,6.6621866,22.38747,15.000033,-16.748901,-0.8591316,14.949533,-21.49752,23.143465,-50.55224,11.7993355,25.596186,6.8461046,13.256962,17.968552,-11.311788,3.890469,23.383059,-26.664051,11.027951,-7.284217
102,-59.02541732788086,-62.4919548034668,80.4439926147461,-1.6515659354927217,3.155504283074624,2.9687055358963073,4.797054,-9.90486,8.366629,24.571165,4.004052,-0.70723933,-23.368876,10.49869,-6.4932194,8.685979,20.875084,15.000033,-15.936721,-0.51285386,15.367305,-20.691513,23.421125,-50.089626,12.257569,24.832588,6.253181,13.662313,16.729996,-11.272732,4.6763306,22.689781,-26.759022,10.822832,-7.2550445
103,-59.7798957824707,-63.07516860961914,80.22779846191406,-2.2383207270093917,3.050205362731661,2.094191514425554,4.069462,-8.799283,9.165429,25.746632,1.4546795,2.371241,-24.622412,10.839242,-6.120853,11.248649,19.198956,15.000033,-15.105335,-0.10426145,15.741785,-19.853573,23.711344,-49.606518,12.692256,24.100742,5.6441183,14.106691,15.446727,-11.246774,5.484701,21.998463,-26.82802,10.615509,-7.1892047
104,-60.53528594970703,-63.646728515625,79.96891021728516,-2.7607116057207386,2.9522190234635657,1.2024768352556663,3.4193423,-7.7806635,9.981694,26.729246,-1.0585616,4.7101307,-26.024017,11.113083,-5.529032,14.243914,17.309149,15.000033,-14.282808,0.25858355,16.069033,-18.925043,24.004347,-49.039825,13.047858,23.461788,5.1813912,14.526208,14.08838,-11.244899,6.3160067,21.335445,-26.926678,10.430341,-7.0725756
105,-61.2853889465332,-64.20771789550781,79.66192626953125,-3.1565380550518918,2.8648022937888595,0.26307568469764486,2.9398367,-6.8990717,10.961655,27.332745,-3.416194,6.172796,-27.667381,11.338394,-4.486237,17.81405,15.091125,15.000033,-13.451603,0.5126183,16.330929,-17.885855,24.293066,-48.37613,13.310612,22.933111,4.92479,14.922576,12.640495,-11.281567,7.184192,20.702415,-27.044325,10.257367,-6.874618
106,-62.031494140625,-64.74900817871094,79.32038116455078,-3.4168830246601023,2.784706057100969,-0.7026700223369862,2.6031795,-6.1241865,12.132952,27.713707,-5.801311,7.092024,-29.530973,11.488282,-3.1801677,21.931252,12.617552,15.000033,-12.621506,0.6459508,16.529623,-16.75679,24.576359,-47.639572,13.5061865,22.481573,4.7826085,15.3259735,11.129886,-11.355704,8.093796,20.077757,-27.150373,10.08948,-6.611337
107,-62.78643798828125,-65.25482177734375,78.94780731201172,-3.52815525231478,2.688233799141878,-1.6231372798188886,2.3354526,-5.5097303,13.276248,28.000698,-8.138982,7.63736,-31.378407,11.508617,-1.8546786,26.223196,10.135082,15.000033,-11.849383,0.6444958,16.706184,-15.553465,24.853724,-46.833107,13.646648,22.082195,4.691405,15.718462,9.585455,-11.451058,9.024206,19.453129,-27.277828,9.95427,-6.338922
108,-63.525020599365234,-65.77812194824219,78.55633544921875,-3.6502729580951434,2.518403949521883,-2.452310638438244,1.9817481,-4.8542175,14.146152,28.605158,-10.522936,7.9106674,-32.870197,11.375886,-1.2890053,30.165827,7.9441586,13.67461,-11.161093,0.64568377,16.961752,-14.294695,25.125757,-45.966244,13.748811,21.712217,4.5877757,16.081312,8.036017,-11.542541,9.951711,18.823265,-27.46405,9.879632,-6.114902
109,-64.2640151977539,-66.30640411376953,78.13980865478516,-3.687005601796481,2.2983111046057694,-3.1596075588237325,1.5651115,-4.312847,14.671905,29.357641,-12.86292,7.876258,-34.125717,10.9642315,-1.1158615,33.9955,5.9047823,12.392672,-10.592869,0.5603651,17.275621,-12.968312,25.389408,-45.00849,13.796191,21.416199,4.479469,16.402714,6.4225726,-11.62322,10.904586,18.240908,-27.692692,9.877201,-6.007543
110,-64.98790740966797,-66.83899688720703,77.71369934082031,-3.61812093318562,2.046884028579339,-3.7769387523953557,1.1246233,-3.8898532,15.013899,30.171652,-15.171521,7.5079093,-35.25513,10.298663,-1.1003312,37.874733,3.9205275,11.3063545,-10.114686,0.37068248,17.619583,-11.57061,25.642044,-43.97388,13.792874,21.189407,4.39361,16.695978,4.7470703,-11.695732,11.878928,17.694576,-27.95959,9.931183,-5.9694777
111,-65.71747589111328,-67.3440170288086,77.28343963623047,-3.47561787274294,1.7774426463786992,-4.293514216351647,0.6396016,-3.5381026,15.2559185,31.090302,-17.40266,7.0134983,-36.253696,9.4287195,-1.135361,41.75536,2.0462713,10.298747,-9.704726,0.12536281,17.970026,-10.151429,25.881195,-42.946777,13.794583,20.931519,4.296418,16.981932,3.1215928,-11.750385,12.790878,17.091896,-28.327686,10.025499,-5.882776
112,-66.4383316040039,-67.83919525146484,76.84874725341797,-3.2926199376884706,1.5024428115359134,-4.697401938301785,0.0963199,-3.2130804,15.46289,32.14323,-19.499557,6.5939054,-37.120575,8.417583,-1.1179036,45.590622,0.3366187,9.257388,-9.333701,-0.12865426,18.29981,-8.778979,26.102587,-42.02222,13.872154,20.540485,4.1535997,17.281948,1.6611676,-11.77239,13.548189,16.34535,-28.866861,10.14082,-5.62806
113,-67.13955688476562,-68.33467102050781,76.41597747802734,-3.080440857013715,1.2381977076496333,-4.943548314459001,-0.5645762,-2.898839,15.587601,33.40728,-21.469042,6.2661533,-37.893852,7.236202,-1.0869036,49.439484,-1.1872513,8.128956,-9.0278,-0.37703586,18.599205,-7.4863234,26.299667,-41.224323,14.079213,19.939917,3.929989,17.622736,0.38205788,-11.745628,14.101754,15.453357,-29.702105,10.288927,-5.145289
114,-67.81907653808594,-68.82554626464844,75.97564697265625,-2.824634116068497,0.974069144464876,-5.053931647990558,-1.3235624,-2.610993,15.61277,34.854843,-23.342161,5.9291754,-38.556778,5.8652716,-1.0755179,53.30251,-2.5584252,6.9768605,-8.776252,-0.6482832,18.87636,-6.2618656,26.467377,-40.522938,14.3995905,19.200848,3.6512182,17.98619,-0.77503616,-11.66994,14.496145,14.471678,-30.773262,10.464306,-4.503906
115,-68.48653411865234,-69.31192016601562,75.53406524658203,-2.524291168260478,0.6816404778600893,-5.11725030658031,-2.0689976,-2.3512938,15.636095,36.343277,-25.087372,5.60541,-39.04485,4.396838,-0.9854218,57.06504,-3.8042912,5.8678217,-8.500191,-0.9511993,19.131413,-5.1005526,26.605042,-39.922558,14.7925415,18.445255,3.3747637,18.326385,-1.8118043,-11.562617,14.784847,13.398915,-31.868889,10.623502,-3.7811348
116,-69.13016510009766,-69.80625915527344,75.10159301757812,-2.1838651696598115,0.33456583288543185,-5.223192051081061,-2.6885295,-2.1182811,15.756124,37.729553,-26.67116,5.3173137,-39.30315,2.9294288,-0.72895676,60.61329,-4.9538517,4.8704653,-8.120963,-1.282233,19.369354,-3.9937937,26.713923,-39.426853,15.207036,17.792229,3.1606925,18.600464,-2.719823,-11.4492235,15.019365,12.21748,-32.770058,10.731212,-3.0562577
117,-69.74847412109375,-70.30201721191406,74.68912506103516,-1.806829268946832,-0.08655485079520386,-5.386363635767758,-3.165158,-1.9026172,16.008493,39.045094,-28.099081,5.0787463,-39.324093,1.4677483,-0.3085118,63.98771,-5.9842615,3.997684,-7.6178274,-1.628303,19.608168,-2.95975,26.795269,-39.065098,15.648352,17.181606,3.0340965,18.800892,-3.4582148,-11.346419,15.161849,10.845682,-33.461037,10.774089,-2.2571464
118,-70.33809661865234,-70.7856216430664,74.30229949951172,-1.3961884364898742,-0.5616821003608511,-5.5646043727657455,-3.554072,-1.7010492,16.335278,40.343452,-29.38581,4.8763413,-39.149017,-0.03497119,0.21973544,67.23781,-6.8960013,3.2139728,-7.0313244,-1.9777418,19.844942,-2.0003479,26.84894,-38.826485,16.13267,16.579145,2.9613194,18.951601,-4.0350337,-11.25872,15.198024,9.298807,-34.03477,10.774157,-1.3738142
119,-70.9229736328125,-71.26459503173828,73.93936920166016,-0.9555694223354182,-1.0561314856364816,-5.762062286612807,-3.8516412,-1.5254046,16.698816,41.514084,-30.510157,4.690217,-38.810932,-1.553681,0.8588627,70.28072,-7.760943,2.5196471,-6.381274,-2.330118,20.054657,-1.071504,26.875513,-38.64546,16.616295,16.143124,2.915889,19.057558,-4.515977,-11.192461,15.221353,7.7039,-34.433735,10.761465,-0.5804199
120,-71.46896362304688,-71.74401092529297,73.62171173095703,-0.4890845377384447,-1.5348008218459068,-5.983276615842136,-4.0565524,-1.3875885,17.064264,42.44754,-31.450558,4.4986243,-38.343792,-3.0557635,1.6127467,73.03488,-8.649233,1.9222032,-5.6864643,-2.683884,20.21263,-0.12757194,26.87536,-38.45854,17.052826,16.031395,2.8717515,19.123466,-4.960533,-11.1597,15.325431,6.1815114,-34.598602,10.769132,-0.050469924
121,-71.99923706054688,-72.21463775634766,73.34405517578125,0.029677267164701978,-2.019677464362163,-6.265507598236639,-4.098573,-1.3220178,17.47763,43.05561,-32.207047,4.314873,-37.732773,-4.5037436,2.5646596,75.52273,-9.5829115,1.5040065,-4.938585,-3.0724843,20.325394,0.8711786,26.855991,-38.225502,17.403198,16.415138,2.8316028,19.117691,-5.4196205,-11.158372,15.585875,4.791242,-34.38062,10.832492,0.061877675
122,-72.51439666748047,-72.69495391845703,73.1126937866211,0.5913372225070139,-2.5168730504578947,-6.596592280419675,-4.002409,-1.3136631,17.94156,43.41369,-32.787228,4.142699,-36.978413,-5.9233294,3.6705515,77.78448,-10.52442,1.2438993,-4.1292353,-3.4767797,20.407167,1.8904599,26.816925,-37.993526,17.694279,17.16453,2.8066623,19.049757,-5.835908,-11.198457,15.933553,3.4409165,-33.849506,10.92875,-0.11541659
123,-73.02427673339844,-73.17151641845703,72.92682647705078,1.1372611798186536,-2.969854535387262,-6.90495029525547,-3.908243,-1.2977805,18.357647,43.65712,-33.1794,3.946285,-36.137722,-7.371972,4.7447915,79.76993,-11.456467,0.99136233,-3.3383827,-3.8429089,20.43515,2.9396012,26.759653,-37.74357,17.93786,18.00503,2.7803788,18.97286,-6.1808343,-11.270192,16.315733,2.0972207,-33.28316,11.012151,-0.3436915
124,-73.51249694824219,-73.66022491455078,72.80137634277344,1.6080750702129407,-3.3248643774736553,-7.11695739285372,-3.9557955,-1.2094896,18.627682,43.921364,-33.371975,3.691224,-35.265354,-8.90331,5.6054816,81.42882,-12.362055,0.5937791,-2.653779,-4.1243,20.382576,4.03375,26.686752,-37.444912,18.144547,18.66313,2.7372427,18.939121,-6.438096,-11.355414,16.687693,0.7395545,-32.962574,11.042991,-0.38441077
125,-73.97708129882812,-74.15213012695312,72.73454284667969,1.9877460381022765,-3.5622616277670347,-7.215914881398468,-4.2069983,-1.0277283,18.720844,44.286724,-33.34726,3.3690107,-34.371086,-10.537673,6.222247,82.76459,-13.277025,0.020805605,-2.0954764,-4.3119197,20.220972,5.2006655,26.598999,-37.07528,18.310997,19.146223,2.671334,18.951212,-6.60994,-11.444431,17.04659,-0.6374388,-32.978756,11.014827,-0.18148921
126,-74.46114349365234,-74.65910339355469,72.71721649169922,2.305574250950708,-3.7148989956998193,-7.238042870553475,-4.5806236,-0.78756595,18.689308,44.6668,-33.11641,2.9999259,-33.42651,-12.236815,6.67874,83.80925,-14.199561,-0.64484143,-1.6212589,-4.4384055,19.968178,6.4283576,26.497593,-36.650173,18.430223,19.573717,2.5922172,18.984716,-6.714494,-11.536647,17.413855,-2.0098965,-33.182087,10.9461,0.14072946
127,-74.93622589111328,-75.17660522460938,72.75505828857422,2.5693968265094145,-3.8087098391589227,-7.188671681818094,-4.9989734,-0.5136504,18.559849,44.940975,-32.70786,2.5911667,-32.42277,-13.960131,6.9633007,84.55366,-15.059678,-1.3889694,-1.2226144,-4.5217195,19.664814,7.67098,26.387896,-36.197353,18.507135,19.840137,2.5093646,19.051834,-6.7620344,-11.627098,17.777666,-3.3507347,-33.495983,10.836604,0.55192965
128,-75.40739440917969,-75.71575164794922,72.8507080078125,2.7877197333477572,-3.8691433406683053,-7.073470314772865,-5.383963,-0.22482903,18.359098,44.991432,-32.1529,2.1473129,-31.348597,-15.668153,7.0618825,84.991165,-15.788313,-2.1990745,-0.88976,-4.5804844,19.351952,8.881915,26.279127,-35.745117,18.548067,19.839878,2.432224,19.16445,-6.764441,-11.7088995,18.124542,-4.6303368,-33.84516,10.686607,1.0224929
129,-75.8775863647461,-76.27886199951172,73.00100708007812,2.946102882633514,-3.899586475087331,-6.8722517307868145,-5.743167,0.09457161,18.060558,44.83455,-31.466942,1.6531508,-30.187344,-17.430891,6.880667,85.13309,-16.394674,-3.2372646,-0.63854295,-4.604816,19.036427,10.07334,26.180347,-35.28607,18.530565,19.436047,2.3693795,19.337421,-6.7201905,-11.777675,18.446285,-5.8642807,-34.283657,10.476784,1.6188895
130,-76.35636138916016,-76.84892272949219,73.19869995117188,3.045072952353764,-3.8878900272746204,-6.588981966519309,-6.106786,0.4500367,17.655539,44.516983,-30.633707,1.1048788,-28.931976,-19.231838,6.434683,84.99187,-16.922419,-4.455479,-0.4636395,-4.592203,18.699348,11.266896,26.09837,-34.807987,18.446718,18.718422,2.312603,19.560452,-6.6285,-11.831128,18.744804,-7.05698,-34.828033,10.207182,2.3324416
131,-76.82829284667969,-77.42708587646484,73.44906616210938,3.1159919294639957,-3.835536829615334,-6.265966761471817,-6.432357,0.7975905,17.192423,43.962055,-29.639109,0.53646344,-27.593092,-20.894169,5.8809366,84.559204,-17.324335,-5.517631,-0.32714853,-4.57013,18.342642,12.431536,26.03477,-34.32919,18.328022,17.922215,2.2459478,19.807434,-6.5011587,-11.867375,19.027905,-8.163298,-35.346535,9.913036,3.0198786
132,-77.30086517333984,-78.0213851928711,73.74577331542969,3.19110698910635,-3.7440472416730546,-5.94591198668394,-6.6793165,1.0967447,16.724497,43.097305,-28.46672,-0.021293644,-26.193344,-22.254545,5.380691,83.824196,-17.544323,-6.10032,-0.21890636,-4.5688105,17.965807,13.559116,25.97731,-33.83508,18.19951,17.29296,2.1526625,20.046183,-6.3691363,-11.889454,19.337006,-9.125792,-35.704548,9.640794,3.5328658
133,-77.77593994140625,-78.62667083740234,74.09246826171875,3.291523050428697,-3.6156925177403267,-5.635884399883922,-6.80895,1.3179303,16.254433,41.845337,-27.112183,-0.54756033,-24.722504,-23.312513,4.9706035,82.75143,-17.517338,-6.068198,-0.10210591,-4.605009,17.569403,14.620658,25.929726,-33.36545,18.089607,16.865301,2.0203876,20.291967,-6.2187304,-11.889753,19.643654,-9.935945,-35.883957,9.380998,3.8419542
134,-78.2522964477539,-79.245849609375,74.48468017578125,3.396911000613298,-3.44831113555219,-5.314888561341939,-6.852671,1.4943016,15.750743,40.267902,-25.588469,-1.0606471,-23.179508,-24.141516,4.56822,81.36308,-17.281927,-5.619509,0.032021645,-4.6545386,17.153246,15.598187,25.897917,-32.949,18.000763,16.512022,1.8635539,20.559677,-6.02081,-11.874911,19.909687,-10.636202,-35.953686,9.115949,4.0299225
135,-78.74777221679688,-79.88241577148438,74.90699768066406,3.4781307233511365,-3.236442556700187,-4.983282677068364,-6.8735633,1.6777934,15.215244,38.493484,-23.899815,-1.5878112,-21.610014,-24.695728,4.169881,79.72631,-16.935768,-4.936852,0.08151611,-4.7081175,16.708218,16.584187,25.868248,-32.462032,17.86849,16.253729,1.7027937,20.802097,-5.853803,-11.829139,20.242304,-11.181835,-35.919613,8.890857,4.1066
136,-79.2422866821289,-80.52696228027344,75.355712890625,3.5063884338527407,-2.97408401154237,-4.641409212940884,-6.93689,1.918433,14.64721,36.65155,-22.050571,-2.1586366,-20.062878,-24.93178,3.777172,77.909004,-16.581474,-4.2047873,0.15005581,-4.7204266,16.2348,17.438112,25.858397,-32.059193,17.772684,16.051102,1.577426,21.018377,-5.6246705,-11.755891,20.505579,-11.649072,-35.803257,8.715846,4.126401
137,-79.7502670288086,-81.19989013671875,75.8243179321289,3.4779467281032175,-2.6558810885195547,-4.300198058428473,-7.018614,2.227475,14.033129,34.695698,-20.03149,-2.7816014,-18.541983,-24.776173,3.4612408,75.8756,-16.244972,-3.4016461,0.22385818,-4.687472,15.727456,18.187044,25.873846,-31.7177,17.70975,15.950822,1.4992036,21.221071,-5.337539,-11.648393,20.721493,-12.023333,-35.56038,8.6200285,4.0731645
138,-80.2641372680664,-81.89086151123047,76.30616760253906,3.4090892620408892,-2.2854488622223452,-3.9551837364887854,-7.0978403,2.5823922,13.362625,32.586853,-17.849966,-3.4407432,-17.03822,-24.291664,3.230874,73.60655,-15.890579,-2.4718294,0.29472274,-4.628366,15.189357,18.850636,25.917385,-31.41962,17.663895,15.943769,1.4509463,21.414837,-5.007328,-11.503807,20.902786,-12.290076,-35.20085,8.581528,3.9356585
139,-80.78810119628906,-82.59764099121094,76.79644775390625,3.3037021214253004,-1.8706269617798434,-3.5834005665925397,-7.2457085,2.978831,12.63665,30.460863,-15.5302105,-4.134178,-15.5853,-23.63389,2.9883318,71.19746,-15.522084,-1.5451801,0.34373102,-4.5590806,14.631077,19.433199,25.992691,-31.1442,17.591642,15.943269,1.4162802,21.555948,-4.6583896,-11.332488,21.054703,-12.466112,-34.814266,8.559457,3.749228
140,-81.32145690917969,-83.32968139648438,77.28870391845703,3.1645340795062498,-1.4183991769131696,-3.162938157779428,-7.534472,3.4136007,11.85499,28.456274,-13.0966015,-4.865218,-14.215536,-22.94402,2.6265337,68.74298,-15.128998,-0.7339487,0.35442254,-4.4905195,14.065103,19.93707,26.103954,-30.873793,17.447186,15.862152,1.3783959,21.600403,-4.3079634,-11.152438,21.180819,-12.578698,-34.486004,8.513811,3.5478315
141,-81.87239074707031,-84.07298278808594,77.7733154296875,2.9784625406345264,-0.9077837925902639,-2.684517425416222,-8.012338,3.9005833,10.957729,26.605759,-10.491194,-5.6108656,-12.931634,-22.19683,2.1094387,66.203285,-14.729236,-0.03669082,0.32671836,-4.4109197,13.471397,20.370066,26.254623,-30.590181,17.211412,15.646074,1.3288772,21.499731,-3.9349444,-10.973076,21.285175,-12.648165,-34.24196,8.456062,3.3242745
142,-82.42910766601562,-84.82967376708984,78.24405670166016,2.7527387685053393,-0.34045039054846676,-2.161546922203513,-8.629762,4.442741,9.941592,24.840935,-7.728824,-6.3943467,-11.727447,-21.33843,1.509729,63.54324,-14.315264,0.6011043,0.26845822,-4.317428,12.854062,20.731161,26.446953,-30.306904,16.903282,15.350611,1.2785918,21.28862,-3.529348,-10.795595,21.36539,-12.671927,-34.03007,8.401157,3.0637918
143,-83.0181655883789,-85.6068344116211,78.6871109008789,2.515768640066258,0.2415185624139299,-1.6071857065180877,-9.304188,5.0171094,8.897039,23.125639,-4.934645,-7.288644,-10.6117935,-20.437502,0.8634154,60.86648,-13.830202,1.1601784,0.17869832,-4.227945,12.263181,21.006865,26.682005,-30.05713,16.533916,15.053694,1.2394041,21.047684,-3.1199906,-10.627898,21.412994,-12.648967,-33.818184,8.315319,2.7898278
144,-83.61798858642578,-86.38465118408203,79.09822845458984,2.29098125349928,0.7943745705435542,-1.0349702205732696,-9.958936,5.5985336,7.9226418,21.430288,-2.2296119,-8.358365,-9.587208,-19.556887,0.19960023,58.27679,-13.217113,1.6256076,0.05912246,-4.1551275,11.750294,21.181053,26.95965,-29.877087,16.116701,14.833452,1.2214957,20.858315,-2.7311528,-10.48256,21.417044,-12.582755,-33.572998,8.164604,2.525864
145,-84.23698425292969,-87.169921875,79.47052001953125,2.035256966044015,1.3302874135556897,-0.42486495770087174,-10.600585,6.153511,6.839658,19.561424,0.64555305,-9.78815,-8.671723,-18.627094,-0.5033894,55.789257,-12.375356,1.9103408,-0.09466448,-4.0580726,11.306206,21.234577,27.283335,-29.788107,15.645733,14.692961,1.2279496,20.734419,-2.354547,-10.369482,21.366817,-12.490554,-33.264652,7.9171185,2.2770085
146,-84.86875915527344,-87.94862365722656,79.79974365234375,1.7444577592101862,1.862194717815643,0.21921197507472312,-11.243389,6.716747,5.630428,17.575407,3.6481378,-11.509739,-7.85119,-17.627777,-1.2574245,53.346786,-11.359354,2.0593421,-0.27295944,-3.9317222,10.916847,21.175528,27.653938,-29.77571,15.115983,14.595104,1.2527617,20.63549,-1.9689744,-10.292701,21.265045,-12.382479,-32.914997,7.5984554,2.0321748
147,-85.51103210449219,-88.73095703125,80.07636260986328,1.4980743896081283,2.347527253334576,0.8492939594569147,-11.829097,7.338797,4.70532,15.791287,6.254738,-13.168606,-7.0771413,-16.681908,-2.022939,50.951103,-10.334911,2.2590275,-0.4555825,-3.8424551,10.625102,21.02452,28.063732,-29.82196,14.545922,14.55765,1.2915283,20.561378,-1.580346,-10.254234,21.124214,-12.249249,-32.566402,7.2623696,1.7892566
148,-86.16265869140625,-89.50468444824219,80.30681610107422,1.3820790811691936,2.745559731827698,1.4217940119246428,-12.358735,8.036208,4.5441427,14.608626,7.9616046,-14.366679,-6.300132,-15.924782,-2.7621412,48.603813,-9.467718,2.696437,-0.6274943,-3.866149,10.467095,20.799309,28.499083,-29.90792,13.961995,14.600466,1.3391973,20.512197,-1.1979979,-10.254291,20.95829,-12.076241,-32.2611,6.962874,1.544391
149,-86.8390121459961,-90.26087188720703,80.50041961669922,1.4346165986909771,3.040649798103798,1.9307478194123613,-12.784925,8.805985,5.4978104,13.969466,8.579111,-14.984055,-5.47007,-15.393768,-3.4604192,46.22467,-8.656763,3.584939,-0.7860759,-4.0436444,10.466216,20.49266,28.95035,-30.032978,13.366338,14.810711,1.3964555,20.507795,-0.837034,-10.295249,20.770472,-11.870215,-32.047092,6.695564,1.3079708
150,-87.52671813964844,-91.00831604003906,80.6336898803711,1.6410627103753184,3.258669355999503,2.4143257612610363,-13.110467,9.557246,7.361515,13.674797,8.458165,-15.000033,-4.6255155,-15.053719,-4.1404943,43.846783,-7.8561897,4.792986,-0.9561053,-4.3632307,10.589138,20.091814,29.41371,-30.207811,12.758277,15.153795,1.464746,20.54138,-0.49077675,-10.378776,20.555868,-11.63032,-31.889051,6.4384637,1.076434
151,-88.2193603515625,-91.75737762451172,80.69550323486328,1.8948771297616813,3.4130719931410716,2.8493152856919988,-13.5183935,10.371737,9.565539,14.1712885,7.76757,-15.000033,-3.819514,-14.776183,-4.8584757,41.583107,-7.282804,5.939047,-1.120909,-4.7219048,10.7958355,19.603071,29.88337,-30.430532,12.1644535,15.4674425,1.5393559,20.573235,-0.1347354,-10.49921,20.31843,-11.333538,-31.704258,6.2204423,0.82433397
152,-88.91194152832031,-92.49554443359375,80.70710754394531,2.166194492098026,3.5217207684879295,3.2410456186216132,-14.129494,11.24859,11.729056,15.742141,6.754748,-14.700993,-3.1260345,-14.554514,-5.655072,39.594307,-7.187603,6.676474,-1.2926459,-5.082462,11.041418,19.037102,30.352133,-30.696566,11.610011,15.589944,1.615599,20.564068,0.24888432,-10.646858,20.0638,-10.94661,-31.412155,6.0677657,0.52682865
153,-89.61361694335938,-93.22946166992188,80.68334197998047,2.545368642851784,3.5928784575118744,3.6251106231500994,-14.872982,12.158806,13.990257,18.331873,5.4616804,-13.903791,-2.5794652,-14.53827,-6.577655,37.955544,-7.7544174,6.884052,-1.5163606,-5.5324864,11.308401,18.401741,30.815285,-31.00628,11.094317,15.415635,1.7013983,20.504866,0.6469079,-10.820386,19.805826,-10.454266,-30.959688,5.992945,0.16471194
154,-90.3243408203125,-93.94522094726562,80.60173797607422,2.964855322229363,3.6055520114213837,3.9703668241984333,-15.651791,13.282941,16.43701,21.819054,3.7037594,-12.6993685,-2.1106265,-14.61852,-7.607379,36.547306,-8.805071,6.7623034,-1.7577943,-6.0092516,11.630392,17.691027,31.269054,-31.362772,10.606853,15.052981,1.7972596,20.417213,1.0508381,-11.021185,19.53914,-9.868722,-30.401846,5.977617,-0.24386019
155,-91.04405975341797,-94.6595458984375,80.4707260131836,3.342416413090883,3.564701675536426,4.274510591371955,-16.40577,14.628428,18.715742,25.915464,1.6545464,-11.140272,-1.7198867,-14.659715,-8.675122,35.383263,-10.134183,6.4980083,-2.0063193,-6.427353,12.000967,16.898098,31.706692,-31.76311,10.157709,14.663056,1.8874317,20.307926,1.4779794,-11.2440405,19.239046,-9.188378,-29.821844,6.00211,-0.66456443
156,-91.76844024658203,-95.3623275756836,80.29991912841797,3.6120251472832785,3.4795129765788357,4.539444260939192,-17.119764,16.112675,20.492556,30.337547,-0.4713815,-9.30056,-1.4191562,-14.556939,-9.709432,34.4834,-11.533775,6.2583737,-2.2560263,-6.717916,12.409825,16.015556,32.12025,-32.20334,9.761632,14.408688,1.9553667,20.18385,1.9432405,-11.4783745,18.8818,-8.406639,-29.304836,6.0484986,-1.0625778
157,-92.49716186523438,-96.05028533935547,80.08320617675781,3.772475909141098,3.347015630083326,4.779621856968932,-17.89555,17.66864,21.606907,35.234215,-2.6898315,-6.986628,-1.2188698,-14.32475,-10.760903,33.889385,-13.052707,6.04144,-2.5220578,-6.8764443,12.85792,15.019465,32.50662,-32.707153,9.454747,14.315904,1.9987813,20.044722,2.451725,-11.71605,18.452692,-7.517148,-28.852053,6.1197014,-1.4071742
158,-93.2292251586914,-96.7417984008789,79.82958221435547,3.855501670540049,3.164548806961963,4.9874777200003075,-18.693563,19.27518,22.233065,40.574615,-5.0221233,-4.2417617,-1.1227903,-14.014473,-11.828129,33.589096,-14.773808,5.754539,-2.8012,-6.9390917,13.348918,13.915621,32.86339,-33.271984,9.228159,14.304098,2.0255656,19.888048,2.9909065,-11.955377,17.966867,-6.5143843,-28.427937,6.2230363,-1.7232723
159,-93.96154022216797,-97.42989349365234,79.53549194335938,3.8592120091886524,2.94569325692882,5.137713456954316,-19.362411,20.87973,22.58101,45.92805,-7.264021,-1.5105801,-1.1481186,-13.60433,-12.767467,33.541553,-16.545374,5.420032,-3.069894,-6.9122906,13.872398,12.747743,33.18305,-33.84609,9.028339,14.378794,2.0331287,19.715807,3.5452526,-12.193584,17.451614,-5.386904,-28.062893,6.34868,-2.060483
160,-94.684814453125,-98.11195373535156,79.20890808105469,3.78373607705884,2.7040384173309837,5.206767689418132,-19.754812,22.479137,22.89028,50.939564,-9.257663,0.7710984,-1.3068616,-13.076495,-13.44278,33.6995,-18.212955,5.0642138,-3.3114083,-6.803738,14.415778,11.560366,33.45629,-34.371655,8.805732,14.546104,2.018299,19.529366,4.0935745,-12.427489,16.938883,-4.118013,-27.787788,6.487013,-2.4686923
161,-95.4023208618164,-98.78445434570312,78.86264038085938,3.5991714454544943,2.4119955508404467,5.172776499298392,-19.83041,24.1437,23.209476,55.687096,-11.012371,2.4295115,-1.6061718,-12.385959,-13.778388,34.113503,-19.769396,4.6839933,-3.51458,-6.584309,15.006403,10.351902,33.678135,-34.834454,8.571266,14.874529,1.9664924,19.315193,4.627153,-12.657126,16.437672,-2.6869175,-27.600592,6.6309333,-2.969352
162,-96.11835479736328,-99.43978118896484,78.49991607666016,3.32104331413789,2.0727781531027967,5.057666163324614,-19.684572,25.843521,23.451988,60.372654,-12.603976,3.708034,-2.0482416,-11.560833,-13.863631,34.802826,-21.289759,4.264978,-3.7031684,-6.265151,15.638216,9.105114,33.8481,-35.255146,8.351872,15.341014,1.8817964,19.07659,5.1528697,-12.882984,15.939429,-1.1006043,-27.48847,6.788927,-3.5342908
163,-96.82721710205078,-100.08281707763672,78.12063598632812,3.015311919364733,1.7466828428899945,4.902339111447995,-19.3643,27.463762,23.671825,64.851395,-14.003878,4.8071537,-2.6323347,-10.694747,-13.816276,35.67345,-22.744728,3.8225915,-3.9091594,-5.9120073,16.248775,7.8437853,33.963444,-35.626514,8.120655,15.816837,1.7897009,18.84022,5.6727047,-13.10092,15.448859,0.6175382,-27.466356,6.9748197,-4.1383047
164,-97.53588104248047,-100.73075103759766,77.73204803466797,2.746419792367804,1.4944903955074857,4.746135650152951,-18.92493,28.888294,23.918606,68.97279,-15.176591,5.926836,-3.3524349,-9.885976,-13.753352,36.62779,-24.106234,3.3739398,-4.1648607,-5.5909963,16.774382,6.595565,34.020615,-35.93794,7.848898,16.174597,1.7169973,18.63157,6.1832504,-13.303644,14.972935,2.450315,-27.549625,7.2032657,-4.7560954
165,-98.23138427734375,-101.36016845703125,77.34478759765625,2.5331644458190485,1.3409314185607009,4.569676000428029,-18.381845,30.100697,24.22831,72.74792,-16.064285,7.139146,-4.2543635,-9.15879,-13.634004,37.70251,-25.388287,2.948852,-4.458982,-5.3231387,17.192116,5.3669677,34.0142,-36.17588,7.535357,16.349178,1.667649,18.44791,6.661769,-13.481867,14.517949,4.4802504,-27.868938,7.494179,-5.420254
166,-98.9190902709961,-101.98090362548828,76.9668197631836,2.3384215184638286,1.2495979541773918,4.360883564397551,-17.707754,31.153526,24.592138,76.26028,-16.694635,8.325408,-5.318035,-8.458886,-13.429621,38.927418,-26.599392,2.5349846,-4.7812943,-5.0711403,17.53559,4.1420064,33.942955,-36.34628,7.2033777,16.420341,1.6294415,18.27827,7.113246,-13.63367,14.081117,6.6959033,-28.375872,7.8405395,-6.1287704
167,-99.60661315917969,-102.57624053955078,76.60224151611328,2.146388809969173,1.1921078481202234,4.168923722652601,-16.904358,32.028805,24.986904,79.45624,-17.156946,9.400717,-6.441081,-7.7802672,-13.26731,40.1982,-27.708704,2.0853045,-5.1602254,-4.8176975,17.826174,2.9156435,33.81168,-36.47184,6.857375,16.477547,1.6059182,18.135368,7.577535,-13.767449,13.652297,8.93741,-28.815231,8.211269,-6.8064394
168,-100.28570556640625,-103.14966583251953,76.25360870361328,1.9423404658454695,1.1410603351270683,4.043976964715989,-15.983528,32.7069,25.382042,82.27997,-17.542183,10.278576,-7.521076,-7.121821,-13.270328,41.404507,-28.682882,1.5503685,-5.6243067,-4.544782,18.087101,1.6835643,33.629025,-36.57739,6.494639,16.608301,1.600179,18.032433,8.099738,-13.896137,13.220434,11.037816,-28.929876,8.567798,-7.381768
169,-100.95087432861328,-103.72381591796875,75.92281341552734,1.724022986834645,1.0985516313599035,3.9969122729416195,-14.956833,33.186474,25.780241,84.741844,-17.844763,10.976622,-8.578886,-6.5066605,-13.489233,42.60577,-29.508305,0.8926716,-6.1824594,-4.246702,18.329792,0.44883412,33.397644,-36.65277,6.099582,16.822586,1.6194221,17.982706,8.679674,-14.026508,12.7825365,12.998628,-28.565626,8.92097,-7.84891
170,-101.60009002685547,-104.27941131591797,75.60941314697266,1.5008799995320639,1.0772069556623638,4.001787212201349,-13.831803,33.470226,26.198828,86.867256,-18.017458,11.525299,-9.6455965,-5.9373507,-13.851516,43.820835,-30.205406,0.14350277,-6.818352,-3.933472,18.541857,-0.78347343,33.117466,-36.68969,5.670965,17.076466,1.6601224,17.97617,9.303846,-14.158421,12.344816,14.886458,-27.883175,9.277516,-8.245666
171,-102.24711608886719,-104.82642364501953,75.310302734375,1.2707556573277596,1.0672612612394834,4.0549294314435285,-12.63245,33.55103,26.613583,88.63843,-18.103096,11.854929,-10.649137,-5.381852,-14.292363,44.902493,-30.803568,-0.6414323,-7.5219855,-3.6060438,18.711836,-2.0149796,32.795376,-36.719185,5.2253304,17.37448,1.7091473,17.991041,9.997348,-14.294073,11.908636,16.633293,-27.098011,9.591131,-8.567096
172,-102.86763000488281,-105.37086486816406,75.04212951660156,1.0318092915483996,1.0588242021570775,4.15302261110094,-11.384074,33.42046,26.999065,90.03548,-18.142492,11.894629,-11.519877,-4.8045626,-14.747095,45.702435,-31.32746,-1.4030155,-8.2807045,-3.2657576,18.829012,-3.2451031,32.442028,-36.774708,4.7735877,17.721096,1.7534466,18.006481,10.788344,-14.436021,11.472737,18.165838,-26.42669,9.818781,-8.80375
173,-103.47400665283203,-105.90254974365234,74.79560852050781,0.7733398118401699,1.0355553075949855,4.303966648110779,-10.078456,33.05866,27.328358,91.044334,-18.169184,11.60456,-12.204613,-4.182203,-15.221835,46.15158,-31.794334,-2.1329803,-9.100177,-2.9005475,18.910746,-4.457001,32.05987,-36.83901,4.2863455,18.145195,1.7873958,18.010471,11.699465,-14.584846,11.024766,19.448786,-25.832712,9.938245,-8.938209
174,-104.07215118408203,-106.42134857177734,74.57679748535156,0.5009891715328068,1.008806194270328,4.50737289327652,-8.726722,32.47482,27.615562,91.67988,-18.153378,11.031605,-12.7525425,-3.537628,-15.742067,46.33634,-32.186893,-2.8581507,-9.983756,-2.515974,18.95753,-5.6510267,31.649128,-36.90303,3.760955,18.633217,1.8190639,18.01681,12.71061,-14.738358,10.57137,20.527939,-25.232994,9.977906,-8.977578
175,-104.65397644042969,-106.92742919921875,74.38893127441406,0.2384832720024045,1.0099065020110647,4.746916631230534,-7.3836117,31.706755,27.895767,91.96692,-18.046919,10.236591,-13.248908,-2.9022233,-16.273367,46.34254,-32.475967,-3.5701625,-10.912148,-2.138703,18.9334,-6.853905,31.22052,-37.01462,3.2465603,19.123186,1.8561708,18.043526,13.784832,-14.893227,10.137155,21.450502,-24.77457,9.972648,-8.947139
176,-105.22909545898438,-107.4227066040039,74.23078155517578,0.008962450706160165,1.0698647842507856,5.006128848184892,-6.102861,30.79244,28.201479,91.92992,-17.800337,9.277894,-13.778978,-2.308539,-16.78396,46.257694,-32.633022,-4.261879,-11.862819,-1.794189,18.802341,-8.09146,30.791706,-37.223347,2.7852886,19.550407,1.9071114,18.108973,14.886489,-15.044859,9.741884,22.26022,-24.60585,9.956282,-8.87303
177,-105.78414154052734,-107.92134094238281,74.1123046875,-0.1855610175128141,1.2162863887480126,5.295357429619452,-4.912695,29.718376,28.531683,91.55203,-17.422731,8.119724,-14.368397,-1.7589012,-17.276524,46.072784,-32.66806,-4.9365935,-12.849259,-1.4788046,18.527668,-9.365664,30.377056,-37.553528,2.3569632,19.875631,1.9904841,18.247238,16.022102,-15.189992,9.397794,22.953093,-24.884258,9.924207,-8.7497225
178,-106.34099578857422,-108.41551208496094,74.02770233154297,-0.35528731279296283,1.4266370247970266,5.617947096006049,-3.7901704,28.477833,28.858843,90.82646,-16.939777,6.7515087,-14.967368,-1.235084,-17.76897,45.74778,-32.58947,-5.5958123,-13.872522,-1.1803296,18.140356,-10.651134,29.98138,-37.973392,1.9269941,20.136904,2.0977669,18.439327,17.199745,-15.325042,9.090559,23.513887,-25.493519,9.860134,-8.568002
179,-106.89888000488281,-108.90386199951172,73.98151397705078,-0.49620095080961923,1.6565360691634679,5.947888058931176,-2.7096574,27.116179,29.175352,89.79071,-16.326183,5.2674017,-15.553149,-0.7440419,-18.25435,45.33144,-32.36739,-6.231473,-14.893361,-0.9116178,17.703836,-11.9323635,29.608425,-38.44649,1.5165479,20.385754,2.1961792,18.623524,18.388206,-15.442954,8.802634,23.962292,-26.169611,9.783005,-8.347746
180,-107.4538345336914,-109.39127349853516,73.97762298583984,-0.604512506106659,1.8613572335080637,6.259116107733315,-1.6425265,25.676281,29.473316,88.48131,-15.5521755,3.758214,-16.104528,-0.2966348,-18.723948,44.872425,-31.96948,-6.8364573,-15.872123,-0.6903158,17.280018,-13.19867,29.261396,-38.939056,1.150125,20.672647,2.2528055,18.738333,19.555508,-15.537006,8.5146055,24.320312,-26.650747,9.713126,-8.108248
181,-108.01988983154297,-109.8810806274414,74.01250457763672,-0.6839784230769641,2.037954336112891,6.549801452754146,-0.55574745,24.187502,29.79385,86.88802,-14.563869,2.2290971,-16.632483,0.094421096,-19.18685,44.39233,-31.381159,-7.412718,-16.80868,-0.5178802,16.871075,-14.468624,28.945814,-39.460854,0.8317166,21.006998,2.242926,18.75909,20.708723,-15.606331,8.226578,24.564013,-26.92129,9.66449,-7.8296795
182,-108.57379150390625,-110.3653335571289,74.09236145019531,-0.739359319408221,2.207521544406763,6.832932493491868,0.5204871,22.623684,30.103453,85.00187,-13.400355,0.63237536,-17.148932,0.437953,-19.648466,43.869038,-30.621502,-7.9652405,-17.72093,-0.3843029,16.4491,-15.7375555,28.664728,-40.025036,0.53946555,21.361393,2.1888368,18.722122,21.85656,-15.651624,7.94771,24.692322,-27.104725,9.623305,-7.5102057
183,-109.1244125366211,-110.85275268554688,74.21737670898438,-0.7623342941504445,2.360944468582163,7.104849019670155,1.5378171,20.939018,30.296051,82.84825,-12.167869,-1.0157195,-17.630878,0.74559706,-20.086878,43.279297,-29.704853,-8.488588,-18.598444,-0.29875922,16.027767,-16.960442,28.415428,-40.602333,0.26202086,21.73552,2.1276047,18.65686,22.970667,-15.66779,7.67296,24.761095,-27.148668,9.5706415,-7.1953793
184,-109.67618560791016,-111.33320617675781,74.38571166992188,-0.7458661907813083,2.4886521387958807,7.36009436885294,2.4599555,19.098242,30.275263,80.453094,-10.974671,-2.6936326,-18.056282,1.0289348,-20.477186,42.60018,-28.644419,-8.976556,-19.429628,-0.27048725,15.61987,-18.093756,28.192217,-41.16336,-0.0071996343,22.132986,2.0964935,18.59169,24.021486,-15.648226,7.3964815,24.828363,-27.001762,9.488523,-6.9312673
185,-110.23477172851562,-111.8148193359375,74.58961486816406,-0.678898910938452,2.5691317885635523,7.603180432470044,3.3379521,17.070374,30.034597,77.77275,-9.7933,-4.4442234,-18.378325,1.274727,-20.801771,41.79004,-27.45003,-9.414759,-20.220034,-0.3218315,15.232592,-19.150019,27.993452,-41.717625,-0.24915096,22.579191,2.1082458,18.524721,25.013447,-15.591656,7.117797,24.888988,-26.567823,9.36559,-6.734832
186,-110.8033447265625,-112.29498291015625,74.82890319824219,-0.5713974889757893,2.612607555366748,7.833136285738791,4.203946,14.900426,29.615387,74.80503,-8.598812,-6.250706,-18.624094,1.476546,-21.071276,40.876835,-26.111513,-9.80803,-20.97113,-0.44001275,14.85668,-20.148863,27.818855,-42.2787,-0.4636586,23.066404,2.141678,18.443193,25.956926,-15.499454,6.837049,24.918903,-25.903416,9.215274,-6.578855
187,-111.38021850585938,-112.78084564208984,75.09806823730469,-0.45014671418115976,2.6559142415900747,8.036418973591148,5.0100403,12.678688,29.012362,71.63277,-7.5002937,-7.992581,-18.878485,1.6599656,-21.304806,39.9353,-24.60723,-10.178769,-21.662397,-0.57841235,14.481826,-21.06905,27.664793,-42.825077,-0.67383444,23.543884,2.1838481,18.358458,26.835348,-15.369147,6.5470166,24.94718,-25.186697,9.05575,-6.4438677
188,-111.96647644042969,-113.26734161376953,75.3935546875,-0.34144472563125217,2.7360439797305554,8.199233604852585,5.7085967,10.4961605,28.23208,68.34001,-6.595536,-9.549171,-19.225546,1.8516339,-21.524702,39.03531,-22.911678,-10.54774,-22.272306,-0.69179106,14.1000185,-21.88467,27.52563,-43.333202,-0.902807,23.967278,2.2221699,18.282383,27.630964,-15.197164,6.241127,25.004173,-24.596214,8.904832,-6.31211
189,-112.56639862060547,-113.7451171875,75.70582580566406,-0.2314340891905002,2.855680980278916,8.32337198429711,6.3080215,8.290223,27.240503,64.8658,-5.9532056,-10.905337,-19.673523,2.0333672,-21.715696,38.184093,-21.015434,-10.927649,-22.799042,-0.7893507,13.697947,-22.60149,27.398067,-43.81357,-1.1381896,24.341042,2.2606618,18.230389,28.35324,-14.980024,5.90859,25.086912,-24.179504,8.761936,-6.177722
190,-113.18526458740234,-114.23646545410156,76.04067993164062,-0.117999303231939,2.9960269629177163,8.412034414106452,6.871194,6.0675297,26.060076,61.183403,-5.4979177,-12.097364,-20.177029,2.1995814,-21.872728,37.34138,-18.9276,-11.29698,-23.246433,-0.8847264,13.28766,-23.239498,27.281542,-44.277546,-1.3628626,24.683575,2.3038175,18.191553,29.00945,-14.717199,5.5520096,25.181683,-23.843184,8.618494,-6.0514603
191,-113.82107543945312,-114.73107147216797,76.3893051147461,-0.039982552937405644,3.1631854061100078,8.455720809812798,7.4085035,3.9986129,24.7865,57.432064,-5.0972853,-13.102698,-20.743917,2.3923864,-22.033998,36.50791,-16.64919,-11.623179,-23.60358,-0.943626,12.898759,-23.79242,27.174889,-44.702484,-1.5931633,24.975277,2.3399358,18.138487,29.576483,-14.412653,5.184146,25.303965,-23.552553,8.48132,-5.941782
192,-114.47857666015625,-115.22566223144531,76.74139404296875,-0.032186063017507524,3.364221050478258,8.446695205204957,7.903554,2.2277074,23.514862,53.753292,-4.611227,-13.924029,-21.385962,2.650828,-22.236095,35.683743,-14.179952,-11.87316,-23.865343,-0.933703,12.557764,-24.253403,27.078472,-45.061874,-1.8463885,25.192778,2.35647,18.043406,30.031569,-14.072152,4.8222384,25.469223,-23.270266,8.356768,-5.8572392
193,-115.15435028076172,-115.72241973876953,77.09298706054688,-0.07232366314059015,3.628050256678666,8.408730504720786,8.305922,0.6769737,22.213501,50.070995,-3.9767997,-14.687174,-22.186443,2.9125366,-22.544943,34.96726,-11.494516,-12.183014,-24.05428,-0.8594067,12.234247,-24.616722,26.993448,-45.34225,-2.11893,25.328157,2.3253765,17.896603,30.379478,-13.698375,4.4543552,25.678593,-22.991762,8.233974,-5.81078
194,-115.8533935546875,-116.22236633300781,77.43975830078125,-0.10714497621333227,3.9576366340646048,8.358091087662496,8.632504,-0.7567005,20.947397,46.29539,-3.2274163,-15.000033,-23.163002,3.0985134,-22.912228,34.39073,-8.624445,-12.495853,-24.187752,-0.76466644,11.898015,-24.884857,26.920992,-45.55566,-2.4064121,25.395874,2.2615004,17.713865,30.628977,-13.292553,4.076843,25.922453,-22.733809,8.113255,-5.7944818
195,-116.56999206542969,-116.72503662109375,77.77699279785156,-0.22674381781317693,4.283843206102316,8.22869264336952,8.937195,-1.9268829,19.73849,42.62869,-2.4241357,-15.000033,-24.111727,3.4100287,-23.210419,33.66961,-5.5822845,-12.518384,-24.20606,-0.60954016,11.644827,-25.069294,26.862696,-45.716187,-2.7246294,25.401741,2.2170455,17.50476,30.76231,-12.863706,3.713077,26.200544,-22.491076,8.018813,-5.784947
196,-117.30109405517578,-117.23802185058594,78.09193420410156,-0.44223219604459485,4.56648401142922,7.9948776470504725,9.22732,-2.7538283,18.59739,39.273033,-1.6186512,-15.000033,-24.901892,3.9525218,-23.27234,32.620678,-2.4432607,-11.939351,-24.094696,-0.413691,11.510089,-25.181309,26.821877,-45.835705,-3.0891197,25.349327,2.2438972,17.279097,30.762426,-12.425519,3.3880203,26.512217,-22.256914,7.975074,-5.7587614
197,-118.0439682006836,-117.77655029296875,78.3863754272461,-0.7535952801704364,4.808152599974633,7.6427116538544855,9.421793,-3.228764,17.506208,36.279205,-0.695852,-15.000033,-25.543524,4.7969646,-23.043213,31.18617,0.91959155,-10.774181,-23.84312,-0.17724547,11.501401,-25.201399,26.800514,-45.890133,-3.538725,25.244455,2.3883224,16.989391,30.607067,-11.98374,3.102386,26.873945,-21.984324,7.999728,-5.7077827
198,-118.80086517333984,-118.29672241210938,78.65337371826172,-1.0425209068755574,5.055514924549309,7.236640150213712,9.498353,-3.5357165,16.711512,33.48356,0.35554397,-13.94798,-26.189573,5.7283993,-22.514109,29.60811,4.397124,-9.089769,-23.512857,0.02850214,11.531537,-25.123981,26.801458,-45.875233,-4.0607595,25.085243,2.6123588,16.64715,30.31011,-11.539803,2.8462822,27.280504,-21.688469,8.076122,-5.6454997
199,-119.56938171386719,-118.82555389404297,78.89361572265625,-1.258786666442341,5.2927749142535,6.817271981729651,9.537959,-3.7561517,16.209805,30.905993,1.2420688,-12.51915,-26.78016,6.6437387,-21.61256,27.952675,7.6325107,-6.711028,-23.155691,0.14917721,11.565517,-24.97412,26.830408,-45.827396,-4.597489,24.866467,2.84133,16.351,29.90763,-11.099029,2.635431,27.697704,-21.45305,8.177701,-5.580758
200,-120.35221099853516,-119.35649108886719,79.09309387207031,-1.4647125501931662,5.4668996741707065,6.3823555025646295,9.643634,-3.820975,16.063812,28.653652,1.6138289,-11.007884,-27.123665,7.6048365,-20.32508,26.098192,10.369643,-3.5188568,-22.77714,0.2196735,11.64891,-24.776672,26.894587,-45.783485,-5.0932417,24.580185,2.9999812,16.198866,29.4356,-10.669288,2.484554,28.092505,-21.362219,8.276939,-5.521864
201,-121.14779663085938,-119.90534210205078,79.23117065429688,-1.636587077052258,5.569918645256536,5.946868066811747,9.854798,-3.697198,16.351126,26.746233,1.3094021,-9.333682,-27.038015,8.678052,-18.45077,23.673077,12.725521,1.2550385,-22.394825,0.21103719,11.784863,-24.53261,27.0035,-45.75241,-5.5678787,24.189644,3.0714357,16.252913,28.8827,-10.251319,2.4129705,28.479303,-21.467442,8.382021,-5.4679203
202,-121.93376922607422,-120.44669342041016,79.30072784423828,-1.74741405463546,5.6084758437290425,5.507508974104725,10.135752,-3.473892,16.974623,25.085672,0.5135641,-7.4737086,-26.609724,9.78301,-16.07067,20.887093,14.702502,7.2587824,-22.003347,0.10421924,11.967507,-24.222456,27.163433,-45.71027,-6.0521665,23.705873,3.0928333,16.447744,28.238066,-9.842852,2.4123776,28.86783,-21.713135,8.502082,-5.4149485
203,-122.71194458007812,-120.98928833007812,79.31724548339844,-1.8384858273653022,5.592586315641432,5.045070650635388,10.435169,-3.234205,17.755169,23.61527,-0.55631554,-5.7035737,-26.197224,10.701143,-13.705445,18.651863,15.904199,12.883351,-21.588717,-0.04669714,12.188028,-23.829071,27.370773,-45.639763,-6.508553,23.205645,3.0702085,16.691982,27.532871,-9.45054,2.4572086,29.21594,-22.022152,8.613908,-5.364992
204,-123.48687744140625,-121.55901336669922,79.28118896484375,-2.0763966204614888,5.540581391835208,4.465744886568953,10.592116,-2.8252363,18.588457,22.558327,-1.7928802,-4.3062267,-26.04037,11.411555,-12.412976,17.492674,16.249537,15.000033,-21.067774,-0.08183812,12.463717,-23.339924,27.614677,-45.524364,-6.8891926,22.763859,3.0107472,16.893724,26.79982,-9.083737,2.524147,29.483387,-22.31457,8.694391,-5.3209214
205,-124.24617767333984,-122.12796020507812,79.1897201538086,-2.4432020820253966,5.453818738363619,3.7874323013229443,10.652097,-2.2568035,19.512646,21.831387,-3.047427,-3.205209,-26.41464,11.881216,-11.662665,17.907387,15.373435,15.000033,-20.459658,0.0061693005,12.779389,-22.74767,27.884344,-45.362343,-7.1783476,22.3852,2.8663566,17.050152,26.040304,-8.754925,2.6107712,29.663233,-22.616962,8.725361,-5.2675223
206,-125.00494384765625,-122.66777801513672,79.0602798461914,-2.7843464768981128,5.341284460186785,3.1062515010761906,10.723966,-1.691872,20.521687,21.197542,-4.2950783,-2.224498,-27.301035,12.065841,-10.770959,19.755524,13.337784,15.000033,-19.858337,0.09227427,13.0933,-22.065092,28.171167,-45.155422,-7.390022,22.036009,2.6491888,17.204317,25.225706,-8.469383,2.727707,29.786592,-22.951632,8.722088,-5.2066975
207,-125.77154541015625,-123.18962860107422,78.89791107177734,-3.077343525684595,5.211193680389567,2.435443147344073,10.740587,-1.1531662,21.479069,20.736187,-5.629361,-1.456098,-28.447311,12.040769,-9.91956,22.465635,10.821528,15.000033,-19.271202,0.15130661,13.406446,-21.307837,28.465508,-44.897816,-7.5207343,21.73798,2.4593925,17.333687,24.351711,-8.221094,2.8696234,29.86372,-23.234158,8.712238,-5.168175
208,-126.54232788085938,-123.75119018554688,78.70208740234375,-3.406095879708761,5.049439164498822,1.7473747750591095,10.572084,-0.48133457,22.27356,20.751675,-7.2602267,-1.0317572,-29.499838,11.961644,-9.580635,25.31101,8.601424,14.101939,-18.661161,0.23930311,13.768401,-20.49099,28.757547,-44.58792,-7.5653844,21.514338,2.3972232,17.416332,23.417532,-7.9947557,3.0309694,29.903492,-23.381428,8.724192,-5.1828637
209,-127.30831146240234,-124.30535888671875,78.4765625,-3.6844745565035755,4.856718351948708,1.0907761758925747,10.282315,0.18986842,22.808865,21.070312,-9.148362,-0.98367953,-30.57655,11.682526,-9.581377,28.591461,6.622235,13.069588,-18.074131,0.2770181,14.160965,-19.619726,29.037073,-44.22783,-7.516697,21.409922,2.518136,17.434095,22.4079,-7.782341,3.2034066,29.895395,-23.337286,8.76816,-5.2388253
210,-128.08465576171875,-124.85718536376953,78.21615600585938,-3.9002910011432417,4.624278849231623,0.4583020048176087,9.917581,0.8552212,23.177565,21.651077,-11.226965,-1.2091063,-31.705555,11.149868,-9.79202,32.389046,4.611904,11.827999,-17.497416,0.2526911,14.580503,-18.697638,29.29732,-43.830566,-7.361612,21.399471,2.7599268,17.402267,21.340929,-7.5824,3.3867385,29.83157,-23.159838,8.828519,-5.3272157
211,-128.85794067382812,-125.39276885986328,77.92420196533203,-4.034062862356709,4.370603007060679,-0.10858327498835091,9.474547,1.4805279,23.4336,22.445028,-13.359986,-1.5413892,-32.80123,10.4049,-10.001814,36.414707,2.6329377,10.511927,-16.9574,0.16977657,15.014679,-17.748446,29.528208,-43.40943,-7.088946,21.398909,3.0465786,17.35622,20.232733,-7.393493,3.5732915,29.744154,-22.942137,8.892678,-5.4811435
212,-129.62278747558594,-125.90997314453125,77.60675811767578,-4.083411963955583,4.119387520670469,-0.5742844619677465,8.936796,2.0557616,23.62487,23.41472,-15.412818,-1.8383641,-33.80528,9.533026,-10.027161,40.408283,0.75017035,9.268887,-16.4745,0.048330974,15.449397,-16.802387,29.716625,-42.980946,-6.6808996,21.32297,3.3022141,17.332573,19.09811,-7.2143655,3.755322,29.667044,-22.777107,8.948097,-5.733261
213,-130.3830108642578,-126.40836334228516,77.27215576171875,-4.041196430871088,3.879986167231538,-0.9196968349978059,8.243143,2.5882955,23.71444,24.646513,-17.383617,-2.118417,-34.76079,8.549692,-9.8439665,44.42991,-1.0398122,8.090179,-16.063673,-0.11253224,15.886913,-15.875698,29.848028,-42.549793,-6.11922,21.188673,3.5400484,17.337318,17.919165,-7.042397,3.9298072,29.6304,-22.650572,8.969397,-6.1604533
214,-131.14195251464844,-126.8860092163086,76.92342376708984,-3.916055165971521,3.6402145821938516,-1.1705291996107057,7.4160542,3.0807996,23.69505,26.131126,-19.339687,-2.4501781,-35.67449,7.43944,-9.542178,48.558125,-2.7453308,6.9163685,-15.701136,-0.31769508,16.330566,-14.968977,29.912758,-42.122387,-5.3920975,21.027924,3.7891624,17.352364,16.6988,-6.8752475,4.0972986,29.610235,-22.526215,8.970138,-6.7224517
215,-131.88975524902344,-127.36466217041016,76.5666732788086,-3.7424748853158145,3.395725811025092,-1.3611479000562925,6.5527024,3.5432389,23.650957,27.703133,-21.246305,-2.7801096,-36.46312,6.2621145,-9.139578,52.600887,-4.323848,5.8280005,-15.34573,-0.5418901,16.766705,-14.083024,29.906023,-41.717384,-4.4970236,20.78445,3.9973757,17.377937,15.479378,-6.7155895,4.2548733,29.561937,-22.465141,8.997617,-7.276534
216,-132.6177978515625,-127.8389892578125,76.20419311523438,-3.560213619780996,3.143283702820717,-1.5261321454149297,5.7531605,3.993885,23.663868,29.189665,-23.067848,-3.0517485,-37.05857,5.0661364,-8.664665,56.390602,-5.743588,4.8998322,-14.959435,-0.7520122,17.181252,-13.2150345,29.827162,-41.348465,-3.4354668,20.40103,4.112182,17.414434,14.302045,-6.5674562,4.402807,29.442163,-22.526308,9.100503,-7.679755
217,-133.32626342773438,-128.29690551757812,75.84011840820312,-3.390390465389209,2.8929600734567655,-1.6579427027089586,5.0018954,4.4731574,23.754831,30.615952,-24.827122,-3.255237,-37.472763,3.8639617,-8.13028,59.941013,-6.9880333,4.222821,-14.55117,-0.91880864,17.571281,-12.378807,29.673424,-41.032707,-2.1305828,19.736156,4.0673428,17.507874,13.163228,-6.4279814,4.531787,29.271803,-22.7309,9.321393,-7.912562
218,-134.00010681152344,-128.76434326171875,75.47792053222656,-3.2168469336852037,2.6450173461230406,-1.7454011997846772,4.258218,4.9719186,23.875612,32.047806,-26.533304,-3.4203036,-37.748814,2.6270459,-7.53984,63.35047,-8.087761,3.731617,-14.131228,-1.057856,17.940037,-11.57676,29.441576,-40.76361,-0.59991515,18.864128,3.9065888,17.640108,12.045619,-6.2944026,4.6463284,29.067,-23.045956,9.625405,-8.043676
219,-134.6492156982422,-129.24130249023438,75.12049102783203,-3.023276135293237,2.382121766022875,-1.8180280170258563,3.5738654,5.4487753,24.01307,33.4055,-28.138771,-3.5616841,-37.87548,1.3292269,-6.9063015,66.58801,-9.092891,3.2600806,-13.668775,-1.2023349,18.282795,-10.78391,29.136166,-40.51306,1.0073023,18.049786,3.744655,17.717155,10.968131,-6.1773005,4.7690964,28.777252,-23.449135,9.944336,-8.0627
220,-135.27366638183594,-129.71688842773438,74.7728500366211,-2.792062694368547,2.0867488527889857,-1.9052303716067895,3.001066,5.858061,24.15628,34.607548,-29.594631,-3.6918123,-37.843475,-0.058135185,-6.2359366,69.61612,-10.053464,2.6417294,-13.141392,-1.383008,18.597965,-9.962845,28.768291,-40.242046,2.5285861,17.554638,3.6991334,17.649984,9.948019,-6.0940104,4.9287033,28.349926,-23.913734,10.209171,-7.959487
221,-135.87744140625,-130.19264221191406,74.44288635253906,-2.5222550458561446,1.7430626290619384,-2.011398939826785,2.5827084,6.1859326,24.311216,35.601307,-30.913387,-3.8049965,-37.641735,-1.5592399,-5.52802,72.46455,-10.956044,1.8306861,-12.551338,-1.601573,18.899529,-9.094688,28.34184,-39.929813,3.9596179,17.516169,3.8361332,17.362986,8.989137,-6.0619893,5.140594,27.759125,-24.465979,10.422368,-7.6772995
222,-136.46017456054688,-130.671142578125,74.12997436523438,-2.2226001143579848,1.3643193971062677,-2.1222296680115176,2.2810133,6.4591694,24.482422,36.440758,-32.11318,-3.8986475,-37.293457,-3.1672597,-4.7802997,75.14717,-11.792312,0.9139699,-11.921082,-1.8361332,19.18654,-8.183161,27.859276,-39.58523,5.352723,17.771717,4.0798745,16.921139,8.0808325,-6.0831265,5.3986363,27.033585,-25.102043,10.609518,-7.237402
223,-137.03323364257812,-131.14666748046875,73.838134765625,-1.8899318839594073,0.9776187762715678,-2.239445521248003,2.0276365,6.691518,24.658257,37.202724,-33.151436,-3.9898846,-36.84151,-4.857903,-3.991873,77.59777,-12.619093,-0.066847354,-11.256811,-2.0864701,19.438301,-7.222549,27.3363,-39.214584,6.626029,18.131845,4.337041,16.449926,7.218853,-6.150653,5.69435,26.201082,-25.753204,10.738322,-6.748971
224,-137.57806396484375,-131.6234588623047,73.58134460449219,-1.5216969325350984,0.6098799237960182,-2.365438208740425,1.7544917,6.8979244,24.82738,37.965252,-33.98499,-4.0929823,-36.329502,-6.5989175,-3.163575,79.75177,-13.490461,-1.065324,-10.564838,-2.3550358,19.636389,-6.2006645,26.800047,-38.821014,7.685903,18.40403,4.5184083,16.077492,6.3952622,-6.2531323,6.02031,25.293562,-26.351032,10.778744,-6.323634
225,-138.10557556152344,-132.1132354736328,73.35610961914062,-1.0888299996942996,0.24711469525054947,-2.5057473223528883,1.4682986,7.04559,25.001745,38.75154,-34.59743,-4.1874847,-35.750366,-8.408162,-2.2544873,81.62703,-14.441763,-2.0843115,-9.835153,-2.6832058,19.795584,-5.0825605,26.272696,-38.36976,8.43863,18.601377,4.606596,15.791938,5.599903,-6.387771,6.397314,24.318314,-26.83762,10.665138,-6.0122375
226,-138.62606811523438,-132.61956787109375,73.16922760009766,-0.6033306310346803,-0.11772770719084984,-2.6588685549344167,1.1974311,7.1424136,25.182137,39.522106,-35.015377,-4.269534,-35.10377,-10.290515,-1.2806209,83.25229,-15.438584,-3.1318808,-9.074031,-3.0605986,19.927862,-3.8595989,25.7662,-37.860466,8.917419,18.800951,4.64823,15.540348,4.8339496,-6.556866,6.828711,23.259138,-27.26262,10.434714,-5.751115
227,-139.13917541503906,-133.13528442382812,73.01947784423828,-0.12490089040678284,-0.4474572803763204,-2.8161630681261522,0.90709627,7.2621293,25.343271,40.256077,-35.25804,-4.3792458,-34.434513,-12.185386,-0.33447516,84.57758,-16.4353,-4.1684694,-8.310377,-3.4124777,20.010092,-2.5626175,25.293081,-37.350452,9.219662,18.901852,4.6545186,15.392543,4.1096745,-6.749442,7.2795,22.1072,-27.718315,10.213251,-5.4793057
228,-139.62142944335938,-133.66514587402344,72.9132080078125,0.2858380423386093,-0.7051881442221246,-2.967941833369379,0.5607504,7.475741,25.461527,40.93071,-35.34139,-4.5595837,-33.78017,-14.028136,0.48581496,85.56064,-17.383615,-5.1580744,-7.5664577,-3.668964,20.014841,-1.2320547,24.865057,-36.902462,9.452868,18.803453,4.63769,15.419404,3.442856,-6.947418,7.7065816,20.849522,-28.303913,10.126576,-5.1329756
229,-140.08648681640625,-134.2111053466797,72.84918975830078,0.6071892983125896,-0.8818463807578955,-3.1213940657795614,0.11780379,7.825968,25.529036,41.620937,-35.260128,-4.838526,-33.137627,-15.785855,1.1694021,86.19927,-18.309486,-6.069367,-6.830957,-3.809709,19.924768,0.14099014,24.493912,-36.539803,9.596123,18.382368,4.5845757,15.691363,2.8448913,-7.137147,8.08437,19.443031,-29.1154,10.243316,-4.644137
230,-140.5360107421875,-134.77349853515625,72.82954406738281,0.8706818890758318,-0.9968460553326424,-3.2780191362156272,-0.3924957,8.265481,25.558384,42.30918,-35.0068,-5.1900935,-32.4862,-17.484533,1.7483068,86.5238,-19.224857,-6.921239,-6.0924973,-3.881403,19.756706,1.5741132,24.185448,-36.22612,9.598463,17.722025,4.4910245,16.153257,2.305634,-7.316201,8.433285,17.905087,-30.088072,10.4787445,-4.0578375
231,-140.9776611328125,-135.35716247558594,72.8546371459961,1.0954868287332646,-1.0565989787252799,-3.4190626172622904,-0.9018913,8.728178,25.557346,42.832317,-34.595577,-5.5815415,-31.827105,-19.1496,2.1849322,86.543846,-20.063921,-7.755759,-5.3738422,-3.9149852,19.531538,3.0360777,23.93756,-35.933075,9.528963,17.03212,4.384466,16.687838,1.8055044,-7.4857454,8.779036,16.317764,-31.078339,10.729605,-3.482494
232,-141.39578247070312,-135.95814514160156,72.92837524414062,1.3014790845486393,-1.0676704534531136,-3.525607252507066,-1.3434702,9.149386,25.53428,43.03037,-34.039402,-5.978724,-31.156982,-20.804613,2.4384153,86.26945,-20.760563,-8.618433,-4.6958823,-3.9379914,19.270346,4.488972,23.741047,-35.637154,9.465776,16.5213,4.2982745,17.17957,1.3270353,-7.6465383,9.146267,14.762623,-31.937328,10.899266,-3.0321536
233,-141.79580688476562,-136.57704162597656,73.05064392089844,1.4879846368833942,-1.0212875260672303,-3.608519791944623,-1.7099822,9.531729,25.493309,42.875023,-33.357296,-6.3797565,-30.483177,-22.498226,2.457679,85.70002,-21.300896,-9.583623,-4.047652,-3.9428737,18.961838,5.9321613,23.588379,-35.347427,9.422767,16.274256,4.2482862,17.631264,0.8723051,-7.804789,9.533609,13.221584,-32.658974,10.990761,-2.7279317
234,-142.19715881347656,-137.20155334472656,73.2159194946289,1.6457944505399218,-0.9173434850850671,-3.672387975262307,-2.0337079,9.90826,25.422525,42.449047,-32.5401,-6.80173,-29.786951,-24.193039,2.257112,84.84409,-21.724295,-10.601395,-3.4235022,-3.9186885,18.598042,7.3771305,23.4766,-35.06948,9.370234,16.171015,4.2169175,18.093906,0.44963932,-7.962172,9.929508,11.662179,-33.308167,11.050901,-2.5144088
235,-142.58477783203125,-137.8414306640625,73.42919921875,1.7820893470181904,-0.7749251809122899,-3.689211420359102,-2.3074398,10.260305,25.309025,41.758606,-31.569195,-7.2422667,-29.022562,-25.787098,1.892863,83.7208,-22.048435,-11.537135,-2.8503747,-3.8896346,18.205069,8.801201,23.401548,-34.778633,9.327698,16.11424,4.1917105,18.525116,0.047304142,-8.112365,10.340895,10.150433,-33.84173,11.053504,-2.3956373
236,-142.97613525390625,-138.49977111816406,73.68181610107422,1.9046510103510443,-0.613740074471904,-3.6309676994006157,-2.5245106,10.564728,25.140274,40.807972,-30.422054,-7.6971765,-28.144316,-27.185839,1.4246826,82.341286,-22.285864,-12.260993,-2.3565826,-3.8796258,17.809284,10.181525,23.35891,-34.449703,9.316523,16.007383,4.158704,18.881664,-0.34821394,-8.24297,10.777203,8.7562065,-34.217335,10.972809,-2.3771067
237,-143.3375244140625,-139.1873779296875,73.98756408691406,2.0302858377194877,-0.43826008399390814,-3.494920210629092,-2.6590245,10.788746,24.912651,39.548454,-29.09118,-8.165987,-27.138132,-28.46334,0.80268526,80.682274,-22.47751,-12.854241,-1.949387,-3.9080873,17.411732,11.532886,23.346245,-34.05991,9.350473,15.863893,4.105072,19.147297,-0.7521902,-8.347215,11.256419,7.505556,-34.398754,10.788405,-2.5132842
238,-143.69923400878906,-139.8939208984375,74.328857421875,2.151809175722859,-0.23814647520103407,-3.294680994482635,-2.722697,10.956844,24.624744,37.996826,-27.593588,-8.647551,-26.017494,-29.63328,0.007090389,78.757065,-22.605095,-13.349518,-1.6150293,-3.960062,16.999012,12.859966,23.363153,-33.624844,9.421796,15.724107,4.0418606,19.345955,-1.1573199,-8.424646,11.769957,6.3658857,-34.42113,10.520394,-2.7854915
239,-144.068603515625,-140.63140869140625,74.69581604003906,2.2411605267693626,-0.010395840205956134,-3.0259644184236714,-2.7654607,11.1254425,24.267992,36.250397,-25.93668,-9.136658,-24.796894,-30.525084,-0.83620995,76.634,-22.572493,-13.552878,-1.3473946,-4.009336,16.575493,14.121046,23.409498,-33.17853,9.523425,15.532637,3.990067,19.496223,-1.5473,-8.475951,12.282199,5.3250866,-34.353443,10.202305,-3.0878463
240,-144.43017578125,-141.38967895507812,75.08818817138672,2.2708827362004937,0.2474304285969951,-2.6840394128364324,-2.8386679,11.346496,23.833548,34.406624,-24.126299,-9.629304,-23.500399,-30.979052,-1.5857877,74.372444,-22.281256,-13.283308,-1.1254354,-4.0255747,16.144552,15.24724,23.47662,-32.77658,9.674507,15.233117,3.9714665,19.620693,-1.8975632,-8.50007,12.738189,4.3680687,-34.26722,9.865278,-3.3110397
