unveil-humanoid-operators/unveil-humanoid-operators.github.io/feature-analysis-animation/data/feature_matrix_instances/age_ankle_rom_jogging_A269_jog_ff_loop_180_R_006__A269.csv
Frame,root_translateX,root_translateY,root_translateZ,root_rotateX,root_rotateY,root_rotateZ,left_hip_pitch_joint_dof,left_hip_roll_joint_dof,left_hip_yaw_joint_dof,left_knee_joint_dof,left_ankle_pitch_joint_dof,left_ankle_roll_joint_dof,right_hip_pitch_joint_dof,right_hip_roll_joint_dof,right_hip_yaw_joint_dof,right_knee_joint_dof,right_ankle_pitch_joint_dof,right_ankle_roll_joint_dof,waist_yaw_joint_dof,waist_roll_joint_dof,waist_pitch_joint_dof,left_shoulder_pitch_joint_dof,left_shoulder_roll_joint_dof,left_shoulder_yaw_joint_dof,left_elbow_joint_dof,left_wrist_roll_joint_dof,left_wrist_pitch_joint_dof,left_wrist_yaw_joint_dof,right_shoulder_pitch_joint_dof,right_shoulder_roll_joint_dof,right_shoulder_yaw_joint_dof,right_elbow_joint_dof,right_wrist_roll_joint_dof,right_wrist_pitch_joint_dof,right_wrist_yaw_joint_dof
0,0.20956027507781982,2.4886586666107178,78.22708129882812,-0.877816917334766,-2.4866963412976255,-91.77714001442645,7.2205257,3.6035025,3.2430928,8.535328,-13.765631,-4.844266,8.055847,-2.5902658,-15.694034,8.095522,-12.887492,1.5530701,0.34903744,-0.82192177,6.1665783,4.6659713,10.164861,-31.655518,71.7803,-15.927679,-5.1748543,10.872211,-0.08840073,-8.687057,42.967808,72.447044,12.521379,-1.9915053,-2.1033237
1,0.2103864699602127,2.488006353378296,78.22596740722656,-0.8777783322847686,-2.4918614011774354,-91.77551827168269,7.2241864,3.600906,3.237372,8.5416155,-13.764386,-4.8373647,8.059403,-2.5924,-15.69539,8.101421,-12.88896,1.5485762,0.3564896,-0.8151451,6.175777,4.6614428,10.166369,-31.661104,71.78784,-15.926201,-5.1887035,10.850377,-0.09620507,-8.684648,42.975784,72.457,12.514017,-1.9925991,-2.093177
2,0.2129233181476593,2.4885549545288086,78.22478485107422,-0.8790240875139907,-2.499440651104691,-91.77370615533279,7.228884,3.5989046,3.2310421,8.551065,-13.764568,-4.831327,8.0647135,-2.5943286,-15.696928,8.109191,-12.891464,1.5422924,0.35886037,-0.8101205,6.181169,4.6550794,10.173134,-31.687315,71.80604,-15.949606,-5.210258,10.823067,-0.11497252,-8.6712885,43.022526,72.48782,12.537514,-1.9975854,-2.088156
3,0.21629363298416138,2.487682342529297,78.2232437133789,-0.8787380484016363,-2.5044091558497374,-91.77200417488547,7.230643,3.596091,3.225359,8.56107,-13.76579,-4.8236265,8.068033,-2.5970628,-15.698272,8.115139,-12.893271,1.5396813,0.35757643,-0.8066157,6.182968,4.65896,10.1799965,-31.700296,71.812645,-15.9652405,-5.2256393,10.802566,-0.13211565,-8.655653,43.05865,72.5175,12.552578,-2.0006948,-2.0799327
4,0.21726034581661224,2.486217975616455,78.22130584716797,-0.8770148821343745,-2.5060195691197458,-91.7712808785358,7.2314186,3.591171,3.221796,8.566179,-13.76677,-4.8119636,8.071584,-2.60127,-15.69866,8.114487,-12.893844,1.5463684,0.35883558,-0.8066204,6.1858397,4.659118,10.183543,-31.70161,71.81745,-15.974828,-5.2336607,10.791528,-0.13950889,-8.646381,43.069103,72.52602,12.554411,-1.9977807,-2.0626762
5,0.2181183099746704,2.4811198711395264,78.22103118896484,-0.8701877404253803,-2.502716176963428,-91.77214922601183,7.2272525,3.5815082,3.2209492,8.572544,-13.7722435,-4.789634,8.074359,-2.6097333,-15.697522,8.106428,-12.894147,1.5702822,0.35940656,-0.812821,6.183557,4.6651797,10.184617,-31.694187,71.81472,-15.991331,-5.2306323,10.796482,-0.13744651,-8.642603,43.062992,72.518,12.553495,-1.9866701,-2.03143
6,0.21784554421901703,2.4745519161224365,78.22050476074219,-0.8614738932603102,-2.4958767146921637,-91.77385152803525,7.218732,3.5689871,3.221699,8.580998,-13.781482,-4.760084,8.078523,-2.6201508,-15.695707,8.088542,-12.891626,1.6061525,0.35936573,-0.8281519,6.1823845,4.6730695,10.187584,-31.662857,71.805,-15.997889,-5.2187753,10.810597,-0.13508129,-8.629724,43.024403,72.50368,12.531928,-1.9683833,-1.9883783
7,0.22183531522750854,2.4744176864624023,78.21981048583984,-0.8521968006590109,-2.4878261219966906,-91.7756027111318,7.212314,3.557252,3.2236612,8.581649,-13.786807,-4.735463,8.080921,-2.6297827,-15.693476,8.072122,-12.890043,1.6402547,0.3607826,-0.84097,6.182414,4.6775947,10.1889,-31.63321,71.79312,-15.999522,-5.204891,10.827046,-0.13513206,-8.619089,42.978012,72.49048,12.506854,-1.9532573,-1.945651
8,0.22417137026786804,2.4725592136383057,78.22061920166016,-0.8478518361753502,-2.4793141712036313,-91.77582436878325,7.205633,3.5515013,3.2253358,8.579384,-13.788045,-4.7282295,8.077452,-2.6347773,-15.692161,8.063939,-12.889078,1.6585753,0.36350983,-0.8470841,6.1791506,4.678129,10.189583,-31.617651,71.783936,-15.995727,-5.1956306,10.839707,-0.13725233,-8.608057,42.945095,72.48545,12.49422,-1.9469291,-1.918574
9,0.22703413665294647,2.4699862003326416,78.21998596191406,-0.8533023807568988,-2.4701852997841667,-91.77322573750756,7.20176,3.5548358,3.2266746,8.564943,-13.778565,-4.7510805,8.069434,-2.631001,-15.692186,8.060575,-12.885947,1.6531221,0.35981405,-0.8414652,6.171362,4.678782,10.189709,-31.617361,71.77177,-15.983262,-5.193402,10.848259,-0.13912398,-8.605437,42.94111,72.48222,12.5034,-1.9518155,-1.9084976
10,0.229830801486969,2.467815399169922,78.21891784667969,-0.8616276154300214,-2.4600100893382835,-91.76903284756565,7.2010884,3.5642366,3.2283213,8.538188,-13.7599125,-4.7943087,8.057417,-2.621542,-15.692955,8.061371,-12.882116,1.6326349,0.35575154,-0.83057255,6.1616926,4.677794,10.190447,-31.624321,71.75625,-15.958506,-5.1938806,10.855829,-0.14859518,-8.597435,42.941498,72.49173,12.518256,-1.9646238,-1.9082168
11,0.23232030868530273,2.4650845527648926,78.21864318847656,-0.8713474350820425,-2.4497752255935517,-91.76502491595289,7.1982837,3.5740225,3.2300131,8.51615,-13.743879,-4.836498,8.043945,-2.612213,-15.693848,8.064773,-12.879095,1.6087676,0.3519618,-0.8180873,6.148932,4.678095,10.19165,-31.637663,71.74198,-15.937629,-5.195137,10.860874,-0.1591476,-8.586698,42.95165,72.509056,12.539768,-1.9827822,-1.9203779
12,0.2337387502193451,2.4679770469665527,78.22063446044922,-0.8760197449251026,-2.4406997862764657,-91.76305928344011,7.193764,3.5781062,3.2317154,8.503587,-13.735327,-4.8562756,8.030981,-2.6092238,-15.694476,8.072081,-12.880071,1.593098,0.35116422,-0.8102411,6.137667,4.679918,10.192711,-31.647133,71.731415,-15.924317,-5.194493,10.861988,-0.16139613,-8.5769415,42.963974,72.51822,12.55714,-1.9999051,-1.9477205
13,0.23414191603660583,2.4685137271881104,78.22296905517578,-0.8746856318266124,-2.4334320872202206,-91.76464816233063,7.185072,3.574095,3.2341282,8.50957,-13.740179,-4.841347,8.022986,-2.614457,-15.69491,8.07627,-12.882395,1.5869131,0.35902244,-0.8066374,6.132304,4.681437,10.192811,-31.648191,71.723465,-15.91129,-5.1895857,10.855711,-0.15510347,-8.575161,42.96777,72.5119,12.562895,-2.0127594,-1.991593
14,0.23470835387706757,2.464893341064453,78.2261734008789,-0.8688908528412191,-2.423777837224648,-91.76884096928832,7.1696362,3.5650096,3.2373748,8.52695,-13.752858,-4.8052554,8.009063,-2.6262264,-15.69464,8.089,-12.890162,1.5846114,0.37171698,-0.8060052,6.1195145,4.6896496,10.192898,-31.649452,71.71423,-15.897841,-5.178793,10.8444,-0.13073038,-8.568118,42.985806,72.49735,12.571791,-2.028898,-2.0715249
15,0.23611414432525635,2.4616634845733643,78.22962188720703,-0.8620281321979563,-2.416746106358179,-91.77237938212463,7.154704,3.5549083,3.2390673,8.549631,-13.768724,-4.765578,8.000081,-2.6384962,-15.69493,8.098312,-12.896982,1.5874177,0.3688891,-0.8097553,6.104367,4.70591,10.192344,-31.638859,71.71106,-15.898414,-5.1728725,10.834079,-0.12041794,-8.549915,43.025906,72.50529,12.589497,-2.0475628,-2.1472666
16,0.23893725872039795,2.4625134468078613,78.2313003540039,-0.8580707720101087,-2.4142973532236716,-91.77311284106837,7.1505113,3.5470345,3.2382474,8.55976,-13.777978,-4.73968,8.000429,-2.6464565,-15.695842,8.097855,-12.899298,1.5966483,0.37757558,-0.81052065,6.106938,4.7074018,10.192173,-31.638643,71.71286,-15.916061,-5.1752267,10.826926,-0.11377246,-8.547341,43.031757,72.50133,12.5942335,-2.066977,-2.190868
17,0.24036918580532074,2.4566290378570557,78.2292709350586,-0.8553092224662872,-2.4171636586030614,-91.76888886085216,7.155007,3.5420067,3.232217,8.560979,-13.781502,-4.7332177,8.01058,-2.6490724,-15.698105,8.087271,-12.896364,1.6184375,0.37192062,-0.8152067,6.113708,4.703459,10.1917305,-31.64474,71.73438,-15.983967,-5.195944,10.824894,-0.11068296,-8.540106,43.063343,72.510254,12.617688,-2.1024127,-2.2212505
18,0.2458563596010208,2.4560165405273438,78.22582244873047,-0.8547939016162939,-2.4246375975919934,-91.7614155549698,7.167391,3.538288,3.2226803,8.555695,-13.781614,-4.7365108,8.031463,-2.6478775,-15.701252,8.064367,-12.888087,1.6501111,0.36081156,-0.82050896,6.1276517,4.6982017,10.1913185,-31.653574,71.764015,-16.081343,-5.2291718,10.827026,-0.119388804,-8.534091,43.096542,72.53036,12.647532,-2.1440568,-2.2277412
19,0.2489195168018341,2.4503772258758545,78.2204818725586,-0.8547852123713229,-2.432578437069475,-91.75373499342443,7.180941,3.5355856,3.213023,8.548637,-13.780527,-4.744217,8.05156,-2.6460912,-15.704455,8.044463,-12.881042,1.6798269,0.3496652,-0.8254025,6.14259,4.6931663,10.190999,-31.661661,71.791756,-16.176203,-5.2587204,10.831219,-0.12853807,-8.528815,43.125004,72.54998,12.673045,-2.181146,-2.2266738
20,0.250275194644928,2.4453277587890625,78.21427917480469,-0.8540450055340763,-2.4369385864526234,-91.74793637802799,7.1909885,3.5335917,3.206205,8.541869,-13.7795315,-4.750851,8.0646715,-2.6454582,-15.707718,8.033027,-12.877905,1.6957488,0.34200528,-0.82651025,6.152174,4.6908593,10.190768,-31.665531,71.808334,-16.238691,-5.270165,10.834237,-0.13386409,-8.525917,43.14156,72.56369,12.688276,-2.2028832,-2.2251148
21,0.25144150853157043,2.4387707710266113,78.2108383178711,-0.8571796170750626,-2.438650368720909,-91.74483325550543,7.1968718,3.5337362,3.2031531,8.538179,-13.780026,-4.758249,8.070905,-2.6452165,-15.711273,8.033414,-12.880676,1.6898422,0.3357034,-0.82298124,6.1538115,4.6944075,10.190176,-31.662785,71.81016,-16.259857,-5.252278,10.83705,-0.1356949,-8.521601,43.155945,72.575714,12.694241,-2.204632,-2.23035
22,0.2527240216732025,2.4344615936279297,78.21073150634766,-0.860781170086822,-2.438759458317171,-91.74317633027518,7.201244,3.535621,3.2023904,8.534828,-13.780449,-4.7681937,8.0701275,-2.645708,-15.714717,8.046898,-12.889664,1.6701525,0.33240628,-0.8162057,6.152647,4.7000103,10.189724,-31.654547,71.80201,-16.252232,-5.214843,10.839804,-0.13375849,-8.519201,43.159264,72.58245,12.687685,-2.192265,-2.2353702
23,0.2546001076698303,2.4339401721954346,78.21498107910156,-0.8636021631023526,-2.4350408320098422,-91.7423994085634,7.201113,3.5367327,3.2028391,8.532706,-13.781464,-4.7753434,8.065206,-2.6470218,-15.717917,8.060971,-12.898984,1.6484177,0.32610753,-0.80956966,6.1471314,4.708975,10.188827,-31.63848,71.78861,-16.227863,-5.1757493,10.842864,-0.1336849,-8.515577,43.155785,72.5894,12.675052,-2.171806,-2.2335508
24,0.25493550300598145,2.433757781982422,78.22010040283203,-0.8642929408982591,-2.4253957871469147,-91.74171037183577,7.1943555,3.5351048,3.2032833,8.529647,-13.781381,-4.7745366,8.055936,-2.6501963,-15.720429,8.06735,-12.903403,1.6365914,0.31528327,-0.80554146,6.1352158,4.7185454,10.188109,-31.627014,71.77748,-16.206867,-5.1528544,10.847308,-0.13457954,-8.513182,43.145397,72.59368,12.663294,-2.1486437,-2.218665
25,0.25687453150749207,2.431403398513794,78.22525787353516,-0.8606861899022881,-2.405050469277902,-91.7414833423415,7.1738386,3.528388,3.2041078,8.531406,-13.784011,-4.759259,8.036103,-2.6573882,-15.72178,8.067826,-12.903682,1.6394379,0.29666153,-0.8050559,6.112306,4.732485,10.187116,-31.615063,71.766556,-16.182615,-5.1524086,10.854197,-0.14083847,-8.510381,43.112717,72.597336,12.64278,-2.1155427,-2.174456
26,0.2588264048099518,2.4273059368133545,78.2290267944336,-0.8545625873139338,-2.376801209832453,-91.74162931268157,7.1429095,3.5188377,3.2053704,8.536408,-13.788201,-4.7340865,8.009476,-2.666867,-15.722484,8.063508,-12.901264,1.6501441,0.2847851,-0.8067613,6.0814795,4.7396474,10.185388,-31.616516,71.76245,-16.155674,-5.1648226,10.86278,-0.14605598,-8.506158,43.044712,72.59774,12.609027,-2.0725305,-2.1092963
27,0.2612578570842743,2.42338228225708,78.2307357788086,-0.8482306271991269,-2.3483439264874812,-91.74185045346428,7.112379,3.509606,3.2067904,8.539628,-13.790622,-4.7101054,7.9825435,-2.6758952,-15.722736,8.058019,-12.8977375,1.6628104,0.26944193,-0.8089166,6.0478616,4.7502227,10.184253,-31.621357,71.75738,-16.134363,-5.182322,10.871763,-0.14831486,-8.503967,42.997562,72.59779,12.588823,-2.036323,-2.0534148
28,0.2630491852760315,2.418074369430542,78.2293472290039,-0.8438320429579119,-2.327818053396201,-91.74091579110134,7.0932026,3.5034235,3.2070687,8.5372925,-13.788681,-4.6981554,7.9649367,-2.6813765,-15.723436,8.052634,-12.895034,1.6716734,0.26193994,-0.81010056,6.0266786,4.7546864,10.183767,-31.62722,71.751724,-16.117691,-5.196388,10.877965,-0.14755997,-8.503141,42.97546,72.60096,12.581063,-2.0227926,-2.032774
29,0.26337888836860657,2.4115662574768066,78.22496795654297,-0.8455188857172082,-2.3181282896893967,-91.7379112025919,7.086961,3.5038457,3.2053056,8.531158,-13.781215,-4.708096,7.959377,-2.6802144,-15.725173,8.0471735,-12.892232,1.6738605,0.27687645,-0.8082631,6.023232,4.748518,10.183064,-31.643806,71.743706,-16.100744,-5.2050133,10.882329,-0.13957721,-8.501812,42.97235,72.611145,12.584108,-2.0479424,-2.0715933
30,0.2665494680404663,2.4053032398223877,78.22029113769531,-0.8504924130476795,-2.3147609752061564,-91.73395074167881,7.090716,3.5083046,3.2027779,8.517903,-13.767794,-4.731781,7.9606843,-2.6745284,-15.727152,8.042683,-12.890141,1.6727937,0.29888225,-0.8053748,6.0312324,4.7366056,10.182923,-31.65598,71.734215,-16.081953,-5.21286,10.884111,-0.12720625,-8.501397,42.990936,72.623245,12.596748,-2.099101,-2.1495366
31,0.2695292830467224,2.4011738300323486,78.21741485595703,-0.8540360909511507,-2.3138626700522766,-91.73017073349403,7.0978265,3.511733,3.2002997,8.503986,-13.754885,-4.753368,7.966005,-2.6694646,-15.72874,8.0358515,-12.887541,1.6723901,0.30516976,-0.8043398,6.0289626,4.737242,10.182547,-31.67663,71.7276,-16.08976,-5.221481,10.88725,-0.1133736,-8.500219,43.06951,72.64281,12.64669,-2.151673,-2.2338958
32,0.2720760405063629,2.398350477218628,78.21607971191406,-0.8532637428108613,-2.3114772572630935,-91.72761838286496,7.097933,3.510291,3.1983728,8.502148,-13.751967,-4.757241,7.967948,-2.6700377,-15.729068,8.032695,-12.887832,1.6762273,0.31199473,-0.8043661,6.0333853,4.7321396,10.182677,-31.68141,71.723946,-16.091856,-5.2291355,10.882379,-0.11504362,-8.500062,43.096897,72.6606,12.661388,-2.1763854,-2.2670133
33,0.27436956763267517,2.3970987796783447,78.217041015625,-0.8475398116107373,-2.307304118104247,-91.72735218824575,7.0911913,3.4995105,3.1985161,8.512495,-13.761445,-4.728944,7.9667244,-2.6804898,-15.727182,8.032045,-12.891,1.6880121,0.3041066,-0.8085108,6.0284424,4.733746,10.1830635,-31.682878,71.729614,-16.11633,-5.23858,10.868164,-0.12814783,-8.500121,43.11669,72.67974,12.670006,-2.1630237,-2.2408319
34,0.2741740047931671,2.3930931091308594,78.22003173828125,-0.8359345488470588,-2.3034949105994547,-91.72866938942495,7.079702,3.4831233,3.1998,8.534503,-13.780628,-4.680351,7.9650826,-2.6971853,-15.723547,8.033842,-12.896817,1.7048582,0.29415455,-0.8155166,6.0224977,4.7346883,10.183408,-31.682402,71.74182,-16.150963,-5.2482185,10.846672,-0.14452386,-8.500278,43.117966,72.695206,12.663942,-2.127181,-2.1791537
35,0.27876994013786316,2.3940176963806152,78.22402954101562,-0.8248214083464009,-2.2987374381734442,-91.73023364219175,7.068564,3.4671257,3.2006626,8.554043,-13.799738,-4.6347747,7.961659,-2.7133288,-15.719894,8.036831,-12.903673,1.7207488,0.28377053,-0.8209531,6.01795,4.7334995,10.184458,-31.681257,71.7561,-16.19078,-5.256519,10.826259,-0.17326371,-8.500835,43.109104,72.716034,12.655061,-2.0822148,-2.0944319
36,0.27941352128982544,2.391852378845215,78.22599792480469,-0.8193616240935653,-2.2934085431139346,-91.73173660501202,7.063222,3.457822,3.2002738,8.558861,-13.8102045,-4.615662,7.95891,-2.7215002,-15.717274,8.036103,-12.908589,1.7295781,0.2802807,-0.82304674,6.0162854,4.732972,10.185602,-31.678183,71.764244,-16.219551,-5.25892,10.819486,-0.1996614,-8.501775,43.09434,72.731415,12.648208,-2.0436878,-2.0109677
37,0.28058579564094543,2.3878631591796875,78.22586059570312,-0.8245323501897318,-2.2853638819833932,-91.73289218023146,7.066471,3.459975,3.1975114,8.537692,-13.804249,-4.641934,7.954852,-2.7160957,-15.716766,8.029827,-12.90907,1.7271054,0.27826753,-0.81971836,6.010386,4.7363257,10.186314,-31.673927,71.769005,-16.232927,-5.2526374,10.833479,-0.2128746,-8.50288,43.085335,72.73564,12.659396,-2.013879,-1.9309978
38,0.2828129231929779,2.384706497192383,78.22359466552734,-0.8352863357705,-2.2748593438415106,-91.73453506123502,7.074948,3.4686773,3.1936574,8.498646,-13.78735,-4.6967688,7.9499693,-2.7023032,-15.716845,8.018092,-12.906042,1.7174554,0.2748657,-0.81138045,6.0108366,4.744678,10.187872,-31.654377,71.758064,-16.22768,-5.2369657,10.862189,-0.25079334,-8.506058,43.04983,72.74678,12.663512,-1.9750977,-1.8093181
39,0.2844088077545166,2.3794102668762207,78.2211685180664,-0.8462752017490353,-2.26609501392409,-91.73559764902737,7.0850935,3.4774778,3.1894014,8.461087,-13.773162,-4.750374,7.946351,-2.6887615,-15.717393,8.009044,-12.906539,1.707037,0.2779947,-0.80507356,6.0095105,4.74865,10.188813,-31.643154,71.757065,-16.235209,-5.22433,10.8918915,-0.2755293,-8.508419,43.0334,72.751526,12.673339,-1.9459637,-1.7145469
40,0.28709834814071655,2.378037691116333,78.21937561035156,-0.8501824909454833,-2.263560152026562,-91.73608001373937,7.095594,3.4786396,3.1863947,8.44053,-13.773734,-4.7726426,7.9484873,-2.6845648,-15.716762,8.004558,-12.913853,1.7025008,0.29351667,-0.8027355,6.0230527,4.744127,10.190873,-31.629917,71.75733,-16.259375,-5.2215347,10.910021,-0.30971536,-8.513752,43.025517,72.76053,12.667118,-1.928218,-1.6541322
41,0.28965702652931213,2.3720309734344482,78.21666717529297,-0.8440798339619473,-2.2685960970193544,-91.73527531069733,7.103161,3.4691367,3.1847756,8.446642,-13.7944565,-4.7493434,7.957102,-2.6933408,-15.714907,8.007099,-12.929554,1.704843,0.3193957,-0.808015,6.0457273,4.731159,10.192031,-31.629276,71.76867,-16.323893,-5.231468,10.920034,-0.34371823,-8.516514,43.041485,72.77534,12.64421,-1.928724,-1.6470889
42,0.29332077503204346,2.369438886642456,78.21391296386719,-0.8337711422686657,-2.2781062513156782,-91.73351319791726,7.1083364,3.4536197,3.1837924,8.471076,-13.829825,-4.698549,7.9684277,-2.710292,-15.712192,8.017158,-12.952884,1.7108808,0.31490034,-0.8176152,6.0738025,4.7328596,10.199328,-31.616875,71.770996,-16.434166,-5.251769,10.927443,-0.38881063,-8.534072,43.156113,72.78896,12.658211,-1.9423462,-1.6816045
43,0.2947702407836914,2.3656303882598877,78.21508026123047,-0.8201985530364577,-2.291213573384327,-91.73175920420735,7.1166153,3.4353828,3.1833577,8.499637,-13.871157,-4.638952,7.9843884,-2.7300427,-15.709325,8.027516,-12.9801655,1.7204952,0.33373904,-0.82913244,6.103914,4.727943,10.204458,-31.610441,71.77852,-16.538816,-5.2766776,10.922864,-0.4332865,-8.545861,43.2601,72.80986,12.658024,-1.9596573,-1.7308475
44,0.3004864454269409,2.3639068603515625,78.21420288085938,-0.8087835270494848,-2.307452150169365,-91.73060104013994,7.13308,3.4187462,3.1830103,8.519263,-13.910956,-4.589268,8.008205,-2.7465684,-15.707223,8.029535,-13.007179,1.7335663,0.35395697,-0.83821213,6.137574,4.7370152,10.210768,-31.578972,71.7646,-16.610258,-5.302723,10.898637,-0.49289262,-8.558684,43.38848,72.84046,12.670113,-1.9703122,-1.774175
45,0.3054157495498657,2.3630590438842773,78.21312713623047,-0.8010650701228097,-2.331481045899041,-91.72498101751161,7.163327,3.4039717,3.1762328,8.530454,-13.95086,-4.5543337,8.048599,-2.7592528,-15.712168,8.02135,-13.036033,1.7556161,0.36945692,-0.84490734,6.17839,4.7647767,10.218758,-31.515102,71.718704,-16.602743,-5.3224163,10.842828,-0.5627576,-8.571513,43.52891,72.87794,12.707446,-1.9753013,-1.8131077
46,0.3074021339416504,2.362032413482666,78.20938873291016,-0.791666823343224,-2.362149091101256,-91.71702135851088,7.2036014,3.3894777,3.165982,8.537959,-13.993094,-4.5242376,8.101467,-2.7704124,-15.721124,8.006297,-13.066984,1.7847284,0.36207667,-0.85309476,6.2282853,4.8198814,10.234401,-31.396698,71.63575,-16.535944,-5.33945,10.759681,-0.64689976,-8.590643,43.717335,72.91656,12.772129,-1.9786897,-1.8561331
47,0.3121073842048645,2.3541436195373535,78.20497131347656,-0.7842923143820498,-2.3893933561747933,-91.71512001024834,7.241318,3.3757455,3.1633718,8.544422,-14.036494,-4.4954348,8.148412,-2.7807064,-15.7234125,7.9910707,-13.09817,1.8101735,0.37629768,-0.8585631,6.280314,4.8750343,10.252914,-31.281244,71.546455,-16.504189,-5.367361,10.674382,-0.7506281,-8.609393,43.91997,72.96723,12.819512,-1.9742482,-1.8922614
48,0.31690385937690735,2.3399364948272705,78.19892883300781,-0.7782516947478155,-2.4027973846747885,-91.72799550376025,7.2674475,3.3626397,3.1801534,8.544946,-14.075853,-4.464334,8.168258,-2.7918534,-15.70759,7.9886084,-13.13145,1.8211915,0.4317997,-0.85765576,6.326995,4.918104,10.267363,-31.188807,71.47281,-16.58757,-5.420067,10.610544,-0.88864756,-8.623987,44.141693,73.04505,12.819315,-1.9560282,-1.9107819
49,0.3261033296585083,2.3269128799438477,78.19261169433594,-0.7711850097526369,-2.3969619390556622,-91.76078762826042,7.2730556,3.349755,3.2242713,8.542289,-14.110961,-4.43108,8.150205,-2.8054724,-15.667258,8.000988,-13.165185,1.8111866,0.47375807,-0.8520773,6.372981,4.988887,10.290216,-31.045565,71.365364,-16.833893,-5.5027094,10.577325,-1.0879762,-8.648273,44.49524,73.154816,12.8080225,-1.9224052,-1.9099135
50,0.34695398807525635,2.352678060531616,78.19078063964844,-0.7654508924318078,-2.378281925088897,-91.80794361053991,7.268044,3.3360841,3.2881465,8.531667,-14.140739,-4.397255,8.106279,-2.8213816,-15.609217,8.023883,-13.200271,1.7871369,0.55452126,-0.8404064,6.417552,5.049248,10.311599,-30.91923,71.26028,-17.204035,-5.6084366,10.5631895,-1.318841,-8.6736,44.88209,73.289696,12.767067,-1.8779252,-1.8946013
51,0.36261460185050964,2.3549134731292725,78.19120025634766,-0.7603069053698052,-2.354047291283293,-91.86238725961982,7.2582674,3.3232868,3.359039,8.523693,-14.173651,-4.361637,8.053452,-2.8359058,-15.542682,8.0509405,-13.2365885,1.7582929,0.6267332,-0.82666904,6.4606586,5.131768,10.336211,-30.763248,71.14836,-17.5809,-5.7271504,10.546756,-1.5770909,-8.705042,45.304306,73.420876,12.688743,-1.8167793,-1.8648843
52,0.3716680109500885,2.340883493423462,78.19218444824219,-0.7562163618841571,-2.331887141609529,-91.91710368938648,7.255573,3.3124137,3.4245126,8.516857,-14.211637,-4.3229475,8.0100975,-2.8464584,-15.476926,8.071898,-13.271353,1.7342283,0.70622164,-0.81303555,6.4983463,5.223957,10.3591385,-30.610857,71.063576,-17.86908,-5.849848,10.511107,-1.8401158,-8.736151,45.671894,73.52707,12.530996,-1.7355628,-1.8205454
53,0.38675692677497864,2.331531047821045,78.19377136230469,-0.7548699715728308,-2.313288646061398,-91.97095848588239,7.259473,3.3042855,3.4804003,8.520461,-14.263572,-4.276823,7.978954,-2.8520632,-15.414073,8.088681,-13.306165,1.7145174,0.75355667,-0.8015131,6.5328703,5.355622,10.390116,-30.41408,70.97585,-18.029793,-5.9701505,10.439041,-2.1176822,-8.779071,46.044315,73.59452,12.289614,-1.6200216,-1.7504978
54,0.39799609780311584,2.3143303394317627,78.19483184814453,-0.7552863566414957,-2.2945705077413847,-92.02755207730706,7.266559,3.297547,3.5336974,8.52806,-14.32328,-4.225189,7.9525757,-2.8547583,-15.349149,8.101878,-13.3397875,1.6950684,0.8183516,-0.78905755,6.5614014,5.4920173,10.420248,-30.22749,70.91056,-18.131207,-6.0951405,10.34722,-2.4041321,-8.822763,46.381573,73.64451,11.963857,-1.4784956,-1.658267
55,0.4074811041355133,2.2972354888916016,78.1938247680664,-0.7557541407568679,-2.2748296902119516,-92.08665411253594,7.275705,3.2923117,3.5881414,8.534919,-14.381982,-4.1759734,7.927649,-2.8555317,-15.281095,8.112644,-13.372908,1.6794986,0.8877667,-0.7767631,6.5881143,5.639852,10.449319,-30.03832,70.8655,-18.190205,-6.2318883,10.257644,-2.697001,-8.866005,46.67127,73.67331,11.595843,-1.3345826,-1.5641162
56,0.42166876792907715,2.2807586193084717,78.19166564941406,-0.7579016393200833,-2.2531873337919306,-92.1480254952293,7.287843,3.2879288,3.647764,8.531359,-14.428035,-4.1371603,7.903942,-2.8548806,-15.209101,8.117732,-13.4043665,1.6714716,0.98267984,-0.76447946,6.613058,5.780297,10.470007,-29.878664,70.86576,-18.236889,-6.388831,10.194911,-2.9883657,-8.8971615,46.860615,73.69007,11.217988,-1.2134264,-1.4892533
57,0.4374668598175049,2.25740647315979,78.18768310546875,-0.7610399670516546,-2.2286240597173497,-92.21163417488582,7.2991657,3.2854772,3.714609,8.5193815,-14.457097,-4.115339,7.8807793,-2.851175,-15.131421,8.111542,-13.430736,1.6744025,1.0473939,-0.7585959,6.6463737,5.9560294,10.500408,-29.673704,70.8733,-18.263603,-6.5971427,10.156223,-3.287721,-8.940267,47.01153,73.665886,10.83731,-1.1117212,-1.4299297
58,0.4508993923664093,2.2356059551239014,78.1810073852539,-0.7667148750510986,-2.2017939593362117,-92.27749594262897,7.310448,3.2859106,3.7860577,8.501717,-14.474963,-4.104534,7.856884,-2.8446128,-15.049091,8.101074,-13.455518,1.6855453,1.1277361,-0.7548694,6.6814528,6.1360292,10.5337,-29.482306,70.91316,-18.273687,-6.843492,10.134255,-3.5849104,-8.9859085,47.080505,73.61113,10.424415,-1.0208707,-1.3786025
59,0.4694674015045166,2.2088088989257812,78.17223358154297,-0.7775306910895468,-2.174615502356395,-92.3449326889867,7.3243556,3.2905548,3.8583455,8.484761,-14.49451,-4.0938582,7.8385596,-2.8332808,-14.966542,8.083533,-13.478052,1.6995101,1.221196,-0.7449195,6.713221,6.3214254,10.5602,-29.308016,70.97045,-18.24899,-7.0638313,10.132269,-3.8827655,-9.022996,47.076965,73.54577,10.017285,-0.94881225,-1.347616
60,0.4917962849140167,2.173476219177246,78.1640853881836,-0.7926283659031209,-2.148647090433589,-92.41406572842686,7.340183,3.2978683,3.9281516,8.48064,-14.531742,-4.0725913,7.8259673,-2.8203485,-14.886808,8.067598,-13.50309,1.7110281,1.3024248,-0.72772807,6.748703,6.5408845,10.58889,-29.116364,70.98664,-18.158075,-7.189901,10.149319,-4.18105,-9.06527,47.034855,73.453766,9.657792,-0.8997172,-1.3467944
61,0.5146340131759644,2.140437126159668,78.15229797363281,-0.841778879368123,-2.119749608299258,-92.47415980506932,7.0757117,3.3582957,3.9651573,9.077455,-14.899409,-4.043013,7.831099,-2.7712586,-14.824715,8.021287,-13.515007,1.7097695,1.3626353,-0.67390907,6.785046,6.796608,10.621606,-28.902569,70.95125,-17.96368,-7.1849914,10.184974,-4.474591,-9.119619,46.942993,73.32282,9.357126,-0.8779825,-1.3862257
62,0.5410102605819702,2.108924627304077,78.14212799072266,-0.8912089089895524,-2.096130474472348,-92.53681615035828,6.867081,3.4148877,4.003582,9.581171,-15.227898,-4.005452,7.8423705,-2.7244525,-14.763899,7.985465,-13.535045,1.7047988,1.4217118,-0.61651516,6.8346806,7.08261,10.662912,-28.675676,70.876656,-17.688877,-7.0898876,10.237273,-4.7552257,-9.200251,46.793552,73.13473,9.094071,-0.87758315,-1.4571154
63,0.5692383050918579,2.0669608116149902,78.13212585449219,-0.9444050398978061,-2.067999739134471,-92.60368493031416,6.6674995,3.4713647,4.045078,10.06585,-15.549551,-3.9614313,7.8532367,-2.6774704,-14.7006035,7.945002,-13.552619,1.7066853,1.4913105,-0.5531527,6.877797,7.3817453,10.701391,-28.474178,70.793655,-17.415955,-6.9574523,10.307601,-5.0254097,-9.291522,46.595253,72.91722,8.856444,-0.8926872,-1.5427558
64,0.5988843441009521,2.01132869720459,78.12198638916016,-0.9957055804667981,-2.0264780661695885,-92.67717142416222,6.4751806,3.5250902,4.0951924,10.513673,-15.852449,-3.9117746,7.856435,-2.631116,-14.629942,7.8920627,-13.562184,1.7264485,1.5713062,-0.4872717,6.901376,7.689559,10.734538,-28.313093,70.715256,-17.217688,-6.839185,10.395343,-5.2934604,-9.382943,46.372635,72.691864,8.637011,-0.9172041,-1.6252313
65,0.6338766813278198,1.960258960723877,78.1098403930664,-1.0471910001886175,-1.9634529201115603,-92.75611441030709,6.2701445,3.5759566,4.1521373,10.945585,-16.142694,-3.8510175,7.842166,-2.58588,-14.551483,7.8245416,-13.56052,1.7738662,1.6609282,-0.4178497,6.89931,8.001709,10.770086,-28.218039,70.64759,-17.164207,-6.744334,10.510759,-5.553986,-9.487953,46.114624,72.44225,8.428959,-0.9462031,-1.6953118
66,0.6719368100166321,1.8971521854400635,78.09456634521484,-1.100154041460763,-1.8855499903464024,-92.83980447769464,6.059728,3.6252208,4.2138453,11.362177,-16.423988,-3.7804906,7.820194,-2.5405204,-14.468051,7.7408757,-13.54863,1.8407476,1.7562845,-0.34476435,6.8775425,8.323049,10.804321,-28.168118,70.585556,-17.19749,-6.6474633,10.651366,-5.8131485,-9.594473,45.818428,72.17938,8.238526,-0.98522526,-1.7649578
67,0.713561475276947,1.8296911716461182,78.07650756835938,-1.1524315655010884,-1.805889216029005,-92.93117797566443,5.865216,3.6745012,4.2843814,11.753354,-16.696083,-3.7113001,7.799149,-2.4958382,-14.378264,7.656676,-13.537068,1.9112595,1.8652359,-0.27185214,6.8525004,8.666614,10.841143,-28.126211,70.49732,-17.20693,-6.544928,10.79373,-6.0605674,-9.712475,45.50562,71.891525,8.073183,-1.0386207,-1.8433529
68,0.7556315064430237,1.7611827850341797,78.05565643310547,-1.2082731081099078,-1.7379378497018916,-93.03332293579426,5.7080483,3.7255833,4.3678155,12.108543,-16.958384,-3.6548622,7.789544,-2.451595,-14.281143,7.585156,-13.535738,1.9692664,1.987217,-0.20227012,6.8380966,9.046406,10.878172,-28.04745,70.35568,-17.08122,-6.4332876,10.914648,-6.2966685,-9.836103,45.20861,71.584496,7.944069,-1.111982,-1.9409105
69,0.796059250831604,1.6851752996444702,78.0362777709961,-1.2658793147736382,-1.69207679789518,-93.1535921917725,5.609306,3.7811036,4.4730315,12.413089,-17.206156,-3.6210275,7.8002634,-2.4059064,-14.17083,7.5313215,-13.548506,2.00598,2.1223261,-0.13570733,6.8413115,9.466509,10.910537,-27.929495,70.168526,-16.754444,-6.298356,11.000093,-6.533268,-9.950854,44.945683,71.27376,7.8646526,-1.2154695,-2.0729644
70,0.8460816740989685,1.6141804456710815,78.01535034179688,-1.3265220318657618,-1.6589457508535939,-93.2882488467069,5.5515075,3.8394172,4.595363,12.678314,-17.442055,-3.6018062,7.8237267,-2.3587868,-14.049809,7.487597,-13.569923,2.0313616,2.2744353,-0.069680996,6.859131,9.921403,10.947705,-27.795841,69.93386,-16.299126,-6.14501,11.062624,-6.751326,-10.088171,44.694412,70.918495,7.8273654,-1.3413063,-2.227727
71,0.8870298266410828,1.5254753828048706,77.99668884277344,-1.3869524005722609,-1.621645279003248,-93.42301302823485,5.501585,3.8946812,4.719278,12.926325,-17.67294,-3.581951,7.845683,-2.3151786,-13.929394,7.4470267,-13.594257,2.0578704,2.4286466,-0.0076384717,6.8716617,10.408916,10.983703,-27.619642,69.64404,-15.803961,-6.00165,11.124245,-6.956885,-10.22843,44.438923,70.55164,7.804468,-1.4733405,-2.3820856
72,0.9264421463012695,1.4217718839645386,77.98133087158203,-1.4428470481938993,-1.5634419185982082,-93.54412333074157,5.4255624,3.9422872,4.8286567,13.181026,-17.906845,-3.5462859,7.856006,-2.2783065,-13.821038,7.3938875,-13.611514,2.097879,2.5762167,0.047260463,6.8643575,10.925628,11.019763,-27.382986,69.28376,-15.362582,-5.895814,11.20658,-7.145279,-10.36884,44.15908,70.18643,7.77078,-1.59889,-2.510944
73,0.974169909954071,1.3208198547363281,77.96583557128906,-1.4923781026328837,-1.4734803356285338,-93.6508430872243,5.310345,3.977756,4.921508,13.445399,-18.145584,-3.4812884,7.843258,-2.2520852,-13.724583,7.327419,-13.617967,2.159079,2.715508,0.09134928,6.8217864,11.48306,11.058412,-27.085835,68.85282,-14.981169,-5.853598,11.324601,-7.3205185,-10.506458,43.85459,69.83546,7.727252,-1.7160977,-2.6015487
74,1.0203359127044678,1.218802809715271,77.9455795288086,-1.5370075622457187,-1.3627821391316977,-93.74966026428366,5.1757593,4.004674,5.005569,13.707232,-18.384548,-3.3982575,7.8169503,-2.233227,-13.635124,7.2525363,-13.618194,2.2334082,2.850978,0.12605292,6.7562265,12.0783415,11.100054,-26.737864,68.36054,-14.618574,-5.856477,11.46332,-7.4849505,-10.639778,43.53357,69.491936,7.6845965,-1.8324746,-2.6693761
75,1.0700207948684692,1.1131666898727417,77.92564392089844,-1.5821719350334662,-1.247565047986124,-93.83729059506815,5.03661,4.0288153,5.0795946,13.968519,-18.623188,-3.3190641,7.7924104,-2.2166388,-13.556614,7.1738334,-13.620226,2.3097441,2.9823873,0.15516141,6.6924114,12.696047,11.141928,-26.326094,67.789894,-14.285743,-5.855481,11.6025305,-7.6318884,-10.770353,43.18968,69.13751,7.6305475,-1.9425902,-2.7329457
76,1.1192996501922607,1.0054727792739868,77.90516662597656,-1.631130273785375,-1.1439742331580482,-93.91037858872309,4.909538,4.0556774,5.1426706,14.228443,-18.859526,-3.2654076,7.765735,-2.2022758,-13.491898,7.1388307,-13.655148,2.3771932,3.1089249,0.183188,6.6553845,13.316827,11.179035,-25.83927,67.129776,-13.997277,-5.8045254,11.721258,-7.752097,-10.90195,42.81323,68.75091,7.549026,-2.0406127,-2.8104396
77,1.1724352836608887,0.8974676132202148,77.88092041015625,-1.6902129835332371,-1.062109268670783,-93.97038033055478,4.8081594,4.090192,5.198243,14.479754,-19.092014,-3.2563324,7.7504773,-2.1842377,-13.440184,7.137299,-13.719613,2.4292078,3.2309916,0.21485758,6.6621256,13.938626,11.207459,-25.263222,66.36553,-13.765388,-5.6875544,11.8192625,-7.8502645,-11.037243,42.39645,68.32013,7.4308476,-2.1191473,-2.9053323
78,1.2333931922912598,0.7960489988327026,77.85639953613281,-1.7536519275208453,-0.9912024386520859,-94.01835238152808,4.720554,4.1281276,5.24596,14.725426,-19.322,-3.2758346,7.7507486,-2.163063,-13.40054,7.135457,-13.792014,2.4728377,3.3482487,0.24797516,6.6958704,14.567988,11.225836,-24.607063,65.5095,-13.580199,-5.5311246,11.906132,-7.928396,-11.177728,41.945934,67.857025,7.2849803,-2.182839,-3.0082111
79,1.2920588254928589,0.683386504650116,77.83001708984375,-1.815730548671337,-0.9169149892117837,-94.05040760427904,4.6235642,4.1614695,5.2787595,14.981916,-19.553274,-3.2932448,7.75435,-2.1462908,-13.376592,7.1352763,-13.871989,2.5171742,3.4610672,0.27834803,6.7323046,15.19778,11.232405,-23.89452,64.59063,-13.420663,-5.352696,11.975156,-7.9703035,-11.324559,41.47618,67.36774,7.130578,-2.2431629,-3.1181538
80,1.352217435836792,0.5618820190429688,77.80290222167969,-1.8727728450740007,-0.8248411464767634,-94.06291459652657,4.4925923,4.182833,5.289181,15.268571,-19.789177,-3.2779548,7.749727,-2.1412601,-13.371911,7.1343884,-13.955395,2.5714374,3.5699966,0.30145535,6.7466593,15.819905,11.225249,-23.15013,63.640778,-13.266289,-5.170914,12.019352,-7.9606338,-11.479362,41.00248,66.86032,6.987001,-2.311795,-3.234127
81,1.4149295091629028,0.43742886185646057,77.77732849121094,-1.924255648139623,-0.7075057224062433,-94.05603902649278,4.316945,4.1925793,5.2749257,15.591623,-20.033539,-3.2166038,7.7301745,-2.1485353,-13.387754,7.134081,-14.042401,2.6370423,3.6779103,0.31940413,6.7279387,16.439299,11.203649,-22.362305,62.6586,-13.123821,-4.977798,12.002106,-7.8887067,-11.644183,40.513103,66.322266,6.8247557,-2.3823466,-3.3607514
82,1.4788731336593628,0.29749488830566406,77.7503890991211,-1.9725082879861142,-0.573741684018078,-94.0313993298683,4.108789,4.194239,5.2395973,15.945163,-20.284319,-3.1272395,7.7036357,-2.1642656,-13.422234,7.1326423,-14.132961,2.7094312,3.7843068,0.3340466,6.691454,17.055685,11.167114,-21.524841,61.63166,-13.00032,-4.768407,11.938968,-7.7625985,-11.819846,40.003563,65.748535,6.6450386,-2.4506602,-3.496788
83,1.547356367111206,0.16043083369731903,77.72362518310547,-2.0163608018174006,-0.43369387388319514,-93.98743241941558,3.8926492,4.1834707,5.185752,16.29944,-20.530594,-3.0261302,7.6782064,-2.1901672,-13.474071,7.1329527,-14.229812,2.7888725,3.8844552,0.34066418,6.6516647,17.653658,11.1138525,-20.67011,60.572628,-12.874808,-4.5634127,11.901681,-7.596505,-12.005717,39.497353,65.16559,6.5096226,-2.5350597,-3.632356
84,1.618214726448059,0.020412161946296692,77.69686126708984,-2.0532237716763375,-0.2975274373874363,-93.922556872914,3.6928675,4.1566772,5.115997,16.625425,-20.761799,-2.929819,7.6640925,-2.226708,-13.542301,7.1331153,-14.332742,2.875488,3.9728398,0.33593395,6.6220937,18.21598,11.041852,-19.83212,59.498165,-12.728698,-4.3835745,11.962803,-7.40249,-12.200106,39.01706,64.59475,6.478028,-2.6498532,-3.7581398
85,1.690847396850586,-0.12019320577383041,77.67058563232422,-2.08299361017254,-0.17489066150029872,-93.8310553841925,3.5246086,4.1132154,5.025796,16.911253,-20.968197,-2.8408177,7.67258,-2.2738671,-13.63198,7.132853,-14.440177,2.9717624,4.0475016,0.31928343,6.612797,18.747532,10.95001,-19.00973,58.396038,-12.590781,-4.2373238,12.180878,-7.183772,-12.402941,38.562664,64.042656,6.579987,-2.8167894,-3.864304
86,1.772943377494812,-0.26472267508506775,77.63896942138672,-2.108541954901408,-0.058046635668144726,-93.71528392466631,3.373315,4.0561743,4.9155316,17.171503,-21.156582,-2.75121,7.6957707,-2.3304532,-13.742328,7.132488,-14.552412,3.0765681,4.1108565,0.29426,6.6140122,19.252151,10.838691,-18.187992,57.265038,-12.46054,-4.11223,12.504994,-6.9340277,-12.614198,38.12475,63.49765,6.779777,-3.0220997,-3.9576964
87,1.8513762950897217,-0.4142467975616455,77.60812377929688,-2.127909000695234,0.06924428202128097,-93.58562332736159,3.2163541,3.9864478,4.7945867,17.41931,-21.34179,-2.6616135,7.7137284,-2.3957615,-13.863636,7.1338353,-14.673317,3.1841743,4.163723,0.2633788,6.608885,19.712133,10.708255,-17.378752,56.138393,-12.273352,-3.997727,12.843191,-6.6524253,-12.831945,37.70874,62.961815,7.033837,-3.2302902,-4.053792
88,1.9325143098831177,-0.570889413356781,77.57183074951172,-2.128295734837143,0.2234097572185762,-93.45651475004232,3.0155513,3.8941996,4.6768885,17.702375,-21.55761,-2.5728571,7.6783943,-2.4902298,-13.980847,7.1962767,-14.836219,3.2892377,4.2110825,0.21560025,6.5806947,20.108477,10.558859,-16.594564,55.050613,-11.965052,-3.8833082,13.10404,-6.3409557,-13.053573,37.322258,62.44105,7.3011775,-3.406282,-4.1688724
89,2.0154521465301514,-0.7385534048080444,77.52393341064453,-2.1104544846329776,0.4076700503198462,-93.3311427185778,2.7699482,3.7805612,4.566671,18.019547,-21.808561,-2.482645,7.595385,-2.616217,-14.0924015,7.303404,-15.042422,3.3984022,4.25785,0.15323286,6.5172234,20.451914,10.390859,-15.842054,54.00698,-11.50454,-3.7957199,13.269293,-5.9955015,-13.278269,36.980392,61.93167,7.5899167,-3.5357802,-4.320089
90,2.104288101196289,-0.9004511833190918,77.47090148925781,-2.084145292055828,0.6131672219068333,-93.20097819127312,2.5018055,3.6537724,4.4551473,18.339996,-22.072552,-2.391865,7.1934175,-2.8378022,-14.191717,8.070009,-15.615458,3.5124385,4.2983904,0.08438527,6.4295306,20.747854,10.20476,-15.113067,52.99072,-10.929662,-3.7308865,13.38593,-5.6185985,-13.506007,36.67612,61.435658,7.916503,-3.6399016,-4.494896
91,2.198715925216675,-1.0500943660736084,77.40907287597656,-2.035869400101211,0.8374167119737402,-93.06343140787261,2.1940343,3.4999652,4.339339,18.697697,-22.35968,-2.3045096,6.583107,-3.135671,-14.2793045,9.257004,-16.406061,3.6117995,4.323357,-0.007028286,6.337453,20.967796,10.001626,-14.398885,52.004967,-10.280579,-3.6326437,13.459365,-5.2197537,-13.733732,36.378777,60.96512,8.248535,-3.7360222,-4.665017
92,2.2861995697021484,-1.198349952697754,77.33597564697266,-1.9498843228752543,1.078156859907939,-92.9164677095448,1.8308722,3.3024862,4.217476,19.1233,-22.680431,-2.2243047,5.7905374,-3.5146852,-14.350163,10.808209,-17.365194,3.676782,4.3248057,-0.13947533,6.2604995,21.0835,9.7830715,-13.690257,51.051712,-9.5970335,-3.4447439,13.493335,-4.809561,-13.955918,36.05675,60.53332,8.5536375,-3.8413012,-4.8023973
93,2.3694727420806885,-1.3474918603897095,77.24812316894531,-1.8060526175948808,1.3732369341878143,-92.75948151685286,1.3730906,3.0355349,4.090972,19.599525,-23.018133,-2.1557791,4.7746167,-4.0074368,-14.426307,12.719096,-18.537207,3.7535174,4.3100467,-0.342057,6.1627693,21.103636,9.545153,-12.928736,50.10996,-8.888646,-3.115859,13.42919,-4.389367,-14.169155,35.69685,60.14781,8.8061075,-3.96006,-4.8871694
94,2.4529452323913574,-1.4871209859848022,77.13948059082031,-1.6165531451313153,1.7101790018288223,-92.59328653071269,0.84070385,2.7136555,3.9619915,20.119589,-23.374931,-2.0961962,3.570463,-4.6012273,-14.493955,14.942244,-19.892195,3.8283281,4.278676,-0.5975075,6.0469093,21.034918,9.2871275,-12.135126,49.187553,-8.132453,-2.6904533,13.281756,-3.9570203,-14.3705845,35.317284,59.804615,9.027959,-4.083069,-4.939255
95,2.5443735122680664,-1.617732048034668,77.0096206665039,-1.4048710730152054,2.0136111544755266,-92.41985994761866,0.3041081,2.3686736,3.8327749,20.729404,-23.784184,-2.0361958,2.2559407,-5.2562184,-14.485626,17.487028,-21.339794,3.7938395,4.215017,-0.86818874,5.9872665,20.84952,9.022564,-11.421371,48.32778,-7.321738,-2.2535295,13.165255,-3.5236428,-14.557593,34.93656,59.50843,9.261584,-4.207413,-4.9898653
96,2.629284143447876,-1.7517589330673218,76.85517883300781,-1.1860742273553677,2.210342632562919,-92.24349732702704,-0.16247393,2.0215023,3.707397,21.462288,-24.27208,-1.9639602,0.91400146,-5.931687,-14.332528,20.34678,-22.781174,3.5471032,4.1108165,-1.1288116,6.057792,20.525963,8.774458,-10.905445,47.567127,-6.4549255,-1.8857898,13.194412,-3.093371,-14.727583,34.565037,59.256294,9.546543,-4.33005,-5.0696692
97,2.71355938911438,-1.8822364807128906,76.68194580078125,-0.941461681478069,2.2892364165328116,-92.07732053401595,-0.5380157,1.6516308,3.5990417,22.30898,-24.839638,-1.8723024,-0.43930802,-6.6362424,-14.011344,23.494488,-24.219877,3.0160918,3.9838967,-1.4087179,6.2743483,20.069506,8.554729,-10.630472,46.937954,-5.5472445,-1.6175979,13.46639,-2.661486,-14.876858,34.201416,59.04533,9.8905,-4.4573283,-5.196608
98,2.7944235801696777,-2.0162858963012695,76.49073791503906,-0.6579069963842535,2.2878557853315593,-91.9165844483411,-0.8577925,1.2399279,3.5044422,23.243586,-25.467161,-1.7657728,-1.8205057,-7.3732314,-13.549389,26.871393,-25.663528,2.276527,3.8438663,-1.7301261,6.5971727,19.493637,8.36519,-10.539444,46.40773,-4.601427,-1.395317,13.895908,-2.2217562,-15.003919,33.831497,58.873726,10.271337,-4.589328,-5.3504047
99,2.858341932296753,-2.1491339206695557,76.2833251953125,-0.35925031647487427,2.206477397207099,-91.7394520167399,-1.1319981,0.81005,3.401686,24.275562,-26.149647,-1.6496013,-3.200394,-8.092763,-12.962958,30.441383,-27.020523,1.4502877,3.6714306,-2.057904,7.018064,18.790442,8.215136,-10.602243,45.91437,-3.6000159,-1.174156,14.324301,-1.7724295,-15.1097355,33.445877,58.733524,10.686273,-4.7132273,-5.504021
100,2.92213773727417,-2.2857749462127686,76.0606689453125,-0.0748331965293392,2.045104548377108,-91.5235641784208,-1.3743035,0.39309448,3.2671757,25.423954,-26.889751,-1.5302793,-4.5614314,-8.751594,-12.275545,34.203148,-28.220089,0.6580667,3.4491775,-2.3533432,7.5289173,17.952265,8.118392,-10.791067,45.393265,-2.5258543,-0.91382813,14.590661,-1.3086811,-15.198341,33.031975,58.614475,11.132125,-4.8160152,-5.629897
101,2.9811038970947266,-2.409813404083252,75.81458282470703,0.1889069274623727,1.7808845776709672,-91.26045441110867,-1.5865358,-0.0038465522,3.093337,26.74204,-27.704384,-1.4016731,-5.9149427,-9.336087,-11.448739,38.24998,-29.221546,-0.10652153,3.169626,-2.6087327,8.158729,16.972132,8.08031,-11.107871,44.83837,-1.2822071,-0.5657068,14.62195,-0.8337257,-15.272301,32.55789,58.505104,11.616681,-4.8869305,-5.696914
102,3.045297145843506,-2.543919801712036,75.55709838867188,0.441763602723277,1.4211376192812912,-90.96346601453038,-1.7625761,-0.38809636,2.8890011,28.208672,-28.591038,-1.2624606,-7.263946,-9.8554535,-10.498343,42.555847,-30.069473,-0.88590956,2.850683,-2.8454392,8.901246,15.856484,8.097824,-11.572219,44.277817,0.088708036,-0.16932458,14.507936,-0.34054905,-15.331697,32.033703,58.405907,12.139053,-4.9345427,-5.7268863
103,3.0951058864593506,-2.6509580612182617,75.27674865722656,0.6749909366625092,1.0108553843414565,-90.64240135234816,-1.9013835,-0.74812233,2.6557071,29.725456,-29.511774,-1.126828,-8.579543,-10.311018,-9.526362,46.95605,-30.830177,-1.6261426,2.51143,-3.0637383,9.695409,14.617803,8.170071,-12.183022,43.69638,1.3955345,0.18142994,14.335064,0.19213487,-15.377036,31.50999,58.323105,12.683191,-4.9753556,-5.7716737
104,3.1360254287719727,-2.762497901916504,74.98808288574219,0.8796952267561435,0.5951475342947371,-90.30640327293376,-2.0016708,-1.0756912,2.3975732,31.191912,-30.426691,-1.0109973,-9.838035,-10.715636,-8.627741,51.306835,-31.582066,-2.2821944,2.168067,-3.2624507,10.480156,13.268191,8.296022,-12.938901,43.078423,2.4450884,0.39766392,14.195003,0.7845354,-15.408981,31.039585,58.26382,13.233813,-5.027019,-5.8833466
105,3.1657378673553467,-2.883981943130493,74.6895751953125,1.0416906292999586,0.17312435676134402,-89.95859899912973,-2.0753124,-1.3585476,2.1159134,32.63664,-31.355509,-0.9193407,-11.03833,-11.038665,-7.779036,55.662865,-32.40276,-2.8125143,1.8225962,-3.4269283,11.255263,11.787796,8.47211,-13.880128,42.478542,3.115919,0.39226514,14.145514,1.4382585,-15.42671,30.63644,58.23361,13.82937,-5.103029,-6.1024904
106,3.1990387439727783,-3.0146243572235107,74.38557434082031,1.165301919640273,-0.2742719056097805,-89.59377002318179,-2.1194274,-1.6044277,1.8102709,34.094807,-32.308857,-0.84554154,-12.198452,-11.296034,-6.9457088,60.110714,-33.255196,-3.2569077,1.466803,-3.5623395,12.046878,10.175843,8.690051,-14.999935,41.88475,3.5314336,0.2355519,14.131495,2.144527,-15.430945,30.272524,58.229553,14.463698,-5.1937075,-6.392209
107,3.2118146419525146,-3.206153154373169,74.09534454345703,1.2741621917925785,-0.7290430811693585,-89.20814421821548,-2.1102073,-1.8380506,1.4831464,35.473484,-33.23327,-0.7896125,-13.322813,-11.578328,-6.1962028,64.554115,-34.04935,-3.7030313,1.098364,-3.6935203,12.833015,8.476808,8.939136,-16.225365,41.179626,3.8671722,0.076982416,14.075625,2.911104,-15.423532,29.938974,58.240726,15.053615,-5.2799344,-6.687936
108,3.216240644454956,-3.3641695976257324,73.80561065673828,1.3921767121370643,-1.1738947191611415,-88.79768020471967,-2.0252128,-2.0847218,1.1366153,36.682537,-34.075344,-0.75100166,-14.413817,-11.980197,-5.597763,68.88692,-34.684826,-4.238867,0.71179175,-3.8454347,13.589641,6.7380476,9.208968,-17.478758,40.244495,4.3020315,0.064994596,13.899327,3.7420595,-15.407083,29.631966,58.26129,15.5181465,-5.340937,-6.925899
109,3.210435390472412,-3.548628091812134,73.53236389160156,1.5395172275687938,-1.6290744161320603,-88.34453007369464,-1.8448051,-2.3702848,0.7619543,37.71889,-34.83269,-0.73334086,-15.451902,-12.561054,-5.1774826,73.16383,-35.118446,-4.9106994,0.2926047,-4.037411,14.336416,4.9516435,9.49763,-18.768887,39.03975,4.8677654,0.25367346,13.550951,4.6375937,-15.382924,29.347935,58.294075,15.825044,-5.360276,-7.081624
110,3.202991485595703,-3.7578117847442627,73.28096771240234,1.697409727039177,-2.0961261605640145,-87.85599845137189,-1.5845101,-2.678015,0.36196253,38.622093,-35.52834,-0.73512256,-16.435684,-13.279663,-4.8865943,77.42077,-35.415695,-5.6751194,-0.15369311,-4.2541485,15.073113,3.1044118,9.800413,-20.130428,37.624462,5.4769583,0.5567336,13.07844,5.596662,-15.351495,29.093384,58.342884,16.023016,-5.350771,-7.1917024
111,3.197377920150757,-3.9328103065490723,73.04410552978516,1.8441886020848994,-2.529865608282605,-87.3655353103606,-1.2755699,-2.9691517,-0.044615403,39.36841,-36.148052,-0.74695057,-17.39613,-14.07715,-4.680374,81.51717,-35.63455,-6.4866486,-0.60684645,-4.4646225,15.74493,1.2345423,10.103505,-21.519756,36.03237,6.132109,0.9105167,12.553806,6.618916,-15.314095,28.882212,58.407158,16.15088,-5.3341045,-7.284959
112,3.198899030685425,-4.183290004730225,72.84931182861328,1.9517897491600564,-2.884483923320243,-86.90648225603275,-0.94935346,-3.2024896,-0.43955556,39.933323,-36.67559,-0.75941175,-18.369686,-14.88539,-4.519313,85.30978,-35.82933,-7.292695,-1.0521934,-4.633355,16.29694,-0.622227,10.390577,-22.88607,34.304314,6.8375707,1.2523663,12.051281,7.6987667,-15.273908,28.733057,58.491344,16.246805,-5.3325057,-7.3912497
113,3.201507806777954,-4.437860012054443,72.67967224121094,2.023916480073766,-3.1530892732396034,-86.49324202303265,-0.60647815,-3.373251,-0.8138376,40.316673,-37.11748,-0.76227415,-19.366043,-15.719039,-4.40723,88.81335,-35.97001,-8.107261,-1.4726008,-4.7489896,16.712366,-2.4959714,10.656268,-24.253515,32.44365,7.6112466,1.5708807,11.585901,8.850241,-15.233508,28.674276,58.61571,16.297087,-5.35761,-7.5260973
114,3.179443359375,-4.741848468780518,72.56427001953125,2.073106428112122,-3.3582896380658553,-86.1051853961505,-0.2329671,-3.5010712,-1.1795816,40.52923,-37.47603,-0.7616532,-20.366488,-16.609653,-4.360546,92.096535,-36.043945,-8.952152,-1.8842335,-4.8262854,17.017622,-4.3909197,10.899862,-25.634996,30.434782,8.449367,1.8962725,11.118926,10.070238,-15.1948185,28.692541,58.77762,16.290205,-5.3949003,-7.6713896
115,3.1590287685394287,-5.0569167137146,72.483154296875,2.089807509818486,-3.497237638791815,-85.72350242089226,0.16162767,-3.5784698,-1.5496635,40.563305,-37.738968,-0.7730573,-21.373766,-17.500576,-4.364668,95.099106,-36.12064,-9.775163,-2.323482,-4.863945,17.224205,-6.237368,11.114759,-26.95912,28.29807,9.323949,2.2286048,10.646597,11.327274,-15.160332,28.745745,58.946278,16.268648,-5.4277043,-7.806734
116,3.1125078201293945,-5.42112922668457,72.45100402832031,2.065166077340257,-3.5674159116953783,-85.3298317389832,0.56736594,-3.5962908,-1.9370326,40.411957,-37.891888,-0.8125853,-22.390629,-18.328129,-4.412992,97.75524,-36.26709,-10.518578,-2.8273165,-4.8585815,17.344421,-7.967474,11.294108,-28.149828,26.059652,10.210804,2.5678635,10.165806,12.58937,-15.133523,28.79224,59.089226,16.27593,-5.4398017,-7.91204
117,3.0814554691314697,-5.776872634887695,72.45067596435547,1.9970721169416767,-3.5679364661614965,-84.91126220040134,0.9738814,-3.5502346,-2.3541174,40.089653,-37.94343,-0.892793,-23.423433,-19.109518,-4.5335026,100.06717,-36.510918,-11.191101,-3.4070067,-4.798494,17.379974,-9.606113,11.43744,-29.196157,23.702383,11.183572,2.946563,9.669656,13.871445,-15.114829,28.82922,59.20497,16.338655,-5.4368706,-7.9873133
118,3.056150197982788,-6.1452836990356445,72.49276733398438,1.8910665798577386,-3.4999963360329254,-84.48058139288405,1.3874888,-3.4425626,-2.7915344,39.597443,-37.898846,-1.0021846,-24.47266,-19.86134,-4.725286,102.06764,-36.803238,-11.803293,-4.039708,-4.6840143,17.326887,-11.177159,11.550195,-30.135227,21.227303,12.233166,3.3521113,9.159861,15.188359,-15.103964,28.873848,59.302288,16.429361,-5.4240093,-8.041346
119,3.023573637008667,-6.539285182952881,72.57968139648438,1.74984139817595,-3.363128362513742,-84.05950991264409,1.8242416,-3.27267,-3.227451,38.907158,-37.7398,-1.1208985,-25.540108,-20.50529,-4.943105,103.73519,-37.084423,-12.296496,-4.7106905,-4.5291505,17.192842,-12.623089,11.637588,-30.96241,18.70311,13.206846,3.7134058,8.652313,16.508656,-15.104567,28.912643,59.359875,16.511402,-5.3835716,-8.068136
120,2.9810791015625,-6.956229209899902,72.70982360839844,1.5769742912061073,-3.1567818085466817,-83.67002000937504,2.298839,-3.0399086,-3.6403933,37.992912,-37.44886,-1.2274894,-26.628136,-20.9615,-5.152009,105.04654,-37.29651,-12.619009,-5.4094925,-4.3469186,16.986094,-13.886408,11.701988,-31.667091,16.197134,13.952547,3.963127,8.166586,17.798487,-15.122882,28.935251,59.35615,16.548832,-5.298017,-8.061996
121,2.9446215629577637,-7.384819507598877,72.88092041015625,1.3730134760362047,-2.874126467884762,-83.3084310173599,2.8111963,-2.7441235,-4.034921,36.8305,-37.036438,-1.3206984,-27.76558,-21.199827,-5.3417587,105.98983,-37.467926,-12.752822,-6.14953,-4.138308,16.707151,-14.958467,11.744053,-32.21197,13.6772995,14.44736,4.112633,7.6709013,19.056278,-15.15799,28.957453,59.28672,16.528988,-5.139611,-8.016162
122,2.904308319091797,-7.844619274139404,73.0927963256836,1.138941035021225,-2.517544719924816,-82.96739131759334,3.3537996,-2.3834465,-4.4185658,35.44195,-36.508377,-1.4092089,-28.94949,-21.263958,-5.5405073,106.57834,-37.605415,-12.724328,-6.915527,-3.888236,16.366165,-15.872329,11.7785845,-32.63381,11.109156,14.755124,4.1951213,7.1798587,20.325447,-15.222952,28.95425,59.121494,16.467735,-4.9223766,-7.9307766
123,2.855468988418579,-8.334853172302246,73.3470230102539,0.8757790602296212,-2.1023372830160487,-82.66286350690625,3.9259558,-1.9584225,-4.7739124,33.8792,-35.84571,-1.4922323,-30.132057,-21.191586,-5.7690773,106.82538,-37.625988,-12.548727,-7.7068996,-3.603584,15.964817,-16.631603,11.801697,-32.956226,8.602023,14.879626,4.172201,6.7619615,21.553226,-15.299406,28.931744,58.910515,16.387033,-4.700365,-7.825956
124,2.8185389041900635,-8.83619499206543,73.63088989257812,0.5857055518903859,-1.6427527942030058,-82.4112923601514,4.5294976,-1.4710038,-5.0802803,32.184544,-35.025192,-1.5734873,-31.268368,-21.013834,-6.0409656,106.742195,-37.43756,-12.235411,-8.47484,-3.2699196,15.527548,-17.24301,11.829424,-33.27312,6.2210555,14.799886,4.01192,6.506678,22.777096,-15.421214,28.819496,58.58451,16.295036,-4.5174956,-7.7059155
125,2.7806107997894287,-9.362831115722656,73.94408416748047,0.2560426989326557,-1.1200700643343808,-82.22705782228299,5.1981554,-0.9069756,-5.3321667,30.241396,-34.033054,-1.654684,-32.38868,-20.683994,-6.338891,106.30366,-37.053967,-11.713702,-9.2328415,-2.8797188,15.031765,-17.683382,11.860796,-33.54496,3.9777846,14.4230175,3.6826482,6.435885,23.968138,-15.57569,28.625763,58.175068,16.207867,-4.3898993,-7.5723953
126,2.744723320007324,-9.912092208862305,74.2782974243164,-0.10942254308035207,-0.5351235055063641,-82.10012663471429,5.9145474,-0.27946842,-5.5335784,28.07722,-32.88726,-1.7383131,-33.5026,-20.206398,-6.654692,105.50938,-36.51641,-11.000663,-9.988073,-2.4347582,14.48611,-17.961193,11.897999,-33.7527,1.826756,13.78504,3.2119164,6.505337,25.141457,-15.764129,28.361477,57.66937,16.11302,-4.289962,-7.4196057
127,2.706819772720337,-10.472009658813477,74.62926483154297,-0.48101055238130835,0.06722098436149199,-82.00964462590464,6.6024632,0.36660174,-5.681235,25.954088,-31.614939,-1.8287814,-34.52889,-19.68809,-7.019729,104.41039,-35.779808,-10.240986,-10.729652,-1.9633638,13.935761,-18.12903,11.947389,-33.952312,-0.20514925,13.080897,2.6474366,6.680171,26.292612,-15.980316,28.040209,57.073883,15.989918,-4.2089086,-7.258911
128,2.6628711223602295,-11.052923202514648,75.00312805175781,-0.8366641876945833,0.643345658162784,-81.93414520542842,7.191211,0.99032956,-5.7765255,24.122124,-30.23771,-1.9273262,-35.386547,-19.230957,-7.467314,103.05812,-34.794067,-9.577834,-11.445173,-1.4967415,13.422523,-18.239561,12.017133,-34.20408,-2.09016,12.503576,2.0378509,6.9289,27.413723,-16.211678,27.674034,56.402733,15.8160095,-4.1388564,-7.1019926
129,2.6199941635131836,-11.640734672546387,75.39131164550781,-1.1895014890452633,1.1906967360456373,-81.8740060413728,7.6735063,1.6103022,-5.813782,22.614761,-28.721016,-2.0302444,-36.057068,-18.837656,-8.031079,101.433,-33.54592,-9.074804,-12.143898,-1.024638,12.952575,-18.295952,12.113951,-34.519714,-3.8226078,12.08205,1.3743579,7.2835374,28.492342,-16.452108,27.251604,55.66277,15.561072,-4.08734,-6.949528
130,2.5740714073181152,-12.239107131958008,75.79581451416016,-1.5457110913654333,1.7295363983824545,-81.8405181339349,8.074784,2.2302701,-5.7970066,21.32252,-27.073322,-2.1336966,-36.578045,-18.45451,-8.679307,99.518196,-32.065453,-8.642583,-12.826327,-0.5405473,12.504613,-18.27281,12.240173,-34.868805,-5.422512,11.724096,0.6366954,7.746939,29.53001,-16.698364,26.771688,54.854595,15.243137,-4.0567317,-6.7969985
131,2.5141944885253906,-12.859392166137695,76.20799255371094,-1.869607131846532,2.2512497716120334,-81.82767073188117,8.378753,2.7975383,-5.7476616,20.274284,-25.369123,-2.235697,-36.954334,-18.09321,-9.348683,97.372955,-30.36416,-8.192071,-13.4672365,-0.08284811,12.074443,-18.182697,12.39634,-35.25056,-6.895126,11.4377775,-0.14172953,8.247007,30.531464,-16.940298,26.262674,53.99468,14.913702,-4.032702,-6.6492233
132,2.453404664993286,-13.474609375,76.6208724975586,-2.1271776851111053,2.7478994327535036,-81.8276375994973,8.573276,3.269825,-5.6890516,19.496384,-23.682295,-2.3372352,-37.1903,-17.758726,-9.985484,95.05382,-28.453186,-7.642995,-14.04273,0.31105855,11.654999,-18.038216,12.5812845,-35.664703,-8.242427,11.229755,-0.92640287,8.712337,31.498907,-17.161066,25.754658,53.1049,14.622784,-4.0011277,-6.5113106
133,2.378110647201538,-14.103195190429688,77.03573608398438,-2.3127521350331146,3.223740654285168,-81.82975218292488,8.655264,3.6502361,-5.6305923,18.98786,-21.976212,-2.458027,-37.275856,-17.50599,-10.635042,92.538734,-26.18034,-6.9927764,-14.55587,0.63247234,11.237233,-17.870625,12.799937,-36.144188,-9.4434595,11.118932,-1.6907746,9.170936,32.439754,-17.348248,25.235329,52.175896,14.40083,-3.960871,-6.382094
134,2.2969651222229004,-14.739173889160156,77.44752502441406,-2.4484504424842926,3.682861606326278,-81.83902074979989,8.636787,3.9712903,-5.5643587,18.726717,-20.224627,-2.5936055,-37.211933,-17.288498,-11.307928,89.810196,-23.591505,-6.275159,-15.014304,0.9018042,10.821528,-17.669497,13.053939,-36.682087,-10.500641,11.095367,-2.4566224,9.647421,33.339138,-17.497911,24.696709,51.21967,14.212992,-3.9204204,-6.261641
135,2.2083992958068848,-15.386242866516113,77.83931732177734,-2.5425629976598643,4.117391747837016,-81.86936144460262,8.537635,4.2402906,-5.4854097,18.691622,-18.506329,-2.7219174,-37.024574,-16.968267,-11.885465,86.92593,-20.991585,-5.4592175,-15.402194,1.1249688,10.413495,-17.388346,13.332228,-37.217793,-11.442008,11.122808,-3.2644753,10.065415,34.163704,-17.608822,24.176895,50.292725,14.012395,-3.8804147,-6.157261
136,2.119406223297119,-16.044164657592773,78.2138671875,-2.6024211367901002,4.518839744550079,-81.93476257571655,8.381259,4.4626555,-5.385226,18.854673,-16.899519,-2.8202717,-36.739727,-16.426153,-12.241789,83.939705,-18.688332,-4.5164304,-15.702743,1.3076729,10.017478,-16.988388,13.6170845,-37.688576,-12.284663,11.162527,-4.1540036,10.346067,34.882507,-17.683342,23.71226,49.450123,13.75373,-3.8415675,-6.076464
137,2.013655185699463,-16.708507537841797,78.56780242919922,-2.616983588940321,4.900101418759494,-82.03438578953758,8.16363,4.6255107,-5.2607102,19.180244,-15.354527,-2.9020019,-36.35019,-15.676364,-12.362859,80.79544,-16.754318,-3.4478822,-15.914381,1.4403177,9.615108,-16.462631,13.895089,-38.089542,-13.002898,11.238894,-5.1955123,10.460525,35.50496,-17.719234,23.320229,48.699165,13.474849,-3.8158357,-6.043967
138,1.9092812538146973,-17.376583099365234,78.8896713256836,-2.5891183478812625,5.261109260391108,-82.15899107159734,7.891683,4.734502,-5.1141977,19.65755,-13.83532,-2.9910772,-35.838833,-14.785595,-12.299881,77.48021,-15.036008,-2.2774508,-16.04409,1.5251033,9.20556,-15.848492,14.161845,-38.450787,-13.572111,11.358569,-6.3484445,10.453167,36.04368,-17.717566,22.975468,48.014706,13.183226,-3.7988532,-6.0488706
139,1.7997410297393799,-18.05489158630371,79.17884063720703,-2.546663057825021,5.573109151988989,-82.30951858901909,7.5918446,4.8180785,-4.945361,20.324656,-12.443411,-3.0707862,-35.210197,-13.731566,-12.028952,74.10587,-13.50401,-1.0221629,-16.093382,1.587343,8.821559,-15.158874,14.411299,-38.75948,-14.02167,11.462385,-7.4875016,10.352991,36.47789,-17.687931,22.654947,47.3946,12.790507,-3.766298,-6.043238
140,1.6916040182113647,-18.72827911376953,79.42832946777344,-2.517445200569965,5.806896221144487,-82.4877483536968,7.2863045,4.903653,-4.752761,21.22973,-11.284812,-3.1098385,-34.468758,-12.493524,-11.525161,70.78626,-12.132075,0.30077854,-16.066359,1.6536242,8.496679,-14.403289,14.637112,-38.999706,-14.386648,11.491848,-8.487182,10.185884,36.79061,-17.645872,22.337914,46.82999,12.209092,-3.6935778,-5.977579
141,1.5847481489181519,-19.40926742553711,79.63300323486328,-2.5003157426515052,5.9584915737450155,-82.70137271094931,6.9784803,4.986338,-4.5459414,22.37295,-10.384764,-3.068817,-33.60735,-10.99025,-10.673814,67.46856,-10.963174,1.734017,-15.956665,1.7277603,8.230108,-13.581804,14.825065,-39.167797,-14.643968,11.4390335,-9.369169,9.940858,36.994846,-17.60259,22.000017,46.310337,11.338312,-3.5526946,-5.8093386
142,1.4785577058792114,-20.096281051635742,79.79237365722656,-2.4780359964044845,6.0397997977659355,-82.94506846261318,6.6602926,5.046427,-4.320451,23.72923,-9.682506,-2.9640598,-32.599213,-9.306625,-9.514133,64.11685,-10.017109,3.2363198,-15.767328,1.7912647,8.008706,-12.683251,14.986143,-39.274628,-14.796909,11.328525,-10.181659,9.60855,37.102352,-17.556154,21.655855,45.8307,10.250528,-3.3660607,-5.569288
143,1.3647303581237793,-20.782962799072266,79.89595794677734,-2.4527802216585366,6.045642197960127,-83.20412333314202,6.3436785,5.0938234,-4.0522346,25.297882,-9.156654,-2.833626,-31.436655,-7.649645,-8.258343,60.87123,-9.215438,4.6794705,-15.519486,1.8405485,7.8395667,-11.722373,15.1108265,-39.31646,-14.870366,11.159695,-10.8401165,9.20831,37.09523,-17.515558,21.3534,45.39381,9.125146,-3.182995,-5.3223796
144,1.261554479598999,-21.474565505981445,79.94438934326172,-2.427967246125421,5.971980303334413,-83.4665658783342,6.0376005,5.1437044,-3.7174366,27.086521,-8.795078,-2.7120697,-30.138407,-6.1908813,-7.124549,57.874683,-8.458569,5.965362,-15.230972,1.874223,7.7324934,-10.706095,15.203152,-39.29104,-14.902724,10.931993,-11.259395,8.763521,36.95728,-17.491312,21.136786,44.998013,8.14075,-3.048248,-5.134675
145,1.1557749509811401,-22.164278030395508,79.93606567382812,-2.401850461202766,5.803818414809917,-83.73282803141123,5.743082,5.2290297,-3.2672458,29.157509,-8.701445,-2.5460413,-28.700422,-4.886943,-6.1043196,55.10505,-7.524533,7.294652,-14.900964,1.8892138,7.691057,-9.6417,15.23858,-39.20166,-14.885143,10.614244,-11.37545,8.241305,36.689423,-17.490026,21.032043,44.646687,7.356673,-2.9772284,-5.0082593
146,1.048970341682434,-22.851680755615234,79.8705062866211,-2.3680291026755227,5.548101900379671,-84.01109638268589,5.4416227,5.3489513,-2.7351696,31.523773,-8.870771,-2.312145,-27.13044,-3.656466,-5.099165,52.50491,-6.520742,8.667305,-14.536088,1.8837485,7.721169,-8.476584,15.275159,-39.02867,-14.8772955,10.212798,-11.245461,7.6434174,36.288918,-17.518208,21.014767,44.332535,6.670252,-2.9416897,-4.9108624
147,0.9314385056495667,-23.541118621826172,79.74270629882812,-2.3268504506246015,5.23490941297775,-84.3018531005398,5.0995307,5.4700365,-2.2208686,34.148228,-9.134603,-2.0935743,-25.487427,-2.5910444,-4.2205563,50.170444,-5.8114595,9.694209,-14.132511,1.8673847,7.79953,-7.244864,15.289198,-38.78368,-14.82396,9.808563,-10.966452,7.0520043,35.768147,-17.575521,21.061377,44.04189,6.0397887,-2.9184897,-4.867345
148,0.8239293694496155,-24.21625328063965,79.56327056884766,-2.2801989123576427,4.8942880133665705,-84.60527065971388,4.6834517,5.547468,-1.8178467,36.994556,-9.31421,-1.9829295,-23.83707,-1.7823515,-3.6015952,48.20528,-5.75254,9.977445,-13.690293,1.851493,7.9126644,-5.9605584,15.283032,-38.465504,-14.705767,9.474754,-10.639178,6.5415545,35.130833,-17.660145,21.137245,43.76294,5.4128194,-2.884419,-4.8988566
149,0.7177779078483582,-24.856334686279297,79.32771301269531,-2.222129021756404,4.513321360262498,-84.92633676601186,4.195308,5.5713296,-1.5181334,40.109493,-9.343238,-2.0199227,-22.204042,-1.2823298,-3.372983,46.750046,-6.450446,9.178208,-13.198733,1.8225981,8.068537,-4.6222467,15.256509,-38.08124,-14.517462,9.217671,-10.252719,6.1212397,34.374855,-17.766945,21.251896,43.513287,4.819414,-2.8614268,-4.9985757
150,0.5987977981567383,-25.524993896484375,79.02799987792969,-2.155706858183821,4.082933061664246,-85.26507194860203,3.6399596,5.5806975,-1.2859454,43.524605,-9.338258,-2.1387305,-20.573498,-0.98591083,-3.4353895,45.736797,-7.7131624,7.6098795,-12.660435,1.7838725,8.273949,-3.2220724,15.208986,-37.62902,-14.275073,9.002029,-9.767896,5.7554784,33.49529,-17.894878,21.418524,43.294495,4.2718964,-2.851011,-5.1592045
151,0.4847261905670166,-26.18939208984375,78.66651153564453,-2.096147782546342,3.6388847235496433,-85.61326421984234,2.9938014,5.579524,-1.1631198,47.174217,-9.391647,-2.2925022,-18.949867,-0.7580817,-3.576263,44.95647,-9.443914,5.843129,-12.089694,1.767147,8.511114,-1.7660254,15.14303,-37.101547,-13.990117,8.836577,-9.243832,5.452592,32.493515,-18.039211,21.605473,43.073105,3.6896083,-2.7991352,-5.40127
152,0.39165499806404114,-26.851835250854492,78.2333755493164,-2.0601176797015235,3.217068311269691,-85.9615625150218,2.240002,5.5571747,-1.1862218,50.98136,-9.587423,-2.4498217,-17.326832,-0.4890563,-3.5980594,44.173058,-11.520629,4.428354,-11.498852,1.8036029,8.761108,-0.2606219,15.062972,-36.494774,-13.6751375,8.728468,-8.739598,5.220629,31.369719,-18.194254,21.777836,42.81745,2.9913676,-2.6507206,-5.7442327
153,0.30066531896591187,-27.495607376098633,77.73779296875,-2.022657397701454,2.818192094274596,-86.297409300127,1.3792018,5.4421835,-1.3671283,55.0053,-9.94129,-2.6382945,-15.640864,-0.21548283,-3.470559,43.300816,-14.109647,3.4651158,-10.89313,1.8774556,9.007971,1.2993813,14.972233,-35.833782,-13.351716,8.6667385,-8.200836,5.0200396,30.147371,-18.354734,21.905523,42.50975,2.0452745,-2.3508346,-6.1820188
154,0.2105100303888321,-28.13522720336914,77.18972778320312,-1.9829513061608104,2.4260270519182976,-86.62845316072789,0.42672104,5.239432,-1.6732315,59.26543,-10.41417,-2.882468,-13.913184,0.024225265,-3.2868605,42.46278,-17.202185,2.6645656,-10.262741,1.9754353,9.264895,2.9182098,14.869718,-35.11671,-13.015148,8.649117,-7.620022,4.8608813,28.815466,-18.51816,22.012793,42.173557,0.93195623,-1.9366719,-6.7025366
155,0.11798756569623947,-28.75450325012207,76.6060562133789,-1.9894273056067604,2.0511736578881754,-86.97499964635749,-0.6066998,5.0336046,-2.0700293,63.61408,-11.003397,-3.1587389,-12.2637205,0.30585483,-3.0559444,41.731384,-20.405422,1.9829934,-9.601316,2.129084,9.552479,4.591405,14.751293,-34.29635,-12.639625,8.690846,-7.127226,4.823994,27.323715,-18.683498,22.150589,41.837585,-0.10892576,-1.4924254,-7.3187084
156,0.0301087386906147,-29.35696792602539,75.99440002441406,-2.092280932732658,1.7037324076248697,-87.35683333296579,-1.7108028,4.9096723,-2.5269215,67.90099,-11.698391,-3.4435227,-10.810958,0.7051181,-2.7883215,41.179,-23.330389,1.3871512,-8.90536,2.3739212,9.889716,6.319123,14.6101055,-33.32486,-12.204541,8.805414,-6.8503175,4.9888744,25.625065,-18.849483,22.370262,41.523537,-0.83814204,-1.1062274,-8.050177
157,-0.05205299332737923,-29.946189880371094,75.36920166015625,-2.334816737251982,1.3772199107697451,-87.74665761886689,-2.8957508,4.849917,-3.1228423,72.199905,-12.521094,-3.7537365,-9.564353,1.2597666,-2.513989,40.80907,-25.960636,0.9174933,-8.191586,2.7591035,10.285045,8.082673,14.435738,-32.18589,-11.642316,8.937629,-6.8624215,5.3091073,23.707571,-19.011326,22.689905,41.242027,-1.1074541,-0.8244169,-8.964744
158,-0.11916537582874298,-30.510738372802734,74.72599029541016,-2.6808858208307322,1.0679262912912555,-88.14392394842203,-4.1469817,4.789445,-3.8297184,76.55544,-13.472303,-4.12124,-8.469651,1.9132142,-2.228287,40.590927,-28.479977,0.58371425,-7.4551187,3.2539556,10.718801,9.885909,14.218542,-30.91452,-10.979289,9.097818,-7.081203,5.764012,21.601913,-19.166948,23.071926,40.971962,-1.0712358,-0.6002507,-10.03738
159,-0.19064432382583618,-31.07083511352539,74.09366607666016,-3.058305410311925,0.7896053916791435,-88.60700560397268,-5.418557,4.761155,-4.469861,80.75774,-14.499498,-4.5295734,-7.5420585,2.5973074,-1.8905436,40.544106,-30.806522,0.31369442,-6.660245,3.7745476,11.168099,11.766016,13.952835,-29.543941,-10.332403,9.398936,-7.400823,6.474198,19.32864,-19.320387,23.482992,40.682682,-0.94443166,-0.38314423,-11.149261
160,-0.26440438628196716,-31.614896774291992,73.49762725830078,-3.399701862157581,0.5563150952368499,-89.1955075686554,-6.6807184,4.826607,-4.881034,84.59624,-15.547194,-4.943603,-6.796976,3.2501087,-1.4600055,40.688057,-32.854412,0.033139,-5.7721615,4.240825,11.6122265,13.765931,13.639287,-28.103346,-9.819586,9.955208,-7.7107434,7.5615277,16.903128,-19.481144,23.897936,40.346478,-0.94059396,-0.1141425,-12.179426
161,-0.33022385835647583,-32.16088104248047,72.96117401123047,-3.728551147209364,0.38662089599354543,-89.97286793270383,-7.953461,5.053749,-5.0476694,88.07587,-16.596598,-5.411455,-6.3160167,3.9122412,-0.93384594,41.117245,-34.595833,-0.30402252,-4.7377434,4.676931,12.059757,15.914986,13.270847,-26.56943,-9.414858,10.964353,-8.010191,9.25509,14.188408,-19.666258,24.406618,40.026947,-0.98204744,0.2768691,-13.181645
162,-0.3649386763572693,-32.70225143432617,72.49141693115234,-4.072796684214658,0.26587320737991343,-90.89174146028734,-9.248604,5.412204,-5.058802,91.295265,-17.675783,-5.9223933,-6.0609765,4.5972724,-0.3411663,41.792706,-36.08137,-0.64444876,-3.5919533,5.1211495,12.508911,18.193,12.842464,-24.945879,-9.0656805,12.316819,-8.311763,11.430102,11.238686,-19.874298,24.98867,39.687794,-0.99031144,0.74190044,-14.190811
163,-0.367978572845459,-33.25220489501953,72.09527587890625,-4.363083939123937,0.1614688901370865,-91.8458787371657,-10.542929,5.8361397,-4.925342,94.18558,-18.78249,-6.3379097,-5.865385,5.2076273,0.30888906,42.521683,-37.337955,-0.9178894,-2.4267619,5.5146585,12.931068,20.571545,12.367204,-23.304699,-8.858611,13.658229,-8.545005,13.673623,8.342671,-20.080275,25.4628,39.181866,-1.1874247,1.1733904,-15.053784
164,-0.37870797514915466,-33.80559158325195,71.75592803955078,-4.5290910629712275,0.04378598356057128,-92.72954260346796,-11.818029,6.26018,-4.6611114,96.67011,-19.906336,-6.5178175,-5.5663686,5.6455307,1.0065715,43.11142,-38.386826,-1.0550481,-1.3281028,5.791194,13.306903,23.022697,11.871499,-21.719713,-8.895009,14.624708,-8.683803,15.570745,5.771459,-20.252842,25.651949,38.397694,-1.8108152,1.4662658,-15.614447
165,-0.3862125277519226,-34.39308547973633,71.49512481689453,-4.546276696153859,-0.11631797070711766,-93.57796576247355,-13.056644,6.7035804,-4.22496,98.7423,-21.057526,-6.379369,-5.179851,5.893643,1.8120927,43.653217,-39.224747,-0.99780095,-0.28954244,5.898585,13.697532,25.64985,11.361106,-20.131416,-9.301743,15.073265,-8.728671,17.08479,3.4947124,-20.371561,25.465984,37.338364,-3.1682105,1.5670784,-15.699667
166,-0.37494999170303345,-34.99531173706055,71.30294036865234,-4.45228386578032,-0.2921487730024318,-94.42811939616664,-14.2803335,7.1980534,-3.6326823,100.43971,-22.223969,-6.0023136,-4.7726884,6.002263,2.7004814,44.198746,-39.84183,-0.79644406,0.7338137,5.87778,14.098796,28.444653,10.836159,-18.5361,-10.009249,15.200139,-8.718545,18.413506,1.3696561,-20.437513,25.025095,36.106384,-5.066697,1.5264679,-15.438478
167,-0.3412267863750458,-35.59022521972656,71.17597198486328,-4.280419659178383,-0.42851153708147993,-95.17620796676022,-15.531002,7.692635,-2.9964986,101.7423,-23.35761,-5.509523,-4.259234,5.9727015,3.5383096,44.49167,-40.251343,-0.54618716,1.6982785,5.7909126,14.406697,31.226933,10.32941,-17.064827,-10.856087,15.153081,-8.708499,19.493471,-0.525287,-20.463173,24.487991,34.749805,-6.9898405,1.4048885,-15.128757
168,-0.2976265549659729,-36.30711364746094,71.14826965332031,-4.069596829341663,-0.47243766579974905,-95.71771725826865,-16.853786,8.134737,-2.4170713,102.62728,-24.408758,-5.018724,-3.5576131,5.8035746,4.1957,44.27851,-40.46404,-0.3449977,2.5595055,5.6909366,14.5240345,33.83098,9.901694,-15.84042,-11.710325,15.081428,-8.745222,20.262934,-2.088867,-20.46787,23.999393,33.277306,-8.424602,1.2885048,-15.0620365
169,-0.2543477714061737,-37.03490447998047,71.1932601928711,-3.814124482388324,-0.4184705115199256,-96.01926937843717,-18.273064,8.535065,-1.8823595,103.06483,-25.43413,-4.5118785,-2.6241324,5.4623947,4.638308,43.4564,-40.51175,-0.20215756,3.308105,5.5726986,14.435131,36.276302,9.605674,-14.885633,-12.63424,14.91399,-8.85579,20.633924,-3.216915,-20.45351,23.509138,31.562845,-9.255866,1.2204432,-15.297796
170,-0.21567852795124054,-37.809547424316406,71.32098388671875,-3.4987574238460484,-0.29404813582057104,-96.13840365268837,-19.757244,8.901757,-1.3404003,103.067635,-26.433277,-3.9538515,-1.51312,4.9579263,4.9346275,42.1811,-40.383255,-0.07675595,3.980438,5.3936396,14.207978,38.660248,9.457546,-14.127038,-13.723472,14.592957,-9.008895,20.668926,-3.9635577,-20.417248,22.944992,29.59136,-9.746774,1.1572235,-15.685428
171,-0.1827661693096161,-38.617801666259766,71.5228500366211,-3.1487334696502374,-0.09722631760086975,-96.10601207702435,-21.270416,9.182026,-0.82393855,102.6765,-27.27115,-3.4286118,-0.29170927,4.352628,5.1074867,40.584553,-40.022972,0.014118612,4.5921474,5.154891,13.870829,40.930264,9.458145,-13.534707,-14.892049,14.295215,-9.159057,20.533077,-4.456269,-20.38779,22.423777,27.52593,-9.947151,1.0660052,-16.195728
172,-0.15829241275787354,-39.44348907470703,71.78611755371094,-2.7857883249992335,0.17470150098259257,-95.95300127745931,-22.779764,9.330198,-0.36685622,101.93326,-27.809605,-3.013783,0.9702133,3.7139728,5.1762276,38.794365,-39.37297,0.06565034,5.15332,4.847617,13.451415,43.03449,9.612735,-13.053184,-16.056463,14.195737,-9.26553,20.382803,-4.8298464,-20.375525,22.06596,25.542103,-9.917056,0.9106929,-16.794325
173,-0.13528144359588623,-40.319557189941406,72.10712432861328,-2.4153119051225294,0.542603583758731,-95.63101248828671,-24.327286,9.338103,0.010095956,100.82581,-28.011429,-2.713283,2.325358,3.0578654,5.1073523,36.65945,-38.39734,0.060460325,5.6148167,4.485064,12.917892,44.95366,9.934442,-12.692475,-17.198854,14.410603,-9.325358,20.24634,-5.071887,-20.422148,21.95394,23.630177,-9.492611,0.66106117,-17.560602
174,-0.10688917338848114,-41.234657287597656,72.47004699707031,-2.0234403043591254,0.993799704638606,-95.13995657288473,-25.899414,9.22227,0.34682462,99.33105,-27.953144,-2.4940958,3.7855537,2.3716662,4.8829226,34.17211,-37.137104,0.028402505,5.989493,4.0683126,12.27844,46.713005,10.430235,-12.451563,-18.36619,14.821165,-9.360164,20.040236,-5.0949,-20.531944,21.99252,21.6705,-8.699752,0.33092138,-18.475142
175,-0.07757003605365753,-42.17560958862305,72.86954498291016,-1.6105831721798598,1.4823455668456254,-94.58349118752345,-27.383295,8.984438,0.69480944,97.478615,-27.66768,-2.3681219,5.2197404,1.678768,4.553878,31.667719,-35.63639,0.0285626,6.377129,3.609878,11.610253,48.305153,11.055899,-12.31043,-19.541176,15.272126,-9.366971,19.775497,-4.908859,-20.700266,22.05431,19.66846,-7.866707,-0.038544,-19.363958
176,-0.04063282534480095,-43.130496978759766,73.29753875732422,-1.1806776087540076,1.9645371446025126,-94.06585571839524,-28.671696,8.633096,1.0913813,95.29961,-27.187817,-2.3496015,6.4911313,0.98683035,4.188585,29.49157,-33.94091,0.09850043,6.8620234,3.125196,10.987415,49.71538,11.735635,-12.246541,-20.684582,15.62041,-9.342747,19.458778,-4.550121,-20.91844,22.031536,17.658989,-7.3198414,-0.3913963,-20.059134
177,0.0203982125967741,-44.096038818359375,73.75332641601562,-0.708353359441172,2.442079383687476,-93.5795885718224,-29.75429,8.152839,1.5632166,92.75813,-26.47333,-2.4487405,7.612463,0.25420973,3.784395,27.640451,-31.999172,0.21416646,7.4248796,2.5915868,10.416925,50.915863,12.42955,-12.256943,-21.7696,15.875348,-9.27448,19.053133,-4.0380945,-21.189634,21.936483,15.671793,-7.134436,-0.7405997,-20.533163
178,0.08353222161531448,-45.079429626464844,74.23568725585938,-0.20277040214763456,2.9319939894932716,-93.07755379831202,-30.671715,7.544791,2.0764296,89.8466,-25.527826,-2.6582508,8.626813,-0.49877518,3.3211334,25.988564,-29.81641,0.34543443,8.004162,2.0204203,9.864034,51.909187,13.136568,-12.34067,-22.793581,16.118877,-9.172169,18.557669,-3.3796444,-21.51864,21.839676,13.706375,-7.138608,-1.0994661,-20.872875
179,0.1643398255109787,-46.08130645751953,74.73193359375,0.28026566585015295,3.4180345447411478,-92.60687905648321,-31.4053,6.8531528,2.5600996,86.637474,-24.445896,-2.9628391,9.448545,-1.1985983,2.8630261,24.685831,-27.520977,0.5057629,8.619471,1.4757675,9.337138,52.72037,13.831133,-12.483366,-23.74824,16.319159,-9.064856,18.034184,-2.5978937,-21.892706,21.726795,11.761773,-7.2883005,-1.4045815,-21.08743
180,0.26000145077705383,-47.08235549926758,75.23713684082031,0.6867822047441808,3.887798499909911,-92.21851328248279,-31.945827,6.12988,2.9380107,83.20258,-23.321613,-3.3403847,9.99912,-1.789241,2.4809668,23.871542,-25.230791,0.71607465,9.285008,1.016521,8.840957,53.374435,14.474486,-12.668835,-24.62244,16.448902,-8.980983,17.543303,-1.7334621,-22.28901,21.59462,9.857202,-7.5430455,-1.5939835,-21.186592
181,0.36791762709617615,-48.08815383911133,75.7421875,1.0147351340102502,4.372739993201707,-91.93729568916821,-32.3155,5.4040413,3.2056055,79.48986,-22.127932,-3.700823,10.252727,-2.2913818,2.18867,23.514715,-22.83724,1.0611849,10.01222,0.6469754,8.345103,53.84732,15.041174,-12.913476,-25.393982,16.476944,-8.918312,17.08527,-0.79771745,-22.693758,21.446238,8.0058775,-7.986715,-1.617513,-21.126577
182,0.48755040764808655,-49.10309600830078,76.24171447753906,1.2920600284677954,4.874328372868757,-91.7366306904915,-32.518017,4.6612854,3.3759964,75.48492,-20.840376,-4.0674725,10.2644415,-2.7431283,1.9735959,23.543343,-20.315083,1.5197786,10.77247,0.32922992,7.8501706,54.13497,15.525513,-13.215055,-26.065136,16.437521,-8.865391,16.627375,0.19240496,-23.104956,21.308622,6.233564,-8.61508,-1.522143,-20.917774
183,0.6121353507041931,-50.1198844909668,76.7247085571289,1.508731451079168,5.336364217885347,-91.59526973267242,-32.51729,3.8955631,3.398051,71.29916,-19.546692,-4.576533,10.100159,-3.1210933,1.855912,23.979397,-17.877306,1.9627626,11.522678,0.061233442,7.4048986,54.296577,15.9152,-13.528915,-26.661684,16.400288,-8.837419,16.180286,1.183864,-23.511969,21.21729,4.5835905,-9.253309,-1.39079,-20.652327
184,0.7304586172103882,-51.12548065185547,77.17839813232422,1.65503935203016,5.701430684923438,-91.49142809078084,-32.28103,3.09837,3.21981,67.04488,-18.333406,-5.3658195,9.8137455,-3.4012096,1.8380796,24.866966,-15.744492,2.2473447,12.21399,-0.15736884,7.0566487,54.39637,16.192858,-13.804528,-27.209492,16.436476,-8.851057,15.753774,2.108289,-23.899801,21.215866,3.116165,-9.728724,-1.3032136,-20.42538
185,0.8537482619285583,-52.121986389160156,77.593505859375,1.6999214440339712,5.973062851508499,-91.43969308572,-31.765308,2.2762103,2.7779255,62.573368,-17.215113,-6.579471,9.368743,-3.545059,1.9374247,26.221165,-13.913244,2.3032649,12.857091,-0.2981294,6.7941613,54.45975,16.332045,-14.006736,-27.724438,16.597092,-8.942849,15.272789,2.9361897,-24.257326,21.338013,1.8761927,-10.030558,-1.2573022,-20.285612
186,0.9754473567008972,-53.12922668457031,77.95796203613281,1.650278444905821,6.1751614553394525,-91.44911039985975,-30.989563,1.4740293,2.0870395,57.8629,-16.155624,-8.075071,8.776671,-3.5630567,2.1271791,27.966173,-12.253159,2.2358904,13.454277,-0.36227027,6.5921907,54.458813,16.32042,-14.159363,-28.18025,16.841372,-9.096966,14.753291,3.668022,-24.581228,21.581274,0.8602666,-10.245655,-1.2172453,-20.175648
187,1.0924549102783203,-54.13590621948242,78.26628112792969,1.5584305142435044,6.278764987919102,-91.48761095857265,-30.013285,0.72176594,1.2295082,53.207466,-15.151802,-9.573132,8.158614,-3.5113022,2.3391798,30.019083,-10.798989,2.1362503,13.949093,-0.3925846,6.4812064,54.378494,16.171497,-14.303571,-28.55081,17.100204,-9.249638,14.34337,4.2942815,-24.86785,21.92624,0.044495206,-10.345003,-1.2102334,-20.033707
188,1.1992868185043335,-55.13960266113281,78.51564025878906,1.4774552161896652,6.256305858904237,-91.52069013363705,-28.912937,0.023577878,0.30169317,48.925606,-14.196941,-10.81746,7.621917,-3.454958,2.5129392,32.330635,-9.609881,2.0758202,14.292993,-0.43366584,6.4930396,54.201706,15.916833,-14.483395,-28.815128,17.29949,-9.33304,14.194001,4.8191037,-25.111956,22.341745,-0.60438925,-10.298176,-1.2639412,-19.79785
189,1.296299934387207,-56.14147186279297,78.70307922363281,1.4074223474425513,6.0797837176385,-91.55364598296481,-27.675287,-0.69305027,-0.7833017,45.024914,-13.260993,-11.78663,7.1745677,-3.398964,2.6538768,34.99454,-8.709307,2.031647,14.502895,-0.49257967,6.6601815,53.971245,15.569704,-14.705065,-29.000694,17.460186,-9.339351,14.411119,5.233907,-25.30979,22.823666,-1.0791453,-10.051117,-1.3984462,-19.433903
190,1.391861081123352,-57.140052795410156,78.83182525634766,1.3188957943370194,5.770473882475453,-91.59643611259943,-26.28016,-1.3947343,-2.0406435,41.376274,-12.359856,-12.603038,6.748771,-3.3224583,2.7871265,38.043686,-8.089185,1.9479289,14.604779,-0.54175144,6.95579,53.6858,15.132281,-14.948879,-29.11832,17.601662,-9.296761,14.896719,5.552559,-25.460066,23.376842,-1.3735329,-9.635816,-1.5928396,-18.978724
191,1.4875603914260864,-58.130516052246094,78.89299011230469,1.2284892208547193,5.377108740118483,-91.61997218215751,-24.822067,-1.972131,-3.2396238,38.12694,-11.542519,-13.261544,6.3284473,-3.2627296,2.8876774,41.36323,-7.7715316,1.8453089,14.569757,-0.5865006,7.322784,53.26312,14.629972,-15.221849,-29.11781,17.645422,-9.191375,15.496705,5.8179626,-25.564207,23.973492,-1.5241841,-9.153726,-1.8137125,-18.476393
192,1.5857305526733398,-59.11235046386719,78.89165496826172,1.1563349763791815,4.948975658329302,-91.59557284946932,-23.40504,-2.3511374,-4.1325097,35.429253,-10.85287,-13.776235,5.9026937,-3.2473886,2.9288924,44.83626,-7.774625,1.7621446,14.380647,-0.63898915,7.705865,52.617725,14.104273,-15.535985,-28.957928,17.507277,-9.010729,16.0619,6.087027,-25.625078,24.571415,-1.5795466,-8.7053795,-2.0304098,-17.971119
193,1.6752448081970215,-60.09107971191406,78.82167053222656,1.1104406006356633,4.4692738141146,-91.51163767675732,-22.018095,-2.5078187,-4.5380907,33.295406,-10.158689,-14.357161,5.5032463,-3.2653246,2.9121327,48.51315,-8.229607,1.728795,14.040485,-0.7064211,8.116818,51.73493,13.584088,-15.9255905,-28.630583,17.030012,-8.742876,16.65147,6.3721895,-25.643208,25.147177,-1.5599554,-8.267808,-2.2362127,-17.405985
194,1.7640689611434937,-61.05667495727539,78.68803405761719,1.0849099891050191,3.923737570246754,-91.3823924090638,-20.641249,-2.543601,-4.6028614,31.672916,-9.480332,-14.963265,5.1180654,-3.3144548,2.850173,52.46181,-9.107909,1.7226964,13.579991,-0.7956505,8.576784,50.657238,13.077028,-16.38239,-28.17005,16.288408,-8.401432,17.32526,6.674111,-25.61725,25.699837,-1.4589586,-7.8015532,-2.4464762,-16.778843
195,1.8572821617126465,-62.01029586791992,78.490234375,1.1114464900843999,3.3625350305370834,-91.21415740280116,-19.349463,-2.6143441,-4.526665,30.59536,-9.081885,-15.000033,4.686077,-3.4646103,2.7408204,56.586456,-10.183416,1.7254386,13.018493,-0.9463563,9.053586,49.382423,12.593265,-16.852993,-27.599504,15.547656,-8.00705,17.934013,7.0310273,-25.54828,26.220308,-1.2832578,-7.3855643,-2.6674888,-16.218086
196,1.9355720281600952,-62.96529006958008,78.2290267944336,1.1185522346651855,2.8483741937459404,-91.03367216432632,-18.291508,-2.6918402,-4.644828,30.224665,-9.305215,-14.775592,4.1386724,-3.6621785,2.5611398,60.74306,-11.181628,1.671362,12.39304,-1.1080403,9.481961,47.90621,12.145203,-17.284266,-26.939749,15.07499,-7.571399,18.324957,7.4789395,-25.439034,26.700047,-1.0378842,-7.098817,-2.9090188,-15.852771
197,2.0227460861206055,-63.91438293457031,77.90850830078125,1.190047763708738,2.3938273676355415,-90.81231421832148,-17.554068,-2.9646788,-4.982564,30.777767,-10.229774,-13.171252,3.4670727,-4.0158935,2.31766,64.999855,-12.081255,1.5820965,11.685769,-1.3558129,9.855933,46.21748,11.740243,-17.656834,-26.161821,14.95415,-7.052785,18.396193,8.044989,-25.286615,27.134394,-0.73712933,-6.9670334,-3.1739097,-15.70954
198,2.1111483573913574,-64.83293151855469,77.54523468017578,1.293678849161178,1.968277521212608,-90.55698345532629,-17.065964,-3.3557818,-5.4422135,32.159298,-11.676583,-10.717611,2.7140331,-4.477574,2.0246406,69.38925,-13.00112,1.4577452,10.899653,-1.6572028,10.192726,44.32213,11.380202,-18.003302,-25.268974,15.03836,-6.454163,18.249813,8.708005,-25.088636,27.525686,-0.37471682,-6.948444,-3.4598908,-15.723002
199,2.1882808208465576,-65.77313232421875,77.11212921142578,1.4217626679794158,1.5413354134168735,-90.30496128434464,-16.563976,-3.8125863,-5.8724,33.763268,-13.450479,-8.140136,1.9241432,-5.0546656,1.7290243,73.78233,-13.958383,1.2984273,10.065305,-2.0025961,10.536475,42.2434,11.069598,-18.350939,-24.34373,15.2492485,-5.8508782,18.036282,9.43282,-24.853323,27.874012,0.07251959,-7.0191617,-3.7693083,-15.884984
200,2.2460625171661377,-66.73164367675781,76.60407257080078,1.5792889415327958,1.085178493378647,-90.08947009835411,-15.801809,-4.260106,-6.1126275,35.002983,-15.406644,-6.164449,1.1334959,-5.761749,1.4741875,78.057846,-14.97331,1.1146785,9.2132845,-2.3956566,10.933358,40.001408,10.813234,-18.729933,-23.466314,15.503492,-5.317653,17.908077,10.1938095,-24.59437,28.174221,0.61622477,-7.1534543,-4.103751,-16.188152
201,2.2971582412719727,-67.68508911132812,76.05106353759766,1.7580257742769425,0.5787501544829208,-89.92339938229446,-14.673961,-4.6298194,-6.0804253,35.761684,-17.791023,-5.030667,0.37957847,-6.6029267,1.2569278,82.27045,-16.052696,0.9258209,8.348515,-2.8394156,11.392745,37.625385,10.606991,-19.154654,-22.635077,15.82893,-4.8809986,17.904123,10.989967,-24.3229,28.451962,1.2899345,-7.3500395,-4.4959974,-16.678638
202,2.3588907718658447,-68.60553741455078,75.49485778808594,1.9636741458999727,0.0427669152639392,-89.7873725502012,-13.330206,-4.9772015,-5.876384,36.336044,-20.60448,-4.3324203,-0.3560946,-7.570262,1.0612398,86.46288,-17.191946,0.72437483,7.4597163,-3.3364205,11.887282,35.092377,10.447121,-19.612906,-21.81327,16.249512,-4.499046,17.942318,11.845511,-24.04143,28.698483,2.0599387,-7.620434,-4.93174,-17.347431
203,2.449333429336548,-69.51395416259766,74.95325469970703,2.2233385263811583,-0.48590457703649154,-89.66538158184972,-11.920013,-5.382655,-5.600272,36.779343,-23.37062,-3.8362067,-1.1320502,-8.664266,0.912476,90.49098,-18.386211,0.48583025,6.5586505,-3.8966932,12.40977,32.340256,10.341909,-20.098696,-21.032513,16.671698,-4.142936,17.998846,12.77945,-23.747595,28.84956,2.8300157,-7.9523377,-5.342359,-18.10346
204,2.568828821182251,-70.42594146728516,74.4614486694336,2.568997784691499,-0.9709351069823694,-89.54187651904614,-10.58227,-5.92082,-5.365504,37.137142,-25.606636,-3.3171418,-2.0176084,-9.8878765,0.8404384,94.20419,-19.624687,0.18477885,5.66488,-4.5309434,12.953779,29.308462,10.3087635,-20.610228,-20.337822,16.999962,-3.783123,18.053703,13.81435,-23.43734,28.832102,3.504137,-8.3314295,-5.6606264,-18.853334
205,2.6874866485595703,-71.33467864990234,74.03588104248047,3.10810820807086,-1.4138993103508148,-89.43645875199857,-9.339304,-6.698772,-5.1238785,37.418575,-27.146362,-2.745304,-3.0531635,-11.355647,0.95605075,97.64327,-20.94257,-0.1497566,4.7948403,-5.343831,13.55304,25.88088,10.376274,-21.189041,-19.730627,17.121628,-3.3785615,18.147783,14.94438,-23.099428,28.60286,4.113832,-8.853982,-5.878627,-19.576893
206,2.784160614013672,-72.23784637451172,73.68753051757812,3.7948831864511074,-1.8293008692768975,-89.35163039443351,-8.110864,-7.6258082,-4.8475466,37.59736,-28.266296,-2.2465265,-4.2096515,-13.021935,1.2273142,100.859985,-22.325268,-0.50736,3.956101,-6.3061953,14.194013,22.135002,10.547885,-21.83352,-19.231272,17.105047,-2.9533753,18.28841,16.178768,-22.727654,28.192284,4.68424,-9.49192,-6.0267467,-20.319746
207,2.846173048019409,-73.13097381591797,73.41248321533203,4.428775213404331,-2.2015850830251464,-89.24384182315316,-6.883504,-8.482688,-4.678417,37.66758,-29.145624,-1.8250465,-5.4687185,-14.6555195,1.4689665,103.73165,-23.674202,-0.94624305,3.1384733,-7.222929,14.804809,18.290663,10.791787,-22.475784,-18.883966,17.132826,-2.5769908,18.39653,17.550362,-22.332708,27.65299,5.1173344,-10.042536,-6.099992,-21.084385
208,2.893531084060669,-74.00900268554688,73.19593048095703,4.812330559678068,-2.5164176502973437,-89.06684970102813,-5.6551685,-9.059604,-4.7426844,37.62383,-29.95898,-1.4825253,-6.8073177,-16.033628,1.4752574,106.13654,-24.890127,-1.5385487,2.3130143,-7.888558,15.32012,14.549323,11.056952,-23.051292,-18.69398,17.397184,-2.3208935,18.382189,19.084713,-21.938114,27.053425,5.311898,-10.30005,-6.0974617,-21.874304
209,2.9507617950439453,-74.91571044921875,73.03948974609375,4.860827991694701,-2.7925142064275748,-88.76677647347826,-4.466958,-9.295211,-5.1105337,37.576958,-30.781878,-1.2353939,-8.2108555,-17.137173,1.1182306,108.058754,-25.953697,-2.3735714,1.4443218,-8.182522,15.769788,10.7369585,11.322741,-23.60561,-18.556456,17.996855,-2.2500744,18.207434,20.875101,-21.554506,26.32937,5.2015085,-10.213524,-5.985888,-22.70779
210,3.0019567012786865,-75.826171875,72.94732666015625,4.693771880687705,-3.0298355909444123,-88.37824624622502,-3.3153994,-9.299914,-5.6810417,37.49764,-31.511404,-1.0735055,-9.694559,-18.081045,0.51160014,109.56297,-26.910229,-3.3969283,0.54440266,-8.22347,16.18532,6.7927737,11.579707,-24.176338,-18.459766,18.819569,-2.3161497,17.918549,22.891705,-21.18521,25.480463,4.8381915,-9.883043,-5.7848897,-23.576466
211,3.0383975505828857,-76.74888610839844,72.92642211914062,4.402272258427702,-3.186283357449261,-87.98659857648727,-2.1374614,-9.131224,-6.318641,37.170002,-32.053734,-0.95702577,-11.28086,-18.8448,-0.19359878,110.64887,-27.754791,-4.4568543,-0.36496803,-8.1562,16.501892,3.0813355,11.784477,-24.67639,-18.509829,19.7519,-2.4246585,17.542194,24.951687,-20.850494,24.689064,4.3120375,-9.328159,-5.574975,-24.447645
212,3.0594422817230225,-77.69361114501953,72.98190307617188,4.083433068265619,-3.2212606333634186,-87.67933132542672,-0.8688322,-8.849672,-6.890703,36.380993,-32.316204,-0.8467268,-13.000896,-19.405085,-0.8548946,111.30985,-28.47174,-5.409097,-1.2792877,-8.115905,16.64167,-0.037323575,11.881628,-24.991976,-18.791227,20.693464,-2.484216,17.09316,26.857784,-20.586937,24.152397,3.7230468,-8.569612,-5.433277,-25.293116
213,3.0729868412017822,-78.63825225830078,73.09769439697266,3.7625809273313453,-3.130050746126644,-87.45482134221669,0.5506012,-8.472208,-7.407198,34.978283,-32.29105,-0.7386378,-14.895155,-19.808977,-1.4894137,111.54194,-29.100344,-6.2898927,-2.222538,-8.1380005,16.58616,-2.4496682,11.809712,-25.025658,-19.336805,21.83562,-2.483822,16.413177,28.594063,-20.42937,23.978256,3.0398982,-7.3628087,-5.33413,-26.241076
214,3.0969035625457764,-79.5999984741211,73.27557373046875,3.3892700945042225,-2.9344875327597815,-87.27579656518122,2.067578,-7.9653945,-7.9159617,33.121372,-32.02884,-0.64402306,-16.928802,-20.04666,-2.1830702,111.33667,-29.623055,-7.144913,-3.211073,-8.117533,16.368664,-4.397454,11.5536,-24.84995,-20.014988,23.179998,-2.4879525,15.536277,30.264412,-20.396132,24.045353,2.2161195,-5.770129,-5.265495,-27.269886
215,3.1429920196533203,-80.66329956054688,73.54377746582031,2.9491950774259905,-2.63557982563112,-87.17786038263534,3.5775764,-7.322263,-8.340821,31.06251,-31.52535,-0.55411744,-19.027527,-20.013388,-2.8960178,110.69137,-29.938602,-7.8523383,-4.2113523,-7.9801717,15.992149,-6.046749,11.15629,-24.604277,-20.691786,24.342302,-2.496696,14.767928,31.86393,-20.494648,24.187569,1.3156332,-4.278521,-5.3021145,-28.117609
216,3.1716794967651367,-81.72874450683594,73.85253143310547,2.42875528860417,-2.235340849527768,-87.19771246447571,4.975934,-6.546468,-8.601881,29.048895,-30.774628,-0.47221562,-21.118607,-19.605904,-3.586495,109.6019,-29.944538,-8.292172,-5.1838336,-7.6669784,15.472529,-7.528708,10.705754,-24.417496,-21.292128,24.929253,-2.485482,14.415446,33.388306,-20.718987,24.244146,0.3901593,-3.377759,-5.491529,-28.518486
217,3.1936593055725098,-82.79913330078125,74.19722747802734,1.7857740745878727,-1.7045969017413738,-87.37366988449271,6.277901,-5.588693,-8.659296,27.000866,-29.759304,-0.38997722,-23.24269,-18.749348,-4.279266,108.0371,-29.624216,-8.42106,-6.1141777,-7.1413407,14.783549,-8.780212,10.272575,-24.278065,-21.917099,24.686527,-2.391984,14.604011,34.82249,-21.074394,24.199816,-0.58071274,-3.24399,-5.8633585,-28.342964
218,3.2198169231414795,-83.8942642211914,74.58788299560547,1.04660044146811,-1.0597177669915738,-87.68312542018228,7.51508,-4.491937,-8.546029,24.85581,-28.500046,-0.31989318,-25.392231,-17.520596,-4.99255,105.99351,-29.034483,-8.294058,-7.0155168,-6.459591,13.956414,-9.708555,9.880698,-24.116234,-22.668268,23.855566,-2.2370875,15.168922,36.17549,-21.55999,24.129822,-1.636424,-3.5948548,-6.3744125,-27.750736
219,3.2309632301330566,-85.01692962646484,75.01627349853516,0.2925528409854403,-0.36819288882904916,-88.0693590730736,8.620589,-3.3956633,-8.302896,22.859955,-27.03578,-0.29452932,-27.43322,-16.043787,-5.659103,103.51027,-28.185139,-7.9444923,-7.8879194,-5.7103653,13.089355,-10.387738,9.555197,-23.976173,-23.483295,22.787222,-2.115446,15.978612,37.469635,-22.143456,24.013695,-2.7417183,-4.2355647,-6.9579434,-26.91275
220,3.2333412170410156,-86.14665985107422,75.4707260131836,-0.39359539133816296,0.30759866444481804,-88.47225061522987,9.529848,-2.4237604,-7.985862,21.257145,-25.395449,-0.33564818,-29.242521,-14.441034,-6.1987414,100.63142,-27.088676,-7.4152617,-8.724378,-4.9841213,12.271807,-10.901155,9.317083,-23.919075,-24.280293,21.833105,-2.1119585,16.898378,38.720364,-22.769238,23.820091,-3.8404095,-4.9822364,-7.5466413,-25.995539
221,3.2346878051757812,-87.29086303710938,75.94820404052734,-1.0296985408831012,0.9829394198196769,-88.91557904086567,10.224243,-1.551814,-7.5724277,20.09101,-23.524841,-0.3986216,-30.850092,-12.582494,-6.515628,97.31121,-25.708881,-6.657909,-9.509081,-4.273491,11.491939,-11.250543,9.188399,-23.975975,-25.062569,21.01941,-2.2201176,18.021088,39.882236,-23.406223,23.520086,-4.871698,-5.952317,-8.201143,-24.922546
222,3.2319984436035156,-88.4466323852539,76.44412994384766,-1.6480672605556344,1.6797663786961026,-89.41812960446201,10.738032,-0.73535275,-7.0630703,19.243427,-21.428774,-0.4715001,-32.284542,-10.464319,-6.6394696,93.537796,-24.08142,-5.6847506,-10.241146,-3.5547404,10.711995,-11.385805,9.180425,-24.118202,-25.883974,20.177896,-2.4114947,19.376932,40.935535,-24.04465,23.136913,-5.838396,-7.195388,-8.953074,-23.650307
223,3.2282426357269287,-89.61542510986328,76.95479583740234,-2.190796035877677,2.35438434299262,-89.9058356075761,11.098087,-0.040274996,-6.5606194,18.691113,-19.20734,-0.62158644,-33.442635,-8.390382,-6.666256,89.407906,-22.31129,-4.6223955,-10.942887,-2.8863955,9.9711,-11.320967,9.287352,-24.32052,-26.726,19.373669,-2.720742,20.73236,41.93405,-24.652395,22.717005,-6.773021,-8.441663,-9.673089,-22.38772
224,3.213637590408325,-90.7935791015625,77.46491241455078,-2.602463862217113,2.9687234237668463,-90.30156607250171,11.34458,0.48029268,-6.1700068,18.382427,-16.947783,-0.9327326,-34.24113,-6.6500196,-6.709056,85.0189,-20.485312,-3.5922883,-11.631502,-2.3229656,9.302549,-11.085575,9.490452,-24.565111,-27.546572,18.676596,-3.1729956,21.85182,42.92004,-25.182156,22.308018,-7.6903596,-9.432355,-10.213086,-21.334164
225,3.1963906288146973,-91.98173522949219,77.97063446044922,-2.843473251708118,3.5276430888705397,-90.57901327240364,11.500769,0.7828266,-5.9223566,18.213451,-14.488265,-1.4572299,-34.646904,-5.356849,-6.8158894,80.29615,-18.520683,-2.637079,-12.316999,-1.9028761,8.694711,-10.697229,9.783179,-24.880686,-28.307514,18.097305,-3.8388486,22.719181,43.902763,-25.595123,21.904648,-8.579294,-10.174104,-10.488803,-20.506546
226,3.1795601844787598,-93.18009185791016,78.4543228149414,-2.957254269748855,4.055991879417023,-90.77455603667286,11.567657,0.9213357,-5.78275,18.179337,-11.82118,-2.1833358,-34.719044,-4.3240967,-6.9154596,75.21577,-16.396301,-1.6904045,-12.975942,-1.5875746,8.122416,-10.171711,10.16466,-25.28084,-28.999739,17.60693,-4.6756606,23.44064,44.838238,-25.87901,21.488537,-9.396384,-10.803812,-10.585214,-19.800476
227,3.1616218090057373,-94.3755874633789,78.90380096435547,-3.013552852047155,4.546259411728377,-90.90401220217838,11.555335,0.9846236,-5.751668,18.3722,-9.258081,-3.09731,-34.52507,-3.3881953,-6.959542,69.94157,-14.273661,-0.7090177,-13.577254,-1.312922,7.5993466,-9.5406685,10.61607,-25.72456,-29.617758,17.213614,-5.5325737,23.965773,45.692314,-26.030891,21.088747,-10.112959,-11.259815,-10.59558,-19.230368
228,3.1435067653656006,-95.56005859375,79.30548858642578,-3.0791156790654646,4.987668037694202,-90.98441919477102,11.462592,1.0522184,-5.816862,18.91686,-7.1190014,-4.1506877,-34.127213,-2.405669,-6.89407,64.618935,-12.31136,0.33945468,-14.088974,-1.0181082,7.141633,-8.840362,11.107957,-26.168768,-30.144905,16.924667,-6.2590775,24.243517,46.44978,-26.05577,20.72956,-10.717943,-11.482033,-10.611523,-18.814066
229,3.126284122467041,-96.73535919189453,79.64624786376953,-3.1499572362194046,5.411758062168864,-90.98648208375162,11.248372,1.1312734,-5.992517,19.7964,-5.440429,-5.440799,-33.507896,-1.4065436,-6.7428255,59.078728,-10.540447,1.5013975,-14.524307,-0.6869951,6.720905,-8.106385,11.625808,-26.624542,-30.566216,16.801548,-6.816895,24.231657,47.16857,-25.94408,20.404455,-11.236615,-11.409875,-10.638288,-18.60799
230,3.1053037643432617,-97.91471099853516,79.93212890625,-3.1747399431265446,5.8070862657844255,-90.91233959866011,10.926453,1.142683,-6.270569,20.980598,-4.088122,-6.950962,-32.63518,-0.48003176,-6.493298,53.27234,-8.862316,2.7311907,-14.884763,-0.37794998,6.3337593,-7.340332,12.1646805,-27.11439,-30.859074,16.81976,-7.2836766,23.965925,47.841595,-25.689281,20.105066,-11.665517,-11.0941725,-10.628116,-18.585287
231,3.083637237548828,-99.08247375488281,80.159423828125,-3.151907050503815,6.097077405312799,-90.82726272810781,10.560941,1.0454729,-6.583666,22.61157,-3.1171458,-8.4285,-31.549332,0.4159101,-6.039324,47.53028,-7.243976,3.922087,-15.121722,-0.13802119,6.0345902,-6.521527,12.70514,-27.608776,-31.001072,16.85808,-7.68432,23.509768,48.351543,-25.31399,19.851927,-11.947683,-10.628977,-10.594585,-18.64097
232,3.0653038024902344,-100.24986267089844,80.32852172851562,-3.0864790638797563,6.209332802152773,-90.79649025271027,10.222025,0.8125935,-6.8578005,24.811861,-2.5646164,-9.617325,-30.311087,1.3255998,-5.286,42.233204,-5.667632,4.9728646,-15.194257,-0.0014316182,5.874567,-5.6209574,13.21879,-28.068424,-30.972544,16.797256,-8.043406,22.922401,48.59142,-24.862507,19.66174,-12.038981,-10.100673,-10.550239,-18.671774
233,3.054288625717163,-101.42813110351562,80.4529037475586,-2.975077340718617,6.104994003034495,-90.83028974369513,9.919069,0.42505127,-7.0832977,27.731806,-2.524097,-10.390249,-28.87628,2.3400617,-4.03688,37.326523,-4.080711,5.8897133,-15.098365,0.026458604,5.8854465,-4.6175127,13.682322,-28.482677,-30.756872,16.645502,-8.3779125,22.18246,48.575172,-24.361647,19.529747,-11.95396,-9.4670925,-10.493043,-18.692167
234,3.0411558151245117,-102.59638977050781,80.52047729492188,-2.80641745036381,5.828853019787376,-90.8971189406366,9.61608,-0.09692561,-7.270567,31.273123,-2.9385226,-10.883048,-27.233717,3.3549583,-2.3909173,32.680553,-2.5220456,6.7042403,-14.86173,-0.038105667,6.024928,-3.5356748,14.087452,-28.8653,-30.350327,16.45722,-8.67111,21.263256,48.370167,-23.818604,19.443102,-11.732989,-8.691515,-10.417185,-18.747837
235,3.0249297618865967,-103.75226593017578,80.5147705078125,-2.5975654787944045,5.440171085377685,-91.0043013249477,9.303705,-0.69236434,-7.377868,35.209576,-3.6224277,-11.238035,-25.53632,4.1968,-0.7395058,28.617159,-1.1259867,7.3867903,-14.487922,-0.16911015,6.236262,-2.4068923,14.431027,-29.210007,-29.759287,16.182745,-8.893978,20.21532,47.963715,-23.258127,19.395485,-11.385749,-7.8721557,-10.326062,-18.781044
236,3.0088565349578857,-104.89990997314453,80.44103240966797,-2.380685419765418,5.00153753147055,-91.16290587657541,8.967757,-1.2894745,-7.3649774,39.331463,-4.4028463,-11.606981,-23.967913,4.7728496,0.49550208,25.476694,-0.020743223,7.9374733,-13.986144,-0.32285178,6.465771,-1.2485396,14.714104,-29.49954,-29.00354,15.773867,-9.01592,19.089628,47.338516,-22.717426,19.384535,-10.925321,-7.102315,-10.220935,-18.736076
237,2.994598150253296,-106.03871154785156,80.30530548095703,-2.1725372519376633,4.503584347200683,-91.38807967166424,8.620068,-1.8851501,-7.2375746,43.700462,-5.3198357,-12.056278,-22.570414,5.098758,1.0739073,23.400272,0.8564345,8.586237,-13.34932,-0.48415536,6.7203536,-0.028422834,14.931335,-29.717571,-28.075336,15.169301,-9.004381,17.831154,46.480103,-22.225931,19.40478,-10.361986,-6.2798944,-10.117434,-18.526987
238,2.984097719192505,-107.17086791992188,80.09732055664062,-1.9826631263045587,3.9302669040435783,-91.67878862806262,8.251934,-2.459911,-7.0051804,48.41929,-6.4557133,-12.491551,-21.30048,5.310091,1.2223699,22.239056,1.5356625,9.288407,-12.586214,-0.63245887,7.0237694,1.2726594,15.078082,-29.859652,-26.986355,14.415381,-8.873943,16.437569,45.410717,-21.793827,19.458355,-9.708729,-5.385453,-10.004225,-18.212885
239,2.9867281913757324,-108.30853271484375,79.81480407714844,-1.8421506132872532,3.332988073338609,-92.02008233352133,7.8261003,-2.9121358,-6.644172,53.337467,-7.6964583,-12.830511,-20.211838,5.5109835,1.2046316,21.890985,1.8364527,9.630476,-11.733324,-0.71049654,7.3496256,2.6218238,15.162002,-29.923067,-25.792505,13.625289,-8.668697,15.040593,44.16058,-21.429108,19.555674,-8.97816,-4.638193,-9.846301,-17.954449
