unveil-humanoid-operators/unveil-humanoid-operators.github.io/feature-analysis-animation/data/feature_matrix_instances/age_ankle_rom_gesture_dancing_A144.csv
Frame,root_translateX,root_translateY,root_translateZ,root_rotateX,root_rotateY,root_rotateZ,left_hip_pitch_joint_dof,left_hip_roll_joint_dof,left_hip_yaw_joint_dof,left_knee_joint_dof,left_ankle_pitch_joint_dof,left_ankle_roll_joint_dof,right_hip_pitch_joint_dof,right_hip_roll_joint_dof,right_hip_yaw_joint_dof,right_knee_joint_dof,right_ankle_pitch_joint_dof,right_ankle_roll_joint_dof,waist_yaw_joint_dof,waist_roll_joint_dof,waist_pitch_joint_dof,left_shoulder_pitch_joint_dof,left_shoulder_roll_joint_dof,left_shoulder_yaw_joint_dof,left_elbow_joint_dof,left_wrist_roll_joint_dof,left_wrist_pitch_joint_dof,left_wrist_yaw_joint_dof,right_shoulder_pitch_joint_dof,right_shoulder_roll_joint_dof,right_shoulder_yaw_joint_dof,right_elbow_joint_dof,right_wrist_roll_joint_dof,right_wrist_pitch_joint_dof,right_wrist_yaw_joint_dof
0,-0.04125190153717995,1.5727847814559937,77.93798828125,0.6783562401174289,5.253580721767039,-90.92530196415703,-2.8856242,10.186474,20.739737,6.824763,-7.461474,-8.764141,-1.2138813,-11.362423,-19.121477,6.78677,-8.659824,11.725357,-1.7229022,-1.956855,1.4434155,0.41757348,14.717949,-19.644793,56.49129,-0.9400027,-4.945871,-4.3928795,-1.81574,-16.99121,34.115692,58.328987,14.818906,0.02262217,4.6796513
1,-0.041034456342458725,1.5687651634216309,77.93804931640625,0.674904020565802,5.249064391367742,-90.93108400955978,-2.8747594,10.191907,20.744343,6.825711,-7.469725,-8.767167,-1.206453,-11.357793,-19.117743,6.7874904,-8.662652,11.724876,-1.71668,-1.9547236,1.4204652,0.4340009,14.736172,-19.687914,56.47843,-1.0170223,-4.9604163,-4.408015,-1.7721971,-17.00472,34.125225,58.28951,14.826822,0.0237255,4.678805
2,-0.039675626903772354,1.5642471313476562,77.93809509277344,0.6710403577401961,5.244645797784052,-90.9374063355794,-2.8637087,10.197608,20.749355,6.8260384,-7.477721,-8.770258,-1.1987964,-11.352673,-19.11385,6.786708,-8.66423,11.724332,-1.7081176,-1.953319,1.3968415,0.4464332,14.754448,-19.734901,56.471767,-1.094833,-4.9759955,-4.418113,-1.7303504,-17.016722,34.133617,58.255615,14.832234,0.022443378,4.676351
3,-0.03999418392777443,1.559599757194519,77.93675994873047,0.6679039048024272,5.240199107312147,-90.94264598550883,-2.8530877,10.202687,20.753656,6.827457,-7.4860125,-8.773187,-1.191237,-11.348632,-19.110504,6.787333,-8.6669445,11.72395,-1.699359,-1.9522295,1.3717803,0.45461747,14.774998,-19.785692,56.46736,-1.179228,-4.991881,-4.4391513,-1.6870427,-17.028725,34.13907,58.220127,14.842012,0.02306482,4.679716
4,-0.0410182923078537,1.551981806755066,77.9366455078125,0.6659866214548219,5.23593487198714,-90.94532902178356,-2.8422225,10.205376,20.756285,6.828003,-7.4927626,-8.775688,-1.1815106,-11.346526,-19.10942,6.787649,-8.670902,11.724556,-1.6930841,-1.9494661,1.3448218,0.4425627,14.801046,-19.850563,56.476547,-1.2901162,-5.008926,-4.486944,-1.6434454,-17.041227,34.140873,58.180893,14.86517,0.028844718,4.6969185
5,-0.04063909128308296,1.5441964864730835,77.93638610839844,0.6661986461791041,5.231493975232916,-90.94556098648299,-2.8298638,10.205157,20.758339,6.828394,-7.498984,-8.777952,-1.1688132,-11.3473,-19.1102,6.7877173,-8.676645,11.726769,-1.6796339,-1.9525388,1.3161569,0.41884708,14.850634,-19.953497,56.48828,-1.4438521,-5.0218825,-4.5789204,-1.5815722,-17.061703,34.143074,58.12481,14.896696,0.052958637,4.735737
6,-0.04002946615219116,1.5347354412078857,77.93601989746094,0.6677530379991856,5.22683152520995,-90.94398277398867,-2.8166,10.202799,20.759813,6.8288913,-7.5049586,-8.780027,-1.1541088,-11.350283,-19.112415,6.7880893,-8.6839075,11.730118,-1.6761645,-1.9500705,1.2808266,0.37877804,14.8909,-20.063257,56.52482,-1.6168432,-5.0339494,-4.6982427,-1.5340291,-17.075754,34.16687,58.091644,14.938801,0.08809619,4.785883
7,-0.04051325097680092,1.5254018306732178,77.936279296875,0.6697030925306104,5.222869425470906,-90.93981070371227,-2.8053997,10.199657,20.758472,6.829475,-7.5093493,-8.781527,-1.1394743,-11.353983,-19.116856,6.7887535,-8.691437,11.733123,-1.6643797,-1.9565388,1.2536105,0.330731,14.962652,-20.182014,56.537678,-1.8078814,-5.049372,-4.8285317,-1.464891,-17.098566,34.1447,58.012802,14.99071,0.11278565,4.8460293
8,-0.04089350625872612,1.5180811882019043,77.93523406982422,0.6708957434687707,5.22021034399556,-90.93220903922449,-2.7989392,10.197014,20.751772,6.8308663,-7.5120254,-8.782106,-1.1268133,-11.356407,-19.124352,6.7881846,-8.696526,11.73448,-1.660856,-1.9629314,1.2379463,0.2660842,15.04645,-20.26253,56.53069,-1.9875822,-5.07751,-4.945256,-1.4002006,-17.124985,34.05823,57.896137,15.059911,0.10274429,4.906756
9,-0.04212065041065216,1.5121302604675293,77.9344253540039,0.6712055370072281,5.220223807789196,-90.92060073306867,-2.799034,10.195134,20.738117,6.8324904,-7.512399,-8.781223,-1.1185626,-11.357614,-19.13528,6.788342,-8.700458,11.734032,-1.6637586,-1.9671266,1.2330371,0.18409823,15.137937,-20.309097,56.503372,-2.1404786,-5.1226597,-5.039738,-1.3308382,-17.153397,33.89471,57.749855,15.128622,0.04260397,4.9802337
10,-0.041188620030879974,1.5064116716384888,77.93460845947266,0.6709543424113255,5.222368709786824,-90.90560719664795,-2.8053184,10.194015,20.71886,6.8367662,-7.5116863,-8.77933,-1.1131755,-11.3580675,-19.149042,6.7887487,-8.703486,11.732397,-1.6693789,-1.9706984,1.2363533,0.08723714,15.238942,-20.334904,56.459927,-2.2794535,-5.179869,-5.124653,-1.2558458,-17.1849,33.67127,57.577305,15.20053,-0.051877778,5.06597
11,-0.0409698560833931,1.5035537481307983,77.93498992919922,0.6704935052795694,5.223596648989996,-90.88800775689815,-2.8124847,10.19266,20.697159,6.839866,-7.508466,-8.777221,-1.106765,-11.358368,-19.165348,6.7888994,-8.70549,11.729485,-1.6778456,-1.9753091,1.2478795,-0.030882725,15.350521,-20.330507,56.408875,-2.430103,-5.2440677,-5.207419,-1.1836317,-17.22389,33.395615,57.35162,15.309733,-0.15789498,5.136848
12,-0.042653147131204605,1.5064884424209595,77.93555450439453,0.6702891464392392,5.221200415604218,-90.86869056161693,-2.817302,10.190726,20.676342,6.843721,-7.504936,-8.775754,-1.0968797,-11.359798,-19.183378,6.789725,-8.706268,11.725548,-1.6885813,-1.9814308,1.2698109,-0.17936613,15.473255,-20.287767,56.358448,-2.6197548,-5.310301,-5.2954593,-1.1272454,-17.275415,33.078053,57.046883,15.495371,-0.25205544,5.166272
13,-0.04227489233016968,1.5083413124084473,77.93721008300781,0.6699574478968467,5.214661893072276,-90.84688790601716,-2.8191984,10.187872,20.657293,6.8462186,-7.4994226,-8.775745,-1.0816638,-11.361761,-19.204231,6.789297,-8.705098,11.719924,-1.7016478,-1.9876233,1.3067522,-0.3621077,15.604966,-20.207111,56.3207,-2.866375,-5.3767843,-5.3886757,-1.0735582,-17.341478,32.7034,56.64822,15.770365,-0.32940692,5.1339192
14,-0.04356933385133743,1.5091949701309204,77.93888092041016,0.6695334363694253,5.20541373128191,-90.8224790779118,-2.8210783,10.185153,20.638227,6.8496513,-7.4925704,-8.7766485,-1.0636964,-11.364295,-19.22766,6.7894707,-8.702883,11.712696,-1.716777,-1.9927087,1.3567879,-0.57688236,15.745627,-20.09439,56.29055,-3.1541817,-5.446265,-5.483854,-1.018703,-17.423208,32.271477,56.167675,16.113972,-0.40187946,5.0592794
15,-0.04163512960076332,1.5090420246124268,77.94112396240234,0.6690080794865323,5.193484746898236,-90.79729693559582,-2.820173,10.181874,20.618282,6.852239,-7.484749,-8.777064,-1.0428329,-11.367094,-19.251978,6.789676,-8.699874,11.705039,-1.734717,-1.9987514,1.411427,-0.81609225,15.89966,-19.944202,56.24512,-3.4554927,-5.5204234,-5.5844812,-0.9854607,-17.526798,31.814463,55.61578,16.50969,-0.4712375,4.974812
16,-0.04061662405729294,1.5120258331298828,77.94367218017578,0.6686009803630508,5.178800217202912,-90.77318854538363,-2.8156505,10.177866,20.596403,6.8549075,-7.477303,-8.775827,-1.0193346,-11.37056,-19.275513,6.790123,-8.696432,11.698431,-1.7579545,-2.0085542,1.4627038,-1.0678965,16.074255,-19.748062,56.156574,-3.741127,-5.600656,-5.6949463,-0.99605167,-17.66201,31.367235,55.00034,16.942278,-0.5386357,4.9133625
17,-0.040615614503622055,1.5163341760635376,77.94577026367188,0.6681252663587958,5.161795577336227,-90.75009223992971,-2.8069758,10.17281,20.570744,6.8564043,-7.4693666,-8.771863,-0.99281234,-11.374573,-19.29847,6.789614,-8.691877,11.693141,-1.788332,-2.0232334,1.5142304,-1.3382999,16.27107,-19.49658,56.03968,-4.009263,-5.6872344,-5.830158,-1.0500537,-17.833359,30.939728,54.31722,17.474012,-0.59451663,4.8927817
18,-0.0381767712533474,1.5191795825958252,77.94932556152344,0.6675133320824239,5.142309122717904,-90.72718044698354,-2.7957566,10.167493,20.542189,6.8579693,-7.460733,-8.766212,-0.963945,-11.379107,-19.321562,6.7897277,-8.686672,11.68866,-1.8257594,-2.0416553,1.5681274,-1.6170388,16.488539,-19.18714,55.888817,-4.264746,-5.778617,-5.985144,-1.1291097,-18.042177,30.513393,53.552452,18.090551,-0.64021856,4.8939643
19,-0.034236665815114975,1.520574927330017,77.95230102539062,0.6668713764491067,5.119716211384253,-90.70529782444216,-2.780078,10.161739,20.514566,6.858942,-7.4528937,-8.760299,-0.93135184,-11.383426,-19.343826,6.788429,-8.680626,11.684108,-1.8713468,-2.0585823,1.6219797,-1.9166695,16.735697,-18.85997,55.682037,-4.538035,-5.8750563,-6.132945,-1.2461495,-18.292755,30.087805,52.707504,18.670069,-0.692095,4.8936715
20,-0.028865400701761246,1.5210429430007935,77.95586395263672,0.6656589857619297,5.093024702671498,-90.68514108088756,-2.759923,10.157176,20.491049,6.859433,-7.445692,-8.755878,-0.89623296,-11.386915,-19.364332,6.789048,-8.676065,11.678908,-1.9252509,-2.0708723,1.6733793,-2.2373483,17.026424,-18.550158,55.3848,-4.8528795,-5.976086,-6.248199,-1.4064964,-18.590954,29.659016,51.775856,19.088787,-0.76703954,4.8699055
21,-0.02680753916501999,1.5282610654830933,77.9579086303711,0.6636311638470921,5.0623444115936955,-90.66652180123421,-2.734351,10.153417,20.47288,6.8587637,-7.440078,-8.753389,-0.8575636,-11.389192,-19.383402,6.7887144,-8.671018,11.672396,-1.9883871,-2.0808222,1.7232147,-2.5710435,17.369274,-18.261694,54.98151,-5.194933,-6.087395,-6.314983,-1.6133436,-18.941853,29.23749,50.746983,19.26974,-0.8724838,4.8093762
22,-0.019433988258242607,1.5278258323669434,77.96065521240234,0.6605942678860841,5.028103544870642,-90.64920345690292,-2.7050698,10.151176,20.457893,6.8583827,-7.435386,-8.752142,-0.8157768,-11.389939,-19.40159,6.7888618,-8.666407,11.664991,-2.0589688,-2.0912447,1.7743765,-2.9066353,17.763578,-17.974407,54.475346,-5.554806,-6.206232,-6.3532057,-1.8558035,-19.345434,28.82004,49.616165,19.294788,-0.9968417,4.7277718
23,-0.016439542174339294,1.5319989919662476,77.96286010742188,0.6583492320839829,4.989872606617765,-90.6338583233859,-2.670261,10.148188,20.44552,6.856094,-7.430476,-8.751286,-0.7701186,-11.391132,-19.417627,6.788171,-8.6619835,11.658048,-2.1345344,-2.1016314,1.8265611,-3.26037,18.211584,-17.700073,53.877903,-5.980659,-6.320451,-6.390177,-2.1219766,-19.799692,28.38405,48.38906,19.277555,-1.1289052,4.645669
24,-0.016965506598353386,1.5376204252243042,77.96627807617188,0.6577342791376541,4.947283488885049,-90.62119232388366,-2.6298337,10.143894,20.434889,6.8545313,-7.4270835,-8.750173,-0.7215186,-11.394342,-19.430122,6.7882767,-8.658512,11.653261,-2.209288,-2.1115599,1.8794552,-3.642424,18.715895,-17.44916,53.194767,-6.515132,-6.41693,-6.454035,-2.395256,-20.29958,27.902046,47.066895,19.332169,-1.2573901,4.584644
25,-0.01570817083120346,1.5465810298919678,77.96802520751953,0.6598915333457056,4.900635272192053,-90.61178993629213,-2.5836115,10.137258,20.425655,6.8513236,-7.4233017,-8.748405,-0.6686308,-11.400245,-19.438505,6.786477,-8.65491,11.651171,-2.281815,-2.121365,1.9283503,-4.055374,19.282486,-17.23661,52.42397,-7.2114587,-6.485607,-6.560939,-2.6795473,-20.84396,27.371782,45.659676,19.485584,-1.3938985,4.5393953
26,-0.014579806476831436,1.5546356439590454,77.96894073486328,0.6636539709397861,4.850005930423994,-90.60510910989555,-2.5325687,10.129479,20.418137,6.8491697,-7.4213133,-8.746412,-0.6135587,-11.408049,-19.443495,6.787559,-8.65367,11.65093,-2.3532426,-2.1334581,1.972884,-4.4860153,19.912083,-17.053492,51.55659,-8.030222,-6.5335345,-6.69451,-2.97613,-21.433184,26.803808,44.161716,19.677603,-1.5388826,4.5033727
27,-0.014080722816288471,1.5620794296264648,77.97048950195312,0.6682319827387511,4.794699045232297,-90.60043987219936,-2.4754164,10.121076,20.412848,6.8460307,-7.419058,-8.744899,-0.5531192,-11.416023,-19.446415,6.785628,-8.65154,11.651531,-2.4217403,-2.1506505,2.0212097,-4.9287114,20.596516,-16.8764,50.594242,-8.878094,-6.573545,-6.832396,-3.276227,-22.06204,26.192078,42.564243,19.893524,-1.6649351,4.494872
28,-0.008706157095730305,1.564206600189209,77.97296905517578,0.6726798882103749,4.734178071528886,-90.59698012105808,-2.4121416,10.113222,20.4104,6.8435545,-7.416902,-8.744484,-0.48837173,-11.423587,-19.448248,6.785697,-8.65177,11.652189,-2.486234,-2.1746964,2.079269,-5.3873696,21.323511,-16.683867,49.550648,-9.662724,-6.6202393,-6.9512167,-3.5715373,-22.723288,25.53091,40.861187,20.117533,-1.7448263,4.5311446
29,-0.007358462084084749,1.5671517848968506,77.97393798828125,0.6771154435710847,4.665600777739849,-90.59420496911324,-2.33955,10.105531,20.41106,6.841423,-7.4143295,-8.746593,-0.41570988,-11.430539,-19.449306,6.786094,-8.654201,11.653619,-2.542785,-2.2059503,2.1435056,-5.8201613,22.085281,-16.450365,48.385292,-10.327546,-6.6823688,-7.038923,-3.856287,-23.410995,24.799734,39.04925,20.359772,-1.758251,4.636112
30,-0.007512928918004036,1.5790035724639893,77.97584533691406,0.6820782362960215,4.590296350689366,-90.59263725365648,-2.2586164,10.097443,20.41459,6.8388023,-7.4113584,-8.750408,-0.3355971,-11.437036,-19.44927,6.7857404,-8.658288,11.655903,-2.5956328,-2.2413714,2.2075288,-6.2535543,22.883877,-16.20116,47.125988,-10.939173,-6.7517185,-7.1076183,-4.138623,-24.126135,24.011713,37.14193,20.62315,-1.7235761,4.7919354
31,-0.005381460301578045,1.5941096544265747,77.97821807861328,0.6862736654364493,4.513230333554602,-90.5931227593939,-2.175154,10.090314,20.420277,6.8359528,-7.4083505,-8.753433,-0.25462818,-11.442678,-19.4476,6.7853365,-8.661866,11.657206,-2.6475785,-2.2795138,2.2727304,-6.725721,23.714008,-15.950384,45.82367,-11.5383,-6.8162746,-7.172875,-4.424999,-24.868635,23.20098,35.155193,20.882378,-1.671045,4.9550514
32,-0.003200698411092162,1.5999664068222046,77.98013305664062,0.688833969196579,4.439588724515576,-90.59656249650375,-2.0945508,10.085268,20.42741,6.8328943,-7.4062324,-8.753163,-0.17796817,-11.446283,-19.443943,6.7844124,-8.663093,11.655463,-2.6955278,-2.321499,2.3312197,-7.174556,24.559847,-15.665764,44.44224,-12.108906,-6.8623114,-7.2512956,-4.712193,-25.638,22.398874,33.105762,21.112526,-1.6320668,5.0829773
33,-0.0011293028946965933,1.6039828062057495,77.98233795166016,0.6888729465481688,4.371082966664279,-90.6051565029099,-2.0189192,10.083981,20.437666,6.830184,-7.405511,-8.747455,-0.1096199,-11.446956,-19.436445,6.78391,-8.661239,11.649066,-2.7420251,-2.3628967,2.3777933,-7.625198,25.414135,-15.350059,43.007492,-12.651965,-6.8843684,-7.342989,-5.0119843,-26.43753,21.623413,30.998297,21.273119,-1.6211176,5.164064
34,0.00236584828235209,1.6144226789474487,77.98487091064453,0.686883066313584,4.304964779121636,-90.6178386883462,-1.9457397,10.085919,20.450699,6.8296084,-7.4068384,-8.738109,-0.045536164,-11.444919,-19.425978,6.784325,-8.658371,11.639175,-2.7873921,-2.4014788,2.4131985,-8.080507,26.276546,-15.007185,41.517986,-13.161078,-6.8905177,-7.438991,-5.320219,-27.269012,20.857256,28.826464,21.389688,-1.6198249,5.220438
35,0.004834949970245361,1.624208688735962,77.9882583618164,0.6843836580587532,4.239031491510785,-90.63027512016048,-1.872122,10.087528,20.462948,6.8266006,-7.406556,-8.728566,0.018944833,-11.442822,-19.415955,6.7836633,-8.653457,11.629033,-2.8299773,-2.4371905,2.4405107,-8.479558,27.142855,-14.625468,39.92751,-13.639121,-6.8891015,-7.539676,-5.621236,-28.126787,20.084003,26.598648,21.536812,-1.6106409,5.2589417
36,0.008015230298042297,1.6361043453216553,77.9903335571289,0.6830096805575895,4.171161827510095,-90.63809678618591,-1.7977585,10.086553,20.470236,6.8237944,-7.40569,-8.72222,0.08800429,-11.443021,-19.409868,6.782198,-8.647638,11.621028,-2.8841438,-2.468744,2.4746282,-8.941425,28.012758,-14.251079,38.356457,-14.152755,-6.889625,-7.642388,-5.9222827,-29.003881,19.301893,24.326134,21.788242,-1.576903,5.2827334
37,0.012544048950076103,1.646436333656311,77.99352264404297,0.6827738070807627,4.098979696927641,-90.64064265335846,-1.72036,10.082625,20.47173,6.8216863,-7.4042115,-8.721118,0.16344911,-11.446348,-19.407742,6.78235,-8.64108,11.615675,-2.9416053,-2.4986959,2.509306,-9.404834,28.885689,-13.871461,36.738464,-14.681713,-6.8975005,-7.748383,-6.2243743,-29.897953,18.510618,22.017141,22.17487,-1.5103378,5.2871113
38,0.018706321716308594,1.6548818349838257,77.9964599609375,0.6830748888862328,4.024012106840153,-90.64003451337656,-1.640835,10.077085,20.469269,6.81867,-7.401223,-8.723033,0.244211,-11.451119,-19.408228,6.7814646,-8.632803,11.611541,-3.000625,-2.5274758,2.538945,-9.852981,29.762108,-13.476856,35.057495,-15.209863,-6.906767,-7.857584,-6.5268564,-30.809063,17.713203,19.666088,22.652931,-1.4207996,5.2697687
39,0.022968197241425514,1.6596041917800903,77.99991607666016,0.6838834510117183,3.9506851124037996,-90.63627331238023,-1.564177,10.069758,20.46366,6.8158383,-7.3979096,-8.725076,0.32409573,-11.457527,-19.411753,6.7804875,-8.624389,11.609037,-3.0643103,-2.5546484,2.567343,-10.302721,30.636108,-13.064106,33.35487,-15.738249,-6.909222,-7.965666,-6.8165774,-31.728767,16.892376,17.275812,23.182554,-1.3229294,5.242181
40,0.02839820273220539,1.6673592329025269,78.00272369384766,0.685420398877665,3.883206457705348,-90.62928978855238,-1.4945885,10.060541,20.455496,6.812575,-7.39441,-8.724251,0.39862126,-11.465288,-19.4193,6.778998,-8.6172495,11.608177,-3.1309645,-2.5803149,2.5938919,-10.7457695,31.49827,-12.625681,31.650467,-16.258059,-6.897569,-8.067243,-7.081508,-32.644188,16.027832,14.857189,23.720732,-1.2311846,5.215806
41,0.035841573029756546,1.6766637563705444,78.00608825683594,0.6875394320769701,3.822717911143687,-90.6196389650179,-1.4338287,10.049129,20.444761,6.8094788,-7.3904486,-8.719875,0.46531403,-11.475202,-19.430689,6.7780538,-8.612521,11.609476,-3.19931,-2.6048927,2.6157038,-11.184931,32.345387,-12.164292,29.939005,-16.782778,-6.8739233,-8.161225,-7.3299007,-33.547924,15.112773,12.419158,24.25789,-1.1503524,5.192703
42,0.04407611861824989,1.6830328702926636,78.00901794433594,0.6905617241491476,3.7667403453521002,-90.60713201158681,-1.3793128,10.035681,20.43135,6.8068447,-7.3863854,-8.713437,0.5275961,-11.486671,-19.44573,6.776884,-8.608862,11.612749,-3.2690644,-2.6291244,2.6300225,-11.626222,33.178814,-11.686552,28.21963,-17.309425,-6.841946,-8.248225,-7.570671,-34.439247,14.159183,9.96604,24.812996,-1.0740526,5.1657624
43,0.051469460129737854,1.6871607303619385,78.01058959960938,0.6940033912322675,3.7148826621298094,-90.5907345095529,-1.3298776,10.020832,20.414934,6.803759,-7.382102,-8.705452,0.58773935,-11.499135,-19.464462,6.7749624,-8.605828,11.617072,-3.3419414,-2.652119,2.6378918,-12.078846,33.99418,-11.191647,26.532476,-17.806503,-6.797542,-8.325045,-7.795496,-35.312546,13.176246,7.5023017,25.387821,-1.0007858,5.1320143
44,0.0566227063536644,1.694819688796997,78.01524353027344,0.6973452701663768,3.666584836014337,-90.56938903999355,-1.2850463,10.005833,20.394878,6.8012414,-7.3787684,-8.696462,0.6462692,-11.512515,-19.486515,6.774166,-8.603,11.622099,-3.4176524,-2.6727417,2.6368794,-12.5325575,34.785618,-10.675292,24.901724,-18.238499,-6.737394,-8.388178,-7.996998,-36.161,12.173545,5.03765,25.982256,-0.9293776,5.08869
45,0.06114997714757919,1.6962028741836548,78.01789093017578,0.7015486613352245,3.6221732357951497,-90.54259425099652,-1.2442333,9.988973,20.371948,6.79816,-7.3767285,-8.683966,0.7047308,-11.527467,-19.511631,6.7731466,-8.600416,11.628658,-3.498932,-2.6915987,2.6230729,-12.994574,35.5506,-10.13789,23.33242,-18.561344,-6.6541348,-8.433371,-8.1886635,-36.982086,11.153339,2.5799549,26.582134,-0.860011,5.040758
46,0.06918742507696152,1.6986674070358276,78.02053833007812,0.7062940427615555,3.581609587001996,-90.51095540494329,-1.2078828,9.970752,20.345907,6.794913,-7.3757024,-8.668604,0.76196843,-11.543712,-19.539915,6.771297,-8.597342,11.636791,-3.5858393,-2.7085066,2.5966418,-13.471831,36.28932,-9.583671,21.818966,-18.802414,-6.5531507,-8.462958,-8.377566,-37.775265,10.115942,0.13071944,27.1901,-0.79479855,4.986791
47,0.07507485896348953,1.6935346126556396,78.02275085449219,0.7101636341534472,3.5443458262294207,-90.47522526061525,-1.1760529,9.953483,20.315895,6.7914734,-7.373956,-8.6554785,0.8178127,-11.559333,-19.572388,6.769898,-8.594971,11.644177,-3.6748054,-2.722242,2.5615401,-13.961618,37.00031,-9.016021,20.378141,-19.034689,-6.451005,-8.483709,-8.552881,-38.53574,9.070776,-2.3065507,27.83021,-0.7357381,4.913373
48,0.08630597591400146,1.6993228197097778,78.02578735351562,0.7119027647347134,3.5094717267461015,-90.43608927501586,-1.1478255,9.938943,20.281063,6.7878146,-7.370637,-8.649401,0.87254304,-11.571634,-19.61004,6.76862,-8.593236,11.648614,-3.7640085,-2.7316756,2.5218155,-14.469946,37.68064,-8.4393015,19.035686,-19.330378,-6.3630657,-8.501345,-8.7068815,-39.25538,8.029285,-4.7256613,28.526226,-0.68577665,4.806386
49,0.0902826189994812,1.699392318725586,78.02725982666016,0.7099450621091394,3.4777937557553766,-90.39452546230463,-1.1233202,9.9295845,20.241909,6.7825284,-7.36496,-8.655872,0.9248742,-11.578093,-19.652735,6.7671614,-8.591581,11.648667,-3.8541188,-2.7361593,2.4769316,-15.0094385,38.32942,-7.857735,17.80913,-19.717808,-6.2977843,-8.516194,-8.857645,-39.929565,6.9878187,-7.116042,29.299465,-0.6445055,4.651897
50,0.09450090676546097,1.6972233057022095,78.02989959716797,0.7052703261442608,3.4493661277808974,-90.3499453219511,-1.1029203,9.923741,20.198559,6.776079,-7.3573318,-8.670867,0.9750375,-11.580819,-19.699978,6.7655377,-8.589825,11.645964,-3.9449718,-2.737646,2.4226856,-15.573886,38.948807,-7.2719226,16.682312,-20.154081,-6.24601,-8.524897,-9.011245,-40.55854,5.9479012,-9.47604,30.127798,-0.6131207,4.460495
51,0.09927948564291,1.6950627565383911,78.03204345703125,0.7007023485774736,3.4224842831749647,-90.3005047009747,-1.085837,9.917596,20.149837,6.7703853,-7.3489647,-8.685352,1.0262496,-11.583701,-19.752516,6.763642,-8.5891485,11.642169,-4.0379243,-2.7391994,2.360622,-16.162024,39.537624,-6.683215,15.651577,-20.601763,-6.1970744,-8.528012,-9.145886,-41.139217,4.930807,-11.816236,30.971464,-0.5971541,4.2546535
52,0.1003824770450592,1.6955842971801758,78.03544616699219,0.6994270382422324,3.3949284737870156,-90.24441721369249,-1.069942,9.905885,20.09486,6.7643695,-7.3392797,-8.690119,1.0803119,-11.59176,-19.810608,6.7621083,-8.59002,11.6392565,-4.1346416,-2.7441115,2.290917,-16.767557,40.093567,-6.090764,14.710089,-21.02209,-6.1403766,-8.525939,-9.241862,-41.66671,3.9596236,-14.143573,31.789108,-0.6015898,4.0566297
53,0.10455107688903809,1.693880558013916,78.03837585449219,0.7027197336702353,3.3652139562654657,-90.18129449723295,-1.0537869,9.887109,20.033453,6.7583737,-7.3278365,-8.680013,1.1402984,-11.606561,-19.87424,6.761032,-8.593511,11.637687,-4.238596,-2.754393,2.21421,-17.387552,40.61701,-5.485742,13.859489,-21.399387,-6.068961,-8.52955,-9.323322,-42.141396,3.0275476,-16.4385,32.54773,-0.6248364,3.8706164
54,0.10879525542259216,1.6919257640838623,78.04190826416016,0.7087354833127177,3.3346627375006412,-90.1120316455772,-1.0386667,9.863773,19.96603,6.752625,-7.3150206,-8.660768,1.2036464,-11.625821,-19.943184,6.759825,-8.59794,11.636577,-4.3494196,-2.768063,2.1308036,-18.028353,41.109287,-4.870813,13.104515,-21.753944,-5.989874,-8.535462,-9.398299,-42.564114,2.1315937,-18.702768,33.27417,-0.66613305,3.6864347
55,0.11243332177400589,1.6873356103897095,78.04534912109375,0.7156391739656811,3.3061963124942624,-90.03689285133079,-1.0287927,9.839418,19.892494,6.749711,-7.3027472,-8.639983,1.2666624,-11.646657,-20.017925,6.7601643,-8.604944,11.635193,-4.4620314,-2.7829497,2.0390248,-18.688683,41.57081,-4.260955,12.434538,-22.101177,-5.91427,-8.522507,-9.42181,-42.93025,1.3008428,-20.977413,34.014793,-0.7289143,3.5038228
56,0.1154387965798378,1.6809628009796143,78.048095703125,0.7215625803193692,3.2827022547928837,-89.95610691600353,-1.0265819,9.816524,19.81331,6.7484794,-7.2908816,-8.625186,1.3275659,-11.665481,-20.099442,6.759198,-8.613509,11.632852,-4.570914,-2.796375,1.9353244,-19.355583,42.003563,-3.6675305,11.830205,-22.458523,-5.8538103,-8.469379,-9.350791,-43.231327,0.5664686,-23.299835,34.813545,-0.8178531,3.3216553
57,0.11614105850458145,1.6738137006759644,78.05088806152344,0.7256265598232206,3.265470991741288,-89.87001278281396,-1.0323057,9.796103,19.728498,6.7467594,-7.2790055,-8.618083,1.3842787,-11.681659,-20.187506,6.7579904,-8.624212,11.628459,-4.683137,-2.80633,1.8174171,-20.027967,42.40746,-3.0807545,11.2967205,-22.803402,-5.81569,-8.365752,-9.1988125,-43.45557,-0.08747314,-25.64559,35.721695,-0.9473378,3.1061952
58,0.11809112876653671,1.6690481901168823,78.0534896850586,0.7290819827610135,3.252878918135409,-89.77836119264006,-1.0447669,9.776295,19.638128,6.745594,-7.267017,-8.614706,1.4382988,-11.696785,-20.2817,6.7572255,-8.637447,11.6225195,-4.798219,-2.817372,1.6878444,-20.70601,42.78618,-2.4969935,10.833692,-23.135262,-5.7927155,-8.224493,-8.980205,-43.601254,-0.6705021,-28.007174,36.69491,-1.1116515,2.8717272
59,0.11672493815422058,1.664121389389038,78.05632019042969,0.7324858485574508,3.2434924810406067,-89.68057934712019,-1.0620292,9.756636,19.541874,6.7437773,-7.253282,-8.61441,1.4913384,-11.711401,-20.382551,6.7569323,-8.652269,11.617054,-4.9076347,-2.838312,1.5543883,-21.399664,43.144115,-1.9379101,10.434057,-23.5019,-5.774362,-8.059219,-8.651222,-43.678917,-1.1417774,-30.46383,37.64112,-1.2843951,2.6887128
60,0.11377833783626556,1.6552760601043701,78.0577392578125,0.7363402452431681,3.23643349721467,-89.57601073065365,-1.0837061,9.737279,19.439577,6.742684,-7.2368426,-8.616659,1.5455619,-11.725385,-20.490969,6.7558618,-8.667634,11.613981,-5.0034423,-2.8739612,1.4242374,-22.113888,43.48446,-1.4222437,10.087878,-23.952799,-5.7506394,-7.8829803,-8.166343,-43.704216,-1.4586945,-33.090374,38.471703,-1.4380481,2.6241944
61,0.10792263597249985,1.6442160606384277,78.06037902832031,0.7410775002836197,3.2310794420194004,-89.46288807820352,-1.1088225,9.717243,19.329922,6.7402897,-7.2149897,-8.623253,1.6017082,-11.739494,-20.608358,6.7539487,-8.682251,11.614988,-5.095002,-2.9214158,1.2962788,-22.843771,43.806774,-0.94373935,9.80373,-24.523262,-5.72417,-7.6963787,-7.508995,-43.68465,-1.6640853,-35.90132,39.21996,-1.5666137,2.6660304
62,0.10224562138319016,1.634835124015808,78.06194305419922,0.7465479412157985,3.228322303732231,-89.34209336121086,-1.1381346,9.6969595,19.213617,6.7378798,-7.1901455,-8.633866,1.6582454,-11.753544,-20.734085,6.7531624,-8.698322,11.618825,-5.1798844,-2.975366,1.1718702,-23.584307,44.109207,-0.49179247,9.574962,-25.182844,-5.699773,-7.4935374,-6.683521,-43.61969,-1.7763896,-38.876534,39.917763,-1.6830931,2.786726
63,0.09515228122472763,1.6238948106765747,78.06478881835938,0.7515382726999357,3.2286127953569053,-89.21698618705426,-1.1718183,9.677317,19.092892,6.7357297,-7.1648145,-8.644493,1.7143109,-11.766502,-20.864702,6.7503653,-8.714569,11.622523,-5.241524,-3.04117,1.0600135,-24.347874,44.390965,-0.07816505,9.380415,-25.877888,-5.670039,-7.277732,-5.681152,-43.521637,-1.70667,-42.039177,40.477062,-1.7847385,3.032834
64,0.08858475834131241,1.6130330562591553,78.06787109375,0.7557127978008212,3.2329289126482608,-89.09076220832785,-1.2095242,9.659149,18.970358,6.733239,-7.1414337,-8.651119,1.7673576,-11.777835,-20.996975,6.748746,-8.734213,11.623153,-5.2678514,-3.1213799,0.9655744,-25.134806,44.652096,0.2916272,9.195516,-26.5579,-5.6277595,-7.052143,-4.5159063,-43.411964,-1.3409729,-45.392754,40.806656,-1.8707293,3.4481387
65,0.0786370113492012,1.5985264778137207,78.06869506835938,0.7577727295105178,3.242464971774845,-88.96141014175119,-1.2547739,9.64399,18.842878,6.732674,-7.121432,-8.651234,1.8162913,-11.786578,-21.13333,6.7486277,-8.758166,11.617805,-5.2760158,-3.2130668,0.88223314,-25.940573,44.89465,0.6331078,9.0449505,-27.167517,-5.5768633,-6.8207564,-3.1498628,-43.31742,-0.6963625,-49.020267,40.92158,-1.9599549,4.0437956
66,0.06768366694450378,1.583491325378418,78.06954956054688,0.7582671359585244,3.2564619008921536,-88.82816531743701,-1.3049146,9.630681,18.710707,6.730827,-7.1018763,-8.64751,1.8633765,-11.792845,-21.274652,6.7471066,-8.784141,11.608559,-5.270153,-3.31015,0.8085656,-26.750467,45.11756,0.956213,8.922591,-27.752195,-5.5194616,-6.5818105,-1.5889868,-43.254803,0.18957111,-52.88863,40.860134,-2.0473616,4.7969017
67,0.058210402727127075,1.5681270360946655,78.07157897949219,0.759548268937937,3.2720438058850263,-88.69622274294711,-1.3559823,9.616835,18.57998,6.7300315,-7.0849104,-8.64336,1.9086896,-11.799837,-21.414333,6.746005,-8.810907,11.6011095,-5.2305145,-3.4150174,0.75247097,-27.565502,45.3119,1.2457982,8.780045,-28.401407,-5.4452777,-6.328706,0.067064725,-43.235943,1.4228537,-56.804432,40.567894,-2.100548,5.7039595
68,0.05236769840121269,1.5504506826400757,78.07272338867188,0.7628467997574948,3.2840717414288116,-88.57079156416029,-1.3998958,9.600313,18.45689,6.729332,-7.070878,-8.642341,1.9555424,-11.81013,-21.546122,6.7459674,-8.83702,11.601106,-5.1794186,-3.5219584,0.59574974,-28.397762,45.429317,1.4146867,8.7068815,-29.168926,-5.359018,-6.044583,1.1860968,-43.257076,3.4892607,-60.000134,39.978416,-2.1245623,6.774602
69,0.04377531632781029,1.5360312461853027,78.07284545898438,0.7699461609255577,3.2833378803678808,-88.44470512426572,-1.428692,9.577262,18.335144,6.727696,-7.0596385,-8.645044,2.0176208,-11.825894,-21.677267,6.743611,-8.861485,11.613669,-5.467815,-3.5712333,-0.18472408,-28.995914,45.515625,1.4575349,9.160799,-30.120365,-5.2820935,-5.7130265,-0.86937714,-43.199017,8.802633,-60.000134,38.81815,-2.3560681,8.19164
70,0.03740856423974037,1.5193159580230713,78.07247161865234,0.7796114814060567,3.284490848351531,-88.31804628631815,-1.4588515,9.550644,18.214075,6.7266407,-7.0506597,-8.649929,2.0782132,-11.845807,-21.807808,6.742502,-8.886685,11.6343,-5.7995863,-3.520398,-0.9178142,-29.277447,45.56006,1.7725556,9.378136,-31.266054,-5.1663456,-5.387246,-2.9732876,-42.94192,15.004658,-60.000134,37.21965,-2.6227841,9.799384
71,0.03420797362923622,1.5011820793151855,78.07192993164062,0.789605875717131,3.285438757398731,-88.20721730926306,-1.4823428,9.525486,18.109024,6.7247643,-7.044025,-8.656618,2.1340127,-11.864605,-21.921621,6.739884,-8.908778,11.654771,-6.138534,-3.4163337,-1.5131298,-29.279097,45.572445,2.3509405,9.209558,-32.475502,-5.0300493,-5.08012,-4.6578608,-42.447983,20.71054,-60.000134,35.72622,-2.925107,11.273759
72,0.029752423986792564,1.4854953289031982,78.07202911376953,0.7970025756279477,3.2833775050628153,-88.12848886083016,-1.4923391,9.508357,18.034653,6.7228146,-7.0404463,-8.66486,2.180101,-11.87697,-22.002613,6.7382703,-8.927018,11.666986,-6.433238,-3.3627956,-1.908398,-29.07504,45.595013,3.1027796,8.526038,-33.621414,-4.889046,-4.796292,-5.5786777,-41.84149,24.582514,-60.000134,34.886364,-3.1540859,12.318361
73,0.02531050331890583,1.4681235551834106,78.07201385498047,0.8008732004847811,3.2810350161833575,-88.07727278852003,-1.4937074,9.500859,17.985851,6.721681,-7.038057,-8.675768,2.2155974,-11.8809395,-22.054968,6.7374887,-8.942774,11.667216,-6.6279044,-3.4529734,-2.079609,-28.896088,45.637173,3.9079216,7.455745,-34.67985,-4.7442894,-4.4856033,-5.5623746,-41.305885,26.115822,-60.000134,35.16264,-3.2440348,12.753018
74,0.021138174459338188,1.4497140645980835,78.07318878173828,0.8028401255650706,3.2780044796942676,-88.0477948164885,-1.4872677,9.499685,17.957554,6.7200494,-7.0364485,-8.6890335,2.2427683,-11.880309,-22.084452,6.738296,-8.956617,11.660728,-6.682812,-3.6499445,-2.0946372,-28.838737,45.667767,4.6293015,6.1588087,-35.72373,-4.604617,-4.1386027,-4.860648,-40.930588,26.050325,-60.000134,36.194023,-3.2413049,12.781333
75,0.016620304435491562,1.4386296272277832,78.07350158691406,0.80242576743776,3.266718986023705,-88.05439570615962,-1.4602308,9.50436,17.964828,6.719198,-7.0417857,-8.701937,2.2647166,-11.876174,-22.077297,6.739028,-8.964409,11.652125,-6.6488366,-3.8554862,-2.0402677,-28.74689,45.667553,5.220301,4.581742,-36.73867,-4.4896026,-3.828292,-3.8876257,-40.72271,25.105648,-60.000134,37.236843,-3.1938004,12.658804
76,0.02045518159866333,1.431389570236206,78.07490539550781,0.800448168302541,3.2401474438929037,-88.11150368869085,-1.4005964,9.514057,18.022957,6.7207503,-7.059899,-8.712043,2.2830074,-11.870822,-22.019382,6.7403665,-8.9633045,11.646053,-6.5881095,-4.001661,-1.9754411,-28.465782,45.63802,5.6540318,2.6425827,-37.695744,-4.40867,-3.6305177,-3.1088572,-40.666794,23.888384,-60.000134,37.64904,-3.0872319,12.653452
77,0.03503130003809929,1.426840901374817,78.07637023925781,0.7954398102119176,3.1878754432172407,-88.22983381948862,-1.2925183,9.53078,18.143068,6.7218294,-7.09138,-8.719879,2.304634,-11.861978,-21.900404,6.742433,-8.951377,11.641371,-6.5615616,-4.0728083,-1.9263905,-27.8187,45.60124,6.1072555,0.24598517,-38.632797,-4.359379,-3.554739,-2.6069062,-40.76077,22.436747,-60.000134,36.856956,-2.8678846,12.915692
78,0.05405961349606514,1.4257705211639404,78.07563781738281,0.7883206479321612,3.1169862828556845,-88.39959612213656,-1.1477404,9.554018,18.314785,6.7242827,-7.1344314,-8.726454,2.3255415,-11.850135,-21.729843,6.7449303,-8.930014,11.636595,-6.5615687,-4.102532,-1.8283032,-26.81272,45.56621,6.65391,-2.6450813,-39.56057,-4.3243737,-3.5729122,-2.197526,-41.01445,20.441439,-60.000134,35.39004,-2.5599425,13.279685
79,0.07256480306386948,1.4222291707992554,78.07523345947266,0.7806323828256972,3.0454126740671437,-88.60397508514676,-0.99041706,9.578823,18.520868,6.7273955,-7.1858273,-8.72995,2.333921,-11.838406,-21.52384,6.7482667,-8.903765,11.634888,-6.554572,-4.0751777,-1.6978343,-25.516249,45.51582,7.068467,-5.984597,-40.42824,-4.3022017,-3.701342,-1.7771136,-41.382706,18.256329,-60.000134,33.961372,-2.295212,13.541151
80,0.09187725931406021,1.4167526960372925,78.07492065429688,0.7748980940593388,2.991038753717098,-88.82637626556426,-0.84438115,9.600177,18.74424,6.730153,-7.2424564,-8.728562,2.3183913,-11.830332,-21.298742,6.7493286,-8.874235,11.639872,-6.512533,-4.003875,-1.5548791,-24.037863,45.463078,7.087324,-9.700492,-41.168217,-4.2920413,-3.9511743,-1.302012,-41.758392,16.252207,-60.000134,33.289555,-2.1467888,13.487971
81,0.12394843995571136,1.4124736785888672,78.0729751586914,0.7715208779213925,2.9543877649200807,-89.07387109254746,-0.7082154,9.61679,18.991167,6.7316875,-7.3067765,-8.719792,2.2748723,-11.827148,-21.046732,6.7496314,-8.842413,11.654943,-6.336996,-3.8598046,-1.3936641,-22.251064,45.409176,6.7296324,-13.992924,-41.81105,-4.3058734,-4.3714037,-0.7055617,-42.198597,14.421127,-60.000134,33.743633,-2.1774447,13.028839
82,0.16355182230472565,1.4027652740478516,78.06990814208984,0.769509644240404,2.927432666879718,-89.35141664844116,-0.5722143,9.631321,19.26705,6.73377,-7.3796535,-8.705519,2.2099051,-11.826702,-20.763227,6.7496667,-8.807059,11.677441,-6.1165824,-3.6809692,-1.2183458,-20.195204,45.408707,6.081654,-18.767414,-42.345737,-4.339449,-4.9403186,-0.08301285,-42.634342,12.68347,-60.000134,34.835884,-2.2994335,12.288697
83,0.1944807469844818,1.3965003490447998,78.06769561767578,0.7683680554110068,2.9157602957466247,-89.63937033592227,-0.44709906,9.644424,19.553312,6.735389,-7.454703,-8.690262,2.1267831,-11.82722,-20.469332,6.748756,-8.770051,11.701478,-6.0208077,-3.4967947,-1.0234536,-17.620344,45.47229,5.343017,-24.0689,-42.7376,-4.3454065,-5.6071267,0.4137864,-42.926033,11.149121,-60.000134,36.066963,-2.3986933,11.394688
84,0.22455540299415588,1.3828139305114746,78.06722259521484,0.7671544247260143,2.9226168018102117,-89.91806153641484,-0.341548,9.656906,19.83122,6.736177,-7.525913,-8.678097,2.0303762,-11.82715,-20.185951,6.747938,-8.733517,11.72174,-5.947804,-3.2799356,-0.7930534,-15.009553,45.586315,4.1183195,-29.451614,-42.976444,-4.343356,-6.268111,0.9150502,-43.247818,9.471603,-59.98627,37.17814,-2.5323842,10.433641
85,0.25514334440231323,1.360974907875061,78.06690216064453,0.7648372525809842,2.953085276653073,-90.18706361971059,-0.25918558,9.67015,20.100843,6.7362647,-7.592818,-8.671427,1.917859,-11.824674,-19.914595,6.746344,-8.697748,11.73604,-5.8117733,-3.004447,-0.66223973,-12.445997,45.801067,2.0906758,-34.89635,-43.094135,-4.345454,-6.8936424,1.0115263,-43.601883,7.7494187,-59.281628,38.17627,-2.8097258,9.4616
86,0.29008790850639343,1.3300472497940063,78.06635284423828,0.7621819243554996,3.004397864022346,-90.45525796205996,-0.19629633,9.68365,20.370392,6.736514,-7.6579494,-8.667802,1.7870177,-11.821511,-19.645329,6.7447405,-8.662009,11.747517,-5.7898707,-2.6937096,-0.59831154,-9.546294,46.14954,-0.30627328,-40.65999,-43.015167,-4.303256,-7.5853295,0.6496567,-43.86117,6.3129315,-58.15192,39.07877,-3.0892105,8.404656
87,0.323241263628006,1.299715280532837,78.06719207763672,0.7599317183001821,3.061240424915902,-90.71678327842353,-0.14061026,9.694636,20.633295,6.735804,-7.721379,-8.663441,1.6531755,-11.819426,-19.38273,6.743365,-8.626629,11.7584505,-5.841332,-2.3800123,-0.55854535,-6.6288266,46.69094,-3.0168104,-46.29916,-42.727123,-4.2212644,-8.363238,0.051361773,-44.052887,5.048534,-56.832706,39.956158,-3.3557768,7.3266635
88,0.3552827537059784,1.273577094078064,78.06863403320312,0.7586972941884499,3.1081051790816,-90.96595482308062,-0.08202549,9.701265,20.882435,6.7355165,-7.782691,-8.654675,1.5312424,-11.820303,-19.13157,6.7415204,-8.590856,11.771296,-5.9554515,-2.0885444,-0.5313113,-3.9913352,47.432404,-6.000001,-51.361843,-42.210117,-4.1171227,-9.231387,-0.7048611,-44.185493,3.9691558,-55.431034,40.864708,-3.600662,6.277314
89,0.39099395275115967,1.2481608390808105,78.06800842285156,0.7584572238045675,3.151260318207043,-91.20860594180827,-0.026270317,9.703532,21.12245,6.7371564,-7.844705,-8.638962,1.4110632,-11.823898,-18.885096,6.741297,-8.55407,11.785722,-6.204318,-1.7839504,-0.5102358,-1.5024987,48.43395,-9.738414,-56.11086,-41.15937,-3.9288626,-10.354917,-1.7538841,-44.287327,3.1844132,-53.886665,41.91955,-3.8203845,5.2363706
90,0.4250074326992035,1.2318556308746338,78.06724548339844,0.7585421581389998,3.1916605786512813,-91.44547299930034,0.028438758,9.702291,21.354912,6.73825,-7.905641,-8.618734,1.2935475,-11.829081,-18.6437,6.7410173,-8.515899,11.800756,-6.375854,-1.5022851,-0.7015265,-0.17926845,49.6147,-15.078822,-59.835262,-39.657665,-3.7338524,-11.5850315,-3.0284543,-44.324142,2.661192,-51.944077,43.04262,-4.045115,4.1652255
91,0.4587695002555847,1.2192459106445312,78.06655883789062,0.7601696676106131,3.2032783397342195,-91.66307584311987,0.10412434,9.697028,21.56869,6.7389355,-7.9625463,-8.597479,1.2109399,-11.837322,-18.42147,6.740708,-8.480598,11.817423,-6.3909574,-1.4496785,-1.3717185,-1.9683582,50.338,-21.982527,-60.000134,-38.589073,-4.0689945,-12.730477,-4.285615,-44.165333,2.3842676,-49.528996,44.093723,-4.3128796,3.133048
92,0.4931677579879761,1.2089194059371948,78.06546020507812,0.764945875223888,3.189834130377575,-91.84737182540577,0.1942778,9.685961,21.752232,6.7389197,-8.013679,-8.578663,1.1661751,-11.850403,-18.23276,6.7404113,-8.452864,11.836793,-6.0235844,-1.5537491,-1.8059772,-3.699513,50.840942,-27.331215,-60.000134,-38.11797,-4.5340996,-13.158538,-4.7378254,-43.85472,1.3229609,-47.742943,44.789463,-4.5248613,2.2414556
93,0.5239797234535217,1.203640103340149,78.06409454345703,0.7741051033293331,3.1419151004291797,-91.99760312830176,0.30700588,9.666467,21.906261,6.7402563,-8.0606,-8.560741,1.1689215,-11.872449,-18.078272,6.7413836,-8.433033,11.862424,-5.78326,-1.5931933,-1.8394806,-4.122805,51.12175,-29.043137,-60.000134,-38.746754,-5.009116,-13.191283,-4.8616605,-43.481316,-0.08655865,-46.658638,45.060154,-4.615952,1.5604321
94,0.5559653043746948,1.2059621810913086,78.06114196777344,0.786543932532815,3.067838756380139,-92.12018285308218,0.43748236,9.639612,22.035606,6.740937,-8.104151,-8.542514,1.2080519,-11.9015465,-17.951313,6.7427974,-8.4186,11.892532,-5.689249,-1.5498537,-1.6428272,-3.5212393,51.335308,-28.222963,-60.000134,-40.06216,-5.463793,-12.908573,-5.101256,-43.082603,-1.435606,-45.792458,45.00634,-4.638275,0.9797966
95,0.5811901092529297,1.2099473476409912,78.0587387084961,0.8006235936687204,2.9766062427687565,-92.2120499391884,0.5723466,9.612596,22.13485,6.742334,-8.139647,-8.527838,1.2744006,-11.931073,-17.855331,6.745284,-8.411789,11.921183,-5.7053156,-1.5034696,-1.3489898,-2.3962817,51.507908,-25.897043,-60.000134,-41.625,-5.828602,-12.46264,-5.4791226,-42.660168,-2.6231022,-45.035603,44.729416,-4.615621,0.42138925
96,0.5961381196975708,1.2153303623199463,78.05381774902344,0.8138148782302405,2.8776775497146536,-92.27019524940937,0.70155543,9.591869,22.199121,6.7431493,-8.163698,-8.520324,1.3595036,-11.953617,-17.79412,6.747919,-8.414192,11.942405,-5.757491,-1.513733,-1.0822175,-1.3092855,51.607574,-23.141718,-60.000134,-42.966763,-5.9664564,-12.015637,-5.9197774,-42.2171,-3.636059,-44.34311,44.313065,-4.551017,-0.17058252
97,0.598164439201355,1.2296921014785767,78.05000305175781,0.8267659527734808,2.757938536540334,-92.28209104254526,0.83214706,9.579103,22.21529,6.745079,-8.172281,-8.523559,1.4812204,-11.968443,-17.780043,6.7505674,-8.430651,11.954956,-5.5113897,-1.5549585,-0.9477098,-0.90243196,51.57858,-20.739954,-59.962547,-43.74039,-5.7386236,-11.316214,-6.365085,-41.95684,-4.6353517,-43.44662,43.717037,-4.4935975,-0.9517424
98,0.5893725156784058,1.2485589981079102,78.04525756835938,0.8406183445793282,2.614667983242701,-92.25323941551356,0.9704777,9.570354,22.190027,6.7466593,-8.168183,-8.535259,1.6401064,-11.979048,-17.807558,6.7544823,-8.459721,11.961284,-5.525546,-1.7222021,-0.6541626,-0.33486024,51.370235,-16.817274,-59.49339,-44.66105,-5.2738314,-10.97534,-6.383114,-41.377914,-5.861121,-43.26677,42.94852,-4.2421293,-1.5756259
99,0.5763413310050964,1.2657887935638428,78.04085540771484,0.8520599453384095,2.478459936254156,-92.20775014697905,1.0937132,9.565922,22.147982,6.747583,-8.157406,-8.548753,1.7958874,-11.985191,-17.852076,6.7582808,-8.489947,11.963215,-5.4101253,-1.9489803,-0.56225634,-0.60977554,51.057533,-13.394701,-58.275978,-45.57657,-4.849891,-10.40181,-6.4446898,-40.821835,-6.8264146,-42.945175,42.090786,-4.0119357,-2.2057993
100,0.5617793202400208,1.2839760780334473,78.03948211669922,0.858519981445176,2.383130920389297,-92.16993704316899,1.1723922,9.567577,22.112768,6.75747,-8.152003,-8.557332,1.9060559,-11.986356,-17.889389,6.7609553,-8.511163,11.962087,-5.271361,-2.1444373,-0.5514548,-1.1205195,50.663822,-10.312617,-56.807465,-46.65591,-4.550675,-9.702095,-6.3595104,-40.297745,-7.5712094,-42.88956,41.294456,-3.8129914,-2.727356
101,0.5485493540763855,1.300525188446045,78.03910064697266,0.8581539252890195,2.33704278616498,-92.14393897285518,1.2050865,9.574085,22.090178,6.76096,-8.144048,-8.556952,1.9592074,-11.980668,-17.915585,6.761727,-8.519578,11.957516,-5.139158,-2.2990818,-0.6099456,-1.7489052,50.205227,-7.460197,-55.1922,-48.080967,-4.4271903,-8.790356,-6.1889625,-39.802162,-8.089,-43.057884,40.685585,-3.685055,-3.202077
102,0.540552020072937,1.3103502988815308,78.04056549072266,0.8525922996350239,2.323416002811233,-92.1176414942145,1.2044832,9.585283,22.067516,6.7586308,-8.130672,-8.551884,1.9779304,-11.968223,-17.942858,6.7604003,-8.521186,11.948838,-4.9952607,-2.4317036,-0.72855,-2.5524788,49.70047,-4.668271,-53.390434,-49.720703,-4.394033,-7.712169,-5.911919,-39.332348,-8.440287,-43.43764,40.170662,-3.5970697,-3.6450877
103,0.5326318144798279,1.3121544122695923,78.04335021972656,0.8432949676676893,2.337893808287347,-92.09011977685898,1.1767557,9.600811,22.04285,6.751356,-8.113825,-8.548235,1.9670794,-11.950597,-17.971617,6.7608795,-8.520054,11.936423,-4.8457155,-2.5382566,-0.87739456,-3.4175646,49.20334,-1.9838604,-51.497116,-51.264137,-4.429325,-6.654875,-5.465793,-38.903027,-8.562902,-44.166096,39.54615,-3.4966657,-3.9175901
104,0.5227053165435791,1.3087512254714966,78.04338836669922,0.8312577684911259,2.375836244624033,-92.06051383799824,1.1237613,9.621762,22.01327,6.749859,-8.100474,-8.552166,1.9357098,-11.928613,-18.002916,6.7597647,-8.517223,11.920819,-4.688635,-2.621062,-1.0304444,-4.2499614,48.77198,0.513546,-49.594475,-52.40563,-4.5085387,-5.7881446,-4.8003454,-38.53367,-8.389266,-45.35694,38.610786,-3.3378048,-3.8837488
105,0.5059101581573486,1.299453854560852,78.04559326171875,0.8147154225830866,2.449200071002873,-92.03027400976615,1.0369684,9.649961,21.979834,6.7482605,-8.088404,-8.567686,1.8707722,-11.898698,-18.034958,6.7581425,-8.511245,11.89908,-4.532051,-2.6890674,-1.2007542,-5.035645,48.4312,2.8398688,-47.648594,-53.139225,-4.684985,-5.135861,-3.8686197,-38.2419,-7.965611,-47.083683,37.22821,-3.1429017,-3.5748584
106,0.4897356927394867,1.2852545976638794,78.04828643798828,0.7939297108490637,2.5560901195367873,-91.9994362290195,0.9167964,9.685456,21.942976,6.7473965,-8.077052,-8.590878,1.7734873,-11.861438,-18.068115,6.7559843,-8.501836,11.872018,-4.372563,-2.7494872,-1.3894446,-5.802739,48.17689,5.0384107,-45.656326,-53.615482,-4.9585676,-4.5971494,-2.720707,-38.02777,-7.305971,-49.254253,35.53808,-2.942627,-3.0386562
107,0.4750582277774811,1.2659968137741089,78.05162811279297,0.7730398248267724,2.671179836963122,-91.96457827882756,0.78837675,9.7209215,21.901052,6.7457376,-8.064924,-8.61546,1.6707755,-11.824446,-18.106161,6.753501,-8.494022,11.845104,-4.199589,-2.806336,-1.5596201,-6.5105968,48.010696,7.0674443,-43.732964,-53.77087,-5.221453,-4.149474,-1.4030615,-37.883488,-6.3070855,-51.78182,33.75352,-2.713811,-2.1573792
108,0.4566706120967865,1.247862458229065,78.05354309082031,0.7572662658856385,2.769153087787523,-91.92228942623302,0.6758112,9.7486515,21.852291,6.744872,-8.053079,-8.635157,1.589805,-11.796002,-18.152561,6.751191,-8.49326,11.824046,-3.997823,-2.870857,-1.6777258,-7.1287184,47.93683,8.866886,-41.99055,-53.54434,-5.368602,-3.7641516,-0.05915516,-37.80204,-4.813685,-54.484688,32.06143,-2.4332566,-0.8105173
109,0.4420127272605896,1.2326529026031494,78.05561065673828,0.7480367761468905,2.8492871528088397,-91.87069162636064,0.5791437,9.765985,21.795113,6.744478,-8.040019,-8.646399,1.5318612,-11.778885,-18.209934,6.7502613,-8.502361,11.810932,-3.7592134,-2.9554608,-1.7414347,-7.665042,47.968678,10.408089,-40.428844,-52.708332,-5.350934,-3.4552195,1.4336303,-37.8044,-2.6730137,-57.629944,30.242485,-2.0649626,1.3724129
110,0.42913103103637695,1.2172530889511108,78.05559539794922,0.7423694462139427,2.9175246081806687,-91.81194139450194,0.49269125,9.777219,21.730555,6.7445464,-8.026018,-8.6532955,1.4896451,-11.76836,-18.275642,6.749252,-8.516723,11.802665,-3.6841855,-3.0494583,-2.0349364,-8.098662,48.134323,11.6420555,-38.706013,-51.332966,-5.235504,-3.222783,1.9523559,-37.946453,0.7996237,-60.000134,28.205833,-1.7466713,4.231414
111,0.4149867594242096,1.2028135061264038,78.05501556396484,0.7379041576657183,2.9618084119389723,-91.74866242392847,0.4304333,9.786401,21.661844,6.7441816,-8.012721,-8.661081,1.475705,-11.759783,-18.346514,6.7478704,-8.535685,11.796577,-3.8719757,-3.0694683,-2.7525866,-8.3058815,48.39611,12.584142,-36.704758,-49.895752,-5.0953317,-3.033259,0.3864395,-38.109802,5.811443,-60.000134,26.530895,-1.7144804,7.0724716
112,0.3995024263858795,1.1880600452423096,78.0535659790039,0.7331718190517085,2.9886299085511983,-91.68335789275103,0.38677213,9.79686,21.592102,6.745401,-8.003671,-8.6751175,1.481828,-11.749354,-18.418571,6.748338,-8.55916,11.789291,-4.0755515,-3.04071,-3.3140454,-8.306823,48.676144,13.522441,-35.000748,-48.910988,-4.9966574,-2.819575,-0.8808586,-38.153877,10.609024,-60.000134,25.64964,-1.7396189,9.102632
113,0.3786582946777344,1.1739314794540405,78.05235290527344,0.727683661545798,2.9983692345847293,-91.60971190354017,0.3619318,9.81039,21.515333,6.7447386,-7.9980326,-8.701046,1.5124581,-11.735034,-18.497995,6.748224,-8.589298,11.778777,-4.133013,-3.0578144,-3.6086738,-8.306047,48.95458,14.279671,-33.62744,-48.474873,-4.9078307,-2.5896058,-1.7909272,-38.10082,15.205137,-60.000134,26.226976,-1.6240671,10.127092
114,0.3597816526889801,1.1581591367721558,78.0516357421875,0.7227006051478246,2.991043939889881,-91.5288209349619,0.35456774,9.824732,21.432148,6.7443643,-7.995608,-8.734509,1.5663233,-11.719532,-18.58438,6.74843,-8.625854,11.767016,-4.118677,-3.0937934,-3.8091729,-8.320693,49.233276,14.765646,-32.396606,-48.318016,-4.805324,-2.3702192,-2.321313,-37.957745,20.00493,-60.000134,27.637985,-1.4195127,10.5625105
115,0.34115689992904663,1.1437368392944336,78.04853057861328,0.7191467616806417,2.9681003738055787,-91.45377473724304,0.36544344,9.836842,21.355797,6.7438273,-7.9946017,-8.766234,1.6338406,-11.705921,-18.664154,6.748751,-8.661333,11.757614,-4.1127024,-3.167299,-3.9005501,-8.244957,49.5158,15.15523,-31.407482,-48.302547,-4.706254,-2.1510098,-2.6116946,-37.784946,24.004835,-60.000134,29.161743,-1.1682303,10.79979
116,0.32327330112457275,1.1374194622039795,78.0462646484375,0.7182482789611138,2.929902703271201,-91.39775452354058,0.39574257,9.844218,21.29916,6.744013,-7.99327,-8.786832,1.7062061,-11.697654,-18.723764,6.749469,-8.687986,11.754508,-4.1802754,-3.2580228,-3.91874,-8.017606,49.780033,15.552514,-30.682417,-48.28742,-4.6309023,-1.9260908,-2.757664,-37.62868,26.301664,-60.000134,29.977999,-0.9660954,11.216793
117,0.3055843114852905,1.1371673345565796,78.04610443115234,0.721475899987817,2.872480558158311,-91.36480810564768,0.45030287,9.845302,21.266844,6.7449036,-7.9894485,-8.79201,1.7843546,-11.696511,-18.758303,6.751401,-8.70312,11.760838,-4.335762,-3.3726063,-3.8345094,-7.623417,50.005028,15.996268,-30.225386,-48.263332,-4.589984,-1.6863672,-2.764005,-37.546677,26.16745,-60.000134,29.741524,-0.8430785,12.032565
118,0.2956569790840149,1.1382415294647217,78.04592895507812,0.7277736307685241,2.79696899135074,-91.34779656865297,0.5263585,9.842119,21.25134,6.747445,-7.9852343,-8.787336,1.8726032,-11.700117,-18.7755,6.75297,-8.710541,11.774138,-4.4908648,-3.5045762,-3.6414554,-7.1884217,50.17463,16.336634,-29.985334,-48.280495,-4.5717154,-1.4404964,-2.5657713,-37.569912,24.161758,-60.000134,28.983868,-0.78038543,13.007123
119,0.2974742650985718,1.147640585899353,78.04437255859375,0.7335842842802397,2.710817020519917,-91.34286293785618,0.61643386,9.836468,21.248308,6.7493258,-7.9837255,-8.77797,1.9655857,-11.705893,-18.780798,6.754487,-8.713714,11.788814,-4.5952706,-3.602316,-3.4178367,-6.8226924,50.266613,16.431318,-29.896334,-48.277588,-4.5613036,-1.2115785,-2.180182,-37.65292,21.412382,-60.000134,28.147108,-0.7958875,13.823237
120,0.3059772253036499,1.1611182689666748,78.04248046875,0.7360838402017614,2.622661408796645,-91.34620641266947,0.7093139,9.831558,21.252808,6.7517724,-7.988727,-8.76945,2.0561323,-11.711768,-18.77896,6.756531,-8.716186,11.799778,-4.6205654,-3.6579182,-3.2053046,-6.5405607,50.279713,16.237906,-29.999128,-48.196728,-4.5329494,-1.0242461,-1.7961522,-37.76501,18.901075,-60.000134,27.877203,-0.81235236,14.179858
121,0.3159785270690918,1.173957109451294,78.03800964355469,0.7322998016437501,2.52300833707149,-91.3685280656636,0.8181794,9.82989,21.2744,6.753983,-8.004551,-8.7648,2.1507194,-11.713948,-18.76091,6.758138,-8.717811,11.803239,-4.605469,-3.6545587,-3.035778,-6.271706,50.220978,15.843802,-30.276295,-47.996906,-4.470592,-0.85256994,-1.5019491,-37.88339,16.989952,-60.000134,28.248777,-0.8189379,13.934675
122,0.3286620080471039,1.1881331205368042,78.03572845458984,0.7251867537719342,2.412799850742223,-91.40784835286635,0.94183415,9.8290205,21.312279,6.7556047,-8.027915,-8.76071,2.2482862,-11.7155075,-18.727308,6.7596397,-8.71699,11.802925,-4.5754423,-3.6357975,-2.8084764,-5.8990216,50.10204,15.396671,-30.86909,-47.732967,-4.3826094,-0.6951206,-1.3314477,-38.03938,14.97531,-60.000134,29.130705,-0.796317,13.272669
123,0.3464607298374176,1.2051054239273071,78.03485870361328,0.7190510825539561,2.3114605246595863,-91.44162250945702,1.0532415,9.82445,21.345263,6.7591753,-8.052696,-8.752518,2.3376157,-11.721438,-18.698893,6.7623925,-8.715907,11.803896,-4.56002,-3.5863848,-2.5877342,-5.3995786,49.907684,14.800146,-31.789133,-47.481857,-4.2968335,-0.61727935,-1.0942961,-38.19658,12.955293,-60.000134,30.195602,-0.8130979,12.358953
124,0.3679167628288269,1.220997929573059,78.03343200683594,0.7182529700532078,2.2407647452937236,-91.44738306760263,1.1256571,9.81045,21.352854,6.7616,-8.069614,-8.735805,2.4073548,-11.736417,-18.697025,6.764267,-8.715123,11.811077,-4.632268,-3.5489898,-2.3518407,-4.610325,49.681534,14.138448,-33.200592,-47.34893,-4.2400827,-0.67373633,-0.7995726,-38.303123,10.887019,-60.000134,31.31811,-0.85425055,11.355068
125,0.386202871799469,1.2279125452041626,78.0314712524414,0.7235506334395605,2.2112703241642313,-91.41252064288318,1.1454492,9.784477,21.324436,6.761536,-8.076286,-8.706193,2.451934,-11.761984,-18.734104,6.7635174,-8.713918,11.826796,-4.8170266,-3.5215254,-2.1308315,-3.5004227,49.43598,13.434194,-35.121777,-47.47222,-4.259522,-0.8334785,-0.43371958,-38.338657,8.772887,-60.000134,32.498367,-0.94325185,10.196997
126,0.4012969434261322,1.2260903120040894,78.03113555908203,0.7328009030336975,2.209093275277088,-91.3517076117873,1.1286938,9.750173,21.272621,6.76287,-8.078406,-8.667091,2.4778037,-11.7963505,-18.796064,6.764273,-8.71331,11.848389,-4.8986835,-3.471484,-1.9109325,-2.4270012,49.08083,12.346039,-37.38423,-47.671623,-4.318445,-1.1009688,0.115217976,-38.31056,6.3575387,-59.990395,33.86312,-1.0725181,8.899355
127,0.4157832860946655,1.219891905784607,78.03009796142578,0.7452793440256522,2.2182377673112623,-91.28185375490247,1.0967085,9.710377,21.212107,6.767076,-8.079008,-8.625366,2.496568,-11.836192,-18.865992,6.7632227,-8.71189,11.872993,-4.7317204,-3.352107,-1.7421046,-1.5893649,48.49905,10.548291,-39.83221,-47.59954,-4.3000703,-1.6098431,0.5862877,-38.21962,3.6606708,-59.488983,35.390396,-1.2680987,7.73338
128,0.43234783411026,1.2106074094772339,78.02989196777344,0.7609237846672366,2.2252220675540286,-91.22005221143081,1.063523,9.669864,21.156666,6.7855763,-8.086207,-8.588707,2.514716,-11.879466,-18.926535,6.76277,-8.711009,11.897516,-4.8049374,-3.2208204,-1.6306058,-0.33349276,47.995995,8.684487,-42.58846,-47.180477,-4.20045,-2.349892,0.388476,-38.13858,1.6066619,-58.4299,36.81788,-1.4795407,6.600968
129,0.4500843584537506,1.2030518054962158,78.03056335449219,0.7807024975339,2.230606769890148,-91.17108751103598,1.0415887,9.624319,21.111393,6.79373,-8.085066,-8.558519,2.5302794,-11.926168,-18.972559,6.7628913,-8.710442,11.921143,-4.987987,-3.0965872,-1.5098608,1.2257352,47.581635,6.589062,-45.76423,-46.201523,-4.0042634,-3.4190145,-0.09065142,-38.090046,-0.16350818,-57.09271,38.228912,-1.688033,5.5695534
130,0.47128909826278687,1.1944564580917358,78.03392791748047,0.8044785516260955,2.240615987714821,-91.12568803386347,1.0188516,9.573576,21.068201,6.795773,-8.076836,-8.531259,2.5408313,-11.977117,-19.013763,6.762975,-8.710549,11.945198,-5.226429,-2.971712,-1.3877068,2.9868166,47.278107,4.2136135,-49.29798,-44.82993,-3.7587984,-4.77122,-0.734008,-38.083107,-1.7864221,-55.543743,39.667046,-1.9100723,4.5778375
131,0.487447589635849,1.1899354457855225,78.03441619873047,0.8291660591659471,2.2513986645554445,-91.07991319508102,0.9964976,9.520599,21.024889,6.795375,-8.068502,-8.506357,2.5496569,-12.029812,-19.054447,6.7642593,-8.711521,11.969573,-5.5086293,-2.8296251,-1.2625374,4.743746,47.135075,1.5180087,-52.869293,-43.36184,-3.4809146,-6.263722,-1.4728862,-38.13078,-3.2304971,-53.909744,41.013115,-2.1207078,3.6160169
132,0.5061095952987671,1.1860194206237793,78.0355453491211,0.8512204898652983,2.2590669748635417,-91.03004382010158,0.9758586,9.468995,20.978987,6.7929945,-8.0634575,-8.483596,2.561895,-12.080322,-19.099115,6.76497,-8.71248,11.993509,-5.8316555,-2.6596153,-1.1477748,6.268048,47.20738,-1.5603611,-56.12495,-42.110867,-3.1775267,-7.736701,-2.274744,-38.241627,-4.4282813,-52.27568,42.14772,-2.2960265,2.6666212
133,0.5276273488998413,1.1843827962875366,78.0347671508789,0.8691676593665523,2.267303583177864,-90.97782305900827,0.95398825,9.420186,20.93345,6.7884736,-8.064737,-8.464304,2.5726106,-12.127266,-19.146486,6.7658334,-8.713825,12.016521,-6.2929974,-2.433337,-1.0494671,7.6856093,47.551632,-5.452893,-59.273014,-40.997616,-2.7118363,-9.319099,-3.3241422,-38.42123,-5.2073507,-50.516857,43.094105,-2.4129014,1.6912879
134,0.5511603355407715,1.1845916509628296,78.0334701538086,0.8845004847289347,2.2662748248429505,-90.92457165622854,0.9417456,9.372262,20.88839,6.780353,-8.06871,-8.448062,2.5917222,-12.172142,-19.194742,6.766698,-8.7152605,12.038964,-6.5033674,-2.2526164,-1.4588943,6.3830104,48.062923,-12.125074,-60.000134,-39.919617,-2.3233707,-10.927005,-4.4949017,-38.6373,-5.577802,-48.06638,43.843224,-2.514311,0.68680185
135,0.5738101601600647,1.1866810321807861,78.03221130371094,0.8997027982144638,2.258280261845352,-90.86528518381655,0.93505937,9.323326,20.837534,6.7698936,-8.0718975,-8.432259,2.6197863,-12.217264,-19.248634,6.766221,-8.716659,12.061695,-6.4138684,-2.1804588,-1.8807397,4.206112,48.557137,-19.122887,-60.000134,-39.1986,-2.220188,-12.169429,-5.160146,-38.92739,-6.2521486,-45.90153,44.47138,-2.6451826,-0.2996496
136,0.594230592250824,1.1874580383300781,78.03106689453125,0.9167872053052935,2.2379142594547625,-90.79507128861165,0.93662333,9.271766,20.774094,6.7596445,-8.071153,-8.414228,2.6638048,-12.264991,-19.312656,6.76753,-8.720935,12.085477,-6.30278,-2.1652362,-2.0847423,2.5400836,48.83381,-24.043428,-60.000134,-39.052776,-2.371882,-12.996907,-5.479246,-39.128796,-7.1081014,-44.323307,44.756252,-2.7135963,-1.1038128
137,0.6101588010787964,1.1925158500671387,78.03053283691406,0.9381407333166238,2.202013231530156,-90.71276228544825,0.94576645,9.21376,20.69578,6.7602296,-8.07352,-8.390725,2.7288785,-12.321216,-19.387394,6.7689376,-8.725233,12.113899,-6.256071,-2.1155875,-2.0606706,1.6852912,48.93077,-26.196705,-60.000134,-39.73395,-2.8152754,-13.252774,-5.6972165,-39.23228,-7.979906,-43.16111,44.41664,-2.6542048,-1.6863806
138,0.6304344534873962,1.1998347043991089,78.02941131591797,0.9616222145952229,2.154066940565706,-90.62079364167431,0.9642585,9.150966,20.60643,6.7602925,-8.074254,-8.364231,2.8096714,-12.382599,-19.47097,6.770842,-8.730028,12.1453285,-6.350879,-2.0141,-1.8942193,1.510972,48.93731,-26.346275,-60.000134,-41.018208,-3.4114933,-13.140135,-6.0503607,-39.261436,-8.624924,-42.1751,43.55192,-2.4747965,-2.103064
139,0.6525088548660278,1.206404209136963,78.02657318115234,0.9849572411257868,2.0967426062997774,-90.52022868214874,0.98749655,9.091146,20.508236,6.761413,-8.070996,-8.339809,2.9023643,-12.440137,-19.562954,6.773013,-8.739022,12.173452,-6.5156856,-1.9214118,-1.6739533,1.6349633,48.90045,-25.345205,-60.000134,-42.39156,-3.9434845,-12.913179,-6.4433875,-39.250114,-9.02041,-41.41587,42.566303,-2.2649279,-2.4203746
140,0.66554856300354,1.2188688516616821,78.02503967285156,1.0056297034998047,2.032911043873027,-90.41206891546845,1.0120873,9.042455,20.403381,6.761194,-8.058946,-8.322752,3.0026805,-12.485242,-19.66346,6.7744694,-8.754513,12.192643,-6.648342,-1.8933774,-1.4846634,1.6501353,48.838867,-24.09639,-60.000134,-43.30993,-4.1723,-12.815668,-6.709081,-39.23668,-9.207532,-40.983322,41.86782,-2.1143093,-2.704972
141,0.6645005345344543,1.2426542043685913,78.02193450927734,1.024529842808399,1.9505927615829464,-90.28936709741461,1.0469993,9.006883,20.286257,6.7616477,-8.037099,-8.316061,3.1242423,-12.515969,-19.778336,6.7777157,-8.784595,12.200743,-6.5881157,-1.9594151,-1.3221042,1.2772785,48.781616,-22.821123,-60.000134,-43.424328,-3.9411597,-12.8908615,-6.6224356,-39.245113,-9.4339695,-40.975586,41.675983,-2.0681837,-3.0552137
142,0.6528387069702148,1.2669925689697266,78.0194091796875,1.0420735587062437,1.8523485335078034,-90.15403713114803,1.0914179,8.979963,20.157707,6.7606153,-8.006083,-8.31649,3.2654455,-12.536613,-19.906002,6.780064,-8.823863,12.201241,-6.4735165,-2.0620623,-1.1198744,0.86339,48.66251,-20.891678,-60.000134,-43.129166,-3.3834822,-13.080367,-6.3011317,-39.26553,-9.621391,-41.393154,41.75966,-2.0716429,-3.4048603
143,0.6326670050621033,1.2914646863937378,78.01779174804688,1.0560630711843342,1.7628090512418455,-90.02032373769205,1.1243047,8.961185,20.029808,6.761451,-7.971873,-8.319545,3.3953555,-12.548988,-20.033098,6.7819643,-8.861099,12.196181,-6.2734404,-2.2217028,-1.0009332,0.027426073,48.51556,-19.026571,-59.575535,-42.884655,-2.8445473,-13.179136,-5.8075128,-39.301712,-9.60826,-42.08872,41.854084,-2.1003382,-3.6146972
144,0.6093485355377197,1.3140921592712402,78.0166015625,1.0635165074666795,1.7096134719376672,-89.90237188650725,1.1238859,8.949795,19.91445,6.7605877,-7.9364276,-8.320755,3.4799385,-12.554227,-20.146566,6.7831345,-8.884385,12.187855,-6.058863,-2.3680677,-0.9339379,-0.88760066,48.347244,-17.307547,-59.003277,-43.125893,-2.487428,-13.051498,-5.1663632,-39.36987,-9.289157,-43.164726,41.68707,-2.0918665,-3.5180154
145,0.591004490852356,1.335189938545227,78.0185546875,1.0625731259001643,1.7020342552180487,-89.80391102161052,1.0799038,8.947651,19.814087,6.759442,-7.899799,-8.319335,3.5077157,-12.550829,-20.243599,6.7825885,-8.886862,12.174735,-5.8616824,-2.49182,-0.914177,-1.754405,48.184536,-15.68482,-58.413647,-44.102528,-2.377578,-12.600878,-4.390798,-39.503647,-8.66458,-44.659573,41.187035,-2.0635478,-3.0929446
146,0.5808095335960388,1.3529690504074097,78.02442932128906,1.0557109635537798,1.7250823015599546,-89.71747543461773,1.0021557,8.954779,19.722467,6.766657,-7.8659205,-8.317348,3.496852,-12.539835,-20.330502,6.78163,-8.876726,12.156518,-5.6459465,-2.6098893,-0.93384784,-2.6290479,48.032455,-14.046937,-57.795044,-45.52283,-2.4056177,-11.919268,-3.4604843,-39.71616,-7.796994,-46.542736,40.502796,-2.0416121,-2.421149
147,0.570196270942688,1.3675216436386108,78.03041076660156,1.0455275506968882,1.77013975641176,-89.64008810468412,0.905103,8.967752,19.638338,6.771599,-7.829737,-8.31517,3.460169,-12.522846,-20.409626,6.7791114,-8.861716,12.136341,-5.4119015,-2.7182744,-0.9739349,-3.5175352,47.890026,-12.401688,-57.095203,-47.047966,-2.525689,-11.141066,-2.4441125,-39.991467,-6.589994,-48.7162,39.685013,-1.9928119,-1.4998286
148,0.5529069304466248,1.3780288696289062,78.03150939941406,1.0359494873039576,1.8283731830289298,-89.56907526200695,0.79998744,8.98278,19.560785,6.7745366,-7.793865,-8.312859,3.4097207,-12.503925,-20.482582,6.7767987,-8.851791,12.117755,-5.1586304,-2.8198428,-1.025435,-4.399746,47.75367,-10.762045,-56.277397,-48.324806,-2.674354,-10.398367,-1.4136735,-40.302464,-4.929148,-51.075146,38.76606,-1.8817885,-0.32127202
149,0.5338982939720154,1.3810046911239624,78.0360336303711,1.0274623485511565,1.9091957590332613,-89.50335070051815,0.6777038,8.999934,19.48858,6.775916,-7.7581987,-8.307828,3.3366482,-12.483302,-20.54983,6.7746224,-8.849079,12.101808,-4.894079,-2.924649,-1.1011946,-5.3000727,47.620396,-9.093646,-55.298744,-49.279366,-2.8546643,-9.681653,-0.2922393,-40.64182,-2.7346795,-53.78746,37.65884,-1.6843759,1.3031659
150,0.5134603977203369,1.3806155920028687,78.03899383544922,1.0186186498860967,2.012848869930181,-89.44449510665359,0.5365361,9.020665,19.422672,6.7754946,-7.7213135,-8.300949,3.2395158,-12.459263,-20.610634,6.771225,-8.848381,12.086635,-4.6307,-3.0375354,-1.213165,-6.200316,47.501183,-7.3906503,-54.19246,-50.08567,-3.08399,-8.940617,0.92255306,-41.03948,-0.06187979,-56.828865,36.350704,-1.4410778,3.330946
151,0.4914253056049347,1.3800265789031982,78.0414047241211,1.00927429178441,2.1168741785940495,-89.39345596397308,0.39956346,9.043808,19.364662,6.774248,-7.686282,-8.297475,3.1399117,-12.433067,-20.664225,6.769029,-8.849006,12.070998,-4.3638053,-3.1728823,-1.3843762,-7.22661,47.417976,-5.8640375,-52.84482,-50.76695,-3.3217418,-8.223171,1.9524829,-41.467106,3.0824294,-59.69369,34.973213,-1.1979576,5.423854
152,0.4686356484889984,1.3843657970428467,78.0438461303711,0.9989783048798802,2.191034328261088,-89.35133672163211,0.29734078,9.068211,19.316624,6.770988,-7.653803,-8.302528,3.0688918,-12.404767,-20.710114,6.766192,-8.84755,12.0538645,-4.377729,-3.2336037,-1.9722506,-8.092588,47.32915,-4.522161,-51.028324,-51.37473,-3.5387676,-7.5949306,0.62342465,-41.893085,7.977462,-60.000134,33.740543,-1.1910968,7.1849427
153,0.44865623116493225,1.3912458419799805,78.04659271240234,0.9874340605094696,2.2477560664237926,-89.31564799433015,0.21735719,9.093275,19.277597,6.764394,-7.623019,-8.320991,3.0151408,-12.374232,-20.751566,6.763822,-8.844489,12.03459,-4.439943,-3.203815,-2.5292792,-8.768945,47.237232,-3.1342347,-49.195522,-51.926533,-3.6973693,-7.0868382,-1.0719285,-42.25644,13.9201565,-60.000134,32.502323,-1.2038109,8.489054
154,0.42800867557525635,1.3965184688568115,78.05077362060547,0.9753247324976323,2.295971907298025,-89.28670693075317,0.15012628,9.119721,19.2469,6.756454,-7.5944767,-8.349005,2.9691663,-12.341295,-20.787651,6.761419,-8.840288,12.013807,-4.3952703,-3.1329353,-3.0083842,-9.451295,47.163,-1.8421186,-47.33493,-52.41203,-3.8314097,-6.655991,-2.6654208,-42.44659,20.364841,-60.000134,31.279417,-1.2314974,9.616353
155,0.4085501730442047,1.4023408889770508,78.0531997680664,0.9618457356205337,2.3279435747334354,-89.26949758118496,0.10550438,9.148545,19.227459,6.7452583,-7.5676675,-8.378589,2.9359179,-12.306074,-20.811752,6.758799,-8.834923,11.99198,-4.340614,-3.0456657,-3.3546438,-9.95838,47.108673,-0.5171197,-45.65325,-52.804085,-3.9290545,-6.3032455,-3.9630313,-42.447937,26.04898,-60.000134,30.335672,-1.3087696,10.537183
156,0.3882709741592407,1.409364938735962,78.05547332763672,0.947410536276663,2.334206030474024,-89.26929940824597,0.088294506,9.181895,19.221535,6.7446036,-7.5510154,-8.401637,2.9219978,-12.270271,-20.816898,6.757165,-8.830109,11.970277,-4.3247824,-2.9840765,-3.5464044,-10.182191,47.079147,0.87615824,-44.31179,-53.087315,-3.9757454,-6.0275373,-4.735981,-42.31688,29.729357,-60.000134,29.85409,-1.4677339,11.257417
157,0.3653022348880768,1.42533278465271,78.056396484375,0.9302323971569579,2.3072363440452777,-89.28930741204198,0.11259042,9.223116,19.231865,6.7452397,-7.5399384,-8.416764,2.9344375,-12.229707,-20.799314,6.757501,-8.827782,11.946279,-4.2998075,-3.0361826,-3.499838,-10.225726,47.093323,2.2838397,-43.305847,-53.2547,-3.9427,-5.8362613,-4.9466844,-42.21804,30.426517,-60.000134,30.475634,-1.6630996,11.735275
158,0.34487777948379517,1.4393880367279053,78.05692291259766,0.9106619240056432,2.251554449455606,-89.32628175459944,0.17218742,9.270276,19.256493,6.747518,-7.5342517,-8.427783,2.9702961,-12.185703,-20.763132,6.7591596,-8.827007,11.920732,-4.2019014,-3.1453006,-3.327621,-10.343703,47.115467,3.4721599,-42.348297,-53.322006,-3.866137,-5.7078457,-4.562393,-42.175877,29.183836,-60.000134,31.68308,-1.9515482,11.983035
159,0.33156487345695496,1.4560636281967163,78.05702209472656,0.891297249212219,2.182232822078885,-89.37487063024055,0.24904229,9.315781,19.291697,6.749298,-7.5321946,-8.435097,3.0146933,-12.143788,-20.714472,6.7595377,-8.822826,11.897721,-4.0397406,-3.254427,-3.0905383,-10.556618,47.126316,4.3900213,-41.460125,-53.269768,-3.781442,-5.617085,-3.9962888,-42.1807,26.908974,-60.000134,32.998524,-2.2422671,12.087451
160,0.3265552520751953,1.4835010766983032,78.05536651611328,0.8747118375011385,2.1128226922907754,-89.42989550938178,0.3236303,9.352303,19.333048,6.752323,-7.5337033,-8.439151,3.0525558,-12.11042,-20.65899,6.761625,-8.814635,11.881483,-3.8701582,-3.29293,-2.9040506,-10.797119,47.11266,5.033057,-40.656944,-53.08533,-3.7265954,-5.5415215,-3.5644412,-42.178417,24.802439,-60.000134,33.640274,-2.4744833,12.135365
161,0.32907629013061523,1.517926812171936,78.05339050292969,0.8605292249426587,2.035448675945581,-89.50469759130894,0.408594,9.379511,19.392605,6.7549057,-7.5425935,-8.441628,3.0866334,-12.085632,-20.583323,6.7624373,-8.797459,11.874741,-3.7594354,-3.256519,-2.7512488,-10.926094,47.09251,5.5803537,-39.99023,-52.69715,-3.6941252,-5.488589,-3.5372255,-42.17611,23.003,-60.000134,33.201336,-2.5439157,12.196386
162,0.33474740386009216,1.5551669597625732,78.05140686035156,0.8480001166089022,1.9464050199686438,-89.59722630299306,0.5071807,9.401023,19.468016,6.759132,-7.558754,-8.441778,3.1219828,-12.067085,-20.489296,6.7641907,-8.774994,11.874802,-3.7367313,-3.1650746,-2.5981998,-10.823088,47.070007,6.1395044,-39.53856,-52.153816,-3.6670585,-5.4712634,-3.6882935,-42.177883,21.099146,-60.000134,32.04431,-2.525128,12.200852
163,0.3408313989639282,1.5907976627349854,78.04925537109375,0.8388906754844337,1.868302441255782,-89.67884861972848,0.5848309,9.416183,19.533913,6.774058,-7.577657,-8.436272,3.1493657,-12.05583,-20.405912,6.7645288,-8.75065,11.877701,-3.7680304,-3.056566,-2.4370015,-10.51315,47.035072,6.5886765,-39.412094,-51.583496,-3.650201,-5.4777694,-3.84595,-42.181103,19.089893,-60.000134,30.950571,-2.4918184,12.0366335
164,0.3498642146587372,1.6239997148513794,78.05014038085938,0.8344799994738574,1.8236063207282134,-89.72092023322867,0.61487734,9.421862,19.56578,6.789908,-7.584579,-8.421778,3.157009,-12.053214,-20.36215,6.765933,-8.730342,11.879054,-3.813466,-2.956589,-2.278839,-10.040198,46.97049,6.78004,-39.69872,-51.115074,-3.6503296,-5.4958553,-3.8176038,-42.160362,17.026623,-60.000134,30.650362,-2.5315728,11.581123
165,0.3584219515323639,1.6542844772338867,78.05323028564453,0.8365271855210421,1.8240928711957944,-89.7104648225062,0.58132195,9.414256,19.552973,6.8057714,-7.5745187,-8.392657,3.1380644,-12.061519,-20.371595,6.7658453,-8.713294,11.878073,-3.848966,-2.8648014,-2.1448264,-9.452796,46.86621,6.6719575,-40.384,-50.86624,-3.691153,-5.488627,-3.5458958,-42.07653,14.915515,-60.000134,31.503717,-2.7047167,10.718152
166,0.362505704164505,1.6760706901550293,78.05644989013672,0.8436962881828919,1.8558334326348593,-89.66456922642219,0.5023884,9.395582,19.51024,6.822534,-7.553124,-8.352361,3.099812,-12.079211,-20.416729,6.7647324,-8.697869,11.876784,-3.882346,-2.7715158,-2.0264232,-8.752351,46.730404,6.303865,-41.415703,-50.728992,-3.7594602,-5.4756866,-3.133175,-41.920017,12.72368,-60.000134,33.057556,-2.969871,9.552189
167,0.36507609486579895,1.6892118453979492,78.0584716796875,0.8527586173137311,1.9027476083988584,-89.59957891295473,0.4026805,9.371808,19.450571,6.838969,-7.5267253,-8.311131,3.0536385,-12.101693,-20.480583,6.764474,-8.6846695,11.875477,-3.9307027,-2.678269,-1.8962879,-7.9126124,46.573917,5.6483145,-42.79557,-50.488358,-3.8085482,-5.5303307,-2.6365197,-41.70281,10.462805,-60.000134,34.82301,-3.2700744,8.279345
168,0.3684220016002655,1.6978137493133545,78.05931091308594,0.8607123514563313,1.949459424836629,-89.53199198829243,0.3071326,9.347555,19.387667,6.852335,-7.5014887,-8.278977,3.0119116,-12.123788,-20.5466,6.7633314,-8.672618,11.874267,-4.1262155,-2.5688226,-1.7182618,-6.664471,46.447166,4.905637,-44.65535,-49.971638,-3.8088937,-5.715012,-2.2394063,-41.507957,8.327528,-60.000134,36.29342,-3.5410056,7.0118303
169,0.37642574310302734,1.704203486442566,78.06070709228516,0.8667174825721959,1.9938668048452373,-89.46193705128387,0.21834028,9.324666,19.320925,6.862572,-7.4763494,-8.260898,2.9770045,-12.144321,-20.615171,6.762365,-8.662301,11.872655,-4.2313404,-2.4706013,-1.5136333,-5.4591546,46.27368,3.6135507,-46.798138,-49.00301,-3.7135484,-6.0700035,-1.6635097,-41.225677,5.883566,-59.98909,37.38196,-3.7167156,5.9073844
170,0.3856075704097748,1.709980845451355,78.06419372558594,0.8723142197274933,2.039371117498615,-89.38206396122384,0.12812714,9.300564,19.24438,6.8717957,-7.449279,-8.250799,2.9469693,-12.165837,-20.69345,6.7618623,-8.654143,11.870737,-4.3385315,-2.3475885,-1.4539517,-4.1912055,46.100395,1.827565,-49.10508,-47.748665,-3.5639293,-6.56564,-1.7477728,-40.87809,3.6741707,-59.049824,38.403717,-3.9611049,4.8913484
171,0.39260488748550415,1.7175406217575073,78.06753540039062,0.8783593513859215,2.084684427518031,-89.29777257228824,0.039509736,9.273721,19.163742,6.8782225,-7.4233017,-8.24223,2.9205294,-12.189213,-20.775185,6.761092,-8.647501,11.869776,-4.5501037,-2.2091486,-1.418834,-2.7332659,46.009773,-0.24519081,-51.623486,-46.302994,-3.3868594,-7.1926584,-2.1045704,-40.551388,1.7339612,-57.86866,39.367596,-4.179166,3.8568957
172,0.4000082015991211,1.7227365970611572,78.07019805908203,0.8851183730525809,2.1256739448938125,-89.21430204944897,-0.042213753,9.243745,19.084387,6.8815813,-7.4016304,-8.228735,2.8983119,-12.215114,-20.85343,6.7610397,-8.64221,11.870629,-4.8213186,-2.0555394,-1.3738893,-1.2826643,46.065643,-2.738553,-54.152786,-44.755405,-3.2082467,-7.9490643,-2.5743523,-40.289,0.052243043,-56.642525,40.387123,-4.3585987,2.7887652
173,0.41092535853385925,1.727225422859192,78.07219696044922,0.8921034007682958,2.164855916877497,-89.13600877952656,-0.118218295,9.210858,19.010653,6.882285,-7.387032,-8.206966,2.875873,-12.242752,-20.92266,6.7608347,-8.637101,11.872313,-5.175837,-1.8654068,-1.318555,0.20689048,46.370724,-6.063933,-56.86499,-42.789066,-2.96506,-9.02862,-3.2001708,-40.14087,-1.3255258,-55.330006,41.592197,-4.5158777,1.6144682
174,0.4244363307952881,1.7324663400650024,78.07367706298828,0.898796486057683,2.2017075925658065,-89.05909580169472,-0.18906535,9.175631,18.938501,6.87998,-7.376738,-8.180882,2.855234,-12.272111,-20.987589,6.762419,-8.633776,11.874855,-5.6434245,-1.6178548,-1.331659,1.6255765,46.842724,-10.1440525,-59.584484,-40.464863,-2.6654341,-10.41238,-4.125746,-40.11015,-2.3010118,-53.73792,42.875942,-4.6680455,0.3494582
175,0.44131553173065186,1.7384581565856934,78.07369232177734,0.9074659196221925,2.221974716824021,-88.97685699991473,-0.24294117,9.1363125,18.861464,6.875291,-7.3676267,-8.15457,2.8548596,-12.304799,-21.057774,6.763345,-8.632423,11.88063,-5.718923,-1.5374892,-1.7496548,0.50502867,47.351906,-16.104874,-60.000134,-38.50565,-2.7373843,-11.455535,-4.796751,-40.060223,-3.2385414,-51.792423,44.052383,-4.8522916,-0.9161212
176,0.4594292640686035,1.7433067560195923,78.07121276855469,0.9193355091950723,2.229956230652228,-88.88248262838748,-0.28701285,9.091373,18.77261,6.8691916,-7.3571053,-8.132083,2.8732195,-12.342645,-21.142471,6.7634683,-8.633746,11.892509,-5.610657,-1.5608575,-2.0367491,-0.9101455,47.739464,-21.258026,-60.000134,-37.599422,-3.1033726,-11.862454,-4.8895125,-39.983387,-4.545036,-50.397415,45.006638,-4.9965954,-2.0210989
177,0.47319644689559937,1.749213457107544,78.0693130493164,0.935938350931958,2.2265847751696777,-88.77171128556871,-0.32285938,9.036758,18.667982,6.861644,-7.346307,-8.112286,2.9107106,-12.390396,-21.246403,6.765192,-8.638906,11.91433,-5.6702538,-1.5597872,-2.1118183,-1.6813971,47.92176,-24.618568,-60.000134,-38.28087,-3.6677136,-11.540958,-4.986824,-39.830914,-5.7242284,-49.33149,45.611736,-5.0154,-2.9036596
178,0.4846251606941223,1.7581329345703125,78.06803894042969,0.9562628347566398,2.2137045986060566,-88.64883224881369,-0.3507126,8.974078,18.551846,6.85202,-7.335914,-8.093702,2.9647992,-12.445647,-21.364298,6.7652574,-8.645394,11.943871,-5.884634,-1.5120934,-2.0735855,-1.9858379,47.98107,-26.835697,-60.000134,-40.008705,-4.3414316,-10.750817,-5.255827,-39.636383,-6.624492,-48.353344,45.93608,-4.92184,-3.643142
179,0.501192569732666,1.7664740085601807,78.06809997558594,0.9771030743191031,2.1877136647525117,-88.5201963689964,-0.36714557,8.912097,18.429966,6.84239,-7.323851,-8.079844,3.0352747,-12.499313,-21.489132,6.7647085,-8.655293,11.974156,-6.133977,-1.4588113,-1.9824066,-2.1224825,47.971626,-28.06617,-60.000134,-41.895237,-4.9823823,-9.905893,-5.552855,-39.429436,-7.339808,-47.52007,45.99141,-4.7561126,-4.2833066
180,0.5185705423355103,1.7768677473068237,78.06631469726562,0.9959545292592938,2.144866793314366,-88.39209569970913,-0.36975098,8.859632,18.307644,6.8369045,-7.308589,-8.074009,3.1204376,-12.54397,-21.613869,6.7666726,-8.671007,11.998681,-6.2980576,-1.4557604,-1.9097987,-2.3482256,47.899105,-28.501188,-60.000134,-43.005,-5.4236403,-9.402684,-5.725195,-39.22393,-7.9658556,-46.887974,45.78948,-4.5582986,-4.8650203
181,0.5295338034629822,1.795352578163147,78.06507873535156,1.0133282547757423,2.0714760659905,-88.2555743678539,-0.3477212,8.81651,18.176588,6.835652,-7.2891474,-8.080644,3.2400095,-12.5784,-21.74782,6.7675533,-8.696321,12.018553,-6.3085713,-1.5285516,-1.8468395,-2.7544856,47.747837,-27.898308,-60.000134,-42.838593,-5.540405,-9.438782,-5.6674914,-39.01581,-8.634087,-46.50317,45.215706,-4.2916617,-5.443668
182,0.5259470343589783,1.820143461227417,78.05964660644531,1.0302768477582345,1.9740634163841497,-88.11090368934568,-0.30547595,8.778608,18.037249,6.8365254,-7.2667327,-8.096689,3.3863697,-12.607262,-21.890753,6.769847,-8.73011,12.036541,-6.2265944,-1.6384383,-1.7501367,-3.2339094,47.53595,-26.23674,-60.000134,-42.016148,-5.427916,-9.753474,-5.4318027,-38.802525,-9.305352,-46.37542,44.315483,-3.942655,-5.979389
183,0.5118367075920105,1.842326283454895,78.05640411376953,1.044156955636935,1.879077544896813,-87.9778651029507,-0.26420724,8.749349,17.908052,6.8381906,-7.2408514,-8.114597,3.5249295,-12.627857,-22.022581,6.770793,-8.760312,12.047876,-6.1088476,-1.759183,-1.6574099,-3.712862,47.29677,-24.133615,-60.000134,-41.19774,-5.243961,-10.045662,-5.1234303,-38.59774,-9.804424,-46.45517,43.326385,-3.598181,-6.3697815
184,0.4893227815628052,1.8645333051681519,78.05329895019531,1.052943538630269,1.813327085174404,-87.87634966725142,-0.24495055,8.731446,17.807945,6.840662,-7.212915,-8.12665,3.6184804,-12.638493,-22.122322,6.771748,-8.777206,12.047604,-5.999074,-1.8640106,-1.5928708,-4.167717,47.07214,-22.205198,-60.000134,-41.085835,-5.1441765,-9.996824,-4.770653,-38.43086,-10.020632,-46.75848,42.507694,-3.3551672,-6.521507
185,0.46629029512405396,1.8902037143707275,78.05423736572266,1.0564799075499942,1.7794235201885469,-87.81590550476407,-0.24699059,8.725698,17.746754,6.840324,-7.1775184,-8.129414,3.6594,-12.638302,-22.179766,6.7726355,-8.775165,12.031294,-5.8720255,-1.9613943,-1.5689309,-4.701713,46.880123,-20.692093,-60.000134,-42.035503,-5.200746,-9.416607,-4.3744535,-38.3257,-9.969955,-47.26362,41.993267,-3.3015096,-6.4331126
186,0.45229989290237427,1.911328911781311,78.0604476928711,1.0560617845544726,1.7644946132082087,-87.78468899879752,-0.26146376,8.730853,17.712578,6.840352,-7.137552,-8.127471,3.6668658,-12.628125,-22.207716,6.772577,-8.7604265,12.002619,-5.689405,-2.063448,-1.5696676,-5.327689,46.71994,-19.290201,-60.000134,-43.614803,-5.3576946,-8.49643,-3.8563805,-38.28303,-9.756305,-48.00721,41.65044,-3.3779056,-6.1590624
187,0.4415854215621948,1.930951714515686,78.06717681884766,1.0510202512989444,1.7728230332243506,-87.76956172978585,-0.29498026,8.745484,17.692606,6.8400116,-7.0982795,-8.125126,3.6433494,-12.60925,-22.219666,6.7729797,-8.741213,11.968553,-5.4777656,-2.1531656,-1.5672575,-5.9059997,46.59278,-17.790068,-60.000134,-45.358032,-5.5692782,-7.4843516,-3.2480414,-38.29014,-9.328138,-48.992832,41.29053,-3.4612794,-5.687209
188,0.4348403811454773,1.9426792860031128,78.07276916503906,1.0401011548878263,1.8081243224641381,-87.75783985748072,-0.35370222,8.768781,17.673695,6.8397717,-7.0660157,-8.12666,3.5928946,-12.582409,-22.229662,6.7715135,-8.723128,11.93629,-5.2719574,-2.2212858,-1.5493683,-6.262993,46.49659,-15.990458,-60.000134,-46.781246,-5.7736535,-6.625826,-2.5666602,-38.331047,-8.627468,-50.23026,40.726757,-3.431213,-5.003392
189,0.4212762117385864,1.9514243602752686,78.07695007324219,1.0214194629494793,1.884402557258191,-87.7505444775537,-0.45014283,8.802743,17.65556,6.837348,-7.042512,-8.133123,3.5007877,-12.545263,-22.236847,6.7687273,-8.706452,11.907075,-5.0909576,-2.2700672,-1.5311984,-6.3534813,46.413937,-13.756842,-60.000134,-47.797672,-5.976507,-5.9577975,-1.7994792,-38.40122,-7.6576967,-51.754166,39.902878,-3.275103,-4.093717
190,0.40371233224868774,1.952864170074463,78.08158874511719,0.9961640929699593,1.9962222562132976,-87.75310992462583,-0.5799739,8.847867,17.64372,6.8356204,-7.0248337,-8.1423645,3.3686233,-12.498487,-22.235275,6.7667823,-8.689416,11.877266,-4.6862354,-2.3499029,-1.5104351,-6.605626,46.344906,-11.685925,-59.972397,-48.540325,-6.198667,-5.2250695,-0.61224735,-38.465584,-6.7498307,-53.701443,38.911484,-3.0600274,-2.956148
191,0.3840329349040985,1.9509819746017456,78.08242797851562,0.9679059810816467,2.111563748277592,-87.75894091050694,-0.7113808,8.897669,17.634972,6.834084,-7.010753,-8.15344,3.233645,-12.446722,-22.231516,6.7628927,-8.673212,11.846898,-4.6489825,-2.3948758,-1.5745667,-6.580546,46.22907,-9.043302,-59.509407,-49.33052,-6.4009705,-4.7877555,0.02731129,-38.622135,-4.943248,-55.43471,37.746063,-2.7864506,-1.5898801
192,0.3613014817237854,1.9486159086227417,78.08517456054688,0.9411160280070517,2.206115190599863,-87.76160376235053,-0.8220351,8.946546,17.625952,6.8329864,-6.9967628,-8.165641,3.1225395,-12.395815,-22.231499,6.759883,-8.662028,11.81622,-4.5022626,-2.4653492,-1.6682582,-6.980658,46.14051,-6.912393,-58.562428,-49.99918,-6.542261,-4.384248,0.7268792,-38.842983,-2.8221796,-57.182423,36.469933,-2.4797938,-0.015101503
193,0.33965301513671875,1.9468871355056763,78.08715057373047,0.9150620184572397,2.2805268034706594,-87.75826903210235,-0.9139575,8.995377,17.615637,6.8333097,-6.9827332,-8.178519,3.036945,-12.344162,-22.238018,6.756684,-8.656528,11.782394,-4.29019,-2.5549333,-1.7638258,-7.5916753,46.092426,-5.0832515,-57.253475,-50.524956,-6.5556974,-4.056646,1.5148544,-39.138653,-0.2517642,-59.097,34.877144,-2.1192882,1.993374
194,0.3189489543437958,1.9514693021774292,78.08848571777344,0.8880146898221833,2.3413170183173855,-87.75270675408012,-0.9929232,9.046693,17.605827,6.835401,-6.970442,-8.192659,2.9673572,-12.289947,-22.247372,6.754776,-8.655925,11.746393,-4.2287908,-2.647751,-2.1372988,-8.358385,46.08223,-3.523508,-55.3069,-50.884953,-6.487695,-3.7885575,1.2184293,-39.49086,3.5798798,-60.000134,32.953064,-1.812502,4.3516836
195,0.2962537109851837,1.9576225280761719,78.09075927734375,0.8626939665338675,2.382216284404221,-87.74837613108654,-1.0504172,9.097076,17.597424,6.838673,-6.960183,-8.208607,2.918497,-12.237436,-22.255949,6.7540493,-8.659175,11.713353,-4.2605243,-2.672699,-2.6261775,-8.955387,46.09446,-2.0269308,-53.20791,-51.207813,-6.3779054,-3.5946367,0.07623657,-39.814312,8.117215,-60.000134,31.20254,-1.6429441,6.659014
196,0.27023056149482727,1.965416431427002,78.08978271484375,0.8419707838542998,2.3996849525185726,-87.74889191420752,-1.0809314,9.143616,17.591354,6.8420296,-6.9514627,-8.227237,2.8931682,-12.19025,-22.260405,6.7525673,-8.664545,11.687826,-4.279722,-2.6490927,-2.9917557,-9.393592,46.129894,-0.6097054,-51.27116,-51.558525,-6.2702384,-3.4499204,-0.95711416,-40.029175,12.532375,-60.000134,29.97573,-1.4893291,8.481971
197,0.24517697095870972,1.9766364097595215,78.08895111083984,0.8279320828599723,2.3875414051018056,-87.75448944055265,-1.0772383,9.1843815,17.58673,6.845235,-6.9443245,-8.25114,2.8978884,-12.150547,-22.260765,6.751078,-8.674853,11.673796,-4.2154946,-2.6262174,-3.223363,-9.862648,46.196243,0.5630033,-49.342407,-51.97433,-6.1647754,-3.3543534,-1.872108,-40.123905,17.153927,-60.000134,29.395435,-1.1812284,9.7547035
198,0.21969729661941528,1.9897199869155884,78.08832550048828,0.8189390306267854,2.3511428388099818,-87.76343736894488,-1.0456792,9.221496,17.5837,6.8478656,-6.9381065,-8.279285,2.927343,-12.116186,-22.258377,6.7503233,-8.689599,11.667655,-4.081563,-2.6180828,-3.3615756,-10.376117,46.301266,1.5094432,-47.36003,-52.40694,-6.042991,-3.3078153,-2.6705565,-40.10378,21.980639,-60.000134,29.252424,-0.7312452,10.706467
199,0.19252771139144897,2.002873182296753,78.08565521240234,0.8108536302742959,2.2997603655899157,-87.77645900874202,-0.9980847,9.257814,17.584028,6.8532286,-6.934485,-8.306788,2.9704115,-12.083459,-22.251656,6.7501955,-8.704596,11.66338,-3.9681695,-2.6122441,-3.4212718,-10.771823,46.43432,2.3493235,-45.52019,-52.78153,-5.9183745,-3.2892349,-3.206787,-39.96784,26.191738,-60.000134,29.345318,-0.33712685,11.411568
200,0.1685890257358551,2.016983985900879,78.08244323730469,0.7997780970201055,2.2432999951241546,-87.79423148913241,-0.94548887,9.295996,17.589636,6.8601456,-6.932027,-8.328849,3.0166106,-12.048182,-22.239632,6.749268,-8.71538,11.654773,-3.9188948,-2.6213627,-3.3850942,-10.944544,46.586468,3.1621482,-44.038593,-53.017113,-5.790629,-3.2791426,-3.4366043,-39.760414,28.781448,-60.000134,29.646116,-0.1584078,11.953384
201,0.14483261108398438,2.0342953205108643,78.08023071289062,0.7843386827261369,2.173967498027477,-87.81946423826706,-0.87928045,9.338942,17.603508,6.871233,-6.9334736,-8.346251,3.0723314,-12.00878,-22.218508,6.7499614,-8.72307,11.640108,-3.920238,-2.647108,-3.2351856,-10.961497,46.736347,3.9120405,-42.840263,-53.09769,-5.6613107,-3.2606814,-3.1979725,-39.5077,29.247124,-60.000134,30.3315,-0.32961282,12.276304
202,0.12160421907901764,2.0513792037963867,78.07807159423828,0.7664720402872178,2.090024720090954,-87.85100876248181,-0.7963427,9.384161,17.624031,6.8838453,-6.9376326,-8.360773,3.140373,-11.96744,-22.190197,6.7513227,-8.728694,11.622882,-3.897909,-2.699536,-2.9757197,-10.988079,46.875164,4.4592366,-41.78922,-53.049484,-5.523927,-3.2475333,-2.620094,-39.24463,28.048967,-60.000134,31.508656,-0.7093861,12.370778
203,0.10797946900129318,2.074972152709961,78.07565307617188,0.7472839901547865,2.008852268372957,-87.88334560277505,-0.71976304,9.428507,17.645142,6.8994994,-6.9413614,-8.369302,3.2033644,-11.926699,-22.160997,6.7526817,-8.730329,11.604518,-3.8550699,-2.7414408,-2.7052891,-11.025337,46.98977,4.7322645,-40.93129,-52.872498,-5.3881702,-3.2652142,-1.9286321,-38.967857,26.087059,-60.000134,32.58894,-1.160175,12.355225
204,0.09967277199029922,2.102696418762207,78.07608032226562,0.7278622863610493,1.9481147655584343,-87.91136128568853,-0.6711248,9.467818,17.661417,6.916325,-6.939418,-8.368594,3.2423904,-11.889458,-22.136982,6.7531075,-8.72419,11.5863495,-3.8254244,-2.7563558,-2.505993,-10.99254,47.081535,4.7365613,-40.377327,-52.563126,-5.254319,-3.3442407,-1.4114631,-38.689972,24.21648,-60.000134,33.04669,-1.5010414,12.3487215
205,0.09772131592035294,2.1298811435699463,78.07521057128906,0.7061453490274923,1.908193135589693,-87.94312842170352,-0.6507725,9.504515,17.678827,6.9352255,-6.9350886,-8.355167,3.252338,-11.853588,-22.11112,6.7527695,-8.706591,11.5673065,-3.8614998,-2.7332265,-2.3955257,-10.760738,47.163445,4.605344,-40.207478,-52.0858,-5.1239357,-3.4806008,-1.2400211,-38.44467,22.588177,-60.000134,32.427105,-1.6678025,12.444951
206,0.09609965234994888,2.1608524322509766,78.07694244384766,0.682059668357869,1.8815264656178126,-87.978154691561,-0.6496708,9.540015,17.69797,6.9566307,-6.9281783,-8.33148,3.2421844,-11.81838,-22.082914,6.752947,-8.680724,11.547202,-3.984385,-2.67519,-2.3198638,-10.263964,47.236206,4.4258003,-40.436096,-51.467445,-4.995679,-3.6665328,-1.2688577,-38.24379,20.832891,-60.000134,31.099901,-1.7705805,12.545054
207,0.09169507771730423,2.193838596343994,78.07901000976562,0.6601672512845911,1.8738124205560514,-87.99855427317634,-0.67440134,9.568478,17.703943,6.9772305,-6.9162936,-8.303404,3.215915,-11.78916,-22.068872,6.7537236,-8.653998,11.52858,-4.1659927,-2.601848,-2.259038,-9.541906,47.29121,4.104144,-41.07349,-50.792767,-4.8632383,-3.927286,-1.3134918,-38.08063,18.98602,-60.000134,29.800005,-1.8643547,12.485587
208,0.09049000591039658,2.224583625793457,78.08013916015625,0.6444778373310602,1.8910212745238915,-87.98642504306008,-0.7319535,9.584629,17.682074,6.994168,-6.896917,-8.277023,3.177606,-11.770639,-22.085941,6.7531705,-8.631868,11.514202,-4.366923,-2.534795,-2.1803982,-8.6528425,47.322193,3.5342426,-42.125065,-50.140686,-4.7196765,-4.288041,-1.2186327,-37.937626,17.029875,-60.000134,29.31492,-1.9863696,12.098878
209,0.09369252622127533,2.247614860534668,78.08151245117188,0.6371549927655696,1.9446748991462839,-87.92566378505065,-0.86410177,9.59116,17.614246,7.059804,-6.892569,-8.2518,3.1203706,-11.767318,-22.149525,6.751522,-8.61612,11.504961,-4.5706058,-2.4741406,-2.1057944,-7.6056004,47.324158,2.6928144,-43.635098,-49.61308,-4.5803156,-4.753749,-0.9206288,-37.782677,14.954578,-60.000134,29.971582,-2.1843014,11.249736
210,0.09174047410488129,2.263707160949707,78.08403015136719,0.6358682895386933,2.0282635587923417,-87.82956438574666,-1.062956,9.592277,17.511414,7.178258,-6.9075427,-8.225465,3.0449677,-11.775513,-22.247084,6.7490263,-8.6034355,11.499477,-4.7846017,-2.4093955,-2.042517,-6.3981543,47.310074,1.6059451,-45.570305,-49.126453,-4.44031,-5.317612,-0.50646305,-37.606693,12.74785,-60.000134,31.316853,-2.4390912,10.067228
211,0.0867619439959526,2.2750306129455566,78.08489227294922,0.6378239129521823,2.119390950398962,-87.72438017465987,-1.2559786,9.583218,17.40366,7.2649765,-6.9064817,-8.201525,2.9670954,-11.78907,-22.352741,6.7462955,-8.593078,11.496654,-5.031916,-2.324306,-1.992902,-5.0598845,47.3047,0.22558507,-47.768795,-48.49,-4.271486,-5.987144,0.016679382,-37.400005,10.547746,-60.000134,32.83648,-2.7280521,8.767835
212,0.08589284867048264,2.2815334796905518,78.08753967285156,0.6400567901295292,2.1990333274481895,-87.63615068055427,-1.4083254,9.570596,17.315151,7.3108044,-6.8935266,-8.18373,2.898758,-11.801927,-22.4407,6.744368,-8.584523,11.495661,-5.2496734,-2.24158,-1.8172388,-3.6739047,47.36293,-1.4844999,-50.19416,-47.509205,-4.040791,-6.772588,0.49721906,-37.21336,8.122315,-60.000134,34.303677,-2.917782,7.56318
213,0.08803535252809525,2.2835774421691895,78.08901977539062,0.6422200455336902,2.2617245516740003,-87.5703011190625,-1.5072497,9.554971,17.25115,7.30725,-6.866829,-8.173659,2.8454642,-11.812886,-22.505825,6.743717,-8.579061,11.496548,-5.4827595,-2.1239789,-1.5855864,-2.1664677,47.527454,-3.6880603,-52.905983,-45.858112,-3.6991065,-7.840263,1.0463113,-37.033955,5.5910506,-60.000134,35.501415,-3.0472503,6.4732976
214,0.08958150446414948,2.28543758392334,78.08866119384766,0.6455891300594635,2.3178466953354113,-87.51340508685759,-1.572777,9.533878,17.199202,7.2611737,-6.825021,-8.169223,2.799875,-11.8246565,-22.56126,6.7430615,-8.575757,11.499741,-5.7086444,-1.9810936,-1.3228631,-0.64888936,47.831936,-6.3943872,-55.83372,-43.729053,-3.3059042,-9.144315,1.6803858,-36.842503,2.92408,-60.000134,36.67558,-3.145425,5.384917
215,0.09142275899648666,2.2867720127105713,78.08934783935547,0.6497510916479876,2.3683979518818274,-87.46323270943891,-1.6177536,9.509056,17.155842,7.1930776,-6.7770357,-8.167998,2.7595365,-11.837709,-22.609137,6.742431,-8.573325,11.504483,-6.170372,-1.7722448,-1.0388913,1.1540397,48.167118,-8.917976,-58.819412,-41.72384,-2.939097,-10.413225,2.100593,-36.6894,0.6856954,-59.99148,37.71734,-3.18651,4.204451
216,0.09490938484668732,2.2922956943511963,78.09123992919922,0.6543770897729392,2.4027512050167514,-87.41767281914646,-1.6410437,9.481777,17.118223,7.11632,-6.727168,-8.167891,2.7334383,-11.851819,-22.65118,6.7420263,-8.57046,11.5093155,-6.1469693,-1.7154658,-1.1556096,0.8868127,48.626358,-13.182685,-59.979836,-40.427505,-2.8683212,-11.019784,2.1461055,-36.42943,-1.4536778,-58.84222,38.84359,-3.3089724,3.1501796
217,0.09929806739091873,2.298344373703003,78.09136199951172,0.6589750872928194,2.4289972133344127,-87.37635911916517,-1.6446373,9.449443,17.08841,7.0188017,-6.6711683,-8.169854,2.7132356,-11.867894,-22.686853,6.7417803,-8.565999,11.514881,-6.3602138,-1.7063324,-1.4146388,-0.01772395,48.95877,-17.906921,-60.000134,-40.391094,-3.045778,-11.022472,1.6571772,-36.1769,-2.8982904,-57.184887,39.901695,-3.3709135,2.0626254
218,0.10727313160896301,2.3043324947357178,78.09207153320312,0.6639331885520424,2.452868282134734,-87.34027317693118,-1.6736149,9.424911,17.059898,6.989265,-6.6564636,-8.174772,2.6939218,-11.885534,-22.715614,6.7419643,-8.561315,11.521254,-6.499309,-1.7267845,-1.6072845,-1.030156,49.30024,-23.071033,-60.000134,-41.04485,-3.3192072,-10.449417,1.2315493,-35.95378,-4.327022,-55.543243,40.932404,-3.3867588,0.94864833
219,0.11593639105558395,2.309514045715332,78.09114074707031,0.6697647714201402,2.468492417932,-87.30953795844195,-1.7015159,9.402615,17.034283,6.979057,-6.652491,-8.179641,2.6812599,-11.90341,-22.738987,6.7415886,-8.556637,11.527811,-6.668775,-1.7658385,-1.718804,-1.7937587,49.52707,-27.361662,-60.000134,-41.838078,-3.656198,-9.833567,0.7984899,-35.75927,-5.573692,-54.02205,41.902676,-3.3657823,-0.105519176
220,0.1273629516363144,2.317918539047241,78.0915756225586,0.6773995007122273,2.4714820506409128,-87.28387313632204,-1.7167122,9.381176,17.01054,6.9698977,-6.645414,-8.181611,2.677574,-11.921133,-22.757925,6.7426176,-8.553458,11.534046,-6.743014,-1.8408629,-1.7538049,-2.3078141,49.58922,-29.950647,-60.000134,-42.134884,-4.013466,-9.537297,0.5734689,-35.56549,-6.7362065,-52.84383,42.784325,-3.3187308,-1.0234829
221,0.14214767515659332,2.324817419052124,78.0911636352539,0.6885986440500447,2.4550535043201935,-87.2538208149074,-1.7165968,9.356775,16.977156,6.9646344,-6.63547,-8.178943,2.6949477,-11.941771,-22.783247,6.742748,-8.552786,11.542467,-6.7121325,-1.9491389,-1.684527,-2.4233787,49.445847,-30.113138,-60.000134,-41.58397,-4.3853545,-9.745859,0.49674982,-35.34019,-7.800314,-51.96018,43.69039,-3.2214284,-1.8353842
222,0.15106377005577087,2.337392568588257,78.09037017822266,0.7021990263649983,2.423103780221189,-87.22250386756218,-1.7027928,9.3303175,16.938904,6.9617505,-6.624179,-8.173474,2.727668,-11.964617,-22.810667,6.7444263,-8.555321,11.552272,-6.682981,-2.065919,-1.5414788,-2.137304,49.11895,-28.421581,-60.000134,-40.562824,-4.7531404,-10.233845,0.4166071,-35.094894,-8.631314,-51.23493,44.57413,-3.0659544,-2.5669022
223,0.1484173685312271,2.3584229946136475,78.08891296386719,0.7151253225959117,2.387597836714162,-87.20925199018721,-1.6812098,9.309561,16.917997,6.9591026,-6.6113687,-8.167583,2.7552876,-11.983212,-22.819883,6.746999,-8.556111,11.558792,-6.650875,-2.1887517,-1.3831712,-1.7491482,48.713997,-26.025797,-60.000134,-39.578686,-5.0848913,-10.732366,0.31841123,-34.89047,-9.191895,-50.66521,45.192734,-2.8879075,-3.1385472
224,0.13351760804653168,2.387622117996216,78.08949279785156,0.7246260759825254,2.3601572671129722,-87.23336229036806,-1.6584779,9.302245,16.936468,6.9569073,-6.5980554,-8.163534,2.7585485,-11.991173,-22.790619,6.7477984,-8.548899,11.557272,-6.663397,-2.2888474,-1.2613939,-1.4470146,48.222935,-23.94636,-60.000134,-39.089684,-5.2612076,-11.091656,0.12675297,-34.734566,-9.384715,-50.238995,45.24748,-2.6738615,-3.4203782
225,0.11482284218072891,2.416451930999756,78.08763122558594,0.7312086266106751,2.334188381319299,-87.30470724020809,-1.6256207,9.311124,17.005577,6.9555426,-6.5825267,-8.161257,2.7382,-11.986497,-22.711447,6.7502284,-8.53632,11.543734,-6.595377,-2.3900585,-1.192544,-1.4772967,47.788586,-22.667522,-60.000134,-39.275677,-5.325128,-11.204171,0.09239469,-34.6956,-9.447239,-50.10065,44.602695,-2.4564843,-3.4159882
226,0.1054542288184166,2.443141460418701,78.08909606933594,0.7359931712230561,2.3069281269032786,-87.41145914485467,-1.5832278,9.331775,17.111578,6.9547367,-6.564566,-8.159899,2.703223,-11.972485,-22.5955,6.7518897,-8.518417,11.521744,-6.416738,-2.502489,-1.1263912,-1.7413869,47.411217,-21.619581,-60.000134,-39.887646,-5.330337,-11.165041,0.26476738,-34.74891,-9.448912,-50.283802,43.463852,-2.231701,-3.1760864
227,0.10296009480953217,2.46828556060791,78.09365844726562,0.7370527650865463,2.2959066745211256,-87.5399696683351,-1.5507995,9.361546,17.23973,6.9537396,-6.54851,-8.160239,2.6428797,-11.950903,-22.458351,6.753315,-8.494557,11.496996,-6.163842,-2.6088486,-1.0700833,-2.0890887,47.083176,-20.638195,-60.000134,-40.679783,-5.327235,-10.956137,0.5217636,-34.86852,-9.2219515,-50.698605,42.14325,-2.0138075,-2.7318723
228,0.10422846674919128,2.48893141746521,78.09966278076172,0.7321869499412708,2.318749491896621,-87.6767437777181,-1.5483481,9.39773,17.374794,6.9518676,-6.538839,-8.163201,2.5467608,-11.923194,-22.315905,6.7533293,-8.462858,11.47549,-5.887695,-2.6879125,-1.0302421,-2.3734572,46.79384,-19.535292,-60.000134,-41.425106,-5.365636,-10.55735,0.89559686,-35.03343,-8.654444,-51.40615,40.977795,-1.8161421,-2.121257
229,0.10851489752531052,2.4997658729553223,78.10353088378906,0.7187733412979711,2.390312071791293,-87.82950117724613,-1.5889989,9.442923,17.523888,6.9490285,-6.537887,-8.168595,2.3966386,-11.887951,-22.16171,6.751438,-8.4173355,11.459119,-5.598292,-2.7353182,-1.031774,-2.594866,46.54136,-18.298416,-60.000134,-42.086155,-5.475237,-9.872804,1.3605632,-35.247246,-7.6857142,-52.40867,40.06437,-1.6654178,-1.3566719
230,0.11130809038877487,2.506927967071533,78.10844421386719,0.6986005206317827,2.4974999424161055,-88.00143424333721,-1.6585656,9.497427,17.691324,6.9449897,-6.5431237,-8.17616,2.2043607,-11.844583,-21.990921,6.74736,-8.360827,11.444664,-5.295455,-2.7649953,-1.0733614,-2.7864103,46.329384,-16.984358,-60.000134,-42.776474,-5.630613,-8.950452,1.9346308,-35.522373,-6.3713956,-53.701733,39.21866,-1.550598,-0.41503268
231,0.10720913112163544,2.514625072479248,78.11271667480469,0.675615134996644,2.6161551362808164,-88.17315613914302,-1.738805,9.555885,17.857883,6.9413576,-6.550598,-8.186506,2.0020556,-11.797872,-21.821987,6.74334,-8.304816,11.430773,-4.996033,-2.7866316,-1.1020416,-2.8779535,46.15258,-15.5174465,-60.000134,-43.503544,-5.789578,-7.981763,2.5549395,-35.85027,-4.7298694,-55.198875,38.32435,-1.4210001,0.725602
232,0.0978810042142868,2.513421058654785,78.11571502685547,0.6547458995373505,2.7222440546979088,-88.32498369557831,-1.8095157,9.612079,18.004654,6.937662,-6.5564713,-8.200152,1.8231729,-11.751494,-21.673315,6.7403626,-8.260999,11.415412,-4.723087,-2.816666,-1.074671,-2.7853026,45.99797,-13.825534,-60.000134,-44.267662,-5.9086475,-7.1614604,3.143654,-36.213474,-2.7562838,-56.794983,37.25542,-1.2296627,2.0940511
233,0.08478748798370361,2.508960008621216,78.11644744873047,0.636240857108805,2.818936787780629,-88.4527387034307,-1.8752126,9.666905,18.127768,6.933974,-6.560137,-8.219284,1.6668752,-11.70423,-21.549196,6.7379804,-8.232133,11.397174,-4.2446404,-2.9136531,-0.90235996,-2.7871177,45.89239,-12.153188,-60.000134,-45.086212,-5.986696,-6.466689,4.3208814,-36.484734,-0.852647,-59.034843,35.88236,-0.95416296,3.9311185
234,0.07006262242794037,2.5045125484466553,78.11795806884766,0.617568772592712,2.9079576966984906,-88.56663082097822,-1.9355916,9.722793,18.23675,6.930644,-6.5636516,-8.242682,1.5271763,-11.654254,-21.440222,6.7344074,-8.21138,11.377315,-4.2767143,-2.9834037,-1.0498968,-2.3886662,45.692043,-9.993047,-59.563816,-46.009373,-6.061781,-5.9005585,3.912185,-36.920025,2.805119,-60.000134,34.128117,-0.7540519,5.98728
235,0.05463071167469025,2.5042810440063477,78.11968994140625,0.6002284656997544,2.9779846414358575,-88.66856921157306,-1.9789217,9.776503,18.333393,6.928355,-6.566815,-8.266583,1.4129047,-11.605809,-21.343395,6.7328773,-8.198058,11.357994,-4.3505607,-3.0394068,-1.4349024,-2.479826,45.421062,-8.153939,-58.282528,-46.977234,-6.17144,-5.466226,2.7502086,-37.32154,7.080797,-60.000134,32.470493,-0.6522661,8.093793
236,0.04214944317936897,2.5076231956481934,78.121337890625,0.5862176558298712,3.02592361656106,-88.76031269602726,-2.0014424,9.824107,18.41958,6.926161,-6.568228,-8.287151,1.327151,-11.562899,-21.256042,6.7301497,-8.187735,11.341252,-4.3490896,-3.0680046,-1.7462205,-2.7585466,45.12255,-6.5036745,-56.83064,-47.792328,-6.1982975,-5.1164093,1.6885331,-37.659737,11.185703,-60.000134,31.13796,-0.46727067,9.899389
237,0.027709299698472023,2.508997917175293,78.1225814819336,0.5776347221904964,3.0459274410293276,-88.84120973257912,-1.9968923,9.863354,18.494623,6.9242096,-6.56688,-8.302894,1.2757183,-11.528091,-21.178331,6.728278,-8.182847,11.328938,-4.2756186,-3.093643,-2.0335615,-3.2814648,44.818348,-5.0547276,-55.07224,-48.42954,-6.126705,-4.853162,0.7060374,-37.93434,15.618285,-60.000134,29.982906,-0.043462157,11.423377
238,0.010068302042782307,2.5116188526153564,78.1230697631836,0.5731289871795618,3.0445828270850166,-88.91069051013429,-1.9723152,9.896532,18.558006,6.92269,-6.5637474,-8.316017,1.2516022,-11.498918,-21.111193,6.7280135,-8.184368,11.31937,-4.1492944,-3.1165302,-2.2902365,-3.970434,44.519695,-3.713464,-53.067333,-48.95091,-5.9760995,-4.676803,-0.23811962,-38.13682,20.354168,-60.000134,28.934275,0.55927896,12.806664
