unveil-humanoid-operators/unveil-humanoid-operators.github.io/feature-analysis-animation/data/feature_matrix_instances/age_waist_rom_jogging_A109_jog_ff_loop_180_R_001__A109.csv
Frame,root_translateX,root_translateY,root_translateZ,root_rotateX,root_rotateY,root_rotateZ,left_hip_pitch_joint_dof,left_hip_roll_joint_dof,left_hip_yaw_joint_dof,left_knee_joint_dof,left_ankle_pitch_joint_dof,left_ankle_roll_joint_dof,right_hip_pitch_joint_dof,right_hip_roll_joint_dof,right_hip_yaw_joint_dof,right_knee_joint_dof,right_ankle_pitch_joint_dof,right_ankle_roll_joint_dof,waist_yaw_joint_dof,waist_roll_joint_dof,waist_pitch_joint_dof,left_shoulder_pitch_joint_dof,left_shoulder_roll_joint_dof,left_shoulder_yaw_joint_dof,left_elbow_joint_dof,left_wrist_roll_joint_dof,left_wrist_pitch_joint_dof,left_wrist_yaw_joint_dof,right_shoulder_pitch_joint_dof,right_shoulder_roll_joint_dof,right_shoulder_yaw_joint_dof,right_elbow_joint_dof,right_wrist_roll_joint_dof,right_wrist_pitch_joint_dof,right_wrist_yaw_joint_dof
0,0.19352301955223083,-1.045334815979004,73.65213775634766,2.4540853731632803,14.978050586008864,84.56535364774302,-55.091236,5.2827764,3.9892051,87.59589,-20.667028,2.37856,-4.071202,-6.152121,-1.7346647,39.29361,-22.652029,5.1380196,9.031142,1.4352407,14.556862,15.270819,44.00796,-31.687063,-32.175827,-2.1234245,7.1780376,8.15364,-51.920456,-30.107424,24.030357,-10.072246,4.573426,-8.39662,-15.049141
1,0.1709262877702713,0.7466598153114319,74.14582061767578,2.7659093067342835,15.236687190074335,84.9123854643657,-55.031666,4.805003,4.300518,82.70754,-19.826975,1.790102,-2.6039138,-6.6191845,-2.2346246,37.86328,-19.263386,4.6104994,9.412067,0.7931894,13.864833,17.351002,43.982426,-31.057924,-32.778736,-2.2781658,7.176066,8.044929,-51.548744,-30.24157,23.425074,-11.31655,4.24993,-8.156977,-14.772071
2,0.1481630653142929,2.5585596561431885,74.61677551269531,3.100483305604143,15.501913192322705,85.28327092765699,-54.96543,4.2975636,4.6218677,77.78047,-18.996908,1.2182589,-1.164663,-7.111881,-2.77365,36.49868,-15.903198,4.019387,9.780125,0.15896522,13.170072,19.36388,43.85583,-30.492128,-33.31738,-2.4454632,7.185889,7.918722,-51.171394,-30.430895,22.810514,-12.609693,3.9277341,-7.9028783,-14.501758
3,0.1353975534439087,4.379991054534912,75.06673431396484,3.3667453403749072,15.730351529838225,85.62401783499969,-54.736862,3.8242953,4.8762765,72.74763,-18.152897,0.59482837,0.24579221,-7.5402584,-3.3461785,35.246628,-12.601839,3.5291727,10.173769,-0.38967183,12.491476,21.267616,43.651085,-29.965097,-33.753777,-2.5293453,7.17596,7.7578034,-50.69526,-30.663576,22.215904,-13.9239855,3.6441333,-7.677631,-14.237857
4,0.11930549144744873,6.214663982391357,75.48011016845703,3.4672285914785816,15.881161221375171,85.87889624084299,-54.20129,3.4580252,4.977811,67.55966,-17.28103,-0.14253087,1.6344858,-7.7999682,-3.9272382,34.138405,-9.384384,3.3045843,10.612215,-0.7724409,11.8581505,23.089403,43.38772,-29.38314,-34.100594,-2.422937,7.113471,7.5250707,-50.038544,-30.934448,21.684986,-15.245205,3.445265,-7.523827,-13.984708
5,0.08968248218297958,8.064167022705078,75.85420227050781,3.3907886916102647,15.954627999249318,86.02490821731713,-53.280193,3.1882675,4.8768544,62.013885,-16.293875,-1.0954939,3.0478954,-7.8649464,-4.478724,33.03199,-6.045622,3.5216153,11.110648,-0.9932882,11.271581,24.870668,43.082035,-28.702072,-34.376465,-2.0718484,6.961269,7.1993384,-49.22,-31.247633,21.230312,-16.57631,3.3992696,-7.4683237,-13.72403
6,0.05902603641152382,9.922189712524414,76.18382263183594,3.1745194641316017,15.966865296220663,86.08848182747609,-52.05329,3.0132952,4.614835,56.156406,-15.206623,-2.1876588,4.486256,-7.7619486,-4.976009,31.918438,-2.6069052,4.050962,11.668122,-1.0877645,10.726718,26.61014,42.74614,-27.95587,-34.60511,-1.5482757,6.743276,6.8069973,-48.188225,-31.588192,20.813269,-17.993666,3.414011,-7.481286,-13.46478
7,0.03342314809560776,11.793346405029297,76.46804809570312,2.8305004873706245,15.902648857345145,86.0929198761807,-50.60949,2.9977794,4.278336,50.29878,-14.144796,-3.22051,5.896727,-7.503636,-5.427959,30.999556,0.5744756,4.592029,12.230883,-1.0564711,10.235529,28.330284,42.385735,-27.11635,-34.836678,-0.9405705,6.5175443,6.3848586,-47.103992,-31.953573,20.449654,-19.312069,3.4899175,-7.5250325,-13.235751
8,0.010336168110370636,13.67033576965332,76.70668029785156,2.374595542874808,15.74902996956786,86.06390337964208,-49.0532,3.183186,3.9766269,44.776775,-13.241732,-4.0113316,7.222632,-7.13422,-5.8817763,30.49021,3.132396,4.8273225,12.779914,-0.89580303,9.817649,30.008558,42.005047,-26.194828,-35.10546,-0.32896462,6.3441873,5.9617777,-45.79281,-32.303444,20.115662,-20.62175,3.4356925,-7.558776,-13.083723
9,-0.014738580211997032,15.549135208129883,76.89469909667969,1.751628480927881,15.477405653985778,85.98040630518203,-47.342007,3.6290245,3.719918,39.514618,-12.552003,-4.5297027,8.517903,-6.654121,-6.3918047,30.349108,5.000813,4.6293197,13.314285,-0.55580896,9.474848,31.73093,41.60174,-25.109514,-35.449142,0.3466898,6.236985,5.4840236,-44.370358,-32.62302,19.847557,-21.819382,3.24515,-7.576455,-13.020769
10,-0.0502437986433506,17.422578811645508,77.03093719482422,0.9758071108430755,15.099462292897535,85.83693697133529,-45.4521,4.2933154,3.4949574,34.375195,-11.991143,-4.8845,9.8093405,-6.087094,-6.9303093,30.48514,6.3602962,4.1556835,13.846104,-0.0580352,9.196934,33.48834,41.174515,-23.867819,-35.851078,1.0962611,6.1615744,4.9549594,-42.794643,-32.898388,19.645914,-22.964718,2.9405437,-7.5975018,-13.024837
11,-0.08823397010564804,19.27623176574707,77.11497497558594,0.17665835813365605,14.670873855029006,85.68505089555727,-43.545086,5.03259,3.3767605,29.662584,-11.50033,-5.117566,10.9871645,-5.532351,-7.437597,31.045643,7.2049346,3.5190861,14.327467,0.47607994,8.970066,35.185432,40.725967,-22.580902,-36.288593,1.7759454,6.1108947,4.4973693,-41.136932,-33.11861,19.492992,-23.984154,2.6191525,-7.625568,-13.065707
12,-0.1242842897772789,21.10641098022461,77.14128112792969,-0.516303803161657,14.255598205366038,85.57989766105605,-41.80538,5.688658,3.4202847,25.72993,-11.041429,-5.2659554,11.923829,-5.071327,-7.8570123,32.176937,7.5426917,2.8467927,14.709199,0.92526656,8.778749,36.696075,40.26355,-21.376255,-36.71276,2.235682,6.0833945,4.2340465,-39.393204,-33.27107,19.36544,-24.865582,2.341873,-7.663622,-13.11528
13,-0.17412695288658142,22.900482177734375,77.11039733886719,-1.0991770383897446,13.879924356703603,85.51872935946432,-40.270935,6.309938,3.7895207,22.641552,-10.704257,-5.288282,12.5522175,-4.696004,-8.222244,34.017002,7.210718,2.076654,14.983824,1.2794728,8.595954,38.0536,39.79024,-20.236952,-37.150326,2.463647,6.1110907,4.2457848,-37.583656,-33.354675,19.280405,-25.611376,2.0781753,-7.6942973,-13.116789
14,-0.24126365780830383,24.664443969726562,77.02901458740234,-1.620190139933651,13.522944121141753,85.49545779477226,-38.90333,6.90723,4.3910766,20.293352,-10.516656,-5.195285,12.912797,-4.3687367,-8.543137,36.500748,6.2366896,1.1955339,15.15741,1.5870035,8.427227,39.29635,39.30574,-19.117384,-37.600983,2.5291984,6.1879487,4.4524083,-35.693653,-33.369923,19.249264,-26.232279,1.8008945,-7.7226024,-13.10004
15,-0.30716630816459656,26.405677795410156,76.90684509277344,-2.019620393890375,13.188358390397962,85.56588932994114,-37.79609,7.2836366,4.8622785,18.832891,-10.367368,-5.0631127,13.028711,-4.105389,-8.752706,39.464672,4.9338093,0.41699782,15.190692,1.8044921,8.303509,40.308914,38.817814,-18.105,-37.985653,2.412063,6.25583,4.7359347,-33.709084,-33.306698,19.239714,-26.697548,1.6014842,-7.784931,-13.16663
16,-0.37493810057640076,28.14106559753418,76.74087524414062,-2.2338195974649455,12.879193281551876,85.78075071190278,-37.043564,7.2666607,4.835261,18.416548,-10.145903,-4.944418,12.9338045,-3.9213018,-8.8038645,42.736725,3.6280305,-0.046428327,15.051454,1.8867329,8.255381,40.969135,38.340492,-17.293911,-38.216503,2.09402,6.256159,4.98144,-31.622938,-33.152477,19.220387,-26.96582,1.5737134,-7.9174643,-13.416196
17,-0.4311763644218445,29.864046096801758,76.52632141113281,-2.2382487897821206,12.618820485083983,86.17259199478588,-36.75672,6.7178493,4.0145555,19.245289,-9.587928,-4.897597,12.609708,-3.7612128,-8.706672,46.362507,2.3577535,-0.060793456,14.71421,1.8118886,8.266266,41.237934,37.88913,-16.707968,-38.26566,1.4398068,6.172664,5.1874375,-29.390928,-32.89083,19.212267,-27.056679,1.8629248,-8.186109,-13.91194
18,-0.5016976594924927,31.52959632873535,76.30775451660156,-2.083083093517436,12.386940249726624,86.69900589370415,-36.8226,5.7497344,2.6684496,21.1481,-8.8095045,-4.9080253,12.057135,-3.5533094,-8.508099,50.414764,0.9550937,0.27766234,14.206648,1.6201843,8.328248,41.19618,37.470127,-16.290741,-38.184082,0.5004154,6.0340967,5.408767,-27.050068,-32.5186,19.244516,-26.964733,2.3741107,-8.558727,-14.582565
19,-0.5846201181411743,33.15895080566406,76.0445327758789,-1.8195178896256918,12.1186378660183,87.29356406266096,-37.001205,4.5800376,1.2785399,23.723406,-8.268071,-4.896518,11.357614,-3.3093834,-8.221599,54.74949,-0.55399287,0.8254815,13.584128,1.3572824,8.488377,40.88904,37.084064,-16.016548,-37.99198,-0.46539268,5.8519797,5.6119223,-24.679087,-32.046364,19.288773,-26.641453,2.831875,-8.92024,-15.332797
20,-0.6546383500099182,34.78996276855469,75.71768951416016,-1.4837931181971802,11.76111221297269,87.89814947716113,-37.108765,3.4666436,0.2996734,26.643005,-8.457105,-4.707889,10.59026,-3.0862827,-7.852721,59.22273,-2.1309738,1.4214668,12.900884,1.0514065,8.79052,40.340576,36.72933,-15.870399,-37.70049,-1.1983478,5.6408362,5.7645493,-22.339996,-31.495234,19.298996,-26.05205,2.9689841,-9.147498,-16.073053
21,-0.7220978736877441,36.40447998046875,75.32560729980469,-1.0652252159275803,11.27517959605052,88.52405532813619,-37.223835,2.493959,-0.17244253,30.219147,-9.64211,-4.1732397,9.817699,-2.8579361,-7.3566527,63.876854,-3.7654934,2.1214368,12.172592,0.7019586,9.274247,39.501186,36.405426,-15.900639,-37.26476,-1.650993,5.339715,5.8103456,-19.994038,-30.879604,19.233545,-25.169344,2.667531,-9.199391,-16.82156
22,-0.790579080581665,37.977237701416016,74.91554260253906,-0.5755641747843862,10.683698184601672,89.1774990522997,-37.36905,1.5725553,-0.40038362,34.449047,-11.496679,-3.3912458,9.02308,-2.5521166,-6.770467,68.75279,-5.4930854,2.9994292,11.397943,0.31174067,9.910325,38.358727,36.11392,-16.114838,-36.68794,-1.9562224,4.9650297,5.784128,-17.600586,-30.202808,19.118397,-24.045399,2.0968337,-9.136473,-17.617207
23,-0.8854429125785828,39.517826080322266,74.46553802490234,-0.042390668306961136,10.049654720636395,89.81368065820718,-37.35178,0.6982266,-0.48610422,38.62354,-13.672736,-2.5578036,8.149074,-2.242934,-6.2041545,73.70934,-7.328884,3.8932414,10.584491,-0.122852564,10.62922,36.986866,35.85539,-16.43357,-36.044254,-2.1262457,4.647652,5.791324,-15.206969,-29.466335,18.998974,-22.777542,1.4197208,-8.985065,-18.405943
24,-0.9672017097473145,41.03876876831055,74.00045776367188,0.5255013039038717,9.446467362296065,90.39924543149594,-37.02121,-0.17924479,-0.5035327,42.093296,-15.84353,-1.8787339,7.120621,-2.0577128,-5.7419114,78.61146,-9.2708435,4.6228304,9.722041,-0.62599844,11.354022,35.472977,35.63033,-16.762293,-35.419548,-2.1701522,4.517492,5.93514,-12.87155,-28.670439,18.925188,-21.453209,0.7953896,-8.776236,-19.132454
25,-1.005965232849121,42.554325103759766,73.53862762451172,1.2288989519708038,8.860125758153597,90.96143576674842,-36.330734,-1.1867725,-0.3848321,44.762405,-18.070944,-1.3814495,5.9596624,-2.125562,-5.330594,83.55428,-11.389037,5.1155696,8.784032,-1.3028797,12.129453,33.775467,35.441227,-17.129452,-34.765606,-2.0055916,4.677629,6.300028,-10.605292,-27.786652,18.884232,-19.948023,0.18143463,-8.488053,-19.789856
26,-1.015076756477356,44.05599594116211,73.09156799316406,2.0553398613681786,8.269230475977784,91.50950723834532,-35.404476,-2.2841353,-0.12786533,47.006145,-20.50499,-0.96164095,4.7061734,-2.380515,-4.9302993,88.57594,-13.661664,5.464218,7.7789865,-2.1408248,12.948605,31.876068,35.28633,-17.559,-34.0575,-1.6615862,5.0388055,6.812018,-8.392452,-26.804033,18.865738,-18.242367,-0.4824095,-8.11397,-20.39777
27,-1.017615556716919,45.56100082397461,72.669677734375,2.8246504548953397,7.742800776472967,91.99116396157989,-34.35684,-3.2886915,0.130188,48.898094,-22.952599,-0.6344715,3.2859166,-2.7035954,-4.611621,93.46463,-15.931483,5.710242,6.7411733,-2.9755938,13.668736,29.893585,35.159977,-17.950075,-33.420086,-1.3069402,5.440497,7.3316483,-6.245785,-25.770767,18.91266,-16.5808,-1.0626576,-7.7147937,-20.950075
28,-1.041913628578186,47.047061920166016,72.27946472167969,3.3615615391911433,7.353268183296712,92.36356823089197,-33.29793,-4.0161157,0.26768893,50.50352,-25.212385,-0.41053087,1.5999981,-2.9991925,-4.4372225,98.01355,-18.031475,5.8829217,5.693304,-3.621854,14.169868,27.942522,35.05606,-18.204512,-32.981586,-1.105493,5.7167616,7.7173038,-4.1589947,-24.772705,19.061049,-15.234009,-1.4157263,-7.3539515,-21.455866
29,-1.079505205154419,48.52608871459961,71.95056915283203,3.612422773362476,7.159728869594736,92.58865738402415,-32.254204,-4.382192,0.29781273,51.795746,-27.286634,-0.32915124,-0.45211878,-3.3082228,-4.3610992,102.25535,-19.918425,5.983741,4.6574607,-4.0060797,14.438611,26.033758,34.959126,-18.33375,-32.792423,-1.1090676,5.8096247,7.983806,-2.069665,-23.875988,19.292547,-14.342905,-1.3908217,-7.0210657,-22.025106
30,-1.1239433288574219,50.010765075683594,71.69419860839844,3.6789717449386234,7.117450087310802,92.70357092284105,-31.172323,-4.499424,0.29878804,52.758774,-29.265013,-0.36506635,-2.8096359,-3.7049146,-4.332334,106.29072,-21.667257,5.9551897,3.6185968,-4.2016463,14.555857,24.0856,34.862743,-18.401659,-32.771015,-1.2236546,5.8082886,8.185011,0.043592773,-23.100267,19.579262,-13.796101,-1.0750692,-6.695856,-22.635275
31,-1.1631159782409668,51.51715087890625,71.50125885009766,3.619564274636632,7.14453945804632,92.76982239893334,-30.011562,-4.465834,0.25407618,53.446186,-31.087946,-0.43824214,-5.3367934,-4.1470947,-4.3584495,109.98072,-23.263504,5.78368,2.558202,-4.2398205,14.553585,22.062183,34.786095,-18.396034,-32.844303,-1.3926251,5.765469,8.239478,2.1316876,-22.460865,19.926193,-13.486209,-0.68662226,-6.426009,-23.097115
32,-1.220019817352295,53.013736724853516,71.35903930664062,3.492457061909975,7.1568629991119765,92.8482683165288,-28.72961,-4.3767734,0.13651311,53.911816,-32.694866,-0.47134483,-7.910082,-4.5847907,-4.461051,113.18023,-24.681458,5.467809,1.4594685,-4.1627655,14.464837,19.941963,34.76853,-18.293562,-32.959545,-1.5640906,5.734905,8.065469,4.1599927,-21.967615,20.325022,-13.3237095,-0.44888946,-6.2510767,-23.221565
33,-1.2768635749816895,54.51280975341797,71.27328491210938,3.286613972086499,7.1426217336635185,92.93167662964419,-27.314741,-4.2075515,-0.05137444,54.173973,-34.12391,-0.4397998,-10.586415,-5.04426,-4.662765,115.895096,-25.88084,4.919068,0.31886196,-3.9544322,14.278067,17.692976,34.856487,-18.083004,-33.159775,-1.6882812,5.715677,7.559261,6.1551485,-21.636314,20.74985,-13.360773,-0.46958098,-6.2158117,-22.87111
34,-1.318142056465149,56.029300689697266,71.23982238769531,2.987708107668557,7.14178334246862,92.99616172176643,-25.786985,-3.9232147,-0.29188555,54.20117,-35.387165,-0.3851459,-13.431188,-5.5524344,-4.9384584,118.18906,-26.855522,4.1672378,-0.8328515,-3.6071265,14.005294,15.336772,35.06938,-17.794836,-33.47871,-1.8177032,5.684649,6.7977867,8.180682,-21.471025,21.161085,-13.678723,-0.6082799,-6.284107,-22.175375
35,-1.3475661277770996,57.56373596191406,71.26372528076172,2.6475125820113843,7.14698165451805,93.07974272904866,-24.15102,-3.6003492,-0.59995764,53.974205,-36.38829,-0.3405965,-16.339483,-6.0563474,-5.2536755,119.980774,-27.62152,3.4004736,-1.9680724,-3.1840017,13.708386,12.931361,35.399784,-17.46889,-33.84914,-2.0496697,5.663823,5.969792,10.25012,-21.45239,21.534485,-14.222931,-0.72428125,-6.3708773,-21.343662
36,-1.3792099952697754,59.10935974121094,71.34978485107422,2.3159882127667264,7.150389460494586,93.22123602354033,-22.411654,-3.310772,-0.99617046,53.475277,-37.028744,-0.34214395,-19.203318,-6.499859,-5.579371,121.187195,-28.193027,2.812511,-3.0740175,-2.7508159,13.438876,10.534139,35.81744,-17.13624,-34.189213,-2.4759603,5.676559,5.2631264,12.341599,-21.545568,21.871634,-14.900938,-0.6840488,-6.3881545,-20.584337
37,-1.398831844329834,60.67243957519531,71.50627899169922,2.003821140494016,7.145278535494171,93.47396596240407,-20.548906,-3.0744157,-1.5339679,52.663906,-37.32037,-0.4463398,-22.027004,-6.928233,-5.971583,121.760025,-28.56999,2.455384,-4.2016025,-2.309399,13.191038,8.049335,36.312725,-16.838919,-34.417065,-3.1637645,5.7124977,4.6981206,14.434612,-21.732994,22.19106,-15.683656,-0.47766584,-6.288793,-19.896044
38,-1.420234203338623,62.26797866821289,71.73444366455078,1.6844255467625022,7.133608581951542,93.80791618165523,-18.567461,-2.8393784,-2.1953287,51.568203,-37.307587,-0.6253504,-24.853096,-7.360587,-6.4372993,121.74435,-28.73488,2.2346647,-5.3443604,-1.8346132,12.942929,5.449604,36.88418,-16.581213,-34.564938,-4.043702,5.7680125,4.184102,16.536045,-22.009628,22.482998,-16.595564,-0.17805012,-6.1245217,-19.183153
39,-1.4367587566375732,63.886070251464844,72.04141998291016,1.3588544976025467,7.1207934575098095,94.13622477493368,-16.507648,-2.571753,-2.8962128,50.27116,-36.940933,-0.78596026,-27.628605,-7.691133,-6.8774323,121.19666,-28.681038,2.1270146,-6.425591,-1.3521019,12.7108965,2.9130943,37.495567,-16.301172,-34.71139,-4.9972553,5.873605,3.7401993,18.615263,-22.354704,22.74306,-17.580078,0.22006367,-5.957417,-18.512869
40,-1.4474074840545654,65.5326156616211,72.41424560546875,1.0265507947053545,7.11211411045979,94.37042015773874,-14.412102,-2.2446725,-3.5477922,48.864746,-36.17042,-0.83384186,-30.300182,-7.8049397,-7.192946,120.174545,-28.405397,2.1088104,-7.3832436,-0.8844336,12.501276,0.62906903,38.09258,-15.909018,-34.923115,-5.8967338,6.058173,3.3772542,20.60236,-22.741486,22.99128,-18.539423,0.7180423,-5.849974,-17.950466
41,-1.4364291429519653,67.2074966430664,72.84410095214844,0.6908084911536422,7.10282416447596,94.51208408205639,-12.247958,-1.8575513,-4.186055,47.31726,-34.978836,-0.75012916,-32.88418,-7.6237125,-7.3502293,118.64404,-27.871922,2.2010403,-8.219453,-0.43210837,12.308687,-1.3838099,38.6393,-15.3520975,-35.199768,-6.730865,6.424496,3.0467381,22.45877,-23.15711,23.248964,-19.41713,1.3877271,-5.8338456,-17.536766
42,-1.4122271537780762,68.91796112060547,73.33372497558594,0.3480458057731054,7.090757706674272,94.59885157669929,-10.01676,-1.4166939,-4.831317,45.619625,-33.40582,-0.5852655,-35.36384,-7.213756,-7.4124427,116.58505,-27.124166,2.4090972,-8.976174,0.022483168,12.117135,-3.236721,39.13016,-14.676826,-35.46686,-7.5410767,6.925208,2.7481709,24.177027,-23.604223,23.52645,-20.21584,2.1961699,-5.868882,-17.226767
43,-1.384103536605835,70.65095520019531,73.86378479003906,-0.006694789517713766,7.084695897986811,94.59412563448643,-7.802725,-0.9175426,-5.3658333,43.884262,-31.489267,-0.34073842,-37.642586,-6.6699524,-7.4263744,114.06826,-26.274172,2.6850703,-9.64928,0.48612636,11.913991,-4.9251494,39.558556,-13.929585,-35.6864,-8.277968,7.361828,2.5605376,25.730688,-24.078728,23.829826,-20.917517,2.98842,-5.9120927,-16.957464
44,-1.3425405025482178,72.4170913696289,74.42505645751953,-0.37847108767340115,7.09366267850481,94.46067467004794,-5.686582,-0.36440718,-5.6699057,42.221607,-29.261341,-0.016936341,-39.634167,-6.083696,-7.4445453,111.166115,-25.424719,2.982495,-10.234409,0.96511275,11.688007,-6.4324374,39.921413,-13.148998,-35.829666,-8.892697,7.5353417,2.5557613,27.093893,-24.573189,24.164278,-21.508778,3.605711,-5.9206247,-16.667107
45,-1.295769453048706,74.20674896240234,75.0152587890625,-0.7926916674159146,7.112511522108033,94.13193901337785,-3.6425524,0.28168622,-5.664133,40.61572,-26.63511,0.39902708,-41.33221,-5.350868,-7.4387903,107.823204,-24.566319,3.3425598,-10.682951,1.4694166,11.441598,-7.733377,40.21281,-12.311708,-35.854225,-9.332282,7.312752,2.836831,28.230494,-25.084265,24.547602,-21.95542,3.9931452,-5.8706775,-16.333681
46,-1.2475683689117432,76.03437805175781,75.61161041259766,-1.2378686580684912,7.136428646686381,93.64203839825633,-1.6497089,0.9982983,-5.406307,39.051952,-23.634813,0.8988775,-42.753475,-4.450746,-7.4023085,104.01933,-23.671192,3.773932,-11.00368,1.9923558,11.174542,-8.848732,40.433502,-11.402046,-35.78175,-9.627763,6.826781,3.328465,29.161644,-25.612467,24.970383,-22.27143,4.23504,-5.791093,-15.992059
47,-1.2106856107711792,77.8579330444336,76.21903228759766,-1.6636350409826572,7.176777489627338,93.10496782802215,0.20945041,1.6908803,-4.994268,37.627388,-20.445446,1.4502591,-43.869015,-3.6002402,-7.422161,99.86184,-22.798868,4.185135,-11.274366,2.516202,10.874896,-9.823729,40.598648,-10.46888,-35.693913,-9.864342,6.2772913,3.8371027,29.958483,-26.15508,25.388094,-22.530157,4.381502,-5.718082,-15.664997
48,-1.1813435554504395,79.67959594726562,76.82102966308594,-2.0216573290673834,7.248787007816895,92.63620219199257,1.8529875,2.2706285,-4.5388327,36.42346,-17.240253,2.0265076,-44.668438,-3.0178127,-7.584742,95.45699,-21.999023,4.488841,-11.5700865,3.024767,10.53266,-10.69989,40.728966,-9.567562,-35.673748,-10.135961,5.8624463,4.1758432,30.701172,-26.704216,25.75051,-22.808699,4.4831204,-5.688023,-15.373056
49,-1.1528481245040894,81.53646850585938,77.40337371826172,-2.3366467608872536,7.362455652899075,92.24293887808014,3.2543128,2.7644973,-4.024176,35.412582,-13.817581,2.6542583,-45.13002,-2.7302604,-7.931104,90.74677,-21.276758,4.687443,-11.892389,3.549757,10.148513,-11.453203,40.836636,-8.684249,-35.757095,-10.488525,5.661077,4.288435,31.394236,-27.254486,26.051125,-23.105043,4.499695,-5.723651,-15.147311
50,-1.1317369937896729,83.3978042602539,77.95919799804688,-2.6244982777981463,7.50974444262297,91.8704202434911,4.454257,3.212756,-3.4011798,34.571095,-10.157236,3.3399117,-45.273304,-2.6118755,-8.422977,85.69011,-20.5966,4.83299,-12.203028,4.0836906,9.7288885,-12.05052,40.92244,-7.7861624,-35.91651,-10.874289,5.5593066,4.285256,32.0049,-27.802774,26.313288,-23.390516,4.4213696,-5.8031726,-14.966286
51,-1.1249592304229736,85.2677001953125,78.48479461669922,-2.8241162159600948,7.683709436738492,91.54495720251755,5.4796553,3.548623,-2.7504792,33.954376,-6.694593,4.036677,-45.164352,-2.6571014,-9.012444,80.410324,-19.940145,4.931298,-12.517839,4.5586333,9.272738,-12.523646,40.988308,-6.9080763,-36.138874,-11.249986,5.46532,4.2295494,32.559013,-28.343647,26.524555,-23.699266,4.3445745,-5.8947434,-14.769787
52,-1.128021478652954,87.13433837890625,78.97676849365234,-2.8779240380998607,7.878876020447584,91.29477713101683,6.3743024,3.698952,-2.1663697,33.57874,-3.8576958,4.7023225,-44.874863,-2.8689873,-9.649166,75.02607,-19.286024,4.9799237,-12.847516,4.9097376,8.775928,-12.926247,41.034233,-6.104304,-36.39597,-11.571357,5.2865896,4.185584,33.091194,-28.867903,26.666096,-24.07213,4.3661003,-5.966058,-14.496323
53,-1.1288385391235352,89.00689697265625,79.41876220703125,-2.749604611872851,8.132619390435622,91.16043147303526,7.086204,3.606242,-1.7499157,33.448273,-1.7840525,5.4297605,-44.422485,-3.3478458,-10.368793,69.47009,-18.634027,4.925111,-13.2199545,5.1200113,8.192001,-13.292582,41.061024,-5.387639,-36.668095,-11.800595,5.0214124,4.1179147,33.608562,-29.367588,26.73218,-24.514862,4.4580455,-6.0051317,-14.116887
54,-1.1300289630889893,90.89295959472656,79.81102752685547,-2.4842142885635656,8.438243763596317,91.1208823132246,7.6369085,3.3340786,-1.4406196,33.499073,-0.2117653,6.21741,-43.773247,-4.035451,-11.208233,63.680138,-17.970718,4.803015,-13.619707,5.23546,7.5359445,-13.595447,41.066998,-4.7392764,-36.969624,-11.971381,4.712047,4.01192,34.097237,-29.837795,26.730062,-25.003216,4.584801,-6.029825,-13.666772
55,-1.13624107837677,92.77823638916016,80.13903045654297,-2.1296308529583947,8.722841095116413,91.11385148659107,8.175052,2.9571733,-1.1093327,33.670654,1.0157415,6.8793797,-42.94303,-4.737144,-12.083386,57.809032,-17.28553,4.723715,-13.994521,5.2623777,6.8888655,-13.815243,41.04611,-4.1756153,-37.299107,-12.14589,4.3306937,3.9604957,34.559795,-30.27418,26.658897,-25.530676,4.830519,-6.050657,-13.18063
56,-1.1323219537734985,94.64961242675781,80.3882827758789,-1.7215869881951846,8.913249306962141,91.07916029954565,8.84787,2.5390928,-0.6382217,33.90301,2.0594707,7.2279763,-41.94876,-5.2859178,-12.885066,52.004906,-16.560776,4.78075,-14.29149,5.195068,6.3288774,-13.945236,40.98814,-3.7250748,-37.64902,-12.382283,3.8490138,4.056157,35.001343,-30.672401,26.512835,-26.086918,5.280609,-6.0767455,-12.692901
57,-1.128150463104248,96.5113296508789,80.56709289550781,-1.2291077383189126,8.998367634330137,91.03657968946827,9.732627,2.0824146,0.04063665,34.12533,2.9158032,7.1048565,-40.736485,-5.717473,-13.612451,46.097836,-15.738953,4.975389,-14.519904,4.995664,5.849508,-14.009696,40.888668,-3.4243293,-38.015438,-12.675607,3.2262652,4.3564043,35.464603,-31.032078,26.256227,-26.726082,5.9790096,-6.087346,-12.141736
58,-1.110731840133667,98.39373779296875,80.67683410644531,-0.628550570189224,9.009024171831484,91.01584868935795,10.742005,1.5457917,0.8150751,34.40471,3.5206456,6.6528745,-39.299328,-6.125841,-14.297693,40.013508,-14.811915,5.248571,-14.706595,4.6617465,5.415646,-14.025062,40.745552,-3.2667565,-38.387257,-12.993088,2.4871254,4.7981434,35.942608,-31.35097,25.896032,-27.435118,6.8734345,-6.0793552,-11.532446
59,-1.0807229280471802,100.265625,80.71147918701172,0.03216587917776349,8.933160320912922,90.97341187866725,11.7711115,0.9150321,1.5348848,34.883675,3.9444742,6.135589,-37.7278,-6.4618435,-14.860304,34.056946,-13.845268,5.5892005,-14.83148,4.229386,5.063177,-13.96889,40.551765,-3.2073216,-38.749153,-13.353136,1.7012225,5.2890544,36.356033,-31.618065,25.50183,-28.108099,7.903536,-6.090686,-10.999463
60,-1.0455389022827148,102.12774658203125,80.67704772949219,0.7044223522398652,8.761051116082738,90.86309628228605,12.713554,0.17261474,2.0617485,35.6931,4.248842,5.809589,-36.132145,-6.6836677,-15.216717,28.584532,-12.925338,5.986579,-14.872231,3.7355556,4.8287554,-13.80724,40.300133,-3.1931603,-39.094204,-13.775758,0.9392782,5.734373,36.611538,-31.818533,25.149382,-28.625906,9.005731,-6.1650147,-10.674671
61,-1.0007274150848389,103.96997833251953,80.57819366455078,1.4188237233601317,8.478375108694662,90.65339203561591,13.578157,-0.7894702,2.34574,36.84398,4.3624067,5.7477007,-34.52136,-6.8097625,-15.3250265,23.601728,-12.077297,6.4738555,-14.799832,3.1394234,4.7181277,-13.522388,39.991203,-3.2199895,-39.441593,-14.349465,0.17002396,6.132972,36.69791,-31.939465,24.849697,-28.96847,10.350819,-6.346151,-10.602832
62,-0.9410257339477539,105.79064178466797,80.42980194091797,2.2162875961157114,8.087254866189362,90.37875692634351,14.408158,-1.9655856,2.45976,38.281086,4.2749963,5.804002,-32.856552,-6.918271,-15.2147,18.978302,-11.273505,7.0354214,-14.638379,2.4051394,4.717235,-13.1252365,39.629414,-3.3096554,-39.79709,-15.034262,-0.6285942,6.520061,36.641632,-31.9771,24.57574,-29.177143,11.904123,-6.6077876,-10.703463
63,-0.867713451385498,107.58516693115234,80.23037719726562,3.023341676917575,7.621232443846554,90.0717540019125,15.12231,-3.180391,2.4835746,40.051872,4.12881,5.8915124,-31.225359,-7.021193,-14.912724,14.9512,-10.557836,7.586654,-14.425029,1.6161644,4.826312,-12.617869,39.210808,-3.444008,-40.139183,-15.661925,-1.3698076,6.861317,36.39975,-31.931717,24.350601,-29.214474,13.295435,-6.8920217,-10.924067
64,-0.7837442755699158,109.36607360839844,79.9966812133789,3.728483611615389,7.130721074617991,89.74857334311892,15.621201,-4.2240524,2.5253227,42.21239,4.059379,5.916621,-29.721714,-7.071242,-14.452813,11.740112,-9.965707,8.039679,-14.182924,0.8977355,5.0368695,-11.987211,38.726234,-3.593545,-40.463043,-16.06393,-1.9639815,7.1259565,35.91914,-31.807135,24.199469,-29.035912,14.155534,-7.1356564,-11.219111
65,-0.699371874332428,111.11244201660156,79.73513793945312,4.2798724271425375,6.636592035173186,89.35473686302281,15.855889,-5.113856,2.6025157,44.823765,4.210053,5.7926517,-28.463352,-7.0156035,-13.777785,9.625293,-9.61535,8.351901,-13.86596,0.30948284,5.3501773,-11.207743,38.163315,-3.7409294,-40.789104,-16.21934,-2.3598301,7.274927,35.175217,-31.601965,24.128952,-28.604256,14.296603,-7.3094716,-11.6278105
66,-0.6067981123924255,112.84232330322266,79.43637084960938,4.684556065409985,6.1424632561070345,88.86848411048452,15.8474045,-5.9253764,2.714127,47.853573,4.457711,5.5361786,-27.48858,-6.83931,-12.87757,8.605122,-9.553474,8.564336,-13.441849,-0.15284956,5.757416,-10.288154,37.5188,-3.907192,-41.123924,-16.208235,-2.6118085,7.336029,34.192383,-31.316442,24.119036,-27.942732,13.94429,-7.4454513,-12.161034
67,-0.5076963305473328,114.5547866821289,79.10076904296875,4.925723547872644,5.671879187214462,88.35794913706712,15.60923,-6.5099797,2.941044,51.22116,4.534763,5.230607,-26.761246,-6.532767,-11.85985,8.456958,-9.684834,8.715312,-12.958753,-0.4552341,6.2316456,-9.272488,36.80012,-4.1222925,-41.422832,-16.01529,-2.788645,7.3825617,32.998096,-30.959944,24.15518,-27.107944,13.353831,-7.569858,-12.734641
68,-0.408627450466156,116.26075744628906,78.72220611572266,4.989620491128092,5.241705206155098,87.89598400332888,15.168668,-6.687022,3.3527682,54.858505,4.1744413,5.000723,-26.167337,-6.0786495,-10.844328,8.803911,-9.832106,8.844337,-12.4734335,-0.5744831,6.7468925,-8.202768,36.021595,-4.4126725,-41.643913,-15.627303,-2.959261,7.489863,31.624132,-30.548374,24.22241,-26.164263,12.780909,-7.715448,-13.264851
69,-0.3086020052433014,117.95533752441406,78.29572296142578,4.915052761914617,4.811585362887818,87.51165881203634,14.623629,-6.4155974,3.9976225,58.76476,3.3070142,4.896194,-25.437506,-5.4763775,-9.771722,9.18702,-9.855192,9.280969,-12.03167,-0.55614835,7.3275075,-7.045363,35.181572,-4.791912,-41.79725,-14.940155,-3.1255748,7.728617,30.083658,-30.082224,24.312462,-25.082508,12.226293,-7.9110293,-13.74071
70,-0.21042439341545105,119.63127899169922,77.81746673583984,4.687910242694814,4.382376174196525,87.16802262638454,13.970086,-5.7640777,4.8084364,62.95844,2.0732846,4.8618484,-24.697447,-4.722438,-8.611929,9.913635,-9.875449,9.899057,-11.596391,-0.38768694,7.9759088,-5.807661,34.279484,-5.26232,-41.890503,-13.994899,-3.2533114,8.043853,28.376663,-29.560535,24.41856,-23.858099,11.577873,-8.131535,-14.205507
71,-0.10774469375610352,121.29635620117188,77.297607421875,4.2266705518205425,4.022912725456195,86.8473358716988,13.10319,-4.6908426,5.6540494,67.40566,0.53202,4.8900766,-24.337805,-3.7771282,-7.55191,11.575348,-10.005909,10.061028,-11.120681,0.030231152,8.636191,-4.580445,33.338833,-5.8166723,-41.872303,-13.000715,-3.3611944,8.326731,26.514462,-29.003834,24.539694,-22.602922,10.926361,-8.33681,-14.658801
72,0.0672188550233841,122.83541107177734,76.85545349121094,3.4766777233042743,3.7824105047511725,86.54853840608818,11.941553,-3.189542,6.3757906,72.05485,-1.2449855,4.9729433,-24.658525,-2.6219957,-6.8074656,14.58649,-10.254501,9.1415615,-10.584653,0.75610274,9.260763,-3.4390635,32.395763,-6.428471,-41.7027,-12.174392,-3.4747791,8.475203,24.513163,-28.447287,24.682589,-21.443316,10.367778,-8.488979,-15.101095
73,0.23804409801959991,124.38772583007812,76.36604309082031,2.38413234172863,3.665402922591652,86.30933204726475,10.498773,-1.1038808,6.938791,77.01201,-3.3488517,5.1583204,-25.956566,-1.2362529,-6.4880576,19.539856,-10.355366,6.431882,-10.035475,1.8469524,9.843828,-2.386282,31.479136,-7.0732894,-41.39372,-11.609078,-3.6252968,8.439182,22.412306,-27.906189,24.862652,-20.438652,9.957638,-8.596083,-15.551477
74,0.38418349623680115,125.94676208496094,75.7909927368164,1.1760896746462215,3.574239506579921,86.18880417020704,8.936353,1.3230127,7.32082,82.175964,-5.726324,5.4768972,-27.796022,0.13230662,-6.571747,25.712395,-10.173798,2.4865496,-9.557804,3.0491881,10.437935,-1.3617159,30.599089,-7.746829,-40.981525,-11.194419,-3.795116,8.288586,20.230879,-27.379345,25.077682,-19.569872,9.644229,-8.673935,-16.010841
75,0.537966251373291,127.4694595336914,75.1498794555664,0.07354245032290561,3.461193592251747,86.16761441110363,7.288327,3.6370268,7.434955,87.25999,-8.137437,5.8556666,-29.47996,1.2652681,-6.9850445,31.681059,-10.0329,-1.4721072,-9.142788,4.1105633,11.060163,-0.32789353,29.754143,-8.433168,-40.463364,-10.840764,-3.9408152,8.106058,17.92616,-26.88244,25.31879,-18.823355,9.367686,-8.699524,-16.45008
76,0.7019971013069153,128.9629364013672,74.47454833984375,-0.8425168893931024,3.331062139256551,86.1709423968238,5.501471,5.5276957,7.2463794,92.03814,-10.377597,6.1783977,-30.519316,2.1556108,-7.495409,36.42587,-10.510585,-4.2456894,-8.728606,4.9392443,11.703207,0.7676891,28.928041,-9.104925,-39.84786,-10.45443,-4.020301,7.9763823,15.435301,-26.444063,25.582157,-18.17404,9.073155,-8.650994,-16.840075
77,0.8470941185951233,130.41368103027344,73.82571411132812,-1.6841502084354258,3.2273424731373184,86.15276799635934,3.4467177,7.053311,6.69351,96.64616,-12.478694,6.425139,-30.941349,2.951076,-8.067287,39.97656,-12.111629,-5.393595,-8.293264,5.653734,12.377779,1.9657798,28.093489,-9.726315,-39.099854,-9.99964,-4.0406847,7.8833203,12.64929,-26.097383,25.9314,-17.6113,8.755901,-8.472333,-17.204632
78,0.9710695743560791,131.82421875,73.25624084472656,-2.5294712905024657,3.171197472420681,86.12106343477971,1.120593,8.38727,5.8509884,101.200165,-14.555523,6.6292944,-31.097792,3.6882784,-8.725543,43.048336,-14.567703,-5.6143847,-7.853626,6.3586063,13.067838,3.2725108,27.236425,-10.279452,-38.25849,-9.525294,-4.019617,7.7899113,9.618493,-25.845034,26.373104,-17.164665,8.459473,-8.193869,-17.555471
79,1.0981000661849976,133.2401123046875,72.76394653320312,-3.2475374805911454,3.132279347836897,86.09184134522407,-1.3419427,9.416344,4.922252,105.42014,-16.50388,6.777989,-31.011454,4.2524753,-9.295221,45.7438,-17.353376,-5.39068,-7.3991146,6.936716,13.721223,4.670526,26.364672,-10.7867155,-37.42361,-9.062229,-3.9295356,7.750933,6.5126996,-25.66388,26.812809,-16.847149,8.193712,-7.922861,-17.839638
80,1.215619444847107,134.6854705810547,72.34722137451172,-3.6970367070348784,3.0735767851103484,86.08300382141985,-3.8146014,10.043402,4.0852637,109.02837,-18.204498,6.8347387,-30.680023,4.568885,-9.606245,48.080086,-19.904106,-5.208847,-6.899946,7.2508926,14.289247,6.1163273,25.50438,-11.303661,-36.675667,-8.643475,-3.7419748,7.8261294,3.5064268,-25.52117,27.13837,-16.655422,7.9569635,-7.7664504,-17.997852
81,1.327362060546875,136.1376495361328,72.01303100585938,-3.7805972617049073,2.9750975701754374,86.10675422497229,-6.3345966,10.144386,3.361872,111.96935,-19.556564,6.807108,-30.060804,4.593555,-9.603382,50.020924,-22.167519,-5.1145115,-6.327659,7.179697,14.778687,7.5937033,24.671314,-11.886724,-35.97674,-8.220612,-3.338469,8.124748,0.61927736,-25.394682,27.311882,-16.606361,7.730921,-7.786258,-17.944326
82,1.4427472352981567,137.59852600097656,71.7605209350586,-3.597285406091111,2.85718933045026,86.15147629583382,-8.969493,9.828769,2.689908,114.40025,-20.615341,6.714322,-29.156965,4.4179225,-9.4334755,51.54912,-24.401075,-4.884683,-5.684023,6.8173423,15.211211,9.101652,23.872896,-12.525131,-35.273376,-7.80109,-2.7687595,8.58858,-2.2498076,-25.282639,27.39589,-16.658707,7.512872,-7.915398,-17.725687
83,1.5495349168777466,139.09173583984375,71.57247161865234,-3.298140302307566,2.7404330062294493,86.20217840413845,-11.646339,9.3738985,2.1216605,116.34295,-21.488333,6.563594,-28.022478,4.1816797,-9.204616,52.67023,-26.499098,-4.605188,-4.9899373,6.3407583,15.562995,10.622997,23.131197,-13.170015,-34.630947,-7.501459,-2.2592669,9.032358,-5.113982,-25.190845,27.433016,-16.71813,7.320241,-8.067753,-17.481266
84,1.6503838300704956,140.6114044189453,71.44242858886719,-3.0351310904804563,2.6466137407068913,86.24148833573184,-14.293581,9.06349,1.6856846,117.816826,-22.29103,6.3612185,-26.723705,4.0066085,-8.997773,53.401276,-28.349588,-4.348398,-4.2651987,5.9280725,15.809512,12.149286,22.472803,-13.765785,-34.13133,-7.4385734,-2.0402353,9.279429,-7.974417,-25.128199,27.462896,-16.71007,7.1724787,-8.156875,-17.351095
85,1.7444273233413696,142.14846801757812,71.36430358886719,-2.8298716521522937,2.545779482147328,86.30519631769063,-16.913599,8.940053,1.3432059,118.81687,-23.0544,6.081432,-25.216383,3.8657796,-8.836997,53.74578,-29.982607,-4.115777,-3.5395312,5.6021824,15.970189,13.670914,21.920551,-14.314344,-33.860523,-7.7825427,-2.2444093,9.249464,-10.8648,-25.101727,27.499405,-16.631832,7.123103,-8.152638,-17.397747
86,1.8449995517730713,143.6873321533203,71.35008239746094,-2.612352797867551,2.4349842850811454,86.38489033529605,-19.547726,8.886885,1.0780867,119.33025,-23.703608,5.734718,-23.484282,3.702966,-8.668969,53.700386,-31.438608,-3.8754778,-2.7909234,5.2768393,16.059618,15.210448,21.475372,-14.834906,-33.786293,-8.43853,-2.7241373,9.051999,-13.771973,-25.111162,27.531174,-16.53038,7.1481504,-8.10521,-17.539427
87,1.951285481452942,145.22935485839844,71.40442657470703,-2.401251291518104,2.378623511756431,86.39750385619271,-22.179907,8.952624,0.93726015,119.36565,-24.205847,5.381973,-21.645147,3.5826876,-8.4348755,53.2764,-32.62064,-3.635068,-1.9626782,4.9646583,16.041945,16.809874,21.120785,-15.294416,-33.81429,-9.118714,-3.2904673,8.79668,-16.625242,-25.153675,27.557087,-16.40805,7.1499815,-8.047876,-17.698372
88,2.059884786605835,146.78497314453125,71.52599334716797,-2.212809784781171,2.4426111886949373,86.26030078967513,-24.78889,9.186424,0.9684955,118.93583,-24.534204,5.0821533,-19.817719,3.5660038,-8.070046,52.486046,-33.431602,-3.4016328,-1.0031747,4.6735444,15.8807955,18.515755,20.831266,-15.651797,-33.850693,-9.527285,-3.7601295,8.599072,-19.356026,-25.224798,27.576796,-16.26492,7.0291753,-8.012693,-17.797379
89,2.162335157394409,148.3680877685547,71.72288513183594,-2.06623516178552,2.6760798597700894,85.8899154122277,-27.415577,9.697562,1.2333301,118.026184,-24.699787,4.8358746,-18.042562,3.7104287,-7.490528,51.266846,-33.878494,-3.1889966,0.14905626,4.4083934,15.525979,20.374659,20.5859,-15.88413,-33.90228,-9.593742,-4.107549,8.458342,-22.012867,-25.327038,27.601725,-16.04194,6.6829815,-8.004816,-17.79548
90,2.255829095840454,149.9849090576172,71.98890686035156,-1.9458318786764386,3.034201705362004,85.34833856619794,-30.031832,10.448141,1.6879618,116.63301,-24.727518,4.6168857,-16.255201,3.9486747,-6.7291236,49.645943,-34.004967,-2.9839978,1.4469603,4.1500773,15.012183,22.349081,20.377604,-16.01199,-34.0031,-9.465717,-4.423958,8.320744,-24.619091,-25.46163,27.638447,-15.757165,6.18852,-8.008617,-17.741213
91,2.355771064758301,151.63021850585938,72.31779479980469,-1.819059458173617,3.4430204471709986,84.77291969806693,-32.51013,11.255569,2.2313921,114.78,-24.615343,4.44042,-14.41455,4.1586447,-5.900628,47.76353,-33.77539,-2.7528148,2.7816167,3.868417,14.430083,24.360056,20.20555,-16.059004,-34.099663,-9.169875,-4.7052865,8.23074,-27.056778,-25.618465,27.6676,-15.520365,5.71083,-8.023445,-17.692577
92,2.455122470855713,153.31378173828125,72.71783447265625,-1.6491476832419454,3.8290662768261794,84.30293018049049,-34.72613,11.9233675,2.7725692,112.489975,-24.360306,4.319652,-12.484578,4.2255254,-5.1304555,45.759434,-33.152306,-2.4615622,4.040181,3.5397947,13.867453,26.331923,20.075705,-16.045105,-34.14245,-8.732533,-4.9463563,8.232896,-29.225573,-25.783804,27.665997,-15.425573,5.424932,-8.046991,-17.70546
93,2.5491690635681152,155.0222930908203,73.18099212646484,-1.4298247754759446,4.181881349526525,83.95247139641654,-36.655327,12.429813,3.335343,109.74291,-23.967098,4.276337,-10.402711,4.136611,-4.4043126,43.537346,-32.10362,-2.078309,5.2178555,3.1587222,13.330885,28.29343,19.993118,-15.957501,-34.123905,-8.0505705,-5.12655,8.386823,-31.0877,-25.95028,27.624178,-15.494615,5.421477,-8.087061,-17.83932
94,2.6459944248199463,156.7525634765625,73.68297576904297,-1.1761579991900355,4.540472427389383,83.65898799809294,-38.335423,12.855176,3.9778216,106.53463,-23.459549,4.288711,-8.2157955,3.9420555,-3.6736162,41.074295,-30.661333,-1.6241851,6.358665,2.7259045,12.778038,30.28238,19.958233,-15.779872,-34.07918,-7.147359,-5.2519507,8.656913,-32.718655,-26.119617,27.549513,-15.661379,5.5982323,-8.141337,-18.047758
95,2.7328946590423584,158.5205841064453,74.22699737548828,-0.8845048411108024,4.904655918755735,83.44851895352278,-39.74345,13.143162,4.660925,102.903046,-22.864923,4.3003263,-6.056918,3.636303,-3.0216,38.627525,-28.891272,-1.1474766,7.4276743,2.2415001,12.224132,32.230328,19.973703,-15.531235,-34.015327,-6.236849,-5.358711,8.94298,-34.139194,-26.286707,27.444096,-15.917608,5.8000774,-8.19108,-18.228863
96,2.7988498210906982,160.30091857910156,74.79656219482422,-0.5534808323444794,5.27319653397393,83.34708171132351,-40.86316,13.234814,5.3426576,98.873634,-22.200464,4.2559795,-4.053975,3.2223508,-2.5330822,36.447937,-26.853321,-0.6969074,8.388521,1.7089863,11.683225,34.06953,20.044296,-15.230469,-33.938805,-5.532959,-5.487204,9.145107,-35.383255,-26.444746,27.30999,-16.245462,5.881264,-8.216278,-18.279972
97,2.884052276611328,162.10122680664062,75.38603210449219,-0.14411515634485653,5.6421266817860705,83.40597364271136,-41.69274,13.010501,6.043143,94.38866,-21.440414,4.2126412,-2.1958807,2.6509075,-2.2614532,34.56464,-24.498512,-0.26003405,9.194896,1.0929719,11.165775,35.791557,20.182955,-14.858097,-33.845074,-5.077148,-5.656726,9.2257,-36.439713,-26.588232,27.139694,-16.649685,5.791016,-8.209718,-18.16758
98,2.964681386947632,163.90769958496094,75.97750091552734,0.33018600035869905,6.010926068868314,83.60132941817325,-42.228333,12.515349,6.7642946,89.43941,-20.590363,4.150957,-0.4367457,1.9568577,-2.1556814,32.872643,-21.82338,0.17954987,9.870673,0.40716517,10.661139,37.447422,20.393211,-14.401786,-33.748466,-4.7631736,-5.84479,9.243985,-37.312733,-26.717724,26.929077,-17.121878,5.617975,-8.18297,-17.946636
99,3.031768560409546,165.72213745117188,76.56544494628906,0.7872681137740775,6.383985644764823,83.8446990962533,-42.46722,11.930831,7.4956884,84.10675,-19.696394,3.965489,1.1538591,1.2673423,-2.1427324,31.416075,-18.95074,0.5798832,10.489257,-0.26930854,10.1501,39.04768,20.660147,-13.896844,-33.672554,-4.5800505,-6.0313354,9.241457,-38.029156,-26.834547,26.694561,-17.649912,5.3973536,-8.1431055,-17.648218
100,3.0775070190429688,167.5462188720703,77.13855743408203,1.146363360398988,6.768028441430546,84.04516419704964,-42.4158,11.434936,8.229713,78.45515,-18.790335,3.548348,2.508056,0.69561964,-2.1439056,30.234713,-15.996763,0.908909,11.122027,-0.8585499,9.610637,40.595516,20.955742,-13.379053,-33.631897,-4.512973,-6.195436,9.2564125,-38.62793,-26.941788,26.457508,-18.208069,5.172817,-8.096762,-17.303291
101,3.1213951110839844,169.38494873046875,77.6833267211914,1.4232457888497543,7.196222082417429,84.19457190385924,-42.04429,11.024234,9.029058,72.29497,-17.842474,2.78355,3.5317945,0.21356465,-2.1772735,29.392834,-12.8466425,1.1484463,11.76989,-1.3819687,9.015088,42.08229,21.260063,-12.829012,-33.607788,-4.585717,-6.341376,9.282179,-39.14062,-27.045929,26.222778,-18.7869,4.9598455,-8.037784,-16.860523
102,3.1624350547790527,171.2490234375,78.20336151123047,1.650355965469024,7.653811785629665,84.33080225028957,-41.348568,10.578203,9.887948,65.583405,-16.792025,1.7324501,4.293404,-0.22409454,-2.26314,28.83764,-9.468482,1.3289188,12.400291,-1.8627393,8.381124,43.49999,21.56915,-12.236725,-33.587296,-4.7892036,-6.476454,9.295344,-39.528778,-27.144876,25.987728,-19.40959,4.7221417,-7.965717,-16.325676
103,3.199955463409424,173.12359619140625,78.68587493896484,1.7564146722350578,8.077446702757662,84.43807504495399,-40.402393,10.128998,10.669453,58.636,-15.657629,0.5707277,4.9732637,-0.521232,-2.3382971,28.441677,-6.1217093,1.48855,13.014484,-2.2185106,7.7429934,44.86383,21.875656,-11.642038,-33.58737,-5.0610733,-6.584895,9.310841,-39.808548,-27.23652,25.763678,-20.03983,4.4876595,-7.8952484,-15.809601
104,3.2327136993408203,175.01480102539062,79.11933898925781,1.6757401611142835,8.403161362664724,84.49861404367971,-39.28247,9.745604,11.233848,51.776882,-14.476653,-0.49770784,5.7522407,-0.58993596,-2.3372533,28.07566,-3.0629506,1.6611947,13.61765,-2.3734639,7.135834,46.185184,22.169847,-11.085653,-33.62766,-5.3373327,-6.6508965,9.343762,-39.99141,-27.317719,25.565554,-20.645311,4.2773037,-7.839453,-15.423653
105,3.252042055130005,176.9070587158203,79.501708984375,1.353734372327129,8.608891351435139,84.48253370827202,-37.93816,9.493361,11.48439,44.846966,-13.16763,-1.402297,6.723361,-0.34606445,-2.1466312,27.581696,-0.20329177,1.8659114,14.23904,-2.2692394,6.5514107,47.485313,22.446047,-10.559238,-33.706615,-5.604535,-6.6534834,9.40746,-40.05926,-27.384113,25.413885,-21.228825,4.0894523,-7.802449,-15.222821
106,3.2694127559661865,178.82058715820312,79.8274917602539,0.8239336556153615,8.723238791074605,84.39759670793141,-36.331615,9.381555,11.502277,37.682747,-11.718361,-2.2267196,7.8002048,0.15480964,-1.8225138,27.030317,2.5694401,2.0809636,14.87533,-1.9458712,5.972181,48.754787,22.701645,-10.042206,-33.81894,-5.8929152,-6.607138,9.488939,-40.02068,-27.432661,25.300726,-21.797411,3.9136906,-7.775322,-15.138973
107,3.2992117404937744,180.75534057617188,80.09542846679688,0.15803927257731787,8.75663951120144,84.28376603030846,-34.57507,9.409167,11.420419,30.64748,-10.285592,-2.9955935,8.901543,0.7928442,-1.560383,26.621975,5.036438,2.2614534,15.486208,-1.4691256,5.422278,49.951756,22.9324,-9.559993,-33.96486,-6.2047935,-6.5487833,9.563359,-39.918495,-27.462059,25.198023,-22.329338,3.7512887,-7.7509384,-15.099326
108,3.33900785446167,182.6976318359375,80.29712677001953,-0.5765623391844356,8.718458146737715,84.17711213429105,-32.79142,9.551694,11.38301,24.133806,-9.026903,-3.7561138,9.942891,1.4478108,-1.5616188,26.565866,6.971393,2.3455608,16.03844,-0.8964005,4.932302,51.03011,23.135529,-9.144668,-34.143105,-6.540229,-6.515108,9.604779,-39.76465,-27.468193,25.07896,-22.828388,3.5813224,-7.722291,-15.033331
109,3.372476577758789,184.62411499023438,80.42328643798828,-1.4420983311399012,8.595630466772834,84.04972882141382,-30.980257,9.898211,11.464656,18.137821,-7.9872622,-4.576365,10.950231,2.1537108,-1.8657796,26.862625,8.293815,2.2717962,16.556314,-0.157564,4.4849644,52.023792,23.310019,-8.793819,-34.3827,-6.9551315,-6.506469,9.592449,-39.583668,-27.451912,24.948095,-23.276573,3.4269805,-7.6855206,-14.929466
110,3.387746572494507,186.51234436035156,80.47428131103516,-2.491239823938954,8.364968808711206,83.8755321632211,-29.060083,10.472828,11.607397,12.427623,-7.0504165,-5.440196,11.983049,2.9668791,-2.3485072,27.423618,9.12733,2.0478504,17.071934,0.8011962,4.077308,52.952496,23.455963,-8.497494,-34.684994,-7.4292126,-6.5055604,9.544358,-39.355103,-27.412256,24.819298,-23.685375,3.28296,-7.644088,-14.822807
111,3.384796142578125,188.35032653808594,80.46053314208984,-3.5817839266108376,8.051728261819123,83.72355566846917,-27.127934,11.0893755,11.743508,7.2190347,-6.20384,-6.26151,12.946521,3.7452192,-2.99815,28.387484,9.512801,1.7220259,17.519413,1.8440357,3.7522984,53.744686,23.568743,-8.272842,-34.999737,-7.8477535,-6.523099,9.492036,-39.07543,-27.348806,24.684816,-24.05722,3.11868,-7.6037416,-14.7089205
112,3.3782131671905518,190.14649963378906,80.40623474121094,-4.519302724537538,7.718474943039768,83.69348703813277,-27.334532,11.901414,11.363169,7.042337,-7.717812,-6.9237804,13.684818,4.299539,-3.8437023,29.938152,9.468966,1.3617126,17.796799,2.7851837,3.5503623,54.287773,23.62796,-8.151946,-35.238815,-8.088187,-6.5710807,9.463385,-38.732742,-27.282629,24.542976,-24.411577,2.908045,-7.571356,-14.594421
113,3.372096538543701,191.90220642089844,80.31428527832031,-5.214260286823445,7.43352867497855,83.85071726155746,-27.400665,12.316864,10.928552,6.949834,-8.953555,-7.3096023,14.095031,4.487674,-5.103369,32.229515,8.8481455,0.97694445,17.837288,3.4870365,3.455152,54.61007,23.696533,-8.0880785,-35.445496,-8.130481,-6.655193,9.451331,-38.32606,-27.145172,24.338736,-24.743977,2.5878751,-7.550206,-14.422546
114,3.363807201385498,193.62301635742188,80.19219207763672,-5.727365994164921,7.1899433907466905,84.17174066478331,-27.32586,12.422537,10.460095,6.913721,-9.965698,-7.485624,14.219838,4.3469706,-6.723491,35.21848,7.628615,0.5290304,17.655388,4.0417075,3.4446518,54.687595,23.73216,-8.120268,-35.579388,-8.020956,-6.770363,9.447127,-37.88023,-26.97353,24.122868,-25.03818,2.197529,-7.5379815,-14.22699
115,3.3535962104797363,195.32058715820312,80.02567291259766,-6.090498036928594,6.940649468806493,84.61391126461281,-27.062551,12.253536,9.866032,6.9150276,-10.756534,-7.585604,14.135304,3.9999905,-8.334863,38.72828,6.0587273,0.029047139,17.294075,4.4718804,3.551734,54.542,23.745703,-8.236532,-35.64601,-7.8179646,-6.9074674,9.485796,-37.339966,-26.763811,23.901165,-25.307274,1.7980793,-7.5338316,-14.063967
116,3.345933437347412,197.00746154785156,79.81562805175781,-6.324956891288039,6.638951102892668,85.13226421450847,-26.560131,11.837774,9.062487,6.9315157,-11.32537,-7.7366443,13.905869,3.604151,-9.582851,42.562897,4.416352,-0.48789036,16.802828,4.7929106,3.8038473,54.19049,23.754879,-8.435172,-35.64593,-7.5813184,-7.0579243,9.610057,-36.660736,-26.504404,23.685942,-25.547852,1.4471487,-7.535697,-13.990812
117,3.337130308151245,198.66578674316406,79.55604553222656,-6.516174557831996,6.21634203165925,85.72641062700276,-25.711485,11.254721,8.006887,6.9778914,-11.815366,-8.161345,13.603149,3.3758736,-10.39341,46.696293,2.7599728,-1.0759765,16.193571,5.092421,4.2376094,53.670597,23.769062,-8.7267,-35.589165,-7.3409076,-7.2242737,9.824879,-35.812336,-26.196209,23.457293,-25.77068,1.1957467,-7.5383325,-14.042304
118,3.3238179683685303,200.3048858642578,79.24471282958984,-6.61784783501214,5.719149909445777,86.41379055299996,-24.572733,10.471823,6.751082,7.0673814,-12.190253,-8.72491,13.17486,3.2377408,-10.956348,51.18963,0.9789689,-1.6821749,15.445437,5.309599,4.828097,52.96331,23.7908,-9.109783,-35.47424,-7.0649295,-7.4087076,10.115011,-34.81938,-25.836533,23.213095,-25.975014,0.99647343,-7.5435543,-14.17912
119,3.321608066558838,201.942138671875,78.88462829589844,-6.461831645682822,5.261438191480845,87.16648929321889,-23.341442,9.342489,5.3413873,7.1904345,-12.177672,-9.033418,12.511633,2.9307408,-11.325867,55.969055,-0.8832826,-2.0982442,14.578922,5.2459917,5.511581,51.992233,23.824743,-9.572182,-35.281143,-6.720409,-7.6015124,10.490796,-33.706543,-25.437445,22.986156,-26.15414,0.77306885,-7.559658,-14.35484
120,3.34126615524292,203.60061645507812,78.47789001464844,-5.900779370974666,4.9386974800294,87.94452501790775,-22.196505,7.744508,3.8055067,7.318089,-11.479758,-8.711333,11.545284,2.1953874,-11.542303,60.954586,-2.797079,-2.1373725,13.63579,4.737871,6.219289,50.685017,23.876123,-10.104997,-34.995216,-6.2739162,-7.791801,10.962895,-32.492233,-25.021494,22.811829,-26.310154,0.44919905,-7.5944204,-14.523855
121,3.345989465713501,205.2235107421875,78.08829498291016,-4.793007509387933,4.763416575074532,88.76382835563038,-21.55662,5.4529166,1.803462,8.270891,-10.010097,-7.479838,10.294102,0.9038265,-11.586918,66.21924,-4.7905636,-1.6716597,12.634651,3.6437247,6.9505496,48.97192,23.947676,-10.766218,-34.547394,-5.7002954,-7.9971104,11.594865,-31.13826,-24.606514,22.678335,-26.494043,-0.019390216,-7.6709814,-14.714525
122,3.3503479957580566,206.82479858398438,77.6857681274414,-3.3237826582028682,4.626905505328557,89.59814676870332,-22.563265,2.624126,-0.56596076,12.752417,-9.416631,-5.7319465,8.896072,-0.6392754,-11.425724,71.71367,-6.8659782,-0.79174095,11.61692,2.1702914,7.729664,46.923874,24.03556,-11.559433,-33.99166,-5.025106,-8.210264,12.366634,-29.641247,-24.201063,22.573257,-26.698952,-0.57105714,-7.776619,-14.939807
123,3.3336315155029297,208.39759826660156,77.23108673095703,-1.8164034922307168,4.471878788534335,90.36242479598228,-23.366428,-0.2807061,-2.4802568,16.90992,-8.527126,-4.010761,7.4207287,-2.118249,-11.083351,77.22089,-8.96753,0.33924922,10.638936,0.6535124,8.518848,44.657356,24.133278,-12.393632,-33.47991,-4.291475,-8.385541,13.158594,-28.046787,-23.8088,22.526379,-26.860842,-1.1385256,-7.8672028,-15.133419
124,3.280407667160034,209.92477416992188,76.72944641113281,-0.5248790744734936,4.289409330799217,91.00161695312826,-24.029125,-2.7058113,-3.4960525,20.860456,-8.367393,-2.6651695,5.85913,-3.3412368,-10.601207,82.58709,-11.053379,1.538332,9.71238,-0.6481766,9.275971,42.267303,24.234201,-13.168221,-33.135857,-3.5416594,-8.481785,13.845418,-26.415178,-23.4293,22.56546,-26.900845,-1.6521856,-7.90085,-15.22808
125,3.2310712337493896,211.4396514892578,76.16666412353516,0.6028974283852644,4.130057117946959,91.51903141378406,-24.819199,-4.4894366,-3.353867,25.04763,-9.459571,-1.576727,4.1357656,-4.447679,-9.964997,87.98052,-13.191,2.8476534,8.810701,-1.7984982,9.984014,39.729645,24.327974,-13.887436,-32.968582,-2.6659129,-8.491023,14.389736,-24.792347,-23.060688,22.688364,-26.757244,-2.1817453,-7.858513,-15.159394
126,3.1936228275299072,212.9352569580078,75.5877914428711,1.690208101829006,4.009727061573167,91.95559016816063,-25.788315,-5.8072186,-2.4717326,29.60354,-11.414148,-0.48659712,2.2638698,-5.515611,-9.186361,93.46848,-15.4303,4.3270698,7.919462,-2.9210746,10.650905,36.981827,24.408913,-14.596202,-32.886566,-1.6827278,-8.434857,14.852798,-23.144733,-22.699947,22.88116,-26.474302,-2.7363844,-7.7684426,-14.980056
127,3.168745279312134,214.39776611328125,75.03011322021484,2.633676160499092,3.8887454169799924,92.33066483549456,-26.606045,-6.707018,-1.4556767,33.9951,-13.814173,0.5002823,0.31069085,-6.3510914,-8.3362665,98.77321,-17.680973,5.808663,7.042276,-3.8919227,11.279652,34.04985,24.486404,-15.255867,-32.85433,-0.82646114,-8.322352,15.254877,-21.392677,-22.341663,23.154585,-26.147984,-3.1709006,-7.6584177,-14.798569
128,3.1459338665008545,215.8469696044922,74.51561737060547,3.3321856031147465,3.7260681199922105,92.65524823379384,-26.93376,-7.361196,-0.83992195,37.635,-16.179157,1.2132353,-1.6710403,-6.7693725,-7.460932,103.59508,-19.816065,7.137401,6.181939,-4.5897756,11.881997,30.971857,24.579424,-15.827269,-32.851757,-0.33441448,-8.164692,15.620609,-19.455431,-21.98093,23.522648,-25.872187,-3.3390994,-7.5539727,-14.721567
129,3.144402503967285,217.31114196777344,74.05342864990234,3.7446034121539187,3.523197471985987,92.95110186991339,-26.708677,-7.8768034,-0.7107937,40.384613,-18.51239,1.5034238,-3.7390947,-6.656357,-6.5368185,107.935234,-21.774893,8.249422,5.3258476,-4.955837,12.487117,27.65629,24.711052,-16.350365,-32.897243,-0.35781473,-7.9441943,15.972004,-17.247879,-21.607677,24.009018,-25.625315,-3.0813854,-7.451414,-14.86904
130,3.1602632999420166,218.80905151367188,73.65786743164062,3.9460806798626957,3.307267237612261,93.20898033280405,-26.119915,-8.221646,-0.7578493,42.56355,-21.01923,1.4732496,-5.917947,-6.160769,-5.561577,111.954124,-23.612259,9.224233,4.4734025,-5.0827527,13.08578,24.114874,24.886135,-16.843168,-32.994465,-0.7486167,-7.667393,16.300825,-14.822715,-21.227045,24.590406,-25.360798,-2.5245101,-7.3431506,-15.149446
131,3.2030153274536133,220.3377685546875,73.3411865234375,4.001393650765443,3.0732655420213852,93.39505643189857,-25.21221,-8.41339,-0.87803596,44.253895,-23.489613,1.3128823,-8.14127,-5.5118856,-4.643045,115.569405,-25.330507,10.060012,3.6403732,-5.06671,13.638806,20.538862,25.093718,-17.237362,-33.109097,-1.2897466,-7.382079,16.583374,-12.308638,-20.864954,25.215818,-25.130243,-1.9455436,-7.2448,-15.35354
132,3.243811845779419,221.89178466796875,73.09606170654297,3.980538712518766,2.8145146538579886,93.47496280612181,-24.020723,-8.455746,-0.99109006,45.523685,-25.706238,1.2079209,-10.358809,-4.9548483,-3.8555365,118.68867,-26.91794,10.75191,2.842413,-5.0000668,14.106866,17.111046,25.317125,-17.46375,-33.194996,-1.7595352,-7.134389,16.787344,-9.836346,-20.55299,25.841776,-25.002203,-1.6145222,-7.165196,-15.27698
133,3.2744436264038086,223.46755981445312,72.92433166503906,3.872225073345214,2.48725790547419,93.39333930839827,-22.467834,-8.288444,-1.0698031,46.360523,-27.67279,1.183863,-12.600045,-4.48628,-3.1165075,121.291794,-28.327576,11.346663,2.1324537,-4.864153,14.526579,13.7765255,25.540592,-17.539875,-33.220325,-2.1372979,-6.9521427,16.923185,-7.38984,-20.31218,26.473925,-25.013338,-1.6670883,-7.1028733,-14.808179
134,3.2875280380249023,225.06985473632812,72.81888580322266,3.660875765916288,2.10687117123253,93.18620749563026,-20.558372,-7.9416895,-1.1392297,46.732204,-29.482294,1.1614684,-14.926548,-4.0214515,-2.3768542,123.43006,-29.51959,11.823501,1.4869868,-4.620925,14.9081545,10.433981,25.763628,-17.513296,-33.17749,-2.5218368,-6.8062577,16.994354,-4.9104996,-20.147467,27.131714,-25.13155,-1.926951,-7.05399,-14.080955
135,3.303762197494507,226.69537353515625,72.76885986328125,3.409478372842464,1.7551672076727571,92.95688409266515,-18.448133,-7.540986,-1.2264283,46.672497,-31.044912,1.1535351,-17.350977,-3.6877055,-1.7348235,125.10234,-30.485725,12.078526,0.80921483,-4.33775,15.169882,7.1970067,26.002981,-17.357737,-33.062653,-2.869119,-6.655484,16.953732,-2.4649239,-20.058556,27.789047,-25.329111,-2.1937973,-7.0194488,-13.259531
136,3.3244669437408447,228.3425750732422,72.77063751220703,3.17791337953901,1.515523128581647,92.80908292911022,-16.297224,-7.1992307,-1.3755428,46.220303,-32.27154,1.1609612,-19.88817,-3.6163962,-1.2861471,126.29915,-31.221825,12.009007,0.0027077212,-4.0842614,15.234264,4.1963034,26.291586,-17.040369,-32.89782,-3.1367807,-6.4578037,16.755205,-0.10542549,-20.03887,28.4123,-25.599926,-2.2699347,-6.9945292,-12.509214
137,3.359038829803467,230.0240936279297,72.82249450683594,2.9847014910041465,1.412202130808116,92.76634546839564,-14.103404,-6.9322467,-1.6101369,45.308094,-33.201992,1.1768354,-22.613184,-3.900165,-1.0602268,127.01279,-31.715466,11.5082655,-0.9707331,-3.8865554,15.068431,1.4396697,26.664927,-16.50703,-32.6932,-3.2377045,-6.189739,16.311321,2.173032,-20.081951,29.010366,-25.987032,-2.0860488,-6.9810333,-11.845338
138,3.391350746154785,231.7290802001953,72.93034362792969,2.8008189975798694,1.3956778299046595,92.7807922668702,-11.797648,-6.6721377,-1.9186664,43.947556,-33.86481,1.1856962,-25.504473,-4.4567904,-0.9916829,127.238235,-31.963867,10.662425,-2.059103,-3.7109807,14.729415,-1.1209787,27.141876,-15.79106,-32.470493,-3.2216735,-5.8798137,15.675282,4.405837,-20.18129,29.587528,-26.502312,-1.7519858,-6.975917,-11.190556
139,3.4291419982910156,233.4561309814453,73.09495544433594,2.613812738836504,1.4406893380838548,92.84867175281185,-9.441084,-6.3980036,-2.3009777,42.301395,-34.159058,1.1717787,-28.41087,-5.166865,-1.046908,126.97628,-31.997679,9.655648,-3.2192008,-3.5332518,14.2765875,-3.4314642,27.728977,-14.987288,-32.272465,-3.2513535,-5.5615034,15.014989,6.5891957,-20.331806,30.097275,-27.097965,-1.3445375,-6.9647655,-10.567208
140,3.4665327072143555,235.2152557373047,73.32142639160156,2.4081128676604497,1.5236322425433544,92.96386323331296,-7.096662,-6.0890164,-2.7534113,40.538437,-33.989822,1.1302156,-31.175621,-5.903607,-1.2014399,126.2309,-31.84912,8.671645,-4.4058948,-3.3247752,13.771622,-5.4306526,28.421087,-14.183958,-32.14573,-3.4912207,-5.2637577,14.501567,8.719435,-20.53113,30.488972,-27.721928,-0.9409376,-6.9354568,-9.996018
141,3.5105130672454834,236.9971923828125,73.60321807861328,2.1745166817684343,1.6549679004748585,93.17534784324828,-4.7255387,-5.737662,-3.3468208,38.562866,-33.32989,1.0270536,-33.77015,-6.7212095,-1.5304003,124.95952,-31.537714,7.7256665,-5.6567006,-3.060148,13.199781,-7.0951643,29.2213,-13.368018,-32.087044,-3.976498,-4.965779,14.167667,10.82472,-20.779842,30.732323,-28.393656,-0.5103417,-6.881907,-9.495546
142,3.5628483295440674,238.81504821777344,73.94224548339844,1.9146069274800073,1.8431874484528858,93.4679931239527,-2.3270488,-5.335314,-4.061192,36.355503,-32.245045,0.8717155,-36.216133,-7.6565075,-2.0676665,123.17042,-31.091825,6.7353806,-6.9763203,-2.7363832,12.550365,-8.450126,30.131289,-12.487963,-32.09428,-4.6228547,-4.6589475,13.933826,12.906242,-21.077711,30.849459,-29.139088,-0.029312786,-6.8116794,-9.048478
143,3.6258704662323,240.6647491455078,74.32435607910156,1.6311041475865238,2.063131196555519,93.73518353105247,-0.021760266,-4.8744173,-4.7510915,34.204376,-30.78181,0.7419366,-38.44836,-8.550919,-2.7141,120.94618,-30.54833,5.7544518,-8.273672,-2.3646202,11.887546,-9.487456,31.131641,-11.557323,-32.22492,-5.4170055,-4.388638,13.798426,14.906885,-21.42273,30.875452,-29.90951,0.4132736,-6.735019,-8.621291
144,3.7049129009246826,242.53379821777344,74.74374389648438,1.3296315353462416,2.2881618367728467,93.86911595128736,2.0758743,-4.361426,-5.2672086,32.39601,-28.984432,0.72376007,-40.42108,-9.241214,-3.3562667,118.36688,-29.927967,4.8349123,-9.453745,-1.9654592,11.26815,-10.205528,32.189163,-10.596241,-32.512863,-6.3412237,-4.200786,13.754535,16.767529,-21.810184,30.846294,-30.646421,0.7276564,-6.663151,-8.180121
145,3.7872180938720703,244.41493225097656,75.19576263427734,0.989243811185795,2.5154460859587946,93.82991848321244,3.9607303,-3.7675638,-5.5754814,30.990862,-26.797256,0.8326008,-42.126457,-9.695646,-4.0170884,115.41274,-29.21617,3.9361222,-10.490997,-1.5208762,10.691493,-10.556083,33.293312,-9.589309,-32.964817,-7.5218215,-4.1191125,13.84456,18.47345,-22.239428,30.746555,-31.344402,0.8660007,-6.590969,-7.689273
146,3.8642454147338867,246.31753540039062,75.6668701171875,0.6131208906832479,2.757511030528884,93.66959339305537,5.675213,-3.109627,-5.7380786,29.872612,-24.235874,1.0295571,-43.561764,-9.969628,-4.7660537,112.049706,-28.430758,3.067087,-11.428395,-1.026463,10.130323,-10.530264,34.441994,-8.502459,-33.56078,-8.921285,-4.119294,14.049693,20.053686,-22.711226,30.565973,-32.02298,0.8815536,-6.517174,-7.17494
147,3.944436550140381,248.2340087890625,76.14647674560547,0.24718840262628128,3.0099652191378437,93.42160550582491,7.1904874,-2.4706004,-5.7507215,29.0417,-21.431877,1.3158655,-44.71909,-10.039796,-5.5254297,108.332794,-27.614893,2.3442194,-12.276071,-0.5315432,9.591899,-10.197891,35.602585,-7.336905,-34.282543,-10.2720585,-4.1712456,14.267225,21.50665,-23.220877,30.351477,-32.648888,0.8369151,-6.4581723,-6.696219
148,4.033934593200684,250.1605987548828,76.6286392211914,-0.06066225919836808,3.269751793057514,93.12350007314747,8.485201,-1.9325746,-5.614213,28.479357,-18.504923,1.691743,-45.61233,-9.900313,-6.1899233,104.31429,-26.792461,1.8703281,-13.041312,-0.08172602,9.0749445,-9.671233,36.72286,-6.1198745,-35.070576,-11.299285,-4.238046,14.3903885,22.828176,-23.759905,30.14468,-33.17827,0.7927545,-6.4288044,-6.3117895
149,4.12060546875,252.1030731201172,77.10527801513672,-0.31644196767910954,3.538516431619825,92.74990421746935,9.540373,-1.4890648,-5.2413073,28.167786,-15.182179,2.1786475,-46.263058,-9.493588,-6.676104,99.94957,-25.940487,1.6220026,-13.693322,0.3328301,8.571274,-8.971885,37.76858,-4.8479376,-35.884117,-11.889751,-4.325912,14.351516,23.99746,-24.327684,29.93976,-33.57022,0.74432695,-6.4450455,-6.038797
150,4.193962097167969,254.03903198242188,77.56709289550781,-0.5394414845244423,3.818270708635339,92.2959572865923,10.378675,-1.1002595,-4.648733,28.103184,-11.475375,2.7620068,-46.66821,-8.859888,-7.0188193,95.220985,-25.043468,1.544973,-14.229103,0.7337817,8.070178,-8.084429,38.730003,-3.5303788,-36.71229,-12.189801,-4.443391,14.208664,25.03047,-24.927055,29.708166,-33.84932,0.6618305,-6.494508,-5.844542
151,4.256429672241211,255.97836303710938,78.00086212158203,-0.7032327441997089,4.10978488074219,91.83425320080458,11.04678,-0.79802555,-4.007668,28.26522,-7.9156423,3.3931623,-46.821377,-8.15479,-7.2785916,90.20315,-24.121521,1.6825535,-14.696303,1.0992279,7.561609,-7.0944495,39.588306,-2.2403705,-37.535465,-12.310024,-4.554366,14.046822,25.980274,-25.54971,29.451027,-34.066437,0.56936926,-6.5484624,-5.7131515
152,4.312815189361572,257.9251403808594,78.40757751464844,-0.7811916853243502,4.414736260500728,91.43811361628974,11.602176,-0.6220539,-3.5041826,28.614267,-5.032788,4.0275965,-46.72261,-7.529029,-7.525483,84.95669,-23.1898,2.0783248,-15.136236,1.4130284,7.032623,-6.1191053,40.321793,-1.0752163,-38.309086,-12.355041,-4.6226974,13.948066,26.901253,-26.178438,29.16201,-34.26422,0.48843545,-6.5775995,-5.6265574
153,4.368165493011475,259.8808898925781,78.77648162841797,-0.7508153565948043,4.761083989173209,91.11967707033745,12.010261,-0.64911366,-3.2802284,29.126415,-2.9064028,4.7629147,-46.380333,-7.0097556,-7.718407,79.36646,-22.195738,2.8470802,-15.548288,1.6713986,6.439673,-5.1897764,40.916916,-0.06443351,-38.996216,-12.215017,-4.615035,13.917596,27.804558,-26.799154,28.814863,-34.425613,0.4275301,-6.5636196,-5.5924764
154,4.417156219482422,261.8385009765625,79.09754180908203,-0.6219204485361743,5.141675370620247,90.85030563071578,12.275507,-0.8493467,-3.2173524,29.781706,-1.2406791,5.583582,-45.8014,-6.552357,-7.8062434,73.41389,-21.135075,3.9060779,-15.906371,1.8823599,5.7924094,-4.293896,41.373924,0.8010372,-39.60037,-11.86849,-4.5567513,13.910456,28.667795,-27.407259,28.40523,-34.52497,0.36954018,-6.524721,-5.612222
155,4.463153839111328,263.80157470703125,79.37165832519531,-0.43239372921191194,5.503568637951155,90.63716729014885,12.518981,-1.1071353,-3.1285124,30.546797,-0.017467627,6.2872252,-44.99365,-6.1825733,-7.8584566,67.30039,-20.07052,5.016813,-16.211096,2.051305,5.16219,-3.479866,41.699512,1.482509,-40.15172,-11.552658,-4.500025,13.933086,29.492233,-28.000006,27.95874,-34.590473,0.29630503,-6.4863086,-5.6568604
156,4.504925727844238,265.7458801269531,79.5757827758789,-0.21954953766046978,5.792787360233782,90.48442400654174,12.858549,-1.2982025,-2.8332999,31.403809,0.75806236,6.681701,-43.963303,-5.909269,-7.961595,61.21633,-19.061142,5.95294,-16.458933,2.1851716,4.621482,-2.8030026,41.90426,1.936027,-40.67396,-11.504692,-4.498322,13.996074,30.28221,-28.573326,27.500702,-34.65384,0.19131957,-6.473968,-5.6980586
157,4.557311058044434,267.6686096191406,79.69863891601562,0.023066822745806122,6.016443683909216,90.4226274221993,13.3227215,-1.3624445,-2.2405562,32.359947,0.9061718,6.662696,-42.671753,-5.7398877,-8.139422,54.985004,-18.075253,6.6891584,-16.67032,2.276547,4.1632743,-2.2843277,41.994404,2.1275046,-41.172195,-11.912514,-4.582083,14.137607,31.066414,-29.126476,27.006817,-34.733547,0.021367261,-6.4982247,-5.722441
158,4.616002559661865,269.5849304199219,79.7521743774414,0.3251527174718933,6.190155169928028,90.4440580470819,13.834079,-1.3741592,-1.4822633,33.48234,0.45604125,6.3732014,-41.11466,-5.6836624,-8.339773,48.518616,-17.06787,7.3292007,-16.844143,2.3044307,3.7593112,-1.892853,41.975063,2.0811217,-41.640545,-12.607431,-4.720735,14.34249,31.838089,-29.65666,26.4717,-34.814804,-0.19488545,-6.5443044,-5.7466674
159,4.679673194885254,271.4905090332031,79.745361328125,0.6964180571656526,6.2736975256705305,90.49823487397049,14.343837,-1.4207431,-0.71551096,34.845566,-0.28363967,5.995198,-39.37203,-5.7468886,-8.546636,42.180454,-16.07997,7.857758,-16.95179,2.2378569,3.4473429,-1.5890824,41.859795,1.853087,-42.101627,-13.293947,-4.874794,14.541093,32.53361,-30.158623,25.95473,-34.86346,-0.3997265,-6.599844,-5.7847304
160,4.736899375915527,273.3839416503906,79.67253112792969,1.1348349701674552,6.229601844162805,90.53103439825102,14.813042,-1.5982955,-0.09476251,36.491726,-0.9990054,5.7048016,-37.545715,-5.91818,-8.756813,36.380356,-15.170973,8.27434,-16.967535,2.050864,3.2653325,-1.3252403,41.666233,1.5096205,-42.5806,-13.680994,-5.0008035,14.667033,33.078827,-30.62419,25.526966,-34.83858,-0.5363662,-6.6525526,-5.8511753
161,4.80363655090332,275.2608947753906,79.54155731201172,1.6928353885609018,6.022802516166996,90.53567622832746,15.294447,-1.9994891,0.3594987,38.394257,-1.6701258,5.4913826,-35.59549,-6.261981,-9.047706,31.095562,-14.382142,8.557386,-16.882032,1.6747297,3.233558,-1.097704,41.40506,1.0512121,-43.122135,-13.720528,-5.0873737,14.707891,33.47496,-31.049955,25.207903,-34.73535,-0.550498,-6.699451,-5.9543543
162,4.8869194984436035,277.1232604980469,79.35474395751953,2.3649202417395796,5.678746648873249,90.53389006931516,15.781278,-2.5572574,0.71953416,40.56674,-2.459371,5.285624,-33.513153,-6.750662,-9.414883,26.169546,-13.680497,8.743731,-16.716515,1.123068,3.3319016,-0.9018498,41.079662,0.46570563,-43.716133,-13.563968,-5.156536,14.702174,33.73766,-31.43434,24.977541,-34.56213,-0.48851255,-6.7474627,-6.084444
163,4.978114128112793,278.9703063964844,79.11292266845703,3.050038974368854,5.261001918799558,90.50583850630308,16.140743,-3.1413815,0.9874724,43.093044,-3.312502,5.1600204,-31.490274,-7.232466,-9.721147,21.895725,-13.051616,8.910741,-16.478739,0.51183,3.5341177,-0.6932489,40.697662,-0.19980894,-44.3129,-13.220133,-5.213125,14.658494,33.804493,-31.773361,24.846834,-34.29919,-0.44304517,-6.7979326,-6.22648
164,5.067417621612549,280.80853271484375,78.82540893554688,3.6285125982159476,4.843028154836825,90.42568439656176,16.238363,-3.621239,1.1844221,46.042034,-4.167465,5.1725965,-29.738602,-7.5546875,-9.810798,18.609016,-12.498396,9.1121855,-16.174225,-0.022394547,3.8116755,-0.41530928,40.269253,-0.8852912,-44.87074,-12.699338,-5.2623196,14.584326,33.599804,-32.0619,24.836039,-33.91117,-0.50873786,-6.8518057,-6.3662224
165,5.154842853546143,282.6255187988281,78.49070739746094,4.10518029946702,4.421272440293952,90.27769452161965,16.065878,-4.1194067,1.2469362,49.453438,-4.950532,5.3771906,-28.203747,-7.707379,-9.604225,16.205437,-12.033092,9.565796,-15.795316,-0.48992363,4.162254,-0.049699795,39.801395,-1.5871567,-45.410084,-11.889221,-5.3086715,14.473674,33.09989,-32.290977,24.984097,-33.36242,-0.7621255,-6.899477,-6.483248
166,5.252895355224609,284.42529296875,78.11154174804688,4.495547804651659,3.985225898143675,90.05933119530746,15.679938,-4.6733465,1.2298145,53.257977,-5.701298,5.676985,-26.865685,-7.7347455,-9.184654,14.64503,-11.695395,10.157713,-15.321988,-0.9051698,4.5934005,0.37256256,39.297234,-2.3320284,-45.945484,-10.825109,-5.350857,14.326688,32.329388,-32.456482,25.279692,-32.663136,-1.1365788,-6.943194,-6.589976
167,5.361208915710449,286.2134704589844,77.68754577636719,4.660607453208851,3.6051735830119083,89.76304396394976,15.044464,-4.9843984,1.3289717,57.370773,-6.538544,5.9081345,-26.021194,-7.5380745,-8.629455,14.431513,-11.556379,10.431409,-14.738849,-1.1061876,5.0878386,0.82526344,38.758724,-3.1067834,-46.416134,-9.740593,-5.3851466,14.160511,31.28868,-32.56222,25.667957,-31.866072,-1.5101726,-7.0028043,-6.7235384
168,5.530519962310791,287.8675231933594,77.3243637084961,4.482509485493866,3.3359916154491205,89.39541180849433,14.150478,-4.725816,1.699396,61.71269,-7.5953355,5.9458165,-25.927746,-7.024496,-8.0299225,16.012718,-11.653274,9.942092,-14.049854,-0.95086837,5.631574,1.2969276,38.186108,-3.8887856,-46.771133,-8.869453,-5.4063563,13.991461,29.978941,-32.61913,26.094828,-31.028345,-1.7580436,-7.098198,-6.9224434
169,5.699156761169434,289.4761657714844,76.93130493164062,3.918973655437127,3.191673607272508,88.96855981119583,13.027166,-3.707187,2.4325607,66.35998,-8.92201,5.7342033,-26.874126,-6.136087,-7.3151774,20.078218,-11.812552,8.302687,-13.266206,-0.38775763,6.2094483,1.756193,37.58623,-4.6888857,-47.01324,-8.336181,-5.4139442,13.806169,28.411684,-32.624866,26.565212,-30.152855,-1.8687868,-7.2691994,-7.1998324
170,5.825401306152344,291.1177673339844,76.43143463134766,3.1813187028010685,3.0685952570072823,88.54334103013099,11.804704,-2.261154,3.3332093,71.25967,-10.410425,5.3918686,-28.425814,-5.04747,-6.553062,25.846462,-11.8468,5.9209833,-12.453607,0.3484802,6.8457437,2.21055,36.96858,-5.519928,-47.16149,-7.9994025,-5.408322,13.598,26.618135,-32.5756,27.09391,-29.246872,-1.9017378,-7.492467,-7.5357122
171,5.9503889083862305,292.7318420410156,75.86134338378906,2.411377382124602,2.8939430706282794,88.15414365479185,10.549939,-0.6979859,4.1551857,76.21179,-11.996959,5.053541,-29.858656,-3.9189787,-5.9963202,31.690502,-11.879134,3.4755647,-11.661094,1.0977693,7.574097,2.7278993,36.32767,-6.3474803,-47.202507,-7.6933103,-5.3861985,13.397474,24.606157,-32.48781,27.647268,-28.363956,-1.8338511,-7.6959,-7.9210057
172,6.071661949157715,294.3007507324219,75.23875427246094,1.627043553672753,2.652844593272401,87.78261831766727,9.238651,0.79280174,4.703208,81.06224,-13.648313,4.815654,-30.681034,-2.8291337,-5.791057,36.402115,-12.305403,1.5500472,-10.891885,1.844418,8.410526,3.3974314,35.639923,-7.124258,-47.1334,-7.248778,-5.347034,13.236753,22.364172,-32.39503,28.194372,-27.54539,-1.6355631,-7.809638,-8.348855
173,6.1691107749938965,295.8475036621094,74.60059356689453,0.672583807112403,2.3370331072085904,87.36694660565328,7.8604417,2.3839808,4.9618335,85.955864,-15.47968,4.702399,-30.912481,-1.6721559,-5.998956,40.033417,-13.485486,0.19407026,-10.124217,2.754985,9.422616,4.2733774,34.87137,-7.820263,-46.958363,-6.535447,-5.3166847,13.109276,19.790222,-32.340076,28.77457,-26.783524,-1.1746773,-7.8109226,-8.861952
174,6.23639440536499,297.3513488769531,74.02100372314453,-0.4632607186044925,1.9802026658896568,86.9165705924971,6.405,4.153719,5.0237284,90.945564,-17.4972,4.644033,-30.867487,-0.43723255,-6.45112,43.305553,-15.263723,-0.9195511,-9.381493,3.871509,10.565596,5.3407884,34.006035,-8.433435,-46.704742,-5.6659408,-5.2885437,12.996015,16.918268,-32.33107,29.402357,-26.091606,-0.49106532,-7.74429,-9.462586
175,6.286113739013672,298.8432922363281,73.51985168457031,-1.5603610577868183,1.6414776620237934,86.50980148655393,4.809412,5.7715797,4.881503,95.73527,-19.493006,4.589962,-30.571775,0.6778439,-6.9181304,46.170765,-17.352575,-1.7900901,-8.700456,4.9863625,11.686214,6.557005,33.053566,-8.981834,-46.38623,-4.836303,-5.2128153,12.910059,13.9380245,-32.34069,30.000273,-25.521637,0.18039958,-7.637178,-10.076634
176,6.362796783447266,300.3704528808594,73.08547973632812,-2.3924351768071888,1.3827319103885378,86.22524833481651,2.9849718,6.9093585,4.5459256,100.0333,-21.244438,4.5012937,-30.047596,1.5041531,-7.2189903,48.534817,-19.424248,-2.4077685,-8.081569,5.867171,12.6373005,7.8481526,32.045223,-9.516299,-45.991474,-4.2451854,-5.038712,12.868837,11.047375,-32.32339,30.472818,-25.111294,0.59472364,-7.510503,-10.620037
177,6.435905456542969,301.933349609375,72.70486450195312,-2.907312998587206,1.2375344010538685,86.05456225021632,0.8238996,7.460884,3.996959,103.85155,-22.66926,4.411926,-29.293262,2.0304623,-7.3398423,50.32284,-21.495657,-2.6951048,-7.484566,6.429129,13.39508,9.221618,30.992918,-10.075891,-45.4369,-3.983656,-4.707047,12.911275,8.24529,-32.243538,30.801819,-24.843023,0.56588846,-7.3274384,-11.0707245
178,6.496437072753906,303.474365234375,72.41332244873047,-3.2249075173428836,1.1734470622009576,85.96303074862715,-1.6295472,7.599122,3.2530735,107.331604,-23.871994,4.3231716,-28.313942,2.3636265,-7.4073825,51.610397,-23.701687,-2.6825962,-6.8858376,6.7830634,14.027415,10.667917,29.90242,-10.672036,-44.714962,-3.9360466,-4.259455,13.023481,5.4321194,-32.090656,31.02883,-24.661999,0.25578406,-7.084812,-11.461635
179,6.546468257904053,305.0239562988281,72.21057891845703,-3.3826851933968203,1.1538696153464922,85.98344718019155,-4.2607946,7.432361,2.4329548,110.38639,-24.899092,4.19636,-27.136978,2.5209146,-7.469032,52.49725,-25.871511,-2.5252063,-6.2975683,6.981712,14.5327425,12.083041,28.809174,-11.3116045,-43.92055,-3.9947174,-3.796294,13.15239,2.6649384,-31.859467,31.137356,-24.549318,-0.06411193,-6.8533683,-11.7900915
180,6.59410285949707,306.5966491699219,72.07765197753906,-3.422182391196171,1.140518635010317,86.1466998538958,-6.9608083,7.086528,1.6430571,112.92308,-25.79661,3.9951963,-25.788048,2.5133655,-7.551465,53.086884,-27.82736,-2.3642058,-5.7294664,7.077807,14.912354,13.367143,27.764324,-11.990944,-43.15867,-4.05706,-3.417539,13.254296,0.0068658087,-31.554075,31.098017,-24.493275,-0.123784795,-6.70867,-12.053735
181,6.651683807373047,308.1900634765625,72.00630950927734,-3.320179443170416,1.101375471832564,86.55680679259743,-9.77693,6.4843726,0.7976574,114.93924,-26.54973,3.6728308,-24.21825,2.2495549,-7.70514,53.418537,-29.596806,-2.1897006,-5.241697,7.039426,15.191597,14.465228,26.80552,-12.733464,-42.45858,-4.2602935,-3.1419528,13.393934,-2.5331893,-31.178156,30.86072,-24.542402,0.28598616,-6.710129,-12.228447
182,6.7228169441223145,309.7832336425781,71.99551391601562,-3.0711785604220627,1.0579752408229552,87.16405868228064,-12.753267,5.5970798,-0.10989678,116.47079,-27.108078,3.2624493,-22.42059,1.74774,-7.913456,53.42535,-31.244602,-1.9335287,-4.7985873,6.8410583,15.370618,15.450321,25.938368,-13.526473,-41.78096,-4.6199656,-2.9199214,13.592309,-4.9807606,-30.739326,30.428596,-24.683718,0.9694312,-6.8081594,-12.318923
183,6.782917022705078,311.38006591796875,72.04488372802734,-2.7500811058122863,1.0526404790931012,87.7643336044076,-15.777383,4.652735,-0.8804436,117.48657,-27.487793,2.845293,-20.489716,1.1890507,-8.08319,53.0602,-32.651546,-1.6410056,-4.2760754,6.556986,15.417404,16.43593,25.157574,-14.291958,-41.157143,-4.848583,-2.7468843,13.735062,-7.346446,-30.258146,29.872646,-24.80839,1.5947901,-6.915456,-12.369797
184,6.835195541381836,312.9920349121094,72.1571044921875,-2.42980336512669,1.1328440131192712,88.1537094480586,-18.747723,3.9016142,-1.3321376,117.95043,-27.710892,2.5090337,-18.5259,0.7546921,-8.108249,52.282425,-33.70266,-1.364383,-3.559867,6.265181,15.303566,17.551628,24.450779,-14.944511,-40.636948,-4.6562943,-2.6172202,13.700734,-9.638867,-29.757391,29.281473,-24.824442,1.8354499,-6.944563,-12.433511
185,6.873784065246582,314.63427734375,72.33642578125,-2.1127316014338,1.329708919780852,88.25531080232412,-21.704226,3.4425051,-1.3775537,117.819435,-27.786116,2.259469,-16.55304,0.4901196,-7.923065,51.03064,-34.431114,-1.1216375,-2.586698,5.970488,14.999778,18.863377,23.803202,-15.441479,-40.25983,-3.7764661,-2.556009,13.429024,-11.930688,-29.255615,28.692438,-24.672476,1.5020529,-6.860088,-12.522219
186,6.909106731414795,316.3017883300781,72.59012603759766,-1.766320087530641,1.6114355946318866,88.18215153805387,-24.67053,3.1697176,-1.1337777,117.11069,-27.707195,2.0593264,-14.522259,0.29271486,-7.5834675,49.352478,-34.878635,-0.8837012,-1.4420207,5.636487,14.541618,20.312479,23.208052,-15.822622,-40.012684,-2.425173,-2.5659168,12.986462,-14.206165,-28.75808,28.078735,-24.42482,0.8068695,-6.711543,-12.613231
187,6.950859069824219,318.007080078125,72.90927124023438,-1.4071664724951416,1.9361730841152913,88.01777775092553,-27.525568,3.0284376,-0.7353607,115.89166,-27.486322,1.9324818,-12.425935,0.11951949,-7.155321,47.368755,-34.956696,-0.6367247,-0.23024404,5.274665,13.996854,21.833803,22.668854,-16.12936,-39.858192,-1.0363293,-2.6041555,12.442178,-16.33889,-28.262192,27.433384,-24.192602,0.02704057,-6.53873,-12.707498
188,6.99295711517334,319.7460021972656,73.29486846923828,-1.0531441397355645,2.262194071658824,87.84665855031128,-30.15083,2.9495375,-0.31647128,114.23247,-27.135271,1.9042099,-10.258721,-0.06902322,-6.708682,45.19909,-34.573185,-0.3652744,0.94649243,4.8984585,13.430987,23.36394,22.196392,-16.400562,-39.760086,-0.04483208,-2.6174886,11.864553,-18.194221,-27.758257,26.743685,-24.0913,-0.5627691,-6.3822594,-12.808988
189,7.031464576721191,321.5129699707031,73.7317123413086,-0.7018070860819502,2.5849955721592157,87.63536083601981,-32.519245,2.9772065,0.15999216,112.12038,-26.667393,2.0359297,-7.946088,-0.25696394,-6.17914,42.703964,-33.694614,-0.05131789,2.1133058,4.4984045,12.847133,24.94014,21.799335,-16.61338,-39.75359,0.4565361,-2.5630884,11.22041,-19.724922,-27.23219,25.982517,-24.15864,-0.940406,-6.2320714,-12.918917
190,7.062636852264404,323.3093566894531,74.2188949584961,-0.34301478526940377,2.9282505878440825,87.3602435718982,-34.66411,3.126599,0.74946576,109.52525,-26.102787,2.2936358,-5.523912,-0.44282082,-5.550348,39.887947,-32.38164,0.296398,3.3097231,4.0580387,12.21937,26.584232,21.479307,-16.756834,-39.85477,0.68965834,-2.472848,10.493715,-21.01032,-26.679026,25.161274,-24.332834,-1.2365332,-6.073467,-13.035552
191,7.09970235824585,325.14349365234375,74.74530029296875,0.017851983846138522,3.290955923332539,87.12173580772705,-36.5717,3.268148,1.3432903,106.506615,-25.458525,2.5589967,-3.1545107,-0.67410755,-4.9709663,37.09126,-30.681526,0.64822984,4.4536176,3.5874581,11.565874,28.208855,21.238398,-16.881886,-39.999424,0.6942458,-2.3952339,9.775519,-22.093681,-26.10634,24.323137,-24.593464,-1.411771,-5.9401984,-13.160452
192,7.125818729400635,326.9945068359375,75.29832458496094,0.37478103215283287,3.669588468690953,87.02022031261183,-38.236565,3.2676942,1.8306601,103.10734,-24.741589,2.715996,-0.9958249,-0.985315,-4.592446,34.652046,-28.63885,0.9684196,5.463146,3.1029754,10.903181,29.721863,21.080076,-17.03737,-40.11832,0.51071185,-2.3796444,9.155587,-23.008776,-25.535034,23.505283,-24.9274,-1.4216421,-5.866311,-13.294609
193,7.147651672363281,328.8630676269531,75.87108612060547,0.7495477299045339,4.070096525501396,87.10729265047755,-39.670876,3.055619,2.197987,99.29314,-23.933865,2.758236,0.9298456,-1.4121584,-4.485484,32.641186,-26.185465,1.2499384,6.313649,2.5911787,10.222733,31.088547,21.015114,-17.23477,-40.201885,0.045161407,-2.4529681,8.671797,-23.683022,-24.981365,22.658611,-25.414322,-1.0974371,-5.885816,-13.461308
194,7.172186851501465,330.752197265625,76.45199584960938,1.1372893853149553,4.489492718392613,87.32615470315623,-40.861855,2.697037,2.5173523,95.04558,-23.044127,2.749703,2.6939483,-1.9082416,-4.559791,30.906187,-23.33567,1.503057,7.0533557,2.054284,9.524345,32.356133,21.050251,-17.444267,-40.290264,-0.69003576,-2.5781002,8.27028,-24.084253,-24.451904,21.764381,-26.083635,-0.51160663,-5.9734917,-13.654757
195,7.187341690063477,332.6493225097656,77.02799987792969,1.4900049089449467,4.910806765544303,87.61174301941627,-41.77655,2.265052,2.767439,90.41801,-22.106506,2.6570938,4.2763915,-2.3842382,-4.7245197,29.45683,-20.255655,1.7189817,7.7065344,1.5360818,8.832127,33.56138,21.177881,-17.645494,-40.39436,-1.4934934,-2.7129264,7.9012647,-24.309793,-23.957195,20.910513,-26.840294,0.020164989,-6.0726805,-13.831655
196,7.176989555358887,334.5465087890625,77.59697723388672,1.760188962786615,5.319052513363743,87.8963224228374,-42.392162,1.843408,2.9220154,85.45381,-21.14622,2.4569287,5.667775,-2.7564628,-4.8872933,28.277899,-17.090141,1.8945358,8.296853,1.0844164,8.167844,34.741688,21.37624,-17.817528,-40.517242,-2.1601644,-2.818239,7.5133758,-24.461798,-23.505478,20.191797,-27.585,0.18030329,-6.1241755,-13.95212
197,7.162570953369141,336.450439453125,78.14768981933594,1.9631685006205348,5.733986394441143,88.1900612754317,-42.721962,1.380172,2.9361684,80.06955,-20.120739,2.1618898,6.821866,-3.0503733,-5.089428,27.382917,-13.664834,2.0219007,8.807936,0.68634534,7.5215464,35.898956,21.625425,-17.952711,-40.635017,-2.6916814,-2.8966465,7.1109266,-24.548368,-23.10221,19.626282,-28.317385,-0.20975576,-6.1026983,-14.009038
198,7.154169082641602,338.36712646484375,78.66986083984375,2.114627732004434,6.155975579450702,88.51917723490989,-42.769012,0.8658133,2.8140833,74.25279,-19.02533,1.7873064,7.7652793,-3.2937233,-5.355671,26.765802,-9.959183,2.1252844,9.229739,0.3375502,6.8824353,37.015324,21.918966,-18.053604,-40.747494,-3.1716108,-2.9663367,6.7083707,-24.523346,-22.746996,19.175156,-29.082613,-0.944362,-6.041449,-14.024343
199,7.139632225036621,340.2936096191406,79.15823364257812,2.1593529870389134,6.544164337530299,88.83414664666972,-42.511234,0.45198172,2.6090367,68.1354,-17.923265,1.319148,8.609518,-3.4073613,-5.5651,26.34318,-6.3374605,2.242115,9.602406,0.09757802,6.269755,38.098217,22.253399,-18.117851,-40.8899,-3.5194848,-3.0132995,6.271846,-24.406368,-22.433487,18.849445,-29.836317,-1.7726212,-5.968064,-14.003031
200,7.122500419616699,342.2245788574219,79.59773254394531,2.0414519392572044,6.857948758735844,89.08250798864519,-41.93944,0.28775248,2.3820312,61.83742,-16.871574,0.7376394,9.465019,-3.3081982,-5.597772,26.0282,-3.1654742,2.3923216,9.966678,0.02503203,5.701245,39.157166,22.62495,-18.142448,-41.096878,-3.655049,-3.024868,5.7680845,-24.224464,-22.149284,18.663578,-30.524828,-2.445261,-5.910424,-13.950825
201,7.1095147132873535,344.1578063964844,79.99006652832031,1.7316349160511,7.089925590341953,89.24095472973433,-40.96485,0.42914492,2.139735,55.09673,-15.817781,-0.05866198,10.383015,-2.9458957,-5.346929,25.68752,-0.41709813,2.6007898,10.338321,0.14779249,5.165833,40.220623,23.031916,-18.119902,-41.373325,-3.4615862,-2.9897227,5.174108,-23.984312,-21.88741,18.648848,-31.131165,-2.935391,-5.8701224,-13.844107
202,7.095015048980713,346.10821533203125,80.32920837402344,1.2557356962923334,7.257615890749354,89.3299088584409,-39.604393,0.8097031,1.8595091,47.85218,-14.703582,-1.0278876,11.32423,-2.365513,-4.8908734,25.352297,2.0949159,2.848822,10.701999,0.43695888,4.656823,41.284836,23.471046,-18.047152,-41.70505,-3.0127258,-2.9240236,4.511559,-23.683006,-21.64511,18.794672,-31.669151,-3.3658435,-5.835048,-13.686047
203,7.087650775909424,348.07318115234375,80.61418151855469,0.6644566299939241,7.356070450145921,89.36317346062692,-38.00721,1.3720062,1.5863433,40.511513,-13.560141,-1.9823334,12.25521,-1.6521838,-4.3953357,25.198523,4.2389736,3.06909,11.050424,0.8444365,4.2033334,42.312042,23.935732,-17.930145,-42.09964,-2.5113232,-2.8541243,3.8144252,-23.341639,-21.41557,19.053465,-32.119373,-3.7105484,-5.8111267,-13.523378
204,7.099883079528809,350.0379943847656,80.83009338378906,0.007638671002986918,7.380766250118451,89.35480926094463,-36.337208,2.052009,1.366711,33.52722,-12.446626,-2.7370827,13.1360235,-0.8967425,-4.0347815,25.416237,5.869216,3.1809108,11.374588,1.3232176,3.8349953,43.25981,24.418753,-17.776703,-42.56597,-2.1616263,-2.8006248,3.1167665,-22.978504,-21.18872,19.378134,-32.469162,-3.9456909,-5.8035073,-13.402979
205,7.103440761566162,351.9960021972656,80.96823120117188,-0.7821409645307544,7.309824774628718,89.26687731629129,-34.564816,2.9349635,1.1848612,26.803547,-11.37209,-3.2804904,13.987177,-0.06545703,-3.8476062,26.061623,6.8705807,3.072956,11.699763,1.9430974,3.5485837,44.17023,24.922657,-17.56257,-43.147015,-1.9721246,-2.7534308,2.3639874,-22.610504,-20.957499,19.805506,-32.693573,-4.0247684,-5.8182144,-13.345605
206,7.09766960144043,353.92596435546875,81.02281951904297,-1.7499260118172102,7.125811729703137,89.083032809316,-32.60401,4.085256,1.0422342,20.130041,-10.296115,-3.710591,14.843985,0.88497394,-3.7193758,27.052359,7.334676,2.7778559,12.041539,2.752326,3.3417675,45.064068,25.446726,-17.288116,-43.83545,-1.8494793,-2.704468,1.5594362,-22.235367,-20.72081,20.349258,-32.79403,-3.9744349,-5.8496547,-13.319864
207,7.088137626647949,355.826171875,81.01123046875,-2.797309476680372,6.844001976772198,88.8665155466231,-30.57983,5.357824,1.0036708,13.881692,-9.244325,-4.01897,15.648961,1.8649497,-3.6144238,28.420176,7.4052377,2.4352744,12.359601,3.657054,3.2384908,45.85533,25.976088,-17.005545,-44.551598,-1.8422908,-2.671849,0.8241387,-21.83679,-20.480593,20.931664,-32.792934,-3.8863347,-5.8854737,-13.29473
208,7.075521945953369,357.6893615722656,80.95254516601562,-3.7520176331256363,6.521193257456384,88.71873352386946,-28.555937,6.492785,1.1415775,8.2395735,-8.1265135,-4.1960163,16.279066,2.7371445,-3.5472887,30.243967,7.2057014,2.2102642,12.575588,4.492572,3.2454755,46.428288,26.490414,-16.775974,-45.186935,-1.9969968,-2.6725996,0.27701196,-21.399075,-20.24145,21.472363,-32.7189,-3.8493087,-5.9146338,-13.241848
209,7.059211254119873,359.5160217285156,80.86445617675781,-4.496849431031285,6.242706241770278,88.71944543891551,-28.46034,7.36217,1.3742337,7.1146207,-8.959768,-4.0829587,16.600737,3.3992167,-3.6389768,32.668743,6.615847,2.2069192,12.604306,5.1321526,3.3286452,46.717117,26.975979,-16.625755,-45.69504,-2.3890727,-2.717129,-0.042030577,-20.932241,-20.007572,21.975845,-32.5783,-3.8361132,-5.9389515,-13.14801
210,7.037606716156006,361.30877685546875,80.74323272705078,-5.062943510540073,6.0115637547994965,88.85705840841398,-28.678942,7.9721794,1.7687703,6.996487,-9.9961195,-3.742828,16.607023,3.859315,-3.9139595,35.73499,5.550643,2.3290706,12.445981,5.607451,3.4710999,46.74976,27.430244,-16.534489,-46.094643,-2.9675736,-2.7933748,-0.2040584,-20.441359,-19.779243,22.481,-32.357582,-3.8172243,-5.9647393,-13.034939
211,7.005792617797852,363.0639343261719,80.58655548095703,-5.476602123440859,5.7831460277471525,89.1080689238659,-28.712082,8.287708,2.0877488,6.9346085,-10.759034,-3.4459097,16.36242,4.1456795,-4.2669725,39.323784,4.2056127,2.4672847,12.135622,5.9506745,3.6959774,46.546642,27.852749,-16.49119,-46.37537,-3.5908484,-2.8860223,-0.25697383,-19.90333,-19.554623,22.9598,-32.05205,-3.878197,-5.9886575,-12.9267
212,6.974186897277832,364.7995910644531,80.38189697265625,-5.777238453956484,5.501948821535042,89.43664998471061,-28.485954,8.308464,2.0387547,6.904937,-11.2512,-3.4435728,15.961091,4.3200617,-4.577384,43.279583,2.8027344,2.5252318,11.723022,6.204954,4.032427,46.133923,28.246931,-16.484625,-46.52904,-4.117289,-2.9796352,-0.2469082,-19.289736,-19.33252,23.379622,-31.65996,-4.1036167,-6.007132,-12.846456
213,6.928356647491455,366.5027770996094,80.11544799804688,-6.010871313728264,5.13562483090524,89.84912253077546,-27.933683,8.060213,1.5180557,6.9105115,-11.510887,-3.8666778,15.439264,4.518701,-4.8147597,47.622124,1.394479,2.4703536,11.207036,6.415554,4.5055914,45.520992,28.61152,-16.52193,-46.572495,-4.5431814,-3.0648794,-0.18518214,-18.595314,-19.111282,23.719261,-31.164642,-4.615698,-5.9986134,-12.7792
214,6.880979061126709,368.1960754394531,79.7933349609375,-6.143840520337784,4.7211371703496985,90.35593914600838,-27.097837,7.5592895,0.6887668,6.9515862,-11.519105,-4.539899,14.768796,4.7260737,-5.051951,52.367413,-0.11264945,2.398632,10.567534,6.5366488,5.0932693,44.689945,28.94632,-16.611765,-46.501232,-4.9335284,-3.1534953,-0.046910115,-17.832016,-18.889952,23.999844,-30.573298,-5.336683,-5.9728007,-12.719423
215,6.837933540344238,369.8759765625,79.42009735107422,-6.091161424564205,4.303344101024191,90.92190431910717,-26.075054,6.7849464,-0.34431657,7.017107,-11.197874,-5.2572346,13.96514,4.7723656,-5.3135,57.34577,-1.7073929,2.408037,9.835257,6.470827,5.7509007,43.631367,29.260576,-16.74484,-46.285976,-5.2500253,-3.260089,0.17701243,-16.99287,-18.669456,24.250689,-29.92347,-6.0510893,-5.971944,-12.706227
216,6.804172039031982,371.55804443359375,78.98986053466797,-5.7778538098751655,3.9158079267001606,91.50391859174884,-24.957111,5.7112703,-1.4827874,7.0961304,-10.469503,-5.823838,13.062697,4.4666986,-5.6042376,62.39473,-3.384836,2.5719578,9.054211,6.1357336,6.436006,42.340923,29.569601,-16.911497,-45.90733,-5.4556046,-3.3987746,0.49777386,-16.068819,-18.451809,24.498075,-29.253723,-6.543235,-6.0370593,-12.7793665
217,6.795374393463135,373.26397705078125,78.50719451904297,-5.17992550306671,3.511245232289086,92.09471038354083,-23.65068,4.257439,-2.9617143,7.182085,-9.186015,-6.423046,12.172124,3.7562969,-5.9413686,67.51528,-5.1289616,2.9280758,8.254557,5.5119214,7.177137,40.7994,29.887438,-17.140717,-45.333916,-5.489236,-3.606843,0.95677114,-15.021909,-18.232536,24.739708,-28.548853,-6.700856,-6.2095776,-12.975177
218,6.801229476928711,374.968017578125,77.97563934326172,-4.353071858859979,3.063833176922582,92.69498654847598,-22.364761,2.4333055,-4.7756557,7.7953396,-7.7235417,-7.154037,11.309674,2.7698479,-6.2951336,72.75943,-6.9530015,3.4398828,7.4392967,4.651166,7.9846787,39.022686,30.21621,-17.435163,-44.601105,-5.391177,-3.864196,1.5417141,-13.865852,-18.010769,24.9594,-27.7988,-6.6574593,-6.4577107,-13.26256
219,6.728679656982422,376.5846862792969,77.49517822265625,-3.355040778967395,2.6336945171865898,93.26916629470246,-22.493246,0.23808019,-6.4345913,11.525674,-7.7101502,-7.6499395,10.369535,1.5717789,-6.5767574,78.060844,-8.895498,4.0470953,6.616048,3.6006992,8.78878,37.062447,30.551027,-17.742437,-43.78186,-5.276564,-4.099648,2.1806006,-12.670451,-17.79843,25.164425,-27.04517,-6.5636435,-6.711914,-13.58177
220,6.641644477844238,378.19189453125,76.98223114013672,-2.2526578137724496,2.2873412995673794,93.78644636168946,-22.886015,-1.9899138,-7.357663,15.511147,-7.8503356,-7.4901676,9.232845,0.22535127,-6.6930113,83.352776,-10.991783,4.6775217,5.7851057,2.42139,9.518166,34.968227,30.883608,-18.00578,-42.947903,-5.2614584,-4.2441897,2.7963796,-11.503543,-17.61391,25.362856,-26.340265,-6.5651937,-6.900636,-13.877026
221,6.56341552734375,379.7755126953125,76.43102264404297,-0.9625823310101826,2.0504643945387144,94.24170572362745,-23.982569,-4.2131677,-7.2617583,20.464252,-8.214916,-6.1777225,7.8846946,-1.4248043,-6.586694,88.78679,-13.364761,5.3709664,4.940001,1.0310873,10.153597,32.71171,31.20048,-18.23083,-42.07937,-5.451823,-4.302262,3.3676543,-10.430336,-17.476362,25.564083,-25.687078,-6.658028,-7.0241265,-14.1900625
222,6.491214752197266,381.3260803222656,75.8239974975586,0.4296183721293718,1.8634034833846131,94.62932081075303,-25.551514,-6.297014,-6.473253,26.15727,-8.700114,-3.9703314,6.439348,-3.2532413,-6.3032613,94.32299,-15.960881,6.125123,4.107402,-0.46678603,10.734097,30.28005,31.496914,-18.443586,-41.149666,-5.7599545,-4.304908,3.930743,-9.393716,-17.390932,25.764206,-25.075924,-6.7700777,-7.111984,-14.536066
223,6.418354034423828,382.87628173828125,75.19160461425781,1.6764572861153983,1.6995325545682474,94.94557511268785,-27.034842,-7.9743524,-5.477387,31.659298,-9.493218,-1.5467806,4.895183,-4.8774905,-5.89634,99.65455,-18.555496,6.8231554,3.3075356,-1.813829,11.263904,27.728167,31.785677,-18.625277,-40.20356,-6.012064,-4.2235627,4.495954,-8.271283,-17.349678,25.945923,-24.53441,-6.9495792,-7.136273,-14.820574
224,6.3427605628967285,384.40350341796875,74.5853271484375,2.600938501922435,1.5513959094152239,95.20336786509549,-27.941011,-9.203556,-4.77265,36.160484,-10.780696,0.30601588,3.1924527,-6.001838,-5.418156,104.507164,-20.9218,7.3529696,2.540472,-2.8268511,11.745866,25.107449,32.092865,-18.761364,-39.29058,-6.0394197,-4.0270963,5.0760837,-6.9386473,-17.336193,26.085789,-24.089277,-7.247271,-7.070133,-14.946939
225,6.282597064971924,385.91619873046875,74.07376861572266,3.214496843828238,1.4983564118647925,95.45138505841247,-28.301533,-10.13837,-4.4612236,39.614418,-12.8449955,1.3219758,1.159993,-6.5942373,-4.836075,108.96093,-23.006084,7.6375856,1.7722198,-3.5203834,12.136828,22.328882,32.4539,-18.8895,-38.357918,-5.7467713,-3.636236,5.748143,-5.3146744,-17.334003,26.140076,-23.746504,-7.8368177,-6.8375754,-14.821794
226,6.257693290710449,387.4478454589844,73.66053009033203,3.64307394310428,1.5407023350493072,95.69153994877955,-28.39857,-10.867256,-4.309965,42.518444,-15.548686,1.9037783,-1.1796495,-6.85549,-4.151829,113.16964,-24.923979,7.74362,1.0027399,-4.027053,12.445342,19.374132,32.879303,-19.04016,-37.400642,-5.256502,-3.0862586,6.4877496,-3.4643288,-17.341787,26.103329,-23.496004,-8.644422,-6.4816604,-14.509933
227,6.268849849700928,388.9991455078125,73.35186767578125,3.889390994913055,1.5519883192926438,95.85020046824707,-28.109966,-11.330521,-4.275949,44.890797,-18.422962,2.216258,-3.6115584,-6.8687754,-3.4750261,116.9306,-26.666798,7.7429967,0.28806168,-4.34912,12.762205,16.412518,33.34654,-19.173534,-36.539177,-4.719509,-2.5182598,7.1519094,-1.485158,-17.367947,26.02278,-23.34783,-9.35045,-6.150697,-14.158179
228,6.306363105773926,390.5580139160156,73.1329116821289,3.9537085294715064,1.401487527734379,95.85528818270079,-27.301207,-11.468107,-4.314328,46.714504,-20.980608,2.4336896,-5.9410486,-6.7354765,-2.908316,120.042656,-28.207273,7.6961627,-0.33467317,-4.48718,13.180428,13.636665,33.814156,-19.210712,-35.89324,-4.2739563,-2.0783489,7.5925455,0.5066159,-17.424688,25.97425,-23.299156,-9.629288,-5.9847474,-13.923016
229,6.342577934265137,392.1301574707031,73.00945281982422,3.773813652101927,0.9772736339919575,95.64932518545996,-25.80912,-11.168575,-4.4085836,47.96383,-23.205738,2.5268598,-8.136859,-6.4003468,-2.43741,122.44958,-29.48352,7.619488,-0.8339291,-4.367415,13.833137,11.095894,34.24805,-19.078669,-35.528137,-3.8812778,-1.8157442,7.72636,2.5305161,-17.514338,25.971899,-23.35118,-9.261076,-6.0651007,-13.868249
230,6.3443756103515625,393.7117004394531,72.97795867919922,3.3826019848433297,0.36981809284695105,95.28726237730706,-23.734724,-10.526077,-4.522022,48.639088,-25.315544,2.4511175,-10.348517,-5.8628097,-2.015206,124.26557,-30.465141,7.470369,-1.2659429,-4.019712,14.639924,8.691876,34.643124,-18.8088,-35.344704,-3.4761226,-1.6530479,7.6341257,4.6106625,-17.637878,26.001476,-23.484388,-8.462805,-6.2987847,-13.905862
231,6.331059455871582,395.3266906738281,73.02442932128906,2.9243457205177767,-0.2505458802913194,94.86507142978685,-21.336088,-9.777657,-4.613432,48.753944,-27.166756,2.3489912,-12.651005,-5.317189,-1.6710914,125.53371,-31.1835,7.2424674,-1.7209901,-3.6020465,15.373333,6.401465,35.006603,-18.46815,-35.22856,-3.1512692,-1.5489792,7.4175067,6.636093,-17.808514,26.099365,-23.662811,-7.5609984,-6.560489,-13.968016
232,6.303851127624512,396.9689025878906,73.14866638183594,2.5391595047003745,-0.7097053656667668,94.47596970937734,-18.881907,-9.136097,-4.6896243,48.33252,-28.614023,2.3383076,-15.113706,-4.953276,-1.4289608,126.289085,-31.680496,6.930651,-2.2809813,-3.271016,15.808201,4.213859,35.354336,-18.121925,-35.080486,-3.0017688,-1.4601871,7.178221,8.505849,-18.04446,26.302153,-23.86866,-6.879492,-6.7230434,-13.994861
233,6.283772945404053,398.64959716796875,73.34210968017578,2.2742628613747775,-0.9829415091883987,94.08668434679969,-16.352734,-8.618402,-4.7388787,47.276062,-29.67964,2.4286532,-17.80069,-4.846079,-1.2702688,126.509796,-31.955906,6.512118,-2.9321024,-3.0788388,15.889425,2.1168652,35.702587,-17.76296,-34.888065,-3.1258552,-1.4088099,6.924738,10.186381,-18.365425,26.656279,-24.111656,-6.5178576,-6.7389207,-14.016965
234,6.263338088989258,400.3541564941406,73.60321044921875,2.0512410137616772,-1.1618405673207826,93.67218046920152,-13.639523,-8.111055,-4.786878,45.622288,-30.428495,2.5417857,-20.645496,-4.8817005,-1.1992345,126.17286,-31.994762,6.008214,-3.642698,-2.9347079,15.746828,0.13449854,36.05878,-17.353487,-34.718975,-3.4490721,-1.4059103,6.611564,11.748096,-18.774483,27.127563,-24.423006,-6.292702,-6.679882,-14.056807
235,6.248561859130859,402.099853515625,73.92977905273438,1.8258093124770363,-1.2423392527127646,93.3348995610453,-10.886903,-7.610119,-4.921913,43.608932,-30.77785,2.6464906,-23.511383,-4.983783,-1.2714334,125.3135,-31.8295,5.474309,-4.4606066,-2.7774076,15.432634,-1.6896694,36.42379,-16.91927,-34.596924,-3.807195,-1.3908588,6.2614245,13.243453,-19.259865,27.62938,-24.810963,-6.106188,-6.596138,-14.0440645
236,6.221105098724365,403.85626220703125,74.30907440185547,1.5490213108657944,-1.217239052783467,93.17539806270413,-8.244038,-7.105386,-5.227496,41.47817,-30.650166,2.7235394,-26.255018,-5.0833654,-1.5381347,123.9729,-31.500011,4.9682364,-5.426628,-2.5441177,14.997022,-3.3317502,36.789433,-16.499117,-34.526638,-4.0368567,-1.3045394,5.899902,14.730227,-19.799656,28.065685,-25.277742,-5.8634243,-6.537758,-13.904156
237,6.1981658935546875,405.6406555175781,74.74445343017578,1.199306284870991,-1.0581582994372558,93.24812644601842,-5.689445,-6.5906405,-5.789326,39.12272,-30.01072,2.7554238,-28.864508,-5.215952,-2.0774257,122.11248,-31.02606,4.4729376,-6.588403,-2.2029264,14.400384,-4.7884426,37.143463,-16.101944,-34.481995,-4.0336547,-1.096401,5.498542,16.208193,-20.384026,28.423426,-25.801308,-5.55699,-6.520384,-13.578073
238,6.169128894805908,407.4536437988281,75.22985076904297,0.798356136928186,-0.7736595528658134,93.48658838985094,-3.1858084,-6.051358,-6.5391307,36.49773,-28.925037,2.74188,-31.346731,-5.412684,-2.8622735,119.71924,-30.433409,3.9768803,-7.9016004,-1.7688346,13.638924,-6.092001,37.48064,-15.716732,-34.446655,-3.901255,-0.8110831,5.0553865,17.653616,-21.010532,28.740189,-26.375883,-5.235472,-6.5146837,-13.115094
239,6.149686336517334,409.28564453125,75.75025177001953,0.3703763639718009,-0.40913280668435387,93.80705002401541,-0.866138,-5.473397,-7.3250537,33.949974,-27.464073,2.7211914,-33.61819,-5.599624,-3.7703176,116.888054,-29.755066,3.5425282,-9.265966,-1.2579176,12.812452,-7.2665524,37.802467,-15.353009,-34.460724,-3.7883291,-0.5315542,4.638219,19.087809,-21.665485,28.993172,-27.021736,-4.8916445,-6.504245,-12.599994
240,6.1515350341796875,411.132568359375,76.29436492919922,-0.055378493073297265,-0.01173422503905072,94.12648188789696,1.1455466,-4.85298,-7.9984484,31.829973,-25.700825,2.7507052,-35.61792,-5.698323,-4.6651244,113.70695,-29.00879,3.2276726,-10.577127,-0.70023865,12.013269,-8.342883,38.115517,-15.028833,-34.554462,-3.8485036,-0.33823735,4.3192105,20.527723,-22.3287,29.157993,-27.75062,-4.5193853,-6.47388,-12.115407
