unveil-humanoid-operators/unveil-humanoid-operators.github.io/feature-analysis-animation/data/feature_matrix_instances/age_waist_mean_vel_jogging_A107_jog_ff_stop_180_R_002__A107.csv
Frame,root_translateX,root_translateY,root_translateZ,root_rotateX,root_rotateY,root_rotateZ,left_hip_pitch_joint_dof,left_hip_roll_joint_dof,left_hip_yaw_joint_dof,left_knee_joint_dof,left_ankle_pitch_joint_dof,left_ankle_roll_joint_dof,right_hip_pitch_joint_dof,right_hip_roll_joint_dof,right_hip_yaw_joint_dof,right_knee_joint_dof,right_ankle_pitch_joint_dof,right_ankle_roll_joint_dof,waist_yaw_joint_dof,waist_roll_joint_dof,waist_pitch_joint_dof,left_shoulder_pitch_joint_dof,left_shoulder_roll_joint_dof,left_shoulder_yaw_joint_dof,left_elbow_joint_dof,left_wrist_roll_joint_dof,left_wrist_pitch_joint_dof,left_wrist_yaw_joint_dof,right_shoulder_pitch_joint_dof,right_shoulder_roll_joint_dof,right_shoulder_yaw_joint_dof,right_elbow_joint_dof,right_wrist_roll_joint_dof,right_wrist_pitch_joint_dof,right_wrist_yaw_joint_dof
0,-0.2738519012928009,1.128830909729004,74.6800308227539,0.7590215752615694,11.84061528028837,-89.91818207200163,-36.184387,-7.2707853,-7.018733,31.116564,-9.704953,-6.752705,16.947918,4.3726993,4.908101,36.28005,11.858553,13.1714945,17.668541,0.36597988,6.999482,50.478027,30.438026,-17.019678,0.17388706,-7.4374304,-10.006856,-13.0468855,-37.48285,-22.568165,31.437914,-26.852797,5.940616,-12.720736,10.877488
1,-0.31961292028427124,-0.5462114214897156,74.37061309814453,1.3942505924370043,11.756431608994435,-89.34098401751004,-36.07394,-8.377392,-6.8756995,33.888863,-11.541011,-4.5458393,15.273615,3.601512,3.7956944,40.928596,9.764586,13.499161,16.830555,-0.5360941,7.4743958,48.052135,30.34389,-17.25619,0.6494724,-6.37758,-10.001871,-11.469905,-34.625046,-22.673637,31.631096,-27.328604,5.7983837,-12.976162,10.894485
2,-0.35289615392684937,-2.166923761367798,74.03165435791016,1.9899079958703445,11.657225657624979,-88.77039725772397,-35.961998,-9.546674,-6.7661176,36.623028,-13.246517,-2.2427957,13.687284,2.8963296,2.7551851,45.554214,7.6332226,13.831849,16.008778,-1.3783255,7.9340124,45.61572,30.136192,-17.521173,1.2167358,-5.235315,-9.962208,-9.840185,-31.804703,-22.820036,31.922056,-27.8804,5.6697545,-13.203787,10.930754
3,-0.3824647068977356,-3.770380735397339,73.65267181396484,2.5671056576337774,11.519507988547048,-88.2220232569309,-35.74937,-10.73506,-6.64444,39.201523,-14.917754,-0.16186677,12.0557575,2.06691,1.6327765,50.260452,5.530372,14.1087475,15.160294,-2.1611514,8.452,43.127296,29.838615,-17.77049,1.6975067,-4.124307,-9.906014,-8.326137,-28.983305,-22.988565,32.213043,-28.335955,5.5438523,-13.505927,10.893831
4,-0.395661860704422,-5.356884956359863,73.23495483398438,3.1521330728068473,11.32120922837242,-87.70934290796973,-35.336285,-11.879315,-6.479347,41.52699,-16.700027,1.3865674,10.260421,0.8790371,0.30234152,55.14447,3.5294955,14.249751,14.239,-2.8902135,9.103073,40.454533,29.473795,-17.985195,1.9935635,-3.1858368,-9.866101,-7.090919,-26.118927,-23.16681,32.407257,-28.534754,5.4224467,-13.985756,10.688377
5,-0.41093239188194275,-6.9253010749816895,72.78058624267578,3.772854358258049,11.030727896276824,-87.24923683815865,-34.70847,-12.933289,-6.216341,43.701,-18.78822,2.2176938,8.342745,-0.91672295,-1.3780714,60.33886,1.6499171,14.317207,13.258263,-3.5904143,9.926457,37.574623,29.050325,-18.162228,2.0741167,-2.5069788,-9.879254,-6.22063,-23.184557,-23.342161,32.529842,-28.335773,5.387194,-14.781065,10.244122
6,-0.4212227165699005,-8.483013153076172,72.3100814819336,4.42707597222617,10.673979489095323,-86.82496829767149,-33.917713,-13.901893,-5.8969746,45.77076,-21.1134,2.5408359,6.3856163,-3.2425866,-3.2440627,65.78136,-0.16391072,14.26664,12.231046,-4.284212,10.864493,34.548965,28.573473,-18.299118,1.9998822,-2.0165768,-9.937085,-5.6100693,-20.212423,-23.502888,32.619663,-27.838669,5.403822,-15.802816,9.626331
7,-0.43988552689552307,-10.00747299194336,71.84664154052734,5.0950354355566265,10.314826986644263,-86.3990399473313,-32.96817,-14.803064,-5.6351495,47.565323,-23.434416,2.6392264,4.323696,-5.8161926,-4.9524555,71.24282,-1.9495007,13.874752,11.126046,-4.972039,11.844162,31.398422,28.06272,-18.378464,1.7731332,-1.5947721,-10.005506,-5.13677,-17.19903,-23.641975,32.59156,-27.274618,5.2890797,-16.810293,8.937186
8,-0.4664258658885956,-11.491378784179688,71.42047119140625,5.748890108666773,10.017791181321737,-85.9343355873374,-31.87326,-15.687071,-5.5414014,48.901657,-25.498224,2.7969866,2.0359879,-8.268894,-6.183709,76.48018,-3.7370698,12.976437,9.920837,-5.6445346,12.790387,28.127548,27.554192,-18.398466,1.3991253,-1.1287147,-10.044186,-4.6791124,-14.118456,-23.761599,32.344276,-26.888464,4.874805,-17.557693,8.277792
9,-0.5060996413230896,-12.953701972961426,71.03697967529297,6.427810134836517,9.829041734947218,-85.3992865781775,-30.657291,-16.629942,-5.6255755,49.67918,-27.242136,3.069281,-0.656845,-10.517397,-6.8146744,81.57457,-5.534564,11.427506,8.61444,-6.3462844,13.706491,24.618,27.07218,-18.418432,0.8976028,-0.6052844,-10.052736,-4.1645317,-10.876583,-23.857754,31.778938,-26.768436,4.003983,-17.944607,7.588681
10,-0.5580355525016785,-14.428816795349121,70.71086120605469,7.131024659319347,9.706889567817692,-84.81991748412767,-29.314194,-17.587984,-5.833257,50.015896,-28.800283,3.3191996,-3.6958728,-12.667597,-6.9991097,86.59652,-7.3274617,9.389486,7.23742,-7.0740404,14.607506,20.909538,26.62572,-18.43126,0.23819046,-0.09475502,-10.047206,-3.6679318,-7.4564505,-23.930563,30.962292,-26.800419,2.8164918,-18.103365,6.8466234
11,-0.6363083124160767,-15.9149169921875,70.42903900146484,7.758976126422695,9.587925344368188,-84.25439789830389,-27.80729,-18.447958,-6.176384,50.05524,-30.213993,3.5452225,-6.8753996,-14.583286,-6.8814735,91.26603,-9.082931,7.1874604,5.828481,-7.7310286,15.441614,17.203432,26.237934,-18.369734,-0.61609036,0.39303765,-10.009505,-3.2954884,-3.926437,-23.998604,30.015165,-26.943686,1.5869093,-18.14191,6.2087007
12,-0.7216837406158447,-17.43808364868164,70.2004165649414,8.2122624797464,9.410534151068052,-83.76168119939504,-26.092392,-19.085558,-6.6652875,49.938465,-31.526426,3.7430801,-9.977422,-16.160055,-6.643181,95.30642,-10.76403,5.1387286,4.438448,-8.220986,16.173168,13.662942,25.94803,-18.206,-1.6749353,0.85082203,-9.923132,-3.15796,-0.34229043,-24.095243,29.01402,-27.185215,0.584063,-18.179081,5.8283606
13,-0.8068631291389465,-18.983001708984375,70.02544403076172,8.472011094427012,9.126846249899579,-83.36058482775083,-24.122456,-19.47273,-7.303025,49.73014,-32.794968,3.9118817,-12.994275,-17.342365,-6.2920213,98.721565,-12.389737,3.2343554,3.135243,-8.52894,16.89804,10.196347,25.771526,-18.007349,-2.9416072,1.4295449,-9.744616,-3.3767273,3.4830928,-24.227201,27.788675,-27.682163,-0.19092149,-18.239084,5.758196
14,-0.9065906405448914,-20.537830352783203,69.89366912841797,8.58656648179323,8.78439433106672,-83.01952435314506,-21.93476,-19.652584,-8.073926,49.35258,-33.989296,4.054442,-16.053139,-18.16131,-5.796622,101.64831,-13.944653,1.3571631,1.9123877,-8.697229,17.626877,6.682082,25.711632,-17.876795,-4.370617,2.069006,-9.501647,-3.8633235,7.6266675,-24.387182,26.260475,-28.509684,-0.8465445,-18.270313,5.9085727
15,-1.0133366584777832,-22.1201114654541,69.81407928466797,8.559137159170985,8.463541980228305,-82.72025796467713,-19.609331,-19.619633,-8.954333,48.73286,-35.015835,4.1663027,-19.11394,-18.693895,-5.3223176,104.0091,-15.343965,-0.367897,0.72648466,-8.714129,18.214262,3.2158985,25.797768,-17.861088,-5.8874173,2.4451122,-9.279541,-4.4129033,11.884034,-24.595346,24.599228,-29.551826,-1.288041,-18.281277,6.215947
16,-1.1124107837677002,-23.734947204589844,69.79041290283203,8.394964541473803,8.243455890514644,-82.44322130972343,-17.225033,-19.36647,-9.920894,47.79621,-35.7863,4.241522,-22.126553,-19.04061,-5.029145,105.719055,-16.50271,-1.8154185,-0.46927276,-8.573233,18.522554,-0.06653681,26.075613,-17.966661,-7.4635634,2.2344007,-9.153664,-4.8202453,16.037998,-24.894321,22.985403,-30.686672,-1.4256046,-18.276209,6.615278
17,-1.202568769454956,-25.373310089111328,69.82521057128906,8.067508001361684,8.152592821417224,-82.14857193886392,-14.828386,-18.858421,-11.01344,46.559303,-36.38305,4.263259,-25.119995,-19.238455,-5.0192585,106.73579,-17.391382,-2.9511569,-1.7262497,-8.226397,18.522346,-3.1606932,26.578293,-18.209278,-9.200835,1.0751247,-9.179286,-4.9898214,20.158558,-25.31201,21.405067,-32.017105,-1.1649983,-18.227251,7.122984
18,-1.2867772579193115,-27.069589614868164,69.92826080322266,7.586007412042085,8.144874585368788,-81.85627720260136,-12.383774,-18.093895,-12.208572,45.063,-36.82789,4.2417054,-28.084093,-19.25669,-5.230747,107.1041,-18.042963,-3.8318043,-3.0073261,-7.6851263,18.335382,-6.1003604,27.301952,-18.584463,-11.155534,-0.79398596,-9.301749,-5.036761,24.407818,-25.835936,19.723835,-33.675385,-0.5638724,-18.135664,7.7463655
19,-1.3638288974761963,-28.81688690185547,70.09713745117188,7.007531555121252,8.186730588531043,-81.6380032053072,-9.847263,-17.122177,-13.386874,43.265224,-36.938522,4.198143,-30.906803,-19.094149,-5.5763903,106.862854,-18.464111,-4.4738464,-4.226716,-7.0306683,18.041586,-8.802618,28.233889,-19.038631,-13.236915,-2.7821956,-9.426957,-5.075495,28.673914,-26.453096,17.961403,-35.536736,0.22748637,-18.048466,8.415772
20,-1.4418528079986572,-30.6039981842041,70.32815551757812,6.389088831159309,8.243198876568384,-81.56629563745696,-7.173066,-15.996603,-14.429836,41.118946,-36.53426,4.143251,-33.482162,-18.738325,-5.9513106,106.05203,-18.661268,-4.8856244,-5.3083215,-6.351573,17.704473,-11.18523,29.364243,-19.496717,-15.34746,-4.2912874,-9.457837,-5.2246614,32.79655,-27.160776,16.164362,-37.42285,1.0520333,-18.015636,9.067363
21,-1.5128328800201416,-32.44612503051758,70.61302947998047,5.7338940553912074,8.278778465617172,-81.6831657643865,-4.2199774,-14.6936455,-15.338917,38.415314,-35.595856,4.0828767,-35.745087,-18.199665,-6.372698,104.62644,-18.582176,-5.0251417,-6.216666,-5.652608,17.335558,-13.2326565,30.712572,-19.94332,-17.531925,-5.1675234,-9.370854,-5.511942,36.774307,-27.98909,14.327641,-39.329624,1.9283587,-18.078503,9.719221
22,-1.582053303718567,-34.34602355957031,70.94352722167969,5.02015423490188,8.315788280571642,-81.9456419952273,-1.0822508,-13.204059,-16.12877,35.266518,-34.227528,3.9878297,-37.741676,-17.47361,-6.888698,102.57506,-18.247849,-4.888108,-7.0154724,-4.887628,16.909672,-14.964271,32.292484,-20.362322,-19.87327,-5.726244,-9.218625,-5.8795724,40.710423,-28.950043,12.40431,-41.34707,2.9224913,-18.195915,10.394637
23,-1.66410231590271,-36.3040657043457,71.30802154541016,4.268202895426405,8.405162293464402,-82.30007872267451,1.9495434,-11.622894,-16.71582,32.10111,-32.431854,3.8231235,-39.539425,-16.521614,-7.424632,99.991135,-17.778477,-4.541593,-7.773034,-4.077374,16.420841,-16.352596,34.083958,-20.673582,-22.3094,-6.0578837,-9.014571,-6.3204913,44.548912,-30.012291,10.399971,-43.393444,3.9352582,-18.299292,11.046111
24,-1.7650423049926758,-38.30575942993164,71.6962890625,3.497772542151867,8.598058201676267,-82.69362166059737,4.603673,-10.053832,-17.0451,29.34176,-30.196878,3.5702348,-41.20962,-15.312793,-7.900014,96.966385,-17.293032,-4.0601335,-8.550374,-3.2466304,15.85487,-17.381296,36.052135,-20.807087,-24.73811,-6.239436,-8.771391,-6.8311353,48.18171,-31.122396,8.346882,-45.33184,4.851294,-18.324024,11.628377
25,-1.8780791759490967,-40.330810546875,72.09484100341797,2.674035028613886,8.913105985423769,-83.15788061199868,6.874451,-8.476752,-17.08473,27.04239,-27.42749,3.2411299,-42.76172,-13.757912,-8.299353,93.448135,-16.81171,-3.4346807,-9.284336,-2.359702,15.178903,-18.10687,38.20384,-20.779474,-27.086252,-6.1146855,-8.440282,-7.51999,51.588596,-32.277046,6.197759,-47.137848,5.658368,-18.25262,12.14801
26,-1.995779037475586,-42.37360763549805,72.49762725830078,1.8069621985679567,9.310867314716763,-83.71434164149449,8.885496,-6.9030204,-16.89106,25.047998,-24.184534,2.863683,-44.140606,-11.912563,-8.629136,89.39708,-16.281307,-2.6390707,-9.944739,-1.4197226,14.413167,-18.536877,40.552383,-20.595922,-29.406364,-5.687765,-8.041035,-8.359413,54.85555,-33.486713,3.9192698,-48.870766,6.3994956,-18.122421,12.630765
27,-2.124748468399048,-44.40898132324219,72.9011001586914,0.9792700481801533,9.76089368016584,-84.28786025795895,10.591509,-5.4655843,-16.586279,23.42192,-20.64531,2.4583387,-45.312096,-9.986628,-8.860908,84.9068,-15.723528,-1.7545698,-10.642147,-0.51289076,13.614928,-18.572338,43.059654,-20.167585,-31.729523,-5.269527,-7.6803536,-9.138817,57.940662,-34.704224,1.6156038,-50.4523,7.0318146,-17.95428,13.063553
28,-2.2691845893859863,-46.44740676879883,73.29996490478516,0.2696450267175161,10.241137914393851,-84.79827514731262,11.959435,-4.2716208,-16.295149,22.193039,-16.96106,2.0294538,-46.256035,-8.185056,-8.972746,80.070564,-15.153914,-0.8620159,-11.467354,0.27584645,12.83346,-18.145775,45.658855,-19.431368,-34.0287,-5.167699,-7.4517994,-9.6461115,60.72744,-35.85703,-0.5773322,-51.739952,7.506811,-17.7682,13.446284
29,-2.4185140132904053,-48.499305725097656,73.68851470947266,-0.32916109524012765,10.830106971650983,-85.2198758332122,12.88186,-3.3028808,-16.039423,21.375467,-12.950737,1.5437008,-47.020985,-6.5142736,-8.957928,74.740524,-14.543594,0.017602054,-12.404315,0.9776269,11.982515,-17.352106,48.333485,-18.43462,-36.15033,-5.418531,-7.381644,-9.837457,63.2955,-36.892925,-2.6785579,-52.75439,7.729799,-17.551235,13.830619
30,-2.5617058277130127,-50.57484436035156,74.05511474609375,-0.8476517274747777,11.519340085028828,-85.5847614836097,13.439811,-2.5011885,-15.811258,20.909306,-8.574051,0.9770267,-47.586178,-4.9161353,-8.810405,68.895424,-13.891631,0.89966595,-13.33807,1.6236655,11.071006,-16.300264,51.073616,-17.252243,-38.057888,-5.8728027,-7.413242,-9.820639,65.47988,-37.828655,-4.7660584,-53.368866,7.8365507,-17.297277,14.241502
31,-2.6975932121276855,-52.6669807434082,74.39634704589844,-1.2570233255546512,12.160621720418963,-85.89713975941572,13.895616,-1.8859797,-15.671985,20.66083,-4.1603184,0.34319568,-47.83403,-3.4718924,-8.533633,62.79177,-13.233415,1.7661141,-14.314719,2.1342444,10.240348,-14.802331,53.7893,-15.761409,-39.87182,-6.538164,-7.510065,-9.610817,67.36411,-38.64494,-6.630437,-53.772778,7.7699895,-17.048162,14.587375
32,-2.818336009979248,-54.76594543457031,74.70658111572266,-1.5353961593238192,12.601080400431758,-86.16895436994398,14.505023,-1.4830548,-15.649466,20.501152,-0.03783634,-0.30547556,-47.66029,-2.2413173,-8.140014,56.691593,-12.598699,2.607047,-15.317998,2.435024,9.649038,-12.781923,56.34539,-13.91953,-41.649082,-7.422014,-7.6401844,-9.233162,68.82639,-39.343174,-8.101846,-53.96086,7.590044,-16.840826,14.798106
33,-2.938572645187378,-56.87054443359375,74.98619079589844,-1.635025527232099,12.793131350712699,-86.39037527577588,15.372787,-1.3510046,-15.819535,20.254425,3.9655402,-0.92403775,-46.97534,-1.2388638,-7.5514874,50.417137,-11.962952,3.4016633,-16.324657,2.4846857,9.310824,-10.35255,58.648838,-11.84134,-43.23159,-8.729782,-7.821685,-8.620464,69.927605,-39.934616,-9.186919,-53.92714,7.2421165,-16.674833,14.842685
34,-3.038486957550049,-58.99209976196289,75.21326446533203,-1.6890677503045572,12.86406196694589,-86.47975556660796,16.000284,-1.3954424,-16.20609,20.69355,7.6162257,-1.5618819,-45.845966,-0.42908168,-6.9441223,43.781136,-11.256195,4.139766,-17.36888,2.4844916,9.120586,-7.739925,60.659283,-9.694075,-44.47199,-10.372436,-8.073473,-7.8154955,70.747475,-40.428516,-9.993746,-53.695126,6.735879,-16.531107,14.764604
35,-3.1224205493927,-61.127174377441406,75.39703369140625,-1.6039094739403699,12.798065188836707,-86.50110157257625,16.766651,-1.5963585,-16.602253,21.115616,11.029396,-2.2138438,-44.397285,0.11622035,-6.291319,37.211796,-10.502929,4.894188,-18.360598,2.2975943,9.045074,-5.1048975,62.3177,-7.6051044,-45.40392,-11.901705,-8.348131,-7.012967,71.20026,-40.822437,-10.433874,-53.298553,6.1898932,-16.418541,14.594307
36,-3.183978319168091,-63.261497497558594,75.54063415527344,-1.3587952053597054,12.600374743043279,-86.49480383577,17.831095,-1.8929389,-16.82496,21.25336,14.074275,-2.8871906,-42.799297,0.36863565,-5.6654644,31.18532,-9.7478485,5.745352,-19.237349,1.877798,9.052453,-2.5976033,63.564915,-5.7057047,-46.091694,-12.864216,-8.57344,-6.403881,71.2084,-41.114204,-10.42796,-52.77611,5.720289,-16.346737,14.360108
37,-3.2381505966186523,-65.375,75.6374282836914,-0.891329557538764,12.224996863331544,-86.44124386888743,19.321226,-2.2781088,-16.743273,21.00574,16.789265,-3.6732392,-41.025295,0.2797699,-5.038267,25.691952,-8.99295,6.840768,-20.005358,1.1626226,9.158669,-0.385815,64.36116,-4.1563473,-46.547424,-13.004199,-8.712873,-6.0783024,70.81034,-41.299103,-9.967108,-52.170933,5.379597,-16.320354,14.0621195
38,-3.3023040294647217,-67.45124053955078,75.68209838867188,-0.20591766959769248,11.674034242939642,-86.33044842764177,21.163546,-2.793588,-16.498562,20.465166,19.263645,-4.5194798,-39.047943,-0.1387669,-4.409667,20.572075,-8.238345,8.123374,-20.676716,0.19181393,9.353698,1.4716992,64.710754,-3.0498416,-46.719116,-12.58439,-8.785096,-5.9466066,70.12051,-41.369526,-9.144586,-51.508526,5.0969205,-16.331944,13.681063
39,-3.3495755195617676,-69.53524780273438,75.689697265625,0.3964640150369955,11.14335502002349,-86.08814122411752,22.421562,-3.341875,-16.377811,21.125795,20.651627,-5.2697535,-37.130013,-0.69772345,-4.167674,16.044252,-7.5018806,9.347474,-21.34413,-0.6412214,9.569064,2.9889185,64.6345,-2.372436,-46.56547,-11.961101,-8.797237,-5.9186597,69.18078,-41.32023,-8.063386,-50.81795,4.814823,-16.374863,13.21922
40,-3.387577772140503,-71.6405258178711,75.68547821044922,0.8940690036190231,10.678030836848,-85.95823506178921,23.437801,-3.9297738,-16.409416,22.025358,21.378681,-5.711086,-35.52048,-1.2144313,-4.195068,12.615119,-6.9329505,10.294085,-21.789127,-1.3464534,9.759056,4.295255,64.165855,-2.03124,-46.091385,-11.475135,-8.760308,-5.906998,67.92603,-41.148407,-6.7481284,-50.038383,4.466647,-16.442465,12.680249
41,-3.426419258117676,-73.70361328125,75.64237213134766,1.186351807664141,10.35479015603982,-85.97584078096874,23.992037,-4.5830994,-16.708708,23.495197,21.084707,-5.71339,-34.39031,-1.5805588,-4.6330647,10.55179,-6.6511717,10.876643,-21.990091,-1.8267357,9.905177,5.492228,63.284157,-1.9702029,-45.35901,-11.250977,-8.660099,-5.876381,66.254425,-40.836884,-5.1187763,-49.135567,4.0230646,-16.538378,12.014921
42,-3.467318058013916,-75.72452545166016,75.55502319335938,1.3087063310821223,10.13293354009022,-86.13836050651315,24.171139,-5.2839103,-17.102636,25.505945,19.86582,-5.4221225,-33.713894,-1.809567,-5.370043,9.823451,-6.6934705,11.219096,-21.959831,-2.1184309,10.043512,6.5962067,61.981827,-2.1687908,-44.41592,-11.09188,-8.502405,-5.8806586,64.22618,-40.36607,-3.2082815,-48.14064,3.5227616,-16.662806,11.231925
43,-3.518105983734131,-77.7348861694336,75.42786407470703,1.2452362258671321,9.98724587626299,-86.4752886166387,24.068058,-5.8721623,-17.292921,27.865347,18.143139,-5.08534,-33.443794,-1.8465219,-6.1752324,10.296355,-6.9887805,11.3811245,-21.684711,-2.1739244,10.209093,7.6246715,60.3334,-2.5601518,-43.245796,-10.876216,-8.334651,-5.9466696,61.999466,-39.742157,-1.2234929,-47.0867,3.011622,-16.804943,10.428534
44,-3.5630452632904053,-79.74051666259766,75.25559997558594,0.9887957184343165,9.887036224143847,-86.99704342533165,23.782948,-6.174077,-16.989317,30.350777,16.359095,-4.937325,-33.43062,-1.6463869,-6.840697,11.623556,-7.357451,11.426952,-21.175074,-1.9726859,10.435854,8.610701,58.459156,-3.0618207,-41.83061,-10.498583,-8.206788,-6.081823,59.683247,-38.99336,0.67569757,-45.98226,2.534832,-16.957052,9.704993
45,-3.6032962799072266,-81.74502563476562,75.03397369384766,0.5271153386138899,9.816519632468045,-87.7247718560483,23.364035,-6.1664853,-16.134268,32.887928,14.623207,-5.0124893,-33.585014,-1.1845338,-7.4125,13.70392,-7.5499287,11.646559,-20.448215,-1.5359571,10.726296,9.670784,56.4093,-3.6290607,-40.196033,-9.970515,-8.158052,-6.207874,57.204357,-38.12273,2.5565722,-44.774807,2.0912378,-17.121872,9.078111
46,-3.648811101913452,-83.7480697631836,74.76104736328125,-0.10763177617835581,9.767636876042967,-88.61921169307404,22.786541,-5.9368706,-14.900035,35.566917,12.721947,-5.185922,-33.90602,-0.514019,-7.9900827,16.558187,-7.649138,11.932273,-19.532337,-0.91419023,11.066577,10.79352,54.185284,-4.29266,-38.366222,-9.364266,-8.163337,-6.315699,54.44291,-37.122765,4.49015,-43.38953,1.6997881,-17.304684,8.493799
47,-3.709530830383301,-85.72868347167969,74.4444351196289,-0.8424508084722724,9.717945989702345,-89.58792591529104,22.03959,-5.4692287,-13.34666,38.426277,10.619613,-5.438033,-34.384243,0.29119632,-8.458221,20.033949,-7.962231,11.764824,-18.497995,-0.16146189,11.439891,11.887758,51.84835,-5.043557,-36.32043,-8.651938,-8.177353,-6.5002165,51.70124,-35.999947,6.3833537,-42.062916,1.2869627,-17.50225,7.925759
48,-3.781341314315796,-87.67351531982422,74.09336853027344,-1.5983985903481903,9.649701079743819,-90.5402857778562,21.12035,-4.740557,-11.537516,41.49831,8.281224,-5.745243,-35.01795,1.1601447,-8.692237,23.991184,-8.779049,10.621455,-17.357552,0.65778416,11.850241,12.815978,49.497704,-5.896631,-34.03807,-7.815265,-8.157544,-6.843197,48.796936,-34.811058,8.138146,-40.588726,0.9964541,-17.714579,7.3773227
49,-3.852064609527588,-89.6094970703125,73.6983871459961,-2.3945345967095117,9.579955357495596,-91.51150070036965,20.089235,-3.6122248,-9.28293,44.744736,5.551231,-6.195511,-36.043205,2.1999533,-8.516735,28.832914,-10.1427765,7.7948008,-16.1243,1.5556127,12.265695,13.637392,47.186012,-6.8136816,-31.461739,-6.826761,-8.079741,-7.416454,45.79839,-33.554478,9.808726,-38.966133,0.82918215,-17.969471,6.7898936
50,-3.9194717407226562,-91.5302963256836,73.26287078857422,-3.192838112345594,9.479181049252938,-92.49284525216432,19.002544,-2.143395,-6.66771,48.151306,2.5234191,-6.744485,-37.3051,3.45131,-8.061068,34.31508,-11.689206,3.8005536,-14.8147135,2.468869,12.694829,14.425802,44.918663,-7.783044,-28.637451,-5.725934,-7.982305,-8.125943,42.6596,-32.21547,11.442809,-37.193123,0.76956993,-18.261047,6.1777754
51,-3.980229377746582,-93.4352035522461,72.78630065917969,-3.9144698846690305,9.305039332310939,-93.3745600167347,17.78616,-0.5419044,-4.133142,51.818882,-0.4977534,-7.1878147,-38.30474,4.766781,-7.6207027,39.482635,-13.2684,-0.11003058,-13.476718,3.297395,13.164532,15.138241,42.71742,-8.771369,-25.650028,-4.606064,-7.9119787,-8.792954,39.41143,-30.82593,13.000464,-35.435173,0.7345135,-18.53641,5.605505
52,-4.041628360748291,-95.33655548095703,72.29367065429688,-4.528772465478391,9.04149361133566,-94.0734423191335,16.31556,1.0005357,-2.1066425,55.843536,-3.229818,-7.3335423,-38.620743,5.9253235,-7.42327,43.589794,-15.017958,-2.7589333,-12.147565,3.9911985,13.693581,15.77937,40.6057,-9.706616,-22.601126,-3.5643032,-7.906845,-9.233778,36.065926,-29.444267,14.44739,-33.8553,0.6503421,-18.742643,5.1256824
53,-4.122010231018066,-97.22908782958984,71.81068420410156,-5.070458948394372,8.658730133742248,-94.56757445285368,14.5556135,2.5203395,-0.63733387,60.394974,-5.6490955,-7.08279,-38.122814,6.786708,-7.5177174,46.634956,-17.403904,-3.7253332,-10.863128,4.5761194,14.350794,16.395084,38.5772,-10.503741,-19.387487,-2.7999754,-7.946373,-9.347869,32.58555,-28.086384,15.811498,-32.47731,0.5257751,-18.867647,4.7315035
54,-4.218000411987305,-99.07410430908203,71.35237121582031,-5.588275958569749,8.20064126167468,-94.92372996338169,12.556281,4.1155567,0.4616094,65.35791,-7.911009,-6.56124,-37.10351,7.441606,-7.7485642,49.118374,-20.391327,-3.7308016,-9.598219,5.124506,15.102739,17.062359,36.626945,-11.141422,-16.046782,-2.2093585,-8.011129,-9.250246,28.956957,-26.747799,17.098864,-31.230206,0.4035407,-18.940332,4.3873887
55,-4.334001064300537,-100.86803436279297,70.94834899902344,-6.072409393922944,7.765235519491918,-95.19389730430412,10.278047,5.6471767,1.1367216,70.39798,-9.995609,-5.923721,-35.795963,7.966528,-8.003219,51.121395,-23.472395,-3.3429785,-8.31701,5.643299,15.809357,17.844828,34.787827,-11.628154,-12.898565,-1.4424676,-8.136973,-9.075697,25.184687,-25.470093,18.283304,-30.110727,0.2698682,-18.96808,4.095631
56,-4.461163520812988,-102.6290512084961,70.60920715332031,-6.504967704781331,7.447450759128622,-95.4290860801097,7.66628,6.9555087,1.3577807,75.18673,-11.8693075,-5.3332167,-34.42857,8.4890585,-8.152003,52.686035,-26.118547,-3.1287339,-6.998764,6.112721,16.330503,18.809149,33.108063,-11.972853,-10.268523,-0.16226986,-8.362537,-8.9470625,21.253027,-24.321684,19.376219,-29.11588,0.12050799,-18.95833,3.8494961
57,-4.591772556304932,-104.3709487915039,70.33535766601562,-6.911965829776259,7.303464320409917,-95.63491632695568,4.5546203,7.9984884,1.0517133,79.82947,-13.479112,-4.794889,-33.060738,9.07776,-8.19001,53.75054,-28.21706,-3.2041955,-5.6488442,6.5171247,16.645391,20.023499,31.595955,-12.078399,-8.23574,1.8587823,-8.712711,-8.859723,17.024242,-23.354403,20.517508,-28.289003,-0.018340167,-18.909105,3.640737
58,-4.714511394500732,-106.1414566040039,70.13162994384766,-7.293095088146353,7.276877938386271,-95.78896285090383,0.9971231,8.779518,0.27727613,84.43295,-14.83842,-4.2606773,-31.57919,9.650392,-8.177487,54.323597,-30.041588,-3.277006,-4.319645,6.853697,16.840147,21.499392,30.234592,-11.919215,-6.699665,4.3783183,-9.159333,-8.750419,12.528507,-22.56013,21.730091,-27.6649,-0.12575033,-18.818512,3.4474306
59,-4.817513942718506,-107.8996810913086,69.97766876220703,-7.593603208062609,7.2909321553941036,-95.90125359334615,-2.7382164,9.228794,-0.7673979,88.69002,-16.013231,-3.8118887,-29.953732,10.149481,-8.069934,54.541744,-31.640198,-3.3106737,-3.0404701,7.1125197,16.929602,23.175308,29.038586,-11.654821,-5.680993,7.026328,-9.66435,-8.646775,7.981365,-21.911633,22.878124,-27.170404,-0.22470112,-18.694864,3.2581503
60,-4.910383224487305,-109.67738342285156,69.8747787475586,-7.75450910405642,7.26755713614329,-95.97847464349864,-6.391966,9.312672,-1.8774294,92.292366,-17.06358,-3.5181186,-28.148434,10.508425,-7.824352,54.532085,-33.05487,-3.2675078,-1.8130448,7.2773237,16.91772,24.957666,28.048292,-11.483172,-5.1668267,9.425888,-10.191754,-8.575161,3.5885231,-21.38673,23.821495,-26.688847,-0.34678444,-18.548132,3.079581
61,-4.992844581604004,-111.46263885498047,69.82240295410156,-7.749129748919084,7.169164737686989,-96.02494000751425,-9.946009,8.921365,-3.082196,95.20066,-17.99583,-3.4315119,-26.121655,10.693943,-7.4163904,54.33449,-34.354805,-3.1351411,-0.61084366,7.316711,16.795622,26.872253,27.320417,-11.475719,-5.3017554,11.721084,-10.764601,-8.580005,-0.7691933,-21.00814,24.632286,-26.099844,-0.5477797,-18.37818,2.9205415
62,-5.064006328582764,-113.2822265625,69.83163452148438,-7.613848241763226,7.040218612269503,-96.03600067932182,-13.511608,8.094513,-4.409125,97.56963,-18.761658,-3.5112753,-23.900234,10.72884,-6.8839703,53.87693,-35.49794,-2.9288814,0.5821654,7.2380705,16.572302,28.93952,26.85781,-11.5455065,-6.0460463,14.003957,-11.393897,-8.627516,-5.171344,-20.781982,25.422964,-25.467213,-0.7885133,-18.18517,2.7851946
63,-5.1308183670043945,-115.1275405883789,69.90357208251953,-7.383938809823321,6.926242729968191,-95.99790750615274,-17.027699,7.0721354,-5.674941,99.357414,-19.335571,-3.6656973,-21.534351,10.631436,-6.28266,53.111004,-36.365448,-2.6545494,1.7545643,7.0812206,16.26768,31.0256,26.613346,-11.669042,-7.064443,15.836589,-12.022133,-8.64368,-9.377442,-20.668291,26.08692,-24.906864,-0.9806978,-17.977043,2.691323
64,-5.1990227699279785,-116.99797058105469,70.0382308959961,-7.094645803242647,6.873686900331751,-95.89683411401542,-20.450655,6.1120944,-6.72025,100.512115,-19.689745,-3.7930126,-19.071857,10.431115,-5.666248,51.98597,-36.841297,-2.3238938,2.9043946,6.8840833,15.890764,32.96977,26.526484,-11.838234,-7.990241,16.800392,-12.585059,-8.561697,-13.151247,-20.616142,26.463394,-24.51187,-1.0509638,-17.759945,2.6676774
65,-5.262291431427002,-118.90262603759766,70.24191284179688,-6.74056177106117,6.8835419518170164,-95.7285930885338,-23.810492,5.2326283,-7.5526237,100.98454,-19.791258,-3.979682,-16.474424,10.133767,-5.0081925,50.436752,-36.964806,-1.9823818,4.0183387,6.6432347,15.42474,34.734932,26.584692,-12.093627,-8.750772,16.512669,-13.085257,-8.364911,-16.521349,-20.61272,26.476612,-24.239286,-1.025935,-17.52507,2.7492752
66,-5.31430721282959,-120.84573364257812,70.50662994384766,-6.3104958828151005,6.930443930197869,-95.50331647064196,-27.114527,4.338739,-8.236604,100.799,-19.660782,-4.235181,-13.73347,9.725642,-4.301125,48.51153,-36.782722,-1.61738,5.0981336,6.3371634,14.8688345,36.39331,26.797808,-12.420389,-9.50413,15.299792,-13.553691,-8.112124,-19.648163,-20.675343,26.23465,-24.000938,-0.9497763,-17.27289,2.9229374
67,-5.363698482513428,-122.8280029296875,70.83443450927734,-5.828229434064217,7.023510113984675,-95.2272440022458,-30.29715,3.5306582,-8.708007,100.01391,-19.354473,-4.3317375,-10.945367,9.216143,-3.6210074,46.335644,-36.180126,-1.1535205,6.157116,5.96797,14.252498,37.952034,27.132448,-12.717721,-10.230365,13.818354,-13.964993,-7.8467464,-22.48927,-20.80764,25.825909,-23.816788,-0.784589,-17.019049,3.146319
68,-5.409351825714111,-124.84614562988281,71.22052764892578,-5.315299482018678,7.173279588259988,-94.90521402054313,-33.2927,2.903483,-8.901829,98.690834,-18.935675,-4.04989,-8.204311,8.622251,-3.0372982,44.026077,-35.04155,-0.5101907,7.1945887,5.5381184,13.603447,39.42413,27.529875,-12.877231,-10.906473,12.740112,-14.288793,-7.6023645,-25.004333,-21.005472,25.343458,-23.693764,-0.48937625,-16.777525,3.378407
69,-5.447380065917969,-126.89611053466797,71.64376068115234,-4.7635109793951,7.393675226703577,-94.49349645890499,-36.13789,2.537683,-8.7275,96.81269,-18.456215,-3.2381625,-5.469172,7.9472446,-2.5682745,41.49247,-33.320118,0.41562653,8.152394,5.0378714,12.914484,40.80508,27.950916,-12.85159,-11.516858,12.307333,-14.496852,-7.3813477,-27.188095,-21.27474,24.76997,-23.6097,0.017831411,-16.581316,3.589175
70,-5.468849182128906,-128.98150634765625,72.10904693603516,-4.157814404690753,7.673631469153202,-94.00283088703411,-38.814896,2.3559046,-8.200464,94.346375,-17.9126,-2.0667267,-2.7141514,7.1956825,-2.1559849,38.718346,-31.08882,1.5511758,9.019032,4.463043,12.178379,42.100807,28.386467,-12.684663,-12.066336,12.161067,-14.6122465,-7.1686945,-29.085608,-21.625063,24.087135,-23.552876,0.68682134,-16.408855,3.8052993
71,-5.4835686683654785,-131.09657287597656,72.60282897949219,-3.511945097384556,7.988885190546082,-93.51807280726406,-41.185883,2.224186,-7.4304047,91.33848,-17.279352,-0.7907761,-0.055784766,6.3905716,-1.75298,35.932217,-28.409454,2.7180696,9.866124,3.8285346,11.421535,43.339863,28.819473,-12.409056,-12.562148,12.077088,-14.678472,-6.9658256,-30.711643,-22.045218,23.378004,-23.549715,1.3585526,-16.191593,4.069101
72,-5.481635093688965,-133.23497009277344,73.11312866210938,-2.8474412130549482,8.317189163444516,-93.12268380918569,-43.134117,2.024966,-6.56422,87.83496,-16.504976,0.34890017,2.3872657,5.552711,-1.321643,33.370274,-25.343513,3.7446506,10.758431,3.1561093,10.669568,44.53429,29.226662,-12.05619,-12.992082,11.827002,-14.74147,-6.7776055,-32.090656,-22.501242,22.735947,-23.61175,1.8660612,-15.861983,4.422303
73,-5.472480297088623,-135.40573120117188,73.63418579101562,-2.128052817286942,8.69004222912302,-92.81147728277553,-44.679775,1.806522,-5.5096827,83.7823,-15.562483,1.4890511,4.5879307,4.6254635,-0.89492154,31.028315,-21.73402,4.6692433,11.68345,2.4021282,9.900768,45.678726,29.584824,-11.606874,-13.318354,11.335711,-14.8181305,-6.5949564,-33.207798,-22.963133,22.149157,-23.725056,2.1519127,-15.361494,4.9198017
74,-5.460497856140137,-137.60047912597656,74.15481567382812,-1.3631219901473624,9.106699338908005,-92.5405306518631,-45.84991,1.5912325,-4.2403107,79.176994,-14.497549,2.6714532,6.599868,3.6316922,-0.464153,28.842115,-17.627289,5.570268,12.599675,1.5747088,9.103984,46.890804,29.871475,-11.036468,-13.653829,10.78677,-14.883327,-6.420002,-34.080296,-23.42089,21.57733,-23.844841,2.2998302,-14.74003,5.529498
75,-5.437006950378418,-139.81817626953125,74.65581512451172,-0.6557100572382857,9.49935607768934,-92.33297075947917,-46.593044,1.2549326,-3.073899,74.138466,-13.3249445,3.5463238,8.418421,2.710312,0.042700324,26.97137,-13.387864,6.341739,13.464819,0.7901489,8.34044,47.856937,30.116762,-10.397353,-13.737174,10.126812,-14.925612,-6.282042,-34.841618,-23.851517,21.132162,-23.925634,2.3624842,-14.095395,6.158009
76,-5.3965301513671875,-142.04348754882812,75.13490295410156,-0.10102474164525534,9.802345811433987,-92.23005003252842,-46.87279,0.7189111,-2.3560586,68.737595,-12.012173,3.8027844,10.046706,1.9835107,0.6927535,25.52919,-9.332949,6.8710837,14.351581,0.14357394,7.6331396,48.97031,30.29951,-9.702765,-13.970467,9.58962,-14.922591,-6.1931424,-35.541,-24.242083,20.838528,-23.932066,2.3876169,-13.524153,6.7241383
77,-5.360284805297852,-144.27427673339844,75.58744812011719,0.30303819114761166,10.04112871953889,-92.263557506119,-46.66986,-0.05644001,-2.2749305,62.76358,-10.399953,3.3740947,11.402225,1.4749122,1.6216836,24.547394,-5.3586264,7.002403,15.282252,-0.37629998,6.960419,50.14962,30.409912,-8.927441,-14.258089,9.177956,-14.862074,-6.1617274,-36.189487,-24.576975,20.720125,-23.845554,2.3616664,-13.015548,7.242341
78,-5.340055465698242,-146.53236389160156,75.9942626953125,0.5790670045228276,10.23622772277785,-92.4168259244985,-46.020355,-0.9091901,-2.722235,56.2213,-8.537622,2.5012827,12.507905,1.1292117,2.7312505,23.969116,-1.3281692,6.849874,16.22798,-0.7963659,6.30594,51.31031,30.445293,-8.063261,-14.510255,8.813252,-14.756105,-6.177514,-36.761124,-24.844765,20.754963,-23.67361,2.2637396,-12.531228,7.751354
79,-5.334558010101318,-148.8193359375,76.35237884521484,0.6890119735073733,10.314362734043158,-92.65716065702225,-44.969727,-1.6201283,-3.5739715,49.457832,-6.6768107,1.3492122,13.5477085,0.93013245,3.7361517,23.705828,2.5144107,6.677801,17.123192,-1.0573107,5.726911,52.4104,30.4194,-7.166031,-14.735515,8.433083,-14.62589,-6.2372785,-37.304447,-25.037653,20.959105,-23.423265,2.1466775,-12.124579,8.19748
80,-5.337826728820801,-151.12530517578125,76.65348052978516,0.5920106555439449,10.20160462212616,-92.9518930592819,-43.581165,-2.010451,-4.6605906,42.834126,-5.060285,0.050728925,14.722859,0.8693083,4.378514,23.631771,5.9245596,6.724199,17.941484,-1.0926254,5.263594,53.65185,30.326466,-6.2816577,-15.174209,8.06512,-14.4884205,-6.330027,-37.849117,-25.160532,21.316414,-23.094639,2.0694432,-11.847572,8.529656
81,-5.350198745727539,-153.43994140625,76.88614654541016,0.18666889489725141,9.798391571419218,-93.32880943377717,-41.680435,-2.0061872,-6.0944743,36.130375,-3.6621845,-1.5582423,16.250479,1.0425285,4.666902,23.525982,9.101342,7.1466537,18.688509,-0.7798358,4.960361,54.98051,30.185066,-5.368875,-15.745999,7.6328607,-14.333339,-6.480824,-38.43009,-25.209087,21.890596,-22.668407,2.0574448,-11.759515,8.6739025
82,-5.364572048187256,-155.75579833984375,77.05451965332031,-0.500215825836403,9.151088807997239,-93.81377558634284,-39.25597,-1.5649784,-7.8988614,29.145866,-2.3563676,-3.4327521,18.00775,1.4255996,4.76337,23.473259,12.134838,7.7252064,19.366497,-0.15516214,4.7939973,56.04566,30.039444,-4.42606,-16.108065,7.035553,-14.158264,-6.6918797,-39.033607,-25.168966,22.688198,-22.166466,2.0830019,-11.815916,8.67591
83,-5.381132125854492,-158.06211853027344,77.15383911132812,-1.323939573801399,8.404314019725021,-94.37157456218529,-36.646854,-0.6862212,-9.701424,22.326157,-1.22197,-5.204976,19.716394,1.8281955,4.631564,23.739063,14.620704,8.126833,20.036648,0.62326264,4.6659565,57.211815,29.845797,-3.5563102,-16.687563,6.4887166,-13.983858,-6.896946,-39.56435,-25.06171,23.549809,-21.630074,2.1091712,-11.91139,8.672289
84,-5.394595623016357,-160.3496856689453,77.17454528808594,-2.122983496659933,7.7165990659127495,-94.95869489068326,-34.243187,0.47613925,-11.119888,16.226305,-0.34700605,-6.588604,21.078552,2.051535,4.1893706,24.593224,16.122759,8.04282,20.61708,1.3880961,4.5393615,58.07845,29.614271,-2.8872583,-17.176867,5.9428306,-13.846486,-7.0661874,-40.007088,-24.901695,24.415771,-21.141008,2.1147559,-11.942316,8.777973
85,-5.406351089477539,-162.60882568359375,77.14584350585938,-2.859951099297506,7.1518768960531425,-95.59396501795209,-32.134495,1.8239754,-12.103918,10.882675,0.17031623,-7.577169,21.982754,1.9907527,3.2708788,26.201778,16.20542,7.3133163,21.108068,2.0970943,4.382339,58.61686,29.354052,-2.4547856,-17.539589,5.281579,-13.753647,-7.1978145,-40.42237,-24.705484,25.305891,-20.703176,2.1035795,-11.869841,9.046161
86,-5.393781661987305,-164.83555603027344,77.06653594970703,-3.574419588426864,6.640126910093518,-96.25361103910186,-30.520163,3.189684,-12.801593,6.8284883,0.017661462,-8.3871565,22.563143,1.7032397,1.9467874,28.455544,15.127487,6.149273,21.463564,2.7969909,4.249197,58.678123,29.105665,-2.200162,-17.597118,4.4546146,-13.693593,-7.3195524,-40.820255,-24.473808,26.266623,-20.313347,2.0944283,-11.75431,9.396554
87,-5.370334625244141,-167.00982666015625,76.96308898925781,-4.170516017778505,6.182153706744351,-96.8021218200513,-30.578379,4.0112057,-13.24262,6.7077675,-1.9040991,-9.061541,22.853535,1.2128202,0.43470556,31.201576,13.4948635,4.824075,21.718632,3.393038,4.1223702,58.984642,28.80503,-2.1128335,-18.10263,3.9606082,-13.6489315,-7.387487,-40.99177,-24.232555,27.124636,-19.960934,2.0518785,-11.639341,9.76659
88,-5.337064743041992,-169.12811279296875,76.85771942138672,-4.581089766854055,5.774562262570458,-97.12226432759012,-30.464989,4.554963,-13.295152,6.6327114,-3.2596965,-9.658567,22.907227,0.5766441,-1.0748391,34.24426,11.969916,3.5750024,21.625038,3.8042345,4.126781,58.53832,28.555677,-2.1563087,-18.126522,3.7105992,-13.632699,-7.4370666,-40.922554,-23.971247,27.90097,-19.722273,2.0180395,-11.5723,10.06737
89,-5.300494194030762,-171.22714233398438,76.71980285644531,-4.8317917226998395,5.381557909320591,-97.21341768839922,-30.089817,4.8982697,-12.6730795,6.5699644,-4.1615243,-10.288352,22.766718,-0.14774616,-2.557703,37.60588,10.614709,2.3101616,21.397234,4.0339055,4.231649,57.968292,28.421215,-2.363379,-18.315151,3.9615839,-13.610747,-7.44533,-40.329224,-23.810165,28.408531,-19.702633,2.0361602,-11.574184,10.303601
90,-5.280655860900879,-173.31764221191406,76.53540802001953,-4.963751321218333,5.028256130377188,-97.12531104910221,-29.531694,5.1025963,-11.522988,6.584712,-4.72396,-10.899985,22.415861,-0.9723985,-4.102593,41.338234,9.134135,0.9520007,20.993498,4.1555443,4.384036,57.344337,28.290474,-2.7543554,-18.68009,4.618503,-13.595115,-7.41048,-39.468193,-23.66835,28.799023,-19.713419,2.101564,-11.618688,10.497236
91,-5.278578281402588,-175.41873168945312,76.3027114868164,-4.784631347167459,4.833052993016446,-96.79235258435092,-28.870293,4.871785,-10.337904,6.526095,-4.5168033,-11.197078,21.768951,-2.1115286,-5.7658415,45.363407,7.6437163,-0.23514062,20.127901,3.965591,4.6602387,55.514263,28.19834,-3.2858994,-18.128124,5.2859883,-13.640132,-7.3370843,-38.515244,-23.470184,29.222809,-19.820072,2.054828,-11.676173,10.626371
92,-5.290921688079834,-177.51242065429688,76.02748107910156,-4.252460034475906,4.877680554383405,-96.19187689537445,-28.326942,4.0479274,-9.693528,6.559124,-3.2884936,-10.930989,20.794798,-3.6442912,-7.563751,49.551308,6.302385,-1.0348841,19.02471,3.343204,4.916533,53.746822,28.170973,-3.842665,-17.980688,6.2228937,-13.7575445,-7.1605086,-37.270664,-23.303696,29.408535,-20.142979,1.7336065,-11.7136,10.72009
93,-5.293120384216309,-179.5342559814453,75.77518463134766,-3.2064612339053498,5.292844620938546,-95.25433301800075,-28.04818,2.324157,-9.828256,6.6497097,-0.13161717,-9.989197,19.381186,-5.8305807,-9.655561,54.01429,5.1522174,-1.3068929,17.619682,2.125987,5.0256224,51.76046,28.208918,-4.598982,-17.978077,7.5690165,-13.988312,-6.769856,-35.833046,-23.099787,29.419046,-20.536854,0.96123296,-11.701602,10.789802
94,-5.274026393890381,-181.4415283203125,75.5416488647461,-1.7268408933983888,5.930950463447875,-94.0350625364636,-28.56758,-0.30182272,-10.3592,8.169761,3.8484378,-8.783102,17.695503,-8.585634,-11.897193,58.775967,4.1248326,-1.2083703,15.925106,0.39775184,5.106656,49.229637,28.364635,-5.4262066,-17.81914,9.127145,-14.307032,-6.2637978,-34.07489,-22.95551,29.255352,-21.22947,-0.09612363,-11.665894,10.815253
95,-5.27734375,-183.40321350097656,75.2085952758789,-0.19652370899545726,6.443381988649639,-92.72651632027994,-30.954737,-3.5361986,-10.822115,14.086672,5.4647527,-7.7033696,16.104067,-11.378931,-13.884752,63.555862,3.216769,-0.97844654,14.20106,-1.3290905,5.293179,46.536633,28.62833,-6.283126,-17.836895,10.659587,-14.619524,-5.734062,-31.98463,-22.876795,28.862383,-22.18578,-1.1545824,-11.650711,10.795841
96,-5.26437520980835,-185.28933715820312,74.83636474609375,1.1057670337996588,6.577943653532648,-91.47530861966065,-32.57505,-6.4062457,-10.953585,19.361134,5.705054,-6.7628446,14.8228655,-13.738838,-15.323066,68.122215,2.392261,-0.8034146,12.582095,-2.7224708,5.761803,43.816032,29.005842,-7.0678687,-18.12124,11.837012,-14.8508415,-5.314062,-29.576984,-22.855692,28.2046,-23.402906,-1.9133881,-11.7040825,10.727013
97,-5.284875869750977,-187.18548583984375,74.39518737792969,2.1977925752649026,6.24407461914509,-90.21980135185493,-33.68615,-8.915249,-10.753841,25.00017,3.3856215,-5.5446057,13.970376,-15.603814,-16.285337,72.47254,1.6254846,-0.61789584,11.016153,-3.819132,6.6468806,41.018284,29.526281,-7.818621,-18.703773,12.572167,-15.000204,-5.056571,-26.79623,-22.87902,27.219486,-25.035961,-2.441949,-11.837701,10.634961
98,-5.338590621948242,-189.11758422851562,73.92858123779297,3.1682105559958194,5.596181665025902,-88.93336004754742,-34.546104,-11.264073,-10.446109,31.229416,-0.6767594,-4.0170302,13.35184,-17.118223,-16.924812,76.71874,0.9401356,-0.32278898,9.497549,-4.7898464,7.8354993,38.031918,30.194908,-8.62346,-19.49958,13.019023,-15.105253,-4.887196,-23.591677,-22.94184,25.932375,-27.06855,-2.8467178,-12.028343,10.5182085
99,-5.387986660003662,-191.01788330078125,73.48733520507812,3.9759344220251336,4.838849664595164,-87.74254155614862,-35.012554,-13.324714,-10.18832,37.130615,-5.2614436,-2.5031586,12.589462,-18.22989,-17.124128,80.831825,0.3595855,0.006916659,8.139883,-5.6331167,9.131964,34.904797,30.970251,-9.441694,-20.423859,13.225867,-15.157494,-4.758155,-19.97914,-23.04146,24.445255,-29.26558,-2.9013288,-12.274186,10.321838
100,-5.424699783325195,-192.87379455566406,73.07218933105469,4.614794102615278,4.191923213895676,-86.74970163864923,-35.008957,-15.041715,-10.061906,41.83494,-9.15308,-1.3354524,11.286535,-18.916035,-16.763906,84.78626,-0.08970822,0.30391324,6.9961824,-6.3309417,10.341919,31.704988,31.781906,-10.196873,-21.390265,13.253678,-15.151772,-4.6268525,-16.023808,-23.165653,22.884966,-31.369917,-2.3781862,-12.575982,9.985782
101,-5.444216728210449,-194.71231079101562,72.67866516113281,5.097219811888702,3.7081334027256454,-85.95325303374945,-34.4982,-16.403074,-10.075078,45.14741,-12.1796665,-0.63025516,9.264226,-19.096447,-15.731857,88.67784,-0.29334766,0.5340093,6.0476804,-6.8305116,11.479998,28.362822,32.573395,-10.895325,-22.389793,13.123545,-15.073995,-4.4993215,-11.68784,-23.280134,21.23182,-33.33872,-0.7783126,-12.986096,9.413494
102,-5.453341007232666,-196.52957153320312,72.3199462890625,5.451381548424209,3.301398032415111,-85.2911089401497,-33.57245,-17.444262,-10.195718,47.620823,-14.998316,-0.18037643,6.7275667,-18.740011,-14.163298,92.48445,-0.2814422,0.8133224,5.2032833,-7.143,12.624706,24.867292,33.319847,-11.566484,-23.44019,12.812351,-14.936566,-4.396826,-7.01789,-23.352892,19.498934,-35.244877,1.6337165,-13.5139,8.671944
103,-5.4569573402404785,-198.34713745117188,72.0125961303711,5.697162598776696,2.979054341326574,-84.76317526978326,-32.387302,-18.21449,-10.385196,49.522945,-17.623377,0.16551556,3.8656366,-17.929562,-12.317477,96.01119,-0.25870195,1.2637314,4.3712626,-7.3244996,13.665941,21.460564,33.999985,-12.122691,-24.542494,12.344447,-14.775706,-4.3046865,-2.276219,-23.374886,17.87313,-36.94867,3.9374404,-14.075523,7.9358034
104,-5.464245796203613,-200.1778564453125,71.76586151123047,5.85973733760424,2.74369832430013,-84.36962426134713,-31.083448,-18.778309,-10.602721,51.08176,-20.053473,0.55754524,0.86333865,-16.818178,-10.436842,99.06578,-0.4397279,1.9535077,3.4491491,-7.4465117,14.487691,18.353815,34.60488,-12.4565525,-25.647472,11.744265,-14.630612,-4.220369,2.2440853,-23.353313,16.54707,-38.287914,5.2079015,-14.550731,7.3546996
105,-5.476093292236328,-202.01161193847656,71.58245849609375,5.951583629663594,2.6242095447349274,-84.17255667578688,-29.698765,-19.114008,-10.774579,52.317856,-22.332085,1.0453753,-2.3855524,-15.303943,-8.349069,101.67347,-0.87038124,2.9861903,2.4280872,-7.5325856,15.043924,15.624009,35.121014,-12.466006,-26.763063,10.998727,-14.511972,-4.190724,6.4860544,-23.283875,15.568439,-39.129913,4.9059663,-14.873921,6.877928
106,-5.483155727386475,-203.8409881591797,71.47114562988281,5.9708393162341755,2.60636684716365,-84.14694808696977,-28.156464,-19.207312,-10.933471,53.12099,-24.449326,1.5466956,-5.8641605,-13.360145,-6.060365,103.92491,-1.4569025,4.263587,1.3150071,-7.553961,15.37995,13.274134,35.556164,-12.171106,-27.965666,10.144763,-14.40346,-4.2213016,10.512405,-23.166433,14.871925,-39.504967,3.604562,-15.093373,6.437898
107,-5.508842945098877,-205.68814086914062,71.44153594970703,5.93105413624041,2.6273954867047555,-84.16002865317606,-26.424086,-19.158815,-11.190116,53.507526,-26.301878,2.0177326,-9.278653,-11.366749,-3.9873626,105.71847,-2.18467,5.5069556,0.05564494,-7.5286994,15.541683,10.859291,35.970356,-11.777122,-28.838099,9.16266,-14.302488,-4.2417264,14.261728,-23.047752,14.436021,-39.56761,2.0484188,-15.25293,6.1505103
108,-5.546240329742432,-207.53466796875,71.48280334472656,5.845551508545811,2.6296210006905794,-84.08101528351912,-24.474907,-19.06286,-11.653834,53.49622,-27.783525,2.418103,-12.4212265,-9.752139,-2.4658716,106.94034,-3.002826,6.437437,-1.3191447,-7.453189,15.560053,8.914758,36.43439,-11.351289,-29.900347,8.2545185,-14.207929,-4.179808,17.791803,-22.987164,14.14792,-39.53188,1.0011733,-15.413931,6.1323442
109,-5.591885089874268,-209.3953857421875,71.6016616821289,5.6988251969993895,2.620540263352434,-83.84451352711581,-22.309343,-18.920532,-12.393425,53.089607,-28.933172,2.748505,-15.3727045,-8.577115,-1.499274,107.5474,-3.9289653,7.020158,-2.8843515,-7.3163786,15.43813,6.7893896,37.027325,-11.035079,-30.592245,7.249207,-14.126866,-3.965567,21.138582,-23.042732,14.014694,-39.471123,0.68459004,-15.588448,6.5146503
110,-5.645441055297852,-211.2919158935547,71.8077621459961,5.499420866373921,2.625641233921812,-83.52709530477377,-19.951366,-18.686327,-13.323229,52.2841,-29.784246,3.0347147,-18.259726,-7.7097635,-0.8654284,107.59071,-4.944706,7.359845,-4.5581794,-7.122448,15.175509,4.7458386,37.758995,-10.759546,-31.187618,6.1684637,-14.058984,-3.628721,24.402122,-23.217833,13.98299,-39.37933,0.7105765,-15.749471,7.1884875
111,-5.705090045928955,-213.21563720703125,72.09626007080078,5.289300786060128,2.621032122529469,-83.21418817035045,-17.41565,-18.367422,-14.327143,51.09737,-30.226229,3.269266,-20.986305,-7.2825856,-0.5358509,107.0973,-5.9361587,7.399792,-6.221162,-6.926373,14.842073,2.9404967,38.59663,-10.487006,-31.816656,5.0635734,-13.993058,-3.251001,27.56117,-23.495323,13.996557,-39.308426,0.91299284,-15.901781,7.907611
112,-5.7543439865112305,-215.15713500976562,72.4617691040039,5.1043385379813815,2.5822273565273623,-82.9928191398401,-14.715493,-17.969461,-15.2930355,49.549126,-30.148638,3.438357,-23.445217,-7.400397,-0.4981715,106.09735,-6.7997317,7.09676,-7.762146,-6.776115,14.507099,1.3402501,39.48501,-10.218906,-32.423584,3.960748,-13.914385,-2.9194357,30.57385,-23.854418,14.005082,-39.289604,1.1181122,-16.05472,8.431819
113,-5.801924228668213,-217.1256103515625,72.89260864257812,4.958867147524973,2.4789237801773814,-82.86755954709736,-11.775554,-17.492615,-16.26031,47.564323,-29.550737,3.5117314,-25.582056,-8.212128,-0.84833443,104.56259,-7.5552306,6.4401083,-9.159492,-6.680413,14.202474,-0.032158576,40.39821,-9.94785,-33.018524,2.8658032,-13.816464,-2.6619766,33.429497,-24.303284,14.001094,-39.33479,1.2985708,-16.232426,8.677577
114,-5.841416835784912,-219.12667846679688,73.38461303710938,4.816043469642691,2.3316637203014206,-82.79997076766666,-8.632693,-16.9048,-17.264828,45.191444,-28.502491,3.497183,-27.42873,-9.5537,-1.6070027,102.483406,-8.28118,5.5072393,-10.471262,-6.5890064,13.893088,-1.1923641,41.337585,-9.664074,-33.600666,1.774903,-13.707763,-2.442834,36.150738,-24.854584,13.996192,-39.424847,1.5337465,-16.420881,8.785112
115,-5.883935928344727,-221.17645263671875,73.92508697509766,4.635710282273732,2.191876873155811,-82.81393108625876,-5.4607725,-16.176601,-18.184814,42.62492,-27.002436,3.4340162,-29.000715,-11.04625,-2.6563966,99.91648,-8.967203,4.394476,-11.699584,-6.4570646,13.546451,-2.1852307,42.281925,-9.362857,-34.136097,0.71934277,-13.5926695,-2.253725,38.752613,-25.485764,13.959852,-39.54038,1.8073499,-16.57688,8.853736
116,-5.925590991973877,-223.26499938964844,74.5046615600586,4.384381685075336,2.1118886484821293,-82.93541046392927,-2.429018,-15.299864,-18.890432,40.050884,-25.04179,3.3638055,-30.331482,-12.332322,-3.846614,96.91658,-9.590934,3.190207,-12.830929,-6.239,13.12522,-2.9512303,43.199863,-9.020522,-34.6775,-0.24189939,-13.474841,-2.0922143,41.261604,-26.15142,13.846662,-39.659683,2.0964625,-16.656427,8.990209
117,-5.972144603729248,-225.38583374023438,75.11033630371094,4.05050249006843,2.073145862596331,-83.21699677730236,0.5198996,-14.25036,-19.32156,37.417377,-22.551823,3.308513,-31.368568,-13.444145,-5.278508,93.45328,-10.212786,1.7577723,-13.806129,-5.920686,12.6457205,-3.4127877,44.078194,-8.609937,-35.25936,-1.0707409,-13.372008,-1.940165,43.69588,-26.827045,13.619991,-39.787994,2.3774183,-16.648533,9.212117
118,-6.016165256500244,-227.52328491210938,75.71609497070312,3.6518811136098237,2.0556240318360404,-83.63980273561889,3.424701,-13.0619755,-19.522556,34.710354,-19.590132,3.2409682,-32.06771,-14.433587,-7.030251,89.51137,-10.868745,0.18751864,-14.624959,-5.517535,12.130356,-3.6242723,44.920246,-8.142702,-35.842342,-1.7974167,-13.273767,-1.8144115,46.06128,-27.51269,13.27994,-39.94256,2.6585581,-16.575693,9.476408
119,-6.0776686668396,-229.68736267089844,76.31462097167969,3.211270756627592,2.110980533204958,-84.1220709649835,6.104003,-11.835123,-19.529593,32.144665,-16.31501,3.1307144,-32.521187,-15.057081,-8.87766,85.14403,-11.447541,-1.1766348,-15.358379,-5.035093,11.542924,-3.622654,45.718197,-7.6236434,-36.46056,-2.450209,-13.141185,-1.7631595,48.369038,-28.190952,12.832253,-40.111465,2.9649234,-16.443695,9.799662
120,-6.152559280395508,-231.86180114746094,76.89974975585938,2.7561475034147347,2.292972471837685,-84.57630130600897,8.383396,-10.6748495,-19.402205,29.910149,-12.856949,2.9498012,-32.86218,-15.155154,-10.557301,80.38902,-11.7910385,-2.0617201,-16.084501,-4.4848623,10.846121,-3.5760925,46.460037,-7.113198,-37.032444,-3.0704477,-12.934785,-1.8384092,50.612682,-28.839052,12.2888,-40.273785,3.3193216,-16.257187,10.2025385
121,-6.230185031890869,-234.0373992919922,77.46491241455078,2.2520363814680477,2.684176578032402,-84.98890711088414,10.12965,-9.575456,-19.151997,28.04681,-9.008405,2.7585154,-33.159138,-14.764912,-12.103273,75.10204,-11.812428,-2.5306587,-16.806036,-3.8033395,9.963764,-3.4259582,47.128605,-6.5960965,-37.585648,-3.6162865,-12.62177,-2.086164,52.81311,-29.432304,11.626913,-40.440754,3.753029,-15.9810295,10.71631
122,-6.298760890960693,-236.22589111328125,77.99242401123047,1.7113331895809365,3.2299127193209625,-85.40508544084881,11.457745,-8.527294,-18.762106,26.487257,-4.77919,2.5652008,-33.346073,-13.998914,-13.576521,69.27568,-11.5693035,-2.725663,-17.471933,-3.0142686,8.938433,-3.1869566,47.72132,-6.0824437,-38.086807,-4.082565,-12.227834,-2.4733386,54.970825,-29.96163,10.835901,-40.61486,4.2387547,-15.622713,11.324799
123,-6.362549304962158,-238.4051055908203,78.47201538085938,1.2291920209423288,3.7809431200096637,-85.8130955221377,12.60305,-7.6145906,-18.286879,25.17807,-0.5855579,2.260903,-33.376842,-12.906337,-14.723657,63.128757,-11.101458,-2.578552,-18.071045,-2.2514405,7.8984175,-2.8998225,48.252193,-5.6126757,-38.585773,-4.527203,-11.80025,-2.9221292,57.0811,-30.422401,9.935468,-40.77974,4.7090435,-15.252298,11.978405
124,-6.4417877197265625,-240.5933837890625,78.90377044677734,0.904100883505724,4.188898724099073,-86.19397907376612,13.832615,-6.9198365,-17.801395,24.003471,3.1916509,1.724451,-33.215622,-11.585034,-15.274119,56.897007,-10.461449,-2.0554442,-18.600851,-1.6573851,6.969269,-2.6129887,48.745987,-5.23426,-39.131035,-5.013124,-11.386637,-3.3503191,59.123318,-30.814066,8.950548,-40.910206,5.104306,-14.941325,12.630505
125,-6.521493911743164,-242.79344177246094,79.2783203125,0.77275449387285,4.418742542117612,-86.55379888523068,15.298702,-6.519702,-17.486717,22.698723,6.7929688,0.79547787,-32.806873,-10.044509,-15.015901,50.417915,-9.559068,-1.2345144,-19.050783,-1.2765028,6.16562,-2.3505003,49.22472,-4.967193,-39.715694,-5.6401944,-10.952439,-3.7876556,61.14472,-31.142376,7.8494415,-41.028786,5.4168243,-14.698985,13.338041
126,-6.5977325439453125,-245.01910400390625,79.58615112304688,0.7865228365448639,4.542358333630386,-86.89082045225875,16.909374,-6.354489,-17.3104,21.268713,10.397428,-0.43104166,-32.130016,-8.396959,-14.073631,43.591015,-8.411428,-0.23101091,-19.43402,-1.050987,5.425098,-2.0723472,49.690907,-4.7851467,-40.333263,-6.350316,-10.485948,-4.2481585,63.12097,-31.402388,6.6403675,-41.131214,5.683129,-14.491777,14.10278
127,-6.682204246520996,-247.24359130859375,79.82023620605469,0.9243345549563927,4.572235196210508,-87.16459500766156,18.620632,-6.281221,-17.018076,19.87621,13.59845,-1.6926402,-31.20009,-6.888248,-12.70671,36.722343,-7.216559,0.94943136,-19.797308,-0.97891587,4.7598042,-1.765078,50.14147,-4.6759663,-40.99573,-6.980959,-10.071577,-4.6351924,64.943344,-31.578323,5.4157667,-41.17063,5.892307,-14.328485,14.802822
128,-6.7674055099487305,-249.44114685058594,79.95983123779297,1.0788246456814445,4.558297049891115,-87.27260390438181,20.097569,-6.1076455,-16.34003,19.234104,15.696474,-2.7216089,-30.057343,-5.651712,-11.325324,30.043556,-6.109222,2.3445847,-20.23798,-0.95347714,4.180493,-1.4194319,50.569794,-4.6369376,-41.729042,-7.370003,-9.795962,-4.8547254,66.50293,-31.652378,4.2626276,-41.1003,6.0395823,-14.21811,15.321396
129,-6.87943696975708,-251.58657836914062,80.00511169433594,1.4311123924723705,4.459824220712843,-87.21892824166618,21.791142,-5.809295,-14.964236,18.537142,16.800652,-3.5063348,-28.653936,-4.7881193,-9.731412,23.380878,-5.0853806,4.218184,-20.74415,-1.1625624,3.653401,-1.083113,50.998787,-4.690087,-42.545086,-7.454583,-9.723012,-4.843125,67.83288,-31.615616,3.1733134,-40.905502,6.12893,-14.189983,15.628541
130,-6.993605136871338,-253.7264404296875,79.98922729492188,2.0061629578193902,4.2649465758652685,-86.92945461500234,23.528288,-5.531696,-13.181571,18.133554,17.005743,-4.1528473,-26.890987,-4.365228,-7.919648,16.484318,-4.016923,6.454225,-21.38474,-1.6241723,3.1696777,-0.7571335,51.440533,-4.842913,-43.437073,-7.3375583,-9.793053,-4.663181,69.001465,-31.469368,2.112082,-40.644413,6.157849,-14.230395,15.795692
131,-7.096549987792969,-255.9040069580078,79.95970916748047,2.792573305738815,3.9420391929785326,-86.4372444778852,25.160326,-5.431226,-11.493399,18.243183,16.73531,-4.4906554,-24.78253,-4.510512,-6.1866465,9.648979,-2.8717933,8.65645,-22.133722,-2.3677735,2.766151,-0.36586016,51.866024,-5.0713396,-44.378338,-7.094632,-9.910765,-4.429574,69.89255,-31.217669,1.172264,-40.31227,6.1011834,-14.28482,15.855417
132,-7.197917461395264,-258.057861328125,79.895263671875,3.5937341188533205,3.525962141090891,-85.89214490980012,26.40303,-5.487215,-10.273436,19.217108,16.301542,-4.3778944,-24.167849,-5.14982,-4.6948285,6.875436,-3.5154114,10.44225,-22.848621,-3.2244234,2.4993773,0.16344911,52.220295,-5.3489294,-45.3384,-6.7897334,-9.9826,-4.262793,70.35586,-30.872866,0.44184837,-39.86508,5.927909,-14.299282,15.839711
133,-7.314173698425293,-260.1471862792969,79.80818176269531,4.254792585667905,3.0543056131680824,-85.37872181862915,27.00058,-5.6059113,-9.524401,21.506868,15.487363,-3.539134,-24.41259,-5.8737082,-3.4461572,6.724763,-5.0901423,11.783099,-23.443476,-4.0427017,2.4109983,0.826961,52.46403,-5.686706,-46.354675,-6.369441,-9.987937,-4.2042522,70.28502,-30.44366,-0.053494804,-39.198654,5.622754,-14.278159,15.681075
134,-7.440227508544922,-262.2083435058594,79.71208953857422,4.744081457540839,2.5528525500293626,-84.91747093001064,27.101397,-5.6705575,-8.960363,24.827576,14.166574,-2.169838,-24.372292,-6.460465,-2.4336498,6.5819936,-6.31188,12.901139,-23.964228,-4.749978,2.4676912,1.6523128,52.561005,-6.0271115,-47.41354,-5.795965,-9.974871,-4.2112994,69.74138,-30.069294,-0.36036548,-38.32776,5.23137,-14.240927,15.346451
135,-7.553570747375488,-264.2501220703125,79.5885238647461,5.128068853781451,2.075240922048202,-84.53410719070813,26.922373,-5.723985,-8.523333,28.55723,12.757401,-0.8090104,-24.174484,-6.96841,-1.765446,6.5670075,-7.262994,13.809278,-24.295631,-5.3944592,2.6189182,2.555494,52.57105,-6.4408627,-48.430885,-5.190904,-9.957162,-4.2440166,68.889046,-29.60167,-0.5538241,-37.420296,4.748121,-14.159738,15.036772
136,-7.658501625061035,-266.27618408203125,79.43567657470703,5.305086346735965,1.6786531343973297,-84.27552894393109,26.590757,-5.6193414,-8.077059,32.295094,11.544155,-0.016523259,-23.80529,-7.267719,-1.64601,6.5549016,-7.9174795,14.4571705,-24.455303,-5.8386397,2.8353932,3.6261694,52.48738,-6.846109,-49.30963,-4.6481476,-9.947137,-4.2700644,67.78975,-29.189976,-0.64522475,-36.57806,4.235344,-14.008522,14.850694
137,-7.765576362609863,-268.2650146484375,79.23819732666016,5.267852461272769,1.374667200047854,-84.13331855114407,26.110939,-5.3709993,-7.6740084,36.053513,10.660155,-0.029142378,-23.218536,-7.373602,-2.351826,6.5303874,-8.271224,14.725363,-24.374468,-6.0694723,3.1531045,4.815856,52.26889,-7.3243275,-50.066456,-4.189657,-9.9327,-4.3223515,66.4565,-28.674458,-0.67082334,-35.842457,3.5677774,-13.741398,14.90099
138,-7.8650078773498535,-270.23406982421875,78.98771667480469,5.073501465025049,1.1337761112555615,-84.08441030115148,25.413975,-5.051616,-7.3419595,40.057068,9.915485,-0.51719356,-22.43595,-7.343192,-3.6900902,6.571851,-8.351351,14.6739435,-24.110407,-6.1463137,3.5552256,6.122021,51.91884,-7.8787327,-50.72154,-3.760563,-9.913819,-4.405535,64.86672,-28.124613,-0.6220008,-35.15851,2.7889588,-13.387926,15.081033
139,-7.966670989990234,-272.1807861328125,78.67704772949219,4.72685206916195,0.931315528094912,-84.12524118407238,24.544714,-4.5744057,-6.9332433,44.222843,9.104427,-1.1728532,-21.487091,-7.1257787,-5.1846623,6.621278,-8.148249,14.512232,-23.662271,-6.0551906,4.0411563,7.4444737,51.447155,-8.5149355,-51.18353,-3.3319,-9.917278,-4.524517,63.094074,-27.555021,-0.5108237,-34.534645,2.0420532,-13.039345,15.297479
140,-8.06551456451416,-274.1181945800781,78.31285858154297,4.267010808958484,0.7480532342138995,-84.2490039672483,23.557362,-3.8786385,-6.3153515,48.42681,8.054109,-1.6755421,-20.457048,-6.723076,-6.341113,6.69367,-7.680921,14.466986,-23.071709,-5.830947,4.579686,8.776048,50.93759,-9.167052,-51.416092,-2.8983374,-9.971993,-4.6349177,61.196793,-27.052048,-0.3266229,-33.971466,1.5113086,-12.783325,15.438601
141,-8.155263900756836,-276.059326171875,77.90625,3.649592370751106,0.5315462183977221,-84.45299745846907,22.567102,-2.87938,-5.449164,52.64586,6.7107964,-2.0238435,-19.199375,-6.0767407,-7.102469,6.627305,-6.7543263,15.000033,-22.244263,-5.3750925,5.244676,9.8177185,50.143883,-10.101133,-51.23018,-2.3572083,-10.046574,-4.892006,59.278416,-26.391567,-0.14600946,-33.553978,1.0760934,-12.635445,15.552876
142,-8.245339393615723,-277.9969482421875,77.42897033691406,2.9774829167943127,0.2975216236986317,-84.76035769099974,21.56525,-1.7242042,-4.423417,56.90297,5.190224,-2.351885,-17.863218,-5.1754,-7.57554,6.6783304,-5.544815,15.000033,-21.23012,-4.8221917,5.942142,10.727778,49.18932,-11.241114,-50.701126,-1.7681049,-10.142169,-5.199661,57.3257,-25.731497,0.051704835,-33.295643,0.7748478,-12.546374,15.649728
143,-8.300326347351074,-279.9414978027344,76.91966247558594,2.1293495797765036,0.13581536157054047,-85.11581238889273,20.366287,-0.29802158,-3.3472326,61.233406,3.5278425,-2.5837667,-16.552652,-4.0367794,-7.9857063,6.7841153,-4.257195,15.000033,-20.129671,-4.0663424,6.625109,11.568807,48.22952,-12.395472,-49.85936,-1.2431016,-10.321534,-5.4565997,55.12738,-25.193348,0.37055248,-32.962975,0.6881239,-12.513709,15.6588125
144,-8.40661907196045,-281.7740478515625,76.503173828125,1.0368132300296213,0.10754866565217489,-85.45556823080409,18.822731,1.4609885,-2.3723097,65.64489,1.7682059,-2.6461592,-15.4244,-2.6921327,-8.407964,7.0403757,-3.1194243,15.000033,-18.966772,-3.009553,7.257313,12.176613,47.242607,-13.547289,-48.607056,-0.84925926,-10.64022,-5.653316,52.63516,-24.752045,0.7855715,-32.443188,0.8385919,-12.535409,15.562575
145,-8.524958610534668,-283.59112548828125,76.06588745117188,-0.5502830187467525,0.29348493568308665,-85.86916027716043,16.86212,3.8876154,-1.5002202,70.29381,-0.20315823,-2.6260517,-17.176962,-0.975634,-8.641486,12.90728,-4.745861,11.967941,-17.649645,-1.3917965,7.8101397,12.501618,46.224773,-14.702325,-46.905025,-0.57175875,-11.152973,-5.911781,49.88416,-24.376118,1.3080684,-31.783447,1.3612902,-12.64903,15.296823
146,-8.642895698547363,-285.3757019042969,75.57990264892578,-2.183289719963341,0.57120606562595,-86.29226137734233,14.661873,6.494735,-0.7788104,75.02059,-2.2736158,-2.4532435,-20.226105,0.78356856,-8.76711,21.265965,-7.3760786,6.8417645,-16.268751,0.31025457,8.225365,12.696841,45.175175,-15.820015,-44.86912,-0.3869899,-11.814362,-6.2072163,46.978844,-24.03773,1.9283708,-31.113375,2.1878462,-12.846457,14.896483
147,-8.70630931854248,-287.1661071777344,74.98806762695312,-3.4616822057523002,0.7665396102569525,-86.66706335074907,12.411319,8.705323,-0.29367012,79.52706,-4.2748084,-2.075433,-22.938507,2.287667,-8.8350525,29.05074,-9.894348,1.7512339,-14.884439,1.6210386,8.572184,12.914678,44.081,-16.808468,-42.629654,-0.34326598,-12.527646,-6.305201,43.96725,-23.734285,2.5781467,-30.438347,3.0497944,-13.054382,14.492218
148,-8.765535354614258,-288.95452880859375,74.39607238769531,-4.402957929322068,0.77157513978166,-87.0347267010933,10.239921,10.366403,-0.07804283,83.60937,-6.1395397,-1.5875616,-24.440456,3.579367,-8.924483,34.782963,-12.157267,-1.7478658,-13.464758,2.5010247,8.99349,13.292857,42.913998,-17.585443,-40.2945,-0.48147526,-13.199121,-5.971525,40.829067,-23.486637,3.1958199,-29.70255,3.6848788,-13.19372,14.20965
149,-8.843694686889648,-290.70587158203125,73.86080932617188,-5.123347806668202,0.5645105217238132,-87.49577666443955,8.146489,11.567223,-0.06861447,87.33298,-7.8922343,-1.005374,-24.613472,4.7198105,-9.037472,38.435234,-14.584645,-3.1197836,-11.918714,3.0554774,9.594413,13.875068,41.642616,-18.11887,-37.756508,-0.91728914,-13.862502,-4.9676247,37.464127,-23.31976,3.7960145,-28.902954,4.078338,-13.201683,14.156537
150,-8.912089347839355,-292.4425964355469,73.39933013916016,-5.742933503344209,0.23951617553927076,-88.03879773068223,6.014397,12.48959,-0.21960512,90.82,-9.587888,-0.34443918,-24.03985,5.745636,-9.109481,41.059364,-17.377096,-3.3058631,-10.2702465,3.472731,10.302055,14.61979,40.25786,-18.419245,-34.997536,-1.5777429,-14.565214,-3.4950595,33.87093,-23.227972,4.4225087,-28.044239,4.3642445,-13.131003,14.226379
151,-9.000877380371094,-294.163330078125,73.0047607421875,-6.2588442770307475,-0.13829769108622642,-88.53890981196558,3.7921026,13.100353,-0.57061297,93.94421,-11.192589,0.31700507,-22.972298,6.5934834,-9.132695,42.986202,-20.194595,-2.9806545,-8.648233,3.8064873,10.991659,15.519167,38.774723,-18.49005,-32.250797,-2.2268538,-15.223502,-1.9780505,30.186853,-23.187275,5.0629673,-27.081509,4.49971,-13.073803,14.22769
152,-9.100390434265137,-295.8646545410156,72.69465637207031,-6.656628244798719,-0.5052216675159904,-88.86071886418806,1.435698,13.355405,-1.1662437,96.555855,-12.656941,0.9110208,-21.639418,7.2639656,-9.097572,44.451305,-22.669617,-2.8272383,-7.179201,4.073311,11.548812,16.539549,37.226387,-18.360554,-29.753952,-2.6463404,-15.732835,-0.82915413,26.543758,-23.173365,5.6975393,-25.970022,4.4327965,-13.122702,13.9803
153,-9.194158554077148,-297.5924072265625,72.47742462158203,-6.916956303002025,-0.8853013938828079,-88.93328315003676,-1.110781,13.097326,-2.1503248,98.6517,-13.943175,1.4814062,-19.97975,7.773717,-9.024888,45.394657,-24.764523,-2.9734151,-5.903549,4.2039876,12.01843,17.675356,35.62356,-18.004341,-27.521103,-2.6588852,-15.997721,-0.14312433,22.848726,-23.181135,6.389747,-24.590693,4.0644965,-13.336225,13.351152
154,-9.260563850402832,-299.3645324707031,72.33501434326172,-7.0586130887717795,-1.2978693815146756,-88.83975540257264,-3.7978382,12.373493,-3.415925,100.29733,-15.063177,2.0449836,-17.91012,8.148613,-8.94097,45.712944,-26.645342,-3.0776007,-4.7435484,4.2013135,12.4660015,18.938496,33.9704,-17.434877,-25.461199,-2.4355035,-16.0846,0.30159417,19.062397,-23.208902,7.1404457,-23.008242,3.4427156,-13.645234,12.464587
155,-9.308775901794434,-301.1485595703125,72.2582015991211,-7.113398529137474,-1.6722984197773552,-88.6710742795712,-6.5241184,11.462148,-4.6464415,101.43014,-16.034164,2.5113664,-15.613277,8.434988,-8.823144,45.528786,-28.247707,-3.1335468,-3.634968,4.154639,12.799437,20.30801,32.30106,-16.775274,-23.667067,-2.2743516,-16.123495,0.5803427,15.381223,-23.250372,7.8347497,-21.410324,2.7268944,-13.953651,11.547049
156,-9.32326889038086,-302.9666748046875,72.24614715576172,-7.115216788623537,-1.9375386500841605,-88.52106382039341,-9.206484,10.677052,-5.548265,101.98594,-16.890917,2.793435,-13.274446,8.666114,-8.63864,44.978096,-29.513594,-3.1232831,-2.4989586,4.147319,12.912961,21.750767,30.667168,-16.160536,-22.224947,-2.4765337,-16.247484,0.7785679,11.995193,-23.300713,8.362528,-19.956526,2.0781054,-14.176826,10.839474
157,-9.32104778289795,-304.7913818359375,72.2879638671875,-7.074472866330913,-2.068652747759117,-88.35543920570295,-11.886907,10.088215,-6.1041493,101.92658,-17.687696,2.7645664,-10.874071,8.832519,-8.418352,43.990463,-30.474018,-3.0426831,-1.3367361,4.1797757,12.750331,23.285515,29.09044,-15.623531,-21.221754,-3.1198711,-16.493866,0.9032227,8.93507,-23.35371,8.6825,-18.575142,1.4616629,-14.325519,10.423904
158,-9.31454849243164,-306.6400451660156,72.39241027832031,-6.971129639129426,-2.107983017860326,-88.14786075722691,-14.580275,9.553856,-6.4332156,101.27586,-18.391935,2.5087218,-8.335377,8.910623,-8.167736,42.53132,-31.14474,-2.8888967,-0.16273908,4.1813545,12.373053,24.910616,27.572342,-15.120841,-20.600039,-4.058209,-16.788162,0.9252161,6.0714397,-23.418114,8.891048,-17.169703,0.81420887,-14.439514,10.183273
159,-9.288290023803711,-308.4929504394531,72.56414794921875,-6.794301437859883,-2.0834480877689514,-88.00400517410148,-17.178701,9.086259,-6.4673295,100.06473,-18.920694,2.247387,-5.763109,8.899235,-7.81135,40.801693,-31.45004,-2.6439319,1.0699733,4.124225,11.846455,26.592943,26.137033,-14.646884,-20.258034,-5.2566705,-17.09625,0.8773102,3.3453817,-23.522356,9.093763,-15.860791,0.25778458,-14.488089,10.060133
160,-9.241401672363281,-310.3508605957031,72.78266906738281,-6.534425759780468,-2.021326233588094,-88.02817442172537,-19.573122,8.704527,-6.1581764,98.330574,-19.201738,2.1952574,-3.2670004,8.796432,-7.275355,39.015957,-31.32415,-2.3032396,2.409815,3.9906282,11.243015,28.305058,24.820854,-14.191972,-20.099985,-6.6879396,-17.386108,0.7965213,0.7243817,-23.697472,9.3754015,-14.799394,-0.07621223,-14.439285,9.990552
161,-9.184632301330566,-312.2256164550781,73.05989074707031,-6.166125445390139,-1.9260239508950325,-88.28280015870348,-21.741438,8.485946,-5.382925,96.050804,-19.246199,2.4519858,-0.83670574,8.592675,-6.4728694,37.16061,-30.755924,-1.8969802,3.918134,3.7571251,10.570024,30.079174,23.642067,-13.7707,-20.203106,-8.591197,-17.670359,0.70514125,-1.7482526,-23.953087,9.703005,-14.095597,-0.13703424,-14.251518,9.981495
162,-9.128313064575195,-314.12152099609375,73.38041687011719,-5.698682121009979,-1.7813111365673406,-88.69942896538306,-23.704458,8.407639,-4.196933,93.21226,-19.111797,2.8664663,1.5637705,8.274783,-5.4676995,35.169594,-29.797426,-1.4272976,5.5567503,3.4286568,9.805917,31.929613,22.59394,-13.387545,-20.604523,-10.917941,-17.95519,0.5792887,-4.055591,-24.28309,10.041203,-13.671477,0.011514553,-13.95613,10.051547
163,-9.061924934387207,-316.04254150390625,73.73643493652344,-5.186025887620908,-1.580378226884636,-89.18483639255987,-25.436142,8.340566,-2.8425312,89.87337,-18.79751,3.2831657,3.8623092,7.8484025,-4.409616,33.17255,-28.473211,-0.85268486,7.2195506,3.0384173,8.979561,33.815235,21.67436,-13.003735,-21.160465,-13.200411,-18.198513,0.39332122,-6.265288,-24.691849,10.469041,-13.401163,0.3300723,-13.628093,10.150203
164,-8.983983993530273,-317.9690246582031,74.12079620361328,-4.685446544226546,-1.3183363710904208,-89.64596121475614,-26.9302,8.157073,-1.5735458,86.08175,-18.288929,3.5651963,5.991353,7.336192,-3.4444158,31.284426,-26.796957,-0.12772144,8.795779,2.6261578,8.11608,35.700047,20.881025,-12.5691805,-21.731901,-14.969028,-18.360365,0.12843622,-8.445137,-25.18491,11.076433,-13.165658,0.78394216,-13.341988,10.224731
165,-8.902433395385742,-319.9136962890625,74.52648162841797,-4.191359514673502,-0.9735817928448062,-90.08236785803541,-28.203144,7.881342,-0.37510666,81.789085,-17.564419,3.7298543,7.9492607,6.740175,-2.5575907,29.447594,-24.643639,0.86175156,10.283257,2.18674,7.1950994,37.589153,20.218758,-12.057523,-22.330973,-16.099663,-18.420458,-0.25727972,-10.598187,-25.774967,11.911318,-12.990053,1.4679493,-13.117832,10.231185
166,-8.81089973449707,-321.8771667480469,74.94539642333984,-3.6848267194565882,-0.5534615443429897,-90.53239121383862,-29.250294,7.561817,0.8457795,76.98217,-16.643368,3.8370285,9.7659,6.071946,-1.6630498,27.629015,-22.052406,2.0573127,11.728599,1.7048637,6.217027,39.502735,19.682375,-11.493725,-23.018637,-16.841146,-18.40305,-0.7351582,-12.67949,-26.456596,12.919244,-12.94666,2.372974,-12.915516,10.20113
167,-8.719392776489258,-323.8374328613281,75.36695861816406,-3.1961460404965023,-0.10030115420463995,-90.96274121343676,-30.060022,7.118896,1.9323338,71.745026,-15.557111,3.83335,11.425027,5.3797946,-0.80761707,25.976664,-19.27631,3.2513485,13.098527,1.2101682,5.232718,41.42385,19.253422,-10.89847,-23.72431,-17.274446,-18.341427,-1.2158732,-14.682381,-27.201181,14.035378,-12.974484,3.304072,-12.718907,10.200797
168,-8.628447532653809,-325.8053283691406,75.7781753540039,-2.7571913852036753,0.3419992587275972,-91.33866119758163,-30.629637,6.4864893,2.7125068,66.148254,-14.33428,3.6780245,12.9089985,4.7093782,-0.06244531,24.649572,-16.567244,4.241832,14.353833,0.7358379,4.289206,43.336384,18.907436,-10.281948,-24.37517,-17.475727,-18.268877,-1.6131215,-16.609867,-27.96854,15.197743,-12.999411,4.058642,-12.510266,10.301055
169,-8.534355163574219,-327.7882080078125,76.17214965820312,-2.3398463999960053,0.8074159451896277,-91.64224308093877,-30.955826,5.6002584,3.161723,59.989563,-12.828503,3.4519377,14.209939,4.0715785,0.66131526,23.50756,-13.734669,5.1027164,15.477056,0.24232885,3.3559003,45.243748,18.634392,-9.602743,-24.952269,-17.330553,-18.187935,-1.8886813,-18.47269,-28.743572,16.421247,-12.989693,4.579564,-12.280414,10.565967
170,-8.43928337097168,-329.78662109375,76.53404235839844,-1.9467339534401196,1.3004589195446163,-91.89447379073276,-31.033325,4.565549,3.3155591,53.262882,-11.068138,3.1917021,15.348471,3.4582596,1.3725358,22.52905,-10.728035,5.9203334,16.480392,-0.2679519,2.418954,47.163967,18.4351,-8.842864,-25.499157,-16.835056,-18.08799,-2.0970736,-20.279251,-29.525833,17.735899,-12.976762,4.964745,-12.039005,10.949681
171,-8.337141990661621,-331.80242919921875,76.85579681396484,-1.644004397428957,1.7300326435769258,-92.1294357226181,-30.844908,3.5654817,3.1096013,46.289154,-9.312267,2.7924595,16.367294,2.8758335,1.8441484,21.989813,-7.961959,6.4967785,17.383137,-0.7043733,1.5485561,49.095474,18.303228,-8.041671,-26.02846,-16.23175,-17.98025,-2.291469,-22.018177,-30.294647,19.092554,-12.986312,5.239959,-11.797227,11.360381
172,-8.239917755126953,-333.8265380859375,77.11461639404297,-1.495347843708088,2.005395420651638,-92.38707207078842,-30.376844,2.7625616,2.5030696,39.37635,-7.8101153,2.1362464,17.298983,2.3245409,1.8228154,22.16421,-5.8377833,6.602809,18.20976,-0.9796907,0.8102622,51.040813,18.23262,-7.2333636,-26.555944,-15.7611475,-17.874773,-2.5240788,-23.688322,-31.022547,20.442736,-13.029574,5.427555,-11.566512,11.709675
173,-8.147021293640137,-335.8594055175781,77.30388641357422,-1.5595892647883671,2.0840729499240838,-92.71365901261393,-29.464693,2.1758687,1.401114,32.15393,-6.5371222,1.0370111,18.13949,1.8348483,1.2582415,23.17296,-4.4160914,5.973214,18.999496,-1.0399466,0.19966906,53.094425,18.22474,-6.357078,-27.125006,-15.448756,-17.781378,-2.8100502,-25.341494,-31.701399,21.821783,-13.063731,5.453066,-11.33703,11.981541
174,-8.069382667541504,-337.9092712402344,77.40863800048828,-1.8281668498555217,1.997388276432585,-93.11470077314539,-28.055433,1.8720572,-0.14719544,24.380411,-5.2924385,-0.34605515,18.931683,1.3903902,0.28797868,24.76872,-3.4635715,4.730486,19.768599,-0.8963526,-0.3195304,55.253647,18.273357,-5.3910036,-27.742168,-15.180945,-17.69258,-3.1187155,-26.962442,-32.330013,23.233711,-13.087767,5.327462,-11.108129,12.227451
175,-8.02068042755127,-339.9609375,77.42853546142578,-2.28343103655649,1.7552668352268535,-93.57614946755405,-26.332973,2.0226977,-1.9152055,16.622112,-4.0720305,-1.6948589,19.786608,0.9380529,-1.0389085,26.676651,-2.9396026,3.2088122,20.50925,-0.53241324,-0.7300514,57.373188,18.362734,-4.4320507,-28.364109,-14.985658,-17.589066,-3.4345357,-28.46292,-32.89412,24.584618,-13.157844,5.1964216,-10.903494,12.461364
176,-7.979398727416992,-342.0001525878906,77.36505126953125,-2.8552754108530363,1.3898050789449117,-94.04969617770385,-24.575796,2.6153803,-3.638258,9.596898,-2.9059846,-2.7707043,20.76586,0.39329952,-2.6914668,28.708172,-2.8342724,1.7785215,21.169897,0.014480357,-1.0124061,59.293114,18.484018,-3.5820343,-28.920982,-14.885739,-17.450468,-3.7454429,-29.774357,-33.37737,25.784384,-13.312803,5.200533,-10.746043,12.694865
177,-7.936058044433594,-344.00921630859375,77.24446105957031,-3.404169201698044,0.9633428698506502,-94.472055856283,-24.50598,3.2795057,-5.4553285,6.724791,-3.5861487,-3.468853,21.818386,-0.5423216,-5.0442605,31.034216,-3.4577603,0.5096851,21.655926,0.60651416,-1.1590843,61.00459,18.638466,-2.8217802,-29.364313,-14.941946,-17.265572,-4.0572524,-31.01319,-33.77934,26.87107,-13.516755,5.3505626,-10.648073,12.963596
178,-7.862268447875977,-345.976806640625,77.081298828125,-3.877199754849452,0.4898284163570644,-94.82013095342265,-25.502148,3.7352872,-7.405823,6.5538063,-5.4834485,-4.0040135,22.89539,-1.9270357,-7.998969,33.837753,-4.850313,-0.76932514,21.94439,1.1723398,-1.172468,62.553528,18.83224,-2.101409,-29.704714,-15.119405,-17.045372,-4.3764443,-32.202724,-34.10087,27.876064,-13.734434,5.570983,-10.5953245,13.246518
179,-7.759548187255859,-347.9315185546875,76.88988494873047,-4.228834174779392,-0.007366118983867664,-95.06086256091106,-26.274508,3.9664145,-9.097464,6.5223145,-7.1107583,-4.5760794,23.92687,-3.5564647,-10.883811,37.07161,-6.6199408,-1.9911546,22.03958,1.6442852,-1.0583524,63.827717,19.080027,-1.4740964,-29.932386,-15.297125,-16.803555,-4.6951513,-33.150524,-34.324356,28.696127,-13.99338,5.867012,-10.571594,13.465541
180,-7.662726402282715,-349.8802795410156,76.67891693115234,-4.464714070490484,-0.5577131148377622,-95.1837292945147,-26.648,4.062178,-10.220124,6.549885,-8.2839985,-5.347132,24.845045,-5.100739,-13.058837,40.522484,-8.190081,-3.1376266,21.973234,2.0269938,-0.8045646,64.7647,19.40534,-1.000897,-30.082314,-15.357973,-16.554108,-5.0013633,-33.667492,-34.430042,29.22465,-14.315786,6.249237,-10.559148,13.551162
181,-7.5812273025512695,-351.8074645996094,76.42839050292969,-4.624505374603078,-1.2208749766125924,-95.17368750009828,-26.424973,4.163078,-10.626331,6.480217,-9.034847,-6.3987923,25.632706,-6.3430448,-14.27271,44.19937,-9.366485,-4.2032056,21.661224,2.4039772,-0.350843,65.3805,19.70256,-0.70163494,-30.158333,-15.25232,-16.303493,-5.318704,-33.757072,-34.40706,29.44785,-14.741153,6.806135,-10.53859,13.522554
182,-7.518891334533691,-353.725830078125,76.1156997680664,-4.758637945430446,-1.9622758874441364,-95.03756775120945,-25.78717,4.3279076,-10.549243,6.451029,-9.461252,-7.6203485,26.299343,-7.364662,-14.922926,48.12524,-10.376703,-5.19431,21.120934,2.812,0.2479108,65.7038,20.036003,-0.5613944,-30.147306,-15.066884,-16.044218,-5.636816,-33.51426,-34.296623,29.436174,-15.23324,7.513136,-10.526907,13.385252
183,-7.466588973999023,-355.6163024902344,75.75680541992188,-4.808931568048552,-2.6583476813337454,-94.78421135751736,-24.967281,4.459758,-10.217175,6.4873877,-9.31912,-8.840513,26.772219,-8.367834,-15.390085,52.188282,-11.3239765,-6.086617,20.456404,3.09463,0.87685096,65.70783,20.530188,-0.55209875,-30.075794,-14.818528,-15.768551,-5.9344015,-32.925156,-34.067772,29.200485,-15.686097,8.192963,-10.558163,13.105348
184,-7.41726541519165,-357.47943115234375,75.3712158203125,-4.644358325995205,-3.188677199055908,-94.42529076692382,-24.112234,4.3848453,-9.823669,6.4595685,-8.2911005,-9.886209,26.999084,-9.669493,-16.040464,56.317146,-12.35165,-6.8572316,19.70359,3.0810657,1.4806207,65.357,21.113667,-0.6656045,-29.962515,-14.444767,-15.468233,-6.2351785,-32.006927,-33.76383,28.836842,-16.073915,8.694724,-10.666553,12.625877
185,-7.382399559020996,-359.3394470214844,74.94760131835938,-4.2519566868027585,-3.5156605873645077,-93.94141193260927,-23.295565,4.059946,-9.334578,6.4997063,-6.0510526,-11.075718,27.019995,-11.338963,-16.97238,60.54922,-13.521652,-7.4397044,18.837511,2.7495537,2.0433698,64.38977,21.79581,-0.89536273,-29.613035,-13.916713,-15.129114,-6.584982,-30.699347,-33.39282,28.364109,-16.475647,8.969229,-10.896351,11.810897
186,-7.3600172996521,-361.2105712890625,74.49026489257812,-3.661659010444925,-3.71306755816273,-93.33243043700708,-22.368183,3.4538538,-8.673435,6.5112605,-2.8338149,-12.4703245,26.891697,-13.238653,-17.988491,64.91215,-14.7586155,-7.846276,18.096668,2.074855,2.4806828,63.042473,23.025934,-1.3691102,-29.227625,-13.324847,-14.773756,-6.805889,-28.935928,-32.733414,27.534252,-16.65307,9.013863,-11.213328,10.805002
187,-7.295480251312256,-362.949951171875,74.07827758789062,-2.869808912030057,-3.809439264488312,-92.65336572827607,-21.465578,2.4671223,-8.011961,6.6196156,0.577442,-13.500671,26.570854,-15.345533,-18.960419,69.3473,-16.02635,-8.179705,17.228598,1.1658216,2.9464018,61.321156,24.226467,-1.9479476,-28.732244,-12.735853,-14.412926,-7.041684,-26.919966,-32.077087,26.687012,-16.846033,9.009394,-11.554033,9.731065
188,-7.234647750854492,-364.6311950683594,73.64263916015625,-1.8353860718306074,-3.831385438025122,-91.96321285836251,-21.518036,0.92663026,-7.4719133,8.661451,2.567145,-13.4866495,26.008417,-17.67109,-19.74588,73.795166,-17.293781,-8.515769,16.287706,-0.02071879,3.4460464,59.36832,25.393826,-2.5934513,-28.181421,-12.308202,-14.072114,-7.228827,-24.785246,-31.420897,25.854551,-16.938147,9.021969,-11.845349,8.836587
189,-7.2266974449157715,-366.3642578125,73.13821411132812,-0.5923051703439186,-3.7494869498798935,-91.28436288494485,-24.35689,-1.3260399,-7.038604,16.418009,1.4017528,-11.741212,25.162016,-20.224024,-20.33291,78.3258,-18.557562,-8.928542,15.28433,-1.4770254,3.9244506,57.210983,26.503025,-3.300183,-27.615524,-12.111188,-13.756703,-7.3559384,-22.555899,-30.762064,25.067616,-16.94135,9.101772,-12.093633,8.206942
190,-7.169947624206543,-367.89569091796875,72.66825866699219,0.552548413661806,-3.6642487784808377,-90.68103797718702,-27.588419,-3.5871387,-6.6002746,25.05092,-0.083617665,-8.884763,24.130445,-22.656366,-20.665009,82.8521,-19.781378,-9.423211,14.295473,-2.847293,4.376624,54.85127,27.541908,-4.1050696,-27.07445,-12.044036,-13.451074,-7.4466534,-20.185768,-30.089308,24.330317,-16.875557,9.218357,-12.326116,7.7188144
191,-7.144138813018799,-369.58514404296875,72.16195678710938,1.4721751330308188,-3.697725692505362,-90.18775638374275,-30.358587,-5.5846696,-6.1529584,33.033314,-1.6909286,-5.9645658,22.969805,-24.69722,-20.631136,87.14793,-20.905779,-9.885281,13.3678055,-3.928866,4.884545,52.280308,28.523306,-5.017526,-26.497198,-12.038959,-13.149048,-7.497897,-17.710222,-29.388042,23.644665,-16.641497,9.309847,-12.505927,7.282805
192,-7.104075908660889,-371.3360595703125,71.6856460571289,2.216945419082781,-3.908719215775595,-89.77409857745346,-31.960495,-7.2254696,-5.6895556,39.076332,-3.412058,-3.9371128,21.685707,-26.27032,-20.190083,91.037544,-21.887978,-10.139116,12.49237,-4.736649,5.5219088,49.45771,29.474512,-6.053493,-25.799902,-12.034339,-12.845533,-7.5032005,-15.139694,-28.644331,22.983503,-16.143375,9.305737,-12.597101,6.8072624
193,-7.045403003692627,-373.0152893066406,71.2754898071289,2.871357264686393,-4.3203550693320745,-89.35350014228344,-32.250996,-8.556893,-5.2752542,43.105846,-5.686658,-3.0265987,20.307638,-27.430954,-19.388487,94.539116,-22.72099,-10.079038,11.598433,-5.350222,6.3604336,46.280712,30.426811,-7.2721133,-24.970654,-12.099022,-12.523889,-7.4275355,-12.368514,-27.845264,22.285564,-15.418736,9.229058,-12.533916,6.3473268
194,-6.99600076675415,-374.6146240234375,70.93701171875,3.4972528392586675,-4.851391781374777,-88.92915639735806,-31.754486,-9.703863,-4.9426355,46.07315,-8.586116,-2.6325576,18.763165,-28.288963,-18.293419,97.77326,-23.439253,-9.762601,10.705129,-5.895169,7.32955,42.767113,31.362232,-8.676444,-24.05349,-12.264565,-12.194716,-7.260852,-9.378526,-26.991625,21.540657,-14.499915,9.096414,-12.355681,5.9290648
195,-6.9463887214660645,-376.14971923828125,70.67098236083984,4.077011712688097,-5.411842004423007,-88.61456000187701,-30.80004,-10.628687,-4.6325808,48.3445,-11.630732,-2.465914,16.905766,-28.826006,-16.885809,100.70855,-24.058428,-9.28418,9.9196615,-6.402222,8.299663,39.087345,32.21877,-10.172878,-23.055563,-12.400011,-11.891894,-7.0502377,-6.327297,-26.099506,20.809708,-13.289847,8.825074,-12.17981,5.416413
196,-6.903584957122803,-377.6439208984375,70.4833755493164,4.58091599031947,-5.912677727785923,-88.5198575669436,-29.705458,-11.320779,-4.2795095,50.225822,-14.313248,-2.2461386,14.593479,-29.016708,-15.142574,103.29756,-24.580223,-8.754953,9.307321,-6.866339,9.151601,35.436424,32.926216,-11.631827,-21.970396,-12.35009,-11.645503,-6.8673,-3.4202206,-25.188423,20.195366,-11.684453,8.331976,-12.119569,4.666594
197,-6.863346576690674,-379.1270446777344,70.36796569824219,5.0139800616839185,-6.341515825164301,-88.74529830024602,-28.474676,-11.733053,-3.8103685,51.69838,-16.557156,-1.9369186,11.62873,-28.743893,-12.823142,105.60985,-24.971684,-8.192436,8.919983,-7.244675,9.896943,31.730824,33.44342,-13.077003,-20.642115,-11.98373,-11.484858,-6.7839336,-0.6819535,-24.269728,19.765165,-9.602652,7.410846,-12.199073,3.4294991
198,-6.82532262802124,-380.5937194824219,70.30596923828125,5.388628181781196,-6.736350719157912,-89.20861254595336,-26.965395,-11.896885,-3.270279,52.633385,-18.614477,-1.6744071,8.178567,-28.00232,-10.064923,107.64776,-25.229334,-7.5507865,8.652274,-7.525524,10.594626,27.944965,33.76268,-14.515364,-19.109995,-11.387826,-11.380693,-6.771601,1.9465678,-23.354738,19.492054,-7.1109095,6.1549597,-12.332768,1.8410503
199,-6.799829006195068,-382.05877685546875,70.31227111816406,5.697144816633317,-7.087259846117255,-89.73889294652999,-25.275518,-11.942916,-2.7715611,53.13761,-20.459328,-1.4336128,4.616605,-26.991041,-7.388555,109.26714,-25.394035,-6.8729525,8.319404,-7.7428346,11.189757,24.334002,33.89756,-15.798633,-17.609098,-10.720015,-11.273244,-6.763978,4.375293,-22.466518,19.339401,-4.3133516,4.925617,-12.483537,0.33536762
200,-6.782665729522705,-383.50140380859375,70.36875915527344,5.931049892429154,-7.387235674968632,-90.15995231967894,-23.505861,-11.997463,-2.4345112,53.320885,-22.064617,-1.1925015,1.2541062,-25.99193,-5.264256,110.320175,-25.504217,-6.218717,7.741703,-7.941558,11.623333,21.14112,33.881115,-16.782251,-16.362371,-10.139988,-11.104404,-6.6962667,6.517045,-21.62857,19.266556,-1.3070257,4.09481,-12.650483,-0.65353405
201,-6.782078742980957,-384.9313049316406,70.49392700195312,6.096847025177916,-7.617820970844523,-90.45171897381111,-21.663797,-12.074947,-2.2710505,53.1573,-23.447042,-0.9338079,-1.9897224,-25.0656,-3.6979744,110.784706,-25.534904,-5.548541,6.8786554,-8.149745,11.852223,18.415804,33.735806,-17.42231,-15.382063,-9.630575,-10.846598,-6.4800262,8.387841,-20.838705,19.19125,1.974309,3.7327085,-12.851071,-0.8669999
202,-6.792191982269287,-386.3648681640625,70.69660949707031,6.19975561100103,-7.792886431381899,-90.69382545001365,-19.698563,-12.114074,-2.2250965,52.608215,-24.61543,-0.6802608,-5.2463417,-24.12046,-2.4647114,110.720695,-25.461847,-4.8712883,5.8324194,-8.337741,11.910375,15.995977,33.48785,-17.8325,-14.525529,-9.124702,-10.531487,-6.1788936,10.067237,-20.099936,19.12364,5.5219026,3.6535752,-13.096154,-0.58914685
203,-6.7985968589782715,-387.7862243652344,70.97348022460938,6.237562363219501,-7.955055570484773,-90.8598243089998,-17.623384,-12.120551,-2.318486,51.760654,-25.525414,-0.46404552,-8.326802,-23.266552,-1.6450052,110.09633,-25.326942,-4.322033,4.6739545,-8.468813,11.855851,13.962892,33.178394,-18.090038,-13.940886,-8.648143,-10.198868,-5.9464393,11.590603,-19.446196,19.129793,9.119738,3.8581483,-13.389424,-0.20024586
204,-6.830292224884033,-389.20391845703125,71.314697265625,6.200734509545836,-8.145107412350397,-90.92351808084888,-15.453955,-12.095466,-2.5709887,50.70364,-26.13442,-0.30995256,-11.042908,-22.61129,-1.3167158,108.88688,-25.181316,-4.030473,3.424662,-8.511507,11.779012,11.740974,32.88304,-18.328924,-13.200487,-8.494115,-9.8946705,-5.9341674,12.939933,-18.941235,19.315996,12.554182,4.35182,-13.735436,-0.08707581
205,-6.869130611419678,-390.6144714355469,71.71183776855469,6.0672477187203695,-8.37794249152201,-90.84202215511937,-13.148599,-12.033253,-3.0398839,49.379486,-26.433119,-0.19077598,-13.341283,-22.230667,-1.6140474,107.04546,-25.09329,-4.083443,2.1101065,-8.447224,11.692902,9.86222,32.62241,-18.46415,-12.868204,-8.600963,-9.643853,-6.202741,14.134081,-18.62953,19.6937,15.80931,5.4095526,-14.202953,-0.40322354
206,-6.90321683883667,-392.0206604003906,72.16065216064453,5.835950274241434,-8.629072843501019,-90.63946735942778,-10.722407,-11.912052,-3.6949754,47.784157,-26.454165,-0.09997721,-15.28877,-22.04891,-2.4812639,104.59124,-25.047857,-4.3609004,0.69776624,-8.291149,11.580547,8.221749,32.40161,-18.462034,-12.813777,-8.956675,-9.421014,-6.6538363,15.18432,-18.516302,20.214314,18.944778,6.965974,-14.779808,-0.91769594
207,-6.936339378356934,-393.4299011230469,72.66088104248047,5.545834580978032,-8.87878696514483,-90.39331260746917,-8.279082,-11.712999,-4.4207096,46.08915,-26.208616,-0.090231225,-16.883831,-21.941545,-3.705043,101.59453,-24.97076,-4.681376,-0.73472375,-8.058889,11.445752,6.7866645,32.221924,-18.380587,-12.919745,-9.358619,-9.194581,-7.1824875,16.182968,-18.577127,20.772911,21.84161,8.519264,-15.34366,-1.4340936
208,-6.973479747772217,-394.8285217285156,73.19459533691406,5.2361243345173225,-9.107775141536667,-90.18137382015838,-5.9204073,-11.430287,-5.099387,44.45718,-25.701824,-0.21666428,-18.146955,-21.78605,-5.051677,98.11974,-24.771854,-4.873215,-2.0979722,-7.768783,11.289717,5.5159025,32.083866,-18.29612,-13.059375,-9.599618,-8.936396,-7.6847076,17.227642,-18.769855,21.250933,24.381207,9.558491,-15.752311,-1.7690952
209,-7.013020038604736,-396.2408142089844,73.7489242553711,4.910203309468404,-9.334319209820922,-90.01419970491021,-3.6136885,-11.06198,-5.716337,42.859573,-24.872778,-0.5112212,-19.01099,-21.655607,-6.618855,94.10006,-24.480183,-4.8884487,-3.3669586,-7.418239,11.139508,4.4173293,31.987413,-18.2025,-13.25805,-9.643136,-8.622491,-8.196085,18.311935,-19.071081,21.610977,26.527298,9.865252,-15.951161,-1.8855082
210,-7.063791275024414,-397.64752197265625,74.31729125976562,4.544413022114426,-9.557552058535888,-89.85650552642717,-1.3322369,-10.607353,-6.324078,41.23921,-23.74288,-0.93993026,-19.46401,-21.515455,-8.503776,89.5209,-24.130402,-4.7709703,-4.5755463,-6.998772,10.988321,3.4944868,31.936483,-18.077858,-13.5576725,-9.588444,-8.275149,-8.749476,19.37852,-19.47534,21.904192,28.373287,9.726645,-16.013433,-1.8824517
211,-7.118373394012451,-399.0721130371094,74.88789367675781,4.1497100255152946,-9.732201204264095,-89.71631654195151,0.8226106,-10.082768,-6.905709,39.70204,-22.432713,-1.4566847,-19.654783,-21.13267,-10.425147,84.51009,-23.627243,-4.5367937,-5.7198377,-6.5249524,10.785199,2.6983347,31.939995,-17.982435,-13.853189,-9.435237,-7.938257,-9.238186,20.458662,-19.963194,22.138302,29.986483,9.385942,-15.979109,-1.7868679
212,-7.189329624176025,-400.5043640136719,75.45262908935547,3.7458655754045735,-9.814815536975368,-89.60087807809249,2.7568476,-9.515079,-7.4451885,38.349567,-21.06113,-2.0132747,-19.758982,-20.33451,-12.059755,79.182976,-22.889204,-4.24947,-6.7871275,-6.0142703,10.478367,1.9664291,32.00818,-17.99334,-14.026599,-9.187202,-7.6548495,-9.55322,21.590511,-20.504278,22.310715,31.434093,9.082329,-15.890268,-1.6227599
213,-7.2629170417785645,-401.9447937011719,76.00733947753906,3.298829044991178,-9.78656328088692,-89.53251320154166,4.4441648,-8.878479,-7.950667,37.202076,-19.534418,-2.5199368,-19.806387,-19.070765,-13.329657,73.42495,-21.898506,-4.0752726,-7.752441,-5.430515,10.049664,1.3315741,32.148705,-18.125153,-14.083277,-8.78927,-7.4292536,-9.591565,22.771774,-21.069674,22.391945,32.74353,8.803556,-15.723953,-1.3861393
214,-7.339040756225586,-403.3963317871094,76.53404235839844,2.8208463841235996,-9.675130969624881,-89.50095426891937,5.948473,-8.188195,-8.430017,36.20123,-17.830656,-3.030469,-19.725473,-17.487331,-14.343871,67.20626,-20.716711,-3.9765766,-8.617316,-4.7837667,9.532396,0.81066024,32.365322,-18.346615,-14.075513,-8.262724,-7.237866,-9.434368,23.977768,-21.6489,22.382673,33.89836,8.434742,-15.473178,-1.0660121
215,-7.423660755157471,-404.8608703613281,77.02400207519531,2.389969114788333,-9.50651090653154,-89.46157526201911,7.315401,-7.5374794,-8.875081,35.318363,-16.171915,-3.710094,-19.556044,-15.758262,-15.035908,60.753,-19.367525,-3.752426,-9.410353,-4.1633463,8.949315,0.32001987,32.660328,-18.669588,-13.95679,-7.721881,-7.0824513,-9.247835,25.214966,-22.248137,22.320366,34.896442,8.062182,-15.203609,-0.6764443
216,-7.530068397521973,-406.3283386230469,77.45752716064453,2.079032101236642,-9.305640767001364,-89.36706820086147,8.58731,-7.018672,-9.284276,34.51761,-14.77662,-4.7167406,-19.336817,-14.059437,-15.343707,54.26685,-17.858335,-3.2027085,-10.163906,-3.655165,8.318774,-0.22569503,33.03212,-19.110226,-13.679986,-7.2802615,-6.968862,-9.196652,26.502493,-22.881372,22.23868,35.720257,7.7762084,-14.978415,-0.23266953
217,-7.637341499328613,-407.7986755371094,77.81806945800781,1.906217322863448,-9.05341577217466,-89.21489996123583,9.826318,-6.674599,-9.772894,33.600594,-13.597918,-6.3593497,-19.0351,-12.34511,-15.152279,47.511757,-16.00745,-2.2758663,-10.888492,-3.2638998,7.6008406,-0.80463743,33.48174,-19.674957,-13.243059,-6.958829,-6.9359884,-9.309627,27.86111,-23.56346,22.144875,36.34991,7.634476,-14.82701,0.3033829
218,-7.719892501831055,-409.28216552734375,78.10271453857422,1.8333548790127785,-8.745880998605505,-89.01976216562575,10.99774,-6.45925,-10.321444,32.63942,-12.552981,-8.460564,-18.60355,-10.648239,-14.469464,40.39818,-13.870282,-1.1521796,-11.575397,-2.9488947,6.7995925,-1.3696536,34.008804,-20.345066,-12.683339,-6.7012377,-6.970234,-9.503297,29.297937,-24.296135,22.007082,36.77346,7.5804653,-14.709894,0.925505
219,-7.7866411209106445,-410.76959228515625,78.30128479003906,1.8753704839645464,-8.432558787305853,-88.76031790309708,11.993018,-6.3344793,-10.711074,32.01268,-11.792771,-10.438157,-18.063898,-9.224426,-13.463523,33.34452,-11.775462,0.05757414,-12.232178,-2.734181,5.9954567,-1.9777703,34.605297,-21.108225,-12.00212,-6.504654,-7.001112,-9.775235,30.810524,-25.068867,21.801252,36.987705,7.5330606,-14.586479,1.551793
220,-7.8319830894470215,-412.25958251953125,78.41323852539062,2.0498588126324444,-8.166523056384026,-88.41697221160999,12.700221,-6.2710233,-10.711649,32.103436,-11.451745,-11.709019,-17.470175,-8.274022,-12.354681,26.799559,-10.023583,1.2941262,-12.862101,-2.6576962,5.2651415,-2.7002475,35.25903,-21.966125,-11.186905,-6.3640976,-6.9577737,-10.124806,32.389584,-25.865026,21.50332,37.00238,7.407968,-14.418598,2.1001203
221,-7.873435974121094,-413.73486328125,78.43836975097656,2.449276526977861,-7.9498347640043034,-87.94249255571566,13.041058,-6.323743,-10.187401,33.101044,-11.619662,-12.013061,-16.808565,-7.865908,-11.115688,20.618408,-8.656221,2.7870386,-13.497464,-2.8113708,4.5785575,-3.5951645,35.97119,-22.975573,-10.17861,-6.3361683,-6.872908,-10.537722,34.065365,-26.67847,21.090809,36.789803,7.1668563,-14.197275,2.5475676
222,-7.923613548278809,-415.2067565917969,78.39479064941406,3.112323298114564,-7.786188526463135,-87.33752746261678,13.131315,-6.540525,-9.313367,34.73974,-12.181685,-11.660249,-16.002712,-7.9735036,-9.706435,14.519243,-7.4476404,4.5255194,-14.146626,-3.2353935,3.9016016,-4.6190395,36.743477,-24.138239,-8.997066,-6.404063,-6.765766,-11.02216,35.860928,-27.503056,20.563105,36.339184,6.856029,-13.942947,2.9376135
223,-7.985498905181885,-416.66058349609375,78.28773498535156,3.939566384576545,-7.719941481543433,-86.66804178346261,13.133171,-6.839612,-8.31408,36.735233,-12.978798,-10.938378,-15.051279,-8.511539,-8.383537,8.762482,-6.2742386,6.1467023,-14.775104,-3.8460763,3.3064663,-5.684607,37.558983,-25.363646,-7.7501187,-6.445069,-6.546629,-11.613623,37.723057,-28.315298,19.954912,35.71352,6.518075,-13.662775,3.2878306
224,-8.058454513549805,-418.0809020996094,78.13427734375,4.690258717999326,-7.751244871767313,-86.04255307984774,13.131396,-7.0057855,-7.36172,38.882675,-13.888974,-10.183163,-15.536935,-9.35547,-7.1681814,6.8834705,-6.716914,7.274647,-15.307522,-4.408391,2.8737853,-6.7202845,38.387802,-26.560173,-6.5270443,-6.3269377,-6.1292844,-12.346944,39.540527,-29.089603,19.318499,35.033287,6.1939034,-13.365733,3.615019
225,-8.12999153137207,-419.47369384765625,77.9599838256836,5.182049507958977,-7.8301260746967625,-85.51546996337142,13.056653,-6.853275,-6.426227,41.259045,-14.981771,-9.440018,-16.481873,-10.070772,-6.3258038,6.7286396,-7.552886,7.6824946,-15.680085,-4.7303367,2.6246455,-7.782072,39.21012,-27.748774,-5.2722926,-5.999228,-5.450376,-13.28878,41.26661,-29.809792,18.631937,34.35783,5.8492403,-13.027451,3.921513
226,-8.201284408569336,-420.8506164550781,77.74708557128906,5.4546383206625855,-7.9288189532590545,-85.05720435292464,12.843381,-6.395767,-5.418169,43.98133,-16.33791,-8.579515,-17.207956,-10.580055,-5.8562884,6.685344,-8.070904,7.6334505,-15.906415,-4.8444195,2.5179224,-8.921829,40.015537,-28.987604,-3.9276347,-5.515836,-4.577952,-14.405133,42.903103,-30.474632,17.895859,33.683266,5.4742103,-12.654668,4.1995482
227,-8.27401351928711,-422.21173095703125,77.4949951171875,5.586786396407679,-8.068325074112076,-84.66205510413562,12.571884,-5.729028,-4.388606,46.876762,-17.804354,-7.6841774,-17.677368,-10.938749,-5.6129646,6.6974707,-8.285374,7.454094,-16.013308,-4.8388968,2.5413978,-10.070979,40.786198,-30.23187,-2.5693493,-4.9009132,-3.6235423,-15.584454,44.40087,-31.091381,17.209597,33.042038,5.1464725,-12.303586,4.4472904
228,-8.340892791748047,-423.5527648925781,77.18856048583984,5.66756462363223,-8.273643359900356,-84.32437515536103,12.312039,-4.9577074,-3.3808026,49.795895,-19.237879,-6.8308897,-17.840166,-11.22924,-5.433452,6.6960416,-8.1898365,7.455027,-16.033623,-4.8115525,2.6812077,-11.148363,41.507374,-31.417824,-1.2802016,-4.1835895,-2.6948583,-16.716309,45.713516,-31.681513,16.676159,32.46108,4.9442477,-12.02923,4.6589465
229,-8.408649444580078,-424.8724365234375,76.82659912109375,5.7912742226353435,-8.592878423303501,-84.05278447996147,12.1570425,-4.19687,-2.3919609,52.698223,-20.632517,-6.0289745,-17.577595,-11.566254,-5.3029556,6.687305,-8.089206,7.88244,-15.948706,-4.8623133,2.948622,-12.1925745,42.18483,-32.57252,-0.052621946,-3.2945232,-1.7597363,-17.852188,46.902744,-32.281227,16.312061,31.884226,4.9425497,-11.858619,4.824929
230,-8.476736068725586,-426.1685485839844,76.41617584228516,5.904072958033758,-8.998432081689693,-83.8478029760537,12.055259,-3.388864,-1.4026101,55.654697,-22.046307,-5.238813,-16.926683,-11.900465,-5.308893,6.673476,-7.878442,8.515527,-15.759173,-4.928658,3.3429513,-13.221696,42.819324,-33.697327,1.1445905,-2.2392685,-0.7884996,-19.032526,47.97448,-32.90511,16.074873,31.300003,5.089166,-11.754578,4.9508715
231,-8.548990249633789,-427.43951416015625,75.9632797241211,5.777934002986034,-9.395025292129517,-83.69172932532983,11.832907,-2.256916,-0.4365475,58.74606,-23.477234,-4.482388,-16.156317,-11.953859,-5.4503646,6.7550726,-7.0181317,8.964421,-15.524939,-4.7612634,3.8511486,-14.126557,43.38324,-34.678234,2.280829,-1.1657493,0.11785168,-20.119915,48.76065,-33.53611,15.997064,30.838549,5.271065,-11.677627,5.054184
232,-8.586906433105469,-428.7066345214844,75.47046661376953,5.286188100541664,-9.70881445739703,-83.55094167336068,11.357849,-0.6446632,0.46846098,61.98556,-24.866783,-3.7553787,-15.450842,-11.578898,-5.680839,6.8440986,-4.847817,8.886837,-15.311774,-4.2302556,4.4420395,-14.820563,43.84481,-35.408802,3.351808,-0.22509202,0.87115,-20.977524,49.115196,-34.141846,16.114933,30.614092,5.369032,-11.588569,5.1464825
233,-8.634221076965332,-429.92047119140625,75.01266479492188,4.333633697685005,-9.926256011612445,-83.4424190058293,10.635003,1.6278051,1.3521261,65.418724,-26.203762,-3.0558352,-16.139444,-10.7640915,-5.715739,9.534669,-1.5604293,8.10987,-15.11527,-3.252745,5.129528,-15.329949,44.18932,-35.88787,4.395847,0.53678715,1.4553595,-21.528404,48.97267,-34.70221,16.464275,30.640299,5.270395,-11.464833,5.236132
234,-8.717567443847656,-431.02484130859375,74.60613250732422,3.1603998805122204,-10.13381333919802,-83.33245820943355,9.806302,4.252869,2.1635156,68.94639,-27.461163,-2.3528996,-17.738417,-9.774716,-5.746826,14.088706,2.6478364,7.048178,-14.932179,-2.0920215,5.9175506,-15.736531,44.42225,-36.182995,5.4528418,1.194155,1.9297751,-21.860125,48.46287,-35.214775,17.016676,30.82332,5.0565815,-11.331239,5.308156
235,-8.772436141967773,-432.1536865234375,74.1054458618164,2.036338134560082,-10.377215754090326,-83.13301489603555,8.886843,6.7800674,2.7495966,72.413475,-28.593998,-1.6222296,-19.1858,-8.895167,-6.039814,18.477308,6.7541556,6.066437,-14.808616,-1.0167516,6.770685,-16.033102,44.5396,-36.288975,6.5194893,1.773719,2.321331,-22.073704,47.703,-35.668354,17.71573,31.144333,4.9000535,-11.221324,5.342537
236,-8.824444770812988,-433.2249755859375,73.57501983642578,1.100732310397133,-10.655116636096267,-82.79626991736416,7.816272,8.913312,2.991651,75.72305,-29.59839,-0.8742918,-20.349552,-8.315194,-6.59123,22.652163,8.646308,5.2911425,-14.7545395,-0.14062087,7.65151,-16.207584,44.525803,-36.198093,7.5898194,2.3076518,2.6529276,-22.267988,46.771454,-36.051353,18.508234,31.624784,4.973455,-11.168812,5.321028
237,-8.859394073486328,-434.197998046875,72.998046875,0.29247238188948516,-10.907131833303087,-82.29829029325501,6.410227,10.7248,2.84505,79.06965,-30.493322,-0.04946827,-21.54086,-8.03747,-7.411422,27.387985,6.922038,4.504055,-14.771295,0.63909584,8.540315,-16.309004,44.363792,-35.909397,8.672593,2.7637117,2.9081283,-22.485397,45.737106,-36.33962,19.296995,32.185524,5.363703,-11.203858,5.234146
238,-8.874346733093262,-435.1824645996094,72.3781967163086,-0.5251457744909291,-11.113720571339192,-81.70006414118238,4.6854463,12.415772,2.388528,82.46999,-31.296587,0.8089309,-22.924417,-7.914793,-8.372849,32.917538,2.7049255,3.5788903,-14.8173895,1.454914,9.456853,-16.36159,44.03786,-35.441418,9.795766,3.1375299,3.083373,-22.662062,44.541954,-36.520405,20.11916,32.85616,5.9586453,-11.302751,5.0950775
