unveil-humanoid-operators/unveil-humanoid-operators.github.io/feature-analysis-animation/data/feature_matrix_instances/age_ankle_rom_walking_A268_walk_arc_cw_loop_R_003__A268.csv
Frame,root_translateX,root_translateY,root_translateZ,root_rotateX,root_rotateY,root_rotateZ,left_hip_pitch_joint_dof,left_hip_roll_joint_dof,left_hip_yaw_joint_dof,left_knee_joint_dof,left_ankle_pitch_joint_dof,left_ankle_roll_joint_dof,right_hip_pitch_joint_dof,right_hip_roll_joint_dof,right_hip_yaw_joint_dof,right_knee_joint_dof,right_ankle_pitch_joint_dof,right_ankle_roll_joint_dof,waist_yaw_joint_dof,waist_roll_joint_dof,waist_pitch_joint_dof,left_shoulder_pitch_joint_dof,left_shoulder_roll_joint_dof,left_shoulder_yaw_joint_dof,left_elbow_joint_dof,left_wrist_roll_joint_dof,left_wrist_pitch_joint_dof,left_wrist_yaw_joint_dof,right_shoulder_pitch_joint_dof,right_shoulder_roll_joint_dof,right_shoulder_yaw_joint_dof,right_elbow_joint_dof,right_wrist_roll_joint_dof,right_wrist_pitch_joint_dof,right_wrist_yaw_joint_dof
0,-1.3769769668579102,0.8184302449226379,74.66885375976562,-4.409203612901691,1.4068454673368573,-10.906549662749482,-27.063496,4.854304,-7.358114,6.5326934,-2.1981156,-13.320196,12.361252,8.076241,-14.493888,7.0509877,-22.300652,-1.5616283,2.9860983,5.860836,7.829105,6.9572177,23.921957,-43.477135,57.67162,8.413908,-1.6126446,-8.4655905,-4.189012,-23.67896,23.600395,53.918713,-18.55989,-4.232898,0.35844854
1,-0.8004181385040283,0.7596030235290527,74.5867919921875,-4.31407302545168,1.460077566018213,-11.157734016775157,-26.932304,4.6344004,-7.547705,6.5604277,-2.1382182,-13.082886,12.80398,7.895419,-14.234215,7.0753617,-22.52425,-1.3762031,2.9950917,5.7877045,7.7313843,7.2479043,24.035305,-43.45374,57.708004,8.615455,-1.5927136,-8.667697,-3.9007237,-23.690264,23.581947,53.760937,-18.507519,-4.276766,0.40578336
2,-0.21512392163276672,0.7003505229949951,74.50617218017578,-4.239827693119282,1.5042185815871276,-11.417554018428168,-26.816082,4.4470444,-7.7371645,6.61093,-2.141559,-12.846836,13.25565,7.7386484,-13.965229,7.098076,-22.75952,-1.196573,3.0130064,5.7280436,7.6350956,7.544005,24.153555,-43.432125,57.75045,8.824404,-1.5736893,-8.878899,-3.6333761,-23.68003,23.563316,53.62583,-18.463549,-4.3219795,0.44827208
3,0.38315853476524353,0.6395360231399536,74.42266845703125,-4.1411587829632195,1.5577232788095567,-11.666740900410042,-26.678913,4.226513,-7.942475,6.6605544,-2.0480442,-12.61133,13.699785,7.546317,-13.713899,7.116685,-22.967127,-1.0065745,3.0148325,5.650297,7.5226393,7.8011436,24.214216,-43.413727,57.860386,9.021372,-1.5583382,-9.066654,-3.3718824,-23.658932,23.56119,53.528313,-18.416405,-4.364336,0.4888229
4,0.9806321263313293,0.5765597224235535,74.34974670410156,-3.9822767993894885,1.635063426186905,-11.891553792939936,-26.490784,3.919962,-8.182572,6.7082424,-1.7107626,-12.378521,14.118429,7.270459,-13.502572,7.136439,-23.110258,-0.79248947,2.9781106,5.5070615,7.39415,8.054472,24.281685,-43.37576,57.95109,9.177452,-1.5416361,-9.211377,-3.1132262,-23.611313,23.586401,53.484875,-18.36337,-4.4013453,0.5286732
5,1.568033218383789,0.5174665451049805,74.31309509277344,-3.751368708500084,1.7448097336682569,-12.086435354647097,-26.230444,3.4988651,-8.51415,6.761018,-1.0849993,-12.174532,14.508946,6.9020405,-13.350062,7.152079,-23.195658,-0.5501076,2.9104798,5.30365,7.240113,8.260395,24.30338,-43.34132,58.081097,9.289462,-1.5281143,-9.295858,-2.811669,-23.576302,23.628645,53.44979,-18.304443,-4.4295835,0.57368094
6,2.160639762878418,0.45884427428245544,74.29082489013672,-3.4776791542047656,1.8691519058497204,-12.250633581510575,-25.915325,3.001,-8.92528,6.8256865,-0.2524224,-11.996775,14.871264,6.4772983,-13.253148,7.211229,-23.267475,-0.2873799,2.7763965,5.0462136,7.07087,8.487708,24.328886,-43.262657,58.193195,9.3770275,-1.5125328,-9.339536,-2.5640173,-23.487318,23.73624,53.518288,-18.245281,-4.4527717,0.6080822
7,2.7717671394348145,0.39437901973724365,74.26527404785156,-3.171747079174091,1.9879040209747256,-12.397927609010837,-25.571598,2.4691765,-9.30409,6.8935943,0.7442093,-11.79812,15.231827,6.0079174,-13.177574,7.2948885,-23.284966,-0.006256698,2.6060596,4.7537265,6.906639,8.700319,24.33533,-43.167854,58.32249,9.432129,-1.4956756,-9.3577795,-2.3426876,-23.362383,23.872593,53.661728,-18.174257,-4.473192,0.6414854
8,3.3833370208740234,0.3387013077735901,74.24917602539062,-2.8481482276818584,2.0854880857220994,-12.543418490221732,-26.085802,1.7932541,-9.561321,8.799363,0.8885086,-11.511535,15.611208,5.506073,-13.088478,7.384412,-23.205969,0.2926019,2.4177542,4.4487085,6.764523,8.889082,24.314688,-43.06517,58.473446,9.45111,-1.475808,-9.367442,-2.1453989,-23.216213,24.020391,53.87517,-18.0753,-4.4952226,0.6818125
9,3.991191864013672,0.28762364387512207,74.25113677978516,-2.4949731648280693,2.1669037893287113,-12.696340953297847,-26.544855,1.134982,-9.606963,10.529796,1.382677,-11.123793,16.00002,4.9482827,-12.979893,7.486448,-23.050524,0.62545466,2.218476,4.1272063,6.648643,9.057915,24.264946,-42.94052,58.6214,9.432615,-1.4430515,-9.373441,-1.9650381,-23.075798,24.179005,54.12843,-17.914677,-4.516375,0.7519124
10,4.597659587860107,0.24487285315990448,74.26513671875,-2.1077352953932382,2.239461597454545,-12.854562311547724,-26.914762,0.4874853,-9.493729,12.054779,2.2157748,-10.660598,16.392141,4.3350387,-12.868354,7.608657,-22.830236,0.99249625,2.0169652,3.7881691,6.556925,9.208811,24.201061,-42.806824,58.750134,9.374066,-1.4011638,-9.368764,-1.7659512,-22.965405,24.335339,54.37829,-17.705019,-4.5358534,0.85013074
11,5.217537879943848,0.1995001882314682,74.28002166748047,-1.7134084212256198,2.290536881782939,-13.013091335188491,-27.220415,-0.1231961,-9.262165,13.501063,3.0195177,-10.140073,16.80354,3.7118964,-12.754831,7.748099,-22.505974,1.3657532,1.7927263,3.4443905,6.4787745,9.333309,24.099094,-42.67217,58.934387,9.2871065,-1.3707161,-9.346679,-1.5876862,-22.826199,24.514658,54.710327,-17.503464,-4.5586605,0.9298353
12,5.846439361572266,0.1636073738336563,74.2935562133789,-1.3404978758179615,2.307450815722472,-13.167274725673844,-27.473183,-0.66963345,-8.961527,14.970345,3.4382977,-9.582515,17.040728,3.0738008,-12.645785,8.350236,-22.273438,1.7154237,1.576161,3.1232057,6.42063,9.403334,23.975779,-42.600517,59.201378,9.163113,-1.3704095,-9.305465,-1.3669546,-22.668283,24.661024,55.088753,-17.369007,-4.5923767,0.96270496
13,6.480860710144043,0.1186721920967102,74.31190490722656,-0.9788753601837533,2.279533907889839,-13.322378210703738,-27.684122,-1.1433985,-8.556892,16.53676,3.3365657,-8.987267,16.541405,2.271854,-12.533837,10.667478,-22.817108,2.0576491,1.3796569,2.8107686,6.3925543,9.430795,23.850508,-42.601128,59.543633,8.967497,-1.4201639,-9.230115,-1.0759925,-22.497408,24.761913,55.49787,-17.348537,-4.6506257,0.9279772
14,7.114040851593018,0.06645764410495758,74.33541107177734,-0.6100311723472168,2.2189042269208024,-13.484782101768674,-27.849094,-1.5570829,-8.040278,18.141027,2.9049175,-8.340793,16.104946,1.468222,-12.369433,12.923881,-23.207897,2.3896825,1.2000691,2.4871314,6.3876247,9.427821,23.727257,-42.648636,59.933212,8.712248,-1.5045174,-9.128629,-0.7372234,-22.309635,24.831509,55.943016,-17.403948,-4.7260027,0.8468413
15,7.739856719970703,0.01937042362987995,74.3721923828125,-0.25078188283666686,2.1482660595269,-13.65100814343961,-27.953537,-1.9214739,-7.505861,19.674768,2.285285,-7.6528306,15.618444,0.6647793,-12.185879,15.286456,-23.465971,2.673393,1.0311729,2.1727192,6.3899026,9.382121,23.608553,-42.738644,60.34969,8.460556,-1.5884084,-9.034695,-0.3760877,-22.104452,24.875633,56.424774,-17.455853,-4.7942843,0.75389796
16,8.366297721862793,-0.038114406168460846,74.42060852050781,0.08565993403478411,2.0925433396917654,-13.816871017308385,-27.987968,-2.26331,-7.039652,21.028467,1.6253886,-6.9355083,15.003256,-0.12892321,-12.015818,17.847923,-23.579268,2.8749647,0.86771995,1.885168,6.3817444,9.279965,23.495283,-42.867916,60.773838,8.27636,-1.6364359,-8.981626,-0.014221607,-21.883242,24.897478,56.939526,-17.424154,-4.831654,0.68428427
17,8.97831916809082,-0.09483040124177933,74.4700698852539,0.3966110876690074,2.057912131465276,-13.96564141379607,-27.976273,-2.6155753,-6.6792703,22.22497,0.8970133,-6.14745,14.252733,-0.8993997,-11.875685,20.6341,-23.552147,2.9883382,0.6996131,1.6308221,6.3589783,9.109382,23.388147,-43.05555,61.220676,8.148115,-1.643735,-8.975506,0.35666838,-21.64206,24.886414,57.491447,-17.23311,-4.835842,0.63641596
18,9.5884370803833,-0.15557876229286194,74.53096008300781,0.6888602863861859,2.0331264340019226,-14.10007668312113,-27.926302,-2.9744537,-6.3806834,23.318274,0.046188243,-5.3034863,13.416103,-1.6514481,-11.747443,23.566591,-23.37515,3.0312386,0.5294736,1.3987396,6.328466,8.881858,23.287836,-43.29736,61.691875,8.051709,-1.6261975,-8.99954,0.7429073,-21.37942,24.843674,58.082676,-16.943905,-4.8185325,0.59413457
19,10.198802947998047,-0.21359126269817352,74.60379791259766,0.9651248186317247,2.0180129402550433,-14.244954631768175,-27.80059,-3.3142867,-6.1006756,24.23399,-0.81723154,-4.498365,12.491912,-2.4020307,-11.613779,26.597921,-23.012365,3.0131912,0.368601,1.1810435,6.289862,8.616137,23.193804,-43.557335,62.15372,8.027937,-1.5846592,-9.052017,1.126876,-21.10201,24.787241,58.696507,-16.685034,-4.776428,0.57215273
20,10.798199653625488,-0.2663399875164032,74.6817398071289,1.2292605271322437,2.0136564540099373,-14.425306808796947,-27.561789,-3.6045609,-5.7929597,24.899681,-1.5874288,-3.8255973,11.470444,-3.1677735,-11.458158,29.697866,-22.431551,2.9490511,0.22719084,0.9705072,6.242634,8.333184,23.105648,-43.7981,62.56358,8.117681,-1.5141448,-9.131925,1.4911486,-20.821886,24.738659,59.3139,-16.581818,-4.7060246,0.58611983
21,11.39409351348877,-0.3215777277946472,74.76929473876953,1.4719071620681383,2.027126382424944,-14.644339218220578,-27.191963,-3.8285604,-5.454478,25.270554,-2.249776,-3.3251734,10.306131,-3.939889,-11.268851,32.933544,-21.530945,2.8043742,0.10388368,0.78237355,6.1802063,8.03745,23.020168,-44.015556,62.919632,8.349061,-1.4074736,-9.24644,1.8411585,-20.548328,24.688084,59.939045,-16.704737,-4.6049986,0.6256906
22,11.985944747924805,-0.3743525743484497,74.86190795898438,1.6908296309001924,2.0566173720170835,-14.885873341334305,-26.719904,-4.0056953,-5.1105556,25.406725,-2.8631115,-2.942048,9.0225725,-4.698314,-11.065026,36.283695,-20.347677,2.6053774,-0.009641173,0.62237304,6.1060205,7.7180305,22.935886,-44.22792,63.24002,8.695617,-1.2695658,-9.3942175,2.1893663,-20.282688,24.629782,60.568127,-16.971369,-4.475938,0.6897905
23,12.571117401123047,-0.42003700137138367,74.96334075927734,1.8995527558590304,2.0885110797646855,-15.146655295442072,-26.174965,-4.1550326,-4.757118,25.39044,-3.4333804,-2.6279016,7.710122,-5.446547,-10.870786,39.598896,-19.069798,2.4458818,-0.11487029,0.46835828,6.0358634,7.3728275,22.857132,-44.429123,63.513863,9.116414,-1.1162621,-9.562571,2.5271971,-20.025677,24.590305,61.171825,-17.279999,-4.322423,0.8080316
24,13.149324417114258,-0.47153547406196594,75.05987548828125,2.1114642290219576,2.1081878846119,-15.422791170655008,-25.58768,-4.2959456,-4.3908625,25.306492,-3.9670393,-2.3340058,6.446203,-6.1993303,-10.703337,42.76475,-17.907541,2.3963823,-0.21610111,0.29766312,5.9872646,7.0035496,22.792585,-44.608925,63.72323,9.570335,-0.9627354,-9.738619,2.8434083,-19.776958,24.600027,61.722485,-17.527964,-4.148323,1.0093888
25,13.713770866394043,-0.5260185599327087,75.16336822509766,2.330781102054557,2.1085449915138152,-15.720512181942391,-24.938246,-4.4288917,-4.0011873,25.131985,-4.4534354,-2.0553732,5.2130227,-6.9355035,-10.467582,45.839725,-16.855988,2.5178862,-0.31052494,0.1024313,5.9668727,6.618588,22.748539,-44.75506,63.846397,10.10441,-0.7939818,-9.932641,3.132423,-19.535133,24.66946,62.223503,-17.675327,-3.942048,1.3183277
26,14.277766227722168,-0.5904685258865356,75.265380859375,2.547148624641774,2.0977050010137885,-16.03787347722006,-24.221966,-4.5454884,-3.5949302,24.842339,-4.895145,-1.8143355,3.9649441,-7.657078,-10.181561,48.897877,-15.847694,2.7445953,-0.40082708,-0.10338512,5.966465,6.2212596,22.7275,-44.87054,63.887203,10.723664,-0.60863614,-10.148631,3.3982892,-19.300304,24.783588,62.68834,-17.782661,-3.7060733,1.7134768
27,14.835798263549805,-0.6567521691322327,75.3556900024414,2.755091445610859,2.083735799259685,-16.359953475342625,-23.486406,-4.6522465,-3.193894,24.508263,-5.3128815,-1.6027683,2.7387328,-8.439799,-10.028302,51.854885,-15.0017805,2.928304,-0.49781275,-0.31070518,5.982185,5.8031206,22.733616,-44.974792,63.865093,11.315737,-0.44145063,-10.363786,3.6461174,-19.072979,24.936789,63.101765,-17.892803,-3.4651358,2.1555836
28,15.37779712677002,-0.7270376086235046,75.447021484375,2.951286304726115,2.074545600385845,-16.67137307091419,-22.777744,-4.7568293,-2.818537,24.197273,-5.726537,-1.4127063,1.5730702,-9.381354,-10.191265,54.62732,-14.436399,2.9063265,-0.612163,-0.51295316,6.0100226,5.357718,22.771837,-45.084282,63.797234,11.771108,-0.3258611,-10.554288,3.8842096,-18.8531,25.1191,63.44544,-18.05209,-3.2445493,2.605803
29,15.913507461547852,-0.8015128970146179,75.52944946289062,3.1510349325954623,2.064054677447141,-16.974365233978386,-22.0911,-4.872948,-2.4624999,23.907322,-6.130715,-1.2471459,0.499363,-10.619933,-10.796409,57.24748,-14.258978,2.5795066,-0.7420108,-0.7292807,6.0622787,4.8804116,22.848076,-45.18884,63.665432,12.085276,-0.26922226,-10.740999,4.1069684,-18.640919,25.331839,63.707214,-18.277342,-3.0394156,3.090275
30,16.43011474609375,-0.8913514018058777,75.60238647460938,3.3534011198296407,2.050106579149084,-17.273913215611774,-21.404217,-4.995294,-2.117587,23.603344,-6.5155363,-1.1078626,-0.49641508,-12.10853,-11.713591,59.757156,-14.400803,2.0187473,-0.88377583,-0.9597923,6.1379824,4.379184,22.965113,-45.284397,63.458805,12.307992,-0.25291523,-10.927458,4.313558,-18.436136,25.577265,63.897278,-18.543629,-2.8414054,3.6181993
31,16.941709518432617,-0.9825246334075928,75.67039489746094,3.5312041082827728,2.046216144659832,-17.56091118951075,-20.740416,-5.10112,-1.8001093,23.310665,-6.8960066,-0.9863245,-1.4469622,-13.660684,-12.746899,62.085697,-14.704386,1.3276428,-1.0435641,-1.1707617,6.2129908,3.8637156,23.120686,-45.398754,63.208378,12.409435,-0.26990536,-11.063107,4.5154915,-18.239061,25.850256,64.03279,-18.829458,-2.6689284,4.1256204
32,17.444568634033203,-1.0737744569778442,75.7380599975586,3.65525938269091,2.0662752471896204,-17.826402554177463,-20.120378,-5.164961,-1.5264938,23.048397,-7.2883,-0.87479305,-2.3994932,-15.069297,-13.709595,64.15659,-14.999849,0.62530196,-1.2250677,-1.3263379,6.2627053,3.3401747,23.307974,-45.56181,62.95072,12.359979,-0.31341034,-11.096946,4.7229695,-18.050714,26.144361,64.13646,-19.112326,-2.5426662,4.5469575
33,17.95279312133789,-1.171339750289917,75.8093490600586,3.7097905490200684,2.122679156721797,-18.0688876709169,-19.56648,-5.169701,-1.3029873,22.836487,-7.7035103,-0.77577674,-3.3661938,-16.34267,-14.668846,65.962585,-15.282741,-0.12356238,-1.430206,-1.4075665,6.273832,2.802203,23.521587,-45.791565,62.688156,12.123132,-0.39121473,-11.019027,4.936219,-17.873184,26.46905,64.203606,-19.40977,-2.4612079,4.8731904
34,18.46550941467285,-1.2745897769927979,75.8824691772461,3.7119002863272357,2.204506743925553,-18.292817608144443,-19.061825,-5.129054,-1.1193901,22.661036,-8.13251,-0.6928907,-4.3203964,-17.55714,-15.696697,67.543236,-15.633272,-0.94492173,-1.6553942,-1.4341067,6.26183,2.2434137,23.75829,-46.071873,62.412136,11.723753,-0.5063424,-10.854907,5.1511817,-17.706743,26.82223,64.22547,-19.7259,-2.4157495,5.1362276
35,18.970048904418945,-1.380208969116211,75.9511947631836,3.6812564533695937,2.2913347527416272,-18.49971746875604,-18.57739,-5.0620418,-0.96641517,22.508066,-8.563893,-0.62071806,-5.2732573,-18.59353,-16.617544,68.88289,-15.984375,-1.6943665,-1.8960824,-1.4271109,6.244148,1.6714072,24.012886,-46.378178,62.137764,11.227405,-0.6403097,-10.607553,5.373409,-17.549194,27.181671,64.21425,-20.016226,-2.4106855,5.3328776
36,19.468395233154297,-1.493698239326477,76.02033996582031,3.637865544239514,2.363001192167093,-18.69091684483136,-18.084734,-4.9882417,-0.8350342,22.364006,-8.987042,-0.55378175,-6.2490516,-19.330313,-17.253883,69.96423,-16.2575,-2.2248583,-2.1469903,-1.4082607,6.237635,1.0922971,24.278786,-46.684395,61.886612,10.701257,-0.7770674,-10.278464,5.6080737,-17.396713,27.523903,64.18503,-20.23728,-2.4516716,5.4589705
37,19.96397590637207,-1.6110076904296875,76.09027862548828,3.5724839200247973,2.421214447008303,-18.863674731780193,-17.59239,-4.898083,-0.73162615,22.241474,-9.403212,-0.49308965,-7.2840385,-19.67702,-17.529697,70.75817,-16.406507,-2.4772148,-2.4133844,-1.3665638,6.237325,0.5004049,24.551617,-47.015137,61.674168,10.093632,-0.9218454,-9.822514,5.8550415,-17.249685,27.862917,64.14468,-20.368063,-2.5591185,5.5008044
38,20.46050453186035,-1.7271082401275635,76.15717315673828,3.4786732600724846,2.47468123550712,-19.019369246569493,-17.111187,-4.783526,-0.6571229,22.144243,-9.818463,-0.44176653,-8.371519,-19.70599,-17.55505,71.27902,-16.467478,-2.5214128,-2.6942737,-1.2944738,6.2368717,-0.109527245,24.828741,-47.374268,61.493835,9.393608,-1.0851102,-9.254047,6.110344,-17.108425,28.205435,64.088196,-20.434061,-2.7238736,5.463753
39,20.953060150146484,-1.8492424488067627,76.2228775024414,3.381985953344389,2.5137611857394906,-19.163960427238894,-16.618778,-4.668843,-0.59499884,22.04764,-10.227528,-0.39726108,-9.476934,-19.542913,-17.429523,71.5794,-16.485899,-2.4084287,-2.9778113,-1.2226273,6.2485547,-0.73179924,25.107637,-47.709026,61.338505,8.725092,-1.2542742,-8.6626005,6.3758855,-16.969715,28.51464,64.007744,-20.467155,-2.9003453,5.373955
40,21.439002990722656,-1.97527015209198,76.28300476074219,3.3083410134138647,2.529114042486069,-19.30293590475509,-16.09364,-4.5797353,-0.5287973,21.928684,-10.625729,-0.35646924,-10.564028,-19.317476,-17.249645,71.71475,-16.510342,-2.1924877,-3.2531276,-1.1829134,6.2836137,-1.3598796,25.38695,-47.96604,61.201756,8.211253,-1.4124173,-8.136859,6.652892,-16.828115,28.754702,63.89682,-20.498985,-3.043114,5.257058
41,21.92137336730957,-2.1030657291412354,76.33251953125,3.2622331117193855,2.50872830634836,-19.431028483727555,-15.520836,-4.5224895,-0.46126977,21.783014,-11.012457,-0.32015023,-11.624815,-19.00283,-16.979986,71.6716,-16.521328,-1.8223554,-3.5257587,-1.183934,6.349906,-1.9941223,25.668428,-48.13631,61.095634,7.889184,-1.5676975,-7.6858845,6.9458203,-16.677435,28.911304,63.75588,-20.552309,-3.143223,5.088985
42,22.398300170898438,-2.234079599380493,76.37970733642578,3.2314078666141595,2.460453412166857,-19.54734121594804,-14.913955,-4.4843907,-0.39900464,21.62168,-11.389712,-0.289177,-12.6734085,-18.553701,-16.591688,71.42971,-16.509933,-1.2939813,-3.7990031,-1.2116866,6.4384055,-2.6375072,25.953583,-48.24814,61.022614,7.691219,-1.7215896,-7.2662044,7.247956,-16.517073,29.00672,63.595497,-20.60555,-3.223818,4.8649936
43,22.86823272705078,-2.370643377304077,76.4209213256836,3.2163393395625435,2.4049674465052604,-19.663204391847273,-14.294998,-4.462795,-0.33204043,21.444895,-11.756658,-0.260543,-13.707458,-18.072424,-16.187962,71.03355,-16.53682,-0.73427916,-4.0598536,-1.2617109,6.5358257,-3.2858536,26.239738,-48.29977,60.95926,7.584946,-1.8443732,-6.8878884,7.5508137,-16.349077,29.058619,63.415066,-20.624357,-3.2875118,4.640914
44,23.34270477294922,-2.507021427154541,76.4521713256836,3.217579789150635,2.3630221487078225,-19.79037903745937,-13.686374,-4.4547014,-0.25086418,21.253712,-12.112267,-0.231682,-14.727741,-17.660675,-15.871967,70.52618,-16.655815,-0.27058986,-4.296133,-1.3289038,6.6281843,-3.9354463,26.521688,-48.28776,60.88588,7.539055,-1.9073296,-6.56055,7.844144,-16.179138,29.084846,63.215508,-20.574244,-3.337415,4.4725246
45,23.80511474609375,-2.6435000896453857,76.48286437988281,3.2404729808609125,2.336519780749201,-19.92960011915035,-13.092423,-4.466434,-0.15461135,21.05063,-12.454665,-0.20179911,-15.743415,-17.33481,-15.650804,69.91055,-16.924278,0.06783851,-4.5046287,-1.4178241,6.716129,-4.5959444,26.796312,-48.216957,60.809193,7.560036,-1.893955,-6.285834,8.133009,-16.011612,29.079546,62.980713,-20.423946,-3.368032,4.372969
46,24.266218185424805,-2.7830898761749268,76.5030288696289,3.282987624111965,2.3155087130661816,-20.075263142271687,-12.500946,-4.49719,-0.048997432,20.832983,-12.784289,-0.17277794,-16.749762,-17.04679,-15.476217,69.16409,-17.295553,0.34354493,-4.6919146,-1.5269767,6.8056507,-5.2678375,27.062273,-48.085747,60.74142,7.6618276,-1.82177,-6.0586853,8.424654,-15.847153,29.035023,62.709515,-20.199055,-3.3800797,4.314199
47,24.72325325012207,-2.9192469120025635,76.52225494384766,3.33375410707787,2.3039438151325684,-20.228941268974417,-11.9124155,-4.5336375,0.067279644,20.598759,-13.105789,-0.14555494,-17.732138,-16.798046,-15.365356,68.29462,-17.664734,0.5707301,-4.8603973,-1.6414543,6.89006,-5.9374866,27.31688,-47.88844,60.674553,7.81436,-1.7137758,-5.8780313,8.708588,-15.687197,28.972292,62.429237,-19.94584,-3.3855443,4.290061
48,25.188552856445312,-3.0692837238311768,76.52936553955078,3.381219536147317,2.3055961828901377,-20.392923302401265,-11.32919,-4.5624447,0.19638781,20.349371,-13.426012,-0.12027824,-18.675625,-16.588419,-15.335478,67.30862,-17.926844,0.7660106,-5.0135856,-1.7463219,6.9626327,-6.589915,27.556662,-47.615536,60.600925,7.98996,-1.5933228,-5.7429476,8.973559,-15.533585,28.913317,62.167606,-19.710684,-3.39617,4.2944007
49,25.64859390258789,-3.220949411392212,76.53744506835938,3.4222073640419657,2.3255915115084234,-20.567661355820263,-10.756481,-4.5796623,0.339218,20.084972,-13.745245,-0.0963615,-19.584543,-16.418344,-15.398819,66.2002,-18.056517,0.9317424,-5.1516347,-1.8358327,7.019193,-7.2246776,27.77816,-47.244274,60.524612,8.224605,-1.4488829,-5.6731105,9.22011,-15.387442,28.84692,61.920956,-19.483292,-3.4110653,4.33729
50,26.104957580566406,-3.3673391342163086,76.5427017211914,3.462196351629053,2.360641244741554,-20.752403543749203,-10.192034,-4.592713,0.49472818,19.80494,-14.060027,-0.07312018,-20.463158,-16.284,-15.544455,64.96592,-18.107735,1.0634837,-5.2737617,-1.9168345,7.0636687,-7.8502417,27.98065,-46.785076,60.45396,8.518675,-1.2748019,-5.6625133,9.454152,-15.2492285,28.767805,61.6769,-19.246367,-3.4249387,4.4183455
51,26.564088821411133,-3.5182363986968994,76.54239654541016,3.502415665017906,2.40255563680808,-20.94650887048516,-9.627416,-4.6035724,0.6621496,19.51219,-14.374363,-0.053445205,-21.29617,-16.17791,-15.7555685,63.61515,-18.094025,1.1688157,-5.381631,-1.9931161,7.1017165,-8.462363,28.165197,-46.275208,60.385086,8.794539,-1.1024816,-5.6707196,9.670373,-15.119869,28.708237,61.452225,-19.0332,-3.4425907,4.515894
52,27.020767211914062,-3.674220323562622,76.53569793701172,3.5445269450944394,2.4426632522756906,-21.14967552183448,-9.046701,-4.6151323,0.8385006,19.193834,-14.682895,-0.040590364,-22.06943,-16.092472,-16.015835,62.159676,-18.030437,1.2549355,-5.4780765,-2.0681663,7.1391077,-9.05989,28.334688,-45.757336,60.314342,8.967819,-0.9631834,-5.6563625,9.863519,-14.999906,28.701078,61.26359,-18.877708,-3.469263,4.608177
53,27.478378295898438,-3.832115650177002,76.52269744873047,3.590081306973875,2.4818560805820846,-21.365593393432984,-8.454291,-4.6278043,1.0307581,18.857174,-14.992461,-0.030280769,-22.789326,-16.021832,-16.314386,60.598568,-17.91671,1.3254541,-5.5591097,-2.1440182,7.175185,-9.641309,28.489761,-45.225758,60.24075,9.015849,-0.8629137,-5.616822,10.033499,-14.889317,28.76116,61.11802,-18.819517,-3.5095704,4.6941204
54,27.93489646911621,-3.991924524307251,76.5084457397461,3.6373923275828806,2.52370576952031,-21.59345756933725,-7.853205,-4.6403456,1.23712,18.500038,-15.299935,-0.023106836,-23.458292,-15.963968,-16.665928,58.92358,-17.745117,1.3800379,-5.6249466,-2.2181668,7.207492,-10.206995,28.63064,-44.66213,60.165733,8.983669,-0.7858719,-5.570627,10.181622,-14.788254,28.868992,61.007355,-18.83028,-3.5599632,4.7833753
55,28.386837005615234,-4.154827117919922,76.49251556396484,3.6831024717468352,2.56444443355274,-21.825518549480243,-7.2431087,-4.6509976,1.4468826,18.130867,-15.605564,-0.02665573,-24.056519,-15.918019,-17.091951,57.134296,-17.518717,1.4204024,-5.6839485,-2.2877555,7.2394853,-10.755998,28.760351,-44.089542,60.084496,8.890622,-0.72972596,-5.5086536,10.306676,-14.69616,29.005402,60.921787,-18.841288,-3.6130247,4.8710995
56,28.842607498168945,-4.324409008026123,76.46932983398438,3.7239255848182684,2.600217736825487,-22.053853593966902,-6.62317,-4.6577535,1.6493242,17.756672,-15.908852,-0.04882173,-24.564089,-15.883654,-17.613384,55.22904,-17.240133,1.4478444,-5.7430644,-2.3508315,7.2749767,-11.282761,28.882006,-43.523212,59.98724,8.765261,-0.69188225,-5.4222608,10.409097,-14.611181,29.14813,60.850693,-18.785816,-3.6614633,4.952427
57,29.29639434814453,-4.495534896850586,76.44634246826172,3.7586393876240303,2.628128351457963,-22.27695990839903,-5.9876733,-4.6587777,1.843064,17.372997,-16.210777,-0.105447784,-24.969433,-15.866587,-18.247896,53.193905,-16.916763,1.4548291,-5.802603,-2.4075363,7.3182006,-11.786595,28.997095,-42.95892,59.872204,8.614735,-0.6766271,-5.308365,10.482935,-14.532009,29.300524,60.79524,-18.59177,-3.706547,5.029123
58,29.75539207458496,-4.684421539306641,76.41889190673828,3.788889967815633,2.651035191793054,-22.498812931119286,-5.3383713,-4.6547337,2.033756,16.976143,-16.510065,-0.18820867,-25.285095,-15.857065,-18.98381,51.032753,-16.542562,1.4484229,-5.8589444,-2.4592257,7.366187,-12.267481,29.106003,-42.38894,59.740005,8.425906,-0.68368125,-5.172078,10.530468,-14.458011,29.469536,60.75938,-18.314606,-3.7507503,5.102819
59,30.20804786682129,-4.867733955383301,76.386962890625,3.815648466650167,2.6734765267849068,-22.720177394305868,-4.68728,-4.647737,2.2213275,16.58074,-16.80647,-0.26903957,-25.52405,-15.832405,-19.797373,48.761684,-16.104155,1.4497132,-5.91215,-2.5058339,7.412274,-12.72741,29.210932,-41.834866,59.587803,8.186394,-0.7037753,-5.0170684,10.559818,-14.388361,29.642902,60.74141,-18.07267,-3.7895565,5.168156
60,30.66322135925293,-5.057908058166504,76.35336303710938,3.8407004703126923,2.6998977663019397,-22.94139979863779,-4.0438843,-4.640385,2.4052,16.196756,-17.09685,-0.32004434,-25.7015,-15.773867,-20.661444,46.39851,-15.587415,1.4778124,-5.9602423,-2.5487988,7.450481,-13.162324,29.31311,-41.307396,59.40806,7.896428,-0.72738284,-4.8475423,10.58198,-14.321285,29.804802,60.7369,-17.987064,-3.8187401,5.219698
61,31.119976043701172,-5.251946449279785,76.3199691772461,3.8657673966587645,2.7297827382690665,-23.162757496651768,-3.413429,-4.6344624,2.585056,15.835805,-17.384594,-0.32895774,-25.808165,-15.692104,-21.60373,43.92237,-14.971316,1.5379258,-6.00317,-2.590942,7.480409,-13.573712,29.41378,-40.807327,59.19801,7.5323296,-0.7541608,-4.6627226,10.597918,-14.254877,29.955036,60.75093,-18.128593,-3.8393703,5.252029
62,31.571861267089844,-5.458479404449463,76.27996826171875,3.8904848439477,2.7608063143856043,-23.38368585929926,-2.7877445,-4.628839,2.760748,15.487158,-17.669092,-0.31279364,-25.839087,-15.585652,-22.626936,41.324215,-14.264728,1.6219386,-6.040807,-2.6325984,7.505542,-13.959659,29.512768,-40.324963,58.958004,7.1071835,-0.7888567,-4.4616213,10.602052,-14.188119,30.099646,60.784405,-18.420446,-3.8532143,5.2690153
63,32.02260971069336,-5.657758712768555,76.23755645751953,3.91378778642403,2.794397657151284,-23.60324032994189,-2.1621244,-4.6223316,2.9321384,15.136214,-17.943922,-0.2876112,-25.816593,-15.424917,-23.663345,38.637512,-13.4979,1.7249315,-6.0736537,-2.6713667,7.5249634,-14.323748,29.610569,-39.878056,58.694027,6.6529136,-0.8299681,-4.246954,10.594279,-14.1217575,30.23349,60.829506,-18.761555,-3.8570015,5.278871
64,32.48236846923828,-5.872303009033203,76.18717193603516,3.9344675685843473,2.8315174663599447,-23.819840837457928,-1.525372,-4.6140776,3.0982502,14.755306,-18.201767,-0.26945898,-25.76224,-15.185534,-24.644014,35.89568,-12.701859,1.8386655,-6.1011653,-2.7035205,7.538254,-14.670943,29.707405,-39.48738,58.412163,6.1994467,-0.875668,-4.0212173,10.577644,-14.056905,30.349442,60.874557,-19.052078,-3.8472857,5.2904263
65,32.94237518310547,-6.092830181121826,76.13871765136719,3.9585672808037002,2.871636737015044,-24.036957350848006,-0.8707738,-4.6116834,3.2617974,14.332149,-18.43347,-0.25315803,-25.675201,-14.868111,-25.56104,33.071346,-11.88299,1.9408265,-6.1210494,-2.7338386,7.546545,-14.999229,29.801752,-39.152508,58.110386,5.729249,-0.9305688,-3.7759042,10.550808,-13.993574,30.44682,60.91807,-19.259485,-3.8186553,5.2997737
66,33.39971160888672,-6.319666862487793,76.08639526367188,3.9871292607593047,2.9125921949406917,-24.25179722167552,-0.20029402,-4.6162887,3.4200706,13.875279,-18.642645,-0.2341424,-25.540638,-14.490706,-26.44378,30.144325,-11.019088,2.0377386,-6.135721,-2.764445,7.5509973,-15.309809,29.893019,-38.868534,57.788246,5.231541,-0.9946117,-3.5126996,10.514623,-13.931464,30.527908,60.964256,-19.439651,-3.7743244,5.3044577
67,33.85382843017578,-6.549219608306885,76.02861785888672,4.014189201230225,2.952168720926958,-24.45307164963168,0.47810462,-4.6198907,3.5651555,13.405399,-18.839369,-0.22757868,-25.3544,-14.059036,-27.277655,27.149036,-10.093407,2.164126,-6.152549,-2.792423,7.552686,-15.601218,29.98094,-38.62873,57.44636,4.766847,-1.0579345,-3.2504778,10.474708,-13.870892,30.590508,61.00924,-19.622963,-3.7241275,5.31601
68,34.30689239501953,-6.781551361083984,75.97180938720703,4.035528931947315,2.987616228812646,-24.628831458657064,1.1571532,-4.6166735,3.6886547,12.942422,-19.032911,-0.24728397,-25.113451,-13.577976,-28.047407,24.123306,-9.08898,2.3569217,-6.179445,-2.8158948,7.553138,-15.876886,30.066597,-38.435127,57.088043,4.3867426,-1.1102023,-3.0077307,10.436167,-13.812515,30.634493,61.04928,-19.83779,-3.6779947,5.3458824
69,34.76909255981445,-7.025446891784668,75.90792083740234,4.053665704494962,3.017322854572092,-24.77162956362142,1.8433399,-4.6103907,3.78293,12.47294,-19.218348,-0.29598922,-24.796604,-13.017972,-28.72376,20.969675,-7.9066887,2.6785805,-6.2222185,-2.839153,7.5548224,-16.140951,30.151882,-38.296337,56.709972,4.102837,-1.143083,-2.777122,10.402864,-13.754624,30.659386,61.08274,-20.136436,-3.6349206,5.4005585
70,35.22602462768555,-7.267428874969482,75.83689880371094,4.085846385517615,3.0337633801409734,-24.878278664158113,2.5594838,-4.623303,3.8436043,11.965119,-19.378553,-0.36374277,-24.391056,-12.40367,-29.318623,17.671673,-6.5716887,3.0931897,-6.2778893,-2.8700569,7.560361,-16.414396,30.204218,-38.220608,56.344467,3.891544,-1.165014,-2.5501597,10.392093,-13.717715,30.65809,61.089153,-20.48547,-3.5906806,5.476139
71,35.68387222290039,-7.5227251052856445,75.76020050048828,4.14730601644032,3.0265723518580825,-24.94561462304196,3.3177946,-4.6736293,3.869692,11.4184,-19.507845,-0.43772823,-23.920845,-11.816453,-29.883549,14.415708,-5.2608237,3.4933794,-6.3656383,-2.9339373,7.575757,-16.652445,30.264381,-38.166718,55.950794,3.7485616,-1.1844888,-2.3527207,10.374304,-13.675378,30.64248,61.097775,-20.795835,-3.5508938,5.5590653
72,36.14919662475586,-7.788444519042969,75.67596435546875,4.237469103738088,2.9944915079483883,-24.97941349783265,4.105867,-4.7580786,3.8690813,10.8672905,-19.619581,-0.5108262,-23.423008,-11.3145,-30.479311,11.396298,-4.155346,3.7715428,-6.4769325,-3.0245116,7.5974793,-16.854717,30.318115,-38.122322,55.54529,3.6702313,-1.2130256,-2.20383,10.359037,-13.63893,30.608015,61.09386,-20.971949,-3.5205834,5.6421437
73,36.61338806152344,-8.050788879394531,75.58349609375,4.342081049123593,2.9442302376136715,-24.988213551344618,4.9097986,-4.8581142,3.852422,10.328487,-19.72453,-0.5839619,-22.873177,-10.85644,-31.126741,8.529993,-3.2945912,3.8812141,-6.606241,-3.1289809,7.621344,-17.01602,30.36817,-38.078403,55.12169,3.6739743,-1.256425,-2.1139317,10.342814,-13.6078615,30.545427,61.0717,-20.952152,-3.499757,5.738939
74,37.08295440673828,-8.320684432983398,75.48363494873047,4.448435372576857,2.8851171235264497,-24.977413362011827,5.715232,-4.9575515,3.822409,9.811089,-19.829445,-0.66303676,-22.873898,-10.772241,-31.684118,7.2200365,-3.3505628,3.8990145,-6.749496,-3.232009,7.64247,-17.142319,30.414642,-38.04828,54.67898,3.7498407,-1.3070383,-2.0689542,10.322886,-13.583518,30.460176,61.038055,-20.798122,-3.4862459,5.848692
75,37.56258010864258,-8.587494850158691,75.38371276855469,4.544617366749792,2.8279154574588894,-24.959826565313776,6.488632,-5.039622,3.7874293,9.363533,-19.954058,-0.7515743,-23.264236,-10.961999,-32.194443,7.1072407,-3.9972105,3.8761697,-6.886257,-3.320974,7.658286,-17.221165,30.466282,-38.023582,54.200825,3.8763072,-1.3547261,-2.0565493,10.29819,-13.562552,30.361893,61.00617,-20.609211,-3.4817033,5.9412837
76,38.04037094116211,-8.864982604980469,75.28197479248047,4.61944212602866,2.782996529170072,-24.948014465140375,7.194893,-5.088651,3.7568932,9.038129,-20.121025,-0.8530664,-23.557909,-11.109927,-32.758427,7.019667,-4.4751053,3.8525057,-7.009654,-3.3785691,7.657533,-17.260635,30.510437,-38.007206,53.714317,4.0169606,-1.3938974,-2.0602183,10.266906,-13.552441,30.282803,60.991886,-20.47187,-3.4864037,5.9860554
77,38.52427291870117,-9.140227317810059,75.17687225341797,4.673669511476935,2.7526792120492622,-24.94364746309517,7.828641,-5.1065845,3.7375946,8.840271,-20.341635,-0.9688232,-23.745836,-11.220384,-33.4343,6.9581757,-4.749439,3.8683772,-7.1191044,-3.402495,7.630224,-17.270971,30.523588,-37.99954,53.243587,4.184915,-1.4232785,-2.0789423,10.2300625,-13.553579,30.24624,61.005688,-20.404184,-3.5038939,5.9604506
78,39.00370788574219,-9.42044734954834,75.07091522216797,4.706475495194444,2.736064096913388,-24.947919028247558,8.394137,-5.093177,3.7336438,8.764592,-20.613548,-1.0982221,-23.83931,-11.290947,-34.194073,6.925015,-4.896959,3.8817844,-7.206238,-3.3921082,7.591748,-17.23842,30.532068,-37.994682,52.742992,4.390921,-1.4449733,-2.1234477,10.183459,-13.561846,30.208551,61.03673,-20.376171,-3.5353117,5.8883643
79,39.488948822021484,-9.699682235717773,74.96678161621094,4.705759236675263,2.7366551246247046,-24.970741895556067,8.871908,-5.031983,3.7494051,8.848342,-20.938103,-1.2419741,-23.860075,-11.294496,-34.91427,6.9230084,-4.947921,3.813099,-7.2655067,-3.3358603,7.5421696,-17.15548,30.536438,-37.987495,52.21942,4.614341,-1.4611837,-2.1831841,10.132264,-13.587316,30.16323,61.06682,-20.358908,-3.5711577,5.8016496
80,39.97661590576172,-9.98106861114502,74.86825561523438,4.659741809678364,2.757395033571313,-25.021633456599613,9.246489,-4.9063807,3.7883105,9.123742,-21.315115,-1.400877,-23.83106,-11.206317,-35.471703,6.95667,-4.9348607,3.5833588,-7.296121,-3.226051,7.474522,-17.0314,30.526505,-37.979736,51.71339,4.8305035,-1.4780279,-2.2470908,10.087884,-13.642696,30.116137,61.076866,-20.315872,-3.6003098,5.7297206
81,40.4664192199707,-10.273523330688477,74.77395629882812,4.576048047203248,2.7960257235147403,-25.103354436072,9.5285845,-4.728524,3.850337,9.57653,-21.741152,-1.5700873,-23.730553,-11.027945,-35.83636,7.0349684,-4.881778,3.221765,-7.2950463,-3.077162,7.3835545,-16.86086,30.499252,-37.966774,51.22897,5.0455413,-1.4952137,-2.3207004,10.027091,-13.702289,30.071444,61.102043,-20.230549,-3.6231978,5.680552
82,40.95988464355469,-10.56415843963623,74.68868255615234,4.454996109069539,2.85048475890637,-25.21008410177185,9.730513,-4.4998055,3.9328756,10.182131,-22.209583,-1.751601,-23.556042,-10.768594,-36.07213,7.153738,-4.7676597,2.7502706,-7.2630024,-2.8728716,7.2775455,-16.655277,30.435326,-37.94777,50.76688,5.2728677,-1.5128348,-2.4060457,9.976013,-13.802581,30.020634,61.104767,-20.12133,-3.6441135,5.6438756
83,41.45918273925781,-10.867383003234863,74.60700225830078,4.27535597052966,2.922775114553379,-25.337268072407213,9.843564,-4.190429,4.034054,10.952692,-22.713875,-1.9561903,-23.351088,-10.414214,-36.19917,7.284718,-4.5499067,2.0825624,-7.197982,-2.590114,7.1556163,-16.44057,30.316988,-37.948986,50.360634,5.501055,-1.5315142,-2.4846985,9.954328,-13.949842,29.957884,61.069157,-20.010313,-3.6600718,5.605159
84,41.94913864135742,-11.167086601257324,74.53895568847656,4.018867962159861,3.0129599959782554,-25.476817585043342,9.864112,-3.7735662,4.14698,11.893157,-23.242638,-2.1943624,-23.16098,-9.957121,-36.239525,7.4082756,-4.187825,1.134042,-7.104846,-2.231573,7.0176377,-16.21539,30.177795,-37.99142,50.002213,5.7132096,-1.5483016,-2.543865,9.93763,-14.089741,29.881783,61.042088,-19.929537,-3.6689286,5.5398827
85,42.45124053955078,-11.484861373901367,74.47377014160156,3.6723163779156907,3.1274952241505347,-25.631490537567746,9.786573,-3.2309828,4.2749677,13.003989,-23.809639,-2.4756532,-23.665064,-9.870971,-36.041454,9.254312,-4.56243,-0.24747975,-6.9803576,-1.7863249,6.855209,-15.972555,30.021252,-38.07735,49.682434,5.9127636,-1.5607321,-2.5782998,9.929975,-14.218147,29.790998,61.022095,-19.90716,-3.6650665,5.439008
86,42.957435607910156,-11.813031196594238,74.4129867553711,3.264430941454033,3.251326115436327,-25.78542231857142,9.657032,-2.601977,4.3955193,14.220757,-24.38633,-2.7887962,-24.414291,-9.873996,-35.702522,11.74692,-5.1139274,-1.9666951,-6.8415813,-1.2837934,6.6768675,-15.706899,29.84891,-38.197296,49.39677,6.1054244,-1.5694318,-2.5984533,9.926611,-14.334461,29.688768,61.013245,-19.92231,-3.6512494,5.3123474
87,43.4543571472168,-12.154391288757324,74.3672103881836,2.831742047006872,3.357996238017124,-25.911774472089373,9.510679,-1.9338902,4.4738235,15.514943,-24.918087,-3.1157122,-25.07983,-9.811413,-35.37588,14.077911,-5.4463844,-3.7119365,-6.716903,-0.76099735,6.5078588,-15.4312,29.664476,-38.351257,49.15953,6.2802963,-1.5779295,-2.6119845,9.919434,-14.440294,29.575674,61.02307,-19.930393,-3.6375754,5.17114
88,43.943180084228516,-12.511673927307129,74.33390808105469,2.385794639613896,3.433726763938437,-25.998989979811824,9.362836,-1.2442247,4.4907937,16.876379,-25.364365,-3.4418201,-25.561184,-9.673718,-35.168133,16.022408,-5.4876795,-5.177524,-6.619408,-0.22909899,6.367913,-15.142407,29.468853,-38.5193,48.971977,6.4449687,-1.5891169,-2.626176,9.899179,-14.537665,29.452187,61.057293,-19.88605,-3.634609,5.0275435
89,44.435665130615234,-12.875879287719727,74.30957794189453,1.8790651947725119,3.492737716747114,-26.0443163315074,9.174686,-0.46572027,4.4387436,18.355095,-25.7753,-3.782534,-25.855999,-9.42888,-35.113705,17.538141,-5.079443,-6.3130946,-6.545346,0.36403817,6.2497697,-14.849454,29.26405,-38.71525,48.830486,6.5993524,-1.6037576,-2.6425405,9.869688,-14.627765,29.313005,61.107307,-19.758812,-3.6470556,4.8756537
90,44.945953369140625,-13.248573303222656,74.29096984863281,1.2997567439964173,3.546007879611323,-26.0631470257928,8.938842,0.41319996,4.333784,19.948158,-26.158247,-4.144266,-26.030163,-9.088904,-35.161118,18.78906,-4.3426623,-7.2817087,-6.4810815,1.0293623,6.142706,-14.545992,29.049913,-38.93829,48.72973,6.744082,-1.6198426,-2.6570592,9.832397,-14.712085,29.159035,61.17363,-19.57916,-3.6693034,4.712371
91,45.45464324951172,-13.62121868133545,74.28018951416016,0.7027632747025525,3.5817656287273554,-26.080439738923843,8.684113,1.3101641,4.2070637,21.618025,-26.43658,-4.503012,-26.088747,-8.6920805,-35.264057,19.852772,-3.636203,-8.105656,-6.418817,1.7087277,6.0568757,-14.217265,28.823872,-39.159176,48.67742,6.8707027,-1.637136,-2.667434,9.774865,-14.792527,29.004885,61.272564,-19.392464,-3.696316,4.554235
92,45.95595169067383,-13.992643356323242,74.28520965576172,0.1486840272803603,3.5868805576512037,-26.121003807680705,8.434152,2.1400192,4.0897493,23.336975,-26.536953,-4.83002,-26.041012,-8.279689,-35.362103,20.81317,-3.3214698,-8.80304,-6.352101,2.3369508,6.002232,-13.839172,28.581284,-39.33741,48.676582,6.9826736,-1.6552279,-2.6714554,9.680553,-14.87282,28.866734,61.423996,-19.242683,-3.7229908,4.41736
93,46.44858169555664,-14.358355522155762,74.30513763427734,-0.36268191213252116,3.559964921865027,-26.19197542496075,8.209887,2.9046192,3.9939435,25.0792,-26.473892,-5.1139517,-25.895542,-7.84986,-35.431103,21.724085,-3.5863998,-9.35573,-6.282056,2.921369,5.982311,-13.391648,28.315405,-39.44417,48.72014,7.087664,-1.679082,-2.6630566,9.539742,-14.958427,28.755577,61.642803,-19.146532,-3.7568736,4.3112793
94,46.94488525390625,-14.73206901550293,74.333740234375,-0.8612631061495155,3.51066626342477,-26.284906830333338,7.979391,3.6545851,3.9002688,26.879633,-26.281925,-5.359816,-25.656284,-7.384948,-35.482536,22.553448,-4.223274,-9.760526,-6.208799,3.4947793,5.98753,-12.893875,28.025349,-39.506683,48.813293,7.181066,-1.7077736,-2.6445768,9.362053,-15.052063,28.663692,61.913433,-19.076555,-3.7975295,4.2262497
95,47.447391510009766,-15.101522445678711,74.37163543701172,-1.328002016321489,3.440608731705995,-26.39878887179781,7.6884565,4.370122,3.7931192,28.807226,-25.915438,-5.5625668,-25.324196,-6.9007373,-35.511414,23.251255,-4.99409,-10.053664,-6.1253114,4.0259643,6.009847,-12.3688135,27.71609,-39.55576,48.967606,7.2611337,-1.7313596,-2.6265786,9.166752,-15.148425,28.574772,62.202835,-19.015034,-3.8270051,4.150324
96,47.95187759399414,-15.47677993774414,74.42231750488281,-1.7421572133414303,3.3502682170898272,-26.530600858091475,7.2961307,5.0221024,3.6587715,30.913977,-25.324982,-5.7246575,-24.897917,-6.407631,-35.521397,23.75268,-5.650761,-10.273482,-6.026348,4.480163,6.0423512,-11.841972,27.398268,-39.628166,49.195602,7.3188434,-1.7399633,-2.6197042,8.968972,-15.23729,28.472942,62.484676,-18.94465,-3.8274972,4.0706515
97,48.44872283935547,-15.858352661132812,74.4823989868164,-2.0780229100355223,3.225716827357852,-26.695393961356977,6.8168583,5.568048,3.516783,33.229168,-24.483654,-5.817136,-24.370209,-5.915669,-35.49757,24.048845,-6.1595135,-10.409818,-5.9008985,4.8206873,6.0958285,-11.294183,27.078617,-39.70874,49.502495,7.350927,-1.7327728,-2.6023073,8.765911,-15.306752,28.353006,62.77831,-18.849653,-3.7978954,3.9767485
98,48.93144607543945,-16.244300842285156,74.55747985839844,-2.3509740839533135,3.071238276852651,-26.889270784550543,6.271024,6.0272117,3.370919,35.711292,-23.418781,-5.853091,-23.747713,-5.4149675,-35.444244,24.170769,-6.6389065,-10.448388,-5.7547073,5.0686874,6.168752,-10.712362,26.759445,-39.78234,49.87358,7.36455,-1.7135859,-2.5771003,8.543386,-15.353692,28.22445,63.10266,-18.745512,-3.7466707,3.8756604
99,49.40468978881836,-16.629009246826172,74.64037322998047,-2.601085813899134,2.9146209587241985,-27.08027847999521,5.630871,6.4536176,3.1838887,38.300842,-22.158573,-5.9062605,-23.044493,-4.8796816,-35.398663,24.098639,-7.062898,-10.423811,-5.607894,5.276786,6.2369184,-10.134212,26.447544,-39.892155,50.2933,7.356898,-1.6799814,-2.590449,8.30478,-15.381434,28.093983,63.42292,-18.661573,-3.6701572,3.7814913
100,49.87019348144531,-17.01650619506836,74.73785400390625,-2.8675831193855332,2.783355614528597,-27.236879706473793,4.86662,6.8979,2.9128916,40.94253,-20.732122,-6.049932,-22.276535,-4.2855477,-35.39562,23.815783,-7.406655,-10.370997,-5.4792504,5.4955616,6.2770834,-9.595447,26.15078,-40.08055,50.741962,7.3283544,-1.6291565,-2.6895213,8.057029,-15.398272,27.96378,63.699493,-18.628046,-3.5648534,3.7091956
101,50.328739166259766,-17.410390853881836,74.83926391601562,-3.153967668497286,2.685403575762228,-27.351796946781327,3.9441185,7.359555,2.5581279,43.67932,-18.95993,-6.364954,-21.425282,-3.6157308,-35.44617,23.265026,-7.653329,-10.284155,-5.3738,5.727762,6.2815537,-9.095026,25.87588,-40.358967,51.228203,7.2480187,-1.5633149,-2.886378,7.8050284,-15.405057,27.836676,63.933258,-18.631378,-3.4203923,3.6547704
102,50.779212951660156,-17.802104949951172,74.9444808959961,-3.436407465643903,2.605769594207424,-27.441780265661727,2.8894558,7.7910666,2.1300502,46.519855,-16.887316,-6.805332,-20.488934,-2.8872764,-35.52644,22.4651,-7.8163624,-10.152834,-5.281544,5.9430094,6.2650075,-8.6111765,25.625599,-40.702526,51.748886,7.125497,-1.4821749,-3.156359,7.5454907,-15.400857,27.711163,64.13769,-18.661728,-3.2418482,3.613736
103,51.22282028198242,-18.20319366455078,75.0578384399414,-3.713870957233035,2.537486241961413,-27.510347232006627,1.7576913,8.176905,1.6047367,49.369366,-14.887364,-7.2505655,-19.509237,-2.129131,-35.61802,21.516663,-7.918473,-10.002988,-5.1990204,6.1458144,6.239423,-8.149847,25.400366,-41.09903,52.267246,7.0205407,-1.3801608,-3.4926732,7.2806654,-15.392792,27.579752,64.27965,-18.75703,-3.0487778,3.6027
104,51.67290496826172,-18.60430145263672,75.16683959960938,-3.986834044021822,2.474044652757855,-27.560906446127095,0.60110086,8.51496,0.96993345,52.140472,-13.336535,-7.5709877,-18.534904,-1.3766369,-35.704315,20.542162,-7.9926424,-9.857603,-5.12229,6.343623,6.2175875,-7.7200727,25.198198,-41.538536,52.746582,6.992417,-1.2524492,-3.888608,7.0155234,-15.393546,27.433685,64.31984,-18.952662,-2.8610327,3.6395998
105,52.10747528076172,-18.995145797729492,75.26618957519531,-4.27461477530105,2.415521873171558,-27.585189606473325,-0.5991682,8.824988,0.18216474,54.909058,-12.34249,-7.7214193,-17.54983,-0.60352546,-35.799355,19.50546,-8.017017,-9.717004,-5.057682,6.558557,6.19942,-7.3261127,25.01718,-42.029835,53.18619,7.038349,-1.0863118,-4.3627605,6.7613153,-15.41247,27.264803,64.228004,-19.306452,-2.6604285,3.7517736
106,52.52999496459961,-19.362911224365234,75.35960388183594,-4.5655896278247035,2.364599286531271,-27.58525812096165,-1.8573055,9.091547,-0.72562546,57.69112,-11.700698,-7.775188,-16.534742,0.1930417,-35.901157,18.359644,-7.9816136,-9.569292,-5.003541,6.7778096,6.1811357,-6.965756,24.857014,-42.577084,53.603397,7.1314187,-0.88940287,-4.9125357,6.5205836,-15.451892,27.077337,64.01724,-19.782314,-2.445309,3.9257715
107,52.95076370239258,-19.731069564819336,75.44496154785156,-4.829680310028047,2.318984605932674,-27.577814078248164,-3.1240277,9.29264,-1.6525103,60.326126,-11.330237,-7.768849,-15.530775,0.959677,-35.981167,17.20206,-7.930345,-9.418821,-4.9477034,6.9727545,6.1715717,-6.6305327,24.715933,-43.152035,53.981525,7.305795,-0.6883631,-5.500264,6.286405,-15.514352,26.881378,63.713333,-20.275848,-2.2595594,4.1174345
108,53.36823272705078,-20.10578727722168,75.53258514404297,-5.039704568178449,2.2764277175953906,-27.580042381154115,-4.357538,9.419377,-2.500308,62.663948,-11.150805,-7.734395,-14.578174,1.6455667,-36.015297,16.128887,-7.9066067,-9.270313,-4.878886,7.1177583,6.179463,-6.313427,24.591986,-43.726936,54.305176,7.5928555,-0.5104293,-6.0883694,6.0485153,-15.603865,26.690468,63.345467,-20.67983,-2.1458797,4.280808
109,53.779537200927734,-20.46721839904785,75.60690307617188,-5.198183517905181,2.2324951694626574,-27.586323422297117,-5.55351,9.491326,-3.2568789,64.68689,-11.229546,-7.6507745,-13.679072,2.2450027,-36.01121,15.15799,-7.917299,-9.123977,-4.804336,7.2175136,6.21771,-6.0234933,24.48445,-44.305386,54.562984,8.038648,-0.35639235,-6.7079663,5.807525,-15.72669,26.498999,62.886482,-21.018148,-2.1138232,4.438771
110,54.179893493652344,-20.802732467651367,75.67716217041016,-5.319405532229792,2.189945184864629,-27.591344625066686,-6.738765,9.519542,-3.9692335,66.48034,-11.58295,-7.5021152,-12.815935,2.7825701,-35.981884,14.24705,-7.944704,-8.976958,-4.7269087,7.2863812,6.2793336,-5.7635465,24.392696,-44.899265,54.76499,8.612422,-0.21766527,-7.3664327,5.571314,-15.885293,26.30462,62.32633,-21.328468,-2.1411784,4.604235
111,54.57948303222656,-21.139827728271484,75.75517272949219,-5.396646041326597,2.1570274744785243,-27.613616484826935,-7.9168377,9.489801,-4.6288013,68.04228,-12.053148,-7.3284903,-11.99523,3.2576618,-35.9131,13.391126,-7.9875193,-8.829302,-4.62944,7.316561,6.343118,-5.5121145,24.313654,-45.485638,54.924423,9.237444,-0.10552888,-7.9902477,5.3424907,-16.074005,26.12337,61.71928,-21.52795,-2.2206225,4.7158766
112,54.97807312011719,-21.464252471923828,75.82592010498047,-5.4233602019912555,2.1418392870225684,-27.671911058451823,-9.089921,9.3875265,-5.2256646,69.36833,-12.481823,-7.1715846,-11.227334,3.6665435,-35.791374,12.597425,-8.050081,-8.68121,-4.4965205,7.2993016,6.386803,-5.247684,24.243639,-46.04037,55.058052,9.836149,-0.028131302,-8.504644,5.116083,-16.2826,25.973448,61.12927,-21.53431,-2.3443952,4.711348
113,55.378753662109375,-21.78258514404297,75.89627075195312,-5.388454582796763,2.1586232008223916,-27.770417530688434,-10.276436,9.20505,-5.740788,70.45074,-12.86275,-7.0379133,-10.5430765,3.9865115,-35.61153,11.901233,-8.150063,-8.53255,-4.3222427,7.2225566,6.3957796,-4.9772058,24.180645,-46.578053,55.16618,10.415596,0.0115978755,-8.900674,4.8807073,-16.505909,25.874395,60.569706,-21.286135,-2.5243406,4.557411
114,55.766944885253906,-22.101543426513672,75.96685028076172,-5.302204824288356,2.1988672800706137,-27.89999298502625,-11.468981,8.9594965,-6.183782,71.294464,-13.267188,-6.906492,-9.926842,4.2291822,-35.38536,11.287767,-8.2793865,-8.382841,-4.116504,7.0958734,6.384078,-4.710524,24.123367,-47.10462,55.246872,11.007866,0.020371282,-9.213458,4.636549,-16.742937,25.81317,60.017612,-20.842764,-2.761199,4.2926855
115,56.15680694580078,-22.418725967407227,76.0369873046875,-5.188823020589516,2.236701030932036,-28.05803388598698,-12.63136,8.671878,-6.5870347,71.912674,-13.653466,-6.7790723,-9.322729,4.4390483,-35.1239,10.695957,-8.409154,-8.232259,-3.8874476,6.9428077,6.372418,-4.429766,24.069263,-47.5845,55.31317,11.571835,0.006945425,-9.43507,4.394365,-16.986794,25.761597,59.48238,-20.298992,-3.0302317,3.9624195
116,56.55585479736328,-22.74799919128418,76.10786437988281,-5.071299460974899,2.2460005350202605,-28.24205740897774,-13.727486,8.36169,-6.9827695,72.31941,-13.979927,-6.656678,-8.669892,4.6627817,-34.83585,10.051756,-8.503526,-8.081497,-3.6436324,6.7844396,6.380254,-4.1154,24.016094,-47.980114,55.38005,12.067994,-0.019434065,-9.557386,4.1611633,-17.22785,25.691502,58.980164,-19.75044,-3.305048,3.6098044
117,56.95052719116211,-23.06727409362793,76.17997741699219,-4.948708400407476,2.2176301451144558,-28.455339661655533,-14.748268,8.012298,-7.3893514,72.502106,-14.229068,-6.5267467,-7.94473,4.9102736,-34.518703,9.323557,-8.548873,-7.9296436,-3.380535,6.616321,6.4125485,-3.7638323,23.963243,-48.29075,55.452053,12.51212,-0.058484912,-9.553945,3.9393272,-17.458122,25.60072,58.52777,-19.168953,-3.6092505,3.2016299
118,57.3361701965332,-23.386730194091797,76.24907684326172,-4.811814236026178,2.1665330108835,-28.698348409604677,-15.711163,7.6243777,-7.786535,72.45711,-14.424454,-6.3930464,-7.1818976,5.156885,-34.16864,8.5557995,-8.565092,-7.7771115,-3.0953355,6.429593,6.4577913,-3.3853574,23.910738,-48.534443,55.525227,12.916675,-0.11182256,-9.436484,3.717915,-17.675632,25.503872,58.123848,-18.522839,-3.9489079,2.7291336
119,57.719600677490234,-23.711576461791992,76.31554412841797,-4.668657372953486,2.102744574800828,-28.96429672203945,-16.620916,7.241275,-8.149435,72.20902,-14.585402,-6.2808504,-6.4022837,5.3991356,-33.791813,7.774511,-8.564317,-7.627241,-2.8001797,6.237277,6.5097585,-2.9790726,23.857595,-48.699596,55.60047,13.237824,-0.17454758,-9.254772,3.4862373,-17.881762,25.395346,57.75536,-17.904055,-4.267805,2.2697017
120,58.10524368286133,-24.03985023498535,76.37916564941406,-4.527277441524441,2.036305235149853,-29.246465825679504,-17.482727,6.9051414,-8.452798,71.78258,-14.731273,-6.215872,-5.7854013,5.5233026,-33.408363,7.4073405,-8.766986,-7.4777436,-2.5075324,6.0531397,6.5627213,-2.5438964,23.802362,-48.772446,55.677944,13.433089,-0.24293642,-9.058519,3.2363374,-18.079481,25.269144,57.404827,-17.40336,-4.5068684,1.899397
121,58.493858337402344,-24.358247756958008,76.43861389160156,-4.3886969231794835,1.9613392352427625,-29.54759867008477,-18.282738,6.6119337,-8.698051,71.15966,-14.850813,-6.255428,-5.281658,5.565413,-33.011032,7.3393493,-9.111651,-7.3331084,-2.2163866,5.8799086,6.620446,-2.0725932,23.74303,-48.743248,55.759308,13.485729,-0.32447714,-8.833816,2.9663296,-18.271366,25.121244,57.075344,-17.016832,-4.647865,1.6316656
122,58.878562927246094,-24.677520751953125,76.49112701416016,-4.249706059228847,1.8755817203955387,-29.869819210421092,-19.021923,6.3461714,-8.896231,70.33224,-14.938748,-6.370112,-4.7714634,5.606219,-32.58888,7.2715855,-9.443637,-7.1948047,-1.9217944,5.712767,6.6845937,-1.567569,23.678587,-48.620014,55.843403,13.421288,-0.41942585,-8.563168,2.6808965,-18.457878,24.956573,56.77151,-16.703392,-4.720724,1.4269035
123,59.25687026977539,-24.99142837524414,76.53762817382812,-4.112229235386097,1.7942594771129459,-30.2053450091612,-19.728304,6.1299095,-9.035489,69.34066,-15.024632,-6.4569817,-4.268872,5.6464925,-32.153038,7.2019587,-9.766064,-7.0576534,-1.6303344,5.553403,6.7458024,-1.0435666,23.60967,-48.41978,55.92579,13.25596,-0.51365894,-8.291731,2.3811326,-18.638794,24.782894,56.479412,-16.49709,-4.7367516,1.2804439
124,59.634281158447266,-25.30585289001465,76.58002471923828,-3.9774283198152727,1.732521676813882,-30.546197428283616,-20.428562,5.9825807,-9.102897,68.224075,-15.138079,-6.414319,-3.7895203,5.685392,-31.71426,7.131653,-10.08338,-6.9163966,-1.3483241,5.4017057,6.794472,-0.51567215,23.538195,-48.160892,56.001915,13.004592,-0.59278226,-8.064297,2.0664153,-18.814512,24.608131,56.187286,-16.431347,-4.707914,1.1875432
125,60.01383590698242,-25.618711471557617,76.6158218383789,-3.844293677980728,1.6934634017976284,-30.898344753234547,-21.131762,5.913027,-9.07763,66.981346,-15.331099,-6.1733294,-3.3382857,5.723039,-31.26648,7.060637,-10.39399,-6.767444,-1.0717818,5.257392,6.8302855,0.020649467,23.464403,-47.825855,56.06633,12.638115,-0.6564198,-7.887309,1.7324098,-18.984415,24.425177,55.888756,-16.562994,-4.6107965,1.1702747
126,60.38774108886719,-25.928146362304688,76.64125061035156,-3.712480682351801,1.6693691340289396,-31.26327322525895,-21.818426,5.902779,-8.969909,65.59261,-15.576478,-5.8093405,-2.9069624,5.7591467,-30.806913,6.9906917,-10.698212,-6.6142354,-0.79966915,5.119217,6.8576846,0.57153827,23.387878,-47.41178,56.120182,12.159111,-0.7115876,-7.739036,1.3790518,-19.14908,24.233786,55.59265,-16.858389,-4.4477534,1.2236723
127,60.76315689086914,-26.240753173828125,76.66812896728516,-3.585823278234672,1.6589126008300321,-31.62631891797741,-22.474941,5.9312963,-8.813762,64.07056,-15.785169,-5.436314,-2.4886112,5.7962375,-30.3517,6.9150414,-10.995673,-6.4626527,-0.5422888,4.989288,6.874877,1.1241353,23.310143,-46.959778,56.167274,11.628823,-0.75419986,-7.622488,1.0189133,-19.308552,24.048222,55.30259,-17.215834,-4.2694817,1.3032062
128,61.13626480102539,-26.54814338684082,76.68855285644531,-3.4681877556492364,1.6608673624592218,-31.97285052493142,-23.087915,5.980905,-8.64204,62.425495,-15.864032,-5.165186,-2.0762117,5.836774,-29.916725,6.8295574,-11.288763,-6.3184304,-0.30839655,4.869706,6.8802567,1.6656545,23.233711,-46.51088,56.211174,11.110298,-0.7796573,-7.540478,0.66788846,-19.461681,23.879251,55.019142,-17.535149,-4.125771,1.363631
129,61.5126838684082,-26.861846923828125,76.7047119140625,-3.362357111055388,1.67628272237603,-32.299945565314985,-23.649492,6.0735173,-8.436746,60.630547,-15.78668,-5.052995,-1.663536,5.887378,-29.502619,6.7174764,-11.571026,-6.1839633,-0.09929751,4.7608266,6.8684654,2.200669,23.160408,-46.056465,56.250797,10.586143,-0.77725345,-7.49974,0.33213174,-19.607206,23.7217,54.734688,-17.815207,-4.022112,1.4052925
130,61.89064407348633,-27.17668342590332,76.71111297607422,-3.2650222736206147,1.704852983245283,-32.615190556850315,-24.166267,6.202316,-8.183713,58.68992,-15.602571,-5.0369945,-1.2547632,5.9448028,-29.101803,6.5857797,-11.840793,-6.0564065,0.089777626,4.6603174,6.8425035,2.7342348,23.09059,-45.581333,56.28222,10.034238,-0.7515464,-7.496532,0.003762291,-19.744854,23.570223,54.45062,-18.102001,-3.9346912,1.4477687
131,62.26826477050781,-27.501609802246094,76.70832824707031,-3.1700488327836127,1.7427416928506119,-32.9185814532468,-24.65138,6.311224,-7.9248333,56.666237,-15.333996,-5.04277,-0.87959087,5.984611,-28.721296,6.516535,-12.145351,-5.9345737,0.25946444,4.5647125,6.8132315,3.2511249,23.024841,-45.121273,56.309647,9.505886,-0.72108,-7.5178394,-0.32574326,-19.87641,23.437044,54.184788,-18.363552,-3.8683722,1.4734056
132,62.64337921142578,-27.821502685546875,76.70406341552734,-3.0876626020422115,1.7866814882029394,-33.21050568080022,-25.108383,6.3662496,-7.7135425,54.59206,-14.989988,-4.9901934,-0.54483414,6.010843,-28.368607,6.532755,-12.497675,-5.8156257,0.41204917,4.487883,6.7906747,3.7349362,22.963612,-44.712593,56.338406,9.053539,-0.70474344,-7.55093,-0.6614679,-20.004047,23.332327,53.95174,-18.568865,-3.8279238,1.4649997
133,63.012176513671875,-28.140539169311523,76.6978530883789,-2.9996946944536855,1.838867046711622,-33.49163392075429,-25.549736,6.344026,-7.568002,52.47573,-14.537896,-4.806248,-0.21889447,6.020656,-28.041239,6.54975,-12.853181,-5.698327,0.5496433,4.411515,6.776594,4.1796584,22.907831,-44.35921,56.369812,8.682123,-0.7072494,-7.6030025,-1.0076268,-20.129072,23.265228,53.754536,-18.717138,-3.8214898,1.4077369
134,63.38066864013672,-28.448686599731445,76.68831634521484,-2.9095013763444912,1.9002203837260991,-33.761438488063355,-25.966835,6.2747498,-7.4604974,50.2915,-13.983078,-4.544741,0.098315656,6.019066,-27.736324,6.5665092,-13.2105665,-5.583301,0.67138386,4.337697,6.765755,4.594601,22.857916,-44.043224,56.401493,8.367998,-0.7184368,-7.6774497,-1.3584019,-20.2516,23.226675,53.582825,-18.822788,-3.8439138,1.3143275
135,63.75278854370117,-28.756013870239258,76.67518615722656,-2.8233304604829543,1.9676838131429921,-34.0219733255995,-26.336924,6.1766477,-7.351452,48.03244,-13.390082,-4.305957,0.4121745,6.016166,-27.444656,6.582776,-13.566849,-5.4683156,0.77916086,4.2735567,6.7554975,4.98221,22.814207,-43.77516,56.43587,8.114124,-0.7353833,-7.7560635,-1.7011718,-20.369867,23.198708,53.42884,-18.875982,-3.8802538,1.2090666
136,64.122314453125,-29.074108123779297,76.65463256835938,-2.7480152883528293,2.037682368318354,-34.27537105988104,-26.634268,6.0691037,-7.2038317,45.683815,-12.817261,-4.1912785,0.7281514,6.0223413,-27.153975,6.5974298,-13.917793,-5.3533425,0.87695223,4.2264037,6.7430787,5.3452644,22.776276,-43.5651,56.47542,7.92603,-0.7552635,-7.820227,-2.0218875,-20.480759,23.16072,53.284336,-18.867754,-3.915553,1.1165065
137,64.49274444580078,-29.391284942626953,76.62635803222656,-2.6870981603829516,2.108191271687427,-34.52011268453417,-26.84533,5.985304,-6.986875,43.211494,-12.263942,-4.230402,1.0509765,6.042384,-26.86376,6.6101255,-14.2607765,-5.240564,0.9696547,4.1923013,6.7233996,5.6801505,22.751913,-43.42755,56.52467,7.8119526,-0.77988243,-7.869455,-2.331332,-20.558708,23.100939,53.174297,-18.775246,-3.9516015,1.0341731
138,64.86634063720703,-29.70532989501953,76.595458984375,-2.6371076289872692,2.180445184871479,-34.7569035084179,-26.980135,5.911319,-6.7313204,40.618515,-11.695035,-4.366356,1.3770984,6.0704966,-26.577793,6.6216803,-14.598002,-5.1303825,1.0494642,4.1716995,6.7005677,5.9901347,22.73639,-43.34631,56.58079,7.768456,-0.81039995,-7.9121656,-2.6350405,-20.617403,23.039642,53.093826,-18.60707,-3.9943662,0.9524411
139,65.24036407470703,-30.024776458740234,76.56369018554688,-2.5942701168141995,2.2551118404205512,-34.9919279962121,-27.051027,5.8022156,-6.4968204,37.94729,-11.117926,-4.5668173,1.7016037,6.1031632,-26.294804,6.635265,-14.93693,-5.0152044,1.1165723,4.169535,6.683576,6.278915,22.720974,-43.3005,56.638214,7.7805943,-0.8420802,-7.9431057,-2.912393,-20.691168,22.983717,53.00365,-18.41494,-4.0364614,0.8822317
140,65.6214370727539,-30.344491958618164,76.52586364746094,-2.5547724803509504,2.3329807086582024,-35.23189718350272,-27.0721,5.621233,-6.346234,35.241493,-10.542209,-4.7936926,2.0225852,6.1379,-26.012835,6.6467957,-15.281104,-4.8871098,1.18682,4.1784854,6.67016,6.539458,22.705992,-43.29997,56.704983,7.8179955,-0.86845016,-7.95389,-3.1543431,-20.778965,22.928709,52.900856,-18.259136,-4.070085,0.8259296
141,65.99890899658203,-30.668014526367188,76.48554229736328,-2.520795997440389,2.416961337451186,-35.479175308176416,-27.045275,5.3731046,-6.311959,32.477074,-10.005344,-5.0208783,2.333585,6.176125,-25.732973,6.6562257,-15.632096,-4.7396617,1.2576516,4.1893945,6.654125,6.7741976,22.697313,-43.348713,56.788773,7.88442,-0.8893281,-7.9265795,-3.390485,-20.845665,22.877338,52.827667,-18.152592,-4.095331,0.77860206
142,66.37256622314453,-30.990337371826172,76.43717193603516,-2.4966653500092133,2.503248904694368,-35.73364545901365,-26.95933,5.1031537,-6.3657107,29.627958,-9.4862175,-5.2566633,2.6393797,6.2218857,-25.452967,6.6666064,-15.988222,-4.5781507,1.3205458,4.2068415,6.637595,6.990235,22.695074,-43.435295,56.884853,7.9925084,-0.9072435,-7.8705664,-3.6337423,-20.88706,22.838917,52.796104,-18.067337,-4.1157203,0.7372209
143,66.74938201904297,-31.315494537353516,76.38372039794922,-2.48316083707936,2.5818112387347654,-35.99798907484376,-26.81109,4.8357887,-6.480279,26.741241,-8.910766,-5.5171485,2.9569032,6.2783947,-25.165041,6.6750135,-16.34544,-4.412814,1.3844923,4.23336,6.627957,7.187713,22.696913,-43.54304,56.989014,8.130392,-0.91950125,-7.818487,-3.8630903,-20.913378,22.81457,52.782764,-18.01303,-4.1274896,0.7008587
144,67.13333129882812,-31.65302848815918,76.3236083984375,-2.480963076818712,2.643065243380302,-36.27501366331034,-26.596956,4.5855627,-6.624473,23.866093,-8.205194,-5.827199,3.3003852,6.3479705,-24.861475,6.681553,-16.70084,-4.2547293,1.47134,4.2737584,6.6281133,7.3605323,22.70365,-43.680843,57.09719,8.27265,-0.92234933,-7.800785,-4.052046,-20.943867,22.798546,52.766083,-17.994839,-4.1280184,0.66854995
145,67.5191421508789,-31.989246368408203,76.25699615478516,-2.491883917811428,2.6855869446800056,-36.56626007825345,-26.315292,4.33722,-6.8478723,20.9812,-7.334577,-6.176972,3.6723757,6.4333,-24.537708,6.686485,-17.053574,-4.108884,1.5646229,4.327888,6.643292,7.5221696,22.715014,-43.81966,57.202007,8.444312,-0.9111399,-7.8256035,-4.21807,-20.969585,22.81072,52.75808,-18.034939,-4.110904,0.6354052
146,67.91024017333984,-32.32281494140625,76.18635559082031,-2.5228856663174186,2.7086511021757835,-36.87706063415343,-25.957546,4.111178,-7.150044,18.05709,-6.3420296,-6.559157,4.071354,6.5419297,-24.191273,6.6889925,-17.40491,-3.9708028,1.6675991,4.4040146,6.673906,7.6735215,22.732649,-43.970844,57.303234,8.64339,-0.8889871,-7.8760324,-4.368293,-20.991583,22.849842,52.766132,-18.119785,-4.0802064,0.60421103
147,68.29985046386719,-32.66226577758789,76.10481262207031,-2.5810580610829432,2.704800661288037,-37.2148923695406,-25.516079,3.9552839,-7.420368,15.147035,-5.2707496,-7.0126204,4.5069213,6.681398,-23.819225,6.6874166,-17.757317,-3.8367062,1.7878637,4.506787,6.72496,7.816341,22.754173,-44.120033,57.40239,8.846578,-0.8659048,-7.95156,-4.498866,-21.006584,22.908136,52.784023,-18.216,-4.045935,0.58237565
148,68.69365692138672,-33.008689880371094,76.01715087890625,-2.670918073693646,2.6694100309248077,-37.58452062180231,-24.977476,3.9028378,-7.5434203,12.284428,-4.154509,-7.5795817,4.9802384,6.8538914,-23.421242,6.685547,-18.112923,-3.7032733,1.933994,4.638824,6.7974534,7.9517655,22.777044,-44.258614,57.500294,9.027338,-0.85068965,-8.050825,-4.59771,-21.015326,22.97297,52.798862,-18.29228,-4.017084,0.57675034
149,69.08987426757812,-33.361351013183594,75.91834259033203,-2.7938271009692053,2.5995894857519892,-37.9847481634775,-24.277521,3.952255,-7.4353633,9.345699,-2.8843462,-8.341824,5.498235,7.0639224,-23.000313,6.6791706,-18.473879,-3.5710216,2.1124482,4.8012276,6.892001,8.080282,22.814978,-44.40539,57.587933,9.159381,-0.84878474,-8.183688,-4.6569805,-21.020834,23.040283,52.80243,-18.336159,-3.992744,0.5906722
150,69.49105834960938,-33.71172332763672,75.81194305419922,-2.9434982860959065,2.5022933102575298,-38.41174373102412,-23.715631,4.0281844,-7.1886578,6.923985,-1.7863631,-9.25818,6.0518084,7.302897,-22.556334,6.6701107,-18.837595,-3.44158,2.3072689,4.9891205,7.009105,8.197603,22.84796,-44.53323,57.681477,9.281024,-0.85572946,-8.348436,-4.688391,-21.020407,23.112835,52.800606,-18.376442,-3.9696574,0.62262803
151,69.8958969116211,-34.06640625,75.69945526123047,-3.1021311514795578,2.3947792868863833,-38.8554749888129,-24.138636,3.9945822,-6.9749446,6.78666,-1.878545,-10.182028,6.6195927,7.5444,-22.094147,6.663184,-19.200495,-3.310403,2.5202215,5.1851916,7.123753,8.309009,22.896816,-44.669712,57.762047,9.388712,-0.8618992,-8.522663,-4.6884007,-21.014744,23.198858,52.805454,-18.400297,-3.9530656,0.66177577
152,70.30198669433594,-34.42592239379883,75.58290100097656,-3.25139157552058,2.2943696078543883,-39.3042263382398,-24.509754,3.9751844,-6.8360825,6.684864,-2.0581548,-10.989183,7.1793556,7.762133,-21.621569,6.661062,-19.556551,-3.1732109,2.734134,5.3689747,7.2249746,8.421367,22.963533,-44.790318,57.819664,9.514422,-0.8602113,-8.688056,-4.6626935,-21.003126,23.298414,52.82197,-18.414087,-3.949996,0.7044582
153,70.7143325805664,-34.78607940673828,75.46319580078125,-3.3910440536023034,2.2042900342188823,-39.75347488509994,-24.826172,3.956849,-6.77122,6.614406,-2.3735282,-11.693794,7.7281613,7.957022,-21.142157,6.66521,-19.910934,-3.0270882,2.9418826,5.542524,7.3066344,8.52785,23.034908,-44.897537,57.86989,9.67662,-0.850194,-8.847407,-4.6135826,-20.98988,23.421953,52.852333,-18.404097,-3.965409,0.75066155
154,71.12808227539062,-35.14247131347656,75.3466796875,-3.5260531983577676,2.120970010007324,-40.20223963947463,-25.083916,3.9383333,-6.7284355,6.572162,-2.765973,-12.354653,8.272612,8.138098,-20.659544,6.6682215,-20.261065,-2.8746183,3.1487052,5.71675,7.373846,8.601318,23.07694,-44.99657,57.954903,9.868855,-0.8386444,-9.006625,-4.5249825,-20.98183,23.550344,52.877567,-18.382284,-3.995037,0.8068617
155,71.54161071777344,-35.49757766723633,75.23197174072266,-3.6287085243642747,2.055635481329959,-40.636998587232505,-25.288383,3.885949,-6.7374163,6.5405006,-3.1380825,-12.896258,8.7973795,8.269319,-20.191412,6.6778016,-20.602837,-2.7154346,3.3383055,5.8575616,7.418101,8.6645,23.124268,-45.0886,58.03581,10.044557,-0.8233745,-9.151744,-4.412303,-20.971586,23.697763,52.91809,-18.352793,-4.0289483,0.8632644
156,71.95860290527344,-35.843257904052734,75.131591796875,-3.6854834685012845,2.0161253481380297,-41.049396203904,-25.449978,3.782917,-6.8346386,6.5200677,-3.406224,-13.24745,9.293698,8.332244,-19.749924,6.6922646,-20.92651,-2.5514426,3.503155,5.9521065,7.442725,8.710089,23.166445,-45.154385,58.120247,10.188891,-0.8046615,-9.268692,-4.2793055,-20.959967,23.843779,52.975834,-18.348082,-4.061763,0.92207867
157,72.379150390625,-36.18840026855469,75.04352569580078,-3.7000588983624874,2.003606492993392,-41.43815078190664,-25.56551,3.6276739,-7.05906,6.509452,-3.5979514,-13.3605995,9.762209,8.330811,-19.338812,6.712036,-21.239456,-2.3848531,3.6363358,6.008962,7.441762,8.75239,23.203796,-45.194454,58.19187,10.281931,-0.7764929,-9.35561,-4.137743,-20.945894,24.005592,53.07402,-18.378017,-4.0923142,0.97662234
158,72.80108642578125,-36.53656768798828,74.95800018310547,-3.678358632920305,2.0137233553711003,-41.80543401883249,-25.627113,3.4242609,-7.383646,6.508594,-3.7394896,-13.286594,10.207152,8.273726,-18.95548,6.73663,-21.542917,-2.2133873,3.7422857,6.0225487,7.4227023,8.777006,23.244339,-45.2056,58.269463,10.347727,-0.74762076,-9.4234495,-3.9703572,-20.924025,24.181602,53.18388,-18.432728,-4.1216083,1.0300034
159,73.22975158691406,-36.88630294799805,74.87957763671875,-3.606976352476458,2.0505097802831793,-42.14464895736264,-25.643387,3.1612327,-7.7493467,6.5197716,-3.7431579,-13.100288,10.624993,8.1485195,-18.606306,6.760621,-21.820507,-2.0312078,3.8067365,5.9901047,7.3818426,8.800101,23.277403,-45.190945,58.34011,10.395881,-0.71333975,-9.461547,-3.8065155,-20.89913,24.369156,53.330563,-18.476503,-4.153042,1.0877849
160,73.65679168701172,-37.24137878417969,74.81382751464844,-3.4625852386144516,2.1156873909179708,-42.448169243751046,-25.608383,2.8189938,-8.0903635,6.5221143,-3.5097206,-12.872847,11.011147,7.929607,-18.300234,6.787541,-22.060045,-1.8300253,3.8390515,5.8772655,7.3277297,8.78196,23.299288,-45.167763,58.447243,10.437766,-0.6858768,-9.466943,-3.6093848,-20.874926,24.53502,53.45764,-18.484922,-4.182106,1.1571527
161,74.07826232910156,-37.60095977783203,74.77507781982422,-3.225446927343672,2.2202547486196114,-42.706308714341716,-25.524214,2.3735805,-8.410549,6.531396,-3.0049987,-12.608405,11.356277,7.596559,-18.051674,6.8162136,-22.269651,-1.6073908,3.7788267,5.6624737,7.244689,8.78654,23.32429,-45.088844,58.546944,10.479817,-0.6646094,-9.42752,-3.4572966,-20.82813,24.764412,53.64051,-18.396152,-4.2054296,1.2314947
162,74.50554656982422,-37.95927047729492,74.75467681884766,-2.910623763688441,2.3591752574427223,-42.92532953416664,-25.389765,1.8437569,-8.738091,6.5503488,-2.2838895,-12.272856,11.669609,7.167989,-17.85451,6.8427567,-22.451422,-1.3662002,3.6945212,5.3654923,7.144865,8.742642,23.33587,-45.00759,58.682926,10.516357,-0.6489376,-9.350778,-3.2656577,-20.782104,24.958559,53.800705,-18.2704,-4.2265716,1.3224298
163,74.92630004882812,-38.30683135986328,74.7500991821289,-2.555347773494946,2.506972090240614,-43.11922015719567,-25.206762,1.277637,-9.0503645,6.5656157,-1.3918962,-11.882448,11.975207,6.6842194,-17.688025,6.875716,-22.591747,-1.106568,3.554194,5.0227137,7.033957,8.702493,23.337204,-44.89181,58.830574,10.535432,-0.63090354,-9.252777,-3.0959618,-20.717144,25.186832,54.01402,-18.141972,-4.247536,1.4069793
164,75.3609848022461,-38.655616760253906,74.74363708496094,-2.214099995634879,2.6407490857604494,-43.302847108877685,-24.994768,0.7390817,-9.335077,6.58751,-0.38838103,-11.458729,12.275197,6.2022166,-17.532465,6.9663053,-22.701523,-0.83335936,3.3770227,4.6908092,6.9223633,8.659069,23.322744,-44.759647,59.000053,10.519127,-0.6052563,-9.151397,-2.9363534,-20.630909,25.437693,54.28153,-18.071522,-4.2689757,1.4713287
165,75.79606628417969,-39.017127990722656,74.7297592163086,-1.8777464424381805,2.755634950035622,-43.466785487901284,-24.74719,0.20171557,-9.636536,6.60419,0.8260173,-10.9542265,12.569409,5.707773,-17.401825,7.130528,-22.802877,-0.5362527,3.1825159,4.3684916,6.8168535,8.600558,23.296843,-44.63347,59.182884,10.453406,-0.56640613,-9.043875,-2.7343469,-20.558699,25.680416,54.547276,-18.080786,-4.2982492,1.5101746
166,76.23597717285156,-39.3870849609375,74.72222900390625,-1.5223426096081527,2.860886435281444,-43.61805377720169,-24.459679,-0.35050324,-9.930987,6.6201134,2.242706,-10.377314,12.891354,5.189113,-17.289194,7.2702475,-22.845026,-0.21603204,2.9336824,4.0259895,6.7065916,8.551595,23.246355,-44.46326,59.386772,10.358261,-0.5202094,-8.922393,-2.5577104,-20.466982,25.977062,54.87575,-18.128683,-4.330737,1.5250555
167,76.68389892578125,-39.75051498413086,74.73344421386719,-1.1772217776411673,2.947197582768765,-43.770057871396176,-24.135298,-0.8550832,-10.127255,6.6407614,3.6615148,-9.827798,13.245467,4.6848655,-17.17326,7.39058,-22.802876,0.10807318,2.6716864,3.696367,6.6057644,8.478159,23.175716,-44.30374,59.62371,10.238811,-0.47353005,-8.798191,-2.3741677,-20.368649,26.263802,55.23487,-18.20231,-4.3565326,1.5437946
168,77.13793182373047,-40.1121826171875,74.75353240966797,-0.8673844605874902,3.008673740408905,-43.931187919570725,-24.271585,-1.3501103,-10.128066,7.731188,4.3215947,-9.391957,13.628969,4.226483,-17.03666,7.5010834,-22.647127,0.41643465,2.4301455,3.4112825,6.5337677,8.360733,23.112411,-44.205647,59.871365,10.095312,-0.43276262,-8.686026,-2.1424522,-20.292807,26.479282,55.570625,-18.281818,-4.3662853,1.5976653
169,77.5967788696289,-40.47452926635742,74.77056121826172,-0.5974984259066106,3.0424664144601485,-44.11808808222629,-24.673761,-1.7510935,-9.829417,9.480901,4.4462094,-9.175541,14.040369,3.8121605,-16.856102,7.6091394,-22.394678,0.7019834,2.1776643,3.1653402,6.4765735,8.208581,23.00696,-44.118843,60.189453,9.922672,-0.40026972,-8.580643,-1.946733,-20.181656,26.689207,55.98388,-18.372013,-4.3534617,1.7053472
170,78.04869842529297,-40.843746185302734,74.79088592529297,-0.3511235664731694,3.0554721232199777,-44.3231032641946,-24.946676,-2.0148666,-9.317832,11.031379,4.5741215,-9.094521,14.46804,3.416441,-16.646107,7.7245593,-22.058443,0.97488576,1.9592984,2.9490016,6.4514127,8.030336,22.935469,-44.082558,60.480804,9.703496,-0.3691155,-8.486255,-1.6813726,-20.112226,26.823883,56.33805,-18.482595,-4.327268,1.8653612
171,78.50231170654297,-41.21588897705078,74.81877899169922,-0.11738574347656043,3.0563431515916792,-44.52102278980198,-25.172121,-2.2254915,-8.764427,12.5320425,4.5402236,-8.958447,14.899797,3.031405,-16.440178,7.851784,-21.602928,1.2408398,1.7144865,2.7468646,6.42133,7.800757,22.814625,-44.077965,60.85337,9.501749,-0.34609765,-8.393703,-1.4391428,-19.999636,26.948019,56.77879,-18.591003,-4.290136,1.9961063
172,78.9505615234375,-41.587738037109375,74.85591125488281,0.11363991136203448,3.0532154258969872,-44.69007832995091,-25.406662,-2.4699957,-8.333499,14.073062,4.2076836,-8.589788,14.611495,2.4336162,-16.298157,9.570874,-21.821608,1.5156437,1.4612974,2.5565536,6.395324,7.517404,22.699455,-44.14996,61.239697,9.35281,-0.33112994,-8.311985,-1.151001,-19.886398,27.00505,57.22749,-18.677742,-4.248961,2.0492742
173,79.39898681640625,-41.961673736572266,74.89720916748047,0.36058886457185824,3.0485888000582535,-44.82053314153265,-25.69962,-2.8077388,-8.071595,15.752688,3.4325943,-7.8659077,14.074446,1.7560067,-16.185287,11.846421,-22.189264,1.8152494,1.1880469,2.3590055,6.374112,7.188878,22.609913,-44.315754,61.630646,9.2416115,-0.33485004,-8.238223,-0.79975533,-19.778385,26.99415,57.67156,-18.735052,-4.202584,1.9806699
174,79.84539794921875,-42.34318542480469,74.94917297363281,0.6184075228369809,3.038965845239397,-44.93353209000821,-26.007864,-3.1971767,-7.885378,17.489904,2.33026,-6.917056,13.52187,1.0681157,-16.066065,14.165475,-22.443312,2.1233566,0.9203465,2.1491342,6.3457847,6.7945714,22.510605,-44.576866,62.0807,9.152076,-0.3532942,-8.168095,-0.4179514,-19.631607,26.913136,58.165985,-18.78778,-4.1489663,1.8231834
175,80.28426361083984,-42.710540771484375,75.00350189208984,0.8655228221905984,3.0258701636971397,-45.051877517697804,-26.24661,-3.5798903,-7.724274,19.095715,1.1546862,-5.9463286,12.905135,0.37201726,-15.937529,16.60728,-22.576406,2.395627,0.6593197,1.9518144,6.319951,6.3748193,22.42227,-44.863518,62.505306,9.1309395,-0.36327562,-8.117895,-0.02592594,-19.476646,26.793865,58.68184,-18.82218,-4.0910363,1.6535859
176,80.72000885009766,-43.07839584350586,75.06007385253906,1.0868727602036263,3.0134484755766615,-45.19572727980347,-26.334053,-3.893281,-7.530584,20.38286,0.1534576,-5.1529264,12.176098,-0.33336627,-15.800906,19.246145,-22.573896,2.592167,0.41755712,1.7828454,6.2959433,5.945117,22.343021,-45.12343,62.86399,9.22689,-0.34395993,-8.099783,0.3501882,-19.324707,26.654018,59.216133,-18.832296,-4.032016,1.5440787
177,81.15734100341797,-43.442832946777344,75.11497497558594,1.2758235280119015,3.0043220249305564,-45.358775059808075,-26.254478,-4.119581,-7.298861,21.312271,-0.6301703,-4.5987587,11.3376,-1.0367427,-15.676742,22.090647,-22.440084,2.7129147,0.18779184,1.655955,6.2768927,5.5036945,22.27097,-45.352478,63.15349,9.489959,-0.28659242,-8.128483,0.71522826,-19.181545,26.47482,59.76832,-18.790688,-3.977992,1.5020738
178,81.58609008789062,-43.80510330200195,75.18033599853516,1.4448012872609508,2.9987936729669395,-45.52777506737784,-26.061655,-4.299065,-7.05817,22.000587,-1.3319926,-4.1730876,10.416152,-1.7395388,-15.563415,25.086838,-22.169863,2.7810256,-0.038140263,1.5578103,6.2604313,5.041659,22.20578,-45.579044,63.39698,9.881352,-0.20508495,-8.193728,1.0831401,-19.0476,26.253485,60.33251,-18.706642,-3.9256318,1.4936032
179,82.02167510986328,-44.16105270385742,75.2493896484375,1.610977622156485,2.9981482638657595,-45.71213795255853,-25.779099,-4.451372,-6.7969174,22.496574,-1.9791023,-3.8151743,9.411094,-2.4589093,-15.428097,28.189491,-21.726236,2.79753,-0.25373766,1.4635524,6.237968,4.569427,22.148584,-45.790913,63.58104,10.320748,-0.1071142,-8.271931,1.4488629,-18.92515,26.030834,60.887997,-18.633823,-3.863789,1.5300624
180,82.4476318359375,-44.51001739501953,75.31682586669922,1.7911700493368041,3.00377858303606,-45.92268595946319,-25.425562,-4.5960026,-6.5031314,22.83931,-2.5934641,-3.463881,8.314996,-3.2118936,-15.235994,31.366644,-21.070044,2.7653487,-0.45471257,1.3485279,6.2014546,4.0982723,22.102396,-45.97399,63.690395,10.724217,-0.0006397079,-8.338969,1.8035244,-18.817305,25.85586,61.415855,-18.621042,-3.7811563,1.6231465
181,82.87799072265625,-44.87864685058594,75.38843536376953,1.9880461841176984,3.022187313433867,-46.16236728793611,-24.98903,-4.7357993,-6.1708965,22.99433,-3.1743553,-3.1098497,7.097345,-4.005196,-14.973284,34.666126,-20.14144,2.6790674,-0.6445255,1.2122397,6.139784,3.6399484,22.06921,-46.11828,63.70458,11.097067,0.130639,-8.390213,2.1506324,-18.730324,25.738241,61.91797,-18.700851,-3.668176,1.7859359
182,83.30635070800781,-45.230281829833984,75.46401977539062,2.1896012356389924,3.051039013993181,-46.423282490049814,-24.466713,-4.86045,-5.811842,22.960468,-3.7155018,-2.7856975,5.7751756,-4.8123217,-14.662573,38.07259,-18.966265,2.5566146,-0.83007234,1.0717227,6.061602,3.1896803,22.050165,-46.22873,63.630283,11.4747925,0.28486392,-8.438617,2.4950845,-18.667463,25.657356,62.39579,-18.838438,-3.53326,2.0107012
183,83.73196411132812,-45.5788688659668,75.53641510009766,2.3903213043513145,3.077952788875553,-46.69982089433361,-23.893614,-4.970213,-5.4404225,22.833727,-4.233669,-2.4928224,4.410503,-5.605808,-14.321551,41.467777,-17.644613,2.4264216,-1.0056792,0.9251639,5.9868827,2.7288709,22.044556,-46.316975,63.499,11.822066,0.42778915,-8.48535,2.8273437,-18.618708,25.611122,62.841454,-18.984814,-3.393057,2.275489
184,84.14531707763672,-45.93153762817383,75.61018371582031,2.5846458799246794,3.0899034341866,-46.98634652581498,-23.30668,-5.0651827,-5.070412,22.711931,-4.7448225,-2.2303317,3.0560691,-6.369408,-13.966469,44.757565,-16.288862,2.2995543,-1.1809353,0.77532095,5.939676,2.2547958,22.054564,-46.370647,63.324886,12.111805,0.5258927,-8.532007,3.1392252,-18.590378,25.61184,63.233116,-19.08689,-3.2628825,2.561501
185,84.5582275390625,-46.286766052246094,75.681640625,2.7727391670248505,3.0786908117290896,-47.287193682174035,-22.696676,-5.1432104,-4.6960716,22.594309,-5.24323,-1.9967068,1.6833367,-7.100492,-13.543338,48.007473,-14.805386,2.1586096,-1.3387014,0.61502296,5.92679,1.7568582,22.08163,-46.397194,63.10739,12.371932,0.57574016,-8.600738,3.4231384,-18.567045,25.65955,63.583874,-19.125032,-3.1431706,2.885338
186,84.95062255859375,-46.64508056640625,75.75146484375,2.9560066253364856,3.0526091586372632,-47.602904648182054,-22.052704,-5.2069798,-4.3120914,22.440847,-5.7238193,-1.7902669,0.2665094,-7.812039,-13.061932,51.262493,-13.185406,1.9923828,-1.4973717,0.4377844,5.937622,1.2731693,22.162113,-46.374825,62.79153,12.609017,0.59768385,-8.68686,3.6628454,-18.539305,25.770689,63.9178,-19.126259,-3.0262353,3.2468162
187,85.34041595458984,-47.01050567626953,75.81266784667969,3.132596239477254,3.021922585606127,-47.922502558053395,-21.40513,-5.2631927,-3.9332871,22.283367,-6.1993237,-1.6092066,-1.1401999,-8.528722,-12.632339,54.412617,-11.680055,1.8012702,-1.6587539,0.26015463,5.964414,0.7754116,22.267948,-46.33944,62.43856,12.741867,0.579967,-8.741931,3.8898306,-18.525824,25.90646,64.2011,-19.123152,-2.9164026,3.6049042
188,85.71846771240234,-47.37019348144531,75.86927032470703,3.300803421720167,2.997017744760214,-48.23467899993525,-20.78337,-5.317617,-3.574842,22.15284,-6.6828027,-1.4533095,-2.4831421,-9.286458,-12.364124,57.357357,-10.547324,1.5776683,-1.8245447,0.08347339,5.9994545,0.26330596,22.419521,-46.32527,62.057724,12.685624,0.5170326,-8.722513,4.1189065,-18.517107,26.031944,64.42242,-19.149218,-2.8177574,3.913236
189,86.08184051513672,-47.73445129394531,75.91616821289062,3.4694050783005537,2.9763590164211124,-48.53580753983071,-20.194996,-5.377032,-3.2369962,22.061144,-7.178287,-1.330508,-3.7627912,-10.13113,-12.281801,60.15704,-9.886328,1.2919998,-1.9895353,-0.10467071,6.0444603,-0.28386524,22.61117,-46.35475,61.661674,12.376159,0.39519918,-8.613503,4.351824,-18.509335,26.12916,64.57395,-19.206087,-2.7315013,4.1770325
190,86.43729400634766,-48.10132598876953,75.95230865478516,3.636454263311966,2.9554939360558654,-48.83196803570374,-19.621231,-5.4361296,-2.912529,21.986788,-7.677372,-1.2387755,-5.0053644,-11.056725,-12.324546,62.86075,-9.564451,0.9335538,-2.1512606,-0.30431107,6.102396,-0.8559245,22.844559,-46.410336,61.232376,11.871974,0.2214446,-8.441958,4.5810924,-18.500542,26.216011,64.66535,-19.280085,-2.6545525,4.414405
191,86.77925109863281,-48.46885681152344,75.9786605834961,3.786390968043317,2.938819077511079,-49.12318789320057,-19.059797,-5.48269,-2.6078296,21.922184,-8.177805,-1.1645473,-6.197949,-12.023617,-12.476238,65.356255,-9.503846,0.5285741,-2.314114,-0.49077165,6.1646075,-1.4355047,23.113886,-46.479134,60.78303,11.268111,0.01711488,-8.222903,4.809537,-18.49084,26.302153,64.72162,-19.386784,-2.591243,4.5966887
192,87.1191177368164,-48.83250045776367,76.00466918945312,3.9030616869235737,2.930781366551426,-49.40932703716056,-18.50977,-5.504203,-2.3293552,21.862282,-8.678264,-1.094575,-7.3285246,-12.983864,-12.725449,67.52796,-9.622899,0.112311,-2.481779,-0.6372018,6.222264,-2.0085359,23.407377,-46.5486,60.333244,10.659702,-0.19578125,-7.9697614,5.0418134,-18.480757,26.397627,64.76508,-19.540071,-2.5454278,4.6957936
193,87.45935821533203,-49.19990921020508,76.03607940673828,3.9800712653129353,2.933953771617314,-49.691957547594974,-17.978226,-5.4935575,-2.0811281,21.817598,-9.186585,-1.0362902,-8.362929,-13.983229,-13.161112,69.34058,-10.010747,-0.31959403,-2.6549087,-0.7331822,6.270387,-2.583456,23.7172,-46.63409,59.893715,10.043997,-0.42442456,-7.6760974,5.2800508,-18.47212,26.51592,64.79792,-19.794287,-2.506754,4.6956115
194,87.79818725585938,-49.56822204589844,76.0682373046875,4.02593724258143,2.9448484864736675,-49.97071327298453,-17.465437,-5.456055,-1.8586167,21.792,-9.70339,-0.9945503,-9.313227,-15.02446,-13.761424,70.8646,-10.680302,-0.7699827,-2.8314836,-0.79135996,6.3137975,-3.1686409,24.039892,-46.735474,59.46394,9.38243,-0.6785626,-7.3377624,5.5213594,-18.465172,26.649618,64.81033,-20.123629,-2.4760556,4.614211
195,88.13555145263672,-49.93764877319336,76.09900665283203,4.046810152451301,2.9593620654723574,-50.24324425140524,-16.955479,-5.3974133,-1.6555111,21.761343,-10.212019,-0.95183545,-10.242283,-15.984529,-14.3543825,72.13283,-11.424467,-1.1953696,-3.011767,-0.8206393,6.357545,-3.7533233,24.368906,-46.817554,59.053513,8.712858,-0.9393549,-6.9691005,5.762233,-18.45914,26.774025,64.80981,-20.426758,-2.4745638,4.473521
196,88.46590423583984,-50.31047439575195,76.13611602783203,4.049439399807241,2.973652671348079,-50.50723081750083,-16.43402,-5.3253827,-1.4649272,21.70285,-10.696513,-0.88979137,-11.222265,-16.740875,-14.770056,73.17751,-12.030339,-1.5571623,-3.1966743,-0.83010083,6.406095,-4.3272767,24.696043,-46.84453,58.675022,8.072501,-1.1873244,-6.5832458,5.9997377,-18.452553,26.864218,64.803635,-20.603607,-2.5241308,4.295402
197,88.79434204101562,-50.68388748168945,76.17794036865234,4.028770774178205,2.9913269080645506,-50.76148885895226,-15.904957,-5.236583,-1.2876666,21.616854,-11.152717,-0.79110205,-12.288063,-17.248652,-14.968132,73.99702,-12.435089,-1.8602693,-3.3874156,-0.8107961,6.455431,-4.8938694,25.01499,-46.81148,58.343315,7.429812,-1.4352498,-6.162027,6.230525,-18.446297,26.914936,64.80341,-20.609692,-2.654789,4.0543833
198,89.1229248046875,-51.05422592163086,76.224853515625,3.9831615723643,3.0128290983616246,-51.008087722381205,-15.376418,-5.1280093,-1.1256274,21.518894,-11.592604,-0.6699884,-13.402847,-17.567013,-15.044959,74.575005,-12.745156,-2.1106853,-3.5823917,-0.7599581,6.504057,-5.4614673,25.323042,-46.736732,58.05971,6.778787,-1.6891165,-5.7044873,6.458988,-18.44118,26.937477,64.80177,-20.50646,-2.8475206,3.749424
199,89.45867919921875,-51.42311477661133,76.2691421508789,3.926116201627376,3.0296474720257827,-51.24909795937994,-14.833111,-5.010023,-0.9738947,21.395798,-12.016319,-0.55469114,-14.534731,-17.736343,-15.035938,74.92088,-13.000232,-2.2813907,-3.777604,-0.69828576,6.560321,-6.026409,25.61804,-46.615498,57.815807,6.198811,-1.9169458,-5.248524,6.687557,-18.434874,26.939102,64.78289,-20.343952,-3.0513508,3.4383419
200,89.78484344482422,-51.799346923828125,76.3198471069336,3.8710257338429237,3.032990606974937,-51.48648178042603,-14.25161,-4.893221,-0.82894754,21.218403,-12.414588,-0.4729925,-15.649263,-17.800066,-14.977313,75.044106,-13.24269,-2.3479564,-3.97001,-0.64742947,6.631917,-6.5841727,25.898724,-46.442524,57.603333,5.7686825,-2.0845654,-4.83103,6.916887,-18.423754,26.927046,64.73352,-20.172903,-3.214312,3.178136
201,90.10099792480469,-52.17579650878906,76.36625671386719,3.8157680315786244,3.0152807397304215,-51.723075260232015,-13.626485,-4.774621,-0.6903654,20.993956,-12.794936,-0.43759188,-16.749084,-17.729462,-14.84168,74.92919,-13.465831,-2.2851667,-4.1593375,-0.60897607,6.72625,-7.1353045,26.163969,-46.21431,57.427456,5.5165854,-2.1797323,-4.440061,7.146772,-18.404072,26.905445,64.65401,-19.987549,-3.325847,2.9643788
202,90.41024780273438,-52.5469970703125,76.40911102294922,3.7560751089540796,2.9824858310581726,-51.956574342221415,-12.966367,-4.6514726,-0.55950177,20.726603,-13.154985,-0.43127492,-17.844517,-17.518024,-14.625635,74.57493,-13.652951,-2.1139956,-4.347821,-0.57460535,6.8367014,-7.684484,26.413296,-45.93657,57.29576,5.394926,-2.2192183,-4.061567,7.373942,-18.374628,26.87093,64.55474,-19.767092,-3.4125392,2.772466
203,90.7244644165039,-52.92747497558594,76.44682312011719,3.700812441957061,2.9471140384347465,-52.18179223411651,-12.289158,-4.534128,-0.43236145,20.42276,-13.493794,-0.43686056,-18.917065,-17.240171,-14.396052,74.015076,-13.830996,-1.876356,-4.536495,-0.55012053,6.949878,-8.229895,26.646582,-45.61494,57.1978,5.3729486,-2.210729,-3.7296164,7.5967317,-18.335985,26.81937,64.43558,-19.538424,-3.4777575,2.6287618
204,91.02836608886719,-53.31056213378906,76.48542785644531,3.6586032901049563,2.921918954993474,-52.39327736855952,-11.6140375,-4.432529,-0.30535892,20.091085,-13.811351,-0.4384814,-19.949743,-16.9698,-14.219256,73.28281,-14.025427,-1.6137908,-4.7258897,-0.54081047,7.0524435,-8.767343,26.863783,-45.251484,57.121265,5.4231997,-2.1624932,-3.4787638,7.8139014,-18.28967,26.746952,64.29538,-19.32751,-3.5244782,2.5597193
205,91.32659149169922,-53.69636917114258,76.51526641845703,3.630562375087784,2.9088265942332203,-52.58868525934725,-10.94371,-4.348837,-0.18021083,19.731718,-14.108117,-0.42768663,-20.945623,-16.70177,-14.089143,72.36777,-14.262212,-1.3098474,-4.9168997,-0.5476963,7.144383,-9.301628,27.064947,-44.833614,57.07183,5.5771933,-2.056866,-3.3390248,8.027817,-18.234846,26.637228,64.12496,-19.127256,-3.5429184,2.5841532
206,91.62834930419922,-54.087120056152344,76.53883361816406,3.612320948258418,2.9014506089316012,-52.770867321388046,-10.270011,-4.2785745,-0.05845348,19.343225,-14.385051,-0.41476315,-21.907799,-16.412222,-13.977783,71.25558,-14.522233,-0.9571771,-5.108764,-0.56847817,7.231765,-9.833034,27.249823,-44.363564,57.05321,5.838496,-1.8956083,-3.2860904,8.237404,-18.171364,26.497406,63.930016,-18.92754,-3.5358303,2.6834066
207,91.92601776123047,-54.486019134521484,76.5572738647461,3.605517316276378,2.9003277748828173,-52.94217567197911,-9.58769,-4.2222424,0.062980816,18.917156,-14.63572,-0.4062947,-22.823698,-16.142323,-13.916603,69.97594,-14.763942,-0.60440177,-5.3001175,-0.6019523,7.309644,-10.357293,27.419106,-43.875847,57.054707,6.126182,-1.7170713,-3.2714167,8.441541,-18.102842,26.357355,63.72104,-18.752804,-3.5199637,2.8300474
208,92.21570587158203,-54.875816345214844,76.57209777832031,3.6100832071083686,2.9063969002902974,-53.105766077503226,-8.901726,-4.178914,0.18818872,18.465263,-14.865022,-0.41228202,-23.682411,-15.927524,-13.936157,68.55833,-14.943816,-0.29619795,-5.489607,-0.6455483,7.373536,-10.87159,27.574106,-43.40828,57.064903,6.3555145,-1.5594553,-3.2456996,8.638253,-18.035349,26.24669,63.512978,-18.62651,-3.516023,2.9959333
209,92.5152587890625,-55.27875518798828,76.58358764648438,3.6255645613162755,2.9202070307713583,-53.25726412666229,-8.212149,-4.1485424,0.3145808,17.98505,-15.067888,-0.431459,-24.478973,-15.777906,-14.055074,66.98997,-15.076081,-0.04961794,-5.6818957,-0.6976439,7.4194956,-11.371071,27.714535,-42.959156,57.08569,6.531215,-1.4227692,-3.2005093,8.833909,-17.97315,26.162655,63.295258,-18.571018,-3.5238996,3.2001758
210,92.80752563476562,-55.68325424194336,76.58555603027344,3.6507752004780842,2.941655484768071,-53.396842148066625,-7.518734,-4.1305804,0.44085974,17.475948,-15.246108,-0.45924258,-25.219168,-15.671737,-14.253249,65.26032,-15.175183,0.16334625,-5.876024,-0.75760555,7.4512653,-11.859034,27.839895,-42.512684,57.120487,6.6881857,-1.2902406,-3.16008,9.029766,-17.917456,26.092556,63.06099,-18.567614,-3.535127,3.449691
211,93.09715270996094,-56.092079162597656,76.58260345458984,3.6862364141495427,2.9704728705584023,-53.53419600428657,-6.8204036,-4.1244726,0.57219845,16.93792,-15.405886,-0.49961418,-25.906628,-15.595005,-14.506088,63.397682,-15.193738,0.36705545,-6.0613947,-0.823738,7.4762726,-12.338898,27.95122,-42.075935,57.154984,6.7951493,-1.1741128,-3.1239665,9.218496,-17.86795,26.050016,62.825497,-18.578606,-3.5568993,3.6988657
212,93.38560485839844,-56.51115036010742,76.57538604736328,3.731761066275073,3.006434567853014,-53.67889776689828,-6.114585,-4.1287045,0.7136496,16.36863,-15.552372,-0.55755943,-26.545923,-15.533851,-14.788472,61.431416,-15.08571,0.5855488,-6.227354,-0.8947774,7.5017705,-12.815789,28.050928,-41.66034,57.176083,6.816668,-1.0866731,-3.0911868,9.389538,-17.823725,26.05023,62.607437,-18.564854,-3.5959592,3.9014328
213,93.67110443115234,-56.922428131103516,76.55560302734375,3.7891119020765287,3.049983703991464,-53.83432310443952,-5.399543,-4.1433644,0.872626,15.763017,-15.6850605,-0.6388468,-27.145248,-15.4786215,-15.073883,59.359367,-14.82128,0.8367643,-6.3713903,-0.972774,7.529556,-13.288638,28.139854,-41.256462,57.180923,6.706828,-1.0404607,-3.0601203,9.536483,-17.784834,26.105047,62.41329,-18.504879,-3.6582377,4.052049
214,93.95600891113281,-57.33892822265625,76.53826141357422,3.8564156732673234,3.1015375704586714,-53.99487390175527,-4.677302,-4.1682215,1.0437626,15.12325,-15.801454,-0.73960036,-27.698755,-15.435514,-15.382835,57.167294,-14.430759,1.1058011,-6.50043,-1.0568475,7.5557,-13.754909,28.219044,-40.863045,57.175083,6.494007,-1.0259519,-3.03119,9.663553,-17.751856,26.205206,62.234646,-18.422516,-3.7386746,4.1728153
215,94.24297332763672,-57.76154327392578,76.51490783691406,3.929126211250981,3.160322838158212,-54.156377761621734,-3.9504173,-4.2009816,1.2132047,14.457276,-15.9030905,-0.85130066,-28.187283,-15.41276,-15.762176,54.85943,-13.95468,1.3671329,-6.616168,-1.1422869,7.5793204,-14.211768,28.290804,-40.494995,57.152,6.2643824,-1.0216364,-3.0078409,9.778279,-17.723156,26.333254,62.067013,-18.347525,-3.8275123,4.2589164
216,94.52384948730469,-58.183502197265625,76.48424530029297,4.00263146569076,3.2257553278966116,-54.31460620993301,-3.2175076,-4.2390804,1.3668057,13.764095,-15.988483,-0.9661698,-28.593634,-15.41811,-16.25946,52.442207,-13.436977,1.5963603,-6.7197585,-1.2244985,7.5995603,-14.659188,28.358387,-40.173386,57.106216,6.098718,-1.0062006,-2.9931507,9.887665,-17.695168,26.472061,61.90665,-18.309128,-3.9152346,4.30516
217,94.79983520507812,-58.61224365234375,76.44471740722656,4.077618015286954,3.2982515952925535,-54.46862865766756,-2.472127,-4.2837152,1.5001152,13.02966,-16.049543,-1.0943607,-28.917059,-15.449199,-16.868593,49.89556,-12.868881,1.7898654,-6.8082705,-1.3049126,7.6160035,-15.10291,28.421577,-39.909225,57.039345,6.027577,-0.96873826,-2.998268,9.991973,-17.668634,26.626448,61.75577,-18.326128,-4.0119405,4.292906
218,95.07077026367188,-59.03751754760742,76.40071868896484,4.154293887366327,3.3781021357981786,-54.620183695882815,-1.7125523,-4.3332815,1.6196618,12.249467,-16.084887,-1.2400999,-29.162212,-15.496122,-17.574728,47.21636,-12.231961,1.9631668,-6.886637,-1.3846402,7.6300883,-15.531112,28.486008,-39.68068,56.94171,6.0075207,-0.921903,-3.0188715,10.083709,-17.640347,26.807035,61.61816,-18.379107,-4.118551,4.229994
219,95.3395767211914,-59.47050476074219,76.35530090332031,4.230620613680841,3.4645299125977083,-54.76908949095697,-0.961225,-4.3838143,1.7307293,11.473391,-16.116648,-1.3795186,-29.325716,-15.556112,-18.410583,44.443058,-11.54914,2.1222994,-6.950287,-1.4621949,7.6411633,-15.951142,28.546988,-39.49535,56.822598,5.996001,-0.88031226,-3.0329397,10.168933,-17.61014,26.984625,61.48891,-18.443993,-4.2117577,4.151311
220,95.60763549804688,-59.906272888183594,76.30359649658203,4.3051749125293535,3.5563419397467797,-54.91533108946196,-0.23845905,-4.4319735,1.838616,10.747989,-16.165222,-1.4895642,-29.405104,-15.624955,-19.40878,41.613335,-10.842178,2.27451,-6.9876227,-1.5327938,7.64946,-16.380762,28.588127,-39.367855,56.701565,5.9503794,-0.8593712,-3.0173075,10.265728,-17.583324,27.122112,61.35099,-18.49596,-4.268564,4.094026
221,95.86387634277344,-60.33481216430664,76.24446868896484,4.38540847696912,3.655073235680092,-55.06339295410509,0.4531913,-4.4876237,1.945558,10.075734,-16.23462,-1.5494527,-29.38617,-15.723909,-20.640675,38.699036,-10.068314,2.418552,-7.0268717,-1.6134052,7.653506,-16.77955,28.643753,-39.265636,56.542805,5.8384285,-0.8643938,-2.9585714,10.326894,-17.538898,27.26067,61.244717,-18.518494,-4.2690897,4.056755
222,96.12495422363281,-60.78118133544922,76.18030548095703,4.470816282833367,3.7595901309039363,-55.21136060707479,1.1308165,-4.550357,2.0471492,9.42224,-16.30971,-1.5763824,-29.271605,-15.831422,-22.073141,35.680954,-9.225178,2.559688,-7.0476956,-1.7034829,7.656627,-17.16831,28.707714,-39.21479,56.35338,5.684464,-0.88653284,-2.8715694,10.375536,-17.47888,27.380558,61.152306,-18.535152,-4.230927,4.025074
223,96.37193298339844,-61.22579574584961,76.11902618408203,4.552063516973339,3.8640943744062146,-55.34875508965372,1.7869252,-4.605457,2.1410766,8.815157,-16.39643,-1.6020399,-29.081434,-15.886747,-23.57784,32.603447,-8.392532,2.7131922,-7.0613637,-1.7946671,7.657854,-17.534866,28.779755,-39.19041,56.132023,5.555855,-0.91721326,-2.7823899,10.412066,-17.399033,27.483467,61.085514,-18.553905,-4.1839514,3.9980557
224,96.61931610107422,-61.67820739746094,76.05510711669922,4.619436458680235,3.961958608587996,-55.46439772266932,2.4245334,-4.6381407,2.2233598,8.261135,-16.494034,-1.657836,-28.835907,-15.838292,-25.023924,29.507933,-7.6486783,2.889646,-7.0735693,-1.8615812,7.6599627,-17.88375,28.824121,-39.165573,55.900436,5.5303593,-0.94959474,-2.7140312,10.474474,-17.33741,27.55732,61.005417,-18.579166,-4.1579237,3.9837315
225,96.86859130859375,-62.13404083251953,75.98236083984375,4.680428590533583,4.0496290073228565,-55.549781499497826,3.0544205,-4.65827,2.2845368,7.740553,-16.592695,-1.7517006,-28.51944,-15.674115,-26.408476,26.320166,-6.996314,3.131761,-7.106613,-1.9378991,7.657418,-18.18792,28.892927,-39.135185,55.625153,5.644113,-0.9843584,-2.6797767,10.502712,-17.223537,27.62377,61.000267,-18.62355,-4.1641226,3.9587893
226,97.10668182373047,-62.60499954223633,75.9014892578125,4.746687988385787,4.12363634480682,-55.60510231236305,3.5426977,-4.674636,2.3336027,7.546236,-16.849623,-1.864597,-28.11403,-15.427489,-27.789545,23.010698,-6.379261,3.420654,-7.150799,-2.0195255,7.660236,-18.467577,28.955315,-39.109776,55.324207,5.8619556,-1.0259043,-2.663,10.538181,-17.103645,27.66552,61.006557,-18.678095,-4.1855907,3.9363096
227,97.33265686035156,-63.0763053894043,75.82635498046875,4.8172198932946415,4.176529011119929,-55.63144175521929,3.966913,-4.686267,2.3711264,7.5342,-17.18502,-1.9869474,-27.631306,-15.122634,-29.127522,19.683357,-5.792471,3.6723752,-7.209423,-2.1077616,7.6719747,-18.717905,29.014174,-39.088226,55.00328,6.1051803,-1.063332,-2.654855,10.567728,-16.972298,27.699135,61.033733,-18.731077,-4.209054,3.930351
228,97.55546569824219,-63.552711486816406,75.74288177490234,4.887776726484503,4.204847014797568,-55.63435804272646,4.4165144,-4.689323,2.4005594,7.5287137,-17.502268,-2.109601,-27.106508,-14.788609,-30.37807,16.49233,-5.2503953,3.8032925,-7.279669,-2.2014687,7.694568,-18.932219,29.070137,-39.063744,54.667137,6.3032565,-1.0855696,-2.64609,10.582577,-16.826977,27.737871,61.085358,-18.771544,-4.221389,3.9555275
229,97.77774810791016,-64.03466796875,75.6595458984375,4.94492344518024,4.216004113317775,-55.61583885399498,4.8823557,-4.666506,2.4370718,7.530583,-17.810623,-2.2311592,-26.55982,-14.405492,-31.493065,13.429592,-4.790099,3.7278504,-7.3574615,-2.2818336,7.7289877,-19.123522,29.119106,-39.041557,54.31513,6.4205008,-1.0846055,-2.6345387,10.5894985,-16.678646,27.776714,61.150604,-18.787693,-4.221515,4.0157695
230,97.9935302734375,-64.52948760986328,75.57796478271484,4.996460238450062,4.210138727570016,-55.5733952114976,5.3638873,-4.6288915,2.4720242,7.5391965,-18.108383,-2.3553064,-25.969215,-13.966726,-32.50797,10.420634,-4.3893337,3.5122101,-7.4439607,-2.3482795,7.777256,-19.28541,29.151552,-39.00898,53.9408,6.512164,-1.0685717,-2.6245222,10.611518,-16.554886,27.807447,61.196827,-18.78375,-4.2157345,4.1094003
231,98.216796875,-65.02610778808594,75.49219512939453,5.056632739991882,4.182336511936758,-55.51732242005281,5.8709555,-4.595107,2.4906101,7.5523863,-18.376316,-2.4837832,-25.284973,-13.4788265,-33.511547,7.444289,-3.9342527,3.2971716,-7.5355525,-2.4181895,7.8299937,-19.405964,29.173847,-38.976093,53.557068,6.5990553,-1.0506903,-2.6159027,10.641395,-16.445911,27.84201,61.233406,-18.779572,-4.2017746,4.2363205
232,98.4366683959961,-65.5361557006836,75.40628051757812,5.135931186818165,4.1302158679385474,-55.46128062770899,6.409303,-4.5788493,2.4812992,7.5715547,-18.596863,-2.6197493,-25.586554,-13.712794,-34.320564,7.2938204,-4.7836766,3.2443957,-7.629584,-2.5347426,7.863034,-19.45787,29.206789,-38.93894,53.180893,6.7241135,-1.0418178,-2.6109698,10.599694,-16.254286,27.91054,61.381382,-18.804634,-4.1766877,4.376624
233,98.6607437133789,-66.05867004394531,75.31974792480469,5.234607325179081,4.051267651482849,-55.40310465844682,6.981889,-4.582223,2.442546,7.596635,-18.768042,-2.7622416,-25.72471,-13.939661,-35.324917,7.1959105,-5.459305,3.4331186,-7.7210693,-2.6670926,7.892891,-19.452335,29.23067,-38.905167,52.80488,6.906829,-1.0468234,-2.604601,10.561993,-16.076136,27.991606,61.52177,-18.849087,-4.1370273,4.5677857
234,98.8841323852539,-66.58698272705078,75.2330093383789,5.334623907753079,3.9581278327112184,-55.35023913098733,7.5741935,-4.584297,2.3937938,7.6291347,-18.900019,-2.9135463,-25.720535,-14.120078,-36.44813,7.110073,-5.9908,3.7620032,-7.8030186,-2.7904904,7.919219,-19.386845,29.239956,-38.857048,52.41606,7.134182,-1.0592562,-2.5972404,10.537198,-15.928663,28.08222,61.637093,-18.901005,-4.085327,4.807145
235,99.11383819580078,-67.12132263183594,75.14249420166016,5.41772772611692,3.870255807340084,-55.328932163154334,8.169399,-4.5636907,2.3539402,7.668772,-18.993574,-3.0805852,-25.619785,-14.218293,-37.48594,7.0452065,-6.391381,4.063833,-7.839841,-2.875313,7.9343505,-19.26589,29.23482,-38.806667,52.00888,7.341021,-1.0781066,-2.5920994,10.5642395,-15.85503,28.165146,61.66997,-18.963156,-4.030673,5.073097
236,99.3363265991211,-67.65037536621094,75.05352020263672,5.466320584007586,3.805380568635971,-55.364250396676155,8.751285,-4.4980316,2.341088,7.7163734,-19.048029,-3.2704406,-25.470253,-14.203054,-38.232494,7.019868,-6.6856413,4.16821,-7.8310933,-2.9252114,7.9043136,-19.071012,29.218206,-38.72868,51.610783,7.4888864,-1.1021875,-2.5940185,10.563583,-15.774115,28.282953,61.739456,-19.043211,-3.97907,5.31299
237,99.56288146972656,-68.19707489013672,74.9756088256836,5.490249539580084,3.7644329679276347,-55.46487523623222,9.137975,-4.3894925,2.3738213,8.161358,-19.278925,-3.48378,-25.266207,-14.073219,-38.5861,7.0591373,-6.884134,4.080769,-7.76936,-2.9540155,7.8144846,-18.801634,29.177675,-38.616074,51.236168,7.559728,-1.1334358,-2.6070564,10.518753,-15.667927,28.456167,61.882885,-19.139988,-3.929858,5.527292
238,99.7876205444336,-68.75626373291016,74.898193359375,5.4892834219404225,3.7389455639498097,-55.617818277679895,9.340414,-4.2389874,2.4434626,8.994995,-19.677307,-3.7186413,-24.988829,-13.839289,-38.669285,7.1511507,-6.980119,3.8682168,-7.645732,-2.9519706,7.686359,-18.477772,29.110476,-38.496437,50.875652,7.5749288,-1.1716939,-2.6269398,10.478392,-15.57183,28.64492,62.03172,-19.255941,-3.8813155,5.7397356
239,100.01072692871094,-69.31611633300781,74.82291412353516,5.427316493270066,3.73114147313563,-55.81253278546962,9.473039,-4.010477,2.5374618,9.963259,-20.096716,-3.9785738,-24.668636,-13.491608,-38.615192,7.265807,-6.976005,3.452602,-7.4620395,-2.8779156,7.5470624,-18.105583,29.047014,-38.39647,50.500763,7.544884,-1.2118053,-2.6472712,10.47419,-15.521059,28.80641,62.114967,-19.391287,-3.8377802,5.9379873
