unveil-humanoid-operators/unveil-humanoid-operators.github.io/feature-analysis-animation/data/feature_matrix_instances/age_waist_rom_jogging_A041_jog_sideway_090_start_003__A041.csv
Frame,root_translateX,root_translateY,root_translateZ,root_rotateX,root_rotateY,root_rotateZ,left_hip_pitch_joint_dof,left_hip_roll_joint_dof,left_hip_yaw_joint_dof,left_knee_joint_dof,left_ankle_pitch_joint_dof,left_ankle_roll_joint_dof,right_hip_pitch_joint_dof,right_hip_roll_joint_dof,right_hip_yaw_joint_dof,right_knee_joint_dof,right_ankle_pitch_joint_dof,right_ankle_roll_joint_dof,waist_yaw_joint_dof,waist_roll_joint_dof,waist_pitch_joint_dof,left_shoulder_pitch_joint_dof,left_shoulder_roll_joint_dof,left_shoulder_yaw_joint_dof,left_elbow_joint_dof,left_wrist_roll_joint_dof,left_wrist_pitch_joint_dof,left_wrist_yaw_joint_dof,right_shoulder_pitch_joint_dof,right_shoulder_roll_joint_dof,right_shoulder_yaw_joint_dof,right_elbow_joint_dof,right_wrist_roll_joint_dof,right_wrist_pitch_joint_dof,right_wrist_yaw_joint_dof
0,0.3294568955898285,1.8625726699829102,77.90906524658203,0.09627447761241456,0.9272350091065273,-99.91396036767888,3.9662735,7.5430403,13.331406,7.006738,-10.810041,-7.236256,-0.9779542,-6.336656,-12.130428,9.223461,-10.252412,5.9954066,3.408988,1.0084364,5.695129,10.47347,15.286753,-20.177553,51.2584,3.0567372,3.3817089,5.6324086,-1.5356385,-16.96492,24.599304,61.60814,-9.496731,3.3200912,-1.6845353
1,0.32316696643829346,1.868294596672058,77.90621948242188,0.09259828018663283,0.9089757132875408,-99.89798015835926,3.9845212,7.551496,13.317468,7.0065513,-10.81732,-7.253026,-0.9277936,-6.3265667,-12.183312,9.177752,-10.253344,5.995815,3.4027276,1.0173177,5.701608,10.484736,15.288401,-20.171505,51.259014,3.0345616,3.3600492,5.613097,-1.5075198,-16.967432,24.593233,61.602913,-9.554393,3.346088,-1.7038383
2,0.31795522570610046,1.8764111995697021,77.90825653076172,0.0884802874595709,0.8898024498775531,-99.88018834034345,4.0043526,7.5602746,13.302258,7.005718,-10.825542,-7.270443,-0.8716328,-6.3155007,-12.242217,9.1235,-10.252746,5.996503,3.3956494,1.0256196,5.710047,10.498625,15.289938,-20.160192,51.257366,3.0170116,3.3353162,5.591252,-1.469738,-16.970205,24.582132,61.586052,-9.621261,3.375335,-1.7230904
3,0.3172629177570343,1.8791661262512207,77.90337371826172,0.08448801721097317,0.8719326835359862,-99.8655459467624,4.02161,7.5689106,13.289272,7.00691,-10.832722,-7.2865624,-0.8256218,-6.305584,-12.289504,9.083629,-10.253849,5.996629,3.389968,1.0338494,5.7176394,10.508022,15.290539,-20.152662,51.2585,2.9981277,3.3163185,5.5738397,-1.4436604,-16.971659,24.575512,61.581024,-9.67693,3.4003053,-1.7430699
4,0.30626097321510315,1.8611910343170166,77.90059661865234,0.0783746377638102,0.8554198806277824,-99.85707487623907,4.0375915,7.5794177,13.280837,7.006912,-10.834316,-7.30018,-0.7907789,-6.2933,-12.310645,9.0552225,-10.247722,5.9949584,3.3874836,1.0428023,5.726258,10.51925,15.291288,-20.140629,51.252316,2.9885252,3.3107502,5.5614653,-1.4149383,-16.974373,24.564898,61.567184,-9.718937,3.4171815,-1.7621837
5,0.30843496322631836,1.863040566444397,77.89543914794922,0.06933508974435626,0.8407761236736051,-99.8594684206503,4.0555015,7.591555,13.27995,6.998738,-10.823422,-7.310784,-0.77925044,-6.278894,-12.286343,9.057708,-10.234517,5.9909406,3.3916934,1.0544497,5.733701,10.522454,15.291454,-20.136023,51.248253,2.9780169,3.3267353,5.5613675,-1.4079316,-16.975922,24.562452,61.5733,-9.724861,3.4184482,-1.783991
6,0.30307871103286743,1.8728127479553223,77.90040588378906,0.05754848185835518,0.8268061719914238,-99.86943778156747,4.0652623,7.608079,13.283017,7.006682,-10.815785,-7.3193984,-0.7847968,-6.2624793,-12.230014,9.085076,-10.2184925,5.9850383,3.3987641,1.0685081,5.743119,10.527271,15.2913685,-20.130116,51.235714,2.9718509,3.359481,5.568539,-1.407574,-16.979576,24.563734,61.580853,-9.709291,3.409802,-1.8082618
7,0.30453094840049744,1.8849421739578247,77.90628051757812,0.047483544760043225,0.815704529654232,-99.88039041000692,4.075618,7.6214724,13.288834,7.004973,-10.802217,-7.3255467,-0.79543597,-6.2481813,-12.172465,9.113634,-10.202448,5.9787226,3.4054363,1.0811882,5.749543,10.529497,15.290817,-20.127604,51.226097,2.966311,3.392541,5.5787883,-1.4112594,-16.983414,24.568369,61.590225,-9.686732,3.3999794,-1.829322
8,0.30415308475494385,1.8860588073730469,77.90943908691406,0.04308764612807709,0.8092041880546039,-99.8862916434191,4.077425,7.6291356,13.294051,7.007224,-10.795016,-7.3289127,-0.8054193,-6.2410316,-12.143528,9.134587,-10.197812,5.9731402,3.405572,1.0894051,5.7515316,10.53434,15.290018,-20.127796,51.215763,2.9603891,3.413727,5.587668,-1.4155818,-16.988115,24.575417,61.598694,-9.674677,3.3977075,-1.8435192
9,0.3110620081424713,1.89128577709198,77.89849853515625,0.04721041400443341,0.8103769043933559,-99.8840424133361,4.0700965,7.6271744,13.299946,7.0064387,-10.793103,-7.328066,-0.8111357,-6.2438703,-12.161139,9.1346035,-10.206216,5.9682746,3.399,1.0891601,5.746803,10.537044,15.289668,-20.131567,51.211525,2.9565713,3.415383,5.593415,-1.4167986,-16.99122,24.579836,61.60204,-9.685597,3.4089746,-1.8469659
10,0.3026353120803833,1.8984630107879639,77.90338134765625,0.056701309604332256,0.8163354398702154,-99.87885692332303,4.055588,7.619873,13.308387,7.006421,-10.795398,-7.32398,-0.81605244,-6.2527475,-12.204898,9.123993,-10.223477,5.963269,3.390764,1.0825626,5.7395244,10.537307,15.289716,-20.135689,51.209396,2.9572966,3.4075892,5.597436,-1.4184892,-16.992653,24.582218,61.603916,-9.705957,3.4257457,-1.8439574
11,0.2957729697227478,1.905774474143982,77.90584564208984,0.06827940076396419,0.8247176157863142,-99.87024234912428,4.0384927,7.6092834,13.313016,7.00462,-10.797096,-7.318432,-0.82454383,-6.26536,-12.252743,9.117529,-10.244598,5.959479,3.3812628,1.0778518,5.7229643,10.53984,15.290571,-20.159327,51.210014,2.9456825,3.394694,5.6063495,-1.4155141,-17.000095,24.588112,61.60389,-9.722821,3.4459164,-1.8370503
12,0.29083430767059326,1.9095606803894043,77.90306854248047,0.07571847521639835,0.8258966008390103,-99.86533683790739,4.0303082,7.603248,13.313966,7.005357,-10.7989235,-7.314971,-0.8291495,-6.27293,-12.276304,9.118083,-10.2581835,5.9569364,3.3795674,1.0767076,5.7152376,10.538906,15.291995,-20.181973,51.2072,2.9345024,3.387125,5.613201,-1.4031736,-17.008825,24.584349,61.59447,-9.727652,3.4543862,-1.832787
13,0.28210583329200745,1.909718632698059,77.90619659423828,0.07809289394492477,0.8177508806575481,-99.8644772058816,4.0350165,7.601661,13.308089,7.006192,-10.799012,-7.313474,-0.82973665,-6.274773,-12.263551,9.131336,-10.262218,5.9567814,3.3739345,1.0778883,5.7158847,10.542301,15.292455,-20.190762,51.197636,2.9270697,3.38563,5.617606,-1.4005578,-17.011612,24.583138,61.59612,-9.713486,3.4471438,-1.832644
14,0.2889934182167053,1.9125276803970337,77.90108489990234,0.07796669666445395,0.8043712655933964,-99.8659096297428,4.0476613,7.6020217,13.297665,7.0065746,-10.798818,-7.3126855,-0.8293849,-6.2744303,-12.229835,9.154371,-10.262353,5.9584713,3.3747914,1.0842942,5.7176986,10.54803,15.293689,-20.212744,51.182415,2.9108343,3.3875244,5.6248775,-1.3904645,-17.01878,24.57843,61.594498,-9.68249,3.4300795,-1.833517
15,0.2916494309902191,1.9266085624694824,77.89935302734375,0.0767680527462122,0.7895889482374319,-99.86649516366641,4.061609,7.60353,13.285194,7.0066514,-10.796444,-7.31308,-0.82678854,-6.272589,-12.193881,9.176439,-10.25976,5.960271,3.3693836,1.0893197,5.72325,10.552098,15.293982,-20.220734,51.170563,2.9018075,3.3882291,5.627656,-1.3856171,-17.021784,24.575495,61.59435,-9.655453,3.4124427,-1.8346002
16,0.2887508273124695,1.930823564529419,77.90359497070312,0.07618503012130222,0.7777882493242629,-99.86433766320718,4.0708303,7.605397,13.274481,7.0064187,-10.791158,-7.3152895,-0.82396406,-6.2708993,-12.172634,9.19129,-10.257678,5.9604917,3.3661978,1.0917658,5.727988,10.55811,15.294082,-20.226,51.158257,2.9000378,3.388529,5.630676,-1.3799492,-17.023323,24.573149,61.592464,-9.640518,3.4013903,-1.8385496
17,0.29664257168769836,1.9378992319107056,77.89723205566406,0.07656670830493914,0.7699441171862629,-99.85689989521397,4.072932,7.6075478,13.264837,7.005556,-10.780056,-7.3211546,-0.8205585,-6.2695556,-12.171412,9.196093,-10.256052,5.959179,3.3652644,1.0929717,5.7307506,10.562138,15.294193,-20.231674,51.151093,2.9064634,3.3868275,5.630689,-1.3682989,-17.027115,24.566088,61.581707,-9.648734,3.4014738,-1.8434798
18,0.29467031359672546,1.948119878768921,77.89423370361328,0.07643078155326272,0.7638279017330992,-99.84619800125454,4.0709076,7.611049,13.254955,7.0057683,-10.765626,-7.3299255,-0.81592584,-6.267395,-12.180411,9.19419,-10.253186,5.9569073,3.3643587,1.0927013,5.735259,10.5624895,15.293956,-20.231218,51.148483,2.9208488,3.383696,5.6269994,-1.3578377,-17.029716,24.55852,61.568188,-9.669534,3.4067316,-1.8493447
19,0.2846885323524475,1.9560340642929077,77.89824676513672,0.07689818420662729,0.758883241908258,-99.83498673572356,4.067663,7.614357,13.246015,7.0052795,-10.751261,-7.3378315,-0.8108472,-6.2654448,-12.196817,9.189701,-10.250892,5.953408,3.3629203,1.0907618,5.7391033,10.563039,15.293628,-20.22781,51.148445,2.9372404,3.3789828,5.624264,-1.3472888,-17.030798,24.55343,61.553875,-9.692245,3.4152334,-1.8557158
20,0.2729143798351288,1.9554041624069214,77.90576934814453,0.07738963288964026,0.7544872232534238,-99.82559480716176,4.068921,7.6160197,13.238938,6.997482,-10.738469,-7.341225,-0.803952,-6.2638826,-12.218453,9.182019,-10.248301,5.948296,3.3628776,1.0878699,5.7424912,10.563901,15.292707,-20.219568,51.150745,2.955049,3.3715441,5.6237087,-1.332828,-17.03223,24.545681,61.53657,-9.710574,3.423005,-1.8592346
21,0.2652304172515869,1.9544893503189087,77.90727233886719,0.07842282077994821,0.7511854711127238,-99.81868581096909,4.064173,7.618689,13.23277,7.0050077,-10.742578,-7.3376727,-0.7984822,-6.263773,-12.252742,9.178341,-10.250614,5.940089,3.3634179,1.0839729,5.7439947,10.565121,15.29088,-20.206104,51.158325,2.9727697,3.3588424,5.627009,-1.3172432,-17.033518,24.537918,61.520916,-9.719444,3.4290233,-1.8588481
22,0.26671090722084045,1.9618769884109497,77.9043197631836,0.07990640229611518,0.7488509627269554,-99.81303871614419,4.062839,7.619778,13.22856,7.005794,-10.748589,-7.329577,-0.791153,-6.2643538,-12.29844,9.170998,-10.253382,5.9294605,3.3656018,1.079538,5.7427573,10.566769,15.289677,-20.195595,51.170654,2.9869554,3.342587,5.634647,-1.3035116,-17.033716,24.534258,61.510277,-9.719791,3.4353538,-1.8571366
23,0.26429179310798645,1.9665038585662842,77.90240478515625,0.08156453759609454,0.7469427761627295,-99.80860757520712,4.061981,7.620209,13.225594,7.006222,-10.755252,-7.3206773,-0.7854186,-6.2651668,-12.338203,9.165562,-10.257024,5.919166,3.3657007,1.0745372,5.741544,10.569263,15.285605,-20.175747,51.182434,3.0029933,3.3275347,5.6422696,-1.2905024,-17.033354,24.530975,61.50054,-9.721265,3.4413483,-1.8547312
24,0.2641931176185608,1.968991994857788,77.90210723876953,0.0832236447671123,0.7444385502683849,-99.80416041668649,4.0605774,7.6204443,13.222354,7.0069094,-10.757231,-7.314853,-0.7830763,-6.266164,-12.3557,9.165736,-10.26131,5.9120283,3.3645613,1.0700431,5.741577,10.570213,15.282389,-20.160706,51.191105,3.0143874,3.3167927,5.6509237,-1.2772721,-17.032635,24.532234,61.486267,-9.724689,3.4506621,-1.8540255
25,0.2672809362411499,1.9718554019927979,77.89932250976562,0.08547041196945754,0.7411806015299117,-99.80130606798024,4.0601315,7.6192822,13.220423,7.0068526,-10.752531,-7.313619,-0.7878632,-6.267657,-12.333876,9.177464,-10.267322,5.9089494,3.3632095,1.0670702,5.741262,10.569785,15.279347,-20.153402,51.1932,3.0108478,3.3147364,5.6621833,-1.2715492,-17.031721,24.537954,61.48072,-9.728509,3.4602,-1.8570246
26,0.2665453255176544,1.9746057987213135,77.89550018310547,0.08804077775872525,0.7375723403691936,-99.79967616372419,4.060372,7.6171103,13.219715,7.005404,-10.743366,-7.314836,-0.7979412,-6.2696757,-12.286032,9.197154,-10.274523,5.9084153,3.3620722,1.0656545,5.739721,10.568938,15.275712,-20.15206,51.191895,2.9969256,3.3181052,5.6767354,-1.2696315,-17.030216,24.549843,61.47957,-9.728674,3.4708924,-1.8625041
27,0.2570086717605591,1.9755663871765137,77.90261840820312,0.09090012558697855,0.7341847674144087,-99.7981904096691,4.0593543,7.614963,13.218799,7.006329,-10.734944,-7.316376,-0.8079732,-6.271787,-12.238256,9.21633,-10.281947,5.9095054,3.361351,1.0649717,5.736339,10.5666895,15.272025,-20.156515,51.192307,2.980435,3.3238437,5.6918154,-1.2700065,-17.0283,24.565668,61.482697,-9.729464,3.4816954,-1.8682628
28,0.2567051351070404,1.9850399494171143,77.90473937988281,0.09350262105358567,0.7314471058942165,-99.7959502911147,4.058886,7.6134934,13.217113,7.00582,-10.728805,-7.3162327,-0.8110765,-6.273275,-12.217119,9.222099,-10.2854185,5.911336,3.3628526,1.0642958,5.732948,10.564081,15.269277,-20.16267,51.195072,2.9739501,3.3295832,5.703766,-1.269307,-17.02659,24.581367,61.48503,-9.733165,3.4919286,-1.871089
29,0.2501659691333771,1.9907126426696777,77.90328979492188,0.09647767414372393,0.7296524403454583,-99.79215487965364,4.0574017,7.6123667,13.213777,7.006197,-10.727408,-7.31282,-0.804031,-6.274751,-12.240229,9.208796,-10.285191,5.9154296,3.366473,1.06251,5.7312036,10.55999,15.267598,-20.16985,51.20131,2.9798088,3.3328035,5.7071066,-1.2675216,-17.025438,24.597752,61.485867,-9.744435,3.5008948,-1.8677226
30,0.2512965500354767,1.9942017793655396,77.8995132446289,0.09996888784226034,0.728536978817388,-99.7875623764668,4.055669,7.611439,13.209704,7.0063787,-10.728165,-7.3075223,-0.7905356,-6.2762046,-12.289968,9.182938,-10.2822695,5.9217167,3.3719318,1.0604559,5.7318635,10.554832,15.266763,-20.177721,51.207706,2.9939635,3.3356452,5.7044754,-1.2656628,-17.02478,24.613966,61.484676,-9.761604,3.5091527,-1.8597121
31,0.24826519191265106,1.9952824115753174,77.90206909179688,0.10199419959139921,0.7275789797645604,-99.78340064941877,4.0546746,7.611601,13.205557,7.0057974,-10.729523,-7.3029428,-0.7769636,-6.276063,-12.339665,9.157176,-10.278388,5.926623,3.3720293,1.0599691,5.7226024,10.5529785,15.263915,-20.192497,51.221325,3.0056353,3.3418758,5.709018,-1.2657913,-17.022678,24.65307,61.491146,-9.764215,3.519039,-1.8579437
32,0.24585512280464172,1.9955776929855347,77.90327453613281,0.10227540279339714,0.7264002793639005,-99.78133867743199,4.0539336,7.613549,13.202673,7.0061507,-10.730742,-7.3016295,-0.77235514,-6.274613,-12.36159,9.14907,-10.2775545,5.9267473,3.3739102,1.061121,5.7166953,10.556555,15.260794,-20.195354,51.223732,3.0336714,3.355514,5.7222366,-1.2622955,-17.020397,24.67356,61.487976,-9.771816,3.5289156,-1.8593287
33,0.2425571233034134,1.9994345903396606,77.90521240234375,0.09859852620222281,0.7252443289836542,-99.78289956118468,4.053626,7.6189733,13.200779,7.006601,-10.730746,-7.3054523,-0.7829672,-6.269818,-12.337858,9.169625,-10.280416,5.918586,3.3808143,1.0660313,5.7100673,10.563405,15.257588,-20.191792,51.21841,3.0827687,3.3828025,5.752467,-1.2525424,-17.018116,24.677826,61.474705,-9.773786,3.5368881,-1.8674588
34,0.23937690258026123,2.000065803527832,77.9065170288086,0.0921135268873015,0.724436984633207,-99.78711900573131,4.0544453,7.626249,13.199814,7.0060444,-10.730373,-7.3124924,-0.8032874,-6.2628593,-12.286255,9.2081375,-10.28557,5.9048624,3.3884544,1.0728372,5.701258,10.576134,15.250048,-20.17869,51.207397,3.1543534,3.4212008,5.7959533,-1.236444,-17.013296,24.673023,61.453026,-9.775837,3.5455806,-1.8826939
35,0.24871322512626648,2.0046520233154297,77.90324401855469,0.0860555581402168,0.7227919707089389,-99.79097689407652,4.0556197,7.633621,13.199914,7.0063295,-10.730044,-7.3200645,-0.82323825,-6.2560873,-12.23433,9.24824,-10.292235,5.891316,3.3966718,1.0796499,5.6937695,10.585443,15.24063,-20.166033,51.199295,3.2203217,3.45671,5.8390164,-1.2223358,-17.007484,24.663486,61.43229,-9.78162,3.5562186,-1.89773
36,0.2457997053861618,2.0031378269195557,77.9029769897461,0.08317490050537808,0.7195191172619875,-99.79193071860226,4.057663,7.638396,13.201333,7.006601,-10.729405,-7.325292,-0.8311252,-6.252213,-12.209453,9.269798,-10.298342,5.8836665,3.4014297,1.0838251,5.688974,10.589112,15.227689,-20.156153,51.199127,3.2623858,3.477918,5.8716717,-1.2127028,-16.999228,24.65611,61.41608,-9.79917,3.5738287,-1.9100205
37,0.24208226799964905,2.0060365200042725,77.89891052246094,0.0848487244874106,0.7135053898378249,-99.78875636139887,4.0617385,7.6401815,13.206356,7.006988,-10.728431,-7.3265653,-0.8213809,-6.251822,-12.225112,9.264357,-10.302696,5.8855066,3.4027028,1.0825841,5.690094,10.590129,15.224224,-20.154568,51.200207,3.259974,3.4759107,5.887247,-1.2074144,-16.996544,24.655672,61.399498,-9.825049,3.5986762,-1.9129628
38,0.2438722848892212,2.0112204551696777,77.89641571044922,0.08932211560252487,0.7053655972551429,-99.78313712150238,4.0679297,7.6402698,13.21413,7.0060534,-10.72627,-7.325787,-0.79941285,-6.2532625,-12.264663,9.241104,-10.3058,5.893054,3.4001958,1.077513,5.6930504,10.590945,15.215052,-20.15261,51.20509,3.237427,3.4611323,5.8976827,-1.2008077,-16.987967,24.656614,61.380455,-9.863544,3.632997,-1.9153298
39,0.235840305685997,2.008225202560425,77.89791107177734,0.09540729682540597,0.697506937742064,-99.77619408601838,4.073028,7.6381764,13.220419,7.006625,-10.725023,-7.3249173,-0.77686816,-6.256938,-12.310071,9.216892,-10.311484,5.901127,3.3962934,1.071688,5.6955047,10.588357,15.208083,-20.155334,51.21328,3.20295,3.4419029,5.8996253,-1.2009896,-16.979595,24.662235,61.37032,-9.900133,3.6679134,-1.9171237
40,0.22910076379776,2.0110371112823486,77.89907836914062,0.10157874927506481,0.6921203823851828,-99.76957694633792,4.0755773,7.633939,13.220923,7.0064473,-10.723214,-7.326343,-0.76158714,-6.262125,-12.343649,9.200772,-10.319368,5.9044228,3.393566,1.0671874,5.6955395,10.587617,15.204198,-20.162077,51.216293,3.1736948,3.4290266,5.8925967,-1.2015405,-16.973557,24.669952,61.36383,-9.927914,3.699418,-1.9211394
41,0.21918122470378876,2.010493278503418,77.90316009521484,0.11129857374918202,0.6912446852700889,-99.76274307472308,4.0740113,7.622255,13.213276,7.0058017,-10.722292,-7.330995,-0.75632,-6.273212,-12.363658,9.1951275,-10.335324,5.9021587,3.3911762,1.0625774,5.6885443,10.5877285,15.2010975,-20.180841,51.215775,3.1475675,3.42542,5.87451,-1.2041652,-16.966103,24.685036,61.367107,-9.943736,3.7281497,-1.9301049
42,0.22212690114974976,2.0151567459106445,77.90149688720703,0.1236643133705641,0.6931864760306653,-99.75528954090923,4.0693316,7.605592,13.200088,7.0049253,-10.721461,-7.3376446,-0.7555865,-6.28861,-12.378634,9.19249,-10.356078,5.896905,3.387937,1.0577244,5.680093,10.586463,15.200648,-20.203257,51.212753,3.1210444,3.4248812,5.8440814,-1.2089341,-16.962393,24.701189,61.37469,-9.955635,3.755023,-1.9396728
43,0.21828773617744446,2.015601396560669,77.90414428710938,0.13283548870300213,0.6948900258861327,-99.74834139635,4.0644946,7.592444,13.185245,7.0041614,-10.71996,-7.344746,-0.7602761,-6.3008504,-12.385841,9.199882,-10.374853,5.8886204,3.3892782,1.0563521,5.667519,10.586178,15.200964,-20.232752,51.211613,3.0938005,3.4258497,5.8120255,-1.2131771,-16.957708,24.721745,61.38785,-9.95553,3.7793403,-1.951602
44,0.22562606632709503,2.021210193634033,77.89474487304688,0.13220522832227113,0.6929310036370351,-99.7430442485045,4.0631914,7.592792,13.172807,7.003519,-10.71673,-7.35082,-0.7675135,-6.3008733,-12.383095,9.217333,-10.381353,5.877144,3.397843,1.0614135,5.6590633,10.586717,15.201052,-20.249826,51.21165,3.0794241,3.4262135,5.784073,-1.2127002,-16.952713,24.735146,61.39505,-9.947192,3.799029,-1.9632037
45,0.22935327887535095,2.029552698135376,77.89447021484375,0.11288842764282873,0.6841749114437428,-99.74060335241023,4.0679436,7.6180067,13.162557,7.004166,-10.710624,-7.3570004,-0.7802118,-6.2785435,-12.361348,9.254775,-10.365957,5.857605,3.4158332,1.0787848,5.6626196,10.588529,15.19899,-20.237509,51.209366,3.0916982,3.426247,5.756412,-1.207508,-16.946184,24.733025,61.391,-9.929322,3.810389,-1.9728104
46,0.22710727155208588,2.0342423915863037,77.89767456054688,0.08120987085613014,0.671153137779556,-99.73983770272346,4.0774226,7.6595263,13.152707,7.0032825,-10.7009735,-7.3634458,-0.79869235,-6.2414804,-12.324918,9.309533,-10.336825,5.831659,3.4247038,1.1024584,5.682085,10.598156,15.188851,-20.165777,51.19873,3.1502488,3.42542,5.718707,-1.2137803,-16.932156,24.720919,61.384792,-9.918592,3.8154368,-1.9800767
47,0.21542450785636902,2.039257526397705,77.90912628173828,0.05177221610790833,0.6584636805453726,-99.7390482520764,4.0836945,7.699005,13.144697,7.007465,-10.694517,-7.367728,-0.81787896,-6.2073693,-12.290444,9.36507,-10.3113785,5.8091702,3.4294932,1.1244079,5.7008977,10.608925,15.173001,-20.087227,51.19232,3.2146573,3.4221592,5.684798,-1.2270801,-16.917593,24.716413,61.385166,-9.9066305,3.81951,-1.9856185
48,0.22011655569076538,2.0446712970733643,77.90937042236328,0.040239768014430397,0.651097853737563,-99.73628815603891,4.085974,7.7156425,13.140604,7.0081043,-10.689847,-7.3670425,-0.83211946,-6.194557,-12.274661,9.402997,-10.305956,5.8001714,3.4358602,1.1319225,5.7117567,10.61539,15.160624,-20.03632,51.193512,3.2642293,3.4138665,5.6589694,-1.2320397,-16.908144,24.715036,61.38089,-9.906732,3.82782,-1.9864517
49,0.22061027586460114,2.051732063293457,77.90408325195312,0.057331195916553994,0.6517852127952602,-99.72964292778927,4.08427,7.6948256,13.143491,6.998909,-10.685843,-7.3576503,-0.83393925,-6.2153764,-12.291593,9.405392,-10.330599,5.814474,3.4300325,1.1133876,5.7114425,10.623043,15.143941,-19.996912,51.207058,3.3165233,3.3949022,5.643474,-1.2453399,-16.896387,24.729887,61.38986,-9.932218,3.8432848,-1.9820157
50,0.21146880090236664,2.0536818504333496,77.90409088134766,0.09287337677449305,0.6577350961338787,-99.72081783014382,4.068249,7.6529193,13.149989,7.006541,-10.694369,-7.3420706,-0.83398443,-6.2591786,-12.328125,9.396742,-10.37993,5.8445115,3.4278386,1.0773865,5.7040105,10.627163,15.132883,-19.98164,51.227863,3.3624165,3.369084,5.6364074,-1.2493055,-16.888922,24.744877,61.39305,-9.972501,3.8626916,-1.9722874
51,0.21840070188045502,2.0570268630981445,77.89179992675781,0.12975856474441186,0.6644010117864815,-99.71240720704765,4.0560627,7.60835,13.157005,7.004908,-10.6981535,-7.326798,-0.8367433,-6.30466,-12.363887,9.392321,-10.432313,5.873569,3.4272265,1.0407956,5.696923,10.631375,15.124621,-19.974058,51.244995,3.3960676,3.3454134,5.629952,-1.2521143,-16.883366,24.758871,61.39348,-10.011253,3.8816988,-1.960373
52,0.21545511484146118,2.058887004852295,77.89012145996094,0.1508116972240836,0.6672498131915588,-99.70702679499627,4.0479736,7.584323,13.158736,7.0045233,-10.699394,-7.31866,-0.85383475,-6.3319273,-12.377772,9.421475,-10.473223,5.8850055,3.432666,1.020437,5.6983128,10.634017,15.121696,-19.971842,51.24813,3.402249,3.3340702,5.618251,-1.250853,-16.88135,24.763994,61.3821,-10.032517,3.8972921,-1.9498934
53,0.2149534821510315,2.0642426013946533,77.88843536376953,0.1484777738219749,0.6652780791553187,-99.7064894181992,4.0465064,7.5899773,13.152861,7.003139,-10.695356,-7.3219666,-0.89625585,-6.3329363,-12.353545,9.5070095,-10.498892,5.8695674,3.4338803,1.024866,5.7025576,10.635632,15.108245,-19.956339,51.247623,3.3720906,3.336678,5.5964456,-1.260165,-16.87175,24.775753,61.381554,-10.022797,3.9071424,-1.9480008
54,0.20678816735744476,2.068678379058838,77.89697265625,0.1316045915586408,0.6601597293297904,-99.70863913480233,4.0477796,7.6146054,13.141562,7.0047626,-10.690354,-7.3325815,-0.95155746,-6.316872,-12.307154,9.622103,-10.5139675,5.837412,3.4436502,1.0445981,5.7146187,10.6365595,15.102897,-19.949406,51.23128,3.3067374,3.3492708,5.566357,-1.2618035,-16.867716,24.775272,61.36772,-9.995835,3.9123077,-1.9462457
55,0.20585206151008606,2.0784575939178467,77.8993148803711,0.11362178327240699,0.6541882311239933,-99.71178802726203,4.0508213,7.6405897,13.130191,7.0042353,-10.683471,-7.343114,-1.01377,-6.300641,-12.260241,9.752187,-10.531832,5.8023725,3.4521978,1.0649115,5.7299676,10.636066,15.096469,-19.944601,51.212128,3.2449117,3.3689594,5.5422783,-1.2656729,-16.86249,24.774792,61.34955,-9.970052,3.91951,-1.9439667
56,0.20336082577705383,2.0856752395629883,77.89727783203125,0.10821227995803051,0.6498736905876722,-99.71400165485724,4.0500307,7.6513114,13.123271,7.0058446,-10.678919,-7.3461027,-1.0778048,-6.3014193,-12.234204,9.8842945,-10.566961,5.7783394,3.4563565,1.0713463,5.7446904,10.631711,15.089118,-19.948977,51.200012,3.2159743,3.3925283,5.537552,-1.276545,-16.855568,24.78129,61.330784,-9.960702,3.9338396,-1.9379171
57,0.19636575877666473,2.090691328048706,77.89566040039062,0.11963018396018389,0.6470642017236696,-99.71554378246297,4.047623,7.64085,13.123446,7.005413,-10.675951,-7.3374815,-1.1353244,-6.323476,-12.242632,10.002068,-10.61977,5.771003,3.453993,1.0572386,5.763265,10.628991,15.085087,-19.964062,51.184387,3.2500343,3.4260871,5.563153,-1.2863286,-16.850353,24.794853,61.293457,-9.977337,3.9626029,-1.9233872
58,0.20712588727474213,2.10062313079834,77.884521484375,0.14111923532655135,0.6455208644095415,-99.7172039887878,4.042907,7.6180067,13.12779,7.0056834,-10.674621,-7.321759,-1.1943698,-6.3594837,-12.270638,10.120901,-10.685528,5.772547,3.4478614,1.0313859,5.7737174,10.622215,15.081728,-20.00105,51.18135,3.3110921,3.4684725,5.6155143,-1.3060938,-16.842402,24.825357,61.26718,-9.998714,4.000271,-1.908409
59,0.21239791810512543,2.113633871078491,77.87635040283203,0.16541616029089753,0.6435226693069006,-99.71736365442929,4.0380487,7.5916386,13.132212,7.0053964,-10.672157,-7.3051934,-1.2583214,-6.4001775,-12.301151,10.251434,-10.759652,5.7752857,3.4409814,1.0017565,5.7945323,10.619406,15.081354,-20.031738,51.163857,3.372834,3.5098424,5.6649446,-1.3185463,-16.836248,24.84925,61.216858,-10.031585,4.038843,-1.8917501
60,0.19169659912586212,2.1185142993927,77.88712310791016,0.18649826934743174,0.6414390370539087,-99.71505872012237,4.0317183,7.569835,13.132796,7.005144,-10.666343,-7.2939773,-1.334009,-6.437768,-12.315823,10.405752,-10.837845,5.771778,3.437348,0.9796407,5.816013,10.614847,15.081795,-20.05662,51.147224,3.378944,3.5381885,5.694919,-1.3294721,-16.833294,24.868073,61.164955,-10.05716,4.066723,-1.8828799
61,0.1883983463048935,2.1334357261657715,77.89070892333984,0.20432444891896306,0.6375479384458703,-99.71057474912583,4.026944,7.551712,13.129112,7.0036273,-10.656202,-7.289823,-1.4271924,-6.4734564,-12.305796,10.598495,-10.9253845,5.759935,3.4422545,0.96648866,5.8341885,10.609287,15.083063,-20.092537,51.130737,3.2865143,3.5504994,5.702117,-1.3343089,-16.827751,24.891499,61.1132,-10.069006,4.084541,-1.8917747
62,0.18275518715381622,2.144777297973633,77.88745880126953,0.22107736762438296,0.6324015562440167,-99.704151851707,4.0209627,7.535415,13.122531,7.0042634,-10.643945,-7.2896156,-1.5317262,-6.5090065,-12.282564,10.81709,-11.021519,5.7435236,3.4496927,0.9583109,5.859693,10.602883,15.083876,-20.117804,51.10762,3.1424208,3.5520968,5.6913075,-1.3357297,-16.82396,24.9058,61.050564,-10.083943,4.0952797,-1.90791
63,0.17701758444309235,2.154524326324463,77.88448333740234,0.2344339754146487,0.628737961843136,-99.69439210800766,4.009054,7.524007,13.112511,7.012038,-10.63429,-7.2916117,-1.6429179,-6.5419083,-12.257388,11.046548,-11.118714,5.7247744,3.4576058,0.9531442,5.883016,10.594895,15.085133,-20.147469,51.088837,2.994652,3.5490615,5.6772194,-1.3342526,-16.819464,24.919973,60.983124,-10.093798,4.10193,-1.925672
64,0.17950870096683502,2.1688361167907715,77.8753433227539,0.24407914538970082,0.6284860821927767,-99.68030482489152,3.9939985,7.5175285,13.099919,7.014562,-10.621467,-7.293936,-1.7514834,-6.569769,-12.241328,11.265171,-11.206308,5.705584,3.4595087,0.9476147,5.906613,10.588938,15.08715,-20.172882,51.071995,2.90524,3.5471687,5.668247,-1.330761,-16.814476,24.931828,60.904247,-10.100577,4.1066985,-1.9342253
65,0.17592301964759827,2.18112850189209,77.8677978515625,0.24507335721292423,0.6326738290130621,-99.6620524811259,3.9655552,7.523945,13.084133,7.0324483,-10.618504,-7.2979712,-1.86122,-6.587577,-12.233406,11.478373,-11.280179,5.683969,3.458,0.94332707,5.922699,10.579717,15.091838,-20.208447,51.070553,2.8888443,3.5492647,5.668904,-1.327238,-16.80747,24.949247,60.824593,-10.0865965,4.106994,-1.9359466
66,0.16946959495544434,2.1936240196228027,77.86359405517578,0.2395701222763762,0.6393470741942611,-99.63997411046174,3.936403,7.538043,13.066202,7.0424213,-10.611211,-7.304193,-1.9706806,-6.597365,-12.229381,11.686398,-11.342229,5.6596518,3.4488103,0.9408532,5.9416056,10.574891,15.098961,-20.235214,51.066986,2.92458,3.5517468,5.668732,-1.3232055,-16.79963,24.966457,60.73327,-10.0650425,4.1026006,-1.9308604
67,0.1559554785490036,2.20613694190979,77.86530303955078,0.2372279231194898,0.6491519259827455,-99.61402644225842,3.9007256,7.549399,13.0450735,7.0565825,-10.604459,-7.3088346,-2.0814602,-6.6112046,-12.233572,11.892967,-11.4091625,5.637371,3.436326,0.93376803,5.958561,10.572181,15.10771,-20.259598,51.063488,2.9734445,3.5511053,5.6728873,-1.318828,-16.791067,24.982437,60.636284,-10.048998,4.0990915,-1.9210694
68,0.14352008700370789,2.214290142059326,77.86569213867188,0.2470617386372214,0.6618833138667158,-99.58406092860203,3.8343878,7.5525436,13.016664,7.127016,-10.62312,-7.3085165,-2.1927638,-6.640525,-12.250925,12.097622,-11.495025,5.6219673,3.4235532,0.9159358,5.9740663,10.571986,15.1148815,-20.279467,51.05632,3.0051548,3.5438209,5.684795,-1.3112832,-16.783672,24.989754,60.530685,-10.059559,4.1031556,-1.9066794
69,0.13050438463687897,2.229074478149414,77.86233520507812,0.27848071536189517,0.6810278089079005,-99.54850573745556,3.7248793,7.5381517,12.979324,7.2723813,-10.675429,-7.300542,-2.3041108,-6.6964364,-12.290804,12.294742,-11.611033,5.6179976,3.417062,0.87602454,5.981369,10.574971,15.125786,-20.304535,51.046482,3.0025833,3.5236576,5.709469,-1.2914996,-16.769966,24.970602,60.41477,-10.117736,4.1182275,-1.8890502
70,0.12254434078931808,2.2483396530151367,77.85144805908203,0.3240277590511747,0.7051161405601309,-99.50776019879585,3.6015053,7.5086083,12.937155,7.432818,-10.731278,-7.2874513,-2.4155512,-6.770167,-12.348126,12.486528,-11.747195,5.62182,3.4160624,0.82070607,5.9853463,10.577301,15.138828,-20.331327,51.036884,2.9898431,3.4939332,5.743115,-1.262555,-16.74955,24.925365,60.288074,-10.21288,4.140338,-1.8662142
71,0.11715736240148544,2.267169713973999,77.83893585205078,0.36878641558861364,0.7275438544374891,-99.46526693778387,3.4642167,7.483619,12.890523,7.6236835,-10.801237,-7.2735543,-2.5283132,-6.8433557,-12.405067,12.68424,-11.886117,5.625951,3.4052763,0.7704214,5.994119,10.580195,15.144436,-20.34604,51.025146,2.9795902,3.4666526,5.7789207,-1.2436892,-16.739061,24.902775,60.158226,-10.298566,4.16464,-1.8391562
72,0.10111145675182343,2.2720465660095215,77.83052825927734,0.3983972373452143,0.7410468577544218,-99.42443120285422,3.3130043,7.4820876,12.840066,7.862566,-10.895708,-7.2630477,-2.6431816,-6.8984036,-12.443192,12.898972,-12.009987,5.6228743,3.4009516,0.7351354,6.018948,10.568366,15.1480665,-20.361065,51.013523,2.982974,3.45567,5.8105903,-1.2428173,-16.732952,24.899748,60.035763,-10.354612,4.1839705,-1.8077722
73,0.09274748712778091,2.301193952560425,77.8219985961914,0.40507466565418027,0.7416375466814503,-99.38650021873251,3.1535976,7.512544,12.786178,8.14423,-11.01613,-7.259034,-2.762978,-6.9263487,-12.450118,13.14245,-12.111397,5.609704,3.4128287,0.70860064,6.0562367,10.532569,15.173138,-20.403265,51.009697,2.9882028,3.4729807,5.841686,-1.2712607,-16.706087,24.933865,59.946114,-10.358017,4.198045,-1.778479
74,0.07835327833890915,2.3184826374053955,77.81835174560547,0.3977030697931333,0.7323001572009031,-99.35002036134985,2.9853783,7.56361,12.728753,8.465113,-11.158129,-7.258726,-2.8843691,-6.9379554,-12.437629,13.40457,-12.199952,5.590718,3.4139564,0.6998577,6.1138787,10.488231,15.189949,-20.426258,51.00349,3.0121424,3.5064194,5.868632,-1.3194889,-16.695745,25.009792,59.852535,-10.327008,4.2109613,-1.7412405
75,0.07149377465248108,2.338775873184204,77.81002807617188,0.38572443469347084,0.7237150778030986,-99.3117477572289,2.7975605,7.6241794,12.665849,8.823335,-11.3170595,-7.2579765,-3.0078197,-6.9439626,-12.42712,13.668467,-12.286541,5.5686474,3.4048338,0.6977243,6.171172,10.46153,15.207206,-20.4376,50.97551,3.0352833,3.5414429,5.891861,-1.3855804,-16.689392,25.109415,59.769855,-10.27735,4.220565,-1.7047973
76,0.05895136296749115,2.3637073040008545,77.79924011230469,0.3778401281767331,0.7249410062913295,-99.26964942610604,2.5806575,7.6847095,12.596346,9.218526,-11.489683,-7.2532406,-3.1314259,-6.954128,-12.438669,13.914704,-12.380416,5.546079,3.393682,0.68963194,6.219381,10.445718,15.226293,-20.43301,50.936325,3.0539212,3.5578234,5.9054694,-1.4369493,-16.683754,25.194517,59.664692,-10.23982,4.229853,-1.6723694
77,0.045310452580451965,2.3784735202789307,77.78275299072266,0.38007415333711286,0.7395691170055514,-99.22499687980844,2.339028,7.736185,12.522474,9.636808,-11.669163,-7.2423863,-3.254711,-6.9754543,-12.481028,14.1362295,-12.485841,5.524107,3.3874009,0.6729391,6.2541547,10.446242,15.244526,-20.417595,50.88075,3.0628731,3.5453355,5.9091487,-1.4638357,-16.676847,25.246347,59.533737,-10.229511,4.2413917,-1.6790543
78,0.03894452750682831,2.403291940689087,77.76950073242188,0.3862919185485348,0.7621656392475759,-99.17887132943514,2.072393,7.786527,12.44391,10.089649,-11.862745,-7.228162,-3.3820744,-7.0017123,-12.541449,14.351736,-12.600322,5.5010414,3.3874996,0.6517191,6.2815056,10.450872,15.263382,-20.39664,50.81893,3.065914,3.5148878,5.9050674,-1.4750798,-16.666998,25.277308,59.384975,-10.233409,4.253895,-1.7115128
79,0.025032224133610725,2.4301300048828125,77.75569915771484,0.3876663858528994,0.7888981293917153,-99.12666672793631,1.7746294,7.847874,12.355839,10.591817,-12.075828,-7.214038,-3.5083392,-7.0219855,-12.611209,14.556794,-12.714432,5.4759088,3.390405,0.6333263,6.3046975,10.451609,15.2819805,-20.374224,50.756157,3.0688307,3.4845138,5.8981066,-1.4918687,-16.657581,25.297218,59.237953,-10.235894,4.259264,-1.7006638
80,0.0018529073568060994,2.4550516605377197,77.74755096435547,0.3756234987407732,0.8155903811900814,-99.06470046001613,1.4429688,7.9312587,12.254466,11.153208,-12.311755,-7.2033477,-3.634817,-7.026967,-12.680382,14.762134,-12.822946,5.447749,3.3987014,0.62934625,6.3248177,10.427864,15.292258,-20.363886,50.71346,3.075553,3.4712002,5.8963695,-1.5259056,-16.655409,25.309036,59.10579,-10.223551,4.2500043,-1.5772151
81,-0.022345930337905884,2.4875476360321045,77.73538970947266,0.34898589356284115,0.8450112028709461,-98.99022842032196,1.0651407,8.038694,12.136343,11.789027,-12.577089,-7.197294,-3.7674317,-7.0156684,-12.745976,14.972528,-12.925717,5.4150815,3.3828225,0.62676024,6.350874,10.420972,15.321053,-20.32386,50.63521,3.093466,3.4884455,5.881022,-1.6117905,-16.66582,25.344904,58.994484,-10.166073,4.2144294,-1.2584667
82,-0.03794992342591286,2.5178134441375732,77.71459197998047,0.31251563506215646,0.8772669964756183,-98.90708770192099,0.6525687,8.162088,12.006043,12.479921,-12.863142,-7.194352,-3.9046333,-6.993741,-12.811994,15.185292,-13.026096,5.3789997,3.3758743,0.6344558,6.3707805,10.38658,15.343758,-20.296701,50.58049,3.1136067,3.5219045,5.865144,-1.7122543,-16.688013,25.36758,58.89299,-10.086405,4.1601744,-0.80330026
83,-0.052837781608104706,2.5498993396759033,77.69646453857422,0.2623155352038343,0.9083214019445154,-98.81587182515314,0.21159731,8.306788,11.862581,13.225237,-13.170917,-7.194786,-4.035633,-6.955748,-12.885509,15.391467,-13.122413,5.3410625,3.3577397,0.65809613,6.4049816,10.377801,15.38006,-20.256252,50.476566,3.132413,3.5575242,5.848136,-1.7959899,-16.740103,25.398317,58.74709,-10.007736,4.1100183,-0.34229735
84,-0.07550134509801865,2.589212656021118,77.66902160644531,0.19474351567904463,0.9338113067102247,-98.71779889506149,-0.25072762,8.477796,11.705652,14.024854,-13.499696,-7.1988063,-4.150728,-6.8965907,-12.972655,15.584995,-13.213907,5.30282,3.348699,0.7066465,6.449248,10.364282,15.415151,-20.235254,50.36457,3.1381304,3.5754254,5.8470573,-1.841711,-16.798338,25.417362,58.56753,-9.970666,4.0814385,-0.01623115
85,-0.10139025002717972,2.613779067993164,77.6393814086914,0.1013610545932479,0.9501304677626473,-98.6112683027847,-0.7291674,8.686097,11.5327635,14.877688,-13.853937,-7.2133536,-4.238775,-6.804094,-13.078099,15.754684,-13.295052,5.2610774,3.3384178,0.78616256,6.4957643,10.337519,15.432603,-20.235369,50.273167,3.1257718,3.568346,5.881867,-1.8713872,-16.820818,25.429327,58.403755,-10.012175,4.082331,0.11005516
86,-0.1325872540473938,2.64103364944458,77.61216735839844,-0.014153811267259125,0.9606397326451079,-98.49624776095473,-1.2306358,8.925537,11.343939,15.789184,-14.232567,-7.2369437,-4.30731,-6.6834,-13.197746,15.905985,-13.367441,5.215958,3.324217,0.88805103,6.554098,10.324523,15.456104,-20.241995,50.154102,3.100206,3.5491698,5.9356084,-1.8743383,-16.839111,25.439672,58.212196,-10.098307,4.1036444,0.12222961
87,-0.15572871267795563,2.6748440265655518,77.57915496826172,-0.13645390155763093,0.9708836925419747,-98.37634463011337,-1.7457352,9.170943,11.145922,16.723589,-14.615947,-7.257657,-4.375273,-6.557863,-13.324468,16.059835,-13.442695,5.1742725,3.3134108,0.9997545,6.609265,10.30001,15.469987,-20.248701,50.047165,3.0825243,3.5222027,5.9904237,-1.887566,-16.844757,25.451017,58.04363,-10.191812,4.130118,0.082441546
88,-0.18384666740894318,2.7108402252197266,77.55284118652344,-0.2502746667256763,0.9867302640323202,-98.25507160945355,-2.266901,9.397819,10.945715,17.648663,-14.985012,-7.2634106,-4.4623523,-6.4507413,-13.450922,16.237808,-13.532733,5.1427846,3.3103886,1.0978627,6.6675043,10.297455,15.503225,-20.24156,49.893906,3.0795403,3.4989812,6.016437,-1.9076563,-16.857565,25.475348,57.866287,-10.236232,4.1518555,0.05926332
89,-0.20289842784404755,2.7496678829193115,77.52215576171875,-0.3564375599958148,1.0058367073200558,-98.13595599466994,-2.7921479,9.607395,10.744336,18.563963,-15.34279,-7.2522235,-4.565913,-6.3606663,-13.578659,16.435843,-13.636534,5.1227255,3.3261132,1.1924502,6.719524,10.274853,15.518432,-20.222576,49.760353,3.1129334,3.4790144,6.0189447,-1.9563947,-16.867374,25.506453,57.72116,-10.219574,4.1662693,0.059528645
90,-0.21775348484516144,2.773138999938965,77.48395538330078,-0.46143188188765044,1.0266037938515022,-98.01630138238637,-3.3238857,9.80917,10.538943,19.480413,-15.6956835,-7.230898,-4.6813045,-6.2784905,-13.710011,16.652273,-13.751142,5.110627,3.333747,1.2862104,6.779501,10.277528,15.542086,-20.168982,49.58589,3.1681352,3.459164,5.9970994,-2.018368,-16.894032,25.57223,57.566082,-10.150274,4.1805253,0.05585699
91,-0.22137901186943054,2.819493293762207,77.44035339355469,-0.5586870474671157,1.0545740321868755,-97.89028097007093,-3.8641567,9.992404,10.329892,20.390501,-16.032618,-7.19994,-4.8116426,-6.2133007,-13.840777,16.885763,-13.878092,5.106311,3.3408797,1.3787421,6.836077,10.28467,15.563278,-20.108381,49.393425,3.2344203,3.435785,5.9596043,-2.077649,-16.934689,25.63944,57.403996,-10.077196,4.192786,0.048588216
92,-0.2311583310365677,2.8622519969940186,77.40082550048828,-0.6408327445039339,1.0953825659201195,-97.75221867019302,-4.4090533,10.145403,10.118778,21.273993,-16.340502,-7.159817,-4.972776,-6.177506,-13.965217,17.162092,-14.024077,5.1096334,3.3453507,1.464624,6.8786864,10.288432,15.580747,-20.057888,49.19268,3.2989776,3.405364,5.912281,-2.1292922,-16.98094,25.689137,57.245667,-10.044782,4.201148,0.0366453
93,-0.2394389659166336,2.8808367252349854,77.35819244384766,-0.7092629582904282,1.149852031214083,-97.59995365275479,-4.9498105,10.268083,9.902346,22.113646,-16.62313,-7.1111336,-5.1586685,-6.167195,-14.080171,17.471422,-14.192519,5.120748,3.3441489,1.5432293,6.9001,10.297357,15.597416,-20.012266,48.978836,3.3649282,3.3600388,5.8370595,-2.16756,-17.024231,25.714212,57.092426,-10.0703745,4.2002892,0.010561916
94,-0.2367722988128662,2.9212796688079834,77.31881713867188,-0.766092734513547,1.2151972559712607,-97.4368858257495,-5.4906983,10.365708,9.681582,22.922796,-16.884747,-7.0536613,-5.3680987,-6.17961,-14.188644,17.813978,-14.381334,5.139634,3.3403084,1.61474,6.905579,10.309622,15.614794,-19.968418,48.75329,3.4347303,3.303783,5.7379327,-2.2022166,-17.06433,25.724972,56.94927,-10.129746,4.192339,-0.027366545
95,-0.23430205881595612,2.9556944370269775,77.28182983398438,-0.806610422741879,1.2914905281903621,-97.26514980815462,-6.0524845,10.435255,9.463655,23.7376,-17.116417,-6.986685,-5.6088285,-6.2247615,-14.296046,18.196636,-14.581985,5.1659284,3.3304832,1.6762292,6.921035,10.340952,15.651017,-19.923069,48.47295,3.498917,3.2528207,5.6421905,-2.2191503,-17.143585,25.737759,56.76258,-10.192521,4.188729,-0.050898094
96,-0.21700747311115265,2.987375497817993,77.23429107666016,-0.8256875455269195,1.3784651476374576,-97.08733777779085,-6.6563716,10.4732275,9.256147,24.595469,-17.309687,-6.910232,-5.8918533,-6.313447,-14.407016,18.633886,-14.790026,5.199054,3.3281794,1.7211862,6.9415674,10.346921,15.686352,-19.908321,48.194847,3.5463974,3.2214022,5.597297,-2.2585495,-17.225641,25.751036,56.59957,-10.253134,4.19722,-0.051888995
97,-0.19327352941036224,3.030785083770752,77.19147491455078,-0.8163946344134839,1.4814582473991138,-96.90654639983558,-7.312355,10.471292,9.079109,25.504105,-17.471422,-6.798894,-6.236504,-6.457087,-14.517462,19.147808,-15.010449,5.241867,3.329596,1.7441111,6.967719,10.3332615,15.720646,-19.923727,47.907413,3.5595515,3.2177646,5.6291065,-2.329279,-17.316727,25.77307,56.460278,-10.3154335,4.2255397,-0.011053415
98,-0.15282104909420013,3.078922748565674,77.15196228027344,-0.7823529214965059,1.5984263809310266,-96.7206774720509,-8.00785,10.433378,8.923706,26.443613,-17.60173,-6.662587,-6.631234,-6.64769,-14.625806,19.724247,-15.243513,5.293458,3.328081,1.7442868,6.985038,10.296714,15.742379,-19.958153,47.635044,3.5542758,3.2320886,5.7171206,-2.4542613,-17.378645,25.804884,56.39349,-10.393503,4.265785,0.0500152
99,-0.10839834809303284,3.132488250732422,77.1177749633789,-0.7357989249126283,1.7185939231067269,-96.52384643355359,-8.728906,10.37354,8.754722,27.405373,-17.683544,-6.555581,-7.03811,-6.866684,-14.7410965,20.318098,-15.474506,5.3481674,3.329531,1.7428308,7.027969,10.266473,15.785032,-20.00308,47.312817,3.556175,3.2544434,5.8040295,-2.5381956,-17.508247,25.838783,56.247704,-10.442873,4.309887,0.12098184
100,-0.060557544231414795,3.188685655593872,77.08196258544922,-0.687249946376687,1.8308619474512566,-96.31019606451363,-9.463722,10.303596,8.536679,28.387068,-17.69885,-6.5326114,-7.4200697,-7.0966845,-14.872483,20.8862,-15.689994,5.4005275,3.3259234,1.7402921,7.086029,10.224743,15.830069,-20.04117,46.993423,3.6132483,3.273104,5.8552756,-2.6245255,-17.645596,25.882341,56.108025,-10.45782,4.344004,0.15760468
101,-0.014193081296980381,3.242779493331909,77.05179595947266,-0.6326391410582695,1.9370503252948772,-96.07814301535616,-10.22234,10.218864,8.274676,29.405403,-17.634151,-6.588611,-7.7819996,-7.3440137,-15.019951,21.433374,-15.884367,5.446574,3.315126,1.7311679,7.1611857,10.17985,15.880934,-20.057543,46.663864,3.739729,3.2885232,5.843168,-2.709819,-17.793215,25.941471,55.965603,-10.414477,4.3643765,0.14698435
102,0.0486038476228714,3.298004627227783,77.02023315429688,-0.5673612086750925,2.041406406295492,-95.8309035021735,-11.009612,10.112625,7.983681,30.461655,-17.50605,-6.704814,-8.143094,-7.616822,-15.178703,21.986729,-16.070574,5.490822,3.298399,1.7124125,7.250923,10.130637,15.938833,-20.063072,46.321445,3.9118102,3.3054025,5.795197,-2.7976236,-17.95215,26.013758,55.821598,-10.329632,4.3774896,0.10777147
103,0.12425200641155243,3.354950189590454,76.98638153076172,-0.5025056788484261,2.136215111414044,-95.56938819650506,-11.79291,9.990823,7.644776,31.507244,-17.33622,-6.9152603,-8.470582,-7.8953133,-15.352076,22.501308,-16.243889,5.539644,3.2750046,1.6939973,7.35748,10.076294,16.00622,-20.075148,45.97411,4.1147327,3.3197722,5.7494574,-2.888077,-18.122837,26.097872,55.67918,-10.235587,4.387829,0.05621553
104,0.19701525568962097,3.410933256149292,76.95402526855469,-0.449270827936123,2.2139706139341886,-95.29459264322499,-12.543462,9.860146,7.237765,32.501377,-17.151722,-7.2527804,-8.740103,-8.1618395,-15.543245,22.948996,-16.408472,5.599663,3.244164,1.6856269,7.482982,10.015709,16.086477,-20.111462,45.62956,4.3330793,3.3281212,5.744133,-2.980502,-18.30545,26.190783,55.541424,-10.166704,4.39972,0.008531446
105,0.27240848541259766,3.4617655277252197,76.9190444946289,-0.41021870126366705,2.2683294000027336,-95.00175371488683,-13.259215,9.6897135,6.7028685,33.441017,-16.946445,-7.7747135,-8.932277,-8.411297,-15.759163,23.307842,-16.567688,5.6743126,3.2043586,1.6906809,7.637535,9.942497,16.182287,-20.184265,45.289776,4.5571146,3.3259933,5.793663,-3.075642,-18.500528,26.295198,55.406326,-10.129721,4.413685,-0.031154726
106,0.35660520195961,3.5208568572998047,76.88471984863281,-0.3792113995679439,2.3049271000378853,-94.69216808612039,-13.954569,9.481683,6.069629,34.352383,-16.722027,-8.450889,-9.068079,-8.654918,-15.996186,23.605135,-16.72254,5.7598925,3.1577861,1.7017832,7.8173075,9.858926,16.29424,-20.283379,44.94896,4.7952433,3.316957,5.87606,-3.1722455,-18.70854,26.410273,55.271454,-10.106959,4.4274926,-0.071078345
107,0.4445500075817108,3.5742621421813965,76.85000610351562,-0.3539070597800718,2.334130184271341,-94.37524762411897,-14.620929,9.297193,5.4501534,35.230476,-16.508368,-9.176986,-9.171861,-8.895406,-16.243599,23.86355,-16.860813,5.8517623,3.10911,1.7143309,8.003993,9.778786,16.421654,-20.392954,44.60219,5.0603004,3.3091624,5.9742,-3.2648842,-18.927378,26.526314,55.136154,-10.096264,4.4417076,-0.11379143
108,0.5391314029693604,3.621706485748291,76.82491302490234,-0.3335309981294115,2.366479165380079,-94.06115610665148,-15.2523,9.2037945,4.953819,36.07007,-16.32742,-9.84255,-9.27055,-9.135196,-16.490211,24.110207,-16.973154,5.944988,3.063169,1.7248728,8.179198,9.71562,16.563038,-20.496832,44.244537,5.365432,3.3105977,6.071025,-3.3498526,-19.152855,26.635616,55.001575,-10.093315,4.456752,-0.16225164
109,0.6348524689674377,3.66330623626709,76.80315399169922,-0.3257742787461209,2.40480131464957,-93.7418716002424,-15.850252,9.199081,4.550162,36.85589,-16.150768,-10.493895,-9.365032,-9.368266,-16.749289,24.346922,-17.051884,6.036537,3.012791,1.740699,8.338578,9.670553,16.717579,-20.592243,43.876457,5.7376842,3.3218362,6.169326,-3.4301226,-19.38372,26.74556,54.873524,-10.111277,4.4715233,-0.22934227
110,0.7465763092041016,3.709585189819336,76.78307342529297,-0.3290787536435107,2.443641933759618,-93.41577981839333,-16.418322,9.259748,4.197265,37.595203,-15.97252,-11.156965,-9.440684,-9.593624,-17.021397,24.555147,-17.100538,6.129024,2.9569263,1.7614757,8.491397,9.636676,16.885399,-20.686293,43.50115,6.162325,3.3393476,6.2757726,-3.5092683,-19.619665,26.85884,54.753246,-10.147103,4.486225,-0.3100833
111,0.864096462726593,3.741182804107666,76.76121520996094,-0.3291713981576836,2.4811280558527598,-93.10153689967625,-16.957401,9.426644,3.982417,38.320343,-15.84474,-11.685569,-9.510207,-9.824763,-17.277857,24.753405,-17.138096,6.226998,2.9096372,1.7718824,8.637989,9.618043,17.066944,-20.777462,43.117832,6.5908327,3.3650835,6.3796873,-3.5855627,-19.85808,26.95863,54.638016,-10.1770935,4.5032063,-0.38086036
112,0.9864035844802856,3.768955945968628,76.74042510986328,-0.3119104682087117,2.514994964818691,-92.81755533677357,-17.467106,9.743278,3.993491,39.060017,-15.816289,-11.932867,-9.584217,-10.074435,-17.489996,24.955738,-17.181417,6.3351426,2.8854249,1.7566482,8.7787285,9.617695,17.263426,-20.86448,42.726368,6.9740057,3.4007716,6.47037,-3.6586607,-20.095333,27.02846,54.527508,-10.176482,4.5246515,-0.41820645
113,1.1217619180679321,3.800215482711792,76.72103881835938,-0.2704789081010346,2.5407994272103096,-92.56222550101462,-17.946539,10.260386,4.3215876,39.845627,-15.92854,-11.795011,-9.6596575,-10.351064,-17.65286,25.167076,-17.238602,6.4533405,2.8846676,1.7087091,8.919706,9.629638,17.478231,-20.958645,42.32631,7.307967,3.4536438,6.551721,-3.733304,-20.328602,27.06092,54.427567,-10.12243,4.5539074,-0.39895612
114,1.260817289352417,3.829904317855835,76.70343780517578,-0.21483931540899742,2.5606240800346565,-92.32770440655123,-18.391493,10.951689,4.8931932,40.650284,-16.14618,-11.365929,-9.731029,-10.643826,-17.781292,25.375084,-17.29877,6.57944,2.9020567,1.6370056,9.058539,9.656001,17.712479,-21.057196,41.9156,7.615448,3.520671,6.6268597,-3.8086221,-20.557503,27.063658,54.338898,-10.035618,4.588718,-0.34155735
115,1.4079240560531616,3.8445868492126465,76.68473052978516,-0.156194621955672,2.5828771471552012,-92.12424985536586,-18.796452,11.742951,5.5512075,41.412037,-16.402,-10.798203,-9.8085375,-10.937445,-17.876747,25.574995,-17.34893,6.714772,2.9421327,1.5520009,9.182637,9.710206,17.962795,-21.138094,41.494656,7.8862557,3.5871634,6.6845284,-3.8778722,-20.78195,27.0475,54.25375,-9.952849,4.6229663,-0.28549102
116,1.56724214553833,3.8470652103424072,76.6686019897461,-0.1043892031410745,2.6156513103031656,-91.96133992962613,-19.160696,12.555063,6.141117,42.070675,-16.623243,-10.246652,-9.899203,-11.2160225,-17.94093,25.753971,-17.376251,6.8608365,3.007839,1.4642622,9.2788725,9.804553,18.223215,-21.178354,41.06659,8.110846,3.6385586,6.714064,-3.9337456,-21.001934,27.022697,54.164505,-9.91366,4.6506014,-0.2702592
117,1.7411401271820068,3.84985089302063,76.65103912353516,-0.05933757018218709,2.6660086578166733,-91.851523894422,-19.491947,13.403142,6.6804504,42.630337,-16.812275,-9.6883335,-10.018256,-11.478307,-17.968634,25.917545,-17.377241,7.020183,3.1059432,1.371699,9.339529,9.943933,18.488167,-21.165646,40.631752,8.277896,3.6623178,6.7093863,-3.98156,-21.21952,27.004477,54.075153,-9.940139,4.671756,-0.32133216
118,1.918916940689087,3.8823094367980957,76.6311264038086,-0.01645780890505572,2.7279926801541072,-91.78621044198641,-19.787289,14.315508,7.2337327,43.116432,-17.002552,-9.064384,-10.155267,-11.730153,-17.961054,26.06359,-17.356232,7.191142,3.2298536,1.2724566,9.372623,10.119942,18.75644,-21.111492,40.1933,8.396969,3.6686494,6.6781664,-4.025443,-21.43518,26.98705,53.990093,-10.0067005,4.689247,-0.41280553
119,2.0987956523895264,3.873575210571289,76.61624145507812,0.01978905121176894,2.790756724834867,-91.74405405330558,-20.038761,15.229366,7.7177463,43.503822,-17.160803,-8.476632,-10.288514,-11.971465,-17.927898,26.19003,-17.322947,7.369533,3.36462,1.1757246,9.388351,10.3283615,19.029078,-21.02799,39.755093,8.492912,3.676776,6.6298013,-4.0558233,-21.645761,26.947027,53.903027,-10.081501,4.7010508,-0.5075171
120,2.2963521480560303,3.8417444229125977,76.59919738769531,0.045495775583801176,2.8435953665419866,-91.70391801130069,-20.24056,16.080872,8.0501375,43.767044,-17.249788,-8.026633,-10.39275,-12.201361,-17.879662,26.287397,-17.283594,7.551133,3.4956145,1.0890768,9.396306,10.564137,19.309322,-20.928741,39.32162,8.588925,3.7061663,6.573987,-4.0646296,-21.846727,26.86076,53.810955,-10.133355,4.704811,-0.5687419
121,2.4967925548553467,3.8032591342926025,76.57962799072266,0.05880209049860439,2.8831933176873163,-91.66259467951186,-20.386528,16.862371,8.210669,43.887276,-17.240643,-7.757758,-10.4651575,-12.415526,-17.804804,26.361307,-17.244139,7.7305927,3.626851,1.0144242,9.394333,10.825167,19.60108,-20.82432,38.900246,8.680802,3.7672012,6.5097847,-4.050124,-22.03471,26.716833,53.72497,-10.139592,4.695344,-0.57496995
122,2.71207857131958,3.773388385772705,76.55937957763672,0.062397024934100695,2.9155472243054863,-91.63065727640473,-20.484818,17.601904,8.244609,43.881733,-17.154655,-7.611519,-10.5175085,-12.616215,-17.702667,26.413218,-17.199467,7.911713,3.7652326,0.9452423,9.378644,11.113788,19.905703,-20.70779,38.485703,8.7573395,3.8481202,6.433263,-4.01701,-22.209267,26.526962,53.645405,-10.12287,4.6750956,-0.55010253
123,2.9303579330444336,3.7524640560150146,76.53749084472656,0.0597460095063569,2.9436456227843166,-91.60732986104837,-20.55374,18.290075,8.166504,43.780437,-17.031002,-7.5364704,-10.55056,-12.813676,-17.59882,26.436125,-17.143589,8.104355,3.899827,0.8770122,9.356224,11.4365425,20.221312,-20.562172,38.059803,8.835233,3.9347758,6.3489156,-3.9668918,-22.3702,26.303562,53.55276,-10.119434,4.653152,-0.525202
124,3.1698079109191895,3.7207465171813965,76.5157470703125,0.053429766131947706,2.9706504416148842,-91.59205179266742,-20.608963,18.917213,7.991517,43.609505,-16.907503,-7.481188,-10.56266,-13.017831,-17.519033,26.41952,-17.068077,8.318236,4.0192056,0.8059086,9.333857,11.798847,20.544006,-20.370522,37.606754,8.930677,4.01282,6.2613816,-3.9033504,-22.517256,26.06135,53.428547,-10.163085,4.63849,-0.5314636
125,3.423480987548828,3.6786935329437256,76.49534606933594,0.04420486127302381,2.996908365181815,-91.58931881169244,-20.652885,19.478788,7.706864,43.362545,-16.793293,-7.4509444,-10.551781,-13.229759,-17.476099,26.356792,-16.972372,8.558263,4.1207743,0.73154175,9.314672,12.208258,20.870691,-20.117334,37.117813,9.060562,4.080146,6.1649466,-3.8248482,-22.649101,25.784872,53.261906,-10.277251,4.634031,-0.5811698
126,3.6827597618103027,3.641508102416992,76.47015380859375,0.030529612113196578,3.0210657441021826,-91.59803786161751,-20.677671,19.980042,7.310408,43.029102,-16.667929,-7.466861,-10.518862,-13.445077,-17.454348,26.255093,-16.860245,8.818522,4.2091756,0.65645164,9.294122,12.660227,21.20034,-19.81368,36.604942,9.21224,4.1435266,6.059395,-3.7330742,-22.764582,25.475008,53.0675,-10.437776,4.6349397,-0.6568167
127,3.973050117492676,3.6065709590911865,76.44953918457031,0.013301063138639862,3.0430356742377005,-91.60851413707488,-20.687002,20.426603,6.832057,42.63425,-16.52791,-7.501064,-10.467609,-13.664995,-17.436691,26.122952,-16.729965,9.092229,4.283072,0.5791123,9.265847,13.145259,21.531721,-19.480398,36.08352,9.359953,4.2023435,5.958405,-3.6384044,-22.86746,25.171238,52.86953,-10.611964,4.638797,-0.74511904
128,4.274525165557861,3.5723586082458496,76.43190002441406,-0.007128385405365476,3.0628129477808046,-91.61120590915138,-20.682762,20.823696,6.302573,42.19991,-16.36823,-7.5256276,-10.400868,-13.890035,-17.406513,25.966639,-16.578402,9.372436,4.3398147,0.49980244,9.224306,13.650154,21.863485,-19.139154,35.571075,9.47638,4.255943,5.8757463,-3.5489318,-22.963459,24.914076,52.68816,-10.765726,4.64325,-0.8325854
129,4.577365398406982,3.52736234664917,76.41299438476562,-0.03304344468590179,3.0806716674786285,-91.59874371516425,-20.666573,21.171244,5.709079,41.719685,-16.194983,-7.528265,-10.31204,-14.118422,-17.371605,25.784136,-16.408497,9.6541815,4.370784,0.42152533,9.164023,14.183911,22.194975,-18.793613,35.0735,9.5388565,4.301174,5.82774,-3.4649951,-23.055866,24.71374,52.524258,-10.894501,4.6468267,-0.91481316
130,4.897797584533691,3.451228141784668,76.39505767822266,-0.06373209016816664,3.0964765540398727,-91.57782095000144,-20.635712,21.467102,5.0427537,41.185135,-16.008215,-7.525255,-10.200927,-14.350397,-17.337164,25.570677,-16.2193,9.942146,4.3790207,0.34475833,9.089876,14.745003,22.525568,-18.434196,34.58514,9.564982,4.339399,5.8030996,-3.3810904,-23.145132,24.550167,52.36469,-11.013192,4.651313,-0.9987904
131,5.24732780456543,3.398677349090576,76.37871551513672,-0.09446532723788549,3.1099421772891658,-91.55987201305227,-20.590277,21.713644,4.3390603,40.623344,-15.797999,-7.5318823,-10.0853195,-14.590511,-17.280224,25.34169,-16.007452,10.244056,4.3816943,0.26672912,9.011461,15.317836,22.851616,-18.057644,34.093346,9.597336,4.3767095,5.7733,-3.2899005,-23.23136,24.413107,52.202255,-11.119239,4.6588645,-1.0869204
132,5.607910633087158,3.3452224731445312,76.35956573486328,-0.12024735656340649,3.1206057318564815,-91.55632077993403,-20.528427,21.91346,3.6339355,40.058537,-15.552396,-7.563681,-9.977121,-14.841978,-17.179125,25.099495,-15.767196,10.567637,4.3962026,0.18517062,8.937943,15.889263,23.166882,-17.659906,33.585014,9.680965,4.4190755,5.709994,-3.1840932,-23.314003,24.292906,52.030067,-11.209044,4.6716437,-1.1817034
133,5.980449199676514,3.295732021331787,76.34566497802734,-0.13837323520084382,3.1243362235287133,-91.56408300446229,-20.44534,22.071272,2.9366088,39.489254,-15.270552,-7.619509,-9.877338,-15.106224,-17.011524,24.850004,-15.496705,10.92079,4.422271,0.09790445,8.874183,16.450539,23.46703,-17.224424,33.069363,9.832113,4.470971,5.587807,-3.0582812,-23.392216,24.18334,51.840927,-11.285131,4.6936564,-1.2834908
134,6.370362758636475,3.2534878253936768,76.3205795288086,-0.15181500123393893,3.122696744682588,-91.57912642815494,-20.341867,22.184486,2.2285671,38.90468,-14.957546,-7.693093,-9.779654,-15.381166,-16.793903,24.5887,-15.199579,11.297362,4.4530935,0.007356376,8.812829,17.022629,23.74975,-16.753994,32.541332,10.034901,4.5276866,5.427865,-2.9183533,-23.466776,24.091549,51.643215,-11.34747,4.7226,-1.39128
135,6.781435966491699,3.1948368549346924,76.2949447631836,-0.16482738409926534,3.123580391515498,-91.61118049345772,-20.226656,22.24494,1.5027977,38.319324,-14.613727,-7.792164,-9.689696,-15.665555,-16.561954,24.310926,-14.877746,11.684668,4.4895196,-0.07891855,8.748419,17.576689,24.017515,-16.295847,32.019043,10.251218,4.581402,5.2736187,-2.7765005,-23.538792,24.0301,51.450195,-11.391421,4.7515426,-1.5056164
136,7.2090373039245605,3.1396429538726807,76.2679443359375,-0.18159438060005217,3.1347465391876,-91.66991919592141,-20.105648,22.244806,0.75290865,37.74365,-14.237358,-7.9241357,-9.611542,-15.957693,-16.351748,24.009535,-14.531314,12.069746,4.5352736,-0.15504514,8.674808,18.09119,24.275545,-15.8961525,31.512453,10.447824,4.6249695,5.1687684,-2.645559,-23.61195,24.01055,51.2775,-11.411686,4.7732325,-1.6269518
137,7.656566143035889,3.1019582748413086,76.24234771728516,-0.20093391094898283,3.1584988488043444,-91.76426108264832,-19.97045,22.188923,-0.017620396,37.16844,-13.834985,-8.095242,-9.553021,-16.260834,-16.177294,23.690739,-14.166996,12.44397,4.6031475,-0.21836218,8.588232,18.590458,24.527544,-15.561327,30.990694,10.643026,4.657925,5.127685,-2.5298157,-23.690916,24.048485,51.131027,-11.395446,4.7871346,-1.7705401
138,8.124603271484375,3.0452706813812256,76.21336364746094,-0.2217191888904032,3.1905251978078373,-91.88696600561421,-19.817282,22.080153,-0.806958,36.589672,-13.403794,-8.299946,-9.508086,-16.573536,-16.017271,23.351612,-13.78018,12.815725,4.686287,-0.27243862,8.494932,19.05466,24.776155,-15.277386,30.476093,10.833809,4.683878,5.126614,-2.421775,-23.77742,24.133894,50.998356,-11.348606,4.7964163,-1.9304397
139,8.603824615478516,3.0007762908935547,76.17684936523438,-0.24651918380382756,3.228928347806237,-92.02340540901206,-19.6649,21.90765,-1.6262678,36.039227,-12.9374695,-8.52787,-9.468895,-16.891397,-15.854854,22.98979,-13.3634615,13.198595,4.787067,-0.32052743,8.390994,19.611948,25.003963,-14.994645,29.859024,11.0628195,4.703555,5.1453547,-2.2811897,-23.864197,24.210875,50.85372,-11.295737,4.7995243,-2.0733225
140,9.105108261108398,2.969414472579956,76.13510131835938,-0.2792252954712051,3.271759286754519,-92.15889814334948,-19.53198,21.661163,-2.487337,35.550133,-12.430569,-8.769025,-9.424385,-17.207777,-15.674018,22.596474,-12.906628,13.606077,4.8480954,-0.36162078,8.301461,19.91192,25.230572,-14.805507,29.472853,11.144711,4.714265,5.179342,-2.1311553,-23.942913,24.27678,50.686283,-11.261594,4.7960486,-2.1704028
141,9.616214752197266,2.9217686653137207,76.09113311767578,-0.3198396538277187,3.3180261776672255,-92.28402120673711,-19.447552,21.307966,-3.4762223,35.17337,-11.820184,-8.914787,-9.363664,-17.521072,-15.477059,22.166338,-12.409331,14.043165,4.9008403,-0.40317476,8.200546,20.240906,25.443716,-14.629454,29.059483,11.1847,4.715287,5.2172832,-1.9216403,-24.005219,24.291172,50.48418,-11.273102,4.7823405,-2.1997693
142,10.136786460876465,2.8721601963043213,76.04833984375,-0.36651603962806867,3.368677405389764,-92.40820896174021,-19.389997,20.86302,-4.5577803,34.88009,-11.131176,-9.009012,-9.294967,-17.835476,-15.269312,21.704477,-11.876051,14.502185,4.9425473,-0.44377556,8.090892,20.551252,25.64494,-14.480614,28.659664,11.180031,4.707303,5.268923,-1.68246,-24.050648,24.286383,50.270473,-11.312167,4.7600174,-2.184101
143,10.681166648864746,2.817422866821289,76.00141143798828,-0.41833818313697985,3.4252157364013454,-92.5458865281295,-19.298512,20.38709,-5.562895,34.57233,-10.486703,-9.267993,-9.239248,-18.153461,-15.037928,21.221655,-11.305519,14.978247,4.9850035,-0.48116824,7.9898987,20.796196,25.827631,-14.370133,28.302042,11.16519,4.696408,5.3366733,-1.4341418,-24.079004,24.256874,50.0552,-11.338307,4.734278,-2.1533937
144,11.25532054901123,2.799992561340332,75.95032501220703,-0.5519501655126671,3.50804577872266,-92.74731908258984,-19.156073,20.046564,-6.353689,34.178967,-10.0280485,-9.930891,-9.210806,-18.313221,-14.7798195,20.624367,-10.641151,15.000033,5.075097,-0.44225997,7.889471,20.938025,25.97955,-14.308012,28.008684,11.181804,4.6888123,5.4237795,-1.1967963,-24.091824,24.196802,49.850094,-11.309622,4.7103405,-2.1375198
145,11.844910621643066,2.813363790512085,75.88922119140625,-0.70950524303338,3.601039805214239,-92.99519314521675,-18.863356,19.76642,-6.8887925,33.54222,-9.7002325,-11.290256,-9.217127,-18.449617,-14.483226,19.998459,-9.941713,15.000033,5.199374,-0.37301338,7.809747,20.988556,26.091187,-14.28968,27.76862,11.280624,4.684805,5.535687,-0.968842,-24.091475,24.098015,49.6503,-11.197766,4.690229,-2.1289206
146,12.450202941894531,2.8186581134796143,75.8132553100586,-0.8787267731946018,3.7001459252898554,-93.27303905707308,-18.468828,19.502148,-7.2431846,32.750534,-9.468879,-13.137155,-9.247826,-18.579914,-14.1574745,19.351492,-9.209847,15.000033,5.3343873,-0.28356665,7.7474456,20.943748,26.157822,-14.313598,27.596333,11.426293,4.6813207,5.671,-0.7490305,-24.08034,23.973906,49.45671,-11.029828,4.671471,-2.1172695
147,13.082708358764648,2.801502227783203,75.73233795166016,-1.0541864270528398,3.8050733718803014,-93.5610298377988,-18.100946,19.261528,-7.394358,32.042633,-9.467329,-14.902441,-9.296838,-18.71737,-13.815793,18.681986,-8.4171915,15.000033,5.453896,-0.18287607,7.704644,20.810364,26.18126,-14.372816,27.48444,11.553686,4.6795835,5.8183537,-0.54362386,-24.06115,23.841873,49.27798,-10.848486,4.652571,-2.12656
148,13.754423141479492,2.8148033618927,75.65647888183594,-1.0515341851268902,3.930231874620625,-93.79581223690572,-17.840855,18.776733,-7.1355276,31.566349,-9.759832,-15.000033,-9.467418,-19.121946,-13.40714,18.166615,-7.614908,15.000033,5.520634,-0.24750993,7.6847024,20.5503,26.174597,-14.499992,27.459837,11.589872,4.6816435,5.972812,-0.33917007,-24.020247,23.681032,49.12243,-10.710772,4.6306405,-2.181756
149,14.430051803588867,2.837139844894409,75.57418823242188,-1.184257337899684,4.048123952430023,-94.04327886638993,-17.81129,18.52814,-6.766912,31.581438,-10.592798,-15.000033,-9.556015,-19.359758,-13.053079,17.490948,-6.6702437,15.000033,5.57627,-0.18525897,7.6790056,20.222681,26.119276,-14.665316,27.484644,11.529366,4.682506,6.136482,-0.14386763,-23.957306,23.527737,49.004097,-10.630293,4.605145,-2.3291366
150,15.107792854309082,2.87286376953125,75.49974060058594,-1.4174924565172342,4.161951275255698,-94.30695594335326,-17.937668,18.456488,-6.2621655,31.940186,-11.851607,-15.000033,-9.586878,-19.476732,-12.733652,16.68687,-5.6073546,15.000033,5.6222043,-0.026836095,7.689763,19.800404,26.01585,-14.874527,27.582811,11.399057,4.6826434,6.3126616,0.03558566,-23.873848,23.377062,48.920345,-10.580802,4.5771093,-2.5430157
151,15.810317993164062,2.9076192378997803,75.41355895996094,-1.6891600044114634,4.280566193365091,-94.59015437117257,-18.164856,18.462673,-5.652404,32.489906,-13.274046,-15.000033,-9.626231,-19.554892,-12.41261,15.833472,-4.440448,15.000033,5.6635423,0.1696028,7.7155905,19.34234,25.862408,-15.097253,27.687546,11.254161,4.6919427,6.4844728,0.1809882,-23.774588,23.212948,48.87177,-10.536389,4.548568,-2.7397525
152,16.55177116394043,2.94140625,75.32344055175781,-1.9104042351576909,4.418177321914624,-94.88716857770359,-18.433239,18.3976,-4.958468,33.0597,-14.585498,-14.875685,-9.763665,-19.713936,-12.045499,15.044536,-3.1988597,15.000033,5.6583304,0.3217784,7.7733107,18.625566,25.684277,-15.381216,27.988863,11.013398,4.7184577,6.6415462,0.2395014,-23.670462,23.052048,48.860443,-10.470292,4.522155,-2.8376184
153,17.324308395385742,2.993598222732544,75.23834228515625,-2.044196775549623,4.58568624125638,-95.18838985751583,-18.700403,18.198536,-4.093702,33.56433,-15.76933,-14.332481,-10.015888,-20.007515,-11.6283,14.323064,-1.8707671,15.000033,5.649817,0.39440507,7.84432,17.934637,25.455505,-15.643608,28.215,10.817312,4.7667785,6.770009,0.26587653,-23.562498,22.837616,48.872837,-10.355964,4.4921246,-2.7907376
154,18.09827995300293,3.0851919651031494,75.1633071899414,-2.16535162964228,4.771370042763047,-95.50570939752443,-19.01201,17.992079,-3.1038413,34.117023,-16.961788,-13.6778555,-10.32808,-20.335545,-11.188517,13.605337,-0.44063404,15.000033,5.6265135,0.461083,7.9367733,17.146568,25.176071,-15.922652,28.491554,10.596284,4.830606,6.8823404,0.24847688,-23.452278,22.599522,48.911633,-10.2123995,4.4602313,-2.651132
155,18.89911651611328,3.1733405590057373,75.07997131347656,-2.270867101463554,4.967670331655082,-95.840225065775,-19.424988,17.74366,-2.1449778,34.802498,-18.086624,-12.978756,-10.725349,-20.695795,-10.704927,12.956542,1.0382739,15.000033,5.571551,0.516259,8.049583,16.265305,24.866047,-16.227577,28.821815,10.3391285,4.90805,6.9851646,0.16733551,-23.346087,22.364557,48.96795,-10.084142,4.4376855,-2.4748528
156,19.71087074279785,3.281874895095825,74.99910736083984,-2.357793830205832,5.167505335369712,-96.19350072740033,-19.991789,17.421865,-1.3671451,35.69936,-19.06546,-12.3012705,-11.237491,-21.087952,-10.153266,12.448034,2.511977,15.000033,5.482537,0.55133647,8.177527,15.3835745,24.547058,-16.544476,29.122726,10.0743265,4.997825,7.081147,0.021563204,-23.247923,22.145842,49.020615,-10.013461,4.4344625,-2.3160493
157,20.53071403503418,3.3997244834899902,74.9202880859375,-2.4283255545947386,5.381376426096333,-96.56995678934138,-20.79108,17.008139,-0.85827774,36.91909,-19.857412,-11.653763,-11.858864,-21.490553,-9.479673,12.002689,4.072774,15.000033,5.3502226,0.5526566,8.322752,14.476889,24.226206,-16.876154,29.408815,9.78539,5.1065063,7.1738462,-0.19228168,-23.1542,21.930258,49.06448,-10.052558,4.452057,-2.1754324
158,21.371049880981445,3.5280675888061523,74.8326416015625,-2.484045976217566,5.609427640244722,-96.96775448016099,-21.76592,16.529715,-0.5143497,38.388535,-20.514265,-10.997163,-12.577642,-21.907051,-8.711039,11.609027,5.715634,15.000033,5.186968,0.5253133,8.485759,13.5427,23.901463,-17.225077,29.679947,9.472813,5.233055,7.258908,-0.46225196,-23.06162,21.70797,49.103195,-10.164284,4.484789,-2.027812
159,22.212614059448242,3.6666295528411865,74.74042510986328,-2.520737931946003,5.830878164344532,-97.38080836630057,-22.77031,16.023071,-0.19490252,39.91489,-21.098158,-10.327367,-13.431216,-22.365837,-7.9332004,11.454561,7.2408247,15.000033,5.007471,0.48695847,8.663444,12.580389,23.595741,-17.614511,29.947073,9.123842,5.364283,7.3301015,-0.7847094,-22.981537,21.511831,49.13591,-10.259653,4.5322437,-1.889519
160,23.0749568939209,3.813164234161377,74.64279174804688,-2.529351933290006,6.026117523571801,-97.80378304237384,-23.662142,15.5199,0.24097128,41.30088,-21.666634,-9.645713,-14.457447,-22.891823,-7.222939,11.716697,8.452804,15.000033,4.834666,0.44838193,8.853821,11.614243,23.341318,-18.06417,30.19111,8.730389,5.487272,7.378308,-1.1440132,-22.931156,21.36861,49.14605,-10.244698,4.5943108,-1.7742883
161,23.943727493286133,3.9557292461395264,74.54351043701172,-2.492805732410761,6.206997076863884,-98.22435689610273,-24.444185,14.9981575,0.8202134,42.513527,-22.218649,-8.952055,-15.697731,-23.522528,-6.5647593,12.374852,9.427875,15.000033,4.670454,0.39439464,9.057041,10.627002,23.159851,-18.609896,30.39767,8.239055,5.5831637,7.3824043,-1.521247,-22.922033,21.288425,49.12075,-10.008606,4.669016,-1.7005177
162,24.805959701538086,4.085814476013184,74.44293212890625,-2.4072957809413995,6.378652591060502,-98.64797395872017,-25.174477,14.439226,1.4828671,43.64334,-22.725618,-8.244034,-17.128986,-24.234901,-5.8986726,13.346558,10.237233,15.000033,4.5127316,0.3069822,9.279272,9.623625,23.050055,-19.241404,30.557814,7.658642,5.665153,7.349388,-1.9090265,-22.951464,21.244537,49.04385,-9.625699,4.757116,-1.651569
163,25.66826629638672,4.216649532318115,74.33088684082031,-2.282159804478361,6.509570153342295,-99.09364226192164,-25.800678,13.87393,2.2326853,44.684597,-23.203821,-7.525315,-18.637552,-24.970127,-5.2560453,14.620241,10.730492,15.000033,4.3525414,0.18258445,9.530495,8.695388,23.015854,-19.871601,30.634031,7.083763,5.76763,7.3067713,-2.3392174,-23.002151,21.237177,48.917744,-9.2795315,4.862726,-1.5915937
164,26.514144897460938,4.340174674987793,74.20619201660156,-2.1305862070566506,6.565487498918222,-99.57817134565019,-26.268887,13.334571,3.0665598,45.62931,-23.666986,-6.8021784,-20.101814,-25.670881,-4.6869893,16.189192,10.752142,15.000033,4.253772,0.04918733,9.815308,7.8099246,23.030777,-20.529404,30.694616,6.59338,5.924752,7.305475,-2.7467673,-23.08804,21.16874,48.68116,-9.169064,4.9906335,-1.4757442
165,27.353317260742188,4.452072620391846,74.07892608642578,-1.9297883763198544,6.5228120677788555,-100.10370014984385,-26.543486,12.802226,4.014002,46.47221,-24.122889,-6.0735083,-21.552992,-26.358156,-4.113338,18.126913,10.171453,15.000033,4.1479135,-0.11898193,10.160227,7.044801,23.109215,-21.122692,30.665983,6.2348347,6.1650486,7.337275,-3.2023625,-23.185535,21.079353,48.369312,-9.421353,5.1561546,-1.2469856
166,28.183120727539062,4.548833847045898,73.96485137939453,-1.676805542500365,6.395007442265961,-100.65155213329997,-26.652733,12.254094,5.0588627,47.211746,-24.556944,-5.3398685,-22.987799,-27.05565,-3.5522199,20.348597,9.127028,15.000033,4.0481563,-0.32352272,10.560953,6.3526273,23.259962,-21.712042,30.567055,5.950216,6.4644775,7.3898444,-3.6778882,-23.300568,20.962994,47.976967,-9.912729,5.350007,-0.9396531
167,28.97159194946289,4.652187824249268,73.86833953857422,-1.6683872561573452,6.256932514361248,-101.32377866950189,-26.782598,12.051974,6.015808,47.993763,-25.015413,-4.688432,-24.223938,-27.427422,-3.6781275,22.5257,7.916819,13.679474,4.0522146,-0.3136804,10.91985,5.7521725,23.474735,-22.273785,30.423018,5.707574,6.7732835,7.4613314,-4.2015624,-23.431025,20.896389,47.547836,-10.434845,5.5411057,-0.66965127
168,29.731061935424805,4.750070571899414,73.7845458984375,-1.7991814774750676,6.108848020319026,-102.04851926575363,-26.899782,12.032939,6.8886395,48.741035,-25.446815,-4.0749407,-25.172667,-27.645737,-4.356664,24.653429,6.6411505,11.971909,4.1066194,-0.19227932,11.240068,5.2563057,23.746918,-22.786522,30.260475,5.4775043,7.0417976,7.5491915,-4.7869015,-23.57808,20.946775,47.10937,-10.778043,5.7031946,-0.5530258
169,30.470577239990234,4.837547302246094,73.71527862548828,-1.9335317521678752,5.909347022641391,-102.77035361749672,-26.902428,12.023662,7.7439094,49.363213,-25.809566,-3.4467597,-25.799791,-27.867056,-5.3265715,26.808496,5.194588,10.791024,4.147939,-0.07934431,11.565523,4.841643,24.085966,-23.26927,30.103016,5.2375417,7.2515173,7.664563,-5.470788,-23.746511,21.176966,46.68927,-10.858341,5.824321,-0.6529742
170,31.19706153869629,4.927157878875732,73.67042541503906,-2.078648677071972,5.659120199596075,-103.505391605222,-26.793661,12.042917,8.600391,49.876804,-26.119957,-2.8124745,-26.201029,-28.089958,-6.5405087,29.102867,3.4865978,9.919186,4.1850967,0.03818429,11.899648,4.5129514,24.495632,-23.714447,29.924143,5.0095015,7.4300785,7.8034387,-6.237509,-23.933935,21.541271,46.261772,-10.795019,5.9212112,-0.89778477
171,31.915977478027344,5.006799697875977,73.65674591064453,-2.223919095523579,5.392862508891549,-104.22950930960133,-26.629614,12.058348,9.4386635,50.297966,-26.386608,-2.1837122,-26.48452,-28.393982,-7.992933,31.63724,1.6273144,9.072647,4.219052,0.14925495,12.219711,4.3204317,24.9563,-24.057888,29.683796,4.835321,7.5971184,7.940652,-7.033742,-24.128124,21.950827,45.78815,-10.675164,6.0127535,-1.2033042
172,32.61904525756836,5.085229873657227,73.65642547607422,-2.3576817733720827,5.142930074102223,-104.91611416048174,-26.464949,12.034928,10.238108,50.643597,-26.61848,-1.5719182,-26.730717,-28.862865,-9.6816,34.480656,-0.266391,7.9640837,4.24604,0.24206848,12.501479,4.307024,25.436052,-24.234732,29.35912,4.76031,7.7723756,8.052253,-7.8099084,-24.313896,22.319489,45.240437,-10.590426,6.118974,-1.4870635
173,33.326507568359375,5.151566505432129,73.6715087890625,-2.480676685833705,4.906069856842401,-105.55699322748092,-26.295927,11.963037,10.987603,50.907093,-26.818214,-0.98325574,-26.91134,-29.630774,-11.810425,37.737167,-2.269262,6.4047985,4.258893,0.3214103,12.739585,4.470547,25.916636,-24.22156,28.960575,4.9158216,7.977782,8.110379,-8.567017,-24.485409,22.63953,44.621685,-10.566945,6.2496715,-1.7684052
174,34.01576232910156,5.202742576599121,73.67265319824219,-2.5970964150402716,4.6669172073388205,-106.16466792978291,-26.098167,11.858971,11.699427,51.084972,-26.983072,-0.41100746,-26.926208,-30.647734,-14.3064995,41.320007,-4.443014,4.566271,4.258469,0.3930942,12.942489,4.780415,26.396894,-24.055162,28.523422,5.244933,8.197044,8.136031,-9.33506,-24.644253,22.95631,43.960167,-10.557405,6.393042,-2.0802941
175,34.70471954345703,5.252971172332764,73.66596221923828,-2.6990464968710906,4.439900974458792,-106.74371784824248,-25.893564,11.724162,12.389023,51.19171,-27.109035,0.15309775,-26.763811,-31.69833,-16.76464,44.988506,-6.6165986,2.707847,4.253795,0.4435107,13.105305,5.236395,26.868435,-23.761791,28.06646,5.511661,8.392327,8.180747,-10.112101,-24.790054,23.265274,43.274406,-10.543075,6.537749,-2.36134
176,35.3806037902832,5.304912567138672,73.6666259765625,-2.7784117616320874,4.241106933140088,-107.29916610919248,-25.705479,11.5591345,13.074075,51.242554,-27.193125,0.7193294,-26.481665,-32.536613,-18.78878,48.515244,-8.57442,1.1003313,4.2569447,0.46036834,13.221209,5.832194,27.318424,-23.37104,27.613386,5.47986,8.52568,8.298304,-10.889852,-24.92117,23.556084,42.579254,-10.50868,6.6722007,-2.5498831
177,36.03810119628906,5.338863849639893,73.6774673461914,-2.8302409180376094,4.080621825506226,-107.81923619965555,-25.554012,11.353938,13.750257,51.25087,-27.235935,1.292071,-26.152792,-33.12567,-20.324492,51.95668,-10.251032,-0.24824727,4.2588205,0.43783215,13.274437,6.560277,27.742529,-22.89294,27.183317,5.0183806,8.569571,8.523633,-11.672843,-25.039309,23.830524,41.874653,-10.432166,6.7926483,-2.5910828
178,36.68830490112305,5.381128787994385,73.68912506103516,-2.8601528882895253,3.949138578365317,-108.30603928967979,-25.421347,11.110283,14.413319,51.202435,-27.237843,1.865521,-25.76761,-33.555122,-21.58283,55.400074,-11.72939,-1.4543313,4.2595325,0.3848109,13.270561,7.416562,28.137714,-22.318169,26.77354,4.2732606,8.5465975,8.822152,-12.456783,-25.145775,24.088217,41.15221,-10.331356,6.9058986,-2.530509
179,37.334190368652344,5.429634094238281,73.71151733398438,-2.8751672570017037,3.8344206425972702,-108.78644898385434,-25.279516,10.848219,15.079939,51.081154,-27.19858,2.4328122,-25.318651,-33.754658,-22.571087,58.68145,-12.98997,-2.4210877,4.2892733,0.30900624,13.231957,8.410918,28.486574,-21.64149,26.367369,3.4380834,8.495014,9.144772,-13.235568,-25.239824,24.324635,40.43121,-10.237724,7.015341,-2.4581084
180,37.9659309387207,5.469722270965576,73.74302673339844,-2.8826208292366173,3.724215340824128,-109.2876955493598,-25.10056,10.587446,15.766538,50.870396,-27.117332,2.9866269,-24.80177,-33.65449,-23.295658,61.63628,-14.013508,-3.047809,4.3783016,0.22084725,13.1783,9.534723,28.762901,-20.865213,25.968155,2.7031043,8.455872,9.444598,-14.000081,-25.319542,24.53215,39.731617,-10.188335,7.1245255,-2.4641418
181,38.58763122558594,5.502997875213623,73.78784942626953,-2.875362657450575,3.623537056467626,-109.80345472478044,-24.891157,10.317918,16.475208,50.570557,-26.993767,3.5301816,-24.244226,-33.229355,-23.742676,64.28809,-14.755589,-3.267469,4.529444,0.11355294,13.102763,10.765514,28.94349,-19.98104,25.625168,2.084213,8.432912,9.688142,-14.752588,-25.38352,24.700857,39.05669,-10.201461,7.2319107,-2.5888543
182,39.201271057128906,5.540139675140381,73.84846496582031,-2.853797268849948,3.5372604624805772,-110.32459854579568,-24.663103,10.034033,17.198505,50.189415,-26.828106,4.0645866,-23.672081,-32.492577,-23.932398,66.70673,-15.228807,-3.1253538,4.73001,-0.008131334,12.991339,12.091399,29.018147,-19.004139,25.350674,1.4971261,8.406884,9.909006,-15.498207,-25.433134,24.838364,38.407623,-10.255757,7.33687,-2.7797446
183,39.802452087402344,5.574060916900635,73.92622375488281,-2.836565264396655,3.4522520385479925,-110.87381876223205,-24.395832,9.762407,17.93878,49.721405,-26.620104,4.578793,-23.077362,-31.445915,-23.917084,68.79383,-15.511552,-2.6942174,4.98748,-0.117723465,12.852703,13.509126,28.983347,-17.977472,25.101517,0.97728455,8.384983,10.163056,-16.242193,-25.474663,24.970835,37.81042,-10.322655,7.4435134,-2.987999
184,40.410160064697266,5.600183010101318,74.0137710571289,-2.840739716866852,3.3545551373773588,-111.47309617149222,-24.071032,9.528181,18.697643,49.165356,-26.370823,5.061963,-22.447258,-30.104385,-23.742792,70.45086,-15.684137,-2.0568867,5.311364,-0.18926649,12.69731,15.02946,28.838604,-16.940105,24.818756,0.56551236,8.374579,10.505949,-16.986536,-25.516634,25.122879,37.2858,-10.370311,7.555489,-3.1642706
185,41.00800704956055,5.620499134063721,74.12699890136719,-2.8711877054616064,3.2330087411433612,-112.11683695347062,-23.67061,9.333294,19.466345,48.51328,-26.082335,5.5047517,-21.759447,-28.410011,-23.371016,71.64533,-15.741305,-1.1767136,5.703262,-0.21781605,12.535688,16.669062,28.57627,-15.874423,24.503176,0.32803673,8.39562,10.955253,-17.726326,-25.563938,25.29899,36.81424,-10.401703,7.6823325,-3.2929122
186,41.58835983276367,5.633238792419434,74.26649475097656,-2.9174094593923647,3.096714301065461,-112.79653812454103,-23.210058,9.162687,20.247458,47.77055,-25.753157,5.914588,-21.025078,-26.377771,-22.800226,72.43127,-15.6672735,-0.029240413,6.160043,-0.21309511,12.358899,18.408602,28.189577,-14.7798815,24.182503,0.22684313,8.439948,11.480189,-18.460236,-25.618628,25.488361,36.391026,-10.427465,7.819472,-3.4005933
187,42.153541564941406,5.655259609222412,74.42853546142578,-2.971483774623913,2.9614114395527213,-113.52897824993406,-22.713108,9.013574,21.063545,46.941376,-25.372437,6.3065267,-20.2706,-24.149523,-22.122746,72.82778,-15.51144,1.2687888,6.681309,-0.17221005,12.151986,20.187233,27.689028,-13.728542,23.853737,0.13433532,8.468387,12.064496,-19.192509,-25.684713,25.69137,36.051117,-10.430994,7.949281,-3.5009573
188,42.73808670043945,5.687605857849121,74.5916519165039,-3.025536123109467,2.8428635969483964,-114.3312940264723,-22.201357,8.880406,21.938162,46.025997,-24.928,6.6957583,-19.5216,-21.87435,-21.422037,72.85248,-15.310408,2.5985126,7.2680874,-0.09637117,11.902699,21.949759,27.098864,-12.791512,23.50511,-0.08123285,8.441559,12.692129,-19.930536,-25.769304,25.910248,35.828754,-10.39113,8.053822,-3.6066992
189,43.32730484008789,5.726748466491699,74.77432250976562,-3.0768976767541893,2.744116558218234,-115.22931540567572,-21.666609,8.7668295,22.899166,45.011654,-24.417223,7.0889354,-18.799274,-19.518309,-20.62089,72.48491,-15.027447,4.0151157,7.952406,0.009032324,11.607379,23.723217,26.43199,-11.988225,23.106949,-0.5047149,8.345101,13.421285,-20.666092,-25.87659,26.14454,35.711037,-10.327772,8.13119,-3.7242637
190,43.92850875854492,5.766807556152344,74.96025848388672,-3.1257242343046028,2.6561549042760797,-116.20581304604706,-21.099627,8.664172,23.930693,43.898857,-23.844677,7.47717,-18.063099,-17.053064,-19.69258,71.725655,-14.668161,5.538383,8.728373,0.13818096,11.27671,25.528254,25.69182,-11.290124,22.66036,-1.0527385,8.197419,14.237507,-21.397552,-26.009525,26.393314,35.68044,-10.234756,8.189392,-3.8444815
191,44.5154914855957,5.815886497497559,75.1638412475586,-3.169697247289912,2.5771819927527955,-117.21347672403863,-20.525198,8.55343,24.990433,42.719387,-23.216131,7.8505893,-17.255459,-14.642707,-18.790607,70.62216,-14.3110075,6.9859076,9.541054,0.29064807,10.923452,27.30783,24.894005,-10.691812,22.190844,-1.6046767,8.008712,15.0151,-22.103094,-26.1664,26.629772,35.72784,-10.083972,8.225896,-3.9551861
192,45.104347229003906,5.856773376464844,75.37714385986328,-3.2088099661680003,2.506113557774354,-118.20499756649457,-19.966324,8.418184,26.03445,41.498123,-22.533358,8.19937,-16.331553,-12.445203,-18.066206,69.214676,-14.012555,8.177374,10.336738,0.4636731,10.560135,29.009165,24.064043,-10.183859,21.720444,-2.044749,7.794998,15.629628,-22.785416,-26.3488,26.841776,35.8636,-9.824505,8.237346,-4.044651
193,45.69047927856445,5.920038223266602,75.58857727050781,-3.249458908650487,2.44151258630817,-119.19919993570477,-19.396658,8.256449,27.082256,40.188606,-21.81028,8.529174,-15.293967,-10.4377985,-17.475164,67.476616,-13.735828,9.104309,11.133932,0.6638366,10.180873,30.660643,23.219917,-9.792946,21.21481,-2.3893688,7.5636907,16.041956,-23.42613,-26.555468,27.026644,36.063644,-9.435126,8.216865,-4.1106076
194,46.27653121948242,5.978465557098389,75.80117797851562,-3.289732829852486,2.3847487538415724,-120.21154570619106,-18.815683,8.072154,28.147495,38.791874,-21.039223,8.841429,-14.159027,-8.563403,-16.946348,65.39048,-13.443805,9.846591,11.9577465,0.8819047,9.782424,32.28623,22.368042,-9.516066,20.665245,-2.6910114,7.3088517,16.319342,-24.036316,-26.788177,27.19128,36.334145,-8.933822,8.1674,-4.158589
195,46.87693405151367,6.031979560852051,76.009765625,-3.3190905796314345,2.339517737182876,-121.190703320553,-18.28768,7.864153,29.177221,37.408794,-20.192505,9.121909,-12.922353,-6.9166017,-16.597042,63.012,-13.185067,10.358001,12.764598,1.0970027,9.385298,33.8146,21.515507,-9.29705,20.13575,-2.8928342,7.0315375,16.497301,-24.609743,-27.046276,27.29863,36.684486,-8.378435,8.101681,-4.1865063
196,47.4805908203125,6.120201110839844,76.20919036865234,-3.328577421529299,2.3099467413962897,-122.08602875188211,-17.8769,7.6357045,30.11844,36.14274,-19.242676,9.35874,-11.587735,-5.582489,-16.551834,60.39595,-13.0107565,10.595162,13.51483,1.2908636,9.011223,35.182266,20.6677,-9.076974,19.682621,-2.9346237,6.7310877,16.612608,-25.114002,-27.323112,27.288605,37.105484,-7.846748,8.0331335,-4.1923966
197,48.0698127746582,6.2159833908081055,76.41313171386719,-3.335303930107784,2.2932793957830455,-122.90261331044333,-17.579851,7.4122934,30.96616,34.997005,-18.174482,9.567472,-10.09963,-4.5365143,-16.860687,57.44484,-12.898292,10.58431,14.22071,1.4709736,8.650962,36.405724,19.828085,-8.832064,19.303032,-2.7914689,6.385726,16.600245,-25.556694,-27.617157,27.146212,37.61905,-7.2831,7.9646173,-4.1428757
198,48.669403076171875,6.310222148895264,76.61150360107422,-3.342234229049655,2.2889524634295655,-123.6629468930357,-17.371572,7.191201,31.748032,33.93371,-17.008972,9.751801,-8.477483,-3.7048442,-17.46328,54.153744,-12.828547,10.362161,14.900011,1.6451327,8.297663,37.516582,18.99832,-8.590719,18.964993,-2.4995446,6.003456,16.468224,-25.926891,-27.925999,26.881283,38.207077,-6.6910825,7.890601,-4.049923
199,49.264793395996094,6.42073917388916,76.7957763671875,-3.319281961837003,2.305379446850421,-124.3402839269011,-17.277328,6.9303627,32.45052,32.97344,-15.75948,9.889602,-6.838629,-3.0995219,-18.331625,50.713745,-12.861322,9.895737,15.508753,1.7879448,7.9769773,38.467525,18.18642,-8.357866,18.689972,-2.0979857,5.6292043,16.36428,-26.266155,-28.256674,26.551023,38.878292,-6.1541786,7.8078747,-3.9825191
200,49.86225509643555,6.5731892585754395,76.9520492553711,-3.2375106953873574,2.3514580433045578,-124.90751478275797,-17.324266,6.598857,33.058643,32.14621,-14.444104,9.955566,-5.3089767,-2.750083,-19.439926,47.339653,-13.065692,9.137842,16.004112,1.8768345,7.716539,39.20676,17.40216,-8.137426,18.499895,-1.625245,5.3095136,16.434553,-26.602453,-28.618778,26.203438,39.627434,-5.7622113,7.7121162,-4.00884
201,50.49266815185547,6.723690032958984,77.07327270507812,-3.0669561197637094,2.4407290805422885,-125.34611646526584,-17.498936,6.165755,33.62277,31.406406,-13.052575,9.963244,-3.8426447,-2.7726774,-21.04508,43.95205,-13.531273,7.839734,16.377306,1.879256,7.511561,39.73519,16.647724,-7.9249163,18.406462,-1.002903,5.0585194,16.75116,-26.909933,-29.015759,25.810162,40.438892,-5.586868,7.59946,-4.161457
202,51.14706802368164,6.880900859832764,77.17398834228516,-2.8404720161540475,2.5655289983190372,-125.67389285639896,-17.795473,5.6758275,34.124435,30.761679,-11.580463,9.919605,-2.3992686,-3.0826821,-23.095526,40.53117,-14.2380705,6.1128035,16.654049,1.8259767,7.350994,40.075462,15.923553,-7.7126465,18.392147,-0.24017607,4.85573,17.226215,-27.178045,-29.450224,25.355436,41.31274,-5.558877,7.4728465,-4.398987
203,51.80841827392578,7.077354431152344,77.25296783447266,-2.6195985863757025,2.7030041488119125,-125.91727463281417,-18.254932,5.213266,34.44247,30.324266,-10.056038,9.784839,-1.1178482,-3.4467585,-25.092684,37.354095,-15.068454,4.4396133,16.846277,1.7888054,7.2532053,40.21111,15.236025,-7.5010056,18.431808,0.4961065,4.6947536,17.764256,-27.425709,-29.927094,24.880646,42.23977,-5.579317,7.3383145,-4.6775208
204,52.47235107421875,7.305766582489014,77.2991943359375,-2.453598100259496,2.830082186216218,-126.10351430869369,-18.914604,4.846842,34.46103,30.193666,-8.503527,9.51312,-0.1422583,-3.6635501,-26.529228,34.633297,-15.860307,3.3047307,16.96608,1.8249148,7.239089,40.133057,14.594123,-7.2885227,18.492756,1.0391469,4.564423,18.268524,-27.704979,-30.456778,24.453775,43.236595,-5.5212407,7.200572,-4.9531536
205,53.155887603759766,7.575807094573975,77.3412857055664,-2.3286326980899275,2.952811915854209,-126.21591169897918,-19.802935,4.5754695,34.21711,30.406506,-6.9117775,9.171603,0.46660024,-3.709926,-27.198532,32.33631,-16.539534,2.9133685,17.00291,1.9210095,7.321213,39.810192,14.003916,-7.061372,18.597721,1.3580332,4.4627066,18.731094,-28.017725,-31.045855,24.05868,44.287422,-5.356,7.0441313,-5.240238
206,53.850852966308594,7.855780601501465,77.3556137084961,-2.2142137140160862,3.07930152690314,-126.24854948639475,-20.887802,4.344156,33.75158,30.876715,-5.2657146,8.724236,0.79262805,-3.7164888,-27.400005,30.3299,-17.159866,2.989566,16.961123,2.0435283,7.490013,39.25853,13.466178,-6.8223243,18.747904,1.5352577,4.392592,19.195683,-28.32466,-31.694498,23.658583,45.375084,-5.14945,6.8719983,-5.5515203
207,54.553592681884766,8.142415046691895,77.3340835571289,-2.1272122903954194,3.1898551510864785,-126.24504379032717,-22.113289,4.1177354,32.94866,31.51207,-3.5890162,7.959812,0.9116077,-3.7260094,-27.382221,28.642517,-17.72878,3.2904031,16.872787,2.2121403,7.736559,38.535774,12.980662,-6.595052,18.883633,1.572554,4.3460717,19.642418,-28.628178,-32.402916,23.298643,46.52267,-4.913119,6.715848,-5.8407106
208,55.29493713378906,8.434958457946777,77.29022216796875,-2.088814699766916,3.2653591222781246,-126.24803304158462,-23.426775,3.8535085,31.680151,32.23737,-1.9280757,6.667559,0.892798,-3.7790205,-27.38823,27.332047,-18.2793,3.5673614,16.765665,2.452878,8.048846,37.700764,12.542204,-6.4037094,18.947304,1.4735876,4.315164,20.051739,-28.909092,-33.16553,23.00841,47.735973,-4.6806173,6.608438,-6.062327
209,56.05662536621094,8.755270004272461,77.2169189453125,-2.1090655624098393,3.2937412144993634,-126.27105275174198,-24.867758,3.4830852,29.807924,33.056473,-0.27591446,4.674654,0.68843913,-3.911261,-27.395405,26.539362,-18.835527,3.8072133,16.64574,2.7921145,8.447699,36.74194,12.137913,-6.239724,18.931004,1.1447039,4.3048925,20.412252,-29.183784,-33.98479,22.795727,49.02627,-4.453862,6.5549746,-6.2403626
210,56.817447662353516,9.078595161437988,77.11701202392578,-2.1698197925939358,3.2881860620278913,-126.28661421827236,-26.43626,2.969103,27.413443,34.009342,1.2944504,2.0647383,0.2676711,-4.1171627,-27.302416,26.234358,-19.392721,4.112093,16.487371,3.205726,8.936234,35.637905,11.765528,-6.089442,18.862926,0.61931884,4.313963,20.736586,-29.492626,-34.863365,22.672665,50.412464,-4.1999826,6.5393486,-6.3874865
211,57.57823181152344,9.403183937072754,76.99708557128906,-2.2537714630462187,3.2673501924114134,-126.27628832731675,-28.023617,2.3311732,24.704077,35.099625,2.6097138,-0.9628883,-0.2715089,-4.3718896,-27.228323,26.223904,-19.955698,4.401713,16.26485,3.6473012,9.462876,34.437016,11.435661,-5.9693785,18.749216,0.08851516,4.32698,21.040518,-29.706598,-35.781994,22.568405,51.79645,-3.9946847,6.5635653,-6.4429
212,58.31770324707031,9.735774040222168,76.85139465332031,-2.345891683843969,3.2501003173422123,-126.22426634004228,-29.525633,1.6179712,21.901752,36.32663,3.5390506,-4.17576,-0.82327443,-4.6449146,-27.290037,26.301723,-20.528101,4.5993633,15.976629,4.0649123,9.989413,33.178368,11.180346,-5.906136,18.583952,-0.26149672,4.3307796,21.340109,-29.919407,-36.72141,22.556263,53.2786,-3.7877398,6.6292143,-6.3450108
213,59.04875564575195,10.05739688873291,76.69807434082031,-2.4631165942232016,3.2364949382263615,-126.12612837959223,-30.940502,0.7482475,18.88141,37.642788,4.0892453,-7.840395,-1.3478878,-4.911611,-27.547985,26.404615,-21.141651,4.6476855,15.610288,4.4698477,10.497532,31.86321,11.007941,-5.9094377,18.369719,-0.42220873,4.318484,21.638426,-30.010286,-37.66669,22.55716,54.799004,-3.639244,6.7552567,-6.037445
214,59.776973724365234,10.369976997375488,76.5314712524414,-2.6027715511356306,3.2186694495189836,-125.9908074166003,-32.293114,-0.2990516,15.64096,39.115177,4.190354,-11.9613695,-1.9101114,-5.2140784,-27.922,26.67063,-21.80288,4.5920243,15.180583,4.867287,11.013213,30.473133,10.922297,-5.970537,18.10348,-0.4866649,4.3007402,21.927574,-30.043129,-38.620495,22.599627,56.400978,-3.5190325,6.934559,-5.5685472
215,60.52004623413086,10.670660972595215,76.35694885253906,-2.6697455955789486,3.2154347426206793,-125.78823381075618,-33.50041,-1.329337,12.884627,40.786934,3.8188076,-15.000033,-2.5915895,-5.7116385,-28.329166,27.257448,-22.503487,4.5339875,14.659465,5.1590996,11.523844,29.048134,10.927079,-6.078032,17.78908,-0.42518914,4.2929597,22.206345,-29.941185,-39.567635,22.625269,57.974247,-3.4879737,7.1280627,-5.039776
216,61.27228546142578,10.933234214782715,76.17987060546875,-2.4543355873551365,3.2597057540530203,-125.42830858503785,-34.46196,-2.181719,11.516563,42.507282,3.2450283,-15.000033,-3.554573,-6.771844,-28.696814,28.523975,-23.32957,4.620059,13.960123,5.1379995,12.024675,27.634157,11.026999,-6.2229705,17.425669,-0.21026649,4.311042,22.474213,-29.634588,-40.487705,22.576952,59.421974,-3.6093314,7.2944326,-4.551921
217,61.98423385620117,11.176725387573242,76.01911926269531,-2.3037869824345054,3.275650963124602,-125.10282476118292,-35.417336,-2.7133436,10.197141,44.783012,2.278933,-15.000033,-4.511293,-7.74898,-28.942806,29.8601,-23.959627,4.7184877,13.271454,5.103436,12.49395,26.215776,11.238665,-6.4068694,17.01065,0.19668409,4.36346,22.714796,-29.099514,-41.359535,22.443304,60.766945,-3.9366348,7.4128532,-4.1026163
218,62.6622314453125,11.40787410736084,75.87051391601562,-2.2056581002051274,3.2746749806137685,-124.78928254227361,-36.339874,-3.0377712,8.887095,47.443043,1.0236794,-15.000033,-5.475832,-8.674205,-29.124662,31.283514,-24.450281,4.805931,12.571909,5.0461907,12.926495,24.78447,11.564055,-6.638415,16.542683,0.7623475,4.4426737,22.933222,-28.364708,-42.18127,22.24842,62.054676,-4.4250145,7.5035686,-3.6515496
219,63.31949996948242,11.62993049621582,75.73442077636719,-2.1470824933200685,3.274363375219043,-124.51868206791939,-37.14777,-2.9882958,7.859086,50.2905,-0.3687383,-15.000033,-6.4403863,-9.533919,-29.23104,32.67942,-24.792356,4.90446,11.896906,4.968733,13.310366,23.361095,11.984027,-6.9115186,16.038034,1.4141053,4.538459,23.155828,-27.45852,-42.946026,21.966562,63.229973,-4.997634,7.5914245,-3.2429092
220,63.96635818481445,11.840563774108887,75.60335540771484,-2.116845361608013,3.2913397479951283,-124.3232510807007,-37.77917,-2.351228,7.368528,53.158596,-1.7596824,-15.000033,-7.3993697,-10.3135605,-29.251066,33.94084,-24.98158,5.032894,11.265152,4.8737583,13.628434,21.97665,12.47013,-7.204705,15.516036,2.0839288,4.6404996,23.409946,-26.371574,-43.654324,21.57845,64.19628,-5.5731654,7.701335,-2.9246008
221,64.60431671142578,12.042594909667969,75.49314880371094,-2.1291318665360355,3.333548349595533,-124.23051549909567,-38.22952,-0.8857834,7.553318,56.111885,-3.151075,-15.000033,-8.387219,-10.99555,-29.166204,35.09755,-24.99593,5.203716,10.682631,4.778175,13.87913,20.638016,13.003551,-7.516429,14.965582,2.8049207,4.7540565,23.734022,-25.115768,-44.30015,21.081629,64.9292,-6.1850863,7.862338,-2.713316
222,65.22079467773438,12.239789009094238,75.39710998535156,-2.21169691497471,3.3748177806680704,-124.23541511142915,-38.493168,1.3229171,8.139116,59.18089,-4.6098785,-15.000033,-9.378082,-11.547511,-28.990705,36.1817,-24.84879,5.3992405,10.140028,4.709194,14.076834,19.3323,13.581488,-7.851856,14.387745,3.6036148,4.8835073,24.102325,-23.694073,-44.883568,20.51096,65.47807,-6.8509426,8.053882,-2.5833747
223,65.82457733154297,12.421948432922363,75.3108901977539,-2.369296907734843,3.380373960870383,-124.32070713570076,-38.520638,4.004074,8.795494,62.169514,-6.1225657,-15.000033,-10.275225,-11.941324,-28.761786,37.086643,-24.585533,5.592842,9.650269,4.6927752,14.244357,18.046396,14.199901,-8.214141,13.817245,4.405672,5.0147924,24.446106,-22.130907,-45.404953,19.87769,65.89928,-7.4893327,8.231557,-2.5122654
224,66.42241668701172,12.590620994567871,75.23035430908203,-2.542656331563895,3.3433532405134785,-124.42372603954327,-38.30556,6.8008523,9.299265,64.84965,-7.617719,-14.983085,-11.0307665,-12.257868,-28.522636,37.776237,-24.280195,5.7768583,9.179137,4.6867447,14.386691,16.769682,14.856321,-8.60228,13.290739,5.1370416,5.1314006,24.697897,-20.430218,-45.87179,19.198298,66.228874,-8.007016,8.35052,-2.4807127
225,67.06127166748047,12.71972942352295,75.15892028808594,-2.499441919631777,3.324977452500232,-124.40582166380393,-37.78947,9.882432,10.651269,67.1305,-9.0559,-12.42305,-11.78989,-12.897572,-28.256836,38.491222,-24.045843,6.037117,8.604326,4.4886227,14.479713,15.491244,15.553672,-9.023187,12.815369,5.7920423,5.222047,24.83285,-18.572435,-46.28783,18.461115,66.46165,-8.358605,8.370854,-2.5163178
226,67.7016830444336,12.829312324523926,75.10542297363281,-2.479138299868242,3.2796267552430995,-124.41300793339299,-37.02595,13.31912,12.108004,69.26216,-10.649765,-9.55961,-12.432726,-13.451794,-27.96112,38.989563,-23.739763,6.2999363,8.052069,4.3091106,14.533824,14.212692,16.292448,-9.4813795,12.376304,6.4050574,5.2945275,24.889347,-16.55607,-46.646744,17.65736,66.57569,-8.599251,8.327403,-2.6174636
227,68.33505249023438,12.91923713684082,75.06096649169922,-2.478207705083346,3.2240513293673434,-124.42923956089312,-36.083332,16.7527,13.401119,71.08525,-12.29261,-6.748036,-12.98568,-13.944872,-27.666094,39.316406,-23.365324,6.5570297,7.5096784,4.138774,14.5406885,12.9453,17.062243,-9.969612,11.97797,6.964718,5.3594823,24.895512,-14.408951,-46.94339,16.812504,66.57914,-8.783895,8.285584,-2.7225177
228,68.98682403564453,13.017916679382324,75.02792358398438,-2.4915537682710807,3.1781819097707733,-124.43567048410121,-35.07162,19.819807,14.273424,72.44669,-13.802067,-4.331121,-13.481658,-14.403922,-27.402433,39.51828,-22.923782,6.797308,6.9567695,3.9692907,14.490505,11.69947,17.846024,-10.474479,11.625679,7.462223,5.4278383,24.879398,-12.188572,-47.170353,15.965837,66.50085,-8.972923,8.311237,-2.769248
229,69.62276458740234,13.09804916381836,75.01165771484375,-2.528147227847975,3.1609310298213757,-124.42435972225924,-34.085426,22.46518,14.630809,73.34952,-15.086306,-2.3392117,-13.9416485,-14.818679,-27.189098,39.597946,-22.41452,6.995606,6.3665795,3.8060992,14.357128,10.478272,18.639568,-10.984551,11.320987,7.8806763,5.504223,24.851042,-9.918611,-47.322502,15.140647,66.323814,-9.174995,8.446465,-2.729804
230,70.27259826660156,13.152591705322266,75.01309967041016,-2.584552833231183,3.160272380986484,-124.40316883103205,-33.099808,24.856173,14.646529,73.87044,-16.19633,-0.60809934,-14.351164,-15.1875105,-27.009274,39.5405,-21.83802,7.1612606,5.7444963,3.649964,14.149404,9.28104,19.444384,-11.500045,11.062088,8.235912,5.581055,24.79465,-7.599846,-47.395496,14.342555,66.060616,-9.360966,8.647469,-2.6422412
231,70.93299865722656,13.183302879333496,75.03551483154297,-2.6384857062144738,3.1513682128164575,-124.37694526115871,-32.050266,26.973028,14.468064,73.97785,-17.125711,0.8274956,-14.694571,-15.54893,-26.838934,39.371296,-21.199253,7.335168,5.1110253,3.4851947,13.906341,8.11503,20.248446,-12.016838,10.850589,8.569323,5.6521287,24.699003,-5.244181,-47.387062,13.594205,65.77218,-9.526127,8.8509655,-2.5464833
232,71.60978698730469,13.189760208129883,75.06560516357422,-2.6623900290155107,3.108668278755031,-124.35054525358859,-30.844877,28.789629,14.253903,73.629555,-17.865532,1.927577,-14.950862,-15.942169,-26.652338,39.10316,-20.497168,7.558053,4.482556,3.2901719,13.666711,6.990647,21.031645,-12.525154,10.688421,8.927321,5.710707,24.552483,-2.8691087,-47.29953,12.92464,65.52363,-9.665342,8.993676,-2.4842215
233,72.28350830078125,13.175662994384766,75.11453247070312,-2.6429285269668576,3.0180819485582573,-124.3194640252803,-29.427496,30.26892,14.00512,72.781876,-18.373121,2.6155794,-15.107865,-16.385567,-26.442701,38.74865,-19.74038,7.843449,3.8528447,3.056918,13.44059,5.9033036,21.79077,-13.0193405,10.589624,9.357033,5.7543945,24.333647,-0.46836242,-47.138626,12.3628645,65.332306,-9.766623,9.053434,-2.4838316
234,72.96680450439453,13.128807067871094,75.16979217529297,-2.594212870285094,2.895825421131676,-124.28300131408938,-27.842585,31.441595,13.672859,71.48092,-18.646484,2.947621,-15.182274,-16.85646,-26.222069,38.29817,-18.92539,8.167806,3.2097955,2.7945626,13.204839,4.8515253,22.52788,-13.496694,10.552234,9.828391,5.7853518,24.05431,1.9539452,-46.908646,11.90058,65.165535,-9.835474,9.065901,-2.5194082
235,73.68579864501953,13.06920051574707,75.2437973022461,-2.5321486451380784,2.761821974653152,-124.25235079440148,-26.141691,32.37957,13.335742,69.82296,-18.749357,3.0771844,-15.197752,-17.331564,-25.990578,37.735306,-18.035433,8.51779,2.5640385,2.5120225,12.951391,3.8463488,23.22638,-13.951883,10.555723,10.275278,5.8042583,23.753712,4.349092,-46.61442,11.517404,65.02706,-9.891116,9.056097,-2.5510883
236,74.40890502929688,12.980118751525879,75.33041381835938,-2.4733773478434933,2.6359351950713026,-124.23864760322205,-24.380213,33.15178,13.067311,67.90418,-18.752539,3.1529834,-15.17615,-17.787695,-25.749271,37.04341,-17.05455,8.880519,1.9250448,2.2238762,12.671587,2.8969102,23.859367,-14.378849,10.5852375,10.637495,5.812618,23.470413,6.665812,-46.26278,11.198353,64.92359,-9.9520235,9.04853,-2.539017
237,75.15471649169922,12.88597297668457,75.42635345458984,-2.435559741323416,2.5128483291374604,-124.25205858253992,-22.502134,33.78078,12.893666,65.64246,-18.675886,3.1880484,-15.101594,-18.192259,-25.498415,36.200886,-15.981856,9.249265,1.3086507,1.9487566,12.361223,1.9996643,24.40854,-14.778205,10.654149,10.914608,5.8081946,23.203371,8.930497,-45.866367,10.978595,64.83222,-10.013505,9.046001,-2.4732964
238,75.91806030273438,12.769529342651367,75.52725219726562,-2.4065187572875257,2.3851995306805,-124.28483726512646,-20.493248,34.23215,12.768054,63.036545,-18.492825,3.1213064,-14.967385,-18.562773,-25.237196,35.21842,-14.823123,9.632208,0.7033986,1.6841131,12.024072,1.1355069,24.87412,-15.150291,10.789339,11.140139,5.7909083,22.935614,11.160233,-45.435707,10.85532,64.756874,-10.071343,9.036684,-2.374164
239,76.70476531982422,12.630712509155273,75.6363754272461,-2.358570836102663,2.270593793873792,-124.31992147411357,-18.485159,34.477463,12.646277,60.30015,-18.20236,2.9882212,-14.813575,-18.952576,-24.963236,34.134033,-13.574617,10.039117,0.08570455,1.4112779,11.664594,0.32019353,25.256367,-15.488155,10.964977,11.319539,5.766948,22.683006,13.290694,-44.974686,10.755446,64.74728,-10.137324,9.024625,-2.2464294
240,77.51237487792969,12.496864318847656,75.75289916992188,-2.264051401486315,2.1872057678433108,-124.33965312735427,-16.613602,34.485714,12.479377,57.63454,-17.79782,2.8204544,-14.681185,-19.41306,-24.673527,32.984035,-12.231266,10.479521,-0.56727505,1.1134564,11.286443,-0.4525024,25.558987,-15.791186,11.174592,11.448765,5.7424393,22.461674,15.277937,-44.481937,10.585514,64.834335,-10.2314205,9.013189,-2.095078
241,78.35099029541016,12.359743118286133,75.87264251708984,-2.112999752803156,2.136464547508476,-124.34964506922317,-14.912784,34.206535,12.18162,55.051193,-17.294521,2.8316698,-14.558233,-19.941072,-24.365593,31.7251,-10.791692,10.956075,-1.2580152,0.7815231,10.882676,-1.1545681,25.775808,-16.04118,11.401813,11.505533,5.71964,22.275618,17.136171,-43.946396,10.310392,65.01526,-10.408039,8.998569,-1.9061418
