unveil-humanoid-operators/unveil-humanoid-operators.github.io/feature-analysis-animation/data/feature_matrix_instances/age_ankle_rom_jogging_A025_jog_forward_start_003__A025.csv
Frame,root_translateX,root_translateY,root_translateZ,root_rotateX,root_rotateY,root_rotateZ,left_hip_pitch_joint_dof,left_hip_roll_joint_dof,left_hip_yaw_joint_dof,left_knee_joint_dof,left_ankle_pitch_joint_dof,left_ankle_roll_joint_dof,right_hip_pitch_joint_dof,right_hip_roll_joint_dof,right_hip_yaw_joint_dof,right_knee_joint_dof,right_ankle_pitch_joint_dof,right_ankle_roll_joint_dof,waist_yaw_joint_dof,waist_roll_joint_dof,waist_pitch_joint_dof,left_shoulder_pitch_joint_dof,left_shoulder_roll_joint_dof,left_shoulder_yaw_joint_dof,left_elbow_joint_dof,left_wrist_roll_joint_dof,left_wrist_pitch_joint_dof,left_wrist_yaw_joint_dof,right_shoulder_pitch_joint_dof,right_shoulder_roll_joint_dof,right_shoulder_yaw_joint_dof,right_elbow_joint_dof,right_wrist_roll_joint_dof,right_wrist_pitch_joint_dof,right_wrist_yaw_joint_dof
0,-0.10752462595701218,-2.607656955718994,78.17680358886719,-0.5567709544912331,-5.688566420489576,88.52137007902992,8.957287,6.8158345,9.574731,8.776765,-11.342573,-7.1133246,7.943769,-4.8536525,-17.879232,8.342284,-12.94876,3.812348,1.3493156,0.03556549,8.751413,-2.7648108,14.573622,-46.773617,60.15107,2.0238457,-5.3474445,-2.164642,-10.775802,-12.571961,64.74268,65.65531,20.283411,2.5979044,6.07649
1,-0.10140211135149002,-2.599478244781494,78.17658996582031,-0.5573242449956664,-5.674774349890797,88.52859825357424,8.950568,6.8197756,9.564909,8.760906,-11.331263,-7.141176,7.9372454,-4.8482914,-17.88965,8.336569,-12.953751,3.805864,1.3494852,0.041122984,8.744962,-2.7473056,14.585317,-46.773003,60.136177,1.9619813,-5.325392,-2.1791105,-10.797622,-12.567023,64.74134,65.66112,20.313868,2.5890288,6.0594087
2,-0.09087876975536346,-2.596236228942871,78.17646789550781,-0.558258010218427,-5.662091409739527,88.53506135162615,8.949746,6.8228784,9.556424,8.735869,-11.3150625,-7.1712995,7.9312086,-4.842787,-17.89932,8.331807,-12.959527,3.7981455,1.345997,0.046797402,8.742245,-2.7415397,14.595664,-46.77864,60.13061,1.8816203,-5.304079,-2.1950262,-10.823014,-12.562959,64.742,65.66716,20.344284,2.5802948,6.040948
3,-0.08452192693948746,-2.588941812515259,78.17656707763672,-0.55936343605288,-5.647571537874307,88.5429465812142,8.942384,6.825874,9.546439,8.719525,-11.303303,-7.1969547,7.924247,-4.8379645,-17.910278,8.325282,-12.963869,3.7928884,1.3494395,0.051282223,8.736193,-2.729182,14.606354,-46.784527,60.11796,1.8202047,-5.2841196,-2.208839,-10.84901,-12.558906,64.74254,65.675156,20.37995,2.5713708,6.02614
4,-0.08135752379894257,-2.586881160736084,78.17694854736328,-0.5573602680239469,-5.627119209174968,88.5544013661744,8.926113,6.8267407,9.534382,8.706853,-11.292841,-7.2109804,7.913482,-4.835386,-17.924763,8.315748,-12.965472,3.7936819,1.342424,0.049400542,8.72211,-2.719237,14.624261,-46.79246,60.105633,1.7733212,-5.2722154,-2.2210302,-10.868052,-12.5522585,64.73555,65.678764,20.389381,2.5642507,6.0206165
5,-0.07302366197109222,-2.583949565887451,78.17867279052734,-0.552964592423149,-5.5982614194968825,88.57043374867094,8.8948145,6.8240366,9.519531,8.704587,-11.287713,-7.205405,7.896847,-4.83723,-17.94385,8.301594,-12.962224,3.8059642,1.3278435,0.04740463,8.699806,-2.7145255,14.633472,-46.804127,60.092636,1.7495576,-5.2649612,-2.227747,-10.893656,-12.549228,64.73059,65.68664,20.384508,2.559352,6.0312285
6,-0.06626442819833755,-2.5747575759887695,78.17957305908203,-0.5463453492924508,-5.5630008487216305,88.59009534474073,8.851835,6.819166,9.502118,8.710622,-11.286567,-7.186146,7.8763194,-4.8416214,-17.96675,8.282519,-12.954787,3.8261812,1.3108963,0.038897302,8.66806,-2.7087188,14.646759,-46.820236,60.078636,1.7445441,-5.264776,-2.2307515,-10.911817,-12.545238,64.713806,65.69105,20.357494,2.5561063,6.0518804
7,-0.06050736829638481,-2.5649547576904297,78.1811294555664,-0.5390121191031764,-5.526950207731327,88.61117319012128,8.809635,6.8140635,9.484151,8.712244,-11.282714,-7.166464,7.8552814,-4.8461876,-17.990608,8.263899,-12.947507,3.8451145,1.3021706,0.02827901,8.6359825,-2.6997693,14.670073,-46.843018,60.05011,1.7554153,-5.2657733,-2.2351556,-10.922273,-12.539314,64.67529,65.69392,20.31266,2.5525856,6.0753503
8,-0.05507022142410278,-2.5609500408172607,78.18107604980469,-0.5358028761790273,-5.49548954166429,88.63280977716177,8.770308,6.8131733,9.464704,8.718042,-11.281199,-7.1594033,7.837428,-4.8467813,-18.013716,8.249583,-12.944761,3.8534133,1.2903713,0.023830645,8.608902,-2.6979437,14.678045,-46.852486,60.037086,1.7854819,-5.271404,-2.2437813,-10.944911,-12.537817,64.66791,65.69956,20.303902,2.5481958,6.0929403
9,-0.047136709094047546,-2.5523128509521484,78.18147277832031,-0.5364263489414731,-5.468095464545903,88.65371343982333,8.743212,6.817181,9.446006,8.70638,-11.2694235,-7.1739335,7.8201113,-4.8417296,-18.034208,8.242617,-12.947419,3.8436477,1.284767,0.022786256,8.585583,-2.689661,14.694646,-46.85656,60.011425,1.8349706,-5.2788024,-2.2596776,-10.955139,-12.535543,64.64546,65.698135,20.291147,2.5412729,6.1033688
10,-0.039788708090782166,-2.5475878715515137,78.17986297607422,-0.5405961122406054,-5.445044499715216,88.67397581648133,8.7206545,6.8252907,9.427907,8.695491,-11.258249,-7.201246,7.8057585,-4.832678,-18.052662,8.239073,-12.953204,3.822478,1.2719096,0.027223857,8.565512,-2.6977658,14.698131,-46.86099,60.004467,1.8838431,-5.2893753,-2.2794614,-10.970436,-12.535417,64.644196,65.69707,20.295145,2.5343482,6.1101365
11,-0.03133168816566467,-2.543954849243164,78.17740631103516,-0.5446244372278366,-5.421472993105757,88.69792142590019,8.697314,6.8326225,9.405462,8.68274,-11.245739,-7.2276306,7.7920756,-4.8240633,-18.074701,8.23499,-12.959823,3.801613,1.265765,0.032118775,8.549433,-2.7066846,14.703578,-46.866753,59.992893,1.95056,-5.30433,-2.3008873,-10.990912,-12.535566,64.6413,65.700264,20.308336,2.5253386,6.114616
12,-0.024036800488829613,-2.5387446880340576,78.17674255371094,-0.5451774221189407,-5.407807142783547,88.72396737204832,8.68364,6.8346887,9.380584,8.673911,-11.238833,-7.23994,7.7907515,-4.820793,-18.099907,8.2307625,-12.96873,3.7932842,1.2587506,0.029745996,8.540316,-2.706513,14.717202,-46.870594,59.975567,2.0196116,-5.319698,-2.3201895,-11.001552,-12.536704,64.63231,65.697754,20.305859,2.5192225,6.1122346
13,-0.016914114356040955,-2.528834104537964,78.17874908447266,-0.5387111099424657,-5.403044251386953,88.75424088686373,8.671614,6.828973,9.349757,8.682578,-11.245489,-7.228464,7.8056064,-4.825225,-18.131653,8.217611,-12.976745,3.807453,1.2400377,0.022107985,8.538847,-2.71709,14.7241335,-46.88002,59.97625,2.0756218,-5.339956,-2.3363628,-11.011418,-12.537611,64.63254,65.69676,20.290817,2.515172,6.102568
14,-0.009963984601199627,-2.522949457168579,78.17755126953125,-0.5296147616563153,-5.40563532259978,88.78806219496587,8.666047,6.817837,9.314674,8.69494,-11.257351,-7.2025476,7.8328605,-4.8341975,-18.168028,8.198771,-12.984891,3.8354437,1.2286526,0.0069348803,8.543332,-2.7212474,14.739308,-46.897255,59.969234,2.1376143,-5.3639684,-2.350529,-11.0162325,-12.540266,64.63116,65.6924,20.274914,2.51107,6.086068
15,-0.004260425455868244,-2.5161521434783936,78.17852020263672,-0.5202439123080337,-5.412614795107323,88.8230580405133,8.662784,6.807569,9.277999,8.7127495,-11.272084,-7.176506,7.8638625,-4.843051,-18.205555,8.183291,-12.994509,3.8610575,1.2137432,-0.0065852385,8.555241,-2.7393231,14.747871,-46.917183,59.97657,2.1925075,-5.386194,-2.3648713,-11.0318165,-12.542037,64.642784,65.69384,20.27166,2.5104294,6.0669127
16,0.00013228721218183637,-2.508836030960083,78.17951202392578,-0.5162779338437589,-5.421202286480029,88.85742988299039,8.665036,6.8030977,9.242849,8.722058,-11.279263,-7.1651645,7.8921156,-4.8469157,-18.240332,8.176613,-13.005694,3.8680878,1.1946158,-0.015217052,8.565389,-2.7473152,14.758387,-46.93161,59.977657,2.2465346,-5.399444,-2.378742,-11.033038,-12.544528,64.641914,65.69033,20.253933,2.5144026,6.0446177
17,0.009313737973570824,-2.5012080669403076,78.17884063720703,-0.5197425612092841,-5.433087752879122,88.89161074390965,8.671023,6.8100095,9.208226,8.730944,-11.281739,-7.1763196,7.9169006,-4.8421054,-18.272665,8.183663,-13.018375,3.845346,1.1771581,-0.016696816,8.586534,-2.7713172,14.773499,-46.957825,59.98083,2.2835324,-5.3994837,-2.396321,-11.044548,-12.54848,64.64527,65.68528,20.25346,2.5278232,6.018568
18,0.01820784993469715,-2.4958252906799316,78.17562866210938,-0.5270236634396193,-5.448992867534343,88.92606790577447,8.683846,6.8229003,9.173963,8.734486,-11.278409,-7.20063,7.941494,-4.8323483,-18.303652,8.2009535,-13.033591,3.8037505,1.1652949,-0.012342021,8.61229,-2.786494,14.780154,-46.96704,59.981926,2.3462288,-5.3898263,-2.415189,-11.060768,-12.550405,64.651665,65.68523,20.267294,2.5482712,5.9882097
19,0.027264738455414772,-2.49023699760437,78.17318725585938,-0.535804692148541,-5.464087805482121,88.95967199969249,8.694039,6.8369527,9.140531,8.742066,-11.277087,-7.2276487,7.9642177,-4.821893,-18.332956,8.219196,-13.049069,3.7601802,1.1413008,-0.0058607645,8.633853,-2.8023884,14.784854,-46.97404,59.98902,2.3923404,-5.37912,-2.4320633,-11.067988,-12.551777,64.65339,65.68474,20.265272,2.5681043,5.960832
20,0.03443735092878342,-2.4849820137023926,78.17096710205078,-0.5410096507785535,-5.474873118256748,88.99136779782374,8.703958,6.8446097,9.109209,8.741209,-11.273806,-7.246516,7.986324,-4.815118,-18.360186,8.228091,-13.062935,3.7315183,1.1238765,-0.0063507683,8.655926,-2.8297534,14.799812,-47.00147,59.99568,2.4070368,-5.3749027,-2.4433188,-11.0787945,-12.556388,64.65442,65.682396,20.274467,2.5789936,5.9434657
21,0.038047801703214645,-2.4783875942230225,78.16841888427734,-0.5406581833845664,-5.479163283241588,89.01974870238452,8.70652,6.8449388,9.0805,8.742359,-11.275147,-7.254313,8.003763,-4.813705,-18.383055,8.229803,-13.077637,3.7226403,1.1104825,-0.00951549,8.663068,-2.8363929,14.806883,-47.012268,59.99785,2.4298885,-5.377406,-2.444782,-11.083485,-12.558881,64.65106,65.68863,20.288687,2.5764625,5.9428983
22,0.0437588132917881,-2.4721198081970215,78.16631317138672,-0.537233867181095,-5.479836065282262,89.04637134869593,8.706553,6.8407345,9.053493,8.741418,-11.277366,-7.256736,8.021103,-4.8143315,-18.403395,8.222033,-13.090122,3.7243695,1.0976197,-0.016140684,8.668404,-2.8559058,14.81582,-47.03928,60.00808,2.4202287,-5.386419,-2.4406233,-11.092002,-12.562262,64.64828,65.69774,20.311893,2.564723,5.954928
23,0.04907553642988205,-2.4652583599090576,78.16682434082031,-0.5333117149589027,-5.476988863841859,89.07135446601005,8.701882,6.834756,9.028284,8.742957,-11.2813225,-7.2563114,8.035047,-4.816753,-18.422737,8.212217,-13.101863,3.7325664,1.0931512,-0.024614606,8.6636915,-2.8571851,14.826784,-47.061275,60.006165,2.4213297,-5.3930864,-2.4339664,-11.079836,-12.567093,64.62438,65.70072,20.313787,2.5532863,5.9670014
24,0.05319032818078995,-2.4568240642547607,78.16783905029297,-0.5279172495674777,-5.471416317708551,89.09553545106507,8.696063,6.827691,9.004606,8.739905,-11.281408,-7.255337,8.046607,-4.820638,-18.444302,8.201115,-13.111206,3.7431338,1.086975,-0.033701163,8.662677,-2.880372,14.838898,-47.09679,60.014862,2.4042296,-5.3959103,-2.4328492,-11.079446,-12.572841,64.614006,65.70592,20.317661,2.5518866,5.9738817
25,0.05471113324165344,-2.4475903511047363,78.16905212402344,-0.521179130220342,-5.462486128446751,89.1189326145879,8.687283,6.818448,8.983087,8.734413,-11.277997,-7.2525363,8.055691,-4.82814,-18.469925,8.187293,-13.11701,3.7610092,1.0837729,-0.043394536,8.657948,-2.8930087,14.842227,-47.108036,60.017586,2.4220512,-5.3870473,-2.44026,-11.083764,-12.574579,64.616905,65.71806,20.32103,2.5662265,5.9669495
26,0.05686917528510094,-2.4459140300750732,78.16887664794922,-0.5137067068275012,-5.450338103273239,89.14230174202011,8.67281,6.8073754,8.962225,8.732968,-11.275838,-7.247399,8.063702,-4.838266,-18.498934,8.16872,-13.119774,3.7864318,1.083479,-0.055628985,8.650345,-2.9099457,14.849636,-47.130966,60.01926,2.4327743,-5.372319,-2.450415,-11.085742,-12.57848,64.62722,65.727936,20.323412,2.5887938,5.950852
27,0.06503748148679733,-2.436628818511963,78.16825103759766,-0.5056391572042855,-5.435609193352925,89.16319159826348,8.659481,6.796918,8.943866,8.723887,-11.268936,-7.2432857,8.06712,-4.847123,-18.525393,8.151881,-13.121359,3.8079796,1.0821663,-0.065906644,8.63625,-2.9117136,14.8557205,-47.14138,60.01208,2.4520972,-5.3577967,-2.4585996,-11.076639,-12.581935,64.629486,65.73563,20.305826,2.6131985,5.9365435
28,0.06721388548612595,-2.432013750076294,78.16707611083984,-0.5022394882682261,-5.419790628415472,89.18077471270055,8.643138,6.792524,8.927546,8.720139,-11.264686,-7.2439113,8.063672,-4.850248,-18.544735,8.14333,-13.12432,3.8143373,1.0834322,-0.07086258,8.62495,-2.9181314,14.85914,-47.14879,60.00885,2.4666708,-5.3522696,-2.4614491,-11.078452,-12.584031,64.63443,65.74926,20.290285,2.6326149,5.9384017
29,0.07350100576877594,-2.4242584705352783,78.16779327392578,-0.5057149570202454,-5.400374687457491,89.19452919603201,8.623789,6.796922,8.913278,8.716144,-11.25908,-7.2542753,8.048991,-4.8434143,-18.55386,8.144261,-13.127076,3.7953908,1.0808495,-0.06738089,8.611501,-2.9285321,14.863973,-47.164234,60.00838,2.4559371,-5.361826,-2.4532611,-11.084165,-12.587163,64.64288,65.76555,20.26513,2.6442277,5.961244
30,0.07747653126716614,-2.4201152324676514,78.16749572753906,-0.5133289323311756,-5.377766064313111,89.20500124587976,8.599903,6.807887,8.900951,8.715565,-11.254098,-7.2710238,8.025316,-4.8299623,-18.55583,8.153094,-13.1301,3.759549,1.083266,-0.05850779,8.594056,-2.9342499,14.876156,-47.190678,60.000244,2.4304674,-5.3800106,-2.4368122,-11.084759,-12.595845,64.647964,65.7764,20.230946,2.6518006,5.9971395
31,0.08075930923223495,-2.4150571823120117,78.1677474975586,-0.520675135494018,-5.356394300469126,89.21330637754967,8.58035,6.81834,8.890802,8.710022,-11.2476015,-7.2855496,8.001421,-4.81679,-18.555706,8.16334,-13.133361,3.7232122,1.0871124,-0.0491852,8.580039,-2.941583,14.883642,-47.208504,59.99586,2.4100058,-5.3989396,-2.4202657,-11.08993,-12.601804,64.65164,65.79031,20.197767,2.6577342,6.037187
32,0.08256223797798157,-2.4091928005218506,78.16812133789062,-0.5231396463770486,-5.34014737123398,89.22060521886783,8.563926,6.8238974,8.881882,8.710469,-11.247042,-7.2893553,7.9865646,-4.8098187,-18.558947,8.168115,-13.136533,3.7026262,1.0921607,-0.043986596,8.570179,-2.9433572,14.889228,-47.217857,59.98976,2.3997889,-5.4082327,-2.4068513,-11.091234,-12.606824,64.65326,65.80186,20.172678,2.663244,6.0673246
33,0.08509398996829987,-2.4041996002197266,78.16929626464844,-0.5199628860567044,-5.331475862036172,89.2273347719245,8.552269,6.820983,8.87337,8.719759,-11.256125,-7.274387,7.984413,-4.813277,-18.567734,8.165636,-13.139837,3.706385,1.0990655,-0.046193633,8.5687685,-2.9467957,14.891714,-47.22135,59.986576,2.3988256,-5.4041266,-2.3988376,-11.091903,-12.609302,64.65595,65.809715,20.165173,2.6688728,6.0853186
34,0.08928410708904266,-2.399536371231079,78.17095184326172,-0.5116353505827993,-5.32749641501358,89.23293590422986,8.545373,6.8130655,8.866086,8.730799,-11.26922,-7.2470217,7.989681,-4.822836,-18.579405,8.159292,-13.143254,3.724337,1.1111459,-0.052676745,8.5752325,-2.947787,14.89992,-47.221207,59.977676,2.4062808,-5.3921676,-2.3930323,-11.100238,-12.618423,64.67208,65.81415,20.187233,2.672962,6.097646
35,0.0912502333521843,-2.3934972286224365,78.1714096069336,-0.5040811697043397,-5.325315936190251,89.23725127170195,8.54089,6.8048553,8.8605385,8.741663,-11.282594,-7.2206674,7.9983525,-4.832503,-18.590693,8.14991,-13.145853,3.744919,1.1184046,-0.059164036,8.581166,-2.9407742,14.90575,-47.211105,59.966312,2.4162402,-5.378624,-2.3887851,-11.099889,-12.625674,64.68071,65.814186,20.197495,2.6764214,6.105756
36,0.09293720126152039,-2.3870327472686768,78.17166137695312,-0.49998264864727654,-5.32159765243001,89.24044470837217,8.539967,6.8014364,8.857518,8.742323,-11.287927,-7.208761,8.00316,-4.8372107,-18.599262,8.143994,-13.149285,3.7565122,1.1307801,-0.061499145,8.586037,-2.9320605,14.908822,-47.202175,59.95452,2.424814,-5.3702946,-2.385317,-11.105431,-12.629886,64.69081,65.8196,20.212168,2.678591,6.114162
37,0.09804648905992508,-2.3814289569854736,78.17109680175781,-0.5010821046353934,-5.315481092494951,89.24167488190109,8.540509,6.8060803,8.8585,8.735807,-11.285286,-7.219881,8.005111,-4.8331585,-18.60422,8.137568,-13.151776,3.755348,1.1329885,-0.056163356,8.587471,-2.9172645,14.914948,-47.186863,59.938778,2.4178205,-5.3708334,-2.382413,-11.109941,-12.63857,64.70676,65.82455,20.215313,2.677306,6.121837
38,0.1012895256280899,-2.3768672943115234,78.1699447631836,-0.5057397128894335,-5.308549047125554,89.24158205696236,8.542204,6.8154407,8.862253,8.725576,-11.278073,-7.245396,8.005275,-4.8247194,-18.607382,8.132103,-13.154556,3.7478185,1.1308022,-0.046905246,8.587933,-2.910468,14.919914,-47.18194,59.929737,2.386339,-5.3761387,-2.3803754,-11.111436,-12.645524,64.716805,65.828865,20.205236,2.6742685,6.127628
39,0.10300115495920181,-2.3723526000976562,78.16839599609375,-0.5112564901611579,-5.301777769247739,89.2410552260891,8.545739,6.825472,8.86622,8.712535,-11.269519,-7.2722,8.004728,-4.814995,-18.608843,8.128025,-13.157395,3.7376876,1.1285033,-0.036604457,8.589965,-2.8879397,14.931204,-47.1688,59.90206,2.3646338,-5.3808775,-2.3791258,-11.118217,-12.661342,64.7425,65.82355,20.213936,2.6727715,6.1318035
40,0.10534622520208359,-2.367234945297241,78.1674575805664,-0.5155602366958111,-5.295757577406261,89.24094871528004,8.54748,6.8324995,8.8680525,8.704416,-11.26576,-7.2873454,8.003851,-4.8072104,-18.609093,8.125683,-13.160062,3.7284634,1.1321404,-0.02972767,8.587321,-2.8669071,14.934651,-47.1591,59.8879,2.355085,-5.384959,-2.3798227,-11.113295,-12.666678,64.74052,65.82744,20.198296,2.6724193,6.1370645
41,0.10758033394813538,-2.3607077598571777,78.16814422607422,-0.5161410417896655,-5.289614907597985,89.24143324116535,8.545479,6.835512,8.865702,8.703258,-11.268825,-7.2852697,7.998994,-4.8024187,-18.60685,8.129923,-13.163098,3.7179906,1.1291507,-0.026385859,8.590823,-2.8564374,14.942512,-47.15538,59.875137,2.3400023,-5.3861175,-2.386,-11.11601,-12.678848,64.74459,65.82066,20.185556,2.6785684,6.145619
42,0.11003652215003967,-2.3541131019592285,78.16781616210938,-0.516425124764132,-5.283393854844472,89.24218413882494,8.5392065,6.8371587,8.860844,8.711434,-11.278924,-7.2735815,7.9925265,-4.7977,-18.602554,8.135867,-13.165127,3.705237,1.1295532,-0.024953047,8.590095,-2.8421357,14.945369,-47.152794,59.8679,2.3357117,-5.3863664,-2.3937519,-11.11628,-12.68397,64.74224,65.82263,20.168459,2.6863406,6.1546664
43,0.11214036494493484,-2.3497800827026367,78.16706848144531,-0.516298491275561,-5.278764317911313,89.24328543683716,8.5338545,6.8377795,8.855607,8.720966,-11.290592,-7.2591586,7.9884486,-4.7945743,-18.599081,8.141557,-13.167971,3.6962185,1.124543,-0.024020141,8.595607,-2.8432915,14.948041,-47.161175,59.868813,2.314877,-5.3867335,-2.402786,-11.125743,-12.6886425,64.74617,65.823715,20.159372,2.6958315,6.1632833
44,0.114277683198452,-2.3426849842071533,78.16824340820312,-0.5147887636787238,-5.277675142757996,89.24473430585192,8.533416,6.8379297,8.851912,8.729232,-11.301932,-7.248832,7.993212,-4.793095,-18.59976,8.140144,-13.171338,3.696785,1.1253995,-0.02274971,8.600699,-2.8258767,14.953455,-47.16117,59.858307,2.3134353,-5.3882565,-2.4083204,-11.124087,-12.699582,64.74057,65.81713,20.154419,2.7019045,6.167296
45,0.11445404589176178,-2.3371853828430176,78.16915893554688,-0.5124805240242235,-5.2833286567658595,89.24697235809722,8.545858,6.8356147,8.851267,8.727649,-11.309735,-7.2435465,8.012938,-4.795959,-18.60798,8.129288,-13.177907,3.7161028,1.1227541,-0.022773117,8.614647,-2.816469,14.9550705,-47.163765,59.857063,2.3073175,-5.3925233,-2.410372,-11.132556,-12.702941,64.742035,65.81768,20.171942,2.7071433,6.1660447
46,0.11511217802762985,-2.3338544368743896,78.16680908203125,-0.5082629608751592,-5.292968121704186,89.24975739412812,8.562872,6.8321376,8.851862,8.726802,-11.318995,-7.2400274,8.043155,-4.8014255,-18.621275,8.109737,-13.18497,3.7484498,1.1048769,-0.022478169,8.631752,-2.8127618,14.956321,-47.16886,59.864815,2.2851446,-5.3999486,-2.4108694,-11.136663,-12.705188,64.74114,65.817116,20.18246,2.711099,6.160896
47,0.11884075403213501,-2.325810194015503,78.16563415527344,-0.5053057663764668,-5.303576242345793,89.25256531839646,8.583352,6.829353,8.85271,8.720749,-11.325073,-7.238457,8.074435,-4.805609,-18.63379,8.089179,-13.190754,3.777591,1.1019925,-0.021439323,8.650984,-2.8039794,14.959416,-47.176846,59.86425,2.2756317,-5.4055057,-2.409667,-11.14381,-12.711075,64.73935,65.814476,20.208733,2.7125463,6.154032
48,0.12205316126346588,-2.318716049194336,78.16448974609375,-0.5043427966363557,-5.308342322580249,89.25398114233944,8.594347,6.8303003,8.852495,8.720314,-11.331911,-7.2386947,8.0899315,-4.8053937,-18.63853,8.083108,-13.197847,3.787078,1.1012714,-0.018379368,8.66395,-2.798612,14.961332,-47.179955,59.864838,2.2668238,-5.407375,-2.411539,-11.15211,-12.714917,64.739876,65.81328,20.226439,2.70987,6.147954
49,0.12483055144548416,-2.315678358078003,78.16313171386719,-0.5089642430320548,-5.306614042432094,89.2538254384686,8.596206,6.837521,8.850449,8.723206,-11.336936,-7.2418194,8.086555,-4.796855,-18.63119,8.0929785,-13.202337,3.7636132,1.1032841,-0.009696575,8.66877,-2.7858884,14.964199,-47.171562,59.855404,2.2598884,-5.4029183,-2.4171517,-11.149712,-12.721595,64.73179,65.80449,20.216433,2.7001874,6.141126
50,0.1270463466644287,-2.308427095413208,78.16275787353516,-0.5169488926968153,-5.300463737543405,89.25259801752708,8.590614,6.849194,8.847213,8.731064,-11.3422985,-7.247348,8.069723,-4.783247,-18.616,8.116365,-13.207452,3.718825,1.1102391,0.0012727872,8.672946,-2.7870567,14.965719,-47.16689,59.85093,2.242879,-5.394396,-2.4268112,-11.158154,-12.725465,64.73204,65.798996,20.209717,2.6863782,6.1348834
51,0.1273408681154251,-2.3030338287353516,78.16377258300781,-0.525133820996278,-5.292591244274085,89.2509266884185,8.584034,6.8603196,8.844448,8.736365,-11.346037,-7.253828,8.050508,-4.769685,-18.600237,8.139127,-13.212009,3.674114,1.1171535,0.012399661,8.672026,-2.7775457,14.966942,-47.154263,59.84075,2.2415175,-5.384611,-2.4333763,-11.158895,-12.729476,64.727875,65.79154,20.19449,2.6718402,6.127284
52,0.12766189873218536,-2.2950007915496826,78.16471862792969,-0.5300021495517043,-5.285403145348148,89.24936055912346,8.5822935,6.866847,8.843451,8.733459,-11.34796,-7.260155,8.039579,-4.7611976,-18.591454,8.149207,-13.216117,3.6508362,1.1152823,0.02112995,8.678872,-2.7797556,14.969969,-47.142944,59.83457,2.244926,-5.377312,-2.4357376,-11.171259,-12.739498,64.73254,65.781105,20.190863,2.6635199,6.121955
53,0.12573735415935516,-2.2931113243103027,78.16375732421875,-0.529806694823093,-5.279045695074545,89.24866171644281,8.581904,6.8672523,8.843836,8.7286415,-11.3525715,-7.265889,8.041064,-4.7603626,-18.5938,8.140194,-13.219909,3.6598756,1.1104381,0.02519962,8.679875,-2.7760406,14.970978,-47.139576,59.832195,2.2485764,-5.3725963,-2.4318674,-11.173653,-12.743471,64.73091,65.77376,20.1873,2.6626732,6.1130137
54,0.12680822610855103,-2.2914183139801025,78.1624755859375,-0.5270715487350064,-5.272202693466052,89.24797928643947,8.583471,6.8633647,8.8457775,8.71764,-11.355904,-7.271786,8.048148,-4.764226,-18.602182,8.120447,-13.223635,3.688029,1.1100011,0.025950573,8.681603,-2.7783387,14.971386,-47.140778,59.83318,2.2554276,-5.368782,-2.4280882,-11.1844635,-12.745074,64.73322,65.77056,20.199476,2.6668887,6.1059093
55,0.12750357389450073,-2.2841007709503174,78.16181945800781,-0.5229825018226475,-5.266042734197311,89.24738290037267,8.58951,6.8584137,8.84851,8.699791,-11.355968,-7.2782254,8.058841,-4.76847,-18.612175,8.095627,-13.226246,3.7208064,1.1023451,0.02747305,8.687606,-2.7775352,14.9721,-47.142303,59.829033,2.2905493,-5.3642592,-2.4092622,-11.194318,-12.748378,64.73487,65.7646,20.206356,2.6725855,6.097095
56,0.13015097379684448,-2.2766923904418945,78.16112518310547,-0.5221451715087283,-5.261184583484744,89.24523025617712,8.596092,6.8573494,8.852375,8.685593,-11.355633,-7.2860584,8.068423,-4.76791,-18.616877,8.075057,-13.228402,3.7431488,1.0864532,0.03118308,8.696699,-2.7909033,14.973371,-47.15517,59.83351,2.362018,-5.3590055,-2.375052,-11.208031,-12.752766,64.74024,65.7591,20.203722,2.6760335,6.0956354
57,0.13071918487548828,-2.274407148361206,78.15967559814453,-0.5241877497396842,-5.259388500362701,89.24076671078767,8.6034565,6.8624034,8.857729,8.679603,-11.356443,-7.296554,8.0778675,-4.7604504,-18.614162,8.059415,-13.22955,3.7526705,1.0864563,0.036881045,8.709665,-2.798272,14.975354,-47.184658,59.829433,2.5187774,-5.349883,-2.3024225,-11.224148,-12.759382,64.74903,65.75367,20.214296,2.6740978,6.0992956
58,0.13216179609298706,-2.268826961517334,78.15902709960938,-0.5269278796256824,-5.2592212662184465,89.23479973954416,8.613194,6.8703313,8.864487,8.6738205,-11.355471,-7.3090296,8.087836,-4.7489357,-18.607512,8.045389,-13.230141,3.7567344,1.0782297,0.04450665,8.724099,-2.8147385,14.978369,-47.22852,59.83198,2.7161434,-5.33923,-2.205916,-11.237715,-12.767181,64.75435,65.74807,20.207714,2.6702037,6.108801
59,0.13438738882541656,-2.2585701942443848,78.15919494628906,-0.5310798720686644,-5.257840665474567,89.22870371602815,8.621811,6.8788915,8.871365,8.6687765,-11.354297,-7.3209686,8.093198,-4.7377567,-18.59935,8.039207,-13.233794,3.755463,1.0705947,0.05197375,8.736727,-2.8332965,14.981222,-47.27687,59.83416,2.9334166,-5.32775,-2.1114883,-11.246939,-12.772782,64.75522,65.73985,20.196148,2.6668406,6.1189513
60,0.14046704769134521,-2.2522265911102295,78.15847778320312,-0.5347499435236944,-5.2524303506520384,89.22451166162224,8.624491,6.8863673,8.876508,8.666067,-11.354942,-7.3301177,8.093767,-4.7286596,-18.59364,8.035819,-13.238107,3.7488325,1.0562268,0.058877707,8.743127,-2.851224,14.983932,-47.313435,59.836914,3.1442778,-5.318112,-2.0500765,-11.255251,-12.77691,64.75662,65.73377,20.182053,2.6661575,6.126695
61,0.14559340476989746,-2.2414605617523193,78.15970611572266,-0.537448374109204,-5.240790274935478,89.2215045241793,8.620877,6.892158,8.8809595,8.662015,-11.355272,-7.3360343,8.085194,-4.7228403,-18.589687,8.038903,-13.24367,3.7325778,1.0684937,0.06434587,8.737312,-2.8705142,14.988453,-47.376244,59.835236,3.3363369,-5.3055654,-2.0253334,-11.257574,-12.783372,64.758896,65.72559,20.202755,2.6682165,6.1238103
62,0.14729268848896027,-2.233595371246338,78.15895080566406,-0.5391549512760871,-5.224815124132952,89.22031333499946,8.61175,6.8973703,8.8836355,8.65883,-11.355858,-7.3398805,8.069764,-4.7191544,-18.587503,8.04892,-13.25149,3.7082415,1.0733466,0.07034099,8.725229,-2.9046323,14.996311,-47.45537,59.841003,3.5037968,-5.2935443,-2.0295577,-11.251207,-12.793338,64.754326,65.71031,20.211819,2.6729991,6.117988
63,0.14888298511505127,-2.225800037384033,78.15834045410156,-0.5417648066810827,-5.208402664920691,89.21932514599855,8.600834,6.902293,8.886012,8.658827,-11.359128,-7.341776,8.05391,-4.7158732,-18.585466,8.05926,-13.259704,3.6841023,1.0628529,0.07508898,8.714769,-2.9229524,14.998955,-47.48534,59.839893,3.703757,-5.285964,-2.0459213,-11.252242,-12.795961,64.758385,65.69985,20.21464,2.679552,6.114963
64,0.15219026803970337,-2.2176015377044678,78.15713500976562,-0.5418261811026521,-5.194386833679471,89.2181684636569,8.59127,6.9068165,8.887422,8.662459,-11.366374,-7.3416624,8.043131,-4.712125,-18.58363,8.064594,-13.267691,3.6686273,1.0678464,0.07771334,8.700507,-2.9435723,15.006235,-47.54801,59.839428,3.8815699,-5.2870655,-2.0466576,-11.241204,-12.802214,64.755615,65.68426,20.218536,2.6828737,6.116871
65,0.15982337296009064,-2.202752113342285,78.15718078613281,-0.5417412565985,-5.182472285063892,89.21589281799143,8.587441,6.908934,8.8897505,8.659514,-11.373048,-7.3377104,8.037964,-4.708366,-18.581255,8.061624,-13.274571,3.6658635,1.065958,0.07649574,8.694936,-2.9867995,15.015634,-47.62293,59.85192,4.029807,-5.301074,-2.0314927,-11.242584,-12.808296,64.76005,65.6702,20.219645,2.684899,6.1331253
66,0.16072557866573334,-2.1971373558044434,78.15657043457031,-0.5395020194449964,-5.17100408913751,89.21259854577517,8.582059,6.910544,8.892151,8.661273,-11.384482,-7.330624,8.036129,-4.7040477,-18.578272,8.052013,-13.280085,3.6705468,1.070539,0.072543725,8.688728,-3.0156307,15.022845,-47.67834,59.85575,4.202667,-5.3222036,-2.0097163,-11.247913,-12.8119335,64.76937,65.65966,20.22896,2.686155,6.157257
67,0.16482661664485931,-2.1896069049835205,78.15767669677734,-0.5375383458344859,-5.163263930282397,89.21049860574064,8.580988,6.9125385,8.892989,8.664144,-11.397003,-7.323996,8.039974,-4.6991925,-18.576466,8.041034,-13.285378,3.6777356,1.0710336,0.0685147,8.683023,-3.045889,15.031162,-47.737984,59.862656,4.3578553,-5.349723,-1.9868346,-11.243051,-12.815009,64.77341,65.64434,20.223516,2.685718,6.1803646
68,0.17137868702411652,-2.1801257133483887,78.15744018554688,-0.5356830584000812,-5.163012537406453,89.21105206686792,8.5911255,6.91522,8.891583,8.66247,-11.406207,-7.3214145,8.052491,-4.693545,-18.576502,8.0339775,-13.292437,3.682289,1.0798312,0.063981384,8.68369,-3.090759,15.046278,-47.824383,59.87526,4.476143,-5.380931,-1.9694728,-11.234569,-12.819391,64.77408,65.62764,20.219072,2.6827583,6.195551
69,0.17623035609722137,-2.170301675796509,78.15473937988281,-0.5361763569129393,-5.172711376193174,89.21532774098678,8.610115,6.921077,8.886107,8.668138,-11.417205,-7.3248167,8.074877,-4.6859393,-18.577497,8.034005,-13.300365,3.681357,1.065667,0.06733042,8.693359,-3.1065032,15.049681,-47.840725,59.875553,4.631588,-5.419363,-1.9650389,-11.22692,-12.819976,64.77651,65.61606,20.186586,2.679344,6.2051816
70,0.17924799025058746,-2.154541492462158,78.1541519165039,-0.5374861886085404,-5.195149116347959,89.2224763355684,8.645195,6.928441,8.877712,8.672385,-11.427425,-7.3321,8.117112,-4.674566,-18.580198,8.026802,-13.304565,3.678192,1.0682467,0.0646338,8.716361,-3.146698,15.061048,-47.90079,59.897045,4.7552805,-5.477649,-1.9551291,-11.215758,-12.821625,64.78613,65.598015,20.170933,2.6697962,6.2029347
71,0.19482125341892242,-2.1347849369049072,78.15315246582031,-0.5379099037551597,-5.215489651171874,89.23142282355217,8.676141,6.936052,8.8674345,8.680469,-11.438978,-7.340565,8.154518,-4.6655993,-18.586086,8.028149,-13.314213,3.6767995,1.062113,0.06683362,8.73371,-3.1651764,15.069854,-47.927536,59.900795,4.887548,-5.523661,-1.9566811,-11.202415,-12.822287,64.78986,65.58502,20.142754,2.662168,6.2024755
72,0.20108462870121002,-2.1209897994995117,78.1513671875,-0.5393957534318765,-5.231214186899644,89.24149048573575,8.704423,6.9428854,8.857076,8.681626,-11.446841,-7.3482585,8.19436,-4.657043,-18.598398,8.016546,-13.321682,3.6810756,1.0641999,0.06391244,8.748031,-3.2075162,15.087009,-47.993217,59.91302,4.957898,-5.552701,-1.9649601,-11.1901245,-12.823305,64.800476,65.56999,20.143501,2.653663,6.195857
73,0.20736868679523468,-2.1074740886688232,78.14876556396484,-0.5388775344251724,-5.235713823325967,89.2541588967731,8.719608,6.946946,8.845125,8.679909,-11.452299,-7.3538604,8.225054,-4.6543565,-18.622087,8.001813,-13.332805,3.6947906,1.0507044,0.0633887,8.751868,-3.2350543,15.095803,-48.015755,59.917046,5.0376115,-5.554092,-1.9933565,-11.182483,-12.823411,64.80536,65.56271,20.140345,2.647722,6.1971745
74,0.22321218252182007,-2.088158130645752,78.14663696289062,-0.538866222094621,-5.235116328257179,89.26926956072376,8.727797,6.9504232,8.83129,8.67855,-11.457354,-7.359046,8.256783,-4.6533575,-18.654337,7.977825,-13.343617,3.7147667,1.045081,0.060136437,8.748038,-3.2608142,15.110492,-48.048355,59.912857,5.091737,-5.5363994,-2.0336115,-11.17147,-12.823282,64.81109,65.556984,20.15771,2.6402647,6.1951036
75,0.22652924060821533,-2.076814651489258,78.14580535888672,-0.5383680608330845,-5.232752584379707,89.28462575415683,8.733339,6.954612,8.817043,8.679554,-11.464305,-7.364711,8.286745,-4.6518908,-18.68683,7.9541125,-13.355917,3.7353675,1.0275184,0.05689041,8.743083,-3.2917852,15.128269,-48.080715,59.911568,5.1150246,-5.511394,-2.074946,-11.155028,-12.822365,64.81004,65.547295,20.15848,2.6357095,6.190374
76,0.2316526621580124,-2.0630335807800293,78.14564514160156,-0.5387549298702758,-5.2333899843701825,89.29755050460008,8.746874,6.9605584,8.804935,8.673992,-11.46964,-7.372143,8.317509,-4.6464252,-18.710781,7.934451,-13.370044,3.7508361,1.0227724,0.053309962,8.743039,-3.3197715,15.145926,-48.112633,59.90768,5.137079,-5.486221,-2.103201,-11.149589,-12.82078,64.82397,65.54098,20.184938,2.6357977,6.177997
77,0.2375030219554901,-2.0476465225219727,78.14492797851562,-0.5388652543043233,-5.2395281920252215,89.30867388292693,8.766576,6.9684534,8.79287,8.673583,-11.48074,-7.380579,8.353697,-4.635339,-18.724337,7.9131365,-13.382479,3.7612045,1.0134461,0.04933916,8.746484,-3.3454056,15.162998,-48.145584,59.907402,5.142147,-5.459101,-2.109168,-11.137661,-12.818197,64.84354,65.5291,20.204435,2.6434932,6.150494
78,0.2539975345134735,-2.026139974594116,78.14280700683594,-0.5404803301298085,-5.2483271583961315,89.31899328274376,8.787962,6.97819,8.780494,8.678114,-11.496231,-7.390003,8.391137,-4.6214466,-18.73172,7.895471,-13.397462,3.7690856,1.0123389,0.043273855,8.749321,-3.3505409,15.181346,-48.166454,59.894146,5.157104,-5.4261804,-2.101377,-11.121889,-12.814096,64.867035,65.51548,20.232971,2.6561446,6.1118636
79,0.26648369431495667,-2.0075130462646484,78.1402816772461,-0.5420351648942013,-5.255831951589679,89.32709003543775,8.8111925,6.9901557,8.77101,8.6784315,-11.510244,-7.4019175,8.425772,-4.604445,-18.735096,7.8793025,-13.412843,3.7722833,1.0049607,0.0409025,8.755931,-3.3754568,15.192273,-48.185486,59.901676,5.1474895,-5.399441,-2.095839,-11.11325,-12.810945,64.88814,65.50282,20.25251,2.6707387,6.0773373
80,0.27651265263557434,-1.992136001586914,78.13807678222656,-0.547782515418631,-5.257893879782091,89.33244444926662,8.832325,7.0061316,8.7671585,8.672283,-11.520375,-7.418021,8.452827,-4.584446,-18.73692,7.8643603,-13.427147,3.7687573,1.0003422,0.040052176,8.749208,-3.383838,15.213518,-48.20796,59.896706,5.1164036,-5.385592,-2.1003,-11.098927,-12.803793,64.91322,65.49464,20.279926,2.678207,6.0505
81,0.28280115127563477,-1.9792895317077637,78.13488006591797,-0.5580949288324262,-5.251176738402026,89.33498027992157,8.842639,7.0297704,8.769307,8.670481,-11.530931,-7.4417596,8.468409,-4.5592127,-18.738424,7.8505,-13.438399,3.7562077,1.0000612,0.044874717,8.734618,-3.3823555,15.238459,-48.206867,59.885334,5.0895524,-5.3931804,-2.1293082,-11.0859,-12.794496,64.91715,65.49131,20.291136,2.6817539,6.041469
82,0.2911306917667389,-1.962990164756775,78.13248443603516,-0.5706191337554803,-5.238837676083739,89.33513830951367,8.8513565,7.0578213,8.776504,8.661111,-11.536998,-7.4707847,8.474625,-4.5307446,-18.738066,7.84214,-13.450429,3.7365248,0.99176687,0.059824556,8.713303,-3.3906863,15.244896,-48.202686,59.89528,5.039241,-5.414751,-2.1648421,-11.067386,-12.791934,64.91034,65.485306,20.283476,2.6834335,6.041322
83,0.30896440148353577,-1.936250925064087,78.13114166259766,-0.5849725652426366,-5.225555022041218,89.33199289650585,8.858428,7.087965,8.787278,8.6551285,-11.54553,-7.5002527,8.48018,-4.4997745,-18.734163,7.8307037,-13.461936,3.7129035,1.0024354,0.07074957,8.687617,-3.380797,15.262216,-48.178432,59.891747,5.009437,-5.441647,-2.2129161,-11.041986,-12.785174,64.881004,65.47867,20.26839,2.6813257,6.050953
84,0.32163479924201965,-1.9132544994354248,78.12935638427734,-0.5983085419202114,-5.216099115626102,89.32603681728817,8.871206,7.1147075,8.799366,8.646955,-11.555208,-7.524335,8.489114,-4.47093,-18.726177,7.8209596,-13.479598,3.6893227,1.0070872,0.08506922,8.674757,-3.3725653,15.28009,-48.157024,59.879787,4.964488,-5.4549265,-2.2422647,-11.0345955,-12.77832,64.864716,65.47986,20.266903,2.6725495,6.068816
85,0.32567843794822693,-1.8908616304397583,78.12975311279297,-0.608844718429095,-5.219531207377085,89.31840152798182,8.893042,7.1379175,8.809355,8.649491,-11.572754,-7.5408454,8.512158,-4.4452324,-18.715101,7.812752,-13.503521,3.669685,1.0030001,0.10141953,8.681192,-3.370028,15.298573,-48.138096,59.86598,4.8997726,-5.4523478,-2.2520788,-11.03848,-12.771653,64.8551,65.48633,20.273146,2.6507888,6.1005554
86,0.3356536030769348,-1.8716579675674438,78.12891387939453,-0.6177814114520723,-5.229597122215195,89.30908405647921,8.921104,7.159245,8.819509,8.655225,-11.593524,-7.5530386,8.541661,-4.4214883,-18.701235,7.8073606,-13.532688,3.6511252,1.0051214,0.1218229,8.689787,-3.360991,15.304292,-48.120922,59.85776,4.834722,-5.441114,-2.2455873,-11.03681,-12.769782,64.84554,65.49111,20.29042,2.620265,6.139935
87,0.3440611958503723,-1.8586281538009644,78.12767028808594,-0.627991824973177,-5.2329062546985465,89.29398922385832,8.946268,7.1801124,8.835886,8.654175,-11.612958,-7.5636954,8.56383,-4.3963466,-18.680756,7.7984066,-13.564196,3.6264064,1.0028554,0.14794168,8.697951,-3.3414567,15.312669,-48.08532,59.83397,4.772585,-5.4242635,-2.238447,-11.045135,-12.767511,64.82956,65.50473,20.288157,2.5897202,6.1859927
88,0.3491728901863098,-1.8431898355484009,78.12703704833984,-0.6374667897057718,-5.209000174148062,89.27113672006128,8.946397,7.202055,8.861821,8.64707,-11.630767,-7.575296,8.552354,-4.368925,-18.65205,7.793191,-13.60275,3.5882607,1.006005,0.17387387,8.675337,-3.309972,15.32046,-48.045506,59.81178,4.7139072,-5.411196,-2.2328954,-11.048788,-12.765868,64.81819,65.511986,20.2748,2.5757163,6.215802
89,0.35392194986343384,-1.82303786277771,78.12864685058594,-0.648044059790184,-5.155765807875387,89.24077612966563,8.919725,7.225152,8.89737,8.631911,-11.64632,-7.588451,8.510836,-4.338808,-18.617004,7.7802844,-13.645104,3.5433958,1.0079966,0.20511714,8.621933,-3.292848,15.327162,-48.020794,59.804142,4.627033,-5.403929,-2.228239,-11.057295,-12.765036,64.82444,65.51945,20.248922,2.5844781,6.227874
90,0.3513456881046295,-1.8048144578933716,78.1305923461914,-0.6593879532012239,-5.079455330265233,89.20419445148923,8.873347,7.249007,8.94042,8.608412,-11.659443,-7.601621,8.442552,-4.3075914,-18.57579,7.7694044,-13.694866,3.4922905,1.0116928,0.24562868,8.53359,-3.23335,15.333216,-47.971424,59.771343,4.5670485,-5.3945346,-2.219743,-11.058417,-12.764923,64.83895,65.532776,20.20938,2.6074622,6.229753
91,0.35883408784866333,-1.782832145690918,78.13343048095703,-0.6725650561297346,-4.985284395281395,89.15923584839251,8.809358,7.2779126,8.99314,8.58431,-11.673344,-7.615483,8.3494005,-4.2704544,-18.522556,7.762546,-13.748169,3.4181979,1.0185949,0.2862819,8.433163,-3.2001755,15.33597,-47.95517,59.76737,4.460655,-5.386193,-2.2139513,-11.062286,-12.765429,64.85288,65.539795,20.164207,2.633574,6.224082
92,0.3701275587081909,-1.7595691680908203,78.13209533691406,-0.6792025365791435,-4.873362813993203,89.10297355780732,8.729264,7.303284,9.059288,8.55784,-11.686356,-7.629548,8.214906,-4.2385726,-18.449295,7.7882066,-13.813553,3.3053942,1.0199394,0.3191235,8.321999,-3.1567137,15.338229,-47.953037,59.76302,4.3265715,-5.3713593,-2.2134986,-11.079963,-12.7666025,64.885574,65.54222,20.13976,2.6531072,6.21683
93,0.376388281583786,-1.7406725883483887,78.13141632080078,-0.678768792443052,-4.736518494236196,89.03183950505888,8.626766,7.3254776,9.144653,8.524512,-11.6951885,-7.6407385,7.9051137,-4.253161,-18.340843,8.121793,-14.036036,3.1411095,1.0349551,0.3417904,8.194357,-3.118023,15.339294,-47.9559,59.76364,4.1635494,-5.358164,-2.227143,-11.098389,-12.767973,64.90382,65.53594,20.110605,2.6627545,6.207736
94,0.3822506070137024,-1.7260873317718506,78.12918090820312,-0.6640965477922735,-4.574170603056204,88.94579067936806,8.505219,7.3355,9.249248,8.476134,-11.696294,-7.648821,7.4017673,-4.3292694,-18.19689,8.807019,-14.441343,2.9380631,1.0566894,0.34971735,8.048583,-3.0896318,15.34008,-47.97074,59.773457,3.9637382,-5.346184,-2.2509377,-11.12069,-12.770084,64.91644,65.52346,20.07364,2.6685753,6.195308
95,0.4030517339706421,-1.7070478200912476,78.12425231933594,-0.6413630312655902,-4.396657979643112,88.84793613666628,8.379166,7.3377504,9.36597,8.407851,-11.68758,-7.6585865,6.853191,-4.4155107,-18.033,9.545169,-14.868146,2.7179139,1.0682389,0.34711558,7.893142,-3.0806067,15.341172,-48.06737,59.814796,3.684501,-5.319775,-2.2679548,-11.148655,-12.772655,64.942696,65.50234,20.04807,2.672226,6.179057
96,0.42292582988739014,-1.6883594989776611,78.11986541748047,-0.6191834562061755,-4.2178533228382475,88.74181247665865,8.256615,7.3425136,9.486259,8.336772,-11.678899,-7.676479,6.3308706,-4.485857,-17.860464,10.218967,-15.255664,2.5032084,1.0768378,0.3402229,7.7397394,-3.1232204,15.342361,-48.3631,59.92439,3.2586656,-5.2632365,-2.2573888,-11.179483,-12.775198,64.98353,65.4738,20.054922,2.673352,6.1578093
97,0.4391428530216217,-1.6703797578811646,78.11365509033203,-0.595410709631468,-4.029232547292924,88.62015383178648,8.134913,7.345897,9.61431,8.249899,-11.662316,-7.7046494,5.8025165,-4.5463233,-17.669128,10.870368,-15.6126795,2.2877119,1.0757346,0.3273937,7.585145,-3.203522,15.34201,-48.843655,60.099762,2.6599627,-5.1695395,-2.2030618,-11.231992,-12.775579,65.060234,65.44762,20.120169,2.6715655,6.13468
98,0.4626152515411377,-1.648351788520813,78.10615539550781,-0.5704955100564905,-3.8292333496391637,88.48491221474531,8.008133,7.349399,9.750723,8.154519,-11.642111,-7.740244,5.2581267,-4.598909,-17.459665,11.516114,-15.952747,2.0634203,1.0720093,0.30907038,7.422875,-3.3331523,15.33878,-49.505558,60.34357,1.8888206,-5.0493116,-2.1158233,-11.281369,-12.772768,65.13481,65.41475,20.199202,2.6665125,6.107861
99,0.48491737246513367,-1.6200056076049805,78.10006713867188,-0.5472095447943983,-3.635464121965283,88.34925575566872,7.892988,7.355941,9.888483,8.055185,-11.621924,-7.7798376,4.7484713,-4.6389556,-17.252277,12.106749,-16.269453,1.8525717,1.0491912,0.28764573,7.2725844,-3.4924495,15.331732,-50.293205,60.63056,1.0758101,-4.9125733,-2.028644,-11.338683,-12.766572,65.22527,65.376785,20.285353,2.6611795,6.0767093
100,0.5105847716331482,-1.588087558746338,78.09380340576172,-0.5260736739156315,-3.46578621437285,88.22602239973813,7.802228,7.3692307,10.019605,7.966143,-11.611867,-7.820142,4.320315,-4.6634636,-17.067081,12.60047,-16.560284,1.6773994,0.9948251,0.26567063,7.1559005,-3.7364697,15.321193,-51.25442,60.983784,0.23676199,-4.7704353,-1.9722085,-11.414868,-12.756575,65.3444,65.33599,20.370527,2.65795,6.039059
101,0.5251169800758362,-1.5673799514770508,78.08610534667969,-0.5055675196947123,-3.330030559271293,88.11623492764514,7.752511,7.38702,10.146636,7.877581,-11.608237,-7.8606253,3.9927478,-4.6722665,-16.904528,12.983429,-16.823399,1.5438458,0.9434572,0.23832162,7.0811353,-4.0772715,15.29841,-52.476852,61.43011,-0.6349187,-4.621905,-1.9516925,-11.494714,-12.739521,65.455826,65.29301,20.445974,2.6570473,5.9928055
102,0.5566193461418152,-1.533117651939392,78.07783508300781,-0.48609792995312245,-3.217147126750289,88.0135628009073,7.7223573,7.410253,10.271189,7.8086576,-11.620582,-7.9018755,3.7315226,-4.6695075,-16.755545,13.293229,-17.067747,1.4405305,0.853884,0.20965675,7.0404143,-4.481403,15.263805,-53.881805,61.94781,-1.5528935,-4.462873,-1.9538919,-11.590635,-12.716767,65.59811,65.24682,20.51725,2.658075,5.9391017
103,0.6062397956848145,-1.4908298254013062,78.06637573242188,-0.4760319883811528,-3.11163686969501,87.9216164352163,7.658296,7.453938,10.381524,7.8321896,-11.682363,-7.9469614,3.521844,-4.64841,-16.629642,13.525787,-17.286747,1.3624474,0.73228747,0.18911238,7.0103283,-4.9202275,15.218685,-55.34106,62.48243,-2.4369686,-4.293763,-1.9730697,-11.705118,-12.690089,65.76946,65.20037,20.594402,2.6594715,5.882807
104,0.6512976884841919,-1.4402374029159546,78.05754852294922,-0.47643172492203445,-2.9991855065739927,87.84229467488056,7.548042,7.520421,10.473622,7.9379916,-11.786506,-7.994409,3.3390348,-4.610622,-16.53342,13.699963,-17.485134,1.3054347,0.5852657,0.18189709,6.966324,-5.3644056,15.162166,-56.71911,62.983894,-3.1993268,-4.115328,-2.0044825,-11.821611,-12.660505,65.93643,65.1497,20.65009,2.6603386,5.8287053
105,0.6909115314483643,-1.3828318119049072,78.05137634277344,-0.48736799324292546,-2.87400344736008,87.78418053442525,7.394652,7.6040473,10.541397,8.099759,-11.918009,-8.045431,3.1859128,-4.5619144,-16.485611,13.80168,-17.660477,1.2851511,0.4018003,0.18675488,6.902835,-5.822193,15.094468,-58.008472,63.44556,-3.954588,-3.914347,-2.0421634,-11.93292,-12.629132,66.091156,65.090775,20.661802,2.6617515,5.7753534
106,0.7311017513275146,-1.3348039388656616,78.04000091552734,-0.5061668985700467,-2.7446682093050567,87.74282667456063,7.2146773,7.7021255,10.590753,8.306591,-12.072775,-8.0997095,3.0707242,-4.5020757,-16.476347,13.832106,-17.813631,1.2986463,0.18663904,0.20128794,6.8383813,-6.3092694,15.019565,-59.273396,63.88774,-4.7031674,-3.6944401,-2.0895872,-12.082001,-12.596204,66.30137,65.036835,20.712101,2.6634996,5.721516
107,0.7829106450080872,-1.2865632772445679,78.02779388427734,-0.5358827921497378,-2.618789997937908,87.70111216498088,7.0178967,7.8213825,10.636294,8.5681,-12.2564745,-8.155744,2.9847627,-4.420415,-16.469954,13.815851,-17.94681,1.3132181,-0.043535154,0.22932394,6.7672553,-6.7987905,14.931378,-60.478455,64.318214,-5.189049,-3.4822218,-2.1598282,-12.213442,-12.559247,66.47444,64.97399,20.71293,2.6637104,5.670455
108,0.8452513217926025,-1.2295206785202026,78.01370239257812,-0.5784532995657953,-2.5039378649462654,87.6417292020196,6.808699,7.9702754,10.691764,8.904399,-12.478697,-8.21205,2.9197915,-4.305301,-16.430328,13.776268,-18.062082,1.2957828,-0.28447813,0.27619278,6.693656,-7.261633,14.837291,-61.57191,64.72845,-5.154331,-3.3049848,-2.2684886,-12.333219,-12.519614,66.62294,64.90345,20.685228,2.6607158,5.625882
109,0.9143911600112915,-1.1619033813476562,77.9996109008789,-0.6377090367306273,-2.4083814054883823,87.56834901567872,6.6104302,8.148924,10.756171,9.288817,-12.730049,-8.272144,2.8853498,-4.1481886,-16.35007,13.713775,-18.159142,1.2229334,-0.53701615,0.33817092,6.62352,-7.701704,14.7409525,-62.570587,65.13706,-4.408758,-3.1854901,-2.4324107,-12.446488,-12.475651,66.764015,64.82715,20.639807,2.6534357,5.583733
110,0.9713712334632874,-1.1009012460708618,77.9837875366211,-0.7115766159993392,-2.3257367058026954,87.48738909302045,6.404309,8.354597,10.822515,9.7416935,-13.018633,-8.336091,2.8788214,-3.9573,-16.247541,13.62391,-18.2408,1.1169121,-0.8161264,0.41486952,6.556854,-8.109284,14.660495,-63.449524,65.51105,-3.0996318,-3.1063623,-2.642959,-12.564969,-12.433166,66.92168,64.73973,20.59032,2.6435966,5.543727
111,1.02813720703125,-1.029514193534851,77.9682846069336,-0.7966844397242668,-2.2418815929776867,87.38609701994561,6.1780214,8.583317,10.901327,10.255695,-13.337451,-8.397765,2.8859158,-3.7423506,-16.125628,13.495951,-18.298096,1.0130832,-1.0743877,0.5120186,6.479759,-8.519963,14.56285,-64.256714,65.864685,-1.5828483,-3.0397308,-2.874479,-12.681604,-12.377552,67.03647,64.66369,20.537409,2.6300888,5.5162005
112,1.0911452770233154,-0.9248504638671875,77.955078125,-0.8890990109942949,-2.142766248952704,87.25154393058764,5.9080267,8.833037,11.001419,10.848084,-13.693195,-8.450994,2.8843267,-3.5162666,-15.987107,13.337508,-18.332544,0.94699895,-1.3412095,0.6409046,6.383938,-8.899122,14.469626,-64.90486,66.13077,-0.14869656,-2.9508896,-3.1056595,-12.775422,-12.321829,67.07818,64.57695,20.430754,2.6157362,5.5093565
113,1.152008295059204,-0.839928925037384,77.93588256835938,-0.9821289000930765,-2.030184736222168,87.08297988666816,5.6145377,9.087733,11.126426,11.482277,-14.070583,-8.491209,2.888598,-3.2884626,-15.838415,13.123295,-18.336885,0.9424781,-1.6005348,0.79631454,6.2773333,-9.247135,14.393136,-65.38483,66.27984,1.1919004,-2.8184845,-3.3264527,-12.886825,-12.274189,67.08454,64.49381,20.347866,2.5986347,5.536872
114,1.2168540954589844,-0.7626791000366211,77.90956115722656,-1.0801396350450805,-1.9099189451576764,86.88625886339464,5.3005652,9.353263,11.270943,12.165469,-14.473221,-8.522931,2.9028037,-3.0512083,-15.675956,12.86061,-18.314224,0.9757771,-1.8509938,0.974815,6.1543407,-9.58007,14.312585,-65.74334,66.36409,2.56164,-2.666389,-3.5510411,-12.966636,-12.223684,66.98921,64.40559,20.19862,2.5789084,5.5896726
115,1.2751027345657349,-0.6812231540679932,77.8808364868164,-1.1942762920650458,-1.7744777159495098,86.6581114472471,4.9299765,9.658219,11.43209,12.954558,-14.921316,-8.553907,2.8947597,-2.7897723,-15.487441,12.594034,-18.274115,1.0111936,-2.1029425,1.187142,6.020817,-9.876519,14.258978,-65.95405,66.359055,3.9326465,-2.519849,-3.7919245,-13.060291,-12.188337,66.91113,64.292114,20.087198,2.560189,5.6459074
116,1.3290213346481323,-0.5885108113288879,77.84971618652344,-1.3391666567267606,-1.6166471455267373,86.39532713801486,4.4674563,10.031929,11.606435,13.906026,-15.434181,-8.593503,2.833841,-2.4871058,-15.261164,12.365643,-18.2251,1.0128058,-2.3348043,1.4416573,5.86594,-10.154379,14.206557,-66.07319,66.31752,5.2245703,-2.407703,-4.0588517,-13.146592,-12.15352,66.83197,64.1535,19.991093,2.5441625,5.6845417
117,1.3949822187423706,-0.5013468265533447,77.80631256103516,-1.52282420329298,-1.4237171391600467,86.0945700995868,3.8994687,10.479677,11.7998905,15.030271,-16.02643,-8.650117,2.6985223,-2.1294024,-14.984242,12.180639,-18.160378,0.96135646,-2.5600233,1.7490175,5.6717224,-10.374404,14.182434,-66.03181,66.19497,6.5563374,-2.3224106,-4.3888617,-13.213469,-12.136245,66.760025,63.96497,19.926832,2.5429454,5.699231
118,1.4501768350601196,-0.4103796184062958,77.7640151977539,-1.7358428029736133,-1.2047892239789548,85.75757212568995,3.2588534,10.983386,12.013446,16.281048,-16.678442,-8.720528,2.5115588,-1.7281834,-14.666357,12.018041,-18.077944,0.87944734,-2.7676036,2.1010654,5.4532485,-10.57212,14.147068,-65.84587,66.03816,7.919819,-2.2608688,-4.764618,-13.308371,-12.11033,66.71642,63.77848,19.936712,2.5493145,5.706172
119,1.512856364250183,-0.3086296021938324,77.71212768554688,-1.9713820851830834,-0.983601265945087,85.38999414733182,2.5679684,11.538451,12.233188,17.657068,-17.361023,-8.796383,2.3062217,-1.303372,-14.3310375,11.879736,-17.992695,0.7937066,-2.9632812,2.4851756,5.241373,-10.75374,14.126759,-65.58756,65.8329,9.103336,-2.2370358,-5.1098866,-13.421286,-12.092564,66.72108,63.566593,19.980238,2.5447943,5.70242
120,1.5761690139770508,-0.22784686088562012,77.64875030517578,-2.2215191660514453,-0.7843526629465327,84.99735913565179,1.8565822,12.139437,12.44748,19.140665,-18.039827,-8.870534,2.116658,-0.8739522,-14.001473,11.767793,-17.91964,0.7305102,-3.1358442,2.8871257,5.0728316,-10.932494,14.119204,-65.30227,65.59393,9.940165,-2.2635188,-5.35057,-13.567862,-12.083723,66.79342,63.33037,20.039541,2.509513,5.691709
121,1.6348670721054077,-0.15323542058467865,77.57646179199219,-2.4981118550430716,-0.5971975944887462,84.57676654292813,1.1207168,12.797926,12.66989,20.723593,-18.745224,-8.938547,1.9354433,-0.42889565,-13.690323,11.681343,-17.857862,0.6997584,-3.3094633,3.3259256,4.9368606,-11.0927725,14.121633,-64.95418,65.327385,10.378765,-2.3310742,-5.471111,-13.729232,-12.082104,66.936035,63.06334,20.107927,2.4392211,5.680146
122,1.6936765909194946,-0.05669117718935013,77.50238037109375,-2.8029088377477294,-0.41591258283166355,84.12651090833423,0.3561478,13.508512,12.90241,22.409212,-19.476635,-9.010559,1.7515436,0.038328692,-13.383384,11.618076,-17.800077,0.6863107,-3.4695702,3.802052,4.8318124,-11.2518215,14.139563,-64.554985,65.02279,10.498052,-2.4321342,-5.5090046,-13.98172,-12.090265,67.24542,62.79476,20.335781,2.3423061,5.666124
123,1.7443726062774658,0.045087479054927826,77.42045593261719,-3.108850365928699,-0.26845991889548737,83.65511681401476,-0.40390405,14.239429,13.1184435,24.18231,-20.152403,-9.103513,1.588105,0.5021015,-13.062696,11.588065,-17.758429,0.67843795,-3.6147895,4.280016,4.771113,-11.40213,14.170495,-64.11885,64.67379,10.378165,-2.5820615,-5.4727116,-14.203921,-12.108474,67.520874,62.472343,20.429916,2.2259467,5.6351576
124,1.8104521036148071,0.1331775039434433,77.33512878417969,-3.389111259774191,-0.1815725713173085,83.17174796628755,-1.1296366,14.958431,13.292284,26.02864,-20.691854,-9.235724,1.4655802,0.9368709,-12.710059,11.604604,-17.74653,0.6644702,-3.7531295,4.730417,4.7964716,-11.531811,14.221392,-63.602287,64.24963,10.146213,-2.7966056,-5.3696322,-14.506808,-12.140883,67.90903,62.12623,20.501596,2.0924497,5.574984
125,1.8696646690368652,0.22245994210243225,77.259765625,-3.645687069606041,-0.17047159659219518,82.6745885954328,-1.7999289,15.669173,13.430636,27.93696,-21.094326,-9.438404,1.3888074,1.3477349,-12.318531,11.686751,-17.772661,0.63405967,-3.893829,5.154137,4.9144673,-11.633716,14.289743,-62.989025,63.750237,9.718048,-3.100755,-5.2036743,-14.753208,-12.186142,68.22409,61.698795,20.253801,1.9463551,5.4586687
126,1.9224640130996704,0.3161049783229828,77.19017028808594,-3.8885674477017167,-0.21711681319299475,82.16112477987792,-2.4332771,16.375624,13.548144,29.909956,-21.392859,-9.704087,1.3503213,1.7457327,-11.898247,11.814069,-17.826876,0.5956734,-3.9888797,5.5593796,5.136069,-11.75056,14.374877,-62.324333,63.183617,9.080783,-3.4801586,-4.9706206,-15.247622,-12.2427635,68.86919,61.310528,20.277838,1.778353,5.3064833
127,1.9749125242233276,0.4060806632041931,77.11708068847656,-4.105760567066967,-0.29898580058997665,81.63893340434818,-3.0590718,17.049736,13.629871,31.947897,-21.559898,-9.991377,1.3408504,2.111733,-11.458177,11.966018,-17.897953,0.56593776,-4.1174736,5.9434905,5.3858905,-11.819611,14.477504,-61.599724,62.56014,8.397423,-3.896777,-4.676604,-15.597962,-12.308451,69.332146,60.828365,19.966745,1.597274,5.153686
128,2.017691135406494,0.49462568759918213,77.04722595214844,-4.284909367931092,-0.3928094818593918,81.11555347756502,-3.7119672,17.66862,13.655818,34.057034,-21.567078,-10.253544,1.3533734,2.4263158,-11.007005,12.116117,-17.975046,0.5617572,-4.230085,6.2864966,5.646387,-11.863312,14.5905695,-60.89457,61.892788,7.8547983,-4.307048,-4.3160925,-16.003798,-12.382627,69.83612,60.341133,19.758867,1.3970344,5.050127
129,2.057176351547241,0.6052085757255554,76.9916000366211,-4.42381295095236,-0.4986875918303823,80.58278077620783,-4.398522,18.244093,13.624366,36.260677,-21.391462,-10.513463,1.3941047,2.6907995,-10.535244,12.25059,-18.050337,0.5857374,-4.3441176,6.591083,5.9076753,-11.87685,14.709484,-60.217876,61.18766,7.506462,-4.701505,-3.873552,-16.38069,-12.4647455,70.27549,59.81527,19.44095,1.1893073,5.0154743
130,2.0935258865356445,0.7122634649276733,76.94314575195312,-4.527522028941346,-0.6257013319217809,80.04001823174123,-5.1066,18.7835,13.540081,38.549145,-21.052834,-10.782329,1.4583586,2.911211,-10.042928,12.395667,-18.137419,0.63022155,-4.443866,6.860781,6.191253,-11.869164,14.830784,-59.54981,60.44305,7.2638197,-5.101715,-3.352499,-16.794868,-12.554707,70.73649,59.26856,19.11081,0.969752,5.0236883
131,2.122824192047119,0.8218987584114075,76.90046691894531,-4.595772075045823,-0.764258178756176,79.50636073692549,-5.8445215,19.266573,13.392594,40.88337,-20.587051,-10.993947,1.5490294,3.0843742,-9.550884,12.5295105,-18.225548,0.6939116,-4.5509605,7.094413,6.4807825,-11.83812,14.952394,-58.884254,59.677032,7.026964,-5.5156317,-2.781444,-17.16818,-12.650738,71.12498,58.686554,18.78838,0.7190526,5.042866
132,2.147434949874878,0.9576583504676819,76.87764739990234,-4.628101494347987,-0.9045908870197318,79.00067491643682,-6.617976,19.671488,13.17446,43.21936,-20.025127,-11.082854,1.6668254,3.2064812,-9.079997,12.634977,-18.306723,0.7756591,-4.6622577,7.287542,6.76816,-11.787065,15.07107,-58.21795,58.902218,6.7169094,-5.9513445,-2.1887631,-17.52601,-12.749831,71.464615,58.09318,18.670204,0.41603053,5.044898
133,2.1782524585723877,1.0623180866241455,76.84820556640625,-4.62463835253523,-1.0441196184286945,78.5241705947523,-7.4533906,20.000126,12.862994,45.592567,-19.322168,-10.99987,1.8074539,3.2764654,-8.631664,12.713024,-18.378296,0.8691327,-4.7796926,7.4370675,7.053612,-11.728063,15.185217,-57.56201,58.123207,6.30524,-6.4161463,-1.5553671,-17.859924,-12.848981,71.744606,57.489574,18.803993,0.03548145,5.0230274
134,2.1993870735168457,1.1963409185409546,76.83721923828125,-4.58380705743584,-1.186734176879744,78.06780979420506,-8.34016,20.264448,12.471722,48.006935,-18.47162,-10.787618,1.9737258,3.296641,-8.196134,12.766328,-18.442966,0.9765981,-4.9010816,7.545411,7.3401504,-11.659519,15.293377,-56.917034,57.33714,5.836805,-6.9064426,-0.87581074,-18.17292,-12.947674,71.96957,56.875,19.103752,-0.40573967,4.9951305
135,2.2139763832092285,1.353116750717163,76.8357925415039,-4.50990078614677,-1.3341074978711414,77.63534922780318,-9.2327175,20.460815,12.04694,50.383923,-17.569176,-10.517758,2.17087,3.2667117,-7.7777076,12.7921095,-18.50581,1.1096761,-5.0290194,7.6174483,7.6217427,-11.5594225,15.392232,-56.259987,56.54591,5.334802,-7.4146447,-0.20099397,-18.461157,-13.045011,72.13597,56.24969,19.489845,-0.86433923,4.9689555
136,2.2197656631469727,1.5247581005096436,76.8424072265625,-4.404606109551611,-1.487374067972748,77.23031970400162,-10.085354,20.586346,11.633196,52.646236,-16.713959,-10.259694,2.4052699,3.1863465,-7.3809266,12.785774,-18.571814,1.2799743,-5.1762586,7.659384,7.8933487,-11.443776,15.478604,-55.61067,55.77476,4.7579737,-7.934518,0.41816476,-18.697247,-13.140955,72.21557,55.60672,19.838606,-1.2964704,4.9490123
137,2.2215986251831055,1.6875826120376587,76.85011291503906,-4.261815032105152,-1.654514991302979,76.86122334779549,-10.897295,20.633604,11.220964,54.805317,-15.914854,-10.002736,2.6867056,3.0442939,-7.012874,12.749466,-18.646496,1.504611,-5.3441377,7.6628265,8.164075,-11.307638,15.547479,-54.95434,55.035572,4.0541973,-8.460503,0.94641626,-18.896671,-13.235505,72.22089,54.956013,20.196514,-1.7060977,4.923113
138,2.216273307800293,1.8729902505874634,76.867919921875,-4.082307198867974,-1.8319353370983325,76.52328702268744,-11.691524,20.612923,10.794612,56.901386,-15.1277485,-9.710912,3.0091245,2.8440433,-6.6699495,12.684999,-18.726952,1.7722925,-5.526374,7.627699,8.430766,-11.153062,15.593694,-54.2935,54.324646,3.250095,-8.998417,1.4163702,-19.054115,-13.325259,72.14669,54.29818,20.584797,-2.1115391,4.8936844
139,2.212388515472412,2.060076951980591,76.88973236083984,-3.8815307195700592,-2.004243206394958,76.20050390629024,-12.457241,20.548294,10.385766,58.9021,-14.380242,-9.415358,3.3561664,2.6079683,-6.3397093,12.58289,-18.801744,2.0519426,-5.6988845,7.568848,8.669466,-10.992376,15.612048,-53.665325,53.63468,2.4639075,-9.556168,1.8835304,-19.169937,-13.393638,71.986115,53.64934,20.93472,-2.4923038,4.8872423
140,2.200467109680176,2.2683284282684326,76.91535949707031,-3.674730427906695,-2.155938634949423,75.87751450791313,-13.186149,20.464172,10.023377,60.778236,-13.697988,-9.147381,3.7100928,2.3586066,-6.0093617,12.438101,-18.861818,2.312509,-5.8951035,7.513356,8.876377,-10.791,15.624441,-53.010876,52.90409,1.8525131,-10.141515,2.3946524,-19.235722,-13.49366,71.776665,52.938324,21.16547,-2.8217788,4.9238
141,2.1789486408233643,2.4923057556152344,76.94756317138672,-3.463553242826843,-2.2848799494932566,75.5571185498887,-13.887176,20.351995,9.682261,62.541874,-13.049674,-8.902688,4.082257,2.0973907,-5.6815424,12.2264595,-18.896242,2.5508387,-6.069974,7.4547124,9.028092,-10.579213,15.62063,-52.421783,52.16575,1.4079037,-10.778854,2.9842925,-19.224669,-13.592674,71.43386,52.200123,21.220205,-3.0915418,5.037863
142,2.156109094619751,2.7272794246673584,76.98113250732422,-3.2414555321459937,-2.3986203768976173,75.24531991097297,-14.562307,20.210026,9.356076,64.20808,-12.437277,-8.662629,4.4757314,1.8144232,-5.36107,11.961667,-18.914257,2.7809885,-6.2402134,7.388292,9.141939,-10.346425,15.600499,-51.85836,51.418755,1.0844748,-11.455028,3.6199434,-19.157986,-13.701761,70.99381,51.429653,21.16639,-3.3142467,5.205781
143,2.135653495788574,2.97662353515625,77.0199203491211,-3.0104457531283595,-2.496177606653855,74.93128365799873,-15.193438,20.07165,9.09913,65.75335,-11.939261,-8.437287,4.8653183,1.5138465,-5.037412,11.682011,-18.930994,2.9982011,-6.396758,7.3152065,9.228381,-10.103743,15.565112,-51.30577,50.65433,0.8758801,-12.117682,4.2746687,-19.046852,-13.81787,70.49876,50.62833,21.04734,-3.504728,5.3700843
144,2.1126010417938232,3.2190771102905273,77.04949188232422,-2.772231652569605,-2.5764381384316493,74.60407467281613,-15.763613,19.970612,8.964084,67.15408,-11.63556,-8.237145,5.2193627,1.1998508,-4.6999893,11.43888,-18.964289,3.1979773,-6.534004,7.2376566,9.299024,-9.863112,15.517145,-50.74739,49.862503,0.7713931,-12.71431,4.9204965,-18.899624,-13.941648,69.992134,49.789906,20.903833,-3.6769297,5.4733844
145,2.0810751914978027,3.4897968769073486,77.09156036376953,-2.5251958248648694,-2.634060656707165,74.25843469906368,-16.259104,19.916468,8.978238,68.3936,-11.607828,-8.079043,5.527466,0.87165403,-4.3405795,11.238239,-19.016151,3.370423,-6.648943,7.154027,9.348395,-9.613569,15.458128,-50.168716,49.028896,0.8457637,-13.2027855,5.582801,-18.726377,-14.0723095,69.49324,48.916553,20.73658,-3.833519,5.4828796
146,2.041299819946289,3.7630717754364014,77.13101196289062,-2.2692804473882604,-2.671021883044485,73.90118657209653,-16.693218,19.89457,9.104957,69.49227,-11.796909,-7.9502783,5.804088,0.5278492,-3.9660985,11.0590315,-19.078524,3.521368,-6.7485666,7.0647035,9.375074,-9.357483,15.38958,-49.58274,48.160786,1.0716813,-13.6164055,6.2686234,-18.521862,-14.20874,68.979195,48.008938,20.527094,-3.9670978,5.434278
147,2.017824172973633,4.034426212310791,77.1630630493164,-2.0096971396509873,-2.6973300149590136,73.53943916802545,-17.087614,19.900772,9.302101,70.47664,-12.067649,-7.8178554,6.0633593,0.17260437,-3.589183,10.8956175,-19.150415,3.6705375,-6.8361745,6.9738817,9.3951435,-9.104312,15.314382,-48.998417,47.26871,1.3126823,-14.017449,6.920584,-18.281654,-14.352108,68.43748,47.066658,20.304163,-4.076706,5.374217
148,1.9771085977554321,4.295363426208496,77.18661499023438,-1.7543951688091723,-2.7241058560172036,73.18039450788146,-17.463688,19.93028,9.529142,71.37187,-12.284039,-7.6486044,6.318319,-0.19054298,-3.22253,10.7477455,-19.234362,3.8369827,-6.913238,6.884968,9.426084,-8.866273,15.236669,-48.427635,46.362175,1.4301947,-14.47138,7.479843,-18.016172,-14.504932,67.8665,46.09319,20.114513,-4.1617556,5.349711
149,1.9228650331497192,4.574885845184326,77.2081527709961,-1.4988470586915175,-2.7573408985569605,72.82235966741007,-17.81257,19.985933,9.79669,72.17899,-12.43711,-7.4312344,6.575229,-0.5662025,-2.8655157,10.618197,-19.333336,4.0290036,-6.979897,6.794428,9.47511,-8.647391,15.160207,-47.87229,45.44143,1.3533556,-15.032266,7.933452,-17.715502,-14.670165,67.24901,45.073845,19.94465,-4.215261,5.362356
150,1.8762078285217285,4.863170146942139,77.22830200195312,-1.2427425239381686,-2.790809707171179,72.46254945701247,-18.126682,20.068634,10.119887,72.8858,-12.590002,-7.184274,6.8275676,-0.9545986,-2.5125437,10.504668,-19.444859,4.235134,-7.0315285,6.7007127,9.533997,-8.437742,15.086586,-47.327267,44.494896,1.1692992,-15.654806,8.309215,-17.39143,-14.84907,66.598236,44.011513,19.79517,-4.239584,5.3912086
151,1.8244894742965698,5.1626200675964355,77.24803924560547,-0.9918575951256892,-2.8144804909467136,72.10659706208088,-18.430573,20.171324,10.464827,73.497375,-12.715566,-6.9190683,7.0696216,-1.3449297,-2.1691437,10.399567,-19.56309,4.444426,-7.0724754,6.611605,9.592949,-8.232464,15.017324,-46.794167,43.52125,0.96382576,-16.25708,8.608283,-17.032686,-15.041879,65.92333,42.913788,19.669651,-4.2476377,5.4483466
152,1.780576229095459,5.4662251472473145,77.26290130615234,-0.7552819926501891,-2.8194676767524527,71.76050671189648,-18.749268,20.286942,10.798001,74.01871,-12.786192,-6.647037,7.2979007,-1.7259288,-1.8408861,10.290082,-19.6794,4.645761,-7.105703,6.5350485,9.642718,-8.02335,14.95347,-46.272724,42.516975,0.8273239,-16.75554,8.834267,-16.635534,-15.247915,65.23864,41.792427,19.58078,-4.2526746,5.545951
153,1.721978783607483,5.77458381652832,77.274169921875,-0.5348530667572055,-2.7975757048862664,71.41287632634948,-19.09076,20.425858,11.125479,74.45263,-12.783167,-6.359265,7.495164,-2.0951626,-1.517067,10.188124,-19.794842,4.829909,-7.122722,6.475707,9.672467,-7.805037,14.8965645,-45.76495,41.467693,0.77098197,-17.103922,8.982759,-16.200695,-15.466686,64.5436,40.641544,19.553244,-4.2508063,5.703473
154,1.665321707725525,6.0882248878479,77.27758026123047,-0.3264793158084327,-2.75567698339931,71.06527301866635,-19.441202,20.58752,11.461597,74.794754,-12.724076,-6.0538416,7.6697984,-2.4579878,-1.1983924,10.094351,-19.912357,5.0045652,-7.12487,6.428697,9.690576,-7.5795016,14.847883,-45.268578,40.375412,0.7513234,-17.35348,9.053856,-15.7312,-15.697729,63.831932,39.457314,19.575405,-4.237078,5.908885
155,1.6082744598388672,6.406081676483154,77.2772216796875,-0.12961636072816904,-2.70789032518304,70.74172044596216,-19.794613,20.748056,11.7844305,75.04333,-12.6378565,-5.7535825,7.854401,-2.8160815,-0.90755516,9.983853,-20.028341,5.1842995,-7.130963,6.387229,9.716803,-7.3592973,14.807918,-44.782593,39.267693,0.76814437,-17.56786,9.059667,-15.230071,-15.939948,63.113483,38.258656,19.608305,-4.223444,6.1269646
156,1.5665533542633057,6.7342705726623535,77.2684097290039,0.05540166154683535,-2.6685941744421267,70.46667371223079,-20.145014,20.882864,12.071941,75.19474,-12.552497,-5.4817033,8.081376,-3.1708663,-0.66777885,9.83022,-20.137804,5.3838754,-7.1583133,6.344683,9.7725725,-7.1616645,14.776557,-44.30814,38.17427,0.81952614,-17.810883,9.012608,-14.7187395,-16.190746,62.40799,37.07403,19.631987,-4.222823,6.3230777
157,1.52154541015625,7.060981750488281,77.25704193115234,0.22921272895609152,-2.6526657922276016,70.2541870883469,-20.48453,20.982649,12.317242,75.24492,-12.457934,-5.23836,8.372955,-3.5275457,-0.49379805,9.620946,-20.239182,5.618663,-7.221341,6.297138,9.878497,-6.9912224,14.7523365,-43.83176,37.09709,0.9166522,-18.106022,8.892464,-14.188786,-16.448471,61.70345,35.897816,19.639091,-4.237378,6.4923973
158,1.4626705646514893,7.389843463897705,77.23847961425781,0.3933231758308063,-2.648837287102992,70.08867198813695,-20.818544,21.059525,12.533496,75.195915,-12.344548,-5.0142913,8.708453,-3.8838122,-0.3716965,9.370589,-20.334883,5.8768983,-7.3065176,6.248248,10.019206,-6.841271,14.734878,-43.358562,36.02353,1.0554804,-18.417395,8.700945,-13.646139,-16.711525,61.000595,34.72602,19.653772,-4.260609,6.6518197
159,1.4182668924331665,7.728518009185791,77.21170806884766,0.5435604681448867,-2.6340116337385573,69.94990725508437,-21.162716,21.121675,12.727237,75.05522,-12.2407465,-4.819339,9.055243,-4.2296944,-0.2808887,9.093691,-20.424805,6.1331525,-7.3960247,6.202588,10.157164,-6.702175,14.726167,-42.910023,34.959858,1.2140344,-18.7204,8.482352,-13.084882,-16.97731,60.314926,33.572098,19.650684,-4.294401,6.7988563
160,1.321272373199463,8.064777374267578,77.18807220458984,0.6773080460669061,-2.584601893239042,69.81785774616365,-21.531864,21.17698,12.904587,74.829544,-12.174792,-4.663524,9.375918,-4.5558953,-0.20025408,8.814688,-20.51452,6.361934,-7.4709997,6.164998,10.256255,-6.563284,14.72984,-42.508625,33.909565,1.371222,-18.9899,8.280846,-12.516009,-17.242073,59.671207,32.455845,19.621605,-4.3382826,6.9301844
161,1.2461124658584595,8.42170524597168,77.15823364257812,0.7879985497423241,-2.4855949954791696,69.67849209077059,-21.933691,21.242594,13.07306,74.51435,-12.166183,-4.561916,9.655453,-4.851177,-0.11361479,8.525318,-20.594896,6.5518227,-7.5229297,6.1433277,10.294207,-6.413191,14.748534,-42.16232,32.87187,1.4933671,-19.216024,8.088846,-11.928023,-17.502008,59.080517,31.381104,19.547606,-4.4045734,7.0295844
162,1.208829402923584,8.793001174926758,77.11951446533203,0.878902599431017,-2.35266916529517,69.54557923601404,-22.359245,21.308548,13.226797,74.10802,-12.195348,-4.506068,9.913646,-5.123834,-0.035193577,8.220163,-20.669443,6.7183995,-7.5630093,6.1325603,10.295965,-6.256044,14.783081,-41.8578,31.839083,1.6027915,-19.412888,7.888979,-11.337334,-17.754103,58.535805,30.35126,19.453106,-4.490566,7.103846
163,1.1798959970474243,9.168633460998535,77.07420349121094,0.9613568378984323,-2.2083207603830837,69.4405917191982,-22.797646,21.342335,13.35198,73.61937,-12.230744,-4.470605,10.177224,-5.3920913,0.0099467095,7.9039645,-20.743551,6.876388,-7.6096115,6.1186323,10.291229,-6.1091413,14.835643,-41.583572,30.81326,1.754122,-19.591135,7.710111,-10.736274,-17.997599,58.010677,29.355295,19.334454,-4.5724173,7.1844263
164,1.1409579515457153,9.5493803024292,77.02467346191406,1.0469222810411745,-2.0750565962074843,69.38539215943281,-23.238203,21.31154,13.434595,73.05843,-12.241605,-4.4301214,10.480578,-5.6745505,-0.004688984,7.5669622,-20.819477,7.040851,-7.6761255,6.0873704,10.312849,-5.988436,14.908866,-41.33047,29.791512,2.0059943,-19.7608,7.5821133,-10.158414,-18.233494,57.494625,28.404373,19.227442,-4.627485,7.3037205
165,1.092771053314209,9.936885833740234,76.97030639648438,1.141882714193787,-1.9672137166188435,69.39373492537534,-23.67131,21.198235,13.466498,72.41864,-12.203645,-4.3766418,10.738021,-5.9811797,-0.08768515,7.428514,-21.01529,7.2174287,-7.7745066,6.030177,10.379923,-5.9038434,15.004688,-41.11077,28.774769,2.391797,-19.927912,7.5400214,-9.595325,-18.462543,56.972946,27.491394,19.129492,-4.637915,7.484535
166,1.046482801437378,10.329487800598145,76.91085815429688,1.252075397431201,-1.867910027489525,69.44697478914358,-24.103968,21.013906,13.469179,71.70125,-12.140795,-4.3228693,10.951121,-6.316594,-0.21858415,7.43944,-21.301651,7.4010015,-7.887204,5.942815,10.467918,-5.8423004,15.123865,-40.92643,27.758152,2.8763285,-20.0845,7.5595865,-9.049317,-18.684855,56.45983,26.621431,19.039326,-4.6201673,7.705411
167,0.9929355382919312,10.722916603088379,76.84521484375,1.3572469880189488,-1.7584157732408285,69.52874651441141,-24.549341,20.791426,13.444041,70.917046,-12.089189,-4.277182,11.168669,-6.6487865,-0.37983364,7.4491167,-21.595818,7.5813756,-8.004634,5.8487706,10.550952,-5.787593,15.267192,-40.747826,26.74029,3.4092891,-20.224726,7.5809813,-8.492287,-18.900152,55.96237,25.77733,18.925434,-4.6019206,7.93152
168,0.936001181602478,11.124964714050293,76.771728515625,1.4469125368261202,-1.6183822939260146,69.61940083428335,-25.022038,20.557838,13.40052,70.0815,-12.086737,-4.246632,11.364322,-6.9567504,-0.543591,7.4592586,-21.8968,7.7502894,-8.108655,5.7625203,10.604622,-5.7198744,15.435489,-40.54599,25.711363,3.9467247,-20.342169,7.544129,-7.968246,-19.10784,55.513626,24.983227,18.81918,-4.6118884,8.127828
169,0.8943241834640503,11.537447929382324,76.69139862060547,1.515788765173946,-1.4329008023590424,69.70849304623886,-25.535957,20.324375,13.336545,69.19511,-12.142979,-4.223802,11.518385,-7.231317,-0.69674027,7.4691463,-22.201988,7.904545,-8.194279,5.6909246,10.608726,-5.624076,15.631617,-40.305695,24.661167,4.5472074,-20.420874,7.4276333,-7.485046,-19.305359,55.132168,24.253843,18.719574,-4.660305,8.284641
170,0.8792352080345154,11.965203285217285,76.5975112915039,1.5712685121334353,-1.2161007764985963,69.80766450147297,-26.078407,20.077066,13.24854,68.24981,-12.237659,-4.206582,11.649169,-7.4856734,-0.85579365,7.477384,-22.512527,8.050257,-8.276955,5.624226,10.579101,-5.507908,15.857542,-40.039566,23.593433,5.209388,-20.470053,7.263595,-6.9943266,-19.491362,54.792683,23.562693,18.586718,-4.730934,8.420213
171,0.8132606744766235,12.403619766235352,76.5110092163086,1.6205515297081043,-0.9911397869008322,69.9306000159394,-26.62573,19.804922,13.142232,67.25132,-12.366179,-4.2099843,11.784791,-7.732527,-1.037341,7.484899,-22.830902,8.193895,-8.362137,5.5543375,10.549747,-5.3885117,16.111177,-39.76462,22.518936,5.8036585,-20.52214,7.0730777,-6.5194745,-19.667208,54.48067,22.904285,18.453089,-4.813938,8.541839
172,0.7878904938697815,12.839627265930176,76.40605926513672,1.6681816535308598,-0.7809280521445401,70.09189309596262,-27.152771,19.498007,13.022655,66.20019,-12.521891,-4.2496805,11.954515,-7.978745,-1.2603176,7.4906144,-23.15865,8.341117,-8.45436,5.476644,10.555367,-5.283167,16.387102,-39.497913,21.448952,6.203356,-20.608305,6.8778086,-6.099511,-19.836107,54.185364,22.281557,18.365301,-4.8993425,8.656834
173,0.7206311225891113,13.278020858764648,76.29850006103516,1.717845291478083,-0.5909536957483251,70.30592452268723,-27.65651,19.134314,12.874717,65.07879,-12.700414,-4.350221,12.166915,-8.233808,-1.5390471,7.499934,-23.50409,8.493823,-8.559844,5.387231,10.602353,-5.2061195,16.680395,-39.25194,20.396978,6.329242,-20.743347,6.678609,-5.756394,-20.00068,53.90789,21.706448,18.362381,-4.9911036,8.770623
174,0.6801514029502869,13.716395378112793,76.18270874023438,1.7663217614417295,-0.40935128360526835,70.5610926760522,-28.146542,18.727287,12.702007,63.88992,-12.90527,-4.4951477,12.408745,-8.488426,-1.8630247,7.5066996,-23.861134,8.649683,-8.678779,5.2897773,10.666021,-5.1456423,16.988884,-39.01257,19.364082,6.2611804,-20.907486,6.464693,-5.3630805,-20.162138,53.62105,21.113716,18.326847,-5.090217,8.878757
175,0.6445111036300659,14.172532081604004,76.05838775634766,1.8078906473840737,-0.23313031808075566,70.83284381278861,-28.618753,18.317505,12.537678,62.66785,-13.142357,-4.6399126,12.669834,-8.735289,-2.2050912,7.510846,-24.219048,8.804963,-8.78241,5.1937594,10.755884,-5.102256,17.310507,-38.77551,18.337524,6.114399,-21.078852,6.243503,-5.0757723,-20.32359,53.371346,20.58482,18.357079,-5.1877275,8.972904
176,0.5999915599822998,14.643057823181152,75.92782592773438,1.837667185681201,-0.05904951438576709,71.09679409939366,-29.070345,17.9442,12.415035,61.447075,-13.417479,-4.7410593,12.936883,-8.963753,-2.5395699,7.5156965,-24.568628,8.956226,-8.863219,5.105405,10.865025,-5.0480294,17.643223,-38.51702,17.301163,6.0080843,-21.236788,6.0201197,-4.7832756,-20.486805,53.12975,20.047348,18.326212,-5.2708826,9.044741
177,0.5481614470481873,15.112469673156738,75.79624938964844,1.8470847112979218,0.10748260249663195,71.34733788993194,-29.498892,17.624094,12.336076,60.223255,-13.748268,-4.788589,13.212167,-9.169732,-2.8592424,7.5188656,-24.904129,9.101283,-8.913527,5.035241,11.011054,-5.003564,17.98753,-38.23859,16.261211,5.9153643,-21.389328,5.774229,-4.5710354,-20.655272,52.919106,19.543898,18.27122,-5.32826,9.09307
178,0.48807376623153687,15.579310417175293,75.65521240234375,1.8436215435784025,0.2670148788634855,71.59635823431307,-29.90756,17.332098,12.286636,58.98319,-14.126375,-4.806163,13.499898,-9.361203,-3.177947,7.520449,-25.231577,9.24217,-8.946419,4.9743204,11.185619,-4.965205,18.343294,-37.942963,15.222742,5.7924204,-21.543169,5.508929,-4.362076,-20.82989,52.718704,19.03242,18.156488,-5.3678308,9.121929
179,0.4226922392845154,16.058000564575195,75.50692749023438,1.8403491441787163,0.4316069904869653,71.84771122965334,-30.304075,17.047606,12.270097,57.74881,-14.518207,-4.8019524,13.793553,-9.550438,-3.5013268,7.520856,-25.554298,9.382955,-8.960872,4.9089804,11.362365,-4.9113994,18.707369,-37.63513,14.179436,5.724635,-21.67591,5.269347,-4.1175838,-21.010702,52.520557,18.498072,18.009361,-5.410276,9.130391
180,0.37119820713996887,16.53988265991211,75.35166931152344,1.852735728068367,0.6131539404113954,72.10479416369077,-30.696566,16.748444,12.291394,56.542828,-14.890525,-4.784601,14.092349,-9.750477,-3.8355343,7.5110765,-25.872166,9.5273075,-8.946485,4.825148,11.523181,-4.8426747,19.075296,-37.32888,13.134088,5.792361,-21.766426,5.102533,-3.951143,-21.19796,52.357723,18.018675,17.978258,-5.4786267,9.117034
181,0.3095560371875763,17.0400390625,75.19445037841797,1.8837716300023288,0.815840813109556,72.38945357142734,-31.095892,16.416857,12.336161,55.354603,-15.242191,-4.7535367,14.385882,-9.966368,-4.1964617,7.5229588,-26.210243,9.670689,-8.920948,4.7218347,11.645693,-4.739103,19.442778,-37.021828,12.087959,6.078888,-21.793568,5.0455513,-3.7518444,-21.390657,52.20578,17.535826,18.010153,-5.5749507,9.075959
182,0.25184664130210876,17.55331039428711,75.02788543701172,1.924692312357159,1.0326512119812963,72.69293339095701,-31.493303,16.067875,12.406843,54.174206,-15.586926,-4.7068243,14.689503,-10.191715,-4.577453,7.5259743,-26.54627,9.812255,-8.880883,4.607849,11.745043,-4.6114235,19.807713,-36.710808,11.045339,6.5225043,-21.77441,5.0657277,-3.5115726,-21.589214,52.05882,17.038887,18.061636,-5.6884437,9.01005
183,0.18961960077285767,18.086631774902344,74.85636138916016,1.9763901197733071,1.2586879641768411,72.97285234379251,-31.876286,15.729565,12.533574,53.038395,-15.920291,-4.6509438,14.951651,-10.435068,-4.9365225,7.600106,-26.90483,9.963825,-8.799426,4.4798274,11.848837,-4.47619,20.168713,-36.390842,10.002706,6.9941173,-21.74492,5.103091,-3.3106055,-21.793272,51.92873,16.566944,18.141382,-5.8200583,8.93057
184,0.12600839138031006,18.621746063232422,74.67774963378906,2.0402999982563723,1.4882426642251865,73.18793564592875,-32.2324,15.429813,12.745768,51.98596,-16.233969,-4.5920367,15.159821,-10.706133,-5.237818,7.746829,-27.26725,10.134638,-8.6583,4.332171,11.980725,-4.3496995,20.525188,-36.05194,8.962923,7.359521,-21.742271,5.097692,-3.1356583,-22.000652,51.804314,16.103346,18.18209,-5.9694605,8.848717
185,0.052717987447977066,19.1619873046875,74.49612426757812,2.106440425064871,1.7210375331116485,73.30821770146922,-32.555683,15.195471,13.061688,50.991707,-16.524347,-4.5383706,15.319467,-10.989728,-5.4536405,7.9154377,-27.61605,10.308299,-8.432132,4.1742005,12.163666,-4.2301726,20.875868,-35.67501,7.9171576,7.615914,-21.766039,5.0388923,-3.0218916,-22.209322,51.69289,15.662014,18.173197,-6.1476345,8.755818
186,-0.02219521626830101,19.706634521484375,74.31023406982422,2.17493767770951,1.9593845641117018,73.36311774114459,-32.85762,15.007559,13.458564,50.05086,-16.796675,-4.4855094,15.062091,-11.323811,-5.533057,8.899463,-28.373043,10.476496,-8.141294,4.008324,12.380539,-4.1175895,21.220316,-35.268646,6.875324,7.8180375,-21.800272,4.95678,-2.94809,-22.41818,51.59501,15.238884,18.133165,-6.3510323,8.64922
187,-0.11018268764019012,20.196428298950195,74.1285171508789,2.2542099477944193,2.2027418969542705,73.40280732888084,-33.143898,14.825801,13.9011755,49.215572,-17.055582,-4.4183607,14.777039,-11.692421,-5.596961,9.944854,-29.12235,10.669353,-7.8282638,3.8283336,12.596559,-3.9907868,21.55862,-34.866108,5.830824,7.9472284,-21.858313,4.853813,-2.884267,-22.626177,51.501675,14.8299675,18.09763,-6.5582533,8.549862
188,-0.2038917988538742,20.705720901489258,73.93921661376953,2.3529560992744525,2.450920855626573,73.47692788792637,-33.422634,14.609801,14.354447,48.540077,-17.305832,-4.3225403,14.528739,-12.100226,-5.707944,10.977245,-29.806595,10.91545,-7.5376377,3.6246583,12.774242,-3.8438582,21.891645,-34.502308,4.79036,7.974961,-21.953588,4.7326818,-2.7596676,-22.83248,51.392902,14.405594,18.070385,-6.747435,8.479305
189,-0.2937363088130951,21.251115798950195,73.7409439086914,2.487294806712999,2.7106729610859888,73.5981351409419,-33.70223,14.337278,14.825613,48.030006,-17.534718,-4.204136,14.3278885,-12.566962,-5.911784,11.985712,-30.435871,11.235771,-7.2693744,3.381472,12.89996,-3.6538603,22.219948,-34.186092,3.7239206,7.888132,-22.094393,4.600294,-2.6035686,-23.036415,51.27467,13.982104,18.0937,-6.90369,8.445401
190,-0.37983274459838867,21.85674285888672,73.53807067871094,2.649284550759982,2.9802186881529553,73.74033688550122,-33.97852,14.032491,15.328563,47.662323,-17.745674,-4.067582,14.141993,-13.080802,-6.167509,13.007844,-31.031242,11.6112995,-7.0019884,3.106124,12.996066,-3.4519882,22.544258,-33.903736,2.6530397,7.6927795,-22.271587,4.4533067,-2.4595823,-23.237808,51.157505,13.581135,18.168255,-7.0421457,8.436196
191,-0.4705806374549866,22.481016159057617,73.33346557617188,2.8128208373802113,3.2460860711556703,73.89555461941853,-34.238354,13.72391,15.839382,47.445724,-17.967411,-3.8957314,13.983315,-13.603656,-6.4103084,14.028159,-31.552692,12.012767,-6.74583,2.8218534,13.073726,-3.2329001,22.863033,-33.64839,1.5992672,7.435955,-22.470942,4.2783647,-2.2407057,-23.43674,51.016678,13.158488,18.211702,-7.1846867,8.443998
192,-0.5586793422698975,23.10907745361328,73.12543487548828,2.951969995912858,3.495361469121601,74.05520411358931,-34.46642,13.437971,16.335167,47.386383,-18.227917,-3.6711013,13.855135,-14.095034,-6.572675,15.046182,-31.963095,12.409777,-6.50246,2.5533795,13.149369,-3.008683,23.173222,-33.421783,0.5916257,7.161154,-22.678427,4.063723,-1.9656086,-23.634974,50.850445,12.733782,18.225641,-7.3544955,8.460958
193,-0.6564015746116638,23.760417938232422,72.92029571533203,3.058291403714776,3.707213906464441,74.21388969469646,-34.62171,13.20669,16.868473,47.48104,-18.580751,-3.4321082,13.800269,-14.536757,-6.636474,16.019133,-32.25679,12.791156,-6.2621684,2.3123896,13.252444,-2.7729647,23.472672,-33.226448,-0.38995853,6.9095516,-22.883713,3.8343165,-1.7465062,-23.835087,50.693058,12.371778,18.283554,-7.5632467,8.486915
194,-0.7518892288208008,24.42876434326172,72.71633911132812,3.147542174298126,3.8949182857220572,74.37681166170674,-34.72312,13.005782,17.432064,47.728203,-18.996857,-3.1728303,13.807892,-14.948273,-6.640843,16.953156,-32.44973,13.176945,-6.0335307,2.081552,13.360368,-2.5309055,23.76096,-33.057213,-1.3377674,6.6406684,-23.09639,3.5857513,-1.448246,-24.036865,50.513756,11.986298,18.291433,-7.7955146,8.52524
195,-0.8632832169532776,25.116724014282227,72.51612091064453,3.2312681235833822,4.096965312256702,74.55149785061914,-34.84937,12.781171,17.912485,48.14285,-19.383,-2.8083653,13.79738,-15.349922,-6.600603,17.925934,-32.543133,13.581717,-5.8170815,1.8484005,13.429834,-2.2853246,24.035875,-32.922283,-2.2278652,6.30884,-23.331373,3.2646353,-1.1111302,-24.239868,50.29982,11.61204,18.307335,-8.038974,8.572808
196,-0.9721673727035522,25.82959747314453,72.31438446044922,3.3207672247333075,4.3514891945945475,74.74568840443519,-35.080456,12.479361,18.19824,48.73915,-19.644753,-2.2528026,13.689578,-15.7640705,-6.5283527,19.010942,-32.5328,14.018532,-5.6194787,1.5985788,13.413538,-2.047266,24.294065,-32.826435,-3.0224104,5.860216,-23.602776,2.8161485,-0.7010498,-24.442728,50.02217,11.240656,18.328493,-8.280427,8.626952
197,-1.0810343027114868,26.56451416015625,72.12547302246094,3.4091529123754207,4.674748940291487,74.95989468186859,-35.489704,12.067025,18.183498,49.616837,-19.672026,-1.3167031,13.506765,-16.184408,-6.4380198,20.124695,-32.42974,14.533299,-5.444431,1.3440102,13.285465,-1.7617135,24.529531,-32.75987,-3.7577684,5.224646,-23.936152,2.1456325,-0.1040348,-24.64174,49.65163,10.815427,18.30714,-8.523214,8.708642
198,-1.197585940361023,27.310487747192383,71.9410629272461,3.4750883872274865,5.046339504224866,75.18721733318,-36.026608,11.599328,17.949736,50.741997,-19.537428,-0.10638763,13.281682,-16.55216,-6.285626,21.23647,-32.21849,15.000033,-5.2704887,1.1068046,13.087073,-1.5022776,24.74162,-32.74242,-4.401908,4.4265895,-24.30999,1.3063943,0.3513617,-24.84132,49.27266,10.532353,18.470734,-8.775553,8.812561
199,-1.3135457038879395,28.085655212402344,71.7524185180664,3.4675639945234913,5.455307987490701,75.41521615402894,-36.616615,11.208362,17.621294,51.972595,-19.442316,1.0103685,12.930479,-16.72856,-5.937062,22.506489,-31.856434,15.000033,-5.1039653,0.92387503,12.825641,-1.2586907,24.930567,-32.767296,-4.94207,3.6367102,-24.67088,0.46105403,0.97442037,-25.03677,48.80686,10.1738205,18.516981,-9.019373,8.89582
200,-1.4262664318084717,28.87472152709961,71.55929565429688,3.515347536489859,5.867796286067731,75.66613665125713,-37.0677,10.814976,17.459618,53.03347,-19.558422,1.7175018,12.3837805,-16.998138,-5.550374,24.214014,-31.373278,15.000033,-4.9550204,0.660097,12.529559,-1.0655671,25.10119,-32.85594,-5.3517838,3.0250707,-24.973251,-0.21886608,1.6848731,-25.22775,48.259003,9.764397,18.44748,-9.241225,8.916006
201,-1.5406346321105957,29.68372917175293,71.3719253540039,3.6240888389010015,6.310082890387729,75.93789258062122,-37.376945,10.468569,17.51952,53.901978,-19.956772,1.8144294,11.646487,-17.353682,-5.103394,26.316135,-30.836985,15.000033,-4.815042,0.3068126,12.166846,-0.96838266,25.257078,-33.031918,-5.5764546,2.6041024,-25.208635,-0.6929728,2.4666512,-25.413347,47.61973,9.318611,18.257944,-9.421351,8.869843
202,-1.6620672941207886,30.50467300415039,71.19386291503906,3.777979184172136,6.784172069692524,76.22963426497574,-37.603584,10.145681,17.696049,54.68727,-20.53282,1.5220498,10.751875,-17.76829,-4.602202,28.720615,-30.221558,15.000033,-4.6831584,-0.11374527,11.733432,-0.87004346,25.396984,-33.278183,-5.7039647,2.3341317,-25.405155,-1.0470502,3.3593578,-25.58976,46.88409,8.821849,17.957344,-9.573514,8.778271
203,-1.7949918508529663,31.34227752685547,71.0256576538086,3.9947728715168873,7.236407691547876,76.54404158609361,-37.71625,9.764927,17.936008,55.38654,-21.22272,1.1325992,9.677492,-18.277853,-4.0692945,31.526897,-29.359402,15.000033,-4.5765047,-0.6134246,11.303444,-0.8060427,25.524887,-33.559643,-5.7465186,2.1909049,-25.578766,-1.2947749,4.3183465,-25.755175,46.087852,8.271011,17.586123,-9.728833,8.63031
204,-1.9272817373275757,32.18254089355469,70.85692596435547,4.290869823722902,7.614117900574113,76.88199994157164,-37.68536,9.234509,18.188486,55.986057,-21.964443,0.9366526,8.40392,-18.916359,-3.5035977,34.822414,-28.07035,15.000033,-4.512887,-1.2087606,10.950158,-0.8130549,25.648018,-33.837685,-5.7162557,2.14456,-25.744686,-1.450956,5.3094463,-25.908764,45.266342,7.6632156,17.171892,-9.923263,8.415987
205,-2.064237594604492,33.036319732666016,70.694091796875,4.699821674272439,7.9141149379124585,77.24508163968676,-37.507492,8.49123,18.459414,56.471436,-22.783945,1.0208033,6.898906,-19.705338,-2.8429253,38.713787,-26.16268,15.000033,-4.4910336,-1.9393619,10.664779,-0.7888064,25.771044,-34.109337,-5.6692266,2.2797256,-25.892733,-1.4960276,6.3479686,-26.04838,44.411648,6.997572,16.69783,-10.168658,8.118027
206,-2.2034904956817627,33.90897750854492,70.55109405517578,5.208037724724796,8.16220506586269,77.6316800916838,-37.201534,7.580229,18.770596,56.83862,-23.69332,1.2262964,5.1947613,-20.58492,-2.0204437,43.06326,-23.740583,15.000033,-4.5097065,-2.7951233,10.419921,-0.83254015,25.898724,-34.39316,-5.5199184,2.530745,-26.02047,-1.4282593,7.4368906,-26.172478,43.517204,6.275456,16.15398,-10.443954,7.7447057
207,-2.3113441467285156,34.789268493652344,70.42887115478516,5.561652515498924,8.369195080114928,78.00184550525461,-36.880505,6.8013163,18.923979,57.239002,-24.672066,1.4244977,3.3568609,-21.129784,-1.1168431,47.538532,-21.013716,14.1369705,-4.535009,-3.5176132,10.245762,-0.9067607,26.029026,-34.660664,-5.373287,2.8504357,-26.150646,-1.2912681,8.525966,-26.282724,42.61187,5.5088215,15.590821,-10.734108,7.326198
208,-2.414628744125366,35.66218185424805,70.32633209228516,5.831950847757736,8.512324512393334,78.37165303549976,-36.474598,6.0935397,18.997097,57.591133,-25.615068,1.5683823,1.4643369,-21.551664,-0.26148516,51.9635,-18.296265,12.952271,-4.5904837,-4.157416,10.174655,-1.0045376,26.161886,-34.879196,-5.3054094,3.1745267,-26.307,-1.1332506,9.56862,-26.381084,41.731155,4.704184,15.058237,-11.024417,6.890257
209,-2.5236024856567383,36.541282653808594,70.24259948730469,6.066154673634955,8.556729733631826,78.76446400787054,-35.912155,5.392363,19.018385,57.831074,-26.49468,1.6587753,-0.49747145,-21.94626,0.56589437,56.438507,-15.399579,11.585156,-4.698106,-4.75978,10.247521,-1.1357694,26.296778,-35.039658,-5.3099337,3.5625308,-26.502281,-0.95426893,10.567335,-26.469055,40.869556,3.8624957,14.532921,-11.329994,6.4007697
210,-2.6526148319244385,37.41870880126953,70.17823028564453,6.273220076240511,8.517335385601621,79.17513008329531,-35.21106,4.677708,18.993788,57.96999,-27.350225,1.7332029,-2.5621538,-22.342209,1.3593726,61.040077,-12.250069,9.9900875,-4.8494563,-5.3445663,10.435476,-1.2980782,26.434315,-35.156815,-5.3567677,4.0254364,-26.72092,-0.73317814,11.535623,-26.547806,40.01711,2.9843643,14.004185,-11.651109,5.855968
211,-2.7829091548919678,38.3050537109375,70.11869049072266,6.4543214165067955,8.448306723734165,79.57533711855177,-34.449375,3.986266,18.942074,58.054344,-28.180374,1.7918392,-4.6761813,-22.752771,2.0626855,65.55677,-9.350366,8.2908535,-5.0240526,-5.9043503,10.667627,-1.4778203,26.579048,-35.23204,-5.477341,4.4160337,-26.944681,-0.48683068,12.456195,-26.616678,39.20327,2.0665061,13.5328665,-11.954132,5.3364735
212,-2.893803358078003,39.17026138305664,70.05680084228516,6.61078635117847,8.40364744088646,79.93707033779519,-33.70491,3.3530903,18.885939,58.1298,-28.983397,1.8342946,-6.787682,-23.16933,2.6548321,69.8094,-7.2347274,6.6281123,-5.2060094,-6.4328995,10.874532,-1.6719009,26.739632,-35.264946,-5.695484,4.5773473,-27.156958,-0.23393776,13.296747,-26.674402,38.46443,1.1173667,13.188572,-12.208006,4.9237213
213,-2.97994327545166,40.01150894165039,69.9952621459961,6.754688391778976,8.38806791354122,80.24169744626471,-32.98651,2.779621,18.850494,58.208878,-29.760847,1.8591233,-8.917798,-23.596853,3.1961563,73.86654,-6.1430306,4.9346952,-5.391107,-6.948601,11.051552,-1.8710028,26.927864,-35.249332,-6.037356,4.391385,-27.361242,0.02443945,14.044976,-26.720972,37.812378,0.1283392,12.99849,-12.404449,4.6520963
214,-3.0677363872528076,40.8574104309082,69.92906188964844,6.88569982801249,8.375597107194343,80.51038555570312,-32.26002,2.2496321,18.818975,58.27044,-30.511488,1.8669124,-11.087977,-24.020796,3.717227,77.835396,-5.7977934,3.1728156,-5.592982,-7.4535246,11.23213,-2.0582275,27.148924,-35.181717,-6.5063977,3.970664,-27.565458,0.29519156,14.715283,-26.757011,37.232285,-0.8973236,12.92401,-12.563069,4.4754825
215,-3.150682210922241,41.70269775390625,69.86801147460938,6.976158393380631,8.375387972225292,80.77121470405422,-31.537926,1.7721207,18.75292,58.3112,-31.232927,1.859333,-13.237774,-24.379711,4.16989,81.60092,-5.963648,1.5681007,-5.8210034,-7.9121804,11.404922,-2.2439134,27.39835,-35.068443,-7.070435,3.4907782,-27.76012,0.57173777,15.317631,-26.781504,36.720463,-1.9348743,12.933413,-12.69583,4.3547378
216,-3.2350223064422607,42.56193161010742,69.8260269165039,6.995401406669785,8.396832014837598,81.04996076037514,-30.828276,1.3632152,18.614794,58.327217,-31.925098,1.8381803,-15.299778,-24.615051,4.4843807,85.03426,-6.390646,0.3474576,-6.081269,-8.285702,11.555945,-2.4084103,27.663332,-34.914337,-7.715691,3.148664,-27.933887,0.8480944,15.863076,-26.791332,36.27337,-2.9562094,12.994729,-12.814266,4.2505207
217,-3.3076062202453613,43.42793655395508,69.79644775390625,6.926023156388772,8.442811773208051,81.35234469961634,-30.14278,1.0436367,18.39101,58.341034,-32.60343,1.8052768,-17.222134,-24.668833,4.6367764,88.11775,-7.205957,-0.26202548,-6.380256,-8.55374,11.675503,-2.5900905,27.938276,-34.72197,-8.407979,2.9463382,-28.078009,1.115405,16.347855,-26.785217,35.90174,-3.9575987,13.14193,-12.911863,4.169518
218,-3.3550448417663574,44.27473449707031,69.77388000488281,6.783168138487921,8.509731472030634,81.66232303025309,-29.47335,0.80595577,18.105803,58.350624,-33.26637,1.7585859,-19.04173,-24.56694,4.652491,90.93643,-8.482788,-0.40902224,-6.710396,-8.735836,11.770702,-2.7873333,28.221422,-34.491405,-9.153404,2.7998066,-28.201262,1.3792524,16.767761,-26.763376,35.60488,-4.946132,13.3772135,-12.985853,4.1274066
219,-3.4033119678497314,45.13508605957031,69.7735366821289,6.592362002544626,8.596445204204791,81.97653979360577,-28.79961,0.61847216,17.77697,58.310932,-33.88308,1.6952608,-20.828474,-24.403193,4.5294175,93.5015,-9.877383,-0.4388011,-7.0596733,-8.856823,11.852953,-2.9742506,28.502085,-34.22948,-9.958509,2.7496688,-28.313477,1.656278,17.129864,-26.726597,35.360035,-5.9061365,13.619295,-13.053003,4.0989904
220,-3.4448108673095703,46.013919830322266,69.7956771850586,6.379021085878991,8.701026782570496,82.29225958533645,-28.100994,0.44597265,17.42081,58.177002,-34.42255,1.6138293,-22.654594,-24.263367,4.277587,95.81085,-11.038211,-0.6958582,-7.4160013,-8.940465,11.934537,-3.1505177,28.762491,-33.946568,-10.802833,2.8273232,-28.425535,1.9640445,17.442179,-26.6743,35.143856,-6.8254437,13.788752,-13.129968,4.058356
221,-3.4928393363952637,46.90168380737305,69.83670806884766,6.138771937212776,8.829394457205938,82.61998828928495,-27.38613,0.28310895,17.020819,57.949024,-34.886215,1.5068231,-24.555227,-24.159756,3.889937,97.86817,-11.833592,-1.2593275,-7.786102,-8.976291,12.00804,-3.3171947,28.985197,-33.644615,-11.6824255,3.1355412,-28.539745,2.3304667,17.702965,-26.607906,34.95972,-7.6875825,13.878749,-13.232866,3.996124
222,-3.547459840774536,47.797786712646484,69.90078735351562,5.863655463282544,8.979941997716184,82.95795395273089,-26.659748,0.14697102,16.575775,57.648113,-35.289967,1.3787382,-26.48632,-24.058422,3.3602319,99.66341,-12.453064,-1.9483551,-8.171219,-8.953872,12.069914,-3.5036473,29.162748,-33.32669,-12.571217,3.6233695,-28.648626,2.7385426,17.912052,-26.528257,34.81462,-8.502221,13.92728,-13.348552,3.9264882
223,-3.5968596935272217,48.697513580322266,69.9822998046875,5.5696616760082645,9.138755114654051,83.2851211769337,-25.895014,0.037688877,16.12427,57.258762,-35.618458,1.245142,-28.405506,-23.972324,2.7106218,101.17445,-13.023249,-2.7152534,-8.547219,-8.898994,12.136148,-3.7076058,29.293219,-33.003887,-13.45689,4.116152,-28.748951,3.138181,18.083965,-26.434914,34.685543,-9.291742,13.918109,-13.449803,3.860681
224,-3.6489710807800293,49.601070404052734,70.09017181396484,5.274064026611311,9.291632543346648,83.58039125067876,-25.066105,-0.044706184,15.705026,56.76604,-35.8571,1.1192408,-30.268993,-23.91027,1.9623479,102.37892,-13.675348,-3.5135028,-8.888769,-8.836734,12.2230625,-3.9201083,29.378664,-32.687756,-14.334022,4.440735,-28.840172,3.4792447,18.231342,-26.325361,34.549015,-10.079881,13.837964,-13.509997,3.8099823
225,-3.69380521774292,50.51406478881836,70.21788024902344,4.977697798117526,9.433335490833075,83.83159683953242,-24.16583,-0.09150948,15.329682,56.172264,-36.01148,1.0072764,-32.089935,-23.875156,1.1157596,103.28171,-14.476341,-4.3818026,-9.181166,-8.774856,12.340716,-4.143771,29.417664,-32.361427,-15.213706,4.533572,-28.928476,3.7043746,18.353678,-26.194794,34.39547,-10.868533,13.656992,-13.513598,3.7849367
226,-3.7329885959625244,51.432334899902344,70.3684310913086,4.671239686672733,9.571211358869332,84.0522363662834,-23.20842,-0.10465067,14.976153,55.483948,-36.086514,0.8996856,-33.878254,-23.854687,0.15688606,103.88698,-15.345093,-5.3194456,-9.439789,-8.698614,12.478939,-4.386439,29.408648,-32.02819,-16.089235,4.491625,-29.013887,3.8547387,18.445091,-26.041553,34.2385,-11.644292,13.389862,-13.4779625,3.777541
227,-3.772019863128662,52.358882904052734,70.54017639160156,4.355073807466652,9.710038862599346,84.2599655257696,-22.2023,-0.09429764,14.629658,54.697083,-36.069115,0.7876507,-35.588062,-23.83342,-0.9046932,104.17158,-16.186058,-6.208023,-9.682713,-8.601189,12.622514,-4.6342745,29.35673,-31.730244,-16.94584,4.3878627,-29.088247,4.0281687,18.51171,-25.871086,34.08637,-12.406276,13.0899725,-13.424332,3.7721567
228,-3.8076744079589844,53.29658889770508,70.73387908935547,4.029920010845614,9.85524731621602,84.47228552921378,-21.155598,-0.07299808,14.275916,53.8067,-35.946938,0.66259605,-37.17581,-23.7982,-2.0610933,104.11267,-16.902498,-6.9350233,-9.928299,-8.47676,12.758902,-4.902545,29.271542,-31.511192,-17.749449,4.2782817,-29.14308,4.324078,18.566187,-25.693735,33.944748,-13.163892,12.809327,-13.373831,3.752994
229,-3.850713014602661,54.245906829833984,70.94763946533203,3.6992540378444985,10.007219634426333,84.6947411337497,-20.07,-0.04537177,13.912056,52.81498,-35.72808,0.52842927,-38.643154,-23.788504,-3.3463373,103.70245,-17.480066,-7.490861,-10.174095,-8.328832,12.892195,-5.187361,29.156628,-31.378641,-18.516674,4.139666,-29.179222,4.782423,18.624678,-25.51567,33.803555,-13.942607,12.562212,-13.332206,3.7066197
230,-3.8826115131378174,55.20994567871094,71.18258666992188,3.3595228576250817,10.16411659381463,84.91735613453618,-18.942244,-0.0024271177,13.544856,51.724808,-35.415718,0.38696703,-40.003048,-23.795885,-4.758977,102.950264,-17.966816,-7.9251046,-10.412263,-8.157929,13.029251,-5.483704,29.0121,-31.310822,-19.26097,3.95175,-29.200888,5.3474793,18.683964,-25.339375,33.660175,-14.741709,12.321607,-13.287685,3.6449456
231,-3.914407253265381,56.19180679321289,71.43335723876953,3.006572738509745,10.327488121526397,85.13480782975161,-17.772532,0.06366584,13.174453,50.530792,-34.992374,0.22649029,-41.236393,-23.741419,-6.232676,101.85996,-18.35792,-8.216733,-10.654678,-7.9529223,13.162181,-5.775177,28.844967,-31.301865,-19.969408,3.7858396,-29.203613,5.9743977,18.727835,-25.169415,33.53217,-15.534823,12.081121,-13.235794,3.5892754
232,-3.9507973194122314,57.18504333496094,71.70695495605469,2.6345031726047226,10.499112335961529,85.34174665825228,-16.55939,0.15862155,12.801635,49.223263,-34.436882,0.03610691,-42.330917,-23.544369,-7.695578,100.43372,-18.646065,-8.347802,-10.9135065,-7.705222,13.283314,-6.0360756,28.66705,-31.343529,-20.63946,3.7156453,-29.181326,6.6183605,18.743296,-25.012417,33.43706,-16.298998,11.831183,-13.170788,3.5609827
233,-3.985490560531616,58.19525146484375,71.99613189697266,2.2395077815333875,10.67866938229733,85.54371006065628,-15.29345,0.28759792,12.421072,47.777187,-33.760048,-0.20231019,-43.281487,-23.206038,-9.158045,98.64661,-18.833397,-8.29028,-11.204784,-7.408901,13.397804,-6.2616806,28.489626,-31.429977,-21.28501,3.799838,-29.131998,7.3398542,18.723816,-24.87298,33.382225,-17.040989,11.554185,-13.089145,3.562627
234,-4.01627779006958,59.23125076293945,72.30148315429688,1.824611673322595,10.866220931886543,85.74092535919094,-13.977647,0.4442822,12.034988,46.201977,-32.967777,-0.47756195,-44.101677,-22.761793,-10.643227,96.50031,-18.924118,-8.067793,-11.5217085,-7.073211,13.5103245,-6.4406967,28.317478,-31.55773,-21.928648,3.9880068,-29.056015,8.138801,18.679644,-24.753033,33.359497,-17.776592,11.259698,-12.994641,3.5833037
235,-4.050396919250488,60.28080749511719,72.62580108642578,1.405688832614376,11.062695946966093,85.92126939438972,-12.635563,0.61576277,11.655138,44.55211,-32.03022,-0.7568132,-44.816666,-22.19062,-12.069038,94.03587,-18.91093,-7.723168,-11.844084,-6.7112694,13.614308,-6.5808396,28.152683,-31.721268,-22.551409,4.166005,-28.952272,8.879331,18.612127,-24.65336,33.364456,-18.491177,10.987682,-12.896182,3.623723
236,-4.08991813659668,61.354644775390625,72.96749114990234,0.9973375943704621,11.268326887457967,86.07282002492043,-11.290665,0.78847575,11.293846,42.882862,-30.921268,-1.0094619,-45.450005,-21.478159,-13.353948,91.29385,-18.791563,-7.3062615,-12.150647,-6.33743,13.701722,-6.6722198,27.99482,-31.917595,-23.142658,4.2333694,-28.822792,9.42606,18.522524,-24.575119,33.39147,-19.16652,10.776207,-12.802918,3.6849372
237,-4.131775856018066,62.4453010559082,73.31673431396484,0.5956414566251533,11.48288272252706,86.19302904518301,-9.915316,0.9551366,10.941425,41.142117,-29.644077,-1.2366141,-46.017456,-20.611925,-14.463212,88.26908,-18.5548,-6.832858,-12.436598,-5.9447074,13.773036,-6.7199063,27.843523,-32.157745,-23.704723,4.1332593,-28.678833,9.759367,18.417141,-24.520407,33.44009,-19.810226,10.662084,-12.719951,3.7776294
238,-4.1788434982299805,63.551849365234375,73.67462158203125,0.19837556402883577,11.704941427119417,86.28897749381164,-8.510161,1.119676,10.594848,39.326485,-28.211712,-1.4517177,-46.502537,-19.615873,-15.429479,84.93915,-18.213318,-6.2912583,-12.713506,-5.531293,13.832375,-6.7227054,27.69932,-32.439682,-24.24423,3.932781,-28.51754,9.94682,18.295845,-24.490011,33.51225,-20.431517,10.615458,-12.641453,3.897272
239,-4.21776819229126,64.6776123046875,74.03996276855469,-0.1776943253239761,11.933292365429496,86.36296212370377,-7.137157,1.2789662,10.274856,37.55516,-26.604975,-1.6400164,-46.881283,-18.523788,-16.2649,81.31313,-17.792059,-5.681797,-12.9859085,-5.1180673,13.8768425,-6.674971,27.562801,-32.7397,-24.748674,3.709927,-28.32113,9.983867,18.144367,-24.48103,33.608185,-21.009163,10.577717,-12.560123,4.021374
240,-4.261683940887451,65.82797241210938,74.40628051757812,-0.518077677991759,12.166601053379646,86.41720226421671,-5.8599586,1.4289267,10.002928,35.948647,-24.803253,-1.7852484,-47.128315,-17.367725,-16.98366,77.390915,-17.313307,-5.004855,-13.259323,-4.7262044,13.902962,-6.557423,27.434528,-33.03272,-25.217041,3.549437,-28.071121,9.8653965,17.95028,-24.487007,33.730534,-21.524282,10.486763,-12.469066,4.1273036
241,-4.308907508850098,66.99092864990234,74.77717590332031,-0.8249151245913221,12.415694766231411,86.43795463755103,-4.694001,1.5666761,9.779172,34.51554,-22.794819,-1.8688033,-47.250828,-16.11425,-17.550768,73.10181,-16.760445,-4.2564373,-13.531252,-4.3520856,13.90281,-6.3664117,27.31644,-33.309288,-25.653334,3.466333,-27.736515,9.559528,17.693539,-24.504524,33.88558,-21.96509,10.312279,-12.365728,4.1983676
