unveil-humanoid-operators/unveil-humanoid-operators.github.io/feature-analysis-animation/data/feature_matrix_instances/age_waist_mean_vel_jogging_A085_jog_ff_stop_180_R_006__A085.csv
Frame,root_translateX,root_translateY,root_translateZ,root_rotateX,root_rotateY,root_rotateZ,left_hip_pitch_joint_dof,left_hip_roll_joint_dof,left_hip_yaw_joint_dof,left_knee_joint_dof,left_ankle_pitch_joint_dof,left_ankle_roll_joint_dof,right_hip_pitch_joint_dof,right_hip_roll_joint_dof,right_hip_yaw_joint_dof,right_knee_joint_dof,right_ankle_pitch_joint_dof,right_ankle_roll_joint_dof,waist_yaw_joint_dof,waist_roll_joint_dof,waist_pitch_joint_dof,left_shoulder_pitch_joint_dof,left_shoulder_roll_joint_dof,left_shoulder_yaw_joint_dof,left_elbow_joint_dof,left_wrist_roll_joint_dof,left_wrist_pitch_joint_dof,left_wrist_yaw_joint_dof,right_shoulder_pitch_joint_dof,right_shoulder_roll_joint_dof,right_shoulder_yaw_joint_dof,right_elbow_joint_dof,right_wrist_roll_joint_dof,right_wrist_pitch_joint_dof,right_wrist_yaw_joint_dof
0,0.06339770555496216,-1.2540141344070435,80.2590560913086,-2.4433768492390953,8.674825304248047,80.84527786887892,-23.025776,4.742252,8.973908,6.8956776,-13.826111,-4.8727503,15.249648,4.2454333,5.9841847,14.779858,11.461287,4.7290955,21.675222,1.7737364,4.849637,42.068607,30.707495,-16.72293,-15.681373,-14.352429,-5.4841104,-3.0071278,-4.552823,-23.371037,35.290485,-19.49574,-5.0441537,2.2963471,0.0018871966
1,0.06736491620540619,0.2704564034938812,80.16426849365234,-2.474393616969,8.427033795094902,81.05128709932428,-23.341526,4.628148,9.117732,6.894509,-14.290923,-5.389222,15.617825,4.3317294,6.3009095,16.533789,11.816238,5.2676516,21.702902,1.8356268,5.120248,41.91694,30.871723,-16.437174,-15.511953,-14.489656,-5.445354,-2.9876034,-3.8255584,-23.48669,35.003036,-19.974993,-3.862817,1.5341532,0.20122048
2,0.07108385115861893,1.787042260169983,80.0199966430664,-2.537188901896331,8.182013385743723,81.23977646423192,-23.700253,4.539098,9.309303,6.891031,-14.783254,-5.963535,16.008377,4.4428124,6.6775775,18.241074,12.169339,5.7550635,21.738808,1.9134759,5.365037,41.84337,31.026546,-16.112986,-15.391834,-14.648493,-5.4069123,-2.9590378,-3.1386292,-23.56319,34.744514,-20.438808,-2.662889,0.7696683,0.4610513
3,0.08934157341718674,3.294004440307617,79.82579803466797,-2.5766060469673215,7.915613674091973,81.47713586564934,-23.937078,4.3752036,9.406075,6.8954964,-15.158822,-6.4902997,16.391895,4.517466,6.922752,19.999943,12.553852,6.313445,21.690392,1.9969662,5.6410685,41.680088,31.15817,-15.814971,-15.18637,-14.753174,-5.365675,-2.959401,-2.4980297,-23.590872,34.507416,-20.765713,-1.5113099,0.020848913,0.6495763
4,0.12329452484846115,4.769485950469971,79.5938720703125,-2.5241531058674713,7.603273944568369,81.8342846488466,-23.879116,4.044715,9.256632,6.895848,-15.2797575,-6.840766,16.73112,4.480578,6.8411303,21.931107,12.990721,7.0628357,21.461285,2.0514076,6.0202913,41.288418,31.287039,-15.575167,-14.800904,-14.745499,-5.3179927,-3.0356474,-1.896476,-23.575949,34.27548,-20.862803,-0.4706856,-0.7033408,0.632365
5,0.15963925421237946,6.221864223480225,79.32039642333984,-2.43601743846379,7.212370060036346,82.33221807826489,-23.46871,3.5905087,8.688472,6.8900967,-15.272759,-7.10182,17.10861,4.4272275,6.407832,23.962528,13.582062,8.104818,21.067543,2.1093576,6.525737,40.723125,31.505404,-15.373599,-14.350509,-14.595893,-5.2557154,-3.1989985,-1.2462671,-23.50299,33.97573,-20.784521,0.47498968,-1.4427687,0.39463246
6,0.1982494443655014,7.6621904373168945,78.99638366699219,-2.3242092382950927,6.763597993865552,82.93443603948175,-22.803055,3.042341,7.8178134,6.878571,-15.168685,-7.2953324,17.491243,4.3541923,5.718626,26.11801,14.264936,9.339143,20.534452,2.1805995,7.1048226,39.978962,31.76748,-15.236177,-13.777322,-14.356348,-5.1938157,-3.4148602,-0.6195101,-23.377869,33.674725,-20.504688,1.3531865,-2.1984143,-0.02249506
7,0.2486744225025177,9.09748649597168,78.6311264038086,-2.0515934936632694,6.307867036230668,83.6196901599255,-21.946081,2.2930646,6.922751,6.856829,-14.683738,-7.202727,17.70389,4.0311275,4.7651334,28.599092,14.840868,10.581798,19.939695,2.0960774,7.7662516,39.04458,32.126064,-15.195905,-13.080287,-14.088518,-5.123316,-3.6576633,0.007835357,-23.169401,33.295982,-20.045372,2.0564013,-2.8932061,-0.5603683
8,0.3107254207134247,10.537238121032715,78.267822265625,-1.4465221576649487,5.898910083012393,84.36323079562254,-20.953402,1.2020569,6.2942395,6.7812567,-13.499995,-6.6109486,17.600725,3.1854136,3.5447774,31.543322,15.140243,11.666104,19.23646,1.7112409,8.524863,37.87528,32.428116,-15.243777,-12.151404,-13.808667,-5.041909,-3.931275,0.5771589,-22.957602,32.927246,-19.429583,2.5114527,-3.444055,-1.2219725
9,0.31291499733924866,11.926996231079102,78.02059173583984,-0.2902862015138121,5.523606992212616,85.18203919261596,-19.839556,-0.46933845,6.083221,6.765512,-11.177317,-5.2748137,17.187584,1.5094876,1.9547417,35.066,15.196875,12.663094,18.542583,0.78924465,9.438791,36.349648,32.82876,-15.493476,-10.95785,-13.532851,-4.952368,-4.2061334,1.1476794,-22.623434,32.40787,-18.626562,2.5877805,-3.8077564,-1.991221
10,0.34931424260139465,13.329174995422363,77.6908950805664,1.32219985932005,5.176286893190927,86.05967083171528,-18.66576,-2.676038,6.1620917,6.843383,-7.9907837,-3.414611,16.568851,-0.8604094,0.10881096,39.082058,15.042427,13.661893,17.922792,-0.6233032,10.429981,34.459934,33.446518,-15.983786,-9.512192,-13.310026,-4.859007,-4.4596725,1.657918,-22.011797,31.724796,-17.48232,2.3339677,-4.0268035,-2.8622181
11,0.38043034076690674,14.713180541992188,77.29208374023438,3.0651896646658767,4.766572416696469,86.90408049129194,-17.419731,-5.0368695,6.3630257,6.9724607,-4.7934732,-1.4978149,15.958314,-3.4899023,-1.6894675,43.206028,14.663498,14.492351,17.255732,-2.1766958,11.515677,32.464855,34.00886,-16.46532,-7.93379,-13.118642,-4.746702,-4.742373,2.03579,-21.34524,31.11403,-16.107615,1.9831679,-4.158414,-3.8285956
12,0.37891584634780884,16.0472469329834,76.86409759521484,4.52927945656894,4.256969599915934,87.6347359474914,-17.904985,-6.8441215,6.6376796,10.973473,-4.5077257,0.0423766,15.432879,-5.851636,-3.2111826,47.167286,13.977623,14.940946,16.668373,-3.478836,12.595731,30.495813,34.513515,-16.965303,-6.313276,-12.976579,-4.60881,-5.0032907,2.305158,-20.633657,30.531958,-14.486441,1.7119472,-4.2654066,-4.8087106
13,0.3707953095436096,17.386064529418945,76.4049072265625,5.655595857626873,3.616901247435897,88.25227654325212,-18.74902,-8.179072,6.8310447,16.062477,-5.899168,1.202434,14.9912,-7.9041924,-4.461696,51.036,12.896635,14.94404,16.155298,-4.4544125,13.7169895,28.443342,34.976913,-17.492743,-4.5305905,-13.112388,-4.5209265,-5.34211,2.4639847,-19.880852,29.954487,-12.609988,1.577599,-4.4566207,-5.824821
14,0.4224812686443329,18.741744995117188,75.92655181884766,6.575484844909195,2.8820619625214605,88.78998686654654,-19.438326,-9.263591,6.940547,21.172033,-7.9435897,2.2106671,14.575283,-9.825363,-5.560678,54.91932,11.474739,14.588971,15.676519,-5.233365,14.896823,26.071556,35.42222,-18.10874,-2.4161448,-13.532204,-4.4607687,-5.735996,2.5196555,-19.09358,29.378595,-10.504199,1.4768628,-4.667921,-6.8985023
15,0.4911309480667114,20.112211227416992,75.46601867675781,7.274971957207243,2.1468617786278243,89.25093992559165,-19.899385,-10.0913725,6.951757,25.947517,-10.320827,3.0370324,14.076755,-11.531866,-6.4820366,58.726482,9.758112,13.913424,15.260961,-5.8413124,16.013422,23.717066,35.812366,-18.762798,-0.31920257,-13.763356,-4.2740417,-5.9669304,2.5132294,-18.290937,28.809128,-8.2145815,1.3600391,-4.714179,-7.9625874
16,0.5300531387329102,21.4664363861084,75.03219604492188,7.760946077474115,1.5079432365913144,89.64464241112428,-20.042566,-10.696435,6.881391,29.968294,-12.672021,3.641971,13.379743,-12.9484,-7.196159,62.367046,7.793728,12.969157,14.858147,-6.313171,16.950731,21.370836,36.110653,-19.452143,1.7410898,-13.485449,-3.8110964,-5.831791,2.4231143,-17.504168,28.319407,-5.7501287,1.1833432,-4.406187,-8.956667
17,0.5817757844924927,22.818349838256836,74.61780548095703,8.019751905940346,0.9979891862182719,89.95737658488503,-19.842783,-11.048532,6.7588725,33.167683,-15.103685,3.9652588,12.392473,-13.993592,-7.602954,65.90236,5.414742,11.642465,14.455174,-6.617911,17.685137,18.96362,36.285137,-20.229717,3.9361022,-12.71679,-2.927796,-5.277106,2.186955,-16.748173,27.936728,-2.9447684,1.134693,-3.845433,-9.877604
18,0.6325520277023315,24.182113647460938,74.21587371826172,8.096742302722628,0.5777693967217654,90.20643383165086,-19.378565,-11.20895,6.5960636,35.810883,-17.77691,4.0688777,11.150205,-14.714063,-7.7156887,69.38603,2.631268,10.001785,14.036884,-6.7749243,18.284306,16.466402,36.322094,-21.062906,6.2825794,-11.6239195,-1.7262344,-4.43597,1.8320876,-16.030039,27.631151,0.14335205,1.1819406,-3.0844662,-10.761532
19,0.668579638004303,25.550827026367188,73.83879852294922,8.083472847419783,0.23266373622045367,90.44692816230425,-18.725056,-11.321046,6.38626,37.982693,-20.41195,4.086948,9.730656,-15.249689,-7.6981096,72.72171,-0.23396206,8.353307,13.565977,-6.886503,18.759907,14.095138,36.21306,-21.793358,8.39361,-10.025815,-0.41197214,-3.395429,1.4891464,-15.372754,27.384094,3.1612594,0.9687534,-1.8505799,-11.605857
20,0.7014710307121277,26.92206573486328,73.49667358398438,8.068504681671314,-0.0540282373422475,90.73233662093863,-17.951256,-11.50657,6.0970874,39.74864,-22.712973,4.136685,8.225666,-15.788566,-7.744926,75.80668,-2.857815,6.969357,13.000143,-7.055339,19.121443,12.037488,35.962997,-22.284515,9.912304,-7.7309823,0.8186029,-2.243726,1.2806023,-14.805974,27.197163,5.756657,0.15404356,0.14260888,-12.395318
21,0.7331376671791077,28.312379837036133,73.20289611816406,8.093992856038629,-0.276576993903281,91.06723433475894,-17.071722,-11.784268,5.7123365,41.116596,-24.632622,4.2425604,6.6259966,-16.444386,-7.9156218,78.67798,-5.1685176,5.9359727,12.3289,-7.338662,19.369818,10.233226,35.574905,-22.542877,10.861137,-3.989147,2.148763,-0.797596,1.1656897,-14.341977,27.14243,7.892196,-1.6854868,3.6057782,-13.123136
22,0.758475661277771,29.707637786865234,72.96526336669922,8.115511462143242,-0.42798314588124237,91.42849670420314,-16.059227,-12.058727,5.232012,42.079506,-26.330225,4.342005,4.8945374,-17.128815,-8.125117,81.37568,-7.331763,5.0878644,11.570809,-7.6648483,19.492855,8.656082,35.045734,-22.626677,11.36856,0.8937663,3.7040873,0.8405707,1.0923948,-13.973077,27.214727,9.753865,-4.2364483,8.206276,-13.66356
23,0.7996745109558105,31.102006912231445,72.7827377319336,8.092869820800404,-0.5242614603174013,91.82724032361983,-14.919277,-12.274629,4.639348,42.674713,-27.815908,4.4099493,3.0873175,-17.738926,-8.368004,83.785706,-9.376752,4.307951,10.718907,-7.9501886,19.48697,7.318087,34.39668,-22.567549,11.424201,5.445457,5.0916934,2.253286,1.1766131,-13.701147,27.310875,11.299765,-6.7570095,12.632969,-13.917631
24,0.8506001830101013,32.50006866455078,72.64684295654297,7.985625401192358,-0.5801634919594431,92.27330050897558,-13.657051,-12.390187,3.9302256,42.93226,-29.095642,4.426009,1.254587,-18.160143,-8.637047,85.790504,-11.323935,3.4910128,9.763808,-8.119449,19.361908,6.1041,33.684547,-22.434958,11.111776,8.1445875,5.79361,3.1623914,1.554956,-13.550627,27.322762,12.442176,-8.492211,15.56543,-13.988244
25,0.8977788686752319,33.906211853027344,72.57076263427734,7.791231777940705,-0.5924970810352684,92.78521275011985,-12.28217,-12.413504,3.089314,42.86287,-30.199984,4.3879046,-0.6386509,-18.379045,-8.945407,87.40714,-13.198638,2.568516,8.730521,-8.177162,19.129166,5.1277857,32.943974,-22.1252,10.198489,8.389596,5.368794,3.450703,2.4001973,-13.5535555,27.167843,12.986696,-9.287083,16.529736,-14.010779
26,0.9519795179367065,35.33474349975586,72.56319427490234,7.530296135400598,-0.553428607467188,93.35202178080581,-10.792045,-12.352584,2.1287613,42.45255,-31.118402,4.309722,-2.6072798,-18.454489,-9.308173,88.67841,-14.97277,1.6110322,7.636017,-8.161444,18.802256,4.369342,32.19053,-21.664812,8.711124,7.0432687,4.1303196,3.3392212,3.658226,-13.7204275,26.900883,12.942884,-9.525218,16.266655,-13.986501
27,1.0221912860870361,36.776123046875,72.6316146850586,7.200028540411907,-0.4711964927507725,93.93948873625001,-9.177553,-12.175124,1.0938898,41.698826,-31.79585,4.1991377,-4.5729513,-18.374754,-9.724619,89.52134,-16.579609,0.726554,6.495242,-8.04889,18.39581,3.6968174,31.449533,-21.270773,6.9646306,4.885649,2.664467,3.110492,5.159745,-14.040376,26.580515,12.504935,-9.234461,15.298237,-13.901857
28,1.0876295566558838,38.27116775512695,72.77687072753906,6.796309087763209,-0.35436280341023685,94.51347952198603,-7.4301057,-11.84681,0.02954927,40.59849,-32.179142,4.060961,-6.4556046,-18.136423,-10.198088,89.85439,-17.9555,0.018933706,5.3296094,-7.816571,17.921022,2.981983,30.750416,-21.167646,5.279752,2.7058983,1.543154,3.0959191,6.7237387,-14.488086,26.25896,11.893937,-8.448232,14.146006,-13.72881
29,1.1566334962844849,39.78120040893555,72.99494171142578,6.2948665013853,-0.20089427135257054,95.0607614426129,-5.5076885,-11.332671,-1.0856829,39.05527,-32.3024,3.8878725,-8.253748,-17.713287,-10.75721,89.62924,-19.109274,-0.5036214,4.154199,-7.432401,17.371735,2.2155776,30.114227,-21.45365,3.635116,0.37894022,0.90134054,3.485772,8.351344,-15.053603,25.916498,11.108636,-6.82079,12.595506,-13.429016
30,1.2242411375045776,41.33039093017578,73.26605224609375,5.709150327727241,-0.006985608755429532,95.59994625819013,-3.4398746,-10.650725,-2.255292,37.11229,-32.183422,3.6821291,-9.994465,-17.132723,-11.408241,88.88939,-20.065155,-0.89234036,2.9768329,-6.9224324,16.757755,1.4745713,29.542923,-22.010977,1.8788353,-2.4156306,0.41902038,4.074213,10.138267,-15.727275,25.512424,10.049566,-4.4591837,10.495515,-12.952156
31,1.2998744249343872,42.86549758911133,73.5855941772461,5.095731143656842,0.22047690823952387,96.14479547796108,-1.3279959,-9.850169,-3.404336,34.975864,-31.746096,3.4508069,-11.639728,-16.469608,-12.114012,87.690056,-20.781015,-1.1298945,1.7901186,-6.354596,16.104816,0.7865426,29.032429,-22.715578,0.12562285,-5.1605515,-0.019265162,4.6484075,12.01056,-16.472282,25.085382,8.828913,-2.0715296,8.466482,-12.320582
32,1.3781120777130127,44.4498176574707,73.95169830322266,4.5084157825968445,0.4745251894834541,96.70879491015518,0.7324938,-8.991672,-4.463572,32.841415,-30.908209,3.1960893,-13.1535225,-15.800347,-12.832321,86.0904,-21.217762,-1.2040359,0.5768656,-5.7995243,15.428105,0.16758533,28.575314,-23.439783,-1.4950445,-7.337444,-0.49958947,4.992267,13.861235,-17.236828,24.682163,7.5984297,-0.37078094,7.1099424,-11.653142
33,1.4515385627746582,46.07358169555664,74.35590362548828,3.946948103837091,0.7563553424459135,97.30462198914758,2.8004534,-8.072179,-5.445113,30.603043,-29.604517,2.8861847,-14.529241,-15.119558,-13.560606,84.068146,-21.306973,-1.0682805,-0.70595914,-5.2631674,14.702448,-0.35732198,28.171888,-24.172468,-2.956818,-8.88213,-1.0556954,5.092871,15.627738,-17.984816,24.336971,6.437365,0.4339864,6.634366,-11.010975
34,1.532940149307251,47.707130432128906,74.78826904296875,3.3942572053789433,1.0675129484503563,97.91870594639047,4.8791394,-7.086156,-6.369185,28.227797,-27.902836,2.523942,-15.777526,-14.407084,-14.309041,81.60186,-21.098845,-0.7484237,-2.043003,-4.722506,13.923022,-0.79452217,27.828512,-24.961967,-4.320038,-10.046475,-1.6221544,5.054245,17.326677,-18.707098,24.030195,5.321485,0.7112103,6.688017,-10.371138
35,1.6206777095794678,49.37130355834961,75.24275207519531,2.8791294205804476,1.4002420976636052,98.5253072074113,6.805094,-6.094082,-7.1870813,26.01445,-25.916357,2.1657293,-16.890646,-13.70886,-15.04886,78.750046,-20.726511,-0.33734792,-3.36772,-4.203268,13.12944,-1.1762626,27.544924,-25.769249,-5.5867357,-10.785161,-2.1206577,4.8396015,18.97046,-19.396168,23.730314,4.2442746,0.6097951,7.012,-9.763757
36,1.715118408203125,51.05748748779297,75.71685028076172,2.4273052058925906,1.7462045299830486,99.10032734469044,8.432804,-5.1506543,-7.861837,24.255024,-23.757952,1.8761517,-17.860762,-13.064065,-15.75867,75.569595,-20.322023,0.072055034,-4.621385,-3.7320852,12.355976,-1.5344967,27.31704,-26.550816,-6.756915,-11.051773,-2.4752877,4.412621,20.565662,-20.045574,23.412222,3.2033532,0.28439456,7.3515625,-9.215129
37,1.8207050561904907,52.73102951049805,76.19821166992188,2.0403886617936307,2.1043155165828265,99.64763517668122,9.718998,-4.2558794,-8.360958,23.083263,-21.38914,1.748445,-18.681614,-12.456363,-16.443653,72.03131,-19.917458,0.4690878,-5.8090143,-3.3169923,11.6004095,-1.8856616,27.14553,-27.301947,-7.8098464,-10.66166,-2.6519992,3.7092946,22.098469,-20.649141,23.086998,2.2074556,-0.38313487,7.745847,-8.746998
38,1.9386166334152222,54.42903518676758,76.6843032836914,1.705864856605977,2.476487643372665,100.17546543963834,10.758403,-3.3918605,-8.721093,22.330187,-18.773983,1.7229656,-19.34849,-11.862815,-17.110153,68.10837,-19.443039,0.8980491,-6.9554687,-2.945646,10.8408165,-2.2135851,27.032713,-28.0457,-8.747695,-9.695815,-2.7113223,2.7705605,23.56147,-21.205477,22.767431,1.2683592,-1.429322,8.287348,-8.331111
39,2.0652196407318115,56.126434326171875,77.16184997558594,1.4191641890242925,2.8609501805656525,100.67065899598263,11.605431,-2.575074,-9.021996,21.85684,-16.034082,1.6306298,-19.858786,-11.299654,-17.753435,63.853687,-18.873615,1.3508761,-8.037124,-2.6074681,10.078998,-2.4965615,26.97299,-28.77898,-9.608647,-8.499426,-2.7166185,1.7166557,24.972593,-21.719013,22.430954,0.38397348,-2.5670433,8.807793,-7.9273715
40,2.1954739093780518,57.83668899536133,77.62335968017578,1.1749121847752326,3.2564498062461014,101.12152893190726,12.324332,-1.8236288,-9.358257,21.500425,-13.272204,1.300973,-20.211802,-10.773911,-18.373169,59.30628,-18.177685,1.8280737,-9.031133,-2.288223,9.317864,-2.7169771,26.9559,-29.500046,-10.427534,-7.4180946,-2.7164671,0.6689628,26.352434,-22.19982,22.052795,-0.45227855,-3.5040748,9.142639,-7.5069504
41,2.328965187072754,59.5616569519043,78.06246948242188,0.9600470215536829,3.6823266669491352,101.52656175534656,12.889801,-1.1420293,-9.79483,21.230925,-10.353453,0.6732357,-20.39745,-10.255682,-19.00586,54.361225,-17.302633,2.3395522,-9.934632,-1.9684994,8.539412,-2.8866317,26.976416,-30.219343,-11.183434,-6.403698,-2.703333,-0.38640174,27.72542,-22.652935,21.609316,-1.2585933,-4.202365,9.245985,-7.0812736
42,2.454557418823242,61.28057861328125,78.46631622314453,0.7743917307826265,4.134576649551235,101.89837113077267,13.323813,-0.51889515,-10.311254,21.065147,-7.2483373,-0.19554028,-20.401628,-9.710008,-19.658583,48.97645,-16.252285,2.8994524,-10.762933,-1.6509302,7.744542,-3.0175507,27.032677,-30.93898,-11.860087,-5.314184,-2.6637065,-1.500915,29.080631,-23.081095,21.115595,-2.0340314,-4.7991505,9.209066,-6.6649523
43,2.5868449211120605,63.02813720703125,78.82706451416016,0.6453136825517498,4.574843835534677,102.24495018355107,13.76179,0.03358868,-10.869239,20.901423,-4.224653,-1.2756884,-20.234291,-9.158321,-20.271772,43.302525,-15.081825,3.5117161,-11.520536,-1.3689886,6.965099,-3.0961013,27.117228,-31.642021,-12.497379,-4.355879,-2.6162596,-2.607511,30.38945,-23.496351,20.601849,-2.7626884,-5.2647333,9.076735,-6.240561
44,2.714986801147461,64.76842498779297,79.13674926757812,0.6025926216703167,4.963015644693648,102.57496500232796,14.313159,0.49847844,-11.409924,20.67437,-1.5593474,-2.5002391,-19.904787,-8.644488,-20.77773,37.482845,-13.850517,4.1691165,-12.214959,-1.1603881,6.233617,-3.109731,27.21945,-32.3088,-13.1368265,-3.7348118,-2.5692835,-3.6384168,31.625515,-23.918398,20.097292,-3.4342508,-5.5675097,8.894156,-5.7896786
45,2.829918146133423,66.50929260253906,79.39111328125,0.6719712073917995,5.305088669279585,102.90582096048013,15.006529,0.85152537,-11.980236,20.294363,0.6687964,-3.8848836,-19.358934,-8.182431,-21.206568,31.30918,-12.472947,4.899232,-12.867671,-1.0399889,5.5306296,-3.0500934,27.331541,-32.933437,-13.802429,-3.510445,-2.4860442,-4.611244,32.8247,-24.366922,19.594858,-4.0752354,-5.6351833,8.644324,-5.3205824
46,2.9355502128601074,68.26591491699219,79.58768463134766,0.8737067673388929,5.605343064507122,103.24618907597471,15.804782,1.0643593,-12.600857,19.77645,2.6385925,-5.429969,-18.550858,-7.785797,-21.56829,24.643934,-10.879118,5.6979837,-13.490788,-1.0279458,4.846392,-2.930201,27.452248,-33.5212,-14.466888,-3.5674994,-2.3604903,-5.552011,34.00642,-24.850395,19.077333,-4.708938,-5.497901,8.317963,-4.839372
47,3.0281288623809814,70.01411437988281,79.71519470214844,1.2502116508545624,5.816769874150383,103.5978247481341,16.712917,1.1006788,-13.159676,19.212143,4.482316,-7.0103703,-17.519167,-7.541495,-21.768381,17.791737,-9.174624,6.5119734,-14.086885,-1.1904027,4.224864,-2.7691815,27.583221,-34.067616,-15.096942,-3.8520591,-2.2409606,-6.405246,35.122723,-25.36605,18.56556,-5.32297,-5.2798076,7.9723277,-4.3247294
48,3.1008636951446533,71.7503662109375,79.77561950683594,1.8389341081719839,5.8942575649137146,103.95857845470607,17.716095,0.9253419,-13.54543,18.728298,6.324429,-8.496768,-16.340212,-7.546695,-21.727612,11.145074,-7.505667,7.296806,-14.658145,-1.5941057,3.705928,-2.586383,27.728838,-34.568455,-15.655691,-4.312049,-2.180252,-7.1163316,36.114094,-25.904179,18.087372,-5.89064,-5.1074595,7.6618266,-3.756881
49,3.1793534755706787,73.47901153564453,79.77556610107422,2.6482797156970106,5.834256183534305,104.33051167853212,18.797886,0.53193665,-13.772394,18.368034,8.174073,-9.926739,-16.133728,-8.264557,-21.27909,7.1484,-7.233725,8.024237,-15.209777,-2.2595568,3.2831929,-2.3947196,27.897346,-35.036484,-16.1552,-5.0578647,-2.1737452,-7.6764407,36.976418,-26.459074,17.640106,-6.4177012,-4.998022,7.3997316,-3.1111584
50,3.265260934829712,75.19840240478516,79.7226333618164,3.5270605640769706,5.678054370745535,104.68103671308593,19.856688,0.08235416,-13.850848,18.270464,9.882654,-11.339121,-17.435457,-9.668907,-20.394901,6.808427,-8.900562,8.711976,-15.714622,-3.0265548,2.949445,-2.1859484,28.087023,-35.470757,-16.607473,-6.079273,-2.1968884,-8.109159,37.71141,-27.030987,17.216434,-6.886184,-4.891265,7.155653,-2.4032843
51,3.371952772140503,76.91407012939453,79.6153564453125,4.219688169142685,5.473614731665237,104.94198992026374,20.672037,-0.15886593,-13.638536,18.873325,11.217842,-12.621581,-18.691687,-10.781506,-19.401518,6.69946,-10.545727,9.378341,-16.108349,-3.6318154,2.740428,-1.9567654,28.276232,-35.850613,-16.965353,-7.1420584,-2.2797678,-8.408617,38.24005,-27.620974,16.838017,-7.201868,-4.7999253,6.914979,-1.6747425
52,3.478773593902588,78.58855438232422,79.48977661132812,4.657588638845572,5.193985883452587,105.08312879950023,21.289108,-0.10654149,-13.02488,20.082832,12.278833,-13.611355,-19.678413,-11.459039,-18.411013,6.6227856,-11.869885,10.113506,-16.350758,-4.0254073,2.7104685,-1.7174609,28.43755,-36.165623,-17.1588,-8.007352,-2.4495893,-8.581766,38.528496,-28.208893,16.531563,-7.307531,-4.746501,6.6667657,-0.9698218
53,3.569716691970825,80.25597381591797,79.33463287353516,5.121760398349334,4.816552211293227,105.10909540575993,21.795979,-0.03238586,-11.877907,21.727768,13.278212,-14.152719,-20.51628,-12.070037,-17.186789,6.8022766,-13.027971,11.156885,-16.398125,-4.5191154,2.784427,-1.5500684,28.541433,-36.48407,-17.095432,-8.644053,-2.747682,-8.620066,38.571774,-28.689505,16.299246,-7.1502056,-4.8105955,6.390823,-0.2631497
54,3.664224863052368,81.89884948730469,79.13213348388672,5.510213115051524,4.332098100251133,105.03876498240326,22.19377,0.21524458,-10.275987,23.880112,14.103447,-14.32975,-20.981615,-12.471802,-15.864206,6.7539315,-13.828293,12.381379,-16.29356,-4.977548,3.0211773,-1.4006133,28.617933,-36.78331,-16.872656,-9.174269,-3.1583772,-8.514618,38.46145,-29.193771,16.0986,-6.8727684,-4.9190683,6.098175,0.45410222
55,3.7519071102142334,83.50437927246094,78.88581848144531,5.716056335968921,3.853603942959427,104.85340958720035,22.416548,0.73611486,-8.440349,26.397552,14.643065,-14.258264,-21.240297,-12.619129,-14.645344,6.7490134,-14.1910925,13.40088,-16.021482,-5.2978315,3.352941,-1.276632,28.652739,-37.027645,-16.451977,-9.562061,-3.5960095,-8.326202,38.06538,-29.620747,15.986114,-6.326,-5.0528135,5.816268,1.1378512
56,3.834364175796509,85.0922622680664,78.60807037353516,5.550998153477425,3.4657838963527547,104.54689986528659,22.419672,1.6930377,-6.609261,29.16906,14.765962,-14.113952,-21.24433,-12.300012,-13.806472,6.737491,-13.930369,13.802942,-15.610951,-5.237697,3.784158,-1.1041152,28.650925,-37.155582,-15.910277,-9.772261,-3.9810913,-8.075848,37.475216,-30.096407,15.956678,-5.6698523,-5.097908,5.5995755,1.7114773
57,3.8864262104034424,86.65687561035156,78.28658294677734,4.904926985307769,3.2015425379663673,104.09223834458227,22.19935,3.1959133,-4.7525673,32.19348,14.41247,-13.961089,-20.980705,-11.336271,-13.465278,6.7098093,-12.881591,13.54286,-15.11787,-4.658089,4.301687,-0.78905636,28.5861,-37.047485,-15.274346,-9.713334,-4.308732,-7.791259,36.611317,-30.724009,16.081072,-4.892426,-4.9830008,5.467767,2.1528394
58,3.956113338470459,88.18003845214844,77.9786605834961,3.8790167421468027,2.985718815465017,103.51083021486335,21.858458,5.1584496,-2.8006477,35.460327,13.686457,-13.736858,-20.448334,-9.847729,-13.479318,6.6293683,-11.15406,12.847092,-14.5456915,-3.6903968,4.91649,-0.39728573,28.445139,-36.742367,-14.481534,-9.432012,-4.612884,-7.4619555,35.435375,-31.403149,16.3667,-3.9137256,-4.804019,5.3854055,2.5027587
59,4.088122844696045,89.65776062011719,77.70537567138672,2.642382539796227,2.77992434581368,102.86835461436117,21.462284,7.3619914,-0.9361873,38.823734,12.728714,-13.443666,-19.712736,-8.081916,-13.694874,6.5059066,-9.01668,11.734662,-13.915958,-2.5149174,5.583616,0.009484032,28.232079,-36.33406,-13.514791,-9.078928,-4.866007,-7.0735254,33.942,-32.09173,16.810255,-2.6834495,-4.5679164,5.341443,2.7578564
60,4.218017578125,91.10196685791016,77.40933227539062,1.3203193290630395,2.5700692492395096,102.21861149742985,21.01585,9.636624,0.6692796,42.184864,11.653936,-13.0896015,-18.868355,-6.250464,-13.953254,6.474281,-6.805967,10.181569,-13.450463,-1.1783323,6.240028,0.519921,27.824116,-35.683422,-12.363329,-8.775817,-5.0476418,-6.6502953,32.240013,-33.07147,17.517782,-1.3751267,-4.2191033,5.3367524,2.8685157
61,4.31748628616333,92.56050109863281,76.99288940429688,-0.12272725089869155,2.3956529594792655,101.51607381902917,20.467798,12.022767,1.986144,45.66075,10.414864,-12.728056,-18.006336,-4.2915254,-14.199525,6.7726493,-4.2601585,7.8352656,-12.857194,0.2897356,6.895628,0.93104845,27.333454,-35.055027,-11.026511,-8.608098,-5.122931,-6.180423,30.440393,-33.974796,18.255053,0.029478544,-3.8861964,5.3409204,2.9554126
62,4.411713600158691,93.99608612060547,76.56797790527344,-1.758561580381132,2.1966960471864594,100.78149969737903,19.890371,14.600338,3.0375173,49.206303,9.012832,-12.368626,-18.310322,-2.3599012,-14.524348,10.063397,-2.7114322,4.91917,-12.203339,1.9479392,7.6145616,1.292683,26.759283,-34.387745,-9.508205,-8.488802,-5.111284,-5.666792,28.41126,-34.83037,19.112297,1.6177069,-3.5212786,5.3665094,2.9861822
63,4.541280269622803,95.40998840332031,76.12583923339844,-3.0297300002413694,1.885178992104838,100.19286007139888,19.344902,16.748789,3.7381957,52.593327,7.5202036,-11.84274,-20.65388,-1.3827815,-14.840604,18.21762,-3.9471643,2.2120924,-11.681547,3.221339,8.342608,1.649734,26.123882,-33.680088,-7.7774267,-8.366633,-5.072874,-5.05973,26.2814,-35.632343,20.118195,3.3023193,-3.2187834,5.431432,2.8594737
64,4.655172824859619,96.85681915283203,75.65322875976562,-3.97095172944866,1.483098209924428,99.80127586671917,18.772554,18.479595,4.0837984,55.77843,5.8773932,-11.147804,-21.937872,-0.5610307,-15.235687,24.265278,-5.21268,0.21467909,-11.340574,4.151003,9.077086,2.016883,25.441753,-32.958374,-5.7969465,-8.197455,-5.075388,-4.290765,24.031462,-36.360752,21.299574,5.141933,-3.0483935,5.5433455,2.4812
65,4.755880832672119,98.30110931396484,75.19336700439453,-4.894485924145212,1.0370780101537143,99.55104674967825,18.109297,20.080421,4.022307,58.862785,3.9531686,-10.3616295,-22.184471,0.36671314,-15.716585,28.262411,-7.053685,-1.0823497,-11.142524,5.0424204,9.858258,2.4004858,24.69466,-32.18046,-3.4764886,-8.078027,-5.267769,-3.3969734,21.562672,-37.011833,22.705729,7.2572227,-2.9387176,5.591194,1.8354942
66,4.854321479797363,99.73649597167969,74.78653717041016,-5.854500439851095,0.5726548155026814,99.38920164564226,17.323519,21.599207,3.5979412,61.8945,1.7743609,-9.525973,-21.858913,1.3790771,-16.235682,31.27041,-9.512376,-2.0408573,-11.031016,5.962979,10.6804,2.7926166,23.875322,-31.336103,-0.8638434,-7.9905024,-5.573015,-2.3958018,18.89543,-37.574753,24.293005,9.581985,-2.8715203,5.6090355,0.9659706
67,4.954275608062744,101.17450714111328,74.41439819335938,-6.74552854052588,0.13047450409036934,99.2990129549333,16.370104,22.958672,2.974529,64.81148,-0.51512384,-8.657404,-21.20919,2.3931324,-16.711296,33.618774,-12.156778,-2.757655,-10.9434595,6.8483887,11.468702,3.1663942,23.016281,-30.528643,1.8754354,-7.7278523,-5.7162375,-1.1756903,16.206886,-38.00775,25.911922,11.910625,-3.0144026,5.823542,-0.12287363
68,5.055079460144043,102.62763214111328,74.07732391357422,-7.444802386143601,-0.2538115707742164,99.26662773231598,15.214049,24.078714,2.3171935,67.54844,-2.773346,-7.7580137,-20.44692,3.304156,-17.080313,35.571026,-14.516132,-3.3062649,-10.803904,7.602955,12.145723,3.489965,22.178196,-29.88905,4.5660143,-7.1015863,-5.412502,0.3831653,13.674657,-38.26119,27.400639,14.072809,-3.546238,6.467894,-1.4158589
69,5.168882369995117,104.06511688232422,73.78607177734375,-7.923354024484643,-0.5798866045395131,99.34684639363613,13.811896,24.942303,1.5694569,70.1368,-5.014088,-6.8385463,-19.5335,4.04639,-17.36938,37.117004,-16.556877,-3.6334538,-10.606695,8.178099,12.720555,3.6683698,21.397856,-29.513334,7.3499594,-5.895356,-4.3959503,2.5268657,11.232733,-38.30166,28.858036,16.259209,-4.5860453,7.8211265,-3.142578
70,5.286495685577393,105.48356628417969,73.55361938476562,-8.251294618278301,-0.8589906332971237,99.52111882662952,12.1842,25.58183,0.6771456,72.604485,-7.3014045,-5.8959937,-18.378864,4.6463284,-17.592688,38.178566,-18.525991,-3.723716,-10.359455,8.611147,13.221593,3.7529395,20.68631,-29.335213,10.236187,-4.332129,-2.8284736,5.10111,8.813459,-38.11904,30.294224,18.536081,-5.9929304,9.726555,-5.197008
71,5.394318103790283,106.90013122558594,73.37256622314453,-8.445595075133475,-1.0769813061576292,99.66747779300258,10.407073,25.999142,-0.17974843,74.87708,-9.570302,-4.9035935,-17.104849,5.1437907,-17.685345,38.87144,-20.346281,-3.6989732,-10.008625,8.925484,13.595789,3.940693,20.075926,-29.254358,12.839769,-2.8683913,-1.1006695,7.649287,6.581476,-37.72152,31.438126,20.57665,-7.5923676,11.74119,-7.0609756
72,5.495886325836182,108.31902313232422,73.25184631347656,-8.522599673764137,-1.2205361144338844,99.66524711146562,8.56433,26.203615,-0.8139303,76.87567,-11.753672,-3.834181,-15.838873,5.595195,-17.587713,39.30642,-21.939491,-3.689972,-9.49779,9.146758,13.791586,4.4373317,19.616081,-29.179218,14.75415,-1.9082268,0.3379131,9.762256,4.721237,-37.142746,32.014378,22.034622,-9.273396,13.38031,-8.2380295
73,5.58681583404541,109.73565673828125,73.19136047363281,-8.466976980166164,-1.2631783125634968,99.49114215719418,6.6249456,26.203737,-1.1477535,78.630585,-13.873945,-2.594954,-14.629469,6.0135136,-17.292131,39.49068,-23.306301,-3.7241392,-8.841233,9.275491,13.788089,5.389112,19.352583,-29.09833,15.738949,-1.4062651,1.4713842,11.469542,3.2860804,-36.40677,31.883188,22.765112,-11.396393,14.634938,-8.452254
74,5.670489311218262,111.15557098388672,73.18013000488281,-8.275601998768428,-1.2190537470849636,99.20650446383307,4.58614,25.987282,-1.2616683,80.16193,-15.954423,-1.234028,-13.407389,6.365656,-16.838398,39.377098,-24.48312,-3.7359083,-8.065345,9.2917795,13.628113,6.702866,19.300959,-29.055202,15.982623,-1.1931976,2.4730332,12.965541,2.1660697,-35.533092,31.229748,22.95644,-13.947469,15.669954,-8.002569
75,5.718926906585693,112.55414581298828,73.2118148803711,-7.982203952660478,-1.136119861715507,98.81831957949633,2.573849,25.551456,-1.1972637,81.37388,-17.922857,0.07059122,-12.122135,6.6514297,-16.238218,38.988503,-25.44484,-3.7257228,-7.14992,9.195543,13.359102,8.241747,19.454659,-29.019642,15.7119,-1.4284654,3.1424754,14.1144705,1.2491748,-34.563408,30.308197,22.78692,-16.232656,16.261951,-7.323973
76,5.760012626647949,113.95175170898438,73.30068969726562,-7.617590120762445,-1.0622676900663925,98.33418713333468,0.7024827,24.901134,-0.99932057,82.16855,-19.692875,1.1434886,-10.719489,6.8684583,-15.501203,38.339832,-26.161121,-3.693647,-6.0816183,8.991901,13.027787,9.870137,19.79179,-28.95283,15.161371,-2.2598445,3.2788017,14.774732,0.48799443,-33.55253,29.344568,22.377142,-17.536816,16.240059,-6.887829
77,5.797066688537598,115.36856079101562,73.45217895507812,-7.159502315668509,-1.0010358070362066,97.73024409764153,-1.0111969,24.0175,-0.6141469,82.51848,-21.276413,1.9517192,-9.168594,7.006118,-14.588807,37.371346,-26.669174,-3.6320984,-4.8513174,8.678902,12.627412,11.624656,20.29894,-28.820826,14.26701,-4.1051164,2.6312826,14.756583,-0.02325178,-32.52878,28.233418,21.584793,-17.507486,15.3524685,-6.7466993
78,5.824707984924316,116.79080963134766,73.65790557861328,-6.607314101437594,-0.9258071346275781,97.01193353704518,-2.6199608,22.929928,-0.018325474,82.4625,-22.694649,2.5869873,-7.5036077,7.060948,-13.515198,36.098873,-26.972801,-3.5487792,-3.4742696,8.272338,12.160016,13.566255,20.965006,-28.639212,12.9296665,-6.753735,1.3985641,14.128993,-0.36005974,-31.502867,26.938145,20.412708,-16.518549,13.778154,-6.680207
79,5.839442253112793,118.217529296875,73.92034912109375,-6.018207544671622,-0.8418208028063712,96.22884586854644,-4.12656,21.72576,0.6887644,82.01196,-23.87388,3.0677154,-5.7716966,7.0445166,-12.368351,34.657116,-26.99503,-3.4602726,-1.9974788,7.8043523,11.668618,15.608519,21.757668,-28.420193,11.352298,-9.4055,0.049777742,13.166789,-0.6053071,-30.501318,25.716715,19.04456,-15.052934,12.012174,-6.7480683
80,5.855279922485352,119.66110229492188,74.24394226074219,-5.4534160186444245,-0.7558925359314094,95.43032398210916,-5.535446,20.48999,1.4018582,81.184746,-24.742706,3.4141638,-4.021725,6.9745407,-11.235813,33.176258,-26.656021,-3.375398,-0.47016382,7.310528,11.193125,17.648674,22.632427,-28.1699,9.75905,-11.23132,-0.9960926,12.21829,-0.9181333,-29.56003,24.874262,17.740347,-13.538083,10.541745,-7.043268
81,5.873857498168945,121.11424255371094,74.61837005615234,-4.925509272580128,-0.6763647855901824,94.59542386685749,-6.841324,19.24352,2.1252625,79.9622,-25.248072,3.6227403,-2.2247574,6.876044,-10.088547,31.607637,-25.905222,-3.2964337,1.1340703,6.8056006,10.730049,19.641163,23.562239,-27.887466,8.219956,-11.981096,-1.7041883,11.284086,-1.2880453,-28.70927,24.522038,16.508982,-11.784927,9.436632,-7.72414
82,5.877223014831543,122.5783462524414,75.02908325195312,-4.408631289443287,-0.5970001931942662,93.7099657157088,-8.048668,17.961426,2.893787,78.33831,-25.44202,3.6899855,-0.38080534,6.73458,-8.9014,29.918365,-24.799553,-3.2115703,2.8125958,6.2876105,10.262389,21.637972,24.529745,-27.555508,6.64566,-12.094841,-2.2926748,10.236925,-1.6121317,-27.954447,24.497475,15.209561,-9.663027,8.430008,-8.684573
83,5.868820667266846,124.06338500976562,75.48028564453125,-3.904190698167008,-0.5056663579123032,92.83275376583225,-9.173205,16.652586,3.6465929,76.352196,-25.417097,3.6388292,1.4171367,6.518187,-7.7672405,28.264893,-23.420753,-3.1111782,4.481011,5.7607903,9.799407,23.659904,25.505774,-27.163202,5.047381,-11.755445,-2.769242,9.275859,-1.9099829,-27.293133,24.690506,13.891674,-7.676923,7.5197964,-9.66794
84,5.852890491485596,125.57025146484375,75.95491790771484,-3.411116034714427,-0.3917622377643208,92.02295508805662,-10.226531,15.322301,4.323868,74.039665,-25.263668,3.491788,3.0830772,6.202611,-6.7775073,26.800161,-21.849014,-2.9918532,6.0530024,5.2286835,9.347163,25.719353,26.452185,-26.698944,3.4505844,-11.140275,-3.1341841,8.595559,-2.2195876,-26.714525,25.000132,12.620116,-6.323001,6.737172,-10.436723
85,5.830814838409424,127.0746841430664,76.4471435546875,-2.9304542200782877,-0.26252811652895147,91.28259649923622,-11.201076,13.963003,4.9096546,71.377914,-24.988255,3.2373652,4.631131,5.784191,-5.9605045,25.533993,-20.042698,-2.8835428,7.5285826,4.6973248,8.90838,27.784681,27.343548,-26.182682,1.899814,-10.081789,-3.3594966,8.311238,-2.5650678,-26.216742,25.459784,11.432427,-5.7521744,6.1278014,-11.014489
86,5.7920989990234375,128.58226013183594,76.95255279541016,-2.4665062557533446,-0.12359764014953266,90.58700591666805,-12.086693,12.583545,5.41944,68.35279,-24.554451,2.876201,6.0953307,5.2932863,-5.265765,24.40334,-17.987976,-2.7842588,8.945016,4.172616,8.472858,29.833294,28.170643,-25.623718,0.41497558,-8.539548,-3.4580443,8.301578,-2.916162,-25.801533,26.106585,10.297707,-5.6852436,5.681109,-11.521234
87,5.741829872131348,130.11575317382812,77.45915222167969,-2.0228033050911045,0.0377763098263121,89.95427004838564,-12.887288,11.206854,5.8457747,65.00846,-23.985027,2.4479322,7.424351,4.756557,-4.660261,23.455854,-15.797394,-2.641653,10.274939,3.6516361,8.026468,31.879732,28.923353,-24.994745,-1.0099136,-6.889224,-3.4823663,8.4028225,-3.2451437,-25.460703,26.846748,9.188752,-5.9693227,5.359597,-11.8692045
88,5.689900875091553,131.65089416503906,77.95466613769531,-1.597037722165446,0.23524278391399753,89.40059084602595,-13.606599,9.849474,6.1880255,61.382523,-23.299335,1.9910218,8.580742,4.197645,-4.1035213,22.712416,-13.570208,-2.3992975,11.496418,3.1248696,7.5547004,33.9406,29.593897,-24.26834,-2.385008,-5.5055313,-3.4924078,8.453965,-3.52411,-25.180885,27.580544,8.078358,-6.455682,5.1207576,-11.966191
89,5.623359203338623,133.20486450195312,78.42717742919922,-1.1539760288869247,0.47961276563051536,88.94585124457939,-14.241613,8.448776,6.419299,57.405926,-22.469244,1.5425075,9.553435,3.5687847,-3.6093245,22.176018,-11.245214,-2.0389915,12.592278,2.5441973,7.0464787,36.030487,30.173388,-23.417671,-3.7028294,-4.3530955,-3.4765153,8.457757,-3.751188,-24.95611,28.29889,6.9797254,-7.252784,4.957979,-11.725697
90,5.5471625328063965,134.7634735107422,78.87976837158203,-0.6977240898155209,0.7600898354078888,88.57326264720702,-14.771429,7.0149956,6.546429,53.056858,-21.489937,1.0812635,10.383579,2.8794594,-3.1683857,21.82114,-8.79346,-1.5706317,13.578351,1.9202434,6.5114236,38.132217,30.658867,-22.459988,-4.9573245,-3.276907,-3.4106526,8.483075,-3.9443965,-24.786926,29.053127,5.9095597,-8.393319,4.8831205,-11.217304
91,5.495161056518555,136.32310485839844,79.29888916015625,-0.3001740822337834,1.058988284031641,88.24391011068528,-15.184944,5.6771464,6.6176476,48.44693,-20.40995,0.5555068,11.122993,2.2460012,-2.7062418,21.583473,-6.3427935,-0.98502773,14.486034,1.3333544,5.960842,40.234142,31.05595,-21.430607,-6.1827946,-2.4619272,-3.3438468,8.47309,-4.1089053,-24.669758,29.830719,4.8477616,-9.615287,4.881148,-10.5791645
92,5.428289413452148,137.88726806640625,79.67400360107422,-0.025694395450622288,1.3591174132416828,87.91518822021675,-15.47256,4.5574036,6.687893,43.670815,-19.272581,-0.087438114,11.801039,1.7764388,-2.1543312,21.422794,-4.021549,-0.2884349,15.349546,0.8560453,5.40519,42.30117,31.38245,-20.369656,-7.3961606,-2.1098151,-3.326318,8.373272,-4.2497673,-24.5999,30.616987,3.772531,-10.659198,4.9472895,-9.949101
93,5.361569404602051,139.45880126953125,80.00192260742188,0.11494123861771306,1.6772751348778316,87.56682128404607,-15.606759,3.676992,6.7312856,38.58592,-18.027338,-0.9085814,12.403385,1.4920138,-1.451447,21.290747,-1.8106605,0.5722378,16.190105,0.4874108,4.818651,44.34241,31.653551,-19.270414,-8.613507,-2.4070008,-3.3749819,8.15108,-4.3737307,-24.576632,31.422523,2.68957,-11.502724,5.1184115,-9.341295
94,5.3045783042907715,141.03646850585938,80.27949523925781,0.14313281354203053,2.012944174330937,87.21565157397636,-15.566521,2.9896274,6.7244005,33.11267,-16.631378,-1.8601443,12.936841,1.3564638,-0.63312465,21.182503,0.36289242,1.5815488,16.996325,0.19917178,4.198458,46.37272,31.873035,-18.113256,-9.835879,-3.2136462,-3.4574018,7.84365,-4.466298,-24.600857,32.24322,1.5989691,-12.274769,5.384317,-8.685424
95,5.26186466217041,142.59812927246094,80.48979949951172,0.03557411387183093,2.321373024317228,86.87206633443631,-15.362012,2.5213258,6.7309446,27.446592,-15.137901,-2.8369672,13.462208,1.3906876,0.21071991,21.114433,2.4581845,2.6124716,17.76634,0.028801205,3.5857172,48.421024,32.038242,-16.916885,-11.106098,-4.2099767,-3.550346,7.502506,-4.503926,-24.671534,33.03407,0.4725225,-12.938094,5.6791735,-7.994027
96,5.228004455566406,144.15899658203125,80.64034271240234,-0.23639754087298617,2.5559918622653903,86.54604075060104,-15.0268545,2.3061433,6.8210645,21.830889,-13.620671,-3.7384436,14.03916,1.6180582,0.98140216,21.105827,4.43695,3.5308661,18.48594,0.027267363,3.02289,50.417156,32.156292,-15.714316,-12.379398,-5.1275687,-3.635397,7.1780343,-4.48227,-24.786837,33.76506,-0.7118119,-13.453465,5.9388747,-7.2816763
97,5.198624134063721,145.72772216796875,80.72500610351562,-0.7629163653112281,2.71014085353222,86.21616707919522,-14.554997,2.4515219,7.0281887,16.211264,-12.056465,-4.607412,14.680489,2.1299665,1.6628637,21.138088,6.2994742,4.2512875,19.15548,0.28403768,2.4855077,52.26641,32.252804,-14.499939,-13.57299,-6.0433593,-3.7305863,6.8893743,-4.4300814,-24.950315,34.458138,-1.9871851,-13.823151,6.187121,-6.501163
98,5.175358295440674,147.28182983398438,80.7416763305664,-1.5635094002714511,2.7886453047251814,85.86393025074712,-13.903368,2.9925137,7.3224916,10.448801,-10.390541,-5.4832096,15.384959,2.9412143,2.315409,21.172647,8.098069,4.837402,19.851234,0.8038257,1.938665,54.247677,32.306164,-13.2537985,-14.939859,-6.943565,-3.8351686,6.6158767,-4.2981176,-25.168219,35.07066,-3.3585088,-14.067395,6.4478397,-5.6602893
99,5.153590679168701,148.83926391601562,80.7063217163086,-2.48508021327884,2.772993198606425,85.52176783794256,-14.232833,3.8979366,7.634615,7.1647124,-9.974089,-6.2664475,16.144766,3.880244,2.9385304,21.280766,9.8229475,5.392978,20.496399,1.4698175,1.461527,56.028214,32.33995,-12.0194235,-16.184423,-7.8674006,-3.9135768,6.319725,-4.129565,-25.436504,35.63869,-4.742921,-14.158212,6.661766,-4.8627915
100,5.141205787658691,150.39866638183594,80.63033294677734,-3.3014436627780785,2.665731966807814,85.2443370269127,-15.773452,4.905105,7.9138,6.9504285,-11.079152,-6.857593,16.906471,4.7048917,3.5078824,21.595976,11.42071,6.040367,21.093277,2.0763664,1.1275588,57.734486,32.337032,-10.838764,-17.430286,-8.585069,-3.9281547,5.9844375,-3.878347,-25.742321,36.09817,-6.077767,-14.073876,6.7672586,-4.2137647
101,5.113495826721191,151.94454956054688,80.51517486572266,-3.9341502221278217,2.4785138019439596,85.07094749402025,-17.158695,5.6914935,8.34109,6.818399,-12.150673,-7.205521,17.633614,5.3475475,4.0059295,22.199747,12.815103,6.801162,21.584143,2.5640078,0.96921533,59.285534,32.30173,-9.70876,-18.608557,-9.109416,-3.8328907,5.556337,-3.58776,-26.076231,36.46942,-7.3439093,-13.75266,6.7285895,-3.711309
102,5.090307235717773,153.4812469482422,80.33851623535156,-4.411738328105367,2.2373057708850768,84.98827681686952,-18.4624,6.2884617,8.929437,6.8457737,-13.24189,-7.375573,18.238686,5.829461,4.414585,23.252108,13.899249,7.6353827,21.966223,2.9431777,0.96004206,60.636047,32.245876,-8.619109,-19.667002,-9.519815,-3.6616092,5.061284,-3.2858837,-26.427652,36.77729,-8.5496235,-13.22256,6.5867395,-3.3145647
103,5.058225631713867,155.0087432861328,80.14458465576172,-4.731162206781059,1.9315718858930224,84.97741811161569,-19.513762,6.684299,9.553514,6.815842,-14.172961,-7.4756203,18.812353,6.1388717,4.707064,24.491018,14.899007,8.540474,22.296158,3.234076,1.059501,61.623028,32.211517,-7.7463636,-20.419806,-9.812636,-3.5035856,4.6460304,-3.0534453,-26.636017,37.0072,-9.431737,-12.640175,6.392601,-3.0356925
104,5.016446590423584,156.51145935058594,79.91803741455078,-5.009824140201602,1.6006459708084615,85.02689711602257,-20.38536,7.0030646,9.991246,6.8827224,-14.942223,-7.611924,19.340895,6.3929048,4.8510127,25.813932,15.936084,9.506441,22.459057,3.4407587,1.2911321,62.749355,32.11872,-6.6871247,-21.33682,-9.987962,-3.4248056,4.248972,-2.6605618,-27.013815,37.23282,-10.469193,-12.011173,6.2040577,-2.9815066
105,4.980845928192139,157.99998474121094,79.64820861816406,-5.207556401244974,1.2233489929053134,85.14575535665375,-20.966782,7.1668854,10.267711,6.895185,-15.493438,-7.7949514,19.837,6.575135,4.8692307,27.261604,17.07822,10.591776,22.603315,3.636153,1.5714257,63.40124,32.05622,-5.970461,-21.828022,-9.948318,-3.4776206,4.0766454,-2.3354604,-27.229015,37.370445,-11.095816,-11.425921,6.0088954,-3.1274676
106,4.961638927459717,159.47360229492188,79.33515930175781,-5.353852465237411,0.8076658997462021,85.34105181672592,-21.323406,7.2069855,10.437173,6.908155,-15.87551,-7.980041,20.293585,6.7246795,4.766541,28.847923,18.256445,11.774375,22.609085,3.7760925,1.9610513,63.957268,31.98377,-5.2323246,-22.258085,-9.760056,-3.5998464,3.9632165,-1.9946384,-27.44258,37.49433,-11.6229315,-10.781237,5.7833366,-3.4761791
107,4.958895683288574,160.93641662597656,78.98017883300781,-5.430520949966807,0.3741392582294963,85.57634563986926,-21.459223,7.134564,10.484323,6.9096994,-16.036922,-8.121504,20.662971,6.7642403,4.5009084,30.612684,19.270435,12.972529,22.539366,3.8736281,2.4101908,64.244705,31.918419,-4.6376677,-22.454689,-9.552488,-3.7741668,3.9264395,-1.6479753,-27.612656,37.567703,-11.942328,-10.183609,5.545836,-3.9347432
108,4.965429782867432,162.3923797607422,78.58553314208984,-5.405944964291006,-0.055216838364365965,85.81679758307732,-21.385155,6.9539437,10.394109,6.8868213,-15.927295,-8.17378,20.901085,6.5982533,4.018833,32.586166,19.926271,14.094411,22.405,3.8867168,2.9025064,64.31176,31.869808,-4.1845965,-22.46361,-9.473478,-3.9636075,3.947519,-1.2498091,-27.733757,37.584843,-12.091014,-9.732646,5.3340716,-4.4230256
109,4.973049163818359,163.8542938232422,78.15348052978516,-5.386962346953077,-0.517061147060783,86.03579630217936,-21.0917,6.776933,10.021116,6.8939857,-15.820925,-8.385481,21.108826,6.2855973,3.1942263,34.674816,20.359472,15.000033,22.218954,3.9148214,3.4396193,64.20039,31.819288,-3.8107655,-22.327763,-9.606092,-4.1786175,3.9959598,-0.72375196,-27.886564,37.53521,-12.176291,-9.436207,5.141751,-4.9525075
110,5.014250755310059,165.3085174560547,77.69144439697266,-5.403015332590389,-0.9953052531912477,86.25949369234236,-20.594147,6.6112933,9.399434,6.9006042,-15.636901,-8.730166,21.27812,5.7174187,1.6736333,36.819252,20.683563,15.000033,22.00456,4.004372,3.9556048,63.763985,31.819607,-3.6765728,-21.89715,-9.850632,-4.4360685,4.1521773,-0.18996309,-27.935472,37.432766,-11.971777,-9.276885,4.964391,-5.5519433
111,5.079812526702881,166.7546844482422,77.2081069946289,-5.194137553480837,-1.429707162185032,86.51357086487204,-19.939468,6.1634636,8.851594,6.8758373,-14.853031,-8.727943,21.236296,4.793131,0.04796536,39.230747,20.557112,15.000033,21.694723,3.8814769,4.538661,63.063473,31.845434,-3.675293,-21.220728,-10.12506,-4.7092724,4.34748,0.30786112,-27.919786,37.295345,-11.524412,-9.194672,4.7995024,-6.1840405
112,5.051109790802002,168.12586975097656,76.8227310180664,-4.482941755936351,-1.751446847672221,86.82957961448179,-19.240126,5.1476817,8.678292,6.8755045,-12.954037,-7.91781,20.815136,3.2697518,-1.486697,42.088974,19.64019,15.000033,21.316326,3.2838213,5.2422643,61.897137,31.92363,-3.9074392,-20.123169,-10.313153,-4.9823203,4.5721846,0.74188906,-27.810583,37.03208,-10.782899,-9.173343,4.6408267,-6.774682
113,4.984431743621826,169.4591827392578,76.46018981933594,-3.0243539007483604,-1.872889483457743,87.24906652994422,-18.609613,3.2894804,9.049347,6.956932,-9.052749,-5.8199406,19.924068,0.86019987,-2.9251962,45.538338,17.646378,15.000033,20.845495,1.94378,6.0433106,60.213135,32.090763,-4.409742,-18.57108,-10.424048,-5.2616854,4.8642383,1.0021707,-27.471296,36.66653,-9.564153,-9.259105,4.5243316,-7.3190827
114,4.9772419929504395,170.7969970703125,76.02253723144531,-1.0533714198986808,-1.9065863557668674,87.71929531508921,-18.575861,0.98349833,9.871963,8.36945,-4.301451,-2.835754,18.815195,-2.1870997,-4.2360325,49.307262,14.906141,15.000033,20.273598,0.08379115,6.949997,58.259735,32.257515,-5.0172305,-16.77578,-10.50463,-5.5488887,5.183082,1.1335998,-26.976183,36.27451,-8.001815,-9.431971,4.445937,-7.855319
115,4.976607322692871,172.10308837890625,75.50123596191406,0.8118714987911627,-2.055492559159564,88.12507636476514,-21.096498,-0.57626885,10.9441,15.653859,-2.7048697,0.20171063,17.800505,-5.112606,-5.225998,53.001297,11.923033,15.000033,19.738146,-1.6352643,7.8877907,56.12547,32.43163,-5.750242,-14.756453,-10.547212,-5.8270216,5.5202093,1.1540636,-26.338623,35.846565,-6.089858,-9.625013,4.3368983,-8.377856
116,4.962886333465576,173.3984832763672,74.92219543457031,2.251326696519181,-2.4338953273962693,88.4212735528965,-22.65668,-1.6781462,11.924055,21.502438,-2.038193,2.539007,17.004913,-7.4885116,-5.8424444,56.442657,9.049179,15.000033,19.298223,-2.8825495,8.841032,53.92165,32.622757,-6.6069803,-12.558962,-10.528073,-6.079872,5.8618674,1.0853275,-25.574419,35.368073,-3.8279042,-9.760564,4.123184,-8.902099
117,4.948160648345947,174.7233428955078,74.33951568603516,3.4213761887438783,-3.0508019381039166,88.66689994772568,-23.417986,-2.607056,12.569359,26.382248,-3.1584356,4.0143285,16.386719,-9.482846,-6.1182613,59.77202,6.152613,14.957017,18.886442,-3.8335493,9.908736,51.57675,32.850666,-7.5274777,-10.160214,-10.565705,-6.368923,6.195718,0.9500417,-24.68282,34.79325,-1.2789491,-9.843225,3.8034987,-9.340238
118,4.978898525238037,176.00994873046875,73.80048370361328,4.335788017562466,-3.7788755133268173,88.86724410170562,-23.940405,-3.2945015,12.916456,31.251608,-5.6439314,5.0058513,15.800481,-11.480578,-6.706841,63.059937,3.1140432,13.475761,18.514376,-4.5553427,10.993575,49.03381,33.107197,-8.552855,-7.5382676,-10.634631,-6.6828165,6.5420427,0.76252735,-23.665213,34.089336,1.5594212,-9.910106,3.406544,-9.7179985
119,4.990082263946533,177.29415893554688,73.33464050292969,5.11956303044125,-4.533711741153401,89.02791219963555,-24.139668,-3.9176989,13.113329,35.64465,-8.608048,5.6675334,15.130641,-13.283666,-7.1194224,66.25378,0.079675116,11.922747,18.191221,-5.1534023,12.021111,46.235485,33.369232,-9.809416,-4.56032,-10.578058,-6.8959646,6.9238462,0.48231176,-22.54187,33.307274,4.792646,-9.929108,2.9035497,-10.22807
120,4.989013195037842,178.5845947265625,72.9466552734375,5.725737779274624,-5.212107912039962,89.13041300169095,-24.051414,-4.4084654,13.247335,39.297394,-11.251218,6.108099,14.264861,-14.823693,-7.394612,69.242935,-2.735995,10.485807,17.92936,-5.577802,12.855704,43.092506,33.602043,-11.414335,-1.065326,-10.259466,-6.8796372,7.36332,0.0784663,-21.348442,32.51252,8.511128,-9.870983,2.2654982,-11.065587
121,4.973917007446289,179.86550903320312,72.61511993408203,6.127825561236882,-5.792820111469156,89.12205555870297,-23.580957,-4.6990223,13.37032,42.031677,-13.494451,6.2596846,13.136302,-16.098879,-7.5021734,72.03444,-5.2930956,9.175685,17.765343,-5.761534,13.472499,39.499683,33.760372,-13.4556875,3.1179373,-9.796263,-6.686958,7.968759,-0.46290874,-20.104805,31.707283,12.874031,-9.732784,1.306958,-12.37972
122,4.947526931762695,181.10610961914062,72.34557342529297,6.366884568581405,-6.32337024922551,89.03806995910729,-22.760113,-4.845989,13.453815,44.07314,-15.750057,6.1121264,11.792928,-17.16271,-7.443537,74.6911,-7.7169666,7.8912306,17.658106,-5.763759,13.96934,35.5655,33.79906,-15.765859,7.7890954,-9.238767,-6.3450265,8.694159,-1.081181,-18.83208,30.83858,17.708313,-9.554981,0.10197186,-14.035393
123,4.95181941986084,182.33245849609375,72.10929107666016,6.485590901412467,-6.8069818125381545,88.98957693741467,-21.789263,-4.942106,13.450613,45.715275,-17.926504,5.851893,10.308196,-18.021555,-7.3264813,77.179634,-10.031188,6.6405287,17.49698,-5.701452,14.389937,31.605312,33.68248,-18.066217,12.50366,-8.298953,-5.679185,9.312935,-1.6953133,-17.580723,29.924665,22.609865,-9.348366,-0.98976403,-15.809396
124,4.969299793243408,183.529296875,71.89962768554688,6.527210316662505,-7.248171643977976,89.08643011996901,-20.86619,-5.070227,13.292803,47.242683,-19.92394,5.655416,8.763039,-18.680048,-7.267128,79.46541,-12.248776,5.4336452,17.162514,-5.67434,14.766692,27.846777,33.406033,-20.159536,16.93957,-6.67397,-4.522822,9.5755415,-2.2369041,-16.411013,29.025154,27.197515,-9.078969,-1.610556,-17.483225
125,4.983783721923828,184.71315002441406,71.72785186767578,6.4751936945152435,-7.636295726742383,89.32744170423692,-20.028519,-5.204363,12.956589,48.699947,-21.721949,5.5507784,7.1123,-19.09061,-7.266531,81.59534,-14.39065,4.198948,16.62881,-5.649546,15.083726,24.163465,32.980293,-22.198532,21.288752,-3.9895875,-2.5292175,9.277562,-2.7193446,-15.3550005,28.18785,31.491856,-8.752517,-1.6449016,-19.160166
126,5.021965503692627,185.87307739257812,71.57024383544922,6.317371280305897,-7.972219614055262,89.66722492900799,-19.17815,-5.2908654,12.466485,49.957775,-23.37438,5.447939,5.338687,-19.264717,-7.300566,83.57465,-16.43827,2.9517477,15.949999,-5.566858,15.333617,20.482525,32.40227,-24.237535,25.672764,-0.44858247,0.07084335,8.469555,-3.142435,-14.420108,27.407402,35.63144,-8.330369,-1.2943932,-20.909159
127,5.048590660095215,187.00860595703125,71.43761444091797,6.094487260385075,-8.277621646713953,90.14742875933105,-18.305454,-5.3837543,11.819939,51.029213,-24.888891,5.3408394,3.5691133,-19.31074,-7.449554,85.3012,-18.332207,1.8342583,15.11308,-5.478406,15.548824,16.916908,31.690416,-26.077116,29.86888,3.3164322,2.5664995,7.341345,-3.4542446,-13.621466,26.699757,39.458755,-7.6923976,-0.68299127,-22.465782
128,5.081171035766602,188.1439971923828,71.33804321289062,5.848395471265962,-8.574209589071616,90.81109866899446,-17.40222,-5.546265,11.018066,51.928032,-26.26999,5.226096,1.9244704,-19.345594,-7.7934923,86.6773,-20.01261,0.9855831,14.13371,-5.4418006,15.749585,13.807473,30.868233,-27.424578,33.460545,6.779766,4.2993393,6.2082295,-3.579877,-12.975449,26.054806,42.798973,-6.72742,0.06460068,-23.566622
129,5.118801593780518,189.27088928222656,71.2647476196289,5.585999932430216,-8.867814712045346,91.7373510923344,-16.468786,-5.8416905,10.008392,52.641647,-27.512058,5.111987,0.4553473,-19.431925,-8.436205,87.679115,-21.457531,0.4859329,12.945209,-5.493169,15.949194,11.011225,29.97827,-28.342781,36.6029,9.9170065,5.0396533,5.1259503,-3.5077791,-12.4892,25.465668,45.576416,-5.25808,1.0814073,-24.176292
130,5.182003974914551,190.40333557128906,71.23697662353516,5.284666400011675,-9.14300312427891,92.88236593498792,-15.506499,-6.218714,8.80588,53.17436,-28.61596,4.9983864,-0.90989363,-19.526098,-9.324841,88.359604,-22.693737,0.23783699,11.599907,-5.590158,16.121012,8.53747,29.03436,-28.952532,39.344124,13.052975,5.1498604,4.016023,-3.2562869,-12.154598,24.916903,47.90004,-3.3875084,2.3795888,-24.445597
131,5.261232376098633,191.5325927734375,71.23619079589844,4.948108835453018,-9.391267452078608,94.10320458152046,-14.502185,-6.5758834,7.5153694,53.54994,-29.59975,4.8717546,-2.232802,-19.59307,-10.29772,88.73118,-23.734592,0.11646347,10.187609,-5.6773047,16.25013,6.3284307,28.062258,-29.355478,41.618645,15.7121525,4.936295,3.084658,-2.887757,-11.966066,24.47712,49.90297,-1.4412076,3.6693866,-24.38264
132,5.347566604614258,192.64405822753906,71.26719665527344,4.581187222442759,-9.605813525356792,95.25634665029952,-13.448094,-6.8128448,6.245014,53.79268,-30.48161,4.7182093,-3.5756485,-19.588684,-11.189999,88.80645,-24.594633,-0.00023916611,8.800011,-5.7047954,16.326918,4.3548017,27.093008,-29.61603,43.32554,17.437342,4.7364154,2.5051236,-2.455193,-11.918939,24.214128,51.703262,0.25559205,4.6663465,-23.963451
133,5.43602180480957,193.74609375,71.3326644897461,4.160553191031016,-9.785730780685697,96.35104173941998,-12.355133,-6.90221,4.9703417,53.915436,-31.275547,4.5321927,-4.953383,-19.485025,-12.014439,88.57525,-25.258286,-0.150806,7.429245,-5.667387,16.361574,2.648997,26.146362,-29.65241,44.356422,18.073051,4.6071277,2.385704,-1.9775429,-12.012847,24.138615,53.327896,1.7717636,5.2911844,-23.039183
134,5.524419784545898,194.8641357421875,71.43915557861328,3.6930574510403824,-9.932675088111731,97.44846282613628,-11.225606,-6.896449,3.6539607,53.90203,-31.969105,4.3224463,-6.3324227,-19.317614,-12.843533,88.032265,-25.725025,-0.2690055,6.0409427,-5.5981593,16.361334,1.1954461,25.229614,-29.473522,44.788162,17.866219,4.4148355,2.6176383,-1.429021,-12.240319,24.20777,54.719078,3.218901,5.727674,-21.646513
135,5.617147445678711,196.00140380859375,71.58293914794922,3.2330533559009336,-10.047520402840648,98.48112439712818,-10.040561,-6.815846,2.3870099,53.72797,-32.538376,4.0958037,-7.7013783,-19.120447,-13.600031,87.191574,-26.027273,-0.31757268,4.696248,-5.5071893,16.310003,-0.09272664,24.354795,-29.258957,44.78787,16.980835,4.2117505,3.0268917,-0.7935648,-12.58449,24.406744,55.870235,4.342122,6.0656896,-20.019968
136,5.698577404022217,197.14036560058594,71.76593780517578,2.831229969214787,-10.13370537374548,99.38189079245143,-8.779916,-6.682925,1.2589873,53.366577,-32.957554,3.858979,-9.047053,-18.92625,-14.206545,86.06949,-26.199526,-0.26102734,3.4634225,-5.4048696,16.187664,-1.2913153,23.536251,-29.190315,44.51809,15.57836,4.0468326,3.440799,-0.047494378,-13.021249,24.712812,56.770718,4.8820343,6.368471,-18.396858
137,5.770617485046387,198.2882843017578,71.9832992553711,2.5076761934099494,-10.199626551970608,100.12418839658356,-7.421852,-6.499415,0.3018268,52.787502,-33.220554,3.613301,-10.389307,-18.720922,-14.599785,84.65555,-26.243538,-0.06189415,2.356555,-5.3072186,15.984273,-2.3952968,22.791862,-29.314095,43.929348,13.411317,3.974058,3.8838003,0.7922173,-13.541788,25.146866,57.439926,4.6632214,6.5853105,-16.693724
138,5.8531293869018555,199.44161987304688,72.22433471679688,2.2345344029495644,-10.245442972875919,100.74645259132153,-5.9858336,-6.2576537,-0.5339236,52.015266,-33.339066,3.3555877,-11.719556,-18.490044,-14.834303,82.943756,-26.147675,0.2486911,1.3497783,-5.211956,15.708446,-3.3614752,22.131615,-29.532282,42.948593,10.485571,3.933676,4.4215055,1.7131428,-14.142353,25.702452,57.8899,3.856375,6.664524,-14.825237
139,5.93082857131958,200.60569763183594,72.49210357666016,1.9913933852354713,-10.263004097121183,101.27855161236856,-4.510217,-5.966452,-1.2828004,51.09753,-33.31869,3.084675,-12.982421,-18.257917,-15.009898,80.953926,-25.925142,0.6048859,0.44795725,-5.1029053,15.366509,-4.20568,21.554577,-29.814215,41.709248,7.338486,3.8206027,4.941148,2.7351458,-14.804621,26.32189,58.110497,2.720949,6.662352,-13.029844
140,6.013866901397705,201.77577209472656,72.78266906738281,1.7598521105089373,-10.243396814039528,101.74961010143478,-3.0352283,-5.633596,-1.9795237,50.084835,-33.16506,2.798717,-14.126174,-18.048725,-15.227675,78.707794,-25.58567,0.94400007,-0.34032917,-4.9627557,14.9650135,-4.959168,21.0496,-30.14093,40.36441,4.5049677,3.551432,5.3274198,3.8773978,-15.502063,26.940271,58.100544,1.5093298,6.656989,-11.547069
141,6.100192070007324,202.95286560058594,73.0865478515625,1.543888512996726,-10.181542443065254,102.14369110630614,-1.5537121,-5.257954,-2.6165245,48.947372,-32.875294,2.4922512,-15.172211,-17.837234,-15.453862,76.1956,-25.123295,1.2743745,-0.9861736,-4.7886972,14.497378,-5.6525493,20.613169,-30.557205,38.939537,1.8962469,3.0658906,5.5765343,5.1435757,-16.222227,27.557407,57.848797,0.10244375,6.6664824,-10.419789
142,6.1788225173950195,204.14834594726562,73.40499114990234,1.3496710880173235,-10.08415205893876,102.45251809193608,-0.052153956,-4.840156,-3.1799543,47.675217,-32.449017,2.166556,-16.130835,-17.613043,-15.655793,73.408646,-24.538738,1.6234947,-1.4993229,-4.5936446,13.961675,-6.2689443,20.246433,-31.06629,37.370857,-0.6990967,2.4323065,5.727004,6.5095353,-16.96401,28.200525,57.383633,-1.5764673,6.647634,-9.53087
143,6.261775016784668,205.3557586669922,73.7301025390625,1.1650059784754712,-9.95954612839425,102.71582404476418,1.4398792,-4.388664,-3.695881,46.34348,-31.89231,1.8296586,-16.935312,-17.417309,-15.940877,70.36192,-23.847555,1.9636745,-1.9340857,-4.382117,13.370962,-6.7649784,19.938396,-31.576172,35.676243,-2.9231377,1.779647,5.741682,7.954307,-17.715542,28.844297,56.76393,-3.2162912,6.613468,-8.879011
144,6.350248336791992,206.5786590576172,74.06146240234375,0.9778637172698376,-9.815623612007645,102.97311429908208,2.892395,-3.9103506,-4.1909537,45.029392,-31.213526,1.4896965,-17.521633,-17.286749,-16.422056,67.067726,-23.064754,2.2701535,-2.3475146,-4.156189,12.735389,-7.1061115,19.672487,-31.992758,33.886044,-4.4153886,1.2384043,5.603352,9.449834,-18.460041,29.46484,56.060894,-4.5050673,6.5841017,-8.464037
145,6.433534622192383,207.80926513671875,74.39393615722656,0.7839454295477041,-9.648290234549348,103.21089152971183,4.315638,-3.3996615,-4.657173,43.709335,-30.39495,1.1273227,-17.87088,-17.22882,-17.155508,63.485962,-22.135561,2.5611968,-2.7273698,-3.902907,12.040016,-7.2843766,19.43726,-32.2845,32.004772,-4.9510913,0.8205743,5.2849283,10.990906,-19.190916,30.099337,55.299065,-5.344641,6.5655956,-8.392885
146,6.517239093780518,209.05307006835938,74.72491455078125,0.5885805155433828,-9.455361302649752,103.4150391236333,5.717409,-2.8578322,-5.0861673,42.36031,-29.440529,0.7453121,-18.016867,-17.195332,-18.086876,59.615635,-21.067318,2.8587165,-3.0536435,-3.624269,11.283172,-7.330267,19.233128,-32.500404,30.034822,-4.7632985,0.46295938,4.8228626,12.582099,-19.909063,30.746836,54.45561,-5.90583,6.5630784,-8.633145
147,6.610395908355713,210.32376098632812,75.05534362792969,0.3954128925623568,-9.246633261106432,103.62252799361173,7.066016,-2.2997425,-5.501648,41.05805,-28.390162,0.38415843,-17.983013,-17.139374,-19.156847,55.523327,-19.963505,3.1477883,-3.3685107,-3.344742,10.493047,-7.2699976,19.063599,-32.671238,28.00394,-4.177333,0.18125223,4.301609,14.216532,-20.60916,31.317013,53.528717,-6.285428,6.5911403,-8.975561
148,6.693045616149902,211.61830139160156,75.376220703125,0.20925996145658785,-9.032154619958213,103.8712123329963,8.3290205,-1.7395533,-5.9284563,39.882553,-27.28655,0.085723884,-17.793392,-17.026676,-20.30215,51.268616,-18.93077,3.4071722,-3.7141447,-3.0887492,9.696896,-7.1276784,18.93339,-32.83009,25.938162,-3.5195339,-0.003231299,3.8009477,15.888344,-21.280521,31.720476,52.517467,-6.579296,6.6604333,-9.210581
149,6.801814079284668,212.92686462402344,75.68852233886719,0.02416992872369221,-8.817705979260491,104.17698160180962,9.5084715,-1.1684659,-6.3746634,38.848442,-26.118284,-0.1204242,-17.393328,-16.863047,-21.605278,46.774197,-17.99132,3.5861325,-4.1051993,-2.8532927,8.895832,-6.8815827,18.845406,-32.969448,23.818201,-2.7126782,-0.06695371,3.3239362,17.619574,-21.90803,31.918177,51.402996,-6.8002253,6.797915,-9.335926
150,6.912031650543213,214.2293701171875,75.97652435302734,-0.16031575877787738,-8.596700391592263,104.51621245509483,10.618859,-0.5827455,-6.824602,37.920506,-24.874285,-0.26323342,-16.793459,-16.63763,-23.06975,42.016415,-17.08261,3.724844,-4.5135145,-2.6286387,8.077514,-6.528078,18.801064,-33.079025,21.634594,-1.6360769,-0.033093274,2.8330798,19.409714,-22.485815,31.95642,50.195835,-6.903194,6.98836,-9.447496
151,7.0268778800964355,215.55575561523438,76.24766540527344,-0.3257330211866508,-8.361785888763894,104.87016871574428,11.647622,-0.007866956,-7.272594,37.09936,-23.592255,-0.3878986,-16.11056,-16.317461,-24.5077,37.118336,-16.165997,3.9244664,-4.924027,-2.4287682,7.249088,-6.1152167,18.80263,-33.183952,19.423769,-0.5515675,0.0595994,2.3443182,21.221737,-23.017773,31.878004,48.933773,-6.8981752,7.1782355,-9.482035
152,7.1328535079956055,216.8781280517578,76.47856140136719,-0.4501696762917019,-8.106801097896444,105.22155702485288,12.590344,0.5259192,-7.7148776,36.372627,-22.302383,-0.53971714,-15.452098,-15.890137,-25.722038,32.184,-15.1904335,4.2725177,-5.3211555,-2.2721803,6.41853,-5.6936345,18.852085,-33.314434,17.223703,0.27645463,0.177751,1.875931,23.0226,-23.514885,31.723082,47.64863,-6.7955866,7.314568,-9.375164
153,7.255006790161133,218.2041473388672,76.67940521240234,-0.5163471507627018,-7.829705560138986,105.57249402279739,13.455815,0.9962635,-8.157013,35.721886,-20.982817,-0.7218311,-14.774054,-15.3315525,-26.7099,27.0494,-14.104517,4.794012,-5.7121625,-2.1738327,5.5770845,-5.255378,18.953672,-33.476536,15.025881,0.81399095,0.34000665,1.4233862,24.828457,-23.983913,31.47809,46.319645,-6.57021,7.392198,-9.098678
154,7.3716654777526855,219.54501342773438,76.85015869140625,-0.5114105919522516,-7.541170669631511,105.94063562127968,14.259762,1.3882338,-8.611967,35.140594,-19.615038,-0.9106189,-13.992014,-14.688667,-27.550596,21.598585,-12.884366,5.4301205,-6.1145473,-2.1488662,4.7294235,-4.7737417,19.110615,-33.649597,12.803046,1.1906071,0.5596453,0.978618,26.660667,-24.42315,31.128698,44.92047,-6.2238364,7.4394145,-8.689998
155,7.489308834075928,220.892578125,76.97999572753906,-0.39792950794908455,-7.258552107108048,106.33733405506041,15.01819,1.6582375,-9.0955305,34.62063,-18.226732,-1.1061376,-13.144509,-14.090898,-28.17407,16.02222,-11.523238,6.145921,-6.5334296,-2.2391646,3.9029248,-4.274359,19.321995,-33.826153,10.570524,1.3873726,0.7992323,0.55664355,28.49525,-24.83185,30.715717,43.473946,-5.810096,7.454528,-8.182671
156,7.6161956787109375,222.23159790039062,77.06745147705078,-0.1338699375925382,-6.998806706860005,106.77399941617934,15.743713,1.756473,-9.624542,34.156593,-16.846266,-1.3061182,-12.301204,-13.681275,-28.515718,10.593368,-10.048356,6.920834,-6.9738975,-2.4941003,3.121268,-3.7856402,19.584084,-34.000595,8.349485,1.3852223,1.0213189,0.17311892,30.303806,-25.21085,30.283272,42.00987,-5.3817863,7.4341097,-7.6104712
157,7.752635955810547,223.56585693359375,77.10835266113281,0.2885243683590809,-6.741373295644463,107.26415533558054,16.409426,1.6770595,-10.221236,33.738853,-15.460561,-1.5089244,-12.339437,-13.933964,-28.318798,7.2710185,-9.482049,7.769553,-7.45232,-2.927603,2.3545873,-3.3091187,19.896168,-34.18485,6.1381936,1.1411562,1.2483816,-0.13754807,32.096046,-25.559818,29.829067,40.515457,-4.904687,7.3800316,-6.944216
158,7.883191108703613,224.90760803222656,77.10102081298828,0.8032739871592564,-6.483308023717033,107.79106663731382,17.009163,1.4993899,-10.8697605,33.397606,-14.080457,-1.7326752,-13.599268,-14.889004,-27.548279,6.7918887,-10.261808,8.704549,-7.957911,-3.4629698,1.6004319,-2.8323545,20.256989,-34.37737,3.9274743,0.67778385,1.4920979,-0.38935825,33.876102,-25.879267,29.336245,38.987514,-4.365784,7.296068,-6.177724
159,8.027216911315918,226.25491333007812,77.05866241455078,1.196263521505503,-6.245508659283495,108.30145638960568,17.538565,1.471399,-11.508452,33.292854,-12.857053,-2.0396988,-14.964638,-15.690093,-26.632359,6.7563953,-11.126326,9.665436,-8.439327,-3.8566217,0.92386967,-2.3637335,20.649471,-34.552578,1.7353687,0.07248424,1.6941633,-0.63464355,35.578136,-26.174326,28.832582,37.500843,-3.8457224,7.1762614,-5.37552
160,8.152800559997559,227.57347106933594,76.98648834228516,1.5488317721525804,-6.0908541787019415,108.78266002906231,18.098896,1.4788562,-12.109798,33.317013,-11.727817,-2.3995223,-16.132128,-16.366266,-25.71235,6.7398977,-11.799096,10.653232,-8.877388,-4.196284,0.3863465,-1.9245235,21.062931,-34.68545,-0.40460145,-0.5931056,1.8027635,-0.94078815,37.191914,-26.450222,28.349047,36.07475,-3.4272423,7.0163465,-4.6087813
161,8.268585205078125,228.87136840820312,76.88584899902344,1.9022784503775756,-6.020793235026707,109.2371152608446,18.684858,1.468846,-12.676668,33.468067,-10.691911,-2.8187497,-17.09254,-17.016342,-24.72746,6.7199287,-12.245995,11.760323,-9.266181,-4.52118,-0.013292998,-1.5349107,21.489162,-34.782806,-2.4987195,-1.3480972,1.8408502,-1.3375365,38.726776,-26.712147,27.88512,34.709198,-3.1108143,6.788017,-3.907443
162,8.382305145263672,230.15841674804688,76.74087524414062,2.2706735514014498,-6.0068014695834595,109.67158938248427,19.259354,1.4320198,-13.222019,33.756973,-9.745063,-3.2864661,-17.914408,-17.669975,-23.632292,6.7160797,-12.499195,12.950796,-9.617485,-4.849524,-0.3149432,-1.1903764,21.923286,-34.856846,-4.5407834,-2.217229,1.8270874,-1.7890172,40.19742,-26.961956,27.42918,33.38507,-2.8572392,6.500964,-3.229878
163,8.496273040771484,231.41619873046875,76.56725311279297,2.5483508646582322,-6.044319960998424,110.04966184040074,19.831068,1.4946568,-13.702448,34.197765,-8.902426,-3.7858045,-18.468166,-18.143545,-22.626629,6.556388,-12.524928,13.9921255,-9.896499,-5.0867143,-0.5354854,-0.9686703,22.244276,-34.914143,-6.3192043,-3.0875778,1.6999681,-2.27661,41.519073,-27.137346,27.023033,32.224995,-2.6912537,6.2001,-2.5552254
164,8.620428085327148,232.65609741210938,76.36512756347656,2.742846934504236,-6.110396527108432,110.33251182865608,20.400887,1.6513828,-14.07331,34.759865,-8.142324,-4.280562,-18.885746,-18.456879,-21.775229,6.5542893,-12.5332365,14.680489,-10.077869,-5.2400327,-0.6908318,-0.8209778,22.488089,-34.943615,-7.8446956,-3.8873947,1.3970466,-2.7622492,42.694965,-27.268202,26.664625,31.19491,-2.6361704,5.9342675,-1.839709
165,8.751220703125,233.8805389404297,76.12664031982422,2.8782654245040367,-6.222854995709545,110.485509392077,21.008198,1.870641,-14.285579,35.43525,-7.48348,-4.743651,-19.087017,-18.588026,-21.099852,6.6339517,-12.612132,14.949637,-10.120225,-5.3243017,-0.7395054,-0.6941902,22.748516,-34.94857,-9.234303,-4.6361957,0.84857804,-3.2435193,43.809593,-27.413431,26.29081,30.179333,-2.7486243,5.7001953,-1.0342737
166,8.889588356018066,235.0944061279297,75.84945678710938,2.9226722573097765,-6.378787589220003,110.53205549735993,21.636698,2.1844602,-14.362936,36.240284,-6.931916,-5.2045455,-18.977398,-18.496166,-20.59386,6.559533,-12.579808,14.903079,-10.067034,-5.293479,-0.6466994,-0.4458888,23.143803,-34.884262,-10.734257,-5.390977,0.11525035,-3.725921,44.94229,-27.64775,25.878546,29.036543,-3.0012176,5.489137,-0.15786484
167,9.020776748657227,236.2946014404297,75.53750610351562,2.8311936519793335,-6.533731941787465,110.52972141165837,22.218344,2.6425602,-14.380537,37.171135,-6.4416747,-5.7106233,-18.733027,-18.216377,-20.235851,6.5329905,-12.299753,14.620036,-9.995772,-5.1441402,-0.5322659,-0.3069075,23.402866,-34.76705,-11.885375,-6.0939612,-0.70892,-4.2205887,45.77655,-27.805847,25.620878,28.19795,-3.2749643,5.291724,0.70037127
168,9.125078201293945,237.4979248046875,75.1928482055664,2.5081084455792193,-6.645589113118191,110.53680081838797,22.690176,3.3515415,-14.412096,38.23639,-5.983014,-6.3228626,-18.411097,-17.678501,-20.07001,6.514787,-11.518628,14.189475,-9.967724,-4.754311,-0.35040465,-0.03422406,23.770142,-34.559612,-13.078584,-6.8068824,-1.5248148,-4.6585364,46.47479,-28.038265,25.38836,27.386293,-3.5027382,5.1317244,1.5647969
169,9.211189270019531,238.69729614257812,74.81385803222656,1.9125732968122298,-6.724529647684972,110.59558628765275,23.08304,4.36328,-14.495301,39.396725,-5.545967,-7.062989,-18.002981,-16.862387,-20.215353,6.5636578,-10.326418,13.796575,-10.070704,-4.122663,-0.11564593,0.37094638,24.189972,-34.21188,-14.217251,-7.553909,-2.3952925,-5.074451,46.900127,-28.29987,25.307497,26.75014,-3.6639729,5.019109,2.4169536
170,9.318765640258789,239.84799194335938,74.4680404663086,1.0661897481449614,-6.800199751947916,110.67267405964836,23.447742,5.6448174,-14.582677,40.643852,-5.1457844,-7.9112754,-17.44396,-15.7115345,-20.651127,6.5472207,-8.732149,13.382073,-10.197542,-3.268737,0.18445088,0.7287429,24.528355,-33.82431,-15.097838,-8.299295,-3.3435724,-5.4876013,47.08455,-28.504461,25.329039,26.333189,-3.8263464,4.9408884,3.2612965
171,9.498710632324219,240.93402099609375,74.2037353515625,0.026657884518425476,-6.847103546081139,110.71113152551773,23.740437,7.1126943,-14.63349,42.032295,-4.7904105,-8.860306,-16.930273,-14.264299,-21.124767,6.587635,-6.578719,12.697676,-10.269336,-2.2205985,0.5244361,0.9852115,24.779541,-33.444786,-15.715532,-8.946816,-4.2054634,-5.8402624,47.029514,-28.66075,25.431702,26.147984,-3.9527822,4.881301,4.0608745
172,9.698685646057129,242.0135040283203,73.91410827636719,-1.120646914477615,-6.83865753001986,110.64658471627313,23.908163,8.65824,-14.612277,43.61719,-4.481453,-9.893816,-16.59392,-12.603849,-21.407415,6.7129855,-3.6310585,11.493903,-10.206079,-1.0321194,0.8603254,1.0796437,24.92705,-33.115185,-16.047632,-9.391709,-4.8182817,-6.0720763,46.725563,-28.774168,25.60745,26.220003,-4.001843,4.826103,4.7734537
173,9.869037628173828,243.08273315429688,73.56818389892578,-2.4212513145791723,-6.723871719499638,110.45698539033114,23.880213,10.335398,-14.550049,45.46179,-4.2597947,-11.038699,-16.484991,-10.689495,-21.43504,6.8336234,1.0600021,9.392556,-9.966913,0.36420923,1.161209,0.96844876,24.978207,-32.843082,-16.133478,-9.600141,-5.0840244,-6.161914,46.259705,-28.843283,25.747946,26.414204,-4.023444,4.816054,5.4411473
174,10.03211784362793,244.11167907714844,73.17642974853516,-3.670933647025837,-6.574638691787797,110.22300511300585,23.727594,11.921495,-14.530383,47.491425,-4.0684,-12.24621,-19.359417,-9.957759,-20.915443,13.379403,3.7831717,6.7133822,-9.633517,1.7237562,1.4470168,0.6896097,24.952904,-32.61831,-15.979722,-9.62675,-5.1062417,-6.13888,45.6698,-28.863005,25.875797,26.703444,-4.0291696,4.8477535,6.0676775
175,10.218695640563965,245.08920288085938,72.77587890625,-4.543988005193512,-6.538432345546551,110.01888826873375,23.571243,13.032116,-14.558884,49.567886,-3.742382,-13.377682,-21.876785,-9.6073,-20.559923,19.397297,6.5334067,4.0940256,-9.350507,2.666905,1.7672671,0.3479684,24.83486,-32.374836,-15.516673,-9.487428,-5.0224066,-6.038592,44.783466,-28.862814,26.250217,27.334057,-3.8943324,4.8452353,6.5422883
176,10.366476058959961,246.0824737548828,72.37389373779297,-5.068476512191037,-6.685999826433774,109.81856812291063,23.489388,13.693393,-14.525334,51.597916,-3.1753829,-14.370572,-23.634527,-9.464742,-20.352564,24.3684,7.8448067,2.1338336,-9.122316,3.2152648,2.170114,0.0239127,24.62474,-32.11908,-14.694024,-9.2165,-4.9822955,-5.858139,43.474842,-28.86709,27.04178,28.51122,-3.5009103,4.7293143,6.7795005
177,10.492707252502441,247.04119873046875,72.03681182861328,-5.350683045856253,-7.059497419021848,109.50986567049851,23.572144,14.06806,-14.228253,53.58263,-2.326991,-15.000033,-24.668636,-9.337139,-20.124538,28.613178,6.67942,1.023155,-8.8868265,3.5166016,2.7068672,-0.25086913,24.307081,-31.819548,-13.549764,-8.819223,-4.980803,-5.600776,41.650192,-28.905611,28.274092,30.2803,-2.6749177,4.4686384,6.7162204
178,10.579536437988281,247.99156188964844,71.74624633789062,-5.491603917101472,-7.573092864289755,109.09167099794053,23.693405,14.354039,-13.618735,55.610992,-1.2745317,-15.000033,-25.372099,-9.230471,-19.785297,32.734608,3.7319422,0.37686062,-8.639434,3.7101834,3.33531,-0.49953434,23.876402,-31.453316,-12.114116,-8.278962,-4.955249,-5.2606745,39.40628,-28.975536,29.843304,32.483677,-1.5087785,4.1051455,6.4260597
179,10.64576244354248,248.92166137695312,71.50641632080078,-5.486009089718725,-8.095129968641483,108.67706035821742,23.644114,14.514597,-13.0071125,57.681595,-0.076513216,-15.000033,-25.905544,-9.227494,-19.370281,36.62224,0.16858707,-0.009454196,-8.480696,3.7677097,3.9463346,-0.6969748,23.331871,-30.989904,-10.324685,-7.5857863,-4.9604387,-4.8429265,36.8344,-29.049541,31.78226,35.07113,-0.27280018,3.6727824,6.015709
180,10.720176696777344,249.8115234375,71.3302993774414,-5.437429530356843,-8.488308284738645,108.40230021754267,23.207266,14.634822,-12.576608,59.81427,1.1717604,-15.000033,-26.29993,-9.277166,-19.048786,39.89147,-2.7011132,-0.35878333,-8.51849,3.75164,4.4449177,-0.82337016,22.67812,-30.420172,-8.119724,-6.7293587,-5.0486665,-4.35357,34.02382,-29.085894,34.115852,37.996468,0.75680524,3.2135918,5.584572
181,10.816991806030273,250.66265869140625,71.2134780883789,-5.371670939352078,-8.700133054145672,108.36306630870367,22.233154,14.696997,-12.473032,62.06753,2.701814,-15.000033,-26.484911,-9.393317,-18.942272,42.318184,-4.575705,-0.6895184,-8.817924,3.6256948,4.7811103,-0.82925504,21.900204,-29.714548,-5.4344077,-5.723629,-5.392275,-3.9091394,30.836222,-29.047031,37.15575,41.508938,2.0763056,2.5646005,5.07939
182,10.92764663696289,251.49697875976562,71.1363296508789,-5.284788519467017,-8.802864575709952,108.47212557065741,20.87664,14.685871,-12.600907,64.41527,4.4537516,-15.000033,-26.44367,-9.5440645,-19.003292,44.09884,-6.1126165,-0.9112973,-9.28967,3.4096255,5.030693,-0.7596252,21.001408,-28.903826,-2.322046,-4.5583444,-5.90356,-3.4696696,27.286549,-28.893734,40.715656,45.45746,3.6351252,1.7656323,4.4815288
183,11.063699722290039,252.2860107421875,71.08634185791016,-5.1913898000952,-8.85650560638577,108.59162639455202,19.384098,14.642935,-12.754408,66.73249,5.9225607,-15.000033,-26.280954,-9.638916,-19.116467,45.461475,-7.4257555,-1.0754286,-9.776751,3.1975126,5.277555,-0.7633871,20.029964,-28.112726,1.1226995,-3.1933622,-6.238821,-2.803619,23.681765,-28.594536,44.08273,49.29408,4.351037,1.179155,3.905136
184,11.192167282104492,253.02700805664062,71.048095703125,-5.111748312938493,-8.920488890271631,108.58407992995109,18.003752,14.626964,-12.718878,68.90564,6.5914483,-15.000033,-26.104624,-9.593021,-19.15707,46.633286,-8.628983,-1.2310143,-10.127045,3.082754,5.5954905,-0.96796477,19.055319,-27.472078,4.796772,-1.6053002,-6.044047,-1.6811572,20.348434,-28.150126,46.575264,52.574932,3.1145608,1.1767436,3.4467318
185,11.301769256591797,253.7331085205078,71.02257537841797,-5.115165617498734,-8.989942055028761,108.43241289135024,16.73645,14.864175,-12.254555,70.943085,6.229148,-14.512225,-25.902113,-9.325726,-19.157917,47.564625,-9.711555,-1.3883221,-10.320542,3.1543624,5.994366,-1.3696152,18.114157,-27.0065,8.744193,0.3320447,-5.166507,0.17120525,17.276731,-27.59481,48.224762,55.43348,-1.0156343,1.9128488,3.309825
186,11.403225898742676,254.40216064453125,71.01351928710938,-5.154728048732768,-9.04297970545696,108.20142605177854,15.489113,15.220152,-11.552208,72.89338,5.135365,-13.772902,-25.636276,-8.931406,-19.141731,48.19218,-10.635967,-1.5202384,-10.426831,3.3136628,6.428243,-1.880491,17.212208,-26.667728,12.961033,2.5036137,-3.7545428,2.5273895,14.34528,-26.953735,49.322956,58.086926,-7.284017,3.159033,3.5003943
187,11.502720832824707,255.03268432617188,71.03520965576172,-5.1979391876476635,-9.102607665412862,107.88214389023753,14.317416,15.556739,-10.752735,74.723,3.575578,-12.986608,-25.315062,-8.457095,-19.070107,48.59843,-11.421897,-1.6385837,-10.440838,3.5088494,6.893357,-2.4921434,16.370314,-26.475931,17.280226,4.5646563,-1.9394652,4.879057,11.615949,-26.24293,49.73505,60.352844,-14.148364,4.7227325,3.8042133
188,11.581470489501953,255.61892700195312,71.07962036132812,-5.212160123812135,-9.191164988888747,107.46646584240455,13.253583,15.805603,-9.900264,76.39713,1.8207016,-12.109757,-24.949535,-7.946845,-18.90819,48.86547,-12.08732,-1.7557408,-10.340102,3.691518,7.394744,-3.208119,15.617421,-26.46818,21.534815,6.2023554,0.08804307,6.7637753,9.174139,-25.471458,49.284298,62.019466,-20.105265,6.483605,3.9023426
189,11.650554656982422,256.1742858886719,71.15111541748047,-5.182263277244639,-9.320116456949624,106.91199723886069,12.324513,15.922302,-8.957535,77.909,-0.2909565,-11.033004,-24.547777,-7.3831205,-18.623253,48.99669,-12.618575,-1.886764,-10.103774,3.8649175,7.964333,-4.0484147,14.97341,-26.637774,25.701113,7.487867,2.5715404,8.264134,7.0608487,-24.637142,47.61045,62.934772,-25.479723,8.909434,3.793215
190,11.702096939086914,256.7087097167969,71.25308227539062,-5.1213177946312545,-9.475209648608018,106.23686290964768,11.504952,15.905942,-7.92966,79.27878,-2.8199987,-9.844848,-24.102972,-6.756363,-18.240421,48.956825,-13.012003,-2.0222816,-9.741931,4.045023,8.588247,-4.9956565,14.436285,-26.98809,29.857712,8.50892,5.484228,9.575781,5.1912107,-23.75479,44.93496,63.276318,-30.892275,11.92976,3.7239027
191,11.738944053649902,257.2068176269531,71.38257598876953,-5.043050291240088,-9.639946760269195,105.52397555883721,10.745137,15.790338,-6.9032426,80.50382,-5.3406973,-8.766133,-23.60398,-6.114235,-17.818594,48.76945,-13.302841,-2.1410503,-9.291652,4.2070875,9.213838,-5.9864216,14.004406,-27.54327,33.976795,9.056842,8.1828985,10.465126,3.4376006,-22.859911,41.982643,63.311535,-35.21686,14.703412,3.4612594
192,11.764945983886719,257.6922912597656,71.53938293457031,-4.966343299566721,-9.797489224790176,104.85660274301318,9.995322,15.64491,-5.94544,81.57891,-7.427048,-7.994526,-23.038635,-5.5020165,-17.418207,48.452843,-13.52364,-2.221249,-8.808223,4.3262835,9.79249,-6.9358206,13.68335,-28.302244,38.00607,8.964762,10.019777,10.713673,1.6856257,-21.996323,39.48641,63.292526,-37.23451,16.398628,2.5422301
193,11.797893524169922,258.1750183105469,71.72509765625,-4.898194207558186,-9.950098829500057,104.23294651789485,9.250157,15.516475,-5.0131326,82.49246,-8.982028,-7.5499053,-22.394163,-4.9132786,-17.042131,47.9897,-13.66656,-2.2475061,-8.314812,4.418501,10.324938,-7.841004,13.492233,-29.275227,41.992214,7.9527216,10.716306,10.175631,-0.04646221,-21.1812,37.508984,63.196507,-36.054676,16.6481,0.38274395
194,11.826526641845703,258.6368408203125,71.9324951171875,-4.832424372535765,-10.103373556939449,103.61728099192563,8.524283,15.382673,-4.0726976,83.25044,-10.221037,-7.3179054,-21.678192,-4.3290234,-16.663635,47.372894,-13.717859,-2.2369416,-7.8126464,4.4926853,10.831278,-8.705426,13.436793,-30.421585,45.91359,6.2151604,10.674933,9.000803,-1.7188038,-20.419788,35.742867,62.886974,-32.53369,15.789607,-2.7002745
195,11.847034454345703,259.08258056640625,72.16049194335938,-4.7617269261889055,-10.248526044024242,103.04055475390751,7.8074985,15.22598,-3.1959953,83.86139,-11.192467,-7.288298,-20.914198,-3.7742252,-16.298481,46.644653,-13.706131,-2.2146003,-7.3284774,4.51778,11.293255,-9.455468,13.495958,-31.659403,49.61567,4.3043976,10.269989,7.402375,-3.3681295,-19.73977,34.367012,62.42172,-28.050964,14.1029625,-5.8477907
196,11.84432315826416,259.52947998046875,72.40451049804688,-4.684458518203355,-10.375650500641358,102.53464675639704,7.0890756,15.025531,-2.4566836,84.334015,-11.944478,-7.4529552,-20.1235,-3.2722776,-15.963489,45.84131,-13.6563635,-2.203515,-6.9029646,4.470077,11.703123,-10.01549,13.637082,-32.883827,52.9417,2.7927172,9.838891,5.6105795,-5.0416036,-19.168917,33.5836,61.85885,-23.876171,12.084827,-8.299428
197,11.875859260559082,259.95086669921875,72.6638412475586,-4.603374004698088,-10.483588995664157,102.11939188710728,6.3570657,14.760762,-1.8916686,84.66429,-12.376658,-7.896763,-19.301022,-2.829026,-15.672439,44.956383,-13.570395,-2.2051244,-6.557282,4.3476553,12.067799,-10.392349,13.84391,-34.113712,55.921207,1.647384,9.275043,3.5015779,-6.7281427,-18.72144,33.564693,61.17958,-19.559847,9.567715,-9.907038
198,11.902397155761719,260.366455078125,72.93546295166016,-4.5220176201989934,-10.577177618712092,101.77452768596866,5.618244,14.450557,-1.4536697,84.84832,-12.502852,-8.593501,-18.43741,-2.4290786,-15.41449,43.970818,-13.434319,-2.2058794,-6.2785263,4.1806445,12.393178,-10.6333685,14.113443,-35.37094,58.637634,0.6099333,8.469808,1.0003873,-8.366709,-18.386496,34.184563,60.321823,-14.682068,6.416628,-10.899993
199,11.92204761505127,260.7662353515625,73.21583557128906,-4.434808349383622,-10.655981663808845,101.47012357711809,4.88821,14.131343,-1.092017,84.90129,-12.540533,-9.368464,-17.554867,-2.0651026,-15.169266,42.914986,-13.255257,-2.2048013,-6.0341525,3.992574,12.680927,-10.734753,14.431614,-36.569485,61.01271,-0.047812138,7.694083,-1.555862,-9.964863,-18.136019,35.16827,59.310333,-10.412489,3.3794591,-11.4031725
200,11.938392639160156,261.14776611328125,73.50374603271484,-4.3361295671634466,-10.719477343010062,101.17635666705688,4.1850743,13.843972,-0.75480455,84.83552,-12.703762,-10.044719,-16.674015,-1.7291058,-14.916767,41.8158,-13.039069,-2.2017925,-5.785966,3.8018913,12.928876,-10.698742,14.779277,-37.63249,62.979527,-0.028414672,7.1840787,-3.816771,-11.558503,-17.938557,36.24065,58.198128,-7.9088044,1.2012048,-11.763147
201,11.945130348205566,261.5296630859375,73.79463958740234,-4.2180359599120845,-10.764082593212354,100.8888159581463,3.508544,13.559751,-0.45540464,84.63731,-13.025116,-10.614994,-15.803207,-1.4281636,-14.649122,40.674774,-12.782959,-2.1912532,-5.5147114,3.59806,13.12038,-10.523391,15.139778,-38.56816,64.53961,0.99324244,6.928,-5.7572465,-13.195416,-17.779766,37.458813,57.00778,-7.695763,0.15011726,-12.219104
202,11.950366020202637,261.8929748535156,74.08783721923828,-4.086054476133057,-10.79152857911447,100.62217811585353,2.8531573,13.2722435,-0.21282588,84.30388,-13.397703,-11.158825,-14.930886,-1.161049,-14.379395,39.47949,-12.485663,-2.1726718,-5.2307305,3.375451,13.256191,-10.229001,15.509305,-39.422497,65.76166,2.7950547,6.7579494,-7.5321946,-14.854459,-17.647617,38.922935,55.728226,-9.040537,-0.15062113,-12.695268
203,11.962825775146484,262.25244140625,74.38216400146484,-3.9545753529629026,-10.808642963915645,100.37489077084177,2.2263563,13.055451,0.017130801,83.866035,-13.822591,-11.628319,-14.049303,-0.90962136,-14.118631,38.234783,-12.153716,-2.1544795,-4.9405093,3.1520154,13.357143,-9.845328,15.889497,-40.1745,66.67962,4.874476,6.686748,-9.064626,-16.476498,-17.51974,40.41418,54.376816,-11.239779,0.037322707,-13.126511
204,11.982595443725586,262.60540771484375,74.67729949951172,-3.8377412489122786,-10.82244938971824,100.14624844894023,1.6366584,12.979974,0.2787763,83.353065,-14.298459,-11.977283,-13.149024,-0.65711856,-13.876665,36.943996,-11.792906,-2.1447957,-4.6460357,2.940991,13.442534,-9.408276,16.284119,-40.816338,67.328964,6.719577,6.765032,-10.280858,-18.014175,-17.37732,41.70681,52.98988,-13.596765,0.43592197,-13.438805
205,12.00538158416748,262.9501037597656,74.97445678710938,-3.7456821123928656,-10.833079129135456,99.9430013256241,1.0922647,13.065736,0.5593133,82.7456,-14.8736515,-12.232522,-12.217619,-0.38717878,-13.665693,35.581253,-11.387594,-2.1465805,-4.349184,2.7464776,13.506589,-8.907545,16.694479,-41.33923,67.66053,8.348857,7.124263,-11.17054,-19.484512,-17.211458,42.774036,51.5929,-16.377972,1.167313,-13.630448
206,12.021483421325684,263.3026428222656,75.26551818847656,-3.6703270405205806,-10.837447174768293,99.76392566305033,0.5906058,13.269926,0.84298104,82.03417,-15.532278,-12.408871,-11.262917,-0.11092747,-13.477054,34.152187,-10.940155,-2.1514757,-4.0497265,2.5556014,13.537228,-8.325175,17.119572,-41.751144,67.67797,9.992962,7.721309,-11.786427,-20.910517,-17.02172,43.727386,50.185818,-19.81483,2.3092628,-13.678958
207,12.036479949951172,263.63751220703125,75.54330444335938,-3.5877315920511226,-10.839037344956557,99.59408189141944,0.11959239,13.566059,1.1682878,81.271736,-16.174585,-12.4452505,-10.308567,0.14700396,-13.289159,32.709644,-10.483635,-2.1527903,-3.7464602,2.3587887,13.548292,-7.6888247,17.558647,-42.06914,67.49165,11.45005,8.368231,-12.140263,-22.262821,-16.81016,44.53966,48.77017,-23.162428,3.4951534,-13.535704
208,12.055047988891602,263.9753112792969,75.81098937988281,-3.4755244479322336,-10.84055519798638,99.41868828259106,-0.33065137,13.924796,1.5742095,80.5098,-16.703907,-12.282903,-9.379624,0.35830206,-13.081059,31.309132,-10.052242,-2.1464393,-3.4307377,2.145774,13.556752,-7.03414,18.009754,-42.316204,67.21454,12.512327,8.877307,-12.227949,-23.516514,-16.584713,45.174873,47.34528,-25.66909,4.3586445,-13.21986
209,12.064291954040527,264.306396484375,76.06664276123047,-3.3214800016715817,-10.847884966993725,99.23965892200569,-0.7516082,14.352267,2.0881164,79.757164,-17.09214,-11.855279,-8.471674,0.5040071,-12.848847,29.960388,-9.659627,-2.13826,-3.0995462,1.900855,13.572427,-6.357337,18.46934,-42.476086,66.83826,13.167442,9.252585,-11.960861,-24.663143,-16.354597,45.581345,45.884857,-27.11561,4.825546,-12.702508
210,12.068462371826172,264.6181640625,76.30448913574219,-3.1404564857422606,-10.857379350658512,99.06319092294721,-1.1366435,14.850815,2.68694,78.98888,-17.401003,-11.217727,-7.5774975,0.600879,-12.604787,28.63851,-9.287349,-2.129593,-2.7539308,1.6360589,13.5880575,-5.6494923,18.934847,-42.54725,66.3172,13.502876,9.587789,-11.360189,-25.722399,-16.127275,45.784798,44.397034,-27.914307,5.0811553,-12.020507
211,12.064347267150879,264.9292907714844,76.52820587158203,-2.9502951167916125,-10.858201580544252,98.88114086690936,-1.4982947,15.388521,3.333351,78.20811,-17.66561,-10.493212,-6.7204103,0.6728419,-12.352068,27.35637,-8.925989,-2.1121404,-2.3882582,1.383672,13.596855,-4.939514,19.405216,-42.57382,65.7078,13.466782,9.821425,-10.579475,-26.707878,-15.906495,45.85932,42.922882,-28.250383,5.163815,-11.32553
212,12.047144889831543,265.2427673339844,76.74259185791016,-2.7702767604172323,-10.83907676960076,98.6857108982158,-1.8506736,15.935017,3.9891624,77.41392,-17.916658,-9.802566,-5.9174075,0.7448134,-12.093505,26.11383,-8.563726,-2.078717,-1.9978817,1.1742913,13.590288,-4.2557087,19.879728,-42.602543,65.06716,13.01099,9.887071,-9.77397,-27.634861,-15.693586,45.883373,41.507954,-28.304825,5.109988,-10.764764
213,12.02293872833252,265.53314208984375,76.93695068359375,-2.6002675608843204,-10.793523838261791,98.4776273409634,-2.2030458,16.52147,4.6887946,76.62137,-18.13866,-9.143383,-5.187211,0.80935335,-11.830007,24.930347,-8.198726,-2.027261,-1.5773904,1.0122975,13.561915,-3.6175988,20.35866,-42.671925,64.40362,11.992952,9.743999,-8.929508,-28.507938,-15.491217,45.84676,40.17229,-27.902145,4.864267,-10.373729
214,12.006450653076172,265.80816650390625,77.1206283569336,-2.43127617168969,-10.728639896239708,98.26006011886163,-2.5434852,17.148638,5.4418545,75.826096,-18.326647,-8.464222,-4.514921,0.8565306,-11.560047,23.799261,-7.8378925,-1.9653149,-1.1229889,0.8836343,13.519811,-3.0102284,20.84019,-42.75813,63.68998,10.490145,9.413525,-7.989038,-29.299871,-15.295547,45.692432,38.877678,-27.043644,4.4399657,-10.0700245
215,11.975668907165527,266.082275390625,77.29310607910156,-2.2733670695898156,-10.653109441081375,98.03012646809705,-2.8590364,17.743414,6.1681147,74.9962,-18.518251,-7.8102126,-3.8720713,0.9053382,-11.281575,22.691366,-7.4805007,-1.8991197,-0.6569399,0.7835308,13.463499,-2.3924413,21.321077,-42.79922,62.93191,8.780948,8.931123,-7.0454063,-30.069899,-15.116998,45.532837,37.636673,-26.052975,3.9630997,-9.832468
216,11.940899848937988,266.3661193847656,77.4513931274414,-2.138592113700847,-10.575159594540892,97.78502555830998,-3.1419828,18.236422,6.7818685,74.100426,-18.747858,-7.224732,-3.2322805,0.97649866,-10.992988,21.580631,-7.12782,-1.8334969,-0.1772976,0.7157338,13.409937,-1.7439971,21.796083,-42.74283,62.133163,7.147464,8.343965,-6.1862803,-30.761576,-14.93903,45.36331,36.39353,-25.408308,3.5629368,-9.642197
217,11.89093017578125,266.6508483886719,77.59478759765625,-2.0268451194803867,-10.495879689583413,97.50985081892107,-3.389327,18.625034,7.272387,73.14533,-19.03588,-6.6974835,-2.5899625,1.077462,-10.681418,20.453949,-6.7754645,-1.7664949,0.29477876,0.6727613,13.348344,-1.0166508,22.26307,-42.524036,61.279076,5.5892873,7.598826,-5.399881,-31.469624,-14.77529,45.291172,35.192135,-25.094099,3.2517416,-9.52804
218,11.83841609954834,266.9293212890625,77.72220611572266,-1.9341893344360306,-10.4111896741494,97.2110632340768,-3.610897,18.946606,7.6754656,72.14322,-19.356466,-6.2081356,-1.9545829,1.1982155,-10.3519745,19.319977,-6.423255,-1.696831,0.77542865,0.6597942,13.2831,-0.24043515,22.721409,-42.189438,60.36885,3.99215,6.6930413,-4.663464,-32.130207,-14.6161995,45.228477,34.006607,-24.97936,2.969015,-9.490173
219,11.783890724182129,267.2027893066406,77.84019470214844,-1.863032751599049,-10.322301791338795,96.91751478459474,-3.8197098,19.190943,7.9749026,71.070206,-19.669878,-5.781678,-1.3292896,1.3295116,-10.029164,18.196302,-6.0749726,-1.6289487,1.2507416,0.6748281,13.207522,0.54152274,23.166464,-41.813267,59.445244,2.4389188,5.764357,-4.0309052,-32.752872,-14.458581,45.175484,32.869873,-24.983885,2.7131338,-9.488952
220,11.730792999267578,267.47406005859375,77.94656372070312,-1.8160406746349196,-10.230288726653777,96.65794856916212,-4.0297103,19.347958,8.1547985,69.90321,-19.937042,-5.443,-0.71544564,1.4631149,-9.737888,17.095896,-5.7344604,-1.5673624,1.706741,0.71796364,13.11606,1.2804888,23.590313,-41.468998,58.555893,1.0093739,4.9551053,-3.544756,-33.343952,-14.302018,45.130726,31.81025,-25.029804,2.4838018,-9.483551
221,11.669178009033203,267.7427978515625,78.04093933105469,-1.797374514640452,-10.135549224971498,96.44173698956978,-4.2570267,19.414648,8.188327,68.65944,-20.152418,-5.1810856,-0.10863165,1.6020656,-9.488126,16.009907,-5.3971663,-1.5158322,2.160671,0.80120856,13.006945,1.9249009,23.98821,-41.22594,57.72875,-0.38527435,4.28525,-3.224293,-33.8638,-14.133678,45.05081,30.822464,-25.223177,2.2825427,-9.475802
222,11.605369567871094,268.0073547363281,78.1253662109375,-1.8027004739316332,-10.037919683471381,96.252477513747,-4.4896207,19.401846,8.0885935,67.34248,-20.33311,-4.9831777,0.48943505,1.749338,-9.265426,14.937785,-5.0626273,-1.47093,2.5792723,0.91445106,12.863636,2.5360138,24.355705,-41.006817,56.945694,-1.7614794,3.6932688,-3.034688,-34.43681,-13.987747,45.052177,29.95883,-25.42194,2.1012754,-9.487664
223,11.536947250366211,268.2707214355469,78.19658660888672,-1.8293973828529868,-9.938706067317664,96.08172989138019,-4.6972017,19.323196,7.900246,65.910034,-20.478622,-4.8676023,1.0882407,1.9041852,-9.058772,13.864044,-4.7275467,-1.4264996,3.0071492,1.0523868,12.72219,3.1065402,24.685099,-40.771183,56.200798,-2.9252124,3.2017186,-2.9289927,-34.90681,-13.83845,45.004406,29.113344,-25.681427,1.9504158,-9.492826
224,11.463821411132812,268.5330505371094,78.25621032714844,-1.8687234345377424,-9.83882391953659,95.92015918814639,-4.8483744,19.189543,7.669368,64.31749,-20.58718,-4.8553915,1.6925257,2.061466,-8.856431,12.78409,-4.3936424,-1.3764607,3.4042928,1.1908827,12.578672,3.708138,24.965393,-40.41096,55.482185,-3.6865337,2.8314712,-2.855451,-35.369965,-13.699025,44.995064,28.332367,-25.762003,1.8249761,-9.472938
225,11.389771461486816,268.7908630371094,78.30979919433594,-1.9180191355495146,-9.740476588415572,95.74858649178832,-4.9230833,18.997602,7.3979373,62.55041,-20.663317,-4.972386,2.3063762,2.2244227,-8.638722,11.690386,-4.054173,-1.3199903,3.7898417,1.3328346,12.443967,4.353594,25.185717,-39.89294,54.774727,-3.9417503,2.6089933,-2.8017185,-35.79962,-13.56676,45.00507,27.585793,-25.636284,1.739023,-9.408721
226,11.30786418914795,269.05462646484375,78.35496520996094,-1.9815820484913664,-9.642750299099827,95.57753856523257,-4.9378114,18.749697,7.062693,60.63279,-20.709135,-5.193414,2.9327815,2.3937345,-8.41673,10.575659,-3.7059085,-1.2599958,4.1669044,1.4858093,12.312427,5.006786,25.341728,-39.270042,54.100273,-3.8106954,2.517862,-2.7860157,-36.185265,-13.434597,45.021717,26.88156,-25.398924,1.6900934,-9.315008
227,11.209144592285156,269.3370056152344,78.39325714111328,-2.057142762760791,-9.543197249306582,95.44222333562081,-4.9167805,18.46498,6.6717596,58.574047,-20.717777,-5.4635434,3.5760283,2.5615525,-8.225265,9.4296,-3.347864,-1.1958432,4.5076156,1.6421194,12.176617,5.630021,25.434662,-38.593704,53.503002,-3.4368882,2.512671,-2.8049634,-36.529045,-13.299304,45.043938,26.245392,-25.121294,1.6522001,-9.222832
228,11.118833541870117,269.5985412597656,78.41686248779297,-2.0810184831950798,-9.427413669294411,95.36038844962228,-4.883535,18.098915,6.2755675,56.379345,-20.68335,-5.71822,3.8018534,2.5906825,-8.093014,9.150344,-3.4567451,-1.115325,4.8018293,1.7322413,12.023097,6.188358,25.472422,-37.912277,53.02216,-2.960947,2.54779,-2.8569458,-36.83326,-13.15948,45.069805,25.6991,-24.871954,1.5994991,-9.162741
229,11.047765731811523,269.8502197265625,78.41964721679688,-2.0868520263682475,-9.302880798223702,95.35900230078971,-4.8538957,17.676355,5.8121614,54.05728,-20.616255,-5.951399,3.9317572,2.5606058,-8.040585,9.071785,-3.6937041,-1.0238441,5.0356555,1.7879586,11.861181,6.6653123,25.460537,-37.23178,52.6597,-2.3282719,2.64325,-2.9812617,-37.093693,-13.010722,45.09143,25.252705,-24.67822,1.5305139,-9.156196
230,10.972634315490723,270.09722900390625,78.41632080078125,-2.10688171315164,-9.173323593650288,95.42308174441173,-4.807021,17.22986,5.2690444,51.5908,-20.511074,-6.1897407,4.072222,2.525635,-8.0524645,8.9709835,-3.9359663,-0.9264977,5.2163563,1.8452954,11.694498,7.0821867,25.399508,-36.52921,52.392094,-1.4945945,2.810532,-3.167982,-37.31219,-12.850405,45.109905,24.896198,-24.503134,1.4564238,-9.182302
231,10.878565788269043,270.34326171875,78.40179443359375,-2.15585390496068,-9.03707122819156,95.53028558421478,-4.726649,16.806864,4.7083774,48.988182,-20.353458,-6.436262,4.2214813,2.5090644,-8.107146,8.843361,-4.1628385,-0.8296348,5.3442492,1.9203652,11.518742,7.459624,25.289694,-35.81082,52.216526,-0.61797804,2.99429,-3.3388507,-37.490402,-12.68277,45.133995,24.62063,-24.336462,1.3689843,-9.208536
232,10.781723022460938,270.5859375,78.38768005371094,-2.240846016002458,-8.892482078044894,95.65649814292337,-4.5993667,16.445942,4.1964536,46.260365,-20.131598,-6.698914,4.3725586,2.5269077,-8.18108,8.695376,-4.359161,-0.7387,5.4361596,2.023203,11.334179,7.8020263,25.131468,-35.09856,52.13645,0.14083207,3.1422572,-3.4129248,-37.595165,-12.50655,45.14428,24.394709,-24.203255,1.2639719,-9.200837
233,10.696521759033203,270.83599853515625,78.38231658935547,-2.3666360090959206,-8.741628777750911,95.80167402669137,-4.40806,16.161531,3.743786,43.365913,-19.862133,-6.987569,4.530568,2.5852752,-8.273918,8.526264,-4.5174356,-0.6560114,5.4909077,2.1555924,11.142033,8.119222,24.921455,-34.379505,52.159206,0.7972601,3.252177,-3.3514988,-37.626118,-12.322951,45.14169,24.219442,-24.131302,1.1274878,-9.154718
234,10.58956241607666,271.0836486816406,78.36517333984375,-2.521260092881621,-8.584204640731349,95.9749940703274,-4.1674056,15.930016,3.3168466,40.317326,-19.548704,-7.293185,4.6946554,2.6682115,-8.394251,8.340295,-4.650755,-0.57781315,5.5028973,2.3076105,10.94236,8.401095,24.65836,-33.65066,52.284016,1.4172307,3.3507848,-3.202607,-37.596783,-12.134151,45.13461,24.104902,-24.098766,0.96649325,-9.086808
235,10.470242500305176,271.3209533691406,78.33511352539062,-2.688426764148162,-8.414691167773913,96.16680209390323,-3.9129055,15.727102,2.9176831,37.20286,-19.158865,-7.5984764,4.851186,2.7581832,-8.531821,8.1435795,-4.7691655,-0.50033,5.484552,2.4692414,10.733831,8.625449,24.348272,-32.948986,52.49885,1.9172707,3.4309344,-3.012889,-37.498276,-11.937006,45.115986,24.044502,-24.061113,0.80587435,-8.99459
236,10.350820541381836,271.5473937988281,78.29776763916016,-2.8535304978318647,-8.22758380856469,96.367756260087,-3.6800802,15.529151,2.5479023,34.10666,-18.657042,-7.888512,4.983779,2.8390737,-8.677436,7.946095,-4.884244,-0.41948444,5.43996,2.6301134,10.512202,8.78296,24.002354,-32.302814,52.784367,2.2130206,3.4842188,-2.828701,-37.340473,-11.732887,45.092815,24.039751,-23.949333,0.66929924,-8.875785
237,10.224504470825195,271.77703857421875,78.26535034179688,-3.0531187342108916,-8.000368943515976,96.58335738489504,-3.4803119,15.3731785,2.2414193,30.831503,-18.059872,-8.2024555,5.084897,2.9561875,-8.838288,7.7085376,-4.977964,-0.34307423,5.36766,2.8249335,10.251691,8.885933,23.628803,-31.691994,53.126003,2.2456992,3.5001845,-2.6626384,-37.109226,-11.520123,45.050083,24.078238,-23.745468,0.56578577,-8.71246
238,10.092839241027832,271.9995422363281,78.22735595703125,-3.2798941081479813,-7.742793359466344,96.81533886270972,-3.292398,15.263321,1.9830437,27.395761,-17.374207,-8.531198,5.1630363,3.1011012,-9.015684,7.4417377,-5.0517774,-0.27065074,5.2673774,3.0448425,9.964861,8.942202,23.231396,-31.108269,53.52483,2.0716367,3.4856317,-2.4900708,-36.803337,-11.296369,44.98813,24.161428,-23.48857,0.48236474,-8.511528
239,9.966643333435059,272.21563720703125,78.19277954101562,-3.4549587373318733,-7.497947858352452,97.04990441411856,-3.1083758,15.113159,1.7059252,24.215782,-16.553291,-8.798832,5.2309804,3.1768718,-9.193065,7.2239704,-5.145882,-0.18551445,5.14531,3.213747,9.704557,8.9370165,22.81683,-30.596989,53.9845,1.7795465,3.457342,-2.3015764,-36.450596,-11.065851,44.935413,24.308214,-23.194122,0.4096258,-8.307104
240,9.838772773742676,272.422607421875,78.18604278564453,-3.4961558418696237,-7.310152243255495,97.27427387476656,-2.9327185,14.82249,1.3477775,21.731937,-15.554261,-8.943646,5.300207,3.0858455,-9.355344,7.1335635,-5.300129,-0.071001664,5.0140905,3.255509,9.525102,8.849363,22.393555,-30.21011,54.51001,1.456892,3.4325657,-2.0874536,-36.06385,-10.834052,44.91016,24.52855,-22.895147,0.3390258,-8.132127
