unveil-humanoid-operators/unveil-humanoid-operators.github.io/feature-analysis-animation/data/feature_matrix_instances/age_ankle_rom_jogging_A058_jog_arc_cw_start_001__A058.csv
Frame,root_translateX,root_translateY,root_translateZ,root_rotateX,root_rotateY,root_rotateZ,left_hip_pitch_joint_dof,left_hip_roll_joint_dof,left_hip_yaw_joint_dof,left_knee_joint_dof,left_ankle_pitch_joint_dof,left_ankle_roll_joint_dof,right_hip_pitch_joint_dof,right_hip_roll_joint_dof,right_hip_yaw_joint_dof,right_knee_joint_dof,right_ankle_pitch_joint_dof,right_ankle_roll_joint_dof,waist_yaw_joint_dof,waist_roll_joint_dof,waist_pitch_joint_dof,left_shoulder_pitch_joint_dof,left_shoulder_roll_joint_dof,left_shoulder_yaw_joint_dof,left_elbow_joint_dof,left_wrist_roll_joint_dof,left_wrist_pitch_joint_dof,left_wrist_yaw_joint_dof,right_shoulder_pitch_joint_dof,right_shoulder_roll_joint_dof,right_shoulder_yaw_joint_dof,right_elbow_joint_dof,right_wrist_roll_joint_dof,right_wrist_pitch_joint_dof,right_wrist_yaw_joint_dof
0,0.34739699959754944,-2.5428974628448486,78.3808364868164,0.38142138448842344,-3.557465129296923,90.42846982677013,6.180799,1.9928997,4.0963063,8.219809,-10.222677,-4.7329407,5.702786,-5.8334026,-12.127268,9.849906,-12.021421,3.520469,-4.023512,-0.698813,9.232343,-7.5064406,10.511164,-51.24376,62.422714,16.574484,1.4157425,-3.6948867,-0.61203766,-9.185593,29.062344,58.650013,-23.961826,-2.6933224,5.887928
1,0.3477262556552887,-2.54664945602417,78.39054870605469,0.392753329053161,-3.5214434192526682,90.35707145230076,6.162361,1.9900761,4.1625533,8.200177,-10.240117,-4.735859,5.6096773,-5.8199744,-12.0123205,9.9208765,-12.04924,3.4175713,-3.9681566,-0.70406824,9.216094,-7.4683785,10.48143,-51.236942,62.496487,16.510635,1.3795666,-3.6386955,-0.689594,-9.20614,29.150293,58.735954,-24.051756,-2.6920984,5.856691
2,0.3496832847595215,-2.548306941986084,78.39971160888672,0.40322373179535065,-3.4940774006985564,90.29034585694448,6.1504564,1.9890541,4.223806,8.185967,-10.263357,-4.739123,5.5276656,-5.806936,-11.903771,9.992251,-12.078401,3.316436,-3.935831,-0.7039314,9.206473,-7.4225326,10.446831,-51.211456,62.56637,16.446802,1.3391395,-3.576675,-0.7614925,-9.241435,29.250994,58.807487,-24.126354,-2.6898475,5.821692
3,0.347199022769928,-2.5562853813171387,78.40799713134766,0.4160875283359047,-3.449060917567011,90.21390478404255,6.123321,1.9851886,4.2953396,8.164813,-10.277217,-4.7414713,5.4190993,-5.796475,-11.780471,10.070308,-12.112275,3.2081482,-3.8787267,-0.7076046,9.186938,-7.376353,10.427392,-51.19502,62.621105,16.391376,1.3076209,-3.5281892,-0.8457833,-9.269337,29.355288,58.895107,-24.22047,-2.6886053,5.7954645
4,0.34911030530929565,-2.5583317279815674,78.41578674316406,0.4361984768326026,-3.3594710624380815,90.11382037423402,6.0568237,1.9734322,4.391878,8.127304,-10.267835,-4.7416506,5.24899,-5.7900114,-11.622181,10.153199,-12.149379,3.0838518,-3.8113456,-0.70939827,9.133238,-7.321219,10.405156,-51.141327,62.672302,16.372902,1.2935637,-3.5077748,-0.9620696,-9.311482,29.549637,59.010094,-24.327784,-2.6814094,5.7886777
5,0.34639689326286316,-2.5686440467834473,78.41712188720703,0.46982865599116186,-3.206856864886354,89.98065417044057,5.9320545,1.9468462,4.523001,8.068214,-10.222005,-4.7407365,4.984247,-5.793824,-11.41994,10.256548,-12.190927,2.937572,-3.7515445,-0.7028353,9.032443,-7.2497673,10.368663,-51.000767,62.716022,16.430222,1.3064822,-3.5301628,-1.1087292,-9.396133,29.87134,59.13659,-24.431942,-2.6642263,5.7894053
6,0.3408328890800476,-2.5710575580596924,78.41763305664062,0.5113325878086091,-3.009321231831779,89.82382325801798,5.7680445,1.9109707,4.6791596,7.990019,-10.148668,-4.7390866,4.65309,-5.8025703,-11.185826,10.371632,-12.235024,2.7748337,-3.654545,-0.6975932,8.900084,-7.1808634,10.33475,-50.8519,62.752033,16.52575,1.3409173,-3.5838048,-1.2706423,-9.487419,30.224556,59.279495,-24.558132,-2.6442432,5.7971487
7,0.33540627360343933,-2.5726816654205322,78.4192123413086,0.5527414307889973,-2.793904373345642,89.65650810003375,5.589546,1.8753114,4.847517,7.9076867,-10.072998,-4.7337947,4.296679,-5.8066387,-10.92858,10.493038,-12.29278,2.6054945,-3.5501816,-0.6906952,8.757579,-7.105183,10.305176,-50.693317,62.782223,16.618914,1.3779941,-3.6462607,-1.4683814,-9.581758,30.64429,59.454212,-24.708502,-2.6249127,5.842524
8,0.32826992869377136,-2.5658557415008545,78.4147720336914,0.6265449678818571,-2.5753933818938,89.48067287715678,5.4398847,1.8023214,5.0315347,7.7718105,-9.986607,-4.7153034,3.7105815,-5.885587,-10.616922,11.108643,-12.631565,2.4476845,-3.4525495,-0.7130863,8.614086,-7.0142903,10.278768,-50.52291,62.806324,16.674257,1.3984053,-3.6964464,-1.708025,-9.691242,31.15829,59.65506,-24.887894,-2.6104605,5.9603205
9,0.319815456867218,-2.5504815578460693,78.41603088378906,0.6773299101610201,-2.380336587726453,89.31821120983429,5.3075557,1.7581062,5.2055306,7.6700535,-9.943236,-4.6896057,3.2685134,-5.9072785,-10.302914,11.494921,-12.878943,2.2959723,-3.3802547,-0.70663214,8.498622,-6.9018197,10.255521,-50.336395,62.816353,16.676176,1.3957342,-3.7304783,-1.9899551,-9.8185425,31.783535,59.887054,-25.101158,-2.6013134,6.1695256
10,0.31362250447273254,-2.5350286960601807,78.42041015625,0.718290974080888,-2.1898961073143193,89.15799601451195,5.1812778,1.7257161,5.380756,7.579539,-9.920709,-4.6572704,2.8699515,-5.903137,-9.97272,11.810925,-13.109532,2.1469514,-3.3186462,-0.6852622,8.393816,-6.771916,10.235624,-50.133396,62.81315,16.648243,1.380689,-3.7593496,-2.310649,-9.959639,32.503433,60.147457,-25.343527,-2.596038,6.449031
11,0.3129878342151642,-2.526873826980591,78.42796325683594,0.751715818720185,-1.9966191076420619,88.99274517344297,5.052381,1.7030957,5.558122,7.4944835,-9.907723,-4.623849,2.4934928,-5.8822713,-9.640003,12.07743,-13.328178,1.9948821,-3.2658646,-0.6527154,8.300027,-6.640528,10.219436,-49.933628,62.804543,16.600351,1.3607621,-3.7816885,-2.674762,-10.116048,33.282227,60.42098,-25.610254,-2.5989664,6.773197
12,0.3097299039363861,-2.5153017044067383,78.43637084960938,0.7761971858735524,-1.7936330238665943,88.81565151853712,4.912513,1.689604,5.738139,7.4096894,-9.89346,-4.595213,2.1312087,-5.850161,-9.320172,12.288751,-13.531675,1.8334794,-3.2159266,-0.61155224,8.219061,-6.524372,10.207796,-49.760677,62.79752,16.542936,1.3437392,-3.795932,-3.0866644,-10.289267,34.08075,60.691486,-25.894974,-2.6141665,7.116459
13,0.30500224232673645,-2.5035641193389893,78.44709777832031,0.7949069886667576,-1.5759837413757676,88.62342251929881,4.7554693,1.6850132,5.9217134,7.3242793,-9.878597,-4.575319,1.7660601,-5.8082895,-9.011139,12.467394,-13.733649,1.6419367,-3.1659324,-0.5658681,8.146058,-6.423291,10.201888,-49.625866,62.793423,16.52305,1.3302329,-3.7990928,-3.5569298,-10.48214,34.931698,60.96055,-26.186035,-2.6539788,7.484452
14,0.2969197928905487,-2.489292860031128,78.45698547363281,0.8057989232348496,-1.3480931961904254,88.42000315755936,4.5881166,1.6893846,6.1086063,7.2378325,-9.865983,-4.5603256,1.4059646,-5.75493,-8.706285,12.610989,-13.932622,1.4298888,-3.1177073,-0.51206225,8.08345,-6.330726,10.202072,-49.516342,62.786354,16.519958,1.3166615,-3.7927935,-4.078637,-10.694127,35.8396,61.227764,-26.489817,-2.7131424,7.8874774
15,0.2929324805736542,-2.470560073852539,78.46587371826172,0.8080273653196409,-1.117090355499211,88.20884977441139,4.4176173,1.7012491,6.2977962,7.154373,-9.852606,-4.54391,1.0681684,-5.6931553,-8.41298,12.700928,-14.109927,1.2367432,-3.0713599,-0.444532,8.041,-6.2529626,10.207198,-49.42002,62.776264,16.443642,1.304343,-3.7825239,-4.6322236,-10.922518,36.72289,61.48255,-26.828495,-2.7699785,8.306291
16,0.28012627363204956,-2.462857246398926,78.4704360961914,0.8029527027244934,-0.889947807077139,87.99341135366333,4.2497644,1.7189502,6.488147,7.080428,-9.836909,-4.5194883,0.7676544,-5.627158,-8.138539,12.72306,-14.249272,1.1022747,-3.024216,-0.3581796,8.027123,-6.1969004,10.21458,-49.326347,62.765694,16.205761,1.2950251,-3.7735713,-5.1949053,-11.164419,37.495853,61.716522,-27.226913,-2.8032038,8.721305
17,0.26612329483032227,-2.4492413997650146,78.47624206542969,0.790093663301537,-0.6647297659118603,87.77244595387386,4.084808,1.7442695,6.6848793,7.0086217,-9.800476,-4.4977975,0.51098555,-5.5586696,-7.8867764,12.658762,-14.344523,1.0409443,-2.974235,-0.2517341,8.041436,-6.169002,10.221121,-49.253067,62.76904,15.739422,1.2938346,-3.7694044,-5.767122,-11.418943,38.158707,61.93868,-27.734869,-2.8169389,9.156092
18,0.25219565629959106,-2.4349660873413086,78.481689453125,0.771059941110652,-0.43905423498285095,87.54454270365441,3.9093466,1.7770933,6.8864565,6.961713,-9.762935,-4.4763803,0.2900224,-5.488189,-7.652891,12.518626,-14.403879,1.0304028,-2.9207432,-0.13015236,8.078396,-6.1664624,10.225348,-49.201164,62.786743,15.106632,1.298324,-3.7660513,-6.356098,-11.686726,38.74571,62.15201,-28.328455,-2.8212326,9.611468
19,0.23746222257614136,-2.4169795513153076,78.48886108398438,0.7466510268113569,-0.2197662224253005,87.31317475010741,3.7223833,1.8118881,7.08164,6.9607797,-9.762441,-4.4286017,0.09814458,-5.4166093,-7.431874,12.333885,-14.435209,1.0553688,-2.86413,0.0030731827,8.139317,-6.1843534,10.227287,-49.13981,62.800766,14.405924,1.2981921,-3.757682,-6.9496727,-11.966363,39.227943,62.33975,-28.914652,-2.8021777,10.034282
20,0.21930648386478424,-2.389604330062866,78.49540710449219,0.718000567949269,-0.013373968323094839,87.08202984500014,3.552872,1.8399935,7.259846,6.9636416,-9.804929,-4.3289633,-0.07234081,-5.344156,-7.2186985,12.137022,-14.446794,1.1008704,-2.8044457,0.14464246,8.225277,-6.218723,10.228111,-49.041126,62.793068,13.732646,1.2830731,-3.7388783,-7.5342455,-12.255274,39.573532,62.48497,-29.404106,-2.7435832,10.371801
21,0.20419061183929443,-2.3672966957092285,78.5041275024414,0.6824211990748247,0.1814231932048218,86.85829669337362,3.3965497,1.8689729,7.4350257,6.9708652,-9.887316,-4.1698847,-0.21802913,-5.267751,-7.0206223,11.919763,-14.446623,1.1686021,-2.7458858,0.29948243,8.339098,-6.268554,10.228637,-48.877758,62.755733,13.024055,1.2402571,-3.7097385,-8.112068,-12.552103,39.758156,62.58991,-29.791405,-2.6185722,10.623038
22,0.17904403805732727,-2.3425469398498535,78.51349639892578,0.6428787476930555,0.3669668753308764,86.63752208716443,3.2509658,1.8974154,7.606745,6.980336,-9.999556,-3.9633417,-0.33619243,-5.19182,-6.8367357,11.669296,-14.427734,1.2650458,-2.6879969,0.46328852,8.477909,-6.3340864,10.229164,-48.670048,62.698837,12.259223,1.1783472,-3.6735108,-8.687232,-12.856704,39.804516,62.664024,-30.120186,-2.4412167,10.812159
23,0.15397755801677704,-2.3201847076416016,78.52645874023438,0.6083015674060314,0.5385153146106326,86.40678623682332,3.125387,1.9085594,7.7412863,6.993473,-10.160838,-3.7168014,-0.43346524,-5.1241274,-6.650899,11.406796,-14.373793,1.3818573,-2.6240022,0.6222955,8.634709,-6.4135656,10.230395,-48.46236,62.62958,11.5962105,1.1192443,-3.629164,-9.254139,-13.168855,39.755272,62.705135,-30.368475,-2.2549415,10.923112
24,0.12658432126045227,-2.2949273586273193,78.53765869140625,0.5824382084017602,0.6912395673531798,86.15336699307096,3.0236366,1.8883778,7.804751,7.0242395,-10.394999,-3.4411294,-0.51559573,-5.067918,-6.448104,11.151038,-14.268437,1.5102925,-2.5472612,0.7673802,8.802937,-6.505698,10.233497,-48.299625,62.55568,11.1921215,1.0850368,-3.5747135,-9.803395,-13.487717,39.646767,62.706585,-30.52047,-2.103177,10.939566
25,0.09947996586561203,-2.2477495670318604,78.54373168945312,0.5628427347540655,0.8231718951219961,85.86989615958517,2.919484,1.8364406,7.787971,7.139169,-10.744906,-3.1045382,-0.59770286,-5.0209084,-6.221156,10.936028,-14.120897,1.6336285,-2.454773,0.90120596,8.985062,-6.6091967,10.23885,-48.183167,62.47173,11.12376,1.082369,-3.484342,-10.342575,-13.813844,39.480385,62.672527,-30.561693,-1.9922392,10.834168
26,0.07334709167480469,-2.1971607208251953,78.54144287109375,0.53043296655204,0.9383763209680251,85.56729839715823,2.6935182,1.7938817,7.6988387,7.576836,-11.324301,-2.7169878,-0.676102,-4.963861,-5.985071,10.748212,-13.939718,1.7600933,-2.3544428,1.0458245,9.182011,-6.7244787,10.246619,-48.0923,62.37584,11.294924,1.0998354,-3.3671455,-10.870246,-14.147952,39.2348,62.602978,-30.510529,-1.9004155,10.6228485
27,0.043731190264225006,-2.137599229812622,78.53282928466797,0.5009366104756205,1.038365582372854,85.25402265253406,2.5404766,1.7230011,7.5533257,7.91355,-11.896234,-2.3479974,-0.7358165,-4.913705,-5.742767,10.556541,-13.711152,1.9212382,-2.2451775,1.1824543,9.388489,-6.8518877,10.257568,-48.037323,62.27841,11.6089325,1.1330713,-3.273258,-11.376974,-14.488507,38.930923,62.49476,-30.373415,-1.8295498,10.352899
28,0.010544967837631702,-2.0640146732330322,78.52275085449219,0.4799855144788282,1.1260009755639588,84.94069817516635,2.4905293,1.6212925,7.3592067,8.075009,-12.408677,-2.069293,-0.7588921,-4.877607,-5.5013995,10.321681,-13.417325,2.1479087,-2.128952,1.3022923,9.597866,-6.991583,10.273076,-48.02909,62.190037,11.9674015,1.1764767,-3.252774,-11.853868,-14.832238,38.58859,62.34634,-30.1596,-1.7816072,10.071703
29,-0.018689265474677086,-1.9875606298446655,78.50332641601562,0.47347771308725933,1.1916457638880595,84.62059217941884,2.5852945,1.475645,7.102671,8.004789,-12.855061,-1.908508,-0.72533774,-4.86357,-5.2521424,10.014177,-13.006956,2.4854794,-1.9968296,1.3988262,9.81743,-7.1411695,10.2941,-48.065144,62.10721,12.43227,1.2382882,-3.3473628,-12.297218,-15.178819,38.199158,62.154835,-29.867435,-1.7582822,9.778821
30,-0.04523602873086929,-1.8917312622070312,78.486083984375,0.47936432079489244,1.2378545892656656,84.2910497437947,2.8047616,1.2898973,6.7864738,7.7412815,-13.25307,-1.8245887,-0.6475751,-4.8684015,-4.9927263,9.656931,-12.504905,2.9059255,-1.8510761,1.4755514,10.046789,-7.301501,10.321363,-48.14374,62.026455,13.023866,1.3165864,-3.5215957,-12.714025,-15.528914,37.757935,61.92557,-29.492502,-1.7596372,9.453271
31,-0.077592633664608,-1.789841651916504,78.4725570678711,0.48740849587877944,1.2857286875113585,83.96967868990193,3.0736098,1.0939579,6.442519,7.3763485,-13.598546,-1.7865849,-0.55993754,-4.8785195,-4.742008,9.295059,-12.009947,3.3297632,-1.7112952,1.5425766,10.267955,-7.469655,10.35532,-48.265217,61.95264,13.594748,1.3917626,-3.709618,-13.101396,-15.877339,37.279694,61.66224,-29.051504,-1.7843505,9.111677
32,-0.10453694313764572,-1.690301537513733,78.46513366699219,0.48754694210224137,1.3556145097851846,83.67318860487954,3.2217703,0.92664635,6.1019387,7.204849,-13.995281,-1.7635393,-0.49944353,-4.8805857,-4.5203524,8.980076,-11.622369,3.6770697,-1.5982738,1.6083572,10.462639,-7.6403327,10.396136,-48.42577,61.89084,14.00062,1.4464753,-3.8448575,-13.459821,-16.215012,36.778713,61.374874,-28.563366,-1.8305265,8.770071
33,-0.1231812983751297,-1.5785802602767944,78.46086120605469,0.47597410613885505,1.449643736234428,83.40386724458705,3.2578952,0.78565496,5.7513566,7.1950517,-14.424391,-1.7536957,-0.47329968,-4.8704424,-4.338942,8.73246,-11.378422,3.9249206,-1.5178542,1.6713431,10.626024,-7.8114495,10.444413,-48.626873,61.853233,14.152287,1.4703052,-3.9047964,-13.792574,-16.532623,36.26449,61.075874,-27.996109,-1.9079376,8.411086
34,-0.1379600316286087,-1.4571306705474854,78.45783233642578,0.4569207156690067,1.5580813375167983,83.15354545955893,3.2761855,0.6529219,5.382539,7.1807466,-14.822006,-1.7703367,-0.46629754,-4.853935,-4.186653,8.5293455,-11.224027,4.115818,-1.4615008,1.7276487,10.766609,-7.9849997,10.500649,-48.868656,61.834698,14.142303,1.4755002,-3.9259715,-14.11031,-16.826757,35.734238,60.773586,-27.34747,-2.0156708,8.032527
35,-0.15934771299362183,-1.3311442136764526,78.44965362548828,0.4261465980929786,1.6824201909464311,82.92476808134465,3.2669766,0.54229116,5.033645,7.185005,-15.1872425,-1.8058398,-0.4776232,-4.827392,-4.0526385,8.352424,-11.121461,4.267329,-1.4296837,1.7882084,10.8863945,-8.159626,10.564372,-49.142014,61.812424,14.102273,1.4795778,-3.9303682,-14.404546,-17.096802,35.164387,60.45485,-26.704674,-2.1336918,7.672953
36,-0.1796683371067047,-1.2104672193527222,78.44229125976562,0.397045081383876,1.8241079722227127,82.71717701456485,3.2393072,0.4484769,4.7477975,7.1914034,-15.498547,-1.8522228,-0.50745714,-4.8044267,-3.9199214,8.184813,-11.033463,4.3978915,-1.4192306,1.8476019,10.987751,-8.338607,10.634754,-49.44401,61.76619,14.157292,1.4996303,-3.9398527,-14.665027,-17.343937,34.53094,60.10299,-26.15325,-2.2401552,7.3707786
37,-0.1945517212152481,-1.0823402404785156,78.42831420898438,0.37166808549540387,1.9907655772551411,82.52692650278276,3.1881514,0.37082466,4.532822,7.194919,-15.748729,-1.912122,-0.5582118,-4.7858133,-3.7783694,8.004769,-10.948647,4.5093207,-1.4279932,1.9048398,11.063402,-8.520429,10.710668,-49.77879,61.692593,14.341465,1.5456262,-3.9532275,-14.894922,-17.568632,33.81734,59.717503,-25.711763,-2.3288062,7.139155
38,-0.21969722211360931,-0.9449886083602905,78.40999603271484,0.34680308670979154,2.1790602621252892,82.35451172982928,3.115212,0.3082556,4.368228,7.195474,-15.944934,-1.9884697,-0.6289015,-4.7685623,-3.6376514,7.827944,-10.887388,4.5925894,-1.4565406,1.9603077,11.11496,-8.705922,10.791588,-50.14902,61.60281,14.585513,1.6065621,-3.9614332,-15.087228,-17.769697,33.028664,59.296318,-25.346174,-2.4093237,6.9568944
39,-0.24349303543567657,-0.8063973188400269,78.39259338378906,0.32066443502510944,2.37390987783933,82.20843908118474,3.034268,0.26297653,4.2515836,7.1958156,-16.09381,-2.0747833,-0.7157942,-4.753379,-3.5132267,7.6918464,-10.857641,4.650348,-1.5047504,2.015889,11.159443,-8.899022,10.877373,-50.543667,61.497074,14.869347,1.6682535,-3.9740007,-15.253422,-17.949903,32.207996,58.850586,-25.02211,-2.4838855,6.8095913
40,-0.267629474401474,-0.6613681316375732,78.37345886230469,0.2910039364030105,2.5603324131742644,82.09672066588422,2.9613745,0.23720752,4.181041,7.194096,-16.199404,-2.1644752,-0.81241286,-4.740205,-3.4208136,7.6301885,-10.866549,4.685356,-1.5754049,2.074938,11.213427,-9.100479,10.968105,-50.94748,61.37243,15.174702,1.7166171,-4.000846,-15.383814,-18.112103,31.382221,58.371803,-24.726284,-2.5545015,6.6837544
41,-0.2921113669872284,-0.5119113326072693,78.35543823242188,0.25453520965911425,2.7367902125556416,82.02519257364001,2.896999,0.24140619,4.178493,7.1916246,-16.253122,-2.2608957,-0.9090166,-4.725278,-3.3692367,7.632018,-10.902723,4.6921606,-1.6782821,2.1432889,11.279116,-9.312431,11.064621,-51.372414,61.22474,15.523554,1.7476255,-4.0487337,-15.475511,-18.25673,30.53836,57.84715,-24.493662,-2.614423,6.5996966
42,-0.3198450803756714,-0.3658027946949005,78.33851623535156,0.21485386251947525,2.9104246370980857,81.98835701088409,2.8344762,0.27131212,4.2374153,7.187283,-16.255146,-2.3660955,-1.0081693,-4.708852,-3.348941,7.678511,-10.962872,4.671384,-1.809358,2.217935,11.349116,-9.5319395,11.166864,-51.8188,61.054203,15.919393,1.7688307,-4.1111317,-15.532855,-18.384155,29.66801,57.281612,-24.319368,-2.6642983,6.556733
43,-0.3452094495296478,-0.19825734198093414,78.32335662841797,0.1742137897293935,3.0795044314069995,81.97702824115632,2.7751758,0.30844954,4.3125668,7.1827044,-16.225863,-2.4715724,-1.1112678,-4.6954603,-3.3493161,7.7672906,-11.052103,4.634826,-1.9507892,2.2899647,11.426628,-9.760418,11.273737,-52.264286,60.867405,16.303783,1.7826544,-4.1775723,-15.564409,-18.49712,28.814363,56.698605,-24.118328,-2.7175708,6.5094676
44,-0.36631178855895996,-0.0262337364256382,78.3087158203125,0.13905175621171367,3.242009854337451,81.98260033160447,2.721414,0.33370346,4.35844,7.1769695,-16.184376,-2.5690324,-1.2189409,-4.6899166,-3.3596797,7.89463,-11.175078,4.5942407,-2.0882475,2.350459,11.5137205,-9.996221,11.383806,-52.680386,60.67137,16.621876,1.7918015,-4.237594,-15.569924,-18.599382,28.015497,56.114594,-23.816885,-2.7878883,6.4130936
45,-0.3839271366596222,0.14418527483940125,78.29193115234375,0.104050909850823,3.3906837496566835,82.0146199546918,2.6794436,0.34883672,4.359238,7.1732283,-16.14221,-2.6668313,-1.3018314,-4.689603,-3.390426,8.023101,-11.319376,4.5446835,-2.226474,2.4033089,11.615488,-10.241755,11.496379,-53.07307,60.46489,16.874979,1.7966933,-4.2925043,-15.552989,-18.694736,27.28534,55.530277,-23.368336,-2.8748655,6.24991
46,-0.3985389471054077,0.3187605142593384,78.27083587646484,0.06902858050689627,3.5288847119224203,82.07365611622677,2.6483512,0.36106673,4.340656,7.1665754,-16.085121,-2.7662642,-1.3693411,-4.6938434,-3.4424284,8.166018,-11.486611,4.4826264,-2.3718421,2.4521308,11.729583,-10.495892,11.6111965,-53.449593,60.244476,17.08922,1.7960039,-4.3466396,-15.502404,-18.783031,26.597872,54.927326,-22.827726,-2.9735239,6.0469203
47,-0.41661444306373596,0.4907150864601135,78.24449157714844,0.0390705082479915,3.669884056051195,82.1377431683668,2.6030505,0.36809766,4.3188233,7.180076,-16.012081,-2.8484592,-1.484397,-4.7048955,-3.4918847,8.409092,-11.710684,4.421392,-2.5104892,2.4928432,11.848557,-10.755682,11.727596,-53.788612,60.01745,17.242739,1.7897763,-4.3932886,-15.436523,-18.865036,25.961033,54.329327,-22.237509,-3.0915856,5.824867
48,-0.4423977732658386,0.6685118675231934,78.21321868896484,0.021422209588628307,3.827560907496293,82.18445231877267,2.5311203,0.35973516,4.310885,7.2102556,-15.908601,-2.8941138,-1.7061231,-4.731322,-3.5135775,8.827419,-12.018246,4.373368,-2.6316006,2.5149312,11.962676,-11.013974,11.844729,-54.062202,59.78965,17.317963,1.7781472,-4.426263,-15.364665,-18.940722,25.377222,53.75298,-21.651394,-3.2358432,5.604122
49,-0.459846168756485,0.8380756974220276,78.17755889892578,0.01970211390461049,4.0117590611290534,82.20812790970741,2.4252005,0.331544,4.3177357,7.2479053,-15.753511,-2.8736584,-2.0412762,-4.7775965,-3.4995322,9.408977,-12.4079,4.335468,-2.7312648,2.5172327,12.064692,-11.273081,11.961748,-54.264194,59.563454,17.27492,1.7607535,-4.4397116,-15.292934,-19.01066,24.854883,53.200897,-21.046265,-3.4212074,5.379072
50,-0.4777986407279968,1.0054019689559937,78.13517761230469,0.030666785123801398,4.213327015584647,82.22073458979797,2.295316,0.28890762,4.3311996,7.293261,-15.557053,-2.8046298,-2.4648244,-4.8413806,-3.4620361,10.131045,-12.8705845,4.3012185,-2.8166902,2.504106,12.160635,-11.534227,12.07841,-54.406494,59.33653,17.137045,1.7377679,-4.43836,-15.2179785,-19.075127,24.393005,52.66721,-20.404625,-3.6402469,5.1429887
51,-0.49492955207824707,1.1753379106521606,78.08584594726562,0.051098747862485853,4.417910763558407,82.22713317539905,2.1551373,0.23720984,4.3542337,7.3518386,-15.352208,-2.7381494,-2.9682107,-4.918704,-3.4084928,11.0100155,-13.406108,4.2768126,-2.8941925,2.4741726,12.260057,-11.7942295,12.195546,-54.496048,59.109234,16.971704,1.7097701,-4.4319277,-15.127706,-19.131536,23.974438,52.149143,-19.793186,-3.8646767,4.91461
52,-0.5121484398841858,1.3403149843215942,78.0250015258789,0.08211380672197469,4.610850952414665,82.23155901043589,1.8957425,0.19017383,4.389792,7.6926403,-15.306243,-2.725355,-3.5393152,-5.0079927,-3.3458323,12.055571,-14.010642,4.268693,-2.9681108,2.4234107,12.373594,-12.047045,12.314545,-54.53594,58.8799,16.852085,1.6776742,-4.4299736,-15.022063,-19.176258,23.588428,51.654514,-19.269968,-4.0654655,4.710947
53,-0.5190367102622986,1.5044878721237183,77.95327758789062,0.12759167514879294,4.803465405937635,82.23319475110817,1.3369337,0.15994968,4.4453998,8.663552,-15.588584,-2.7976818,-4.2155237,-5.1151886,-3.265024,13.309482,-14.7046,4.27222,-3.0358262,2.349322,12.49501,-12.291481,12.435487,-54.505737,58.64654,16.79918,1.637729,-4.44518,-14.895836,-19.206896,23.226128,51.175495,-18.859266,-4.238845,4.5281463
54,-0.5294164419174194,1.666015386581421,77.86937713623047,0.18669626364116726,4.998246153837723,82.23005648243635,0.72719556,0.12663503,4.518493,9.73261,-15.910737,-2.918866,-4.996083,-5.2433434,-3.1627867,14.7663555,-15.4893875,4.2831545,-3.0957294,2.2518475,12.621594,-12.5306015,12.558569,-54.410633,58.411255,16.773767,1.5908374,-4.469019,-14.757332,-19.223436,22.897474,50.717636,-18.525417,-4.398019,4.358075
55,-0.5383605360984802,1.8391469717025757,77.77295684814453,0.2531902040524068,5.167398241377091,82.2250704261996,0.08923176,0.09582261,4.594883,10.936206,-16.32976,-3.0410304,-5.808758,-5.386385,-3.0560393,16.356586,-16.329172,4.310378,-3.1550624,2.132027,12.76887,-12.765555,12.686255,-54.294838,58.176872,16.755135,1.545079,-4.4796543,-14.60586,-19.222569,22.607605,50.28949,-18.249664,-4.538535,4.2111
56,-0.5395046472549438,2.0050299167633057,77.65827941894531,0.3218907828333312,5.283603161854356,82.22139926708388,-0.55283093,0.07362234,4.659871,12.307294,-16.901106,-3.118257,-6.583999,-5.53556,-2.9636645,18.018705,-17.187332,4.364496,-3.2218366,1.9905878,12.950591,-12.995106,12.822413,-54.20154,57.9453,16.723415,1.5088682,-4.4554105,-14.437943,-19.200884,22.358278,49.899494,-18.01958,-4.6561103,4.0978074
57,-0.5306875705718994,2.1750738620758057,77.53215789794922,0.3980522167017068,5.336983206710523,82.20968802845209,-1.2002596,0.05194136,4.7214675,13.876131,-17.66331,-3.128392,-7.304474,-5.699348,-2.9041567,19.743387,-18.072786,4.457558,-3.2893596,1.8144718,13.176005,-13.211636,12.970156,-54.12651,57.70914,16.69283,1.4901578,-4.3780894,-14.25664,-19.15378,22.153776,49.54835,-17.835638,-4.7429314,4.0219407
58,-0.5111859440803528,2.3527495861053467,77.38945770263672,0.48199313065992244,5.343501592703845,82.19194660143194,-1.8654552,0.034215413,4.781199,15.621512,-18.579252,-3.1000588,-8.0081215,-5.876339,-2.8647437,21.565294,-18.998062,4.582053,-3.3574932,1.6078231,13.434775,-13.415742,13.130768,-54.050667,57.466225,16.66787,1.482967,-4.2637806,-14.063499,-19.079733,21.991167,49.23484,-17.706348,-4.803075,3.9763472
59,-0.4872209429740906,2.5347671508789062,77.22374725341797,0.5498856920626636,5.31435499274945,82.1887076143694,-2.5241861,0.042838838,4.813648,17.46159,-19.579288,-3.0658739,-8.685874,-6.037159,-2.8221817,23.442102,-19.918457,4.7209253,-3.4419699,1.4004225,13.712996,-13.622507,13.305357,-54.002293,57.22707,16.60901,1.4743404,-4.1420903,-13.861559,-18.98258,21.867613,48.969772,-17.620361,-4.850177,3.955653
60,-0.44867658615112305,2.725576877593994,77.04327392578125,0.5791189158955157,5.260565349369579,82.22024478191105,-3.1566865,0.09701335,4.7949476,19.325563,-20.594524,-3.0590303,-9.331158,-6.152309,-2.7532134,25.338171,-20.79221,4.857753,-3.555595,1.2221457,13.998208,-13.849578,13.494512,-54.01459,57.00261,16.474035,1.4508342,-4.042434,-13.650072,-18.868969,21.777765,48.75902,-17.563522,-4.8982153,3.9559336
61,-0.40820589661598206,2.934976100921631,76.84555053710938,0.5590141461734437,5.17564432518515,82.30018878645127,-3.7569385,0.20294158,4.7092805,21.218792,-21.631878,-3.0853662,-9.911953,-6.203935,-2.6551406,27.216743,-21.6385,4.987948,-3.7073245,1.0833471,14.296606,-14.097516,13.699524,-54.09279,56.784943,16.250505,1.4094167,-3.9775195,-13.420208,-18.74396,21.722218,48.589203,-17.550446,-4.946579,3.9953065
62,-0.37259799242019653,3.132704734802246,76.62701416015625,0.5022781708512495,5.0567282772798325,82.41511240463615,-4.332768,0.3471828,4.5719767,23.165867,-22.715672,-3.1301708,-10.439265,-6.2037277,-2.54431,29.103636,-22.465897,5.12412,-3.8870122,0.96955055,14.61318,-14.358238,13.920687,-54.223286,56.568455,15.959827,1.3569264,-3.9304557,-13.1683,-18.60928,21.699892,48.45401,-17.583223,-4.9893537,4.0708604
63,-0.3165115714073181,3.357480764389038,76.40637969970703,0.42254248177889664,4.920099289829746,82.54425601591457,-4.873894,0.5169943,4.408691,25.102308,-23.797125,-3.1968577,-10.966984,-6.1690044,-2.423813,31.048603,-23.221733,5.2750554,-4.0775304,0.872842,14.934409,-14.635498,14.155305,-54.410255,56.3656,15.614191,1.2948341,-3.88609,-12.905158,-18.466187,21.70615,48.372482,-17.624063,-5.033106,4.146854
64,-0.2602190673351288,3.5873711109161377,76.17894744873047,0.33637063810649453,4.781753971846948,82.66718065426956,-5.3761487,0.69942963,4.246274,26.977427,-24.828949,-3.2889247,-11.546943,-6.12049,-2.2951515,33.097973,-23.85028,5.4475765,-4.261068,0.7848497,15.246172,-14.932884,14.39788,-54.656162,56.19161,15.228973,1.2245514,-3.8291605,-12.638704,-18.315779,21.733673,48.362007,-17.637648,-5.0841327,4.187779
65,-0.20247185230255127,3.815887451171875,75.94563293457031,0.23662913330161572,4.650479444588075,82.79532405618964,-5.8519297,0.8961598,4.0679793,28.78979,-25.809153,-3.4163988,-12.179995,-6.0588408,-2.1873097,35.251335,-24.3496,5.6561704,-4.4446945,0.7164175,15.541582,-15.265676,14.645199,-55.004055,56.059887,14.770278,1.1343433,-3.7364535,-12.373296,-18.160656,21.793766,48.434807,-17.59105,-5.1525593,4.17653
66,-0.1364692598581314,4.054267883300781,75.71009063720703,0.11909897603838022,4.516161368288191,82.93385818060256,-6.2975907,1.1085579,3.8719935,30.563395,-26.75761,-3.5805936,-12.842154,-5.9763184,-2.0907588,37.489746,-24.746235,5.8926797,-4.6321225,0.6679606,15.829474,-15.629521,14.8948145,-55.43873,55.96312,14.245054,1.0266532,-3.6224747,-12.102661,-18.002329,21.885075,48.57824,-17.509867,-5.2322264,4.135325
67,-0.07230246812105179,4.301427841186523,75.46671295166016,0.005803068267725215,4.366350523899965,83.05298091647927,-6.6791334,1.3195579,3.7038176,32.27463,-27.663683,-3.757715,-13.54678,-5.882024,-1.9463437,39.829277,-25.025148,6.1290894,-4.8022623,0.61524737,16.117945,-16.004112,15.141753,-55.881374,55.891384,13.719237,0.92429894,-3.5274813,-11.814595,-17.837633,21.98012,48.76954,-17.451283,-5.305067,4.0870595
68,0.0010720075806602836,4.5696539878845215,75.22416687011719,-0.07864767684230402,4.188335222921402,83.12251447580557,-6.9625726,1.5155009,3.6102095,33.898636,-28.514174,-3.927626,-14.304835,-5.782009,-1.6962571,42.282494,-25.169674,6.3410544,-4.934957,0.53234035,16.413591,-16.365492,15.379563,-56.24766,55.83689,13.264154,0.85113823,-3.4911475,-11.499222,-17.660658,22.052977,48.989876,-17.4731,-5.3527627,4.053774
69,0.07447615265846252,4.8286895751953125,74.97374725341797,-0.12905262041177856,3.984810967890211,83.13077452739039,-7.1279087,1.692588,3.609826,35.39959,-29.316488,-4.080609,-15.127717,-5.6741786,-1.335765,44.875122,-25.182192,6.5189757,-5.019102,0.41013393,16.705755,-16.7223,15.604443,-56.55385,55.83283,12.848774,0.8152752,-3.5490537,-11.163941,-17.468773,22.114471,49.25457,-17.568537,-5.3786297,4.0456386
70,0.15645438432693481,5.096037864685059,74.72129821777344,-0.1565180157131491,3.7601220752097437,83.0947902506824,-7.1965218,1.856755,3.6774786,36.801643,-30.074366,-4.2291455,-16.000694,-5.5503697,-0.8948423,47.58433,-25.064903,6.683117,-5.068268,0.26186377,16.992968,-17.083271,15.814489,-56.828613,55.88009,12.453788,0.80432284,-3.6707957,-10.810609,-17.261211,22.17315,49.57009,-17.716959,-5.389569,4.048814
71,0.2421261966228485,5.391355991363525,74.47142028808594,-0.16324813229927718,3.503903985758891,83.02785585935088,-7.1965046,2.0101037,3.7930954,38.16876,-30.768583,-4.3846307,-16.894888,-5.401724,-0.36959168,50.35144,-24.800299,6.8591027,-5.099133,0.09420305,17.295963,-17.429285,16.006763,-57.01226,55.928093,12.161222,0.81063837,-3.7963424,-10.436025,-17.035353,22.208971,49.917675,-17.945028,-5.372226,4.0482354
72,0.3235012888908386,5.686703205108643,74.21794128417969,-0.1508618899602018,3.206009287358738,82.94289462296871,-7.1557474,2.1564298,3.9357905,39.56396,-31.379625,-4.5587177,-17.780874,-5.216239,0.24266185,53.118423,-24.371181,7.0761805,-5.1303205,-0.08613498,17.634745,-17.739424,16.17891,-57.043213,55.927364,12.053241,0.8252411,-3.8660264,-10.035834,-16.7873,22.201704,50.278492,-18.282412,-5.31325,4.028688
73,0.407754123210907,5.992275238037109,73.97049713134766,-0.11552901214277063,2.8650424729803254,82.84056153986562,-7.0893974,2.294731,4.1107793,41.020123,-31.898176,-4.7529345,-18.662416,-4.9842143,0.9507914,55.90385,-23.747238,7.3453355,-5.1602716,-0.285516,18.01233,-18.01154,16.329395,-56.89498,55.90933,12.207347,0.85753363,-3.9162276,-9.613821,-16.510126,22.150959,50.66085,-18.764854,-5.1952753,3.984675
74,0.4973043203353882,6.299873352050781,73.7188491821289,-0.057345046666301115,2.486076320104932,82.71409408325171,-6.9794273,2.425875,4.3248916,42.497997,-32.336323,-4.9620214,-19.541132,-4.6968064,1.7442896,58.719208,-22.945457,7.669942,-5.182374,-0.50597763,18.41713,-18.256983,16.458576,-56.603733,55.89418,12.5588875,0.9072274,-3.9615304,-9.177605,-16.202564,22.069723,51.079517,-19.367865,-5.0295625,3.9248893
75,0.5886961221694946,6.594609260559082,73.46331787109375,0.007971182382437025,2.068145976727559,82.5664722832088,-6.80731,2.5582864,4.5586276,43.96095,-32.711025,-5.1871905,-20.393913,-4.343083,2.598424,61.514988,-22.02247,8.066852,-5.205094,-0.730718,18.849466,-18.468712,16.567003,-56.194206,55.806858,12.987925,0.95217526,-3.9101973,-8.71417,-15.86881,21.950027,51.50738,-20.033285,-4.8457613,3.856842
76,0.6891691088676453,6.909011363983154,73.21387481689453,0.06711812308255471,1.6102571408747182,82.40072388077324,-6.5549026,2.7001414,4.7924666,45.373356,-33.041084,-5.4292583,-21.198282,-3.9161549,3.4909093,64.242744,-21.037289,8.547534,-5.236023,-0.9426219,19.310698,-18.640879,16.6556,-55.69193,55.57122,13.374737,0.9717131,-3.669694,-8.211565,-15.51837,21.784176,51.916527,-20.701185,-4.6736975,3.7873316
77,0.7866528630256653,7.224258899688721,72.96951293945312,0.11410789289830964,1.093557390984457,82.2257204795733,-6.2220454,2.859166,5.0109625,46.767853,-33.315857,-5.701711,-21.939552,-3.3750718,4.459507,66.9247,-19.931847,9.121953,-5.2757,-1.1306709,19.82645,-18.764662,16.725286,-55.05893,55.17984,13.795806,0.9594556,-3.1998296,-7.655207,-15.154724,21.535002,52.29346,-21.422756,-4.5152273,3.7086973
78,0.8893240094184875,7.555028915405273,72.72830963134766,0.1556567699941099,0.5244590367793656,82.03692060947317,-5.8156323,3.031991,5.225865,48.14923,-33.53236,-5.99883,-22.62241,-2.7176962,5.4992824,69.57686,-18.705036,9.801772,-5.317185,-1.3018792,20.390907,-18.848099,16.77655,-54.297134,54.66695,14.279849,0.93085027,-2.554805,-7.0530086,-14.777581,21.21571,52.647247,-22.20483,-4.356276,3.6220145
79,0.9903453588485718,7.894773960113525,72.49283599853516,0.19690481012336777,-0.05996676391897078,81.81697602474777,-5.3317456,3.2103496,5.4606223,49.445217,-33.716393,-6.2940207,-23.263065,-2.010885,6.528793,72.1508,-17.506401,10.582158,-5.357507,-1.4679947,20.95609,-18.91513,16.809921,-53.498825,54.021255,14.62721,0.89491796,-1.7834387,-6.4193993,-14.395886,20.888239,52.9798,-22.928074,-4.203561,3.5457735
80,1.0984522104263306,8.244001388549805,72.26178741455078,0.24490352192440068,-0.6223486458177311,81.54860679954682,-4.766023,3.3837354,5.7410626,50.580715,-33.89055,-6.5610833,-23.886501,-1.335851,7.471278,74.60207,-16.484829,11.441905,-5.392031,-1.6393917,21.474634,-18.987198,16.825117,-52.754513,53.228363,14.642291,0.85448444,-0.93457806,-5.761026,-14.023704,20.611362,53.285614,-23.471897,-4.064807,3.4987748
81,1.2152847051620483,8.599160194396973,72.03204345703125,0.3041685825446441,-1.1807852870431288,81.21060443110544,-4.0865746,3.554626,6.091149,51.549965,-34.06268,-6.785299,-24.461546,-0.61070174,8.433851,76.94001,-15.587784,12.52305,-5.4075317,-1.8179036,21.958057,-19.03447,16.822468,-52.05738,52.253357,14.224188,0.8016099,0.07000767,-5.060394,-13.667184,20.36764,53.54373,-23.809132,-3.9271,3.4959123
82,1.3322030305862427,8.98484992980957,71.80895233154297,0.3712737099164689,-1.7457223540005051,80.81731989271246,-3.3070388,3.725839,6.4916754,52.390316,-34.217552,-6.982757,-24.985962,0.1725884,9.4175825,79.19242,-14.7800045,13.783047,-5.4075685,-1.99364,22.425625,-19.06158,16.803276,-51.374397,51.112473,13.49069,0.7235995,1.2252655,-4.312334,-13.327772,20.1307,53.75385,-24.001276,-3.7923582,3.5241017
83,1.4531108140945435,9.387283325195312,71.5949935913086,0.4447396651394607,-2.2670418051737053,80.40531880941809,-2.4917853,3.8811407,6.9022603,53.085716,-34.351074,-7.1700315,-25.555458,0.7810731,10.188981,81.34048,-14.213488,14.878851,-5.4134636,-2.1626904,22.83982,-19.132198,16.766722,-50.74891,49.861732,12.584337,0.61647683,2.3569503,-3.5375867,-13.014493,19.946238,53.937775,-24.05948,-3.689695,3.5602677
84,1.5819913148880005,9.808335304260254,71.39787292480469,0.5221093988960199,-2.6942392579158647,80.00956723545285,-1.708645,4.0137424,7.2813945,53.62754,-34.45903,-7.370002,-26.30119,0.8757817,10.385898,83.35594,-14.012185,15.000033,-5.4464774,-2.3230724,23.161375,-19.312296,16.709133,-50.226364,48.559853,11.643795,0.48610532,3.2918952,-2.7539105,-12.740922,19.861822,54.11494,-23.993628,-3.6486464,3.5823328
85,1.711987018585205,10.24056339263916,71.21656036376953,0.6269672296271969,-3.008118203686696,79.63246729108924,-0.9721174,4.0802436,7.635157,53.99726,-34.538902,-7.5690923,-27.240602,0.4727339,10.263363,85.27296,-14.359465,15.000033,-5.508065,-2.4847827,23.359755,-19.576302,16.623428,-49.797726,47.188297,10.572043,0.33179498,3.9676802,-1.9442873,-12.517675,19.896809,54.27712,-23.750244,-3.6917858,3.5767376
86,1.8508580923080444,10.686887741088867,71.05716705322266,0.7524014143530274,-3.237154076249888,79.2577625690221,-0.25000682,4.1040244,7.9768777,54.208916,-34.594646,-7.7650957,-28.333548,-0.38024163,9.824441,87.0914,-15.127036,14.575674,-5.5895286,-2.6426988,23.46096,-19.902704,16.506521,-49.44323,45.729164,9.340845,0.15262365,4.480841,-1.0980456,-12.347104,20.023298,54.410355,-23.339422,-3.799128,3.5605755
87,1.991113305091858,11.15531063079834,70.91676330566406,0.8773973996865757,-3.3996638173629314,78.89842389563135,0.45661467,4.1103916,8.295359,54.287014,-34.61904,-7.961053,-29.55085,-1.5975546,9.066076,88.748474,-15.992969,13.541444,-5.6983085,-2.7842586,23.507492,-20.366825,16.361774,-49.196667,44.24143,8.186082,-0.035808638,4.8988905,-0.24285375,-12.228944,20.216969,54.526913,-22.867334,-3.9361498,3.5582314
88,2.1329994201660156,11.60783863067627,70.79338836669922,0.989615850706313,-3.512821303874629,78.56855938909163,1.1440556,4.109617,8.582514,54.25722,-34.605213,-8.149697,-30.843626,-2.9686563,8.171043,90.184685,-16.634943,12.36708,-5.840909,-2.897914,23.54283,-21.035479,16.194613,-49.086227,42.775352,7.351721,-0.21617638,5.290949,0.5926909,-12.160309,20.453175,54.639187,-22.441244,-4.067731,3.5929189
89,2.288130760192871,12.070905685424805,70.69624328613281,1.0941617277677527,-3.57038932427314,78.27724642303389,1.8013515,4.095022,8.832093,54.119682,-34.55572,-8.325471,-32.23559,-4.5849013,7.0845404,91.40568,-16.989056,10.985837,-6.022398,-2.988641,23.562931,-21.94206,16.007181,-49.167328,41.343884,6.9009356,-0.38549516,5.6600876,1.4029604,-12.141149,20.741589,54.75443,-22.010622,-4.2047024,3.6586154
90,2.4413676261901855,12.53026008605957,70.62033081054688,1.1953506899822166,-3.5692767019010345,78.01865447984224,2.4350736,4.0610127,9.046711,53.86241,-34.47277,-8.491022,-33.70817,-6.5047336,5.7848387,92.44222,-17.254133,9.325557,-6.240627,-3.0619488,23.551056,-23.03447,15.796092,-49.398857,39.908092,6.712487,-0.54556733,5.976795,2.2000344,-12.171476,21.088629,54.868187,-21.545753,-4.3587356,3.7477806
91,2.601593494415283,13.009669303894043,70.56990051269531,1.2804410589222792,-3.5300993336586526,77.78268785066527,3.068503,4.028611,9.232486,53.49368,-34.345856,-8.656414,-35.17516,-8.513889,4.3929057,93.26958,-17.474478,7.5714912,-6.4895,-3.105731,23.529205,-24.288132,15.565758,-49.69734,38.46141,6.707393,-0.68879884,6.262725,2.9805365,-12.247673,21.466515,54.97815,-21.184254,-4.4954796,3.8781595
92,2.778123378753662,13.47920036315918,70.54096221923828,1.3387022366898318,-3.4714838943880695,77.55688146054027,3.7240417,4.0201325,9.39775,53.021973,-34.168644,-8.832773,-36.567455,-10.382769,3.0211098,93.85714,-17.669489,5.9175315,-6.762267,-3.108859,23.51985,-25.659912,15.324251,-49.96831,36.98405,6.825146,-0.80756587,6.53823,3.74247,-12.362154,21.84787,55.07918,-21.064074,-4.58094,4.0666847
93,2.9639649391174316,13.967230796813965,70.5345687866211,1.359545682270402,-3.397441421632026,77.34630558311927,4.3976364,4.0443377,9.531484,52.459053,-33.952072,-9.02476,-37.888607,-12.125343,1.6208072,94.18816,-17.877754,4.3332715,-7.0664153,-3.0670793,23.534288,-27.166584,15.076598,-50.227856,35.467896,7.1667666,-0.89178306,6.812649,4.4749494,-12.51126,22.248783,55.19077,-21.230959,-4.6198754,4.325461
94,3.1636455059051514,14.467713356018066,70.55050659179688,1.3500325798832502,-3.2982683601405114,77.15395390560744,5.0804434,4.093051,9.633689,51.79922,-33.696648,-9.227049,-39.15861,-13.824497,0.13377023,94.282196,-18.075344,2.7546859,-7.401089,-2.985405,23.557636,-28.828793,14.828784,-50.524944,33.91923,7.703807,-0.9462991,7.073589,5.181804,-12.694212,22.675528,55.312225,-21.608227,-4.6275,4.641756
95,3.3677923679351807,14.974157333374023,70.58891296386719,1.3182029073183446,-3.172461893139974,76.96277448481982,5.787655,4.161774,9.73219,51.020966,-33.37901,-9.435791,-40.361675,-15.358258,-1.3395829,94.1605,-18.156189,1.3240032,-7.7624164,-2.8803484,23.58132,-30.514711,14.571896,-50.73765,32.2948,8.299749,-0.98101085,7.306772,5.8659205,-12.907503,23.100647,55.41227,-22.15339,-4.5863714,4.994062
96,3.5831267833709717,15.503825187683105,70.6492691040039,1.270892552035658,-3.0176501297310963,76.7557925092941,6.5305905,4.245938,9.854613,50.110847,-32.974983,-9.645995,-41.49932,-16.607456,-2.6956136,93.842155,-18.00048,0.17581974,-8.103998,-2.7484283,23.575405,-32.291874,14.34143,-50.91493,30.648758,8.575321,-1.0214363,7.4986663,6.571049,-13.147381,23.46228,55.44947,-22.820461,-4.478453,5.362269
97,3.8102197647094727,16.05146026611328,70.7283935546875,1.2068504781468443,-2.8372090462964805,76.53461489722669,7.3122334,4.3505335,10.00524,49.07097,-32.498238,-9.858315,-42.598568,-17.555758,-3.9258738,93.30905,-17.511333,-0.6773599,-8.46993,-2.6141472,23.568533,-33.995396,14.112708,-50.902527,28.87004,8.6456995,-1.0605012,7.629044,7.2317424,-13.4131775,23.856358,55.455353,-23.646128,-4.275174,5.762382
98,4.058082580566406,16.611896514892578,70.83483123779297,1.1224453647143888,-2.6296282942451046,76.30516260517065,8.124916,4.477413,10.171414,47.908913,-31.955782,-10.074025,-43.67108,-18.262981,-5.0839458,92.55472,-16.749561,-1.3025419,-8.811441,-2.450627,23.538597,-35.82774,13.92761,-50.89524,27.044933,8.411665,-1.1041263,7.709327,7.9020267,-13.7047205,24.236557,55.423267,-24.634,-3.9980385,6.2030816
99,4.318845272064209,17.19136619567871,70.96233367919922,1.0300823101682581,-2.3878419190667737,76.05647890224455,8.971834,4.600756,10.35696,46.60331,-31.310682,-10.288598,-44.706673,-18.73202,-6.138643,91.61349,-15.831818,-1.685885,-9.1791115,-2.2844865,23.489386,-37.586823,13.767217,-50.756153,25.123001,8.176304,-1.1332326,7.7740073,8.583994,-14.014164,24.519196,55.311962,-25.710257,-3.7016191,6.6474905
100,4.597667217254639,17.788679122924805,71.11334991455078,0.9408983033995802,-2.1034437749756685,75.77746309672463,9.854193,4.6990275,10.564511,45.13704,-30.528458,-10.497902,-45.695282,-18.959595,-7.0578337,90.521034,-14.875062,-1.8103917,-9.543303,-2.110161,23.391064,-39.288494,13.643891,-50.536385,23.164377,7.9865108,-1.1462634,7.8566904,9.356196,-14.329888,24.5554,55.05558,-26.7938,-3.4388325,7.0584054
101,4.889863967895508,18.410703659057617,71.28777313232422,0.8506503356490736,-1.775822086342299,75.45439200711101,10.798474,4.771697,10.810193,43.46184,-29.621426,-10.715345,-46.65162,-18.884987,-7.793348,89.251976,-13.859097,-1.5964599,-9.9030905,-1.9334986,23.247059,-40.928925,13.5612335,-50.21744,21.147945,7.8485956,-1.1377879,7.967733,10.214098,-14.643826,24.333658,54.641487,-28.007988,-3.205939,7.4781246
102,5.20166015625,19.052587509155273,71.47917938232422,0.7571364740750611,-1.40806103446928,75.09602770523706,11.795699,4.8269596,11.086215,41.600895,-28.602106,-10.937055,-47.58903,-18.52426,-8.356485,87.79199,-12.735684,-1.0717142,-10.255989,-1.7528795,23.064081,-42.536263,13.524062,-49.81847,19.065449,7.699892,-1.1123897,8.08942,11.139375,-14.951466,23.911444,54.098232,-29.347519,-2.9835284,7.910343
103,5.525956153869629,19.71954345703125,71.69315338134766,0.6691701354127868,-0.9998877289933107,74.72556989588729,12.795042,4.853103,11.358234,39.638977,-27.432367,-11.133359,-48.489166,-17.991747,-8.806333,86.1912,-11.581641,-0.38218197,-10.615193,-1.5688643,22.83886,-44.075405,13.530123,-49.35291,16.952852,7.6106644,-1.074016,8.215507,12.146584,-15.244034,23.274036,53.435696,-30.546343,-2.7925968,8.253407
104,5.858509063720703,20.413467407226562,71.92035675048828,0.5970797549180531,-0.5505748262730528,74.36619713161564,13.7453,4.8382893,11.592647,37.66071,-26.07295,-11.276095,-49.33243,-17.405334,-9.207871,84.50361,-10.473247,0.32265484,-10.989065,-1.3810285,22.567373,-45.517433,13.572226,-48.83865,14.854446,7.6476917,-1.0273705,8.340058,13.249964,-15.510686,22.402473,52.6663,-31.337282,-2.6472335,8.403026
105,6.211578845977783,21.139833450317383,72.15934753417969,0.5440491819068349,-0.05505189085890851,74.02021855892562,14.648184,4.7708154,11.7835865,35.646908,-24.512072,-11.364667,-50.129536,-16.744692,-9.530411,82.72953,-9.441267,1.0561291,-11.380788,-1.18859,22.247358,-46.887615,13.648817,-48.269436,12.782929,7.8984866,-0.95884967,8.466511,14.479513,-15.732607,21.207817,51.76119,-31.693031,-2.5377667,8.315278
106,6.5694146156311035,21.8955078125,72.4096908569336,0.5056629322895478,0.4839959484199726,73.67705808316714,15.526457,4.6568494,11.946892,33.566395,-22.771238,-11.41236,-50.883644,-15.972195,-9.746334,80.84134,-8.447256,1.8755482,-11.784784,-0.9932533,21.88178,-48.197044,13.758162,-47.641613,10.725347,8.305889,-0.87088376,8.596558,15.81283,-15.895189,19.727497,50.732273,-31.739508,-2.4563403,8.04872
107,6.9416704177856445,22.676029205322266,72.6710433959961,0.48191601131154266,1.0560366263794292,73.33977631375535,16.35305,4.512769,12.083387,31.498055,-20.866865,-11.4133,-51.566124,-15.177596,-9.931426,78.85637,-7.459233,2.6972244,-12.195535,-0.7967998,21.473154,-49.39612,13.890651,-46.975185,8.691468,8.71823,-0.7933325,8.721677,17.186375,-15.997832,18.134499,49.651814,-31.439133,-2.4189174,7.6503134
108,7.328094482421875,23.47425079345703,72.94033813476562,0.47248542115129105,1.650592115028016,73.01052960602524,17.101072,4.3560176,12.195957,29.520575,-18.813742,-11.361661,-52.150795,-14.445837,-10.163914,76.79358,-6.438466,3.4404757,-12.607989,-0.6022818,21.02498,-50.43848,14.030436,-46.28689,6.697924,8.986547,-0.7565574,8.834527,18.541306,-16.055258,16.602062,48.586517,-30.756798,-2.4429252,7.167059
109,7.718829154968262,24.298250198364258,73.20991516113281,0.486227191020488,2.283142812014749,72.68924482280967,17.758068,4.178397,12.310066,27.622633,-16.578869,-11.246884,-52.662582,-13.781046,-10.4363,74.64058,-5.3501925,4.088172,-13.019459,-0.409604,20.518873,-51.35868,14.169483,-45.57087,4.772902,9.131702,-0.7839854,8.8883915,19.908178,-16.078217,15.102633,47.491684,-29.659105,-2.5374806,6.580658
110,8.1176176071167,25.14478302001953,73.48407745361328,0.5225414207334828,2.9521111011915564,72.37325431588559,18.335247,3.9706352,12.4221325,25.784586,-14.171896,-11.073214,-53.104652,-13.144311,-10.712112,72.39325,-4.2206607,4.680968,-13.433866,-0.21808346,19.959152,-52.17707,14.300491,-44.817177,2.9204977,9.216873,-0.8557876,8.902744,21.30793,-16.065105,13.574819,46.345802,-28.169308,-2.7041786,5.881053
111,8.535969734191895,26.013534545898438,73.75528717041016,0.5687480013997251,3.6220071220202383,72.06099278520796,18.835972,3.753517,12.490584,24.082874,-11.674624,-10.855726,-53.419064,-12.549143,-11.030925,70.08103,-3.0986075,5.2274985,-13.846373,-0.021970594,19.389881,-52.820786,14.4218855,-44.038677,1.0936978,9.15027,-0.9372272,8.970945,22.684172,-16.02347,12.11605,45.23134,-26.347754,-2.9517403,5.1321554
112,8.97669506072998,26.900344848632812,74.02203369140625,0.61246509412423,4.257392960601794,71.75004098111951,19.26539,3.5530028,12.471878,22.589672,-9.167455,-10.612225,-53.55243,-12.006497,-11.433306,67.7365,-2.0328395,5.737876,-14.260222,0.1728878,18.845343,-53.22447,14.51548,-43.244328,-0.7213379,8.843904,-0.99419075,9.184762,23.963554,-15.965602,10.8517685,44.25111,-24.239946,-3.281232,4.389332
113,9.416536331176758,27.796659469604492,74.27647399902344,0.6456190559181871,4.867088640299105,71.44890894591695,19.620184,3.3995428,12.408759,21.289524,-6.6065598,-10.3871355,-53.485363,-11.51575,-11.965575,65.281876,-1.0416739,6.2300925,-14.693043,0.38292634,18.31676,-53.387993,14.567968,-42.39664,-2.500792,8.370188,-0.9772677,9.562593,25.170984,-15.905851,9.762299,43.37362,-21.766024,-3.7548923,3.6400034
114,9.87315845489502,28.717756271362305,74.51984405517578,0.6795510871831656,5.462737531961217,71.15357680874986,19.894709,3.27337,12.307445,20.164661,-3.9731681,-10.15931,-53.25028,-11.064289,-12.59389,62.726444,-0.09202768,6.695147,-15.141684,0.5940757,17.78619,-53.351273,14.579798,-41.50378,-4.22394,7.746521,-0.9209976,10.062637,26.329397,-15.852406,8.81538,42.56646,-18.922234,-4.364542,2.876395
115,10.348875999450684,29.669347763061523,74.74574279785156,0.7321204115348876,6.014280572646744,70.84537143109641,20.084465,3.134639,12.070851,19.298773,-1.3822628,-9.850984,-52.87376,-10.644619,-13.246307,60.239082,0.8424965,7.099124,-15.555837,0.79135096,17.297724,-53.098484,14.55598,-40.626617,-5.9665246,6.800122,-0.9235568,10.675853,27.399448,-15.806322,8.032501,41.8828,-15.901278,-5.002667,2.168162
116,10.83940601348877,30.639785766601562,74.94998931884766,0.8145584398904909,6.4938421980997845,70.50633428576032,20.188107,2.9477048,11.608488,18.765772,1.0591327,-9.386446,-52.38311,-10.249641,-13.855673,57.99171,1.7872072,7.408618,-15.901753,0.94065475,16.87591,-52.620358,14.486887,-39.83417,-7.753701,5.3638964,-1.0877088,11.394272,28.313227,-15.773892,7.4935093,41.412724,-12.864765,-5.5465145,1.5558386
117,11.3446683883667,31.630220413208008,75.12608337402344,0.9189808266639784,6.904806475445343,70.13992006295331,20.189545,2.7294602,10.912772,18.596457,3.3586848,-8.676073,-51.77904,-9.860507,-14.436811,55.973885,2.7652185,7.6260366,-16.175209,1.0439382,16.520206,-51.91427,14.337769,-39.14759,-9.591735,3.233363,-1.4614713,12.310165,29.078272,-15.767516,7.251855,41.195454,-9.661619,-5.986203,0.997142
118,11.854572296142578,32.643585205078125,75.27433776855469,1.033511971268071,7.263812836785175,69.757044975426,20.0865,2.5008593,10.041978,18.75211,5.5751452,-7.7933145,-51.05514,-9.480066,-15.030177,54.118034,3.7570896,7.76691,-16.40124,1.1117783,16.20721,-50.99295,14.11056,-38.544666,-11.433145,0.56221926,-2.0171726,13.386451,29.716198,-15.792216,7.2831345,41.194775,-6.248267,-6.377929,0.47381243
119,12.381762504577637,33.682044982910156,75.39324951171875,1.166472298484622,7.56479121928015,69.35359481034277,19.913725,2.2286043,8.99957,19.168308,7.691066,-6.908711,-50.229202,-9.133935,-15.614701,52.5148,4.722198,7.816648,-16.582304,1.1437157,15.932732,-49.882298,13.822052,-38.020565,-13.211895,-2.2748082,-2.7266855,14.408523,30.191753,-15.849772,7.5208898,41.375607,-2.9571128,-6.6831813,0.05136246
120,12.906760215759277,34.73031997680664,75.47393798828125,1.3199227185508284,7.801541639319401,68.92500057666379,19.707726,1.8744015,7.7758856,19.782671,9.685377,-6.192841,-49.318256,-8.847981,-16.170004,51.25728,5.61921,7.759921,-16.724438,1.1370293,15.686196,-48.614044,13.479485,-37.569534,-14.852029,-4.9113483,-3.5297563,15.172274,30.461313,-15.943433,7.915873,41.712887,-0.11305504,-6.850021,-0.21275187
121,13.444267272949219,35.78986740112305,75.51374816894531,1.5077204941911007,7.971955277882882,68.47365601549258,19.48175,1.4043276,6.2840195,20.581541,11.556109,-5.620049,-48.318645,-8.6864,-16.762571,50.409725,6.8123627,7.8062563,-16.84882,1.0685799,15.470731,-47.133095,13.078074,-37.18726,-16.399605,-7.4869995,-4.488379,15.638644,30.473785,-16.083569,8.542997,42.25195,2.2669756,-6.788248,-0.3158524
122,13.994501113891602,36.85859298706055,75.505615234375,1.720427353677608,8.081011003399743,68.00225939042362,19.248857,0.8282477,4.549267,21.542772,13.345197,-5.1347003,-47.222633,-8.612023,-17.384314,49.912674,8.196226,7.890264,-16.95101,0.95547384,15.2876425,-45.437233,12.617562,-36.88311,-17.882029,-10.128855,-5.5884123,15.890166,30.264744,-16.273,9.407284,42.99335,4.3407845,-6.5326447,-0.30405867
123,14.561104774475098,37.94239807128906,75.44729614257812,1.9399253873974023,8.129615768296947,67.50171876124953,19.055098,0.1669147,2.7161262,22.583006,15.082005,-4.8652883,-46.039955,-8.512943,-17.903765,49.678833,9.025251,7.582921,-16.997454,0.8428985,15.129522,-43.629383,12.115739,-36.669544,-19.198446,-12.450332,-6.628992,15.939484,29.908669,-16.496206,10.354569,43.846127,6.036869,-6.2137403,-0.18839224
124,15.131601333618164,39.02927780151367,75.33518981933594,2.1501974729848503,8.118896243526423,66.96127640864098,18.933077,-0.5549993,0.9205339,23.641857,16.777325,-4.944433,-44.78139,-8.27329,-18.185663,49.617393,8.552425,6.461462,-16.94703,0.7711806,14.991606,-41.81448,11.601289,-36.556496,-20.258862,-14.067358,-7.4100137,15.828925,29.477308,-16.727007,11.222458,44.718224,7.275583,-5.965331,0.029234566
125,15.716468811035156,40.11371994018555,75.17080688476562,2.3836210480224542,8.016314934499205,66.38072719083536,18.940636,-1.4392176,-0.99085164,24.67982,18.509459,-5.4925704,-43.43711,-7.7988505,-18.034103,49.826817,6.2686057,3.9923353,-16.795584,0.70106786,14.875723,-39.94578,11.087339,-36.562542,-21.094332,-14.960361,-7.8966928,15.563369,28.968071,-16.952818,11.999913,45.638145,7.8075786,-5.807613,0.47559068
126,16.318584442138672,41.208396911621094,74.95205688476562,2.646223517382168,7.830204048801517,65.75954857182742,19.047525,-2.484809,-3.0580022,25.779865,20.205587,-6.4438543,-42.05797,-7.080742,-17.442488,50.364674,2.6830318,0.5665085,-16.557482,0.61272496,14.78922,-37.981583,10.576825,-36.68549,-21.758291,-15.313688,-8.183784,15.151066,28.336391,-17.17006,12.761768,46.64179,7.745282,-5.6768823,1.1138172
127,16.909034729003906,42.30097579956055,74.6911849975586,2.889650837594891,7.621400027871695,65.08559860009426,19.147131,-3.514094,-4.962692,27.041428,21.65182,-7.6324105,-40.72285,-6.1665473,-16.59967,51.055355,-1.4257865,-2.8632858,-16.215261,0.566585,14.736008,-36.043133,10.090356,-36.893017,-22.179813,-15.053041,-8.275029,14.651248,27.5911,-17.36691,13.467913,47.6485,7.545855,-5.5809803,1.6976717
128,17.499540328979492,43.3880615234375,74.37345886230469,3.0499211552073096,7.449892667616901,64.34606373742086,19.111135,-4.3310504,-6.357817,28.553883,22.65415,-8.862805,-39.436474,-5.209721,-15.821113,51.632553,-5.306143,-5.3588185,-15.754765,0.6321925,14.724676,-34.231953,9.65456,-37.152256,-22.309748,-14.087163,-8.178927,14.121643,26.732756,-17.528563,14.082809,48.584774,7.663896,-5.5192547,1.977262
129,18.08230209350586,44.44585418701172,74.0060806274414,3.144966314804255,7.311980919784731,63.54635822596876,18.952618,-4.994837,-7.2430763,30.287298,23.216835,-10.190751,-38.087715,-4.3668847,-15.235208,51.951244,-9.097301,-6.5408845,-15.173329,0.8032496,14.737919,-32.515816,9.287124,-37.480038,-22.163687,-12.121918,-7.840717,13.571302,25.78064,-17.641699,14.596249,49.45556,8.215732,-5.5126147,1.8564918
130,18.66301918029785,45.46776580810547,73.60879516601562,3.2032584030176627,7.178948722667708,62.68640675049728,18.686724,-5.588797,-7.740181,32.252342,23.39744,-11.659833,-36.675602,-3.593566,-14.706708,52.139374,-13.10828,-6.9581757,-14.468211,1.0389727,14.775384,-30.882555,9.003895,-37.8667,-21.75887,-9.332536,-7.2997694,12.95411,24.724152,-17.702995,15.020699,50.299675,8.955942,-5.559519,1.4761888
131,19.232059478759766,46.44296646118164,73.1997299194336,3.1886188458086324,7.074528749881027,61.745131834646536,18.182543,-5.9333973,-7.6630116,34.573277,23.120893,-13.014039,-35.36467,-2.8145733,-14.206991,52.346676,-16.90129,-7.0580153,-13.666102,1.3438449,14.879114,-29.321123,8.803976,-38.281933,-21.132471,-6.1869335,-6.703132,12.264801,23.482908,-17.722921,15.389826,51.106377,9.796891,-5.622177,0.93889374
132,19.795269012451172,47.38473129272461,72.78999328613281,3.058667099671749,7.022463752491047,60.7025336767222,17.318213,-5.8085747,-6.834265,37.367302,22.341234,-13.9785,-34.325504,-1.9126618,-13.677389,52.73267,-20.032177,-7.2895565,-12.778846,1.7384925,15.086608,-27.88293,8.710764,-38.667492,-20.297,-3.2271569,-6.184748,11.511956,22.002567,-17.72064,15.7152195,51.84295,10.653633,-5.658225,0.35103485
133,20.33148193359375,48.29475402832031,72.38926696777344,2.756130097956628,7.050230335561165,59.501509051650885,16.0725,-4.959971,-4.945085,40.729057,20.87444,-14.4415245,-33.644077,-0.8011002,-13.105459,53.34919,-22.35176,-7.750554,-11.761919,2.3055286,15.395101,-26.59394,8.69689,-39.009693,-19.230011,-0.21295533,-5.784205,10.661839,20.274569,-17.70852,15.953192,52.48912,11.665394,-5.6528416,-0.33273253
134,20.85614013671875,49.15642166137695,72.00397491455078,2.308289387156796,7.130844719431157,58.166174672160544,14.555875,-3.4470835,-2.2146928,44.588436,18.812073,-14.505586,-33.205143,0.43710455,-12.534258,54.111706,-24.116964,-8.203427,-10.64069,3.003397,15.772566,-25.418417,8.781842,-39.32438,-17.927673,3.0148916,-5.4444084,9.732356,18.299953,-17.65675,16.148268,53.095245,12.83738,-5.6432595,-1.1554734
135,21.35506820678711,49.975730895996094,71.63675689697266,1.7951955992121233,7.208570305302937,56.801525267979315,12.861312,-1.5201582,0.719151,48.77855,16.537062,-14.228611,-32.883034,1.6966383,-11.972767,54.977097,-25.499126,-8.608607,-9.5045595,3.7315502,16.242992,-24.321835,8.964859,-39.610394,-16.426847,5.834814,-5.121869,8.8080635,16.139668,-17.58557,16.336126,53.60388,13.861174,-5.638018,-1.9727083
136,21.86968231201172,50.73832321166992,71.29170227050781,1.3009978458523286,7.2345629102152795,55.51742615642452,11.03243,0.5130251,3.246661,53.11046,14.443104,-13.678562,-32.558067,2.8729708,-11.430229,55.89682,-26.661085,-8.926869,-8.465229,4.3659363,16.812716,-23.281837,9.217794,-39.85726,-14.706354,7.636092,-4.7441072,7.9721313,13.811318,-17.502174,16.622328,54.01827,14.456653,-5.637053,-2.6553705
137,22.376663208007812,51.48224639892578,70.97632598876953,0.7917109859170625,7.20852888716315,54.29309192127953,9.025964,2.7486467,5.3871818,57.66696,12.617931,-12.782232,-32.27753,4.0066495,-10.927632,56.91685,-27.500835,-9.139659,-7.5107846,4.9308987,17.520113,-22.346212,9.528484,-40.06494,-12.635132,7.951624,-4.322096,7.0606585,11.271265,-17.405495,17.03134,54.35819,14.550258,-5.614567,-3.1681304
138,22.84311294555664,52.22586441040039,70.67813110351562,0.2340413525713666,7.151198758328615,53.08736366435369,6.8735547,5.325775,7.345759,62.469707,10.8427,-11.5139,-32.077713,5.135668,-10.471639,58.037636,-27.976196,-9.281097,-6.5926447,5.487157,18.350288,-21.523169,9.895724,-40.232574,-10.24479,7.2151537,-3.840712,6.1017356,8.537088,-17.287178,17.500336,54.602722,14.299566,-5.5671773,-3.5798953
139,23.32318878173828,52.94472122192383,70.41223907470703,-0.2778338554529936,7.055585549924308,51.98422093091214,4.6245418,7.91091,8.851365,67.24951,9.070924,-10.0393505,-31.835503,6.148807,-10.044763,59.147617,-28.33884,-9.383744,-5.762428,5.9566154,19.238644,-20.724258,10.306524,-40.357525,-7.7572975,6.172809,-3.1935637,5.459497,5.7204084,-17.13863,17.993565,54.692387,13.762225,-5.521969,-3.915179
140,23.811235427856445,53.67042541503906,70.17813873291016,-0.6429696604121249,6.921089145216234,51.06935798818949,2.2731848,10.109117,9.668642,71.74685,7.276907,-8.560288,-31.435339,6.931288,-9.623794,60.137695,-28.84057,-9.47311,-5.069741,6.2488365,20.117315,-19.869019,10.739703,-40.43743,-5.3767533,5.5632215,-2.3106372,5.4878306,2.924821,-16.955986,18.484032,54.58255,12.995712,-5.5084715,-4.1994348
141,24.281864166259766,54.374473571777344,69.96375274658203,-0.8017635475742685,6.737827226984009,50.4075513600922,-0.29229978,11.696698,9.654274,75.97129,5.4780936,-7.070911,-30.850323,7.403351,-9.222875,61.01411,-29.545,-9.55074,-4.55661,6.2857594,21.010752,-19.041883,11.175994,-40.52382,-2.9105692,5.517804,-1.1021695,6.3962827,0.14112362,-16.735292,18.985044,54.261322,11.894663,-5.515555,-4.4213743
142,24.77829360961914,55.079715728759766,69.77791595458984,-0.8113229326714387,6.518512110448001,49.94410075656147,-3.1081474,12.813288,8.989896,80.03493,3.7048123,-5.519134,-30.14747,7.6387157,-8.853431,61.82046,-30.31888,-9.600874,-4.1739883,6.118176,21.933052,-18.279177,11.607925,-40.607616,-0.28234455,5.632495,0.36676788,7.946858,-2.670167,-16.475113,19.493658,53.763103,10.465986,-5.5337276,-4.574814
143,25.269725799560547,55.78288269042969,69.61415100097656,-0.7425221776649474,6.298382184467685,49.58684086722179,-6.0767946,13.582493,7.945754,83.83358,1.9814128,-4.0730996,-29.34829,7.7495713,-8.483769,62.499416,-31.118269,-9.619501,-3.8480337,5.847096,22.797386,-17.40878,12.033733,-40.585796,2.1126134,5.8472786,1.9281954,9.80954,-5.4607043,-16.183208,19.980404,53.124817,8.936017,-5.595229,-4.6937256
144,25.772035598754883,56.5042724609375,69.47710418701172,-0.668582235488396,6.110556729792431,49.243105353683205,-9.084813,14.173776,6.796229,87.26057,0.3208982,-2.8794973,-28.47476,7.8473344,-8.080447,62.99873,-31.901463,-9.603627,-3.5172133,5.5799737,23.518473,-16.241692,12.456945,-40.3435,3.8578455,6.124865,3.4124632,11.659387,-8.1902275,-15.877561,20.434107,52.388737,7.5311856,-5.7309394,-4.812307
145,26.27317237854004,57.24474334716797,69.36158752441406,-0.5875218132851935,5.960360155872455,48.949936699693545,-12.185394,14.478478,5.4455833,90.316086,-1.274443,-2.0766604,-27.508812,7.9192505,-7.6591945,63.293884,-32.722782,-9.543232,-3.244549,5.318451,24.079567,-14.677953,12.876595,-39.829918,4.7862196,6.812145,4.979999,13.69639,-10.883535,-15.569905,20.914028,51.57952,6.2542806,-5.9724035,-4.9438415
146,26.78217887878418,58.00711441040039,69.27681732177734,-0.46776771696991964,5.8305785338464995,48.73711764522676,-15.400955,14.424743,3.8591945,93.05678,-2.7931216,-1.5574825,-26.446386,7.9178777,-7.2358713,63.4165,-33.583454,-9.444565,-3.058591,5.0166698,24.52309,-12.804673,13.291147,-39.08269,5.1062207,7.79106,6.6845374,15.979754,-13.569453,-15.265156,21.449385,50.689365,5.007401,-6.294163,-5.07131
147,27.280258178710938,58.77728271484375,69.21369934082031,-0.34033650098780294,5.719909620074322,48.49958752302624,-18.581028,14.29649,2.365619,95.45396,-4.217749,-1.0905576,-25.32913,7.9038157,-6.7719555,63.398838,-34.360764,-9.329199,-2.8494446,4.7193694,24.859537,-10.695404,13.703713,-38.11892,4.938242,8.3819065,8.142834,18.009523,-16.209606,-14.972281,21.987886,49.69945,3.8688507,-6.6405053,-5.1792097
148,27.822689056396484,59.577266693115234,69.19864654541016,-0.23632612653285884,5.6284543258036175,48.132310151259375,-21.597092,14.409762,1.255042,97.468575,-5.5320277,-0.44185883,-24.198582,7.937452,-6.2247944,63.271507,-34.93076,-9.217003,-2.505246,4.471524,25.103977,-8.41534,14.1199665,-36.96251,4.3931055,7.9461026,8.917819,19.320005,-18.759691,-14.705051,22.468023,48.57809,2.9173346,-6.9566426,-5.247612
149,28.36832046508789,60.3980827331543,69.21136474609375,-0.17934099316761265,5.564480094002059,47.596104492518364,-24.500168,14.878789,0.5279194,99.11406,-6.749085,0.5047351,-23.075636,8.057798,-5.585818,63.050327,-35.271984,-9.125251,-1.991625,4.29334,25.256794,-5.858427,14.533455,-35.521446,3.3020594,5.9514647,8.65168,19.59032,-21.21402,-14.472417,22.876938,47.266617,2.207757,-7.23178,-5.240901
150,28.924062728881836,61.246402740478516,69.2667007446289,-0.14879339903854963,5.524506301173217,46.9493522316334,-27.34384,15.558663,0.031694647,100.4004,-7.8713026,1.6100005,-21.933695,8.222383,-4.8724937,62.71914,-35.448463,-9.038826,-1.3740054,4.1573744,25.32464,-2.9780402,14.924417,-33.818417,1.6048839,2.876632,7.665571,19.100147,-23.586601,-14.274036,23.260773,45.77298,1.6923345,-7.494043,-5.1738605
151,29.466819763183594,62.10333251953125,69.37162780761719,-0.10974294601387026,5.492128363384333,46.232943650271764,-30.010569,16.403145,-0.18679178,101.28204,-8.874167,2.7275338,-20.741327,8.368093,-4.0790052,62.260212,-35.4631,-8.9277315,-0.67800313,4.040223,25.32791,0.043764774,15.275828,-32.06821,-0.3865321,-0.38451666,6.5187516,18.317287,-25.856855,-14.108481,23.627235,44.160816,1.2970635,-7.7475147,-5.100643
152,30.04623031616211,62.98961639404297,69.52107238769531,-0.026789030093109335,5.451871353088296,45.48799684688379,-32.37377,17.372274,-0.066902325,101.71566,-9.736327,3.7106965,-19.468363,8.431599,-3.202068,61.655914,-35.319996,-8.762761,0.080945425,3.9252746,25.282627,2.9854758,15.581918,-30.494396,-2.3139374,-2.9152489,5.704584,17.78601,-27.997103,-13.977964,23.965918,42.49347,0.9431664,-7.996147,-5.0753555
153,30.656421661376953,63.8963623046875,69.7170181274414,0.09436616924447074,5.389933495733336,44.67795718346305,-34.377216,18.627167,0.49998707,101.687706,-10.489848,4.5776243,-18.090244,8.424472,-2.2077117,60.90151,-35.032726,-8.530465,0.94563174,3.8289514,25.199696,5.8085423,15.839476,-29.133638,-4.1463895,-4.55011,5.2811775,17.661201,-30.016659,-13.894726,24.265097,40.74687,0.7035772,-8.245359,-5.119829
154,31.280651092529297,64.83744812011719,69.95855712890625,0.24275420034991724,5.319304646470266,43.795962555956976,-36.06847,20.154408,1.4702827,101.22975,-11.148624,5.379589,-16.629375,8.360951,-1.1063495,60.01337,-34.60095,-8.248437,1.927065,3.7586534,25.06552,8.588883,16.038815,-27.90953,-6.009012,-5.7511225,4.9938126,17.671917,-31.90488,-13.866844,24.513294,38.879044,0.58749455,-8.490626,-5.2001524
155,31.918182373046875,65.82716369628906,70.25869750976562,0.44458947509718866,5.2660683462803615,42.92829488019469,-37.47441,21.651213,2.6931362,100.362755,-11.655878,6.0251484,-15.123608,8.185713,0.034546565,58.995277,-34.006126,-7.9350204,2.9522374,3.6873791,24.855148,11.257171,16.183636,-26.85833,-7.7503357,-6.5225577,4.8147078,17.768764,-33.622826,-13.891537,24.710732,36.95102,0.41679788,-8.721535,-5.2895184
156,32.56287384033203,66.83467864990234,70.60131072998047,0.722494829693789,5.256729588699485,42.16193105256806,-38.640274,22.816082,4.0091395,99.104355,-11.946891,6.4299755,-13.612885,7.8493495,1.1431265,57.85118,-33.229122,-7.6091776,3.9452665,3.5872207,24.544771,13.747151,16.289864,-26.006186,-9.228327,-6.8654337,4.7214456,17.901146,-35.134045,-13.959879,24.854671,35.02901,0.004738098,-8.927794,-5.362593
157,33.249263763427734,67.87380981445312,70.97712707519531,1.0919605254990792,5.295096344666672,41.48208494125087,-39.513863,23.763111,5.5647388,97.42836,-12.049835,6.6334114,-12.086311,7.3318005,2.2617362,56.566277,-32.298244,-7.274011,4.92032,3.4419427,24.125576,16.049717,16.379313,-25.356203,-10.410318,-6.617129,4.7507,18.119524,-36.448174,-14.073156,24.934422,33.13344,-0.71555126,-9.108108,-5.3902874
158,33.98434066772461,68.97319793701172,71.40367126464844,1.5364658457581117,5.370857404880999,40.85711914301406,-40.078793,24.576271,7.4029393,95.33598,-11.982135,6.6505394,-10.53385,6.657399,3.4030454,55.15121,-31.219786,-6.9223447,5.897,3.2621458,23.614668,18.19844,16.468287,-24.885098,-11.3757925,-5.829173,4.9050574,18.432678,-37.597023,-14.238018,24.963512,31.238293,-1.6386982,-9.26818,-5.39552
159,34.71986389160156,70.08030700683594,71.84835815429688,2.0247239156638566,5.486800165836381,40.34889289487118,-40.483566,24.936745,9.164924,92.87546,-11.656443,6.386141,-8.993405,5.858833,4.44917,53.637722,-29.936024,-6.555636,6.8043838,3.0644453,23.028223,20.198103,16.570023,-24.565943,-12.1614275,-4.8212953,5.1109877,18.724203,-38.585213,-14.448882,24.981407,29.349754,-2.6913884,-9.40887,-5.432646
160,35.45232009887695,71.19701385498047,72.31580352783203,2.5211159623954438,5.642381619679509,40.01701516832028,-40.90864,24.560352,10.450211,90.08623,-10.9912815,5.76602,-7.504192,4.9826417,5.283849,52.059105,-28.380745,-6.1720533,7.5713778,2.870066,22.380054,22.05571,16.695278,-24.36599,-12.803802,-3.911592,5.288543,18.879948,-39.41779,-14.690509,25.026833,27.478456,-3.8047042,-9.527911,-5.5564055
161,36.210121154785156,72.35415649414062,72.80213928222656,3.0405141096800907,5.837283538110668,39.89801610038717,-41.415886,23.32448,11.132126,86.93849,-9.940205,4.867956,-6.044738,4.002014,5.872845,50.355972,-26.523266,-5.7708797,8.168583,2.6779094,21.659857,23.761965,16.859629,-24.285292,-13.276075,-3.168731,5.43139,18.86436,-40.099613,-14.953059,25.086487,25.635567,-5.069447,-9.610517,-5.7810593
162,37.008392333984375,73.51776123046875,73.3024673461914,3.5848255975489254,6.064110184526352,39.949701226216284,-41.91734,21.45796,11.358099,83.41019,-8.590897,3.7322364,-4.6011496,2.926715,6.28172,48.542995,-24.405231,-5.3498745,8.63433,2.4827235,20.869076,25.332039,17.076397,-24.31849,-13.589347,-2.4275303,5.574421,18.74107,-40.63695,-15.233713,25.145138,23.819027,-6.4949975,-9.658105,-6.077443
163,37.814361572265625,74.70861053466797,73.80709838867188,4.100042079812547,6.3103423055923935,40.11192027568143,-42.35147,19.214306,11.133819,79.53528,-7.0737247,2.2376657,-3.2165332,1.8655318,6.5525756,46.74131,-22.059217,-4.899668,8.992998,2.2972295,20.035889,26.819702,17.346468,-24.416767,-13.841221,-1.6536821,5.695635,18.546335,-41.07236,-15.531773,25.25995,22.052677,-7.853336,-9.694555,-6.436698
164,38.64600372314453,75.89539337158203,74.30210876464844,4.534994362054371,6.565734795319886,40.32521268013753,-42.64978,16.828295,10.477833,75.3514,-5.5162745,0.26130235,-1.9401505,0.92890364,6.730979,45.073284,-19.516132,-4.409591,9.26403,2.1328123,19.186481,28.275526,17.660557,-24.529324,-14.123316,-0.81123745,5.7736077,18.31475,-41.45371,-15.846735,25.496248,20.367865,-8.9120035,-9.746557,-6.851984
165,39.49474334716797,77.11294555664062,74.78813171386719,4.895986175125596,6.848354157052062,40.615339175832396,-42.765064,14.159276,9.266863,70.6985,-3.9080787,-2.4554276,-0.7590447,0.12694544,6.8266363,43.441177,-16.635157,-3.8441381,9.430501,1.9926764,18.289125,29.702633,18.013973,-24.658077,-14.432184,0.09157262,5.8155084,18.063938,-41.77182,-16.17285,25.881662,18.789299,-9.627506,-9.868347,-7.338996
166,40.35870361328125,78.32284545898438,75.255126953125,5.196509718959445,7.149499389970587,40.99059157349901,-42.64036,11.231216,7.4839444,65.57519,-2.2770343,-5.7133675,0.35014945,-0.5670495,6.8382053,41.8176,-13.439749,-3.2173772,9.490378,1.8836666,17.346184,31.081802,18.408327,-24.811739,-14.728283,1.0454216,5.8262033,17.771477,-42.017574,-16.507051,26.382467,17.3043,-10.115175,-10.031562,-7.8973966
167,41.23915481567383,79.52241516113281,75.68260192871094,5.402859502551025,7.426395872432399,41.3704328199415,-42.229324,8.474629,5.3479133,60.259476,-0.74380654,-8.975732,1.3491362,-1.108345,6.7872,40.417603,-10.196566,-2.59626,9.492325,1.8198502,16.433367,32.41485,18.840757,-24.961952,-15.038025,2.0856733,5.77962,17.411093,-42.186184,-16.84486,26.950214,15.849827,-10.42197,-10.140546,-8.495088
168,42.143070220947266,80.70606994628906,76.07254028320312,5.485468425842744,7.642457682699933,41.68022020133675,-41.554493,6.250616,3.1210806,55.048393,0.6544723,-11.756217,2.1988585,-1.4654931,6.6806493,39.44351,-7.1626797,-2.0530176,9.47627,1.806538,15.620581,33.70587,19.305464,-25.077286,-15.387775,3.24799,5.6478043,16.957512,-42.283203,-17.182112,27.540842,14.371497,-10.5851965,-10.10015,-9.099216
169,43.05089569091797,81.91828918457031,76.4225082397461,5.434847545813435,7.8311526540301655,41.90937854287532,-40.622757,4.4888687,0.7314162,49.75575,1.9709457,-14.171912,2.867453,-1.6513268,6.501592,38.88483,-4.335196,-1.6374632,9.447247,1.8300731,14.876588,35.009144,19.797564,-25.134007,-15.798206,4.5135016,5.3875604,16.409199,-42.341232,-17.52339,28.216648,12.841296,-10.537966,-9.86766,-9.741882
170,43.95602035522461,83.12699890136719,76.72504425048828,5.378951732936456,7.996137319284578,42.132177932231784,-39.37275,3.100988,-1.3571135,44.168022,3.3409922,-15.000033,3.368503,-1.8257953,6.24855,38.70791,-1.6369885,-1.283017,9.344149,1.8016078,14.195019,36.312542,20.316128,-25.140224,-16.253992,5.8712864,5.019037,15.782429,-42.363567,-17.872152,28.983076,11.304428,-10.274383,-9.505469,-10.427522
171,44.87031555175781,84.3315658569336,76.97264862060547,5.369949296385762,8.053103634635999,42.343472660232216,-37.838924,2.0476353,-3.1424825,38.663807,4.856104,-15.000033,3.7680042,-2.01876,5.943818,38.98474,0.8631718,-0.9570908,9.165907,1.7005877,13.677082,37.504684,20.86462,-25.123703,-16.715126,7.369866,4.604589,15.077848,-42.26853,-18.211264,29.692617,9.786684,-9.964737,-9.0716305,-11.080654
172,45.80330276489258,85.5010986328125,77.15997314453125,5.205141290524973,7.946947217886332,42.47435277794603,-36.258274,1.5167902,-4.8039484,33.983032,6.4126954,-15.000033,4.1469784,-1.9660563,5.597179,39.625645,3.2196274,-0.69560957,8.979244,1.7380803,13.361536,38.480396,21.453041,-25.113241,-17.147324,9.058255,4.206584,14.294398,-41.992603,-18.513506,30.198523,8.333993,-9.772478,-8.621055,-11.623685
173,46.74175262451172,86.6448745727539,77.29244232177734,4.836093813609042,7.663768956249727,42.554443285122005,-34.79852,1.5846369,-6.188795,30.401928,8.192462,-15.000033,4.476268,-1.6137666,5.163532,40.69187,5.580175,-0.55538774,8.745683,1.9482527,13.265569,39.270237,22.087217,-25.108086,-17.577831,11.028253,3.8313787,13.465441,-41.561184,-18.76384,30.49011,6.9239364,-9.745363,-8.144719,-12.01564
174,47.69050979614258,87.75541687011719,77.37146759033203,4.320086711894542,7.260391282267269,42.61312706853665,-33.486935,2.056175,-7.3376837,27.720768,10.082333,-15.000033,4.6960597,-1.0841023,4.619525,42.20061,7.8855963,-0.5687069,8.443622,2.2588825,13.331943,39.916443,22.77038,-25.092604,-18.015636,13.222653,3.4354,12.585458,-41.01408,-18.958652,30.638151,5.570031,-9.797127,-7.621547,-12.3033495
175,48.63427734375,88.8494644165039,77.38569641113281,3.8221209581946685,6.793223610906192,42.67017158457474,-32.28439,2.6169524,-8.2441225,25.81213,11.650051,-15.000033,4.7997246,-0.60879844,4.0076675,44.113544,9.784089,-0.6278188,8.082313,2.5312097,13.505437,40.323334,23.511717,-25.084778,-18.397614,15.467298,3.0036752,11.591221,-40.294296,-19.081678,30.616919,4.3651357,-9.902397,-7.0859776,-12.539923
176,49.57291030883789,89.9288558959961,77.33313751220703,3.4888584259844615,6.307448776139258,42.728534989249745,-31.079456,3.0015998,-8.941985,24.479746,12.498548,-15.000033,4.795753,-0.3587805,3.397992,46.385963,10.926874,-0.57502425,7.680584,2.6438062,13.735278,40.40235,24.325249,-25.106483,-18.671858,17.585213,2.522838,10.420075,-39.367065,-19.11355,30.405119,3.4213412,-10.02171,-6.5733914,-12.77719
177,50.503875732421875,91.00454711914062,77.21307373046875,3.3540910694857193,5.792531245169143,42.809986380816646,-29.83579,3.2077696,-9.445564,23.74778,12.6664715,-15.000033,4.7322593,-0.30078983,2.8116405,49.063114,11.0522995,-0.24696559,7.2274914,2.5667584,14.036727,40.104355,25.22945,-25.195034,-18.837374,19.606169,1.9769064,8.992049,-38.19946,-19.022692,29.960009,2.7885277,-10.096365,-6.1184325,-13.046213
178,51.42864990234375,92.07071685791016,77.03087615966797,3.3348020909685476,5.229312808321467,42.9024380299991,-28.60276,3.3721874,-9.7615795,23.688747,12.315149,-15.000033,4.580424,-0.3413852,2.2161684,52.19045,10.375583,0.27186224,6.719103,2.3622887,14.421179,39.4915,26.228172,-25.347609,-18.933271,21.58379,1.3618282,7.3683395,-36.839516,-18.794289,29.313675,2.4296663,-10.164233,-5.695746,-13.312039
179,52.29495620727539,93.09951782226562,76.81090545654297,3.396022985387073,4.643236537096364,42.949563439173744,-27.35018,3.4701297,-9.913277,24.12709,11.279663,-15.000033,4.2607503,-0.5287002,1.6153239,55.688843,9.286351,0.7907024,6.1963105,2.061164,14.839473,38.62687,27.305367,-25.53199,-18.950863,23.382132,0.6970424,5.6908407,-35.342136,-18.440248,28.550404,2.2940454,-10.342566,-5.248932,-13.528123
180,53.16328430175781,94.14803314208984,76.54011535644531,3.5097690430731205,4.060903639544902,42.89770229994417,-26.040716,3.4610116,-9.913445,24.875774,9.404788,-15.000033,3.7073338,-0.92867625,1.0250075,59.455925,8.192009,1.1097534,5.700691,1.6941799,15.246503,37.561184,28.432709,-25.713512,-18.869646,24.876444,0.017918244,4.094359,-33.742123,-17.9896,27.754416,2.3056042,-10.752213,-4.719721,-13.64695
181,54.050899505615234,95.2110824584961,76.17610931396484,3.678147368023765,3.4579056318668417,42.72055564298986,-24.575233,3.306279,-9.768757,26.003695,6.2439256,-15.000033,2.9620707,-1.6014624,0.4193638,63.555298,7.108991,1.2127384,5.24849,1.2706653,15.65354,36.283276,29.590693,-25.881382,-18.678282,25.962885,-0.7295204,2.4538233,-32.01761,-17.44549,26.939917,2.5232532,-11.3326025,-4.047289,-13.631161
182,54.89752197265625,96.26304626464844,75.76066589355469,3.919800686795323,2.830870264495863,42.45022642173848,-23.0076,3.0313299,-9.488044,27.58341,2.0147552,-15.000033,2.0670907,-2.500201,-0.17956327,67.99666,5.8517547,1.2014577,4.815712,0.77665156,16.07878,34.748676,30.77127,-26.072247,-18.369337,26.736147,-1.5257324,0.73886853,-30.157516,-16.798065,26.08479,2.9428523,-12.044289,-3.2790275,-13.509554
183,55.7088623046875,97.29727172851562,75.32650756835938,4.232631070936687,2.2400506157188684,42.12191701997551,-21.53049,2.6759286,-9.069555,29.432234,-2.4385672,-15.000033,0.96226335,-3.5329876,-0.67603344,72.57228,4.5424886,1.0521607,4.3875566,0.20820932,16.48995,32.95144,31.961824,-26.318708,-17.930054,27.388803,-2.2147417,-0.77702266,-28.202139,-16.074219,25.211304,3.3836303,-13.032036,-2.5180268,-13.331807
184,56.48323440551758,98.34590911865234,74.89110565185547,4.6061635536438725,1.743440022315403,41.76774562270407,-20.309015,2.3003018,-8.492392,31.327744,-6.2640085,-15.000033,-0.42200792,-4.5973325,-0.9846084,77.07785,3.3060699,0.7382636,3.9599314,-0.42819375,16.860493,30.870224,33.14733,-26.657879,-17.340496,28.128628,-2.6444032,-1.8183988,-26.166159,-15.329974,24.332159,3.639222,-14.432306,-1.8655283,-13.148695
185,57.251583099365234,99.3381118774414,74.44102478027344,5.076449617620559,1.3858890493271783,41.35057868367404,-19.437262,1.8990839,-7.604992,33.297993,-9.312444,-15.000033,-2.1879723,-5.6817966,-0.9957555,81.59661,2.1727486,0.21156725,3.5806637,-1.1541122,17.168648,28.407234,34.31895,-27.157545,-16.522614,28.908232,-2.6706557,-2.2266905,-23.956661,-14.605484,23.406164,3.5551102,-16.640436,-1.2956312,-12.9266615
186,58.017879486083984,100.29676055908203,74.00626373291016,5.629530012504267,1.1285218724588937,40.86331300016045,-18.788904,1.4634316,-6.461488,35.41053,-12.021559,-15.000033,-4.264017,-6.7986956,-0.7789843,86.18253,1.0850792,-0.4875481,3.2663462,-1.9425478,17.446722,25.564308,35.468193,-27.805235,-15.51175,29.667517,-2.3910956,-2.1837056,-21.538866,-13.911081,22.44589,3.2112296,-19.44735,-0.77769184,-12.645871
187,58.77708053588867,101.24867248535156,73.60765075683594,6.194866582529786,0.8995764663236124,40.38614645452382,-18.18415,1.0145036,-5.317262,37.469296,-14.40605,-14.872122,-6.4723454,-7.8918715,-0.49876964,90.593216,0.04952374,-1.2205493,2.9613304,-2.734636,17.747177,22.628044,36.571617,-28.479582,-14.577098,30.681786,-2.0237858,-1.9248505,-19.011347,-13.266301,21.530018,2.7559004,-22.080929,-0.39569855,-12.395389
188,59.525733947753906,102.17530822753906,73.24674987792969,6.727759687388101,0.624134159659784,40.0087647186618,-17.450565,0.5096993,-4.4152365,39.26647,-16.45148,-14.398742,-8.643559,-8.9606695,-0.30832127,94.59656,-0.9409983,-1.8556083,2.5624592,-3.4955945,18.12167,19.314802,37.632057,-29.157488,-13.513375,31.920788,-1.7946458,-1.6869601,-16.50786,-12.696209,20.756342,2.35583,-23.771484,-0.21686414,-12.283948
189,60.26703643798828,103.09261322021484,72.9197006225586,7.120713894363004,0.30010108309842753,39.73971344201826,-16.654013,0.059271563,-3.92382,40.89462,-18.14573,-14.282259,-10.814929,-9.968796,-0.31441367,98.18336,-1.8278204,-2.4788587,2.0802393,-4.1254644,18.56034,15.946968,38.64774,-29.84033,-12.541184,33.979477,-1.75558,-1.4409668,-14.012216,-12.235814,20.111553,2.0219069,-24.082878,-0.35328203,-12.452339
190,61.017555236816406,103.9742202758789,72.61759185791016,7.435492208605312,-0.04085181555980707,39.540048281876295,-15.854548,-0.39076164,-3.6507525,42.41152,-19.490171,-14.361594,-13.060785,-10.956596,-0.41048712,101.47362,-2.6251988,-3.1317754,1.5432307,-4.674564,19.050718,12.35639,39.620228,-30.557274,-11.542941,36.566746,-1.7762141,-1.0911694,-11.464449,-11.900261,19.558472,1.6607792,-23.496845,-0.7323471,-12.814104
191,61.75713348388672,104.82145690917969,72.33634185791016,7.643251706455634,-0.39953276555992645,39.3892822048465,-15.004777,-0.7622408,-3.5142744,43.786243,-20.612738,-14.522926,-15.30386,-11.830419,-0.60812664,104.37164,-3.3775303,-3.7566404,0.97960144,-5.1197925,19.589548,8.821003,40.50435,-31.108047,-10.805537,39.047237,-1.8285687,-0.7690359,-8.868643,-11.678563,19.067785,1.2515428,-22.628895,-1.141501,-13.132242
192,62.518524169921875,105.6517105102539,72.09082794189453,7.712901770146863,-0.776804593159872,39.26661755902969,-14.055075,-0.9646189,-3.4442418,44.989887,-21.640234,-14.652131,-17.468906,-12.490223,-0.9376545,106.77511,-4.122847,-4.2944617,0.38079444,-5.4407783,20.162384,5.626733,41.23669,-31.264063,-10.564286,40.794018,-1.9116533,-0.6166691,-6.27414,-11.537597,18.64446,0.8211445,-22.09555,-1.353852,-13.187272
193,63.28620147705078,106.46256256103516,71.88571166992188,7.596342830436161,-1.2107225827513872,39.189598311152636,-12.975151,-0.93274224,-3.464163,46.06013,-22.627592,-14.735084,-19.519299,-12.951134,-1.5147586,108.662605,-4.9274054,-4.8076825,-0.29351202,-5.604696,20.796776,2.8064263,41.76783,-30.907974,-10.830371,41.68313,-2.1314127,-0.90451187,-3.7151577,-11.456443,18.302221,0.43237606,-22.00024,-1.2583188,-12.844709
194,64.08169555664062,107.27207946777344,71.73333740234375,7.320600567193745,-1.6908029379421532,39.16472770135189,-11.787662,-0.7248937,-3.5897074,46.99451,-23.500702,-14.828521,-21.504221,-13.263232,-2.3159094,110.08654,-5.737784,-5.3015094,-1.0655277,-5.637238,21.474482,0.18564813,42.089993,-30.178867,-11.381486,42.045406,-2.4756417,-1.4838814,-1.2029943,-11.438103,18.04862,0.115162015,-22.05131,-0.9889727,-12.254643
195,64.8855209350586,108.06817626953125,71.6325912475586,6.968054099063784,-2.1438230714033852,39.152768435194545,-10.529362,-0.42589778,-3.749153,47.712696,-24.194077,-14.921466,-23.484976,-13.372742,-3.170357,111.04509,-6.405119,-5.6277113,-1.9058204,-5.600688,22.105316,-2.2691474,42.209507,-29.255266,-12.093685,41.945503,-2.760582,-1.8684376,1.2565901,-11.477959,17.870773,-0.15592939,-22.266987,-0.6830737,-11.632634
196,65.72988891601562,108.85173034667969,71.59846496582031,6.62831017838551,-2.496595280861343,39.112586673599196,-9.239939,-0.1247303,-3.8758504,48.131,-24.638304,-15.000033,-25.529913,-13.227766,-3.8987188,111.5368,-6.7802567,-5.6364155,-2.7808247,-5.5605464,22.593534,-4.5623965,42.14673,-28.29745,-12.873391,41.457382,-2.8010607,-1.5720845,3.653524,-11.564777,17.758232,-0.39888695,-22.66163,-0.47840735,-11.192039
197,66.58658599853516,109.63059997558594,71.6125259399414,6.313217747010631,-2.739371761500782,39.05491000089095,-7.9298882,0.16706555,-3.9787745,48.242752,-24.846415,-15.000033,-27.681976,-12.799058,-4.482381,111.5412,-6.837727,-5.242906,-3.6985497,-5.541811,22.919535,-6.6664042,41.901047,-27.285334,-13.763919,40.465275,-2.532551,-0.25309524,6.0013313,-11.687052,17.717634,-0.6362135,-23.39391,-0.41777825,-10.988672
198,67.479248046875,110.4044418334961,71.68675994873047,5.975681358874534,-2.9088891096966374,38.993253378322684,-6.583659,0.51039034,-4.0911765,48.0978,-24.84992,-15.000033,-29.899948,-12.120878,-5.0172057,111.05359,-6.6508555,-4.5414314,-4.6569366,-5.505641,23.124529,-8.626129,41.465378,-26.18652,-14.76206,38.96193,-2.0864666,1.7723581,8.307495,-11.841937,17.732513,-0.84556574,-24.405918,-0.4269806,-10.907775
199,68.39138793945312,111.16792297363281,71.81285095214844,5.634240916473883,-3.003265349720626,38.89207280253112,-5.2012253,0.88276947,-4.1751823,47.693237,-24.602884,-15.000033,-32.125637,-11.240808,-5.4701443,110.10094,-6.228044,-3.640114,-5.600316,-5.4244246,23.205652,-10.518076,40.86908,-25.121454,-15.750587,37.19333,-1.5688863,4.0015645,10.571202,-12.026825,17.749805,-0.9979624,-25.382812,-0.46558776,-10.906317
200,69.33123779296875,111.93601989746094,71.99452209472656,5.306763937514648,-3.0203894213921747,38.715143222200254,-3.7834299,1.2597111,-4.1925564,47.02924,-24.060738,-15.000033,-34.294388,-10.199723,-5.8066144,108.70866,-5.577993,-2.6458058,-6.463974,-5.272584,23.172876,-12.457871,40.16348,-24.221292,-16.595158,35.39695,-1.0489203,5.930305,12.799462,-12.238347,17.703444,-1.0841613,-26.010754,-0.49562284,-10.936784
201,70.29952239990234,112.71698760986328,72.2333755493164,4.99439959066479,-2.9522936351092297,38.47728870785872,-2.3237681,1.6391724,-4.1561637,46.076096,-23.233398,-15.000033,-36.41371,-8.938052,-5.9783344,106.828316,-4.6725254,-1.4680349,-7.234202,-5.0428543,23.017153,-14.351831,39.39502,-23.492205,-17.4458,33.523876,-0.42891204,7.541487,15.028216,-12.476352,17.552328,-1.1301097,-26.13918,-0.5284694,-10.99308
202,71.30119323730469,113.5085220336914,72.52936553955078,4.691139457599621,-2.8047123571443042,38.19056449671074,-0.82546306,2.0267687,-4.077683,44.85006,-22.140903,-15.000033,-38.480457,-7.453615,-5.9933834,104.45442,-3.5464725,-0.08484868,-7.957694,-4.768816,22.769463,-16.377665,38.570892,-22.892302,-18.166645,31.394659,0.28544992,9.086193,17.238249,-12.736088,17.344452,-1.1630851,-25.955658,-0.57847345,-11.095839
203,72.34481811523438,114.30785369873047,72.88275146484375,4.41186357638169,-2.5958097577533334,37.815653371759744,0.69688594,2.3887901,-3.9120393,43.41826,-20.751331,-14.930303,-40.417355,-5.87557,-5.895674,101.68721,-2.2963145,1.2967043,-8.571728,-4.4416018,22.446663,-18.219044,37.707897,-22.323301,-18.947708,29.333513,0.91721934,10.43112,19.432045,-12.99213,17.05968,-1.1760669,-25.657946,-0.61388355,-11.234244
204,73.4026107788086,115.10779571533203,73.27152252197266,4.180748796902988,-2.34273788544088,37.31331972427254,2.2301576,2.6787138,-3.6097274,41.84108,-19.026596,-14.699061,-42.159546,-4.339266,-5.729005,98.633064,-1.004289,2.4714885,-9.050126,-4.087603,22.08011,-19.879475,36.821903,-21.748146,-19.690897,27.574425,1.3122091,11.427879,21.568932,-13.21609,16.71046,-1.1491607,-25.450556,-0.60255784,-11.398154
205,74.49478149414062,115.923095703125,73.69808959960938,3.9894255574186674,-2.0372063709783164,36.65069978434407,3.7899468,2.9220743,-3.143242,40.09025,-16.951262,-14.3492365,-43.720116,-2.8194451,-5.4824696,95.263885,0.3505941,3.3698258,-9.358387,-3.7023082,21.667671,-21.338816,35.922558,-21.13699,-20.423452,26.274195,1.4351817,11.90614,23.652086,-13.383124,16.263727,-1.0466728,-25.400715,-0.52185035,-11.584649
206,75.6029281616211,116.73863220214844,74.15060424804688,3.8319051874868966,-1.6748657225822012,35.854846863605715,5.3718414,3.1205928,-2.5323281,38.161827,-14.555648,-13.899376,-45.10172,-1.2707037,-5.1356597,91.53606,1.7965794,4.094327,-9.521012,-3.2936623,21.199245,-22.623774,35.01999,-20.518772,-21.177256,25.274702,1.4018785,11.973216,25.677372,-13.489421,15.722046,-0.8774693,-25.407692,-0.39415574,-11.797618
207,76.74054718017578,117.54898071289062,74.62091064453125,3.6915946367621277,-1.276799301651896,34.96918759528328,6.910911,3.2671185,-1.8177546,36.196686,-11.892556,-13.412841,-46.23794,0.23824996,-4.7604055,87.51527,3.2899733,4.699378,-9.582271,-2.8569033,20.693983,-23.733477,34.129272,-19.93802,-21.930996,24.361012,1.2863858,11.891839,27.611622,-13.542015,15.142892,-0.69786185,-25.420567,-0.25463074,-12.037859
208,77.91593933105469,118.35223388671875,75.10370635986328,3.5523242103735013,-0.8637045547807687,34.03663988573663,8.344558,3.3590903,-1.0467852,34.32531,-9.002134,-12.952978,-47.073967,1.6409113,-4.427156,83.25786,4.792288,5.242865,-9.585384,-2.3866343,20.172289,-24.621233,33.267693,-19.42934,-22.700916,23.329105,1.153527,11.928131,29.424276,-13.556698,14.584343,-0.5669044,-25.387262,-0.13886483,-12.307021
209,79.09258270263672,119.16499328613281,75.58539581298828,3.372642533659782,-0.4032369057471638,33.02439198630962,9.6212225,3.4444995,-0.17729068,32.56984,-5.798284,-12.454343,-47.622025,3.0122256,-4.131813,78.64284,6.366198,5.7904534,-9.516162,-1.8350854,19.62617,-25.207748,32.444622,-18.956404,-23.533762,22.216078,0.9999677,12.130004,31.104916,-13.539708,14.037646,-0.48100105,-25.328197,-0.05279417,-12.620846
210,80.28494262695312,119.99568939208984,76.06072235107422,3.1760160093101226,0.09960193493484347,31.92054416616364,10.773742,3.510963,0.805671,30.888172,-2.2962022,-11.907935,-47.898518,4.3526773,-3.8350391,73.66529,8.020701,6.2909784,-9.364929,-1.2333046,19.053015,-25.507431,31.663006,-18.500683,-24.446268,21.096676,0.7980759,12.364072,32.667534,-13.492776,13.484879,-0.42505068,-25.258242,0.021626933,-12.975056
211,81.49142456054688,120.8384780883789,76.5162353515625,3.043550019560697,0.5723444984750115,30.801397940541438,11.870026,3.4645233,1.7922025,29.297375,1.326112,-11.466047,-47.874737,5.49414,-3.566757,68.56026,9.642751,6.632547,-9.18144,-0.6864023,18.483257,-25.611193,30.928095,-18.123919,-25.407604,19.822811,0.5684716,12.625469,34.124664,-13.430996,12.971679,-0.44259644,-25.115522,0.083565705,-13.34174
212,82.7208251953125,121.67901611328125,76.9478759765625,3.054692013515288,0.948374244398987,29.74508261520454,12.993748,3.2036526,2.6505558,27.769724,4.9119735,-11.286503,-47.540413,6.2814417,-3.3752222,63.575157,11.119057,6.707923,-9.018185,-0.2900888,17.949396,-25.599794,30.24537,-17.886623,-26.389553,18.247204,0.3301973,12.909833,35.494373,-13.375973,12.547047,-0.57885027,-24.835001,0.13126792,-13.692901
213,83.97015380859375,122.53727722167969,77.34920501708984,3.220859003388426,1.2356380785829473,28.754293457725428,14.216356,2.716573,3.43194,26.164482,8.591099,-11.474484,-46.866055,6.7115726,-3.2731516,58.61562,12.36571,6.4716835,-8.892474,-0.039251022,17.453476,-25.428808,29.620623,-17.792475,-27.430408,16.248093,0.10010706,13.262465,36.779697,-13.34914,12.231103,-0.8612263,-24.31888,0.14822637,-14.049199
214,85.24008178710938,123.41925048828125,77.71768188476562,3.504433778423108,1.4669718111089023,27.79351842717757,15.492139,2.0348647,4.1269727,24.487179,12.424058,-11.946218,-45.887566,6.8835635,-3.2617013,53.60566,13.465726,6.004009,-8.7860565,0.111723945,16.98537,-25.049273,29.05605,-17.800535,-28.548431,13.929384,-0.1446866,13.667475,37.977962,-13.357574,12.004728,-1.2674026,-23.622246,0.13858977,-14.417783
215,86.50901794433594,124.32062530517578,78.03943634033203,3.9050619713483443,1.6213091336346805,26.8851625095636,16.733866,1.1371813,4.5129843,22.919867,16.161085,-12.572729,-44.717823,6.8017926,-3.3934467,48.85063,14.544194,5.3826814,-8.697832,0.1432662,16.555674,-24.546013,28.549162,-17.908201,-29.681894,11.477824,-0.43895203,14.026037,39.09715,-13.395271,11.860508,-1.7630651,-22.909946,0.13344477,-14.74972
216,87.79107666015625,125.23812866210938,78.31169128417969,4.414526643157253,1.6813882478106048,26.052754837577556,17.848335,0.031400617,4.394811,21.669937,19.539541,-13.210808,-43.482986,6.466932,-3.7304242,44.680237,15.719855,4.6753116,-8.621923,0.044191767,16.170048,-24.017235,28.091372,-18.124304,-30.753332,9.080952,-0.80669415,14.239013,40.142258,-13.446662,11.787507,-2.3079484,-22.349869,0.16652972,-14.995298
217,89.09439849853516,126.13968658447266,78.52774810791016,5.094440198422937,1.6316647175331769,25.301546267428375,18.872501,-1.3211706,3.7607665,20.72958,22.576406,-13.822256,-42.1824,5.7745953,-4.3669014,41.155544,17.035831,3.8718889,-8.554863,-0.24101204,15.822488,-23.485512,27.677803,-18.483828,-31.747551,6.611276,-1.2628915,14.291765,41.122307,-13.50593,11.794662,-2.9154072,-21.91694,0.22715236,-15.123816
218,90.41021728515625,127.03251647949219,78.68323516845703,5.911806780256708,1.4999460666860016,24.61949963659293,19.839603,-2.8621356,2.6998127,20.04586,25.376846,-14.480508,-40.800278,4.7876177,-5.2919083,38.159317,18.3949,2.9458365,-8.496117,-0.6650755,15.502132,-22.920948,27.30555,-18.988878,-32.682495,4.0263042,-1.7796676,14.223046,42.028294,-13.573821,11.883404,-3.586095,-21.549477,0.30572918,-15.166024
219,91.73358917236328,127.92304992675781,78.77933502197266,6.745426247000724,1.3348368360907101,24.011318813312872,20.65613,-4.4409823,1.2979877,19.733414,27.819752,-15.000033,-39.458935,3.705891,-6.366967,35.79855,19.691252,1.9361813,-8.444297,-1.1105765,15.196931,-22.346598,26.964779,-19.60145,-33.524963,1.642361,-2.3084857,14.020031,42.838676,-13.641724,12.025858,-4.2605042,-21.362381,0.43873954,-15.164553
220,93.0625991821289,128.8160400390625,78.80902099609375,7.41081705271311,1.1998885608374397,23.525330356106117,21.053343,-5.8152623,-0.24154834,20.185003,29.6261,-15.000033,-38.278973,2.7305064,-7.518472,34.123356,20.854408,0.86517835,-8.430697,-1.3877455,14.881359,-21.787024,26.637373,-20.28691,-34.245792,-0.22056405,-2.8026028,13.6816025,43.544712,-13.69811,12.184658,-4.8926926,-21.472885,0.6619666,-15.158247
221,94.37628936767578,129.68576049804688,78.74197387695312,7.667091312682448,1.1150305477095293,23.23314374380204,20.455568,-6.9844165,-2.509052,22.563173,30.000067,-15.000033,-37.218967,1.9972588,-9.027866,32.936592,22.403044,-0.22398208,-8.498497,-1.2519782,14.554157,-21.27162,26.302685,-21.068638,-34.8111,-1.5049063,-3.2821493,13.187971,44.18975,-13.73692,12.334689,-5.532989,-21.970324,1.0431068,-15.066273
222,95.6917495727539,130.5327606201172,78.60420227050781,7.949289116199837,0.9463769364089609,22.923500990222898,19.938065,-8.471836,-5.2871165,25.022022,30.000067,-15.000033,-36.216324,1.2407044,-10.498344,32.498707,24.10211,-1.3392367,-8.458108,-1.1715727,14.290126,-20.789968,25.961763,-21.96614,-35.217545,-2.3626661,-3.7622669,12.544096,44.730396,-13.745938,12.516022,-6.137383,-22.775871,1.5410569,-14.898659
223,97.02928924560547,131.36459350585938,78.4135971069336,8.27907050025019,0.7033073292840905,22.580386606040314,19.750029,-9.946887,-7.8339934,27.06689,30.000067,-15.000033,-35.213573,0.4917141,-11.765566,32.764465,25.107798,-2.6780834,-8.311087,-1.1643289,14.08799,-20.336777,25.61829,-22.946522,-35.48359,-2.8079398,-4.1893077,11.813602,45.1162,-13.724546,12.732599,-6.624498,-23.76003,2.0316591,-14.811948
224,98.3757095336914,132.17727661132812,78.1744384765625,8.669527207646183,0.4055748153120689,22.203220728583506,19.846502,-11.030322,-9.412243,28.67098,30.000067,-15.000033,-34.1734,-0.19488747,-12.650519,33.68007,24.582357,-4.409418,-8.075522,-1.2406993,13.939119,-19.896395,25.277782,-23.970943,-35.639183,-2.8495793,-4.5124927,11.060583,45.2971,-13.681761,12.989419,-6.917115,-24.787493,2.3977585,-14.969493
225,99.71192169189453,132.96751403808594,77.89379119873047,9.175455832704667,0.026227268919590603,21.808823101643068,20.279745,-11.671413,-9.830042,29.736921,30.000067,-15.000033,-33.07866,-0.82310456,-12.933194,35.47071,21.966902,-6.75631,-7.775354,-1.4521096,13.838654,-19.43481,24.943151,-25.04305,-35.698586,-2.407257,-4.7224135,10.292946,45.300663,-13.6218605,13.299128,-7.003312,-25.85096,2.608805,-15.454735
226,101.04363250732422,133.72064208984375,77.59130859375,9.809521959150628,-0.43648751772592054,21.40677761071153,20.937708,-12.076663,-9.48695,30.431896,30.000067,-15.000033,-31.94369,-1.3648143,-12.626559,38.001965,17.874031,-9.487442,-7.414065,-1.8121306,13.7915535,-18.959461,24.61747,-26.173195,-35.650494,-1.5011281,-4.8608537,9.485321,45.136093,-13.544124,13.659708,-6.92017,-27.008705,2.7395735,-16.170855
227,102.37662506103516,134.4866180419922,77.2269058227539,10.200368269541228,-0.8471620666342975,21.13151540676253,20.743814,-11.991555,-8.518978,32.67486,28.699627,-15.000033,-30.77875,-1.5399306,-12.276224,40.50466,13.292134,-12.149833,-7.1059775,-1.939577,13.749397,-18.530043,24.300253,-27.326418,-35.492596,-0.30093852,-4.9493856,8.656147,44.75996,-13.461261,14.03794,-6.706292,-28.22119,2.8333936,-17.009314
228,103.72791290283203,135.28248596191406,76.79899597167969,10.268685167705039,-1.1305555237753093,20.968600825756194,19.698921,-11.279628,-7.151086,36.12011,26.729408,-15.000033,-29.633219,-1.3479185,-12.144028,42.480534,9.040319,-14.276695,-6.843764,-1.7509867,13.694962,-18.202831,23.996613,-28.457567,-35.21487,1.0261,-5.0070767,7.815182,44.091274,-13.387037,14.421853,-6.3604274,-29.44186,2.9288886,-17.869463
229,105.0294189453125,136.01177978515625,76.37034606933594,10.229575273684363,-1.3240526651240565,20.92289655590648,18.114952,-9.957721,-5.291092,40.238506,24.452293,-15.000033,-28.56482,-0.9740462,-11.803394,44.097775,4.8668504,-15.000033,-6.635694,-1.4607074,13.627586,-18.00156,23.723429,-29.56939,-34.84767,2.53801,-4.9933233,6.9529843,43.124683,-13.307857,14.820866,-5.8975716,-30.739449,3.047521,-18.777647
230,106.28240203857422,136.65322875976562,75.93962860107422,10.023772540492436,-1.4352789865021418,20.944510825602574,16.138594,-7.943585,-2.9558098,44.934338,21.806257,-15.000033,-27.502136,-0.4356393,-11.414004,45.50488,0.47736803,-15.000033,-6.433134,-1.0149412,13.55291,-17.895535,23.486729,-30.672623,-34.393948,4.2874866,-4.9240127,6.068589,41.8927,-13.215538,15.238657,-5.315071,-32.109703,3.1723335,-19.773617
231,107.48603057861328,137.21302795410156,75.50098419189453,9.609164839195882,-1.4609721349024374,20.937391939971167,13.84421,-5.4482985,-0.6443954,49.99132,19.014488,-15.000033,-26.447945,0.25545695,-11.231778,46.64136,-3.6476705,-15.000033,-6.180345,-0.39531028,13.517809,-17.826294,23.275934,-31.720516,-33.81903,6.1169634,-4.898326,5.1825933,40.331455,-13.131321,15.683445,-4.5480876,-33.386482,3.2740664,-20.787388
232,108.64136505126953,137.72547912597656,75.06367492675781,9.020397523844293,-1.4204424191451168,20.84169588466995,11.280169,-2.8272443,1.1406696,55.141712,16.346249,-15.000033,-25.459364,1.1118579,-11.212476,47.541153,-7.065951,-15.000033,-5.8699045,0.35057676,13.571739,-17.725359,23.071342,-32.65341,-33.089825,7.867448,-5.0095615,4.316257,38.379944,-13.097525,16.16605,-3.5437117,-34.39656,3.3157983,-21.752705
233,109.76948547363281,138.21719360351562,74.6383285522461,8.178826596670113,-1.2637261519367493,20.617176126098833,8.290955,0.0022922382,2.324191,60.53817,13.7816925,-15.000033,-24.630861,2.2542367,-11.4128685,48.181583,-9.58508,-15.000033,-5.485707,1.3149931,13.691893,-17.595297,22.863997,-33.439606,-32.25147,9.671675,-5.3322167,3.4111686,35.977043,-13.14394,16.70184,-2.256749,-35.013737,3.2406132,-22.764324
234,110.86238861083984,138.6967315673828,74.23832702636719,7.05828334923653,-1.0070163508226067,20.28354432307192,4.9226766,3.160706,2.9942758,66.20233,11.203679,-15.000033,-23.90386,3.7017689,-11.809239,48.544388,-11.456206,-15.000033,-5.0501266,2.5392673,13.872408,-17.451626,22.653898,-34.08742,-31.316654,11.556943,-5.8044457,2.484983,33.195557,-13.268686,17.284979,-0.78758925,-35.34179,3.076533,-23.830935
235,111.92616271972656,139.158447265625,73.86579895019531,5.809096534275563,-0.768834655314093,19.881827602508817,1.4258946,6.241882,3.0123944,71.69552,8.742313,-15.000033,-23.129946,5.2841887,-12.249112,48.692333,-12.9061575,-15.000033,-4.6175613,3.8618584,14.182668,-17.238081,22.432041,-34.604687,-30.198307,13.206959,-6.296299,1.6642625,30.167913,-13.468213,17.895473,0.7104853,-35.55311,2.9099112,-24.754457
236,112.95157623291016,139.5967254638672,73.53186798095703,4.611485040599233,-0.6605210681017022,19.468021590904158,-1.9921393,8.810225,2.3634722,76.619385,6.5327244,-15.000033,-22.184803,6.797793,-12.583294,48.717056,-14.172095,-15.000033,-4.246506,5.0929103,14.684477,-16.897116,22.184797,-35.00352,-28.797796,14.305879,-6.6631737,1.0592884,27.020123,-13.7403,18.520443,2.1060534,-35.817116,2.8316946,-25.334942
237,113.9354476928711,140.04718017578125,73.25413513183594,3.9210674017677496,-0.7039355116303179,19.187335338358753,-5.4195924,11.424175,2.4199324,80.90987,4.751937,-12.0868435,-21.256964,7.658286,-12.652581,49.124596,-15.51817,-15.000033,-4.073573,5.7809143,15.396371,-16.424877,21.902098,-35.29083,-26.979437,14.315253,-7.026948,0.6280151,23.634216,-14.089489,19.219322,3.5294635,-36.07226,2.8643835,-25.493551
238,114.89628601074219,140.50099182128906,73.02921295166016,3.3534270704718137,-0.8515899923048261,18.94244888903857,-9.001517,13.7549095,2.1764593,84.85821,3.14898,-8.451152,-20.256008,8.363762,-12.677463,49.52011,-16.657646,-15.000033,-4.0013494,6.308547,16.32005,-15.841091,21.582346,-35.4607,-24.835361,13.5585985,-7.3924446,0.31596673,20.01057,-14.507832,19.984406,4.9629993,-36.257484,2.9592745,-25.344427
239,115.85371398925781,140.94813537597656,72.86382293701172,2.8772455613564727,-1.0251798452629097,18.682847085709835,-12.641438,15.639877,1.624926,88.3178,1.640268,-4.8822265,-19.202887,8.98352,-12.633731,49.811264,-17.6037,-15.000033,-3.9440055,6.7424226,17.308685,-15.126034,21.228983,-35.520996,-22.580854,13.024039,-7.448675,0.21942359,16.411882,-14.966651,20.722643,6.129228,-36.544777,3.0997787,-24.977583
240,116.82005310058594,141.3953857421875,72.75758361816406,2.524785783647566,-1.1423334471102722,18.371883232770415,-16.202541,17.045786,1.0010748,91.12076,0.19087218,-1.7354082,-18.14892,9.49281,-12.465749,49.982845,-18.409025,-15.000033,-3.8207607,7.0842137,18.192917,-14.2686615,20.845366,-35.494312,-20.413963,13.699675,-6.887246,0.44503945,13.070393,-15.435332,21.343096,6.8093987,-37.11787,3.262481,-24.478735
