unveil-humanoid-operators/unveil-humanoid-operators.github.io/feature-analysis-animation/data/feature_matrix_instances/age_ankle_rom_transition_A126.csv
Frame,root_translateX,root_translateY,root_translateZ,root_rotateX,root_rotateY,root_rotateZ,left_hip_pitch_joint_dof,left_hip_roll_joint_dof,left_hip_yaw_joint_dof,left_knee_joint_dof,left_ankle_pitch_joint_dof,left_ankle_roll_joint_dof,right_hip_pitch_joint_dof,right_hip_roll_joint_dof,right_hip_yaw_joint_dof,right_knee_joint_dof,right_ankle_pitch_joint_dof,right_ankle_roll_joint_dof,waist_yaw_joint_dof,waist_roll_joint_dof,waist_pitch_joint_dof,left_shoulder_pitch_joint_dof,left_shoulder_roll_joint_dof,left_shoulder_yaw_joint_dof,left_elbow_joint_dof,left_wrist_roll_joint_dof,left_wrist_pitch_joint_dof,left_wrist_yaw_joint_dof,right_shoulder_pitch_joint_dof,right_shoulder_roll_joint_dof,right_shoulder_yaw_joint_dof,right_elbow_joint_dof,right_wrist_roll_joint_dof,right_wrist_pitch_joint_dof,right_wrist_yaw_joint_dof
0,-0.13230496644973755,2.2360999584198,78.51182556152344,2.0219767997325904,-2.3418478620532737,-92.53014607836246,4.5284314,8.967384,22.200151,6.6513653,-4.126839,-10.081352,0.72948915,-14.014922,-5.250074,8.8056555,-8.306597,12.508782,0.86966395,-1.8644383,7.599674,-3.7933433,13.69969,-30.239552,67.54752,8.400019,-1.9772056,-1.7946626,-8.939198,-10.365088,34.270817,72.666145,-9.8596325,1.6918867,-2.7202919
1,-0.13321402668952942,2.2362313270568848,78.51290130615234,2.0201881890434628,-2.344397767678437,-92.50156072387186,4.5215063,8.9720745,22.1696,6.6521187,-4.117226,-10.081004,0.74245346,-14.013324,-5.2806253,8.811885,-8.315476,12.498001,0.86121345,-1.8713456,7.617158,-3.7925332,13.719039,-30.240139,67.534485,8.388816,-1.9753482,-1.7897702,-8.946241,-10.357748,34.268013,72.67778,-9.816031,1.673385,-2.7386904
2,-0.14578582346439362,2.234316825866699,78.51460266113281,2.01716948473459,-2.3476594554393233,-92.47215543073311,4.51515,8.97684,22.138193,6.652331,-4.106982,-10.080392,0.7549931,-14.011612,-5.3116636,8.8210535,-8.325861,12.486867,0.85390854,-1.8768121,7.6328454,-3.804055,13.731096,-30.241962,67.54041,8.380447,-1.9750936,-1.7825983,-8.94958,-10.352646,34.265003,72.68809,-9.76906,1.6547053,-2.758252
3,-0.1523725986480713,2.2320444583892822,78.51529693603516,2.013218905061723,-2.3495349892889097,-92.44441642275478,4.5084233,8.981854,22.108562,6.6521845,-4.0973573,-10.080434,0.7689035,-14.0095415,-5.3418837,8.823621,-8.333001,12.4762945,0.84967685,-1.883836,7.6486177,-3.81171,13.748235,-30.247133,67.539024,8.366796,-1.974932,-1.7779913,-8.95454,-10.34491,34.258846,72.69901,-9.728554,1.6368877,-2.7751667
4,-0.15910604596138,2.2285780906677246,78.51604461669922,2.0107613807605005,-2.346897911432613,-92.42141654887669,4.499404,8.987409,22.084162,6.652812,-4.0900354,-10.081956,0.77727556,-14.005431,-5.367605,8.824945,-8.339684,12.467137,0.84523016,-1.8839194,7.654901,-3.8163736,13.753917,-30.248486,67.54565,8.351895,-1.9753134,-1.7722006,-8.955276,-10.34246,34.25607,72.70774,-9.704323,1.6248412,-2.7845793
5,-0.1614874303340912,2.2216672897338867,78.51720428466797,2.006118321941307,-2.3383427244647894,-92.40373072077546,4.487749,8.994203,22.064947,6.652647,-4.0847707,-10.086028,0.7807736,-14.000706,-5.3888836,8.821437,-8.344738,12.460341,0.84349114,-1.883216,7.6549497,-3.8209686,13.761385,-30.252539,67.55592,8.321343,-1.9799153,-1.7717155,-8.957058,-10.339285,34.250618,72.71649,-9.703256,1.6167293,-2.783084
6,-0.1709355115890503,2.218637228012085,78.51681518554688,2.000539971769321,-2.3250484868579315,-92.39096747188353,4.4737115,9.003284,22.050549,6.6531544,-4.08176,-10.091967,0.78133136,-13.99218,-5.4066496,8.811225,-8.346723,12.4549465,0.8513756,-1.8842008,7.6501904,-3.8178468,13.781088,-30.266895,67.55555,8.277406,-1.9852706,-1.775534,-8.956971,-10.331455,34.231976,72.72467,-9.725657,1.6130378,-2.773713
7,-0.1712874174118042,2.211071014404297,78.51852416992188,1.995213980402672,-2.3108202449464184,-92.37902524661003,4.4596896,9.012105,22.038017,6.6527343,-4.0788856,-10.098162,0.77961254,-13.982812,-5.4230833,8.803469,-8.350097,12.449792,0.85620165,-1.8812411,7.643053,-3.8139527,13.79342,-30.274961,67.55914,8.240417,-1.9900011,-1.77807,-8.95618,-10.327099,34.222088,72.73191,-9.747089,1.6106731,-2.762716
8,-0.17752718925476074,2.2061681747436523,78.51821899414062,1.988681964996649,-2.299569580460094,-92.36375907298702,4.4465218,9.021254,22.023792,6.6525846,-4.075105,-10.103013,0.7804948,-13.975538,-5.4413314,8.797912,-8.354011,12.443666,0.8642501,-1.882676,7.6415715,-3.810786,13.814393,-30.282845,67.55702,8.220398,-1.9926773,-1.7801654,-8.956047,-10.320605,34.214474,72.73927,-9.752671,1.6048002,-2.7558508
9,-0.18543560802936554,2.205279588699341,78.517333984375,1.9830881070302457,-2.291478548451149,-92.34347137913684,4.433394,9.030535,22.007462,6.652745,-4.069827,-10.1056385,0.78543407,-13.967465,-5.463232,8.7926855,-8.357269,12.4356,0.87103933,-1.8835973,7.6446967,-3.8174438,13.82911,-30.281645,67.56527,8.232379,-1.9925929,-1.7777162,-8.957925,-10.316986,34.219723,72.74948,-9.73107,1.5933579,-2.7572737
10,-0.1903819590806961,2.200632095336914,78.51920318603516,1.9776017989789767,-2.2849350702930655,-92.320164972359,4.4202013,9.039718,21.990465,6.652289,-4.063572,-10.106986,0.78992,-13.961183,-5.4860435,8.792703,-8.362618,12.426805,0.8776188,-1.8823516,7.65124,-3.8248665,13.839008,-30.276426,67.5715,8.263846,-1.9884671,-1.7719139,-8.962664,-10.31566,34.23368,72.762085,-9.692758,1.5790383,-2.7633274
11,-0.19506017863750458,2.193786382675171,78.51997375488281,1.971960486319317,-2.280546313569328,-92.29687966458769,4.4090548,9.048995,21.973278,6.6530576,-4.0582924,-10.108183,0.79734015,-13.955178,-5.509123,8.792251,-8.3680525,12.417939,0.88377637,-1.8810419,7.6587076,-3.834053,13.846364,-30.268908,67.581825,8.299152,-1.9847816,-1.7663432,-8.966547,-10.315377,34.24917,72.77495,-9.653936,1.565236,-2.7673087
12,-0.20165231823921204,2.188974380493164,78.51850128173828,1.9675109646593405,-2.278988959996976,-92.27606078877125,4.402227,9.057793,21.956718,6.6561017,-4.0552707,-10.11046,0.8061287,-13.949584,-5.5306954,8.795935,-8.376897,12.410051,0.8888562,-1.8794212,7.666326,-3.8396616,13.851972,-30.261677,67.591995,8.322029,-1.9824642,-1.7633673,-8.970115,-10.315606,34.26216,72.78867,-9.627542,1.5556861,-2.7632456
13,-0.2064748853445053,2.183239221572876,78.51835632324219,1.963076769461568,-2.2820575481508665,-92.25839681144754,4.4008746,9.06656,21.940334,6.6642823,-4.056078,-10.113929,0.8214801,-13.944739,-5.551595,8.797317,-8.386057,12.403115,0.8903741,-1.878234,7.6759095,-3.8406165,13.857873,-30.254587,67.600914,8.3236885,-1.98233,-1.7650403,-8.974035,-10.316228,34.272667,72.803185,-9.618806,1.5519882,-2.7446737
14,-0.21159549057483673,2.176633358001709,78.5181655883789,1.9569542285327675,-2.287667998516793,-92.24088289681593,4.401883,9.076885,21.922073,6.67524,-4.0584965,-10.118201,0.8409435,-13.938,-5.5743837,8.798074,-8.396429,12.396042,0.8790414,-1.8775692,7.6898646,-3.8240232,13.876923,-30.234926,67.588036,8.315561,-1.9838018,-1.773458,-8.983884,-10.31877,34.293083,72.81667,-9.615155,1.5508367,-2.7141387
15,-0.2185644805431366,2.172109365463257,78.51699829101562,1.95561774240292,-2.29389743463543,-92.22764213420552,4.4087977,9.0828905,21.90829,6.679569,-4.0590487,-10.122634,0.8574669,-13.934787,-5.591688,8.804116,-8.409344,12.390698,0.8859108,-1.8764042,7.6997027,-3.8204055,13.878654,-30.233196,67.593956,8.305787,-1.9835726,-1.7765031,-8.983759,-10.319134,34.29457,72.8301,-9.622343,1.553072,-2.6906743
16,-0.22315652668476105,2.16399884223938,78.51693725585938,1.948761625421396,-2.3000414392300024,-92.21287602666156,4.412803,9.094187,21.892195,6.689069,-4.0627913,-10.128519,0.87977713,-13.926526,-5.611928,8.799643,-8.417102,12.386709,0.8870627,-1.8728079,7.708131,-3.8096411,13.8870125,-30.22403,67.592834,8.302882,-1.9848316,-1.7808968,-8.988749,-10.321243,34.30008,72.84766,-9.629304,1.5527455,-2.67292
17,-0.22960251569747925,2.1566648483276367,78.51593780517578,1.945911548245157,-2.303151315037479,-92.20189312642273,4.417324,9.102656,21.88055,6.692459,-4.064477,-10.134975,0.8960039,-13.920396,-5.625921,8.79734,-8.424239,12.386681,0.89534247,-1.8713772,7.7131,-3.798812,13.892183,-30.216032,67.592224,8.313995,-1.9864992,-1.7813034,-8.987768,-10.322896,34.305977,72.860054,-9.637193,1.5536039,-2.6814675
18,-0.23579445481300354,2.147393226623535,78.51496887207031,1.9411035978179907,-2.3053068938849295,-92.19271868172703,4.422059,9.110957,21.870537,6.695042,-4.066747,-10.142242,0.9128103,-13.912773,-5.6378307,8.790359,-8.42826,12.389227,0.90345854,-1.8699576,7.716165,-3.783123,13.898583,-30.202908,67.58794,8.333783,-1.9890714,-1.7805033,-8.985066,-10.325342,34.31611,72.87043,-9.64699,1.5553008,-2.7042367
19,-0.24119776487350464,2.139791250228882,78.51416778564453,1.9370971393694096,-2.3064601334214125,-92.1852973590362,4.427436,9.120125,21.86259,6.6962595,-4.0694995,-10.150017,0.92835027,-13.904686,-5.6481028,8.7836685,-8.433177,12.391535,0.9077085,-1.8687633,7.716759,-3.7588248,13.906496,-30.181355,67.57615,8.356692,-1.9912814,-1.7801042,-8.98256,-10.328926,34.33165,72.879456,-9.651761,1.5565643,-2.7263732
20,-0.2473304271697998,2.1315841674804688,78.5151596069336,1.9334824388797056,-2.306290429067738,-92.17931066955474,4.4332433,9.129644,21.857162,6.6966624,-4.073592,-10.157427,0.9412473,-13.895021,-5.6575522,8.780033,-8.441389,12.390767,0.9206593,-1.8688138,7.712669,-3.7417264,13.910074,-30.168814,67.57438,8.370754,-1.9923398,-1.7792109,-8.975289,-10.330776,34.336014,72.887596,-9.648179,1.5557457,-2.7338972
21,-0.25144800543785095,2.1199095249176025,78.51596069335938,1.9285674193935214,-2.3037873347540385,-92.17464425022386,4.43968,9.141583,21.855305,6.6945863,-4.078386,-10.164783,0.9546351,-13.882788,-5.6676245,8.772442,-8.450613,12.384786,0.92506826,-1.869633,7.704612,-3.7070885,13.918648,-30.134403,67.55581,8.387934,-1.992436,-1.7820895,-8.964333,-10.335446,34.34455,72.888466,-9.631885,1.5505908,-2.7183692
22,-0.2528679370880127,2.108515739440918,78.51605224609375,1.9217076579660877,-2.299555401079897,-92.17128093773361,4.4458165,9.155282,21.856056,6.692271,-4.084747,-10.172082,0.96474826,-13.869877,-5.676689,8.7687025,-8.46374,12.3757,0.9306339,-1.8709552,7.693002,-3.667294,13.9264965,-30.095793,67.532005,8.403512,-1.9905027,-1.7847418,-8.951799,-10.339949,34.349224,72.88807,-9.607363,1.5436198,-2.6900766
23,-0.2630711793899536,2.097275495529175,78.51569366455078,1.9164452210468612,-2.2952127267203424,-92.16889105139367,4.452941,9.168415,21.857426,6.689387,-4.0919046,-10.179443,0.9748705,-13.856098,-5.6851416,8.7647505,-8.477282,12.366534,0.9465221,-1.8728935,7.678373,-3.6433492,13.927873,-30.08174,67.52712,8.402886,-1.9885751,-1.7858516,-8.937443,-10.340828,34.346058,72.88959,-9.575493,1.5373819,-2.6586664
24,-0.27816757559776306,2.0824575424194336,78.51433563232422,1.911025379387182,-2.2928277567970254,-92.16810707963747,4.4627824,9.1783085,21.857967,6.6850243,-4.098288,-10.186695,0.985706,-13.846492,-5.6906056,8.761988,-8.49001,12.360793,0.9565623,-1.87575,7.6655045,-3.612834,13.929561,-30.06086,67.519035,8.405996,-1.9862578,-1.7888544,-8.924385,-10.342187,34.339695,72.8875,-9.5525,1.5354797,-2.6283777
25,-0.28278568387031555,2.0732390880584717,78.51309967041016,1.9105829866114405,-2.2938530671124937,-92.16997586957682,4.4780993,9.182595,21.85766,6.6787763,-4.105112,-10.193419,0.9997945,-13.840591,-5.692454,8.757203,-8.499802,12.360562,0.96240157,-1.8795455,7.65928,-3.5774968,13.931299,-30.038948,67.50532,8.401282,-1.9835274,-1.7935493,-8.917865,-10.344077,34.33255,72.880714,-9.531468,1.5414224,-2.597396
26,-0.2864967882633209,2.0592751502990723,78.51187896728516,1.9119377206170995,-2.2968179277049208,-92.17398755791045,4.4963326,9.18382,21.85683,6.671696,-4.112082,-10.199804,1.0129346,-13.838969,-5.6905146,8.756847,-8.5106325,12.363744,0.9633136,-1.883479,7.657275,-3.536792,13.933141,-30.012857,67.48647,8.391524,-1.9815558,-1.8008391,-8.914962,-10.346875,34.32318,72.86871,-9.512794,1.5521413,-2.5624936
27,-0.29150474071502686,2.0483078956604004,78.51172637939453,1.9128895784806537,-2.3003473950317943,-92.17715487912596,4.5153346,9.184306,21.854961,6.663281,-4.1181817,-10.206641,1.0287186,-13.836643,-5.690019,8.75246,-8.519215,12.366995,0.96151286,-1.8866612,7.6565957,-3.4986813,13.934245,-29.995495,67.46877,8.386134,-1.976937,-1.8068541,-8.914787,-10.34953,34.313805,72.85705,-9.500039,1.5642037,-2.533297
28,-0.29756203293800354,2.037832021713257,78.51172637939453,1.911437263240641,-2.302185483191735,-92.17639317262326,4.52862,9.188023,21.850658,6.658984,-4.1239834,-10.214808,1.0425333,-13.832256,-5.693684,8.750068,-8.528649,12.367547,0.9557547,-1.8877993,7.6561475,-3.4677997,13.934746,-29.989088,67.45546,8.40261,-1.9692875,-1.8111546,-8.9130945,-10.351511,34.30539,72.84276,-9.50076,1.5733591,-2.5165517
29,-0.3076731264591217,2.027838945388794,78.51253509521484,1.9086137945616934,-2.3019465329833535,-92.1706053536723,4.535182,9.196261,21.843649,6.658828,-4.1292024,-10.225855,1.0557079,-13.823993,-5.703283,8.74695,-8.53801,12.364047,0.94331896,-1.8856655,7.6548114,-3.4432256,13.935072,-29.993675,67.44574,8.454916,-1.9548365,-1.8122101,-8.911084,-10.352969,34.296684,72.82853,-9.527653,1.5787545,-2.519579
30,-0.31604641675949097,2.019113302230835,78.51277923583984,1.9028190315071898,-2.2998826114675546,-92.16279792357469,4.538538,9.206194,21.83588,6.6585903,-4.1326156,-10.238702,1.0664529,-13.814521,-5.714764,8.745735,-8.548112,12.358256,0.9224217,-1.8827887,7.654976,-3.4293337,13.935157,-30.000679,67.445244,8.527851,-1.9379933,-1.8136649,-8.912772,-10.353394,34.29361,72.81363,-9.567917,1.5813639,-2.5353794
31,-0.32142531871795654,2.009404182434082,78.51385498046875,1.8960777789165624,-2.2990345215521213,-92.15085571979694,4.5413256,9.216841,21.824387,6.6582923,-4.1345944,-10.250787,1.0823421,-13.804713,-5.7316346,8.738955,-8.55554,12.35172,0.90994006,-1.8762959,7.652256,-3.402212,13.935606,-30.03496,67.42653,8.609353,-1.9148827,-1.808529,-8.903535,-10.354072,34.274532,72.79506,-9.621426,1.5858487,-2.556734
32,-0.3212376534938812,2.0003788471221924,78.51403045654297,1.8922775462180408,-2.2987610076045875,-92.1394616905275,4.5440226,9.225017,21.81323,6.659517,-4.1373487,-10.258973,1.0956863,-13.797959,-5.7473173,8.736848,-8.564343,12.346045,0.89897674,-1.874728,7.654116,-3.3903668,13.936355,-30.078308,67.419914,8.663532,-1.9024769,-1.8076861,-8.901774,-10.3545265,34.258945,72.781845,-9.651702,1.5887084,-2.5670354
33,-0.3323437571525574,1.9897828102111816,78.51313018798828,1.8900339543550497,-2.300321607972143,-92.12866178357987,4.548267,9.228993,21.802614,6.65965,-4.138526,-10.260594,1.1069626,-13.795289,-5.7621303,8.740991,-8.575335,12.340886,0.87327623,-1.8790665,7.663899,-3.3820837,13.936454,-30.093481,67.414444,8.7007065,-1.9014996,-1.8144456,-8.908533,-10.354547,34.259174,72.76841,-9.657127,1.5899873,-2.561343
34,-0.3399914801120758,1.9885547161102295,78.51212310791016,1.8905531451866169,-2.305826702998923,-92.11167906714469,4.553943,9.230261,21.78571,6.660397,-4.138741,-10.257485,1.125646,-13.795464,-5.7843995,8.742408,-8.585259,12.336105,0.8668633,-1.882312,7.668616,-3.372566,13.937671,-30.186039,67.40449,8.688228,-1.9017859,-1.810856,-8.911253,-10.354339,34.255733,72.76463,-9.6312,1.5929871,-2.5486577
35,-0.3398582935333252,1.9849612712860107,78.5123519897461,1.8905535884979516,-2.3090059573778037,-92.09863769812164,4.5585117,9.232763,21.772587,6.6612034,-4.139674,-10.255042,1.13958,-13.795661,-5.801838,8.745476,-8.595254,12.331836,0.8493956,-1.8870902,7.678861,-3.3653421,13.9386425,-30.242218,67.39399,8.6934805,-1.9077983,-1.814434,-8.921095,-10.353978,34.25871,72.75906,-9.610139,1.5954806,-2.5351946
36,-0.3412275016307831,1.9736591577529907,78.51258850097656,1.8870609741745872,-2.307156503831461,-92.09220026759564,4.5608325,9.240216,21.765642,6.6610875,-4.141506,-10.258237,1.1490633,-13.788331,-5.81276,8.742264,-8.601735,12.328244,0.85255444,-1.8906934,7.6771936,-3.3628168,13.940547,-30.327364,67.39004,8.6923485,-1.9127117,-1.8146497,-8.920245,-10.352954,34.261124,72.75666,-9.590454,1.6005062,-2.5349722
37,-0.35274624824523926,1.9603650569915771,78.51246643066406,1.8813125045667896,-2.298344345517307,-92.09543813953687,4.5601263,9.255391,21.767176,6.6614,-4.1463017,-10.270261,1.1529311,-13.772803,-5.8133597,8.729263,-8.602663,12.326666,0.87324494,-1.8929092,7.6670866,-3.3622992,13.944645,-30.423542,67.38642,8.713567,-1.9165521,-1.8146521,-8.914398,-10.35041,34.257816,72.75801,-9.586937,1.6105298,-2.5486531
38,-0.36263900995254517,1.951349139213562,78.51158905029297,1.8721692823855534,-2.2849791875877323,-92.10556254154038,4.557301,9.275597,21.774641,6.661708,-4.152786,-10.287573,1.1515117,-13.75216,-5.806319,8.71315,-8.601889,12.326413,0.88880855,-1.8926365,7.654636,-3.35448,13.948787,-30.49867,67.37553,8.759339,-1.9219086,-1.8165963,-8.914479,-10.347455,34.267704,72.76373,-9.590773,1.6246197,-2.5698693
39,-0.36843931674957275,1.9421749114990234,78.51165771484375,1.8640825056682475,-2.26987728139162,-92.11730507357517,4.554121,9.296979,21.784582,6.6603556,-4.1584907,-10.3061695,1.1482186,-13.72929,-5.797963,8.695555,-8.599813,12.325731,0.91095775,-1.892904,7.6392565,-3.3487256,13.955619,-30.580791,67.36634,8.791496,-1.9287546,-1.8182056,-8.913475,-10.342352,34.278126,72.77305,-9.59285,1.6364394,-2.5971718
40,-0.37558478116989136,1.9338856935501099,78.51245880126953,1.8547692345169227,-2.2562913862989786,-92.12567278622727,4.5502005,9.316315,21.793165,6.660557,-4.163139,-10.322122,1.1468618,-13.709373,-5.793886,8.678389,-8.597171,12.323055,0.92359084,-1.892469,7.6298475,-3.3440397,13.960763,-30.638351,67.35883,8.8025,-1.9391724,-1.8218617,-8.918827,-10.338627,34.29527,72.782715,-9.588973,1.6401547,-2.6253865
41,-0.381684273481369,1.9264870882034302,78.51233673095703,1.847091340965625,-2.244005320775374,-92.13039517398742,4.5452585,9.333204,21.801798,6.6608214,-4.164587,-10.33486,1.1436269,-13.692574,-5.794372,8.668278,-8.596502,12.317393,0.9324389,-1.8913915,7.6253133,-3.34452,13.965041,-30.684391,67.35619,8.7727785,-1.955953,-1.8286434,-8.927076,-10.335745,34.31469,72.79221,-9.576773,1.6314595,-2.659643
42,-0.3884254992008209,1.9185808897018433,78.51332092285156,1.8392506671963853,-2.2316007246741223,-92.13375631800372,4.5396605,9.349076,21.811747,6.660218,-4.163936,-10.346478,1.1388159,-13.677705,-5.7966924,8.661356,-8.596643,12.309808,0.9427742,-1.8901721,7.6210093,-3.3491533,13.969898,-30.730125,67.358315,8.71004,-1.9770828,-1.8369504,-8.935428,-10.332808,34.338432,72.80348,-9.55576,1.6142936,-2.701095
43,-0.39393454790115356,1.9110742807388306,78.51309204101562,1.8313401621030572,-2.2203790865214805,-92.13488538591322,4.5335503,9.363783,21.819208,6.661563,-4.1638293,-10.35646,1.1332539,-13.664055,-5.8009753,8.659797,-8.59979,12.301499,0.9519807,-1.8898259,7.6189423,-3.3562026,13.974274,-30.765188,67.36373,8.640083,-1.9968615,-1.8432789,-8.943013,-10.330473,34.360897,72.81211,-9.533921,1.5959486,-2.7384133
44,-0.40025174617767334,1.9035670757293701,78.5138168334961,1.8266167676669134,-2.2117460973064604,-92.13270920925662,4.529605,9.37587,21.82108,6.661569,-4.1637473,-10.36472,1.1332347,-13.652716,-5.808173,8.655772,-8.603738,12.293953,0.95899093,-1.892138,7.620551,-3.362374,13.976505,-30.777224,67.36981,8.596504,-2.0083537,-1.8441125,-8.949005,-10.329673,34.372726,72.81394,-9.524035,1.5847325,-2.758709
45,-0.4006301164627075,1.897631049156189,78.51422119140625,1.8201598766676481,-2.2063765747253132,-92.12434392314947,4.527282,9.385814,21.81289,6.661578,-4.1646614,-10.370111,1.1392541,-13.642923,-5.820906,8.652194,-8.610653,12.285955,0.9624928,-1.8980838,7.622045,-3.3793132,13.980903,-30.792486,67.39333,8.544266,-2.0135791,-1.8325388,-8.956073,-10.328072,34.40049,72.81717,-9.489668,1.5785165,-2.7615652
46,-0.40593811869621277,1.8903661966323853,78.51426696777344,1.8167483321602027,-2.2034947627542136,-92.11144025983108,4.5256658,9.393334,21.79799,6.661731,-4.165858,-10.373313,1.1480086,-13.636747,-5.8371043,8.652481,-8.621314,12.277584,0.96458423,-1.9069667,7.6268764,-3.3941176,13.983811,-30.787773,67.41559,8.50949,-2.0106943,-1.8131382,-8.960385,-10.327371,34.41854,72.81298,-9.462149,1.5774136,-2.7474906
47,-0.4134180545806885,1.8817834854125977,78.51390838623047,1.8123970106045115,-2.202006490762166,-92.09883587788693,4.526369,9.399331,21.782906,6.661287,-4.167619,-10.375929,1.1586676,-13.631364,-5.853026,8.651995,-8.632431,12.27081,0.95690626,-1.917296,7.6330743,-3.406517,13.988515,-30.761433,67.439125,8.482669,-2.0061736,-1.7967112,-8.966082,-10.326498,34.44389,72.80629,-9.440005,1.5798492,-2.7301595
48,-0.42296308279037476,1.8731043338775635,78.51280975341797,1.8103302649343491,-2.200250585465055,-92.0912390054226,4.528426,9.40535,21.774103,6.6624866,-4.170883,-10.380133,1.1686736,-13.625459,-5.8641386,8.649263,-8.642289,12.267756,0.9548967,-1.9233027,7.6369033,-3.4139972,13.99135,-30.73394,67.45717,8.461927,-1.9995894,-1.7894439,-8.970567,-10.326175,34.452946,72.80509,-9.444599,1.5838621,-2.720604
49,-0.43077194690704346,1.8635998964309692,78.51213073730469,1.8104804580491005,-2.198608956084401,-92.09243794301211,4.5349874,9.410199,21.776125,6.662528,-4.175078,-10.386068,1.1788447,-13.62111,-5.8666334,8.641316,-8.650014,12.271467,0.95291924,-1.9276321,7.6401963,-3.4158964,13.995547,-30.687368,67.47144,8.452816,-1.9923759,-1.8017755,-8.973355,-10.325604,34.445843,72.80605,-9.4835005,1.5896707,-2.720392
50,-0.43905800580978394,1.8530014753341675,78.51095581054688,1.8118175955201488,-2.1973987525926137,-92.0987114700122,4.544685,9.413485,21.784323,6.6623335,-4.180358,-10.392848,1.1889975,-13.6190405,-5.863649,8.631841,-8.657582,12.280062,0.964171,-1.9301991,7.6386065,-3.4206424,13.997143,-30.650852,67.491714,8.442676,-1.9817573,-1.8230401,-8.966077,-10.325271,34.416855,72.80723,-9.545506,1.5978789,-2.7253022
51,-0.44378000497817993,1.8445080518722534,78.5114517211914,1.8132238029278658,-2.19586676449295,-92.10579761961698,4.5543165,9.41803,21.793402,6.6623383,-4.1855965,-10.4006815,1.1988252,-13.615082,-5.8603253,8.621652,-8.664105,12.288094,0.9787034,-1.9317033,7.6368685,-3.4298186,13.998256,-30.61525,67.51409,8.435023,-1.9719449,-1.8447664,-8.958111,-10.3251,34.380264,72.80912,-9.622182,1.6076142,-2.734558
52,-0.4430798888206482,1.8350809812545776,78.51062774658203,1.8106140127571282,-2.1931130257589535,-92.10928767215499,4.561164,9.426308,21.798357,6.661891,-4.189298,-10.409972,1.207155,-13.607432,-5.861199,8.614818,-8.670467,12.290433,0.99157363,-1.9304129,7.6315994,-3.4407024,13.998881,-30.595533,67.534996,8.420009,-1.9647197,-1.8536366,-8.951252,-10.325156,34.361206,72.812645,-9.69423,1.6190382,-2.7499568
53,-0.451076865196228,1.826918125152588,78.51100158691406,1.802648351866376,-2.189520010280063,-92.10725346079764,4.5639753,9.440878,21.796856,6.6630177,-4.1917577,-10.422171,1.2151722,-13.594274,-5.8685603,8.6104145,-8.674428,12.283543,1.0026525,-1.9270867,7.630826,-3.4607341,13.999924,-30.580254,67.55503,8.411635,-1.9621015,-1.8479135,-8.9499035,-10.32561,34.352867,72.81371,-9.790881,1.6341188,-2.7748837
54,-0.45827537775039673,1.817155122756958,78.51160430908203,1.7913078670674738,-2.185319619755703,-92.1020523350341,4.5653396,9.459754,21.791805,6.6627245,-4.1919866,-10.436818,1.2224743,-13.575803,-5.880024,8.608716,-8.677486,12.2708025,1.0108255,-1.9225357,7.630057,-3.4880857,14.001751,-30.570848,67.579414,8.401664,-1.9635379,-1.8325062,-8.949676,-10.326671,34.357964,72.812355,-9.902419,1.6535677,-2.8091457
55,-0.46583232283592224,1.8074188232421875,78.51176452636719,1.7791063755678476,-2.179865866576885,-92.09623569043727,4.564702,9.479239,21.785933,6.663642,-4.193074,-10.450724,1.2296144,-13.557848,-5.892284,8.605401,-8.680045,12.257647,1.0093701,-1.917212,7.6267366,-3.5061896,14.00655,-30.557817,67.59232,8.390159,-1.9662062,-1.8152877,-8.949995,-10.329194,34.37987,72.80919,-9.986793,1.671438,-2.8411968
56,-0.46881842613220215,1.7976744174957275,78.5116958618164,1.771642113708566,-2.172759360047363,-92.09258709460569,4.5637155,9.494693,21.78238,6.6634383,-4.1953773,-10.460601,1.2342409,-13.542287,-5.902157,8.601536,-8.68511,12.2492075,1.013294,-1.9131516,7.617226,-3.5197282,14.008606,-30.55288,67.601524,8.376289,-1.9684724,-1.801782,-8.947472,-10.330069,34.387253,72.81296,-10.019813,1.6811997,-2.8593748
57,-0.4725160598754883,1.7883983850479126,78.51100158691406,1.7669133232641534,-2.1629744642388977,-92.09248193790327,4.5615897,9.505639,21.78215,6.663652,-4.2011046,-10.464437,1.2384392,-13.5317545,-5.9084015,8.5904045,-8.69119,12.247984,1.0151268,-1.9132612,7.6015005,-3.52672,14.010811,-30.543816,67.60599,8.360741,-1.9727024,-1.7964298,-8.938971,-10.33077,34.387897,72.816185,-9.964958,1.6786662,-2.857136
58,-0.4761316478252411,1.7783198356628418,78.51091766357422,1.763808612399639,-2.151224024475881,-92.094513370293,4.558452,9.513959,21.783918,6.66475,-4.2099714,-10.464187,1.2408136,-13.523679,-5.912551,8.577021,-8.699037,12.250834,1.0150292,-1.9157683,7.582606,-3.5276217,14.014732,-30.529572,67.60268,8.347133,-1.9788716,-1.7957504,-8.927484,-10.331474,34.381603,72.81868,-9.852671,1.6673762,-2.840756
59,-0.4812363088130951,1.7641196250915527,78.50970458984375,1.7626474124501401,-2.1394289648295417,-92.09559583452496,4.555184,9.52091,21.785198,6.664444,-4.217091,-10.463464,1.2439543,-13.516564,-5.9175,8.562705,-8.706474,12.254694,1.0140369,-1.9179695,7.5627675,-3.5265148,14.016965,-30.520798,67.59539,8.3329525,-1.9835885,-1.795239,-8.916838,-10.331564,34.373604,72.823845,-9.734229,1.6569884,-2.8214574
60,-0.49247023463249207,1.7571814060211182,78.50953674316406,1.760520374909855,-2.129497057062106,-92.09318665890487,4.551315,9.528687,21.783848,6.6649923,-4.2210355,-10.465548,1.2482404,-13.509953,-5.9252324,8.551135,-8.712209,12.256678,1.011,-1.9213673,7.5487914,-3.5274558,14.022876,-30.50823,67.58408,8.329671,-1.9866513,-1.7975576,-8.909173,-10.331487,34.359512,72.82678,-9.66924,1.6547717,-2.8071184
61,-0.4998346269130707,1.750684142112732,78.51070404052734,1.7575623461649454,-2.121298986351532,-92.08569657572325,4.5465117,9.536243,21.779366,6.6649885,-4.218966,-10.472147,1.2523578,-13.503591,-5.936927,8.545312,-8.716135,12.256175,1.0029441,-1.9226784,7.5363526,-3.5311227,14.026183,-30.504978,67.572914,8.327804,-1.9844604,-1.7976927,-8.9066105,-10.331254,34.35353,72.833466,-9.674514,1.6688554,-2.8035088
62,-0.5105854272842407,1.7407704591751099,78.51134490966797,1.7536248108447425,-2.1140136643062215,-92.07458383803512,4.5409307,9.543619,21.772587,6.6646156,-4.2131624,-10.48116,1.258512,-13.497633,-5.951929,8.538629,-8.716986,12.254601,0.9927158,-1.9244989,7.5275135,-3.5356772,14.031643,-30.503706,67.55601,8.332397,-1.9791979,-1.8001084,-8.906561,-10.330626,34.343704,72.83912,-9.724843,1.6927614,-2.8031652
63,-0.513776957988739,1.7333941459655762,78.51171112060547,1.7507958438399092,-2.108704313652345,-92.06228618765871,4.5356593,9.551565,21.76416,6.6665063,-4.207766,-10.490256,1.2670532,-13.4917,-5.967966,8.532402,-8.71742,12.252429,0.9826439,-1.9266211,7.521445,-3.5395703,14.03837,-30.505781,67.53656,8.33651,-1.9738348,-1.8019745,-8.907284,-10.329642,34.33223,72.84468,-9.782959,1.7155514,-2.804581
64,-0.5157009959220886,1.7249958515167236,78.5105972290039,1.748049929556221,-2.106877898769374,-92.05128668297516,4.534548,9.559455,21.75576,6.669844,-4.2065253,-10.496844,1.2766284,-13.485355,-5.982477,8.531328,-8.721782,12.249992,0.9718261,-1.9283593,7.5167055,-3.5440438,14.041941,-30.50661,67.52486,8.33607,-1.9735564,-1.8015573,-8.907029,-10.328984,34.325348,72.85008,-9.810358,1.7264806,-2.805055
65,-0.5211368203163147,1.7164226770401,78.51114654541016,1.7409307551692126,-2.109334994337073,-92.04049421267699,4.5370626,9.5712385,21.744595,6.676874,-4.211142,-10.499953,1.2928026,-13.476115,-5.9978137,8.527974,-8.727096,12.2464285,0.9642987,-1.9291428,7.518385,-3.5465975,14.048201,-30.506525,67.5106,8.331139,-1.9788144,-1.8003001,-8.904318,-10.327697,34.308537,72.8508,-9.8013525,1.7214265,-2.8017156
66,-0.5264870524406433,1.7100741863250732,78.51069641113281,1.7364760680697702,-2.115206140129065,-92.03209950728117,4.546191,9.580951,21.734898,6.6800556,-4.2166395,-10.500482,1.3082646,-13.469076,-6.0093875,8.5326805,-8.737127,12.242462,0.9544178,-1.929675,7.5201735,-3.5476143,14.049295,-30.505167,67.50188,8.3209,-1.9877354,-1.7968715,-8.901025,-10.327408,34.302734,72.851074,-9.765947,1.7082101,-2.797682
67,-0.5305021405220032,1.7037436962127686,78.50904083251953,1.729241448116226,-2.123449297458458,-92.02106980037453,4.5559483,9.592,21.72225,6.6855536,-4.223596,-10.50102,1.329932,-13.4601145,-6.024904,8.532033,-8.74531,12.2384205,0.9466947,-1.9311701,7.5277295,-3.5499249,14.054735,-30.502947,67.49288,8.313633,-1.9990622,-1.793313,-8.89841,-10.326073,34.284477,72.85118,-9.729573,1.687554,-2.7944708
68,-0.5334054827690125,1.6954131126403809,78.508544921875,1.7234922344455732,-2.1277811519470298,-92.00974616261551,4.5603414,9.601603,21.710781,6.6922226,-4.229555,-10.503057,1.3483573,-13.453106,-6.0404716,8.528033,-8.750921,12.235566,0.941595,-1.9327626,7.53555,-3.5539193,14.061204,-30.50528,67.48011,8.310321,-2.0061014,-1.7902205,-8.898082,-10.324629,34.261547,72.85029,-9.717605,1.6683751,-2.7969513
69,-0.5379325151443481,1.6870588064193726,78.50808715820312,1.7211632874008056,-2.1276638143783324,-91.99827823564222,4.5595064,9.60662,21.701767,6.6973414,-4.2322803,-10.507098,1.3592716,-13.449981,-6.0551767,8.526906,-8.75749,12.233866,0.93120897,-1.9341989,7.5378895,-3.5565696,14.064391,-30.509747,67.46918,8.308369,-2.0086346,-1.7852722,-8.899817,-10.323998,34.249718,72.8519,-9.728657,1.6502368,-2.8120081
70,-0.5374781489372253,1.6817593574523926,78.50796508789062,1.721615536292192,-2.125342832516306,-91.98633108071148,4.5564165,9.608259,21.693953,6.7008505,-4.2330694,-10.512273,1.3672062,-13.450447,-6.0696445,8.526477,-8.764591,12.232864,0.9210021,-1.9377028,7.53873,-3.5602005,14.069135,-30.518162,67.46046,8.308299,-2.0098658,-1.7797403,-8.903495,-10.323238,34.237015,72.85545,-9.754708,1.630582,-2.8347256
71,-0.5403298139572144,1.6783479452133179,78.50811767578125,1.7198706228034342,-2.1219108478902466,-91.97386198181889,4.551043,9.610279,21.685785,6.7063065,-4.2347703,-10.517756,1.3754921,-13.45064,-6.0848746,8.522299,-8.768545,12.233359,0.91227823,-1.9393132,7.5393295,-3.5632298,14.072227,-30.529728,67.44955,8.306629,-2.008054,-1.7732918,-8.908605,-10.322965,34.22325,72.85926,-9.785503,1.6125795,-2.8553746
72,-0.5454897284507751,1.671608328819275,78.50774383544922,1.719975993406413,-2.1195259487215368,-91.96168036669336,4.547838,9.612284,21.677233,6.7102,-4.2361374,-10.522656,1.3851869,-13.4503,-6.099603,8.518233,-8.770887,12.236597,0.906244,-1.9415725,7.538767,-3.566571,14.074603,-30.541769,67.44299,8.303389,-2.0054705,-1.7663913,-8.9129505,-10.322881,34.21055,72.85817,-9.803726,1.604345,-2.8614643
73,-0.5460206270217896,1.6635781526565552,78.5077896118164,1.718219897737634,-2.118466517295297,-91.94982252380908,4.54667,9.614043,21.668259,6.7138767,-4.2389255,-10.526659,1.3960488,-13.450815,-6.1132445,8.513871,-8.768835,12.24588,0.89924866,-1.9449413,7.536126,-3.567602,14.076334,-30.551924,67.440346,8.295159,-2.0015576,-1.7582154,-8.920475,-10.323091,34.201862,72.85417,-9.804274,1.6102914,-2.8449495
74,-0.5480561852455139,1.6583532094955444,78.50717163085938,1.7173056140364047,-2.1174103370182746,-91.9379467598558,4.5457034,9.616416,21.658752,6.7186394,-4.2429194,-10.530418,1.4097874,-13.450561,-6.127135,8.503733,-8.7607355,12.25934,0.8953009,-1.9479592,7.532293,-3.568129,14.077582,-30.565498,67.43872,8.281722,-1.9952965,-1.7488142,-8.930186,-10.32369,34.19206,72.84852,-9.796413,1.6256657,-2.8133097
75,-0.5502226948738098,1.6501399278640747,78.50501251220703,1.7159412341701459,-2.1172524812804476,-91.9260037851559,4.546127,9.618341,21.648932,6.7219205,-4.246355,-10.533675,1.4231322,-13.4500475,-6.14097,8.496377,-8.755055,12.271363,0.89085066,-1.9510994,7.5285296,-3.5678532,14.078225,-30.57538,67.43881,8.273095,-1.9887828,-1.7401857,-8.938587,-10.324524,34.185497,72.84046,-9.786484,1.6431458,-2.7804945
76,-0.5515449047088623,1.6434438228607178,78.50437927246094,1.7128271138306685,-2.1180710403085192,-91.91355972666729,4.546389,9.622467,21.637999,6.726104,-4.249465,-10.536957,1.4375175,-13.447935,-6.1560903,8.490465,-8.754984,12.275918,0.8919644,-1.9524227,7.5266256,-3.5698538,14.078465,-30.584967,67.439,8.274127,-1.9823605,-1.7337155,-8.941412,-10.326003,34.17446,72.83173,-9.785216,1.6543416,-2.7597728
77,-0.5544227361679077,1.637872338294983,78.5040054321289,1.7075646550503512,-2.120505863073888,-91.90042848508084,4.54729,9.628912,21.625563,6.7318177,-4.253358,-10.540115,1.450489,-13.44337,-6.1724405,8.492005,-8.765808,12.26904,0.8953193,-1.9528829,7.5283384,-3.5746567,14.0779505,-30.583519,67.44068,8.295307,-1.9762368,-1.7320664,-8.939292,-10.32802,34.163597,72.82376,-9.795269,1.655093,-2.7581625
78,-0.556420087814331,1.6318354606628418,78.50383758544922,1.7022864817501657,-2.1242635757676407,-91.88675147395777,4.535418,9.642223,21.60957,6.767409,-4.2724767,-10.543365,1.4628048,-13.438424,-6.189479,8.499037,-8.784306,12.254841,0.89810956,-1.9519945,7.530845,-3.577089,14.0774145,-30.575245,67.44091,8.327894,-1.9698181,-1.7329408,-8.934589,-10.328772,34.157536,72.81745,-9.809063,1.6504875,-2.7676892
79,-0.5583333969116211,1.6260322332382202,78.50401306152344,1.6978002716438785,-2.128566282450722,-91.87357566372302,4.5242434,9.65527,21.594141,6.803667,-4.292089,-10.546029,1.4761776,-13.432866,-6.2064857,8.505195,-8.803435,12.239111,0.9007044,-1.9509711,7.5345683,-3.5790324,14.0765295,-30.56235,67.440636,8.365227,-1.9642825,-1.7342715,-8.929959,-10.329532,34.151447,72.81072,-9.826441,1.646294,-2.778918
80,-0.5609474778175354,1.6205934286117554,78.50316619873047,1.693030144871676,-2.132453470129975,-91.86145568575219,4.514043,9.665842,21.580723,6.838106,-4.3105106,-10.547506,1.489135,-13.430581,-6.221494,8.510009,-8.81873,12.228267,0.9016912,-1.9509013,7.5374746,-3.5786505,14.075569,-30.549133,67.43931,8.399441,-1.9606676,-1.7328937,-8.927777,-10.330183,34.148018,72.80266,-9.841565,1.6483629,-2.7834635
81,-0.5606305599212646,1.6141812801361084,78.5030746459961,1.6925597345455103,-2.135703947163053,-91.85194850178841,4.508513,9.670385,21.57189,6.863923,-4.3244305,-10.546518,1.5002706,-13.430683,-6.233314,8.514773,-8.830679,12.222929,0.89826685,-1.9519646,7.5384674,-3.5733309,14.073473,-30.535574,67.43554,8.430493,-1.9590875,-1.7253865,-8.930667,-10.331352,34.149815,72.79385,-9.855229,1.6635417,-2.776619
82,-0.5611335635185242,1.607513427734375,78.50345611572266,1.693187714251055,-2.138815738174748,-91.84393846608384,4.5054407,9.671717,21.565659,6.885659,-4.335876,-10.543816,1.5106876,-13.434444,-6.242757,8.519222,-8.840647,12.220408,0.8948956,-1.9540393,7.53625,-3.565117,14.071419,-30.529444,67.431984,8.457321,-1.9587189,-1.7129123,-8.934649,-10.332234,34.15696,72.785545,-9.8656435,1.6871632,-2.7647276
83,-0.5633913278579712,1.6026666164398193,78.50310516357422,1.6948313071100178,-2.1425456753188743,-91.83620823075891,4.5045857,9.671885,21.56025,6.9042287,-4.34617,-10.541581,1.5227875,-13.438979,-6.251912,8.521251,-8.847805,12.220768,0.895214,-1.956912,7.53409,-3.5584645,14.070231,-30.528341,67.429794,8.473997,-1.9599893,-1.7021946,-8.937377,-10.332619,34.162926,72.77738,-9.872257,1.7066478,-2.7532012
84,-0.5646072626113892,1.5960594415664673,78.50325775146484,1.6964273328024753,-2.1475224103680826,-91.82722532971546,4.5049295,9.67322,21.55325,6.921096,-4.356582,-10.542074,1.5369895,-13.44163,-6.262628,8.5215025,-8.852131,12.2241125,0.8953622,-1.9580559,7.532376,-3.5505295,14.0689,-30.524145,67.42698,8.475751,-1.9628615,-1.6980244,-8.937603,-10.333007,34.173454,72.77038,-9.869398,1.7108715,-2.7481496
85,-0.564894437789917,1.5915762186050415,78.50065612792969,1.6956786622439313,-2.154354888966251,-91.8174866755704,4.509403,9.674633,21.545559,6.931528,-4.3653107,-10.546988,1.5533673,-13.443122,-6.2742267,8.520704,-8.852206,12.233875,0.90289664,-1.9589705,7.534372,-3.547659,14.068355,-30.520391,67.42546,8.454884,-1.9683006,-1.7054563,-8.934685,-10.333173,34.178886,72.764946,-9.859208,1.690878,-2.7513099
86,-0.5667598843574524,1.5863431692123413,78.49942779541016,1.6938864736867132,-2.163619675627092,-91.80577894198818,4.513744,9.678931,21.53514,6.946475,-4.3774843,-10.555067,1.5760126,-13.443526,-6.2886357,8.513125,-8.845723,12.248829,0.9020086,-1.9572134,7.53737,-3.5398962,14.067063,-30.504456,67.422615,8.41866,-1.9767123,-1.7208368,-8.92957,-10.333826,34.200783,72.761055,-9.83449,1.6521178,-2.7619786
87,-0.572257936000824,1.5838228464126587,78.49819946289062,1.69241647085882,-2.172687924895639,-91.79411273953939,4.519867,9.682305,21.525326,6.955939,-4.3869853,-10.563235,1.6002226,-13.441923,-6.303448,8.5013,-8.8377905,12.262077,0.9057893,-1.9554437,7.541455,-3.5355577,14.066444,-30.492493,67.42114,8.377807,-1.9856405,-1.7373362,-8.925675,-10.334298,34.216232,72.75745,-9.810232,1.6120697,-2.7726698
88,-0.5700713992118835,1.576617956161499,78.49716186523438,1.6908210361805067,-2.1805086188310874,-91.78192741059773,4.52268,9.68653,21.51528,6.9691477,-4.397956,-10.568607,1.6192101,-13.4420185,-6.3168464,8.498787,-8.839766,12.267311,0.90122503,-1.952857,7.544034,-3.5284774,14.066024,-30.475431,67.42015,8.345677,-1.994338,-1.7490329,-8.924264,-10.334904,34.238197,72.7503,-9.786794,1.5848557,-2.7802503
89,-0.5740440487861633,1.5743781328201294,78.4965591430664,1.6887399956215547,-2.186781624382512,-91.76805206887272,4.5224833,9.69164,21.505102,6.982838,-4.408369,-10.570205,1.6328425,-13.440324,-6.3300056,8.505491,-8.85452,12.257612,0.90043646,-1.9495871,7.546138,-3.5263274,14.066165,-30.469622,67.42345,8.321571,-2.0030055,-1.753,-8.925234,-10.334981,34.246296,72.74064,-9.773458,1.5742954,-2.784335
90,-0.5749878287315369,1.5709413290023804,78.49694061279297,1.6855281694814586,-2.191707764244363,-91.75410544547711,4.5209846,9.697468,21.496113,6.995107,-4.417662,-10.569683,1.6431696,-13.437682,-6.3419414,8.516347,-8.876508,12.238185,0.9004706,-1.9450591,7.5470505,-3.5261629,14.06645,-30.466785,67.42867,8.301563,-2.0110862,-1.7535367,-8.926679,-10.334914,34.251,72.727776,-9.764644,1.5722837,-2.7867904
91,-0.5750848650932312,1.565512776374817,78.49664306640625,1.6806322020519142,-2.197346817878382,-91.73907354778159,4.515939,9.704638,21.48426,7.015982,-4.4311595,-10.568334,1.6559732,-13.435581,-6.3556166,8.524553,-8.8976345,12.220125,0.88746405,-1.9423113,7.547923,-3.5239723,14.069208,-30.454863,67.4374,8.281873,-2.0210114,-1.7532474,-8.930757,-10.3343,34.274097,72.71384,-9.745218,1.5756997,-2.7881775
92,-0.5762395858764648,1.5607742071151733,78.49738311767578,1.6802256616465756,-2.2011529842452697,-91.72753144522693,4.5153236,9.706581,21.474237,7.025738,-4.4383407,-10.566709,1.6663277,-13.4367695,-6.366647,8.529925,-8.911353,12.21468,0.8864269,-1.9399285,7.5474105,-3.522137,14.0702505,-30.45237,67.44274,8.269007,-2.0248394,-1.7537299,-8.933758,-10.333982,34.28151,72.703995,-9.724954,1.5775615,-2.7824907
93,-0.5764764547348022,1.5560901165008545,78.49708557128906,1.6821694413033412,-2.2039305466036097,-91.72008805078252,4.5166426,9.7039175,21.463678,7.032354,-4.4428687,-10.564685,1.6805472,-13.440371,-6.3769326,8.519454,-8.90827,12.229168,0.8856809,-1.9418564,7.5435596,-3.5199306,14.073686,-30.450876,67.45055,8.257683,-2.0241416,-1.7555085,-8.938485,-10.333151,34.29991,72.69996,-9.68537,1.5779436,-2.7682571
94,-0.5802319049835205,1.5526806116104126,78.49724578857422,1.687406074387017,-2.2053202164434085,-91.71564012582357,4.5206404,9.696875,21.453651,7.0319977,-4.4429355,-10.561862,1.6931915,-13.44818,-6.385059,8.506208,-8.898658,12.256384,0.8889352,-1.9449972,7.5383453,-3.5169058,14.075843,-30.452196,67.45709,8.250949,-2.0192091,-1.7571557,-8.942003,-10.332707,34.312626,72.6969,-9.640334,1.5790255,-2.7476168
95,-0.5730859041213989,1.5464335680007935,78.49571228027344,1.6930664117319207,-2.206611008684211,-91.71104430025713,4.5242968,9.690187,21.443434,7.0317674,-4.4429173,-10.559604,1.7070069,-13.456468,-6.39363,8.490362,-8.886768,12.284803,0.88739145,-1.9484595,7.529964,-3.508367,14.080685,-30.45479,67.461174,8.243847,-2.0124614,-1.7594825,-8.948875,-10.331883,34.34055,72.69985,-9.583129,1.5817181,-2.7264612
96,-0.5775595307350159,1.5453062057495117,78.49436950683594,1.6962515489313665,-2.2075639405842247,-91.70538089650343,4.5268683,9.68512,21.435883,7.0309596,-4.443219,-10.559104,1.7179818,-13.461651,-6.401935,8.47936,-8.879616,12.302919,0.8929418,-1.9505713,7.5266194,-3.507745,14.082405,-30.455078,67.468414,8.250706,-2.0075073,-1.7647288,-8.951389,-10.3316145,34.3478,72.69734,-9.552982,1.5858287,-2.7118917
97,-0.5822808742523193,1.543152928352356,78.49237823486328,1.6964906523675312,-2.2098741833067024,-91.69539477577419,4.528439,9.68391,21.429558,7.030649,-4.4446483,-10.56129,1.7290071,-13.462615,-6.4128995,8.475698,-8.881262,12.306399,0.8972083,-1.9520451,7.5246954,-3.507454,14.085287,-30.45224,67.47648,8.269464,-2.0033467,-1.7748895,-8.952677,-10.331159,34.358025,72.69281,-9.527172,1.594341,-2.7039366
98,-0.5827323794364929,1.5400768518447876,78.4918212890625,1.696014675851361,-2.2115115382260555,-91.68422988329102,4.5282555,9.684769,21.4258,7.0306726,-4.446657,-10.565326,1.7367646,-13.462362,-6.4232297,8.478094,-8.887736,12.301898,0.9018058,-1.9515233,7.5246406,-3.507023,14.086414,-30.448828,67.48263,8.2944,-1.9998741,-1.7864742,-8.952725,-10.330952,34.362396,72.68714,-9.515656,1.6038369,-2.7018964
99,-0.5811064839363098,1.5370451211929321,78.49200439453125,1.6939575118934898,-2.213664269860586,-91.67254904709691,4.527754,9.686363,21.421553,7.0314865,-4.4490986,-10.569843,1.743441,-13.46084,-6.434037,8.483623,-8.896482,12.294049,0.90365416,-1.9522316,7.5246534,-3.5065541,14.089134,-30.43804,67.48937,8.329339,-1.9965242,-1.8015093,-8.952241,-10.33047,34.371056,72.68083,-9.506625,1.6165252,-2.702125
100,-0.5809040069580078,1.5366233587265015,78.49223327636719,1.6929200251729994,-2.2141271960541213,-91.66380016729778,4.527346,9.687033,21.417166,7.030442,-4.44997,-10.573852,1.7494222,-13.460863,-6.4426847,8.48411,-8.901171,12.287642,0.8985265,-1.9520227,7.5246224,-3.501688,14.093034,-30.42399,67.49054,8.3562565,-1.9944166,-1.8141019,-8.955762,-10.329676,34.38605,72.67727,-9.5016575,1.626816,-2.7021801
101,-0.5805685520172119,1.532761573791504,78.49336242675781,1.6914844270694056,-2.2123737666573593,-91.65845515103726,4.5287666,9.684963,21.412106,7.0228333,-4.4464173,-10.57725,1.750485,-13.46144,-6.4489493,8.485838,-8.904259,12.283676,0.8940069,-1.9507776,7.5211864,-3.496928,14.096215,-30.421494,67.49116,8.368452,-1.9927466,-1.8235723,-8.962216,-10.328972,34.39882,72.68226,-9.504574,1.6352763,-2.7016442
102,-0.5800570845603943,1.5301882028579712,78.49414825439453,1.6909077082384183,-2.2090141969204775,-91.6552866214535,4.5295544,9.682273,21.406424,7.013695,-4.4412117,-10.580657,1.7485576,-13.462962,-6.4535694,8.487522,-8.906141,12.279883,0.8893039,-1.9485673,7.5150347,-3.4918153,14.0998,-30.427887,67.490685,8.369904,-1.9913319,-1.8313233,-8.970487,-10.328127,34.413864,72.693,-9.510922,1.6432215,-2.7022357
103,-0.5789288878440857,1.5284759998321533,78.49369812011719,1.6916564694790674,-2.2059322325734287,-91.65325947484784,4.532145,9.678814,21.401443,7.002925,-4.4356923,-10.583153,1.7455318,-13.465655,-6.456524,8.491504,-8.909394,12.275546,0.885378,-1.946546,7.5062904,-3.4824584,14.10628,-30.443262,67.48681,8.362609,-1.9896069,-1.83537,-8.977758,-10.326269,34.433987,72.706764,-9.513108,1.6488181,-2.7043905
104,-0.5789695978164673,1.5273053646087646,78.4933853149414,1.6913950011844296,-2.205482214790046,-91.65098162322424,4.535784,9.676531,21.397514,6.995803,-4.4330177,-10.583997,1.7457641,-13.466522,-6.459272,8.495133,-8.913964,12.269638,0.8848671,-1.9451413,7.501779,-3.477934,14.110874,-30.453455,67.487785,8.363251,-1.9889842,-1.8357153,-8.982194,-10.324872,34.444843,72.71581,-9.51755,1.650356,-2.7062953
105,-0.578559398651123,1.526036262512207,78.49197387695312,1.690353149762307,-2.2089796114290796,-91.64821155820027,4.542987,9.675355,21.394909,6.990298,-4.4328947,-10.58225,1.7494104,-13.467894,-6.4607306,8.5025625,-8.922919,12.260983,0.8840139,-1.9449308,7.499309,-3.4681215,14.11959,-30.462294,67.48522,8.364008,-1.9894295,-1.8282603,-8.983382,-10.321788,34.45761,72.72326,-9.513912,1.6452942,-2.7098784
106,-0.577797532081604,1.5238356590270996,78.49297332763672,1.6895443621874457,-2.214328534500335,-91.64553664980923,4.550199,9.675273,21.39291,6.9895053,-4.4362607,-10.578533,1.754025,-13.467872,-6.461343,8.512617,-8.934816,12.250172,0.8844209,-1.9430466,7.5011387,-3.464462,14.121548,-30.463253,67.48824,8.371316,-1.990609,-1.816748,-8.983951,-10.321103,34.460423,72.72714,-9.514591,1.6366689,-2.7129598
107,-0.5742757320404053,1.5206758975982666,78.49246215820312,1.6892959850975866,-2.2214693965854586,-91.64325219586955,4.56117,9.673684,21.392384,6.985066,-4.437999,-10.574406,1.7609963,-13.469329,-6.4614005,8.521996,-8.946817,12.240268,0.8770076,-1.9437246,7.5020685,-3.4434905,14.131594,-30.45905,67.47663,8.379018,-1.9914248,-1.8026417,-8.988559,-10.317223,34.478672,72.7373,-9.507694,1.6248353,-2.7176633
108,-0.5761862993240356,1.520758032798767,78.49278259277344,1.6906616404193497,-2.225735592235853,-91.64164725263683,4.567962,9.671905,21.393265,6.982871,-4.440197,-10.571305,1.7649465,-13.470366,-6.4617424,8.5289955,-8.956408,12.233581,0.87720805,-1.943861,7.5021443,-3.4375668,14.135099,-30.45755,67.47939,8.391221,-1.9903738,-1.7958409,-8.990447,-10.315864,34.484756,72.739914,-9.509872,1.6192701,-2.7199812
109,-0.5754282474517822,1.5196468830108643,78.49235534667969,1.6909000598437451,-2.2264074982029176,-91.64060886146056,4.572836,9.668208,21.396929,6.975528,-4.438386,-10.570079,1.7662451,-13.473626,-6.462327,8.531861,-8.963138,12.230427,0.8786494,-1.9447731,7.4985576,-3.4303439,14.137833,-30.456953,67.48084,8.407942,-1.9850428,-1.7978455,-8.993721,-10.314981,34.495167,72.73975,-9.515343,1.6206908,-2.7206054
110,-0.5730316638946533,1.5169563293457031,78.4923324584961,1.693194401623072,-2.2249858740944575,-91.64022666510735,4.576291,9.663441,21.40298,6.9667964,-4.4356036,-10.569817,1.7642365,-13.477187,-6.4626307,8.535098,-8.969821,12.229518,0.8807719,-1.946124,7.4924994,-3.422785,14.140094,-30.456419,67.48289,8.428047,-1.9768473,-1.8048183,-8.997502,-10.314491,34.508995,72.73706,-9.522856,1.6263016,-2.7202477
111,-0.5721855163574219,1.516463279724121,78.4916000366211,1.6955112316000982,-2.223467498849337,-91.64030239428452,4.578642,9.65841,21.408882,6.9595156,-4.432676,-10.569563,1.7636118,-13.4804735,-6.4633303,8.533951,-8.972481,12.2316065,0.88090765,-1.9477658,7.485684,-3.414023,14.142405,-30.454435,67.48428,8.445247,-1.9687799,-1.8129731,-9.000499,-10.314234,34.523254,72.7327,-9.528025,1.6333563,-2.7200737
112,-0.5710046887397766,1.5162112712860107,78.49252319335938,1.6979848084615574,-2.2239031597981556,-91.64072467116918,4.581636,9.653233,21.41251,6.9560275,-4.431408,-10.568578,1.7648344,-13.485784,-6.463521,8.533038,-8.972294,12.237738,0.8786306,-1.949617,7.4813237,-3.407102,14.143521,-30.452253,67.48684,8.45252,-1.963982,-1.8181504,-9.003125,-10.314248,34.52868,72.729385,-9.529085,1.6380619,-2.721254
113,-0.57148677110672,1.515844702720642,78.49308013916016,1.703714059590039,-2.2265439226369512,-91.641664674259,4.5865126,9.645816,21.413412,6.953709,-4.4295244,-10.565946,1.769204,-13.492187,-6.4636936,8.529065,-8.964743,12.252023,0.8686844,-1.9515226,7.476764,-3.3926196,14.144699,-30.446362,67.48341,8.445948,-1.9614687,-1.8189173,-9.005113,-10.314216,34.526943,72.72855,-9.523378,1.6420151,-2.7246237
114,-0.569381058216095,1.5150038003921509,78.49223327636719,1.7097466901061407,-2.2303039534093596,-91.6434830547078,4.5918274,9.63757,21.41283,6.954014,-4.428228,-10.562407,1.7751664,-13.500702,-6.463213,8.52263,-8.95131,12.272713,0.8567661,-1.9540558,7.4739437,-3.3794403,14.145261,-30.440342,67.48057,8.429687,-1.961134,-1.8175535,-9.006767,-10.314109,34.517063,72.72815,-9.514228,1.6446954,-2.7296634
115,-0.5680310130119324,1.5155137777328491,78.4917984008789,1.7155518200363051,-2.23579393493964,-91.6446230690107,4.598503,9.629852,21.410599,6.9543295,-4.426924,-10.559117,1.7831906,-13.508942,-6.4634743,8.516867,-8.939388,12.291865,0.8447499,-1.9547876,7.4741673,-3.3615956,14.146088,-30.431261,67.469154,8.415722,-1.9615574,-1.8155054,-9.009244,-10.313841,34.493706,72.72955,-9.513325,1.6461506,-2.7328014
116,-0.5679723024368286,1.5156630277633667,78.49111938476562,1.719650534499457,-2.242202482635616,-91.64434791718296,4.6042075,9.624966,21.406973,6.9581714,-4.428281,-10.557394,1.7918264,-13.5142975,-6.464779,8.513958,-8.934405,12.301574,0.8437222,-1.9558856,7.479867,-3.3526769,14.14852,-30.425499,67.45873,8.41229,-1.9641997,-1.816549,-9.00983,-10.313091,34.452023,72.72764,-9.521209,1.6451664,-2.7310472
117,-0.5667008757591248,1.5157496929168701,78.49068450927734,1.7195021110554318,-2.2501650257436676,-91.6420654028458,4.6111264,9.623447,21.401474,6.9611573,-4.430342,-10.558491,1.7983569,-13.517495,-6.4666247,8.522538,-8.944392,12.296342,0.83485407,-1.9549712,7.4800916,-3.344585,14.148798,-30.422928,67.456085,8.405248,-1.9700327,-1.8176972,-9.006935,-10.312834,34.442802,72.72464,-9.507214,1.6431215,-2.7286022
118,-0.5666072368621826,1.5149593353271484,78.49020385742188,1.718980683672475,-2.261160338808377,-91.63744936235443,4.6201615,9.62359,21.393017,6.965019,-4.43362,-10.561214,1.8073277,-13.519578,-6.4702563,8.536239,-8.9631405,12.281748,0.82903457,-1.9518417,7.4841375,-3.3282864,14.149112,-30.415241,67.4416,8.412266,-1.978411,-1.8196701,-9.001306,-10.312647,34.418884,72.72038,-9.504575,1.6387858,-2.721099
119,-0.5643936991691589,1.514730453491211,78.49098205566406,1.7180402679996878,-2.2706229351675673,-91.63337165666925,4.627594,9.624791,21.386019,6.969138,-4.437371,-10.563729,1.8162994,-13.519735,-6.4735966,8.545847,-8.980015,12.265852,0.8201086,-1.9487658,7.485684,-3.3195415,14.14897,-30.41159,67.435394,8.4124775,-1.9870249,-1.8217221,-8.996838,-10.312568,34.40985,72.717094,-9.492256,1.6351931,-2.7143433
120,-0.5642511248588562,1.5148369073867798,78.49088287353516,1.7179315993277393,-2.277378048701798,-91.63136122175054,4.633234,9.624625,21.383091,6.9712625,-4.4396086,-10.563804,1.8211797,-13.521049,-6.4744835,8.554293,-8.991025,12.257442,0.81109554,-1.9462959,7.4861746,-3.3113604,14.148825,-30.40921,67.4277,8.414273,-1.9927782,-1.8222687,-8.993797,-10.312558,34.40352,72.71585,-9.488306,1.634216,-2.708638
121,-0.5634796619415283,1.5155109167099,78.49081420898438,1.7193835633709234,-2.2806095734242406,-91.63148335399116,4.636825,9.621283,21.386206,6.971145,-4.4408784,-10.55941,1.8234352,-13.524525,-6.473018,8.555737,-8.990604,12.260461,0.8064619,-1.9428602,7.4860587,-3.2975001,14.148303,-30.40644,67.4093,8.42517,-1.9945905,-1.8208109,-8.990206,-10.312794,34.380417,72.71474,-9.504561,1.6367927,-2.700502
122,-0.5619950890541077,1.5145806074142456,78.49142456054688,1.7214717963871051,-2.280202740360392,-91.63395416295644,4.636494,9.617715,21.39407,6.9720507,-4.442533,-10.552221,1.821857,-13.527573,-6.468998,8.553564,-8.983781,12.269455,0.80474603,-1.9408201,7.4845047,-3.2938235,14.147953,-30.413298,67.397125,8.431956,-1.9937915,-1.8186073,-8.98746,-10.31315,34.363403,72.71434,-9.522876,1.6415235,-2.6933928
123,-0.5616036057472229,1.5153602361679077,78.49149322509766,1.724473853399413,-2.279582018267019,-91.63729543172487,4.63761,9.613468,21.40279,6.9700704,-4.4428654,-10.545359,1.8205396,-13.531339,-6.4642086,8.549498,-8.974903,12.280039,0.8025161,-1.938837,7.4819226,-3.2908483,14.147844,-30.42191,67.38635,8.434768,-1.9921147,-1.8159541,-8.983693,-10.313417,34.35172,72.714355,-9.542201,1.6475865,-2.687666
124,-0.5596155524253845,1.5169353485107422,78.48986053466797,1.728089310956923,-2.2813335050779884,-91.64026023953588,4.641911,9.609512,21.408335,6.966401,-4.4421134,-10.541841,1.8210094,-13.534534,-6.460185,8.548445,-8.970069,12.287693,0.8007214,-1.9368082,7.4808292,-3.2878351,14.147722,-30.428734,67.37756,8.434434,-1.9911119,-1.8142893,-8.978648,-10.313628,34.341873,72.714836,-9.5618725,1.6530492,-2.6839492
125,-0.5583144426345825,1.5170342922210693,78.48988342285156,1.7288456504064365,-2.2868137700790583,-91.64313791485796,4.6508474,9.606254,21.409294,6.962766,-4.4416213,-10.543236,1.8262166,-13.537034,-6.4572344,8.547995,-8.968886,12.291717,0.8017102,-1.9344183,7.482216,-3.2855208,14.147584,-30.43555,67.370575,8.426481,-1.9906461,-1.8136431,-8.970652,-10.3138075,34.33057,72.71562,-9.586427,1.6576033,-2.6839883
126,-0.5583903193473816,1.517601490020752,78.48918151855469,1.7314471433042073,-2.29452073712648,-91.6465124431968,4.6648316,9.602033,21.408342,6.9530497,-4.4375043,-10.547827,1.8330914,-13.539037,-6.4543157,8.549441,-8.970068,12.294431,0.80543643,-1.932394,7.4856486,-3.2853014,14.147398,-30.442917,67.36545,8.41388,-1.9900723,-1.8138591,-8.9584,-10.313926,34.316837,72.71395,-9.617062,1.6619983,-2.6866581
127,-0.5563551783561707,1.5170214176177979,78.48946380615234,1.7313169424589296,-2.3018166013119807,-91.64944384120297,4.676871,9.599436,21.406242,6.946572,-4.435318,-10.553163,1.8396704,-13.54011,-6.4519997,8.551164,-8.972535,12.295233,0.8049002,-1.929514,7.4890056,-3.2845888,14.147243,-30.444555,67.362175,8.404071,-1.9900987,-1.8146725,-8.952198,-10.313906,34.31298,72.717255,-9.640163,1.6661932,-2.688197
128,-0.5556202530860901,1.5177001953125,78.48822021484375,1.731349712296522,-2.3087053037194387,-91.65216457115943,4.6891794,9.597175,21.405764,6.9383807,-4.43277,-10.556647,1.8452778,-13.541649,-6.449143,8.554387,-8.976488,12.293933,0.80502504,-1.9257147,7.49256,-3.2834706,14.147156,-30.445463,67.360214,8.401884,-1.9896739,-1.8156525,-8.945109,-10.31385,34.31016,72.71807,-9.661303,1.6712859,-2.686162
129,-0.554985523223877,1.5179369449615479,78.4888916015625,1.7311486340166662,-2.3160823842595786,-91.65439523190607,4.7056403,9.593661,21.407776,6.9218426,-4.4268,-10.557298,1.8498256,-13.54148,-6.4462843,8.561181,-8.984262,12.287638,0.8094957,-1.9217603,7.495326,-3.2822454,14.146664,-30.447403,67.362144,8.414799,-1.988692,-1.817123,-8.934085,-10.31377,34.302635,72.7156,-9.681296,1.6791283,-2.6771836
130,-0.554838240146637,1.5187779664993286,78.4894027709961,1.7292671482997641,-2.321375978512622,-91.65598431253267,4.7176094,9.592725,21.409817,6.9096727,-4.4232903,-10.556749,1.852643,-13.539621,-6.44398,8.5676155,-8.993243,12.277254,0.8138324,-1.9165915,7.4983897,-3.2833714,14.146535,-30.447622,67.36713,8.435136,-1.987694,-1.8184065,-8.927698,-10.313774,34.301056,72.714905,-9.692623,1.6871369,-2.6648815
131,-0.5549547672271729,1.5198630094528198,78.4896011352539,1.7283541093316304,-2.32769829036448,-91.65851727747554,4.7349124,9.58893,21.414406,6.8888707,-4.4158916,-10.5557995,1.854995,-13.538837,-6.4401474,8.576185,-9.002907,12.268692,0.82012683,-1.9135222,7.5009604,-3.2855294,14.146121,-30.446878,67.37616,8.461405,-1.9870881,-1.8207153,-8.916674,-10.313842,34.298077,72.70863,-9.703964,1.6966141,-2.6498156
132,-0.5521027445793152,1.519232153892517,78.48986053466797,1.729489427270878,-2.331419596479248,-91.66123603868887,4.7485538,9.58456,21.41974,6.8688602,-4.4077992,-10.555477,1.856367,-13.539964,-6.435963,8.579475,-9.00642,12.267411,0.8228946,-1.9105206,7.502212,-3.286627,14.145268,-30.445969,67.38243,8.478776,-1.9861323,-1.8224984,-8.909044,-10.314066,34.29467,72.705444,-9.715206,1.702032,-2.6389945
133,-0.5511351823806763,1.5208361148834229,78.48898315429688,1.7324088869646672,-2.33254159646324,-91.66530916407993,4.7617955,9.576771,21.428123,6.843627,-4.3959923,-10.556082,1.8570161,-13.542396,-6.4303775,8.574321,-9.0000105,12.278782,0.8247655,-1.9098215,7.501873,-3.2898614,14.143888,-30.446762,67.389854,8.488563,-1.9845595,-1.8239055,-8.900645,-10.3145,34.28479,72.700356,-9.732388,1.7038971,-2.631528
134,-0.548775315284729,1.5202347040176392,78.4898910522461,1.7361339738475452,-2.33127031833615,-91.66979683925993,4.770689,9.569159,21.437819,6.8213515,-4.384688,-10.557344,1.8579628,-13.545254,-6.424579,8.560349,-8.984892,12.29852,0.8232586,-1.9089814,7.499438,-3.2904904,14.143386,-30.44874,67.394035,8.491598,-1.9820802,-1.8248241,-8.897196,-10.314653,34.27929,72.69967,-9.745102,1.7027097,-2.6260424
135,-0.5472090840339661,1.5212669372558594,78.48836517333984,1.7398809336800216,-2.330195991888282,-91.67417683299759,4.7796264,9.561103,21.447157,6.79935,-4.3737545,-10.558582,1.85748,-13.549376,-6.4184794,8.550519,-8.972573,12.317692,0.8228471,-1.9079349,7.4974036,-3.290471,14.142758,-30.452375,67.39673,8.491146,-1.9802465,-1.8254834,-8.892487,-10.314716,34.268715,72.69825,-9.7604,1.700306,-2.6225736
136,-0.5491534471511841,1.5235322713851929,78.48745727539062,1.7429445948860747,-2.332060138006632,-91.67832741498803,4.792215,9.554101,21.455025,6.778117,-4.365013,-10.559681,1.8581251,-13.552979,-6.4129066,8.547617,-8.968501,12.32718,0.82279,-1.9060354,7.497743,-3.289377,14.142441,-30.45451,67.398544,8.48818,-1.980667,-1.8265616,-8.886895,-10.314671,34.259426,72.69653,-9.776037,1.6983237,-2.6221478
137,-0.5471036434173584,1.521451473236084,78.4868392944336,1.7449941736599472,-2.3385487729795207,-91.68141289904622,4.8092895,9.548865,21.459843,6.758809,-4.359509,-10.560729,1.8624845,-13.555608,-6.4091334,8.552577,-8.976158,12.322227,0.82402456,-1.9019867,7.5023103,-3.2861557,14.141889,-30.45558,67.398056,8.4810295,-1.9845973,-1.8276567,-8.879023,-10.314595,34.24641,72.69451,-9.794791,1.696509,-2.626186
138,-0.5467483401298523,1.5222529172897339,78.48715209960938,1.7439647205447268,-2.347626323966665,-91.68373093675861,4.827509,9.545421,21.462273,6.744738,-4.358964,-10.561691,1.8683484,-13.557055,-6.4066114,8.563659,-8.992135,12.308188,0.82206094,-1.8962252,7.5085015,-3.2796142,14.141544,-30.45376,67.39571,8.468659,-1.9911921,-1.828729,-8.871604,-10.314523,34.238743,72.69338,-9.811317,1.6943862,-2.634343
139,-0.5447263121604919,1.5234286785125732,78.48648834228516,1.7430641189578246,-2.3570887075108446,-91.6861348960577,4.84579,9.542311,21.46445,6.731097,-4.357909,-10.562433,1.8735482,-13.558989,-6.403928,8.576895,-9.009227,12.2920265,0.821701,-1.890303,7.5155263,-3.2722878,14.140943,-30.451086,67.39122,8.458061,-1.9978074,-1.8300138,-8.864326,-10.314436,34.228706,72.69211,-9.828669,1.6926036,-2.642521
140,-0.5437367558479309,1.5229874849319458,78.48760986328125,1.7439567419770539,-2.363803036770856,-91.68966403713675,4.8560653,9.540833,21.467058,6.728984,-4.3606143,-10.5623865,1.8750589,-13.560044,-6.3999243,8.588967,-9.0213995,12.280054,0.8228068,-1.8857563,7.521303,-3.2670763,14.140484,-30.450064,67.38654,8.452154,-2.0021176,-1.8317149,-8.8583145,-10.314345,34.222183,72.68991,-9.844257,1.6919646,-2.647695
141,-0.5430551171302795,1.5247553586959839,78.48873901367188,1.7445374263461488,-2.366767002330566,-91.69480521685938,4.8620143,9.53965,21.47165,6.726727,-4.358501,-10.561163,1.8729541,-13.561276,-6.394072,8.596946,-9.025304,12.272202,0.8298395,-1.8834418,7.52431,-3.265403,14.139884,-30.45298,67.38218,8.454839,-2.002684,-1.8347964,-8.854889,-10.31441,34.21879,72.68916,-9.854471,1.6932071,-2.6478772
142,-0.5430951714515686,1.5261400938034058,78.48904418945312,1.745374857214602,-2.367530543651407,-91.70123189707591,4.8657136,9.538725,21.477308,6.7243648,-4.3538203,-10.558973,1.8675328,-13.56103,-6.3870926,8.60436,-9.025328,12.265432,0.83871096,-1.8817394,7.5257435,-3.266178,14.139585,-30.459343,67.37819,8.459455,-2.0013013,-1.8387859,-8.851886,-10.3145,34.22179,72.68713,-9.85967,1.6958619,-2.6452677
143,-0.5429348349571228,1.5248850584030151,78.48994445800781,1.7463564328608197,-2.3672308250883574,-91.70703136160535,4.868096,9.537855,21.482618,6.721967,-4.3487625,-10.556849,1.8629227,-13.559805,-6.3810287,8.607704,-9.021835,12.262328,0.8464479,-1.8804903,7.5258846,-3.2668428,14.1394,-30.468222,67.37468,8.4623995,-1.9995967,-1.8410046,-8.849786,-10.314714,34.22856,72.68564,-9.86138,1.6984875,-2.6433127
144,-0.5421448945999146,1.5236064195632935,78.49030303955078,1.7471947281963447,-2.3675427443215677,-91.71132019525831,4.870394,9.536007,21.486732,6.7197523,-4.3460107,-10.555546,1.8611287,-13.560304,-6.3761945,8.607171,-9.016923,12.265889,0.8503562,-1.8798555,7.525877,-3.2656493,14.139345,-30.476435,67.372375,8.45898,-1.9992584,-1.8391417,-8.846509,-10.31484,34.234344,72.68229,-9.86176,1.6997584,-2.6450093
145,-0.5419000387191772,1.5230923891067505,78.48981475830078,1.7504373888706042,-2.3678764600266797,-91.71246573184695,4.8716264,9.533448,21.488441,6.718108,-4.3470545,-10.555571,1.8641999,-13.56173,-6.374612,8.598281,-9.007575,12.28235,0.84727365,-1.8789965,7.525739,-3.2617407,14.139403,-30.484604,67.37078,8.447157,-2.0016499,-1.8305514,-8.843699,-10.314858,34.23629,72.67884,-9.866288,1.6984638,-2.6520863
146,-0.5419594645500183,1.5247132778167725,78.48863220214844,1.7532755998418537,-2.3679306210311766,-91.71177695875893,4.8723807,9.529986,21.488924,6.71541,-4.349521,-10.55612,1.8712906,-13.564398,-6.374998,8.581109,-8.993305,12.308477,0.8419471,-1.878811,7.525684,-3.2575536,14.139624,-30.493568,67.370125,8.4305315,-2.0055046,-1.8174554,-8.841703,-10.314655,34.233807,72.675385,-9.872468,1.6954837,-2.6623547
147,-0.5425858497619629,1.5260683298110962,78.48634338378906,1.7537457395371596,-2.368702975103487,-91.71055707061657,4.8736978,9.527059,21.488815,6.71303,-4.3526425,-10.557099,1.8791839,-13.565562,-6.3761263,8.564452,-8.980523,12.331932,0.83494085,-1.8783631,7.5275903,-3.2534604,14.139901,-30.498747,67.36999,8.415733,-2.0094023,-1.8048242,-8.83991,-10.314226,34.229805,72.67056,-9.87887,1.69195,-2.672579
148,-0.5425753593444824,1.526530385017395,78.48566436767578,1.7536966944860881,-2.3692686617920184,-91.71061316674202,4.8740935,9.527027,21.488707,6.7128687,-4.355114,-10.558492,1.8812419,-13.565415,-6.375394,8.560089,-8.976753,12.340566,0.833252,-1.8768734,7.527727,-3.25211,14.140084,-30.499802,67.3712,8.413388,-2.0092115,-1.8030783,-8.840241,-10.313872,34.227535,72.66926,-9.878411,1.6907281,-2.674618
149,-0.539972722530365,1.5264673233032227,78.48572540283203,1.7528076313415464,-2.377423803522669,-91.7121569311731,4.8852262,9.527435,21.488743,6.709324,-4.35528,-10.560564,1.8862683,-13.563817,-6.372968,8.56841,-8.984961,12.3262825,0.83397377,-1.874563,7.5408545,-3.2495728,14.140213,-30.50655,67.37289,8.401353,-2.0106058,-1.7950394,-8.834954,-10.313325,34.222664,72.66094,-9.87489,1.6852974,-2.6837537
150,-0.539290189743042,1.5280150175094604,78.48558044433594,1.7493666920850526,-2.3856013306891293,-91.71478754764895,4.8960295,9.530546,21.488613,6.7078204,-4.3554826,-10.563369,1.8836105,-13.561085,-6.3681,8.592559,-9.003843,12.2969475,0.84280294,-1.8713908,7.5522227,-3.2524147,14.140053,-30.513855,67.37889,8.399059,-2.008289,-1.7972884,-8.828888,-10.312407,34.214542,72.653824,-9.863721,1.6814432,-2.685549
151,-0.5409333109855652,1.5288671255111694,78.48748016357422,1.746700015813951,-2.3934889646557767,-91.71719265924332,4.9063835,9.533986,21.4884,6.706268,-4.355161,-10.565636,1.8822666,-13.558097,-6.364279,8.614651,-9.022675,12.265622,0.8488483,-1.8681787,7.5638013,-3.2543633,14.1397295,-30.516344,67.3846,8.400514,-2.005523,-1.8007187,-8.824645,-10.311958,34.211845,72.64731,-9.852751,1.6785548,-2.6860197
152,-0.5403733849525452,1.5274523496627808,78.48921203613281,1.7441693882302305,-2.398201840157134,-91.71792273828702,4.912279,9.536244,21.48774,6.7055135,-4.35456,-10.566039,1.8810649,-13.555766,-6.3633995,8.6297455,-9.03585,12.245399,0.8530854,-1.8667495,7.5714045,-3.2566383,14.13882,-30.523136,67.39114,8.400619,-2.0029333,-1.8011197,-8.822815,-10.311285,34.21208,72.644165,-9.849653,1.6779621,-2.6864016
153,-0.5431879162788391,1.5292710065841675,78.48805236816406,1.7440295318557657,-2.398360184348188,-91.71646780516261,4.9120393,9.536897,21.48674,6.7049856,-4.3529134,-10.563509,1.8809425,-13.555672,-6.3668976,8.633598,-9.040745,12.240252,0.8527214,-1.8676076,7.575415,-3.2569046,14.138656,-30.527628,67.39494,8.407371,-2.0005643,-1.7989746,-8.824999,-10.311204,34.215725,72.643486,-9.863217,1.6805564,-2.686098
154,-0.542357325553894,1.5280994176864624,78.48973846435547,1.7451913945605728,-2.395912880350523,-91.71347319355397,4.9084454,9.5357,21.485437,6.704212,-4.3502607,-10.558818,1.8807175,-13.557741,-6.3731055,8.632507,-9.041929,12.243196,0.85136837,-1.8701118,7.5741067,-3.257601,14.138428,-30.544611,67.40123,8.406947,-1.9971834,-1.7921982,-8.828196,-10.311013,34.230278,72.64555,-9.877885,1.6867131,-2.6862807
155,-0.544061541557312,1.5280563831329346,78.49010467529297,1.7455025116263414,-2.392395324408469,-91.70990745496924,4.903339,9.534733,21.483927,6.7036896,-4.3477902,-10.554078,1.8829355,-13.558546,-6.380569,8.624355,-9.038447,12.250538,0.84950924,-1.8732815,7.5719533,-3.2573264,14.138335,-30.55892,67.40619,8.4067545,-1.9947782,-1.7857381,-8.831219,-10.310915,34.243023,72.647675,-9.894179,1.6927083,-2.6856287
156,-0.5446419715881348,1.5255138874053955,78.4908676147461,1.746734320820482,-2.389979728387705,-91.70660552934704,4.8996725,9.534132,21.482159,6.703592,-4.347335,-10.550892,1.8855748,-13.559814,-6.3858886,8.617173,-9.034156,12.259309,0.8478133,-1.8764917,7.571716,-3.2559462,14.138299,-30.567953,67.40859,8.401912,-1.9944314,-1.7808586,-8.833198,-10.310894,34.251232,72.64815,-9.903056,1.6964341,-2.6833029
157,-0.5452772378921509,1.5250173807144165,78.48968505859375,1.7470168981052165,-2.389227433303046,-91.70400981197423,4.898222,9.533947,21.480743,6.7036047,-4.349259,-10.55131,1.89005,-13.559812,-6.387978,8.6077,-9.025825,12.272467,0.8462398,-1.8792547,7.5743756,-3.2532263,14.138236,-30.569866,67.40787,8.388744,-1.9970356,-1.7786999,-8.832579,-10.310852,34.252712,72.64417,-9.901115,1.6970407,-2.679802
158,-0.5460642576217651,1.5241320133209229,78.48873901367188,1.7470864382475328,-2.3894551489962255,-91.70091295787444,4.897254,9.534271,21.478264,6.704831,-4.3534756,-10.553734,1.8959231,-13.558997,-6.389137,8.597024,-9.014747,12.290453,0.84233594,-1.8821473,7.5775156,-3.247698,14.138046,-30.570982,67.405014,8.363953,-2.0020406,-1.7756108,-8.8305,-10.31072,34.25221,72.63773,-9.892763,1.6971482,-2.6746128
159,-0.5457533001899719,1.5244851112365723,78.48724365234375,1.7460363086462163,-2.389574503454198,-91.69781475650494,4.8963385,9.5351,21.475698,6.70585,-4.3579307,-10.555116,1.903932,-13.556829,-6.390983,8.581577,-9.001918,12.305743,0.8413502,-1.884831,7.58107,-3.2429535,14.137785,-30.5694,67.4007,8.342608,-2.0073228,-1.7738079,-8.828271,-10.310592,34.24925,72.63263,-9.880434,1.6954376,-2.6681516
160,-0.5471131205558777,1.5250529050827026,78.48543548583984,1.7451831532246256,-2.3887016762905984,-91.69470050439855,4.8943458,9.535893,21.473043,6.707364,-4.3620543,-10.552182,1.9067044,-13.556255,-6.3933434,8.577226,-8.999221,12.311113,0.84369487,-1.8877997,7.584169,-3.2408981,14.137492,-30.567816,67.39687,8.329465,-2.0117362,-1.772541,-8.827725,-10.31058,34.248768,72.63205,-9.865613,1.6923261,-2.660162
161,-0.5471964478492737,1.5243200063705444,78.4844741821289,1.7429183541811037,-2.386718756024734,-91.69070345582067,4.8910275,9.537709,21.46985,6.708933,-4.3652225,-10.543973,1.9047719,-13.554168,-6.398776,8.582931,-9.008495,12.300498,0.8509647,-1.8904165,7.586331,-3.2414663,14.137363,-30.56795,67.3925,8.3291235,-2.0146255,-1.7717149,-8.82851,-10.3106785,34.251514,72.63713,-9.845378,1.6874125,-2.6498928
162,-0.5461055636405945,1.5210562944412231,78.486572265625,1.7395086755959144,-2.3824976747681665,-91.68524158651753,4.8836455,9.541847,21.46485,6.713431,-4.369249,-10.532249,1.8996568,-13.551063,-6.407141,8.592879,-9.024094,12.279124,0.857173,-1.8912629,7.5851183,-3.2422755,14.136805,-30.569214,67.387665,8.332741,-2.0169013,-1.7705892,-8.836267,-10.3114195,34.271976,72.65295,-9.8030205,1.6785562,-2.6359582
163,-0.5463239550590515,1.5187466144561768,78.4872817993164,1.7369332499591725,-2.379059346734007,-91.68128346011383,4.8783264,9.544477,21.461164,6.7169967,-4.3731666,-10.518095,1.8930901,-13.549933,-6.4134274,8.607654,-9.042983,12.256419,0.8660668,-1.8935348,7.583888,-3.2432923,14.13611,-30.569136,67.38299,8.338898,-2.0186226,-1.769485,-8.840643,-10.312592,34.29076,72.66722,-9.769428,1.6713743,-2.6237614
164,-0.5458507537841797,1.5164185762405396,78.488037109375,1.7339311933615327,-2.376005575039983,-91.67899419217626,4.8739824,9.544877,21.458305,6.7212124,-4.3780794,-10.502504,1.8886569,-13.548987,-6.4174113,8.617504,-9.056345,12.241305,0.87337923,-1.8962244,7.581654,-3.241911,14.135595,-30.568415,67.37756,8.3364725,-2.0204637,-1.7672427,-8.843483,-10.313463,34.30509,72.67998,-9.749388,1.6673067,-2.6145995
165,-0.5447101593017578,1.5134706497192383,78.48838806152344,1.7336378985686407,-2.373373364631533,-91.6804113644829,4.872028,9.542526,21.458282,6.7253294,-4.383863,-10.485205,1.8871204,-13.550805,-6.4160533,8.620083,-9.061401,12.237124,0.87762415,-1.8994973,7.577846,-3.2372355,14.134779,-30.566553,67.37048,8.32289,-2.021814,-1.7635244,-8.844233,-10.314735,34.31968,72.6907,-9.752307,1.6682222,-2.6109211
166,-0.535915732383728,1.5085082054138184,78.48849487304688,1.7344363635444957,-2.370549405000676,-91.6838198848462,4.8595896,9.542913,21.457611,6.755235,-4.4037967,-10.465883,1.8844109,-13.5548525,-6.4112387,8.624101,-9.064966,12.238662,0.8770491,-1.9016304,7.5712705,-3.2266693,14.133231,-30.561956,67.35994,8.301969,-2.0228186,-1.7581763,-8.843176,-10.317032,34.337288,72.700035,-9.768118,1.6727431,-2.6107004
167,-0.5368190407752991,1.5061458349227905,78.488037109375,1.7349039291262203,-2.368871498926686,-91.68755799181406,4.8456063,9.543237,21.456404,6.7916746,-4.4276214,-10.445785,1.8842577,-13.558015,-6.4063764,8.62456,-9.065791,12.242603,0.881006,-1.9053844,7.5666943,-3.2187245,14.131188,-30.55482,67.35172,8.28452,-2.023684,-1.7531672,-8.839961,-10.319985,34.347492,72.70727,-9.789829,1.6775296,-2.610291
168,-0.532374382019043,1.5001729726791382,78.48689270019531,1.7359976328656939,-2.3693110952293472,-91.68996974140153,4.8372884,9.54196,21.454077,6.820859,-4.449146,-10.425973,1.8864098,-13.563158,-6.4030724,8.627843,-9.069212,12.245887,0.89794856,-1.9125983,7.5660467,-3.2183125,14.130768,-30.552015,67.34985,8.274899,-2.024619,-1.7493168,-8.836464,-10.320546,34.34967,72.71615,-9.798399,1.6796805,-2.6075077
169,-0.5289391875267029,1.4958689212799072,78.4848861694336,1.7348057843624347,-2.370969023745049,-91.68977711070413,4.819897,9.547512,21.446642,6.870401,-4.482195,-10.408287,1.8899895,-13.565124,-6.403764,8.632952,-9.074727,12.247074,0.91577435,-1.9191413,7.565281,-3.2174764,14.12794,-30.531572,67.35433,8.28156,-2.026466,-1.7465421,-8.830156,-10.323786,34.362644,72.72389,-9.786117,1.6768203,-2.598571
170,-0.5256864428520203,1.4912543296813965,78.48374938964844,1.7336307548530299,-2.37484727042096,-91.68876888492892,4.80946,9.550833,21.438324,6.910026,-4.511885,-10.3909855,1.8974273,-13.567026,-6.4061766,8.636071,-9.079463,12.248399,0.9429909,-1.9277614,7.566864,-3.218748,14.125575,-30.513803,67.36213,8.293408,-2.0284479,-1.7427969,-8.825278,-10.326353,34.372307,72.735855,-9.762559,1.6721197,-2.586867
171,-0.5219752192497253,1.4865652322769165,78.48324584960938,1.7309585448859905,-2.3787489858104585,-91.6855018163706,4.790322,9.557781,21.426798,6.9681563,-4.550936,-10.372734,1.906827,-13.568399,-6.411177,8.637686,-9.084114,12.25024,0.9324384,-1.9312111,7.5710797,-3.2055306,14.115285,-30.436499,67.36537,8.332727,-2.0324728,-1.7433956,-8.832244,-10.336599,34.427807,72.74318,-9.721736,1.6688601,-2.574554
172,-0.5186988115310669,1.480833649635315,78.48162841796875,1.7320813339697463,-2.383208391933817,-91.68140016008148,4.777352,9.558508,21.41733,7.015191,-4.583593,-10.351434,1.91649,-13.574158,-6.4157195,8.641496,-9.090375,12.253907,0.9381817,-1.9390801,7.5725584,-3.2000394,14.107542,-30.392984,67.37012,8.356535,-2.032003,-1.744104,-8.832282,-10.344441,34.463394,72.750496,-9.686353,1.6685666,-2.5703726
173,-0.5127828121185303,1.4733694791793823,78.48108673095703,1.735302257892317,-2.3885828397509066,-91.67460767453873,4.7643437,9.554941,21.407776,7.0648108,-4.6161222,-10.324779,1.9272106,-13.586859,-6.420837,8.648906,-9.100195,12.260195,0.95419765,-1.9516714,7.5732346,-3.2014844,14.103662,-30.375841,67.373695,8.378071,-2.0248828,-1.7485001,-8.827283,-10.348635,34.482662,72.75476,-9.656379,1.6734082,-2.5768008
174,-0.506691038608551,1.4647613763809204,78.48011016845703,1.741993489676601,-2.394366311861697,-91.66491872415313,4.7504506,9.548933,21.39687,7.117342,-4.6492305,-10.29428,1.941552,-13.601203,-6.4287415,8.6524,-9.108956,12.268122,0.9468301,-1.9628175,7.5715733,-3.1943655,14.094726,-30.337513,67.37531,8.411572,-2.0150268,-1.7554439,-8.825932,-10.359529,34.534645,72.75375,-9.611636,1.6839817,-2.5902286
175,-0.5018997192382812,1.4587664604187012,78.48077392578125,1.749269185558086,-2.3997513935489727,-91.65562317470466,4.7363305,9.542291,21.386997,7.1702075,-4.68267,-10.264366,1.9558733,-13.617407,-6.4359956,8.655854,-9.117425,12.276669,0.9384954,-1.9718146,7.57017,-3.1846826,14.083634,-30.297205,67.37233,8.435455,-2.0061288,-1.7619717,-8.821657,-10.37422,34.583385,72.74789,-9.570231,1.6944017,-2.6043587
176,-0.49956291913986206,1.4525527954101562,78.4808578491211,1.754953121956732,-2.4034687000182298,-91.65064112448161,4.728916,9.533125,21.38269,7.206913,-4.7092967,-10.239117,1.9662344,-13.63182,-6.439316,8.66004,-9.1243515,12.284376,0.9580299,-1.9865862,7.5683026,-3.183659,14.082503,-30.290712,67.368484,8.417783,-2.0028625,-1.7646203,-8.816092,-10.375727,34.586105,72.755135,-9.5535755,1.6981485,-2.614955
177,-0.49454522132873535,1.4467114210128784,78.48035430908203,1.75673861009456,-2.404247022158113,-91.64882610007491,4.7106433,9.532927,21.378908,7.2624893,-4.748239,-10.222601,1.9707999,-13.641839,-6.44051,8.667697,-9.130978,12.290068,0.9601031,-1.9932269,7.565081,-3.166799,14.075435,-30.24376,67.351295,8.37355,-2.0066438,-1.7673854,-8.804745,-10.385252,34.596413,72.752495,-9.546094,1.6968149,-2.6213331
178,-0.4855024218559265,1.4366647005081177,78.47942352294922,1.7562475667288213,-2.4037126640613065,-91.65120872347538,4.698663,9.531364,21.380411,7.3045206,-4.7822857,-10.211192,1.9764377,-13.648983,-6.438939,8.666523,-9.130893,12.294706,0.9552767,-1.9941144,7.564843,-3.1449854,14.06386,-30.179739,67.32809,8.306205,-2.0176504,-1.7679456,-8.797788,-10.400929,34.60226,72.748535,-9.5518875,1.6918755,-2.6209805
179,-0.47606033086776733,1.4295318126678467,78.47756958007812,1.7582348628289783,-2.402508448720539,-91.65401517427374,4.688758,9.526671,21.383335,7.339981,-4.812465,-10.199306,1.9796355,-13.659014,-6.43634,8.66891,-9.132252,12.300454,0.9712187,-2.002657,7.5576167,-3.130232,14.060983,-30.157213,67.309746,8.208777,-2.029363,-1.7635608,-8.784667,-10.404341,34.59226,72.756294,-9.555967,1.6843816,-2.6257644
180,-0.4653533101081848,1.4218028783798218,78.4761962890625,1.7634423248508968,-2.4006732169587313,-91.65295633630716,4.6714506,9.520115,21.382725,7.3882184,-4.84719,-10.180933,1.9815083,-13.672602,-6.436514,8.674731,-9.135692,12.308947,0.97443163,-2.007826,7.5620117,-3.1102378,14.052903,-30.091986,67.27884,8.162753,-2.0412328,-1.7607352,-8.77645,-10.414801,34.568085,72.75514,-9.583382,1.6767323,-2.6279144
181,-0.4554505944252014,1.4118558168411255,78.47490692138672,1.7717234770650265,-2.4002395277399415,-91.64843319698397,4.656067,9.505903,21.381062,7.4341807,-4.8778644,-10.152193,1.9883149,-13.6952095,-6.438791,8.6761675,-9.137959,12.322731,0.9807005,-2.0164683,7.5681148,-3.0964737,14.042611,-30.033064,67.25262,8.139613,-2.052726,-1.7507786,-8.76631,-10.42867,34.548004,72.75395,-9.604349,1.6682712,-2.636332
182,-0.44276556372642517,1.4030559062957764,78.4743423461914,1.7837626171321976,-2.399788460228875,-91.64184395858733,4.6395884,9.486648,21.37873,7.481229,-4.9070225,-10.116912,1.9924495,-13.722051,-6.4416537,8.683738,-9.143537,12.33997,0.9952226,-2.0318592,7.569776,-3.0831933,14.038525,-29.996,67.22635,8.116465,-2.064084,-1.7339396,-8.7501135,-10.433781,34.525284,72.757065,-9.622683,1.6593046,-2.6516397
183,-0.4288810193538666,1.3957147598266602,78.472900390625,1.7970655430378686,-2.398375933744104,-91.63280661411426,4.620629,9.465938,21.374039,7.529435,-4.936312,-10.080907,1.9977517,-13.751461,-6.447175,8.68844,-9.147361,12.357289,1.0021456,-2.0433888,7.5815096,-3.072915,14.029201,-29.930662,67.19644,8.119717,-2.075583,-1.7221187,-8.740907,-10.446556,34.489243,72.75623,-9.654922,1.65046,-2.66224
184,-0.4165113866329193,1.3898512125015259,78.47344970703125,1.8067915580180431,-2.3940312839328888,-91.62083410594691,4.597712,9.446387,21.365349,7.576939,-4.9665694,-10.050161,1.9997709,-13.780168,-6.4564476,8.69536,-9.151094,12.371127,1.0068991,-2.0515978,7.5869727,-3.064167,14.02027,-29.884575,67.17227,8.107052,-2.084164,-1.7151572,-8.726577,-10.459301,34.460415,72.75457,-9.67495,1.6463642,-2.6709075
185,-0.4026086926460266,1.3818323612213135,78.47349548339844,1.8157089729385492,-2.3857429724211974,-91.60531580252999,4.570653,9.428462,21.35144,7.6197815,-4.995602,-10.027693,1.997916,-13.80708,-6.470954,8.704065,-9.154737,12.377578,1.0068436,-2.0589812,7.5827637,-3.0554178,14.017196,-29.861267,67.152626,8.069248,-2.0882466,-1.7166052,-8.711752,-10.463671,34.43955,72.762276,-9.684401,1.6517295,-2.6811762
186,-0.38974475860595703,1.373909592628479,78.47364807128906,1.8202580059891726,-2.3740093173678627,-91.58611210663338,4.535528,9.41362,21.332151,7.6690855,-5.028639,-10.009964,1.9948909,-13.832028,-6.4908886,8.710305,-9.156318,12.379224,1.0009366,-2.0601652,7.584525,-3.0485828,14.012307,-29.823408,67.12727,8.045915,-2.089543,-1.72789,-8.69841,-10.4721775,34.398808,72.76331,-9.713041,1.6623628,-2.6861513
187,-0.37131398916244507,1.3635343313217163,78.4729995727539,1.8265944004336407,-2.3621065798520764,-91.56567137202076,4.5038576,9.39413,21.312551,7.7090907,-5.0574007,-9.992406,1.9880334,-13.861108,-6.5104027,8.7244625,-9.160881,12.38356,0.99396634,-2.0646348,7.579638,-3.041989,14.010664,-29.807808,67.110825,8.004584,-2.0904057,-1.7378967,-8.685095,-10.475231,34.380238,72.77191,-9.71213,1.6716028,-2.6906805
188,-0.3544037938117981,1.356345534324646,78.47181701660156,1.834314495248143,-2.3510173698340027,-91.54420837700992,4.465183,9.374933,21.292023,7.7646165,-5.093404,-9.970958,1.9864202,-13.891625,-6.5305123,8.728221,-9.157984,12.396847,0.9918346,-2.0702367,7.587667,-3.0419931,14.007569,-29.778154,67.09587,7.991411,-2.093804,-1.7486925,-8.674784,-10.483865,34.34673,72.76909,-9.710978,1.6707251,-2.6822445
189,-0.3363528549671173,1.345960021018982,78.47034454345703,1.84812199149431,-2.3440717318287727,-91.52504893863824,4.4363604,9.347744,21.276485,7.809065,-5.1231728,-9.943525,1.9892449,-13.928673,-6.5458026,8.728655,-9.150256,12.425206,0.9954614,-2.0836034,7.5968194,-3.0441923,14.006738,-29.767797,67.09307,7.9787207,-2.1006358,-1.7583039,-8.669872,-10.48769,34.34165,72.772064,-9.659839,1.6551888,-2.6644197
190,-0.3165471851825714,1.3396598100662231,78.46825408935547,1.861708797361824,-2.3373135724148133,-91.50452879686928,4.39098,9.325863,21.257713,7.8880596,-5.1682816,-9.913151,1.9953281,-13.965514,-6.562255,8.721374,-9.136014,12.462907,0.99680203,-2.098649,7.612224,-3.0517843,14.006282,-29.751732,67.0975,7.983206,-2.1107507,-1.7723008,-8.670074,-10.4933405,34.346058,72.76958,-9.585184,1.6298118,-2.6347628
191,-0.2975207269191742,1.3365365266799927,78.4651870727539,1.8790014836451996,-2.3307772165587024,-91.48263262135615,4.3580976,9.294283,21.240633,7.9392033,-5.2011003,-9.881377,2.0004368,-14.008414,-6.578315,8.717944,-9.123779,12.502128,0.9960455,-2.1149092,7.6278934,-3.0571868,14.006337,-29.73699,67.10334,7.9819326,-2.1205041,-1.7773232,-8.671288,-10.501064,34.358078,72.769325,-9.505164,1.6022003,-2.6040633
192,-0.2776222229003906,1.3307468891143799,78.46376037597656,1.8953385765225101,-2.3209142480527665,-91.45411205751118,4.3211293,9.259552,21.217567,7.9890304,-5.234412,-9.850143,2.0022485,-14.054165,-6.6001835,8.721336,-9.118568,12.53363,0.98649496,-2.1298625,7.640368,-3.0576026,14.006779,-29.719124,67.1066,7.9644365,-2.127972,-1.762023,-8.668404,-10.506937,34.36597,72.76764,-9.446834,1.5830156,-2.5805302
193,-0.2586025893688202,1.3187916278839111,78.46294403076172,1.9120485759571333,-2.308177347160064,-91.41951296708928,4.288987,9.2169075,21.190727,8.020996,-5.260592,-9.8202095,2.001634,-14.105048,-6.626964,8.732697,-9.122383,12.552965,0.96834075,-2.1421456,7.6498814,-3.053293,14.007489,-29.696507,67.107414,7.9207916,-2.1313293,-1.709378,-8.661052,-10.515035,34.363926,72.76808,-9.42079,1.5692686,-2.5631132
194,-0.22828106582164764,1.3071820735931396,78.46253204345703,1.9298984736321587,-2.293696971731775,-91.37997043662949,4.259412,9.168265,21.160656,8.042054,-5.2824736,-9.790414,2.0007074,-14.159422,-6.657953,8.747043,-9.130684,12.56547,0.94955045,-2.1545906,7.655424,-3.0494766,14.0077505,-29.68302,67.11311,7.85502,-2.1318653,-1.6287289,-8.650195,-10.519333,34.353935,72.7741,-9.410796,1.5581958,-2.5501065
195,-0.20207026600837708,1.2947551012039185,78.46127319335938,1.9487746826523165,-2.2762716258109377,-91.33633000425657,4.225427,9.117171,21.126734,8.063071,-5.3042693,-9.75996,1.9964753,-14.217397,-6.6920686,8.765109,-9.142022,12.577561,0.93006957,-2.1674538,7.6619864,-3.0477245,14.00806,-29.664743,67.118965,7.7928886,-2.1332521,-1.5550817,-8.63789,-10.524667,34.334908,72.77688,-9.41681,1.5527047,-2.5413494
196,-0.1750391572713852,1.2855499982833862,78.46005249023438,1.9692466280424674,-2.255918148802229,-91.29021050519154,4.1866546,9.064334,21.090113,8.084717,-5.3256097,-9.727749,1.9936954,-14.275462,-6.729543,8.774225,-9.148117,12.595245,0.9141897,-2.1819434,7.6655746,-3.0497377,14.008543,-29.650751,67.12865,7.7407236,-2.1381347,-1.5202451,-8.626989,-10.529132,34.320683,72.78291,-9.419515,1.5559235,-2.542683
197,-0.1511552482843399,1.2766691446304321,78.45923614501953,1.9906168590707485,-2.2311069380339292,-91.24104232057746,4.141329,9.009486,21.05008,8.105658,-5.3451495,-9.693302,1.9845554,-14.337045,-6.7689652,8.787137,-9.155626,12.621119,0.90226525,-2.1986556,7.670211,-3.0586483,14.01017,-29.630926,67.14074,7.715189,-2.150746,-1.5526091,-8.617402,-10.535832,34.30949,72.786446,-9.429742,1.5735462,-2.55781
198,-0.12162576615810394,1.2640814781188965,78.45769500732422,2.0129349806337724,-2.202788721603683,-91.18836188719845,4.0902157,8.9529705,21.006266,8.12765,-5.3648534,-9.657337,1.9768425,-14.400226,-6.8125286,8.791193,-9.158743,12.651414,0.89093804,-2.216985,7.6703944,-3.069395,14.01279,-29.613571,67.156364,7.6982408,-2.1673424,-1.6256558,-8.609243,-10.542064,34.30971,72.79471,-9.439946,1.6035998,-2.5866835
199,-0.09530297666788101,1.2497285604476929,78.45561981201172,2.0358774436988614,-2.172954041580708,-91.13332699514456,4.034071,8.896103,20.95987,8.1544895,-5.3860865,-9.620641,1.9731914,-14.463415,-6.859623,8.784277,-9.155526,12.683576,0.8752925,-2.2355545,7.6715016,-3.076914,14.016499,-29.590734,67.16722,7.684513,-2.1829355,-1.700978,-8.601539,-10.548318,34.310513,72.79768,-9.446525,1.6335976,-2.6143699
200,-0.06686428934335709,1.2410192489624023,78.45397186279297,2.058315307145469,-2.1432489758932443,-91.0777274260976,3.9726162,8.839876,20.912466,8.192732,-5.411994,-9.583962,1.9637793,-14.528651,-6.905489,8.789265,-9.157455,12.715297,0.8569264,-2.2538989,7.671947,-3.0801136,14.019175,-29.572124,67.17461,7.657241,-2.1918583,-1.7367667,-8.5918455,-10.552032,34.301662,72.79402,-9.441093,1.6514349,-2.6287496
201,-0.03814854845404625,1.231305480003357,78.45160675048828,2.0796548012065235,-2.1148726865865664,-91.02358462171854,3.9059489,8.786613,20.865324,8.244425,-5.4428296,-9.548949,1.9551268,-14.593371,-6.9497724,8.791859,-9.155624,12.7455435,0.8316634,-2.2712014,7.6772327,-3.0785892,14.022782,-29.545498,67.17591,7.6173587,-2.190491,-1.7139672,-8.579264,-10.556575,34.270657,72.77234,-9.418685,1.6490835,-2.619441
202,-0.005313511472195387,1.2195554971694946,78.44950866699219,2.1001371074757493,-2.086248627515178,-90.96890408615016,3.827489,8.738079,20.815773,8.319793,-5.484187,-9.514772,1.9409196,-14.657496,-6.993441,8.803831,-9.157176,12.775471,0.8154291,-2.289713,7.7006526,-3.084009,14.030353,-29.508236,67.16388,7.5916004,-2.181647,-1.6618762,-8.557406,-10.565825,34.183132,72.71533,-9.417781,1.6353793,-2.5898654
203,0.026532268151640892,1.212367296218872,78.44729614257812,2.1235220981985665,-2.0562348599444755,-90.91119653004536,3.7474775,8.684307,20.7646,8.393287,-5.5244913,-9.478352,1.9100281,-14.728726,-7.0352254,8.8499565,-9.176817,12.806702,0.80066967,-2.3093846,7.712806,-3.0877337,14.036471,-29.491335,67.15807,7.545021,-2.173045,-1.6004089,-8.534626,-10.573463,34.112988,72.66956,-9.398404,1.6204064,-2.5632336
204,0.05610744282603264,1.2074567079544067,78.44437408447266,2.1505284107833322,-2.023736824517368,-90.84741201970887,3.6666358,8.621871,20.71013,8.460546,-5.562648,-9.437269,1.8519043,-14.812313,-7.0750213,8.954502,-9.229017,12.840374,0.79954743,-2.3347657,7.7229233,-3.099093,14.044108,-29.489214,67.15206,7.498795,-2.1716745,-1.5638137,-8.509403,-10.58401,34.05139,72.63137,-9.393929,1.6154234,-2.5493557
205,0.09406250715255737,1.1940803527832031,78.44237518310547,2.1787089337195256,-1.9893848160723029,-90.77523939043098,3.5892053,8.553551,20.650333,8.514692,-5.596621,-9.391671,1.8128598,-14.896951,-7.1276183,9.026743,-9.266719,12.875513,0.7882468,-2.3570871,7.718332,-3.1051733,14.047293,-29.49468,67.15291,7.447685,-2.1828208,-1.5620137,-8.501993,-10.58854,34.045948,72.635826,-9.395958,1.6260977,-2.5602322
206,0.13172641396522522,1.178714632987976,78.44032287597656,2.207708048422461,-1.9499499441464945,-90.69738577603778,3.5045226,8.481623,20.58677,8.571385,-5.632992,-9.34257,1.7719126,-14.986267,-7.1853886,9.098812,-9.305418,12.911932,0.78369915,-2.381164,7.706917,-3.116835,14.052151,-29.516586,67.15536,7.3892074,-2.2011278,-1.5809555,-8.491908,-10.595349,34.056114,72.64514,-9.410499,1.6465344,-2.5832663
207,0.1681576818227768,1.1632040739059448,78.43745422363281,2.2378927084894373,-1.911691364924748,-90.61324604903655,3.4174294,8.406801,20.51772,8.631909,-5.6711793,-9.289582,1.7402166,-15.07827,-7.2508183,9.15974,-9.339329,12.950059,0.7806751,-2.4060054,7.6961074,-3.125574,14.058187,-29.535894,67.15198,7.3330913,-2.220652,-1.6017554,-8.483301,-10.604628,34.077633,72.66203,-9.412277,1.6671731,-2.6080573
208,0.20278596878051758,1.1504112482070923,78.43303680419922,2.268978298399822,-1.8751681679995325,-90.52300016657983,3.3187683,8.331211,20.441837,8.714147,-5.7186017,-9.232066,1.7100978,-15.175786,-7.32142,9.223117,-9.374733,12.990648,0.77460736,-2.4335797,7.695105,-3.1230836,14.0687685,-29.528727,67.12464,7.286768,-2.235669,-1.609088,-8.464525,-10.625208,34.104733,72.65653,-9.376899,1.6808017,-2.620668
209,0.23973076045513153,1.141455888748169,78.42855072021484,2.3033535675480734,-1.843236042912473,-90.42603930138715,3.2095678,8.253415,20.358437,8.821792,-5.7773743,-9.168612,1.6818507,-15.280331,-7.396497,9.29384,-9.414437,13.034082,0.77885675,-2.4679852,7.7035165,-3.1297495,14.071416,-29.49878,67.10044,7.264115,-2.2430735,-1.5924666,-8.450609,-10.634189,34.108524,72.66172,-9.292026,1.683116,-2.6151338
210,0.2825320363044739,1.1343210935592651,78.4233169555664,2.3404120961819914,-1.813950648621849,-90.32254690071186,3.0907748,8.173794,20.268328,8.949445,-5.844996,-9.10001,1.6572022,-15.390753,-7.47693,9.366622,-9.456329,13.079852,0.7572827,-2.5005865,7.7308865,-3.1164367,14.074766,-29.396364,67.042404,7.279962,-2.2488797,-1.5700783,-8.440463,-10.662658,34.136745,72.642586,-9.164351,1.6799823,-2.5914488
211,0.3311581611633301,1.1261370182037354,78.41915893554688,2.3762351714216905,-1.7832377463167788,-90.21383135250395,2.961655,8.093789,20.172398,9.091554,-5.918884,-9.028731,1.6346525,-15.503598,-7.5637794,9.434226,-9.49485,13.127427,0.740829,-2.5341778,7.7574844,-3.1065853,14.073921,-29.291832,66.985306,7.2900543,-2.254239,-1.5423067,-8.426867,-10.694096,34.164196,72.62439,-9.04438,1.6743205,-2.572267
212,0.3751785159111023,1.1170791387557983,78.41358947753906,2.41169824501894,-1.7468534990479523,-90.10105795273849,2.821617,8.014993,20.071758,9.241472,-5.995035,-8.957241,1.6132358,-15.615829,-7.6581936,9.49049,-9.526177,13.176044,0.7272471,-2.5668583,7.7795014,-3.099218,14.070178,-29.190334,66.92871,7.280561,-2.262465,-1.5184984,-8.411209,-10.728234,34.19158,72.608246,-8.982414,1.6696366,-2.5726702
213,0.42110803723335266,1.1042733192443848,78.40831756591797,2.4433654799631612,-1.7044976783812884,-89.98501469427461,2.6717582,7.938092,19.966335,9.397716,-6.073519,-8.886302,1.5977386,-15.72567,-7.7633805,9.525591,-9.545426,13.225064,0.7141587,-2.5963557,7.7972136,-3.090396,14.064407,-29.088848,66.86767,7.242131,-2.274539,-1.5045552,-8.388864,-10.774149,34.22595,72.58344,-9.008505,1.6677519,-2.602342
214,0.47356122732162476,1.0939464569091797,78.40328216552734,2.474780575073923,-1.658219777721665,-89.86484474806477,2.512213,7.8617215,19.855824,9.563018,-6.155286,-8.814589,1.5859215,-15.835775,-7.877396,9.547724,-9.557182,13.275052,0.7142909,-2.6311562,7.809047,-3.088277,14.060472,-29.00234,66.81101,7.1787596,-2.2880476,-1.493893,-8.370095,-10.804748,34.246403,72.5774,-9.098345,1.6649729,-2.6549366
215,0.5174548625946045,1.0839858055114746,78.39877319335938,2.5062762230363567,-1.6073253356490085,-89.73960703122026,2.3398604,7.7855206,19.740377,9.740556,-6.2412653,-8.741483,1.5697271,-15.94688,-7.9948792,9.571167,-9.567893,13.326891,0.71388,-2.6672864,7.8190684,-3.0865061,14.0571995,-28.912453,66.75088,7.111822,-2.3026707,-1.4799206,-8.355148,-10.832859,34.26991,72.579254,-9.193798,1.6608903,-2.7112439
216,0.5719072818756104,1.0791372060775757,78.39422607421875,2.5357814610128497,-1.5512153857858768,-89.60829016788894,2.1510038,7.7087173,19.620367,9.934389,-6.332343,-8.6663685,1.5370657,-16.062048,-8.108989,9.6170845,-9.587269,13.381562,0.71224403,-2.7044277,7.829552,-3.0873065,14.054027,-28.819206,66.68756,7.057426,-2.3176847,-1.4545219,-8.342101,-10.860705,34.295483,72.58458,-9.242506,1.654214,-2.7536674
217,0.6305627226829529,1.0754474401474,78.38697814941406,2.56453384823682,-1.4872845573254239,-89.47157073770897,1.9404795,7.633362,19.497087,10.149362,-6.43014,-8.590671,1.4835739,-16.179367,-8.21538,9.687428,-9.6155615,13.440658,0.7044918,-2.7384164,7.840677,-3.0886695,14.049805,-28.716532,66.6167,7.0214686,-2.3346925,-1.4126059,-8.3286085,-10.897756,34.332787,72.58389,-9.219558,1.6482049,-2.7741742
218,0.6877462863922119,1.0737764835357666,78.37775421142578,2.592346460215111,-1.4166068044968827,-89.32957722454775,1.7119429,7.558795,19.369959,10.381201,-6.533125,-8.514221,1.4160348,-16.298252,-8.318283,9.77129,-9.647673,13.503106,0.6970718,-2.769959,7.852248,-3.0928514,14.044145,-28.61246,66.5403,6.9931498,-2.3533046,-1.3588225,-8.308652,-10.947543,34.377243,72.57135,-9.154105,1.6428014,-2.782175
219,0.7410194277763367,1.0650123357772827,78.37129211425781,2.6212569191300443,-1.344666915276358,-89.18096670108477,1.4746612,7.48092,19.23667,10.622392,-6.639207,-8.434055,1.3429726,-16.421654,-8.425586,9.866784,-9.684705,13.565699,0.70398647,-2.8087208,7.8619666,-3.1106355,14.040152,-28.527597,66.475685,6.9611893,-2.3701828,-1.3012587,-8.294403,-10.97753,34.396954,72.584854,-9.087283,1.6290346,-2.7902675
220,0.8004913926124573,1.0649787187576294,78.36331939697266,2.6516321831284415,-1.2768630141102482,-89.0240182749609,1.2356244,7.3961167,19.094273,10.870206,-6.748933,-8.346993,1.2687752,-16.555984,-8.543246,9.981019,-9.730597,13.625555,0.6978012,-2.8492534,7.8807325,-3.1220508,14.034757,-28.41779,66.40221,6.938931,-2.3822386,-1.251979,-8.282245,-11.01245,34.41514,72.59798,-9.040881,1.6034096,-2.800715
221,0.861691415309906,1.0672435760498047,78.3558578491211,2.687447132923279,-1.2168125839194617,-88.85493895667551,0.9981848,7.302154,18.938164,11.123891,-6.8623276,-8.249621,1.2097132,-16.69999,-8.681471,10.092786,-9.780462,13.680583,0.67517406,-2.8890886,7.914564,-3.1272762,14.025038,-28.273594,66.31996,6.9345036,-2.3896704,-1.2129488,-8.26606,-11.064367,34.433125,72.602745,-9.02407,1.5554872,-2.8150413
222,0.9278945922851562,1.0691235065460205,78.34613037109375,2.7247749091811535,-1.1609258019375617,-88.67576137118307,0.75696397,7.201113,18.771278,11.38731,-6.9806113,-8.14448,1.1548064,-16.85345,-8.832852,10.213773,-9.836688,13.732921,0.6587382,-2.9348485,7.9539557,-3.1406956,14.014691,-28.131872,66.2434,6.9342055,-2.3924162,-1.1774939,-8.25112,-11.106596,34.427795,72.62502,-9.028456,1.4891269,-2.8336573
223,0.9984789490699768,1.0644140243530273,78.33609771728516,2.7631166907583165,-1.1039510982962075,-88.49357377781574,0.51085603,7.0965104,18.602037,11.654536,-7.099624,-8.037425,1.0933735,-17.011438,-8.986018,10.346038,-9.895874,13.785169,0.63689107,-2.9800441,7.9959774,-3.1557727,14.000839,-27.981516,66.169365,6.931475,-2.395854,-1.1457658,-8.234711,-11.1563015,34.42144,72.63783,-9.032947,1.4258262,-2.8492093
224,1.0721534490585327,1.0645966529846191,78.32588195800781,2.7984852593405516,-1.0403845160997187,-88.31564990343227,0.25640893,6.992268,18.439167,11.924971,-7.2185407,-7.93431,1.0129832,-17.169569,-9.129299,10.494404,-9.955609,13.84002,0.6241209,-3.0272856,8.0312395,-3.180636,13.988643,-27.853558,66.10918,6.902334,-2.4040425,-1.1159458,-8.217872,-11.200371,34.402782,72.643585,-9.027463,1.3845074,-2.859969
225,1.1361801624298096,1.0719460248947144,78.31473541259766,2.8326384334390973,-0.9669744969756481,-88.14378819915507,-0.011869969,6.892071,18.283802,12.201972,-7.337489,-7.8393755,0.9087342,-17.325863,-9.259522,10.658515,-10.0139,13.89739,0.61609966,-3.0704331,8.059936,-3.2135732,13.975606,-27.741558,66.059425,6.836234,-2.4201088,-1.0915014,-8.193632,-11.255465,34.383587,72.6169,-8.997258,1.3754025,-2.858849
226,1.217016339302063,1.0757513046264648,78.30329895019531,2.8647526587945302,-0.8870343844966426,-87.97422668653269,-0.28975344,6.7923694,18.132195,12.483459,-7.456379,-7.7486424,0.7863944,-17.48255,-9.382575,10.838459,-10.073569,13.955939,0.61738604,-3.118329,8.08096,-3.25486,13.968038,-27.652016,66.0215,6.738749,-2.4402966,-1.0713195,-8.175471,-11.295893,34.35298,72.5946,-8.95585,1.3851489,-2.8537111
227,1.3019353151321411,1.082857370376587,78.29302215576172,2.898208642172398,-0.8061132042575241,-87.80540041135963,-0.5694678,6.688639,17.983671,12.765058,-7.5752897,-7.655722,0.6547991,-17.643238,-9.501129,11.031439,-10.135011,14.016403,0.6182794,-3.1651783,8.106912,-3.297213,13.959955,-27.561752,65.98255,6.6452527,-2.4616683,-1.051442,-8.1457615,-11.35198,34.314426,72.54648,-8.916375,1.403436,-2.8453279
228,1.3796429634094238,1.093153953552246,78.28152465820312,2.935346976345827,-0.7296047778240151,-87.63551842123461,-0.8445068,6.576121,17.837898,13.046263,-7.694955,-7.554289,0.5220738,-17.814802,-9.617292,11.237415,-10.200703,14.079862,0.6219494,-3.2234473,8.132272,-3.3387437,13.956271,-27.48101,65.94947,6.573504,-2.4793122,-1.0241451,-8.126529,-11.382617,34.25746,72.53154,-8.897626,1.4162863,-2.8480754
229,1.4643487930297852,1.1058059930801392,78.26898193359375,2.9759536638265653,-0.6604498346949785,-87.46528426714099,-1.1077344,6.453403,17.696516,13.3189,-7.815597,-7.440601,0.3838712,-17.996677,-9.729769,11.471211,-10.278501,14.145373,0.623783,-3.2840402,8.1730385,-3.3777864,13.951796,-27.387188,65.90954,6.549828,-2.4933321,-0.9881993,-8.096166,-11.426126,34.175064,72.503365,-8.918552,1.4234594,-2.8552654
230,1.55173921585083,1.1118576526641846,78.25340270996094,3.0200631626371077,-0.5952511434501673,-87.29515075498513,-1.3664967,6.323794,17.558874,13.590407,-7.9373446,-7.318742,0.24156596,-18.187664,-9.838691,11.721032,-10.360838,14.212949,0.62872344,-3.3489153,8.218551,-3.4176617,13.947836,-27.299585,65.87236,6.5477657,-2.5051808,-0.94485575,-8.059881,-11.467884,34.073437,72.475555,-8.962257,1.4304097,-2.8674161
231,1.6461290121078491,1.1205432415008545,78.23798370361328,3.0671029958353198,-0.5299606880598516,-87.12345874434484,-1.623781,6.1864786,17.422571,13.856801,-8.057107,-7.193917,0.09676033,-18.384586,-9.945631,11.975249,-10.442795,14.283975,0.63886064,-3.415725,8.268505,-3.4628384,13.943418,-27.218037,65.83692,6.553617,-2.5157218,-0.9031236,-8.0133,-11.523832,33.958645,72.43048,-9.002676,1.4372792,-2.880482
232,1.7433950901031494,1.1372967958450317,78.22200012207031,3.11554628346843,-0.46036979532267736,-86.94879206435495,-1.884474,6.0415306,17.284973,14.118658,-8.174024,-7.0714984,-0.051467363,-18.589205,-10.050667,12.228046,-10.522313,14.360361,0.64467865,-3.489417,8.311374,-3.5082514,13.941176,-27.139149,65.80656,6.5487485,-2.525483,-0.8695199,-7.977721,-11.566334,33.851208,72.399055,-9.011891,1.4430614,-2.8984015
233,1.8414791822433472,1.147890567779541,78.2039794921875,3.1688744943621767,-0.3841769344873333,-86.76842379801185,-2.1495326,5.885285,17.14401,14.372084,-8.286311,-6.9530964,-0.19970325,-18.801226,-10.155602,12.46852,-10.595489,14.444591,0.65182406,-3.5666137,8.351384,-3.5579362,13.94037,-27.064062,65.77484,6.5328264,-2.5331738,-0.85119796,-7.933992,-11.625023,33.75163,72.34659,-8.974874,1.4518039,-2.9147043
234,1.9388999938964844,1.1610934734344482,78.18647766113281,3.2257632745547022,-0.30398471511353226,-86.58392072570061,-2.4170346,5.719072,17.001766,14.619634,-8.396141,-6.8358226,-0.3548084,-19.023607,-10.257311,12.716078,-10.671925,14.535129,0.6536141,-3.6522052,8.384472,-3.6067533,13.941708,-26.98768,65.746864,6.514065,-2.5387616,-0.8412991,-7.9030776,-11.672322,33.662548,72.311485,-8.907405,1.4614348,-2.9354212
235,2.042214870452881,1.179774522781372,78.17107391357422,3.2839039776008905,-0.22329836217130003,-86.4001991592501,-2.6855347,5.5498304,16.861298,14.8675585,-8.505253,-6.7178907,-0.5109161,-19.247663,-10.357586,12.961464,-10.742372,14.626976,0.64913964,-3.742616,8.4128065,-3.6542556,13.944041,-26.914764,65.727005,6.487598,-2.5455687,-0.8309355,-7.886905,-11.698668,33.573162,72.29728,-8.830526,1.4658799,-2.964012
236,2.1547200679779053,1.1939369440078735,78.15176391601562,3.3365916049717876,-0.1455320896879988,-86.2218963537061,-2.952874,5.3848796,16.725748,15.12099,-8.615496,-6.597672,-0.66746837,-19.46851,-10.455531,13.206495,-10.803511,14.715411,0.6509143,-3.8277314,8.458699,-3.7045817,13.952101,-26.845573,65.69886,6.459969,-2.5575318,-0.81758744,-7.8537097,-11.747561,33.444263,72.2391,-8.77778,1.4598447,-2.992276
237,2.2643280029296875,1.21454656124115,78.13439178466797,3.3834316233200914,-0.07170396069176962,-86.0515776748865,-3.22157,5.229027,16.596622,15.388779,-8.730173,-6.47566,-0.82730705,-19.681469,-10.548682,13.4556,-10.855724,14.798096,0.6573093,-3.908009,8.514015,-3.757636,13.965514,-26.799381,65.67209,6.40766,-2.5762346,-0.79015523,-7.814443,-11.798902,33.294697,72.16594,-8.745528,1.4326645,-3.0266182
238,2.3677263259887695,1.2568789720535278,78.11836242675781,3.4270172081370456,0.00014716024542453274,-85.88643897735496,-3.4909117,5.0769377,16.472166,15.66379,-8.846602,-6.3523316,-0.99151576,-19.891706,-10.6374,13.709873,-10.901835,14.878,0.66243356,-3.9878364,8.573634,-3.8123586,13.981402,-26.76292,65.650246,6.3410463,-2.5996644,-0.7542805,-7.7831306,-11.840537,33.133793,72.09794,-8.72193,1.3900135,-3.0678535
239,2.484874725341797,1.2649247646331787,78.09945678710938,3.468913674044155,0.07114497186671549,-85.72268690106186,-3.7583268,4.922457,16.350016,15.936378,-8.961717,-6.225972,-1.1538936,-20.103506,-10.727247,13.959454,-10.940062,14.957304,0.6632854,-4.0695944,8.635614,-3.8623822,13.999007,-26.7195,65.62912,6.284854,-2.6247642,-0.7226635,-7.7521524,-11.876597,32.945583,72.02038,-8.706255,1.3511153,-3.1133997
240,2.603445291519165,1.2839195728302002,78.08148193359375,3.511503911607758,0.1425281691518977,-85.55702217986396,-4.0226903,4.760232,16.227558,16.199238,-9.073925,-6.09517,-1.3136269,-20.31577,-10.820769,14.202929,-10.973226,15.000033,0.6697417,-4.1550407,8.704947,-3.90392,14.025149,-26.664938,65.59462,6.260853,-2.647921,-0.7100665,-7.695065,-11.925799,32.695217,71.8895,-8.702589,1.3354902,-3.156858
241,2.7239975929260254,1.3014073371887207,78.06147766113281,3.5486347897399537,0.2151238244256145,-85.38695472888087,-4.2981706,4.6024866,16.098333,16.479181,-9.195382,-5.962077,-1.4674356,-20.519686,-10.924681,14.434786,-10.997954,15.000033,0.648759,-4.237484,8.763981,-3.9261615,14.03965,-26.544058,65.56953,6.2975483,-2.673412,-0.7199899,-7.6521363,-11.954001,32.417965,71.76091,-8.697077,1.3597778,-3.2004251
