unveil-humanoid-operators/unveil-humanoid-operators.github.io/feature-analysis-animation/data/feature_matrix_instances/age_waist_mean_vel_jogging_A063_jog_ff_loop_360_002__A063.csv
Frame,root_translateX,root_translateY,root_translateZ,root_rotateX,root_rotateY,root_rotateZ,left_hip_pitch_joint_dof,left_hip_roll_joint_dof,left_hip_yaw_joint_dof,left_knee_joint_dof,left_ankle_pitch_joint_dof,left_ankle_roll_joint_dof,right_hip_pitch_joint_dof,right_hip_roll_joint_dof,right_hip_yaw_joint_dof,right_knee_joint_dof,right_ankle_pitch_joint_dof,right_ankle_roll_joint_dof,waist_yaw_joint_dof,waist_roll_joint_dof,waist_pitch_joint_dof,left_shoulder_pitch_joint_dof,left_shoulder_roll_joint_dof,left_shoulder_yaw_joint_dof,left_elbow_joint_dof,left_wrist_roll_joint_dof,left_wrist_pitch_joint_dof,left_wrist_yaw_joint_dof,right_shoulder_pitch_joint_dof,right_shoulder_roll_joint_dof,right_shoulder_yaw_joint_dof,right_elbow_joint_dof,right_wrist_roll_joint_dof,right_wrist_pitch_joint_dof,right_wrist_yaw_joint_dof
0,-0.3285917341709137,-2.9223220348358154,71.38282775878906,-0.8220925448080529,-6.284966776369374,90.01505334570557,-18.917002,5.937944,-6.732299,93.42186,-24.583872,1.0733169,-19.30648,0.13404985,-5.6146154,56.359474,-31.760485,0.11389178,-5.752092,2.8041172,14.093382,-3.4954245,18.961126,-36.110977,7.8455563,15.226799,2.630473,16.017906,6.7191763,-16.127909,19.050333,27.236225,-6.9501324,-3.1273224,-0.7778094
1,-0.3903272747993469,-4.133814811706543,71.7770004272461,-0.885344965534783,-6.133319343288889,89.97397721636821,-17.1115,6.1390305,-6.3303385,92.52801,-24.589537,1.0574728,-19.842527,0.23440747,-5.5167413,54.457523,-29.52381,0.026091145,-6.135,2.7791593,13.61922,-4.2431087,19.164196,-37.048996,7.778547,15.417288,2.2494931,15.301233,8.299448,-16.087679,18.685724,26.71109,-6.499552,-2.587258,-1.324738
2,-0.4694807231426239,-5.354233264923096,72.20156860351562,-0.9601333915562758,-5.9859339522230695,89.93775906429208,-15.28879,6.361356,-5.918579,91.675385,-24.626528,1.0721391,-20.396866,0.35653156,-5.4656396,52.60263,-27.32761,-0.08632764,-6.4718895,2.7516766,13.166916,-4.999052,19.464647,-38.08737,7.62229,15.579992,1.8707025,14.591408,9.943066,-16.00879,18.255526,26.133139,-6.0281844,-2.0321565,-1.891078
3,-0.5521148443222046,-6.580551624298096,72.65959930419922,-1.009099280440257,-5.832635163648119,89.89417130814678,-13.485195,6.49248,-5.496295,90.71852,-24.585264,1.0393184,-20.890985,0.4663816,-5.38528,50.62351,-25.054932,-0.1558898,-6.8046927,2.6815062,12.727018,-5.6602635,19.82401,-39.061726,7.35825,15.692692,1.501703,13.904125,11.535764,-15.898531,17.827824,25.554682,-5.6181974,-1.5289373,-2.3986597
4,-0.6437855958938599,-7.80181360244751,73.15328216552734,-0.9984494916562756,-5.662245515377183,89.83087337291553,-11.742821,6.42161,-5.0701637,89.51624,-24.359867,0.8836156,-21.2524,0.5341429,-5.1969185,48.353172,-22.583174,-0.11420296,-7.1302133,2.5363503,12.290346,-6.1630335,20.204401,-39.860264,6.991942,15.7243,1.1534001,13.265127,13.011287,-15.76563,17.413332,24.988024,-5.361043,-1.1438631,-2.7562
5,-0.7405579686164856,-9.034552574157715,73.66275024414062,-0.9196730921717288,-5.465226537120224,89.73296991492063,-10.062649,6.1266193,-4.6293836,88.00311,-23.953339,0.5947463,-21.477674,0.5852544,-4.837578,45.738632,-19.8534,-0.038137503,-7.4397616,2.3130767,11.836885,-6.5090566,20.57705,-40.45048,6.5612016,15.71841,0.82114506,12.64128,14.353027,-15.620095,17.02423,24.451971,-5.32439,-0.88583595,-2.9466197
6,-0.8465684652328491,-10.28191089630127,74.18328857421875,-0.7915339898749955,-5.248421728058222,89.61172439809972,-8.43137,5.6669707,-4.1915407,86.26381,-23.417334,0.21432526,-21.603128,0.62756866,-4.360108,42.87114,-16.937593,0.06916362,-7.7418075,2.0379643,11.367979,-6.7500677,20.92888,-40.887417,6.1024547,15.686358,0.5002859,12.029513,15.59893,-15.468231,16.655405,23.937897,-5.444264,-0.7188549,-3.015372
7,-0.9611691236495972,-11.527876853942871,74.70118713378906,-0.6191466157252862,-5.026821216028724,89.49473041868245,-6.869395,5.0556245,-3.8119228,84.38122,-22.721018,-0.25710967,-21.611137,0.6129098,-3.8454547,39.7858,-13.906363,0.38767907,-8.051995,1.7191122,10.906518,-6.9009247,21.252232,-41.19895,5.6184654,15.545033,0.20440903,11.501581,16.768509,-15.312011,16.28052,23.414568,-5.617779,-0.6424455,-2.9630356
8,-1.0802818536758423,-12.782840728759766,75.20992279052734,-0.40598939132174483,-4.816119626907292,89.41051331028838,-5.3934255,4.3022723,-3.5439236,82.43595,-21.831139,-0.8226629,-21.478073,0.499956,-3.3593514,36.49901,-10.815743,1.0997646,-8.387708,1.3604947,10.47665,-6.972577,21.544182,-41.411846,5.104858,15.211343,-0.05186611,11.128539,17.881664,-15.14968,15.874914,22.847513,-5.7417336,-0.6545865,-2.7911422
9,-1.199934482574463,-14.047050476074219,75.69647216796875,-0.13859348201911809,-4.616998082272826,89.36011449343845,-3.9978554,3.3539364,-3.4134583,80.403175,-20.64664,-1.582178,-21.19491,0.2803906,-2.8527544,32.928764,-7.455438,2.1163206,-8.756308,0.94720906,10.07921,-6.9509273,21.80022,-41.50979,4.5597153,14.658854,-0.24776597,10.930708,18.9427,-14.978261,15.417406,22.228357,-5.819191,-0.79052377,-2.448081
10,-1.326093316078186,-15.325945854187012,76.15665435791016,0.1872492143666321,-4.424452359345137,89.33311669035507,-2.6687682,2.2183132,-3.4080715,78.2468,-19.221107,-2.5059636,-20.76549,-0.016973788,-2.2750235,29.062408,-3.848889,3.39408,-9.147762,0.47701883,9.701403,-6.8410225,22.015913,-41.48898,3.9951558,13.936176,-0.3970204,10.869581,19.944487,-14.796119,14.922822,21.572514,-5.8931236,-1.0396787,-1.9506637
11,-1.4675315618515015,-16.60639190673828,76.5771484375,0.5674325032226811,-4.249616595082187,89.34501124631454,-1.4064656,0.9852653,-3.5115862,76.03076,-17.7394,-3.398802,-20.159466,-0.3852643,-1.6675562,24.973396,-0.3666946,5.1918535,-9.554224,-0.045784518,9.348178,-6.6838236,22.193241,-41.39824,3.4268014,13.070579,-0.5369988,10.927183,20.887197,-14.606933,14.416226,20.886383,-5.924053,-1.3320833,-1.4029139
12,-1.6175326108932495,-17.88384246826172,76.94345092773438,1.0198886347627272,-4.109908295979535,89.41694291555037,-0.20373623,-0.27325362,-3.6915202,73.81316,-16.376568,-4.054406,-19.30748,-0.84625953,-1.0692002,20.672249,2.6557372,7.77597,-9.973638,-0.63932174,9.027517,-6.5173907,22.339067,-41.286266,2.8639507,12.0882015,-0.7052691,11.084392,21.777369,-14.414662,13.925168,20.16896,-5.8729877,-1.5963277,-0.90794766
13,-1.775046467781067,-19.151411056518555,77.23572540283203,1.6969537791546363,-4.042285513516271,89.60065365692745,0.9854176,-1.7785534,-3.9893856,71.54944,-15.076637,-4.409279,-17.870039,-1.6211973,-0.53995115,15.516767,5.3454523,11.945155,-10.457116,-1.4689239,8.732718,-6.316617,22.463537,-41.1525,2.2815607,10.882928,-0.9109889,11.354403,22.670532,-14.218246,13.431173,19.368713,-5.700088,-1.8249791,-0.44876042
14,-1.8820103406906128,-20.417179107666016,77.43372344970703,2.4880053355064122,-4.090975100243184,89.83122107150798,2.2418427,-3.381816,-4.4523396,69.26275,-13.83864,-4.641795,-15.476666,-2.4376712,-0.539152,8.725159,8.3718405,15.000033,-10.95173,-2.462942,8.519524,-6.0607724,22.58178,-40.97525,1.6663815,9.477981,-1.1380854,11.731774,23.59399,-14.010137,12.937032,18.455368,-5.4355483,-2.0457819,0.012633298
15,-1.912207007408142,-21.704975128173828,77.54996490478516,3.163420604061167,-4.222601466932204,90.0148304926357,3.5198047,-4.6749825,-4.9529557,67.069595,-12.829122,-4.7965136,-14.897607,-2.897874,-0.89074403,6.1113176,9.037679,15.000033,-11.352884,-3.3999577,8.421216,-5.7915277,22.706251,-40.77206,1.040287,8.095,-1.3853285,12.175724,24.478542,-13.793033,12.493778,17.49488,-5.152451,-2.2448137,0.40681452
16,-1.970710277557373,-23.013500213623047,77.63922119140625,3.6753542088491327,-4.30229833595137,90.190295985641,4.6278,-5.548229,-5.288734,64.928764,-12.010727,-4.7554183,-15.420797,-3.2445168,-0.6932031,5.9955506,8.435324,15.000033,-11.725012,-4.113731,8.350381,-5.5681825,22.760849,-40.52968,0.48265597,6.9607105,-1.6594262,12.668197,25.158566,-13.674541,12.173554,16.628748,-4.878865,-2.4149976,0.66199625
17,-2.0825185775756836,-24.35317611694336,77.71726989746094,3.856300454704135,-4.260572578784834,90.34261551407565,5.4800906,-5.7768717,-5.3881974,62.865845,-11.496179,-4.5432544,-15.986066,-3.3409452,0.2009707,6.020236,7.675823,15.000033,-11.988033,-4.4360933,8.312408,-5.4289303,22.800987,-40.2961,-0.044821784,6.091029,-1.9718723,13.232014,25.577599,-13.556393,11.898394,15.916017,-4.6616917,-2.5646174,0.7799917
18,-2.2219552993774414,-25.71007537841797,77.76948547363281,3.8092272673001526,-4.137535125124874,90.47244243774244,6.1296988,-5.551922,-5.2974105,60.863224,-11.223833,-4.1791186,-16.539816,-3.279446,1.4992212,6.125594,6.7190304,15.000033,-12.160587,-4.4881425,8.311543,-5.3445973,22.81715,-40.056103,-0.5431779,5.3823404,-2.319219,13.875896,25.778322,-13.441659,11.669394,15.323409,-4.46968,-2.6983104,0.78667086
19,-2.3877763748168945,-27.096837997436523,77.78707122802734,3.6056494534182733,-3.9585505397612737,90.54834237177687,6.5979257,-5.0254087,-5.0513678,58.954384,-11.050966,-3.6851602,-17.008461,-3.1424575,2.6443508,6.243702,5.8756022,15.000033,-12.23222,-4.3618956,8.335768,-5.287606,22.798792,-39.80442,-0.9779813,4.858316,-2.6679385,14.54664,25.770657,-13.353228,11.517867,14.873539,-4.329054,-2.8170521,0.7040384
20,-2.5518240928649902,-28.512235641479492,77.75431823730469,3.315450450630232,-3.7943996270559563,90.5579570339682,6.959024,-4.343078,-4.7118015,57.170135,-10.839088,-3.0771317,-17.285357,-3.011885,3.0986035,6.3579526,5.354357,15.000033,-12.205827,-4.1652336,8.41528,-5.2484765,22.715328,-39.52209,-1.2886746,4.551696,-2.9831858,15.169476,25.5242,-13.26095,11.46066,14.640404,-4.3078184,-2.9255862,0.55476534
21,-2.7123420238494873,-29.94547462463379,77.67288970947266,2.9678013968173635,-3.6716190646463036,90.484649228904,7.194015,-3.4581013,-4.135022,55.581326,-10.335321,-2.205256,-17.3358,-2.9528039,2.685456,6.5248375,5.152637,15.000033,-12.0632715,-3.919349,8.574559,-5.2317843,22.548332,-39.217262,-1.463584,4.535701,-3.2821107,15.763768,25.058674,-13.23029,11.529513,14.593847,-4.364509,-3.0266733,0.29559964
22,-2.8827712535858154,-31.395376205444336,77.55030059814453,2.5339583933016194,-3.575034146230583,90.35334440821279,7.3040485,-2.3436856,-3.335226,54.160336,-9.710103,-1.1125447,-17.742973,-2.9020958,1.7634495,7.9203115,4.5101466,15.000033,-11.835673,-3.576811,8.812139,-5.2303047,22.313341,-38.876648,-1.5445383,4.773084,-3.5684707,16.352219,24.387074,-13.272879,11.708754,14.695735,-4.47851,-3.116472,-0.06770818
23,-3.061178684234619,-32.853240966796875,77.37904357910156,2.1239402861553844,-3.505707091960899,90.23952171316321,7.396314,-1.3249161,-2.6262486,52.718025,-9.394326,-0.07993165,-19.84407,-2.946277,0.6749237,13.2877,1.8920795,15.000033,-11.605681,-3.2533422,9.076554,-5.2312293,22.021729,-38.51789,-1.5480747,5.115389,-3.7835531,16.911198,23.595625,-13.368186,11.953514,14.869541,-4.675706,-3.1788263,-0.44736946
24,-3.2381575107574463,-34.294403076171875,77.14663696289062,1.7957746850185072,-3.44557137955762,90.2034855934872,7.5485854,-0.6707032,-2.341958,51.068596,-9.797322,0.58750594,-21.611202,-3.1994457,-0.44429818,18.18944,-0.40235075,15.000033,-11.430468,-3.0059056,9.316245,-5.224877,21.692127,-38.168957,-1.4949417,5.4096603,-3.872371,17.41953,22.762867,-13.490032,12.207774,15.0484705,-4.9851713,-3.1991613,-0.7523689
25,-3.3963778018951416,-35.74641799926758,76.83450317382812,1.4535875002560015,-3.359476978705805,90.22568506599524,7.8428845,-0.35579106,-2.6911812,48.963814,-11.085918,0.79289526,-23.169073,-3.5233085,-1.7609241,22.845299,-2.417117,14.812315,-11.290518,-2.744919,9.5128145,-5.1950946,21.335005,-37.830822,-1.3940167,5.627161,-3.8126135,17.889017,21.855396,-13.623782,12.477924,15.293291,-5.4775,-3.1569052,-0.9820815
26,-3.5354700088500977,-37.20420455932617,76.46156311035156,1.0271918282167882,-3.260582026508269,90.25871645369169,8.206044,-0.14889659,-3.4642847,46.581608,-13.021569,0.6884787,-24.5738,-3.8456378,-3.4326544,27.460705,-4.2521763,13.915927,-11.134912,-2.4083343,9.706575,-5.151086,20.954897,-37.49634,-1.241962,5.839704,-3.635809,18.32547,20.838545,-13.765265,12.7843275,15.629012,-6.1240487,-3.0653968,-1.1749055
27,-3.6830523014068604,-38.67315673828125,76.03052520751953,0.6480587097847357,-3.1800313628641033,90.34336281475403,8.460744,-0.066583164,-4.375734,44.331116,-15.352817,0.37814906,-25.861315,-4.313334,-5.024484,32.105824,-6.065894,13.107808,-10.991297,-2.1167083,9.910618,-5.120956,20.561092,-37.18441,-1.0434022,6.0444064,-3.3714619,18.70138,19.774965,-13.9066105,13.084649,15.948127,-6.806388,-2.9644675,-1.2973214
28,-3.826345443725586,-40.14346694946289,75.56083679199219,0.34429437822251585,-3.1537165560433413,90.48360968917807,8.420741,0.002301109,-5.138727,42.693684,-17.894457,-0.094491385,-26.97605,-4.8558354,-6.268176,36.650307,-7.9058037,12.244019,-10.847174,-1.8929821,10.165219,-5.1319103,20.166546,-36.91945,-0.8060583,6.238964,-3.048785,18.99005,18.73316,-14.037897,13.329172,16.136862,-7.409385,-2.8952627,-1.316818
29,-3.95505690574646,-41.59960174560547,75.07148742675781,0.06572903537061468,-3.206918012057768,90.6763225392503,8.042818,0.14492399,-5.7239227,41.831814,-20.897978,-0.8746086,-27.929983,-5.3799996,-7.112369,41.17383,-9.814849,11.253951,-10.696676,-1.6985468,10.508951,-5.1813197,19.78044,-36.697704,-0.5808201,6.4030333,-2.6083074,19.157393,17.718393,-14.159841,13.50435,16.144876,-7.9518204,-2.846779,-1.1805416
30,-4.075202941894531,-43.06281661987305,74.55074310302734,-0.1994686409424556,-3.3108413311945966,90.91482421004433,7.399275,0.32928,-6.2276344,41.507027,-24.38196,-1.9256701,-28.75826,-5.8787975,-7.705237,45.71971,-11.755971,10.237291,-10.5398655,-1.5189153,10.913481,-5.250123,19.406246,-36.51206,-0.36122218,6.542652,-2.0574737,19.228508,16.694654,-14.274547,13.631895,16.042149,-8.481776,-2.8081949,-0.9199674
31,-4.184103012084961,-44.52791976928711,74.01197814941406,-0.37426447643238975,-3.421517974617826,91.19833247617423,6.4775214,0.45021686,-6.581876,41.614693,-27.824766,-2.9497702,-29.456476,-6.4084578,-8.075847,50.125607,-13.668212,9.309836,-10.369783,-1.41604,11.320006,-5.3444314,19.048683,-36.38263,-0.066307865,6.693529,-1.5259528,19.265022,15.671452,-14.368057,13.712374,15.893588,-8.929218,-2.8199599,-0.63150954
32,-4.279656410217285,-45.98920822143555,73.47782897949219,-0.38300615421745543,-3.495345282641113,91.52551195599548,5.2832503,0.38017166,-6.766696,42.032425,-30.7002,-3.648574,-30.02666,-7.03926,-8.253645,54.245605,-15.501276,8.581004,-10.1716585,-1.4522558,11.669959,-5.4765477,18.712944,-36.33556,0.39002424,6.8902674,-1.1426772,19.32938,14.65682,-14.415894,13.740237,15.768544,-9.228119,-2.9208083,-0.41202754
33,-4.353269100189209,-47.443851470947266,72.97032165527344,-0.13746017218117107,-3.5079359812131803,91.91876633582503,3.741939,0.0023866778,-6.7503557,42.802494,-32.90899,-3.8935854,-30.534786,-7.868002,-8.173076,58.126266,-17.309221,8.127757,-9.932271,-1.7151958,11.939403,-5.7071342,18.405544,-36.41592,1.057932,7.089075,-0.98063356,19.446508,13.651605,-14.392258,13.676879,15.669059,-9.31171,-3.1620028,-0.2754408
34,-4.411545276641846,-48.88288497924805,72.51614379882812,0.29532024753306113,-3.4894044045204335,92.36809751650476,1.8755349,-0.5961057,-6.575063,43.96996,-34.730556,-3.8613474,-30.975119,-8.818727,-7.8539085,61.851063,-19.111639,7.879153,-9.645121,-2.1525712,12.16533,-6.0190234,18.128782,-36.608215,1.8881724,7.28785,-0.9570487,19.584192,12.6451435,-14.293059,13.5207615,15.578254,-9.243937,-3.509166,-0.17391355
35,-4.464195251464844,-50.315189361572266,72.12008666992188,0.7604873889028344,-3.4754215754399964,92.82726657491818,-0.13858928,-1.2476965,-6.3567863,45.359165,-36.17498,-3.7123084,-31.231321,-9.72253,-7.4561715,65.30517,-20.802618,7.715769,-9.316418,-2.616602,12.377434,-6.298908,17.879616,-36.840836,2.8139627,7.5856724,-0.96713734,19.71682,11.626864,-14.135434,13.330384,15.535199,-9.15165,-3.871246,-0.11175283
36,-4.514026165008545,-51.71657180786133,71.7748794555664,1.1025915155299049,-3.498081368688391,93.25047530316836,-2.1185617,-1.7885131,-6.211557,46.79862,-37.249943,-3.6076016,-31.1876,-10.418745,-7.138723,68.3737,-22.274164,7.514783,-8.963606,-2.9549854,12.600795,-6.427733,17.652912,-37.03486,3.766949,8.080954,-0.9065586,19.816147,10.584479,-13.949942,13.178818,15.576945,-9.154328,-4.156367,-0.095165305
37,-4.5652008056640625,-53.09909439086914,71.47589111328125,1.2797632613595948,-3.5495978914064703,93.66711635506705,-4.106711,-2.2044766,-6.192521,48.382824,-37.91005,-3.56235,-30.82186,-10.88772,-6.944057,71.051,-23.500841,7.2444224,-8.643015,-3.1180902,12.831865,-6.36965,17.444168,-37.1637,4.7891583,8.882972,-0.7696913,19.87095,9.495515,-13.739559,13.076094,15.7570715,-9.303436,-4.344116,-0.13911225
38,-4.596431255340576,-54.44058609008789,71.23735046386719,1.373673629108708,-3.615589460353553,94.08896542611431,-6.1630263,-2.577203,-6.2318935,50.146313,-38.161167,-3.5103178,-30.200718,-11.217667,-6.7911425,73.407364,-24.543797,6.9671035,-8.340531,-3.1839774,13.055382,-6.1816335,17.25338,-37.262035,5.8946476,9.912658,-0.60546243,19.894157,8.366597,-13.501839,13.0025215,16.044762,-9.521157,-4.4806156,-0.2371043
39,-4.608212947845459,-55.73607635498047,71.06428527832031,1.4122285125115288,-3.715423911881748,94.44376832354526,-8.127682,-2.886983,-6.271729,51.82739,-38.090343,-3.4834766,-29.343277,-11.413458,-6.650785,75.43858,-25.423141,6.69514,-7.9762025,-3.1840878,13.277643,-5.8740015,17.083117,-37.335365,6.9625864,10.9855995,-0.3923735,19.891531,7.238157,-13.267878,12.997316,16.337519,-9.724883,-4.574327,-0.36370742
40,-4.617191314697266,-57.01350402832031,70.9487533569336,1.4243255835097048,-3.8692388852016646,94.6591590003747,-9.845842,-3.1090071,-6.2576723,53.173748,-37.791092,-3.5080266,-28.270248,-11.478064,-6.492851,77.13851,-26.158367,6.4425855,-7.479218,-3.1422973,13.508314,-5.4448256,16.938795,-37.377995,7.8549705,11.917835,-0.10958052,19.868141,6.159315,-13.090594,13.1074295,16.514896,-9.822038,-4.633218,-0.49410537
41,-4.635744571685791,-58.25560760498047,70.90509796142578,1.3873112691591214,-4.110835622485534,94.6951031288428,-11.277895,-3.2091107,-6.1892223,54.1953,-37.24086,-3.6022859,-26.92285,-11.356685,-6.308718,78.478386,-26.763182,6.227557,-6.8138776,-3.0185719,13.791609,-4.852357,16.822714,-37.366528,8.5022955,12.749384,0.3139266,19.804836,5.167288,-13.006741,13.349115,16.493015,-9.788369,-4.622772,-0.63461286
42,-4.651816368103027,-59.478050231933594,70.91730499267578,1.2979492162568564,-4.4194416994745405,94.59833549368864,-12.508324,-3.2090719,-6.100253,55.00526,-36.408485,-3.744692,-25.317856,-11.073367,-6.105612,79.4748,-27.223223,6.0361557,-6.039075,-2.794851,14.110118,-4.091078,16.735271,-37.29572,8.956989,13.5486355,0.8424873,19.701023,4.244347,-13.01679,13.713955,16.320124,-9.65051,-4.5497694,-0.7938656
43,-4.667508602142334,-60.68124008178711,70.98823547363281,1.2058349176129803,-4.732617148194768,94.4258886273923,-13.565259,-3.16293,-5.986744,55.498016,-35.368786,-3.9001112,-23.58864,-10.745296,-5.882301,80.18839,-27.51243,5.835819,-5.2253327,-2.5318646,14.38309,-3.2162664,16.68063,-37.186954,9.265391,14.171045,1.3383298,19.594572,3.3555567,-13.116643,14.210711,16.076176,-9.395095,-4.485599,-0.9501318
44,-4.662755012512207,-61.865936279296875,71.1231918334961,1.1616396023171511,-4.987929666953067,94.23372404668551,-14.475074,-3.1234782,-5.842184,55.566418,-34.20107,-4.0325484,-21.866623,-10.485231,-5.646672,80.677345,-27.60587,5.5947556,-4.4412627,-2.2955766,14.534406,-2.2810516,16.665281,-37.06199,9.470659,14.470701,1.6653584,19.529106,2.4663606,-13.299176,14.846626,15.840557,-9.010273,-4.501402,-1.0811566
45,-4.650334358215332,-63.031490325927734,71.31790161132812,1.1905891917694293,-5.175468800459868,93.9894912134384,-15.205219,-3.0900736,-5.6166873,55.13254,-32.92651,-4.1242657,-20.155735,-10.328909,-5.3927336,80.94713,-27.514174,5.3160815,-3.6626678,-2.1163483,14.540903,-1.2722461,16.695496,-36.927155,9.570207,14.305922,1.745679,19.550564,1.5416977,-13.574887,15.689516,15.658672,-8.402907,-4.6357446,-1.2553633
46,-4.645070552825928,-64.17454528808594,71.57421112060547,1.2616263776322978,-5.325652086459558,93.67869759285878,-15.754449,-3.0353315,-5.3297544,54.27121,-31.505543,-4.1947913,-18.400023,-10.214637,-5.1233525,80.97284,-27.244812,5.0131545,-2.871576,-1.9576778,14.449816,-0.15876253,16.77273,-36.763275,9.525605,13.786667,1.6654667,19.625935,0.6053068,-13.942359,16.722584,15.471947,-7.6042304,-4.8459587,-1.4572536
47,-4.625060558319092,-65.30765533447266,71.88036346435547,1.3426773135871635,-5.437216132800895,93.38342808609006,-16.195866,-2.9721012,-5.0751076,53.103546,-29.918184,-4.265959,-16.636267,-10.1027,-4.868473,80.76464,-26.766466,4.669084,-2.1348112,-1.7948807,14.2918825,1.0211476,16.894327,-36.56518,9.341365,13.144913,1.5364778,19.682837,-0.28643218,-14.368151,17.812523,15.209546,-6.7988048,-5.0781116,-1.5387126
48,-4.598002910614014,-66.43758392333984,72.23751831054688,1.3990514677702355,-5.5091058009970855,93.18586791288512,-16.6009,-2.9175887,-4.945324,51.745636,-28.143057,-4.3599887,-14.901254,-9.949806,-4.6589584,80.333435,-26.047045,4.2659173,-1.5090066,-1.611147,14.092652,2.2139802,17.05499,-36.33766,9.04584,12.612511,1.4736845,19.653027,-1.0788522,-14.806181,18.809776,14.816746,-6.1845784,-5.2745166,-1.3536415
49,-4.553213119506836,-67.56140899658203,72.63260650634766,1.4221343937293598,-5.537696309403988,93.11364552204253,-16.976713,-2.8851323,-4.9624863,50.196323,-26.182245,-4.466597,-13.185285,-9.742399,-4.510964,79.67421,-24.968225,3.772391,-1.0131177,-1.4141723,13.829339,3.4216335,17.251665,-36.08479,8.654335,12.197235,1.5178045,19.524948,-1.7780858,-15.231745,19.68959,14.315817,-5.86513,-5.4142294,-0.80625355
50,-4.490759372711182,-68.68411254882812,73.06509399414062,1.4301415202302867,-5.524974606557285,93.12059179951495,-17.286531,-2.8692338,-5.0725317,48.400204,-24.044237,-4.5778112,-11.475545,-9.501347,-4.4129086,78.78713,-23.583479,3.2043061,-0.60707265,-1.2220759,13.492706,4.6563606,17.483519,-35.80713,8.171493,11.794764,1.6070756,19.335506,-2.4237623,-15.645515,20.51339,13.757145,-5.735117,-5.529609,0.006192443
51,-4.407429218292236,-69.80054473876953,73.5296630859375,1.4262084675779043,-5.478878224361155,93.1784630332463,-17.539598,-2.8611252,-5.256717,46.398655,-21.711214,-4.719227,-9.805418,-9.233181,-4.350282,77.69609,-22.118107,2.6143496,-0.2566362,-1.030998,13.127402,5.87494,17.74745,-35.50791,7.615637,11.468993,1.7034138,19.092081,-3.003936,-16.04124,21.256805,13.124793,-5.679277,-5.6418805,0.9376874
52,-4.3123064041137695,-70.93495178222656,74.01583099365234,1.4139320730400406,-5.4071457561671075,93.25884138847263,-17.746477,-2.8476567,-5.4995127,44.232834,-19.16264,-4.9176564,-8.206156,-8.941855,-4.3033285,76.42059,-20.798788,2.0559523,0.077551134,-0.83722675,12.776165,7.0257187,18.038467,-35.198986,7.01533,11.283255,1.7680836,18.80227,-3.5025368,-16.408232,21.889137,12.402737,-5.584186,-5.7702975,1.8431324
53,-4.20850133895874,-72.08364868164062,74.52128601074219,1.3923987897985317,-5.308481843803891,93.3691290620723,-17.887053,-2.8301485,-5.8351936,41.855232,-16.366802,-5.174204,-6.6857395,-8.571261,-4.2232428,74.9345,-19.603886,1.4899371,0.39661703,-0.6394556,12.435706,8.092376,18.355417,-34.88214,6.388057,11.314334,1.7902492,18.438437,-3.9029489,-16.73563,22.37741,11.571347,-5.5203905,-5.9054356,2.7627087
54,-4.102837085723877,-73.23690032958984,75.03646087646484,1.3592295046064848,-5.1797026754799065,93.51892978525727,-17.962364,-2.8144033,-6.2637777,39.260117,-13.341186,-5.477971,-5.2267404,-8.140131,-4.12991,73.243,-18.44313,0.900835,0.68493676,-0.44188341,12.084034,9.098543,18.69807,-34.553413,5.7279325,11.509076,1.7886213,18.006832,-4.2257595,-17.023901,22.741665,10.662701,-5.520328,-6.044542,3.7476554
55,-3.995957136154175,-74.39989471435547,75.55010986328125,1.3199125465073536,-5.026123845694687,93.68298515513122,-18.017563,-2.7921612,-6.7238836,36.5544,-10.138967,-5.838277,-3.823475,-7.756148,-4.103438,71.41114,-17.443542,0.38174692,0.956651,-0.24721375,11.735842,10.050167,19.061039,-34.2178,5.0281982,11.735787,1.7704744,17.564735,-4.5039225,-17.280544,23.031584,9.728624,-5.4095206,-6.2096663,4.66987
56,-3.8895108699798584,-75.58368682861328,76.04704284667969,1.2786832961405359,-4.853370388053506,93.83609518886726,-18.095245,-2.7546375,-7.156311,33.839073,-6.807391,-6.265418,-2.4696207,-7.5180492,-4.2269716,69.49681,-16.73082,0.029953282,1.2261723,-0.056851275,11.405834,10.948263,19.434704,-33.882263,4.29003,11.863559,1.7430307,17.169312,-4.7686167,-17.517855,23.298244,8.817281,-5.0117855,-6.417475,5.402143
57,-3.78391695022583,-76.78106689453125,76.52188873291016,1.2473194264127825,-4.648019417412352,93.9868714617371,-18.214703,-2.7090833,-7.5422964,31.053946,-3.0310926,-6.816231,-1.1474984,-7.4705615,-4.565683,67.436615,-16.460331,-0.049154963,1.4941747,0.124944896,11.084798,11.768005,19.812155,-33.556934,3.5344522,11.877331,1.693929,16.82824,-5.00917,-17.74183,23.528776,7.9104333,-4.264942,-6.642717,5.9406805
58,-3.673649311065674,-77.99214172363281,76.96624755859375,1.218222020467912,-4.412754083377699,94.14439618857669,-18.353415,-2.6606312,-7.9334607,28.174461,1.1136107,-7.4754367,0.13675821,-7.535989,-5.066232,65.21999,-16.52149,0.07848638,1.7539634,0.30521762,10.769125,12.5084095,20.19077,-33.239067,2.7668114,11.842228,1.6241959,16.513136,-5.2092414,-17.954105,23.704386,6.986295,-3.265695,-6.881713,6.3450003
59,-3.5668652057647705,-79.22004699707031,77.37112426757812,1.167009530677612,-4.177319623867841,94.27960788849931,-18.48477,-2.582168,-8.365412,25.35119,4.984144,-8.141965,1.3615179,-7.6213894,-5.6317806,62.96701,-16.63631,0.25819704,2.0116334,0.50473046,10.482614,13.208645,20.566282,-32.9148,1.9601684,11.748048,1.5642203,16.227282,-5.390301,-18.161192,23.869091,6.0838165,-2.0738904,-7.184405,6.5847178
60,-3.458454132080078,-80.4580307006836,77.72842407226562,1.0671925213808935,-3.9719924076589797,94.36402606727077,-18.573929,-2.4317431,-8.856817,22.71629,7.939748,-8.706901,2.4993703,-7.6414366,-6.1590953,60.810566,-16.536943,0.3265361,2.2701561,0.7466478,10.250269,13.911708,20.932783,-32.56655,1.0833063,11.585588,1.5439874,15.972598,-5.573614,-18.370628,24.070873,5.2389975,-0.7474152,-7.6042957,6.6304936
61,-3.354693651199341,-81.69815063476562,78.02424621582031,0.8804034232512195,-3.802888900888424,94.39558237016789,-18.553516,-2.1597154,-9.497689,20.088654,9.79167,-9.151801,3.5659168,-7.5813074,-6.693312,58.748775,-16.165184,0.22915278,2.532107,1.0728254,10.071139,14.6251335,21.289194,-32.199318,0.12400908,11.328774,1.5873953,15.765909,-5.754436,-18.589336,24.333448,4.460411,0.8743211,-8.198873,6.4166346
62,-3.242784261703491,-82.95047760009766,78.26956176757812,0.6204170978566611,-3.6577083738398626,94.38409395012235,-18.454567,-1.7610782,-10.237423,17.45484,10.895438,-9.51599,4.5732036,-7.4690437,-7.264875,56.719482,-15.662087,0.05714114,2.7966013,1.4734501,9.937084,15.327997,21.634766,-31.818497,-0.90024596,10.991829,1.6733387,15.60045,-5.922195,-18.819326,24.631145,3.722785,2.7632418,-8.94037,5.9899225
63,-3.137528896331787,-84.20459747314453,78.44964599609375,0.3480742884511985,-3.536212549858802,94.32291155743495,-18.403524,-1.293892,-10.866602,15.223249,11.426242,-9.777252,5.474785,-7.3122244,-7.741821,54.784573,-15.065426,-0.144926,3.0595944,1.8822609,9.859168,16.017788,21.961002,-31.408548,-1.9702026,10.626057,1.7638339,15.44341,-6.0894732,-19.057676,24.935932,3.0133595,4.578462,-9.749372,5.484193
64,-3.033320903778076,-85.45936584472656,78.56028747558594,0.14321332993369998,-3.433421905559469,94.20913245816948,-18.53449,-0.8649679,-11.174572,13.81421,11.555047,-9.930049,6.21358,-7.1476364,-7.9903817,53.018517,-14.421086,-0.33399904,3.311662,2.2136354,9.843688,16.686758,22.25388,-30.953083,-3.0566154,10.283536,1.8206376,15.261125,-6.276703,-19.298573,25.221937,2.3297038,5.9791474,-10.533883,5.0206504
65,-2.936760663986206,-86.72702026367188,78.62596130371094,0.027856338382774893,-3.338846702411036,94.03350580920453,-18.8921,-0.50910014,-11.0536175,13.346655,11.210481,-9.98123,6.7252164,-6.989819,-7.941708,51.491894,-13.6003065,-0.6126635,3.5586433,2.4435866,9.8852215,17.346882,22.49998,-30.439474,-4.164856,9.967429,1.8197258,15.023799,-6.5034723,-19.540722,25.497849,1.6766903,6.8874426,-11.3216095,4.573969
66,-2.8483142852783203,-88.04436492919922,78.65204620361328,-0.025092940939628508,-3.2529585207505063,93.80595478281548,-19.41643,-0.20259166,-10.629349,13.615592,10.332073,-9.936712,7.0438433,-6.85222,-7.6806445,50.166225,-12.633502,-0.9703714,3.7964742,2.604273,9.976209,17.984175,22.693575,-29.882837,-5.2836614,9.656144,1.785694,14.755641,-6.7615185,-19.78327,25.774391,1.0649154,7.4769683,-12.140167,4.0888834
67,-2.7513890266418457,-89.37747192382812,78.62544250488281,-0.008620159445920449,-3.1841884182243034,93.55448773250176,-20.08268,0.025731191,-10.045026,14.551021,9.109594,-9.794389,7.2629805,-6.769963,-7.30242,48.940903,-11.798061,-1.1943909,4.000999,2.6893826,10.118833,18.549015,22.832563,-29.312595,-6.3566284,9.364352,1.7530336,14.504812,-7.0259557,-20.016424,26.02511,0.49976203,7.78929,-12.887878,3.6307812
68,-2.6420788764953613,-90.72476959228516,78.54115295410156,0.07715685628765473,-3.1428872891600133,93.30511144012071,-20.856394,0.15705645,-9.445094,16.066162,7.735269,-9.550046,7.4817963,-6.763645,-6.895916,47.702778,-11.366364,-1.0694046,4.1503377,2.6977537,10.315589,18.992708,22.918318,-28.758318,-7.328978,9.107136,1.7562202,14.320358,-7.274643,-20.225899,26.221827,-0.007210027,7.867335,-13.462473,3.267579
69,-2.531815767288208,-92.08628845214844,78.40081787109375,0.23391695756137237,-3.141916385137643,93.05487726442303,-21.759872,0.1802924,-8.865002,18.260042,6.1512856,-9.153015,7.7611427,-6.84117,-6.468375,46.399025,-11.297253,-0.48873004,4.2417088,2.6269324,10.5851755,19.31671,22.950687,-28.217743,-8.199619,8.886563,1.8063706,14.21373,-7.524697,-20.40045,26.351768,-0.44584534,7.625808,-13.836314,3.0156448
70,-2.4259226322174072,-93.4566421508789,78.20746612548828,0.4446607592243132,-3.1767629098804258,92.78758449573928,-22.784555,0.14114411,-8.240273,21.11282,4.299532,-8.623754,8.048554,-6.9683275,-5.980497,45.07178,-11.466206,0.41491684,4.2893724,2.4950318,10.920629,19.540972,22.929094,-27.680046,-8.989977,8.6961565,1.8846244,14.160344,-7.791839,-20.537933,26.432577,-0.8056285,7.072544,-14.060198,2.836448
71,-2.3252758979797363,-94.85025024414062,77.96488189697266,0.6833221339158126,-3.2316225032757355,92.50991762088702,-23.8607,0.09555125,-7.558311,24.386751,2.3685722,-8.059992,8.275251,-7.108101,-5.4591146,43.745365,-12.021297,1.4915768,4.296828,2.3285382,11.286857,19.646614,22.857193,-27.160446,-9.681721,8.53841,1.9799722,14.153717,-8.047335,-20.638603,26.481682,-1.0807341,6.393097,-14.151414,2.7194605
72,-2.2280824184417725,-96.2518310546875,77.67924499511719,0.9346831466221766,-3.2872916082580934,92.2316844804925,-24.930086,0.09101452,-6.7998443,27.867033,0.5402833,-7.5526376,8.367262,-7.24384,-4.9342666,42.454826,-13.121431,2.5891864,4.2670846,2.1433227,11.647973,19.613518,22.741547,-26.676064,-10.258423,8.414995,2.081303,14.187458,-8.25521,-20.70301,26.51306,-1.2745004,5.7736325,-14.128652,2.6550562
73,-2.132993459701538,-97.66603088378906,77.33773040771484,1.2339123736115247,-3.328913345002996,91.96783035570826,-26.009853,0.12581639,-5.8915343,31.591734,-1.1192153,-7.1414237,8.387524,-7.401708,-4.3927794,40.9884,-15.01267,3.7884018,4.190854,1.9024912,11.989728,19.435482,22.589897,-26.231237,-10.716983,8.318113,2.2007992,14.268647,-8.41018,-20.728937,26.522263,-1.396268,5.2362533,-13.944667,2.659782
74,-2.0304007530212402,-99.08031463623047,76.95833587646484,1.57916522406073,-3.3694291777194985,91.70799972988847,-27.106966,0.20440397,-4.8658514,35.62699,-2.7055469,-6.7549586,8.348099,-7.613787,-3.8609474,39.392006,-17.538853,5.1120605,4.071851,1.6053014,12.33285,19.127882,22.405725,-25.81534,-11.073316,8.247903,2.339374,14.397619,-8.52968,-20.715563,26.503912,-1.4422079,4.691869,-13.608743,2.7367628
75,-1.9272823333740234,-100.46881103515625,76.55855560302734,1.9065768330907091,-3.431432760485195,91.42772451543895,-28.155163,0.365282,-3.8623948,39.82363,-4.2906365,-6.3205624,8.09275,-7.860525,-3.4027534,38.10845,-20.274334,6.3267674,3.928455,1.3176577,12.693455,18.702171,22.188545,-25.421247,-11.336393,8.21881,2.4692323,14.557637,-8.610943,-20.667877,26.471548,-1.3969811,4.158519,-13.223677,2.8536294
76,-1.828183650970459,-101.85786437988281,76.12861633300781,2.1456176327989964,-3.5390805424638008,91.10379081286159,-29.08611,0.62709045,-3.0255532,44.031803,-5.9445744,-5.7807245,7.46141,-8.09072,-3.0431445,37.604073,-22.812614,7.209804,3.7766948,1.1102111,13.089872,18.168682,21.934177,-25.041813,-11.512533,8.246204,2.5626297,14.731563,-8.650345,-20.595987,26.439217,-1.2474436,3.6552925,-12.8917675,2.975692
77,-1.7429795265197754,-103.24896240234375,75.66822814941406,2.298557882265485,-3.7425383458893102,90.73454134835795,-29.884268,0.9645502,-2.3905337,48.33613,-7.7302012,-5.074642,6.373945,-8.31039,-2.7717285,38.16432,-25.229744,7.6803527,3.618441,0.989597,13.578009,17.526451,21.6408,-24.660938,-11.627402,8.347656,2.6197867,14.89293,-8.653344,-20.50944,26.413961,-1.0267407,3.2097812,-12.604972,3.1097014
78,-1.6764984130859375,-104.64574432373047,75.18636322021484,2.39159830739727,-4.01696845474763,90.33322196938074,-30.575085,1.360444,-1.8941729,52.772446,-9.595333,-4.256324,4.9194584,-8.508766,-2.5487971,39.517387,-27.704523,7.869593,3.4426498,0.9277198,14.135011,16.769264,21.308733,-24.284428,-11.668307,8.51195,2.6529517,15.05723,-8.6142435,-20.411175,26.388178,-0.7396221,2.806618,-12.320514,3.2666645
79,-1.6198333501815796,-106.04835510253906,74.69388580322266,2.3998523858296124,-4.274500999742807,89.9000133079994,-31.157665,1.8270674,-1.5242565,57.12215,-11.435268,-3.4498942,3.1999633,-8.601638,-2.3392172,41.278564,-29.979973,7.881681,3.2440653,0.94161975,14.661583,15.894889,20.93563,-23.936947,-11.580665,8.711746,2.6523364,15.269772,-8.509955,-20.299942,26.352924,-0.33287773,2.400742,-12.0875845,3.416489
80,-1.5768985748291016,-107.45463562011719,74.21707153320312,2.2994080659987586,-4.426594238344709,89.43480409436212,-31.640232,2.3802361,-1.2626384,61.180344,-13.153768,-2.7795384,1.3147904,-8.51735,-2.1192427,43.062946,-31.796476,7.8227005,3.0158796,1.0483054,15.0570965,14.901454,20.517712,-23.640524,-11.308741,8.920869,2.6083295,15.57604,-8.319317,-20.171291,26.299906,0.25003862,1.9469299,-11.955092,3.529092
81,-1.553826093673706,-108.84725952148438,73.77738952636719,2.014872439174602,-4.416689875536634,88.9028611894262,-32.102375,3.1028187,-1.1542692,64.98351,-14.77988,-2.309732,-0.8422392,-8.163714,-1.9030517,44.915413,-33.04406,7.6708603,2.753335,1.3160243,15.271552,13.80025,20.039495,-23.359434,-10.833184,9.125712,2.4799933,16.043957,-8.092407,-20.021132,26.265244,1.0785894,1.4768047,-11.986323,3.651873
82,-1.5473439693450928,-110.2142333984375,73.38762664794922,1.5824955085849324,-4.3056453592982855,88.31554616811931,-32.5196,3.9482436,-1.1825057,68.62861,-16.353924,-1.9701197,-3.2794602,-7.6023664,-1.708694,46.97471,-33.862568,7.410771,2.450714,1.7166461,15.365022,12.588463,19.498045,-23.074682,-10.177847,9.350569,2.2861624,16.628428,-7.833286,-19.847666,26.251253,2.1178496,0.99855685,-12.138174,3.7790508
83,-1.5495003461837769,-111.55320739746094,73.04703521728516,1.144679538326629,-4.1784375202374235,87.7421625435481,-32.75425,4.7488794,-1.2287344,72.012794,-17.795624,-1.6739935,-5.743878,-7.0067577,-1.5199699,48.991108,-34.36498,7.1514764,2.108582,2.1191814,15.401527,11.247216,18.92037,-22.840557,-9.361949,9.619682,2.1069636,17.207638,-7.443294,-19.65311,26.19027,3.2596872,0.42969567,-12.29855,3.8035746
84,-1.5547951459884644,-112.86506652832031,72.74491119384766,0.84672255523529,-4.115939604974231,87.25274333439899,-32.67004,5.341652,-1.1730318,75.03093,-19.023975,-1.3306065,-7.9824495,-6.551075,-1.3028382,50.729584,-34.67598,6.983781,1.7421191,2.3855357,15.446481,9.763226,18.35228,-22.729868,-8.4215765,9.946,2.0228314,17.665224,-6.8048506,-19.444466,25.998648,4.376685,-0.31025,-12.353424,3.6220303
85,-1.5690737962722778,-114.14588928222656,72.4898452758789,0.7583409856697905,-4.136949683198381,86.84952895457148,-32.21477,5.661604,-0.9554182,77.669174,-19.981478,-0.90594953,-9.969645,-6.2983174,-0.98687166,52.20507,-34.791836,6.9390683,1.3975952,2.448809,15.527408,8.111297,17.820217,-22.79007,-7.3546166,10.347776,2.103636,17.975157,-5.79981,-19.22017,25.597261,5.404477,-1.3605778,-12.209625,3.168144
86,-1.5954149961471558,-115.40294647216797,72.2818603515625,0.7918474123376388,-4.195822945214835,86.49968103203615,-31.472893,5.807271,-0.64661133,79.99115,-20.725224,-0.44649735,-11.823167,-6.149005,-0.6002119,53.51858,-34.660095,6.965961,1.0748888,2.383696,15.610619,6.322226,17.328163,-22.98819,-6.18417,10.794548,2.2919612,18.20613,-4.48925,-18.979734,25.027468,6.382904,-2.6321545,-11.937897,2.5191882
87,-1.6202460527420044,-116.64170837402344,72.12291717529297,0.8596974114794991,-4.27456118280403,86.22217415319658,-30.51631,5.861865,-0.32671928,82.006065,-21.344896,0.017127875,-13.5002575,-6.0357804,-0.24684468,54.55892,-34.334213,7.0112686,0.71925664,2.2631502,15.670668,4.4717255,16.888578,-23.28612,-4.991896,11.22281,2.4754539,18.383701,-3.0179005,-18.734531,24.385426,7.329788,-3.862456,-11.674235,1.7816137
88,-1.6421027183532715,-117.8553237915039,72.01728820800781,0.8735213276041428,-4.35677903068965,86.03631100407338,-29.41444,5.9062805,-0.072031766,83.71353,-21.926922,0.4510371,-14.962732,-5.9013124,-0.035639502,55.221188,-33.86449,7.0176115,0.27589834,2.16025,15.686444,2.6387336,16.520401,-23.649498,-3.8673418,11.568653,2.5410638,18.53486,-1.5232142,-18.50317,23.764914,8.253436,-4.7935705,-11.565289,1.0511038
89,-1.6731864213943481,-119.05203247070312,71.96891784667969,0.8130753345519969,-4.455910397874898,85.97695898018753,-28.144238,5.9245577,0.084969334,85.102844,-22.471241,0.8297249,-16.156128,-5.7513576,-0.033899855,55.44525,-33.27324,6.954763,-0.29067326,2.0895064,15.673767,0.8249477,16.242773,-24.104418,-2.8377435,11.827823,2.443986,18.664858,0.025127096,-18.29681,23.167397,9.12856,-5.36444,-11.679369,0.2691835
90,-1.7044963836669922,-120.23014831542969,71.97434997558594,0.7238363509314076,-4.574684531420936,86.0235928862165,-26.687567,5.885957,0.18875673,86.17858,-22.936255,1.1744485,-17.118717,-5.6207137,-0.1704397,55.302162,-32.53052,6.8486533,-0.9433816,2.0093997,15.646658,-0.98425454,16.054855,-24.66829,-1.8946413,12.018136,2.248606,18.762976,1.6958882,-18.113882,22.549465,9.926561,-5.707626,-11.934662,-0.5931474
91,-1.737457275390625,-121.40803527832031,72.02780151367188,0.6172026599812074,-4.680719540271238,86.11338567420636,-25.123343,5.844932,0.28237197,86.96683,-23.342255,1.5181386,-17.947645,-5.4944596,-0.35090765,54.880085,-31.609438,6.724657,-1.6323674,1.9121863,15.578624,-2.741658,15.939853,-25.291779,-1.058041,12.116245,2.0051289,18.830242,3.398063,-17.956476,21.93975,10.668933,-5.8610024,-12.261159,-1.399484
92,-1.7760969400405884,-122.57147216796875,72.13422393798828,0.5046005522764793,-4.7419800787389335,86.1838393586605,-23.52987,5.8522196,0.41204166,87.49565,-23.711813,1.8931873,-18.737799,-5.352846,-0.4830221,54.264744,-30.482141,6.609144,-2.3152723,1.7932693,15.43958,-4.4028854,15.874424,-25.914263,-0.33382353,12.10617,1.7628082,18.86334,5.0286875,-17.83056,21.3742,11.392092,-5.8599296,-12.587717,-2.0141175
93,-1.825626015663147,-123.72431945800781,72.2882308959961,0.3759882714441051,-4.748096628422365,86.23896798995511,-21.90817,5.9325523,0.5869332,87.76755,-24.058264,2.3369806,-19.50452,-5.1753845,-0.58292437,53.468754,-29.134457,6.488018,-3.0046368,1.6659095,15.204472,-5.9859996,15.847837,-26.54471,0.30342656,11.981794,1.5189953,18.85847,6.564393,-17.742052,20.871212,12.153585,-5.5790324,-12.945982,-2.4006114
94,-1.8815526962280273,-124.8708267211914,72.49254608154297,0.2285952045338536,-4.716858373003817,86.30574685120818,-20.225367,6.0479326,0.7892557,87.770676,-24.36591,2.8195846,-20.196806,-4.9702196,-0.6973358,52.447773,-27.584894,6.3502126,-3.7211459,1.5365789,14.892511,-7.5141263,15.857197,-27.206877,0.8643902,11.758526,1.2514714,18.813786,8.055718,-17.691624,20.412048,12.923278,-5.040717,-13.360433,-2.6284595
95,-1.9561318159103394,-126.01763916015625,72.73394775390625,0.08994081912349927,-4.658783005637368,86.3553046052799,-18.507456,6.1524525,1.0265645,87.510124,-24.611805,3.2728617,-20.809694,-4.758223,-0.7784212,51.199287,-25.854078,6.228161,-4.43414,1.3915415,14.536831,-8.958869,15.891742,-27.86146,1.3351374,11.454858,0.9804833,18.727955,9.507433,-17.67981,19.975534,13.612218,-4.5025663,-13.744826,-2.724185
96,-2.048488140106201,-127.16956329345703,73.0164794921875,-0.013232873977094975,-4.5840492554744925,86.35918347805729,-16.781141,6.199823,1.3051172,86.9905,-24.771029,3.629895,-21.343304,-4.562346,-0.77266705,49.7273,-23.958002,6.1559324,-5.1144943,1.2168978,14.168819,-10.295573,15.937425,-28.465105,1.7090687,11.090616,0.7261648,18.598621,10.921457,-17.707167,19.542694,14.13501,-4.2230964,-14.011815,-2.7205997
97,-2.155219316482544,-128.3213653564453,73.33165740966797,-0.06864716788985546,-4.485379309529951,86.29607511680594,-15.028205,6.2125945,1.6899971,86.18452,-24.876833,3.923334,-21.80306,-4.3783617,-0.6474139,48.005184,-21.890234,6.141405,-5.749554,1.00211,13.772227,-11.52098,15.98134,-29.00593,2.0005834,10.648539,0.498585,18.40892,12.289124,-17.781624,19.108114,14.486412,-4.3538404,-14.10311,-2.5855544
98,-2.2709031105041504,-129.47927856445312,73.67298889160156,-0.09196543358225041,-4.360626006812204,86.18645398228098,-13.243778,6.194201,2.1587262,85.10065,-24.927904,4.1713867,-22.187374,-4.1898203,-0.43947738,46.03843,-19.64417,6.1672745,-6.3552923,0.7628582,13.335038,-12.663271,16.020878,-29.510384,2.2310514,10.130165,0.28618535,18.163296,13.618345,-17.907448,18.675085,14.704224,-4.728544,-14.076464,-2.318195
99,-2.4009029865264893,-130.63955688476562,74.03711700439453,-0.10076226208384852,-4.227542237744253,86.06400053809566,-11.4768715,6.077822,2.5822875,83.799355,-24.846899,4.2890544,-22.482677,-4.0064344,-0.19524442,43.867638,-17.232468,6.231842,-6.945242,0.5216793,12.894893,-13.737366,16.060648,-29.990843,2.3974574,9.585397,0.07672691,17.892967,14.932009,-18.073542,18.240797,14.772068,-5.130849,-14.018679,-1.9998441
100,-2.536398410797119,-131.80789184570312,74.41516876220703,-0.10990558848051978,-4.103571401936196,85.96340914646845,-9.77427,5.80322,2.8279378,82.331184,-24.556873,4.19516,-22.672958,-3.843957,0.04050115,41.52948,-14.66566,6.333085,-7.534207,0.2942874,12.487907,-14.755181,16.110586,-30.45984,2.4936998,9.06332,-0.14264478,17.629648,16.242527,-18.260052,17.804695,14.685716,-5.3473444,-14.01431,-1.7120891
101,-2.670152187347412,-132.97547912597656,74.79747772216797,-0.12658361834976958,-3.9894858491814396,85.8787014059595,-8.129693,5.314584,2.8373897,80.64888,-23.98582,3.7599587,-22.747211,-3.685172,0.28791162,38.98023,-11.836021,6.425423,-8.121248,0.081923746,12.118352,-15.715163,16.179832,-30.917505,2.5163977,8.590564,-0.36604106,17.363417,17.539106,-18.458012,17.372112,14.434466,-5.349572,-14.09988,-1.4679248
102,-2.8192923069000244,-134.161865234375,75.17314147949219,-0.1429113160460578,-3.876685480958107,85.79689272231198,-6.52054,4.666385,2.675417,78.74145,-23.201468,3.0708003,-22.719032,-3.5311723,0.56291544,36.22065,-8.775259,6.5257974,-8.699353,-0.13041745,11.767347,-16.61014,16.271824,-31.361485,2.465148,8.134329,-0.5888974,17.084301,18.810055,-18.667185,16.941359,14.037498,-5.246763,-14.225263,-1.2259042
103,-2.9645895957946777,-135.3691864013672,75.53123474121094,-0.14470301836005703,-3.768798718645974,85.74200233136096,-4.9757266,3.968545,2.3953474,76.73071,-22.321821,2.370022,-22.607323,-3.4252841,0.8207446,33.347973,-5.6976943,6.7263846,-9.275733,-0.35226282,11.434864,-17.442762,16.388184,-31.799135,2.3379722,7.653424,-0.82662696,16.824123,20.063896,-18.87509,16.505367,13.540107,-5.031359,-14.343297,-0.98659056
104,-3.106245994567871,-136.58404541015625,75.86455535888672,-0.11842579548451639,-3.670405115777571,85.73885429361846,-3.5238316,3.3286355,2.063041,74.736115,-21.459423,1.8977317,-22.424513,-3.4076314,1.0268613,30.445454,-2.8098602,7.1223984,-9.856457,-0.597576,11.119276,-18.218721,16.529018,-32.24017,2.1383812,7.1068916,-1.0948864,16.613705,21.304428,-19.061525,16.057438,12.99493,-4.6995344,-14.40687,-0.7512454
105,-3.2518703937530518,-137.81114196777344,76.15824890136719,-0.04363291844641682,-3.58374522463084,85.79547673426036,-2.1806262,2.6905406,1.6372656,72.76637,-20.557678,1.6974719,-22.09691,-3.5118282,1.1753528,27.299341,0.07388569,7.8056064,-10.449386,-0.89481705,10.812879,-18.947943,16.697008,-32.69617,1.8820604,6.459328,-1.4194604,16.460817,22.547256,-19.213762,15.589178,12.391548,-4.1987734,-14.392797,-0.5197777
106,-3.3773155212402344,-139.02162170410156,76.41791534423828,0.07591458024742197,-3.509398091869988,85.90113380979378,-0.9200059,2.0234582,1.1051973,70.76664,-19.584442,1.6513934,-21.62922,-3.710002,1.3075774,23.912315,3.0056057,8.71287,-11.047666,-1.244011,10.517085,-19.629171,16.893332,-33.16622,1.5671457,5.740193,-1.7847992,16.347675,23.779276,-19.329063,15.104828,11.720419,-3.5554204,-14.329169,-0.29282752
107,-3.5180182456970215,-140.23712158203125,76.61228942871094,0.22141324939237608,-3.4501090450608776,86.05223580244163,0.28320688,1.4637161,0.5897431,68.767006,-18.684055,1.7520872,-21.146765,-3.959743,1.4535599,20.689934,5.5748715,9.704427,-11.635295,-1.619008,10.243504,-20.256157,17.114151,-33.641014,1.1771533,5.0060945,-2.1447146,16.268421,24.958847,-19.403328,14.615547,11.039601,-2.8849554,-14.246425,-0.07300037
108,-3.6631040573120117,-141.44468688964844,76.75001525878906,0.3688947999171542,-3.406064759558111,86.24290220869905,1.4471885,1.1460274,0.22003518,66.79516,-18.000648,1.9852136,-20.791073,-4.223907,1.6251787,18.0705,7.3565683,10.631702,-12.192625,-1.9874426,10.0028105,-20.826548,17.352543,-34.111027,0.70160556,4.3156075,-2.4534402,16.218378,26.041475,-19.432934,14.13271,10.413451,-2.3035145,-14.176797,0.13848639
109,-3.801729440689087,-142.67591857910156,76.83708953857422,0.518041872127948,-3.372781893427235,86.48610069275067,2.5789337,1.1739812,0.12613398,64.844986,-17.65301,2.4355853,-20.545267,-4.5278096,1.7933924,15.9995365,8.140757,11.540277,-12.724128,-2.3486395,9.783768,-21.361963,17.609627,-34.59698,0.13298136,3.675699,-2.692732,16.21142,27.06385,-19.412493,13.633877,9.824853,-1.7977618,-14.120551,0.36557487
110,-3.934321641921997,-143.91766357421875,76.86650085449219,0.6822224075632838,-3.3524585001068883,86.7794086737826,3.665822,1.4306778,0.22385605,62.903164,-17.543228,3.0603065,-20.355595,-4.897059,1.9403824,14.305544,8.18546,12.475059,-13.232556,-2.7212322,9.585164,-21.864231,17.885845,-35.099785,-0.5141501,3.0590248,-2.89021,16.246525,28.03118,-19.340359,13.121247,9.256484,-1.3232026,-14.064153,0.6014522
111,-4.068424701690674,-145.16146850585938,76.83861541748047,0.824692595064997,-3.345925181505721,87.08754295175288,4.6776385,1.7581835,0.31682602,61.00142,-17.495754,3.6510189,-20.346354,-5.2630253,2.0832913,13.310332,7.7327266,13.275272,-13.690215,-3.0682847,9.432683,-22.300337,18.168503,-35.574173,-1.2127638,2.476702,-3.068849,16.298332,28.846455,-19.223866,12.645485,8.776647,-0.9481495,-14.019748,0.79941744
112,-4.202174186706543,-146.4272003173828,76.766357421875,0.8962475771247087,-3.3488980863863347,87.37055286397005,5.574255,2.0302231,0.20525645,59.180172,-17.329592,4.0145965,-20.65977,-5.5345306,2.2552567,13.369424,7.0057855,13.778975,-14.066206,-3.3364353,9.350609,-22.642277,18.437382,-35.97161,-1.9254137,1.9410369,-3.2519126,16.340147,29.413528,-19.077795,12.258004,8.453653,-0.73847353,-14.000486,0.9121812
113,-4.3397932052612305,-147.72854614257812,76.64408874511719,0.8881089409251717,-3.3626095935079845,87.62049108902292,6.3230352,2.2662098,-0.12542596,57.507866,-16.766176,4.204001,-21.399776,-5.6567,2.579055,14.738801,5.952634,13.884602,-14.345418,-3.5134885,9.349346,-22.910627,18.680843,-36.286343,-2.6535778,1.4441473,-3.4645367,16.35804,29.727102,-18.911234,11.96458,8.290706,-0.73556304,-14.022287,0.902245
114,-4.482144355773926,-149.04318237304688,76.47373962402344,0.831546561467439,-3.388041314051068,87.85727551841458,6.9484725,2.5109603,-0.5765692,55.945133,-15.973104,4.29705,-22.472502,-5.682197,3.0110357,17.186152,4.4852858,13.702544,-14.544422,-3.6318932,9.412467,-23.121574,18.895855,-36.539116,-3.3925388,0.9881975,-3.688504,16.366812,29.841276,-18.72766,11.738549,8.249273,-0.892418,-14.074164,0.80204433
115,-4.635962009429932,-150.37283325195312,76.24979400634766,0.7436185885196902,-3.421108182435416,88.08524815638475,7.507092,2.6837847,-1.1895292,54.35239,-15.426979,4.1473384,-23.704243,-5.692605,3.3440313,20.296581,2.7867799,13.391024,-14.681869,-3.7075002,9.524596,-23.243343,19.073921,-36.719772,-4.091825,0.59754014,-3.8823326,16.382374,29.75289,-18.534689,11.582885,8.329731,-1.1407975,-14.127964,0.6691571
116,-4.7964253425598145,-151.7056121826172,75.9649429321289,0.6172042486495691,-3.4527638376040226,88.30440908965701,8.055072,2.7349439,-2.0077841,52.587696,-15.60151,3.6021912,-24.935232,-5.768606,3.3633766,23.676914,1.0272408,13.097052,-14.774693,-3.7331514,9.6712055,-23.239414,19.202097,-36.816307,-4.7026825,0.30053613,-4.004759,16.422028,29.454643,-18.344997,11.500082,8.534896,-1.4107891,-14.156138,0.5613354
117,-4.968125343322754,-153.0589141845703,75.61431884765625,0.4201335581691129,-3.4637288445429477,88.51412205918234,8.718003,2.650823,-3.178014,50.33937,-16.66755,2.4702566,-26.186941,-5.9259567,2.9529912,27.36943,-0.7922904,12.875511,-14.830925,-3.6710353,9.844564,-23.087217,19.262974,-36.796333,-5.2284317,0.1219077,-4.0384784,16.472624,28.913836,-18.170095,11.510743,8.902153,-1.7127881,-14.140934,0.4772802
118,-5.14378023147583,-154.41958618164062,75.21407318115234,0.16659680225271525,-3.466916826192799,88.71919704406207,9.448457,2.5059323,-4.609866,47.739212,-18.340807,0.9140831,-27.490837,-6.1586256,2.2487707,31.48579,-2.7262142,12.63545,-14.8457155,-3.534676,10.054177,-22.818436,19.249535,-36.67505,-5.6723175,0.043417398,-4.0078683,16.530416,28.15423,-18.013523,11.603717,9.408108,-2.0680733,-14.099276,0.39097497
119,-5.319643497467041,-155.8031005859375,74.75471496582031,-0.0893789903077056,-3.495934835097088,88.92085365638708,10.028915,2.3876054,-5.9904256,45.322685,-20.417273,-0.702605,-28.741247,-6.5031524,1.4165893,35.81181,-4.7205286,12.294837,-14.811987,-3.3751018,10.310527,-22.47336,19.168299,-36.51175,-5.99272,0.028303856,-3.9348457,16.627209,27.247952,-17.869946,11.737923,9.967815,-2.4232757,-14.0575695,0.3236546
120,-5.495058536529541,-157.16888427734375,74.28313446044922,-0.2875284057851252,-3.584831569916303,89.11916166541941,10.227401,2.330302,-7.0316577,43.654263,-22.708845,-2.0446384,-29.837126,-6.9845295,0.6303993,40.145725,-6.7255,11.776021,-14.719142,-3.2482715,10.624964,-22.092308,19.035376,-36.36833,-6.1546903,0.035402305,-3.8411598,16.79586,26.264915,-17.7277,11.869641,10.498935,-2.728632,-14.043261,0.29725465
121,-5.662574768066406,-158.52862548828125,73.7889175415039,-0.44430901132518635,-3.7770214581873316,89.3029345984254,9.983102,2.34932,-7.675656,42.9313,-25.47793,-3.0873826,-30.762924,-7.6263504,-0.13379681,44.592285,-8.795528,10.981773,-14.556546,-3.1491632,11.046865,-21.682957,18.860384,-36.253033,-6.1923337,0.010722067,-3.7019005,17.06144,25.199217,-17.588615,11.988974,10.98167,-2.970171,-14.065143,0.3744017
122,-5.833077907562256,-159.89573669433594,73.26795196533203,-0.5789842492184356,-4.044326731579467,89.4746114742036,9.39655,2.4043932,-8.06402,42.875896,-28.74422,-3.997239,-31.549328,-8.418072,-0.9187101,49.195705,-10.937387,9.972684,-14.331925,-3.0563388,11.557991,-21.218538,18.644726,-36.138145,-6.1244917,-0.012803666,-3.515473,17.402151,24.020023,-17.452549,12.1154175,11.458898,-3.1763434,-14.109453,0.5251405
123,-5.9853339195251465,-161.25755310058594,72.74107360839844,-0.6402281239233253,-4.314284993828269,89.65177711464439,8.479189,2.4090247,-8.247577,43.35648,-31.96544,-4.738995,-32.186913,-9.310937,-1.584663,53.69118,-13.036275,8.915601,-14.054105,-3.0039592,12.069539,-20.689003,18.395962,-36.035145,-5.8945866,0.053368226,-3.3380802,17.780373,22.760168,-17.295813,12.245909,11.944584,-3.3656588,-14.16874,0.63241625
124,-6.1145195960998535,-162.62646484375,72.22258758544922,-0.5773947981209459,-4.513065851046391,89.85097484030673,7.2562346,2.2781098,-8.290995,44.2184,-34.589386,-5.273968,-32.683475,-10.24257,-2.011286,57.82836,-14.981923,7.982262,-13.719572,-3.0278618,12.493853,-20.094597,18.125265,-35.966587,-5.440163,0.29479426,-3.224463,18.159288,21.452602,-17.081516,12.365571,12.457101,-3.5645518,-14.235775,0.58066124
125,-6.223817348480225,-163.98123168945312,71.75753784179688,-0.30848574669759654,-4.591190725269866,90.09176255753519,5.6011066,1.9095237,-8.1414175,45.581917,-36.4787,-5.5260186,-33.135788,-11.290288,-2.1297042,61.64281,-16.796177,7.20133,-13.305717,-3.2002954,12.788283,-19.47496,17.83751,-35.973106,-4.699968,0.7296321,-3.256049,18.558739,20.081272,-16.764437,12.44276,13.0407,-3.791627,-14.333904,0.2861037
126,-6.307581901550293,-165.32708740234375,71.35172271728516,0.11456517989115808,-4.5994453867879805,90.35808169751758,3.549042,1.3714689,-7.7985463,47.466255,-37.927197,-5.5487432,-33.52777,-12.442976,-2.0204415,65.259315,-18.530895,6.4906726,-12.795439,-3.4939435,13.011635,-18.83615,17.532974,-36.058083,-3.7099006,1.311341,-3.377621,18.993015,18.634872,-16.335375,12.465025,13.686292,-4.0496974,-14.458793,-0.17049511
127,-6.3733720779418945,-166.64501953125,71.0040054321289,0.5376179876469043,-4.61150540133729,90.61421653136385,1.3782192,0.83707917,-7.4119077,49.547024,-39.018913,-5.4975004,-33.708332,-13.502651,-1.8124967,68.57329,-20.113182,5.8574667,-12.208949,-3.7873077,13.224703,-18.103132,17.21776,-36.172646,-2.5702438,2.0350857,-3.4387617,19.41496,17.147308,-15.827549,12.46434,14.330919,-4.331581,-14.56105,-0.6581419
128,-6.4364166259765625,-167.94752502441406,70.69388580322266,0.8018824995180971,-4.6982869202513395,90.82449219621886,-0.62783074,0.47274944,-7.1410613,51.5063,-39.843384,-5.5182004,-33.52096,-14.274411,-1.6466559,71.48128,-21.469395,5.3079762,-11.5875435,-3.947418,13.481556,-17.178574,16.905691,-36.244965,-1.4000044,2.8921242,-3.2909358,19.772652,15.644158,-15.299631,12.499631,14.909385,-4.615421,-14.591262,-1.0462772
129,-6.5049872398376465,-169.21629333496094,70.4283676147461,0.8198738062129803,-4.88251467600838,91.0051968517945,-2.470538,0.34683958,-7.0806017,53.433414,-40.364838,-5.6436005,-32.879616,-14.658026,-1.5896287,73.94505,-22.565638,4.8573823,-11.001795,-3.882267,13.814227,-15.943022,16.605795,-36.190395,-0.22776663,4.070236,-2.820058,20.049313,14.098454,-14.77622,12.599058,15.434159,-4.920578,-14.502545,-1.3095282
130,-6.557551860809326,-170.43063354492188,70.22220611572266,0.6879498322167904,-5.122409350787532,91.16857007286228,-4.2635226,0.35548168,-7.138025,55.42706,-40.5536,-5.811198,-31.888994,-14.771919,-1.5729809,76.041115,-23.447613,4.497542,-10.440842,-3.6657069,14.180313,-14.4403105,16.326393,-36.03394,0.96777,5.5068417,-2.1300826,20.259962,12.4971075,-14.258475,12.759849,15.92759,-5.229952,-14.330545,-1.5148245
131,-6.603429317474365,-171.60240173339844,70.06912994384766,0.5264676060735981,-5.3911551616620805,91.27252962570098,-5.899949,0.40336007,-7.2003236,57.203995,-40.505486,-6.0027347,-30.673655,-14.753486,-1.5357568,77.83001,-24.156857,4.2054954,-9.835931,-3.4082584,14.519231,-12.803565,16.086298,-35.854836,2.1299047,6.8199844,-1.4042001,20.407528,10.884651,-13.776017,13.013341,16.33798,-5.4611745,-14.151719,-1.6714674
132,-6.640705585479736,-172.7235565185547,69.97671508789062,0.4540153386447525,-5.663038468525863,91.27299926569262,-7.2817974,0.40582493,-7.151559,58.49229,-40.320843,-6.1883183,-29.35893,-14.736429,-1.4192787,79.37119,-24.73501,3.9592593,-9.123973,-3.2169378,14.776257,-11.153452,15.91207,-35.72335,3.1866565,7.6281724,-0.8274656,20.511324,9.31256,-13.376311,13.395105,16.598183,-5.526341,-14.042558,-1.7896662
133,-6.67655086517334,-173.8325653076172,69.9332504272461,0.5063963606244624,-5.961822407516318,91.11445567617147,-8.336932,0.35661253,-6.938683,59.204998,-40.00982,-6.3591866,-27.92636,-14.709868,-1.1755767,80.658516,-25.184206,3.7879057,-8.26486,-3.1088793,14.971526,-9.450474,15.827422,-35.623444,4.0800695,7.7828507,-0.46149597,20.602947,7.7922406,-13.094055,13.953074,16.642227,-5.351281,-14.025624,-1.8821622
134,-6.706245422363281,-174.91802978515625,69.95006561279297,0.6176176719089487,-6.2904662910074975,90.83477134120625,-9.139236,0.30157527,-6.635376,59.498486,-39.524776,-6.521103,-26.33055,-14.6188545,-0.8501,81.67108,-25.480154,3.6930575,-7.3270826,-3.01756,15.130836,-7.6062384,15.84324,-35.49557,4.794241,7.497997,-0.2072548,20.673399,6.3022547,-12.9267025,14.690948,16.499058,-4.9784217,-14.058816,-1.9396541
135,-6.724228858947754,-175.98289489746094,70.02359008789062,0.7645635090456833,-6.592931618021591,90.5277084859875,-9.8115225,0.2403486,-6.3127804,59.465134,-38.883026,-6.659857,-24.651636,-14.527493,-0.5294897,82.43802,-25.633505,3.613062,-6.403328,-2.932672,15.211006,-5.6794853,15.963763,-35.350426,5.335763,6.935095,-0.007039506,20.688343,4.8442826,-12.861451,15.568976,16.243967,-4.5,-14.121141,-1.9390148
136,-6.731197834014893,-177.0263671875,70.15392303466797,0.9207619219369281,-6.813864996359664,90.28773178453875,-10.473915,0.17176521,-6.0408535,59.195805,-38.099136,-6.762801,-22.96913,-14.4935,-0.30312142,82.98784,-25.654385,3.4858165,-5.574765,-2.8502328,15.168696,-3.7445054,16.186022,-35.20962,5.729581,6.256727,0.19900827,20.613417,3.423024,-12.881876,16.531769,15.951486,-4.0146976,-14.191538,-1.8568274
137,-6.722994327545166,-178.0503692626953,70.33265686035156,1.1007851227263026,-6.928174273733505,90.109643638044,-11.136491,0.086951695,-5.786691,58.659546,-37.1876,-6.7903576,-21.314316,-14.532208,-0.15830344,83.33899,-25.486645,3.297206,-4.832082,-2.7902231,14.961291,-1.7985194,16.509302,-35.083946,5.9889507,5.298552,0.4076249,20.432323,2.0020676,-12.991702,17.619432,15.652938,-3.5050056,-14.274413,-1.684083
138,-6.694523334503174,-179.05941772460938,70.56523895263672,1.3100203935976786,-6.96892871154799,89.95354484542041,-11.7393675,-0.01057192,-5.5259857,57.82554,-36.134865,-6.7590284,-19.64231,-14.603429,-0.06773505,83.47355,-25.142239,3.079429,-4.1406927,-2.7545288,14.626698,0.19144928,16.933037,-34.951683,6.096096,4.0430994,0.59883046,20.166382,0.58878285,-13.190015,18.84693,15.301007,-2.9325233,-14.375901,-1.4322498
139,-6.639026641845703,-180.054443359375,70.8408432006836,1.5088354902942918,-6.9685617745991655,89.86189856565754,-12.297691,-0.10963815,-5.3438196,56.78331,-34.922047,-6.7378902,-17.920387,-14.68396,-0.09529266,83.369896,-24.735617,2.839301,-3.5284297,-2.7159479,14.241351,2.1770537,17.44834,-34.801773,6.051848,2.8765547,0.8067487,19.838701,-0.7408635,-13.446255,20.101065,14.8504,-2.373504,-14.478028,-1.1094886
140,-6.555183410644531,-181.04795837402344,71.15804290771484,1.65708887994786,-6.96030577478173,89.87697190686526,-12.827139,-0.20150225,-5.327824,55.621925,-33.52294,-6.7972426,-16.116573,-14.746142,-0.300682,83.00522,-24.381662,2.5824459,-3.0090034,-2.652139,13.876382,4.089935,18.040071,-34.639862,5.885837,2.187587,1.0606285,19.473017,-1.910382,-13.716546,21.249168,14.2689085,-1.917326,-14.564925,-0.72397816
141,-6.447865962982178,-182.0386962890625,71.51875305175781,1.7449328666103248,-6.9492307485486675,90.02713849304808,-13.328217,-0.30087897,-5.527198,54.345413,-31.93176,-6.962084,-14.189552,-14.81423,-0.74241793,82.35225,-24.115753,2.2907917,-2.5912893,-2.5675666,13.516501,5.90586,18.701578,-34.48157,5.6492333,2.1771092,1.3972574,19.052322,-2.9230192,-13.981704,22.261852,13.577669,-1.6372699,-14.641855,-0.24478613
142,-6.31996488571167,-183.03042602539062,71.91915130615234,1.7945178530604846,-6.919557726532344,90.28340652829921,-13.791826,-0.41647762,-5.885141,52.910316,-30.159044,-7.1924715,-12.168465,-14.879413,-1.3720757,81.4332,-23.87547,1.9680939,-2.2542224,-2.478149,13.128138,7.6459975,19.431307,-34.323456,5.3459873,2.6117418,1.7851359,18.568703,-3.828414,-14.244457,23.191736,12.816316,-1.4860519,-14.716699,0.3220709
143,-6.161679744720459,-184.0184783935547,72.35242462158203,1.8110703283089555,-6.872739548060304,90.60245751805077,-14.217814,-0.5293299,-6.3374596,51.330536,-28.209326,-7.459373,-10.126978,-14.862962,-2.084634,80.2977,-23.632874,1.652301,-1.9621079,-2.3813574,12.750367,9.298671,20.219215,-34.153385,4.951398,3.2278197,2.1487074,18.06005,-4.620829,-14.497004,24.022112,11.989989,-1.375656,-14.77827,0.91142714
144,-5.972661018371582,-185.01686096191406,72.82097625732422,1.8047655313671556,-6.809795898546594,90.94049213245682,-14.610691,-0.6145449,-6.8220315,49.628338,-26.08518,-7.734639,-8.143007,-14.697426,-2.76946,78.997955,-23.359243,1.3802252,-1.6744199,-2.2771113,12.4184475,10.838589,21.048498,-33.970825,4.4577584,3.7602246,2.4173794,17.569242,-5.2917056,-14.725635,24.730047,11.107593,-1.2216322,-14.81454,1.4585061
145,-5.769567489624023,-186.01785278320312,73.31572723388672,1.769026797176727,-6.737709018176921,91.29714334082115,-14.953645,-0.65299577,-7.3555984,47.786068,-23.778172,-8.005693,-6.19771,-14.3738165,-3.4360723,77.498146,-23.106102,1.1110222,-1.3830674,-2.1632047,12.138777,12.238046,21.911844,-33.795975,3.8927922,4.2203517,2.5676649,17.105661,-5.824935,-14.920286,25.290031,10.159723,-1.0523419,-14.806972,1.9761107
146,-5.55980110168457,-187.04669189453125,73.82379913330078,1.7042357049915144,-6.652731140503856,91.69130188040988,-15.252065,-0.6577676,-7.966366,45.80237,-21.291128,-8.290891,-4.2666955,-13.923089,-4.1191144,75.78779,-22.871113,0.8423263,-1.105721,-2.0418513,11.88601,13.5016575,22.807547,-33.631386,3.279605,4.7232113,2.637896,16.648426,-6.2395577,-15.082286,25.714996,9.168045,-0.90308553,-14.768043,2.4886181
147,-5.348446846008301,-188.09603881835938,74.3390121459961,1.6241955427288122,-6.5399125486808805,92.1098530630791,-15.545133,-0.6491294,-8.61204,43.721912,-18.64482,-8.610262,-2.4241624,-13.3480625,-4.744901,73.956276,-22.543694,0.66393745,-0.8403443,-1.9203606,11.647115,14.646046,23.721783,-33.45705,2.6107118,5.1580276,2.655574,16.198418,-6.57577,-15.215376,26.040272,8.184491,-0.697454,-14.730992,2.9472594
148,-5.129180908203125,-189.15975952148438,74.85584259033203,1.5438948840774522,-6.385031363122457,92.5383429734599,-15.866868,-0.6458552,-9.250795,41.58222,-15.856698,-8.983936,-0.7409056,-12.656786,-5.240826,72.08697,-22.010365,0.66413873,-0.58445895,-1.8025591,11.407897,15.681749,24.631533,-33.25571,1.8879837,5.4154844,2.6495957,15.7554865,-6.8714194,-15.323684,26.303663,7.257899,-0.35757834,-14.726596,3.302725
149,-4.890899181365967,-190.22726440429688,75.36483764648438,1.4615419908077085,-6.168683330110706,92.98040007948488,-16.230686,-0.6485553,-9.913164,39.345707,-12.820154,-9.4842205,0.75518537,-11.808281,-5.5600758,70.158554,-21.224983,0.9127394,-0.33633724,-1.682227,11.150404,16.56801,25.521288,-33.04293,1.1355144,5.4468126,2.6316454,15.298827,-7.1287045,-15.407263,26.497232,6.4042726,0.16790074,-14.761346,3.5418959
150,-4.672082901000977,-191.3207550048828,75.85917663574219,1.3732569049232917,-5.903864560304694,93.43997850536347,-16.611797,-0.64395064,-10.622924,36.999496,-9.559002,-10.084849,2.1065698,-10.822216,-5.7387424,68.1369,-20.256292,1.3436861,-0.09786512,-1.554963,10.88239,17.293377,26.38438,-32.835938,0.37460497,5.3204317,2.5877404,14.834897,-7.331834,-15.4661875,26.609104,5.603192,0.82776165,-14.818735,3.6906319
151,-4.448135852813721,-192.42666625976562,76.32217407226562,1.2845404625565309,-5.6242920406423424,93.90421311272222,-16.993727,-0.62984437,-11.318591,34.63053,-6.291049,-10.655864,3.3474126,-9.805931,-5.835734,66.090256,-19.163647,1.8384448,0.12716144,-1.4277759,10.628227,17.913542,27.207382,-32.619324,-0.39571032,5.1041913,2.508522,14.404579,-7.4949822,-15.506825,26.671293,4.8544807,1.5464691,-14.897465,3.75843
152,-4.237833499908447,-193.56182861328125,76.75347900390625,1.2020196388261457,-5.363728595079738,94.36069017268233,-17.362854,-0.6001201,-11.921829,32.325123,-3.2296205,-11.060956,4.509939,-8.861377,-5.9184995,64.09071,-18.004002,2.2805653,0.33211666,-1.3052598,10.412418,18.484932,27.971752,-32.372955,-1.1752093,4.8671675,2.3827686,14.04742,-7.630407,-15.538092,26.71925,4.154233,2.250111,-14.9966545,3.753439
153,-4.035312175750732,-194.7031707763672,77.1441650390625,1.1216731332790573,-5.124050950052035,94.8339215755313,-17.711655,-0.570119,-12.43864,29.983194,-0.16629413,-11.2675,5.59056,-7.9670906,-5.981727,62.146404,-16.665657,2.701538,0.5001698,-1.1800447,10.238101,18.980774,28.66491,-32.10715,-1.9435185,4.5942698,2.1752727,13.765866,-7.732272,-15.566347,26.756783,3.5054443,2.9717577,-15.12725,3.6392765
154,-3.8302433490753174,-195.83306884765625,77.49308776855469,1.0427670872292678,-4.889339825519363,95.3215490845035,-18.057428,-0.5250859,-12.88682,27.608568,2.9272485,-11.343838,6.5776744,-7.0871897,-5.998161,60.223312,-15.162024,3.1471066,0.6378226,-1.0460725,10.091832,19.369879,29.280418,-31.836845,-2.6865108,4.263643,1.9024366,13.5396185,-7.7941904,-15.59337,26.77008,2.905678,3.7351255,-15.288604,3.4239442
155,-3.634796619415283,-196.96990966796875,77.78787231445312,0.969013432079912,-4.666428903746878,95.77241465064029,-18.424307,-0.42536846,-13.1933975,25.448145,5.564054,-11.296175,7.4895,-6.2987084,-6.016141,58.335735,-13.734622,3.5205135,0.7719219,-0.9098877,9.972185,19.702044,29.808136,-31.545412,-3.4108605,3.934541,1.6286831,13.375182,-7.831844,-15.62229,26.76909,2.348167,4.4512954,-15.460506,3.1824307
156,-3.4425721168518066,-198.1136932373047,78.02996826171875,0.9046701631636194,-4.462509329096954,96.13388353078739,-18.825035,-0.2424079,-13.283268,23.729021,7.2619967,-11.12525,8.343334,-5.6773095,-6.093366,56.501728,-12.622273,3.7199185,0.9279683,-0.7776228,9.877367,20.031094,30.235477,-31.211555,-4.1244335,3.6675177,1.4176897,13.279195,-7.862499,-15.656197,26.767136,1.8267984,5.0324893,-15.620396,2.988375
157,-3.255929708480835,-199.27197265625,78.21117401123047,0.8348146073907706,-4.280069595587126,96.3986041588721,-19.234821,0.06267752,-13.079157,22.421005,7.7153273,-10.769056,9.163996,-5.233461,-6.289624,54.699265,-11.937771,3.68667,1.1116214,-0.633363,9.80022,20.369818,30.551908,-30.825415,-4.830786,3.4840853,1.2975112,13.250825,-7.880465,-15.699764,26.769983,1.3264743,5.45653,-15.761591,2.8448281
158,-3.081664562225342,-200.42117309570312,78.32394409179688,0.7587117416793051,-4.1157619677,96.59251263826262,-19.647152,0.44791445,-12.644048,21.42334,7.242716,-10.252346,9.937608,-4.9207425,-6.574805,52.92971,-11.533926,3.4899805,1.3073992,-0.47414657,9.743425,20.679827,30.752386,-30.404165,-5.5115128,3.3538382,1.2292488,13.28693,-7.8797636,-15.753953,26.773228,0.8534407,5.771237,-15.895072,2.716323
159,-2.903053045272827,-201.57131958007812,78.37522888183594,0.7039365970688817,-3.968609806009492,96.71473672234991,-20.10497,0.8174122,-12.120859,20.862629,6.297762,-9.705248,10.629568,-4.7269554,-6.877707,51.23739,-11.263287,3.2194443,1.5069487,-0.3271947,9.7184305,20.937855,30.833248,-29.96648,-6.139841,3.2588277,1.1765051,13.392334,-7.8844028,-15.816084,26.775122,0.4429474,5.9919014,-16.023247,2.619589
160,-2.7328219413757324,-202.74822998046875,78.38471221923828,0.6947113386187946,-3.8357885183403417,96.76589475195135,-20.66077,1.0851643,-11.643657,20.87327,5.335124,-9.244235,11.201772,-4.6463532,-7.127686,49.668297,-10.976456,2.9599824,1.6995704,-0.2208422,9.735058,21.122335,30.791998,-29.530222,-6.689829,3.1813588,1.1029985,13.571459,-7.920368,-15.880469,26.775167,0.13395336,6.132343,-16.148495,2.5715363
161,-2.5751852989196777,-203.95068359375,78.34960174560547,0.7308289316057411,-3.7195955730648484,96.74017665515721,-21.35184,1.2455522,-11.22002,21.554422,4.3951592,-8.874791,11.631235,-4.735137,-7.385461,48.292065,-10.463462,2.646487,1.8856483,-0.15984695,9.80173,21.245468,30.61957,-29.08629,-7.1680117,3.1180613,0.9941663,13.845889,-8.005792,-15.944241,26.774637,-0.06640947,6.1796083,-16.29057,2.5952168
162,-2.418825149536133,-205.16946411132812,78.26078796386719,0.8001086450686333,-3.6195736876578883,96.6405403261015,-22.15168,1.3470615,-10.791049,22.824167,3.2580132,-8.537768,11.937752,-4.974255,-7.673112,47.07087,-9.866509,2.2647066,2.0655575,-0.12847272,9.909232,21.304453,30.31108,-28.634058,-7.5730333,3.0805402,0.871265,14.206012,-8.129764,-16.006153,26.7762,-0.16862924,6.1305113,-16.441595,2.6749623
163,-2.2672009468078613,-206.39450073242188,78.12420654296875,0.9126289261673877,-3.528308903326216,96.4807323564564,-23.014837,1.3894247,-10.381125,24.53818,1.9930474,-8.2430315,12.145851,-5.251025,-7.850582,45.88908,-9.559169,1.9749805,2.22977,-0.12583938,10.040496,21.26208,29.876898,-28.200655,-7.874815,3.073306,0.75214916,14.609861,-8.274054,-16.0617,26.779177,-0.16044669,6.014064,-16.56304,2.7706873
164,-2.11887526512146,-207.62582397460938,77.93833923339844,1.0773528849936622,-3.4378774492624244,96.27379458124476,-23.893745,1.3687651,-10.009293,26.549828,0.6705944,-8.0008745,12.285668,-5.4568515,-7.7687497,44.61694,-9.899185,1.939318,2.3716412,-0.15366416,10.179632,21.086277,29.338833,-27.810207,-8.053236,3.097123,0.6546582,15.015735,-8.419241,-16.103924,26.780027,-0.03177551,5.859235,-16.616243,2.8431659
165,-1.9753187894821167,-208.87939453125,77.69593048095703,1.3171856022500852,-3.33248045369776,96.01923077300032,-24.804626,1.250158,-9.688723,28.881664,-0.7141609,-7.8535295,12.426129,-5.565517,-7.3270073,43.03156,-11.023947,2.222084,2.4959018,-0.23593777,10.314882,20.786592,28.711416,-27.459595,-8.120106,3.137707,0.58396804,15.441938,-8.562384,-16.126144,26.77541,0.2194733,5.6597457,-16.579494,2.875925
166,-1.8373968601226807,-210.14112854003906,77.40521240234375,1.6213161794156568,-3.2199194519298246,95.71098090104445,-25.760721,1.0486145,-9.397214,31.586546,-2.188686,-7.7798123,12.537641,-5.6555424,-6.6291757,41.248898,-12.715086,2.7112217,2.6061234,-0.3700696,10.459329,20.387197,28.000074,-27.130352,-8.100301,3.1947649,0.5314593,15.902062,-8.715445,-16.126059,26.765657,0.5903902,5.4034963,-16.477371,2.8937235
167,-1.7136166095733643,-211.41729736328125,77.06678771972656,1.9499949181753697,-3.1277725816813566,95.3526469127365,-26.709564,0.82932806,-9.10338,34.569805,-3.7123742,-7.6979384,12.500797,-5.778862,-5.831111,39.65085,-14.800034,3.3024712,2.6953757,-0.51873106,10.634718,19.88519,27.218018,-26.819052,-8.000298,3.2906623,0.49415737,16.347422,-8.877433,-16.104746,26.75259,1.0802096,5.1099567,-16.340836,2.9193242
168,-1.5986342430114746,-212.69947814941406,76.6939697265625,2.263855083832813,-3.0852219204218847,94.9469224771281,-27.592854,0.6618795,-8.783641,37.730305,-5.240045,-7.526816,12.1918,-5.969652,-5.083115,38.62899,-17.116228,3.9046516,2.7591424,-0.64237183,10.864519,19.279037,26.383963,-26.522394,-7.8313346,3.4453402,0.46942094,16.730309,-9.04361,-16.066025,26.735416,1.682562,4.7992077,-16.200424,2.975233
169,-1.4915847778320312,-213.98072814941406,76.29943084716797,2.578000663948961,-3.1079393242249966,94.49787925672497,-28.409239,0.52673554,-8.440584,41.123783,-6.757729,-7.23217,11.585496,-6.2583084,-4.3900194,38.274906,-19.86124,4.585799,2.8013568,-0.7527016,11.167976,18.58325,25.509783,-26.229364,-7.6237926,3.676662,0.46829396,17.025127,-9.193255,-16.011002,26.702042,2.3701673,4.4960327,-16.049011,3.0835905
170,-1.390756368637085,-215.26026916503906,75.867431640625,2.9024378706317595,-3.1800409711335424,94.00288164323126,-29.16821,0.4033278,-8.089595,44.75507,-8.280378,-6.8624,10.735886,-6.6203246,-3.7010808,38.406166,-23.06019,5.3554835,2.824906,-0.8620023,11.533548,17.8064,24.601885,-25.93552,-7.3826365,3.9650855,0.48882115,17.262812,-9.329666,-15.940327,26.653242,3.1458955,4.1836524,-15.875741,3.227694
171,-1.2944573163986206,-216.54920959472656,75.4101333618164,3.1850348674921993,-3.284691312102181,93.45587658959008,-29.830395,0.36172867,-7.7364616,48.456722,-9.809709,-6.4611654,9.632644,-6.9816484,-3.0585315,39.017563,-26.30138,6.052281,2.8238475,-0.9277276,11.940222,16.940386,23.672298,-25.647367,-7.085609,4.2749863,0.5081697,17.48095,-9.478685,-15.858269,26.604254,4.041833,3.8206663,-15.706489,3.3706138
172,-1.208674430847168,-217.84327697753906,74.94050598144531,3.375218190039532,-3.4043137947584903,92.85015382438986,-30.360077,0.47020054,-7.385977,52.069225,-11.351108,-6.071372,8.277582,-7.2567263,-2.4802773,40.08176,-29.161884,6.52072,2.7933888,-0.9110003,12.366626,15.978824,22.73668,-25.371998,-6.7144866,4.5703187,0.50371855,17.717619,-9.664135,-15.771965,26.56915,5.0868883,3.3667297,-15.566844,3.4753263
173,-1.1423542499542236,-219.141845703125,74.46127319335938,3.4741460320665,-3.564287827320133,92.14451582055486,-30.737669,0.7543649,-7.02521,55.631264,-12.951233,-5.707108,6.5992765,-7.439631,-1.9442819,41.77475,-31.614092,6.7068605,2.7567544,-0.8162578,12.856102,14.929951,21.797853,-25.077915,-6.29494,4.835514,0.45312944,17.982853,-9.928147,-15.684816,26.553778,6.3125,2.8205614,-15.473243,3.5930746
174,-1.094313144683838,-220.43605041503906,73.98131561279297,3.505014828580011,-3.7661278562634717,91.35608371368953,-30.977137,1.1731925,-6.659978,59.201565,-14.596523,-5.345783,4.628183,-7.539216,-1.431023,44.040363,-33.855858,6.713139,2.7063737,-0.6598522,13.406898,13.800622,20.858496,-24.764828,-5.8391995,5.0906568,0.37387717,18.257109,-10.240669,-15.597535,26.549114,7.6855197,2.2013338,-15.409064,3.7220418
175,-1.0392355918884277,-221.72625732421875,73.5087661743164,3.4523608378968023,-3.9560663107623033,90.56502927332377,-31.104351,1.6957628,-6.3207808,62.663723,-16.199493,-4.974369,2.526086,-7.499981,-0.95655537,46.482964,-35.78876,6.6224685,2.5975308,-0.42661858,13.929758,12.583017,19.940767,-24.490555,-5.3131275,5.3496804,0.3029569,18.535322,-10.509614,-15.515985,26.540573,9.13066,1.5008609,-15.348157,3.7461584
176,-0.9772577285766602,-223.00155639648438,73.07176208496094,3.304332671661945,-4.080285118545985,89.85129307342565,-31.149017,2.2937834,-6.0387974,65.899315,-17.671879,-4.573921,0.45040384,-7.2873206,-0.54245085,48.713615,-37.312263,6.510813,2.393232,-0.10584017,14.338328,11.275202,19.078957,-24.318663,-4.6957164,5.620709,0.27800903,18.814548,-10.633407,-15.450232,26.505857,10.56063,0.71284854,-15.261684,3.5504606
177,-0.9262937903404236,-224.24769592285156,72.68572235107422,2.988944912796544,-4.108896771102122,89.2074818231039,-31.158163,3.0517342,-5.863003,68.945274,-19.015556,-4.1312795,-1.6264573,-6.8159275,-0.20813617,50.703564,-38.33561,6.3571544,2.099179,0.36849174,14.607631,9.877539,18.287224,-24.265005,-3.9678535,5.8830843,0.3260587,19.150501,-10.601589,-15.408219,26.454054,12.000357,-0.2460878,-15.133134,3.037619
178,-0.8801347613334656,-225.46331787109375,72.34122467041016,2.534188566935281,-4.078397500157527,88.59948303445897,-31.107788,3.958526,-5.7686076,71.849174,-20.273436,-3.6576378,-3.7653713,-6.1376443,0.05028682,52.629364,-38.9271,6.1437902,1.7403893,0.96542114,14.792642,8.404218,17.56848,-24.29894,-3.1730447,6.13016,0.4226303,19.529556,-10.443753,-15.39348,26.381735,13.453802,-1.3399489,-14.969867,2.2931633
179,-0.8542237877845764,-226.64840698242188,72.04547882080078,2.0771655152491553,-4.030959713997547,88.06677763746646,-30.92482,4.844281,-5.6723037,74.50987,-21.418407,-3.1696348,-5.861888,-5.437755,0.25235552,54.42012,-39.230106,5.9423995,1.3175347,1.544941,14.9259,6.876911,16.94627,-24.426619,-2.387688,6.3866353,0.52814955,19.847576,-10.1140585,-15.4123,26.241007,14.800206,-2.3971345,-14.782005,1.4770322
180,-0.827826201915741,-227.80540466308594,71.794677734375,1.753605137964051,-4.00549445129445,87.65014631818921,-30.538788,5.5363083,-5.4869533,76.8313,-22.424618,-2.6839516,-7.810243,-4.8990607,0.43251577,56.005386,-39.395176,5.816282,0.8400171,1.9607619,15.040254,5.3225646,16.456663,-24.672392,-1.7009088,6.6718407,0.6026775,20.002995,-9.552895,-15.472809,25.972364,15.901878,-3.2459626,-14.590706,0.74899006
181,-0.7775135040283203,-228.93978881835938,71.58748626708984,1.6331624468614987,-4.013684305192126,87.36504060533176,-29.9076,5.9649963,-5.1543665,78.778564,-23.259743,-2.204477,-9.607427,-4.5916214,0.63728595,57.423275,-39.420464,5.792989,0.32271975,2.1388807,15.1570425,3.7223723,16.129717,-25.097897,-1.1444173,7.0167184,0.6710289,19.947088,-8.678462,-15.578848,25.511097,16.6716,-3.8552663,-14.3862,0.12435502
182,-0.744054913520813,-230.05416870117188,71.42803955078125,1.6311515442798974,-4.030794348598463,87.18781647262824,-29.082998,6.2299576,-4.732044,80.417984,-23.94876,-1.7196053,-11.301063,-4.4133825,0.84816724,58.693245,-39.24002,5.8299956,-0.22094019,2.155574,15.260614,2.0851898,15.966489,-25.711555,-0.70804304,7.3830543,0.7426485,19.747284,-7.509709,-15.730252,24.879519,17.152369,-4.306789,-14.168682,-0.46985674
183,-0.7186529040336609,-231.14501953125,71.31678771972656,1.662799943813512,-4.039745183716243,87.10104376047337,-28.134441,6.4084682,-4.3038683,81.800285,-24.548925,-1.2250086,-12.864848,-4.2914615,1.007571,59.721554,-38.908913,5.8818855,-0.7923063,2.0925422,15.325786,0.47788414,15.951204,-26.453104,-0.41075197,7.6901164,0.7540742,19.474356,-6.1451707,-15.926554,24.156887,17.409676,-4.6012554,-13.980147,-1.0101858
184,-0.6994048357009888,-232.21151733398438,71.25091552734375,1.6429441178317516,-4.024180708764315,87.0873877406767,-27.13259,6.576203,-3.9500241,82.97497,-25.115831,-0.7195311,-14.274037,-4.1566505,1.0548553,60.417362,-38.482723,5.9029527,-1.4045159,2.0366971,15.326604,-1.0342582,16.061384,-27.246613,-0.26170456,7.8633614,0.64252377,19.196566,-4.699827,-16.167559,23.435951,17.529766,-4.7414455,-13.862543,-1.4757553
185,-0.6838792562484741,-233.2539825439453,71.23785400390625,1.556384827482622,-3.981523332240041,87.18082911061978,-26.083866,6.723954,-3.6948628,83.94572,-25.665731,-0.18215372,-15.5073595,-4.021815,0.9378636,60.747547,-37.97702,5.881324,-2.100621,2.0036185,15.244248,-2.47031,16.294691,-28.112032,-0.25255916,7.862499,0.35132793,18.937668,-3.1796234,-16.454844,22.749992,17.518333,-4.6200128,-13.851151,-1.8767024
186,-0.6564454436302185,-234.26641845703125,71.26895904541016,1.4462655051813558,-3.9193483553972817,87.37777094320121,-24.9605,6.81715,-3.4925032,84.69315,-26.164404,0.37603337,-16.585094,-3.9232955,0.7021872,60.765636,-37.363358,5.839024,-2.8694997,1.9557699,15.097702,-3.856357,16.64791,-29.078396,-0.38332123,7.733352,-0.07244508,18.655338,-1.534471,-16.783298,22.054832,17.3377,-4.2701178,-13.919718,-2.220659
187,-0.622946560382843,-235.26089477539062,71.34629821777344,1.3150738147885603,-3.837486823878886,87.60424769274115,-23.776634,6.891586,-3.3115814,85.22065,-26.599289,0.9061253,-17.53905,-3.8247712,0.42922336,60.504593,-36.624866,5.7800274,-3.6513379,1.9055034,14.914169,-5.1402683,17.092129,-30.066036,-0.65784025,7.541887,-0.5357546,18.316702,0.18740086,-17.13994,21.336079,17.035227,-3.909642,-14.015028,-2.4844356
188,-0.5915598273277283,-236.24127197265625,71.47146606445312,1.1635260594034957,-3.7363934552041753,87.78656131546914,-22.545889,6.9810004,-3.1176963,85.53204,-26.954887,1.3598413,-18.40024,-3.6849508,0.19692083,59.997047,-35.744865,5.708643,-4.3950386,1.8675661,14.714482,-6.274584,17.586279,-30.978983,-1.0560535,7.363731,-0.94703054,17.887442,1.9184049,-17.506823,20.590792,16.684717,-3.7581577,-14.080694,-2.6488867
189,-0.5772057175636292,-237.20932006835938,71.64849090576172,0.9759697558825838,-3.613293794746722,87.92718149755035,-21.262283,7.1288223,-2.8952615,85.63459,-27.237677,1.7556102,-19.150486,-3.4783,-0.018160613,59.206596,-34.737823,5.6120415,-5.111969,1.8598683,14.476903,-7.2806177,18.109543,-31.803719,-1.5277447,7.2252684,-1.2943909,17.322937,3.6411343,-17.874668,19.820402,16.329338,-3.9082072,-14.104817,-2.6720457
190,-0.5683550834655762,-238.1664276123047,71.87308502197266,0.7569103936633269,-3.469192603618745,88.0580877552272,-19.923388,7.2997837,-2.657309,85.52589,-27.448887,2.107304,-19.777245,-3.2259796,-0.25187042,58.126663,-33.606243,5.4917397,-5.8254156,1.877805,14.18936,-8.197758,18.6591,-32.58035,-2.0495036,7.095317,-1.6233966,16.65023,5.3755627,-18.239006,19.030558,15.953529,-4.2354417,-14.11557,-2.5792575
191,-0.5665758848190308,-239.10751342773438,72.14633178710938,0.5402934049179994,-3.3105244184927116,88.14961822267458,-18.543549,7.4072065,-2.41051,85.19107,-27.564077,2.361864,-20.32012,-2.9542413,-0.44430292,56.83716,-32.31834,5.3727975,-6.5047746,1.8989227,13.882297,-9.000744,19.220816,-33.284054,-2.6338446,6.971396,-1.9293392,15.944128,7.10048,-18.589762,18.228537,15.557461,-4.637407,-14.116267,-2.4535992
192,-0.5786501169204712,-240.05775451660156,72.45967102050781,0.3617190127513971,-3.1442969043213598,88.17235555142508,-17.139935,7.364673,-2.1653798,84.616745,-27.558466,2.4676352,-20.821486,-2.6917565,-0.5333015,55.419716,-30.841011,5.279892,-7.1225643,1.8992991,13.582067,-9.667408,19.77401,-33.885677,-3.2831314,6.8544474,-2.2080421,15.278637,8.78423,-18.914713,17.427153,15.153764,-5.0136056,-14.109014,-2.379181
193,-0.6033986806869507,-241.0057830810547,72.82077026367188,0.219934602862517,-2.973077655916095,88.10827263438952,-15.691638,7.161938,-1.915053,83.77741,-27.436481,2.4225705,-21.289742,-2.4293983,-0.5022139,53.88526,-29.151197,5.1897845,-7.659676,1.8782451,13.279963,-10.208398,20.304773,-34.370834,-3.9658918,6.783111,-2.4656904,14.61248,10.422972,-19.209757,16.620739,14.76117,-5.3944902,-14.083261,-2.3737829
194,-0.6492348909378052,-241.95916748046875,73.21871948242188,0.09939774044826422,-2.793367769909732,87.97712092001066,-14.200463,6.8376613,-1.6617229,82.68428,-27.209652,2.2559006,-21.70225,-2.151777,-0.3906901,52.190918,-27.270498,5.0987267,-8.132202,1.84659,12.959441,-10.64803,20.809351,-34.757553,-4.6553497,6.7517085,-2.7033024,13.925731,12.024344,-19.47606,15.804374,14.383656,-5.8185024,-14.04129,-2.3947237
195,-0.7066301107406616,-242.89598083496094,73.64592742919922,0.010420527199265756,-2.602127568044908,87.80644557563457,-12.722494,6.382253,-1.4351697,81.391304,-26.860945,1.9626242,-22.057251,-1.8807958,-0.2112358,50.339787,-25.23382,5.0582457,-8.566778,1.7969021,12.6336975,-10.98652,21.282375,-35.06357,-5.3583045,6.692969,-2.9081478,13.323304,13.571954,-19.708487,14.995579,14.01485,-6.1984076,-14.003908,-2.436182
196,-0.7665787935256958,-243.8450164794922,74.09383392333984,-0.04098972435362167,-2.396442207382972,87.62331578914784,-11.310046,5.7894144,-1.2663877,79.9482,-26.377691,1.5355245,-22.355564,-1.639921,0.031740867,48.33972,-23.07091,5.1200414,-8.990075,1.7214829,12.314468,-11.2252,21.718176,-35.306595,-6.079091,6.540105,-3.0662649,12.909932,15.043718,-19.899103,14.214347,13.655589,-6.4489,-13.992096,-2.493018
197,-0.8405889272689819,-244.7910614013672,74.56309509277344,-0.04605360131374126,-2.1621419523177114,87.41815560396644,-9.96232,5.0099516,-1.173191,78.30924,-25.71274,0.90329826,-22.604944,-1.433629,0.37817335,46.162167,-20.749956,5.28426,-9.40071,1.6132087,11.988778,-11.352193,22.110146,-35.478897,-6.821396,6.2869153,-3.1579757,12.728101,16.42708,-20.043661,13.459534,13.3175745,-6.538194,-14.017908,-2.5745287
198,-0.9195082783699036,-245.7642059326172,75.03447723388672,-0.01199666724749539,-1.9050422226060264,87.182788690681,-8.656335,4.0673027,-1.1536654,76.46464,-24.89653,0.09635297,-22.801079,-1.2542061,0.82831526,43.810028,-18.264826,5.528916,-9.783351,1.4756222,11.652167,-11.382586,22.45548,-35.58007,-7.563356,5.967457,-3.1963236,12.716951,17.73249,-20.143976,12.721137,13.003153,-6.5187373,-14.068499,-2.680396
199,-1.0152919292449951,-246.74868774414062,75.51083374023438,0.04927115689509819,-1.6517147766372902,86.9473451192808,-7.4072537,3.0628698,-1.2018486,74.51314,-24.02241,-0.74307966,-22.925158,-1.1121037,1.324233,41.33137,-15.683637,5.8744407,-10.145237,1.3130789,11.329733,-11.349968,22.755522,-35.638065,-8.280194,5.579117,-3.215889,12.825816,18.972042,-20.20198,12.007483,12.69765,-6.4321995,-14.126641,-2.7911031
200,-1.114475965499878,-247.74205017089844,75.98242950439453,0.12634001033103134,-1.429252516806047,86.7417194598392,-6.228197,2.0971315,-1.3010068,72.55521,-23.176966,-1.4752741,-22.957083,-1.0155443,1.8079339,38.77106,-13.072818,6.34145,-10.494028,1.1291916,11.04736,-11.287606,23.014662,-35.68014,-8.949738,5.116907,-3.2511268,13.004273,20.15754,-20.218401,11.328299,12.386302,-6.3198833,-14.175623,-2.8872807
201,-1.2168409824371338,-248.75006103515625,76.43826293945312,0.21981261660419363,-1.2338503678605697,86.56300637159218,-5.1270566,1.1498088,-1.4674624,70.58499,-22.379164,-2.1179922,-22.913923,-0.94204366,2.3278825,36.103725,-10.321133,6.8134837,-10.83241,0.92134356,10.81018,-11.185744,23.233675,-35.69928,-9.57354,4.5436487,-3.3195739,13.269632,21.283606,-20.192806,10.677641,12.06254,-6.1725173,-14.2117,-2.9714935
202,-1.3175787925720215,-249.75729370117188,76.87100982666016,0.3378754172017275,-1.0551946706939233,86.39930780202225,-4.088916,0.18661843,-1.7022164,68.557655,-21.581022,-2.727831,-22.796005,-0.90442735,2.9046423,33.3121,-7.4338946,7.322501,-11.154511,0.6856733,10.606086,-11.0335045,23.412086,-35.687748,-10.162191,3.8735042,-3.402932,13.63849,22.348349,-20.126257,10.052894,11.731991,-5.975688,-14.243655,-3.05151
203,-1.4195363521575928,-250.76612854003906,77.27300262451172,0.4781220591203092,-0.9120422734544887,86.26838587262681,-3.093624,-0.721993,-1.9533252,66.51861,-20.76209,-3.227178,-22.55567,-0.95136666,3.4478333,30.441828,-4.6437473,8.113582,-11.455159,0.41730282,10.43569,-10.860826,23.554764,-35.673176,-10.710645,3.1791663,-3.4806252,14.059568,23.368261,-20.024475,9.466084,11.398229,-5.7641296,-14.273802,-3.115104
204,-1.5209001302719116,-251.7792205810547,77.63127899169922,0.6472383746067278,-0.8250576803486948,86.18930224444006,-2.1211147,-1.5166034,-2.1636086,64.51155,-19.898676,-3.539784,-22.134083,-1.1201525,3.8749847,27.517008,-2.1692402,9.433601,-11.732064,0.105609745,10.30102,-10.693606,23.669718,-35.68146,-11.219669,2.5329769,-3.5299206,14.482374,24.361916,-19.894455,8.930338,11.061871,-5.5711937,-14.304138,-3.1498542
205,-1.615906000137329,-252.78404235839844,77.93646240234375,0.8968509724379544,-0.8233467519210124,86.18281850895389,-1.1349056,-2.2468314,-2.3210433,62.520603,-18.958788,-3.6398811,-21.333569,-1.4963776,4.13933,24.13708,0.12577529,11.747442,-12.000318,-0.30644953,10.216275,-10.51762,23.763569,-35.72064,-11.7169075,1.9186944,-3.5267992,14.927676,25.372332,-19.738527,8.436639,10.692488,-5.3946986,-14.33783,-3.1594763
206,-1.7096002101898193,-253.78460693359375,78.18376159667969,1.243774635421893,-0.8996020096966068,86.24475779447148,-0.1408515,-2.9718125,-2.4447322,60.520123,-17.951637,-3.5674264,-20.204964,-2.0502477,4.315975,20.346031,2.3581398,14.808109,-12.267847,-0.8367238,10.179087,-10.318076,23.840347,-35.773907,-12.206053,1.3071033,-3.4894712,15.411614,26.386425,-19.555813,7.9838076,10.287756,-5.2193084,-14.372247,-3.148526
207,-1.7338238954544067,-254.80038452148438,78.37813568115234,1.306729217713306,-1.0452368020511256,86.2693950278545,0.8211149,-3.213438,-2.5899339,58.72477,-17.083124,-3.4796386,-18.773577,-2.1798773,3.8312018,16.30945,4.5672007,15.000033,-12.43581,-1.1393148,10.260802,-10.120189,23.906588,-35.83288,-12.652069,0.7516886,-3.4547021,15.874595,27.346655,-19.353573,7.5923557,9.884165,-5.0610957,-14.399785,-3.1056185
208,-1.7658482789993286,-255.8271942138672,78.52780151367188,1.3698066543667924,-1.1635320499225976,86.30966023678566,1.6552564,-3.3506863,-2.631117,56.97842,-16.215193,-3.255218,-17.80249,-2.2689757,3.5492887,13.533816,6.012754,15.000033,-12.559873,-1.4312129,10.322845,-9.949991,23.964201,-35.884468,-13.019167,0.30558214,-3.4606376,16.261452,28.16129,-19.145939,7.286133,9.550129,-4.933737,-14.4154415,-3.0181673
209,-1.8311152458190918,-256.8681335449219,78.63754272460938,1.4005017942640035,-1.2065881202219728,86.3631066405124,2.2892485,-3.3124523,-2.4918332,55.299316,-15.2412815,-2.8403304,-17.62255,-2.3093917,3.6396918,12.63405,6.255227,15.000033,-12.640095,-1.6565396,10.330246,-9.813396,24.009577,-35.921124,-13.317995,-0.02367271,-3.5313265,16.559732,28.809477,-18.944265,7.068508,9.311048,-4.835038,-14.420239,-2.881023
210,-1.9006388187408447,-257.9189147949219,78.69927978515625,1.3691233678799988,-1.2020750608052977,86.4246954139561,2.7566617,-3.0758536,-2.2003565,53.700527,-14.21222,-2.2642226,-17.993866,-2.2877932,3.9214847,13.106978,5.551954,15.000033,-12.67404,-1.7973089,10.3136425,-9.693944,24.039848,-35.945206,-13.562143,-0.26200843,-3.6410823,16.79914,29.32236,-18.754383,6.9299054,9.143146,-4.7556806,-14.4168825,-2.7010322
211,-1.982442855834961,-258.9783630371094,78.710693359375,1.2735998560922241,-1.169314686185323,86.48110074042106,3.103594,-2.7278004,-1.8788046,52.157284,-13.341023,-1.640264,-18.718573,-2.2165575,4.1779413,14.58336,4.297068,15.000033,-12.658529,-1.8608087,10.294605,-9.58644,24.052689,-35.95779,-13.718308,-0.40474522,-3.7535558,16.989462,29.672909,-18.586206,6.8731093,9.053768,-4.697809,-14.402889,-2.4820275
212,-2.0722968578338623,-260.05535888671875,78.66996765136719,1.1203547863797287,-1.133533706439953,86.52450254657657,3.3869195,-2.3694112,-1.6629978,50.626976,-12.830298,-1.0824409,-19.594662,-2.1300845,4.2009277,16.698334,2.8782003,15.000033,-12.596035,-1.8675315,10.297043,-9.485269,24.047337,-35.958527,-13.755056,-0.4488854,-3.8317986,17.139639,29.837532,-18.452696,6.900194,9.045293,-4.663174,-14.375694,-2.2283022
213,-2.164896249771118,-261.1438903808594,78.57819366455078,0.9233606609106215,-1.1005716317944412,86.55487930749302,3.6387072,-2.0287063,-1.5865262,49.013805,-12.60945,-0.53987056,-20.641487,-2.0662305,3.9560983,19.561476,1.2822746,15.000033,-12.489047,-1.8299764,10.322505,-9.378954,24.023731,-35.934017,-13.67912,-0.3743679,-3.8767188,17.215826,29.810293,-18.36951,7.0334435,9.1158695,-4.657489,-14.330718,-1.9238595
214,-2.2622532844543457,-262.24822998046875,78.4298324584961,0.726071073624896,-1.0736514577411358,86.59284480519527,3.8483076,-1.7185087,-1.5875312,47.33928,-12.59478,0.0277822,-21.867321,-2.08165,3.5838974,23.18559,-0.6096336,15.000033,-12.351767,-1.7880293,10.364466,-9.263598,23.991854,-35.88838,-13.520999,-0.19233641,-3.9018505,17.226585,29.62365,-18.335426,7.2588387,9.241867,-4.6718006,-14.269923,-1.5697774
215,-2.3543858528137207,-263.36968994140625,78.21089172363281,0.5548481351984401,-1.067869215306103,86.65650694055549,4.001795,-1.4786783,-1.6723809,45.738277,-12.9612,0.48398522,-23.117409,-2.2117124,3.120342,27.180294,-2.6307106,15.000033,-12.226966,-1.7818127,10.424124,-9.14963,23.935905,-35.817417,-13.23287,0.06629747,-3.895697,17.232199,29.253716,-18.329235,7.574115,9.455227,-4.695592,-14.199387,-1.2132336
216,-2.4403326511383057,-264.492431640625,77.93062591552734,0.3992701722841163,-1.0884161295301806,86.7537442928219,4.072883,-1.3037907,-1.8471078,44.35285,-13.885952,0.6871688,-24.247482,-2.4417489,2.5799232,31.161818,-4.613339,15.000033,-12.119078,-1.789943,10.520602,-9.039962,23.86731,-35.750347,-12.825367,0.356728,-3.8482254,17.313229,28.746574,-18.359148,7.912306,9.706656,-4.6946025,-14.126776,-0.8766435
217,-2.516540765762329,-265.6297607421875,77.60118103027344,0.09509386754690395,-1.1318686894153285,86.83729492300377,4.0924435,-0.9907747,-2.1635435,43.183193,-15.666762,0.49303895,-25.20515,-2.5820665,1.7212461,35.03472,-6.5184917,14.302983,-11.988234,-1.6638527,10.680075,-8.918803,23.791506,-35.685802,-12.305512,0.69688237,-3.7346387,17.504402,28.076801,-18.42338,8.291153,10.022837,-4.676117,-14.049815,-0.5438611
218,-2.5930960178375244,-266.7711181640625,77.22130584716797,-0.25660437457158736,-1.1895718038141276,86.93150385757723,4.063678,-0.64799017,-2.5861247,42.111343,-18.079235,0.032584228,-26.107468,-2.769492,0.67245,39.075165,-8.479309,13.258379,-11.855883,-1.4972277,10.872692,-8.785122,23.708258,-35.614296,-11.67988,1.0979013,-3.5669868,17.760843,27.238272,-18.520664,8.726288,10.406965,-4.6489663,-13.966067,-0.20647326
219,-2.6688902378082275,-267.9082336425781,76.81172943115234,-0.5916872689875935,-1.267122434165641,87.05538581509688,3.862619,-0.32078135,-3.0003326,41.34994,-20.703041,-0.5264328,-26.905643,-3.0538356,-0.388151,43.13917,-10.3943615,12.252457,-11.730855,-1.3398676,11.103822,-8.667099,23.620955,-35.54141,-10.940039,1.5088261,-3.38906,18.03809,26.269463,-18.635984,9.174258,10.817129,-4.5980067,-13.883293,0.090329856
220,-2.7336041927337646,-269.0558776855469,76.36766815185547,-0.868306444323575,-1.371024948980339,87.22090587052973,3.3584225,-0.039013036,-3.3117738,41.147865,-23.147215,-1.0248989,-27.547892,-3.4414735,-1.3492908,47.071987,-12.148826,11.357406,-11.607722,-1.226166,11.384872,-8.598762,23.534792,-35.480717,-10.074907,1.8788877,-3.2457545,18.293652,25.21267,-18.745316,9.584576,11.209959,-4.5127077,-13.809407,0.30256566
221,-2.793234348297119,-270.2158508300781,75.88787078857422,-1.101691595325153,-1.52964413043106,87.44274842774237,2.4843025,0.21323693,-3.5134149,41.702858,-25.46583,-1.4631882,-28.011238,-3.9421413,-2.25245,50.91282,-13.707923,10.591016,-11.488998,-1.1547897,11.756955,-8.601074,23.453333,-35.4361,-9.077767,2.174534,-3.150713,18.479136,24.06246,-18.836182,9.945276,11.574172,-4.397587,-13.7599535,0.443324
222,-2.856987714767456,-271.3838195800781,75.39291381835938,-1.3052959216864122,-1.7301520677573001,87.70746534136215,1.3103285,0.4439033,-3.6502898,42.871204,-27.839376,-1.908314,-28.330015,-4.5418406,-3.13748,54.741592,-15.143828,9.912018,-11.362909,-1.1140299,12.202841,-8.660796,23.377907,-35.410576,-7.9519825,2.428093,-3.0800083,18.631607,22.803095,-18.9063,10.273417,11.935905,-4.263291,-13.727213,0.52893174
223,-2.9236767292022705,-272.55877685546875,74.88374328613281,-1.4408831546881902,-1.9182428415846313,87.9855440292067,-0.07983908,0.5991006,-3.726057,44.37812,-30.06607,-2.2996721,-28.541483,-5.20178,-3.898883,58.45965,-16.49953,9.31089,-11.200338,-1.123234,12.646925,-8.757297,23.309805,-35.420815,-6.704664,2.6921914,-3.0217905,18.838024,21.464619,-18.944658,10.558255,12.3066635,-4.110958,-13.685208,0.52043927
224,-2.972992181777954,-273.72491455078125,74.38721466064453,-1.470026260784459,-2.039020479178583,88.24706265327687,-1.5985144,0.62680507,-3.747345,45.937073,-31.935148,-2.577312,-28.695143,-5.8752,-4.4350505,61.977844,-17.816936,8.782294,-10.9672,-1.1990787,13.013923,-8.8737545,23.249535,-35.48778,-5.339972,3.01957,-2.9627717,19.185904,20.07768,-18.933481,10.787047,12.698851,-3.9432063,-13.608413,0.37958938
225,-3.0029101371765137,-274.8942565917969,73.90828704833984,-1.3394379023610141,-2.0544190204502337,88.50199225620908,-3.316367,0.45804378,-3.7025898,47.57614,-33.369274,-2.6994991,-28.860905,-6.597867,-4.702475,65.31375,-19.134102,8.331021,-10.6454115,-1.385087,13.271003,-9.067917,23.19593,-35.66276,-3.7629457,3.4534893,-2.91022,19.752798,18.63923,-18.849283,10.930686,13.142433,-3.7661529,-13.476911,0.026591713
226,-3.0414671897888184,-276.0345764160156,73.47132110595703,-1.0868137335171049,-2.0021662847487685,88.75952986095089,-5.24801,0.13984898,-3.5920365,49.40561,-34.48653,-2.7154841,-29.005062,-7.3627744,-4.771354,68.51634,-20.422918,7.965967,-10.239913,-1.6632458,13.464212,-9.343721,23.146986,-35.935654,-1.9908848,3.9555848,-2.862923,20.476337,17.140007,-18.68663,10.986403,13.627773,-3.5863264,-13.310747,-0.49327084
227,-3.072632074356079,-277.1696472167969,73.07150268554688,-0.8079229593596741,-1.9400728721493885,88.98854556068964,-7.21888,-0.20198233,-3.4439044,51.254196,-35.359985,-2.7004063,-29.022467,-8.056114,-4.716479,71.535904,-21.62394,7.688748,-9.760263,-1.9548521,13.634082,-9.594977,23.104013,-36.22709,-0.19959186,4.454312,-2.7965064,21.23272,15.596222,-18.467737,10.990043,14.109403,-3.404116,-13.143578,-1.0317771
228,-3.1030986309051514,-278.286376953125,72.70283508300781,-0.5994180879797554,-1.924622532991528,89.15782485885121,-9.054149,-0.44255197,-3.2940915,52.95763,-36.06875,-2.7211266,-28.808804,-8.567463,-4.6140575,74.323494,-22.678026,7.5010147,-9.230352,-2.174629,13.818534,-9.701421,23.073774,-36.442566,1.4246621,4.8767314,-2.6912627,21.895948,14.017831,-18.231947,10.996544,14.5408125,-3.211542,-13.007875,-1.4427928
229,-3.1296424865722656,-279.38134765625,72.36515045166016,-0.5011767854260458,-1.9646680444429492,89.26579879354686,-10.743295,-0.5430215,-3.1676908,54.528713,-36.608303,-2.7888432,-28.338896,-8.834468,-4.472472,76.87273,-23.578506,7.4438686,-8.684085,-2.2784367,14.029058,-9.606147,23.064095,-36.54146,2.8685217,5.254466,-2.5335703,22.469025,12.389338,-17.99289,11.012984,14.921528,-2.9692929,-12.908972,-1.6740913
230,-3.1518306732177734,-280.4440612792969,72.06129455566406,-0.4568302393476431,-2.030834807579286,89.32726245624872,-12.365444,-0.5697919,-3.0469222,56.032825,-36.94391,-2.87423,-27.672173,-8.926264,-4.265514,79.21795,-24.356487,7.5046782,-8.119195,-2.3110638,14.242315,-9.356081,23.080778,-36.557823,4.1956015,5.6068554,-2.3390524,23.005016,10.701406,-17.751314,11.035379,15.272714,-2.6819916,-12.829116,-1.8099648
231,-3.158824920654297,-281.486083984375,71.78205108642578,-0.42998136946777954,-2.1219282840012545,89.33591101849505,-13.877035,-0.5577408,-2.9097655,57.38267,-37.10949,-2.9722757,-26.830132,-8.932953,-4.0147705,81.36585,-25.007446,7.6009703,-7.513871,-2.3154404,14.442193,-8.975485,23.129187,-36.499077,5.326319,5.8448267,-2.136929,23.453468,8.973274,-17.533451,11.115435,15.577282,-2.4017217,-12.765283,-1.909056
232,-3.1713593006134033,-282.50177001953125,71.54125213623047,-0.3783639699996938,-2.2364853759039516,89.28526596924644,-15.234729,-0.539985,-2.732774,58.492718,-37.137802,-3.0742197,-25.833765,-8.944271,-3.7401133,83.31886,-25.524302,7.650352,-6.855982,-2.3302243,14.615603,-8.477834,23.21575,-36.36065,6.1701183,5.880629,-1.958257,23.763857,7.2261066,-17.38258,11.313254,15.808506,-2.172635,-12.714342,-2.0306168
233,-3.1875979900360107,-283.50396728515625,71.35075378417969,-0.2993310858830946,-2.3933419316089015,89.15314527294507,-16.4073,-0.51080376,-2.4948528,59.350346,-37.030823,-3.1653318,-24.651213,-8.956179,-3.4275453,85.0785,-25.902529,7.6733704,-6.1360493,-2.3487403,14.781256,-7.8198576,23.347548,-36.104893,6.627448,5.609833,-1.8125573,23.893917,5.4450946,-17.32876,11.670655,15.932937,-2.0090184,-12.6579895,-2.2124777
234,-3.190255880355835,-284.4951171875,71.20027923583984,-0.21105631491168925,-2.5864974778957146,88.95047098186592,-17.4257,-0.45523492,-2.2164996,60.00045,-36.77059,-3.2507212,-23.284208,-8.932349,-3.0737622,86.64283,-26.14399,7.7010155,-5.3848386,-2.3426158,14.942732,-6.9749537,23.528023,-35.717636,6.731178,5.1062717,-1.6850102,23.878944,3.6241524,-17.371578,12.175757,15.958697,-1.8665743,-12.602202,-2.4160798
235,-3.198014259338379,-285.4648742675781,71.09941864013672,-0.1114834152403745,-2.778462032911978,88.72023850378798,-18.340149,-0.3926651,-1.9352746,60.44272,-36.372635,-3.3461418,-21.806229,-8.912445,-2.7142708,88.00534,-26.247793,7.6657257,-4.6468534,-2.3188167,15.067716,-5.986707,23.753931,-35.23232,6.593684,4.549376,-1.5699848,23.784931,1.8039856,-17.49941,12.804857,15.914856,-1.7028039,-12.580354,-2.5860577
236,-3.2028210163116455,-286.41412353515625,71.04606628417969,0.0007816253510527717,-2.9316144768638748,88.50534095458701,-19.20155,-0.34376106,-1.6879239,60.678802,-35.84956,-3.4672706,-20.292898,-8.935088,-2.3845072,89.15974,-26.21242,7.499309,-3.9572384,-2.289583,15.123606,-4.9150434,24.015718,-34.693226,6.344856,4.118441,-1.462997,23.677963,0.029136622,-17.696041,13.521651,15.830035,-1.4806577,-12.625861,-2.6663315
237,-3.1948235034942627,-287.3512268066406,71.03854370117188,0.13823624458073114,-3.0344046687118627,88.29536812351046,-20.017254,-0.32102808,-1.4593468,60.702682,-35.208218,-3.6203475,-18.759417,-9.027021,-2.0714438,90.14169,-26.006275,7.1690936,-3.3020651,-2.2751346,15.086999,-3.7636352,24.304773,-34.111008,6.001842,3.8287585,-1.3744231,23.557402,-1.7381308,-17.966122,14.364498,15.732535,-1.1677488,-12.775763,-2.6371617
238,-3.175523519515991,-288.275146484375,71.07733154296875,0.29666302353124996,-3.1076106956200302,88.07498915670035,-20.760958,-0.31385615,-1.2370385,60.515232,-34.44027,-3.7921007,-17.171062,-9.164939,-1.76659,90.94218,-25.635357,6.714529,-2.666287,-2.2648659,14.983061,-2.5118535,24.61458,-33.462955,5.5098825,3.5956163,-1.3036462,23.39357,-3.504539,-18.30708,15.338837,15.594252,-0.7896254,-13.0016985,-2.5278735
