unveil-humanoid-operators/unveil-humanoid-operators.github.io/feature-analysis-animation/data/feature_matrix_instances/age_ankle_rom_walking_A174_walk_ff_stop_225_002__A174.csv
Frame,root_translateX,root_translateY,root_translateZ,root_rotateX,root_rotateY,root_rotateZ,left_hip_pitch_joint_dof,left_hip_roll_joint_dof,left_hip_yaw_joint_dof,left_knee_joint_dof,left_ankle_pitch_joint_dof,left_ankle_roll_joint_dof,right_hip_pitch_joint_dof,right_hip_roll_joint_dof,right_hip_yaw_joint_dof,right_knee_joint_dof,right_ankle_pitch_joint_dof,right_ankle_roll_joint_dof,waist_yaw_joint_dof,waist_roll_joint_dof,waist_pitch_joint_dof,left_shoulder_pitch_joint_dof,left_shoulder_roll_joint_dof,left_shoulder_yaw_joint_dof,left_elbow_joint_dof,left_wrist_roll_joint_dof,left_wrist_pitch_joint_dof,left_wrist_yaw_joint_dof,right_shoulder_pitch_joint_dof,right_shoulder_roll_joint_dof,right_shoulder_yaw_joint_dof,right_elbow_joint_dof,right_wrist_roll_joint_dof,right_wrist_pitch_joint_dof,right_wrist_yaw_joint_dof
0,-1.1508333683013916,-1.4445719718933105,74.37642669677734,-4.782873463721244,-0.9415901854539651,55.735951545786975,-23.026705,-1.9776307,12.065482,6.531091,2.4930916,-13.702968,16.18167,13.366727,-7.347456,7.2489486,-20.742407,-9.814296,7.514539,5.5651956,11.429279,-1.6353999,17.441298,-43.854298,61.80191,15.843329,-1.351208,4.438089,-12.708085,-17.108902,41.22624,49.152714,-4.054419,-0.75736815,-16.547762
1,-0.6777702569961548,-0.9398401975631714,74.23834228515625,-5.023429712869176,-0.8930491476866174,55.21115114276442,-23.41395,-1.8061094,12.1308365,6.4695287,2.192236,-14.199532,16.714357,13.6981,-6.845008,7.259082,-20.638672,-9.943744,7.8760753,5.842516,11.267978,-1.3416477,17.510496,-43.91083,61.93734,15.910206,-1.2878567,4.3558464,-12.620581,-17.127094,41.45642,49.02101,-4.199597,-0.782581,-16.309845
2,-0.2112564891576767,-0.4389338195323944,74.09796142578125,-5.2787960091240285,-0.8527854455225761,54.66950522055563,-23.82746,-1.6154578,12.166315,6.4129276,1.8767781,-14.724282,17.257162,14.040554,-6.3226223,7.268735,-20.545494,-10.078979,8.22217,6.134408,11.108164,-1.0204204,17.5864,-43.94299,62.062325,15.980996,-1.2216495,4.273017,-12.563055,-17.13555,41.74214,48.91123,-4.3348,-0.80948234,-16.078026
3,0.2592921555042267,0.07145415991544724,73.96411895751953,-5.496812982749999,-0.8052225423292162,54.17607867262285,-24.195312,-1.4660063,12.259464,6.3567643,1.572272,-15.000033,17.794386,14.330919,-5.8439746,7.284183,-20.433542,-10.191402,8.522455,6.385066,10.944906,-0.7006011,17.65707,-43.95938,62.179356,16.051744,-1.1624881,4.192301,-12.507974,-17.13126,42.017307,48.820534,-4.457359,-0.8350592,-15.849984
4,0.752633273601532,0.5909973978996277,73.83731842041016,-5.641003663189341,-0.7282367103751476,53.762456683041194,-24.451952,-1.3660108,12.496892,6.305297,1.3024561,-15.000033,18.302423,14.529739,-5.4403596,7.307548,-20.264376,-10.2635145,8.759765,6.547283,10.762371,-0.39551947,17.724302,-43.954678,62.279316,16.112196,-1.1232979,4.1152987,-12.43603,-17.114117,42.257637,48.745255,-4.5436044,-0.85472345,-15.632499
5,1.2504485845565796,1.111299753189087,73.727294921875,-5.725381758983116,-0.618496905328447,53.4192068527918,-24.598295,-1.2582091,12.897992,6.3000584,1.0398365,-15.000033,18.781158,14.660899,-5.101147,7.3293843,-20.018723,-10.318372,8.952093,6.6286383,10.555494,-0.122045025,17.783989,-43.94052,62.374813,16.152308,-1.1081982,4.0413218,-12.338572,-17.086834,42.450176,48.682888,-4.5879917,-0.8886136,-15.427692
6,1.7478718757629395,1.6287097930908203,73.62419128417969,-5.760100646055668,-0.48493282014824324,53.1298447437925,-24.654472,-1.1573536,13.420671,6.3113933,0.7912247,-15.000033,19.237558,14.735941,-4.8133073,7.353032,-19.71993,-10.357689,9.083584,6.651686,10.334993,0.1710298,17.853674,-43.895447,62.418385,16.180492,-1.1045871,3.9713552,-12.253016,-17.041647,42.6424,48.660313,-4.5906568,-0.9335171,-15.234917
7,2.258315324783325,2.142592191696167,73.5442123413086,-5.738011447397031,-0.3222369474326533,52.89749333975707,-24.626404,-1.0865766,14.0311,6.3347054,0.59352887,-15.000033,19.663263,14.744178,-4.581249,7.3799634,-19.379017,-10.344673,9.191636,6.600219,10.093225,0.43066955,17.913572,-43.845364,62.472225,16.208353,-1.1187644,3.9038064,-12.129982,-16.991219,42.774742,48.62253,-4.5812063,-0.9426902,-15.04403
8,2.790611505508423,2.6885929107666016,73.46101379394531,-5.654084954709948,-0.1261507283929595,52.72648204605496,-24.525198,-1.0644764,14.692095,6.3745193,0.47908694,-15.000033,20.05279,14.678014,-4.4093986,7.409384,-19.00598,-10.2425995,9.265392,6.475311,9.825563,0.6853763,17.970705,-43.772095,62.503967,16.253527,-1.1421853,3.8407376,-11.980835,-16.93328,42.853657,48.577015,-4.5656853,-0.8748102,-14.849109
9,3.3299670219421387,3.242455005645752,73.38420104980469,-5.5049950348786565,0.09874055837172856,52.64349168897969,-24.30781,-1.1254891,15.457023,6.4275527,0.40262604,-14.689407,20.413395,14.53528,-4.317095,7.4464035,-18.638086,-10.031203,9.3043995,6.281754,9.536951,0.8968338,18.000715,-43.70406,62.55492,16.316664,-1.1898208,3.7806067,-11.769402,-16.896626,42.841652,48.46544,-4.5402756,-0.658031,-14.623337
10,3.8688395023345947,3.7957329750061035,73.31652069091797,-5.279721862170699,0.3502947276473721,52.64167690971503,-23.972239,-1.2606567,16.321968,6.479457,0.35953778,-14.224023,20.747375,14.307766,-4.3022494,7.491626,-18.262623,-9.731265,9.261129,5.9819937,9.240337,1.1691548,18.094112,-43.55148,62.49308,16.426754,-1.2520819,3.7095926,-11.574774,-16.781382,42.768955,48.400604,-4.533948,-0.34098735,-14.374929
11,4.4020256996154785,4.34830379486084,73.27610778808594,-4.970250879162305,0.6370110287237281,52.696173925169425,-23.611269,-1.4918228,17.179245,6.5256977,0.44568875,-13.558089,21.036306,13.981373,-4.3573365,7.547742,-17.82338,-9.357591,9.186586,5.587958,8.916712,1.4233471,18.187294,-43.402077,62.430664,16.518383,-1.3143059,3.6507914,-11.357597,-16.661753,42.68066,48.34897,-4.5087056,-0.042325858,-14.16392
12,4.9510722160339355,4.921990871429443,73.24987030029297,-4.582331368132558,0.969085971180742,52.779922164119526,-23.331846,-1.8304363,17.9244,6.579512,0.7491813,-12.5972,21.261995,13.557746,-4.4693604,7.6185923,-17.26437,-8.925528,9.079027,5.103885,8.550891,1.6877646,18.288103,-43.23407,62.351284,16.579895,-1.3507525,3.6114607,-11.143822,-16.528538,42.640224,48.36424,-4.464813,0.114572816,-14.042419
13,5.521109104156494,5.504800319671631,73.2294692993164,-4.064269099975784,1.3854938009711009,52.88675032519273,-23.181149,-2.3303142,18.60197,6.616716,1.386814,-11.166449,20.73316,12.912084,-4.8008966,9.072988,-17.345634,-8.411067,8.940038,4.4846096,8.106341,1.9667951,18.373188,-43.049458,62.267014,16.587261,-1.3566798,3.6469955,-10.907256,-16.412552,42.672676,48.424335,-4.3948803,0.05993126,-14.051035
14,6.102221488952637,6.107195854187012,73.23096466064453,-3.4475303839555207,1.8631388046512283,53.00814785097753,-23.113152,-2.9292703,19.272587,6.6775846,2.2607791,-9.365749,19.989735,12.126759,-5.1904483,10.858641,-17.522144,-7.8215857,8.732725,3.7407258,7.6036086,2.336015,18.514666,-42.77763,62.082523,16.57142,-1.3407695,3.7260408,-10.731592,-16.21762,42.801136,48.620407,-4.301681,-0.13366632,-14.157754
15,6.671024799346924,6.714172840118408,73.24838256835938,-2.7645953427420857,2.3431552697763927,53.14544157167072,-23.050508,-3.6099715,19.879305,6.7213154,3.2148504,-7.4977093,19.186905,11.252116,-5.58165,12.756436,-17.595629,-7.16798,8.530939,2.9260008,7.0980864,2.664246,18.639496,-42.510796,61.934746,16.560545,-1.3145958,3.7548113,-10.53293,-16.038908,42.927452,48.823757,-4.188953,-0.35554647,-14.290898
16,7.221579551696777,7.3371968269348145,73.28023529052734,-2.1007796779626036,2.7562740611076726,53.287395186671766,-22.931578,-4.289696,20.326502,6.770686,4.0678735,-5.878345,18.415123,10.394154,-5.9207296,14.693508,-17.440985,-6.4728928,8.344782,2.1252487,6.654548,2.9243193,18.755957,-42.239628,61.84247,16.60211,-1.28583,3.6292896,-10.339168,-15.865168,43.033947,49.03609,-4.0559406,-0.5016178,-14.387231
17,7.785088539123535,7.940001010894775,73.31706237792969,-1.4611561532026422,3.099737127080196,53.418909578927114,-22.990026,-4.8716817,20.565504,7.3483996,4.560713,-4.6497164,17.67543,9.561994,-6.1889863,16.672752,-17.044893,-5.7642856,8.194684,1.3374697,6.2769017,3.103568,18.861628,-41.941845,61.803135,16.786257,-1.2399169,3.2227478,-10.163697,-15.6999,43.134945,49.25026,-3.9019682,-0.5313385,-14.431718
18,8.371509552001953,8.543033599853516,73.37059783935547,-0.8164164552121542,3.4040004708577825,53.545061351176315,-23.709684,-5.2006607,20.69437,9.476315,4.238258,-3.642685,16.935343,8.72134,-6.402785,18.70752,-16.45596,-5.022632,8.065623,0.5344557,5.936738,3.2283661,18.95879,-41.6172,61.798443,17.064835,-1.1801586,2.6229324,-10.002338,-15.540252,43.243793,49.478275,-3.7256017,-0.50479156,-14.458022
19,8.971148490905762,9.145890235900879,73.42874145507812,-0.19576414758132163,3.6497877455391663,53.69540847199886,-24.260561,-5.5685573,20.718279,11.354187,3.9716008,-2.6847234,16.230862,7.912481,-6.5790586,20.740814,-15.652093,-4.200057,7.929227,-0.23921782,5.650766,3.3033874,19.048557,-41.317974,61.847477,17.27194,-1.1385609,2.0500748,-9.824304,-15.383694,43.311836,49.71704,-3.530503,-0.4674302,-14.47497
20,9.576897621154785,9.757960319519043,73.50141906738281,0.36902236304108704,3.8164239171594754,53.90030111989551,-24.64976,-5.9363947,20.697006,13.072962,3.6355562,-1.6146854,15.591355,7.1783824,-6.738328,22.730537,-14.61818,-3.2484856,7.7600036,-0.93577623,5.434276,3.3268142,19.130987,-41.102757,61.974735,17.238848,-1.1425717,1.7250171,-9.594995,-15.230752,43.285973,49.964443,-3.3209622,-0.465374,-14.490295
21,10.17667293548584,10.35416316986084,73.57872772216797,0.8640095751171978,3.8988188381501327,54.21112603586821,-24.942343,-6.293669,20.58332,14.77467,3.1591341,-0.31814983,15.025064,6.563962,-6.923197,24.663073,-13.299502,-2.1601064,7.530674,-1.5425224,5.2871785,3.2629776,19.208961,-41.034332,62.24797,16.839602,-1.2272028,1.7784209,-9.272908,-15.077932,43.11206,50.209435,-3.0956972,-0.52304786,-14.517355
22,10.759828567504883,10.930135726928711,73.67373657226562,1.294089653479103,3.903660164234117,54.59962662531272,-25.153568,-6.640409,20.348835,16.468597,2.5724597,1.0922136,14.5114975,6.0580063,-7.106573,26.572134,-11.729705,-0.9606227,7.2664843,-2.0715394,5.2027817,3.1182294,19.282911,-41.07514,62.63603,16.18812,-1.36983,2.0677187,-8.883641,-14.925356,42.822178,50.45656,-2.8561993,-0.61246395,-14.547547
23,11.338191032409668,11.507898330688477,73.76602935791016,1.6638475254828988,3.830520154836207,54.980442385449926,-25.197338,-6.9645615,20.07968,18.004936,1.9210113,2.4398582,14.028868,5.615754,-7.2097473,28.502232,-10.032228,0.35823265,7.0138335,-2.5198174,5.1882057,2.956457,19.346851,-41.124577,63.01397,15.480345,-1.5078869,2.4046485,-8.491202,-14.782796,42.497776,50.71933,-2.6084063,-0.70022416,-14.556551
24,11.91112232208252,12.10379695892334,73.8721923828125,1.987441783040425,3.6821997325875087,55.27083426255168,-24.984966,-7.258008,19.864073,19.227837,1.2506685,3.5489807,13.557489,5.1876926,-7.158853,30.492834,-8.337238,1.8201736,6.8090544,-2.8863137,5.2544246,2.8363223,19.380728,-41.070335,63.26862,14.915672,-1.5778142,2.6052098,-8.142886,-14.690859,42.232346,50.97346,-2.3508136,-0.7499379,-14.519466
25,12.463232040405273,12.685160636901855,73.97908782958984,2.2790489164755336,3.42314880897399,55.46396647742951,-24.426155,-7.54637,19.711502,20.061537,0.5487505,4.3657694,13.136581,4.789174,-6.8930583,32.569016,-6.6699414,3.4524457,6.679141,-3.18991,5.440284,2.7634356,19.394957,-40.88422,63.382908,14.513912,-1.5300707,2.5984683,-7.845259,-14.617485,41.992508,51.25842,-2.0847654,-0.75908,-14.405747
26,12.991698265075684,13.248674392700195,74.08356475830078,2.533773205036792,3.068324070539997,55.60370827168684,-23.5978,-7.8261456,19.571785,20.616352,-0.21107987,4.985403,12.757942,4.4652042,-6.4665546,34.71086,-4.994717,5.280411,6.583516,-3.4246418,5.7299156,2.7108397,19.38556,-40.615417,63.4142,14.1798725,-1.4084265,2.4930785,-7.559063,-14.592698,41.771404,51.530262,-1.7943394,-0.74075556,-14.239944
27,13.51011848449707,13.867630004882812,74.2035903930664,2.74160629768413,2.696072664192257,55.68459455947034,-22.66481,-8.056714,19.450546,21.020447,-1.0051887,5.4562726,12.325134,4.1986375,-5.9789333,36.90539,-3.3492823,7.3126493,6.495609,-3.5900805,6.0449657,2.6783955,19.35355,-40.29855,63.355656,13.941896,-1.2785512,2.3658001,-7.3383207,-14.589352,41.605618,51.818134,-1.5185996,-0.69712883,-14.070237
28,14.022109985351562,14.49099063873291,74.33364868164062,2.8902560846482293,2.384621170892533,55.70111526346739,-21.789698,-8.1965685,19.355515,21.395296,-1.805557,5.82773,11.730168,3.9514525,-5.526066,39.161373,-1.7621254,9.528085,6.378104,-3.6691544,6.2943153,2.668398,19.278282,-39.989037,63.21561,13.803968,-1.2061996,2.3004687,-7.2075047,-14.62779,41.583794,52.107147,-1.2580022,-0.62523204,-13.95745
29,14.51070785522461,15.06371784210205,74.43986511230469,2.9499344164536407,2.1592174289278496,55.643249739200456,-21.035196,-8.2013035,19.29494,21.81159,-2.655171,6.099281,10.910899,3.7695134,-5.0354395,41.53276,0.039391853,12.255906,6.245074,-3.6270385,6.449604,2.7102845,19.17696,-39.693882,62.931515,13.755345,-1.2208333,2.3194807,-7.194743,-14.712756,41.76144,52.418804,-1.0068995,-0.5026478,-13.921092
30,14.980758666992188,15.603947639465332,74.54535675048828,2.926783618996786,1.977116909760543,55.51954759433271,-20.316757,-8.090904,19.26133,22.210478,-3.5594819,6.244731,9.914915,3.656256,-4.5764956,44.051414,1.9490731,15.000033,6.0950656,-3.4724762,6.5597596,2.7997646,19.047613,-39.377663,62.51813,13.798649,-1.2838207,2.378654,-7.2772145,-14.844606,42.097973,52.74387,-0.7587209,-0.3375344,-13.929668
31,15.464446067810059,16.112579345703125,74.63701629638672,2.5902531949281618,1.8813221816624528,55.2798871243532,-19.939392,-7.470473,19.17735,23.187565,-4.7535524,6.2016296,8.801129,3.4795687,-5.1020665,46.463444,3.6412535,15.000033,6.0004005,-3.024669,6.570109,2.8713274,18.899855,-39.107456,62.06969,13.933504,-1.3575432,2.455772,-7.3801813,-15.010924,42.44268,53.02217,-0.5462257,-0.17805192,-13.958181
32,15.940690040588379,16.686857223510742,74.75141143798828,2.382051869015186,1.7655564499458214,55.028790497644806,-19.33369,-7.0488396,19.154366,23.696619,-5.691747,6.1044784,7.6333003,2.940702,-5.691221,48.970203,4.3788967,15.000033,5.9019113,-2.6992867,6.6243644,2.8640041,18.750174,-38.95918,61.670273,14.156403,-1.400159,2.52656,-7.4281282,-15.194552,42.63481,53.201252,-0.40682498,-0.072188996,-13.980163
33,16.420263290405273,17.24917984008789,74.8733901977539,2.461921211995655,1.6020943471413096,54.76341720564594,-18.313597,-7.0493035,19.269302,23.399149,-6.212107,5.964692,6.441382,1.9293388,-6.1141863,51.637356,3.7572305,15.000033,5.796517,-2.6580498,6.7642784,2.7834356,18.614847,-38.969166,61.29991,14.526109,-1.3982009,2.566912,-7.421166,-15.383863,42.649017,53.269375,-0.39998892,-0.034153566,-13.994673
34,16.872987747192383,17.798748016357422,74.99927520751953,2.7385651768098573,1.4140772980143506,54.47905546887026,-16.991512,-7.350025,19.482306,22.486603,-6.4254217,5.7661824,5.2150755,0.5743161,-6.376421,54.40206,2.17549,15.000033,5.6805744,-2.808387,6.9561267,2.6639469,18.499836,-39.09892,60.909836,15.020126,-1.3729761,2.5928693,-7.395449,-15.575182,42.555477,53.264862,-0.49434623,-0.03865354,-14.013527
35,17.315317153930664,18.33100700378418,75.12393188476562,3.080987787814097,1.2162555474974783,54.23564137379663,-15.528181,-7.795807,19.670761,21.252981,-6.455561,5.5339437,3.9970691,-0.9627021,-6.613279,57.058327,0.22468016,15.000033,5.5257864,-3.0255637,7.171457,2.4843364,18.404064,-39.30949,60.549007,15.512803,-1.3372794,2.6415532,-7.333807,-15.764581,42.34033,53.216496,-0.58942246,-0.07510759,-14.029483
36,17.755680084228516,18.863914489746094,75.24906158447266,3.3577329057049727,1.0233699266123444,54.09133189614465,-14.095617,-8.221393,19.72664,20.022053,-6.4429216,5.29329,2.8143363,-2.5293114,-6.984379,59.43463,-1.510638,15.000033,5.3094854,-3.1841133,7.38103,2.217458,18.320833,-39.565678,60.274475,15.878487,-1.3035153,2.7512848,-7.216047,-15.949097,41.984722,53.151825,-0.586303,-0.13300613,-14.034848
37,18.194869995117188,19.37346649169922,75.37902069091797,3.4998371942989785,0.8513788709887435,54.04562023393104,-12.795824,-8.511522,19.629515,18.988201,-6.4751663,5.025969,1.6630434,-4.121616,-7.6166544,61.493965,-2.9433005,15.000033,5.0308824,-3.2192585,7.5591354,1.8492117,18.246178,-39.884827,60.105804,16.073734,-1.266538,2.9385,-7.028431,-16.123892,41.429386,53.076458,-0.46091577,-0.23588815,-13.989529
38,18.65394401550293,19.871212005615234,75.50238037109375,3.5242223442321707,0.7047723686447818,54.0516036954164,-11.613305,-8.653832,19.436743,18.123837,-6.5496373,4.705891,0.5417889,-5.9007196,-8.731603,63.31372,-4.3544474,14.026062,4.7208056,-3.156804,7.708379,1.3923444,18.17866,-40.279694,60.017334,16.168219,-1.2226332,3.1814654,-6.7821226,-16.285557,40.69979,52.97913,-0.2657842,-0.38075507,-13.910265
39,19.10732078552246,20.38119888305664,75.63651275634766,3.505055927936907,0.5622212803310813,54.12266651076903,-10.444023,-8.770239,19.168016,17.243338,-6.5913057,4.379601,-0.54861546,-7.721967,-9.96372,64.93453,-5.75373,12.67913,4.3796296,-3.0606291,7.859152,0.86085,18.112925,-40.70329,60.00153,16.208042,-1.1866549,3.4620426,-6.50002,-16.436771,39.910778,52.867725,-0.016462252,-0.5176361,-13.874643
40,19.551485061645508,20.85828971862793,75.7694091796875,3.4387207448113495,0.4243440088699314,54.246263013618986,-9.29868,-8.844099,18.841331,16.371191,-6.6267657,4.070196,-1.6294906,-9.429,-11.122553,66.35361,-7.1009436,11.1288185,4.02785,-2.923118,8.016708,0.26814607,18.041824,-41.10424,60.053143,16.238876,-1.1737363,3.762561,-6.208407,-16.58305,39.183475,52.748604,0.27360073,-0.5971766,-13.961491
41,19.992385864257812,21.330612182617188,75.89466094970703,3.314686254857022,0.29322134807880584,54.434150459716456,-8.176704,-8.870096,18.446793,15.496202,-6.65088,3.775315,-2.718313,-11.005523,-12.233734,67.581795,-8.416411,9.24141,3.6567016,-2.732495,8.182489,-0.40314126,17.959347,-41.48613,60.209923,16.250051,-1.1892425,4.124348,-5.9064846,-16.727127,38.53312,52.608654,0.6084444,-0.5783415,-14.227538
42,20.426490783691406,21.79534339904785,76.01827239990234,3.1386172335719724,0.1687978621084715,54.68818975060122,-7.0749817,-8.854978,17.981739,14.615226,-6.656283,3.48662,-3.8043683,-12.490384,-13.349496,68.62011,-9.733521,7.102722,3.2559223,-2.4942086,8.354351,-1.1533321,17.862633,-41.8654,60.467113,16.227533,-1.2255564,4.5421133,-5.5838466,-16.868418,37.90665,52.447857,0.9950055,-0.49856424,-14.619758
43,20.865798950195312,22.255130767822266,76.13682556152344,2.932070203246865,0.04951420949374417,54.97890166244224,-6.0074587,-8.794331,17.477013,13.779514,-6.6722927,3.2147624,-4.877507,-13.847123,-14.399081,69.45157,-11.012037,4.9708295,2.8437097,-2.2294319,8.530106,-1.9440535,17.750736,-42.20764,60.757164,16.214983,-1.2772251,4.9278836,-5.256643,-17.009935,37.32401,52.296196,1.4241432,-0.42610228,-15.053506
44,21.29143714904785,22.71478271484375,76.25887298583984,2.7169588104016946,-0.06683228584394336,55.276711584468224,-4.985821,-8.691263,16.963438,13.033746,-6.723732,2.97013,-5.930617,-15.047281,-15.317166,70.054565,-12.190229,3.098018,2.4342926,-1.9590924,8.707903,-2.7320247,17.625048,-42.470463,61.00712,16.259047,-1.338179,5.193531,-4.9415927,-17.155478,36.810333,52.18144,1.8869635,-0.42782015,-15.443135
45,21.732177734375,23.167808532714844,76.36679077148438,2.489226655549701,-0.17889943749356504,55.57007025049015,-4.024315,-8.532578,16.44655,12.410116,-6.8334155,2.7722101,-6.972943,-16.09826,-16.126755,70.41841,-13.241101,1.4857752,2.0330157,-1.6772195,8.885278,-3.5025928,17.486757,-42.616524,61.200966,16.41834,-1.4523336,5.2932796,-4.6456256,-17.309742,36.380238,52.112762,2.4548144,-0.54270047,-15.786805
46,22.187713623046875,23.63217544555664,76.47808837890625,2.2433539463898833,-0.28594350421069614,55.87471893615731,-3.1114953,-8.324089,15.912517,11.873501,-6.9795055,2.6087866,-8.012143,-17.010038,-16.866688,70.555595,-14.184707,0.02012792,1.6295123,-1.3789006,9.065212,-4.278235,17.33748,-42.671257,61.374805,16.654642,-1.6081285,5.281789,-4.359816,-17.474628,36.021862,52.072132,3.1085339,-0.7290033,-16.121422
47,22.621746063232422,24.06436538696289,76.57611083984375,1.9963132322107016,-0.3919766527238668,56.20298746144875,-2.2296002,-8.096911,15.364214,11.38868,-7.1344304,2.4436495,-9.043117,-17.765676,-17.497377,70.47959,-15.01159,-1.2263747,1.2169785,-1.0849499,9.253374,-5.073498,17.180727,-42.69311,61.532883,16.865215,-1.7158906,5.2206616,-4.072167,-17.646734,35.716656,52.042187,3.702125,-0.9288997,-16.420502
48,23.02473258972168,24.48396873474121,76.66425323486328,1.766067827159585,-0.5007547617188635,56.56767186712924,-1.3536632,-7.8788233,14.80247,10.907199,-7.266241,2.2422547,-10.061263,-18.352987,-17.975761,70.20219,-15.705333,-2.1826158,0.7886839,-0.81927055,9.453599,-5.899709,17.020712,-42.739624,61.67658,16.949589,-1.6842752,5.17021,-3.776861,-17.820911,35.44559,52.014755,4.0896125,-1.0832105,-16.6595
49,23.451936721801758,24.916397094726562,76.74417114257812,1.5554920149314073,-0.6196798317668439,56.97809725278191,-0.46756467,-7.6821933,14.216993,10.414323,-7.3543606,1.9941187,-11.061773,-18.767216,-18.295269,69.7018,-16.234753,-2.8009205,0.33818617,-0.5888951,9.674901,-6.7635365,16.856796,-42.81249,61.807766,16.8363,-1.3882471,5.1145973,-3.4766123,-17.993992,35.21148,51.99337,4.200539,-1.1727468,-16.814579
50,23.90778350830078,25.35978889465332,76.8262710571289,1.3564611327583078,-0.7447709178290108,57.42596941255381,0.4148667,-7.4914904,13.610677,9.935772,-7.4222245,1.7220203,-12.050036,-19.024107,-18.485857,68.97765,-16.597004,-3.136416,-0.12807305,-0.38358137,9.911522,-7.657175,16.68808,-42.88818,61.922943,16.593199,-0.9085324,5.033051,-3.1759615,-18.1649,35.019882,51.985847,4.122916,-1.2281873,-16.905806
51,24.35064125061035,25.7814884185791,76.89017486572266,1.1667302062848193,-0.8633254033139537,57.89822186998528,1.2830405,-7.3003244,13.0,9.462416,-7.4923687,1.43364,-13.040083,-19.141178,-18.55844,68.07916,-16.823292,-3.2769115,-0.59775394,-0.19816478,10.146021,-8.568083,16.518969,-42.984974,62.01854,16.32906,-0.46800902,4.9782243,-2.8698363,-18.330902,34.854507,51.988102,3.9470115,-1.2640789,-16.975863
52,24.79619026184082,26.19093132019043,76.94664764404297,0.9856023958841919,-0.9627961091454575,58.38151760047542,2.1134245,-7.0996184,12.404297,9.011251,-7.5950813,1.1366708,-14.044914,-19.136923,-18.520744,67.055725,-16.94845,-3.3091674,-1.056018,-0.029366987,10.361706,-9.483096,16.357487,-43.125008,62.087536,16.149345,-0.29027382,4.999063,-2.5513291,-18.487957,34.696663,51.994198,3.7632577,-1.2953779,-17.066887
53,25.239315032958984,26.59202766418457,76.98431396484375,0.8037738137576657,-1.0404158491654283,58.877093040088155,2.895554,-6.8739324,11.83098,8.589241,-7.7460413,0.8204406,-15.077032,-18.968018,-18.331766,65.89469,-16.959902,-3.2158356,-1.500272,0.12980118,10.554032,-10.398464,16.212183,-43.325413,62.124535,16.08569,-0.51004934,5.1318293,-2.2192867,-18.63276,34.551968,52.00777,3.563667,-1.3204601,-17.187418
54,25.70134925842285,27.002344131469727,77.02375030517578,0.6250944997489628,-1.103059026013214,59.39117951814831,3.6419232,-6.632774,11.268843,8.188321,-7.925979,0.4831808,-16.119463,-18.647959,-18.002216,64.577,-16.84551,-2.9716685,-1.9387782,0.27292845,10.732695,-11.313389,16.085367,-43.570503,62.121838,16.081669,-0.98274046,5.3403125,-1.8809069,-18.764393,34.426834,52.03419,3.3101707,-1.3332275,-17.315947
55,26.160696029663086,27.419876098632812,77.05315399169922,0.46770398074211816,-1.1527408663795706,59.917880694087664,4.370814,-6.4017634,10.707763,7.7821865,-8.104165,0.14539693,-17.142794,-18.277512,-17.614477,63.140163,-16.64183,-2.6495013,-2.3724127,0.38633353,10.901887,-12.223766,15.974536,-43.838627,62.07174,16.104404,-1.5135503,5.5640388,-1.5382831,-18.881517,34.302803,52.065617,3.0460377,-1.3421993,-17.449158
56,26.617292404174805,27.837472915649414,77.06788635253906,0.34977763660981875,-1.1916202437441574,60.4507642576905,5.104432,-6.207344,10.136417,7.339434,-8.248354,-0.17124362,-18.12327,-17.95694,-17.249495,61.62402,-16.385183,-2.3199365,-2.8006468,0.45682788,11.064591,-13.1276045,15.873713,-44.10591,61.97145,16.122282,-1.9077426,5.742599,-1.1928521,-18.983143,34.160007,52.094982,2.8138506,-1.3558421,-17.583855
57,27.05889129638672,28.225114822387695,77.0756607055664,0.28012402543780496,-1.2204389848051604,60.99654393882538,5.7411323,-6.0442476,9.549896,7.077513,-8.472142,-0.4629328,-19.064152,-17.711868,-16.909986,60.03446,-16.084272,-1.9785345,-3.227524,0.4763209,11.22189,-14.04139,15.779386,-44.384617,61.83062,16.114231,-2.1134918,5.861617,-0.8482096,-19.06889,33.99745,52.126274,2.6165257,-1.3754851,-17.722622
58,27.525127410888672,28.64084815979004,77.07144927978516,0.24802661131957826,-1.238826588715787,61.55600573710293,6.252748,-5.896312,8.957911,7.04959,-8.810774,-0.74052304,-19.975124,-17.493652,-16.554316,58.351307,-15.721572,-1.5978224,-3.6509092,0.4540684,11.370018,-14.963877,15.690158,-44.680794,61.653122,16.102612,-2.2346556,5.9532104,-0.50297034,-19.138504,33.823627,52.16287,2.433909,-1.3969814,-17.8661
59,27.997249603271484,29.058732986450195,77.0594482421875,0.2424106858618958,-1.247065214462025,62.114187825004024,6.752368,-5.766641,8.3740425,7.0201445,-9.137566,-1.0036044,-20.84562,-17.289371,-16.196926,56.577194,-15.294666,-1.2121146,-4.0610237,0.40307552,11.503605,-15.870036,15.602723,-44.964294,61.43356,16.115139,-2.3115518,6.0271244,-0.15136173,-19.191963,33.63351,52.19813,2.2740905,-1.4212116,-18.00778
60,28.460845947265625,29.469337463378906,77.03368377685547,0.2521142864695806,-1.245219643813896,62.65563485458425,7.2420816,-5.6377244,7.823966,6.9897456,-9.44986,-1.2526922,-21.664995,-17.086084,-15.852939,54.712955,-14.801964,-0.8552672,-4.4484053,0.3373505,11.617434,-16.733278,15.51336,-45.202553,61.162266,16.181625,-2.3808935,6.092498,0.21254046,-19.229204,33.422913,52.225216,2.14614,-1.449038,-18.141403
61,28.94083023071289,29.87714195251465,77.004638671875,0.277747415338317,-1.2333086535358353,63.180900799113125,7.7208095,-5.5102606,7.3083687,6.958415,-9.744997,-1.4708297,-22.449583,-16.865885,-15.480546,52.765114,-14.207978,-0.5652488,-4.8100033,0.2573484,11.711147,-17.55911,15.420063,-45.390274,60.837044,16.31736,-2.4480345,6.1572037,0.5927637,-19.25029,33.18695,52.242203,2.0541582,-1.4797016,-18.26347
62,29.42391014099121,30.30255126953125,76.97248077392578,0.3240603194118572,-1.2116297470210937,63.69632361981581,8.187571,-5.392083,6.815306,6.926253,-10.026228,-1.6628232,-23.197641,-16.64658,-15.082629,50.731403,-13.528564,-0.3176113,-5.1508784,0.15868536,11.786492,-18.35969,15.322509,-45.542793,60.466167,16.504318,-2.4942205,6.215144,0.98641276,-19.254927,32.92996,52.252052,1.993575,-1.5130982,-18.378147
63,29.903676986694336,30.725605010986328,76.9304428100586,0.3878476346777968,-1.1809670368176528,64.19560642056396,8.648761,-5.278463,6.351271,6.8928447,-10.297665,-1.8594948,-23.877712,-16.469576,-14.740015,48.60895,-12.83315,-0.049507305,-5.47402,0.04460837,11.841746,-19.121656,15.220121,-45.658165,60.064354,16.721674,-2.523937,6.2558446,1.3862606,-19.243937,32.660633,52.258377,1.9574772,-1.5518382,-18.489784
64,30.369796752929688,31.148990631103516,76.87313842773438,0.4574162646037806,-1.142191222210946,64.67419291249361,9.108188,-5.1560955,5.920592,6.8623457,-10.569126,-2.093042,-24.46089,-16.364298,-14.542428,46.39566,-12.1901,0.30436188,-5.7848945,-0.07226237,11.87686,-19.829397,15.112114,-45.730503,59.644943,16.95246,-2.5414732,6.2684803,1.7851013,-19.21844,32.38904,52.263554,1.9398818,-1.5981128,-18.603409
65,30.851497650146484,31.576915740966797,76.80393981933594,0.5324849612355361,-1.095864171471173,65.12164493167312,9.562154,-5.021788,5.5343804,6.85094,-10.856954,-2.382261,-24.93441,-16.346508,-14.537242,44.065235,-11.61878,0.8058404,-6.0759974,-0.19232002,11.890489,-20.480804,14.999568,-45.75459,59.207165,17.207418,-2.542151,6.2319174,2.185327,-19.177498,32.111343,52.268814,1.949498,-1.6569471,-18.722055
66,31.348058700561523,32.014896392822266,76.72581481933594,0.6289181370242324,-1.0422007027365807,65.54203545708371,10.008285,-4.893971,5.188478,6.8583155,-11.158835,-2.7028317,-25.312525,-16.397663,-14.665942,41.607277,-11.069363,1.411324,-6.345747,-0.33091572,11.882867,-21.083582,14.88362,-45.732433,58.74608,17.493132,-2.5261045,6.1578984,2.589375,-19.119959,31.825449,52.27178,1.9868008,-1.7257068,-18.84266
67,31.849802017211914,32.465911865234375,76.638671875,0.7439298573059384,-0.9828054153235857,65.95651008292556,10.453168,-4.775989,4.8610854,6.865386,-11.456224,-3.0231342,-25.614101,-16.48691,-14.870745,39.065083,-10.51691,2.0267503,-6.6131163,-0.48482394,11.857737,-21.643303,14.763902,-45.6801,58.274254,17.774742,-2.5047662,6.085459,2.988502,-19.050089,31.541819,52.27372,2.0308874,-1.7954043,-18.960497
68,32.380706787109375,32.92252731323242,76.54956817626953,0.8777266983687223,-0.9206784096442757,66.38399777393501,10.896375,-4.674029,4.5338182,6.8716936,-11.738968,-3.3141108,-25.86332,-16.592768,-15.085625,36.497208,-9.946767,2.5555162,-6.8945074,-0.6526444,11.82105,-22.164402,14.638216,-45.609848,57.803047,18.021341,-2.4893472,6.05383,3.3773184,-18.974596,31.270721,52.269394,2.0624826,-1.8564966,-19.070654
69,32.90546417236328,33.38358688354492,76.45231628417969,1.0323411476932427,-0.8525743854428195,66.83207536523544,11.331586,-4.593564,4.205388,6.877793,-12.005278,-3.5677664,-26.05828,-16.72862,-15.324601,33.880455,-9.358629,2.9551344,-7.196185,-0.8316344,11.770273,-22.646862,14.502492,-45.512108,57.331753,18.213654,-2.4847825,6.087343,3.7601197,-18.899359,31.005226,52.24894,2.0750635,-1.9030755,-19.166904
70,33.39223098754883,33.84049987792969,76.3503189086914,1.205837324081821,-0.7787763386976595,67.29065221045835,11.761148,-4.52895,3.8837078,6.8824844,-12.257625,-3.8022845,-26.188385,-16.901724,-15.614452,31.196993,-8.759923,3.281638,-7.5081406,-1.019887,11.704095,-23.093483,14.355556,-45.38729,56.86026,18.369457,-2.484416,6.1610813,4.142912,-18.82698,30.74096,52.210182,2.0807676,-1.9408385,-19.25264
71,33.903865814208984,34.30601501464844,76.23822021484375,1.3921804869703984,-0.7080400723171162,67.75166104647488,12.196975,-4.47022,3.5654566,6.8882203,-12.495501,-4.0309987,-26.265089,-17.084713,-15.906277,28.515406,-8.150412,3.5833242,-7.822867,-1.2171149,11.63183,-23.505833,14.199682,-45.253056,56.393543,18.523298,-2.4813168,6.2398667,4.5248556,-18.757235,30.491415,52.156208,2.0863929,-1.9774101,-19.337988
72,34.43748092651367,34.7844123840332,76.12606048583984,1.584655981754027,-0.6492135411170962,68.2080502471437,12.652457,-4.4069576,3.246686,6.892405,-12.7140875,-4.2681694,-26.298626,-17.24971,-16.152264,25.9021,-7.5275297,3.9086008,-8.134983,-1.4246216,11.5628605,-23.879877,14.038711,-45.1204,55.931904,18.717022,-2.4681754,6.2877593,4.9009275,-18.68871,30.271212,52.095184,2.0982442,-2.0207777,-19.432983
73,34.965423583984375,35.267601013183594,76.0042953491211,1.786889634786825,-0.602513361821772,68.65636483061989,13.130386,-4.3421526,2.9268486,6.8950324,-12.922241,-4.5208936,-26.277115,-17.384668,-16.349224,23.2935,-6.874039,4.272629,-8.449018,-1.6467413,11.495488,-24.206314,13.8779545,-44.976555,55.454502,18.984821,-2.4499073,6.271101,5.2682934,-18.62149,30.08829,52.026855,2.122833,-2.0760813,-19.54709
74,35.50456619262695,35.75382614135742,75.87914276123047,2.00267479519899,-0.5665013253364161,69.10442870247626,13.626242,-4.2806597,2.60446,6.896695,-13.117616,-4.783388,-26.192345,-17.512203,-16.522766,20.671543,-6.191193,4.6479187,-8.772175,-1.8847497,11.428761,-24.48326,13.71968,-44.81508,54.9586,19.301472,-2.4280465,6.215927,5.628483,-18.555113,29.936035,51.94753,2.1555514,-2.1380427,-19.67269
75,36.056243896484375,36.244728088378906,75.75178527832031,2.2252824496964223,-0.5470423033110525,69.561519916959,14.140446,-4.2130456,2.2755249,6.897152,-13.278954,-5.051264,-26.060629,-17.651007,-16.668442,18.167545,-5.5098934,5.0219326,-9.098466,-2.1364567,11.3702545,-24.731567,13.564878,-44.681026,54.484898,19.593597,-2.391026,6.1774735,5.981708,-18.488152,29.805319,51.866932,2.1849692,-2.1994298,-19.794928
76,36.62163162231445,36.74537658691406,75.62944030761719,2.4458636452447355,-0.5479848561668832,70.03351467187564,14.672069,-4.12756,1.9391873,6.895578,-13.385111,-5.320369,-25.904377,-17.811827,-16.781813,15.919461,-4.863089,5.384532,-9.417143,-2.3974192,11.326788,-24.973694,13.412222,-44.620636,54.07603,19.787966,-2.3265617,6.211371,6.328609,-18.417667,29.685028,51.794834,2.1991487,-2.2531168,-19.898504
77,37.18035888671875,37.24407958984375,75.50434875488281,2.666896429670371,-0.5703375000885226,70.53289564410599,15.218106,-4.02201,1.5970742,6.8920846,-13.437558,-5.5825205,-25.726913,-17.988525,-16.828281,13.911941,-4.23336,5.7694373,-9.726959,-2.6758933,11.301541,-25.220367,13.257151,-44.65434,53.73921,19.846466,-2.2040987,6.3595285,6.672821,-18.340319,29.569078,51.725533,2.1961741,-2.295103,-19.973059
78,37.745574951171875,37.73781204223633,75.38302612304688,2.8899331633058924,-0.6103722848908657,71.04953113419316,15.77723,-3.896999,1.2525454,6.887369,-13.444147,-5.8435197,-25.527224,-18.171515,-16.820007,12.100563,-3.6166077,6.1732297,-10.027068,-2.9710171,11.288655,-25.459322,13.096263,-44.755367,53.457905,19.816425,-2.0390832,6.583905,7.011267,-18.254776,29.462566,51.6605,2.1809046,-2.330138,-20.029043
79,38.32184600830078,38.2442512512207,75.26133728027344,3.099371101014644,-0.6595001698339278,71.54895525959282,16.346062,-3.7394166,0.9146386,6.880457,-13.3938675,-6.120542,-25.335306,-18.354507,-16.820663,10.595531,-3.0731246,6.52996,-10.303272,-3.2557542,11.278966,-25.680578,12.93144,-44.90284,53.237873,19.746614,-1.8884715,6.820622,7.335016,-18.16143,29.372145,51.62015,2.1516628,-2.3642225,-20.08288
80,38.919837951660156,38.755828857421875,75.1584243774414,3.276050201053234,-0.7065729834432973,71.99424290740906,16.92039,-3.5353231,0.5959486,6.870193,-13.276691,-6.431655,-25.200682,-18.530413,-16.887999,9.543121,-2.6798406,6.771903,-10.541519,-3.499568,11.264461,-25.859545,12.765232,-45.056076,53.07258,19.708061,-1.8076332,7.004236,7.6330886,-18.061384,29.30668,51.622913,2.1073074,-2.4031868,-20.151194
81,39.51300811767578,39.27482604980469,75.06022644042969,3.408690645044894,-0.7451233970320833,72.38119942833231,17.48908,-3.272655,0.29921323,6.860452,-13.105053,-6.7967877,-25.177534,-18.704475,-17.003521,9.060186,-2.485708,6.866944,-10.738528,-3.6864493,11.2552185,-26.00953,12.60137,-45.221684,52.95977,19.709173,-1.8278004,7.125259,7.896307,-17.956602,29.261868,51.669483,2.0397484,-2.4476388,-20.233652
82,40.13149642944336,39.788021087646484,74.97325134277344,3.5032707875860387,-0.7759359559756033,72.72026451940754,18.054249,-2.9562998,0.028567009,6.8478193,-12.87896,-7.202943,-25.255657,-18.872828,-17.137373,9.091004,-2.4659102,6.852898,-10.894977,-3.8269813,11.24935,-26.14237,12.444165,-45.426468,52.90183,19.701086,-1.9143143,7.2164965,8.131645,-17.848389,29.235306,51.751427,1.9528453,-2.494796,-20.323055
83,40.76095962524414,40.31740951538086,74.89929962158203,3.56697940516321,-0.7994405181787808,72.99796255320206,18.62593,-2.6004033,-0.20281053,6.833487,-12.576634,-7.618775,-25.37923,-19.0164,-17.333242,9.510042,-2.5816119,6.7663255,-11.009393,-3.932308,11.224227,-26.205378,12.291014,-45.620533,52.88402,19.713863,-2.0220065,7.2736406,8.347919,-17.73659,29.241705,51.872902,1.8630207,-2.5450246,-20.425415
84,41.38112258911133,40.87666702270508,74.82886505126953,3.610313332816723,-0.8189458154136391,73.20003541019165,19.20972,-2.2211592,-0.38247627,6.8352194,-12.184989,-8.011326,-25.48612,-19.11735,-17.634151,10.184382,-2.7893596,6.6450686,-11.078641,-4.0164146,11.15673,-26.160336,12.139338,-45.771053,52.90548,19.757113,-2.1069624,7.293654,8.553338,-17.621878,29.296312,52.042477,1.7873576,-2.5989316,-20.547188
85,42.02159881591797,41.442691802978516,74.76768493652344,3.6294211232697604,-0.8536596410188381,73.32259029602771,19.818033,-1.8116615,-0.51525676,6.8757377,-11.726535,-8.382175,-25.522293,-19.19434,-18.165058,11.13696,-3.1583452,6.516179,-11.102553,-4.077197,11.055941,-26.000685,11.987954,-45.879494,52.979183,19.804043,-2.1638207,7.2743177,8.747163,-17.5062,29.423836,52.28118,1.7384565,-2.6708617,-20.712427
86,42.6799430847168,42.02435302734375,74.70677185058594,3.6093814164353484,-0.8987071152986661,73.38320839177737,20.451908,-1.3525872,-0.6131614,6.9289365,-11.191353,-8.74429,-25.517527,-19.25287,-18.880274,12.410863,-3.6808152,6.349847,-11.093333,-4.0978613,10.933296,-25.745295,11.836956,-45.957355,53.10382,19.861399,-2.2140543,7.217423,8.92716,-17.390892,29.60976,52.577774,1.7043667,-2.7556136,-20.910275
87,43.3644905090332,42.621864318847656,74.6498794555664,3.5573499321531896,-0.9257382695287892,73.39130308180648,21.074709,-0.8574833,-0.6704098,6.995995,-10.552351,-9.079625,-25.535906,-19.25701,-19.55336,13.896934,-4.1957335,6.1023965,-11.054793,-4.083385,10.770527,-25.40986,11.689686,-46.012108,53.263737,19.96178,-2.2550755,7.1272407,9.10246,-17.273397,29.810776,52.88929,1.6690776,-2.8243434,-21.095026
88,44.06696701049805,43.25433349609375,74.59758758544922,3.479466711412248,-0.9047009688765505,73.35781663427112,21.217314,-0.3461661,-0.68065226,7.9925394,-10.259278,-9.366692,-25.656277,-19.16394,-19.96051,15.50153,-4.545193,5.734517,-10.9916115,-4.0379186,10.547204,-25.01309,11.552706,-46.058052,53.44367,20.130499,-2.2845793,7.008237,9.281115,-17.148746,29.98263,53.174927,1.6154628,-2.8483717,-21.221315
89,44.787296295166016,43.90555953979492,74.5539321899414,3.3681402958594897,-0.8242824512020978,73.2876855053123,21.09888,0.20064083,-0.64946944,9.43576,-10.069934,-9.627825,-25.881931,-18.938768,-20.056585,17.222904,-4.638241,5.320636,-10.911117,-3.9554865,10.2501745,-24.536165,11.429645,-46.0894,53.628304,20.428576,-2.306679,6.8382735,9.469315,-17.01133,30.116827,53.43101,1.523773,-2.8023415,-21.264982
90,45.50309371948242,44.534000396728516,74.53211975097656,3.2202376497063496,-0.7010547797644181,73.18297643133629,20.892553,0.79409516,-0.59474015,10.991261,-9.816112,-9.860114,-26.160213,-18.59152,-19.980942,19.054623,-4.545391,4.8677673,-10.816172,-3.8356423,9.890334,-23.9796,11.322572,-46.110992,53.828022,20.81511,-2.3219268,6.6221094,9.658927,-16.86033,30.235176,53.682304,1.4068928,-2.707954,-21.254309
91,46.23872375488281,45.1897087097168,74.51105499267578,3.0395102881226364,-0.5442285180977322,73.05053334029448,20.56248,1.4190468,-0.54220825,12.7260065,-9.494094,-10.008966,-26.498936,-18.138704,-19.793043,20.910553,-4.3494625,4.2348113,-10.708927,-3.682089,9.485034,-23.370049,11.232262,-46.12421,54.051834,21.19447,-2.3206835,6.4027386,9.835909,-16.69841,30.34201,53.927505,1.296479,-2.6069443,-21.22198
92,46.98688888549805,45.856475830078125,74.50238037109375,2.827285838035172,-0.36120052657562524,72.89751792168461,20.084728,2.0623682,-0.5162255,14.68161,-9.087966,-10.023111,-26.906672,-17.605186,-19.553783,22.71366,-4.138284,3.2691636,-10.590533,-3.4941206,9.050365,-22.742535,11.159834,-46.141277,54.31334,21.458656,-2.2924013,6.223692,9.988433,-16.530916,30.440205,54.16231,1.2260813,-2.5406253,-21.200583
93,47.740562438964844,46.52461242675781,74.49825286865234,2.5791221290190927,-0.12265827937195284,72.73532759443921,19.429144,2.7186673,-0.5693371,16.852535,-8.593617,-9.888003,-27.500008,-16.992102,-19.195173,24.54658,-3.7963367,1.6810186,-10.457522,-3.2650795,8.550864,-22.108475,11.105267,-46.1951,54.612194,21.588028,-2.2019236,6.0523214,10.143074,-16.359598,30.504848,54.354027,1.2274162,-2.5299103,-21.196863
94,48.5146598815918,47.20759963989258,74.49407196044922,2.29081726145306,0.1667610846819949,72.56023997788553,18.640482,3.4007714,-0.6770035,19.16231,-7.990105,-9.631976,-28.230576,-16.282505,-18.753231,26.390997,-3.280013,-0.36059225,-10.3138075,-2.9906185,7.9910817,-21.447271,11.067863,-46.26868,54.937202,21.63843,-2.0647311,5.8793387,10.303744,-16.189829,30.542433,54.502686,1.2766315,-2.5485275,-21.192375
95,49.2971305847168,47.88909149169922,74.49718475341797,1.9575938111581617,0.45084908590801176,72.35334174118697,17.794262,4.1303363,-0.7412122,21.569948,-7.2424746,-9.27023,-28.872553,-15.484328,-18.408169,28.062792,-2.8436368,-2.3447924,-10.1673155,-2.674048,7.44087,-20.75028,11.043375,-46.303886,55.299046,21.611403,-1.945419,5.784047,10.406888,-16.013832,30.602139,54.68422,1.3179404,-2.569193,-21.185637
96,50.069026947021484,48.55242919921875,74.5144271850586,1.5713574044664198,0.6752781782547482,72.09203781619537,16.959368,4.9375715,-0.6590542,24.050104,-6.325389,-8.816248,-29.215265,-14.606263,-18.285612,29.424921,-2.809872,-3.775221,-10.024642,-2.2974656,6.981006,-19.991152,11.033068,-46.225117,55.672264,21.51968,-1.9088683,5.845529,10.424696,-15.878657,30.728224,54.905746,1.3044385,-2.5603287,-21.167305
97,50.84868240356445,49.214900970458984,74.54194641113281,1.1188471771808157,0.8378022348814412,71.74567630404442,16.129519,5.844098,-0.36899552,26.64811,-5.211548,-8.117724,-29.213663,-13.645274,-18.388805,30.496038,-3.4427454,-4.445463,-9.894191,-1.853853,6.59618,-19.141993,11.03458,-45.983944,56.084694,21.324656,-2.001304,6.1672115,10.271083,-15.733948,31.000923,55.29789,1.203398,-2.5258558,-21.15719
98,51.627784729003906,49.88690185546875,74.56703186035156,0.6046906454505422,0.965367305319043,71.32716556513357,15.286405,6.8482904,0.08086796,29.338457,-3.9088197,-7.2118616,-28.99588,-12.619252,-18.604681,31.408453,-4.5753183,-4.655001,-9.762455,-1.3368258,6.259755,-18.214788,11.050894,-45.629242,56.512245,21.03221,-2.180568,6.6787114,10.015516,-15.616518,31.365454,55.7635,1.0510905,-2.4754803,-21.146467
99,52.39472198486328,50.557369232177734,74.59461212158203,0.05549654100809428,1.0449357325311268,70.87868970142749,14.473426,7.933231,0.6202629,32.020367,-2.4602256,-6.3939686,-28.605526,-11.561085,-18.864374,32.1719,-5.8868923,-4.6672177,-9.590597,-0.7811215,6.0047326,-17.270493,11.0676,-45.25296,56.93796,20.723492,-2.3770196,7.2007565,9.7642355,-15.550115,31.67356,56.152332,0.883461,-2.398728,-21.105225
100,53.14476013183594,51.21384811401367,74.62377166748047,-0.4932644789298964,1.060007708329425,70.44410075078075,13.726574,9.059419,1.1617177,34.618313,-0.92169553,-5.9620404,-28.086143,-10.486035,-19.105871,32.764038,-7.0423098,-4.7496886,-9.496399,-0.25704446,5.835124,-16.297625,11.113361,-44.76042,57.34914,20.529787,-2.525212,7.5431256,9.426272,-15.457653,31.985775,56.545055,0.7736523,-2.2918768,-21.03861
101,53.88970184326172,51.87232971191406,74.65620422363281,-1.0356457809749404,0.9801865717325277,69.99203962838925,13.112882,10.204955,1.7049749,37.12812,0.7781246,-6.127358,-27.422829,-9.346224,-19.295752,33.149426,-7.9752803,-4.942423,-9.337179,0.23026855,5.806162,-15.322005,11.165906,-44.229816,57.727608,20.481339,-2.594113,7.684568,9.126687,-15.380212,32.120697,56.804855,0.65900904,-2.1243124,-20.893984
102,54.627418518066406,52.49787521362305,74.68677520751953,-1.576128324866618,0.8190838223639766,69.51565666671739,12.5721035,11.364726,2.2641997,39.65526,2.6057982,-6.6918917,-26.613209,-8.151946,-19.460989,33.35297,-8.854005,-5.110657,-9.152231,0.69830626,5.888533,-14.328375,11.219638,-43.620712,58.09905,20.525295,-2.6243405,7.715892,8.813882,-15.315792,32.171425,57.00017,0.538639,-1.9094216,-20.695757
103,55.3661994934082,53.101318359375,74.72557830810547,-2.097460361043041,0.6271178525883921,69.0900504230808,11.947123,12.531085,2.778605,42.286793,4.356698,-7.3314786,-25.700228,-6.973563,-19.641027,33.381683,-9.670768,-5.2675085,-8.962975,1.1434284,6.029417,-13.418246,11.263964,-43.109173,58.522705,20.534382,-2.6369956,7.6434517,8.526877,-15.269074,32.126102,57.093277,0.47694564,-1.7005396,-20.499666
104,56.06263732910156,53.669036865234375,74.76456451416016,-2.587662096767838,0.45625349628789014,68.79188663542801,11.077166,13.727606,3.1977859,45.105923,5.825992,-7.700729,-24.733093,-5.8825502,-19.882345,33.260246,-10.428243,-5.4266114,-8.859414,1.5545541,6.1773276,-12.642004,11.331806,-42.784317,59.016895,20.41105,-2.6564283,7.462369,8.230973,-15.211105,32.04542,57.11943,0.5459093,-1.5527874,-20.370234
105,56.73006057739258,54.224830627441406,74.81417083740234,-3.0509238519470214,0.3029307893442107,68.65043537194836,9.902152,15.077328,3.5976815,48.24177,7.054297,-7.7103586,-23.687366,-4.885494,-20.217451,32.961864,-11.126732,-5.6007266,-8.808402,1.9308203,6.3501306,-12.05537,11.416145,-42.7644,59.627827,20.03895,-2.6937091,7.159063,7.9911604,-15.1456,31.831497,56.99648,0.7679988,-1.4794799,-20.34877
106,57.425479888916016,54.77667999267578,74.88166046142578,-3.4954613961102834,0.14526929590547333,68.62000296396204,8.505629,16.577301,3.9737701,51.626015,8.103951,-7.495042,-22.544186,-3.930102,-20.619772,32.465054,-11.755296,-5.785058,-8.771264,2.2662442,6.5707383,-11.60397,11.545132,-42.98495,60.303047,19.49472,-2.7296734,6.7358427,7.782189,-15.049288,31.472916,56.768005,1.0908939,-1.4549625,-20.39531
107,58.10364532470703,55.30388259887695,74.9657974243164,-3.9189308987463622,0.010206611318385008,68.66546857685303,6.938652,18.054514,4.164118,55.032135,8.8061075,-7.0619483,-21.364449,-3.0033357,-21.05097,31.81102,-12.304138,-5.9643435,-8.738805,2.5777495,6.790005,-11.267769,11.685682,-43.385357,61.028023,18.931772,-2.7401366,6.2362967,7.5812707,-14.950575,31.069788,56.494427,1.4853125,-1.4672939,-20.437496
108,58.768672943115234,55.816131591796875,75.0557632446289,-4.31154472379819,-0.07384078122462288,68.75359789002422,5.2483797,19.281136,4.0108624,58.229073,9.002339,-6.466944,-20.21318,-2.108066,-21.470827,31.055298,-12.770324,-6.118989,-8.680493,2.8657968,6.9591293,-11.022455,11.835159,-43.939247,61.758804,18.49048,-2.701325,5.7020144,7.3685937,-14.858,30.68898,56.241848,1.9065765,-1.5057237,-20.402157
109,59.41785430908203,56.32637023925781,75.14978790283203,-4.67396433316946,-0.07232668879913452,68.92950802373328,3.3413224,20.09593,3.3194675,61.23438,8.51756,-5.6694007,-19.116482,-1.2697275,-21.922932,30.19702,-13.151627,-6.2565722,-8.625544,3.13223,7.0481915,-10.914966,11.994614,-44.75662,62.53261,18.20509,-2.5876505,5.0675592,7.1620336,-14.777595,30.302881,55.982056,2.390906,-1.5844312,-20.222292
110,60.047393798828125,56.8194694519043,75.24979400634766,-5.003716943018229,-0.006578792527478358,69.19387671393876,1.2186147,20.573366,2.2226233,64.14872,7.4834237,-4.711963,-18.04243,-0.4890811,-22.412893,29.225544,-13.457413,-6.380962,-8.575265,3.3712485,7.0885158,-10.942831,12.163672,-45.817398,63.353546,18.002413,-2.4179928,4.336235,6.9724345,-14.709678,29.885813,55.684017,2.9460993,-1.7008642,-19.950397
111,60.66304016113281,57.30794143676758,75.35443115234375,-5.282835130788388,0.06769365955467321,69.44970259459396,-0.9281597,20.83345,1.065595,66.86836,6.216258,-3.7870972,-16.966331,0.25618342,-22.843887,28.179134,-13.699535,-6.464211,-8.471776,3.569588,7.118612,-11.003738,12.336118,-46.885574,64.13431,17.86329,-2.243486,3.6535568,6.762096,-14.656073,29.52311,55.41562,3.4887838,-1.8203343,-19.69426
112,61.25220489501953,57.79526138305664,75.47230529785156,-5.49819426003692,0.09342920558992585,69.59929198911789,-2.905728,21.054426,0.20017979,69.283394,5.024649,-3.0617466,-15.858855,0.9907459,-23.119064,27.090904,-13.887354,-6.4793973,-8.266318,3.7193973,7.1758432,-10.9893675,12.50642,-47.71187,64.78333,17.770906,-2.11042,3.1633208,6.4836516,-14.621353,29.314552,55.2534,3.9398036,-1.9106623,-19.563976
113,61.8338508605957,58.27415466308594,75.59031677246094,-5.642425295999995,0.055721877185388846,69.62701849305975,-4.662518,21.311031,-0.26119626,71.36102,3.9410884,-2.6336722,-14.708593,1.7102189,-23.216663,25.964827,-14.018159,-6.4012613,-7.9511704,3.8167214,7.271486,-10.885906,12.672043,-48.24406,65.2804,17.773361,-2.023223,2.9054854,6.1184616,-14.610032,29.321806,55.222523,4.318343,-1.980833,-19.64244
114,62.40663528442383,58.762794494628906,75.7071533203125,-5.723581955790007,-0.015537088244538283,69.58195423876055,-6.2919216,21.52078,-0.49488708,73.164345,2.8183274,-2.3925352,-13.528445,2.3964093,-23.18893,24.788774,-14.090384,-6.2495255,-7.563084,3.8693545,7.384398,-10.739738,12.834965,-48.59446,65.670975,17.865295,-1.961074,2.8021119,5.688347,-14.623218,29.497366,55.282345,4.658612,-2.0439696,-19.85429
115,62.958580017089844,59.26142883300781,75.82766723632812,-5.753229015933363,-0.11059650711168022,69.46261413090413,-7.821903,21.654722,-0.5840292,74.72289,1.6910342,-2.181297,-12.321983,3.0543153,-23.049366,23.565392,-14.112975,-6.0663285,-7.115405,3.8894365,7.5040755,-10.534139,12.997685,-48.761818,65.965225,17.95032,-1.9355338,2.8216524,5.211484,-14.658543,29.771208,55.40494,4.900829,-2.074106,-20.072014
116,63.503379821777344,59.76552200317383,75.94908142089844,-5.742938238253927,-0.2192194024264772,69.26808485871265,-9.28115,21.673664,-0.6153361,76.06052,0.5957217,-1.8482985,-11.096643,3.6887438,-22.811283,22.303972,-14.096926,-5.894646,-6.6251154,3.888262,7.619915,-10.24927,13.16428,-48.739693,66.17115,17.934671,-1.9582392,2.9325745,4.7016377,-14.71259,30.077242,55.56706,4.986248,-2.043507,-20.169147
117,64.03690338134766,60.26085662841797,76.07172393798828,-5.686452418651521,-0.3474111911103026,68.97778438407568,-10.646489,21.572891,-0.55129296,77.16572,-0.4508336,-1.3386273,-9.845039,4.3004475,-22.452421,21.000277,-14.041109,-5.749191,-6.0742755,3.8594365,7.733092,-9.860083,13.337009,-48.47415,66.270256,17.832924,-2.0609772,3.168852,4.1503716,-14.783368,30.418867,55.78938,4.858417,-1.9283838,-20.10406
118,64.56523132324219,60.76023483276367,76.1956787109375,-5.579899015155124,-0.4966929839886012,68.59885078943931,-11.904782,21.366346,-0.3587368,78.0242,-1.4646462,-0.74814385,-8.569394,4.877269,-21.975744,19.666325,-13.947282,-5.60743,-5.4626245,3.8001313,7.8488884,-9.375766,13.516298,-47.982334,66.25517,17.684744,-2.2284873,3.5321207,3.5544264,-14.86944,30.827585,56.075607,4.5614924,-1.7491326,-19.946072
119,65.10575103759766,61.27566146850586,76.32144165039062,-5.439888217480294,-0.6502838346453168,68.17186348049944,-13.104964,21.035686,-0.13350266,78.65737,-2.4568498,-0.15474977,-7.280388,5.4130673,-21.43251,18.309118,-13.827576,-5.4571733,-4.8300385,3.7259166,7.961689,-8.834489,13.703872,-47.376865,66.15563,17.424208,-2.4028223,3.9424286,2.9331448,-14.968791,31.275192,56.381065,4.1876545,-1.5443563,-19.735441
120,65.623046875,61.79450225830078,76.44034576416016,-5.283611100680764,-0.7919102004476238,67.73720554321731,-14.29839,20.562443,0.029781237,79.08857,-3.4381685,0.36671042,-5.990984,5.904694,-20.874279,16.935932,-13.693011,-5.286295,-4.210522,3.6527793,8.065902,-8.278804,13.900894,-46.774975,66.0045,16.984367,-2.5266123,4.320143,2.3104293,-15.0781145,31.725079,56.656113,3.826539,-1.3519002,-19.512856
121,66.12409973144531,62.305259704589844,76.54910278320312,-5.109594549317725,-0.9217358512766657,67.29610345935436,-15.49266,19.91644,0.11317851,79.31443,-4.4430614,0.8173038,-4.6954985,6.350492,-20.305954,15.534037,-13.546723,-5.091352,-3.6005647,3.579597,8.161037,-7.7113113,14.105822,-46.17458,65.78534,16.250284,-2.5565782,4.6749043,1.6823814,-15.19676,32.18023,56.90608,3.4725835,-1.1666982,-19.27706
122,66.62571716308594,62.80624771118164,76.64466857910156,-4.911799474807237,-1.0465650682371377,66.82957072897925,-16.66033,19.116438,0.17048803,79.320724,-5.4499335,1.2304841,-3.3836625,6.7542753,-19.704483,14.091872,-13.376441,-4.879688,-2.9819732,3.5005877,8.250168,-7.113366,14.316606,-45.528156,65.48922,15.287841,-2.5364733,5.039311,1.0427101,-15.323783,32.651752,57.14895,3.0858831,-0.97453016,-19.009424
123,67.1270523071289,63.31725311279297,76.72797393798828,-4.70179856063826,-1.160428351993225,66.34698024036112,-17.804823,18.215433,0.20964177,79.115204,-6.3789654,1.5745379,-2.0855904,7.115447,-19.083176,12.666414,-13.197072,-4.6552715,-2.364691,3.423296,8.33111,-6.499426,14.5342865,-44.887596,65.16539,14.300644,-2.536032,5.367788,0.40810728,-15.456203,33.112373,57.36165,2.7041614,-0.7985264,-18.726576
124,67.62320709228516,63.83070373535156,76.7986068725586,-4.491741087572269,-1.2577217552529567,65.85826280627717,-18.926714,17.270643,0.24210417,78.70622,-7.1554093,1.8223488,-0.8200963,7.439313,-18.454187,11.289889,-13.010972,-4.4227843,-1.7540154,3.3542788,8.400919,-5.8868003,14.761024,-44.311756,64.86563,13.4909725,-2.6209822,5.613028,-0.2039368,-15.59077,33.52755,57.521526,2.363561,-0.6614054,-18.44561
125,68.10662841796875,64.34283447265625,76.85960388183594,-4.289212803392835,-1.3439758801086372,65.37150231576261,-20.025127,16.28708,0.263353,78.08877,-7.7467184,1.9537885,0.43136045,7.736793,-17.81833,9.937769,-12.800606,-4.16691,-1.1480807,3.2991476,8.461249,-5.2839103,15.001135,-43.81887,64.608696,12.889516,-2.8599236,5.7355757,-0.7834501,-15.726014,33.874046,57.622513,2.0613954,-0.5794484,-18.15237
126,68.5901870727539,64.85005950927734,76.90689849853516,-4.089278062229252,-1.4201629316624205,64.87886938741164,-21.096004,15.245227,0.2704642,77.25658,-8.197033,1.990035,1.6798475,8.008655,-17.170263,8.584552,-12.561542,-3.8934128,-0.5409349,3.254663,8.512375,-4.680954,15.255411,-43.38086,64.36466,12.3949795,-3.1968393,5.767703,-1.3424802,-15.862431,34.169983,57.679115,1.7813936,-0.53719825,-17.844904
127,69.06559753417969,65.3669204711914,76.95372772216797,-3.8872254959313097,-1.4742304544735356,64.36735846362772,-22.134323,14.164256,0.27517045,76.21431,-8.545809,1.9641109,2.821433,8.224201,-16.522799,7.421537,-12.401971,-3.6366227,0.06656859,3.215194,8.549732,-4.07014,15.518672,-42.98649,64.11542,12.011464,-3.509173,5.770963,-1.8953648,-15.998908,34.44348,57.69747,1.5387952,-0.50902563,-17.558537
128,69.54498291015625,65.89278411865234,76.99248504638672,-3.6808263338535023,-1.4944590413630825,63.82480599192866,-23.135988,13.064601,0.28423473,74.96859,-8.833839,1.9080999,3.427757,8.262033,-15.938054,7.3472433,-12.796078,-3.4237287,0.67333645,3.1776285,8.568484,-3.4473839,15.781124,-42.627518,63.848194,11.741841,-3.6748192,5.80921,-2.455787,-16.133484,34.721596,57.685726,1.3481739,-0.46899247,-17.328402
129,70.0069808959961,66.40582275390625,77.01741790771484,-3.466814615066705,-1.4704422601200513,63.24647371763751,-24.118057,11.930769,0.28191647,73.5165,-9.071832,1.8393813,3.976439,8.277281,-15.349302,7.28209,-13.175514,-3.2732334,1.2828836,3.1413813,8.561761,-2.8203027,16.03326,-42.31135,63.562187,11.623771,-3.6319277,5.9147377,-3.028815,-16.264788,35.00514,57.641453,1.2352204,-0.40428856,-17.176134
130,70.4708251953125,66.92072296142578,77.029541015625,-3.2521346028805054,-1.4117901436692608,62.64080746546659,-25.069925,10.762748,0.26333255,71.851456,-9.239482,1.7380173,4.480391,8.276696,-14.756509,7.2270527,-13.539219,-3.166728,1.8941772,3.1116662,8.532941,-2.1961086,16.27146,-42.041656,63.27724,11.643264,-3.4537282,6.0508833,-3.6074116,-16.392351,35.28099,57.566135,1.1845926,-0.32981384,-17.079523
131,70.9282455444336,67.44439697265625,77.03680419921875,-3.048429025486597,-1.3368637020292486,62.01585132581877,-25.948431,9.604682,0.24934116,69.973526,-9.329753,1.5812685,4.963881,8.276183,-14.160811,7.180634,-13.888404,-3.0976837,2.4988286,3.0926926,8.494491,-1.5715805,16.494509,-41.8014,63.02039,11.729873,-3.2299938,6.1794214,-4.1869974,-16.514376,35.557083,57.470398,1.1517088,-0.2613047,-17.007929
132,71.3957748413086,67.9767074584961,77.03946685791016,-2.8660523303573058,-1.2638157826515903,61.37968527285008,-26.71379,8.502854,0.25898945,67.881645,-9.335717,1.3487973,5.4492164,8.290174,-13.562995,7.1436167,-14.225379,-3.0588667,3.0868301,3.0877254,8.458493,-0.94008327,16.703407,-41.57019,62.81549,11.815185,-3.0505822,6.26218,-4.764125,-16.627523,35.842796,57.36534,1.0911654,-0.2147301,-16.93098
133,71.85945892333984,68.50891876220703,77.02854919433594,-2.7011145762431394,-1.1957434053529932,60.72535287579982,-27.366413,7.4420047,0.2585556,65.55802,-9.235603,1.0396703,5.942932,8.314134,-12.958743,7.1088505,-14.548512,-3.0363941,3.6638515,3.0915425,8.424874,-0.29628977,16.900003,-41.330383,62.667603,11.921993,-2.9318116,6.265305,-5.342001,-16.729887,36.15033,57.263657,1.0076754,-0.21695891,-16.858482
134,72.31779479980469,69.04418182373047,77.00956726074219,-2.550177453486464,-1.1239894494645666,60.0519055569366,-27.922747,6.41409,0.24051547,63.00438,-9.041379,0.66890234,6.431741,8.342473,-12.349101,7.0819917,-14.85879,-3.0365298,4.230379,3.10325,8.387983,0.3564019,17.085278,-41.095486,62.563866,12.073688,-2.8283842,6.2167683,-5.9234686,-16.820087,36.473225,57.158997,0.92033964,-0.25196826,-16.801346
135,72.77503967285156,69.57719421386719,76.98991394042969,-2.422713229731231,-1.0488701072498898,59.375628205974806,-28.371944,5.473955,0.2662201,60.24829,-8.796431,0.24380217,6.920328,8.3885765,-11.741946,7.0580106,-15.15159,-3.0805662,4.769738,3.1315472,8.350007,1.010677,17.25965,-40.892246,62.501125,12.203588,-2.7379332,6.1720023,-6.505518,-16.895695,36.79107,57.037403,0.80487347,-0.2722885,-16.730886
136,73.23770904541016,70.11425018310547,76.95335388183594,-2.3272575523125805,-0.9718141513980164,58.712880527607474,-28.703865,4.6688223,0.401056,57.3132,-8.538214,-0.23529245,7.4101214,8.46385,-11.145283,7.0389366,-15.419032,-3.1897428,5.2662525,3.1840973,8.313508,1.6573949,17.423018,-40.748608,62.4778,12.244153,-2.6575146,6.1867685,-7.0856333,-16.954044,37.083324,56.886833,0.63774276,-0.23049712,-16.618385
137,73.70278930664062,70.6470947265625,76.90383911132812,-2.2619087045192536,-0.8900098015427865,58.056874670302236,-28.928886,3.9937134,0.62263143,54.176395,-8.264092,-0.78889686,7.893557,8.5671,-10.544807,7.024078,-15.651283,-3.3707795,5.7207804,3.2600071,8.2825,2.2975235,17.574734,-40.663372,62.50059,12.131685,-2.5877013,6.3194203,-7.6761317,-16.993635,37.340115,56.699024,0.40354133,-0.086161576,-16.440233
138,74.16187286376953,71.18561553955078,76.8458480834961,-2.2325014791441813,-0.8060710450605966,57.403961914074884,-29.042994,3.430048,0.901734,50.818317,-7.9453135,-1.4146663,8.36734,8.700997,-9.944159,7.026518,-15.860771,-3.6107051,6.139701,3.3652623,8.253841,2.9323156,17.714893,-40.626625,62.57113,11.916491,-2.5300767,6.526384,-8.274928,-17.014479,37.57227,56.48596,0.11656899,0.12517457,-16.216673
139,74.62678527832031,71.72064971923828,76.76862335205078,-2.233043457648119,-0.7279170554365343,56.77067177444414,-29.01626,2.977992,1.3213302,47.262314,-7.582624,-2.0800223,8.853104,8.858374,-9.36992,7.0385847,-16.062706,-3.8996446,6.520599,3.4928987,8.220898,3.5519915,17.845266,-40.653023,62.679577,11.702433,-2.4828494,6.7105327,-8.855476,-17.015642,37.78913,56.262463,-0.20357962,0.33701402,-15.983265
140,75.1056900024414,72.27535247802734,76.68307495117188,-2.254320582791003,-0.6627188651080937,56.17194443069949,-28.822014,2.6309836,1.9689548,43.53145,-7.1745353,-2.7551272,9.371311,9.029012,-8.846958,7.0516067,-16.27052,-4.2284164,6.8634934,3.6322205,8.177532,4.1476893,17.968582,-40.75739,62.814556,11.593651,-2.442639,6.77459,-9.390151,-16.995623,37.997677,56.042576,-0.5378581,0.48357385,-15.77672
141,75.58997344970703,72.83721923828125,76.59494018554688,-2.299012019496195,-0.6067739167994171,55.60776948112558,-28.443178,2.4104402,2.8887038,39.550262,-6.7328515,-3.4322371,9.920051,9.2140465,-8.381932,7.061925,-16.48312,-4.6208334,7.1616,3.7884278,8.115601,4.7275906,18.086384,-40.94963,62.974873,11.620845,-2.417738,6.6971807,-9.879928,-16.952574,38.20493,55.83932,-0.91031164,0.54297876,-15.604702
142,76.08531951904297,73.39208221435547,76.4910888671875,-2.373231076913135,-0.5614192927154456,55.06586550313067,-27.872591,2.285244,4.0394535,35.278183,-6.21759,-4.145267,10.495366,9.42197,-7.954401,7.0720706,-16.692064,-5.07386,7.421912,3.9677699,8.043338,5.2934837,18.199556,-41.21958,63.16681,11.726616,-2.4086027,6.528942,-10.338077,-16.885857,38.405144,55.64439,-1.3215199,0.5515209,-15.44887
143,76.59644317626953,73.96775817871094,76.37513732910156,-2.47810454599028,-0.543700618809626,54.54270728839333,-27.105137,2.1819887,5.3702636,30.795357,-5.5574117,-4.9195013,11.117843,9.660943,-7.5475745,7.078914,-16.897604,-5.539442,7.6653852,4.1684294,7.9796414,5.83128,18.3111,-41.54845,63.379642,11.885616,-2.3936586,6.2791424,-10.758033,-16.79761,38.588146,55.442665,-1.7150936,0.53164536,-15.307524
144,77.10586547851562,74.54698181152344,76.2383041381836,-2.619091298556272,-0.5710667169435061,54.03159664678986,-26.144932,2.0508664,6.8203387,26.191149,-4.693511,-5.7640452,11.806069,9.942482,-7.1415553,7.081473,-17.100906,-5.970056,7.915857,4.3934755,7.9440236,6.3273683,18.425295,-41.91796,63.603806,12.071888,-2.354711,5.95733,-11.131163,-16.691692,38.743492,55.21426,-2.034217,0.50594586,-15.178209
145,77.62786102294922,75.1310043334961,76.07975769042969,-2.816343106167133,-0.6625145883115264,53.516859695154416,-24.92661,1.9287626,8.47978,21.338757,-3.5684977,-6.706578,12.58469,10.292235,-6.7257996,7.0782914,-17.316698,-6.3717747,8.191468,4.6625867,7.953374,6.778808,18.547264,-42.33991,63.840096,12.270216,-2.273337,5.5441847,-11.447088,-16.569687,38.85267,54.935932,-2.2593956,0.47382823,-15.061048
146,78.1629409790039,75.70645904541016,75.90084075927734,-3.1030411048992126,-0.8194862235639396,52.971105209042435,-23.441872,1.8626686,10.344591,16.169521,-2.1975389,-7.731649,13.454699,10.743159,-6.2695456,7.068779,-17.535929,-6.7725787,8.509704,5.015666,7.997871,7.2030454,18.679358,-42.81796,64.081184,12.496865,-2.1646788,5.041232,-11.713849,-16.434877,38.92755,54.623665,-2.4214892,0.4265817,-14.955248
147,78.71156311035156,76.30120849609375,75.69730377197266,-3.4935632406533217,-1.0269593489825182,52.37887497839081,-21.778414,1.8311145,12.210643,10.841225,-0.62945056,-8.766435,14.396643,11.303191,-5.7299933,7.0500746,-17.725407,-7.1553907,8.885872,5.4753237,8.052873,7.614917,18.820051,-43.319553,64.30384,12.774854,-2.0607073,4.488938,-11.942146,-16.29339,39.000717,54.305275,-2.541301,0.3752746,-14.857404
148,79.26759338378906,76.88970947265625,75.47422790527344,-3.9502666542908993,-1.250463845215636,51.76530223344292,-20.661804,1.9180186,13.848875,6.876349,0.37265608,-9.727416,15.368072,11.919586,-5.111251,7.026183,-17.858477,-7.4909387,9.27844,6.0220795,8.095206,7.998962,18.911404,-43.786057,64.537636,13.144137,-1.9976729,3.9328027,-12.1241865,-16.20505,39.128487,53.955956,-2.6271513,0.3349541,-14.761102
149,79.84247589111328,77.48820495605469,75.24173736572266,-4.426383391325044,-1.4807931046182679,51.173079105449325,-21.212393,2.3966315,15.202651,6.7028294,-0.46705493,-10.612442,16.3582,12.538623,-4.45417,7.003525,-17.956732,-7.7640934,9.698751,6.5736876,8.107792,8.378185,19.067865,-44.319756,64.70611,13.643811,-1.9884458,3.3185194,-12.293803,-16.05893,39.248005,53.679054,-2.7017767,0.3074642,-14.674697
150,80.41707611083984,78.10208129882812,75.01074981689453,-4.889055583145272,-1.7100559491379823,50.62877599721413,-21.716558,2.8580482,16.41841,6.5771656,-1.2015884,-11.423668,17.35977,13.122582,-3.8010044,6.9821315,-18.03111,-7.9770193,10.049402,7.122117,8.122328,8.721277,19.17082,-44.81241,64.89923,14.2981825,-2.025322,2.6515338,-12.417936,-15.966517,39.42585,53.34172,-2.7267506,0.29482225,-14.590419
151,80.97915649414062,78.71621704101562,74.79744720458984,-5.302117183219676,-1.8977085915741427,50.15909057329947,-22.191675,3.274458,17.421864,6.5282683,-1.8489844,-12.112469,18.321218,13.626449,-3.1937263,6.9640636,-18.047194,-8.122452,10.355803,7.607231,8.096066,9.020201,19.266827,-45.295208,65.092316,14.89891,-2.0756662,2.035621,-12.494873,-15.881181,39.606346,53.003136,-2.735394,0.2716769,-14.521176
152,81.5430679321289,79.3392333984375,74.60519409179688,-5.606855676987624,-2.0160437661418373,49.79258333122553,-22.55053,3.5399237,18.159845,6.4052706,-2.3313863,-12.633509,19.187698,13.981918,-2.6860921,6.982345,-17.988995,-8.188016,10.600854,7.96327,8.012903,9.290014,19.380606,-45.743053,65.24832,15.261794,-2.1024716,1.572868,-12.538174,-15.778906,39.786427,52.71506,-2.7434347,0.21336621,-14.480847
153,82.10775756835938,79.96331024169922,74.42694091796875,-5.856671127797963,-2.049809626985424,49.50645130609671,-22.880611,3.6956537,18.567223,6.361211,-2.7342062,-13.010878,19.951693,14.25193,-2.2523293,7.010166,-17.83559,-8.165403,10.777695,8.2444935,7.865521,9.526609,19.475222,-46.095592,65.38287,15.323701,-2.0942633,1.3129107,-12.556828,-15.6917715,40.003635,52.446167,-2.7298417,0.10924616,-14.481884
154,82.68287658691406,80.60075378417969,74.2601547241211,-6.052411866590286,-2.02169441134131,49.298279667926685,-23.130579,3.7054338,18.704445,6.3060975,-3.0081043,-13.263534,20.640745,14.44745,-1.8908304,7.049399,-17.608547,-8.057331,10.893764,8.457249,7.6649866,9.742275,19.570765,-46.403362,65.48043,15.17042,-2.063771,1.1924256,-12.557028,-15.599196,40.25864,52.21955,-2.6872537,-0.028914234,-14.521675
155,83.26879119873047,81.23663330078125,74.10523223876953,-6.193135706758611,-1.9426444076438598,49.1679859290347,-23.310131,3.618191,18.661886,6.3220115,-3.156626,-13.38143,21.270218,14.584347,-1.6067532,7.095239,-17.300251,-7.902596,10.954264,8.593593,7.424606,9.91407,19.645617,-46.63827,65.58872,14.959278,-2.026197,1.1500367,-12.496582,-15.521964,40.500546,51.984814,-2.6731985,-0.17502469,-14.547597
156,83.86180114746094,81.87803649902344,73.96085357666016,-6.242614508680513,-1.8339647616566284,49.12614261032586,-23.346987,3.4215932,18.545116,6.3415675,-3.110003,-13.344768,21.864897,14.632686,-1.4188124,7.151598,-16.906765,-7.734323,10.951475,8.614015,7.152235,10.075311,19.740957,-46.823708,65.676346,14.794847,-1.9874195,1.1236076,-12.385904,-15.415683,40.719414,51.801067,-2.7176208,-0.31096873,-14.529832
157,84.47213745117188,82.52179718017578,73.8275375366211,-6.208436381933395,-1.7021710127381906,49.18346521757561,-23.167707,3.124171,18.29141,6.3685884,-2.892503,-13.250794,22.440676,14.608507,-1.3190755,7.2196145,-16.461437,-7.590611,10.897557,8.5307045,6.888647,10.129305,19.767855,-46.908047,65.86849,14.779625,-1.9572517,1.1035799,-12.148187,-15.382996,40.814884,51.51325,-2.8879554,-0.43554685,-14.38852
158,85.09024047851562,83.17584991455078,73.70743560791016,-6.0920138744953904,-1.5357902726305066,49.33296442148808,-22.825151,2.7195954,17.876657,6.435594,-2.5283377,-13.077935,22.979092,14.506708,-1.3064579,7.302354,-15.958132,-7.4452167,10.796347,8.33021,6.5280128,10.206501,19.862453,-47.043404,66.02297,14.69648,-1.9146974,1.1197617,-11.837703,-15.268024,40.935852,51.32831,-3.0805373,-0.5606264,-14.238475
159,85.71428680419922,83.84357452392578,73.62025451660156,-5.854170110000166,-1.3252235975939717,49.55585701226427,-22.435265,2.1812913,17.462133,6.502911,-1.9419721,-12.624049,23.448242,14.2693615,-1.4072953,7.406663,-15.332112,-7.2344966,10.640536,7.984787,6.1772375,10.233425,19.941633,-47.061127,66.16751,14.664947,-1.879011,1.1709943,-11.486896,-15.167167,40.995106,51.135914,-3.335516,-0.67162347,-14.068954
160,86.3582992553711,84.51886749267578,73.56241607666016,-5.446216331139206,-1.0631794007003348,49.823545783723105,-22.109737,1.4706395,17.228436,6.5268245,-1.0606604,-11.682622,23.288757,13.807123,-1.767746,8.638888,-15.101355,-6.8844147,10.437563,7.4596076,5.8245792,10.253283,20.017872,-46.982056,66.239746,14.634042,-1.8506954,1.2610915,-11.126812,-15.064509,41.064335,50.991592,-3.592445,-0.75314707,-13.964038
161,87.02007293701172,85.21039581298828,73.52175903320312,-4.850797518269846,-0.6924792236977373,50.10208671205976,-21.983246,0.6240301,17.310059,6.610475,0.22469774,-9.92917,22.310392,13.07914,-2.4025402,11.291568,-15.45099,-6.366242,10.173421,6.710933,5.42291,10.346308,20.145817,-46.68189,66.12315,14.671345,-1.812613,1.3748039,-10.831298,-14.877729,41.203262,50.9727,-3.8572407,-0.79772806,-13.969983
162,87.65342712402344,85.88993072509766,73.53089141845703,-4.006589726417758,-0.23536048379737526,50.39724651296105,-21.914724,-0.44008306,17.688202,6.6398816,1.8670617,-7.5266256,21.094513,12.029745,-3.1419024,14.248105,-15.810549,-5.7084646,9.90068,5.6993947,4.9880085,10.419175,20.245386,-46.2596,65.95651,14.753006,-1.7711558,1.5236417,-10.496429,-14.710258,41.348404,50.954296,-4.1395407,-0.8088308,-14.03683
163,88.26416015625,86.57762145996094,73.56063079833984,-3.082602463216154,0.20759458648690693,50.66951847972876,-21.831694,-1.5448713,18.183584,6.684079,3.5161717,-5.06218,19.855463,10.855721,-3.818685,17.261536,-15.951004,-4.9767017,9.637311,4.6002903,4.56846,10.482374,20.334784,-45.80097,65.79191,14.772416,-1.761576,1.7242311,-10.151742,-14.533984,41.511917,50.999187,-4.4114404,-0.7973763,-14.108665
164,88.88224029541016,87.24661254882812,73.58045959472656,-2.2227837283107714,0.5284918952102615,50.91530834586691,-22.03872,-2.429635,18.561672,7.6951146,4.36645,-3.1393723,18.778507,9.7409935,-4.337011,20.14402,-15.678865,-4.2278485,9.399832,3.5731237,4.229761,10.497767,20.410044,-45.43743,65.72235,14.612912,-1.8209755,1.99597,-9.780722,-14.359279,41.66421,51.115826,-4.651767,-0.7735727,-14.126509
165,89.50477600097656,87.9006118774414,73.59672546386719,-1.4643073914819724,0.7083954809333998,51.14485962090116,-22.647594,-3.0093026,18.707222,9.999989,4.2105074,-2.0646498,17.882792,8.752498,-4.693758,22.885738,-14.911233,-3.523223,9.172113,2.649759,3.9723508,10.471155,20.475563,-45.197536,65.7687,14.194858,-2.0131378,2.376259,-9.396299,-14.180648,41.83768,51.33553,-4.84134,-0.75046766,-14.065453
166,90.16400146484375,88.62694549560547,73.64230346679688,-0.7395622919267789,0.8001003516895308,51.37464513371952,-22.97566,-3.5968547,18.697382,11.952359,4.0669627,-1.4601542,17.078526,7.813534,-4.9521804,25.567749,-13.762741,-2.8107007,8.940493,1.7574351,3.7669916,10.409053,20.532543,-45.02176,65.885826,13.596312,-2.3036532,2.8419676,-9.001362,-13.995094,42.027637,51.643158,-4.997457,-0.7197932,-13.959903
167,90.81759643554688,89.3372802734375,73.70990753173828,-0.047376540327679406,0.8021584949644814,51.61841587595107,-23.11211,-4.177707,18.599354,13.732497,3.8468537,-0.9427335,16.373192,6.9152923,-5.1422606,28.157234,-12.350013,-1.9772869,8.700391,0.90768373,3.6382127,10.289391,20.582077,-44.885666,66.050674,12.940064,-2.5811687,3.3217616,-8.576569,-13.803882,42.16484,51.994328,-5.1544986,-0.6616297,-13.842022
168,91.47071838378906,90.04373931884766,73.79174041748047,0.6019011637891184,0.7081888666718561,51.88348481077426,-23.083065,-4.755404,18.485655,15.375383,3.5245383,-0.13829039,15.775525,6.0626764,-5.283626,30.633833,-10.79134,-0.9113274,8.457924,0.124593504,3.6142247,10.088918,20.624811,-44.768547,66.239784,12.346658,-2.731039,3.7476187,-8.092987,-13.613096,42.174488,52.336784,-5.3467774,-0.55588764,-13.743245
169,92.123779296875,90.72676849365234,73.87832641601562,1.2080760433183992,0.46872425147062113,52.20533335592336,-22.878834,-5.3655825,18.318174,16.944897,3.0733144,1.1495224,15.347678,5.2877946,-5.388954,32.99631,-9.0784645,0.41464105,8.203091,-0.5962316,3.750297,9.761,20.66622,-44.712364,66.50869,11.788319,-2.6876175,4.139478,-7.4944735,-13.423314,41.982563,52.649426,-5.645388,-0.37313396,-13.686866
170,92.7676773071289,91.39852905273438,73.97096252441406,1.7625015729534559,0.0990919291545224,52.56914707891872,-22.500643,-5.9958606,18.059536,18.422594,2.505996,2.674401,15.053165,4.6167693,-5.4408727,35.283867,-7.1876764,1.9610195,7.944738,-1.2551777,4.019827,9.326973,20.708345,-44.720955,66.846085,11.217118,-2.523166,4.522922,-6.804778,-13.235987,41.634872,52.95163,-6.0130587,-0.13237548,-13.650084
171,93.39185333251953,92.07498931884766,74.0681381225586,2.2432122502571783,-0.30851098105738867,52.908362416460754,-21.996418,-6.578745,17.78659,19.72811,1.8483983,4.143721,14.753593,4.0403996,-5.408676,37.53984,-5.218829,3.7353108,7.7076426,-1.8204575,4.328657,8.867754,20.742994,-44.709827,67.13284,10.722408,-2.3261123,4.8397284,-6.116611,-13.065039,41.24338,53.25415,-6.320526,0.113562934,-13.596272
172,93.99301147460938,92.74089813232422,74.16999053955078,2.63429771230394,-0.658204813834678,53.161596956888054,-21.418375,-7.048111,17.576834,20.785408,1.1234101,5.2659707,14.300972,3.536031,-5.2642226,39.824688,-3.2745829,5.735915,7.5056477,-2.2601774,4.5812225,8.464972,20.755817,-44.584133,67.25409,10.398914,-2.1835775,5.0307713,-5.51784,-12.932926,40.92918,53.562714,-6.435574,0.31239858,-13.490212
173,94.55862426757812,93.39221954345703,74.26371765136719,2.920437425278067,-0.9352005759713492,53.33106967005367,-20.76531,-7.387462,17.44826,21.5763,0.28546402,5.921676,13.659791,3.1601734,-4.9061065,42.18431,-1.1400527,8.250279,7.3309355,-2.540009,4.766554,8.137391,20.738512,-44.307472,67.16577,10.335691,-2.0963452,5.0314174,-4.9912124,-12.881418,40.68809,53.82672,-6.286603,0.46817487,-13.290999
174,95.10057830810547,94.03697967529297,74.34381103515625,3.1144138521429294,-1.1828540502145621,53.45145505858428,-20.026121,-7.6343966,17.353628,22.160114,-0.66427636,6.2739415,12.882025,2.9476147,-4.3539643,44.631985,1.1070715,11.223028,7.1698437,-2.68595,4.928894,7.835866,20.691135,-43.929222,66.948845,10.465142,-2.0242813,4.889593,-4.5128317,-12.873601,40.462864,54.078297,-5.9610133,0.6030565,-13.029887
175,95.63160705566406,94.67447662353516,74.42947387695312,3.251452667505376,-1.3915465282719741,53.51026075944233,-19.233147,-7.8090625,17.282415,22.559917,-1.6233138,6.457068,11.956119,2.7698545,-3.8107321,47.162624,2.97101,14.075049,7.010969,-2.73981,5.066292,7.5396953,20.582453,-43.46186,66.67908,10.654191,-1.9954091,4.71844,-4.096119,-12.932088,40.33742,54.318775,-5.533433,0.70040077,-12.774263
176,96.145263671875,95.27283477783203,74.51490783691406,3.3487956891216273,-1.5473516852354192,53.4868968077565,-18.449999,-7.899565,17.222488,22.851133,-2.5124238,6.599464,10.885621,2.2811575,-3.9209929,49.72398,4.051158,15.000033,6.883354,-2.7512357,5.1717463,7.239657,20.444813,-42.968796,66.38106,10.741706,-2.0325875,4.624828,-3.7462082,-13.052573,40.357418,54.561638,-5.0881453,0.7392586,-12.592318
177,96.65380096435547,95.85824584960938,74.61029052734375,3.350114637584011,-1.603150650221673,53.31740790976014,-17.78812,-7.8062243,17.207727,23.175993,-3.4091375,6.7352676,9.600166,1.5017424,-4.4147444,52.32475,4.22695,15.000033,6.826742,-2.6494563,5.196236,6.9702697,20.280975,-42.39135,66.007645,10.677765,-2.1712441,4.617023,-3.5126975,-13.23458,40.61714,54.840332,-4.5731215,0.6912904,-12.494265
178,97.15833282470703,96.46741485595703,74.72818756103516,3.431611603844771,-1.6115671966527054,53.064577727184975,-16.981228,-7.8328724,17.288296,23.064037,-4.1300125,6.8446016,8.141991,0.43535903,-4.8639216,55.05684,3.6755521,15.000033,6.784557,-2.59365,5.2073374,6.7366815,20.091412,-41.720894,65.54516,10.547456,-2.388655,4.642873,-3.380145,-13.477983,41.06744,55.14149,-3.9669275,0.5743994,-12.444752
179,97.64399719238281,97.07856750488281,74.86639404296875,3.573053360643466,-1.6202810558930505,52.81034269255173,-16.021662,-7.977694,17.387981,22.601511,-4.6714325,6.8964677,6.641078,-0.83229375,-5.2795877,57.7304,2.6804528,15.000033,6.7100964,-2.578161,5.2433014,6.487183,19.88401,-41.056503,65.0815,10.41367,-2.6211393,4.72054,-3.2725127,-13.767839,41.558266,55.420525,-3.4003892,0.4347574,-12.443288
180,98.11670684814453,97.62358093261719,74.99842071533203,3.750213142324388,-1.6779386145113178,52.63484234953838,-14.8983135,-8.228355,17.426643,21.869188,-5.027171,6.8571053,5.219808,-2.2216265,-5.704482,60.171066,1.522022,15.000033,6.5643654,-2.5964217,5.3410177,6.165435,19.670988,-40.50534,64.704834,10.337037,-2.8044086,4.8682766,-3.1131005,-14.081269,41.928795,55.642193,-3.0092845,0.3179746,-12.491522
181,98.5979232788086,98.19408416748047,75.15123748779297,3.9380449179498807,-1.7972977740066085,52.52601311211506,-13.605765,-8.540678,17.404573,20.904827,-5.209249,6.6716475,3.8994162,-3.7595067,-6.1908803,62.35612,0.12396596,15.000033,6.361973,-2.630844,5.508523,5.7659664,19.462025,-40.095524,64.43002,10.317144,-2.931449,5.126392,-2.9019635,-14.402239,42.169777,55.816334,-2.8893843,0.22386259,-12.598631
182,99.08773803710938,98.76608276367188,75.30484008789062,4.034288746689926,-1.9271486576481154,52.42119023226677,-12.29516,-8.731741,17.335306,19.930481,-5.3482575,6.337786,2.6368122,-5.637428,-7.263946,64.3141,-1.5881236,13.464249,6.1483197,-2.5931296,5.690805,5.3171034,19.26025,-39.778687,64.205956,10.322672,-3.03228,5.472377,-2.6806045,-14.725095,42.34646,55.976448,-2.9542315,0.13060425,-12.763249
183,99.58609008789062,99.33061981201172,75.45989990234375,4.086979020755687,-2.062120600004043,52.3774415345497,-10.974947,-8.896036,17.197197,18.919416,-5.4438405,5.965868,1.4256848,-7.5532045,-8.436638,66.04075,-3.435877,11.545433,5.883941,-2.5205016,5.8806925,4.8144693,19.067762,-39.544407,64.02015,10.369869,-3.097043,5.829999,-2.4317677,-15.043276,42.41008,56.123062,-3.0653539,0.0520386,-12.971554
184,100.08031463623047,99.86695861816406,75.61132049560547,4.067540036874108,-2.178215639414853,52.429891093813396,-9.743973,-9.0031395,16.952982,18.008537,-5.5668154,5.639728,0.23901099,-9.26157,-9.499736,67.494774,-5.151606,9.776136,5.5571055,-2.3812773,6.0469193,4.2482405,18.88569,-39.38983,63.86514,10.472103,-3.1161728,6.123337,-2.1324933,-15.350532,42.30485,56.253483,-3.0860407,0.0008094904,-13.209228
185,100.57551574707031,100.41315460205078,75.76374053955078,3.960028643557704,-2.263267513005803,52.59507638828446,-8.647623,-9.030353,16.588446,17.259584,-5.739705,5.3568144,-0.9421696,-10.74046,-10.494136,68.66745,-6.701259,8.150939,5.1515017,-2.1602998,6.176379,3.6067502,18.714203,-39.335693,63.756035,10.582766,-3.068839,6.374446,-1.7643068,-15.639007,41.978115,56.366756,-3.0387745,-0.01812514,-13.488395
186,101.06085205078125,100.95500946044922,75.91703796386719,3.7842834604177114,-2.331142084548514,52.85198479917307,-7.623891,-8.995976,16.125074,16.58515,-5.91801,5.07821,-2.10425,-12.074144,-11.490834,69.58381,-8.212856,6.537879,4.6816225,-1.87971,6.287096,2.897903,18.553017,-39.38191,63.692337,10.709326,-2.965771,6.609088,-1.3423116,-15.905075,41.467857,56.471645,-2.978346,-0.013032889,-13.811782
187,101.5329818725586,101.46033477783203,76.05484008789062,3.568068000323317,-2.396708308805259,53.176461401762054,-6.637825,-8.923897,15.591733,15.962322,-6.106719,4.8261986,-3.2363987,-13.239429,-12.417983,70.258736,-9.628392,5.0414586,4.179614,-1.5664726,6.3976655,2.142749,18.402119,-39.49124,63.64053,10.947275,-2.8441398,6.756235,-0.8903138,-16.150341,40.857834,56.571846,-2.8159614,0.0075312876,-14.1505375
188,102.00640869140625,101.947998046875,76.18728637695312,3.3392796642568268,-2.4753090221302605,53.54457842664501,-5.6534967,-8.837477,15.0181265,15.364654,-6.308362,4.621713,-4.33305,-14.221983,-13.205405,70.70689,-10.880071,3.7564545,3.6742592,-1.2482349,6.525993,1.3632973,18.262493,-39.62318,63.56628,11.392913,-2.741833,6.7450776,-0.43307483,-16.380096,40.236282,56.668465,-2.4607255,0.034299612,-14.475808
189,102.48038482666016,102.46774291992188,76.31787109375,3.092529867236354,-2.5772542203676183,53.9706821824246,-4.650261,-8.742257,14.380755,14.776648,-6.5271487,4.494397,-5.3830047,-15.009526,-13.860836,70.90668,-11.914665,2.689062,3.1526105,-0.91615117,6.6754417,0.57121974,18.135027,-39.775433,63.466476,12.189229,-2.6792119,6.4866495,0.039838176,-16.59866,39.591133,56.75206,-1.8335469,0.08205664,-14.788991
190,102.97798156738281,102.98703002929688,76.4446029663086,2.8191978766346675,-2.691548528512084,54.460210252084686,-3.654213,-8.622986,13.675702,14.2153635,-6.7588453,4.417696,-6.399843,-15.622184,-14.431571,70.860344,-12.760561,1.784432,2.603753,-0.56401885,6.8389707,-0.24242547,18.019989,-39.96459,63.35265,13.2471695,-2.6398432,6.041262,0.5396832,-16.806654,38.89128,56.819042,-0.9993272,0.1471114,-15.103135
191,103.45829772949219,103.47929382324219,76.5614242553711,2.544342120294997,-2.8021933255365385,54.97599915504989,-2.6940753,-8.479791,12.956648,13.696182,-6.989925,4.3350024,-7.418951,-16.097788,-14.900281,70.619484,-13.466421,1.0460669,2.0577586,-0.22450513,7.0171394,-1.0856379,17.91772,-40.175144,63.210773,14.317082,-2.6026037,5.5617127,1.0397304,-17.004183,38.19821,56.88131,-0.08315394,0.19354592,-15.406334
192,103.93072509765625,103.96190643310547,76.66424560546875,2.291245477633775,-2.89384495635901,55.481459810168005,-1.7963798,-8.314302,12.277068,13.235822,-7.2096047,4.1970987,-8.475558,-16.469782,-15.247771,70.233795,-14.081422,0.47895044,1.5396816,0.07185213,7.209262,-1.9636477,17.828985,-40.38368,63.023983,15.152035,-2.5370789,5.200154,1.5083058,-17.189257,37.57952,56.954483,0.7906393,0.18725361,-15.685909
193,104.40462493896484,104.43924713134766,76.75699615478516,2.0594379547079122,-2.958659478508431,55.969274105934055,-0.9892204,-8.120967,11.649181,12.875966,-7.425414,4.0050178,-9.595308,-16.721432,-15.455322,69.6962,-14.594288,0.12514414,1.0543008,0.32104552,7.4136834,-2.8902924,17.75568,-40.587257,62.788765,15.672109,-2.4191542,4.9840164,1.9242564,-17.360704,37.057003,57.05366,1.6685221,0.10164639,-15.935492
194,104.88533020019531,104.8929214477539,76.84017181396484,1.8388055588967707,-3.0068453430181625,56.45842179878179,-0.24712549,-7.906748,11.044746,12.593991,-7.642026,3.7871983,-10.753659,-16.846071,-15.5450535,68.983284,-14.976799,-0.03791164,0.58488935,0.5374979,7.629745,-3.8551178,17.698704,-40.79415,62.509743,16.013954,-2.2657428,4.8357735,2.3052542,-17.516949,36.59848,57.17073,2.5904524,-0.038863376,-16.161375
195,105.36649322509766,105.34574890136719,76.91665649414062,1.6384868661707128,-3.05044898480473,56.95151877372874,0.48921424,-7.6960516,10.45606,12.303364,-7.842126,3.5397074,-11.909924,-16.889778,-15.554519,68.121155,-15.257412,-0.098779455,0.12490198,0.71711403,7.856417,-4.8281684,17.656256,-40.996346,62.18753,16.257406,-2.1040554,4.7505965,2.6685598,-17.656788,36.191216,57.29683,3.4231932,-0.19020572,-16.370148
196,105.85397338867188,105.78498840332031,76.9742431640625,1.4671164040587192,-3.1015795409680855,57.451615179051416,1.2808943,-7.5105653,9.874702,11.910208,-8.005214,3.25581,-13.024773,-16.898935,-15.51894,67.13673,-15.4662695,-0.14486255,-0.33343267,0.85719043,8.093082,-5.7804337,17.625393,-41.18513,61.82154,16.481031,-1.9602286,4.7234926,3.0314956,-17.777716,35.823708,57.42096,4.0349464,-0.30729756,-16.570068
197,106.33834838867188,106.2395248413086,77.0201416015625,1.3312730363036354,-3.1804657385488415,57.95184937869459,2.1827514,-7.358629,9.311282,11.351898,-8.109423,2.9163203,-14.084931,-16.873865,-15.4191,66.035866,-15.606746,-0.20532398,-0.78560215,0.9510994,8.357593,-6.7108645,17.604174,-41.36086,61.40292,16.68771,-1.8153285,4.7699203,3.3882833,-17.878792,35.509247,57.55581,4.3598766,-0.37812236,-16.761837
198,106.82868957519531,106.6832046508789,77.06002807617188,1.2238313063975386,-3.275412368683678,58.45398720998855,3.1534874,-7.2270517,8.764465,10.683803,-8.171057,2.533141,-15.11078,-16.796356,-15.245168,64.80447,-15.664271,-0.23469697,-1.2303277,1.0026441,8.642685,-7.6358156,17.591728,-41.52674,60.940685,16.841808,-1.6653469,4.887982,3.7282872,-17.96,35.249786,57.70603,4.479853,-0.42455968,-16.942648
199,107.31898498535156,107.15042114257812,77.09732818603516,1.1343158469755357,-3.3508065400961877,58.97402308602806,4.0893598,-7.099843,8.213815,10.030502,-8.23912,2.1470437,-16.113487,-16.687973,-15.046585,63.44053,-15.646424,-0.21032532,-1.6790025,1.0232618,8.908829,-8.551045,17.587132,-41.680874,60.455177,16.961393,-1.5536659,5.0452046,4.0634336,-18.020428,35.012657,57.850273,4.4796524,-0.45243517,-17.117367
200,107.79666900634766,107.60295104980469,77.12220764160156,1.0544649860672313,-3.370845792746946,59.527175088821046,4.8933363,-6.965375,7.6350617,9.503613,-8.356024,1.7999071,-17.106228,-16.570719,-14.867515,61.940147,-15.55661,-0.105357274,-2.145892,1.0231755,9.117272,-9.450135,17.589075,-41.814144,59.97148,17.069723,-1.5282991,5.210498,4.401284,-18.055588,34.771206,57.97195,4.4463205,-0.46835116,-17.2907
201,108.28578186035156,108.04973602294922,77.13273620605469,0.983976814472021,-3.3136930843261045,60.13218629620989,5.5123534,-6.824739,7.003611,9.154551,-8.539762,1.5026332,-18.109983,-16.460999,-14.722345,60.304344,-15.404514,0.07537428,-2.6462514,1.0033101,9.245648,-10.34044,17.598085,-41.925705,59.49841,17.170269,-1.641199,5.3928146,4.747905,-18.065117,34.519295,58.06523,4.347109,-0.46205693,-17.466425
202,108.77906036376953,108.4909439086914,77.13497924804688,0.9286401001903575,-3.2027862429856024,60.77613778477682,6.0093775,-6.6873336,6.3361125,8.916171,-8.766028,1.2343436,-19.109331,-16.348413,-14.5829,58.53024,-15.184143,0.31930307,-3.1530435,0.96027964,9.319777,-11.232731,17.613722,-42.037617,59.025036,17.248343,-1.8536234,5.6039076,5.1111083,-18.054611,34.25093,58.127193,4.1495514,-0.4330422,-17.639446
203,109.27857208251953,108.93529510498047,77.12838745117188,0.8889974790133653,-3.0712284435324295,61.425639328018065,6.4585567,-6.552452,5.6731606,8.72723,-9.0131645,0.98495877,-20.062391,-16.21763,-14.430634,56.612293,-14.881308,0.63927317,-3.6435754,0.8987792,9.371037,-12.113845,17.633158,-42.148647,58.5469,17.30084,-2.0783365,5.8167677,5.479936,-18.021418,33.973793,58.163586,3.947688,-0.4041695,-17.80381
204,109.77387237548828,109.37739562988281,77.11422729492188,0.8640861217668643,-2.952053233158139,62.04807938468368,6.9329247,-6.416878,5.0552535,8.525024,-9.258119,0.7429323,-20.925951,-16.054432,-14.2463,54.541462,-14.483142,1.0472721,-4.110711,0.8249706,9.429511,-12.962622,17.64611,-42.233482,58.063583,17.335054,-2.22876,6.004512,5.8337536,-17.97069,33.71786,58.1853,3.844099,-0.39825672,-17.955555
205,110.26716613769531,109.81639862060547,77.08805847167969,0.8531891706434757,-2.8481860491877145,62.640411511177874,7.4383755,-6.2786884,4.4916205,8.295172,-9.494719,0.51097435,-21.707571,-15.846059,-13.986992,52.309113,-13.958442,1.55475,-4.5501456,0.74305046,9.502131,-13.789617,17.64519,-42.28892,57.58098,17.322796,-2.27266,6.1625886,6.1797338,-17.913708,33.479755,58.174103,3.8854315,-0.4217207,-18.09074
206,110.77202606201172,110.27505493164062,77.05912780761719,0.856667197928423,-2.744718222218612,63.21892151512065,7.940347,-6.138928,3.9601789,8.067596,-9.731802,0.28954285,-22.417343,-15.613262,-13.668476,49.914295,-13.32569,2.1459107,-4.9559784,0.6486095,9.571286,-14.615484,17.623564,-42.33896,57.11769,17.269768,-2.2594216,6.30618,6.5283365,-17.836794,33.23498,58.135746,4.006057,-0.46356082,-18.21274
207,111.27478790283203,110.73187255859375,77.02294158935547,0.8754404675313664,-2.6474212145068683,63.77944475170279,8.448137,-5.998101,3.4552689,7.84753,-9.967688,0.06443119,-23.025482,-15.392483,-13.359701,47.375114,-12.645316,2.7927768,-5.347162,0.5441415,9.635537,-15.4144125,17.581486,-42.36728,56.670837,17.23416,-2.2265344,6.436719,6.869793,-17.754353,33.014034,58.08208,4.1553392,-0.5165103,-18.325935
208,111.78411102294922,111.19160461425781,76.9741439819336,0.9097886414572027,-2.562213940066704,64.31788608931092,8.97196,-5.8580284,2.9717789,7.6411295,-10.202767,-0.1767183,-23.502316,-15.215607,-13.134272,44.70354,-11.971826,3.4700525,-5.7222276,0.42925483,9.6936865,-16.173597,17.519823,-42.385387,56.242344,17.265467,-2.2103434,6.556043,7.2042484,-17.667658,32.82052,58.02477,4.2724113,-0.5745438,-18.433735
209,112.29974365234375,111.66378021240234,76.91970825195312,0.9556774648948363,-2.4894412641589603,64.83313194685843,9.51315,-5.7137303,2.5096705,7.447504,-10.439547,-0.44571784,-23.821606,-15.079862,-13.022907,41.836403,-11.302888,4.228798,-6.083831,0.3096264,9.746177,-16.8916,17.439447,-42.391724,55.827938,17.423124,-2.2171607,6.6597967,7.5278935,-17.577948,32.659325,57.965244,4.3522773,-0.6385063,-18.542
210,112.80783081054688,112.14028930664062,76.8567886352539,1.0153737558689784,-2.4273778105770307,65.32821954363416,10.0664,-5.569282,2.0712743,7.268909,-10.681289,-0.7326419,-24.00051,-14.975671,-12.983102,38.77532,-10.608955,5.0611053,-6.4302135,0.18210693,9.794638,-17.576683,17.340855,-42.384045,55.428726,17.663927,-2.2284653,6.7488537,7.844836,-17.485947,32.52318,57.89435,4.422298,-0.71065474,-18.646988
211,113.34345245361328,112.62315368652344,76.78709411621094,1.0972024675392293,-2.3787668973751686,65.80652161059407,10.6442795,-5.4394007,1.651969,7.087173,-10.912816,-1.0160917,-24.073053,-14.917126,-12.985511,35.62136,-9.895863,5.8583293,-6.758951,0.034431063,9.839479,-18.226234,17.224361,-42.36492,55.05154,17.88898,-2.2435596,6.8322415,8.161338,-17.391518,32.40556,57.811687,4.474307,-0.7863717,-18.738504
212,113.8737564086914,113.11779022216797,76.70723724365234,1.2094771927867654,-2.3461237580652416,66.27003510528495,11.162871,-5.3344073,1.2567539,7.0841627,-11.222524,-1.2766339,-24.082283,-14.917418,-13.000385,32.493866,-9.176724,6.5140996,-7.066274,-0.14579132,9.880519,-18.83806,17.090134,-42.33736,54.703644,17.9988,-2.261836,6.918879,8.483712,-17.293554,32.299213,57.716763,4.4991975,-0.8609928,-18.806366
213,114.41084289550781,113.6142578125,76.61862182617188,1.3587239302433531,-2.335883659190593,66.71551886295961,11.717592,-5.26695,0.8724779,7.07464,-11.517822,-1.5021517,-24.02398,-14.975203,-13.020631,29.365622,-8.4420805,6.98199,-7.3464494,-0.3665395,9.920678,-19.413673,16.937378,-42.301044,54.3868,17.913359,-2.2804737,7.024246,8.818741,-17.191448,32.19855,57.602383,4.4875083,-0.93498975,-18.843792
214,114.95435333251953,114.11840057373047,76.52159118652344,1.54057237737454,-2.3461885390161306,67.14441426295306,12.299799,-5.22868,0.5002422,7.0677023,-11.802785,-1.7071227,-23.881073,-15.086832,-13.065898,26.193092,-7.6869216,7.3268085,-7.603677,-0.6220187,9.959595,-19.95357,16.765467,-42.253586,54.097725,17.705545,-2.3009832,7.139108,9.16225,-17.084707,32.107746,57.469715,4.4458776,-1.0100495,-18.857792
215,115.51316833496094,114.63385772705078,76.41915130615234,1.7457787094715402,-2.3668549500067053,67.56599712308756,12.899436,-5.20464,0.1435605,7.056418,-12.061236,-1.9102905,-23.677353,-15.252612,-13.150723,23.071228,-6.9292283,7.615539,-7.8490667,-0.9030156,9.99143,-20.457632,16.576015,-42.20097,53.83869,17.498152,-2.3293483,7.2355657,9.499528,-16.973806,32.03501,57.3382,4.3913,-1.0841162,-18.859001
216,116.0582046508789,115.15579223632812,76.30193328857422,1.9662373278273069,-2.38834728396498,67.98998918146589,13.501244,-5.181804,-0.19483143,7.0460277,-12.278545,-2.1329021,-23.432543,-15.465473,-13.291729,20.083275,-6.1827297,7.920257,-8.094756,-1.2006758,10.01102,-20.927084,16.373224,-42.15388,53.610558,17.408308,-2.3711298,7.2858205,9.817969,-16.858547,31.989182,57.2242,4.3402734,-1.1548245,-18.85788
217,116.61306762695312,115.67838287353516,76.17784881591797,2.2099747647163546,-2.4069280017986223,68.42547402768218,14.10302,-5.1693735,-0.5092994,7.032957,-12.457649,-2.3717341,-23.14545,-15.726211,-13.503445,17.184793,-5.4337993,8.245634,-8.347247,-1.5235685,10.013475,-21.353909,16.159164,-42.099297,53.40452,17.503128,-2.4408796,7.255006,10.120026,-16.738405,31.97319,57.12418,4.3054595,-1.225434,-18.859444
218,117.17300415039062,116.20574188232422,76.0545883178711,2.4830937078450988,-2.4318934917592925,68.8697097076609,14.714132,-5.1753845,-0.8090528,7.0191493,-12.604176,-2.6190453,-22.802938,-16.028414,-13.783066,14.340698,-4.6712837,8.571093,-8.60478,-1.8791599,10.0046425,-21.739698,15.935599,-42.038624,53.220478,17.704832,-2.531503,7.166877,10.41052,-16.613276,31.983349,57.03177,4.275363,-1.2958759,-18.85744
219,117.74798583984375,116.74472045898438,75.92389678955078,2.771899546420435,-2.4714225785755146,69.31353337014525,15.341033,-5.183347,-1.1104605,7.0060544,-12.708318,-2.8843982,-22.410608,-16.350624,-14.120654,11.652417,-3.9107141,8.9295,-8.865991,-2.254668,9.996018,-22.09104,15.705687,-41.990498,53.065105,17.927841,-2.614918,7.080747,10.678296,-16.483442,32.018005,56.960396,4.230087,-1.3588654,-18.84564
220,118.333984375,117.28718566894531,75.79218292236328,3.057631445726588,-2.5288515434640697,69.74163623955431,15.985596,-5.171777,-1.422452,6.996482,-12.761505,-3.1786065,-21.975065,-16.6664,-14.502351,9.216761,-3.1624568,9.347782,-9.123283,-2.6311193,9.99699,-22.412943,15.473009,-41.972702,52.942715,18.087267,-2.6623068,7.055641,10.911415,-16.349207,32.075153,56.924007,4.150037,-1.407492,-18.817583
221,118.92831420898438,117.82845306396484,75.65987396240234,3.341388772521034,-2.602062911399574,70.15143150011615,16.644623,-5.140974,-1.7453108,6.990076,-12.769916,-3.5119777,-21.47043,-16.968695,-14.945037,6.968924,-2.3773136,9.912291,-9.3758135,-3.0091226,10.013118,-22.712732,15.239763,-41.991528,52.846935,18.160877,-2.6487584,7.114772,11.101225,-16.211075,32.16122,56.924236,4.0159855,-1.4386349,-18.765728
222,119.53675842285156,118.3817367553711,75.52898406982422,3.620721954470763,-2.682887636631697,70.54074787100134,17.31081,-5.0889335,-2.0636456,6.987509,-12.737775,-3.8799605,-21.8508,-17.492714,-15.164911,6.858005,-2.605902,10.578005,-9.618907,-3.3848865,10.035752,-22.982517,15.00663,-42.035477,52.772175,18.193626,-2.5949986,7.2242446,11.253764,-16.068947,32.274784,56.95486,3.8428981,-1.4566723,-18.695452
223,120.13744354248047,118.94060516357422,75.40547180175781,3.8643007517603514,-2.7605888791551245,70.88898129332462,17.977057,-4.9834723,-2.3548574,6.988901,-12.652419,-4.271295,-22.110336,-17.93888,-15.43325,6.7808533,-2.7491884,11.16941,-9.832391,-3.7226338,10.050226,-23.206312,14.775231,-42.099293,52.724304,18.198097,-2.5403109,7.3582134,11.377087,-15.9230585,32.402058,57.020737,3.661713,-1.4660975,-18.619143
224,120.72991943359375,119.50529479980469,75.29131317138672,4.039884601577723,-2.8232213139837383,71.17410128924763,18.633608,-4.7910523,-2.5940714,6.9969354,-12.50137,-4.6758184,-22.246098,-18.258245,-15.733909,6.7440934,-2.8283346,11.508829,-9.995848,-3.9856389,10.043372,-23.361984,14.545657,-42.168633,52.70504,18.197659,-2.5235991,7.4903746,11.47872,-15.773433,32.52934,57.12581,3.5031683,-1.4713569,-18.548792
225,121.33937072753906,120.07323455810547,75.19147491455078,4.125028379512042,-2.870608007971016,71.3839181683601,19.280952,-4.4838557,-2.7716553,7.0125732,-12.285824,-5.1116605,-22.239359,-18.424204,-16.07716,6.755859,-2.8529282,11.5061245,-10.095102,-4.1498795,10.023591,-23.453625,14.319352,-42.25333,52.70873,18.163162,-2.566742,7.636549,11.55305,-15.620125,32.659473,57.28156,3.3735335,-1.4762052,-18.482374
226,121.9598388671875,120.65523529052734,75.10206604003906,4.134372706257104,-2.904653980368411,71.52968838492929,19.922249,-4.0828085,-2.89469,7.0357466,-12.016495,-5.5800514,-22.097952,-18.4586,-16.471786,6.810131,-2.8144517,11.265508,-10.142138,-4.2324324,9.994747,-23.48492,14.096081,-42.351017,52.731773,18.100317,-2.6451247,7.8027573,11.597232,-15.463293,32.797913,57.482494,3.256988,-1.4774402,-18.414848
227,122.59706115722656,121.24578857421875,75.02263641357422,4.098077577944473,-2.918560972731139,71.62638886726891,20.551764,-3.6297054,-2.9665492,7.06685,-11.680565,-6.043305,-21.856052,-18.389275,-16.89796,6.892681,-2.7090209,10.9020605,-10.155267,-4.261716,9.93637,-23.450731,13.876113,-42.453217,52.792484,18.058926,-2.728432,7.9493623,11.627358,-15.303804,32.932682,57.705944,3.151242,-1.4684768,-18.354677
228,123.24813842773438,121.84944152832031,74.9489974975586,4.04410751029184,-2.905613578412587,71.68905989599274,21.026197,-3.1708658,-2.9845884,7.3959394,-11.419999,-6.4617877,-21.548616,-18.245852,-17.335957,6.9897904,-2.5323098,10.530896,-10.154043,-4.2652607,9.828386,-23.336334,13.657245,-42.537704,52.90262,18.103708,-2.785597,8.036271,11.6605,-15.141772,33.053036,57.92588,3.053874,-1.4426602,-18.309826
229,123.90814208984375,122.46513366699219,74.87345123291016,3.9819632471917066,-2.876896963227146,71.71946950191102,21.234638,-2.717856,-2.9605014,8.28623,-11.393659,-6.845416,-21.744812,-18.228638,-17.639132,8.419583,-3.067809,10.181802,-10.147981,-4.254636,9.667903,-23.133177,13.43853,-42.603832,53.072033,18.284645,-2.7968075,8.033762,11.701274,-14.977687,33.16364,58.147514,2.9506805,-1.3852763,-18.28809
230,124.58311462402344,123.09500122070312,74.80279541015625,3.900824996766563,-2.836801324377417,71.71905705212383,21.399801,-2.2385452,-2.913161,9.269319,-11.349614,-7.2044754,-22.042116,-18.218693,-17.929342,10.35231,-3.8466892,9.795239,-10.134446,-4.219647,9.468262,-22.843048,13.217964,-42.65106,53.289276,18.570307,-2.7821946,7.9684124,11.742142,-14.812164,33.26811,58.378826,2.8472633,-1.304098,-18.283325
231,125.26249694824219,123.74579620361328,74.7356948852539,3.7925020500534203,-2.765637307209019,71.70112356683099,21.449463,-1.7300416,-2.830996,10.43354,-11.284161,-7.497918,-22.334093,-18.14648,-18.178484,12.322488,-4.4550858,9.353554,-10.108618,-4.1487875,9.227599,-22.5042,12.998787,-42.708473,53.55837,18.843706,-2.7724223,7.887549,11.785691,-14.645429,33.351936,58.599087,2.7725816,-1.2255915,-18.28213
232,125.95185852050781,124.37915802001953,74.69392395019531,3.642692079015606,-2.638554887704423,71.67766981618009,21.30517,-1.1821682,-2.7013366,11.871802,-11.197597,-7.685214,-22.699816,-17.982962,-18.310627,14.241657,-4.671936,8.839414,-10.065965,-4.023873,8.94224,-22.142508,12.783915,-42.78971,53.87317,19.006308,-2.7964308,7.8378773,11.831122,-14.478134,33.400608,58.788834,2.7550101,-1.1765739,-18.271454
233,126.6574478149414,125.02851867675781,74.67009735107422,3.434296631912482,-2.4324839653480366,71.66671101462869,20.93779,-0.56484926,-2.5299132,13.595536,-11.117432,-7.7756157,-23.1671,-17.710169,-18.324797,16.078999,-4.236055,8.349179,-10.019402,-3.824583,8.595722,-21.76218,12.576279,-42.911358,54.233494,18.971554,-2.876876,7.84945,11.895155,-14.310021,33.380596,58.915325,2.81348,-1.1708229,-18.2528
234,127.36347961425781,125.6882095336914,74.64606475830078,3.1681711890625843,-2.1615280138089297,71.66336784369936,20.385187,0.12898922,-2.3344135,15.5549135,-11.031052,-7.776636,-23.696812,-17.334238,-18.281763,17.880438,-3.326412,7.870312,-9.972008,-3.5555327,8.192016,-21.347849,12.375371,-43.06179,54.63835,18.815207,-2.992764,7.8904066,11.973121,-14.141731,33.307747,58.997807,2.9278781,-1.1919814,-18.231047
235,128.08285522460938,126.34847259521484,74.62789154052734,2.852915360964923,-1.8527065247363204,71.64528332067019,19.678968,0.88134134,-2.118087,17.724283,-10.868118,-7.64874,-24.26493,-16.858103,-18.206957,19.661453,-2.3710356,7.215709,-9.905395,-3.2279034,7.7554293,-20.90668,12.180229,-43.22286,55.086082,18.664076,-3.108165,7.9158072,12.033433,-13.974976,33.245506,59.09222,3.0707955,-1.2209113,-18.197836
236,128.80447387695312,127.01589965820312,74.61412048339844,2.497915915215376,-1.5339972914607611,71.58962463212106,18.84766,1.6703697,-1.8802508,20.091215,-10.559635,-7.3546944,-24.845755,-16.289991,-18.122978,21.443949,-1.8029295,6.1827765,-9.802565,-2.8553667,7.3102813,-20.43794,11.988408,-43.36595,55.569614,18.656176,-3.1863794,7.880863,12.040383,-13.813617,33.258247,59.258022,3.215191,-1.2388847,-18.145296
237,129.54005432128906,127.67637634277344,74.61005401611328,2.1002720799728563,-1.1686205990529754,71.5011529490517,17.841383,2.490025,-1.6571559,22.681118,-10.1034565,-6.838532,-25.557594,-15.631131,-17.96989,23.379112,-1.7555647,4.461668,-9.651736,-2.4293094,6.8094125,-19.955654,11.79885,-43.530594,56.100033,18.866,-3.2163494,7.742025,12.001614,-13.657468,33.37199,59.508698,3.4115465,-1.2595059,-18.083544
238,130.25843811035156,128.33518981933594,74.62216186523438,1.6550457976189037,-0.7565127264766298,71.38695540125188,16.687586,3.3602574,-1.436114,25.438337,-9.504382,-6.1303062,-26.369574,-14.870727,-17.765686,25.397459,-1.9775085,2.2360635,-9.463616,-1.946728,6.255329,-19.457449,11.611557,-43.71706,56.678406,19.206602,-3.2187846,7.5335274,11.928526,-13.506461,33.550697,59.81469,3.656148,-1.2865016,-18.01288
239,130.9889678955078,128.98971557617188,74.64024353027344,1.1651485072169452,-0.38035779344182025,71.22378628722008,15.528463,4.301772,-1.1323986,28.240536,-8.711559,-5.324123,-27.04571,-14.004124,-17.62137,27.229534,-2.3630168,0.032347266,-9.252927,-1.4232942,5.7483425,-18.915918,11.42581,-43.834454,57.27836,19.571808,-3.2042441,7.3278203,11.795932,-13.365733,33.76562,60.161636,3.8408422,-1.2852991,-17.909819
240,131.72259521484375,129.6562957763672,74.67023468017578,0.6305684213395789,-0.12142353848308104,70.98603586816607,14.494699,5.3425684,-0.6573141,30.99698,-7.68884,-4.5129743,-27.362,-13.034355,-17.627104,28.63854,-2.8420064,-1.6231642,-9.034976,-0.8680597,5.3880887,-18.300737,11.242554,-43.791477,57.87154,19.851955,-3.182483,7.1980762,11.578231,-13.245829,33.991074,60.534317,3.8589947,-1.2218137,-17.751278
