unveil-humanoid-operators/unveil-humanoid-operators.github.io/feature-analysis-animation/data/feature_matrix_instances/age_ankle_rom_walking_A093_walk_ff_start_360_001__A093.csv
Frame,root_translateX,root_translateY,root_translateZ,root_rotateX,root_rotateY,root_rotateZ,left_hip_pitch_joint_dof,left_hip_roll_joint_dof,left_hip_yaw_joint_dof,left_knee_joint_dof,left_ankle_pitch_joint_dof,left_ankle_roll_joint_dof,right_hip_pitch_joint_dof,right_hip_roll_joint_dof,right_hip_yaw_joint_dof,right_knee_joint_dof,right_ankle_pitch_joint_dof,right_ankle_roll_joint_dof,waist_yaw_joint_dof,waist_roll_joint_dof,waist_pitch_joint_dof,left_shoulder_pitch_joint_dof,left_shoulder_roll_joint_dof,left_shoulder_yaw_joint_dof,left_elbow_joint_dof,left_wrist_roll_joint_dof,left_wrist_pitch_joint_dof,left_wrist_yaw_joint_dof,right_shoulder_pitch_joint_dof,right_shoulder_roll_joint_dof,right_shoulder_yaw_joint_dof,right_elbow_joint_dof,right_wrist_roll_joint_dof,right_wrist_pitch_joint_dof,right_wrist_yaw_joint_dof
0,-0.09633125364780426,-1.923586368560791,78.29365539550781,0.5233490231887348,0.15861523672466174,89.64063378420843,5.3840394,6.6661587,11.56822,7.028787,-11.399408,-7.2169995,7.0189443,-7.126912,-24.063602,7.0593457,-12.49024,4.982135,-3.6593752,1.8382502,4.9227233,-1.5307047,12.893005,-31.993677,57.773643,-4.1745834,3.985754,-5.4372473,-10.502271,-9.883639,35.929108,62.14738,4.7052817,9.946,1.6144699
1,-0.09577951580286026,-1.9234957695007324,78.29268646240234,0.5215759237318162,0.15763757277614138,89.62082975699747,5.3910346,6.6698127,11.588462,7.0290565,-11.40339,-7.224387,7.0145464,-7.1236854,-24.042017,7.059683,-12.492028,4.98052,-3.6659122,1.8291292,4.9442134,-1.48925,12.9087305,-31.973856,57.700993,-4.186074,3.9832585,-5.4366045,-10.466486,-9.864503,35.856033,62.158577,4.6126723,9.951414,1.617881
2,-0.09585381299257278,-1.9214423894882202,78.29244995117188,0.5205958100584028,0.15629503035812373,89.60131012614254,5.398578,6.673108,11.608552,7.028446,-11.406627,-7.2320986,7.010388,-7.120834,-24.02047,7.060258,-12.494093,4.979385,-3.6677299,1.820542,4.964574,-1.459291,12.916121,-31.960999,57.644703,-4.1995273,3.9789155,-5.434,-10.428075,-9.84517,35.77326,62.16844,4.5132136,9.958837,1.6223854
3,-0.0957820937037468,-1.922666311264038,78.29149627685547,0.5192537219510003,0.15568291728708672,89.58123790951531,5.405418,6.676933,11.628975,7.028356,-11.410366,-7.2391047,7.0057983,-7.117333,-23.998825,7.0604286,-12.495789,4.977322,-3.6615314,1.8111215,4.9816113,-1.4351166,12.919141,-31.953682,57.594616,-4.210128,3.9761672,-5.431852,-10.393021,-9.8184595,35.686024,62.19287,4.418767,9.961363,1.625229
4,-0.09647710621356964,-1.9217034578323364,78.29149627685547,0.5165069150253222,0.15689796543429316,89.55980522472741,5.4103966,6.6823025,11.650035,7.0287724,-11.4150505,-7.2443457,6.998157,-7.112316,-23.976883,7.060861,-12.496005,4.973024,-3.6584954,1.8060462,4.994344,-1.4021676,12.916655,-31.93684,57.53514,-4.212479,3.9772983,-5.431772,-10.358295,-9.799016,35.626053,62.226387,4.353738,9.955154,1.6217777
5,-0.0967121422290802,-1.9194954633712769,78.2917251586914,0.5109522455029624,0.16025794726012374,89.53677472123664,5.41372,6.6900105,11.671838,7.028702,-11.420416,-7.2473364,6.987382,-7.1052885,-23.955118,7.0615664,-12.49459,4.964598,-3.6514897,1.8036526,5.0019093,-1.3591824,12.911336,-31.914095,57.45928,-4.2031384,3.987515,-5.434708,-10.32082,-9.785401,35.593937,62.267956,4.327637,9.931916,1.6084062
6,-0.09960051625967026,-1.9179563522338867,78.29279327392578,0.5046731122677522,0.16500182653361398,89.51258009781328,5.416362,6.6992526,11.694274,7.0274367,-11.425771,-7.248698,6.9770117,-7.0954223,-23.933683,7.0577655,-12.490134,4.953305,-3.6425307,1.8029846,5.0063715,-1.3129104,12.901913,-31.880217,57.377842,-4.1782947,4.0031843,-5.442783,-10.290538,-9.771718,35.57432,62.3288,4.319317,9.894885,1.5916656
7,-0.09991510212421417,-1.9196981191635132,78.29296875,0.4981536525387686,0.17115033061632567,89.4873812877528,5.415949,6.708829,11.717112,7.0296583,-11.4326725,-7.2490478,6.960809,-7.087306,-23.910824,7.0621,-12.488912,4.942325,-3.6412935,1.8048844,5.0078773,-1.2645247,12.88325,-31.834711,57.300495,-4.148666,4.016662,-5.4508014,-10.268086,-9.752283,35.569824,62.406765,4.323245,9.860924,1.5722201
8,-0.09884428977966309,-1.9224190711975098,78.29351043701172,0.49356028407924407,0.17864553423714635,89.46137428566055,5.414434,6.7163777,11.740611,7.0299125,-11.436633,-7.2490935,6.94343,-7.080493,-23.886091,7.0627804,-12.484113,4.934762,-3.6376746,1.8073318,5.010873,-1.2167647,12.868311,-31.802492,57.222202,-4.134041,4.020124,-5.456946,-10.239908,-9.739834,35.558125,62.479958,4.325326,9.844297,1.5585726
9,-0.09780437499284744,-1.9235670566558838,78.29331970214844,0.4915732815958282,0.18725951477113634,89.43340988282998,5.411444,6.7212114,11.765443,7.0305314,-11.4388485,-7.2483525,6.9239163,-7.0763803,-23.857859,7.063457,-12.478324,4.932471,-3.6375403,1.811534,5.0131693,-1.1818285,12.841255,-31.782381,57.165977,-4.1266108,4.0078397,-5.45725,-10.21964,-9.717952,35.531944,62.57252,4.3179708,9.851856,1.5536201
10,-0.09872135519981384,-1.9255317449569702,78.29212951660156,0.4904415793535839,0.19716454651043125,89.40382925213754,5.4071684,6.7245073,11.791297,7.0304112,-11.439086,-7.2467117,6.9019394,-7.0738926,-23.826899,7.063015,-12.470127,4.9334426,-3.6339393,1.8156136,5.018434,-1.1430852,12.823388,-31.78136,57.09821,-4.1311917,3.9872303,-5.4542117,-10.192153,-9.703683,35.498894,62.657585,4.314704,9.876087,1.5540011
11,-0.09909898787736893,-1.9289463758468628,78.29234313964844,0.4900508689842628,0.20840354584983037,89.37466595607798,5.40088,6.7271905,11.816986,7.0299134,-11.4381275,-7.2452464,6.877834,-7.0720687,-23.79598,7.0631595,-12.461659,4.935048,-3.6194801,1.8182381,5.020002,-1.1188453,12.794933,-31.77981,57.05276,-4.1410813,3.962905,-5.453841,-10.166054,-9.681097,35.448177,62.757298,4.2984495,9.904796,1.5553776
12,-0.10346538573503494,-1.9307053089141846,78.29239654541016,0.4880997797477536,0.22133116575746453,89.34803756813827,5.391324,6.7303843,11.841009,7.0298,-11.436904,-7.244988,6.852237,-7.0696406,-23.768002,7.0636315,-12.453958,4.9345384,-3.6030233,1.8190255,5.0227046,-1.0826591,12.770715,-31.745468,56.99381,-4.154265,3.945104,-5.463263,-10.1320715,-9.6633215,35.40292,62.843582,4.2728415,9.931766,1.5508245
13,-0.1040748581290245,-1.9365005493164062,78.29329681396484,0.48636610018547094,0.23576364211193038,89.32447761606454,5.3784127,6.7342076,11.863475,7.029491,-11.435006,-7.246669,6.825779,-7.0662084,-23.743366,7.063747,-12.446963,4.93145,-3.5888066,1.8193437,5.0190444,-1.0498686,12.723121,-31.656576,56.957603,-4.1563277,3.9330883,-5.490228,-10.10633,-9.630945,35.359955,62.95111,4.2248106,9.956445,1.5347217
14,-0.10442029684782028,-1.940878987312317,78.29438781738281,0.4841986591600582,0.2519711166680936,89.30300051834166,5.36222,6.738133,11.884898,7.0290465,-11.43216,-7.2495856,6.7974305,-7.062601,-23.720846,7.0630145,-12.43938,4.92714,-3.5649514,1.8150321,5.0209146,-0.99539137,12.700007,-31.551949,56.883324,-4.1691103,3.9269753,-5.5311923,-10.058283,-9.616886,35.31344,63.023273,4.1681285,9.984841,1.513858
15,-0.10666736960411072,-1.942251205444336,78.29507446289062,0.4802743017119629,0.2693873283574395,89.2829388660177,5.3438354,6.742539,11.904742,7.0288963,-11.428944,-7.2526727,6.767166,-7.0587854,-23.700134,7.0643663,-12.432787,4.9216866,-3.5562916,1.8140591,5.0220866,-0.94317263,12.657918,-31.399359,56.826298,-4.1735187,3.921258,-5.572221,-10.028214,-9.592593,35.284237,63.11495,4.1057634,10.009219,1.4945142
16,-0.10792213678359985,-1.946126103401184,78.296630859375,0.47739512536914563,0.2881830751446356,89.2636522558298,5.323491,6.7473807,11.922557,7.028363,-11.424658,-7.254902,6.735861,-7.054076,-23.681398,7.0642967,-12.424357,4.9151945,-3.5478246,1.8164588,5.0185447,-0.8947183,12.609423,-31.248653,56.780525,-4.1989546,3.916016,-5.591356,-9.99835,-9.566845,35.272186,63.206463,4.055552,10.02461,1.4800717
17,-0.11171648651361465,-1.94894278049469,78.29918670654297,0.4726426695976457,0.3086041904090027,89.24482515928757,5.3012447,6.7534823,11.9373255,7.02836,-11.420301,-7.256161,6.70226,-7.0481625,-23.665533,7.0647874,-12.414743,4.9056864,-3.5419002,1.8248634,5.009699,-0.85319394,12.546829,-31.093117,56.753143,-4.251368,3.9118924,-5.5784993,-9.97342,-9.538691,35.282703,63.30522,4.0167274,10.026384,1.4696436
18,-0.11388642340898514,-1.9543498754501343,78.30078887939453,0.46643536375641587,0.3306754371177792,89.22694070602539,5.277303,6.7606745,11.949598,7.0274367,-11.414857,-7.256955,6.667621,-7.0404367,-23.652456,7.0638604,-12.403624,4.893716,-3.5206506,1.83162,5.005886,-0.8042867,12.50552,-30.949785,56.70176,-4.3348207,3.9122157,-5.5474596,-9.930171,-9.5246725,35.288696,63.371906,3.980074,10.01978,1.4652212
19,-0.11389172077178955,-1.9600335359573364,78.30278778076172,0.4612951765632736,0.3534927427130352,89.21017088530384,5.2507424,6.7671423,11.961087,7.027739,-11.409278,-7.2571864,6.631042,-7.033986,-23.639627,7.064341,-12.392426,4.8834343,-3.5145524,1.8430783,4.9996653,-0.7583675,12.448111,-30.779432,56.66761,-4.410765,3.9102345,-5.5136776,-9.898382,-9.509981,35.31986,63.44553,3.9543374,10.010617,1.468077
20,-0.11578135937452316,-1.9668922424316406,78.30400848388672,0.458112312268493,0.37624288636574643,89.19503277795856,5.223141,6.770706,11.973687,7.0274844,-11.402865,-7.256613,6.5944343,-7.030381,-23.625137,7.064237,-12.380267,4.8788214,-3.5026395,1.8500798,4.9960837,-0.71801573,12.398477,-30.615942,56.635273,-4.4722834,3.9049137,-5.493376,-9.864809,-9.501363,35.342293,63.50497,3.935268,10.005473,1.4861684
21,-0.11754928529262543,-1.974081039428711,78.30472564697266,0.4570606328038148,0.39873607084737966,89.1807641861529,5.1947904,6.7702227,11.989896,7.026356,-11.396522,-7.255831,6.557136,-7.031162,-23.605522,7.063669,-12.366658,4.884063,-3.4913723,1.852552,4.9959517,-0.6812028,12.354963,-30.456629,56.60746,-4.5126133,3.8954897,-5.4878464,-9.834961,-9.496915,35.36385,63.5521,3.9293623,10.006909,1.530649
22,-0.12048950046300888,-1.983372449874878,78.30582427978516,0.4587617977651556,0.4213477867020021,89.16737501820693,5.1647043,6.7672315,12.007941,7.025777,-11.390659,-7.254802,6.5188127,-7.0347266,-23.58276,7.062935,-12.351616,4.8959656,-3.4762657,1.8503338,4.9982195,-0.6464097,12.321057,-30.304834,56.579647,-4.5448647,3.8839562,-5.489155,-9.805868,-9.496205,35.381756,63.588047,3.9320557,10.01102,1.595062
23,-0.12366825342178345,-1.9933876991271973,78.30736541748047,0.46203370690793466,0.4442840794452471,89.15653906815285,5.133384,6.7626195,12.023718,7.024742,-11.382818,-7.2521534,6.480424,-7.039838,-23.562923,7.061873,-12.336328,4.9076653,-3.475958,1.8507861,5.0009985,-0.6120469,12.278057,-30.120016,56.557804,-4.5569882,3.868738,-5.502906,-9.784273,-9.497788,35.416542,63.622875,3.9409792,10.015393,1.6577094
24,-0.1283285766839981,-2.0022127628326416,78.31005859375,0.4640874880938623,0.46795166012860084,89.14953254223904,5.098715,6.757432,12.032985,7.0237637,-11.369645,-7.246751,6.441991,-7.04529,-23.551554,7.0616927,-12.323003,4.912353,-3.4682152,1.8490269,5.0035286,-0.5809079,12.241433,-29.922527,56.52745,-4.563743,3.8519776,-5.531501,-9.753262,-9.500625,35.43876,63.645653,3.941997,10.016585,1.6979793
25,-0.13323162496089935,-2.015183925628662,78.31438446044922,0.4670190998147334,0.49408159315542016,89.14628851318564,5.059576,6.751415,12.034974,7.0231886,-11.350322,-7.2368574,6.40206,-7.0514636,-23.551022,7.0615745,-12.310748,4.9065547,-3.4601505,1.8447597,5.0058784,-0.54463035,12.211611,-29.692364,56.47878,-4.549013,3.8335574,-5.5908275,-9.714522,-9.503277,35.447304,63.65773,3.923093,10.011642,1.7115616
26,-0.13704755902290344,-2.026531934738159,78.31773376464844,0.46918906109273867,0.5219331078256029,89.1460728251157,5.0169563,6.744403,12.031811,7.02207,-11.325792,-7.223611,6.360882,-7.0582256,-23.558157,7.0616965,-12.299368,4.8943415,-3.4424226,1.8358662,5.0070934,-0.50799596,12.192894,-29.453669,56.417645,-4.5233283,3.8136265,-5.6722646,-9.665847,-9.50488,35.436222,63.658165,3.8906868,10.002505,1.7088896
27,-0.1376963108778,-2.0350229740142822,78.32073211669922,0.47256748606673,0.5479975007205603,89.15000545581533,4.974354,6.7367797,12.023693,7.0211267,-11.299627,-7.210095,6.323015,-7.065464,-23.570126,7.0606184,-12.288516,4.88058,-3.4466276,1.8289346,5.0134735,-0.46440807,12.174815,-29.17103,56.347996,-4.490264,3.7914104,-5.7541504,-9.630991,-9.506519,35.456413,63.66027,3.8748596,9.994861,1.6923728
28,-0.14005343616008759,-2.0463924407958984,78.32441711425781,0.4768272613783018,0.5691059813357082,89.15930894125113,4.935172,6.728779,12.010792,7.0208383,-11.27523,-7.1992617,6.2905674,-7.0730815,-23.58375,7.061749,-12.280526,4.86995,-3.439144,1.8207409,5.0211024,-0.4349927,12.164392,-28.914146,56.288044,-4.496676,3.767794,-5.8018603,-9.595045,-9.50857,35.491608,63.658672,3.896764,9.992631,1.6627057
29,-0.14486593008041382,-2.058972120285034,78.32681274414062,0.4802035860243149,0.58224583683139,89.17544446489259,4.902979,6.72113,11.991552,7.019339,-11.253448,-7.1927986,6.2687635,-7.07928,-23.599234,7.0616193,-12.275698,4.862409,-3.4394069,1.8139458,5.0350227,-0.408734,12.160374,-28.65096,56.22621,-4.5466394,3.743878,-5.8127136,-9.572213,-9.5140085,35.583828,63.658466,3.9846592,9.999697,1.6100004
30,-0.14422404766082764,-2.0690834522247314,78.32738494873047,0.48350683303848185,0.5899938702974922,89.19753238648028,4.873969,6.713615,11.966298,7.018875,-11.233316,-7.1888447,6.2537026,-7.0853972,-23.617638,7.062138,-12.274023,4.855931,-3.4291613,1.8057952,5.052447,-0.39255783,12.165333,-28.40187,56.16487,-4.6333537,3.7193832,-5.7981453,-9.546745,-9.522876,35.696476,63.648994,4.1138124,10.0125885,1.5373948
31,-0.14294254779815674,-2.0810675621032715,78.32901763916016,0.48893363845213605,0.5968304491910588,89.22254515021295,4.8446083,6.704824,11.938403,7.018117,-11.211593,-7.185137,6.2402077,-7.0925035,-23.638517,7.061714,-12.270401,4.8520064,-3.4154925,1.7968357,5.070844,-0.38429928,12.178626,-28.165623,56.1104,-4.7305717,3.6918414,-5.7640543,-9.519214,-9.534067,35.8021,63.63341,4.245958,10.025815,1.4660419
32,-0.1436316817998886,-2.095233678817749,78.33049774169922,0.4936810540596798,0.6073224379710906,89.24759480965558,4.810328,6.693691,11.911198,7.016707,-11.185197,-7.179528,6.2224917,-7.102115,-23.661081,7.0613027,-12.261799,4.8523097,-3.4010146,1.7874229,5.086636,-0.38424048,12.198063,-27.947193,56.07183,-4.8134813,3.6585958,-5.7148986,-9.48614,-9.544935,35.86662,63.613293,4.339864,10.034407,1.4169776
33,-0.14515948295593262,-2.1105806827545166,78.33279418945312,0.5016351959442377,0.6215402602921117,89.27027821127882,4.7710776,6.67905,11.887239,7.0155244,-11.153371,-7.170905,6.1993876,-7.1157727,-23.68369,7.06039,-12.24538,4.8590016,-3.3922198,1.7775875,5.1014323,-0.3865582,12.224006,-27.737215,56.044804,-4.878028,3.6154845,-5.644753,-9.447723,-9.554712,35.879826,63.586414,4.3804827,10.039298,1.3974738
34,-0.1472841054201126,-2.1253294944763184,78.33602142333984,0.5098152889101756,0.6373527862467159,89.29272557455458,4.7289186,6.662038,11.864139,7.0138044,-11.117103,-7.1607404,6.17419,-7.1319795,-23.706726,7.0596743,-12.224932,4.870095,-3.3931916,1.7656407,5.120594,-0.38224256,12.265936,-27.52373,56.010773,-4.9320874,3.5659122,-5.5569644,-9.408867,-9.565304,35.866333,63.54919,4.391439,10.042684,1.3969272
35,-0.15215657651424408,-2.1435203552246094,78.34127807617188,0.5189593271972591,0.6564021535458259,89.31872583072226,4.681728,6.6440234,11.837942,7.011708,-11.078095,-7.1502256,6.145683,-7.1494784,-23.733845,7.058418,-12.200866,4.882879,-3.388112,1.7508801,5.1362357,-0.38791606,12.31969,-27.336884,55.989956,-4.9812374,3.516841,-5.4628143,-9.366897,-9.574618,35.831806,63.512062,4.3882184,10.040748,1.4062511
36,-0.15666212141513824,-2.1605355739593506,78.34623718261719,0.5274784218723299,0.6801488227803326,89.35183243053143,4.6266513,6.626099,11.804642,7.0101175,-11.038485,-7.1406207,6.1134577,-7.166409,-23.768103,7.0567384,-12.1761675,4.893922,-3.3845274,1.7323824,5.147824,-0.39660922,12.392266,-27.171402,55.973846,-5.0199533,3.4765794,-5.380111,-9.326569,-9.583434,35.804882,63.47832,4.389157,10.0306835,1.4175136
37,-0.15573015809059143,-2.1763381958007812,78.35216522216797,0.5355005787544516,0.711331853831942,89.39278878663625,4.5609665,6.60931,11.763318,7.007924,-10.996963,-7.1347866,6.0740047,-7.1818967,-23.810066,7.054589,-12.150936,4.9024754,-3.379986,1.7133111,5.1481814,-0.4203258,12.473278,-27.035952,55.98189,-5.0452905,3.4446168,-5.3052535,-9.289818,-9.590462,35.789196,63.458607,4.399757,10.00557,1.4304855
38,-0.15725649893283844,-2.193051338195801,78.3577880859375,0.5429045550174139,0.7484387112993364,89.43996049305261,4.487059,6.5929418,11.715995,7.004857,-10.953161,-7.1312556,6.029061,-7.196305,-23.858273,7.0523133,-12.1247,4.910262,-3.3806787,1.6897581,5.1446824,-0.44107172,12.578782,-26.91868,55.986538,-5.0598874,3.418955,-5.235166,-9.256021,-9.596409,35.779232,63.44192,4.411884,9.969051,1.4493682
39,-0.1612236201763153,-2.2116763591766357,78.36328125,0.5492645267682317,0.7864788481283719,89.49282883337274,4.409171,6.576237,11.663055,7.003662,-10.909711,-7.124548,5.983755,-7.2111287,-23.912468,7.0505,-12.096531,4.918014,-3.3821602,1.6644671,5.1396914,-0.46883452,12.692787,-26.816069,56.003853,-5.066199,3.3997557,-5.175124,-9.226271,-9.600504,35.771122,63.43042,4.422531,9.933585,1.4697059
40,-0.1651184856891632,-2.231238603591919,78.36869049072266,0.5559643752721125,0.8204332844905984,89.55111302113185,4.333914,6.5579276,11.605184,7.00165,-10.866008,-7.1092815,5.9440565,-7.2268996,-23.97219,7.0485415,-12.065177,4.926345,-3.385725,1.6385511,5.1391916,-0.5024218,12.809093,-26.717928,56.03335,-5.0666075,3.388075,-5.1326237,-9.20303,-9.603286,35.76905,63.42094,4.433295,9.911477,1.487588
41,-0.16685591638088226,-2.2484569549560547,78.37443542480469,0.56325898230129,0.8496908370189358,89.61407742211252,4.261264,6.537644,11.5425825,7.0005555,-10.823154,-7.079065,5.910669,-7.244052,-24.036768,7.046305,-12.029097,4.935227,-3.389369,1.613598,5.144192,-0.5466146,12.9226,-26.62022,56.08403,-5.0550423,3.384405,-5.114156,-9.187682,-9.606374,35.77632,63.414,4.444003,9.908333,1.5034599
42,-0.170270174741745,-2.2690670490264893,78.3793716430664,0.5698232201571579,0.8767205518842288,89.68213910853584,4.1885233,6.515901,11.474968,7.0003424,-10.7808695,-7.038408,5.8804007,-7.2618594,-24.106712,7.044467,-11.989362,4.9443774,-3.395329,1.5879093,5.153347,-0.59525526,13.042716,-26.526339,56.144924,-5.033019,3.38861,-5.115338,-9.179007,-9.610351,35.79439,63.40742,4.457388,9.917012,1.5192907
43,-0.17717114090919495,-2.289105176925659,78.3852310180664,0.5770130445003977,0.9011980436816736,89.75666820803366,4.1169195,6.4934826,11.401824,6.999612,-10.738194,-6.9981065,5.8546243,-7.28008,-24.18332,7.0420074,-11.948584,4.9541526,-3.4069312,1.561879,5.1635923,-0.64777726,13.164928,-26.440828,56.214275,-5.010054,3.3987684,-5.1238256,-9.173877,-9.61422,35.813637,63.403187,4.4690127,9.930521,1.532233
44,-0.18261972069740295,-2.3087830543518066,78.39176177978516,0.5823121814134731,0.9228842703804653,89.83899556654099,4.0462203,6.4715652,11.322439,6.998841,-10.694999,-6.9690156,5.8345504,-7.2980065,-24.268078,7.039835,-11.911185,4.9647565,-3.428833,1.5343727,5.173329,-0.6980803,13.29124,-26.367437,56.28135,-4.9967923,3.4137595,-5.128448,-9.169683,-9.615796,35.827324,63.40111,4.477086,9.941948,1.5395727
45,-0.18449364602565765,-2.3289196491241455,78.39828491210938,0.586757402061566,0.9423795715180663,89.93122268993739,3.9762402,6.4510503,11.235833,6.996833,-10.650614,-6.958123,5.8200297,-7.3151603,-24.362675,7.036987,-11.877064,4.9751616,-3.4678059,1.5044166,5.180989,-0.7433107,13.424096,-26.306187,56.346966,-5.0015683,3.4373598,-5.1272173,-9.16941,-9.612732,35.838295,63.406063,4.4813976,9.952513,1.5403483
46,-0.18901485204696655,-2.348999261856079,78.40410614013672,0.5907547512514807,0.9595412202599211,90.03192191786918,3.906327,6.4310284,11.14257,6.9954348,-10.606029,-6.9582663,5.8107405,-7.332076,-24.466154,7.0343604,-11.845645,4.98567,-3.5202086,1.4715649,5.187857,-0.7856293,13.564477,-26.255669,56.413574,-5.017928,3.4690208,-5.12604,-9.174038,-9.604226,35.84782,63.4182,4.4815083,9.964546,1.535892
47,-0.19729109108448029,-2.3731586933135986,78.41010284423828,0.5955269676215129,0.973084701554128,90.13757074270043,3.8395073,6.4087243,11.044901,6.9926233,-10.56106,-6.959111,5.807017,-7.350953,-24.574774,7.0312076,-11.814601,4.998359,-3.573874,1.434639,5.1961217,-0.82540256,13.711116,-26.215378,56.4717,-5.0318503,3.5011168,-5.12534,-9.182036,-9.591396,35.851242,63.433334,4.480977,9.973093,1.5270678
48,-0.19518692791461945,-2.397841215133667,78.415771484375,0.6030525628167026,0.9817009204246321,90.24426204915461,3.7767024,6.3814645,10.944838,6.9912634,-10.518356,-6.950282,5.807812,-7.375105,-24.684832,7.0289316,-11.782635,5.0156007,-3.6166801,1.3924999,5.207531,-0.86464554,13.86156,-26.185577,56.51454,-5.0298767,3.52578,-5.1253114,-9.191996,-9.578085,35.842247,63.448635,4.480962,9.973141,1.5147274
49,-0.2017318308353424,-2.421387195587158,78.42119598388672,0.6131821158456799,0.9815083231907267,90.35285722887602,3.7230139,6.348848,10.841085,6.9901695,-10.478852,-6.9296045,5.819218,-7.404285,-24.79796,7.026251,-11.750443,5.039209,-3.6401994,1.3449925,5.2248344,-0.91141856,14.013219,-26.174385,56.54916,-5.0001845,3.5414846,-5.1282773,-9.196369,-9.567975,35.813614,63.458572,4.4798007,9.962735,1.4992696
50,-0.2096920907497406,-2.443491220474243,78.42473602294922,0.6253635575021885,0.9743286758192503,90.46459086195742,3.6759992,6.312543,10.733101,6.9888783,-10.441042,-6.902436,5.839435,-7.4371314,-24.915398,7.023419,-11.71866,5.067525,-3.6508353,1.2941124,5.2467523,-0.9654871,14.165364,-26.18101,56.579437,-4.9529705,3.5518458,-5.1330247,-9.196311,-9.562458,35.77051,63.46302,4.479326,9.944749,1.4805942
51,-0.2199549525976181,-2.4702792167663574,78.42859649658203,0.6398097944939021,0.9675620158022366,90.57694378918838,3.6270492,6.271239,10.624481,6.9881644,-10.402772,-6.8696394,5.8581686,-7.4745955,-25.032743,7.020091,-11.684021,5.097621,-3.659949,1.2415407,5.2684855,-1.0142182,14.318254,-26.190268,56.591663,-4.9065022,3.5573442,-5.1346083,-9.199239,-9.561252,35.72074,63.462925,4.4788346,9.922748,1.4589081
52,-0.2334255427122116,-2.4996209144592285,78.4334716796875,0.6559452261745867,0.9686022300594659,90.68742295072781,3.5678165,6.2256174,10.518577,6.9867396,-10.360234,-6.8322744,5.8637094,-7.516628,-25.145447,7.018833,-11.645245,5.1266093,-3.68007,1.1898077,5.2854233,-1.043599,14.473124,-26.186327,56.570904,-4.8797593,3.5585065,-5.1280675,-9.212667,-9.5626,35.67215,63.460625,4.4769235,9.899886,1.4342558
53,-0.2502293884754181,-2.529907464981079,78.43939208984375,0.6739183521593336,0.9828661320516299,90.79703139798382,3.4906352,6.174902,10.414193,6.985811,-10.311338,-6.787518,5.850527,-7.5630245,-25.253847,7.0167117,-11.598565,5.1531005,-3.719426,1.1382685,5.293645,-1.0472757,14.631912,-26.15719,56.509697,-4.876301,3.556225,-5.111689,-9.245174,-9.564594,35.635868,63.460556,4.473857,9.876543,1.406705
54,-0.2635628581047058,-2.561788558959961,78.44520568847656,0.6962199399741265,1.0052576641117885,90.9064000774295,3.4025598,6.1172132,10.310767,6.983615,-10.2572775,-6.735853,5.825445,-7.615905,-25.359554,7.014491,-11.546709,5.1788983,-3.7719176,1.0832615,5.2961698,-1.0309863,14.795504,-26.111778,56.41497,-4.887145,3.5501084,-5.0885215,-9.292777,-9.566705,35.606136,63.463383,4.469154,9.850833,1.3759512
55,-0.2823556661605835,-2.606722354888916,78.45231628417969,0.7194677412338004,1.0273672402230922,91.01273306787283,3.3138707,6.056261,10.211077,6.982496,-10.203494,-6.683275,5.7975,-7.672735,-25.461185,7.014482,-11.493568,5.205968,-3.826828,1.0282774,5.2996755,-0.99881256,14.962568,-26.065102,56.292397,-4.908855,3.5388198,-5.0610437,-9.344809,-9.568633,35.56858,63.463978,4.467453,9.823079,1.3414022
56,-0.30821555852890015,-2.638524293899536,78.45707702636719,0.7426065073218145,1.0407802631247232,91.11288405605897,3.2371736,5.9932537,10.118539,6.980733,-10.153893,-6.63553,5.7770596,-7.7328463,-25.557482,7.016225,-11.441559,5.2363915,-3.872752,0.9744567,5.310081,-0.95692986,15.130545,-26.03325,56.150585,-4.938027,3.5207932,-5.0312223,-9.394289,-9.571868,35.511242,63.46182,4.476008,9.793016,1.3024385
57,-0.334675669670105,-2.6723313331604004,78.46116638183594,0.7700813908610544,1.0455205712333395,91.2012999681141,3.1738038,5.924588,10.040151,6.977964,-10.109279,-6.597302,5.722485,-7.8208613,-25.638786,7.1144886,-11.440409,5.2718763,-3.8993218,0.91956425,5.3274837,-0.90849453,15.297058,-26.023916,55.987553,-4.97915,3.492625,-4.9928064,-9.43605,-9.577913,35.423008,63.454422,4.4981856,9.762498,1.2551646
58,-0.36176955699920654,-2.713278293609619,78.46443176269531,0.8000590085768482,1.0433479292728918,91.28396467780658,3.1192663,5.850988,9.969114,6.975674,-10.068432,-6.5638,5.5695815,-7.965885,-25.700214,7.4564,-11.566778,5.3125196,-3.9157147,0.8652076,5.3508625,-0.8532864,15.461654,-26.03012,55.80393,-5.0325108,3.455903,-4.9465823,-9.474142,-9.587198,35.31262,63.441765,4.5315237,9.731113,1.2013748
59,-0.38717707991600037,-2.755152702331543,78.4661865234375,0.8336604850303454,1.0370518234951775,91.3630480231398,3.0704694,5.7711606,9.902001,6.9725842,-10.028977,-6.528153,5.387724,-8.133149,-25.75144,7.873612,-11.732011,5.356314,-3.9289825,0.8080913,5.3754764,-0.79028386,15.624078,-26.043375,55.6111,-5.087569,3.4165862,-4.905125,-9.5102005,-9.600222,35.19081,63.424217,4.5645876,9.695283,1.1490549
60,-0.42072975635528564,-2.793348550796509,78.46752166748047,0.8726101148103134,1.0290224625360194,91.440874202658,3.0234158,5.6834345,9.834946,6.9699726,-9.989892,-6.483519,5.2037597,-8.309825,-25.796684,8.298954,-11.899725,5.40166,-3.9463072,0.74449885,5.3973093,-0.719394,15.784421,-26.056416,55.420166,-5.135307,3.3806863,-4.88115,-9.54418,-9.616408,35.068207,63.399815,4.5857296,9.651304,1.1061689
61,-0.44027507305145264,-2.825512170791626,78.4678726196289,0.9177918009709864,1.0203503423647757,91.51707554852192,2.977974,5.587631,9.767256,6.9673996,-9.951506,-6.4277487,5.0222445,-8.493575,-25.834846,8.718557,-12.066121,5.4484158,-3.9710696,0.67223155,5.4120407,-0.6352694,15.944,-26.06578,55.227745,-5.1725564,3.3499055,-4.882138,-9.575474,-9.635017,34.94784,63.360744,4.5805073,9.601502,1.0779892
62,-0.4763627350330353,-2.8653154373168945,78.46675872802734,0.9675073188056331,1.0096786017979162,91.59082648266578,2.9351466,5.4851694,9.700826,6.96505,-9.91401,-6.364715,4.839991,-8.685538,-25.865793,9.143453,-12.235306,5.4968424,-3.9996586,0.5939957,5.422963,-0.53924215,16.103392,-26.075369,55.029167,-5.2050147,3.321032,-4.9001293,-9.606007,-9.655668,34.826817,63.311356,4.561406,9.546673,1.0591074
63,-0.5191972255706787,-2.9076616764068604,78.46626281738281,1.0213992515165062,0.995429996481922,91.66356459252887,2.8957953,5.375122,9.63597,6.9623623,-9.876217,-6.2963443,4.658464,-8.886141,-25.892908,9.5728655,-12.404786,5.5464764,-4.0295753,0.5118811,5.4374104,-0.43809077,16.260159,-26.085884,54.83207,-5.233512,3.293126,-4.9244733,-9.636341,-9.678796,34.699745,63.26797,4.5487323,9.481139,1.0414392
64,-0.5650216937065125,-2.954111337661743,78.46652221679688,1.078259153803223,0.9761251842000799,91.73690605785951,2.8604376,5.2569666,9.573085,6.9598804,-9.838031,-6.2243953,4.4789486,-9.095386,-25.920195,10.00681,-12.572802,5.5967727,-4.058213,0.42875317,5.4611917,-0.34075463,16.410099,-26.098848,54.64803,-5.259652,3.2649708,-4.9441175,-9.671308,-9.706879,34.565376,63.2519,4.56654,9.398788,1.0166771
65,-0.6155630350112915,-3.0010900497436523,78.46680450439453,1.1380580845210506,0.9485866470832633,91.81196918392719,2.8315876,5.130504,9.512591,6.957426,-9.798302,-6.148043,4.306558,-9.313139,-25.94948,10.441651,-12.737367,5.6464443,-4.0829105,0.3466746,5.4990344,-0.2520181,16.550037,-26.116621,54.47738,-5.2820435,3.2357986,-4.9581375,-9.711761,-9.742442,34.426727,63.263245,4.633467,9.290631,0.98780507
66,-0.6660217046737671,-3.045064926147461,78.46527862548828,1.2011856583327585,0.9145420573297295,91.88760129971119,2.8089273,4.9959855,9.453592,6.9547386,-9.758152,-6.0686474,4.1399446,-9.538791,-25.978619,10.876139,-12.898826,5.6960006,-4.104804,0.26541469,5.5459886,-0.16984105,16.679169,-26.138899,54.319782,-5.300276,3.2059712,-4.971166,-9.753941,-9.7864,34.283257,63.29139,4.7328596,9.1624155,0.9578264
67,-0.7162654995918274,-3.0967206954956055,78.46452331542969,1.2678217087522552,0.8797252541474663,91.96237152303657,2.7862186,4.853779,9.396384,6.951744,-9.7173195,-5.9848366,3.9695337,-9.773728,-26.00449,11.317413,-13.05978,5.7479215,-4.1264205,0.18373585,5.5957108,-0.09202204,16.796112,-26.162968,54.183537,-5.3157825,3.1762457,-4.980848,-9.79352,-9.8374605,34.127693,63.336887,4.837018,9.030978,0.9188081
68,-0.7700898051261902,-3.151733875274658,78.46382904052734,1.337605398411191,0.8497791540867444,92.03461012094473,2.759725,4.7040086,9.340831,6.944411,-9.674106,-5.897298,3.7887318,-10.017699,-26.024311,11.765753,-13.219646,5.8047056,-4.1504874,0.10034017,5.6409283,-0.017346766,16.899605,-26.186361,54.079052,-5.330049,3.1471322,-4.9845524,-9.827312,-9.893175,33.95281,63.40308,4.9180923,8.913134,0.86241454
69,-0.836026132106781,-3.2068300247192383,78.46326446533203,1.410882958418491,0.8265985635796795,92.10419030368234,2.7221804,4.548207,9.285907,6.9442215,-9.634311,-5.806522,3.5952497,-10.270299,-26.038004,12.222021,-13.379937,5.86678,-4.180785,0.016916005,5.675683,0.05188484,16.97976,-26.205492,54.01942,-5.3391113,3.115427,-4.9762993,-9.8630705,-9.944583,33.755314,63.51291,4.962487,8.810008,0.78411186
70,-0.9019997715950012,-3.26149845123291,78.46237182617188,1.4873342551522342,0.8069696299006746,92.1718128786037,2.6818488,4.3851705,9.232291,6.94118,-9.592992,-5.7122145,3.3950377,-10.53074,-26.046898,12.680914,-13.538133,5.9329677,-4.207538,-0.070275776,5.709621,0.12064987,17.055359,-26.230694,53.979626,-5.3482,3.0833533,-4.961036,-9.890305,-10.002614,33.52968,63.64097,4.984839,8.714288,0.69136393
71,-0.9489288330078125,-3.3098506927490234,78.46150207519531,1.5671623169662336,0.789002015525063,92.23772968183445,2.6411827,4.2140927,9.181059,6.9327016,-9.548475,-5.6135826,3.1860018,-10.801179,-26.05,13.149984,-13.695004,6.0031238,-4.237,-0.1592855,5.7430263,0.18384781,17.118553,-26.255861,53.969128,-5.358872,3.0549488,-4.946189,-9.914385,-10.065311,33.297863,63.781334,5.0079966,8.627396,0.58526003
72,-1.0316169261932373,-3.373307704925537,78.45700073242188,1.6510316744113902,0.770782763507218,92.302383316923,2.594515,4.035024,9.132654,6.9332485,-9.508965,-5.509856,2.961746,-11.086229,-26.045134,13.646957,-13.857408,6.0773997,-4.2735863,-0.24905899,5.775877,0.2357454,17.162054,-26.276546,53.99771,-5.3727593,3.0342355,-4.938998,-9.93955,-10.128156,33.07848,63.92776,5.0529423,8.550434,0.4672203
73,-1.115216851234436,-3.4389376640319824,78.45176696777344,1.7378026741990438,0.7527051514309924,92.36533492867737,2.5476267,3.8478215,9.088851,6.929008,-9.467222,-5.4007406,2.7211514,-11.385261,-26.031696,14.172178,-14.023481,6.1557155,-4.338354,-0.33925167,5.799068,0.28647795,17.176712,-26.271404,54.073235,-5.389579,3.0205941,-4.9364386,-10.000745,-10.16454,32.914494,64.12419,5.1431284,8.488873,0.33355576
74,-1.1863149404525757,-3.487900733947754,78.44640350341797,1.827553044824766,0.7353598708491663,92.42671456666923,2.4985938,3.6529331,9.048571,6.9242377,-9.425731,-5.286617,2.4677775,-11.696008,-26.010715,14.716644,-14.190468,6.2379937,-4.3521075,-0.42964107,5.8434687,0.30099282,17.196827,-26.31856,54.164913,-5.424505,3.015537,-4.9414096,-10.000358,-10.264003,32.686733,64.23214,5.2342134,8.446151,0.20502968
75,-1.274367094039917,-3.559603452682495,78.44097137451172,1.9217364857417871,0.7174865998439636,92.48722158866958,2.447864,3.4491918,9.009588,6.9202356,-9.383623,-5.1680064,2.2048955,-12.019242,-25.982956,15.277738,-14.358132,6.323844,-4.3911967,-0.51866335,5.8847737,0.31929094,17.196918,-26.345648,54.287807,-5.455567,3.01704,-4.9551816,-9.997535,-10.36833,32.484577,64.34724,5.3406315,8.403151,0.057751067
76,-1.3660424947738647,-3.6337990760803223,78.43467712402344,2.0219164774288028,0.6973394048925312,92.54765341392444,2.3988187,3.2346656,8.969705,6.915365,-9.339666,-5.0452013,1.9454924,-12.350954,-25.951712,15.83087,-14.519974,6.4127445,-4.4421186,-0.6107467,5.9248314,0.32655364,17.17965,-26.370943,54.452362,-5.47901,3.0263922,-4.9824233,-9.973309,-10.476216,32.267696,64.45915,5.4350357,8.344333,-0.11180484
77,-1.4534677267074585,-3.7064216136932373,78.42721557617188,2.1298406863643917,0.6740407092701357,92.60827144316839,2.3527977,3.0072117,8.927647,6.9100976,-9.293924,-4.918711,1.6880672,-12.695042,-25.917715,16.382277,-14.679505,6.505005,-4.508977,-0.7107299,5.9617825,0.3287791,17.148865,-26.389137,54.65883,-5.492952,3.044555,-5.0291443,-9.929358,-10.578575,32.028545,64.57255,5.4985933,8.266598,-0.30853838
78,-1.5438803434371948,-3.775850772857666,78.42161560058594,2.24411949239068,0.6485844558012551,92.6684412578125,2.3083396,2.7685802,8.884867,6.9046197,-9.246537,-4.788213,1.4286584,-13.0508375,-25.87938,16.937151,-14.83704,6.6004634,-4.579277,-0.8125396,5.9987807,0.31534234,17.09986,-26.412264,54.909767,-5.502631,3.070471,-5.090711,-9.85552,-10.693112,31.764267,64.66812,5.542635,8.179174,-0.52546275
79,-1.6493068933486938,-3.850804328918457,78.41454315185547,2.3615131657971147,0.6222150321171315,92.72844966967753,2.2632153,2.5225604,8.843596,6.899906,-9.198976,-4.65294,1.1655105,-13.4144,-25.834265,17.495476,-14.988971,6.6980796,-4.657384,-0.91603154,6.035221,0.2899166,17.036783,-26.44009,55.194233,-5.50959,3.1037097,-5.157638,-9.767758,-10.810703,31.49731,64.768105,5.600056,8.080364,-0.758995
80,-1.754150390625,-3.929533004760742,78.40727996826172,2.478659490705341,0.5961481485830582,92.78841535846546,2.2163315,2.273242,8.806048,6.892552,-9.149242,-4.5121207,0.89664394,-13.781067,-25.779758,18.057642,-15.131622,6.7968345,-4.7379265,-1.0175215,6.0732675,0.24705866,16.96071,-26.483011,55.50513,-5.5170674,3.1434805,-5.22005,-9.665386,-10.932255,31.23559,64.87345,5.6992455,7.9699917,-1.0027912
81,-1.8661025762557983,-4.008021354675293,78.39888000488281,2.593820258336662,0.5651985018802158,92.84850662359939,2.1711373,2.0223215,8.771265,6.889324,-9.102936,-4.364952,0.6304215,-14.148405,-25.716393,18.619955,-15.264832,6.897573,-4.816192,-1.1159787,6.117157,0.18480626,16.871252,-26.54665,55.847885,-5.5233335,3.1907742,-5.2748723,-9.5478325,-11.06022,30.989195,64.98918,5.8401003,7.8487234,-1.272059
82,-1.9793570041656494,-4.096853256225586,78.390625,2.709160008706351,0.5305605985264037,92.90860999931107,2.129163,1.7668993,8.738884,6.88479,-9.056303,-4.2120247,0.36450574,-14.519392,-25.644732,19.183777,-15.389375,7.000368,-4.894796,-1.2128452,6.1654716,0.106182605,16.768002,-26.62506,56.222534,-5.5268526,3.2455723,-5.327783,-9.413796,-11.19504,30.750172,65.111176,6.010679,7.7146344,-1.563676
83,-2.0890746116638184,-4.182281494140625,78.37989044189453,2.8261539634855066,0.5029727604245602,92.96841771780421,2.0769396,1.5063782,8.711411,6.878958,-9.006305,-4.0549874,0.0823789,-14.896259,-25.563519,19.754131,-15.506355,7.1028605,-4.982235,-1.3091253,6.2099934,0.014010865,16.65307,-26.71119,56.61609,-5.534388,3.3059533,-5.381288,-9.263457,-11.334879,30.50073,65.22648,6.2178054,7.5679703,-1.8449798
84,-2.2054150104522705,-4.270360946655273,78.37007904052734,2.947025732727784,0.4931792058803531,93.02750416910845,2.0048857,1.2394652,8.691529,6.8645787,-8.946067,-3.895285,-0.23980601,-15.284668,-25.469015,20.351906,-15.618518,7.2027993,-5.0863776,-1.4061843,6.24255,-0.08756601,16.530113,-26.797287,57.01262,-5.5521016,3.3701303,-5.43831,-9.0981865,-11.475404,30.224411,65.3238,6.471541,7.40742,-2.0830002
85,-2.323159694671631,-4.366628170013428,78.35980987548828,3.0742323465048274,0.5077524426107201,93.09066307324615,1.8912622,0.96590084,8.677851,6.8672504,-8.887249,-3.7315485,-0.61004937,-15.688,-25.3634,20.981651,-15.732686,7.297645,-5.214991,-1.5069788,6.2571826,-0.19585451,16.402357,-26.879715,57.415844,-5.5867367,3.4407306,-5.5032096,-8.915559,-11.611468,29.895979,65.39813,6.8075495,7.2167964,-2.266876
86,-2.4433438777923584,-4.462209701538086,78.34801483154297,3.2048329292166273,0.5395535599937418,93.15646772296586,1.7578707,0.68523914,8.670123,6.8603964,-8.817597,-3.5635948,-1.0156057,-16.102139,-25.246962,21.632963,-15.844696,7.3889194,-5.362208,-1.6114066,6.259069,-0.31063956,16.270826,-26.962746,57.82795,-5.6336136,3.5181694,-5.5734987,-8.717333,-11.74158,29.529106,65.45943,7.207293,7.0014415,-2.4144263
87,-2.564222812652588,-4.570257663726807,78.3386459350586,3.336217341873986,0.5788075791133276,93.21569394187877,1.6133691,0.40274087,8.671417,6.8528857,-8.743847,-3.3948925,-1.4481854,-16.520914,-25.11306,22.302057,-15.94373,7.4801164,-5.5167,-1.7168736,6.2576375,-0.4329727,16.136108,-27.05194,58.233166,-5.6833477,3.5967376,-5.641658,-8.516063,-11.868475,29.172361,65.52226,7.6054587,6.7937136,-2.5369349
88,-2.69500732421875,-4.680954933166504,78.32781982421875,3.4642414184198707,0.6159000420560256,93.2591168091884,1.4701872,0.123894446,8.684588,6.8456483,-8.6684065,-3.2288446,-1.9005822,-16.938055,-24.955448,22.987675,-16.020563,7.57512,-5.6678815,-1.819233,6.2630324,-0.5624842,15.998196,-27.151022,58.61394,-5.726487,3.6710603,-5.7003593,-8.318093,-11.996419,28.868738,65.59416,7.930007,6.6261077,-2.6458867
89,-2.829585552215576,-4.805001258850098,78.3153076171875,3.591536204144428,0.6477167344545899,93.28581049271563,1.3329009,-0.15569827,8.707869,6.8374996,-8.591656,-3.0663056,-2.3709686,-17.358624,-24.773209,23.693449,-16.077417,7.678992,-5.812228,-1.9222766,6.2775946,-0.7011569,15.855462,-27.256666,58.978577,-5.7626386,3.7388697,-5.749751,-8.129541,-12.131751,28.64432,65.68172,8.168,6.509721,-2.7379513
90,-2.959153413772583,-4.927552223205566,78.30610656738281,3.718791077889444,0.6796904007572221,93.30006999602072,1.1934705,-0.43654227,8.740478,6.829611,-8.5126705,-2.9055133,-2.8640203,-17.782885,-24.568953,24.41979,-16.118492,7.788666,-5.956879,-2.0247545,6.2969346,-0.84740096,15.707054,-27.365757,59.33074,-5.795117,3.803257,-5.7933993,-7.939204,-12.275345,28.469772,65.76792,8.353412,6.429962,-2.809565
91,-3.0940749645233154,-5.054997444152832,78.294189453125,3.8392940836269513,0.7148348336579344,93.3009037310297,1.0492958,-0.708232,8.786618,6.821478,-8.431036,-2.7458177,-3.3795185,-18.196604,-24.342407,25.155107,-16.13367,7.896157,-6.1048,-2.1177678,6.3212614,-0.9977434,15.555485,-27.485697,59.64794,-5.8207965,3.8664904,-5.8286123,-7.744851,-12.423465,28.317345,65.85177,8.5002165,6.370546,-2.871609
92,-3.2336301803588867,-5.186316013336182,78.28506469726562,3.9463805221324337,0.7562642682210636,93.2871623510897,0.8960247,-0.96027064,8.85055,6.8139963,-8.346021,-2.5866053,-3.9171646,-18.587532,-24.093065,25.888039,-16.113174,7.993648,-6.259822,-2.194097,6.3503304,-1.1468816,15.405556,-27.623373,59.905373,-5.836575,3.9311924,-5.853144,-7.5448594,-12.569529,28.157598,65.93359,8.618763,6.316239,-2.9355416
93,-3.3650715351104736,-5.323809623718262,78.27555084228516,4.043711415167244,0.8026931477098582,93.26168271208702,0.73492223,-1.1962456,8.9317465,6.806705,-8.257637,-2.4266992,-4.4811587,-18.961645,-23.818733,26.633394,-16.061007,8.082909,-6.4249825,-2.2598715,6.3832116,-1.2916504,15.261135,-27.783077,60.10011,-5.846872,4.003565,-5.862247,-7.338177,-12.707931,27.986515,66.018616,8.706501,6.256116,-3.006083
94,-3.5064432621002197,-5.466838359832764,78.26951599121094,4.1333991078521155,0.8532302563495359,93.22408771099506,0.56732947,-1.4199146,9.028595,6.797893,-8.164828,-2.2668278,-5.069076,-19.321388,-23.520527,27.388252,-15.978854,8.167469,-6.597718,-2.3195217,6.41993,-1.4329355,15.123498,-27.961102,60.2409,-5.8532805,4.0808263,-5.858852,-7.129014,-12.83732,27.816746,66.110275,8.75743,6.2000623,-3.0774813
95,-3.643995523452759,-5.61260461807251,78.26646423339844,4.206093096752755,0.911552215507285,93.16814229817633,0.38846633,-1.6199466,9.143283,6.7919593,-8.070084,-2.109259,-5.676636,-19.649605,-23.20223,28.127565,-15.859046,8.241786,-6.77331,-2.3628597,6.4619145,-1.5705973,14.993482,-28.15124,60.32004,-5.846712,4.151876,-5.8520026,-6.9252872,-12.957538,27.64862,66.205826,8.783319,6.164091,-3.1447995
96,-3.7830121517181396,-5.775407314300537,78.26770782470703,4.252580068002066,0.98140187090173,93.08779036606693,0.19742073,-1.7863389,9.278126,6.7843933,-7.9707747,-1.9561476,-6.29303,-19.92684,-22.86985,28.813124,-15.688935,8.300018,-6.9472904,-2.3800266,6.510027,-1.7049379,14.871788,-28.347763,60.3306,-5.8189187,4.205889,-5.8504715,-6.7335954,-13.070561,27.478271,66.302475,8.79089,6.164339,-3.2033153
97,-3.9328384399414062,-5.9316935539245605,78.27184295654297,4.274028681967398,1.0610662009836538,92.98256013091321,-0.0055577764,-1.9212352,9.433898,6.7783713,-7.8685884,-1.8063498,-6.928283,-20.159458,-22.518257,29.467293,-15.4669285,8.345568,-7.1215143,-2.3712168,6.5692205,-1.8361479,14.758196,-28.552685,60.26948,-5.7473693,4.2421274,-5.859133,-6.558733,-13.177438,27.309334,66.3975,8.769981,6.227456,-3.2581348
98,-4.07615327835083,-6.10223388671875,78.27958679199219,4.273730232649438,1.1494436986474001,92.85554513617907,-0.218971,-2.028272,9.609078,6.772344,-7.7624207,-1.659283,-7.581343,-20.352583,-22.148252,30.095755,-15.198175,8.380073,-7.2976646,-2.3407571,6.6376724,-1.9630964,14.652602,-28.767399,60.139698,-5.6429434,4.265822,-5.8724184,-6.3971195,-13.278584,27.143675,66.49354,8.722565,6.337446,-3.3095698
99,-4.212683200836182,-6.276626110076904,78.29400634765625,4.248104994025847,1.2511800421645578,92.70478037880335,-0.44731313,-2.1004555,9.802831,6.7666016,-7.6531506,-1.5180287,-8.23853,-20.491812,-21.770117,30.662777,-14.885692,8.395812,-7.4699078,-2.2852993,6.707389,-2.0862298,14.556423,-28.987438,59.943787,-5.548929,4.274447,-5.8841896,-6.236467,-13.373206,26.97177,66.58714,8.671478,6.4470015,-3.344984
100,-4.355707168579102,-6.456924915313721,78.31480407714844,4.193007301846357,1.3708429801370836,92.52889013491738,-0.69533896,-2.130124,10.014344,6.761471,-7.5406213,-1.3855896,-8.885569,-20.562954,-21.394629,31.132942,-14.532871,8.384926,-7.6322536,-2.2018237,6.769999,-2.2051086,14.472089,-29.208141,59.68348,-5.508634,4.2656593,-5.8881702,-6.070907,-13.461777,26.790913,66.68155,8.646969,6.5081787,-3.3521385
101,-4.4967732429504395,-6.636148452758789,78.33782958984375,4.1037401400678855,1.5085768753608348,92.32422329370625,-0.96254563,-2.1109598,10.245247,6.756672,-7.424891,-1.267662,-9.5243845,-20.561985,-21.018608,31.503973,-14.125113,8.352378,-7.784537,-2.086529,6.8266125,-2.3180282,14.402151,-29.433998,59.35266,-5.5491457,4.2330623,-5.8822474,-5.8983607,-13.543839,26.6036,66.77927,8.66266,6.489233,-3.3144555
102,-4.640305995941162,-6.8229451179504395,78.36776733398438,3.9828688824803837,1.6620227843863131,92.09247187376073,-1.246359,-2.0485864,10.494988,6.752152,-7.3058457,-1.1612252,-10.160265,-20.49688,-20.639967,31.793747,-13.66608,8.300726,-7.9300337,-1.9435849,6.8810654,-2.423808,14.347498,-29.665474,58.94944,-5.6428843,4.180154,-5.8701773,-5.7235155,-13.619794,26.41045,66.87956,8.700536,6.4218416,-3.2429812
103,-4.774415016174316,-7.00836706161499,78.40403747558594,3.839574805385544,1.8321068523000772,91.83994996243234,-1.5483084,-1.9524212,10.75932,6.747981,-7.18329,-1.0558642,-10.780862,-20.375656,-20.271896,31.992407,-13.183963,8.219786,-8.067078,-1.7787728,6.9300666,-2.5224044,14.307187,-29.891668,58.479572,-5.7495317,4.1193404,-5.8554754,-5.543354,-13.688609,26.20438,66.96994,8.742422,6.354203,-3.1664019
104,-4.911636829376221,-7.208041191101074,78.4446792602539,3.6799765278308993,2.0198539602208503,91.57262830649852,-1.8694178,-1.8319533,11.033562,6.744906,-7.058461,-0.94286346,-11.374734,-20.207983,-19.926847,32.091675,-12.707657,8.099589,-8.193953,-1.5981934,6.970049,-2.6150448,14.279396,-30.101435,57.951283,-5.8283987,4.063075,-5.8411818,-5.357103,-13.749178,25.979883,67.04125,8.771695,6.3340726,-3.1137466
105,-5.048048496246338,-7.402559280395508,78.4923324584961,3.4961199902718727,2.237635850314768,91.28761886858368,-2.2246408,-1.6775165,11.321403,6.742973,-6.9279633,-0.81295896,-11.966676,-19.990736,-19.614077,32.102722,-12.214138,7.8856416,-8.319494,-1.3938794,6.9942117,-2.6982703,14.263939,-30.274391,57.368095,-5.8665304,4.010097,-5.836212,-5.181975,-13.793195,25.747562,67.09685,8.782331,6.3909082,-3.0968535
106,-5.182394981384277,-7.598613262176514,78.54258728027344,3.285323628043012,2.480598674995593,90.9827291224758,-2.6081543,-1.4879725,11.62291,6.7418747,-6.792797,-0.67376345,-12.553287,-19.726162,-19.326258,32.02495,-11.69637,7.6014767,-8.43071,-1.1632801,7.006746,-2.784173,14.2561035,-30.43554,56.734856,-5.889267,3.9550076,-5.8347716,-5.0030093,-13.83018,25.49466,67.13105,8.782502,6.4940577,-3.0976267
107,-5.310769081115723,-7.787144184112549,78.59144592285156,3.0702626761038085,2.724191086288464,90.66603827469629,-2.9910119,-1.2879066,11.930805,6.7410707,-6.659236,-0.53516304,-13.083283,-19.427322,-19.047533,31.835804,-11.209828,7.3527837,-8.517256,-0.9270547,7.017798,-2.8733406,14.257835,-30.612339,56.043385,-5.9053392,3.904439,-5.8203783,-4.793484,-13.869453,25.202274,67.14413,8.773893,6.5999656,-3.1038976
108,-5.446641445159912,-7.974672317504883,78.63407897949219,2.870891370418376,2.9438176454900478,90.34584562227332,-3.343213,-1.1018304,12.238198,6.7397923,-6.5344124,-0.4070016,-13.503888,-19.10931,-18.759354,31.51276,-10.812767,7.244221,-8.62032,-0.71150583,7.0285106,-2.9307227,14.2732525,-30.770172,55.272854,-5.9074726,3.865319,-5.7796116,-4.5813046,-13.893426,24.919062,67.19422,8.774676,6.6625595,-3.1119728
109,-5.56859016418457,-8.156343460083008,78.67303466796875,2.693695138600014,3.1331099670296485,90.01918206692837,-3.6571567,-0.9370828,12.54891,6.739391,-6.4225435,-0.2923208,-13.795737,-18.777054,-18.477547,30.998518,-10.4624815,7.2914877,-8.704524,-0.52578294,7.052011,-2.970664,14.309706,-30.952076,54.412178,-5.8995876,3.849456,-5.6989098,-4.329806,-13.914168,24.587679,67.24832,8.7711735,6.658172,-3.113039
110,-5.695185661315918,-8.337387084960938,78.70421600341797,2.5281084197624137,3.304978478890037,89.68377474944788,-3.9482064,-0.7810156,12.864896,6.7379107,-6.317819,-0.18546182,-13.986815,-18.424986,-18.202368,30.320704,-10.149961,7.43889,-8.779168,-0.35741472,7.083704,-2.9859502,14.373093,-31.140436,53.455906,-5.8810644,3.8508904,-5.5909014,-4.0520163,-13.929211,24.225313,67.30046,8.76581,6.6150613,-3.1130846
111,-5.810503005981445,-8.516292572021484,78.7348861694336,2.3705051091856544,3.463469013068075,89.34913951579775,-4.2226124,-0.6296434,13.176956,6.7371054,-6.217368,-0.083373815,-14.0948105,-18.052383,-17.891312,29.582146,-9.984338,7.6830573,-8.851298,-0.19954084,7.110629,-2.9804425,14.459569,-31.331339,52.427364,-5.8664007,3.8500626,-5.4743204,-3.7622318,-13.934745,23.858202,67.36754,8.763515,6.5666847,-3.1185472
112,-5.92632532119751,-8.69867992401123,78.76636505126953,2.2184678382688072,3.6126976264929715,89.02490415445145,-4.4867363,-0.47836268,13.475543,6.7362685,-6.115467,0.017093696,-14.138633,-17.65583,-17.504473,28.889656,-10.076422,8.020339,-8.909806,-0.045214437,7.1234813,-2.9665163,14.571976,-31.544308,51.346184,-5.8778844,3.8277483,-5.3673143,-3.4553664,-13.9311695,23.486298,67.44717,8.76132,6.547339,-3.1332896
113,-6.024964332580566,-8.874645233154297,78.793701171875,2.0776195030677593,3.753907747216667,88.70932358640302,-4.7410245,-0.32933578,13.763516,6.7344375,-6.012139,0.11365013,-14.115211,-17.198719,-16.962257,28.197132,-10.52101,8.520782,-8.949555,0.10274059,7.1223598,-2.9554155,14.715958,-31.811584,50.21422,-5.953675,3.777387,-5.2639627,-3.125459,-13.916705,23.089392,67.53544,8.766162,6.5666676,-3.1638968
114,-6.116550445556641,-9.04465389251709,78.8198013305664,1.947207107037871,3.884429492097857,88.39925445941675,-4.982502,-0.185406,14.044158,6.7330813,-5.9104886,0.20603769,-14.015598,-16.700739,-16.316338,27.4777,-11.244873,9.153064,-8.9730015,0.23992638,7.112531,-2.9378793,14.893307,-32.120083,49.017227,-6.0735555,3.7101634,-5.1586223,-2.7741272,-13.891205,22.66843,67.6325,8.77547,6.60605,-3.2062223
115,-6.197725772857666,-9.213689804077148,78.8486099243164,1.820959931557707,4.003434501587108,88.10161431244923,-5.2114043,-0.04290363,14.309369,6.731462,-5.807305,0.30014563,-13.854807,-16.237244,-15.720948,26.865301,-12.099544,9.770474,-8.987706,0.37227577,7.091357,-2.891421,15.097821,-32.411118,47.74954,-6.168317,3.6332579,-5.0700846,-2.4110212,-13.857468,22.26692,67.7432,8.774942,6.6580706,-3.2476032
116,-6.277148246765137,-9.382726669311523,78.87852478027344,1.6899000899195307,4.11088836803366,87.82271497862322,-5.4299574,0.10381174,14.551146,6.7311296,-5.7006903,0.40160137,-13.653465,-15.873674,-15.321751,26.494118,-12.930577,10.238274,-9.003509,0.5086827,7.0543656,-2.7952206,15.318659,-32.621788,46.41181,-6.1674037,3.5534003,-5.016498,-2.0483449,-13.821883,21.931597,67.87587,8.750831,6.7153163,-3.2759895
117,-6.355018138885498,-9.544352531433105,78.91094970703125,1.5446611288742829,4.20535731311672,87.56174803041,-5.6357245,0.26501608,14.767653,6.73171,-5.590447,0.51440924,-13.404609,-15.621156,-15.180315,26.388247,-13.738016,10.52615,-9.024065,0.6620217,6.998662,-2.6437516,15.549954,-32.737434,44.999676,-6.028928,3.4606333,-5.0114675,-1.686314,-13.790097,21.678183,68.04712,8.70871,6.7642584,-3.3048947
118,-6.419925212860107,-9.704468727111816,78.94324493408203,1.3904960090468825,4.288325466544643,87.31555993189184,-5.8303804,0.43657938,14.963303,6.7332554,-5.477709,0.63465023,-13.105996,-15.440405,-15.20622,26.482231,-14.586531,10.714721,-9.046106,0.82968926,6.9254003,-2.4502141,15.790703,-32.787624,43.52086,-5.7961884,3.3543725,-5.0419426,-1.3184731,-13.763523,21.485006,68.24663,8.654085,6.813277,-3.3347325
119,-6.492702007293701,-9.867659568786621,78.98015594482422,1.2400509524878474,4.3642172529225975,87.08685851140059,-6.0207996,0.60425854,15.139042,6.7361665,-5.36202,0.75556487,-12.783055,-15.316437,-15.314453,26.767952,-15.41309,10.838198,-9.066933,0.99760264,6.8369637,-2.221738,16.035093,-32.775402,41.9956,-5.5246024,3.2559073,-5.085241,-0.94791514,-13.742754,21.343933,68.443794,8.57674,6.8876076,-3.3339517
120,-6.566354751586914,-10.018308639526367,79.01058959960938,1.1038956698694158,4.437300537673203,86.87853749318835,-6.211367,0.7522235,15.295865,6.737732,-5.241501,0.87043744,-12.461584,-15.23432,-15.421135,27.238106,-16.155472,10.926616,-9.085301,1.1515659,6.735026,-1.9678473,16.274408,-32.70201,40.44781,-5.2690806,3.1863887,-5.1187987,-0.57849777,-13.727639,21.247593,68.60918,8.465538,7.0121675,-3.2708495
121,-6.63620662689209,-10.167276382446289,79.0465087890625,0.9839347879949331,4.502259000914283,86.69332272954867,-6.3967643,0.87917024,15.428712,6.739373,-5.115181,0.9791244,-12.137879,-15.1989975,-15.536231,27.92306,-16.788942,10.968169,-9.100399,1.2910873,6.6220994,-1.6919066,16.50156,-32.564156,38.884983,-5.029323,3.1479747,-5.1377544,-0.21142867,-13.718831,21.200584,68.75211,8.315408,7.1993937,-3.136907
122,-6.70111608505249,-10.321004867553711,79.07704162597656,0.8751855359382499,4.558564424986281,86.52975090699282,-6.5749125,0.9916622,15.538408,6.7393866,-4.98297,1.0844487,-11.796358,-15.216162,-15.69269,28.808397,-17.346684,10.951764,-9.112314,1.423798,6.495283,-1.3946065,16.713888,-32.362793,37.304768,-4.779721,3.1298368,-5.1530213,0.1578227,-13.717048,21.202063,68.882744,8.130696,7.4337053,-2.9485521
123,-6.769498348236084,-10.478866577148438,79.09984588623047,0.7814292281718836,4.617844093955028,86.38403726143028,-6.7598333,1.0858285,15.635147,6.7395244,-4.8479705,1.1844523,-11.446249,-15.2696705,-15.843748,29.819487,-17.853756,10.90684,-9.120447,1.5451235,6.3492084,-1.0839369,16.909706,-32.10727,35.71778,-4.5392404,3.133651,-5.165792,0.52891016,-13.723046,21.240704,68.97656,7.9207044,7.6974783,-2.712106
124,-6.82455587387085,-10.631421089172363,79.11312866210938,0.7059847038716154,4.691696291743568,86.25226421513563,-6.96397,1.1587735,15.72889,6.7378693,-4.711569,1.2768866,-11.095525,-15.339752,-15.944642,30.877302,-18.332235,10.864451,-9.123231,1.6511676,6.1779585,-0.7680691,17.087961,-31.807718,34.134167,-4.326289,3.161403,-5.177081,0.90273964,-13.738214,21.302105,69.00882,7.6911454,7.973209,-2.4339688
125,-6.883303642272949,-10.789969444274902,79.12657928466797,0.6545599483656037,4.783988383296762,86.13985857369718,-7.192518,1.2038926,15.818583,6.733654,-4.572464,1.3631217,-10.75343,-15.426062,-15.977372,32.004147,-18.78882,10.829025,-9.123014,1.7383121,5.974618,-0.44452465,17.246399,-31.456049,32.553043,-4.147448,3.2154548,-5.1863027,1.2835553,-13.764475,21.388512,68.96529,7.427925,8.281206,-2.0991871
126,-6.9393815994262695,-10.946934700012207,79.13433074951172,0.6233136081656495,4.88811401043204,86.04680841549946,-7.438501,1.2247648,15.899967,6.7281837,-4.4300337,1.4433818,-10.4085045,-15.532334,-15.970851,33.218132,-19.206722,10.786873,-9.118874,1.809675,5.7442756,-0.11226576,17.383507,-31.05087,30.972242,-3.9917805,3.2941887,-5.192992,1.6710782,-13.80299,21.504755,68.860466,7.1317773,8.621739,-1.7086676
127,-6.99381160736084,-11.104438781738281,79.13627624511719,0.6034718869436171,5.0002735234458475,85.9609520237035,-7.6950784,1.2349336,15.978662,6.7226567,-4.288055,1.5138812,-10.049371,-15.646588,-15.948738,34.456303,-19.583113,10.742289,-9.103508,1.8736881,5.499836,0.21719722,17.500784,-30.614485,29.398932,-3.8539865,3.393045,-5.198703,2.0615838,-13.851531,21.638836,68.708755,6.832314,8.947929,-1.2934487
128,-7.043168544769287,-11.268139839172363,79.13137817382812,0.5893984351071323,5.1169663411812305,85.86971848442833,-7.9550014,1.245723,16.060993,6.7155523,-4.148005,1.570955,-9.664469,-15.761247,-15.933284,35.65401,-19.91443,10.698679,-9.06816,1.9344501,5.253265,0.53188616,17.601906,-30.171402,27.840803,-3.7294667,3.5075638,-5.2047787,2.4480965,-13.907655,21.778753,68.529175,6.5605993,9.21339,-0.88622606
129,-7.087532997131348,-11.435873031616211,79.12261199951172,0.5823877450640433,5.2354883063838,85.77231477661036,-8.220466,1.2559304,16.147623,6.719117,-4.017703,1.6100028,-9.252444,-15.8818865,-15.924143,36.824493,-20.197931,10.657244,-9.005984,1.9862962,5.0094976,0.8303731,17.688084,-29.719534,26.296125,-3.623682,3.6404881,-5.214961,2.8362882,-13.969329,21.919619,68.30668,6.303326,9.414442,-0.48155254
130,-7.131288051605225,-11.607525825500488,79.11190032958984,0.5867334670710928,5.358271684195699,85.67433408949759,-8.493267,1.2600298,16.23577,6.7280273,-3.8929963,1.6340126,-8.817948,-16.010052,-15.912046,37.990803,-20.435427,10.616721,-8.922062,2.026716,4.7615314,1.1191732,17.759382,-29.250202,24.760046,-3.5372684,3.7934036,-5.227171,3.2257369,-14.036228,22.068382,68.0402,6.052347,9.572716,-0.067743555
131,-7.166607856750488,-11.759790420532227,79.09745788574219,0.5955102182697583,5.489628555009063,85.57359882277902,-8.776194,1.2648643,16.326868,6.7377496,-3.7692978,1.6511527,-8.361017,-16.133932,-15.903769,39.10691,-20.631737,10.575564,-8.826698,2.0650342,4.502709,1.3982837,17.819296,-28.777975,23.235373,-3.4587834,3.9584599,-5.234581,3.604354,-14.107158,22.226898,67.76502,5.8433614,9.681457,0.33129194
132,-7.195146560668945,-11.92595100402832,79.08088684082031,0.6010434093377275,5.634303676836525,85.46759946997074,-9.074709,1.2796204,16.42124,6.748953,-3.6447864,1.6694062,-7.883017,-16.240988,-15.906294,40.12963,-20.793394,10.531509,-8.7290125,2.1111867,4.2261033,1.6705209,17.874014,-28.318445,21.719381,-3.3762002,4.1304784,-5.2305074,3.9579241,-14.181989,22.396124,67.519615,5.7121606,9.734122,0.69130677
133,-7.218637466430664,-12.091989517211914,79.0630111694336,0.598271967204213,5.800680269926233,85.35581069737138,-9.395826,1.3105513,16.517918,6.7597547,-3.5189414,1.6851192,-7.381402,-16.329039,-15.935901,41.05211,-20.9189,10.484206,-8.631587,2.1707969,3.9188285,1.9450631,17.928085,-27.870024,20.19918,-3.2936943,4.3240857,-5.2185593,4.291503,-14.258394,22.57984,67.307465,5.6856384,9.699709,1.011895
134,-7.239640712738037,-12.259162902832031,79.04706573486328,0.5939904129158956,5.9839905964462625,85.23938158909004,-9.737044,1.3530836,16.616547,6.775421,-3.3956292,1.6953883,-6.858663,-16.40477,-15.983181,41.89957,-21.007439,10.434197,-8.529627,2.2355816,3.5882936,2.2232156,17.983541,-27.426294,18.671648,-3.2159674,4.5383782,-5.2008767,4.6068087,-14.336386,22.776361,67.11352,5.7391686,9.592511,1.3030874
135,-7.2577290534973145,-12.423737525939941,79.02761840820312,0.5916898966508699,6.168925429422879,85.11866527129148,-10.142333,1.4156699,16.71783,6.9234834,-3.3378422,1.709221,-6.3198233,-16.469042,-16.018314,42.66971,-21.062654,10.3811245,-8.421264,2.2974238,3.2613912,2.4944813,18.041298,-26.994947,17.153597,-3.134191,4.738837,-5.1687613,4.891321,-14.416023,22.981428,66.93605,5.834921,9.475271,1.5584098
136,-7.265552043914795,-12.597677230834961,79.00847625732422,0.5969969448124178,6.340132379382033,84.99427576437348,-10.570876,1.4808158,16.824581,7.1460123,-3.3168738,1.7372414,-5.769507,-16.521812,-16.01184,43.358826,-21.087439,10.32436,-8.303949,2.3486643,2.9645946,2.7443125,18.101784,-26.5852,15.665274,-3.039714,4.891138,-5.113095,5.1302557,-14.498776,23.187963,66.780556,5.932198,9.406732,1.7711487
137,-7.289487838745117,-12.776735305786133,78.98783874511719,0.6195561386556004,6.491375574844823,84.86309436788329,-10.987838,1.5305356,16.94347,7.3828764,-3.3016748,1.7858185,-5.2050967,-16.572412,-15.949411,43.969303,-21.079376,10.263422,-8.172917,2.3823826,2.7060676,2.9687138,18.165281,-26.202524,14.205481,-2.925511,4.9798846,-5.0213385,5.3191185,-14.586114,23.412334,66.64601,6.0517287,9.410567,1.9384288
138,-7.303013801574707,-12.966604232788086,78.96296691894531,0.6510066369898124,6.631709668182603,84.72603381013576,-11.404404,1.5725427,17.071764,7.639329,-3.295077,1.8493763,-4.626568,-16.618382,-15.849228,44.504025,-21.03873,10.198961,-8.031161,2.4046605,2.4714117,3.1747098,18.23187,-25.84087,12.765437,-2.7980375,5.0254025,-4.901667,5.4654865,-14.678145,23.652386,66.53163,6.2045474,9.451863,2.0644007
139,-7.312402725219727,-13.16573429107666,78.93533325195312,0.6815362550235606,6.76889882039303,84.58956051168664,-11.850182,1.6269135,17.198042,7.9564333,-3.3125503,1.9207383,-4.042573,-16.641935,-15.730208,44.95901,-20.971836,10.131815,-7.887351,2.427447,2.2534592,3.3641593,18.300638,-25.492966,11.354639,-2.6686606,5.0471096,-4.77584,5.5807247,-14.772619,23.872955,66.426216,6.335758,9.508609,2.1525748
140,-7.312528610229492,-13.35806655883789,78.90648651123047,0.6985834431126414,6.910384655251496,84.46027336367726,-12.354716,1.7143667,17.310543,8.374841,-3.3691602,1.9924684,-3.4618316,-16.62764,-15.610736,45.33116,-20.885605,10.062704,-7.748383,2.4634657,2.0444503,3.5372252,18.369751,-25.153408,9.984122,-2.5492165,5.064177,-4.6651645,5.6761,-14.865286,24.038292,66.31976,6.3915133,9.5588045,2.2063434
141,-7.344123840332031,-13.591259956359863,78.87098693847656,0.7007062608704372,7.060119077099705,84.35130405125402,-12.935034,1.8351185,17.396696,8.913698,-3.4708722,2.0679777,-2.8816397,-16.577612,-15.507146,45.619152,-20.795967,9.989756,-7.6219,2.5160694,1.8424355,3.6839764,18.437998,-24.826103,8.659767,-2.437917,5.07519,-4.5739236,5.7536616,-14.953334,24.127535,66.21222,6.3332143,9.601348,2.215468
142,-7.350805282592773,-13.807278633117676,78.8371353149414,0.6932395100111705,7.213551309474323,84.25528991801033,-13.572987,1.9807642,17.464636,9.549264,-3.6092591,2.1500885,-2.2999194,-16.498446,-15.405104,45.825882,-20.695,9.91251,-7.5000734,2.5790458,1.6504316,3.803357,18.50488,-24.514809,7.3790064,-2.3296509,5.0719614,-4.4904323,5.8075147,-15.036256,24.160995,66.11063,6.196669,9.645856,2.1814268
143,-7.3408732414245605,-14.01713752746582,78.8007583618164,0.6741924214242659,7.36529610112599,84.14788944394961,-14.241715,2.157756,17.534029,10.252995,-3.7760468,2.2298367,-1.7275809,-16.380774,-15.276407,45.956657,-20.554731,9.83338,-7.368196,2.648496,1.4675281,3.9078827,18.570127,-24.212374,6.143397,-2.2315674,5.0632734,-4.4127765,5.8342667,-15.115069,24.16657,66.0189,6.0396404,9.686405,2.1248517
144,-7.322165489196777,-14.225874900817871,78.76715850830078,0.6408646071329395,7.5100747618895625,84.00465625241903,-14.915097,2.373125,17.624062,10.996821,-3.9624243,2.2975867,-1.1752967,-16.21517,-15.092863,46.01599,-20.3468,9.755017,-7.212445,2.7210217,1.2936385,4.01231,18.633278,-23.910152,4.9519644,-2.1503713,5.0579243,-4.339298,5.8310366,-15.190721,24.172235,65.940094,5.919122,9.7158575,2.0668747
145,-7.304428577423096,-14.447376251220703,78.7295150756836,0.590481208946045,7.6469681027273015,83.80553360495223,-15.585485,2.63788,17.750214,11.777997,-4.1699367,2.3509817,-0.6495793,-15.99572,-14.836476,46.004204,-20.047737,9.676272,-7.021255,2.7984226,1.1283362,4.1234946,18.693233,-23.601246,3.7985451,-2.0809202,5.0573335,-4.260858,5.796913,-15.263693,24.173962,65.87828,5.834086,9.73116,2.009994
146,-7.288426876068115,-14.681529998779297,78.69190216064453,0.5241648746985423,7.77845838376823,83.56781811334908,-16.265781,2.9468217,17.897148,12.608002,-4.4009347,2.3943768,-0.14363872,-15.730492,-14.525089,45.921577,-19.67915,9.596199,-6.805911,2.8828955,0.9719603,4.233596,18.749517,-23.289856,2.6849744,-2.021226,5.056986,-4.1817145,5.7324834,-15.334153,24.162182,65.83197,5.7597175,9.735505,1.9442117
147,-7.269881725311279,-14.913289070129395,78.64898681640625,0.44546019387135677,7.904365148212538,83.32305913344955,-16.9637,3.2839837,18.037739,13.486331,-4.649733,2.42769,0.35350308,-15.42621,-14.184872,45.76768,-19.27768,9.516954,-6.584073,2.970613,0.8221023,4.3261704,18.799788,-22.989298,1.6334423,-1.9829677,5.056834,-4.1192913,5.6394453,-15.39855,24.15427,65.79176,5.717079,9.737948,1.8694829
148,-7.252098083496094,-15.150891304016113,78.59864044189453,0.36275476019477065,8.024856645923062,83.10278529856532,-17.679893,3.629685,18.146076,14.396443,-4.905598,2.4513881,0.85268366,-15.093362,-13.841414,45.5436,-18.880514,9.441134,-6.3868675,3.060044,0.68436944,4.412364,18.856125,-22.693602,0.6312575,-1.9821153,5.0569363,-4.094193,5.5205483,-15.469464,24.183187,65.7309,5.7337427,9.748942,1.7897673
149,-7.22483491897583,-15.392822265625,78.54122924804688,0.27208896895581985,8.143249200215255,82.9112926277142,-18.428644,3.9879098,18.213797,15.357465,-5.1740956,2.4615674,1.3545547,-14.725188,-13.496819,45.242893,-18.509985,9.370108,-6.2097516,3.1535137,0.55422604,4.4789667,18.91434,-22.406097,-0.31498858,-2.0210526,5.0677137,-4.1357317,5.370621,-15.541221,24.25922,65.661446,5.8404737,9.771002,1.7063663
150,-7.189664840698242,-15.636549949645996,78.47516632080078,0.1720676117455158,8.258429251483474,82.73303811122793,-19.203083,4.3646283,18.254581,16.36543,-5.456426,2.4595275,1.8546865,-14.32115,-13.137947,44.867634,-18.142439,9.302006,-6.045496,3.251485,0.43297744,4.5340734,18.97485,-22.12134,-1.2127491,-2.0928895,5.0857716,-4.226149,5.188125,-15.614717,24.37127,65.58829,6.0179076,9.798936,1.6179696
151,-7.164189338684082,-15.885540962219238,78.40478515625,0.07137470704880264,8.363567804948923,82.56968940446521,-19.985456,4.746925,18.275219,17.398714,-5.743987,2.4528222,2.3544264,-13.895224,-12.767149,44.433254,-17.746685,9.233877,-5.8951864,3.3463843,0.32500663,4.5750546,19.038546,-21.855791,-2.0425465,-2.1962922,5.0901875,-4.3085213,4.9905896,-15.687224,24.486406,65.48896,6.203588,9.828934,1.5198902
152,-7.111454010009766,-16.1451416015625,78.32528686523438,-0.02081931713850715,8.451979311679725,82.42324744957996,-20.751768,5.1192245,18.283796,18.422298,-6.0249996,2.4482152,2.8540788,-13.458018,-12.387549,43.955135,-17.291174,9.162592,-5.7563815,3.4290304,0.23307267,4.5935726,19.104425,-21.631271,-2.7778506,-2.3285291,5.0598435,-4.3252335,4.793276,-15.752827,24.568632,65.34739,6.3344445,9.856967,1.4065107
153,-7.070241928100586,-16.409345626831055,78.23482513427734,-0.10337642700579185,8.525027728005757,82.29477100022488,-21.505959,5.479876,18.282587,19.442553,-6.3010893,2.4442565,3.3505576,-13.017819,-12.0037985,43.44461,-16.750477,9.07988,-5.6219225,3.497847,0.14976624,4.565984,19.160803,-21.470074,-3.3875687,-2.493249,4.975788,-4.241222,4.5979,-15.799855,24.589565,65.165474,6.3674684,9.891292,1.2631736
154,-7.018731594085693,-16.671844482421875,78.14286041259766,-0.17910466423429322,8.585566408644013,82.1831001657104,-22.255308,5.8340535,18.267773,20.467594,-6.5754447,2.4362085,3.8446496,-12.566446,-11.6129265,42.891605,-16.147364,8.9898205,-5.510874,3.5574899,0.08888825,4.543316,19.240257,-21.331858,-3.9472408,-2.7004552,4.85363,-4.0963893,4.402428,-15.853823,24.590483,64.92091,6.3513207,9.933489,1.1032257
155,-6.964468002319336,-16.94261932373047,78.03954315185547,-0.24997807424301927,8.628169878695871,82.08693654615534,-22.992357,6.18169,18.237654,21.492102,-6.8435407,2.4256454,4.343656,-12.095802,-11.205493,42.279625,-15.522808,8.9085865,-5.406898,3.6041703,0.048938885,4.505636,19.335636,-21.223274,-4.4321885,-2.9314654,4.7230997,-3.935269,4.2048373,-15.905691,24.582579,64.644646,6.338915,9.962081,0.94546974
156,-6.91219425201416,-17.213266372680664,77.93043518066406,-0.3181060799250083,8.647504054241281,82.00488095957368,-23.71017,6.5228806,18.19013,22.510841,-7.1011944,2.4151566,4.856211,-11.597415,-10.77157,41.59001,-14.916735,8.852078,-5.311182,3.638847,0.029306583,4.449688,19.432955,-21.127457,-4.827312,-3.1628747,4.6146026,-3.8091664,3.9901416,-15.94758,24.59884,64.37491,6.3882074,9.955675,0.8081315
157,-6.852967262268066,-17.49442481994629,77.81741333007812,-0.3773091198754277,8.641297294669101,81.9419587671774,-24.40474,6.849911,18.125763,23.519178,-7.3451157,2.407171,5.3819733,-11.05823,-10.278055,40.82631,-14.335656,8.834608,-5.2270164,3.6568532,0.026511328,4.3597636,19.515863,-21.042456,-5.1108637,-3.3993196,4.5343084,-3.7325556,3.753418,-15.976251,24.650019,64.12468,6.532453,9.897192,0.69499385
158,-6.787815093994141,-17.777626037597656,77.69645690917969,-0.42914386207175215,8.612949396456898,81.89703055956168,-25.079662,7.1637187,18.04633,24.518015,-7.577061,2.399465,5.9191585,-10.487502,-9.738744,39.9942,-13.75909,8.843592,-5.1678967,3.6556673,0.05229678,4.2811813,19.62613,-20.954802,-5.347077,-3.6602223,4.467309,-3.678402,3.5012038,-16.004927,24.7347,63.85591,6.740717,9.802728,0.6006997
159,-6.719696521759033,-18.0653133392334,77.57087707519531,-0.4838787017117457,8.564684395853119,81.86013408501526,-25.742508,7.4809895,17.94997,25.5204,-7.8044314,2.3891163,6.4734254,-9.909658,-9.213799,39.081608,-13.189038,8.855,-5.1074004,3.6583679,0.09083655,4.164238,19.713896,-20.894053,-5.4609623,-3.900095,4.410678,-3.6387029,3.2318532,-16.021597,24.822067,63.600006,6.9570107,9.696598,0.51515096
160,-6.648820877075195,-18.35637092590332,77.43997192382812,-0.554412537207009,8.499055161822675,81.8210284266358,-26.398417,7.8171296,17.835194,26.533009,-8.033237,2.373764,7.048822,-9.348055,-8.763875,38.075905,-12.627036,8.845487,-5.058773,3.6711018,0.15666752,4.074692,19.83259,-20.832827,-5.532483,-4.111554,4.3631544,-3.6032271,2.9413185,-16.03508,24.923872,63.338753,7.141438,9.606176,0.43813553
161,-6.574646949768066,-18.654541015625,77.30685424804688,-0.6473544000076751,8.412196251343492,81.78072698091245,-27.053732,8.183174,17.694431,27.57667,-8.2705,2.3525205,7.6535115,-8.775394,-8.371239,36.941902,-11.999814,8.835202,-5.0047383,3.7100365,0.24268797,3.9615428,19.94046,-20.797937,-5.4975743,-4.266837,4.3232603,-3.571077,2.6273634,-16.03909,25.02446,63.099,7.2849684,9.529906,0.36901468
162,-6.492160320281982,-18.948909759521484,77.16801452636719,-0.7565217503317543,8.304269913835473,81.74351405982382,-27.702818,8.568281,17.52999,28.63808,-8.5107975,2.3277678,8.284297,-8.187137,-8.014479,35.694298,-11.329945,8.82953,-4.950767,3.7681887,0.34739515,3.8221915,20.032694,-20.78476,-5.353259,-4.3807783,4.292218,-3.5480027,2.292268,-16.036835,25.129995,62.874714,7.410625,9.4569235,0.30906594
163,-6.414444923400879,-19.25878143310547,77.02193450927734,-0.8705234998713396,8.18311385639859,81.70454527970202,-28.341896,8.958134,17.35393,29.692678,-8.742768,2.3025968,8.927892,-7.636549,-7.751176,34.390427,-10.760908,8.784098,-4.898018,3.8308933,0.4652545,3.6817105,20.123695,-20.78274,-5.1255136,-4.4736724,4.271232,-3.5332801,1.9454616,-16.029015,25.236298,62.641975,7.5103827,9.397168,0.2518486
164,-6.329990863800049,-19.570846557617188,76.86911010742188,-0.979144791821831,8.056841166967962,81.65886876347957,-28.968292,9.3389845,17.17878,30.718874,-8.956692,2.280114,9.568579,-7.1758647,-7.640869,33.090412,-10.438614,8.655821,-4.8474326,3.8781188,0.5921448,3.5725584,20.240147,-20.782436,-4.851291,-4.5699778,4.261761,-3.5240197,1.5947953,-16.008709,25.337423,62.37888,7.5751266,9.360208,0.19057599
165,-6.235569953918457,-19.87986946105957,76.71861267089844,-1.0995226773151756,7.919613864885435,81.60729977302107,-29.58749,9.728917,16.986132,31.736868,-9.16244,2.2590363,10.214644,-6.807744,-7.7347817,31.771006,-10.419656,8.391263,-4.790621,3.9374168,0.7259347,3.4598978,20.343609,-20.800144,-4.472766,-4.6607366,4.2627606,-3.520599,1.2486701,-15.979529,25.418036,62.084484,7.568388,9.366071,0.114773355
166,-6.143579483032227,-20.188081741333008,76.56758880615234,-1.2313950731574972,7.769696966349437,81.55189508696297,-30.200026,10.129024,16.775473,32.750706,-9.361678,2.2393003,10.873601,-6.495104,-7.9916153,30.403772,-10.619696,8.039371,-4.731272,4.0078783,0.86899906,3.3439002,20.437893,-20.833433,-3.9956467,-4.7391148,4.274075,-3.5237405,0.8985841,-15.9411125,25.487127,61.771782,7.5061274,9.403723,0.03053082
167,-6.067806243896484,-20.518184661865234,76.4075927734375,-1.3385952677928799,7.621360438625352,81.48954926574447,-30.795849,10.50219,16.586714,33.71666,-9.532688,2.2254822,11.526427,-6.2353,-8.332055,29.041857,-10.970103,7.7055416,-4.6602907,4.063077,1.0039757,3.2083766,20.49714,-20.879795,-3.4173849,-4.7923145,4.295904,-3.5421224,0.5529207,-15.910783,25.54707,61.43654,7.453735,9.438344,-0.04470519
168,-5.990175247192383,-20.870018005371094,76.23158264160156,-1.379665769972056,7.48907570594986,81.4169734929941,-31.362759,10.809615,16.463118,34.588768,-9.652603,2.222406,12.148501,-6.0386915,-8.67656,27.746733,-11.400556,7.4833612,-4.575314,4.0441637,1.1203439,3.0828242,20.571867,-20.931078,-2.8014865,-4.8352046,4.3303847,-3.5735664,0.19908567,-15.862186,25.603008,61.09576,7.471113,9.430512,-0.09662481
169,-5.911189079284668,-21.21578025817871,76.05303955078125,-1.3217684514043455,7.388220604305652,81.33159179481352,-31.9022,11.019066,16.438232,35.345627,-9.711654,2.2384555,12.7197275,-5.952642,-9.025602,26.549126,-11.94218,7.4037447,-4.4721518,3.936874,1.1999034,2.943407,20.618267,-20.98479,-2.1125,-4.851433,4.385538,-3.633004,-0.14709152,-15.829139,25.645811,60.726498,7.5908275,9.360819,-0.10168302
170,-5.826271057128906,-21.570552825927734,75.87507629394531,-1.1916993711713448,7.308061417250069,81.2350562815564,-32.417683,11.158982,16.486204,36.015537,-9.723775,2.269756,13.251595,-5.966128,-9.416607,25.420378,-12.615989,7.4063435,-4.3529854,3.747331,1.254966,2.8094776,20.678938,-21.050058,-1.3707556,-4.8578715,4.458952,-3.7064319,-0.49948445,-15.777329,25.674706,60.34874,7.772037,9.249727,-0.07712274
171,-5.738995552062988,-21.92958641052246,75.69512939453125,-1.0431102890209158,7.223677530980099,81.13047358053365,-32.905823,11.284477,16.55726,36.63564,-9.705437,2.302472,13.774381,-6.003098,-9.826034,24.317293,-13.333802,7.44008,-4.2243533,3.5456588,1.3155026,2.6756833,20.722643,-21.116112,-0.57519007,-4.8445106,4.5319424,-3.7902975,-0.84646034,-15.735233,25.712143,59.94604,7.9804063,9.133935,-0.053643275
172,-5.657145977020264,-22.29826545715332,75.51841735839844,-0.9282948179209866,7.109528247770306,81.02141962179188,-33.36087,11.448955,16.601555,37.237522,-9.670809,2.3219326,14.316787,-5.9865785,-10.226626,23.199402,-14.00975,7.4553456,-4.085804,3.3783832,1.4078959,2.5453491,20.761606,-21.188086,0.25838155,-4.8173447,4.586782,-3.8688717,-1.1930666,-15.692524,25.774006,59.532642,8.17678,9.045472,-0.06765392
173,-5.568665981292725,-22.668798446655273,75.347900390625,-0.8451004908905683,6.96202253318281,80.91260657667553,-33.778534,11.648704,16.616705,37.820545,-9.620535,2.3260374,14.876737,-5.9203777,-10.640024,22.081602,-14.639572,7.43064,-3.9381478,3.2350397,1.5319835,2.4188607,20.812035,-21.27347,1.1203657,-4.7798986,4.6275215,-3.946303,-1.5401516,-15.62901,25.865168,59.11162,8.375802,8.990489,-0.14719166
174,-5.474972248077393,-23.036361694335938,75.19084930419922,-0.7706457065884238,6.793364635167155,80.8009310541801,-34.16057,11.859872,16.62698,38.3668,-9.546307,2.3215728,15.440272,-5.84075,-11.068959,20.97984,-15.264721,7.387155,-3.785137,3.0879388,1.6751645,2.304823,20.880219,-21.362963,2.010046,-4.7329006,4.6615868,-4.027043,-1.9022174,-15.536078,25.980114,58.698246,8.587549,8.949933,-0.2698206
175,-5.369438648223877,-23.426223754882812,75.03257751464844,-0.725539249389226,6.602752426637557,80.67762374280727,-34.516655,12.106,16.619211,38.891567,-9.452158,2.306863,16.016066,-5.7166142,-11.456733,19.857464,-15.869274,7.3459706,-3.6242387,2.9790142,1.8481419,2.2082565,20.93307,-21.443092,2.9354968,-4.670457,4.6745358,-4.096455,-2.2652986,-15.458063,26.115513,58.270733,8.773494,8.923353,-0.39033866
176,-5.255849838256836,-23.813995361328125,74.88348388671875,-0.7277198504102416,6.3896034735076785,80.53322858730566,-34.854103,12.408997,16.583105,39.40583,-9.340672,2.2801907,16.616161,-5.5179396,-11.746996,18.669888,-16.432573,7.335097,-3.462222,2.9196374,2.051273,2.1541371,20.980604,-21.498169,3.8897579,-4.5991163,4.653911,-4.1327233,-2.6665602,-15.371594,26.281727,57.884594,8.890843,8.903197,-0.47493488
177,-5.139402389526367,-24.225448608398438,74.73780822753906,-0.7824581454828536,6.141967512968285,80.36529910463457,-35.164913,12.776508,16.516562,39.92388,-9.221277,2.2402515,17.279902,-5.2306504,-11.924598,17.36056,-16.95254,7.384147,-3.319192,2.9048314,2.2882373,2.16661,21.03311,-21.516489,4.8709855,-4.534004,4.5853863,-4.1228776,-3.1452658,-15.239094,26.496428,57.598785,8.927783,8.878022,-0.51432294
178,-5.031214714050293,-24.629135131835938,74.6021499633789,-0.8747429467531299,5.866040040373129,80.17650336260189,-35.44824,13.193266,16.430717,40.432938,-9.088651,2.1883278,17.990793,-4.878138,-12.016685,15.958577,-17.431805,7.478635,-3.1690886,2.9363055,2.556155,2.2069995,21.066738,-21.522121,5.8989577,-4.464124,4.4779224,-4.081442,-3.6449072,-15.110453,26.733154,57.335323,8.906793,8.858372,-0.5218647
179,-4.945335388183594,-25.057544708251953,74.47411346435547,-0.9936351672005942,5.588038907105606,79.96499024775248,-35.719475,13.64461,16.337036,40.900333,-8.921124,2.1265066,18.683935,-4.4879017,-12.0314045,14.536086,-17.857086,7.5854053,-3.005693,3.0026128,2.832711,2.2770388,21.079336,-21.493063,6.9562654,-4.3566427,4.3601556,-4.0325356,-4.1718116,-14.982873,27.003819,57.09026,8.838096,8.857714,-0.51807827
180,-4.834040641784668,-25.465778350830078,74.35932922363281,-1.1288103768150917,5.33307987850574,79.72986594832705,-35.994312,14.117519,16.243504,41.294334,-8.697524,2.0566466,19.287874,-4.085496,-11.977862,13.183374,-18.224619,7.669498,-2.8234875,3.0963216,3.097464,2.3762584,21.06689,-21.407314,8.026985,-4.178291,4.2602863,-4.001352,-4.7265387,-14.853019,27.31457,56.853397,8.727521,8.889753,-0.52252054
181,-4.701000213623047,-25.903732299804688,74.2486801147461,-1.2957021902232104,5.109934996833081,79.44494641914955,-36.289,14.64494,16.154896,41.635204,-8.4325905,1.9719718,19.777992,-3.6610985,-11.817896,11.916805,-18.5354,7.7371235,-2.608773,3.231474,3.3391664,2.5136786,21.024872,-21.254751,9.112464,-3.9315257,4.2153583,-4.006995,-5.3269205,-14.719489,27.685852,56.64213,8.570001,8.969929,-0.54026705
182,-4.603811740875244,-26.355627059936523,74.14849090576172,-1.4903532065109655,4.904096759899232,79.11881290115602,-36.590443,15.220958,16.066517,41.930126,-8.130787,1.8733711,20.190994,-3.2105827,-11.5602045,10.706531,-18.79651,7.8069587,-2.3705342,3.406602,3.5682654,2.6868396,20.951801,-21.04629,10.22149,-3.6279726,4.2002587,-4.0331798,-5.9683175,-14.579966,28.11032,56.457615,8.364873,9.086854,-0.5611684
183,-4.507011413574219,-26.811201095581055,74.05972290039062,-1.685377990814262,4.704417514761577,78.80503146531116,-36.87201,15.777263,15.968382,42.13418,-7.7591014,1.7741854,20.571402,-2.756253,-11.287657,9.52195,-18.995495,7.8580666,-2.1380649,3.5919042,3.7986257,2.8712845,20.850588,-20.795193,11.356071,-3.251263,4.150391,-4.050346,-6.624459,-14.433528,28.553183,56.27555,8.125057,9.21405,-0.58225924
184,-4.399030685424805,-27.2893009185791,73.9825439453125,-1.854040340988744,4.500456911705004,78.55772596869028,-37.110886,16.246454,15.849263,42.2065,-7.285854,1.6882653,20.96243,-2.318196,-11.08246,8.329641,-19.11851,7.866426,-1.9394786,3.7582188,4.045751,3.0463226,20.726686,-20.515512,12.513153,-2.7848463,4.001866,-4.0269604,-7.266991,-14.280276,28.97713,56.067955,7.8627334,9.324606,-0.6006735
185,-4.296698570251465,-27.76336669921875,73.92628479003906,-1.999602173445634,4.268845913745754,78.38108357219674,-37.27562,16.62665,15.707969,42.139114,-6.7343283,1.6187783,21.179081,-1.9344566,-10.939559,7.5861816,-19.412928,7.820578,-1.7770379,3.9088902,4.337074,3.2161286,20.583263,-20.206064,13.68292,-2.1867716,3.7541258,-3.984704,-7.895375,-14.12273,29.374802,55.82395,7.5514994,9.418966,-0.6177393
186,-4.191994667053223,-28.251956939697266,73.88945007324219,-2.1365794032355545,4.021270646316612,78.25167750716506,-37.390522,16.951155,15.545199,41.958214,-6.112938,1.5570085,21.09942,-1.6086359,-10.823503,7.510965,-19.992037,7.7326684,-1.6375005,4.058953,4.659658,3.3904145,20.420734,-19.863108,14.865437,-1.4801733,3.4366536,-3.926764,-8.518823,-13.961548,29.760855,55.55414,7.1935797,9.50885,-0.6336623
187,-4.090666770935059,-28.744211196899414,73.86990356445312,-2.256449186841759,3.800649703732711,78.1814706398277,-37.511818,17.202953,15.355329,41.666756,-5.3637977,1.5040498,20.985865,-1.2851211,-10.770284,7.4412346,-20.498276,7.611307,-1.5268542,4.1938004,4.9685726,3.5569057,20.24211,-19.496807,16.073948,-0.7456863,3.031872,-3.7927911,-9.131078,-13.79618,30.134434,55.271984,6.844777,9.584609,-0.6450834
188,-3.9860122203826904,-29.24543571472168,73.87400817871094,-2.3486167003429106,3.649960708641116,78.18226857597716,-37.695812,17.36542,15.131832,41.269314,-4.4298153,1.4578159,20.793736,-0.97016984,-10.803442,7.3752675,-20.921978,7.4658046,-1.449711,4.297431,5.219509,3.7019334,20.052187,-19.118788,17.32171,-0.06416524,2.5234458,-3.5226517,-9.723254,-13.624782,30.490898,54.988388,6.557799,9.63677,-0.6486041
189,-3.8791253566741943,-29.76132583618164,73.9029769897461,-2.41408532789649,3.5793857582679167,78.27068237087414,-37.970066,17.42555,14.845871,40.7781,-3.2905853,1.4171481,20.514654,-0.66035765,-10.947186,7.309411,-21.25761,7.2911863,-1.4214143,4.3638973,5.4046946,3.82933,19.855549,-18.733145,18.609694,0.5630102,1.8553925,-3.0717597,-10.299202,-13.445804,30.830954,54.708824,6.3586564,9.654514,-0.63662785
190,-3.758410692214966,-30.277040481567383,73.95050811767578,-2.452820317607951,3.563614157565351,78.4380087477859,-38.300934,17.39344,14.508182,40.192898,-1.9793366,1.3817141,20.17114,-0.35773516,-11.186537,7.249268,-21.511808,7.082608,-1.4368036,4.397881,5.5513496,3.9477859,19.653593,-18.333761,19.925755,1.1760709,1.0583471,-2.4781613,-10.862071,-13.258794,31.1531,54.425934,6.2139106,9.645523,-0.6137538
191,-3.6500144004821777,-30.816492080688477,74.01309967041016,-2.464989401358343,3.592696258285408,78.6550507863458,-38.655144,17.29049,14.171223,39.50707,-0.5237352,1.3497949,19.768784,-0.07652092,-11.483781,7.2038846,-21.70135,6.8497624,-1.4674029,4.3988986,5.6663465,4.0504494,19.445524,-17.916023,21.266663,1.7576286,0.24226917,-1.8086076,-11.4061775,-13.0651245,31.45348,54.13632,6.0900655,9.626972,-0.59481597
192,-3.538259983062744,-31.365734100341797,74.09149932861328,-2.4727842357287018,3.6540209251317513,78.90655867950575,-38.992596,17.147686,13.856861,38.69269,1.0574825,1.316809,19.301828,0.19930857,-11.808623,7.2116847,-21.857027,6.5996575,-1.4984549,4.3972516,5.760119,4.131678,19.22791,-17.47649,22.624279,2.287059,-0.48189586,-1.1323551,-11.919484,-12.866509,31.726145,53.831867,5.949821,9.616317,-0.5939952
193,-3.4314141273498535,-31.914806365966797,74.19256591796875,-2.4637600989163646,3.7784224169248306,79.18742347478864,-39.349285,16.977827,13.613926,37.764965,2.7866898,1.3323644,18.757048,0.4602961,-12.160296,7.2169766,-21.936575,6.326054,-1.5174102,4.379637,5.806976,4.180022,18.99764,-17.011513,24.010315,2.8095927,-1.1174194,-0.4237126,-12.402203,-12.6622715,31.962801,53.523846,5.8045535,9.600953,-0.6208855
194,-3.3187613487243652,-32.45830535888672,74.3145523071289,-2.4357997608555024,3.9617328232443407,79.50893718669138,-39.727467,16.770662,13.410437,36.72378,4.6682153,1.3790495,18.139482,0.7058121,-12.5535,7.2192817,-21.938614,6.02591,-1.5380025,4.3443375,5.8096766,4.2005115,18.754025,-16.52446,25.425396,3.3207464,-1.7113447,0.33799648,-12.859243,-12.452954,32.169792,53.21403,5.6654234,9.577132,-0.66592896
195,-3.2029080390930176,-33.00165557861328,74.44810485839844,-2.3861179483718664,4.160798221328142,79.8507236420367,-40.032955,16.503922,13.207918,35.501415,6.660566,1.3582356,17.50215,0.91968226,-12.961091,7.2195444,-21.888119,5.717197,-1.5537095,4.288887,5.797159,4.207787,18.498943,-16.021809,26.851437,3.719384,-2.2268317,1.0703329,-13.288012,-12.242336,32.369446,52.878456,5.504736,9.577542,-0.71473724
196,-3.096123218536377,-33.539676666259766,74.59246826171875,-2.310143396066207,4.332362978798833,80.19218509946484,-40.169926,16.152388,12.961722,34.027058,8.722167,1.1705198,16.898134,1.0881374,-13.354622,7.219578,-21.81024,5.4178243,-1.5581045,4.21021,5.7987275,4.2182198,18.235922,-15.509206,28.268894,3.901647,-2.630587,1.6886386,-13.68696,-12.037765,32.587,52.49382,5.2962837,9.634346,-0.7522317
197,-2.9883320331573486,-34.072418212890625,74.74263000488281,-2.1974540351992555,4.474090191377605,80.54185604627887,-40.115448,15.715412,12.744275,32.23421,10.9587145,0.8689808,16.331244,1.2022728,-13.732126,7.218445,-21.6999,5.131031,-1.5510479,4.1020594,5.820646,4.222162,17.966167,-14.998411,29.686445,3.7900338,-2.9071357,2.1634042,-14.033905,-11.840045,32.795532,52.03669,5.010202,9.767985,-0.78067356
198,-2.8911869525909424,-34.604896545410156,74.8983154296875,-2.054554242769574,4.605394069155118,80.90575307242536,-39.91912,15.212483,12.535324,30.174875,13.350522,0.47646138,15.774439,1.2722558,-14.104693,7.217088,-21.546722,4.846695,-1.5334166,3.9679973,5.848464,4.213237,17.689379,-14.485584,31.109655,3.450789,-3.0824196,2.5383842,-14.334103,-11.649937,32.994392,51.521202,4.6701384,9.957492,-0.80437994
199,-2.8089661598205566,-35.12846755981445,75.05882263183594,-1.9006695067903925,4.714449023661695,81.25675543719653,-39.584877,14.642598,12.14579,27.944818,15.66824,-0.15213163,15.24484,1.3161795,-14.460696,7.214848,-21.372454,4.562256,-1.4985372,3.821371,5.883281,4.216229,17.40584,-13.949633,32.50876,2.9961002,-3.1852894,2.8382034,-14.614473,-11.474347,33.243263,50.963593,4.325347,10.174339,-0.8111108
200,-2.730053424835205,-35.6409912109375,75.21762084960938,-1.7571060069609932,4.787418902599539,81.56482315787902,-39.09674,14.001893,11.389335,25.61222,17.687382,-1.1600356,14.758233,1.3530262,-14.785638,7.212404,-21.19576,4.2753263,-1.4389374,3.6789446,5.9300003,4.2586303,17.115204,-13.365911,33.851242,2.5389357,-3.2433004,3.0871475,-14.901664,-11.32324,33.60525,50.376484,4.028027,10.390277,-0.78884345
201,-2.6635217666625977,-36.14211654663086,75.37017822265625,-1.6191439151621585,4.82418151637716,81.81961325498781,-38.350327,13.234268,10.131959,22.90056,19.661024,-2.822427,14.312693,1.3712658,-15.0752325,7.210004,-21.014917,3.9825277,-1.3438634,3.5348468,5.9953117,4.339325,16.812117,-12.709685,35.123013,2.1127546,-3.2388327,3.280135,-15.201789,-11.206659,34.117104,49.745518,3.7671952,10.6292,-0.75020945
202,-2.5974931716918945,-36.628150939941406,75.5125732421875,-1.4919129844702008,4.818187340315623,82.0200679109572,-37.319202,12.402907,8.483201,19.798363,21.609783,-4.984635,13.914185,1.3795884,-15.317979,7.205876,-20.820492,3.6828089,-1.2053567,3.3994164,6.089022,4.4465914,16.492262,-11.996336,36.34255,1.6570218,-3.1649425,3.408064,-15.497528,-11.126753,34.745678,49.059853,3.5285428,10.896744,-0.6948012
203,-2.5374460220336914,-37.098121643066406,75.65170288085938,-1.4130387615221258,4.750490840926789,82.15597715964519,-36.14428,11.680248,6.6703267,16.83577,22.955803,-7.1156406,13.586823,1.428178,-15.494667,7.2008095,-20.624382,3.377827,-1.0229805,3.3128686,6.2155094,4.5902543,16.160578,-11.265114,37.526005,1.1422642,-3.0642316,3.4894702,-15.773189,-11.078185,35.440178,48.332947,3.35016,11.13704,-0.5922439
204,-2.475080728530884,-37.56803512573242,75.7695541381836,-1.4014634438740048,4.620453248089743,82.23983278162098,-35.049408,11.18589,4.969779,14.631994,23.116993,-8.659856,13.338197,1.5489588,-15.609923,7.1926413,-20.435894,3.073411,-0.8175888,3.2945216,6.361568,4.782155,15.829309,-10.555481,38.68686,0.5373194,-2.9794557,3.5429423,-16.021255,-11.051957,36.15248,47.587166,3.275665,11.292679,-0.41380155
205,-2.412583112716675,-38.0077018737793,75.86066436767578,-1.4611105554119925,4.420461051562601,82.27591399642793,-34.15906,10.921384,3.4185956,13.499374,21.614424,-9.3744955,13.17833,1.7484444,-15.669326,7.1857862,-20.258396,2.770877,-0.59714776,3.3446698,6.5215807,5.0456305,15.5045595,-9.860359,39.806313,-0.20594837,-2.9112535,3.578367,-16.23451,-11.04128,36.88731,46.826332,3.3753812,11.328407,-0.13093074
206,-2.3600311279296875,-38.43133544921875,75.93110656738281,-1.566633529264831,4.1710713187424355,82.27942143709706,-33.40507,10.784738,1.9188628,13.134718,18.859682,-9.565459,13.085218,1.9928402,-15.69178,7.1753874,-20.082602,2.4714036,-0.36994392,3.4340284,6.686311,5.3670216,15.188113,-9.165095,40.88319,-1.0605915,-2.8398573,3.5848958,-16.42084,-11.044066,37.662323,46.04394,3.605736,11.28205,0.2328438
207,-2.3066823482513428,-38.854557037353516,75.99655151367188,-1.6718524846062754,3.92479261442182,82.29531113030916,-32.752647,10.68735,0.5363814,13.250025,15.616021,-9.515841,12.994665,2.2361615,-15.719224,7.167589,-19.908619,2.18351,-0.16960993,3.5238757,6.8286734,5.706234,14.889358,-8.49925,41.951683,-1.9449248,-2.777109,3.5486724,-16.587515,-11.055462,38.442333,45.23669,3.8378181,11.204465,0.62724406
208,-2.247650384902954,-39.28082275390625,76.06759643554688,-1.7431819050510085,3.7286677303550904,82.36047884197683,-32.144028,10.562419,-0.65229297,13.533298,12.649481,-9.508247,12.853777,2.440909,-15.786065,7.15912,-19.733652,1.9140102,-0.019727392,3.579029,6.9267206,6.0250483,14.62303,-7.896996,43.044434,-2.7804046,-2.7340257,3.4553547,-16.737717,-11.069344,39.18459,44.398094,3.9356854,11.144752,1.0023139
209,-2.190678358078003,-39.70207214355469,76.13821411132812,-1.7769362866618608,3.5964444563240425,82.48420253474293,-31.563372,10.405526,-1.618003,13.923767,10.061826,-9.610606,12.64522,2.6058724,-15.895081,7.149743,-19.550776,1.6712065,0.073052704,3.5910504,6.9731236,6.3240175,14.401632,-7.3522997,44.167213,-3.5691803,-2.7369368,3.2919433,-16.884823,-11.083449,39.89664,43.528248,3.857137,11.098482,1.3523115
210,-2.1175713539123535,-40.13597106933594,76.21709442138672,-1.7893427293071964,3.502139907038366,82.64771492115672,-31.044333,10.2412405,-2.4182022,14.584148,7.4735465,-9.6992235,12.399755,2.7464578,-16.030737,7.1408534,-19.364502,1.4499105,0.122177854,3.5700276,6.981504,6.6257024,14.227268,-6.853641,45.297928,-4.350932,-2.7692044,3.066515,-17.021566,-11.096472,40.58979,42.629036,3.6725647,11.043386,1.7015
211,-2.0565884113311768,-40.55517578125,76.30204772949219,-1.7749570936451156,3.430449676836168,82.84032347002221,-30.581347,10.061431,-3.0871897,15.51147,4.9354577,-9.754835,12.135664,2.8520439,-16.194412,7.1327252,-19.186766,1.2356992,0.14017244,3.512129,6.9627523,6.9239416,14.098175,-6.4299946,46.430473,-5.104315,-2.7780306,2.798239,-17.133945,-11.104591,41.234146,41.707428,3.4285345,10.999115,2.0443988
212,-2.0082077980041504,-40.978641510009766,76.39644622802734,-1.726215630570934,3.364887867643669,83.0494603956219,-30.166164,9.8527355,-3.654957,16.700008,2.4993482,-9.746491,11.873503,2.9139428,-16.385601,7.1266427,-19.031733,1.0132306,0.16529402,3.4086213,6.9255466,7.194955,14.027637,-6.139682,47.57068,-5.817054,-2.7110245,2.5102704,-17.191315,-11.104696,41.76693,40.762543,3.1588414,10.986158,2.3797998
213,-1.9604809284210205,-41.38261795043945,76.48265075683594,-1.6355136394797154,3.2945192109075476,83.28122216619018,-29.794775,9.585465,-4.134219,18.180395,0.16292372,-9.633439,11.627753,2.9217532,-16.60984,7.124607,-18.911821,0.77188927,0.1406918,3.2673643,6.8813562,7.467897,13.983308,-5.9306574,48.693836,-6.5071807,-2.5271006,2.1743424,-17.220165,-11.092747,42.247314,39.819427,2.8596935,11.008467,2.6900897
214,-1.901777982711792,-41.7907829284668,76.5662841796875,-1.51577957456587,3.223752764312917,83.53208014160985,-29.453714,9.276485,-4.508424,19.923628,-2.0902677,-9.439311,11.391844,2.8899577,-16.85776,7.1263075,-18.819153,0.52013737,0.13421206,3.0905375,6.8185353,7.692846,13.989847,-5.86929,49.84827,-7.1916075,-2.262667,1.8032762,-17.192678,-11.076179,42.60506,38.860016,2.49107,11.054589,2.9928687
215,-1.8545361757278442,-42.188392639160156,76.64128875732422,-1.393874693038886,3.1586124759964216,83.77877666117452,-29.128654,8.983261,-4.769517,21.850163,-4.2337995,-9.228499,11.137948,2.847953,-17.110188,7.1596255,-18.74966,0.27018705,0.11163192,2.9072382,6.7469263,7.9274473,14.023935,-5.868695,51.00271,-7.7630877,-1.9859207,1.4437569,-17.155422,-11.0544615,42.92084,37.89461,2.1394224,11.124835,3.2942119
216,-1.7984671592712402,-42.57484817504883,76.71296691894531,-1.2833935397143068,3.112015619667698,83.99272397914628,-28.795673,8.75638,-4.887581,23.853802,-6.2294135,-9.063134,10.857996,2.8105562,-17.34204,7.19489,-18.66805,0.037336882,0.07633089,2.7081416,6.662891,8.21491,14.102499,-5.8845778,52.133217,-8.137238,-1.7641541,1.138449,-17.132113,-11.006134,43.228344,36.929554,1.8714902,11.218623,3.603103
217,-1.755329966545105,-42.96057891845703,76.7807846069336,-1.187765463955508,3.0859278859097294,84.164498063242,-28.454542,8.614736,-4.8393455,25.947624,-8.041363,-8.977631,10.547828,2.7813148,-17.555271,7.233415,-18.571112,-0.17041934,0.066942036,2.5197418,6.558146,8.515009,14.190689,-5.9841466,53.304737,-8.228607,-1.6332197,0.9394484,-17.11159,-10.946588,43.474567,35.971012,1.6936446,11.3547125,3.9493697
218,-1.7224615812301636,-43.337406158447266,76.84684753417969,-1.0986985663114814,3.074663872663269,84.30643015086885,-28.09981,8.536751,-4.6389694,28.14254,-9.685752,-8.930305,10.218608,2.7533562,-17.756618,7.2727594,-18.467375,-0.36252582,0.061640706,2.3371706,6.436601,8.833136,14.290928,-6.152725,54.498497,-8.102624,-1.5534103,0.80622107,-17.09205,-10.875588,43.67642,35.01734,1.5781602,11.528226,4.315788
219,-1.6908724308013916,-43.73768997192383,76.91011810302734,-1.0231663911064353,3.078724327947634,84.4317022136378,-27.720413,8.520814,-4.3324194,30.367418,-11.210405,-8.870681,9.871159,2.7344937,-17.937279,7.311732,-18.356308,-0.55046755,0.055758335,2.1637795,6.298597,9.159882,14.398036,-6.3335605,55.683746,-7.8837104,-1.489588,0.6832704,-17.08099,-10.796272,43.856438,34.075726,1.4986095,11.7056875,4.66738
220,-1.654649019241333,-44.12586212158203,76.96708679199219,-0.9642933740808822,3.099460531123269,84.55365855431278,-27.309616,8.562746,-3.967847,32.559517,-12.66721,-8.748548,9.50503,2.7298942,-18.088978,7.3500233,-18.242224,-0.74504554,0.042723645,2.00314,6.1443,9.485745,14.502075,-6.4684515,56.829998,-7.694189,-1.4068094,0.51597047,-17.086708,-10.713289,44.039894,33.1519,1.4305875,11.8538685,4.9685154
221,-1.6260464191436768,-44.50586700439453,77.02218627929688,-0.9277144270841826,3.141320544336106,84.67508653784283,-26.875359,8.685522,-3.5157437,34.738438,-14.090773,-8.547499,9.114862,2.7443502,-18.202862,7.3859563,-18.118866,-0.9553449,0.017672755,1.8641722,5.96979,9.807612,14.5942745,-6.5387244,57.950417,-7.5408425,-1.3128734,0.2639508,-17.111355,-10.629932,44.232307,32.248974,1.3825991,11.965529,5.2099633
222,-1.5993701219558716,-44.88612365722656,77.06946563720703,-0.9076681786339489,3.203133039051169,84.78982189359166,-26.416016,8.88891,-2.9713097,36.924927,-15.44822,-8.291756,8.702477,2.7728767,-18.286314,7.419208,-17.986485,-1.1727751,-0.01921385,1.7457725,5.776033,10.130766,14.673218,-6.5726247,59.055737,-7.363366,-1.2218344,-0.033774745,-17.15239,-10.546772,44.425945,31.363178,1.3644828,12.058933,5.409738
223,-1.5762939453125,-45.2685661315918,77.10636901855469,-0.8976273238587347,3.2776886257568747,84.89885530846668,-25.912664,9.129132,-2.4199998,39.060116,-16.68949,-7.994054,8.278966,2.8079402,-18.357304,7.4472117,-17.849611,-1.3816624,-0.066688366,1.6369939,5.5706577,10.457416,14.740706,-6.5830274,60.112663,-7.18236,-1.1082636,-0.31305736,-17.209063,-10.463991,44.62387,30.487562,1.3540351,12.1381,5.573489
224,-1.5560016632080078,-45.63479995727539,77.14454650878906,-0.8886154563453712,3.357763410382153,85.00357199563862,-25.351023,9.355071,-1.9435364,41.089718,-17.765722,-7.668969,7.842438,2.837501,-18.434273,7.4958615,-17.728258,-1.566162,-0.12431193,1.5260862,5.361918,10.789651,14.800219,-6.582638,61.08745,-7.0199223,-0.9460716,-0.51036537,-17.281958,-10.381245,44.830227,29.61551,1.330313,12.207091,5.7066402
225,-1.5380640029907227,-46.0118522644043,77.17684173583984,-0.8786247289561434,3.4486667432157403,85.108236925013,-24.7414,9.553149,-1.5551434,43.03492,-18.647608,-7.2972054,7.3993115,2.8625636,-18.521265,7.539566,-17.608902,-1.7160621,-0.1976393,1.4062306,5.144111,11.125533,14.853563,-6.5870366,61.97641,-6.877777,-0.7072973,-0.5728784,-17.374401,-10.29815,45.051228,28.746578,1.3000499,12.2639,5.802244
226,-1.5190075635910034,-46.378868103027344,77.20159912109375,-0.8708676772165612,3.5521116790330907,85.21157779705659,-24.089998,9.743333,-1.2116686,44.91722,-19.368692,-6.8780923,6.9432464,2.886086,-18.609596,7.5857415,-17.492922,-1.8412509,-0.2841831,1.2836783,4.9158,11.462855,14.900661,-6.587497,62.796974,-6.7471995,-0.4121902,-0.54701114,-17.483814,-10.214059,45.28067,27.882502,1.2705479,12.306327,5.860218
227,-1.5090019702911377,-46.74289321899414,77.21833801269531,-0.867998344785798,3.655804052574531,85.30645754278527,-23.373508,9.919577,-0.90580845,46.674603,-19.969057,-6.457197,6.4859495,2.9095469,-18.696625,7.638258,-17.38326,-1.9565011,-0.37358674,1.1649319,4.689054,11.807526,14.942346,-6.5559344,63.544594,-6.6318617,-0.10679076,-0.51812446,-17.604034,-10.130057,45.507812,27.022158,1.2201432,12.341319,5.897028
228,-1.4948782920837402,-47.1077766418457,77.22918701171875,-0.8692423010726759,3.747871589659431,85.38569173139271,-22.571709,10.07343,-0.629244,48.249638,-20.490446,-6.081199,5.766474,2.8358698,-18.792772,8.311733,-17.604843,-2.0711396,-0.45491895,1.0556316,4.476577,12.165084,14.979579,-6.4646997,64.21399,-6.5348873,0.16260386,-0.571553,-17.728338,-10.047558,45.721466,26.161987,1.1293769,12.374796,5.9290037
229,-1.4864954948425293,-47.47346496582031,77.23275756835938,-0.8739213547566758,3.8279924108329757,85.44867346280236,-21.685707,10.197304,-0.3771993,49.649296,-20.910334,-5.7440715,5.032055,2.7521858,-18.891577,9.054822,-17.87395,-2.1920211,-0.526848,0.95436156,4.2799907,12.53633,15.011008,-6.2945704,64.81357,-6.445806,0.3808576,-0.7360574,-17.85709,-9.968023,45.922455,25.300173,0.9735524,12.406784,5.9495516
230,-1.4825397729873657,-47.835899353027344,77.22455596923828,-0.8822839108172283,3.9020151441191535,85.49902113748219,-20.727974,10.289283,-0.14986965,50.901966,-21.218042,-5.4293256,4.28107,2.6585124,-18.992006,9.855334,-18.180883,-2.3112235,-0.5952344,0.85784316,4.0937324,12.917989,15.035614,-6.063337,65.342476,-6.366027,0.57326126,-0.96395147,-17.99359,-9.891395,46.1164,24.438145,0.77134395,12.433351,5.9534936
231,-1.480889081954956,-48.19850158691406,77.20753479003906,-0.8934889745338331,3.9674274121291755,85.5360275023519,-19.696165,10.35061,0.05187038,51.982964,-21.473837,-5.1691475,3.5096931,2.5540268,-19.083063,10.7273445,-18.519428,-2.4281342,-0.6598203,0.7685025,3.9183223,13.310419,15.056058,-5.797822,65.78022,-6.315867,0.7544692,-1.2260733,-18.130661,-9.817501,46.298306,23.574255,0.5607662,12.458574,5.9594655
232,-1.4864649772644043,-48.55675506591797,77.18742370605469,-0.9068351908601933,4.0216613725149175,85.55921094540884,-18.587723,10.381514,0.22751215,52.867638,-21.738201,-4.9952164,2.7201371,2.437952,-19.153309,11.670062,-18.880514,-2.5420938,-0.7188101,0.6859053,3.754711,13.713831,15.0777855,-5.5262666,66.10551,-6.3162813,0.9397275,-1.4936029,-18.26377,-9.745891,46.46174,22.707884,0.38436618,12.483938,5.9861565
233,-1.4903531074523926,-48.924705505371094,77.15431213378906,-0.9250046900353354,4.0601444429766,85.55990681941203,-17.386253,10.3727,0.36730263,53.545403,-22.035664,-4.9389734,1.899724,2.3076282,-19.1946,12.72186,-19.280678,-2.6544185,-0.76413137,0.6083056,3.6089292,14.133504,15.103102,-5.246737,66.28912,-6.373502,1.1556599,-1.7530042,-18.389212,-9.676554,46.601692,21.830442,0.2405341,12.511495,6.0404735
234,-1.502352237701416,-49.280155181884766,77.114990234375,-0.9443514053063548,4.085875595330322,85.5414831790117,-16.101507,10.321926,0.4770598,54.03435,-22.332047,-4.9759836,1.0529953,2.1638317,-19.214418,13.86577,-19.716454,-2.7637463,-0.7942119,0.533757,3.4782727,14.562736,15.130797,-4.9534984,66.35301,-6.4780464,1.3872582,-2.0207653,-18.50674,-9.615271,46.717796,20.939854,0.11152758,12.539843,6.1127176
235,-1.5071661472320557,-49.63095474243164,77.06690979003906,-0.9623740377200889,4.1080246479236155,85.52097653114748,-14.770478,10.243356,0.5762803,54.35481,-22.601404,-5.0539846,0.19154955,2.0081875,-19.225811,15.055254,-20.160463,-2.8657835,-0.8320424,0.4579998,3.3524137,15.001897,15.167424,-4.6476274,66.3376,-6.6235785,1.5884072,-2.3185608,-18.624073,-9.550156,46.82261,20.055557,0.011077603,12.564835,6.193662
236,-1.5284035205841064,-49.967262268066406,77.01783752441406,-0.9744442488103137,4.1355365228475085,85.51571563253691,-13.430274,10.152779,0.68290615,54.52714,-22.817507,-5.120852,-0.6647595,1.845121,-19.241547,16.226614,-20.57854,-2.9574177,-0.87665176,0.38659105,3.2179866,15.424144,15.211494,-4.3657365,66.30792,-6.811648,1.7117726,-2.6599526,-18.732231,-9.494951,46.906277,19.183405,-0.05119861,12.583783,6.27898
237,-1.5490055084228516,-50.3153190612793,76.9595947265625,-0.9919947422950061,4.171980967467586,85.52170746000684,-12.079293,10.061175,0.7954381,54.542885,-22.969519,-5.18575,-1.5138557,1.689682,-19.257418,17.364395,-20.96362,-3.043276,-0.9401753,0.31995195,3.074911,15.862148,15.27507,-4.0651097,66.220955,-7.072174,1.7179481,-3.0986497,-18.84239,-9.434253,46.979206,18.327131,-0.061826717,12.596042,6.378817
238,-1.5673717260360718,-50.655303955078125,76.90587615966797,-1.013605131643056,4.212081429408954,85.53287323138012,-10.703426,9.958085,0.9043558,54.39871,-23.073755,-5.268165,-2.3614292,1.5367421,-19.269114,18.49394,-21.329865,-3.1241279,-1.0062109,0.26079473,2.9271858,16.302172,15.350938,-3.7632816,66.07608,-7.400172,1.642163,-3.6068177,-18.948961,-9.377577,47.029602,17.479532,-0.030605696,12.603535,6.49445
239,-1.5903189182281494,-50.99126052856445,76.84856414794922,-1.0181956835622998,4.251694815314235,85.56359274281262,-9.3215065,9.827975,1.0138837,54.121975,-23.143698,-5.332039,-3.2196572,1.351953,-19.289953,19.65846,-21.69462,-3.190409,-1.0865195,0.18889162,2.7762182,16.717129,15.442645,-3.5015757,65.93623,-7.728146,1.5525751,-4.1012964,-19.046902,-9.32383,47.066208,16.647112,0.023580194,12.604724,6.596502
240,-1.6205906867980957,-51.33831024169922,76.78350067138672,-0.984632206959893,4.2867159484175525,85.62807237566518,-7.9518237,9.655423,1.1277801,53.738586,-23.192078,-5.341641,-4.10137,1.0987043,-19.331533,20.903704,-22.076763,-3.2325785,-1.1882497,0.082696445,2.621671,17.076061,15.555487,-3.3284914,65.86854,-7.9896364,1.5151206,-4.4972706,-19.13381,-9.271665,47.09317,15.8409,0.08402602,12.5976715,6.6567807
241,-1.6588075160980225,-51.66737365722656,76.72006225585938,-0.9071554832909432,4.314955842744932,85.73359315327554,-6.5878243,9.437821,1.2514356,53.240265,-23.228691,-5.2935658,-5.0074787,0.76609206,-19.399977,22.245953,-22.482506,-3.2461143,-1.3188996,-0.06043584,2.4600887,17.374483,15.697589,-3.3031538,65.888855,-8.197507,1.5303068,-4.767987,-19.209513,-9.219858,47.116188,15.063276,0.16876625,12.583461,6.6599216
