unveil-humanoid-operators/unveil-humanoid-operators.github.io/feature-analysis-animation/data/feature_matrix_instances/age_waist_mean_vel_jogging_A101_exercise_2_003__A101.csv
Frame,root_translateX,root_translateY,root_translateZ,root_rotateX,root_rotateY,root_rotateZ,left_hip_pitch_joint_dof,left_hip_roll_joint_dof,left_hip_yaw_joint_dof,left_knee_joint_dof,left_ankle_pitch_joint_dof,left_ankle_roll_joint_dof,right_hip_pitch_joint_dof,right_hip_roll_joint_dof,right_hip_yaw_joint_dof,right_knee_joint_dof,right_ankle_pitch_joint_dof,right_ankle_roll_joint_dof,waist_yaw_joint_dof,waist_roll_joint_dof,waist_pitch_joint_dof,left_shoulder_pitch_joint_dof,left_shoulder_roll_joint_dof,left_shoulder_yaw_joint_dof,left_elbow_joint_dof,left_wrist_roll_joint_dof,left_wrist_pitch_joint_dof,left_wrist_yaw_joint_dof,right_shoulder_pitch_joint_dof,right_shoulder_roll_joint_dof,right_shoulder_yaw_joint_dof,right_elbow_joint_dof,right_wrist_roll_joint_dof,right_wrist_pitch_joint_dof,right_wrist_yaw_joint_dof
0,0.011444090865552425,1.9449986219406128,78.46623229980469,-0.5341163010941952,2.468638943657516,-90.99431258016487,1.5839062,11.144009,22.723862,6.831817,-9.050042,-9.648198,-0.95726484,-8.45474,-12.14074,6.7570796,-6.0859,8.7165785,-1.655708,0.50938064,8.488635,3.0707376,16.242945,-29.046984,49.32606,5.3792405,-2.4206955,0.65135074,-2.682707,-14.1388235,31.736462,54.028,-5.000459,-3.9825768,1.6554875
1,-0.00013811436656396836,1.9496634006500244,78.46696472167969,-0.5531715644134076,2.4833573805429383,-90.95586923953385,1.5526887,11.174577,22.679262,6.831719,-9.04242,-9.672434,-0.9598965,-8.424091,-12.186445,6.7563605,-6.088465,8.686575,-1.6197248,0.49510047,8.499393,3.0870225,16.271969,-29.009232,49.313942,5.2758207,-2.4656262,0.6407957,-2.8363338,-14.165831,32.19236,53.878857,-4.0446305,-3.830033,1.7700058
2,-0.009900911711156368,1.951462984085083,78.46865844726562,-0.5712894906191318,2.498911411853643,-90.91227435948407,1.519642,11.202483,22.629677,6.8309293,-9.034515,-9.69624,-0.9615194,-8.396069,-12.2366,6.756142,-6.0930023,8.657271,-1.6300352,0.48477447,8.513659,3.1401603,16.305094,-28.920242,49.258736,5.1882443,-2.5103426,0.62298495,-2.9964187,-14.211794,32.70236,53.737015,-2.9659472,-3.680616,1.8765156
3,-0.026548659428954124,1.948866844177246,78.47017669677734,-0.5908282010380709,2.5131178385111244,-90.87901766178645,1.4909787,11.234501,22.590208,6.830178,-9.0269985,-9.720679,-0.9655266,-8.363779,-12.277641,6.755467,-6.094011,8.626732,-1.6151505,0.47429797,8.530897,3.1745899,16.333271,-28.84607,49.24279,5.087829,-2.5606084,0.6072029,-3.1573365,-14.260859,33.19507,53.55115,-2.0993705,-3.5157874,1.9922513
4,-0.04262242838740349,1.9477803707122803,78.47262573242188,-0.6139082067187724,2.524178339109534,-90.87165341279731,1.4729913,11.277237,22.576021,6.8303905,-9.021151,-9.74663,-0.9761025,-8.320404,-12.295678,6.7546706,-6.0869594,8.593028,-1.5989412,0.46076262,8.560757,3.2283938,16.36632,-28.730469,49.26407,4.9706316,-2.6252673,0.58682215,-3.3558419,-14.326301,33.72674,53.262405,-1.7361174,-3.3135319,2.1296115
5,-0.06283120065927505,1.9469350576400757,78.47528076171875,-0.6423090447165442,2.5295862160383114,-90.89573246162654,1.4712446,11.333735,22.593777,6.830711,-9.014665,-9.778957,-0.9921296,-8.263186,-12.286684,6.753215,-6.068141,8.555337,-1.5504482,0.44523206,8.599191,3.273279,16.399908,-28.61701,49.358112,4.813185,-2.715289,0.5616879,-3.5865066,-14.3972,34.284424,52.87926,-2.1027668,-3.071217,2.2938008
6,-0.08589458465576172,1.9529659748077393,78.47882080078125,-0.6748377922929714,2.5310229065987446,-90.94254942490997,1.4813111,11.40016,22.634588,6.8305073,-9.007332,-9.815717,-1.012145,-8.195532,-12.258232,6.7511907,-6.040756,8.514843,-1.4857899,0.42837366,8.644256,3.3193438,16.434635,-28.495169,49.49878,4.6296363,-2.8231523,0.53223014,-3.8427453,-14.472652,34.87006,52.426548,-2.9879277,-2.8022437,2.4808066
7,-0.11076217889785767,1.9610981941223145,78.48231506347656,-0.7083190857063572,2.5324617278807335,-91.00600290586314,1.4962207,11.471127,22.690636,6.829986,-9.004321,-9.847287,-1.0392548,-8.121621,-12.213805,6.748861,-6.010363,8.472736,-1.4072617,0.40333006,8.696802,3.3653007,16.469793,-28.34717,49.68232,4.44649,-2.9287665,0.5074069,-4.120452,-14.549416,35.43897,51.880684,-4.0678625,-2.5133498,2.695375
8,-0.13734811544418335,1.9725064039230347,78.48583984375,-0.7402587140966176,2.5380267361039124,-91.08014249638303,1.5073789,11.542753,22.753603,6.8311496,-9.01089,-9.864309,-1.0764924,-8.04471,-12.1569,6.7459674,-5.981698,8.430173,-1.316069,0.36383796,8.757427,3.4078536,16.503979,-28.157063,49.908245,4.290205,-3.0122015,0.4970197,-4.413784,-14.623626,35.94237,51.21969,-5.023348,-2.2092776,2.9392083
9,-0.16738127171993256,1.9834873676300049,78.48866271972656,-0.7718417331012504,2.5459063952857495,-91.17345014293953,1.5208037,11.618055,22.833853,6.83219,-9.021144,-9.87678,-1.1248946,-7.9617915,-12.079607,6.744268,-5.9545856,8.383673,-1.2020767,0.30798236,8.827775,3.4468129,16.535318,-27.915594,50.18841,4.178492,-3.0670807,0.4849474,-4.7279916,-14.693445,36.377148,50.436,-5.848009,-1.8551766,3.2459953
10,-0.2071690708398819,2.0011425018310547,78.4900131225586,-0.8045404442455031,2.5547691625459965,-91.28571021276224,1.5368074,11.699198,22.931269,6.834849,-9.035185,-9.885797,-1.1820743,-7.871802,-11.98339,6.7423205,-5.9264703,8.333788,-1.0685033,0.23922592,8.905243,3.4824502,16.563675,-27.633602,50.522953,4.093433,-3.1044698,0.4729228,-5.065494,-14.759509,36.76621,49.547096,-6.689184,-1.4623365,3.6047184
11,-0.24285224080085754,2.0176281929016113,78.4900894165039,-0.8370229668219377,2.569631234075234,-91.39789250037785,1.5444132,11.777857,23.022951,6.838009,-9.065317,-9.867439,-1.2479336,-7.780373,-11.885366,6.7395353,-5.90088,8.287898,-0.93483824,0.16076073,8.984976,3.5141315,16.590414,-27.324827,50.889435,4.009869,-3.1304357,0.4969489,-5.415667,-14.820407,37.100082,48.56305,-7.4507637,-1.100157,3.9455974
12,-0.27946996688842773,2.038052558898926,78.4902114868164,-0.8686551429636713,2.5954378633704756,-91.49086550722225,1.5285486,11.848229,23.0851,6.8456893,-9.125265,-9.798263,-1.3227634,-7.6930985,-11.803193,6.7372675,-5.882865,8.25335,-0.8195197,0.0754083,9.062148,3.5403068,16.618452,-27.004566,51.266186,3.9019332,-3.151116,0.59321135,-5.7708807,-14.874608,37.36936,47.497723,-8.034093,-0.83531547,4.195752
13,-0.31760266423225403,2.070894956588745,78.48846435546875,-0.89966600767778,2.6448134443983333,-91.56175030572479,1.4227301,11.938741,23.11822,6.9808903,-9.259102,-9.677748,-1.4195089,-7.612434,-11.738499,6.7332244,-5.871394,8.236141,-0.71925634,-0.020206338,9.122134,3.5574858,16.647728,-26.67304,51.667675,3.7862985,-3.170336,0.7907193,-6.135654,-14.917536,37.565952,46.35963,-8.359157,-0.69509673,4.3450065
14,-0.3621823191642761,2.096125602722168,78.4830093383789,-0.93322260083191,2.711865399662921,-91.61973738499128,1.2855402,12.03327,23.136873,7.1296663,-9.406317,-9.516368,-1.5349817,-7.5306306,-11.683961,6.729333,-5.8659563,8.229546,-0.63931084,-0.12398556,9.174125,3.583929,16.683716,-26.307068,52.08087,3.6715245,-3.1841116,1.0608094,-6.516102,-14.95616,37.709988,45.135433,-8.491439,-0.6367306,4.425668
15,-0.3961828649044037,2.136121988296509,78.47096252441406,-0.9777110157620249,2.774546639995428,-91.66130058172165,0.68593615,12.31884,23.007864,8.307188,-10.152836,-9.3120575,-1.6436529,-7.4400606,-11.646028,6.725482,-5.8658614,8.227911,-0.56197435,-0.22094043,9.235366,3.5866594,16.717216,-25.95906,52.51264,3.5051007,-3.1880724,1.365522,-6.895791,-14.982216,37.775635,43.833015,-8.565528,-0.6242124,4.429917
16,-0.4306747615337372,2.1697185039520264,78.45367431640625,-1.0485322653999556,2.8104212886425777,-91.68311827075424,0.018698422,12.636493,22.771837,9.667541,-11.099504,-9.056046,-1.718893,-7.3252964,-11.6324835,6.7202926,-5.8692594,8.224651,-0.52742326,-0.29360494,9.338965,3.6063871,16.76705,-25.59828,52.886925,3.2506416,-3.177735,1.6523968,-7.277216,-15.0108595,37.80572,42.43296,-8.696348,-0.6188271,4.3473253
17,-0.4579392671585083,2.21077299118042,78.43230438232422,-1.1509455270658364,2.823646532985132,-91.6865362887352,-0.7446077,13.031115,22.494175,11.285936,-12.355985,-8.672231,-1.7679546,-7.177,-11.643793,6.715721,-5.8773117,8.2162,-0.50055265,-0.33818266,9.480296,3.6076465,16.82545,-25.26216,53.23983,2.8945456,-3.1521993,1.9367483,-7.653978,-15.033832,37.758766,40.92528,-8.915815,-0.6283796,4.154021
18,-0.48555001616477966,2.2597908973693848,78.4067153930664,-1.2816888485858482,2.822877620867611,-91.67250079751567,-1.6004109,13.488534,22.158741,13.12395,-13.8594265,-8.188109,-1.7983809,-6.9991727,-11.6775055,6.7094116,-5.8894396,8.205584,-0.4883668,-0.35904,9.6481,3.5994215,16.891106,-24.933775,53.57726,2.4609647,-3.1148157,2.2342288,-8.035207,-15.051537,37.646282,39.319927,-9.155499,-0.66542494,3.8619826
19,-0.5030261874198914,2.3092687129974365,78.37506866455078,-1.4338297432459621,2.7918514733075486,-91.63825950360487,-2.4717216,13.902096,21.61906,14.990358,-15.384806,-7.7528944,-1.7879119,-6.80703,-11.733585,6.7028766,-5.906109,8.19747,-0.50331414,-0.35625464,9.849339,3.5866964,16.96673,-24.625624,53.88283,1.9421725,-3.0674472,2.511705,-8.397518,-15.0711565,37.47844,37.63594,-9.417281,-0.70243186,3.521156
20,-0.5176626443862915,2.3733296394348145,78.33570098876953,-1.5948384923309384,2.7138663165060963,-91.58135890210595,-3.2871912,14.154324,20.74282,16.710882,-16.713158,-7.518859,-1.7177235,-6.623445,-11.809949,6.7044773,-5.9311414,8.198151,-0.54935247,-0.33180696,10.088101,3.5567653,17.040577,-24.361307,54.1633,1.3317935,-3.0123847,2.739747,-8.715396,-15.099167,37.258224,35.894203,-9.701557,-0.7121347,3.1819155
21,-0.516166627407074,2.4212160110473633,78.2886734008789,-1.7714839221511096,2.5693915165090675,-91.4809216124142,-4.052481,14.223629,19.443909,18.306925,-17.881868,-7.529863,-1.5618346,-6.448836,-11.925805,6.7273498,-5.9877625,8.20782,-0.638831,-0.27707136,10.383803,3.5098016,17.116472,-24.15696,54.42896,0.52585006,-2.9623542,2.9106736,-8.975773,-15.144511,36.972538,34.04075,-10.036673,-0.61558026,2.8522007
22,-0.4938393831253052,2.467705726623535,78.24099731445312,-1.961072436730679,2.372380649875144,-91.3449025388292,-4.796643,14.145393,17.829107,19.86092,-18.98398,-7.7094603,-1.3320335,-6.279741,-12.074976,6.750229,-6.0587883,8.226187,-0.76092505,-0.19911854,10.728145,3.4406836,17.190155,-24.002125,54.686283,-0.4367856,-2.9126403,3.0425637,-9.188183,-15.2088375,36.618988,32.07449,-10.412204,-0.44905582,2.5087416
23,-0.44523173570632935,2.516127347946167,78.19806671142578,-2.1335869553775737,2.1568114994588026,-91.21392456179099,-5.506679,13.901382,16.059296,21.354769,-19.913837,-8.033896,-1.0895649,-6.140604,-12.209881,6.7839074,-6.1172295,8.252657,-0.89198875,-0.13024832,11.0921,3.3465753,17.258482,-23.872118,54.90563,-1.3530729,-2.8369527,3.1397083,-9.3585825,-15.2966385,36.223,30.076685,-10.767212,-0.35981902,2.154628
24,-0.3742690682411194,2.5504744052886963,78.15729522705078,-2.260900829666965,1.9560931039426661,-91.12847714116438,-6.1670933,13.482442,14.290915,22.76265,-20.561756,-8.480627,-0.90470415,-6.057629,-12.283907,6.8594027,-6.145474,8.285775,-1.009695,-0.09784662,11.446353,3.2235858,17.316055,-23.741667,55.058735,-2.020011,-2.7081954,3.206719,-9.492025,-15.412498,35.81088,28.130785,-11.044539,-0.49637267,1.7907212
25,-0.29750174283981323,2.590317487716675,78.11559295654297,-2.326354130735618,1.7769519569655303,-91.08298497379272,-6.7739935,12.807669,12.431166,24.04743,-20.810955,-9.179972,-0.91479206,-6.0932684,-12.281061,7.276178,-6.345154,8.342549,-1.1102319,-0.113229655,11.77665,3.0796945,17.356146,-23.626966,55.15071,-2.3556423,-2.5096958,3.2197604,-9.578708,-15.562669,35.383446,26.184452,-11.273156,-0.81825155,1.4297452
26,-0.20928502082824707,2.629556179046631,78.07133483886719,-2.3471444570615327,1.6030200291236112,-91.06099776917014,-7.3235726,11.902582,10.452623,25.241655,-20.771223,-10.116847,-1.324261,-6.2827187,-12.1973,8.524434,-6.9730597,8.415783,-1.2044927,-0.1583414,12.10032,2.908508,17.37658,-23.535034,55.198956,-2.476082,-2.258011,3.184934,-9.61767,-15.750603,34.927944,24.212526,-11.46978,-1.273642,1.0659095
27,-0.11420667916536331,2.6842331886291504,78.02098083496094,-2.3445471479728925,1.432920400612611,-91.0881185543328,-7.8073573,10.928844,8.598576,26.411547,-20.647371,-11.037702,-1.943886,-6.532321,-12.040787,10.1508665,-7.697331,8.463803,-1.2916632,-0.21555641,12.435977,2.6859612,17.380545,-23.424383,55.18919,-2.4738748,-1.9763762,3.1508498,-9.627082,-15.9707775,34.450626,22.339878,-11.561089,-1.9959737,0.670372
28,-0.0022384650073945522,2.7467901706695557,77.95989227294922,-2.337196400995398,1.2653501689134654,-91.19108722792095,-8.218224,10.053814,7.107679,27.590883,-20.611135,-11.671502,-2.8488727,-6.807051,-11.787742,12.273493,-8.487343,8.445299,-1.3738647,-0.27186003,12.801102,2.3931,17.375002,-23.250183,55.103077,-2.4436033,-1.6877415,3.1655629,-9.633914,-16.20925,33.962837,20.704826,-11.47634,-3.1201653,0.2141476
29,0.11455151438713074,2.8196194171905518,77.87714385986328,-2.283301370869371,1.1178155581327356,-91.38840433882082,-8.560898,9.234994,6.006595,28.771088,-20.551735,-11.973183,-4.0333114,-7.131231,-11.385164,14.8600235,-9.448532,8.365415,-1.443437,-0.38088912,13.170563,2.0695345,17.358822,-22.97845,54.93317,-2.3913708,-1.3896663,3.2757468,-9.642107,-16.451828,33.468506,19.340918,-11.210498,-4.8308067,-0.29805964
30,0.22639364004135132,2.8976032733917236,77.76812744140625,-2.1788254311898867,0.9855167108155445,-91.66292028765578,-8.836702,8.413457,5.1755185,29.910784,-20.400442,-12.067065,-5.4574833,-7.5166254,-10.848983,17.84498,-10.548466,8.235148,-1.5053213,-0.54152536,13.54191,1.7137632,17.33168,-22.635649,54.68878,-2.2738445,-1.0720139,3.4425886,-9.656473,-16.689545,32.967384,18.202219,-10.808882,-7.011454,-0.8474879
31,0.3402286767959595,2.986220598220825,77.6303482055664,-2.093774375120334,0.8330293123049406,-91.98931416599049,-9.039282,7.7353153,4.629018,30.985687,-20.373896,-11.917323,-7.133633,-7.907072,-10.258809,21.28162,-11.53995,8.02191,-1.5790632,-0.6664561,13.9652195,1.2471951,17.307667,-22.269064,54.372734,-2.1098309,-0.7456967,3.5860276,-9.705069,-16.915195,32.464825,17.31261,-10.276151,-9.348421,-1.4391668
32,0.4436320960521698,3.0933892726898193,77.47576141357422,-2.094942912582436,0.6239486791653924,-92.34156129870563,-9.160603,7.344449,4.3793845,31.972162,-20.692371,-11.481876,-9.06262,-8.247209,-9.700359,25.210873,-12.164259,7.6967654,-1.6847051,-0.6753189,14.491605,0.599289,17.310257,-21.92716,53.978172,-1.9194367,-0.42135695,3.624674,-9.809099,-17.124397,31.964863,16.68867,-9.614291,-11.530115,-2.0803328
33,0.567377507686615,3.2116525173187256,77.2872543334961,-2.2217961120575547,0.35280745637352534,-92.74942724195549,-9.138158,7.3703613,4.5407424,32.7346,-21.477095,-10.587922,-11.277306,-8.459494,-9.132047,29.737156,-12.426496,7.176989,-1.8162701,-0.5334428,15.139006,-0.22656688,17.352942,-21.62309,53.49101,-1.6866264,-0.06564364,3.4633746,-10.012639,-17.317596,31.514965,16.360577,-8.6891575,-13.711265,-2.8085713
34,0.716205894947052,3.365248918533325,77.06459045410156,-2.4276135383155877,0.034261384122397195,-93.21241149238027,-8.994019,7.706828,5.0503497,33.32739,-22.601322,-9.306458,-13.7361,-8.570774,-8.545271,34.748833,-12.40067,6.5236697,-1.9707496,-0.2978348,15.881466,-1.1856155,17.438332,-21.332273,52.900177,-1.4090221,0.31521758,3.1658387,-10.287967,-17.493618,31.098444,16.309694,-7.550294,-15.99051,-3.588393
35,0.9015339612960815,3.5227677822113037,76.81697082519531,-2.6556058397314533,-0.3369240445706309,-93.65982859946034,-8.841514,8.14689,5.6586065,34.000263,-23.903828,-7.960073,-16.33155,-8.699303,-8.073894,39.980766,-11.9485035,5.9112926,-2.1693275,-0.023574289,16.70419,-2.2865117,17.576479,-21.052662,52.200817,-1.1302316,0.6524179,2.8892174,-10.537977,-17.645733,30.614944,16.466684,-6.462423,-17.965101,-4.3433127
36,1.0820142030715942,3.700939655303955,76.52680206298828,-2.8508090081399935,-0.763592964947908,-94.02171477234724,-8.799401,8.493851,6.1241307,34.998993,-25.203295,-6.861572,-18.975641,-8.994528,-7.8313375,45.221134,-10.958347,5.479968,-2.4280608,0.23312227,17.590086,-3.541478,17.782036,-20.791523,51.389904,-0.9005493,0.8795115,2.7915285,-10.665061,-17.766163,29.958618,16.76362,-5.6835093,-19.22236,-5.0235643
37,1.2616485357284546,3.883082151412964,76.20146179199219,-3.0067206660773067,-1.2448699525296936,-94.31760445457185,-8.9162855,8.727647,6.463272,36.44022,-26.53467,-6.042661,-21.752483,-9.553693,-7.870511,50.590973,-9.183675,5.2352433,-2.7528532,0.46186414,18.544933,-4.973986,18.068047,-20.592665,50.496624,-0.739386,0.92118925,2.9362533,-10.698706,-17.853779,29.120234,17.16313,-5.3541694,-19.49722,-5.64319
38,1.4521452188491821,4.061255931854248,75.84770202636719,-3.1517069521838605,-1.7790483971442022,-94.57075988083453,-9.124278,8.950018,6.7741327,38.177986,-27.96514,-5.34911,-24.68702,-10.329977,-8.098426,56.192036,-6.772716,5.0526195,-3.1324787,0.6823721,19.572866,-6.5669675,18.436705,-20.45531,49.504955,-0.6246216,0.83464885,3.2304852,-10.662333,-17.910534,28.140924,17.703218,-5.29603,-19.054497,-6.236459
39,1.6186730861663818,4.2479023933410645,75.47016143798828,-3.2834858689334303,-2.365656048445564,-94.71771368605471,-9.369013,9.147573,6.9545283,40.051456,-29.339653,-4.807377,-27.604988,-11.263063,-8.400835,61.802814,-4.2212057,4.871185,-3.5567093,0.8843993,20.651897,-8.272799,18.882875,-20.319334,48.343792,-0.54315305,0.75303954,3.596301,-10.445368,-17.929565,26.989344,18.425985,-5.295121,-18.274734,-6.7924714
40,1.7560763359069824,4.440902233123779,75.08447265625,-3.406759172748005,-3.0039563383911565,-94.69674044180559,-9.601864,9.304316,6.909769,41.90957,-30.505539,-4.4487743,-30.342062,-12.262955,-8.672512,67.2238,-2.033436,4.6717176,-4.011881,1.0622714,21.757875,-10.049044,19.397717,-20.126299,46.946606,-0.48328888,0.8099046,3.9563782,-9.94177,-17.897345,25.63525,19.378166,-5.14586,-17.542469,-7.3038282
41,1.864109754562378,4.642273426055908,74.69674682617188,-3.5179953609282086,-3.751820958049573,-94.4566371136749,-9.824359,9.395846,6.574065,43.83305,-31.39916,-4.362873,-32.846676,-13.348206,-8.905211,72.49294,-0.111499794,4.5463476,-4.5082,1.2044262,22.962917,-11.98179,19.991945,-19.903818,45.373672,-0.48152462,1.025659,4.327178,-9.055309,-17.776016,23.937706,20.548761,-4.877108,-16.906021,-7.718962
42,1.9358634948730469,4.823367595672607,74.31940460205078,-3.6193590996853846,-4.589308188870223,-94.04002833654079,-10.057465,9.423123,6.029916,45.864727,-32.10984,-4.5135293,-35.210926,-14.558643,-9.133655,77.72367,1.7190737,4.4796696,-5.0466585,1.3033434,24.243353,-14.07189,20.66457,-19.695984,43.643456,-0.53951865,1.3354497,4.7364993,-7.883468,-17.545172,21.957014,21.94182,-4.5706043,-16.179934,-8.054485
43,1.9726924896240234,4.947835445404053,73.97415161132812,-3.7301202766970816,-5.398005339912934,-93.52953446360372,-10.288818,9.414877,5.4031205,47.80465,-32.716797,-4.745475,-37.48575,-15.795612,-9.335086,82.82415,3.0665932,4.3365655,-5.604143,1.3753853,25.431866,-16.14775,21.379084,-19.442331,41.632732,-0.58377385,1.7445513,5.127554,-6.607423,-17.235027,19.977848,23.621761,-4.1080747,-15.403344,-8.419032
44,1.9867942333221436,5.023219108581543,73.66497802734375,-3.871033111123595,-6.058647952360942,-93.01049427480174,-10.511661,9.415111,4.8095293,49.458015,-33.29845,-4.897278,-39.723064,-16.943554,-9.502089,87.695435,3.5364728,3.9948802,-6.158976,1.4608693,26.365982,-18.035809,22.087046,-19.054697,39.22162,-0.5280037,2.2571323,5.4469643,-5.3710055,-16.918808,18.288519,25.61763,-3.3660665,-14.612847,-8.933266
45,1.9835481643676758,5.061214447021484,73.3908920288086,-4.0607884308439175,-6.546686985427873,-92.48201561019485,-10.734725,9.459655,4.248314,50.80593,-33.900326,-4.9308996,-41.9569,-17.891068,-9.622835,92.40324,2.6588316,3.3419323,-6.701158,1.616899,27.0069,-19.721323,22.766611,-18.473671,36.314407,-0.32361287,2.9711695,5.708643,-4.130208,-16.664736,16.954678,27.929213,-2.128815,-13.86984,-9.793477
46,1.9818627834320068,5.067882061004639,73.1583251953125,-4.2929117499913865,-6.918721010993354,-91.91443359910257,-10.964954,9.531541,3.6684778,51.950233,-34.475494,-4.9328575,-44.159966,-18.653952,-9.711424,96.99355,0.7531518,2.5320938,-7.239773,1.8544184,27.442411,-21.276922,23.422419,-17.733006,32.991047,-0.012675864,3.8507226,5.932127,-2.7718818,-16.49062,15.829953,30.471237,-0.49233052,-13.154185,-10.897116
47,1.9803954362869263,5.067221641540527,72.95728302001953,-4.534514844932968,-7.178729244598877,-91.34936700696706,-11.193816,9.600513,3.1005385,52.872124,-34.95683,-4.9209185,-46.29112,-19.339285,-9.808986,101.33207,-1.3888768,1.8193245,-7.7724814,2.144758,27.70293,-22.670467,24.048159,-16.882868,29.403475,0.3585499,4.6979465,6.07781,-1.3283464,-16.400265,14.8731785,33.15459,1.1873493,-12.365792,-11.919798
48,1.9735474586486816,5.041849613189697,72.82048797607422,-4.751544649807501,-7.334272273779283,-90.82319877795075,-11.4114275,9.629439,2.5719435,53.553375,-35.27625,-4.9104476,-48.298656,-20.120773,-9.968407,105.27202,-2.9714823,1.404074,-8.307112,2.4469514,27.819542,-23.881037,24.631437,-15.968656,25.711637,0.7451367,5.3130293,6.110241,0.14156693,-16.388357,14.051304,35.915962,2.545012,-11.372969,-12.538042
49,1.9697986841201782,4.991146564483643,72.7423324584961,-4.924535961680476,-7.350018606758776,-90.32811713088304,-11.668564,9.591857,2.0691276,54.005436,-35.42836,-4.8968763,-50.209145,-21.186415,-10.248894,108.80875,-3.7295861,1.4007974,-8.859483,2.7468808,27.745941,-24.902302,25.154608,-14.963071,21.882444,1.150856,5.617626,6.0267625,1.6102219,-16.461485,13.398626,38.814976,3.5239131,-10.055287,-12.730803
50,1.9632935523986816,4.909610271453857,72.73403930664062,-5.070824558074383,-7.238256305607154,-89.8455475676104,-11.9505625,9.509103,1.5779707,54.23263,-35.443592,-4.870395,-52.0291,-22.432066,-10.600959,112.02566,-4.106613,1.6615902,-9.419812,3.0734265,27.482845,-25.75191,25.615103,-13.848187,17.866413,1.5992261,5.722493,5.8532424,3.102386,-16.6259,12.916572,41.878654,4.298566,-8.488982,-12.655815
51,1.9375035762786865,4.804581642150879,72.79358673095703,-5.201211354890082,-7.079116672669614,-89.39449961981947,-12.149354,9.41702,1.1244113,54.203743,-35.31177,-4.8392496,-53.67795,-23.617018,-10.9354725,114.885605,-4.3599668,1.9681203,-9.961809,3.438446,27.13692,-26.448149,26.023922,-12.6821995,13.792894,2.0761936,5.70862,5.59811,4.632916,-16.862703,12.519393,44.996845,4.8326845,-6.818682,-12.244919
52,1.910571813583374,4.676913261413574,72.92298126220703,-5.331695602273629,-6.949501982941772,-88.99933365264005,-12.161266,9.35992,0.73745877,53.891148,-35.026062,-4.81389,-55.088364,-24.485996,-11.188089,117.342026,-4.7366495,2.108152,-10.450092,3.8475947,26.811165,-27.017773,26.396938,-11.534397,9.791681,2.5662222,5.6589937,5.268106,6.2195697,-17.135946,12.11266,48.063255,5.075994,-5.1933193,-11.419844
53,1.8719232082366943,4.543422698974609,73.12129211425781,-5.467348600131078,-6.86051722182373,-88.68226172022314,-11.946225,9.359289,0.44028795,53.24949,-34.608402,-4.79818,-56.296844,-24.958279,-11.369164,119.3724,-5.2929854,1.976671,-10.864755,4.2917213,26.521194,-27.476517,26.740076,-10.380965,5.83877,3.057884,5.6068764,4.7749724,7.862962,-17.421469,11.590218,51.172497,4.840242,-3.5906432,-9.933069
54,1.8264539241790771,4.399740219116211,73.39028930664062,-5.603310412965654,-6.774011447795618,-88.42831915361401,-11.5677185,9.395345,0.21293345,52.31301,-34.056385,-4.7874575,-57.345814,-25.1648,-11.53212,121.001915,-5.873637,1.7095577,-11.216943,4.7600513,26.214182,-27.824001,27.049852,-9.211253,1.8854028,3.5590363,5.501537,4.1496453,9.555263,-17.714777,11.016678,54.349895,4.1613197,-1.973147,-7.8744
55,1.7775036096572876,4.24512243270874,73.72528839111328,-5.736938896522499,-6.692106836963573,-88.20905407467887,-11.072458,9.453183,0.023160104,51.158817,-33.328842,-4.7811136,-58.18039,-25.165709,-11.690573,122.24109,-6.403185,1.4548017,-11.519014,5.254295,25.891388,-28.063913,27.332851,-8.114185,-1.9764963,4.0804753,5.3028774,3.57207,11.291429,-18.011478,10.5539255,57.393845,3.3420913,-0.46181586,-5.680005
56,1.7280069589614868,4.076144218444824,74.12308502197266,-5.8678375582976425,-6.61696201984631,-87.99520726834203,-10.507299,9.5160885,-0.1614169,49.86471,-32.382545,-4.778227,-58.740635,-25.024433,-11.85338,123.094604,-6.8106728,1.3582828,-11.781238,5.7748165,25.556808,-28.206083,27.605019,-7.1829166,-5.6497993,4.6261525,4.975233,3.2202964,13.050148,-18.311563,10.363223,60.114746,2.7131867,0.8530233,-3.8074453
57,1.6673078536987305,3.9030253887176514,74.5794677734375,-6.004647231273511,-6.561590120622588,-87.79011193990932,-9.817034,9.596473,-0.32949176,48.356297,-31.228548,-4.759502,-59.00525,-24.683636,-12.010717,123.53984,-7.0951486,1.46636,-11.989291,6.333611,25.231628,-28.288195,27.881428,-6.4630527,-9.134949,5.212695,4.5067735,3.1710963,14.807513,-18.639053,10.5695,62.568825,2.3716702,1.9573063,-2.3038955
58,1.6041067838668823,3.720771074295044,75.08308410644531,-6.146070029178816,-6.52214817294351,-87.60364621833229,-9.000759,9.6919155,-0.4668552,46.628998,-29.887167,-4.733221,-59.01611,-24.13944,-12.160253,123.579315,-7.2827077,1.6968974,-12.151824,6.9196954,24.917906,-28.284243,28.167015,-5.8857174,-12.500586,5.8251,3.9234958,3.3196707,16.56373,-19.005182,11.060778,64.83251,2.1592839,2.9057455,-0.95781285
59,1.5352591276168823,3.5293514728546143,75.62861633300781,-6.266417418501027,-6.47546648137647,-87.4176315789766,-8.186421,9.76508,-0.60475755,44.862904,-28.32563,-4.7370424,-58.80061,-23.535694,-12.315969,123.26734,-7.3516216,2.0012355,-12.307206,7.4968095,24.590212,-28.104824,28.457481,-5.377241,-15.756901,6.428377,3.2515118,3.5719666,18.328867,-19.38374,11.639818,66.750046,2.0322666,3.7370167,0.14676562
60,1.472066044807434,3.319831609725952,76.20872497558594,-6.3454145291628405,-6.396834779411524,-87.2146904497621,-7.504202,9.783368,-0.7796195,43.24027,-26.50977,-4.8058567,-58.383633,-23.013409,-12.49354,122.65797,-7.2793856,2.3316553,-12.482108,8.028794,24.218006,-27.686035,28.744457,-4.8779697,-18.883532,6.9870086,2.5140889,3.8337116,20.112343,-19.725359,12.106681,68.175285,1.9405388,4.4818144,0.9220582
61,1.4018946886062622,3.105609655380249,76.8187255859375,-6.393730830301064,-6.2776924913509795,-86.99887392516594,-6.926045,9.762283,-1.0125962,41.702324,-24.41009,-4.9867744,-57.719604,-22.627666,-12.731092,121.74186,-7.0733237,2.6575952,-12.667413,8.540691,23.78467,-27.057858,29.02423,-4.3998494,-21.83848,7.5396686,1.6040906,4.164182,21.964184,-19.994848,12.44758,68.99119,1.8366209,5.183151,1.2436014
62,1.3206377029418945,2.8882482051849365,77.44879913330078,-6.41418987905608,-6.131571504962562,-86.77694968103299,-6.4069233,9.707726,-1.2875899,40.19281,-22.0529,-5.245713,-56.808643,-22.294037,-13.003034,120.50001,-6.7461767,3.0095038,-12.830756,9.037272,23.304607,-26.284288,29.295527,-3.9918728,-24.614426,8.097431,0.55011666,4.587796,23.86095,-20.193455,12.740392,69.32124,1.7626793,5.812386,1.1771061
63,1.2215394973754883,2.6797168254852295,78.08580017089844,-6.378488418941363,-5.966715975177961,-86.53680944026648,-6.0460734,9.581477,-1.5861936,38.88779,-19.47842,-5.497966,-55.743652,-21.94387,-13.23164,118.965485,-6.2819986,3.432408,-12.971786,9.452364,22.79325,-25.330301,29.547266,-3.6416547,-27.248907,8.583762,-0.4260928,4.954356,25.703388,-20.321707,12.937568,69.369354,1.801572,6.296505,0.922805
64,1.1072053909301758,2.4707438945770264,78.7283706665039,-6.250468133083127,-5.792135452849923,-86.26529960191668,-5.9416404,9.350034,-1.8852683,37.96088,-16.721123,-5.6646748,-54.61635,-21.51233,-13.336367,117.17293,-5.6673155,3.9705672,-13.090358,9.723968,22.264097,-24.161444,29.761284,-3.3380919,-29.776188,8.917231,-1.107652,5.106237,27.39252,-20.380735,12.991211,69.33917,2.030328,6.56107,0.6817993
65,0.9710861444473267,2.2641441822052,79.37325286865234,-6.007491345447968,-5.589244569912623,-85.96367831618672,-6.127022,8.961924,-2.2379272,37.41859,-13.685553,-5.667403,-53.453396,-20.988756,-13.262727,115.11957,-4.880268,4.644631,-13.184626,9.83926,21.676281,-22.752607,29.929564,-3.0603023,-32.28789,9.0194645,-1.3673311,4.905715,28.97625,-20.358313,12.821523,69.1777,2.5236995,6.5103965,0.4281346
66,0.8166440725326538,2.0641536712646484,80.01277923583984,-5.669915545026674,-5.3605630844259,-85.63578106363863,-6.544498,8.45605,-2.6281514,37.163982,-10.369816,-5.5964684,-52.19345,-20.408298,-13.053004,112.79344,-3.9490385,5.4274635,-13.253777,9.834912,21.034204,-21.130098,30.049057,-2.82419,-34.74122,8.955756,-1.3484627,4.4582253,30.480732,-20.24749,12.476627,68.815445,3.2208922,6.2065024,0.08240531
67,0.6488261222839355,1.8789995908737183,80.62985229492188,-5.275919979261424,-5.147492037367502,-85.27129755387332,-7.1527066,7.9282947,-2.9354365,37.210426,-6.9470925,-5.6207747,-50.790485,-19.778177,-12.773044,110.21026,-2.9358594,6.2892094,-13.304702,9.727264,20.41942,-19.33161,30.10697,-2.673966,-36.965622,8.85969,-1.2412288,3.9689763,31.776964,-20.062098,12.106091,68.4294,3.9935923,5.813735,-0.23238157
68,0.4698747396469116,1.708823800086975,81.22282409667969,-4.864591429918726,-4.991415501539841,-84.86157213162878,-7.91104,7.4640193,-3.0552108,37.577656,-3.5985265,-5.887606,-49.202293,-19.104761,-12.48957,107.38577,-1.9006491,7.1971784,-13.345612,9.538335,19.913921,-17.399506,30.087835,-2.6547806,-38.784317,8.862873,-1.2375208,3.641043,32.74392,-19.830027,11.857855,68.18934,4.7171555,5.5010223,-0.39593825
69,0.27938157320022583,1.5417050123214722,81.79289245605469,-4.419817290751965,-4.90486346100483,-84.39945908572517,-8.824495,6.995717,-3.0597332,38.23039,-0.11194839,-6.4791083,-47.394745,-18.395042,-12.179518,104.29749,-0.8781738,8.158585,-13.400212,9.244487,19.529219,-15.271131,29.981209,-2.7827773,-40.23185,8.993424,-1.4291279,3.4851503,33.339725,-19.566738,11.7699375,68.1633,5.4998746,5.262769,-0.3312343
70,0.08070781826972961,1.3839199542999268,82.33331298828125,-3.9279607976000412,-4.86742530162747,-83.89075251473473,-9.908291,6.479547,-3.0024555,39.164135,3.5275166,-7.318746,-45.387012,-17.655567,-11.807885,100.94642,0.15884694,9.174588,-13.465445,8.85082,19.22428,-12.949912,29.791754,-3.041466,-41.375504,9.189275,-1.702029,3.4002619,33.64066,-19.273483,11.765279,68.24413,6.365153,5.031838,-0.11253906
71,-0.12612050771713257,1.234985113143921,82.83283233642578,-3.4373382953875766,-4.8713176133327645,-83.34731078628168,-11.150374,6.052363,-2.741496,40.481472,6.8248277,-8.260197,-43.220543,-16.883228,-11.418878,97.37072,1.2508454,10.211328,-13.508613,8.424557,19.0032,-10.575493,29.529799,-3.4284813,-42.083786,9.444449,-1.9390067,3.4228282,33.70482,-18.957865,11.820337,68.337166,7.064635,4.884144,0.14707588
72,-0.3488711416721344,1.0970560312271118,83.28547668457031,-2.999505301445244,-4.906582300064937,-82.781769470116,-12.548354,5.890451,-2.1045346,42.312267,9.279299,-9.099887,-40.939888,-16.065584,-11.060095,93.60342,2.4407198,11.237277,-13.498741,8.0344715,18.870842,-8.281067,29.207554,-3.933396,-42.229355,9.749856,-2.021725,3.591683,33.590107,-18.629303,11.91454,68.34782,7.3488035,4.8909917,0.33368808
73,-0.5783339738845825,0.9773545265197754,83.67273712158203,-2.640125963068064,-4.983898190671431,-82.1779825513074,-14.095435,6.174075,-0.8891849,44.7511,10.752935,-9.800206,-38.499596,-15.2122755,-10.797583,89.58239,3.8001955,12.270174,-13.452051,7.7034593,18.856924,-6.0157986,28.833727,-4.6169577,-41.814342,10.138462,-1.9111491,3.9854693,33.280823,-18.290785,12.062425,68.25414,7.028114,5.1554356,0.4374675
74,-0.813200056552887,0.8654847741127014,83.99092102050781,-2.331940611665671,-5.104616833818639,-81.5397880903873,-15.793802,6.863934,0.78005767,47.766003,11.504751,-10.350711,-35.89174,-14.3164425,-10.576292,85.302895,5.28503,13.308283,-13.371666,7.39471,18.945162,-3.7523503,28.412483,-5.483144,-40.876877,10.59976,-1.6708453,4.5620494,32.763603,-17.937284,12.26692,68.10334,6.2767167,5.6097226,0.51891196
75,-1.0544804334640503,0.7617316246032715,84.24520874023438,-2.0515751495382117,-5.244066203126673,-80.90960083972062,-17.659407,7.8161345,2.596813,51.31255,11.612857,-10.591772,-33.225765,-13.358791,-10.294584,80.88921,6.7667246,14.255486,-13.206394,7.0855527,19.075504,-1.6413124,27.944132,-6.4179153,-39.35579,11.0536995,-1.3366401,5.1810083,32.09451,-17.571457,12.490339,67.90664,5.3910136,6.067146,0.56528616
76,-1.3074871301651,0.6647934913635254,84.42438507080078,-1.7686988660948757,-5.376393187864228,-80.32705959929936,-19.715538,8.82467,4.245467,55.32094,11.155924,-10.42606,-30.608788,-12.346275,-9.862974,76.46608,8.119655,15.000033,-12.916463,6.749465,19.193066,0.20260203,27.421852,-7.2810802,-37.214962,11.419423,-0.9471219,5.7027617,31.323942,-17.203196,12.699333,67.67291,4.669644,6.342879,0.55579036
77,-1.5749152898788452,0.5794199705123901,84.52140045166016,-1.49843189034091,-5.492504015580639,-79.79224859622732,-22.00089,9.880975,5.6855717,59.95285,9.802349,-9.729045,-28.021772,-11.420145,-9.490837,71.96222,9.373165,15.000033,-12.497714,6.391634,19.30464,1.835476,26.825514,-8.06115,-34.431953,11.6662445,-0.4643247,6.121373,30.446762,-16.840784,12.933665,67.40806,4.1448193,6.3620954,0.47604942
78,-1.8505897521972656,0.4945860803127289,84.5336685180664,-1.2383577299541093,-5.606442775231207,-79.28337405137762,-24.469337,11.0572605,7.021446,65.18029,7.593464,-8.619933,-25.45065,-10.378637,-8.913222,67.34125,10.572998,15.000033,-11.97845,6.0205803,19.43564,3.3362556,26.148212,-8.799596,-31.061295,11.840308,0.11191299,6.4974957,29.441458,-16.488073,13.195012,67.10448,3.6752005,6.231653,0.33810154
79,-2.1292665004730225,0.41575878858566284,84.45374298095703,-0.9514886602014411,-5.722744948078974,-78.81179340691432,-27.059544,12.229821,8.166469,70.64592,5.1996517,-7.41877,-22.91575,-9.338002,-8.133288,62.79142,11.643531,15.000033,-11.375682,5.609543,19.563877,4.6418133,25.40636,-9.415995,-27.186806,11.974108,0.68608934,6.798045,28.329231,-16.151905,13.398956,66.740204,3.2992342,6.047053,0.15625082
80,-2.40964674949646,0.3295263350009918,84.29010009765625,-0.6062167139285813,-5.846054474286846,-78.39026834112946,-29.71976,13.295606,9.090754,75.997696,3.3148835,-6.4152145,-20.440407,-8.398538,-7.172116,58.499516,12.512657,15.000033,-10.709798,5.129855,19.672989,5.6966286,24.628595,-9.819443,-22.89941,12.096769,1.1646197,6.997232,27.124231,-15.843012,13.468035,66.29626,3.0558207,5.901724,-0.051868808
81,-2.695068597793579,0.23349854350090027,84.0470199584961,-0.2118634526918971,-5.9743307832880195,-78.02411982897381,-32.46007,14.258681,9.8143835,81.26952,2.1032934,-5.662064,-18.029015,-7.495625,-5.960287,54.363186,13.632777,15.000033,-9.965996,4.569909,19.758316,6.520247,23.811115,-9.922567,-18.145674,12.278041,1.5687029,6.952376,25.81677,-15.561459,13.398448,65.78277,3.0186653,5.8193526,-0.26750314
82,-2.9776482582092285,0.1311366707086563,83.7159652709961,0.2173601900968034,-6.104676656551095,-77.70441158212176,-35.310596,15.134847,10.368747,86.61545,1.2108784,-5.0252604,-15.673534,-6.633873,-4.52872,50.34509,14.884315,15.000033,-9.148507,3.9445984,19.839497,7.1793156,22.94898,-9.767307,-12.949743,12.48256,1.9313078,6.7280993,24.396753,-15.312252,13.231213,65.20448,3.1461065,5.74938,-0.5030215
83,-3.255599021911621,0.038648709654808044,83.30542755126953,0.7043642052540671,-6.241402642016962,-77.42473568063207,-38.25896,15.860627,10.7882,91.87307,0.56926525,-4.495496,-13.386068,-5.9817343,-3.0750053,46.70742,15.357698,15.000033,-8.3080635,3.2597914,19.938766,7.6915593,22.085526,-9.451907,-7.502631,12.574378,2.1833158,6.624072,22.875847,-15.116125,12.966759,64.530396,3.3060722,5.675115,-0.7835814
84,-3.535423517227173,-0.05543705075979233,82.83606719970703,1.2692355854567041,-6.387247243704012,-77.18190450392724,-41.301163,16.377932,11.109873,96.87607,0.11570527,-4.0743484,-11.182908,-5.7521152,-1.9900275,43.68896,14.167848,14.57599,-7.4932413,2.5100424,20.079313,8.080175,21.29341,-9.074137,-1.9924169,12.399719,2.257931,6.9545364,21.267172,-14.997596,12.612366,63.72185,3.366788,5.5818496,-1.12897
85,-3.797713279724121,-0.14433205127716064,82.26366424560547,2.000216402015437,-6.484373111741237,-76.94873397317173,-44.51359,16.61186,11.442864,101.63569,-0.01275136,-3.7931902,-9.0191345,-6.0371566,-1.3622022,41.282616,10.52496,13.494047,-6.7247763,1.5912975,20.17938,8.332382,20.631435,-8.629145,3.7188227,11.921343,2.021975,7.950515,19.598372,-14.953438,12.173582,62.787376,3.2838767,5.4480114,-1.5492024
86,-4.05820369720459,-0.23225149512290955,81.63619232177734,2.8595997020054122,-6.548393766847147,-76.73749870881332,-47.890594,16.595667,11.781259,106.23388,0.17537384,-3.680051,-6.919222,-6.5976667,-0.90673,39.3331,5.090356,12.205564,-5.969198,0.5214032,20.26618,8.508351,20.112722,-8.0651455,9.606455,11.196116,1.5401663,9.405773,17.852566,-14.973438,11.65972,61.736736,3.1330006,5.287906,-2.024413
87,-4.310438632965088,-0.3075833022594452,80.9632339477539,3.674323015664551,-6.690794878291513,-76.60256459963006,-51.31129,16.42286,11.984622,110.59998,0.404602,-3.7230744,-4.997667,-7.195351,-0.60782295,37.86982,-0.8343093,10.932366,-5.2015734,-0.52132183,20.518389,8.719713,19.731524,-7.408183,15.26923,10.201196,1.0421562,10.976645,15.983019,-15.076112,11.09485,60.519196,2.9641895,5.1473126,-2.5270505
88,-4.532912731170654,-0.3520895540714264,80.26339721679688,4.274717751549979,-7.0235719038029005,-76.5948186258348,-54.64753,16.174805,11.916674,114.6563,0.3983434,-3.8782077,-3.3488016,-7.641352,-0.5168777,36.937702,-5.957612,9.7936735,-4.4053984,-1.3484018,21.10797,9.045754,19.462376,-6.683497,20.343225,8.898932,0.7636479,12.322321,13.951979,-15.293932,10.507727,59.07465,2.8304508,5.069259,-3.023384
89,-4.719817638397217,-0.350454717874527,79.54602813720703,4.606348854334886,-7.646562071674933,-76.70210180018142,-57.921265,15.764744,11.484731,118.42776,0.12307337,-4.174413,-1.9393258,-7.9684653,-0.8990043,36.643757,-10.13497,8.708463,-3.590906,-1.8749366,22.167898,9.377223,19.3012,-5.90253,24.876444,7.250638,0.8324283,13.453043,11.734158,-15.65927,9.911932,57.385395,2.7808146,5.090383,-3.5337105
90,-4.872973442077637,-0.30698922276496887,78.8172836303711,4.770190350115748,-8.476967903763352,-76.8985545521901,-61.17729,15.142554,10.829321,121.95037,-0.2892423,-4.6200542,-0.7250798,-8.246855,-1.6736044,36.937885,-14.003582,7.60649,-2.7779715,-2.1943898,23.562574,9.709536,19.241203,-5.0391116,29.056849,5.272429,1.0873417,14.519308,9.372566,-16.173565,9.311857,55.463806,2.7834213,5.180837,-4.056287
91,-4.998158931732178,-0.235830619931221,78.11100769042969,4.836146393414087,-9.35324797368569,-77.22110690963875,-64.31403,14.498124,10.168869,125.146255,-0.85972595,-5.0682755,0.22091743,-8.389339,-2.4025335,37.628174,-17.472471,6.589016,-1.9592986,-2.3845162,25.050291,10.233664,19.229836,-4.069705,32.77563,3.0151162,1.3496972,15.385994,6.925494,-16.81562,8.726563,53.30516,2.7690585,5.2853484,-4.5283146
92,-5.0996174812316895,-0.17467685043811798,77.44424438476562,4.873318678377059,-10.112701683163529,-77.71343944988257,-67.253944,14.008094,9.63138,127.92885,-1.6013118,-5.429752,0.8209705,-8.3343525,-2.6429913,38.530186,-20.450603,5.776579,-1.125865,-2.5254545,26.384573,11.109807,19.190351,-2.9802995,35.947487,0.5506081,1.454844,15.9049225,4.435309,-17.557873,8.178121,50.924793,2.6639853,5.3498435,-4.892835
93,-5.1675310134887695,-0.11189848929643631,76.81893920898438,4.835823869089463,-10.782291297325049,-78.47469899675318,-70.04083,13.785664,9.086506,130.32108,-2.612245,-5.7135615,1.0444885,-8.008904,-2.2088976,39.716007,-22.876451,5.2550893,-0.22960189,-2.5698972,27.596886,12.399986,19.064909,-1.6576238,38.50419,-2.1892226,1.3850476,16.004368,1.7876859,-18.436937,7.7253566,48.400013,2.4977658,5.3696566,-5.114802
94,-5.203127384185791,-0.031626321375370026,76.23899841308594,4.709864793172022,-11.428892919655551,-79.46035860241669,-72.71758,13.717948,8.451287,132.36119,-3.842073,-5.968843,0.95036227,-7.4886465,-1.3749267,41.242424,-24.824524,4.9581814,0.6818354,-2.4742098,28.755686,13.970206,18.832516,-0.13835391,40.58655,-5.186032,1.2491729,15.761552,-1.0371664,-19.462294,7.409656,45.738064,2.300833,5.3740044,-5.231421
95,-5.207120418548584,0.05083036422729492,75.71327209472656,4.601682628658073,-11.946437178446498,-80.49949693481359,-75.22049,13.63875,7.8732276,133.9758,-5.060342,-6.19848,0.604648,-6.9507704,-0.3888038,42.88969,-26.391533,4.786248,1.5081244,-2.3432992,29.68972,15.650291,18.489357,1.3288645,42.424824,-8.235783,1.084617,15.253219,-3.842875,-20.538322,7.169905,42.84102,1.9887215,5.3582416,-5.3097925
96,-5.21171236038208,0.12161491811275482,75.26165771484375,4.612003625411264,-12.146359190809694,-81.42193112705932,-77.58285,13.4137,7.514714,135.08342,-6.004122,-6.3992524,-0.040126614,-6.563318,0.51931477,44.452747,-27.66454,4.6363716,2.148724,-2.2897656,29.793802,17.275019,18.07913,2.3783293,44.571644,-11.134538,0.92827314,14.572367,-6.474152,-21.52404,7.040425,39.99526,1.4623692,5.316342,-5.432204
97,-5.226508617401123,0.16157838702201843,74.90572357177734,4.82743346207281,-12.056505932242674,-82.26278513313457,-79.740974,12.905867,7.4221015,135.59921,-6.6653433,-6.674064,-0.9926286,-6.404664,1.3923692,46.001175,-28.635963,4.5097046,2.6907082,-2.5067577,29.793802,18.90961,17.64706,3.2240932,46.406536,-14.08439,0.6755227,13.618371,-8.85079,-22.35068,6.6203165,36.392605,0.5120543,5.268384,-5.647855
98,-5.241407871246338,0.16446557641029358,74.66559600830078,5.171499132978935,-11.761448242725946,-83.08807866433477,-81.69316,12.233102,7.485536,135.59004,-7.1657844,-7.0097675,-2.2158666,-6.363198,2.3255224,47.595524,-29.2671,4.444254,3.1946964,-2.9524019,29.793802,20.5854,17.220556,3.9621758,47.856754,-17.130365,0.38149473,12.376346,-11.041463,-23.037523,5.9309154,32.11374,-0.78244597,5.2122,-5.9239664
99,-5.26975154876709,0.1488000601530075,74.53335571289062,5.515301678167915,-11.384571700581148,-83.77348069287012,-83.266975,11.603993,7.667366,135.20612,-7.5066514,-7.24553,-3.3952377,-6.3601336,3.1473608,48.933228,-29.588757,4.4043255,3.5740077,-3.4667127,29.575544,22.178913,16.837498,4.3938527,49.1966,-19.828506,0.25991228,11.105058,-13.012305,-23.612083,5.2308526,27.666134,-2.1108184,5.095378,-6.2526155
100,-5.303189754486084,0.12287158519029617,74.50767517089844,5.741735047260151,-11.099629220659471,-84.19355644699996,-84.22548,11.200564,7.955236,134.5986,-7.698884,-7.2233224,-4.1556597,-6.3464856,3.6726105,49.703255,-29.6364,4.366607,3.7639933,-3.8908567,29.207123,23.570358,16.538498,4.390865,50.465538,-21.717567,0.47574404,10.082336,-14.678245,-24.114624,4.664163,23.272743,-3.1730359,4.8595433,-6.6171193
101,-5.344110012054443,0.08634249120950699,74.5782699584961,5.814985323490577,-11.012863070860634,-84.24820382453439,-84.38671,11.185187,8.457582,133.78671,-7.7767854,-6.7263746,-4.275669,-6.3487964,3.7722893,49.737022,-29.425898,4.3220243,3.7136397,-4.193784,28.982882,24.69448,16.362867,3.8829563,51.525215,-22.650915,1.1586622,9.329476,-15.931303,-24.558973,4.08301,18.557293,-3.85173,4.521239,-6.986318
102,-5.395721435546875,0.03285209462046623,74.74645233154297,5.806698487219616,-11.010742960232852,-84.01888505745146,-83.89848,11.406713,9.193449,132.69383,-7.7413597,-5.888077,-4.0011544,-6.398633,3.5647297,49.23008,-28.937515,4.290755,3.4891179,-4.446753,28.782784,25.58011,16.326149,2.9345927,52.43627,-22.888536,2.1571867,8.714677,-16.777502,-24.943237,3.4131026,13.456194,-4.313097,4.100087,-7.372918
103,-5.445941925048828,-0.028585540130734444,75.00074768066406,5.764742189251542,-11.026526568004222,-83.657690868284,-82.915375,11.569498,10.012357,131.341,-7.566169,-5.074251,-3.5429738,-6.477358,3.227862,48.402004,-28.160545,4.2997217,3.2373147,-4.676706,28.553179,26.259209,16.39736,1.7364736,53.146008,-22.579832,3.184746,8.277081,-17.237005,-25.290646,2.7312376,8.215906,-4.681518,3.5461528,-7.8258862
104,-5.484304428100586,-0.10961998254060745,75.33464050292969,5.732920231816255,-10.995102005209061,-83.32122741677543,-81.62267,11.388442,10.7141285,129.74734,-7.1900406,-4.651428,-3.1107574,-6.5516524,2.9389033,47.465538,-27.078735,4.3726892,3.0851502,-4.898808,28.246025,26.800714,16.507706,0.49343237,53.55962,-21.866919,3.95939,8.064239,-17.36238,-25.633585,2.1441357,3.1014454,-5.0784507,2.8108294,-8.394214
105,-5.511070728302002,-0.2072296291589737,75.75016784667969,5.719747279931901,-10.910285184167527,-82.9915150677519,-79.99328,10.739077,11.247757,127.90811,-6.5949326,-4.7356896,-2.6823332,-6.6428604,2.6793077,46.375793,-25.6929,4.5006704,3.0127347,-5.1270485,27.862076,27.247599,16.607218,-0.83449095,53.537342,-20.473337,4.459111,8.259084,-17.1827,-26.003012,1.7106714,-1.8573819,-5.431614,1.8740612,-9.190869
106,-5.530945301055908,-0.3153546452522278,76.24131774902344,5.697706964441748,-10.80395775654213,-82.60801288393137,-77.96748,9.785951,11.669376,125.81521,-5.8104076,-5.1222634,-2.171825,-6.743649,2.3755264,45.054874,-24.010773,4.6730986,2.944103,-5.3271117,27.434042,27.576626,16.682049,-2.3129866,53.142242,-18.415894,4.827013,8.777746,-16.696253,-26.400581,1.3855567,-6.7961373,-5.709659,0.764611,-10.159122
107,-5.541395664215088,-0.4272373914718628,76.78950500488281,5.641928539739857,-10.667644869450086,-82.26536327090335,-75.69235,8.686704,11.916395,123.4838,-4.8297057,-5.696756,-1.695685,-6.779863,2.12439,43.667896,-22.024197,4.909653,2.9143791,-5.4495287,26.964062,27.791746,16.714533,-3.7600927,52.548725,-16.2705,5.0162654,9.2906885,-15.934607,-26.803291,1.1339982,-11.67121,-6.096466,-0.48877385,-11.100044
108,-5.54369592666626,-0.5542576909065247,77.38910675048828,5.529829585589229,-10.492496115058506,-82.05787283407145,-73.30353,7.6043973,11.943843,120.92628,-3.648243,-6.3454285,-1.3718532,-6.681791,2.026856,42.37781,-19.72177,5.231288,2.9429278,-5.4601774,26.450111,27.920074,16.682096,-4.9709816,51.91444,-14.605669,4.947757,9.479783,-14.962488,-27.169313,0.9466551,-16.397387,-6.7792287,-1.8570558,-11.82459
109,-5.529082298278809,-0.7006346583366394,78.02783203125,5.390970139465537,-10.260655010268719,-82.02159018315284,-70.78949,6.3980045,11.679759,118.10877,-2.191995,-7.206118,-1.2009273,-6.4657874,2.151787,41.143585,-17.060442,5.6578155,3.0607603,-5.3993635,25.859835,28.022602,16.564636,-5.850249,51.187977,-13.496666,4.466413,9.222833,-13.813387,-27.484919,0.8420434,-21.07002,-7.896032,-3.3332114,-12.300681
110,-5.512474060058594,-0.8539373874664307,78.68779754638672,5.223855948314096,-9.983090782626617,-82.10474071542349,-68.064735,5.0558815,11.1371355,115.04051,-0.51304865,-8.279879,-1.1332046,-6.15477,2.4433017,39.91303,-14.062697,6.177791,3.228407,-5.2877803,25.202322,28.092922,16.359211,-6.4898505,50.300648,-12.660856,3.6408834,8.725689,-12.50341,-27.749865,0.85594374,-25.66467,-9.334314,-4.9331737,-12.640521
111,-5.498777866363525,-1.0210500955581665,79.35729217529297,4.962517011560013,-9.69330268454386,-82.26850201812464,-65.15446,3.9370618,10.433471,111.79609,1.2226921,-9.257477,-1.205026,-5.691407,2.8140326,38.81449,-10.799261,6.768406,3.3568966,-5.0711546,24.531925,28.05982,16.076914,-6.9596276,49.384293,-12.128007,2.7174673,8.154136,-11.089474,-27.937153,1.0158191,-29.887943,-10.907346,-6.6637864,-12.87394
112,-5.49104642868042,-1.192827582359314,80.02372741699219,4.539776652762821,-9.42380735847621,-82.4707011475172,-62.10829,3.3987348,9.725778,108.44386,2.8752406,-9.834939,-1.4559981,-5.0197434,3.1705863,37.98111,-7.3359466,7.4064126,3.355155,-4.6987762,23.901499,27.859142,15.73586,-7.323505,48.56506,-11.920402,1.9495205,7.663466,-9.629917,-28.00262,1.3477546,-33.43475,-12.4376545,-8.534902,-13.021456
113,-5.478327751159668,-1.3669707775115967,80.67469787597656,3.89468069028652,-9.173097552373084,-82.70909037795873,-58.922195,3.6585612,9.085225,105.00007,4.5605106,-9.897779,-1.8638941,-4.059006,3.5164201,37.316936,-3.4253848,8.065766,3.2385845,-4.109981,23.295122,27.525846,15.325948,-7.4978824,47.80851,-12.1125765,1.3709687,7.122858,-8.100117,-27.912567,1.8678328,-36.32594,-13.907834,-10.8608,-12.958869
114,-5.468357086181641,-1.5308016538619995,81.30179595947266,3.079090074297396,-8.931997729614944,-83.00541300756491,-55.595097,4.495039,8.499292,101.42792,6.305875,-9.633779,-2.4097788,-2.8561258,3.8946579,36.784306,0.89514285,8.779439,3.0404727,-3.3654509,22.6938,27.083647,14.845251,-7.4611635,47.069042,-12.667016,0.86698955,6.5001807,-6.5313926,-27.66766,2.5922155,-38.65271,-15.412186,-13.550725,-12.721302
115,-5.457769870758057,-1.6869465112686157,81.89933013916016,2.1954869585813173,-8.71984744634422,-83.35081000075957,-52.188866,5.5901465,8.011202,97.7208,7.849071,-9.193976,-3.1349838,-1.5459332,4.2690377,36.595894,5.136675,9.603216,2.7069008,-2.590051,22.150581,26.450466,14.339428,-7.384626,46.452396,-13.432275,0.4670114,6.093035,-5.018107,-27.281954,3.5206497,-40.252575,-16.94263,-15.995573,-12.545051
116,-5.435990333557129,-1.8410229682922363,82.45726776123047,1.348609028674858,-8.552599190845582,-83.73253577437515,-48.747757,6.6244473,7.63374,93.86223,8.936819,-8.712387,-4.0884914,-0.26256248,4.60312,36.980865,8.799704,10.581133,2.2009761,-1.9040912,21.721228,25.544622,13.881553,-7.4635615,46.056767,-14.26377,0.19207281,6.19403,-3.594821,-26.777178,4.613771,-40.99675,-18.494707,-17.573456,-12.642776
117,-5.414999008178711,-1.9868642091751099,82.96981048583984,0.535584112633993,-8.44462443399648,-84.14804042449379,-45.20493,7.6345477,7.405644,89.79407,9.32817,-8.116964,-5.267432,0.9578837,4.852028,37.95104,11.816816,11.720253,1.5200536,-1.3012075,21.42734,24.320051,13.513362,-7.865005,45.90532,-15.305018,0.116215624,7.1054964,-2.1148412,-26.146568,5.932637,-40.917038,-20.239986,-17.96804,-13.159847
118,-5.386651515960693,-2.1075234413146973,83.42057037353516,-0.28656334230789576,-8.386075885082544,-84.59841848292274,-41.55526,8.722817,7.329068,85.54051,9.21225,-7.382664,-6.6684456,2.1857014,5.0357823,39.45132,14.418001,12.982676,0.71287125,-0.73198754,21.240107,22.829432,13.23573,-8.48086,45.938866,-16.59495,0.18089506,8.590541,-0.5446071,-25.39161,7.449457,-40.092915,-22.098816,-17.5489,-13.892638
119,-5.371947288513184,-2.204352617263794,83.7988052368164,-1.0784742997417636,-8.353517547446057,-85.075110144831,-37.9238,9.685812,7.2999187,81.19546,8.994222,-6.69172,-8.343586,3.4551692,5.205439,41.616806,16.543863,14.341071,-0.17923053,-0.23114245,21.133997,21.122528,13.059113,-9.109858,46.14527,-17.829056,0.22153658,10.126591,0.9298871,-24.547935,8.963339,-38.482555,-23.686604,-16.72925,-14.540613
120,-5.36775016784668,-2.279794454574585,84.08981323242188,-1.8128537490178394,-8.322921781569153,-85.57330821112278,-34.443226,10.360505,7.1716795,76.85457,9.081289,-6.215147,-10.359115,4.6652617,5.064249,44.582905,18.141027,15.000033,-1.1046458,0.18540846,21.086306,19.227243,12.999337,-9.568218,46.52145,-18.698915,0.111919396,11.182385,2.1492436,-23.659521,10.23573,-36.070435,-24.634686,-15.937484,-14.85932
121,-5.370718479156494,-2.339142322540283,84.29305267333984,-2.5123784988762523,-8.2921722737197,-86.1310416306108,-31.130146,10.755951,6.864456,72.42594,9.724978,-6.0537844,-12.784341,5.8188376,4.5445213,48.57207,19.140036,15.000033,-2.0620456,0.55793387,21.116365,17.080515,13.0655155,-9.87351,47.177322,-19.032457,-0.18755624,11.569013,3.15156,-22.72341,11.163942,-32.767483,-24.809855,-15.237839,-14.79624
122,-5.38749361038208,-2.3669450283050537,84.3949203491211,-3.3150356311730955,-8.27858098519179,-86.76851467237088,-27.957693,11.109244,6.3160105,67.97466,10.612991,-6.1234756,-15.554577,7.0139675,3.713986,53.40534,19.63801,15.000033,-3.0331955,1.0293884,21.241749,14.675084,13.260409,-10.129526,48.080555,-19.031092,-0.5870422,11.582509,4.0646253,-21.727488,11.852068,-28.671272,-24.42364,-14.423581,-14.5060835
123,-5.400332450866699,-2.3816521167755127,84.39851379394531,-4.054800957879861,-8.270497716063593,-87.39063568565857,-24.898418,11.301826,5.705556,63.643734,11.413723,-6.183056,-18.619656,8.03418,2.7436283,58.862778,19.664827,15.000033,-4.0026617,1.4244833,21.410149,12.105709,13.588985,-10.2933855,49.028282,-18.944283,-1.0019062,11.414697,4.8674903,-20.709555,12.351141,-24.046371,-23.642334,-13.513385,-14.094847
124,-5.4080424308776855,-2.369739055633545,84.29586791992188,-4.710185559093499,-8.261427704587556,-87.92804663877243,-21.980776,11.325819,5.054348,59.649372,11.762398,-6.0702424,-21.857788,8.828764,1.7031296,64.552055,19.35414,15.000033,-4.930591,1.7294497,21.57806,9.461359,14.049208,-10.331429,49.822227,-19.019833,-1.347524,11.250224,5.5331793,-19.735163,12.70686,-19.144161,-22.619648,-12.51862,-13.679657
125,-5.3971266746521,-2.3659489154815674,84.09339141845703,-5.259661916356186,-8.225447122328976,-88.38595406554916,-19.202759,10.976134,4.164704,55.921413,11.904887,-5.790511,-25.30731,9.468754,0.6489263,70.590004,18.500313,15.000033,-5.830645,1.9421358,21.713276,6.7397423,14.642924,-10.234483,50.51467,-19.394346,-1.659338,11.00127,6.067188,-18.84467,12.869268,-13.954259,-21.255085,-11.327495,-13.334918
126,-5.375627040863037,-2.3635809421539307,83.79319763183594,-5.72621851515277,-8.171397825656083,-88.79463775358782,-16.553576,10.333051,3.0467014,52.37855,11.92483,-5.4216285,-28.982735,10.008124,-0.43894583,77.0955,17.09932,15.000033,-6.7121787,2.0916424,21.845747,3.880328,15.366443,-10.057322,51.1905,-19.916403,-1.959535,10.607251,6.5253553,-18.043936,12.809765,-8.426383,-19.502407,-9.955096,-13.029569
127,-5.353752613067627,-2.355130434036255,83.40419006347656,-6.156475615447729,-8.143130844440245,-89.11811443464532,-14.050768,9.76587,2.0473182,49.184063,11.235007,-4.951051,-32.72398,10.401598,-1.5825052,83.67517,15.600817,15.000033,-7.536801,2.2114534,22.021843,0.8762664,16.195932,-9.863677,51.713123,-20.39501,-2.1467378,10.294809,6.9390697,-17.348812,12.614665,-2.7120202,-17.590279,-8.606255,-12.712884
128,-5.3431878089904785,-2.3272955417633057,82.92326354980469,-6.589619456761683,-8.184376792028115,-89.31886006389894,-11.711548,9.597449,1.529168,46.47058,9.263292,-4.40637,-36.37791,10.583095,-2.7911975,89.94022,14.470363,15.000033,-8.279318,2.3295984,22.285845,-2.2746959,17.094116,-9.702351,51.94725,-20.630812,-2.1260386,10.294375,7.3330717,-16.78302,12.386513,3.0602126,-15.741553,-7.479877,-12.314976
129,-5.342753887176514,-2.3128812313079834,82.37117767333984,-7.04860808577989,-8.298721242899138,-89.40383931718725,-9.431784,9.973125,1.761875,44.144928,5.3825336,-3.7870665,-39.960617,10.516524,-4.1235704,95.900665,13.9256525,15.000033,-8.941124,2.4688606,22.633884,-5.614789,18.046938,-9.575403,51.93599,-20.493803,-1.7826215,10.828236,7.644727,-16.393316,12.121113,9.001617,-13.941214,-6.640883,-11.830801
130,-5.345759391784668,-2.278144359588623,81.74625396728516,-7.509320148597492,-8.463786468662585,-89.38438423886718,-7.195072,10.601375,2.4526448,42.057617,0.10264945,-3.2728434,-43.51721,10.249741,-5.508249,101.7494,13.676741,15.000033,-9.544296,2.6164448,23.042583,-9.15654,19.046,-9.487996,51.752926,-20.11614,-1.1956602,11.717487,7.926988,-16.196217,11.776892,15.100762,-12.068061,-5.9634748,-11.287784
131,-5.362273216247559,-2.234358072280884,81.09091186523438,-7.925831059814326,-8.68148703434687,-89.23124428002065,-5.1658144,11.21198,3.1865165,40.282272,-5.428006,-3.0165715,-46.956364,9.867765,-6.8010316,107.35273,13.454644,15.000033,-10.105373,2.7363794,23.520233,-12.834675,20.055765,-9.46354,51.294792,-19.682333,-0.56880385,12.597929,8.342557,-16.14644,11.417857,21.102291,-10.193452,-5.358985,-10.639986
132,-5.396336078643799,-2.1855435371398926,80.40824890136719,-8.27979292530925,-8.95436069123429,-88.91686852871447,-3.5657358,11.646035,3.5880976,39.0302,-10.142629,-2.944484,-50.194675,9.480308,-7.884234,112.55473,12.995886,15.000033,-10.642485,2.8093746,24.072382,-16.568863,21.038301,-9.501246,50.4555,-19.358477,-0.11910147,13.121227,9.003097,-16.162222,11.114814,26.818924,-8.413663,-4.7429047,-9.836848
133,-5.452906131744385,-2.110858201980591,79.7066650390625,-8.567723889690434,-9.38492389592147,-88.42293112542774,-2.4497988,11.944969,3.6353369,38.57759,-13.943501,-2.8787813,-53.192936,9.16479,-8.75257,117.365524,12.278803,15.000033,-11.120365,2.789185,24.79926,-20.423246,21.999714,-9.580581,49.199303,-19.21417,0.090059325,13.253464,9.846551,-16.206495,10.874533,32.42493,-6.750762,-4.1772075,-8.804859
134,-5.531366348266602,-2.024657726287842,78.99925994873047,-8.813669758171995,-9.936218193522528,-87.76987103034347,-1.7332776,12.216357,3.5248375,38.83608,-17.403069,-2.7531452,-56.01357,8.893689,-9.509135,121.85938,11.429453,15.000033,-11.535701,2.6920836,25.649986,-24.399652,22.954332,-9.7152,47.584534,-19.143183,0.1683058,13.174583,10.816773,-16.27881,10.665726,38.01842,-5.173528,-3.6653214,-7.5779877
135,-5.62980318069458,-1.931203007698059,78.30480194091797,-9.05640499544323,-10.403947852334737,-86.98991189849936,-1.4483339,12.426491,3.2054582,39.52671,-20.526344,-2.5968878,-58.73325,8.616031,-10.194488,125.95835,10.414885,15.000033,-11.95951,2.6008067,26.407274,-28.301414,23.877895,-9.919132,45.628586,-19.0387,0.1500032,12.866441,11.987901,-16.343119,10.511363,43.337875,-3.7238822,-3.0429814,-6.2692227
136,-5.722446918487549,-1.8565009832382202,77.65031433105469,-9.321295809564914,-10.582476512575404,-86.11991016957111,-1.6230166,12.562612,2.6255138,40.35228,-23.300303,-2.4720042,-61.434338,8.256523,-10.824466,129.56888,9.217198,15.000033,-12.454541,2.6113071,26.851892,-31.942877,24.73264,-10.193149,43.36221,-18.78553,0.065312676,12.316487,13.407727,-16.3514,10.430913,48.14886,-2.465594,-2.1599112,-5.0001283
137,-5.83112096786499,-1.8060239553451538,77.05815887451172,-9.674943990123307,-10.333044810507614,-85.0832495167094,-2.4719608,12.678194,1.6202697,41.3874,-25.794544,-2.433699,-64.35271,7.7365546,-11.431386,132.66655,7.8156314,15.000033,-13.04966,2.833858,26.876852,-35.395416,25.48556,-10.555485,40.74207,-18.498127,-0.14739802,11.352728,15.13465,-16.267162,10.422643,52.50795,-1.4007014,-0.92675066,-3.7792878
138,-5.935283660888672,-1.7782012224197388,76.52503967285156,-10.040953577504688,-9.799245760702021,-83.86120911170907,-3.883103,12.687837,0.24782081,42.709812,-27.984407,-2.4378815,-67.376854,7.166544,-11.909631,135.3318,6.1950216,15.000033,-13.709513,3.1719623,26.616295,-38.729343,26.142656,-11.002858,37.78417,-18.187002,-0.49375796,10.054885,17.101673,-16.095514,10.461383,56.580433,-0.5365696,0.5454026,-2.5590787
139,-6.018571376800537,-1.765806794166565,76.05134582519531,-10.325606083525429,-9.17588389507425,-82.68565002363539,-5.445114,12.574582,-1.1498982,44.092453,-29.74885,-2.4599826,-70.13466,6.5462546,-12.217138,137.55348,4.51518,15.000033,-14.303021,3.529533,26.20185,-41.74691,26.736446,-11.480644,34.585632,-17.569824,-0.8623278,8.7791395,19.166945,-15.8587475,10.536416,60.272297,0.0609391,2.0935357,-1.3707085
140,-6.0633440017700195,-1.7410821914672852,75.66488647460938,-10.452466258096145,-8.661134315802924,-81.7842681014542,-6.7576737,12.350245,-2.2263083,45.308735,-30.961342,-2.47533,-72.26266,5.87525,-12.308999,139.31302,2.9541137,15.000033,-14.705282,3.8035047,25.766493,-44.269882,27.321396,-11.944957,31.247417,-16.37677,-1.1435499,7.873317,21.19154,-15.5880375,10.636914,63.45895,0.33992508,3.5508235,-0.23594469
141,-6.087247848510742,-1.715014934539795,75.38903045654297,-10.375902424434928,-8.27659917583855,-81.17941106131312,-7.855912,11.970977,-2.93974,46.448105,-31.481133,-2.49607,-73.71551,5.0185394,-12.128969,140.61346,1.4693903,15.000033,-14.923237,3.9375966,25.322378,-46.255,27.931334,-12.359817,27.627678,-14.2822485,-1.2251582,7.4219103,23.173203,-15.284207,10.776389,66.112206,0.17901403,4.9638515,0.9234718
142,-6.102750301361084,-1.7156790494918823,75.2376480102539,-10.152703067610094,-7.93660185446348,-80.75001628089328,-8.895466,11.456888,-3.455021,47.566235,-31.406536,-2.5515018,-74.69479,3.9961472,-11.700127,141.46587,0.023930803,15.000033,-15.033193,3.9890676,24.82417,-47.768394,28.577198,-12.733244,23.680792,-11.521323,-1.1816304,7.227569,25.159105,-14.945616,10.967057,68.31426,-0.3575829,6.3650355,2.1179411
143,-6.111825466156006,-1.74276864528656,75.20857238769531,-9.867551042499102,-7.676664638762688,-80.50976219765683,-9.674186,10.942539,-3.7460546,48.393536,-30.967007,-2.6236556,-75.1697,2.7333,-11.2485895,141.85707,-1.1462859,14.560316,-15.024073,4.01517,24.322254,-48.771866,29.266832,-13.040853,19.614008,-8.630564,-1.1666142,7.217797,27.082,-14.607631,11.2007885,70.06812,-1.0208721,7.5854993,3.2154622
144,-6.110249996185303,-1.8042454719543457,75.29386901855469,-9.604691132646604,-7.525536250905382,-80.4779683891753,-9.998012,10.563739,-3.795155,48.662525,-30.390635,-2.6816359,-75.132225,1.3228418,-10.967935,141.77313,-1.8381178,13.443581,-14.909114,4.071889,23.872196,-49.16635,29.983377,-13.183671,15.5870695,-6.089992,-1.3364152,7.334114,28.854816,-14.3267355,11.486497,71.37872,-1.5434983,8.464315,4.069533
145,-6.083201885223389,-1.887290596961975,75.47650909423828,-9.388513349850799,-7.532043157061555,-80.7373729673109,-9.701493,10.39185,-3.5100758,48.209988,-29.748335,-2.6882315,-74.55418,0.18276484,-10.816723,141.16956,-2.0004733,12.050456,-14.648143,4.2149663,23.51739,-48.885822,30.728733,-13.070253,11.565667,-3.891144,-1.7735804,7.7035747,30.51031,-14.149108,11.832699,72.09602,-1.8848937,8.980448,4.5886784
146,-6.011506080627441,-1.980588436126709,75.73955535888672,-9.179892071815088,-7.664528783213738,-81.25489330416292,-8.930946,10.3473425,-2.9408865,47.211826,-28.915867,-2.6634166,-73.434525,-0.80804336,-10.76191,140.07146,-1.7982454,10.42911,-14.261907,4.4397454,23.226412,-48.007225,31.529514,-12.711688,7.4822764,-1.8521816,-2.3589532,8.31495,32.103374,-14.081011,12.203632,72.230934,-2.1570582,9.217036,4.869113
147,-5.918656349182129,-2.0858914852142334,76.081298828125,-8.946536812006215,-7.823535452012905,-81.87991267678561,-7.963833,10.315472,-2.270874,45.90368,-27.825294,-2.648472,-71.9493,-1.6047387,-10.731162,138.54668,-1.3558558,8.931232,-13.890239,4.666312,22.945673,-46.50472,32.33971,-12.089031,3.3534112,-0.06558631,-2.9680786,8.916494,33.521793,-14.118126,12.593707,72.060646,-2.3162804,9.178901,5.031955
148,-5.824680805206299,-2.2061607837677,76.50125885009766,-8.666917603670015,-7.907835233786334,-82.4612539538536,-7.0824895,10.190218,-1.6823368,44.523415,-26.4078,-2.6808324,-70.29737,-2.15748,-10.620437,136.66327,-0.7539779,7.9195867,-13.606759,4.8511734,22.603413,-44.55824,33.124786,-11.297787,-0.6223656,1.2479466,-3.5054142,9.243626,34.713314,-14.241029,12.942401,71.832115,-2.321892,8.869116,5.2051067
149,-5.733882427215576,-2.347973585128784,76.98847961425781,-8.310324786436075,-7.890316224726577,-83.01949183731044,-6.253752,9.931651,-1.1647058,42.95325,-24.626383,-2.74941,-68.47439,-2.4082081,-10.339032,134.4102,0.085224666,7.5363827,-13.39781,4.959506,22.159992,-42.078598,33.829758,-10.289697,-4.510282,2.0123134,-3.9949868,9.181616,35.657757,-14.443194,13.257709,71.5585,-2.1304522,8.144969,5.403243
150,-5.656593322753906,-2.504502534866333,77.52925872802734,-7.894049010178078,-7.8177781703864895,-83.62077090438827,-5.3675814,9.581911,-0.6278122,41.13182,-22.52602,-2.8368492,-66.38972,-2.3762488,-9.921541,131.75946,1.1817998,7.5958495,-13.201997,5.03045,21.64915,-39.08667,34.430004,-9.065009,-8.309423,2.3290482,-4.491542,8.882244,36.403793,-14.7208,13.543529,71.1158,-1.7750436,7.053637,5.570581
151,-5.602962493896484,-2.6671671867370605,78.11105346679688,-7.462184543635486,-7.704754252767737,-84.1780215605303,-4.597835,9.174818,-0.14138964,39.386906,-20.157942,-2.9600644,-64.12012,-2.139201,-9.437825,128.74294,2.4031277,7.9588537,-13.066498,5.071038,21.123985,-35.72717,34.894497,-7.7469683,-11.878844,2.3927445,-4.9398503,8.4937,36.925293,-15.045939,13.808342,70.604034,-1.3272665,5.8828635,5.72282
152,-5.574946403503418,-2.836390495300293,78.72337341308594,-7.056812985021349,-7.567748473661232,-84.60301392783101,-4.1234627,8.767043,0.21555059,38.045746,-17.567852,-3.1343832,-61.738895,-1.7739263,-8.955943,125.38423,3.61462,8.487645,-13.021541,5.089297,20.632105,-32.18338,35.189365,-6.501572,-15.043494,2.4122694,-5.2846045,8.166738,37.19944,-15.369462,14.054855,70.13111,-0.8582396,4.9191065,5.865477
153,-5.570552825927734,-3.007295608520508,79.35159301757812,-6.7061502353648645,-7.401015463305106,-84.8851610193928,-3.9563744,8.400085,0.40474898,37.098278,-14.658292,-3.3820775,-59.227512,-1.1724538,-8.43016,121.640114,4.832601,9.25129,-13.048017,5.096059,20.149975,-28.479053,35.274586,-5.4226236,-17.763168,2.3491638,-5.498854,7.8799505,37.2072,-15.645522,14.263838,69.75623,-0.30326378,4.178812,6.018768
154,-5.589133262634277,-3.172779083251953,79.98396301269531,-6.37373409051125,-7.198899277314835,-85.06290556059912,-4.020511,8.037874,0.4608314,36.398376,-11.434481,-3.7029254,-56.533073,-0.35005766,-7.7719855,117.51879,6.0855637,10.284218,-13.088018,5.082569,19.647432,-24.643518,35.129837,-4.538409,-20.05789,2.1489239,-5.6177897,7.5690374,36.97946,-15.853281,14.414759,69.42689,0.34322932,3.5278816,6.1644387
155,-5.615487098693848,-3.327069044113159,80.60538482666016,-6.01611833699891,-6.980792549967496,-85.12110315441917,-4.358521,7.634254,0.41170132,36.05571,-8.087691,-4.087103,-53.68587,0.41873556,-7.02537,113.106064,7.271552,11.382049,-13.116993,5.0346823,19.162535,-20.872425,34.774685,-3.915562,-21.834297,1.9964277,-5.68078,7.314809,36.56728,-15.984576,14.505974,69.08382,0.9200264,3.0249286,6.2388535
156,-5.641340255737305,-3.4698195457458496,81.2024917602539,-5.595460240477918,-6.766587979732837,-85.04808845128913,-5.010418,7.1442547,0.294129,36.180965,-4.8063316,-4.519384,-50.73317,0.8627687,-6.2892184,108.47321,8.312418,12.334761,-13.121057,4.9361224,18.736345,-17.342127,34.25769,-3.595323,-23.005005,2.0670063,-5.7265267,7.200007,36.011845,-16.040245,14.545968,68.673065,1.264544,2.727108,6.175566
157,-5.6786041259765625,-3.592471122741699,81.77003479003906,-5.080605850243392,-6.553526490063858,-84.82026914954682,-6.005732,6.475369,0.01763495,36.72429,-1.3983219,-5.040171,-47.672474,0.87815994,-5.5881042,103.575554,9.232431,13.130222,-13.134696,4.7510595,18.36543,-14.013835,33.61542,-3.6336203,-23.54285,2.4021769,-5.7743497,7.296956,35.268677,-16.013657,14.554458,68.21949,1.31028,2.7302897,5.9444723
158,-5.713294982910156,-3.702324151992798,82.31172180175781,-4.497533473002058,-6.339827151533676,-84.45041338357952,-7.2997456,5.6518435,-0.41686904,37.616665,2.1728864,-5.7092714,-44.485435,0.5885606,-4.9160905,98.38998,10.068177,13.837131,-13.154076,4.4917407,18.028902,-10.852076,32.868332,-4.0350866,-23.474989,2.9059095,-5.7992105,7.543916,34.3318,-15.898768,14.523346,67.74773,1.1514547,2.9777398,5.580419
159,-5.754788875579834,-3.795639753341675,82.8033218383789,-3.8944137525784472,-6.146748217274405,-83.98524896506083,-8.828951,4.8173757,-0.81153136,38.964504,5.477304,-6.480262,-41.205887,0.091613606,-4.3505764,93.00681,10.770693,14.38558,-13.117525,4.2139373,17.746304,-8.002683,32.05292,-4.7130866,-22.809235,3.5367672,-5.772034,7.824959,33.28536,-15.714401,14.426931,67.21658,0.86599535,3.2927227,5.1148725
160,-5.7994608879089355,-3.877784252166748,83.2400894165039,-3.325114659518886,-5.992458215003393,-83.47383788717126,-10.555734,4.1476383,-0.93992424,40.931786,8.067655,-7.2194047,-37.872513,-0.5179647,-3.9893527,87.504074,11.301683,14.672168,-12.977768,3.9701211,17.540823,-5.5586257,31.209206,-5.5303464,-21.587265,4.2429466,-5.664498,8.028208,32.209557,-15.494107,14.2578125,66.57132,0.53323776,3.5049512,4.5829225
161,-5.844404697418213,-3.9413247108459473,83.61260223388672,-2.8079193769149913,-5.887955614468669,-82.88515298080678,-12.5026655,3.694076,-0.77789533,43.65483,9.85988,-7.9287963,-34.43979,-1.3027383,-3.9537902,81.77463,11.571521,14.568621,-12.776073,3.7753701,17.45412,-3.452772,30.352604,-6.4193625,-19.806252,5.0709934,-5.4527884,8.088141,31.109867,-15.25437,14.011507,65.76927,0.08762448,3.5874462,3.9961007
162,-5.89892578125,-3.982787609100342,83.89607238769531,-2.3199356993015283,-5.822765505299021,-82.21181188802703,-14.705695,3.423886,-0.40424865,47.096527,11.057189,-8.557043,-30.900772,-2.2441123,-4.2107706,75.80477,11.633604,14.155709,-12.535829,3.5971818,17.46389,-1.6037346,29.487326,-7.4081287,-17.482365,6.0145254,-5.1585364,8.083561,29.944893,-14.998933,13.711415,64.84166,-0.47948983,3.6313071,3.3427873
163,-5.977588653564453,-4.021186828613281,84.09705352783203,-1.8495386061086097,-5.7793909638104335,-81.5368922710116,-17.152222,3.4397984,0.26315108,51.176823,11.646201,-8.831758,-27.35227,-3.1212697,-4.5775914,69.793884,11.662741,13.6575985,-12.193402,3.4172547,17.503876,-0.0459719,28.63541,-8.465887,-14.693541,6.936199,-4.8194647,8.122961,28.714748,-14.75093,13.400677,63.846275,-1.0068309,3.6390982,2.6230175
164,-6.073892116546631,-4.051331996917725,84.20026397705078,-1.3843400624926847,-5.739479087489642,-80.94121203955456,-19.810085,3.8396287,1.2865655,55.787693,11.61688,-8.506066,-23.900593,-3.758707,-4.8366423,63.930603,11.843203,13.277771,-11.699664,3.2096853,17.513472,1.2117931,27.827505,-9.537972,-11.539087,7.6907234,-4.4693494,8.319681,27.415186,-14.545174,13.136597,62.83553,-1.3301995,3.609664,1.8418012
165,-6.1933441162109375,-4.085179328918457,84.19971466064453,-0.9397485738604977,-5.684291077286523,-80.41966795308831,-22.700314,4.821278,2.806135,61.142574,10.577871,-7.2882667,-20.545368,-4.1120934,-4.951209,58.00529,12.67201,13.103845,-11.047978,2.9742825,17.472075,2.1774647,27.073612,-10.59216,-7.9535174,8.293079,-4.126435,8.755126,26.05806,-14.402729,13.01033,61.826878,-1.3437282,3.5133195,0.9732634
166,-6.329778671264648,-4.122208595275879,84.08990478515625,-0.5225754690797785,-5.629337981399795,-79.94095294520426,-25.764471,6.3995,4.631329,67.226906,8.588137,-5.3291016,-17.240164,-4.3036313,-4.9840302,51.986794,13.898255,12.990009,-10.283343,2.7179477,17.426956,2.9400642,26.369785,-11.597996,-3.9801056,8.786578,-3.7655044,9.359081,24.636219,-14.323424,12.993495,60.776134,-1.1505724,3.357364,0.034437764
167,-6.483081817626953,-4.163865566253662,83.8613052368164,-0.1010283364928257,-5.607494699503993,-79.5446133696977,-28.87114,8.315175,6.363589,73.58541,6.3486595,-3.0931084,-14.03824,-4.421598,-4.8629613,46.324444,14.610247,12.793399,-9.437494,2.4198143,17.420208,3.594699,25.728195,-12.508473,0.13476144,9.066496,-3.3539174,10.020158,23.110992,-14.310006,12.964551,59.658886,-0.90234756,3.1875541,-0.9057746
168,-6.644430637359619,-4.192777156829834,83.5279312133789,0.34954461087846456,-5.648824624492,-79.26941644413697,-31.942717,10.265337,7.7231345,79.76687,4.633713,-1.034591,-10.99387,-4.5213814,-4.5287614,41.433716,13.928254,12.394452,-8.540425,2.0565498,17.492723,4.2127433,25.170935,-13.287227,4.162718,9.023322,-2.8619232,10.63161,21.444086,-14.36952,12.801486,58.44922,-0.7498629,3.0562007,-1.779349
169,-6.806875228881836,-4.223944664001465,83.09449768066406,0.8986997909726177,-5.708616159784082,-79.11921786022948,-35.016853,12.2955885,8.916324,85.8011,3.6531308,0.89836514,-8.080667,-4.5640583,-3.7411222,37.29704,11.313706,11.884192,-7.5602164,1.5600199,17.572325,4.7475796,24.725107,-13.969341,8.159442,8.538256,-2.3082707,11.2480545,19.664862,-14.510901,12.500918,57.174572,-0.7423327,2.978538,-2.5831766
170,-6.967662811279297,-4.253061294555664,82.57257080078125,1.5121854352476962,-5.7876864832875805,-79.08823502892749,-38.097893,14.544969,10.013237,91.89565,2.9858572,2.9174519,-5.2752786,-4.543158,-2.5673225,33.628437,7.3988867,11.292955,-6.484451,0.9541038,17.676094,5.198421,24.394667,-14.549543,12.190292,7.681957,-1.707392,11.910218,17.778446,-14.733208,12.132399,55.836823,-0.7941052,2.9295053,-3.3450243
171,-7.1504058837890625,-4.2770094871521,82.01039123535156,2.0652687012442206,-5.978947944744997,-79.19609745347893,-41.155262,16.752531,10.62532,97.86862,2.5518405,4.752973,-2.6562777,-4.49406,-1.3938037,30.476788,3.0352266,10.491249,-5.3788853,0.3612863,17.96693,5.683593,24.159763,-14.935651,16.064425,6.6344414,-1.0211384,12.486556,15.706339,-15.03265,11.686403,54.37503,-0.8524225,2.9038618,-4.046175
172,-7.315945625305176,-4.2652058601379395,81.37613677978516,2.4283121376492542,-6.371649549988415,-79.44290994659006,-44.23467,18.53113,10.375209,103.51723,2.3310678,6.0465007,-0.29654095,-4.3989725,-0.6163271,27.9137,-0.96336824,9.404376,-4.329708,-0.07687819,18.592455,6.3141704,23.9855,-15.03745,19.59966,5.584559,-0.20177874,12.840905,13.371273,-15.406865,11.153935,52.72742,-0.8651121,2.895025,-4.668534
173,-7.467677593231201,-4.211520195007324,80.70767211914062,2.5856821779425605,-7.02378719581213,-79.8057348968826,-47.434853,19.604847,9.200032,108.867584,2.4974446,6.576124,1.8464532,-4.2796164,-0.49088454,25.95643,-4.6422925,7.9019213,-3.3680239,-0.33091974,19.616554,7.0776076,23.860315,-14.800586,22.722137,4.585325,0.89758414,12.963679,10.738778,-15.87634,10.497982,50.89015,-0.7620356,2.9123666,-5.198207
174,-7.59727668762207,-4.135385036468506,80.01876831054688,2.6170801928496337,-7.865487154141078,-80.26007092357308,-50.755154,19.949505,7.3827724,114.00133,3.0727525,6.380228,3.7962997,-4.101871,-0.7316609,24.570734,-8.410496,6.164521,-2.4853697,-0.4657657,20.92274,7.939281,23.78023,-14.274124,25.551659,3.5439973,2.2144716,12.924105,7.8552637,-16.455082,9.75979,48.895813,-0.58647734,2.9555254,-5.646839
175,-7.692579746246338,-4.027116298675537,79.31391143798828,2.5469247999042484,-8.792148664623955,-80.78468931958726,-54.086838,19.511198,5.15813,118.78426,3.8240511,5.493815,5.4468093,-3.8141303,-0.9854255,23.779097,-12.015804,4.543401,-1.7157885,-0.49976668,22.37038,8.953527,23.710047,-13.537899,28.220722,2.4431183,3.490532,12.691044,4.7603526,-17.125465,9.037301,46.74684,-0.45910785,3.0038004,-6.0386868
176,-7.74547815322876,-3.892838954925537,78.60582733154297,2.400510427204284,-9.702485670455646,-81.36894387669692,-57.29128,18.379686,2.8128235,123.07547,4.491189,4.0790577,6.6763024,-3.4070003,-0.9355651,23.629309,-15.172493,3.328687,-1.0788614,-0.45969343,23.816412,10.145434,23.598469,-12.681976,30.888939,1.2768294,4.4696326,12.22265,1.4802772,-17.851402,8.423208,44.46323,-0.5043846,3.0377884,-6.4036183
177,-7.734477519989014,-3.7296011447906494,77.915283203125,2.116628000792004,-10.747020751819099,-82.00877246991767,-60.282223,16.29665,0.26031643,126.8788,5.1122885,1.9094542,7.548321,-2.8378158,-0.6015872,24.324585,-17.86396,2.5264935,-0.62482387,-0.3073212,25.42202,11.5235405,23.420813,-11.667705,33.6924,0.22580713,5.037884,11.41462,-2.140566,-18.63866,7.974923,42.1089,-0.7466152,3.0747182,-6.78873
178,-7.67341947555542,-3.5553157329559326,77.27603149414062,1.7734063549416446,-11.93738040391849,-82.68870536642393,-62.910828,13.462663,-2.1516268,130.28342,5.621268,-0.79834926,8.09324,-2.2655704,-0.17028178,25.863096,-20.27091,1.9817594,-0.35986742,-0.100004114,27.17595,13.062061,23.162394,-10.471021,36.55153,-0.7514685,5.359547,10.302267,-6.0915504,-19.48995,7.677467,39.6935,-1.1203352,3.1198072,-7.168824
179,-7.593819618225098,-3.381944417953491,76.7352523803711,1.546322685223978,-12.961720585281412,-83.42488550982249,-65.19191,10.780893,-3.871654,133.26183,5.7331657,-3.227852,8.137991,-1.8749844,0.41507685,27.93646,-22.33783,1.6906426,-0.17315917,0.051800467,28.685764,14.6672945,22.78421,-9.246975,39.35054,-1.9881672,5.6022067,9.056709,-10.088943,-20.346363,7.466592,37.152203,-1.6280721,3.135089,-7.4759984
180,-7.496983528137207,-3.210273265838623,76.2894515991211,1.5343582655454642,-13.484411628930097,-84.25171139148203,-67.39271,8.969915,-4.7638264,135.76419,5.3873935,-4.787257,7.4986696,-1.7145762,1.2048998,30.159485,-23.951279,1.6361065,0.07592851,0.09859862,29.552809,16.211832,22.253748,-8.170752,42.004345,-3.8063345,5.939931,7.8675017,-13.845282,-21.133913,7.236147,34.419792,-2.2914813,3.0805879,-7.6541142
181,-7.3465423583984375,-3.0407254695892334,75.95799255371094,1.7395034295111564,-13.237418103374207,-85.35149695355393,-69.93987,8.080911,-5.1105623,137.72997,4.6696434,-5.566989,5.6677394,-1.6946102,2.4098303,32.821503,-24.96147,1.9428698,0.51059866,0.05656745,29.527836,17.699345,21.515867,-7.209803,44.61964,-6.79775,6.390069,6.6725106,-17.431728,-21.806065,6.923397,31.50303,-3.2998133,2.9376428,-7.650755
182,-7.154172897338867,-2.901172161102295,75.72023010253906,2.033132427125778,-12.458555721273658,-86.67051396198586,-72.7221,7.657205,-5.27861,139.20598,3.7046945,-5.9940505,2.9375367,-1.6580019,3.939996,35.91347,-25.43326,2.600985,1.0437589,-0.013923141,28.879827,19.157578,20.577719,-6.3062363,47.242455,-10.606383,6.914268,5.432485,-20.997828,-22.372728,6.6019607,28.470533,-4.603474,2.7229474,-7.5307117
183,-6.954528331756592,-2.834909677505493,75.58987426757812,2.312001111236581,-11.552788714560297,-87.89058252199061,-75.26643,7.5439386,-5.3588586,140.28484,2.6111197,-6.0705075,0.27279037,-1.5775045,5.382164,38.63393,-25.567728,3.3625937,1.5048472,-0.09924311,27.999964,20.531582,19.553043,-5.5770273,49.638233,-14.143116,7.548922,4.3818502,-24.350182,-22.860138,6.3380203,25.30074,-5.8620296,2.4529486,-7.4071665
184,-6.799128532409668,-2.827399969100952,75.54132843017578,2.516131771402982,-10.921084246258703,-88.70154487908134,-77.097885,7.642997,-5.3413873,141.05623,1.5024412,-5.7370877,-1.4161105,-1.5402931,6.3228498,40.230656,-25.55787,3.9109464,1.7474551,-0.20634376,27.282326,21.771208,18.61553,-5.1443086,51.5372,-16.349386,8.266964,3.7336104,-27.228882,-23.29955,6.143444,21.894205,-6.735039,2.154984,-7.377655
185,-6.714195728302002,-2.8457114696502686,75.57984924316406,2.6623469230696077,-10.67162355273266,-88.9640178421708,-78.109314,8.141931,-5.1789494,141.53961,0.2613699,-4.715854,-1.8422161,-1.6652955,6.575354,40.403328,-25.458954,4.103125,1.7365496,-0.38109565,26.835241,22.83685,17.89891,-5.1104016,52.84778,-16.770464,9.202398,3.5672035,-29.433657,-23.681906,5.883758,17.97919,-7.074126,1.8893361,-7.4287224
186,-6.704141139984131,-2.8865861892700195,75.72122955322266,2.812240978667279,-10.586017899484455,-88.85649585001816,-78.534615,9.086876,-4.810152,141.68451,-1.1710631,-3.0529869,-1.5287522,-1.9656274,6.3933086,39.626312,-25.174543,4.0965304,1.6149902,-0.6627462,26.461128,23.75294,17.419867,-5.4059787,53.693684,-16.084084,10.295357,3.7069411,-31.008713,-24.003681,5.459444,13.5439625,-7.084027,1.6271553,-7.5061293
187,-6.740359783172607,-2.957564115524292,75.96227264404297,2.991735600744213,-10.573389789853422,-88.55198930654637,-78.4269,10.165412,-4.1889987,141.48082,-2.545908,-1.1767501,-0.8145879,-2.3965771,6.023592,38.316067,-24.646358,3.9910898,1.4862177,-1.0364786,26.09271,24.569828,17.146767,-5.88318,54.121864,-14.926481,11.208761,3.9775996,-32.087883,-24.317678,4.9637446,8.890209,-6.940979,1.2629653,-7.635899
188,-6.7822136878967285,-3.058668851852417,76.29782104492188,3.1967037543655388,-10.543067633875333,-88.23458745412351,-77.8728,10.971325,-3.3838005,140.92183,-3.5417883,0.3750594,-0.043836847,-2.8618186,5.701833,36.857727,-23.801714,3.8976653,1.4523035,-1.4320699,25.672632,25.33567,17.011868,-6.407804,54.173706,-13.920732,11.594516,4.2402124,-32.821445,-24.696148,4.517514,4.3271813,-6.8106484,0.690865,-7.840705
189,-6.8182549476623535,-3.1771135330200195,76.70449829101562,3.375482999584074,-10.514775679484664,-87.87487696469758,-76.83419,11.440871,-2.454844,140.02359,-4.102164,1.5677034,0.8646888,-3.2840886,5.391075,35.103485,-22.607653,3.7700303,1.4990796,-1.7824885,25.219164,26.05633,16.987513,-7.042689,53.753845,-13.084357,11.26427,4.6173286,-33.21031,-25.202278,4.1500306,-0.1557409,-6.522783,-0.15268219,-8.156016
190,-6.830967426300049,-3.299246311187744,77.16912078857422,3.5329594005095846,-10.522311899239966,-87.39961384160887,-75.28437,11.741292,-1.36821,138.7875,-4.3772655,2.6333382,2.0211298,-3.6852634,4.9737916,32.928436,-21.115084,3.5876377,1.5875372,-2.091164,24.759777,26.67402,17.072502,-7.8479414,52.900852,-12.112413,10.437767,5.15082,-33.184227,-25.84555,3.79477,-4.7237782,-6.031761,-1.2011917,-8.549213
191,-6.807260036468506,-3.4213173389434814,77.68869018554688,3.7182151923838465,-10.495558612572811,-86.93876022087588,-73.38561,11.775397,-0.17119086,137.1744,-4.2613463,3.3814592,3.119606,-4.090352,4.5673075,30.736528,-19.357018,3.4840972,1.776828,-2.3716152,24.256657,27.16118,17.225218,-8.675719,51.83653,-11.14501,9.360871,5.601348,-32.814312,-26.59382,3.4518793,-9.270077,-5.7046313,-2.359812,-8.955388
192,-6.739102840423584,-3.556602716445923,78.26803588867188,3.981635555701046,-10.362493381181643,-86.62549832031009,-71.31173,11.444739,1.0690429,135.14659,-3.6415796,3.6124613,3.8521292,-4.552159,4.309414,28.940739,-17.350998,3.5659716,2.0905542,-2.651508,23.667757,27.521622,17.376379,-9.34305,50.766354,-10.3263855,8.267078,5.7278438,-32.237736,-27.386213,3.1649544,-13.61958,-5.914436,-3.5313416,-9.333081
193,-6.641049861907959,-3.6995246410369873,78.88961791992188,4.419873907161132,-10.067896422296835,-86.48706608008213,-69.07991,10.407313,2.3624363,132.61385,-2.2588406,3.0250926,4.1367183,-5.2086244,4.2897887,27.59863,-15.050739,3.8785014,2.5145257,-3.036371,22.933361,27.806341,17.474518,-9.713876,49.67083,-9.641624,7.073326,5.3833165,-31.522524,-28.203665,2.9944706,-17.735922,-7.0495734,-4.7108536,-9.784469
194,-6.520430564880371,-3.8517515659332275,79.54549407958984,4.964150266279791,-9.66128749281028,-86.45865194711914,-66.64708,8.769576,3.6202285,129.6189,-0.26926997,1.7714157,4.1204476,-5.9698544,4.4408875,26.52575,-12.459224,4.3347807,2.9901607,-3.4871576,22.087229,28.023127,17.511679,-9.867945,48.466866,-9.029395,5.6867757,4.742669,-30.68307,-29.042496,2.9618595,-21.639452,-8.842147,-5.9294434,-10.330236
195,-6.397371768951416,-4.009390830993652,80.2208023071289,5.430950222424442,-9.223568647753469,-86.53667447283509,-64.06892,7.1336308,4.678241,126.31734,1.8343757,0.34335774,3.8615382,-6.5914884,4.677399,25.743046,-9.650576,4.8409915,3.476442,-3.823783,21.222866,28.120094,17.486977,-9.943765,47.256023,-8.5683775,4.3262134,4.0320387,-29.752026,-29.841558,3.0501106,-25.249235,-10.692279,-7.149468,-10.808247
196,-6.273558616638184,-4.156931400299072,80.89239501953125,5.637866939135557,-8.832678385795674,-86.716374468425,-61.363323,6.143029,5.464907,122.865395,3.6042283,-0.73867047,3.4356654,-6.849672,4.896301,25.25399,-6.6896353,5.3185425,3.9255922,-3.8809004,20.42557,28.062645,17.404884,-10.062264,46.124844,-8.323796,3.2177987,3.468956,-28.770193,-30.508057,3.2491846,-28.461668,-12.006782,-8.356063,-11.0243845
197,-6.15622091293335,-4.298083782196045,81.55268859863281,5.5125513806617406,-8.487831793427574,-87.00213945236304,-58.49942,5.957347,5.963067,119.28947,5.0744505,-1.4657664,2.854825,-6.654354,5.10717,24.981783,-3.3817637,5.7325983,4.3236966,-3.6018407,19.680023,27.865517,17.256428,-10.199723,45.078636,-8.455839,2.3983884,3.0382197,-27.789902,-30.981194,3.6161573,-31.297564,-12.702912,-9.6501665,-10.869321
198,-6.0439934730529785,-4.434811115264893,82.19458770751953,5.162802861760472,-8.156479980824017,-87.39795632524616,-55.44854,6.271726,6.3115215,115.51412,6.4435954,-2.0498626,2.1139903,-6.159467,5.3596,24.890965,0.26742658,6.1874075,4.6765695,-3.115389,18.94407,27.575119,17.03856,-10.266205,44.055702,-8.872536,1.7610635,2.640526,-26.82144,-31.255709,4.173918,-33.765293,-13.090778,-11.024039,-10.427105
199,-5.948719501495361,-4.570083141326904,82.81507110595703,4.702351719868912,-7.871485971743193,-87.89543687563268,-52.210594,7.006026,6.704884,111.540146,7.5380073,-2.3456972,1.2699951,-5.5219636,5.602002,25.047369,3.8846114,6.8044314,4.9703817,-2.5366368,18.264954,27.203667,16.776283,-10.291071,43.036507,-9.253605,1.3158917,2.366711,-25.824614,-31.325455,4.8538723,-35.75061,-13.160613,-12.307997,-9.771475
200,-5.862124919891357,-4.698246955871582,83.4105224609375,4.238655743221067,-7.665528616543956,-88.48179847335389,-48.772694,8.077494,7.357066,107.360466,8.177542,-2.181573,0.36855838,-4.880112,5.779902,25.552563,7.0750265,7.655489,5.202727,-1.9791757,17.69551,26.761051,16.514797,-10.318776,41.995434,-9.284331,1.0704813,2.3086905,-24.721506,-31.1853,5.5590477,-37.16151,-12.9023695,-13.327351,-8.976307
201,-5.772261619567871,-4.820425987243652,83.95513916015625,3.778304839359524,-7.564571348341902,-89.16921064040092,-45.02736,9.701057,8.44616,102.98603,8.1009445,-1.2655789,-0.5496621,-4.2001834,5.9763355,26.355434,9.88295,8.922419,5.402461,-1.4454064,17.266476,26.230993,16.275267,-10.399361,40.95293,-8.855817,1.0922134,2.551325,-23.409025,-30.801344,6.2369056,-38.009373,-12.024972,-14.072037,-7.8305244
202,-5.693295955657959,-4.940394878387451,84.45647430419922,3.276554048551364,-7.554964522382264,-89.94843819028985,-40.970993,11.722671,9.937994,98.41733,7.4418774,0.14704783,-1.5507118,-3.4134219,6.2025204,27.52293,12.412041,10.516555,5.5634303,-0.9019081,16.951204,25.62502,16.063828,-10.501964,39.895664,-8.154421,1.3619717,3.0202954,-21.923475,-30.16944,6.9514704,-38.357716,-10.623345,-14.602324,-6.3396273
203,-5.616933345794678,-5.057650089263916,84.9166259765625,2.764435080656111,-7.602776747303962,-90.77564887998287,-36.76845,13.5533905,11.635689,93.62105,6.636728,1.4618499,-2.7791364,-2.6099637,6.250052,29.388315,14.3568945,12.022082,5.640538,-0.38297358,16.712074,24.983292,15.907691,-10.565181,38.752697,-7.3109326,1.7569835,3.5659254,-20.386894,-29.350967,7.7615714,-38.188522,-9.275913,-14.867323,-4.9321995
204,-5.542773246765137,-5.1766252517700195,85.32424926757812,2.25338836265304,-7.6701666196809555,-91.61670254407525,-32.622086,14.746009,13.234798,88.54907,6.1601586,2.1905413,-4.3606753,-1.9016603,5.8722377,32.22827,15.465164,12.968682,5.6189785,0.10737557,16.512213,24.329943,15.84347,-10.55025,37.457764,-6.4586225,2.1501155,4.0373077,-18.899782,-28.443502,8.684136,-37.48734,-8.557353,-14.8525715,-4.061973
205,-5.4535136222839355,-5.288084030151367,85.66448974609375,1.724817256166043,-7.772730572647006,-92.50826672342332,-28.52343,15.318247,14.606309,83.0646,6.0376678,2.3224516,-6.3528113,-1.3454484,4.938308,36.317226,15.511784,13.03615,5.551076,0.6204001,16.37527,23.640835,15.892439,-10.523686,36.006588,-5.5796924,2.5842366,4.4227114,-17.357405,-27.504051,9.728146,-36.248997,-8.699998,-14.466595,-3.9677289
206,-5.3457818031311035,-5.376904487609863,85.93011474609375,1.1644322539244718,-7.9248285689200495,-93.45994665730417,-24.40068,15.570115,15.834194,77.23729,6.0460963,2.1708174,-8.681341,-0.99223083,3.5714853,41.468792,14.678813,12.412146,5.4646173,1.1791496,16.313007,22.896505,16.050398,-10.519029,34.429478,-4.6338463,3.1040635,4.7802925,-15.692044,-26.5411,10.847831,-34.516487,-9.353518,-13.755225,-4.39342
207,-5.225370407104492,-5.451284885406494,86.09737396240234,0.6103760515825396,-8.084870606736517,-94.4040340323011,-20.37746,15.567985,16.92376,71.30608,6.3033605,1.8232944,-11.255405,-0.9509974,1.9188677,47.247868,13.346931,11.389152,5.319137,1.7386559,16.273172,22.12484,16.313046,-10.453561,32.713413,-3.714483,3.578833,5.0716596,-14.065958,-25.579996,11.952407,-32.341236,-10.2152195,-12.925762,-5.054986
208,-5.091463565826416,-5.523855686187744,86.15802001953125,0.09981801788610938,-8.20672233611742,-95.2702532755246,-16.588684,15.3361435,17.887266,65.488716,6.9407043,1.3258375,-13.98944,-1.2729001,0.122544646,53.24036,11.910121,10.301282,5.0733104,2.2535222,16.20764,21.351168,16.67442,-10.247189,30.844307,-2.912363,3.8753018,5.2621174,-12.635192,-24.649637,12.938402,-29.779606,-10.988938,-12.192561,-5.6886463
209,-4.9410200119018555,-5.594015598297119,86.10480499267578,-0.3564392069188662,-8.261857708569732,-96.07084651407295,-13.073903,14.794278,18.68963,59.54198,8.521791,0.56049865,-16.89615,-2.1126082,-1.9824098,59.59617,10.234399,9.077423,4.7106338,2.738354,16.090446,20.609516,17.143665,-9.912536,28.802572,-2.2488813,3.9182863,5.302349,-11.401552,-23.762964,13.806211,-26.792984,-11.675252,-11.575542,-6.3483696
210,-4.780158519744873,-5.660381317138672,85.94005584716797,-0.7657231667775686,-8.280444179176312,-96.83038474962157,-9.769864,13.973323,19.270332,53.43082,10.777702,-0.4383379,-19.935987,-3.5106902,-4.3025684,66.479454,8.132041,7.5443463,4.2598176,3.2036421,15.962936,19.881298,17.72234,-9.490582,26.59317,-1.6770592,3.787788,5.2272177,-10.249767,-22.918716,14.572827,-23.411098,-12.398026,-10.966855,-7.145247
211,-4.6073174476623535,-5.727277755737305,85.67535400390625,-1.1182315853050386,-8.300135305128503,-97.50148053557565,-6.6623397,13.036726,19.659386,47.66294,12.641985,-1.4334589,-22.993162,-5.2036877,-6.380563,73.5022,5.979388,5.9501014,3.7484908,3.6040366,15.87551,19.105824,18.38752,-8.945153,24.247343,-1.183959,3.5833282,5.132193,-9.177306,-22.124632,15.158851,-19.784286,-13.056311,-10.402207,-7.9179025
212,-4.44362735748291,-5.788947105407715,85.30530548095703,-1.4137392970743625,-8.355421464372562,-98.04196515233663,-3.7206647,12.140114,19.96832,42.698074,13.1088295,-2.1919224,-26.023401,-6.8053617,-7.8514814,80.25791,4.2177415,4.597447,3.2080164,3.9115078,15.872776,18.20753,19.104198,-8.242759,21.812157,-0.75207007,3.405159,5.113603,-8.18934,-21.393597,15.491737,-16.055481,-13.551339,-9.92221,-8.511651
213,-4.262883186340332,-5.847386837005615,84.88164520263672,-1.6810399144887647,-8.406178468540347,-98.45851391554275,-0.8819808,11.276163,20.274725,38.49345,11.843757,-2.720285,-29.117521,-8.169666,-8.781314,86.752686,3.0717068,3.5934584,2.6314616,4.1638727,15.904438,17.182137,19.855146,-7.378519,19.367043,-0.37807342,3.1990395,5.1926575,-7.2918506,-20.73599,15.526921,-12.21261,-13.850637,-9.557214,-8.892912
214,-4.106706619262695,-5.889527320861816,84.34544372558594,-1.9222573035554602,-8.443385745020594,-98.76976269889194,1.8578364,10.355571,20.532843,34.689457,9.514695,-3.1841738,-32.301315,-9.390918,-9.3745985,93.1787,2.304349,2.834643,2.00977,4.385239,15.96023,16.042898,20.642958,-6.3799267,16.89233,-0.06397364,2.9376655,5.324154,-6.458838,-20.157244,15.305996,-8.220832,-14.008159,-9.281833,-9.153359
215,-3.9833414554595947,-5.897035598754883,83.7082290649414,-2.114424435243866,-8.54212973980207,-98.95957946342607,4.442199,9.425541,20.708336,31.275785,6.632646,-3.5905867,-35.498493,-10.336934,-9.559244,99.38715,1.7186501,2.3708055,1.3762797,4.5384955,16.133272,14.733006,21.461243,-5.265836,14.29235,0.19962941,2.7628014,5.503905,-5.6565084,-19.660997,14.892233,-4.178123,-14.052407,-9.052669,-9.328039
216,-3.8620166778564453,-5.878142833709717,83.02470397949219,-2.2365629868017773,-8.777288598787498,-99.01666159513294,6.800132,8.564775,20.78247,28.322813,3.6526403,-3.9038508,-38.633526,-10.836373,-9.278323,105.19511,1.1298574,2.2815905,0.76551795,4.5883055,16.510567,13.19533,22.299265,-4.0553007,11.473646,0.4248216,2.8157442,5.7273784,-4.8650427,-19.249435,14.355149,-0.15566473,-14.010308,-8.826735,-9.450828
217,-3.7682852745056152,-5.848312854766846,82.30232238769531,-2.24968568261253,-9.213085570105887,-98.99187816634695,9.002779,7.7656293,20.816332,25.846376,0.43215203,-4.059593,-41.73372,-10.603674,-8.471603,110.61667,0.57495344,2.748971,0.20998181,4.4826093,17.148664,11.436,23.152853,-2.7013872,8.321378,0.62818366,3.2468808,6.0514994,-4.109904,-18.937233,13.673358,3.8340254,-13.989357,-8.620089,-9.494585
218,-3.699613332748413,-5.7901835441589355,81.5487060546875,-2.217051559656268,-9.782455070012281,-98.88637965235804,11.033668,7.0705833,20.798754,23.866867,-3.220831,-4.135916,-44.813843,-9.635673,-7.4113116,115.734474,0.115055226,3.7698698,-0.3019852,4.29206,17.959759,9.468701,24.025244,-1.2293539,4.9324603,0.8014259,3.9425573,6.460517,-3.3625367,-18.727541,12.819548,7.818338,-13.933394,-8.442084,-9.456648
219,-3.66865611076355,-5.712718963623047,80.77909088134766,-2.2535276654880048,-10.369833744409325,-98.61170753449869,12.643895,6.6606197,20.641823,22.615364,-7.018452,-4.203877,-47.790157,-8.25365,-6.4733787,120.45192,-0.39695963,5.114939,-0.80636567,4.152937,18.817698,7.229875,24.916842,0.22522025,1.5446105,0.92341506,4.6463966,6.843366,-2.545094,-18.590727,11.857569,11.81895,-13.626006,-8.240223,-9.400945
220,-3.674048662185669,-5.611597537994385,79.99948120117188,-2.446322579949725,-10.866409787771257,-98.07146159707378,13.575007,6.6743345,20.279427,22.351744,-10.696064,-4.2513328,-50.623703,-6.9063835,-5.9350743,124.66622,-1.0749823,6.4521832,-1.3493197,4.167938,19.60408,4.62945,25.827383,1.5181037,-1.5846982,0.97990245,5.100515,7.0907955,-1.6147729,-18.477564,10.857924,15.896064,-12.859704,-7.965831,-9.386608
221,-3.720693588256836,-5.4840497970581055,79.23152160644531,-2.8311253350714334,-11.297971294708901,-97.14788385751045,13.628344,7.2167563,19.659111,23.5092,-14.374903,-4.1652484,-53.37255,-5.6972675,-5.794326,128.36964,-1.9343146,7.741502,-1.9914329,4.334912,20.369648,1.4982914,26.785488,2.604179,-4.372573,0.9114875,5.228427,7.174712,-0.6157766,-18.345749,9.782226,20.200155,-11.526254,-7.6209726,-9.468414
222,-3.8039066791534424,-5.321543216705322,78.4872055053711,-3.340528596280122,-11.715327450402667,-95.91996516227913,12.997527,8.094375,18.823963,25.836939,-18.148474,-3.9090998,-56.056,-4.4829974,-5.892852,131.63304,-2.930559,9.09451,-2.6718972,4.558837,21.142233,-2.172437,27.80379,3.4679935,-6.874985,0.7450569,5.1649656,7.161634,0.44554982,-18.180891,8.595133,24.691977,-9.764289,-7.233034,-9.596856
223,-3.915985345840454,-5.142219066619873,77.7943344116211,-3.892532596352119,-12.043642497755231,-94.57871502502869,12.01847,8.993715,17.853367,28.536785,-21.696705,-3.5879579,-58.623478,-3.3736954,-6.1314893,134.4464,-4.0198207,10.402925,-3.2911007,4.7972236,21.785336,-6.1986437,28.835878,4.057919,-9.076547,0.6039058,4.9707823,7.0833764,1.6258745,-17.976934,7.4005256,29.16831,-7.736986,-6.788696,-9.67613
224,-4.024233818054199,-4.975788593292236,77.14616394042969,-4.402242642158752,-12.205814395317315,-93.31115115747188,10.985143,9.697858,16.833923,30.90098,-24.759636,-3.3139238,-61.029655,-2.4621582,-6.386511,136.78809,-5.1317043,11.571685,-3.788835,5.0259814,22.177593,-10.297951,29.80506,4.4175606,-11.044015,0.63062704,4.708793,6.9658155,2.9389021,-17.745094,6.333407,33.44851,-5.6137967,-6.2645617,-9.616844
225,-4.106598854064941,-4.845056056976318,76.55674743652344,-4.8823196050847315,-12.124736622383123,-92.03873430428607,9.78675,10.242115,15.650635,32.932888,-27.371363,-3.1243165,-63.422253,-1.7082853,-6.5239496,138.64339,-6.2915287,12.671473,-4.246825,5.286648,22.285862,-14.482302,30.653835,4.6434836,-12.859686,0.91212195,4.3664913,6.7179885,4.372086,-17.51462,5.356089,37.55163,-3.1326396,-5.5992517,-9.434749
226,-4.14138650894165,-4.765695571899414,76.04480743408203,-5.350603300015174,-11.860303932112505,-90.69114448394585,8.336965,10.707965,14.280839,34.927586,-29.640554,-2.9821575,-65.80037,-1.0843494,-6.527273,140.03311,-7.480165,13.743606,-4.724594,5.5881066,22.212893,-18.765726,31.3713,4.7846475,-14.578637,1.3850408,3.9159956,6.3493023,5.8791366,-17.302208,4.4580226,41.572247,-0.30717635,-4.809395,-9.18658
227,-4.145141124725342,-4.720797538757324,75.64292907714844,-5.73251415228687,-11.539961335764001,-89.47221959035205,6.929767,11.038788,12.967125,36.70263,-31.457008,-2.8805592,-67.90666,-0.6889441,-6.454193,140.98645,-8.521375,14.651426,-5.136634,5.872202,22.038574,-22.802446,31.96433,4.8815737,-16.278538,1.9713936,3.4092247,6.027535,7.3941164,-17.109941,3.8258705,45.464394,2.266862,-3.98208,-8.840794
228,-4.12988805770874,-4.705930233001709,75.35475158691406,-5.971563306257698,-11.292635560855066,-88.58894515713142,5.850179,11.210086,11.966781,38.095463,-32.713737,-2.8123455,-69.48217,-0.77887046,-6.469837,141.52129,-9.192672,15.000033,-5.3897834,6.080812,21.829515,-26.249237,32.45723,4.974147,-18.027634,2.5911772,2.9037497,5.9133096,8.846921,-16.934795,3.6470182,49.187016,3.9918258,-3.208091,-8.348197
229,-4.114224910736084,-4.721923351287842,75.17642211914062,-6.0172560073255585,-11.138352742719864,-88.12561070299847,5.1278872,11.195525,11.359022,39.115734,-33.32004,-2.7820854,-70.496,-1.3694181,-6.5031643,141.61922,-9.377847,15.000033,-5.4123545,6.171158,21.566332,-29.140547,32.86533,5.0491424,-19.800636,3.2452857,2.4025362,6.099946,10.212213,-16.793135,4.0326653,52.86958,4.534049,-2.5265868,-7.670089
230,-4.096604824066162,-4.76776647567749,75.1008071899414,-5.921901291780421,-11.017317180619377,-87.95835296967466,4.6233516,11.045304,11.010082,39.84477,-33.360725,-2.7921395,-71.10091,-2.1883807,-6.4361553,141.27286,-9.193442,15.000033,-5.2710447,6.1962543,21.222881,-31.604086,33.202694,5.1272883,-21.585228,3.962447,1.8891857,6.4790487,11.515221,-16.706701,4.8603387,56.513622,4.272785,-1.894336,-6.820128
231,-4.079282283782959,-4.8446364402771,75.13131713867188,-5.781585663961271,-10.936287412497594,-87.98579177715307,4.368167,10.859674,10.862496,40.220325,-32.98503,-2.8287866,-71.31405,-2.9399767,-6.3449054,140.52377,-8.798928,15.000033,-5.063636,6.2357845,20.848104,-33.463757,33.495037,5.272023,-23.438715,4.699747,1.3928936,6.9087343,12.766659,-16.673716,5.9547706,59.87717,3.6747944,-1.2842933,-5.816148
232,-4.062961578369141,-4.958794116973877,75.27249145507812,-5.691738807654571,-10.896298939965204,-88.11355197509405,4.3878193,10.734669,10.862142,40.17893,-32.341103,-2.881921,-71.15831,-3.3900166,-6.3256016,139.40796,-8.329492,14.898322,-4.8854184,6.360818,20.491068,-34.544685,33.77016,5.5527415,-25.421982,5.4031057,0.93785375,7.2487454,13.975558,-16.675497,7.146395,62.713463,3.2001657,-0.6617904,-4.686808
233,-4.039191722869873,-5.095058441162109,75.51959991455078,-5.672951677571705,-10.914538297253152,-88.40784431129327,4.812646,10.699364,11.101621,39.54126,-31.442286,-2.939178,-70.57116,-3.4562867,-6.4279633,137.90579,-7.8222404,14.623369,-4.698897,6.6093545,20.160595,-34.7402,34.030716,6.0211964,-27.556414,6.117744,0.5069569,7.5456066,15.12671,-16.704603,8.574109,65.010666,2.822896,0.057336893,-3.2844558
234,-3.9947781562805176,-5.2540202140808105,75.85460662841797,-5.674865145459956,-10.978256163668842,-88.89936433588262,5.580211,10.69788,11.581093,38.397465,-30.21946,-3.0098524,-69.54822,-3.2751799,-6.6260724,136.00461,-7.2287464,14.218603,-4.4670124,6.9311857,19.825518,-34.173267,34.271305,6.6527734,-29.800926,6.8371606,0.097533576,7.8514824,16.229837,-16.77275,10.259145,66.89567,2.3324623,0.8159561,-1.6416731
235,-3.9469845294952393,-5.419826507568359,76.26078796386719,-5.6699123029705225,-11.040723730357243,-89.44255093359307,6.422735,10.689903,12.109857,37.086758,-28.695726,-3.1147387,-68.21726,-2.851216,-6.8229384,133.76259,-6.5551248,13.898628,-4.2740498,7.260721,19.47777,-33.0268,34.501816,7.386288,-32.115864,7.4266257,-0.2522867,8.034467,17.330126,-16.871578,11.848414,68.324066,1.9166869,1.4492165,-0.071670115
236,-3.921736001968384,-5.595382213592529,76.72784423828125,-5.633438654195125,-11.056914559777075,-89.88566932622618,7.072968,10.640361,12.49203,35.94742,-26.890793,-3.269931,-66.708954,-2.1868193,-6.8905973,131.2343,-5.7961764,13.893501,-4.194536,7.52639,19.11578,-31.505322,34.733513,8.12669,-34.44639,7.755073,-0.5085445,7.9617276,18.457556,-16.971092,12.985875,69.248215,1.7721736,1.8061156,1.1036047
237,-3.9202497005462646,-5.7808685302734375,77.25033569335938,-5.555467578674463,-11.021893141926292,-90.23736468718565,7.548524,10.533958,12.7255745,34.943626,-24.752714,-3.4809046,-65.007385,-1.0880147,-6.7233114,128.39857,-4.9690957,14.367963,-4.2204247,7.719724,18.735931,-29.545843,34.987823,8.912976,-36.903553,7.698643,-0.6089428,7.5131984,19.672043,-17.027729,13.460881,69.494,2.0337982,1.83446,1.7811248
238,-3.928873062133789,-5.971632480621338,77.8145523071289,-5.441938310367479,-10.956288792845818,-90.56107140211004,7.9547853,10.376487,12.894366,33.945248,-22.290174,-3.7249603,-63.03145,0.28165853,-6.3957033,125.24121,-4.082905,15.000033,-4.303983,7.8536825,18.340523,-27.11535,35.254353,9.742707,-39.446262,7.3547363,-0.5881049,6.793401,20.922615,-17.022943,13.496831,69.15545,2.5727162,1.6268302,2.1296017
239,-3.9536640644073486,-6.167137622833252,78.40731048583984,-5.301178707891128,-10.854785696300594,-90.78386537762755,8.156666,10.186936,12.9267,33.15137,-19.61206,-3.9811885,-60.80877,1.2247126,-6.1681614,121.820175,-3.0872157,15.000033,-4.459489,7.902836,17.935825,-24.462296,35.490368,10.443246,-41.79247,6.9367537,-0.55784804,5.998676,22.079655,-16.965145,13.3924265,68.56616,3.1952877,1.265088,2.2338293
240,-3.983600378036499,-6.37031888961792,79.01506042480469,-5.139066937972287,-10.711705039643599,-90.83065889299434,8.027337,9.980713,12.755052,32.744713,-16.819292,-4.2313714,-58.449375,1.857901,-5.895629,118.17831,-1.976494,15.000033,-4.681132,7.8654456,17.521755,-21.861145,35.641605,10.809842,-43.650974,6.670624,-0.63862365,5.3182664,23.040092,-16.87564,13.421192,68.04854,3.704656,0.82473993,2.1778994
