unveil-humanoid-operators/unveil-humanoid-operators.github.io/feature-analysis-animation/data/feature_matrix_instances/age_waist_rom_jogging_A058_jog_ff_start_225_003__A058.csv
Frame,root_translateX,root_translateY,root_translateZ,root_rotateX,root_rotateY,root_rotateZ,left_hip_pitch_joint_dof,left_hip_roll_joint_dof,left_hip_yaw_joint_dof,left_knee_joint_dof,left_ankle_pitch_joint_dof,left_ankle_roll_joint_dof,right_hip_pitch_joint_dof,right_hip_roll_joint_dof,right_hip_yaw_joint_dof,right_knee_joint_dof,right_ankle_pitch_joint_dof,right_ankle_roll_joint_dof,waist_yaw_joint_dof,waist_roll_joint_dof,waist_pitch_joint_dof,left_shoulder_pitch_joint_dof,left_shoulder_roll_joint_dof,left_shoulder_yaw_joint_dof,left_elbow_joint_dof,left_wrist_roll_joint_dof,left_wrist_pitch_joint_dof,left_wrist_yaw_joint_dof,right_shoulder_pitch_joint_dof,right_shoulder_roll_joint_dof,right_shoulder_yaw_joint_dof,right_elbow_joint_dof,right_wrist_roll_joint_dof,right_wrist_pitch_joint_dof,right_wrist_yaw_joint_dof
0,0.20936910808086395,-2.1044111251831055,78.6121597290039,-0.3045108083609769,-1.1099563672115373,94.83601831002773,2.0951533,2.6307871,-1.2389412,8.448624,-8.889473,-5.580875,2.7001321,-4.468675,-7.2999973,8.356287,-10.1137905,4.950903,-1.6668806,0.7414404,6.311489,-3.7854187,11.424132,-47.114437,60.504047,24.47947,2.8525286,-3.125841,-1.0150976,-9.984399,32.399082,60.0619,-23.783413,-7.215344,4.224961
1,0.23155517876148224,-2.096912384033203,78.60548400878906,-0.2855600494039713,-1.1002929011637885,94.78525871603027,2.011858,2.614398,-1.2669576,8.711504,-8.98616,-5.276917,2.6629372,-4.4779916,-7.2314873,8.399794,-10.123179,4.965172,-1.617018,0.7343899,6.243351,-3.7141662,11.408076,-47.12019,60.5289,25.152864,2.9771461,-3.4720197,-0.9773744,-9.995787,32.416794,60.081135,-23.835865,-7.239834,4.1631255
2,0.23584945499897003,-2.080765962600708,78.60254669189453,-0.26507613398201507,-1.0891203189564833,94.72680825855382,1.9239978,2.598286,-1.290779,8.989443,-9.086071,-4.9517226,2.6213987,-4.4864697,-7.153572,8.4467535,-10.132523,4.980435,-1.5635214,0.72518724,6.169439,-3.6333325,11.396112,-47.12209,60.546535,25.86614,3.1061625,-3.845728,-0.94029075,-10.004191,32.443134,60.106537,-23.893387,-7.265374,4.0976915
3,0.22896544635295868,-2.0597734451293945,78.60160064697266,-0.24901415373651667,-1.080611677191281,94.68416082874728,1.8488315,2.5827909,-1.3223575,9.228508,-9.170907,-4.669373,2.5897489,-4.494667,-7.095245,8.484683,-10.141075,4.993279,-1.5245713,0.71604884,6.106973,-3.5629437,11.388548,-47.123898,60.566124,26.503365,3.2139707,-4.1703606,-0.9115573,-10.009833,32.46222,60.129307,-23.93748,-7.2883964,4.0376787
4,0.21895554661750793,-2.0551998615264893,78.60195922851562,-0.2395148138791573,-1.0793115512068125,94.68107017770728,1.7988096,2.567834,-1.3740911,9.383469,-9.226972,-4.494059,2.5781627,-4.5050335,-7.0850987,8.508759,-10.1513605,5.000517,-1.5200902,0.7081869,6.072063,-3.5210102,11.383808,-47.125607,60.597065,26.95035,3.2775629,-4.368314,-0.8999797,-10.014243,32.4634,60.141697,-23.94649,-7.3050323,3.9916196
5,0.21164286136627197,-2.0625767707824707,78.60350799560547,-0.23891393018228677,-1.0891809478042496,94.74252421397969,1.7893002,2.550387,-1.4653665,9.405104,-9.237871,-4.47719,2.599537,-4.521776,-7.154451,8.510297,-10.165158,5.0002623,-1.5736609,0.7011317,6.079536,-3.5234382,11.381107,-47.12843,60.650425,27.126398,3.2777116,-4.376613,-0.9132048,-10.018148,32.439693,60.133373,-23.893623,-7.3134837,3.974658
6,0.2030748575925827,-2.0786118507385254,78.60603332519531,-0.24451737697260614,-1.1074151903720135,94.84963236188293,1.8075267,2.531629,-1.5844684,9.335961,-9.21927,-4.573146,2.644336,-4.5426764,-7.27982,8.496441,-10.181728,4.9945807,-1.6538566,0.6947913,6.1227856,-3.569591,11.377395,-47.1429,60.724174,27.109432,3.232383,-4.2514443,-0.9381067,-10.026139,32.371315,60.101433,-23.808527,-7.3184166,3.9817247
7,0.20498505234718323,-2.099616765975952,78.60972595214844,-0.25254608002423234,-1.1270978004022751,94.95957914426059,1.8341802,2.5156124,-1.6961403,9.241531,-9.190925,-4.699908,2.6926317,-4.5614934,-7.4082055,8.47838,-10.196442,4.986517,-1.7068607,0.6927314,6.1757536,-3.6381094,11.371214,-47.187084,60.802586,27.015257,3.179074,-4.0886455,-0.9458217,-10.042098,32.259895,60.04846,-23.734898,-7.322385,3.9869025
8,0.20337149500846863,-2.1242775917053223,78.61376190185547,-0.25668235601052214,-1.1413591666086218,95.02966697017939,1.8501658,2.5054996,-1.765061,9.18703,-9.172385,-4.775327,2.7233753,-4.5728483,-7.486426,8.470286,-10.206892,4.9790163,-1.745786,0.6938101,6.20403,-3.6713798,11.367262,-47.20711,60.858013,26.97327,3.1536,-3.9843543,-0.95445335,-10.054228,32.198807,60.0241,-23.686808,-7.3211617,3.9530845
9,0.20499147474765778,-2.137429714202881,78.61602020263672,-0.25545421299927706,-1.1465967999052078,95.04233533682408,1.8487864,2.5028117,-1.7713115,9.190331,-9.166658,-4.774961,2.7265964,-4.5745234,-7.4911795,8.476276,-10.20934,4.971991,-1.7503337,0.6951175,6.1987915,-3.666617,11.366577,-47.206234,60.88722,27.006052,3.1709855,-3.9709857,-0.95649964,-10.056901,32.188183,60.0302,-23.676998,-7.3126154,3.8657558
10,0.20640245079994202,-2.1349549293518066,78.61515808105469,-0.25124585919928727,-1.1471621295628636,95.02406296241887,1.8394847,2.5052552,-1.7387828,9.218456,-9.164669,-4.7432876,2.7145777,-4.56985,-7.4552817,8.490638,-10.20769,4.964233,-1.7180574,0.70557636,6.1850986,-3.645168,11.3646965,-47.19405,60.891598,27.073545,3.208455,-3.9964528,-0.9430164,-10.063858,32.17053,60.04444,-23.708803,-7.3058476,3.7318168
11,0.21145157516002655,-2.122174024581909,78.61348724365234,-0.24787091057436805,-1.148454893511406,94.99167934790128,1.8340223,2.5110753,-1.6918187,9.250815,-9.164621,-4.702144,2.7018218,-4.5617394,-7.4041815,8.504626,-10.204348,4.956883,-1.6804382,0.7155186,6.165632,-3.619881,11.363254,-47.179523,60.897293,27.13035,3.2497296,-4.027591,-0.9324794,-10.0692835,32.170643,60.065712,-23.753305,-7.294678,3.5999846
12,0.21763993799686432,-2.102060556411743,78.6098403930664,-0.24596449783070348,-1.1548226917699949,94.96403293459262,1.8344485,2.5185354,-1.6571285,9.282773,-9.1718025,-4.673273,2.698292,-4.5526385,-7.364751,8.51697,-10.206173,4.951142,-1.6522971,0.72598463,6.1479506,-3.5924137,11.362507,-47.163654,60.906876,27.17312,3.2791011,-4.035283,-0.9210488,-10.073582,32.1767,60.080288,-23.811903,-7.280671,3.497285
13,0.22599031031131744,-2.082895040512085,78.6064453125,-0.24771827930437287,-1.1705931035128643,94.93202990497565,1.8547553,2.53133,-1.6291578,9.303168,-9.185908,-4.6601505,2.7101154,-4.5393367,-7.330595,8.522985,-10.212261,4.9473495,-1.6237521,0.7360564,6.1369085,-3.5700173,11.36228,-47.15123,60.932693,27.17904,3.28632,-4.000739,-0.90816164,-10.076491,32.186443,60.086044,-23.907022,-7.2639484,3.4350817
14,0.2328818142414093,-2.073357105255127,78.60404205322266,-0.2513423434943061,-1.1917313669275427,94.89070213764634,1.8858843,2.5490258,-1.5984644,9.32349,-9.207325,-4.651981,2.7304552,-4.521535,-7.292346,8.524802,-10.220204,4.9448247,-1.5931425,0.74724185,6.1217823,-3.5384011,11.362476,-47.13644,60.962456,27.165863,3.2831004,-3.9437268,-0.88655597,-10.079773,32.207577,60.085308,-24.034906,-7.242401,3.3937387
15,0.23716911673545837,-2.073762893676758,78.60477447509766,-0.2551376534292007,-1.213751124750742,94.86361716698866,1.9164886,2.563204,-1.5833684,9.338519,-9.22633,-4.64886,2.7551446,-4.5075884,-7.270894,8.525581,-10.2301035,4.943461,-1.5722382,0.75674266,6.113353,-3.5176377,11.363026,-47.12722,60.994236,27.154331,3.2797453,-3.8887367,-0.8703076,-10.081957,32.222393,60.08231,-24.146633,-7.2220488,3.364959
16,0.23778527975082397,-2.0866048336029053,78.60650634765625,-0.25763437858164495,-1.2312358631984799,94.87422519371648,1.932299,2.5650666,-1.6019558,9.347381,-9.235636,-4.650912,2.7796812,-4.505625,-7.286834,8.527197,-10.24169,4.9429903,-1.5811149,0.7623306,6.1091986,-3.5095758,11.363606,-47.12104,61.021343,27.173065,3.2868764,-3.862593,-0.86429447,-10.083333,32.224537,60.081196,-24.193974,-7.207197,3.3400364
17,0.2291797399520874,-2.1129119396209717,78.6120376586914,-0.2570150986050957,-1.2434899001026274,94.95376784816834,1.9260755,2.5457895,-1.6854182,9.341726,-9.227786,-4.666481,2.810932,-4.5242124,-7.373429,8.52298,-10.25383,4.9450107,-1.6484901,0.76183563,6.120621,-3.5229201,11.365017,-47.114235,61.04075,27.250296,3.3030639,-3.8726952,-0.8696806,-10.086265,32.20341,60.06882,-24.146431,-7.1992273,3.3117895
18,0.22027862071990967,-2.136791706085205,78.6163558959961,-0.25498997969485093,-1.2530202342464463,95.08086849802184,1.9074634,2.5122366,-1.8146324,9.323621,-9.208332,-4.6927433,2.848433,-4.5566893,-7.509661,8.51414,-10.266828,4.9490128,-1.7361275,0.7577191,6.153418,-3.5690203,11.367778,-47.12137,61.05664,27.36712,3.3228724,-3.9098053,-0.8850647,-10.092551,32.131893,60.044052,-24.045301,-7.200782,3.2935388
19,0.21976158022880554,-2.141183853149414,78.61610412597656,-0.25350646473436056,-1.2612088064171625,95.20250429045869,1.8866814,2.4798443,-1.9354066,9.310635,-9.189429,-4.7131014,2.8829412,-4.5878596,-7.638843,8.507616,-10.27941,4.9518447,-1.7901412,0.7537678,6.185572,-3.6272175,11.371809,-47.15919,61.070507,27.472748,3.3534665,-3.960378,-0.8774361,-10.104193,32.019882,59.99965,-23.950375,-7.205658,3.291969
20,0.22265882790088654,-2.130916118621826,78.61518096923828,-0.25185453822609627,-1.2692951607004728,95.26734528821646,1.8747325,2.463649,-1.9954739,9.318912,-9.182789,-4.7107263,2.9062264,-4.6029534,-7.7058644,8.508668,-10.290196,4.950402,-1.8299673,0.75559115,6.186813,-3.6398883,11.373351,-47.159054,61.076824,27.540752,3.3984776,-4.010561,-0.87370723,-10.108933,31.971533,59.988544,-23.88796,-7.203635,3.3055594
21,0.22569270431995392,-2.1120288372039795,78.61251068115234,-0.25167107443701625,-1.2776251870494972,95.23850062552204,1.8770705,2.4744241,-1.9536921,9.362008,-9.193077,-4.665733,2.9106386,-4.591865,-7.670344,8.5232315,-10.298511,4.940613,-1.7975975,0.7673404,6.1545935,-3.608612,11.374369,-47.14732,61.05968,27.65068,3.5042171,-4.134754,-0.8516453,-10.112112,31.942366,59.994595,-23.902086,-7.196379,3.3656843
22,0.23270341753959656,-2.0854477882385254,78.61044311523438,-0.2518474498231619,-1.2851478557664853,95.15137273364951,1.8840997,2.5019724,-1.8475055,9.434002,-9.216876,-4.592165,2.902454,-4.564196,-7.5705857,8.546399,-10.305038,4.9250956,-1.7229735,0.78735805,6.100517,-3.5413237,11.376032,-47.11258,61.0168,27.808355,3.651616,-4.3180184,-0.8132001,-10.115847,31.915659,60.00541,-23.970812,-7.187617,3.4644992
23,0.24070902168750763,-2.0634255409240723,78.60665893554688,-0.25227038673413044,-1.2932363759678274,95.06150635730656,1.8966937,2.5303793,-1.7399112,9.498144,-9.240085,-4.524438,2.8950024,-4.535798,-7.467553,8.568582,-10.310285,4.9111705,-1.6454942,0.80550754,6.0448046,-3.4799078,11.377555,-47.075558,60.99548,27.809347,3.75103,-4.406643,-0.7780743,-10.117795,31.910488,60.025414,-24.037405,-7.1784945,3.547416
24,0.25257664918899536,-2.0479226112365723,78.6038589477539,-0.25262811346348363,-1.302681560819394,95.02427513164018,1.911478,2.5438313,-1.6935773,9.526147,-9.253564,-4.496843,2.9024208,-4.5214396,-7.4219546,8.576813,-10.312953,4.9059844,-1.6076435,0.81695825,6.0148993,-3.4543626,11.3815155,-47.01693,61.022736,27.489548,3.7071486,-4.258828,-0.7561331,-10.120466,31.918749,60.03934,-24.07632,-7.1749954,3.5736277
25,0.2601983845233917,-2.0422534942626953,78.60293579101562,-0.2531558444841027,-1.3141620603702882,95.06673185320233,1.9283245,2.535773,-1.7408047,9.501322,-9.25535,-4.5369663,2.9305923,-4.5275416,-7.46314,8.566778,-10.312377,4.9140196,-1.6227252,0.8192837,6.0234213,-3.4879873,11.390187,-46.940952,61.134945,26.579742,3.4190054,-3.6937473,-0.7571545,-10.12433,31.950783,60.051975,-24.060452,-7.17815,3.498482
26,0.25655972957611084,-2.051464557647705,78.60185241699219,-0.2539293135834542,-1.3268657696016044,95.1547739244264,1.9519786,2.515163,-1.8420097,9.435462,-9.2472315,-4.62026,2.9712093,-4.5455847,-7.553563,8.544505,-10.308497,4.930648,-1.6606427,0.8144201,6.0530267,-3.5603416,11.405396,-46.861702,61.306435,25.245914,2.9464974,-2.8443027,-0.76519704,-10.129569,31.997946,60.060993,-24.013964,-7.1855917,3.356372
27,0.24819456040859222,-2.070408582687378,78.60244750976562,-0.2541355967520545,-1.340419926586602,95.25436099887987,1.9729718,2.4903064,-1.9561784,9.369551,-9.237933,-4.70327,3.0159097,-4.567482,-7.657018,8.519431,-10.305073,4.949397,-1.6964389,0.80641854,6.0887957,-3.642214,11.421665,-46.795708,61.476597,23.960894,2.4538052,-2.0251932,-0.76950467,-10.134302,32.031498,60.060936,-23.9734,-7.1960607,3.2191129
28,0.2376704066991806,-2.086348533630371,78.60414123535156,-0.25266215018291827,-1.3538999885517906,95.33155468717682,1.9831538,2.4689345,-2.042061,9.340474,-9.233929,-4.742363,3.052992,-4.58664,-7.7364097,8.506321,-10.30822,4.963854,-1.7131253,0.7997492,6.1107535,-3.7023947,11.430468,-46.760418,61.587914,23.179966,2.131491,-1.5348402,-0.7675198,-10.136854,32.037163,60.057705,-23.968332,-7.206656,3.1562996
29,0.2318952977657318,-2.0953209400177,78.60417175292969,-0.24658694250379035,-1.366417500075403,95.3823789595215,1.9735999,2.449181,-2.0924392,9.36754,-9.236466,-4.7102146,3.0807023,-4.6050215,-7.787574,8.506536,-10.319092,4.9745517,-1.7361089,0.79363835,6.1244416,-3.720789,11.441714,-46.730667,61.58812,23.156017,2.0771773,-1.529266,-0.7709525,-10.140458,32.029285,60.042126,-24.015701,-7.216867,3.2121754
30,0.23346659541130066,-2.0948636531829834,78.60287475585938,-0.23830570797193112,-1.3779165583910618,95.42322693640105,1.949608,2.4282026,-2.1279001,9.428915,-9.242676,-4.6353064,3.1028323,-4.625074,-7.8281417,8.515792,-10.336113,4.98411,-1.7583315,0.78798723,6.128685,-3.7172194,11.4492655,-46.719124,61.527523,23.595324,2.1847737,-1.8159177,-0.7752971,-10.143475,32.005634,60.023106,-24.097273,-7.227863,3.339967
31,0.228322833776474,-2.0959534645080566,78.60162353515625,-0.2311122403695356,-1.392606883515091,95.45152334363172,1.9303851,2.4117935,-2.1498835,9.496176,-9.251614,-4.557797,3.1254117,-4.640611,-7.855362,8.528317,-10.354778,4.989501,-1.7558968,0.7827092,6.1447215,-3.7127335,11.466074,-46.71388,61.437096,24.161163,2.3358278,-2.1809034,-0.7725005,-10.151571,31.946945,59.98844,-24.191875,-7.242798,3.4824367
32,0.2362699657678604,-2.0748465061187744,78.59746551513672,-0.22797791440265355,-1.4146320510966506,95.46504249622353,1.9367113,2.405665,-2.1595526,9.536206,-9.259565,-4.5178137,3.1528814,-4.6459208,-7.866097,8.540828,-10.372268,4.9879227,-1.726923,0.77662814,6.1641655,-3.720565,11.480003,-46.722088,61.38671,24.482273,2.4266393,-2.3903294,-0.75833285,-10.158675,31.908152,59.956306,-24.23546,-7.2519717,3.5619786
33,0.25723737478256226,-2.0505599975585938,78.59394073486328,-0.23457842742619045,-1.4478182527366044,95.4473643729336,1.9836469,2.4185517,-2.141852,9.5395565,-9.269642,-4.5340223,3.186752,-4.6320343,-7.8425984,8.553408,-10.386616,4.9729166,-1.6630163,0.7737946,6.190525,-3.7382152,11.484527,-46.726475,61.389088,24.483122,2.439539,-2.385143,-0.74081403,-10.160593,31.900063,59.94041,-24.215382,-7.255845,3.5574746
34,0.27017343044281006,-2.0313940048217773,78.59127807617188,-0.24498967619538276,-1.4899297371363787,95.40510349498476,2.055942,2.4451356,-2.1013932,9.526984,-9.283788,-4.582392,3.2247615,-4.604554,-7.792245,8.5692005,-10.401159,4.947856,-1.5651797,0.77011937,6.225765,-3.764304,11.490619,-46.73564,61.414536,24.350296,2.4261677,-2.2876275,-0.71273243,-10.162707,31.89579,59.92134,-24.160511,-7.256996,3.50876
35,0.26265525817871094,-2.0302226543426514,78.59017181396484,-0.25625559885741483,-1.532751428174382,95.36976070983211,2.13354,2.469299,-2.0682747,9.4997225,-9.292029,-4.638817,3.2651055,-4.580029,-7.749242,8.583392,-10.415663,4.9247704,-1.4567342,0.7610037,6.2658443,-3.8002462,11.505804,-46.766087,61.442173,24.12074,2.3928034,-2.1406844,-0.67434394,-10.16705,31.889694,59.891235,-24.083559,-7.2554603,3.436999
36,0.2460489273071289,-2.0359530448913574,78.59113311767578,-0.2613571832302855,-1.569201198481408,95.37314149703643,2.186286,2.4760535,-2.0736377,9.482369,-9.297181,-4.6793466,3.3073192,-4.5729446,-7.7482243,8.590298,-10.430122,4.915333,-1.3864021,0.74664235,6.309425,-3.8491025,11.51842,-46.781307,61.47328,23.8639,2.3400826,-1.9905584,-0.65354115,-10.170321,31.886635,59.86845,-24.005491,-7.2523217,3.366404
37,0.22850176692008972,-2.0505661964416504,78.59283447265625,-0.2567163217943257,-1.5965198995454069,95.442516972839,2.2058074,2.4536474,-2.1449072,9.467528,-9.29337,-4.702809,3.3547595,-4.5951886,-7.818661,8.5852165,-10.445626,4.9280324,-1.3707014,0.72354823,6.355421,-3.9163396,11.52511,-46.78149,61.50846,23.52285,2.250995,-1.8139398,-0.6474309,-10.172248,31.881357,59.84977,-23.90924,-7.244969,3.2909484
38,0.22156751155853271,-2.070089340209961,78.59500122070312,-0.2474682290280003,-1.6207193746134214,95.55493491109958,2.2092447,2.4128284,-2.2594955,9.449793,-9.283196,-4.7202196,3.40921,-4.6361704,-7.935744,8.571796,-10.462106,4.954853,-1.3814701,0.6884484,6.4194436,-4.020734,11.533416,-46.783653,61.56023,23.07873,2.1255362,-1.5984292,-0.65034056,-10.175265,31.87214,59.81954,-23.787842,-7.233766,3.201284
39,0.22075530886650085,-2.084953784942627,78.59577941894531,-0.2365010577561677,-1.6433588261473435,95.66575392442326,2.2065613,2.3714395,-2.3719964,9.441096,-9.273756,-4.7259398,3.4621303,-4.6770372,-8.051684,8.556088,-10.475453,4.982715,-1.3826112,0.65037733,6.4907513,-4.1356277,11.5486765,-46.798615,61.608078,22.668783,2.0044413,-1.4066048,-0.6475783,-10.182261,31.852152,59.772343,-23.690395,-7.223263,3.1186018
40,0.22543469071388245,-2.0889036655426025,78.59429168701172,-0.22986862266158997,-1.6614602121780424,95.72956402487586,2.2046423,2.3463018,-2.436292,9.450348,-9.270095,-4.714111,3.4967787,-4.701539,-8.1174,8.552629,-10.485961,4.9987183,-1.36689,0.62830466,6.527535,-4.194329,11.560916,-46.807785,61.62453,22.445375,1.9367205,-1.2991021,-0.64007324,-10.188199,31.852049,59.746613,-23.660336,-7.2182093,3.0618503
41,0.231609046459198,-2.085407257080078,78.59272003173828,-0.22777331931693637,-1.6762133331650086,95.71814536567322,2.205148,2.3467712,-2.4233575,9.496056,-9.278762,-4.666679,3.5075283,-4.6997037,-8.102733,8.566564,-10.49153,4.9973955,-1.3115493,0.6233942,6.528657,-4.1968045,11.56613,-46.81632,61.61307,22.527468,1.9527744,-1.3305298,-0.62502825,-10.190327,31.869415,59.741653,-23.743727,-7.2204504,3.0417616
42,0.23750558495521545,-2.0660080909729004,78.59027862548828,-0.2278852487159353,-1.686540634470411,95.66098773701117,2.2023802,2.3621595,-2.3633072,9.567497,-9.294776,-4.592295,3.5012388,-4.6824102,-8.039455,8.589821,-10.49222,4.986286,-1.2418944,0.6269198,6.4973617,-4.1463995,11.577199,-46.82649,61.568428,22.803234,2.0251546,-1.4537606,-0.59635,-10.193228,31.926895,59.74175,-23.887575,-7.222781,3.040734
43,0.2414945811033249,-2.048342227935791,78.58661651611328,-0.23014979952044656,-1.695276604565298,95.60007239860028,2.2002754,2.3804576,-2.299475,9.635207,-9.3100815,-4.525092,3.4927025,-4.662266,-7.9723926,8.612365,-10.491606,4.9719086,-1.1799102,0.63555807,6.4645867,-4.0899467,11.586586,-46.825302,61.521076,23.084412,2.098595,-1.5808065,-0.5786059,-10.194213,31.983772,59.752636,-24.043766,-7.2284956,3.050069
44,0.23957961797714233,-2.0502257347106934,78.58525085449219,-0.23227675800093947,-1.704207788078643,95.57825544260142,2.2038245,2.3886342,-2.2754257,9.664712,-9.314681,-4.4991574,3.4937649,-4.6531906,-7.946805,8.626931,-10.494004,4.960972,-1.1478435,0.6446264,6.4491067,-4.057406,11.59269,-46.81546,61.488514,23.169798,2.1252463,-1.6190959,-0.5755043,-10.194569,32.022427,59.762535,-24.14364,-7.234442,3.0549536
45,0.2371153086423874,-2.0575432777404785,78.58507537841797,-0.23572057759591342,-1.7139606451422789,95.6117459357223,2.2177217,2.3845527,-2.3076007,9.636312,-9.304135,-4.5402865,3.5101867,-4.6575584,-7.980378,8.627783,-10.500422,4.951925,-1.1579193,0.65307504,6.4553266,-4.06024,11.596688,-46.793617,61.480816,22.943369,2.0805404,-1.5213149,-0.58702946,-10.195775,32.038235,59.766838,-24.154854,-7.2405186,3.0526328
46,0.23108762502670288,-2.064497947692871,78.58541870117188,-0.24158292366374645,-1.7235346178255577,95.67657808203496,2.2388635,2.3742867,-2.3714187,9.570728,-9.283952,-4.624728,3.5345974,-4.669069,-8.047443,8.620782,-10.508852,4.942416,-1.2010388,0.6643535,6.474876,-4.0771627,11.600705,-46.753773,61.480427,22.535852,1.9936584,-1.3452178,-0.61411864,-10.199256,32.04678,59.77141,-24.114895,-7.2476654,3.0508964
47,0.22762852907180786,-2.0737571716308594,78.5873794555664,-0.2456521242304995,-1.7318941226410332,95.75314909414168,2.2566512,2.3591576,-2.447731,9.500337,-9.26095,-4.712265,3.5598452,-4.6852593,-8.12664,8.611992,-10.517345,4.937487,-1.254564,0.6761347,6.5008698,-4.1004386,11.60321,-46.716885,61.48225,22.101154,1.8960009,-1.1535857,-0.6439856,-10.203897,32.046486,59.772533,-24.071577,-7.2543683,3.0484335
48,0.21763278543949127,-2.088665723800659,78.58924102783203,-0.24526409330244753,-1.7385097848467657,95.82280145373402,2.260339,2.3399131,-2.5177548,9.45863,-9.242595,-4.762678,3.5817297,-4.704215,-8.196908,8.602299,-10.521115,4.942284,-1.3142112,0.6884176,6.532172,-4.1164637,11.606091,-46.680767,61.47116,21.798996,1.8190142,-1.0105928,-0.68446285,-10.214134,32.057613,59.77766,-24.062206,-7.259718,3.0448172
49,0.20803473889827728,-2.107403516769409,78.59207153320312,-0.23935759537198725,-1.7416695657391819,95.89065962637608,2.2445507,2.3112473,-2.5881073,9.4504,-9.227752,-4.76384,3.5979342,-4.7303267,-8.261894,8.593535,-10.519542,4.964026,-1.370675,0.6944993,6.560269,-4.1269855,11.60661,-46.67611,61.45364,21.663904,1.7724638,-0.9240953,-0.72043157,-10.217769,32.06307,59.784466,-24.108463,-7.258654,3.036
50,0.20481806993484497,-2.126789093017578,78.5932388305664,-0.2285610843437256,-1.7432692093252864,95.96381337887237,2.2175815,2.2744148,-2.6652799,9.4577675,-9.212849,-4.737635,3.6140404,-4.7628284,-8.330357,8.581004,-10.513387,4.998055,-1.4430996,0.70093584,6.6005006,-4.14052,11.606851,-46.67705,61.42821,21.61245,1.7365935,-0.8625312,-0.7753904,-10.221161,32.07283,59.799416,-24.179556,-7.2563276,3.0249534
51,0.20126427710056305,-2.1319165229797363,78.59111785888672,-0.21776773305977612,-1.7445271160935467,96.0258770777305,2.1838222,2.240457,-2.7304235,9.484742,-9.203764,-4.694943,3.62833,-4.792396,-8.38824,8.567676,-10.504799,5.031649,-1.5205879,0.7149241,6.64568,-4.144366,11.607017,-46.67439,61.389046,21.612295,1.714192,-0.82311124,-0.8487892,-10.23639,32.107548,59.8257,-24.25153,-7.255052,3.0117962
52,0.19633832573890686,-2.133622407913208,78.58869934082031,-0.20969050152534036,-1.745521121024576,96.05825608825388,2.1559632,2.2182882,-2.761754,9.518621,-9.198592,-4.6462216,3.633671,-4.812219,-8.418915,8.5647335,-10.500034,5.0522404,-1.5577725,0.72450787,6.6683674,-4.1328797,11.606284,-46.68041,61.355587,21.642214,1.7065024,-0.81130743,-0.8825378,-10.250802,32.137924,59.833725,-24.330606,-7.2542152,3.0002317
53,0.18568605184555054,-2.1324706077575684,78.58659362792969,-0.20560600080787794,-1.747260742555563,96.04001570214359,2.1336315,2.2152104,-2.7359464,9.576879,-9.203829,-4.575457,3.6258109,-4.8161955,-8.403428,8.57885,-10.50116,5.0530562,-1.5374782,0.73251164,6.6664762,-4.100848,11.604755,-46.69587,61.325794,21.712475,1.7192587,-0.83542305,-0.88628066,-10.260675,32.171516,59.83947,-24.433008,-7.2574162,2.988236
54,0.17967787384986877,-2.122239828109741,78.5850830078125,-0.20354570640301137,-1.749051453329007,95.98593152915392,2.1140404,2.2243063,-2.6697469,9.653508,-9.215154,-4.4832616,3.6085906,-4.810051,-8.354999,8.60344,-10.504767,5.0419374,-1.479887,0.7390035,6.647438,-4.050433,11.602958,-46.7165,61.295166,21.833647,1.7499834,-0.89204,-0.8722236,-10.266724,32.20999,59.847248,-24.557137,-7.2631536,2.975105
55,0.18040001392364502,-2.1154367923736572,78.58381652832031,-0.2025880122030677,-1.7504126350260554,95.93342162414467,2.0977428,2.2354891,-2.6050663,9.719887,-9.224274,-4.4054127,3.5909772,-4.8021584,-8.30785,8.627157,-10.50888,5.028247,-1.4250232,0.744834,6.622344,-3.9969826,11.599141,-46.743343,61.267387,21.958872,1.7878774,-0.9583395,-0.85412955,-10.275223,32.259098,59.8545,-24.65245,-7.266775,2.9611406
56,0.19811159372329712,-2.117001533508301,78.58502960205078,-0.2024141367236654,-1.7524343741237227,95.92159866801215,2.0900042,2.238243,-2.585335,9.741743,-9.220758,-4.377431,3.585914,-4.8013015,-8.297895,8.634256,-10.50889,5.02147,-1.4062381,0.7431398,6.6271152,-3.981398,11.598028,-46.7569,61.254505,22.056791,1.8121618,-1.0162008,-0.85812587,-10.276898,32.2718,59.854427,-24.703339,-7.2690377,2.9586537
57,0.22029049694538116,-2.1216955184936523,78.58658599853516,-0.20334653571694333,-1.7527453239276063,95.96621830148858,2.089091,2.2324226,-2.6292987,9.703667,-9.204597,-4.433014,3.5920408,-4.8073735,-8.339486,8.622455,-10.505375,5.0232825,-1.4298701,0.74691665,6.633893,-3.9761646,11.594236,-46.804676,61.232056,22.096758,1.8454043,-1.0607239,-0.87165284,-10.28238,32.286964,59.859398,-24.638645,-7.261632,2.9499266
58,0.228196918964386,-2.136503219604492,78.58893585205078,-0.2051741483630426,-1.7545201740111394,96.04825571036689,2.1027625,2.2208865,-2.7142847,9.611234,-9.172567,-4.544708,3.609966,-4.818382,-8.415165,8.595644,-10.498942,5.0294375,-1.4853218,0.74361897,6.6670017,-4.0062056,11.591451,-46.84593,61.225185,22.114471,1.8698099,-1.101959,-0.9034214,-10.286271,32.27114,59.855812,-24.520939,-7.252903,2.9522026
59,0.2153947651386261,-2.1593480110168457,78.59224700927734,-0.2075789947565953,-1.7535014218762224,96.13817716842703,2.1094744,2.2054176,-2.8082132,9.522538,-9.141885,-4.6581163,3.6252255,-4.8329005,-8.497677,8.570622,-10.493608,5.038265,-1.5547682,0.73961407,6.6959686,-4.029142,11.589863,-46.87297,61.215466,22.134335,1.8916605,-1.1443216,-0.93179655,-10.288376,32.256832,59.84983,-24.395554,-7.2425613,2.9554515
60,0.19434872269630432,-2.189239740371704,78.59742736816406,-0.20561314333293734,-1.7510644291981974,96.20837743684714,2.1063023,2.1862,-2.8801153,9.4664,-9.11346,-4.7183785,3.6367242,-4.8502145,-8.562385,8.549805,-10.486903,5.0486145,-1.5592765,0.7400469,6.7178345,-4.0678883,11.582715,-46.964397,61.21743,22.136059,1.9149966,-1.1816031,-0.9371081,-10.295415,32.199505,59.838764,-24.31343,-7.238686,2.9575655
61,0.17509514093399048,-2.216411828994751,78.6014175415039,-0.20007959093013386,-1.7405188338726547,96.25484956543156,2.0745842,2.158477,-2.9249148,9.47197,-9.0935545,-4.698315,3.6307085,-4.8751154,-8.604207,8.548607,-10.484362,5.063641,-1.5778286,0.7451791,6.70896,-4.0528054,11.577551,-47.007366,61.19734,22.204926,1.9448643,-1.2384324,-0.94177985,-10.29978,32.18999,59.850487,-24.289846,-7.2379894,2.9553936
62,0.15761424601078033,-2.22794246673584,78.602783203125,-0.18992673636509955,-1.72493836148344,96.29087364608692,2.026303,2.1235201,-2.957605,9.509745,-9.075815,-4.631307,3.617238,-4.9058375,-8.635992,8.552942,-10.481084,5.082805,-1.58211,0.75398415,6.681257,-4.0226126,11.567705,-47.061398,61.176777,22.295305,1.9807507,-1.303024,-0.93091035,-10.307567,32.185654,59.863266,-24.293625,-7.239533,2.9510536
63,0.1486460119485855,-2.221975564956665,78.6015625,-0.18095801509286247,-1.7105805542197943,96.31672910517945,1.9776509,2.0907986,-2.979426,9.558092,-9.062053,-4.5536957,3.6020455,-4.9347897,-8.65884,8.562096,-10.480082,5.099391,-1.584512,0.76530665,6.6533256,-3.9851441,11.557032,-47.095547,61.155674,22.353844,2.0002885,-1.3491123,-0.9218856,-10.315924,32.189617,59.88021,-24.305262,-7.239673,2.944362
64,0.14795345067977905,-2.2041637897491455,78.59745025634766,-0.17567370372813332,-1.7059745180942079,96.33098719582254,1.9515715,2.0705912,-2.9898415,9.587051,-9.050727,-4.501949,3.5952265,-4.953604,-8.672489,8.569137,-10.480946,5.106544,-1.5763502,0.77089787,6.649623,-3.966551,11.553867,-47.10086,61.146393,22.320543,1.9817694,-1.3490906,-0.9191463,-10.318316,32.191494,59.886837,-24.300814,-7.234576,2.935274
65,0.15559916198253632,-2.1905198097229004,78.59556579589844,-0.17726864074223136,-1.7105381421297632,96.32454902944508,1.943258,2.0710874,-2.9800074,9.611674,-9.05437,-4.4833617,3.590924,-4.9555526,-8.669732,8.582933,-10.489886,5.0958924,-1.5457139,0.7923369,6.641272,-3.9385865,11.541793,-47.10421,61.146507,22.094036,1.9028152,-1.2564745,-0.9065397,-10.328174,32.203236,59.89478,-24.258856,-7.216869,2.9166315
66,0.1575518399477005,-2.1884422302246094,78.59523010253906,-0.18225867937445547,-1.7258781876440552,96.29754162406496,1.9570849,2.0856156,-2.9491851,9.626747,-9.063866,-4.4794283,3.5942323,-4.9459105,-8.649816,8.597827,-10.50212,5.0731025,-1.494509,0.8100968,6.654697,-3.9253418,11.533688,-47.077805,61.158615,21.755379,1.776897,-1.107495,-0.89572656,-10.335111,32.209698,59.89243,-24.208145,-7.1931124,2.894517
67,0.1574288159608841,-2.197585344314575,78.59678649902344,-0.1872148863716244,-1.7406150482372673,96.27830347026963,1.9722785,2.0990026,-2.9268708,9.630585,-9.069284,-4.4873247,3.5995927,-4.937231,-8.637172,8.607016,-10.511749,5.053216,-1.4474161,0.82618517,6.671913,-3.9156797,11.530285,-47.05154,61.168644,21.423784,1.6524858,-0.9624938,-0.8872536,-10.338251,32.212666,59.890087,-24.156729,-7.1706986,2.872267
68,0.14298225939273834,-2.228147506713867,78.60160827636719,-0.18753848051942126,-1.7462485313630616,96.29343944931554,1.9732426,2.0952969,-2.940359,9.618005,-9.05974,-4.504062,3.6031475,-4.942863,-8.654351,8.605629,-10.514108,5.0514817,-1.4426765,0.8403921,6.6930685,-3.9115236,11.524691,-47.019375,61.171005,21.233862,1.5734199,-0.88429934,-0.89598066,-10.344387,32.222645,59.892437,-24.115671,-7.158682,2.8574066
69,0.12369673699140549,-2.2617435455322266,78.60623931884766,-0.18274625681420026,-1.7363547598730151,96.37063712258836,1.9492717,2.0647016,-3.0196533,9.57488,-9.0241995,-4.543124,3.6056921,-4.970249,-8.726492,8.581246,-10.502037,5.078679,-1.5055325,0.8529693,6.7226787,-3.9206414,11.516893,-46.986855,61.15842,21.245142,1.5627416,-0.9035023,-0.93323183,-10.354049,32.23686,59.899834,-24.081793,-7.160924,2.8523736
70,0.11158475279808044,-2.288062572479248,78.60871887207031,-0.17331186860108955,-1.7168955581788428,96.48804070604054,1.9099865,2.0174236,-3.141868,9.509767,-8.971965,-4.6014395,3.6071794,-5.0114713,-8.834088,8.542527,-10.481129,5.1245313,-1.5943158,0.86184627,6.7568626,-3.9476182,11.510294,-46.979584,61.14023,21.36424,1.5948601,-0.97985685,-0.97827,-10.3632145,32.236355,59.905037,-24.05467,-7.172377,2.852244
71,0.10768795758485794,-2.3120276927948,78.60908508300781,-0.1620089923287261,-1.6973286506903857,96.60130372594408,1.8724835,1.9687705,-3.258501,9.44683,-8.920108,-4.6510577,3.6089146,-5.054106,-8.937687,8.50491,-10.460084,5.172081,-1.6743041,0.867628,6.7829995,-3.9670815,11.506239,-46.983128,61.122047,21.528496,1.6425674,-1.0736141,-1.0132499,-10.369072,32.232216,59.911575,-24.039469,-7.1878023,2.8546329
72,0.10651480406522751,-2.319206953048706,78.60952758789062,-0.15230278440499442,-1.686698548392873,96.66594000014084,1.849577,1.9340006,-3.3212094,9.417023,-8.889147,-4.664155,3.610243,-5.0861917,-8.997328,8.487097,-10.449504,5.204577,-1.7030683,0.8791589,6.7920113,-3.9670193,11.494127,-46.99815,61.116558,21.663876,1.6797602,-1.1434467,-1.0180262,-10.3851185,32.228188,59.915604,-24.037468,-7.204041,2.8595908
73,0.0809384137392044,-2.318181276321411,78.60852813720703,-0.14432694268508314,-1.687234101488155,96.65090157959835,1.8422459,1.920885,-3.2961667,9.448471,-8.893869,-4.6160307,3.6077454,-5.1016707,-8.985069,8.497445,-10.452317,5.2157636,-1.65596,0.8850285,6.763999,-3.9219007,11.487322,-47.019897,61.123108,21.775898,1.7025883,-1.1855667,-0.97591394,-10.392272,32.238045,59.924744,-24.058025,-7.2164154,2.8625624
74,0.07600738108158112,-2.300300359725952,78.6075439453125,-0.13610188726175135,-1.693843830847141,96.58609122177141,1.847222,1.9196758,-3.215847,9.511088,-8.916136,-4.5271764,3.6024175,-5.108226,-8.927812,8.524633,-10.462402,5.2153234,-1.5575032,0.8899537,6.706253,-3.8474624,11.477933,-47.060402,61.14146,21.887714,1.7259192,-1.2162929,-0.90081257,-10.400095,32.260063,59.939655,-24.088764,-7.2286997,2.8643587
75,0.06073160842061043,-2.288530111312866,78.60784912109375,-0.1289494924884188,-1.7048976925766677,96.51907171288217,1.8574643,1.9210848,-3.132495,9.578511,-8.944001,-4.4380584,3.6006048,-5.1128693,-8.868695,8.557988,-10.477424,5.2098293,-1.4588778,0.8962156,6.64967,-3.7714279,11.468635,-47.103657,61.163315,21.974855,1.745625,-1.2347695,-0.8187669,-10.406412,32.282547,59.95093,-24.123398,-7.241114,2.8679893
76,0.07707751542329788,-2.2669734954833984,78.61015319824219,-0.12348155870340166,-1.7193120301113132,96.49756112070877,1.8707366,1.9149653,-3.0982778,9.614794,-8.960141,-4.3888693,3.6124208,-5.122826,-8.851051,8.579733,-10.490644,5.206017,-1.4091979,0.9115873,6.622824,-3.7172334,11.455198,-47.14213,61.17885,22.011333,1.7604731,-1.2379031,-0.76530886,-10.415309,32.297604,59.96398,-24.148977,-7.2568846,2.87523
77,0.07370708882808685,-2.2538564205169678,78.61041259765625,-0.12230581411245756,-1.7420709427876881,96.54415859425754,1.8914763,1.8984852,-3.1376991,9.608626,-8.963249,-4.4006324,3.6469238,-5.1403584,-8.8963785,8.589202,-10.505103,5.2028003,-1.4450996,0.937851,6.653251,-3.6930318,11.448553,-47.150497,61.172783,21.972223,1.7651887,-1.213042,-0.76635575,-10.420566,32.299744,59.98152,-24.166225,-7.2752337,2.8897796
78,0.06404333561658859,-2.2573957443237305,78.61280059814453,-0.12476893816891774,-1.7715747441027208,96.63010358336948,1.9189911,1.8768123,-3.2193077,9.578427,-8.960265,-4.4484663,3.6966493,-5.1617465,-8.9782,8.593208,-10.521727,5.1976385,-1.530624,0.9734205,6.713597,-3.681824,11.443066,-47.14913,61.155666,21.87339,1.7635934,-1.1637383,-0.7896324,-10.426109,32.297615,59.996582,-24.177343,-7.29442,2.908534
79,0.05331763997673988,-2.273402690887451,78.61480712890625,-0.1268285376139862,-1.7986539807440933,96.7259729178694,1.9443021,1.853167,-3.3118925,9.539009,-8.952028,-4.5036554,3.7468357,-5.1840935,-9.0681505,8.590925,-10.535019,5.1947746,-1.6265212,1.0149095,6.781809,-3.682922,11.428657,-47.13766,61.14307,21.777452,1.7593495,-1.1219143,-0.8221946,-10.443634,32.295624,60.008575,-24.186789,-7.320213,2.9321485
80,0.04044847935438156,-2.290492057800293,78.61766815185547,-0.12513217836378157,-1.8105514042116488,96.80157018602289,1.9497718,1.8295461,-3.3833556,9.51372,-8.94273,-4.537638,3.7748299,-5.20599,-9.136117,8.589098,-10.542644,5.1982102,-1.6798576,1.0381464,6.813617,-3.6774056,11.420278,-47.140602,61.140133,21.737482,1.7596294,-1.1208376,-0.8258016,-10.454771,32.295708,60.017216,-24.205118,-7.3509617,2.9499424
81,0.0272075068205595,-2.3131961822509766,78.62201690673828,-0.11995669536779635,-1.7999310406978912,96.85329542327118,1.9294128,1.8053408,-3.4294193,9.496333,-8.924586,-4.5456324,3.7728412,-5.227402,-9.17683,8.581463,-10.537696,5.2100096,-1.6735936,1.0396227,6.79706,-3.673945,11.41247,-47.16593,61.160393,21.80625,1.7760775,-1.1944057,-0.7870886,-10.4648,32.297646,60.010536,-24.2431,-7.398446,2.9664102
82,0.019368594512343407,-2.329275608062744,78.62648010253906,-0.11259021853301686,-1.7747679819667794,96.89545304833547,1.8910402,1.7792493,-3.465528,9.482952,-8.900738,-4.5418763,3.7514138,-5.249781,-9.2049465,8.571791,-10.526342,5.2276754,-1.6415963,1.0268072,6.757158,-3.671273,11.409101,-47.19145,61.186108,21.946583,1.8018672,-1.3183625,-0.7415495,-10.46866,32.30133,60.01062,-24.298046,-7.459974,2.9822116
83,0.014039406552910805,-2.3218348026275635,78.6260986328125,-0.10328008226190342,-1.7454575980154927,96.9257261559409,1.8485007,1.7547333,-3.4897532,9.476677,-8.878701,-4.5266204,3.7237256,-5.270905,-9.222045,8.563107,-10.514574,5.2484646,-1.5645169,1.0099341,6.6933007,-3.6757882,11.398596,-47.26964,61.2356,22.044056,1.8170561,-1.4266149,-0.6465098,-10.479629,32.28878,59.981728,-24.335304,-7.509359,2.9908643
84,0.010381929576396942,-2.3068058490753174,78.62285614013672,-0.0958881754869458,-1.727710275564286,96.9426252036788,1.8213437,1.7344235,-3.5010204,9.483187,-8.868309,-4.4999304,3.711905,-5.288622,-9.231079,8.553797,-10.507329,5.269732,-1.5110838,1.0058627,6.6559577,-3.665531,11.393249,-47.30235,61.26624,22.047726,1.7928727,-1.4660953,-0.5887013,-10.484882,32.284554,59.98005,-24.339941,-7.5314074,2.9933083
85,0.002777684247121215,-2.2898402214050293,78.61933135986328,-0.08822469199093591,-1.7273421865338636,96.93341069966384,1.8143665,1.7211589,-3.4863248,9.517464,-8.876985,-4.4459276,3.7179189,-5.301437,-9.222669,8.554504,-10.511191,5.2921596,-1.4588722,1.0171156,6.6394353,-3.6370163,11.389695,-47.315178,61.285576,21.896837,1.7142993,-1.3994232,-0.54977566,-10.48886,32.284985,59.99892,-24.284256,-7.510328,2.9793227
86,-0.0030142366886138916,-2.2761247158050537,78.61626434326172,-0.08220412920655569,-1.7353933820533638,96.9030358932111,1.8166772,1.7131734,-3.4505396,9.574647,-8.899665,-4.3699684,3.7345104,-5.3097396,-9.198991,8.556049,-10.518344,5.3165607,-1.4003525,1.035931,6.627849,-3.5960615,11.387524,-47.32043,61.304443,21.640247,1.5955513,-1.2632025,-0.507612,-10.492186,32.291065,60.02017,-24.186209,-7.457744,2.9524393
87,-0.01273286435753107,-2.2667453289031982,78.61471557617188,-0.07719538101390977,-1.7434996081581222,96.87601463866285,1.82312,1.7051638,-3.4188662,9.622668,-8.921371,-4.303729,3.753244,-5.318118,-9.178548,8.55585,-10.52737,5.3409314,-1.355465,1.0595981,6.621011,-3.552127,11.385941,-47.3172,61.318626,21.350243,1.4660658,-1.1085254,-0.47375578,-10.497238,32.304165,60.04458,-24.075747,-7.3955173,2.9278467
88,-0.02587604895234108,-2.263620376586914,78.61441040039062,-0.07190867086626507,-1.7444029622168542,96.8763755503544,1.8289899,1.6920179,-3.415939,9.631273,-8.928662,-4.279002,3.7676618,-5.33141,-9.1797495,8.549072,-10.5354595,5.3632793,-1.3315885,1.0814542,6.626329,-3.5280578,11.385819,-47.30708,61.330963,21.102777,1.3538835,-0.9883493,-0.45873907,-10.499957,32.30616,60.069572,-23.990421,-7.3477564,2.9215522
89,-0.03584631159901619,-2.2677297592163086,78.6151351928711,-0.068567710371752,-1.736832225555484,96.92304364792446,1.830831,1.6709906,-3.4605296,9.590819,-8.919368,-4.3171425,3.7791712,-5.3512735,-9.217355,8.532539,-10.543046,5.381214,-1.3499527,1.1026131,6.6446033,-3.5276618,11.386446,-47.29341,61.345806,20.881483,1.2567369,-0.8953591,-0.46272928,-10.503913,32.29861,60.088593,-23.921616,-7.3140197,2.9441695
90,-0.04894911125302315,-2.273799419403076,78.61727905273438,-0.06635449334169521,-1.7250204233043835,96.99864772987027,1.8357059,1.6454892,-3.5349853,9.51108,-8.896709,-4.396909,3.7909,-5.3754306,-9.278036,8.509004,-10.550945,5.396468,-1.392382,1.1241169,6.6773124,-3.547396,11.387496,-47.27676,61.361534,20.661665,1.1643945,-0.8113147,-0.4820948,-10.507579,32.278454,60.10387,-23.858345,-7.2853746,2.9851148
91,-0.06133026257157326,-2.282740831375122,78.61934661865234,-0.06416936498825987,-1.7069940543010043,97.07457045860781,1.8374283,1.6191202,-3.61126,9.4220915,-8.871316,-4.4861684,3.7969031,-5.4004173,-9.33906,8.482211,-10.55731,5.412953,-1.4314315,1.1477437,6.713561,-3.5744038,11.389571,-47.25721,61.372654,20.483402,1.0862771,-0.75796545,-0.507213,-10.514249,32.249752,60.118996,-23.827913,-7.266548,3.0308475
92,-0.07374080270528793,-2.2882490158081055,78.62012481689453,-0.05961151752709493,-1.6820658314973158,97.12198515496334,1.8348978,1.5957278,-3.6609924,9.347232,-8.851031,-4.552788,3.7926612,-5.42366,-9.377656,8.455117,-10.559654,5.4348454,-1.4409442,1.1777754,6.7474036,-3.5954204,11.393928,-47.229843,61.366035,20.393429,1.0304567,-0.76180625,-0.529726,-10.529177,32.220455,60.131413,-23.85715,-7.2651906,3.073134
93,-0.09103139489889145,-2.283691883087158,78.61944580078125,-0.05645349209508084,-1.6463779140008323,97.1280063637994,1.8265667,1.5800709,-3.673824,9.290111,-8.833858,-4.592707,3.7729447,-5.4399123,-9.382912,8.42782,-10.55445,5.461168,-1.4173845,1.2133784,6.7455487,-3.5861065,11.395778,-47.212128,61.344383,20.43791,1.0231436,-0.85508996,-0.53790873,-10.537664,32.23256,60.16311,-23.965925,-7.281658,3.0931036
94,-0.10801291465759277,-2.2736597061157227,78.61811065673828,-0.052721154005223855,-1.6023610991471127,97.10978374276668,1.8124464,1.5686933,-3.665899,9.242865,-8.819016,-4.6215496,3.7409303,-5.4526844,-9.36866,8.401225,-10.545022,5.4905624,-1.3988094,1.2600068,6.7322817,-3.5496695,11.399258,-47.159134,61.294632,20.597729,1.0481395,-1.0201117,-0.5532974,-10.5602255,32.295185,60.201626,-24.127403,-7.3145065,3.1062431
95,-0.1288943737745285,-2.2627103328704834,78.61907196044922,-0.04508396927489889,-1.5526954307848984,97.08338990985197,1.7945559,1.5530919,-3.648254,9.196873,-8.807276,-4.636888,3.7032263,-5.4700117,-9.348844,8.372353,-10.535756,5.5258846,-1.3523093,1.2973992,6.71293,-3.5272346,11.400345,-47.131195,61.26425,20.736519,1.0707431,-1.1771746,-0.5627365,-10.570664,32.334835,60.243923,-24.296434,-7.348416,3.1149085
96,-0.13155396282672882,-2.2533411979675293,78.62013244628906,-0.02746543765641012,-1.5004378876939881,97.06531579944458,1.7715318,1.5249594,-3.6324234,9.151278,-8.803887,-4.6361914,3.6658359,-5.5004206,-9.33775,8.33954,-10.531738,5.5701785,-1.3470066,1.3247118,6.705027,-3.500988,11.403885,-47.052288,61.24448,20.761068,1.0520424,-1.2531224,-0.5901258,-10.597178,32.407906,60.275406,-24.381926,-7.363488,3.126038
97,-0.13990797102451324,-2.244929790496826,78.62348175048828,0.003914303970400213,-1.4436309311309974,97.05182475121984,1.7420099,1.4820247,-3.6147707,9.105718,-8.810653,-4.6127567,3.6286454,-5.547488,-9.33367,8.297926,-10.532619,5.63793,-1.3134019,1.3244047,6.699581,-3.5076578,11.4083,-46.995243,61.275085,20.572716,0.969868,-1.2038385,-0.6070121,-10.617374,32.436672,60.290363,-24.383095,-7.354423,3.1423688
98,-0.15598605573177338,-2.2441437244415283,78.63182067871094,0.04404511838292926,-1.38135583041408,97.03719012013077,1.7059216,1.4291769,-3.591677,9.063493,-8.826573,-4.5694385,3.5895367,-5.6067104,-9.330925,8.248857,-10.536001,5.723003,-1.2543222,1.303046,6.6880865,-3.5349324,11.410837,-46.960968,61.344513,20.247345,0.84931326,-1.0759643,-0.61821115,-10.624433,32.438866,60.30505,-24.334087,-7.3301024,3.1581628
99,-0.1697997748851776,-2.251932382583618,78.64482116699219,0.09013975579987496,-1.3191675719007872,97.03316564211521,1.6661881,1.3690258,-3.5735242,9.020642,-8.845701,-4.518127,3.5470011,-5.6740837,-9.336488,8.209254,-10.547618,5.797489,-1.2310016,1.2805293,6.70319,-3.5653436,11.420441,-46.89022,61.40374,19.924215,0.7226701,-0.93472075,-0.6486419,-10.644581,32.44422,60.30673,-24.25951,-7.303889,3.1755276
100,-0.17979030311107635,-2.258608341217041,78.65974426269531,0.13815219117936298,-1.2612725938047522,97.0517357167249,1.6218859,1.3036761,-3.5708113,8.979042,-8.865473,-4.471388,3.497742,-5.74541,-9.357574,8.197394,-10.574483,5.8332925,-1.2354608,1.2625185,6.7428055,-3.6084938,11.428681,-46.844498,61.457115,19.69403,0.6313476,-0.8302744,-0.69677347,-10.657602,32.426613,60.315292,-24.188547,-7.287431,3.184861
101,-0.19173330068588257,-2.2698044776916504,78.67475128173828,0.19238032953791637,-1.2061672049121055,97.10661801317205,1.5709335,1.2246894,-3.5913746,8.927904,-8.877547,-4.435934,3.4370146,-5.8299923,-9.407285,8.21844,-10.615462,5.8215985,-1.3046789,1.253736,6.827139,-3.664089,11.436631,-46.791924,61.486942,19.58683,0.5814348,-0.7684259,-0.7869612,-10.668448,32.385998,60.33424,-24.121803,-7.2901235,3.1857107
102,-0.2181645929813385,-2.3356518745422363,78.69371795654297,0.2524764881396284,-1.1520232845004779,97.18784801904694,1.5134021,1.133592,-3.6274643,8.871618,-8.887167,-4.4040318,3.3660104,-5.9272757,-9.477791,8.265595,-10.670203,5.7773237,-1.418985,1.2478158,6.94499,-3.732781,11.445166,-46.73348,61.50543,19.544868,0.55218023,-0.72372806,-0.9053145,-10.679056,32.32388,60.355175,-24.048052,-7.304973,3.1822462
103,-0.22437942028045654,-2.352175235748291,78.71018981933594,0.31134117852485566,-1.1054221538131097,97.27204988022842,1.460988,1.0450088,-3.6662157,8.821449,-8.903983,-4.3671002,3.2960706,-6.019392,-9.544649,8.329677,-10.7399435,5.7084327,-1.5374779,1.2427697,7.07976,-3.8062396,11.456104,-46.685818,61.518642,19.570478,0.5474359,-0.7067573,-1.0237,-10.690089,32.25249,60.36484,-23.981464,-7.314496,3.1778033
104,-0.2182110697031021,-2.3257217407226562,78.72090911865234,0.36270112979983216,-1.0721959217754824,97.33592549871362,1.4197438,0.9735985,-3.6953614,8.7995615,-8.943986,-4.317023,3.240325,-6.0874166,-9.5844555,8.397641,-10.824029,5.6229296,-1.6257792,1.236787,7.2030387,-3.870108,11.46421,-46.66899,61.542072,19.659979,0.5703743,-0.7247194,-1.1095879,-10.694707,32.20069,60.356205,-23.929396,-7.2996807,3.1718252
105,-0.20470407605171204,-2.3047399520874023,78.73345947265625,0.4020272738328835,-1.050161908561333,97.3625930967425,1.3929031,0.92915934,-3.6974366,8.800899,-9.001253,-4.256417,3.1858232,-6.1225457,-9.572954,8.480143,-10.916159,5.506112,-1.6608671,1.2292649,7.3166757,-3.9269574,11.471953,-46.686314,61.57379,19.984426,0.6541643,-0.8628921,-1.1605396,-10.694865,32.1687,60.32282,-23.917011,-7.240626,3.1662211
106,-0.19537578523159027,-2.304492235183716,78.74356842041016,0.4330211563845253,-1.036970617767166,97.36901391351651,1.3726486,0.9032405,-3.6850462,8.824162,-9.0742445,-4.18901,3.1298888,-6.1350408,-9.529035,8.581747,-11.02054,5.3584013,-1.6561538,1.2209032,7.4308996,-3.9832358,11.487167,-46.743904,61.606007,20.48272,0.78449184,-1.0890194,-1.1868057,-10.687896,32.130104,60.26898,-23.934896,-7.153096,3.1606295
107,-0.18942779302597046,-2.308722734451294,78.75390625,0.4538615753102543,-1.040335803284771,97.37944682827867,1.3687022,0.8838458,-3.6878648,8.866345,-9.171236,-4.10772,3.1058788,-6.134693,-9.490824,8.675293,-11.148665,5.2119846,-1.6314974,1.2148094,7.552158,-4.037988,11.516501,-46.839478,61.625324,20.82035,0.8991925,-1.2446834,-1.1881552,-10.666266,32.06134,60.199413,-23.957382,-7.0745473,3.1563733
108,-0.18084397912025452,-2.3000645637512207,78.7579116821289,0.46386205828605687,-1.0679720928040752,97.4218314051824,1.3863496,0.8599855,-3.739592,8.93064,-9.302804,-4.004369,3.1502883,-6.1301093,-9.501565,8.729624,-11.310712,5.1009035,-1.6667525,1.2247828,7.691732,-4.0810895,11.541689,-46.88864,61.637367,20.69677,0.9291203,-1.1697423,-1.1922837,-10.646238,31.999817,60.12305,-23.937016,-7.0402336,3.1597354
109,-0.18237349390983582,-2.2876720428466797,78.75857543945312,0.46223882606215155,-1.1361157376969622,97.51990965415854,1.432443,0.8208646,-3.872992,9.034155,-9.480119,-3.8608568,3.293836,-6.129495,-9.590047,8.738574,-11.522122,5.0367928,-1.7423022,1.2468282,7.873198,-4.133852,11.580923,-46.95143,61.630302,19.842073,0.8245101,-0.7269781,-1.1799802,-10.619165,31.877909,60.024395,-23.888552,-7.0685377,3.1739378
110,-0.18736226856708527,-2.260493516921997,78.75762939453125,0.45749709495688273,-1.2360563976307601,97.65358386924883,1.5006834,0.77390087,-4.06411,9.170571,-9.695959,-3.6841753,3.5111208,-6.1326103,-9.727255,8.717498,-11.773275,5.002516,-1.8747756,1.2784288,8.081954,-4.183099,11.610905,-46.985893,61.62212,18.501642,0.61559635,-0.03521227,-1.1590227,-10.6033535,31.76224,59.904007,-23.806372,-7.1339254,3.1957405
111,-0.17700515687465668,-2.2220842838287354,78.75592803955078,0.4545518492006222,-1.3374565270411005,97.78082987985289,1.5784978,0.7339566,-4.2573466,9.307334,-9.933614,-3.5049343,3.7452998,-6.13406,-9.865442,8.679698,-12.03858,4.9880013,-1.9970661,1.3065534,8.285291,-4.223938,11.641914,-47.00666,61.60462,17.064608,0.37907735,0.6782501,-1.1193908,-10.591559,31.624002,59.761467,-23.704319,-7.222514,3.2262697
112,-0.15313424170017242,-2.1625654697418213,78.75727081298828,0.4529600557380981,-1.4106728820684835,97.86070468095208,1.6551973,0.71823674,-4.3962717,9.41102,-10.175166,-3.3565323,3.950461,-6.119193,-9.9593935,8.616583,-12.281543,4.9819865,-2.0616107,1.328071,8.451397,-4.246327,11.680192,-47.00565,61.569923,15.921066,0.20997716,1.1924851,-1.058818,-10.581119,31.45913,59.59876,-23.589909,-7.318434,3.2656817
113,-0.12862247228622437,-2.0999555587768555,78.75394439697266,0.4447239170499895,-1.4590181585086759,97.87778251733167,1.7433491,0.733936,-4.4660964,9.476503,-10.429082,-3.241109,4.1269937,-6.0757236,-9.996761,8.5326,-12.517139,4.983196,-2.0589812,1.3528937,8.579377,-4.242264,11.724213,-46.97019,61.517147,15.229315,0.14854313,1.409664,-0.97634274,-10.572267,31.280788,59.416946,-23.447626,-7.4217863,3.3191433
114,-0.09458622336387634,-2.042431116104126,78.74833679199219,0.42975914650842195,-1.4946837652691294,97.85581793167769,1.8432741,0.7705209,-4.495869,9.521999,-10.700745,-3.1447246,4.3010354,-6.0109816,-10.002757,8.418367,-12.750303,4.9968295,-2.012825,1.3791096,8.687715,-4.212233,11.789881,-46.908443,61.430172,14.759896,0.14887594,1.461268,-0.87619656,-10.563196,31.082083,59.21482,-23.282568,-7.540327,3.3856997
115,-0.058046210557222366,-1.9790709018707275,78.74095153808594,0.4105785436437086,-1.500430708148061,97.81354534628863,1.9309422,0.8244137,-4.495928,9.538791,-10.960519,-3.077594,4.443469,-5.933714,-9.988838,8.289728,-12.953846,5.020789,-1.9552053,1.4020603,8.765099,-4.155866,11.8803425,-46.811195,61.304523,14.330252,0.18334962,1.4784181,-0.7730973,-10.554852,30.874775,59.000217,-23.112652,-7.6663566,3.453175
116,-0.029060643166303635,-1.8990684747695923,78.72933959960938,0.3879031695265206,-1.4565578010352507,97.77107717511298,1.8587483,0.8855254,-4.480284,9.773917,-11.31392,-3.0510652,4.5294175,-5.8482537,-9.968627,8.147338,-13.09253,5.0504866,-1.9164705,1.4269162,8.786367,-4.10795,11.93455,-46.675415,61.213264,13.757495,0.2182859,1.59857,-0.6814916,-10.551663,30.67087,58.794464,-22.955235,-7.7911086,3.5076902
117,-0.0055032758973538876,-1.8150906562805176,78.70442962646484,0.39561329587894356,-1.3493089747585791,97.73165186944276,1.6911924,0.9205709,-4.4371595,10.056,-11.667753,-3.0669003,4.2477355,-5.8494506,-9.894536,8.622142,-13.494162,5.1087418,-1.8718561,1.4108738,8.752692,-4.0407133,12.029562,-46.521984,61.05208,12.9234,0.27688435,1.8713614,-0.5909787,-10.552401,30.417912,58.57046,-22.816292,-7.9261556,3.5659742
118,0.02986849658191204,-1.7316926717758179,78.6771240234375,0.41713353213647786,-1.1982425047431347,97.68898856999564,1.5103761,0.9534268,-4.367815,10.26664,-11.972094,-3.1205425,3.867748,-5.869334,-9.796582,9.188844,-13.898693,5.186886,-1.8321247,1.3767331,8.670033,-3.959839,12.12515,-46.337746,60.871006,11.9488735,0.3604233,2.2270033,-0.50054204,-10.559025,30.15492,58.338814,-22.673738,-8.068389,3.6237476
119,0.07553913444280624,-1.652421236038208,78.650146484375,0.4558539967568672,-1.016396972221967,97.62446285727304,1.3152204,0.982923,-4.2657714,10.439443,-12.238663,-3.2032592,3.3786757,-5.9133725,-9.683641,9.898045,-14.332647,5.249651,-1.7814718,1.3157315,8.562953,-3.8853948,12.217054,-46.12331,60.71162,10.999921,0.41400233,2.5870838,-0.41609424,-10.567914,29.882492,58.10395,-22.565775,-8.2041235,3.6614406
120,0.14117875695228577,-1.5775548219680786,78.62214660644531,0.5187839866063221,-0.8163744331472749,97.51846002594657,1.1210891,1.006539,-4.1233506,10.57354,-12.465899,-3.30596,2.7554746,-5.9923916,-9.561242,10.828491,-14.830171,5.261416,-1.7083491,1.2127631,8.455756,-3.8243434,12.319857,-45.87878,60.594273,10.238648,0.38804308,2.8702872,-0.34298962,-10.573446,29.60628,57.86928,-22.531898,-8.319278,3.6579409
121,0.2226799726486206,-1.503202199935913,78.58904266357422,0.6121342940355408,-0.5883536126487507,97.35236891743492,0.9158536,1.0238619,-3.924893,10.6748905,-12.652914,-3.43646,1.9622289,-6.10736,-9.398658,12.0252,-15.426463,5.203313,-1.5946401,1.0593116,8.338473,-3.7772038,12.434187,-45.586468,60.54255,9.733619,0.24870254,3.058388,-0.2963587,-10.570033,29.347616,57.65844,-22.584442,-8.406793,3.5897226
122,0.29763558506965637,-1.4260435104370117,78.54983520507812,0.7296604760083625,-0.32950312235916907,97.1414805667118,0.7018213,1.0352321,-3.6783376,10.73218,-12.796653,-3.5960453,1.0187066,-6.2541313,-9.200187,13.443661,-16.097528,5.094951,-1.4545591,0.8594221,8.2069,-3.7279406,12.573917,-45.249268,60.51496,9.38841,0.033496384,3.190101,-0.27384958,-10.554767,29.099442,57.465343,-22.70231,-8.4753895,3.4730804
123,0.4082757532596588,-1.3471177816390991,78.50516510009766,0.8667123636276751,-0.06296408494452298,96.91671068790883,0.4898369,1.0373869,-3.4120865,10.768642,-12.911637,-3.7658954,-0.010417587,-6.4358363,-9.023997,15.01384,-16.783073,4.9578276,-1.3216228,0.620849,8.085335,-3.6765068,12.736547,-44.89703,60.478207,9.125756,-0.19963475,3.2733536,-0.2587102,-10.528585,28.823837,57.261665,-22.87469,-8.533881,3.3444467
124,0.5191875696182251,-1.2699686288833618,78.45541381835938,1.0176685797544365,0.18843812781156452,96.70888359824211,0.29467723,1.0267256,-3.1544058,10.798783,-13.007991,-3.9269824,-1.055127,-6.657798,-8.929265,16.65449,-17.420464,4.813887,-1.2274065,0.35210103,7.9988675,-3.624637,12.9246855,-44.565037,60.39507,8.863414,-0.39333507,3.3157754,-0.2292774,-10.493117,28.480816,57.011444,-23.090178,-8.591695,3.241449
125,0.624712347984314,-1.1883361339569092,78.39653015136719,1.1938932214113132,0.43341312067829324,96.52757448118813,0.09749984,0.9859409,-2.9108617,10.831264,-13.08101,-4.0642543,-2.1379075,-6.936243,-8.919117,18.391626,-17.993816,4.6579256,-1.1747707,0.041002788,7.942859,-3.5719655,13.140066,-44.250134,60.250843,8.631057,-0.536704,3.2913058,-0.17823379,-10.4489155,28.037464,56.696026,-23.41001,-8.645328,3.1943245
126,0.7680092453956604,-1.1317247152328491,78.33545684814453,1.395522058492607,0.6800156011443296,96.35573003536449,-0.10020152,0.9206071,-2.6665506,10.850782,-13.12434,-4.1906652,-3.2782116,-7.268055,-8.962193,20.242306,-18.532537,4.4786043,-1.1448315,-0.31338194,7.9075265,-3.5203996,13.383992,-43.943085,60.065105,8.450993,-0.6579989,3.205681,-0.11762862,-10.396514,27.519356,56.336006,-23.81866,-8.692218,3.176742
127,0.8768354654312134,-1.0409380197525024,78.2749252319336,1.6011506069981436,0.9043997663407043,96.18421684433798,-0.25691867,0.86120224,-2.4191692,10.845952,-13.1511345,-4.329264,-4.415197,-7.6343336,-9.068352,22.146097,-19.050611,4.290604,-1.1373248,-0.6835479,7.909085,-3.4675107,13.657617,-43.660725,59.848827,8.241664,-0.7589107,3.1137877,-0.047611315,-10.335504,26.973156,55.94641,-24.191322,-8.742793,3.1422298
128,1.025288701057434,-0.9383147358894348,78.22337341308594,1.7885226550872693,1.082824546828484,96.00347976475769,-0.3290448,0.83886725,-2.1665168,10.800224,-13.171705,-4.503557,-5.4919214,-8.016318,-9.24725,24.051884,-19.566397,4.1088696,-1.1525763,-1.0426702,7.9630694,-3.4118984,13.9619255,-43.42048,59.614326,7.9213915,-0.8414057,3.070167,0.029500648,-10.266963,26.444769,55.54637,-24.404613,-8.8069935,3.0438802
129,1.1904264688491821,-0.8208165168762207,78.16771697998047,1.9556762989841059,1.1876579048173632,95.79656425979178,-0.26415148,0.8609935,-1.8952627,10.68724,-13.185206,-4.7200623,-6.4678345,-8.419146,-9.53018,25.95862,-20.097063,3.9364529,-1.1875405,-1.3909631,8.088151,-3.339579,14.302052,-43.2159,59.34624,7.4564514,-0.9053511,3.0897405,0.12078522,-10.189157,25.939516,55.127552,-24.41857,-8.883164,2.8616815
130,1.3659790754318237,-0.6992457509040833,78.1148452758789,2.112658266669152,1.239280703868572,95.57320149863166,-0.09731642,0.9108632,-1.61082,10.518337,-13.1847725,-4.9664655,-7.3800197,-8.854374,-9.90139,27.891363,-20.632065,3.763122,-1.2447958,-1.7402045,8.270694,-3.2546597,14.680696,-43.039627,59.039177,6.8959274,-0.9503628,3.1427329,0.22313096,-10.100753,25.437342,54.685448,-24.300772,-8.967839,2.6234024
131,1.533505916595459,-0.5917708873748779,78.05919647216797,2.2555496118516447,1.2852870763100297,95.36355608953912,0.07839985,0.98439896,-1.3395491,10.344532,-13.177536,-5.237738,-8.288997,-9.310512,-10.301623,29.839554,-21.142763,3.5862918,-1.3324065,-2.081025,8.4772625,-3.1875865,15.091984,-42.913418,58.727875,6.276784,-0.9786317,3.2172189,0.31896013,-10.007916,24.945953,54.244247,-24.089125,-9.068002,2.3540213
132,1.708405613899231,-0.47617337107658386,78.0085678100586,2.3799428399027938,1.372759682349456,95.19809895208743,0.18043369,1.0782756,-1.106883,10.196261,-13.159835,-5.5295506,-9.255818,-9.773232,-10.67411,31.791845,-21.603569,3.4069598,-1.4571682,-2.4013913,8.675545,-3.1704144,15.5227,-42.859047,58.451405,5.6367097,-0.9925181,3.3016999,0.39632186,-9.919577,24.473225,53.82051,-23.818735,-9.190545,2.079789
133,1.8969473838806152,-0.3434382677078247,77.96305084228516,2.4798652625584263,1.5250395137580468,95.09140161677291,0.16700284,1.1961122,-0.930005,10.092248,-13.146709,-5.8485045,-10.308779,-10.227893,-11.022022,33.75391,-22.006472,3.2216418,-1.6314468,-2.6940355,8.848276,-3.2279692,15.96269,-42.90301,58.248272,4.9343147,-1.0062675,3.407614,0.45213786,-9.843581,24.008198,53.411728,-23.45062,-9.356004,1.8078259
134,2.0864310264587402,-0.2824890613555908,77.91168975830078,2.5593467027116525,1.7126694274620347,95.024972978566,0.09174656,1.3390572,-0.7910832,10.008399,-13.133835,-6.1936884,-11.410263,-10.684443,-11.37154,35.729755,-22.365498,3.0349185,-1.8446009,-2.9629357,9.0156,-3.3457713,16.406925,-43.03027,58.100872,4.168226,-1.015872,3.5375845,0.50070137,-9.781931,23.54774,53.002277,-22.981075,-9.556154,1.5270145
135,2.291841983795166,-0.1801699548959732,77.86466217041016,2.6289723222772556,1.9037946026274035,94.97985525029542,-0.007326244,1.4992857,-0.6661956,9.955579,-13.110727,-6.550634,-12.520596,-11.158797,-11.698772,37.696373,-22.680305,2.8585415,-2.0718868,-3.213988,9.199987,-3.5017583,16.848413,-43.20191,57.970314,3.4289858,-0.9955408,3.6680367,0.5522567,-9.735909,23.112774,52.593536,-22.499105,-9.753024,1.234249
136,2.5033864974975586,-0.034379661083221436,77.81993865966797,2.6997059178943807,2.066688618589522,94.93688919517673,-0.09125404,1.6684053,-0.5306688,9.942273,-13.065825,-6.903262,-13.598235,-11.666634,-11.979005,39.624336,-22.947584,2.7034311,-2.2900186,-3.4536827,9.423262,-3.6732538,17.279404,-43.377125,57.819275,2.807274,-0.9182793,3.7760768,0.61646056,-9.706266,22.725534,52.187534,-22.094643,-9.907686,0.9248721
137,2.7184581756591797,0.10283051431179047,77.76890563964844,2.765807439796126,2.2002112236813476,94.88772417798812,-0.14804116,1.8568447,-0.36725575,9.951551,-12.971395,-7.2633066,-14.642056,-12.184032,-12.191518,41.507008,-23.150068,2.5830202,-2.520038,-3.6686246,9.678734,-3.834586,17.692978,-43.529045,57.66898,2.26965,-0.7641546,3.840603,0.67633975,-9.694362,22.415136,51.80385,-21.781935,-9.997924,0.5769921
138,2.9439778327941895,0.2360299527645111,77.71424865722656,2.8254204108039125,2.318867313415758,94.8435160078518,-0.20076361,2.0643241,-0.1931606,9.990552,-12.845162,-7.6342616,-15.672339,-12.709215,-12.354501,43.35919,-23.293474,2.4901834,-2.7687156,-3.859399,9.95769,-4.0083923,18.086687,-43.683735,57.538734,1.7852472,-0.5515143,3.8805978,0.7335244,-9.7003765,22.165716,51.43508,-21.515242,-10.047591,0.19860148
139,3.1769487857818604,0.37191906571388245,77.65750885009766,2.890788780343427,2.4146600955994018,94.81474778556436,-0.25689104,2.2658987,-0.035148628,10.0877,-12.734515,-7.988405,-16.677559,-13.290491,-12.500139,45.180305,-23.407827,2.402734,-2.9860966,-4.055096,10.2781,-4.236498,18.460459,-43.874058,57.3825,1.4614785,-0.30985254,3.9323997,0.81924075,-9.726159,21.928339,51.050076,-21.293427,-10.086195,-0.1711702
140,3.4132208824157715,0.5064386129379272,77.59381866455078,2.9760129969379694,2.479631221872596,94.81220553000773,-0.32797667,2.43623,0.080288015,10.279075,-12.690573,-8.297619,-17.646248,-13.978289,-12.658288,46.969376,-23.523624,2.2974255,-3.1207795,-4.2830253,10.659348,-4.5645146,18.815714,-44.14015,57.153072,1.3981388,-0.06895685,4.030486,0.9696116,-9.772702,21.652239,50.612038,-21.116068,-10.143205,-0.49203047
141,3.642610549926758,0.655394971370697,77.52299499511719,3.0896456469471696,2.5014391890282908,94.8431618906054,-0.40246215,2.561549,0.14096637,10.559578,-12.705846,-8.543955,-18.562597,-14.78984,-12.835281,48.735474,-23.638731,2.17508,-3.1102266,-4.574458,11.130435,-5.039421,19.152918,-44.5316,56.87904,1.7392713,0.19895321,4.1897063,1.2269807,-9.839018,21.297676,50.07628,-20.965641,-10.228979,-0.755848
142,3.898383617401123,0.8008530139923096,77.44970703125,3.2233596577976913,2.487676936571697,94.90059676369934,-0.4785337,2.656911,0.16301177,10.912851,-12.758596,-8.7463255,-19.435413,-15.696177,-13.012664,50.472187,-23.737978,2.045821,-2.9899836,-4.9025855,11.674116,-5.626097,19.468653,-45.026318,56.569767,2.3882725,0.49976197,4.38525,1.5677264,-9.924243,20.892435,49.46862,-20.850151,-10.326881,-0.98201954
143,4.1372857093811035,0.9498766660690308,77.36556243896484,3.3646974880152443,2.4602061293697486,94.97319519711814,-0.5865928,2.7391825,0.1631465,11.366142,-12.880662,-8.931133,-20.290293,-16.682005,-13.181396,52.15598,-23.832363,1.8982542,-2.8613324,-5.2105594,12.239509,-6.244518,19.75938,-45.548763,56.148342,3.0868113,0.7707594,4.5942626,1.9233133,-10.030717,20.493462,48.86279,-20.804623,-10.42528,-1.17244
144,4.386288166046143,1.1057716608047485,77.2755355834961,3.501544546008122,2.440884043118358,95.05021068183979,-0.7507559,2.8268366,0.15817748,11.934623,-13.10234,-9.124446,-21.153732,-17.73154,-13.332013,53.762424,-23.932743,1.7195444,-2.8313384,-5.4463153,12.775109,-6.8194537,20.024439,-46.019306,55.542652,3.5745766,0.94711775,4.7985344,2.2215102,-10.165206,20.160982,48.33477,-20.864115,-10.511761,-1.3300933
145,4.632413864135742,1.2512240409851074,77.17526245117188,3.64428083454842,2.423956648409501,95.13729901479931,-0.9783514,2.9057202,0.14577046,12.644894,-13.446442,-9.325354,-22.025175,-18.887556,-13.486226,55.307377,-24.049595,1.4979426,-2.9581594,-5.6033545,13.272611,-7.310786,20.267986,-46.403164,54.715023,3.8126209,0.9940012,5.0068197,2.4364123,-10.336426,19.92949,47.909172,-21.110851,-10.585783,-1.426788
146,4.8857831954956055,1.4137901067733765,77.0640869140625,3.7961584786800615,2.401423509216175,95.23760993926518,-1.2574052,2.973365,0.11920747,13.483191,-13.892953,-9.521307,-22.896667,-20.14458,-13.636118,56.79669,-24.174198,1.2398417,-3.1840715,-5.7109165,13.757545,-7.7585616,20.49402,-46.735245,53.702568,3.9336236,0.95131636,5.2259784,2.606843,-10.547157,19.76867,47.541546,-21.497515,-10.652074,-1.4708656
147,5.146603107452393,1.5835272073745728,76.93726348876953,3.9351630002368294,2.392350303350195,95.33630808376826,-1.5947161,3.0644977,0.088254355,14.427253,-14.411852,-9.720365,-23.786186,-21.4143,-13.728755,58.189323,-24.293003,0.9610707,-3.4403465,-5.771599,14.229172,-8.215408,20.701612,-47.047024,52.551594,3.9295123,0.86470115,5.437751,2.763288,-10.791224,19.635893,47.20047,-21.867409,-10.706939,-1.5192155
148,5.423946380615234,1.761707067489624,76.80316925048828,4.038295445558567,2.415835812032895,95.41841217077263,-1.9906652,3.2154315,0.062515244,15.442263,-14.969828,-9.931806,-24.715204,-22.604162,-13.714036,59.449997,-24.390171,0.67951167,-3.6570287,-5.7844205,14.685811,-8.735114,20.885506,-47.37205,51.312668,3.7923064,0.77992594,5.6236324,2.9317904,-11.05781,19.489244,46.861855,-22.06374,-10.746043,-1.6293373
149,5.7096848487854,1.9396132230758667,76.65409088134766,4.0950861030670795,2.4890133228338707,95.48449174856893,-2.5019403,3.440518,0.042073727,16.6051,-15.597503,-10.143734,-25.713264,-23.69126,-13.581815,60.573914,-24.477072,0.38153556,-3.8108244,-5.7377725,15.118828,-9.333328,21.041788,-47.717167,49.986954,3.3709018,0.6723478,5.7922573,3.1206827,-11.340481,19.314634,46.521076,-21.98461,-10.757198,-1.8364776
150,5.992572784423828,2.1234700679779053,76.49423217773438,4.115037203078358,2.5979742215209214,95.54107181498848,-3.1064103,3.7228823,0.020280706,17.898525,-16.296562,-10.356125,-26.767,-24.716516,-13.359641,61.57871,-24.555805,0.065195955,-3.9379604,-5.6329103,15.529544,-9.987867,21.168728,-48.07476,48.561718,2.7136981,0.5287807,5.9483123,3.3143754,-11.638605,19.130978,46.19775,-21.736742,-10.747512,-2.1041756
151,6.291903495788574,2.3216545581817627,76.33305358886719,4.113612822421144,2.715364919394607,95.58235459713154,-3.6991599,4.0476665,-0.00201018,19.174715,-16.999712,-10.596991,-27.832771,-25.682217,-13.055425,62.462433,-24.597012,-0.23207355,-4.0570107,-5.4889245,15.9307,-10.682592,21.260921,-48.441593,47.06029,2.1282396,0.41400546,6.069825,3.5026991,-11.949813,18.946272,45.906693,-21.477325,-10.74147,-2.3829727
152,6.605208873748779,2.5351762771606445,76.17444610595703,4.105558663274137,2.813466421618215,95.60184949728061,-4.1731176,4.3966618,-0.020953117,20.28386,-17.638597,-10.895223,-28.866798,-26.594984,-12.675834,63.22432,-24.571352,-0.47227266,-4.1856885,-5.327727,16.334452,-11.408533,21.31048,-48.818928,45.51367,1.9173319,0.39353877,6.137525,3.6753168,-12.271068,18.767603,45.664127,-21.365671,-10.761601,-2.623603
153,6.934808254241943,2.7658002376556396,76.01771545410156,4.096290377207104,2.879785277313391,95.59474607586569,-4.4999332,4.7634764,-0.034245193,21.204956,-18.212004,-11.269801,-29.857418,-27.45122,-12.201029,63.843933,-24.467525,-0.6420475,-4.318522,-5.152596,16.750874,-12.17082,21.309843,-49.231186,43.959824,2.264633,0.5260562,6.111938,3.8201356,-12.605268,18.62362,45.488945,-21.464783,-10.82823,-2.8116527
154,7.251127243041992,3.004365921020508,75.8581314086914,4.075635437544142,2.930367429931679,95.56504923172,-4.7316318,5.1557546,-0.04091166,22.005774,-18.748846,-11.702972,-30.828724,-28.247375,-11.637541,64.327835,-24.301374,-0.76107943,-4.4490786,-4.9514427,17.169012,-12.976531,21.255138,-49.669518,42.383163,2.9747195,0.76134074,6.013806,3.9464822,-12.952724,18.502619,45.370487,-21.683031,-10.923308,-2.9744933
155,7.587632656097412,3.2504353523254395,75.7034912109375,4.045499168548932,2.9809103411763482,95.5200871444114,-4.8916054,5.574996,-0.038368776,22.690275,-19.238861,-12.167671,-31.793903,-28.988373,-11.026729,64.72055,-24.08359,-0.8405721,-4.5922318,-4.72642,17.568907,-13.819824,21.145758,-50.084644,40.736965,3.7820544,1.0026387,5.916184,4.0729594,-13.305126,18.349888,45.28584,-21.95005,-11.010675,-3.126375
156,7.942513465881348,3.5097968578338623,75.55365753173828,4.0047840420385015,3.04684322021088,95.4672448525455,-4.999888,6.0239215,-0.02557962,23.253689,-19.665314,-12.636423,-32.763428,-29.680004,-10.412376,65.066086,-23.826252,-0.8923326,-4.7626457,-4.4814625,17.930794,-14.692179,20.983961,-50.426483,38.970726,4.421119,1.1569837,5.896312,4.215947,-13.648294,18.11086,45.215763,-22.194902,-11.054591,-3.2815704
157,8.295818328857422,3.7779898643493652,75.40281677246094,3.9462426226885214,3.130293897921612,95.40641399923864,-5.0700703,6.51737,-0.0060163043,23.715551,-20.038319,-13.10919,-33.73452,-30.321342,-9.802339,65.35942,-23.54382,-0.9092109,-4.958308,-4.2119946,18.257687,-15.603751,20.77475,-50.687172,37.064827,4.817579,1.1693342,5.995691,4.353839,-13.971255,17.776249,45.20033,-22.392954,-11.038369,-3.448144
158,8.6652193069458,4.068536281585693,75.26044464111328,3.873296271306702,3.223456129554391,95.3339770246552,-5.08917,7.049203,0.021061698,24.073975,-20.360497,-13.597499,-34.700935,-30.909004,-9.1770735,65.58315,-23.226246,-0.88741595,-5.171707,-3.9220498,18.555454,-16.549519,20.520714,-50.887768,35.044697,5.116205,1.1016533,6.1679826,4.483386,-14.271633,17.373354,45.24458,-22.586527,-10.983388,-3.6184661
159,9.094690322875977,4.393082618713379,75.13778686523438,3.800823677999391,3.32733810147433,95.25277351196745,-5.035217,7.593587,0.061948303,24.283943,-20.608004,-14.091364,-35.667946,-31.452507,-8.537176,65.76528,-22.849209,-0.84382594,-5.4093795,-3.6277788,18.808622,-17.510956,20.221342,-51.03162,32.9356,5.365663,1.0369965,6.3603325,4.650625,-14.549414,16.901573,45.27451,-22.806067,-10.911281,-3.7827537
160,9.512784004211426,4.718806266784668,75.0181884765625,3.744103261337259,3.442877497632325,95.16543348187675,-4.8890524,8.123998,0.12259875,24.304083,-20.756426,-14.580517,-36.641327,-31.965157,-7.8812575,65.93362,-22.388376,-0.79436886,-5.6772523,-3.3444192,19.00193,-18.47044,19.873585,-51.12229,30.763744,5.61542,1.0577426,6.519379,4.9027057,-14.805805,16.35901,45.21343,-23.082155,-10.843756,-3.9307284
161,9.894742965698242,5.034316539764404,74.90518951416016,3.726363291536352,3.578730409446058,95.07643290544115,-4.659469,8.600728,0.19665755,24.122116,-20.806347,-15.000033,-37.65299,-32.47757,-7.179372,66.09611,-21.862759,-0.73710614,-5.9740834,-3.0893395,19.13019,-19.434021,19.471361,-51.15786,28.48871,5.8695803,1.2498524,6.626468,5.243728,-15.036059,15.695376,45.062977,-23.50161,-10.778807,-4.0302515
162,10.317425727844238,5.392216682434082,74.81362915039062,3.8079236713020417,3.7337774749988784,95.00171054173725,-4.3199472,8.894385,0.251922,23.673716,-20.717007,-15.000033,-38.739723,-33.05331,-6.3556614,66.25255,-21.272823,-0.6372778,-6.310419,-2.918413,19.189196,-20.410418,19.012533,-51.139256,26.118801,6.104855,1.547579,6.711396,5.6564236,-15.235832,14.923531,44.854233,-24.022287,-10.7079115,-4.095567
163,10.760284423828125,5.767977237701416,74.74162292480469,3.883030854053061,3.889397168940983,94.91668648812316,-3.8779728,9.208208,0.3243708,23.044043,-20.518707,-15.000033,-39.788437,-33.56013,-5.547605,66.37826,-20.574947,-0.52456427,-6.670141,-2.7374308,19.192924,-21.38756,18.502375,-51.071236,23.75277,6.3301167,1.8060005,6.7937994,6.148055,-15.413295,14.140036,44.556976,-24.478394,-10.642298,-4.1866407
164,11.250823974609375,6.169365882873535,74.68370056152344,3.9234686705639854,4.029452187474093,94.81557807374081,-3.3103518,9.578567,0.41856745,22.237072,-20.19334,-15.000033,-40.740307,-33.953457,-4.802342,66.472084,-19.720757,-0.3973647,-7.059504,-2.5253522,19.148031,-22.351637,17.952679,-50.95456,21.481411,6.554825,1.8802302,6.8930283,6.7299423,-15.583486,13.444406,44.131256,-24.701996,-10.592599,-4.3632956
165,11.727416038513184,6.600131988525391,74.64321899414062,3.928714791004523,4.138895552921345,94.70303891409885,-2.5741932,10.002309,0.5346243,21.192282,-19.738379,-15.000033,-41.57496,-34.252144,-4.125728,66.5281,-18.669453,-0.2215241,-7.506081,-2.2804024,19.0722,-23.304806,17.37489,-50.768,19.292423,6.7216616,1.6530772,7.0049133,7.41821,-15.754278,12.829588,43.520103,-24.606836,-10.552235,-4.659866
166,12.232741355895996,7.043972492218018,74.62086486816406,3.9084860254907507,4.230710122806013,94.57969871429232,-1.6948059,10.464486,0.6720123,19.92701,-19.1594,-15.000033,-42.319798,-34.471138,-3.4983993,66.55032,-17.457035,-0.0019994453,-8.002632,-2.009329,18.962614,-24.25342,16.775642,-50.511833,17.13524,6.844216,1.2280028,7.122887,8.205787,-15.925506,12.254847,42.745693,-24.291636,-10.520649,-5.03682
167,12.771103858947754,7.506579875946045,74.61573028564453,3.8564149095258515,4.330293017256225,94.43407000701329,-0.74006397,10.98171,0.83831394,18.538921,-18.44731,-15.000033,-42.98272,-34.56346,-2.9374325,66.55142,-16.152428,0.20424335,-8.502515,-1.7065712,18.796543,-25.182066,16.158966,-50.21744,15.037152,7.047616,0.79212564,7.2632823,9.067547,-16.104105,11.768426,41.887814,-23.86724,-10.517087,-5.4435277
168,13.33001708984375,7.9796247482299805,74.62055969238281,3.7659245143750883,4.462332566490018,94.25386111687237,0.21839525,11.56869,1.0425792,17.133194,-17.59683,-15.000033,-43.573143,-34.488407,-2.4591513,66.54413,-14.822739,0.34052137,-8.9604845,-1.3652233,18.550364,-26.075823,15.528051,-49.91458,13.026072,7.4532037,0.532871,7.441806,9.979469,-16.300447,11.422552,41.026516,-23.443064,-10.559234,-5.829052
169,13.92867374420166,8.491252899169922,74.63963317871094,3.6298077810442875,4.6359290808660365,94.04045133714637,1.1936643,12.228855,1.2793485,15.659761,-16.587523,-15.000033,-44.114243,-34.295242,-2.129208,66.5548,-13.472777,0.2804595,-9.383677,-0.97199446,18.204163,-26.944113,14.882739,-49.611008,11.093106,8.259887,0.56518364,7.7176156,10.969438,-16.531704,11.233557,40.116135,-23.029951,-10.6624365,-6.1856604
170,14.545397758483887,9.02992057800293,74.67387390136719,3.4565908367888643,4.836248297299884,93.79749765691,2.2064738,12.946424,1.5521828,14.097877,-15.431005,-15.000033,-44.59857,-33.995644,-1.9196572,66.56835,-12.065607,0.09752274,-9.789803,-0.52964824,17.779076,-27.790865,14.224257,-49.28678,9.221674,9.348354,0.7715515,8.058808,12.046733,-16.800926,11.170549,39.124115,-22.571463,-10.814734,-6.5349946
171,15.201035499572754,9.579626083374023,74.71855163574219,3.2579735539754537,5.051535271043338,93.51530446303343,3.1949594,13.706871,1.8837036,12.60468,-14.178583,-15.000033,-44.98504,-33.47649,-1.7041105,66.53025,-10.607837,0.03820793,-10.145365,-0.06415173,17.310633,-28.594984,13.5612755,-48.93404,7.4307528,10.35867,0.9863311,8.347484,13.152199,-17.093472,11.214776,38.162075,-22.08044,-10.990676,-6.8730617
172,15.87345027923584,10.15185546875,74.77959442138672,3.051073029720586,5.268560522179036,93.1823271589183,4.0906854,14.498731,2.2935376,11.3621855,-12.890898,-15.000033,-45.231113,-32.615788,-1.3436955,66.38799,-9.117926,0.35712695,-10.418416,0.38915235,16.833668,-29.325935,12.907415,-48.544678,5.7340255,10.938599,1.0371926,8.474347,14.2177,-17.384354,11.352435,37.351543,-21.574228,-11.164089,-7.1994166
173,16.594688415527344,10.747052192687988,74.85546112060547,2.8258773168192852,5.485594043618391,92.78853939307984,4.9074197,15.337901,2.777577,10.370411,-11.565174,-15.000033,-45.331818,-31.2814,-0.727766,66.12144,-7.609172,1.1546787,-10.594308,0.8317435,16.348629,-30.004646,12.275153,-48.106007,4.1223,10.894133,0.84932965,8.329921,15.2446,-17.664717,11.605844,36.71107,-21.030764,-11.342385,-7.544892
174,17.329416275024414,11.337409973144531,74.93550872802734,2.581565997760102,5.7026889995974415,92.33677933567571,5.6544924,16.221605,3.324172,9.604632,-10.205469,-15.000033,-45.3003,-29.552963,0.069403015,65.754585,-6.1031165,2.3095016,-10.693394,1.262794,15.84563,-30.61485,11.667824,-47.625546,2.5705101,10.461493,0.52425146,7.999862,16.249228,-17.937239,11.980764,36.193176,-20.456709,-11.534861,-7.9032106
175,18.119779586791992,11.939440727233887,75.02368927001953,2.3475074466454173,5.909710474377351,91.83582250143313,6.2811394,17.121098,3.9405284,9.169468,-8.872792,-15.000033,-45.118526,-27.620365,0.9087992,65.30135,-4.634161,3.7361588,-10.750486,1.6408243,15.349319,-31.031706,11.067747,-47.12643,1.0580376,9.979355,0.15241109,7.6753025,17.167114,-18.194382,12.45078,35.830772,-19.916145,-11.715964,-8.221674
176,18.95310401916504,12.564018249511719,75.10790252685547,2.1426860211613032,6.100062523196785,91.29683858173554,6.7411156,18.020855,4.6310387,9.154051,-7.616753,-15.000033,-44.77559,-25.672148,1.6411982,64.77652,-3.217076,5.3349442,-10.693525,1.9598554,14.83318,-31.47241,10.545494,-46.68547,-0.28498805,9.419172,-0.19403929,7.5279555,18.038273,-18.405144,12.903549,35.630093,-19.463772,-11.860346,-8.44447
177,19.822715759277344,13.194038391113281,75.18749237060547,1.9536116760369322,6.289120357178743,90.69700748855921,7.0864453,18.943466,5.4382677,9.464892,-6.3584785,-15.000033,-44.29051,-23.545052,2.3909254,64.12594,-1.5381591,7.3672395,-10.601156,2.1958804,14.327852,-31.612082,10.065847,-46.27563,-1.6456362,9.134145,-0.47933108,7.684484,18.75187,-18.560528,13.452998,35.67373,-19.137012,-11.949902,-8.564905
178,20.706180572509766,13.835186958312988,75.26399230957031,1.7589556351127333,6.474495895423078,90.04241753358977,7.3494883,19.917406,6.339611,10.050089,-5.078736,-15.000033,-43.656387,-21.181904,3.2046592,63.3583,0.267584,9.809832,-10.444897,2.379119,13.816739,-31.584955,9.630908,-45.895702,-2.9562953,8.892147,-0.7539369,8.0184965,19.362099,-18.662054,14.084785,35.931297,-18.901695,-12.000656,-8.61207
179,21.626941680908203,14.4834566116333,75.32073974609375,1.5707293788524692,6.632223389919764,89.39769447462123,7.450024,20.939413,7.2296543,11.036015,-3.8955014,-15.000033,-42.858925,-18.973886,3.7555933,62.590805,1.5862489,12.054443,-10.266912,2.512305,13.325478,-31.430248,9.244503,-45.53769,-4.1616597,8.654412,-1.0426391,8.38647,19.884571,-18.71068,14.709622,36.315845,-18.740294,-12.033736,-8.592711
180,22.612186431884766,15.128413200378418,75.3548812866211,1.3997183448345873,6.747200348883271,88.83294539068737,7.301503,22.012068,7.991904,12.520122,-2.9157665,-15.000033,-41.90787,-17.355581,3.6455932,61.939438,1.8852794,13.420686,-10.134996,2.60304,12.884216,-31.120102,8.888578,-45.19535,-5.2347283,8.457869,-1.3671432,8.65066,20.308228,-18.711655,15.253156,36.747135,-18.638088,-12.070382,-8.513371
181,23.612735748291016,15.769203186035156,75.37544250488281,1.2601721742493255,6.841363810712195,88.3689472983119,6.939281,23.132486,8.654587,14.358923,-2.0580316,-15.000033,-40.800777,-16.585192,2.558398,61.46973,0.9298345,13.547492,-9.997362,2.660175,12.422904,-30.854849,8.619815,-44.864418,-6.088376,7.99675,-1.7754053,8.760322,20.714437,-18.6525,15.656949,37.218166,-18.655495,-12.12702,-8.331724
182,24.620542526245117,16.418630599975586,75.38118743896484,1.1274613983189712,6.9218692474563275,87.96870617784893,6.4286275,24.31746,9.250147,16.44979,-1.2464119,-15.000033,-39.51477,-16.34778,0.74339676,61.10569,-0.9142261,12.855673,-9.925965,2.6771307,11.988026,-30.328852,8.390353,-44.552578,-6.9006886,7.607298,-2.2333412,8.815605,20.99269,-18.541769,16.042418,37.796547,-18.789244,-12.188548,-8.061699
183,25.660511016845703,17.065731048583984,75.3590316772461,0.9494642132021063,6.95100584718989,87.61128989972958,5.7798758,25.59854,9.677639,18.833797,-0.54309475,-15.000033,-38.033966,-16.214844,-1.3691353,60.737602,-3.2485495,11.819295,-9.824325,2.729451,11.626988,-29.800104,8.216252,-44.255188,-7.508155,7.207222,-2.6695826,8.81132,21.1845,-18.38522,16.32488,38.402164,-18.887617,-12.232381,-7.776595
184,26.7049617767334,17.71954917907715,75.30933380126953,0.7068583870492563,6.895702836435965,87.2851334898224,4.970649,26.940533,9.86143,21.575512,-0.020092422,-14.636634,-36.40859,-15.8348675,-3.3275795,60.261997,-5.6533513,10.866251,-9.679233,2.8464625,11.414732,-29.283607,8.08931,-43.976498,-7.890165,6.9508495,-3.0062664,8.767207,21.257666,-18.195742,16.479383,38.97479,-18.807463,-12.233709,-7.5520706
185,27.736082077026367,18.350976943969727,75.24703979492188,0.8162767230866466,6.781358167801039,87.10540261616688,3.9391177,27.89975,10.176607,24.62966,0.35681206,-12.503027,-34.784786,-15.5864725,-4.732187,59.75509,-8.279473,10.1387415,-9.572845,2.6530497,11.244455,-28.806171,8.018481,-43.74831,-8.026963,6.7953906,-3.2153134,8.676842,21.248203,-17.958004,16.466314,39.531353,-18.472597,-12.186934,-7.4354672
186,28.78850746154785,18.960216522216797,75.16478729248047,0.9891085510139227,6.583191460846719,86.98717150116195,2.741073,28.906954,10.483787,28.061016,0.50950795,-9.758125,-32.999744,-15.321204,-6.043595,59.17436,-11.243278,9.351055,-9.448829,2.3953419,11.181265,-28.308062,7.9989295,-43.563984,-7.9610248,6.7284827,-3.3392243,8.541132,21.140102,-17.66727,16.316092,40.102024,-17.976208,-12.104308,-7.378108
187,29.813926696777344,19.55473518371582,75.05298614501953,1.1413900356619113,6.335719459984076,86.86968019233704,1.4434861,29.85241,10.442678,31.614239,0.50698715,-6.9324465,-31.227316,-14.940268,-7.246756,58.63218,-14.191389,8.529906,-9.258558,2.1550078,11.234391,-27.818745,8.025788,-43.35994,-7.670753,6.802959,-3.4151309,8.371904,20.876125,-17.352259,16.08382,40.628536,-17.414394,-11.98676,-7.3155465
188,30.84419059753418,20.127294540405273,74.92030334472656,1.1937509216007263,6.076497876400946,86.6959805141429,0.06035579,30.568666,9.682585,35.11035,0.4562975,-4.617891,-29.644962,-14.369615,-8.326418,58.244244,-16.775745,7.7052903,-8.973872,2.0155962,11.415769,-27.327545,8.086466,-43.065857,-7.1605163,7.1081376,-3.4804492,8.18266,20.400404,-17.064054,15.836034,41.037785,-16.876768,-11.8337145,-7.180699
189,31.832477569580078,20.674333572387695,74.75715637207031,1.1584566622233978,5.81573457899303,86.4967849271311,-1.5349082,30.950802,8.012058,38.724472,0.3461666,-2.9980066,-28.291204,-13.658082,-9.279788,58.053116,-18.964613,6.8840747,-8.619986,1.994564,11.728021,-26.852331,8.177228,-42.687943,-6.4161425,7.7121453,-3.5255303,7.9384255,19.741213,-16.825838,15.52616,41.279217,-16.306995,-11.624356,-6.9332657
190,32.81723403930664,21.178647994995117,74.56178283691406,1.0807455935575607,5.534252941061761,86.28968197750552,-3.3927822,31.006048,5.6138797,42.649242,0.09696609,-1.8258998,-27.076971,-12.860283,-10.103486,57.999004,-20.93387,6.0509195,-8.211916,2.0491507,12.162485,-26.385494,8.299694,-42.242496,-5.44694,8.554374,-3.541154,7.644228,18.931358,-16.6397,15.142289,41.37507,-15.673878,-11.363693,-6.6134796
191,33.790794372558594,21.640317916870117,74.33971405029297,0.9291146751102628,5.227899139207948,86.00247013011338,-5.368661,30.700224,2.7021987,46.74259,-0.23161013,-1.0935575,-25.986206,-11.923875,-10.791022,58.044243,-22.649158,5.2025986,-7.719027,2.180303,12.710168,-25.865707,8.444563,-41.66738,-4.2990756,9.540231,-3.5637338,7.3731384,17.919333,-16.536032,14.813603,41.357788,-15.098515,-11.089992,-6.272497
192,34.687870025634766,22.075111389160156,74.11917114257812,0.6690060481292959,4.892378979592282,85.56431291433815,-7.2665343,30.01813,-0.47811535,50.802536,-0.5595997,-0.78945774,-24.999514,-10.790031,-11.33819,58.147644,-24.073013,4.334852,-7.121627,2.4034688,13.358644,-25.234533,8.600144,-40.88454,-3.0173616,10.565635,-3.6270812,7.1958747,16.659508,-16.560858,14.682184,41.24906,-14.691244,-10.84334,-5.9561596
193,35.56221008300781,22.494102478027344,73.87696838378906,0.23825232279774586,4.520581887054824,84.90879405784104,-8.968887,28.763731,-4.1596394,54.830666,-0.872714,-1.1632816,-24.16393,-9.367644,-11.710961,58.353363,-25.125196,3.4211686,-6.3877673,2.79302,14.134373,-24.474358,8.757642,-39.85525,-1.5829363,11.633655,-3.7640328,7.070865,15.11146,-16.754,14.8267,41.024044,-14.5162735,-10.61895,-5.6722093
194,36.42693328857422,22.89061164855957,73.63954162597656,-0.31265188723446063,4.108873600427716,84.09386421439592,-10.436013,26.876871,-8.234144,58.962204,-1.2794353,-2.266514,-23.456419,-7.7513924,-11.918977,58.68404,-25.867884,2.4640458,-5.5697665,3.332044,15.023956,-23.589884,8.91771,-38.59518,-0.0057991864,12.789177,-3.9485703,6.979197,13.308982,-17.114069,15.198478,40.661472,-14.479947,-10.402042,-5.386159
195,37.25260925292969,23.2991943359375,73.41374969482422,-0.8654053766574381,3.661586981778352,83.2336903796131,-11.65549,24.680079,-12.0103245,63.123886,-1.8290492,-3.6900625,-22.758348,-6.1345825,-12.035239,59.056324,-26.465847,1.5016001,-4.7680364,3.9065046,15.96323,-22.542608,9.080191,-37.116608,1.6166111,14.0008745,-4.119345,7.026698,11.309628,-17.611938,15.745917,40.19445,-14.459561,-10.218348,-5.0813994
196,38.0882568359375,23.732202529907227,73.19264221191406,-1.3146980960376082,3.1939345565142356,82.44356955211784,-12.775076,22.611488,-14.928436,67.190834,-2.4655888,-4.913145,-21.966719,-4.6842885,-12.143441,59.367695,-27.065273,0.57620186,-4.0708637,4.4006076,16.89352,-21.306133,9.2434635,-35.44343,3.2001827,15.23175,-4.2102613,7.3166995,9.173896,-18.20728,16.401981,39.65915,-14.34057,-10.092493,-4.746432
197,38.9071044921875,24.16208267211914,72.97852325439453,-1.6849496324927107,2.6792599493501745,81.74742850924636,-13.885278,20.86384,-17.000202,71.14837,-3.0781357,-5.810198,-21.045584,-3.3820853,-12.302743,59.597755,-27.64576,-0.3304186,-3.50915,4.8005867,17.862787,-19.841234,9.38838,-33.534504,4.8421764,16.505562,-4.2183547,7.9646215,6.8539734,-18.88462,17.217247,39.07642,-14.077279,-10.044763,-4.357281
198,39.69649124145508,24.611940383911133,72.78438568115234,-2.023284418761712,2.1253066281405646,81.0880728820473,-14.98844,19.299198,-18.555931,75.03071,-3.6804228,-6.5517416,-20.058512,-2.1460662,-12.471599,59.789417,-28.139822,-1.2378298,-3.0260987,5.159394,18.883406,-18.163694,9.49827,-31.405577,6.548068,17.822577,-4.158081,8.881116,4.3320613,-19.630558,18.214533,38.420433,-13.736115,-10.056291,-3.9275482
199,40.46392822265625,25.075855255126953,72.61077880859375,-2.275164592501128,1.6082013836053644,80.45837246632199,-16.20868,17.910278,-19.59453,78.75563,-4.319821,-6.992843,-19.06842,-1.0319874,-12.593472,59.924347,-28.607374,-2.1001663,-2.5637162,5.4524055,19.84403,-16.336527,9.577864,-29.182709,8.106524,19.115961,-3.9930053,9.862379,1.717449,-20.40792,19.25774,37.668217,-13.386027,-10.092704,-3.5079496
200,41.17954635620117,25.559066772460938,72.46244812011719,-2.3851379127726418,1.2043688633691976,79.84874092743415,-17.657833,16.67399,-20.099964,82.23044,-5.0442944,-7.001955,-18.140903,-0.09477569,-12.617518,59.987362,-29.106678,-2.8704102,-2.0533483,5.6494594,20.629808,-14.432062,9.648736,-27.002361,9.316373,20.318819,-3.6968172,10.709108,-0.8836341,-21.175667,20.193947,36.818954,-13.109614,-10.121982,-3.1529624
201,41.89567947387695,26.049951553344727,72.3309555053711,-2.305944089535033,0.9414393942302698,79.28321842821849,-19.445972,15.649013,-19.977222,85.467834,-5.8828397,-6.4227576,-17.31224,0.6031491,-12.552436,60.005775,-29.672539,-3.5304878,-1.4983445,5.6811094,21.212711,-12.43218,9.719006,-24.825157,10.1297865,21.61214,-3.167958,11.407923,-3.499115,-21.916765,20.999693,35.92218,-12.972438,-10.154192,-2.8870914
202,42.6146125793457,26.548587799072266,72.21282958984375,-2.088454769546188,0.7803619298571627,78.75394920396623,-21.510263,14.900545,-19.298826,88.488754,-6.802683,-5.314999,-16.547846,1.1231359,-12.439205,59.974598,-30.25662,-4.1132903,-0.91471726,5.5706906,21.651072,-10.304985,9.781307,-22.623585,10.663426,22.954626,-2.4525871,12.045967,-6.178548,-22.634184,21.741035,34.99227,-12.929609,-10.203355,-2.6823924
203,43.35890579223633,27.059537887573242,72.1368179321289,-1.822102129570561,0.6958616791741734,78.20386956676866,-23.68522,14.376759,-18.278679,91.2071,-7.7571034,-3.9049146,-15.80672,1.5905232,-12.272066,59.835194,-30.795036,-4.646508,-0.25819507,5.431769,21.956148,-8.106107,9.84549,-20.539194,10.962459,23.960798,-1.762029,12.590604,-8.854163,-23.324461,22.401838,33.99423,-12.904686,-10.243972,-2.5157979
204,44.08790588378906,27.577594757080078,72.07269287109375,-1.589163980697066,0.6618561887730143,77.57764724675195,-25.80655,13.989246,-17.119179,93.52174,-8.675356,-2.4401507,-15.042618,2.1216836,-12.038456,59.52471,-31.225143,-5.157435,0.5195204,5.37602,22.138031,-5.8967485,9.936873,-18.712463,11.0589695,24.248932,-1.3134556,13.026649,-11.449623,-23.978447,22.959337,32.886276,-12.824721,-10.25024,-2.3620331
205,44.82068634033203,28.13297462463379,72.03459930419922,-1.4043491663994812,0.6901834409499065,76.82977742877125,-27.911604,13.836719,-15.740488,95.434425,-9.575779,-0.8288974,-14.268379,2.7446225,-11.713433,59.043896,-31.57725,-5.65301,1.458232,5.4294076,22.162714,-3.6495354,10.086321,-17.153389,10.857851,23.488895,-1.224244,13.335841,-13.975147,-24.589497,23.39044,31.667484,-12.724252,-10.185799,-2.2343926
206,45.55086135864258,28.68877601623535,72.02291107177734,-1.2234501266249844,0.7865266275655802,75.99793934097325,-30.02631,13.924037,-14.07455,96.98036,-10.494617,0.9864767,-13.495487,3.3918939,-11.305936,58.424362,-31.869753,-6.1242023,2.519215,5.5191116,22.041039,-1.323106,10.301537,-15.780945,10.3425455,21.956177,-1.3690308,13.535591,-16.475761,-25.158258,23.727077,30.372234,-12.626067,-10.075539,-2.1390567
207,46.28044891357422,29.265043258666992,72.06160736083984,-1.0405330716529935,0.916924917657396,75.15442958926496,-32.012295,13.989873,-12.325923,98.11333,-11.351633,2.706089,-12.68155,4.03163,-10.855132,57.65538,-32.026474,-6.570233,3.629346,5.616703,21.843298,1.0264692,10.572173,-14.589628,9.675096,20.1884,-1.5991894,13.669664,-18.935652,-25.687412,24.031677,29.01819,-12.440591,-9.9842615,-2.040756
208,47.01582336425781,29.844451904296875,72.13882446289062,-0.8515380163658602,1.0487663472418325,74.37344102454375,-33.768467,13.7570095,-10.701633,98.78269,-12.030319,4.024457,-11.787571,4.6342487,-10.404438,56.725346,-31.971476,-6.9887447,4.7203183,5.707256,21.636286,3.3184452,10.882256,-13.579978,9.041222,18.730299,-1.7643847,13.794484,-21.329468,-26.181547,24.354021,27.617428,-12.077041,-9.975639,-1.9045533
209,47.78090286254883,30.412012100219727,72.2381591796875,-0.6778430740631125,1.1742180838403273,73.64629226388833,-35.334435,13.213721,-9.219402,98.97715,-12.50971,4.937108,-10.806958,5.2117543,-9.956334,55.637897,-31.711811,-7.384521,5.7861953,5.838928,21.427895,5.5397615,11.239707,-12.76311,8.456731,17.645884,-1.8416564,13.910476,-23.699177,-26.65299,24.71291,26.164072,-11.43613,-10.083077,-1.6688279
210,48.51832580566406,31.070959091186523,72.42615509033203,-0.5164933696285376,1.3106788033055754,72.94435410614209,-36.771927,12.472425,-7.7788944,98.7134,-12.81807,5.571208,-9.760158,5.768762,-9.492688,54.401096,-31.282207,-7.75895,6.856918,6.0141,21.187513,7.720147,11.65509,-12.120413,7.8385844,16.678513,-1.9034678,13.993781,-26.047836,-27.102255,25.08465,24.649015,-10.582786,-10.262577,-1.3687884
211,49.29117202758789,31.723308563232422,72.6472396850586,-0.3294044955587028,1.4641267627483112,72.31236592426298,-38.043877,11.44854,-6.415419,97.98103,-12.901466,5.8359146,-8.646339,6.2671003,-9.029995,52.999176,-30.646334,-8.101351,7.9186287,6.153564,20.918938,9.826233,12.1147585,-11.611207,7.247158,15.8984785,-1.9434425,14.073945,-28.270605,-27.513866,25.439562,23.074163,-9.691268,-10.46484,-1.116676
212,50.072669982910156,32.40376663208008,72.91754150390625,-0.07968914284620351,1.6408433242333265,71.79533926632111,-39.116325,10.061643,-5.1751585,96.76614,-12.709535,5.6417356,-7.4672337,6.6705623,-8.586349,51.420666,-29.765676,-8.400034,8.952439,6.1790776,20.6234,11.81973,12.591833,-11.193731,6.7568173,15.38416,-1.9558098,14.181204,-30.278006,-27.868227,25.750792,21.471296,-8.940342,-10.645268,-1.0287577
213,50.88523483276367,33.104244232177734,73.23615264892578,0.24372282852980773,1.836972551325159,71.4099357868357,-40.00573,8.169797,-4.1614485,95.02203,-12.2344675,4.885591,-6.195381,6.964637,-8.148262,49.635593,-28.679586,-8.656141,9.946172,6.08088,20.312962,13.681311,13.0838175,-10.870794,6.4014087,15.24773,-1.9107225,14.323619,-32.129196,-28.166456,26.040836,19.896103,-8.38574,-10.803739,-1.1869793
214,51.722450256347656,33.8280143737793,73.59534454345703,0.612253681670744,2.0489936320121935,71.12883180443819,-40.74862,5.8784127,-3.3735056,92.75509,-11.523433,3.6538162,-4.8389034,7.174493,-7.714695,47.66406,-27.396004,-8.876921,10.89988,5.9063582,19.987574,15.435052,13.601545,-10.643691,6.141819,15.427069,-1.8193552,14.485267,-33.86039,-28.41351,26.320484,18.336637,-7.938218,-10.963694,-1.5149437
215,52.58177947998047,34.5694694519043,74.00211334228516,1.0052874272268917,2.2842438231173428,70.93173768769113,-41.330994,3.4707417,-2.6986394,90.03156,-10.608906,2.1408715,-3.452834,7.3237553,-7.322017,45.564373,-25.83227,-9.055752,11.811127,5.6585927,19.628166,17.105507,14.132197,-10.471531,5.95005,15.742786,-1.7380809,14.659986,-35.374382,-28.59518,26.548828,16.75872,-7.553791,-11.117216,-1.8943968
216,53.447566986083984,35.408321380615234,74.47775268554688,1.4062057591762103,2.551744386428343,70.80078530909002,-41.732506,1.2082256,-2.0082958,86.91919,-9.504318,0.5303186,-2.0941787,7.43479,-7.0063233,43.39135,-23.90326,-9.180761,12.669429,5.3364673,19.209955,18.716057,14.649986,-10.310652,5.8062468,16.02055,-1.724534,14.842229,-36.57568,-28.686281,26.688227,15.139699,-7.1969757,-11.255291,-2.2088413
217,54.35356521606445,36.253501892089844,74.97423553466797,1.8466835357080773,2.865936214797067,70.74657650886267,-41.9473,-0.9272841,-1.2839963,83.35308,-8.150552,-1.2359178,-0.7579064,7.4752316,-6.766648,41.11509,-21.611183,-9.292201,13.456095,4.896628,18.715298,20.273895,15.14252,-10.152545,5.7502346,16.280352,-1.8373946,15.071638,-37.47161,-28.662928,26.744844,13.532885,-6.816236,-11.364047,-2.4718907
218,55.297367095947266,37.11183166503906,75.488525390625,2.3194509232466256,3.216015052254309,70.77593838409146,-41.973537,-3.052092,-0.6353109,79.30671,-6.5695543,-3.219352,0.5739723,7.450609,-6.5905414,38.73295,-19.001207,-9.376151,14.158758,4.356481,18.159885,21.777685,15.61229,-10.003291,5.778463,16.601187,-2.0312865,15.337085,-38.12119,-28.518236,26.747334,11.959899,-6.46156,-11.451745,-2.7343204
219,56.26563262939453,37.97122573852539,76.01337432861328,2.7528266424469683,3.574948898019823,70.86579874629145,-41.791977,-5.0624695,-0.09099889,74.905106,-4.8759828,-5.236184,1.860654,7.441588,-6.4869533,36.338196,-16.04784,-9.333542,14.7779045,3.802548,17.566235,23.236895,16.052736,-9.843348,5.803252,16.898237,-2.209321,15.557504,-38.58716,-28.261786,26.716984,10.417785,-6.2139816,-11.542648,-2.9338448
220,57.2545280456543,38.86279296875,76.54719543457031,3.0771708208175195,3.917067299346113,70.99140204749887,-41.38462,-6.852191,0.34016556,70.275536,-3.1743064,-7.0991764,3.0694022,7.533847,-6.4493628,34.00155,-12.708467,-9.060457,15.317568,3.3238509,16.95413,24.65318,16.4519,-9.655619,5.74311,17.0872,-2.2764246,15.649423,-38.90207,-27.913927,26.664886,8.870761,-6.1628437,-11.658607,-3.0067272
221,58.26138687133789,39.76570510864258,77.0807113647461,3.3098029312086554,4.2734874452395255,71.16369590205348,-40.734337,-8.421849,0.6722357,65.289795,-1.4150828,-8.77774,4.1058493,7.747158,-6.480777,31.773243,-8.822698,-8.762387,15.784835,2.8921537,16.307783,26.026905,16.797302,-9.411986,5.5490203,17.150387,-2.1331549,15.52162,-39.031628,-27.486284,26.571373,7.2585225,-6.31847,-11.782403,-2.8965943
222,59.27532958984375,40.69963836669922,77.60860443115234,3.466068253240865,4.643448880373197,71.38827244298457,-39.829697,-9.803826,0.88945425,59.912666,0.44936222,-10.353337,5.0246925,8.053555,-6.563718,29.580564,-4.448934,-8.396728,16.17378,2.4964783,15.620875,27.351418,17.08707,-9.129028,5.275287,17.13721,-1.8565603,15.240187,-38.971638,-26.982199,26.439562,5.6031585,-6.635452,-11.909859,-2.6494174
223,60.3098258972168,41.63146209716797,78.10716247558594,3.4846611450445604,4.956433812764454,71.62941373236619,-38.669174,-10.944449,0.9745492,54.41578,2.3191907,-11.804588,6.0482507,8.491252,-6.5934105,27.238382,0.15611303,-7.476478,16.479364,2.2427874,14.92773,28.613768,17.328337,-8.863541,4.996192,17.062262,-1.6161239,14.95836,-38.79959,-26.413439,26.307013,3.991346,-7.111173,-12.083286,-2.3541589
224,61.337501525878906,42.58116149902344,78.57073211669922,3.329148442490585,5.144960482083943,71.85050545385579,-37.254856,-11.810056,0.9434005,49.056,4.1040874,-13.1088505,7.423055,9.106612,-6.3885484,24.504375,4.7631516,-5.498162,16.704418,2.2109194,14.267691,29.798935,17.53416,-8.677241,4.7876954,16.936062,-1.5810865,14.828603,-38.57703,-25.79603,26.205997,2.4968092,-7.7491803,-12.343583,-2.0999095
225,62.35175323486328,43.57034683227539,78.99819946289062,2.9821791028000137,5.190582147057532,72.05066083171226,-35.48517,-12.449453,0.730355,43.649925,5.861318,-14.297916,9.442263,10.022087,-5.665832,20.780174,9.688003,-1.8584542,16.86457,2.4334085,13.643091,30.912113,17.718916,-8.603436,4.6938643,16.754333,-1.8575808,14.943535,-38.305634,-25.1427,26.155706,1.0835991,-8.63992,-12.742847,-1.8872452
226,63.39268493652344,44.52239990234375,79.35110473632812,2.5566498842785754,5.155757750559508,72.20727925462258,-33.3674,-12.865868,0.5729533,38.01735,7.6841006,-15.000033,12.011869,11.12264,-4.285496,16.12165,14.925922,3.1375728,17.011105,2.7677984,13.042744,31.962006,17.89057,-8.6096325,4.654063,16.511887,-2.3346112,15.200973,-37.944946,-24.454643,26.12463,-0.29140994,-9.749822,-13.245552,-1.6801579
227,64.4070053100586,45.47898864746094,79.6290283203125,2.2184986172906314,5.0854257132130805,72.25770045189142,-31.05275,-13.08069,0.8615609,32.395588,9.5541525,-15.000033,14.61644,12.046373,-2.468703,11.657978,19.62823,8.569631,17.187107,3.0218163,12.496681,32.945564,18.051546,-8.658545,4.585343,16.215397,-2.8557723,15.462187,-37.529114,-23.732883,26.076143,-1.5333006,-10.871203,-13.759178,-1.5087848
228,65.41641235351562,46.44798278808594,79.82542419433594,1.892450090404267,5.006930832308495,72.18687014049047,-28.817684,-13.058939,1.4858644,27.388693,11.2705145,-15.000033,16.748829,12.75198,-0.7399347,8.439905,23.18326,13.367604,17.386496,3.2469954,11.975885,33.84169,18.19478,-8.722416,4.4263086,15.869343,-3.2648947,15.593461,-37.072502,-22.981815,25.973099,-2.5574546,-11.805127,-14.190956,-1.3981564
229,66.44286346435547,47.3967170715332,79.94274139404297,1.3781061958034269,4.910480241175942,72.03334695898435,-26.81833,-12.603849,2.6467483,23.426435,12.658473,-15.000033,18.508738,13.428515,-0.26452076,6.298054,25.86938,15.000033,17.576374,3.6222787,11.417278,34.64229,18.312954,-8.808155,4.174237,15.417075,-3.5204036,15.543416,-36.542973,-22.203966,25.805832,-3.381597,-12.498722,-14.53277,-1.3536843
230,67.50093078613281,48.3094367980957,79.99817657470703,0.5636746112490635,4.841672174909197,71.78366861610307,-25.222218,-11.673648,4.202056,20.714066,13.570322,-15.000033,19.928392,14.231939,-0.75659114,4.9489284,28.06491,15.000033,17.79082,4.253353,10.7393055,35.34409,18.410105,-8.9267025,3.871156,14.877419,-3.7051477,15.388904,-35.944427,-21.398561,25.597603,-4.043449,-13.057427,-14.827097,-1.3614303
231,68.5396728515625,49.21469497680664,80.02608489990234,-0.3257583819782306,4.692388638720292,71.60146267048907,-23.868109,-10.673793,5.636842,19.090174,14.058077,-15.000033,20.889797,14.979765,-1.527273,4.757298,29.525414,15.000033,17.844284,4.9929495,10.132795,35.900463,18.480244,-9.091988,3.5673122,14.366135,-3.8503337,15.2026205,-35.285526,-20.576935,25.354551,-4.5189176,-13.536931,-15.062205,-1.4131336
232,69.5752182006836,50.108760833740234,80.04707336425781,-1.2277545000957613,4.437966883572125,71.51400095888637,-22.920725,-9.681031,6.467608,18.903809,13.89852,-15.000033,21.164036,15.600995,-2.4527957,6.111107,29.977165,15.000033,17.689167,5.7982802,9.679752,36.274483,18.520151,-9.302138,3.2957644,14.002184,-3.9884524,15.049694,-34.600506,-19.753998,25.082031,-4.7731643,-13.979297,-15.223353,-1.5016085
233,70.58812713623047,51.00402069091797,80.06124114990234,-2.0825622035284788,4.019004442967476,71.57012013518654,-22.473112,-8.723138,6.6178446,20.523134,13.194671,-14.763303,20.37284,16.03948,-3.396149,9.945192,28.724813,15.000033,17.256727,6.6405473,9.475621,36.44721,18.5196,-9.566436,3.097259,13.776915,-4.157496,14.956524,-33.8635,-18.933914,24.758871,-4.7993855,-14.278353,-15.303225,-1.6197687
234,71.54480743408203,51.91923522949219,80.03236389160156,-2.6865364085655847,3.464242315078004,71.78641887315548,-22.07578,-7.9062157,7.586306,22.957315,12.41152,-10.635071,18.77478,16.003103,-4.415599,15.780166,26.022291,15.000033,16.538412,7.341845,9.5312395,36.471798,18.47524,-9.886825,2.9150853,13.643478,-4.328938,14.882888,-33.070625,-18.118837,24.396008,-4.61664,-14.442467,-15.307251,-1.7670772
235,72.45243835449219,52.82258987426758,79.96116638183594,-3.0752713501310467,2.914911872603536,71.87964872195786,-21.64146,-7.202762,8.5776415,25.557539,11.229473,-6.239062,16.860126,15.449163,-5.479702,22.26691,22.880499,15.000033,15.833204,7.8240385,9.695923,36.383984,18.410942,-10.231353,2.65815,13.66181,-4.4386673,14.789691,-32.306942,-17.317968,24.028957,-4.2241693,-14.672293,-15.238901,-1.9556534
236,73.3981704711914,53.71064376831055,79.79857635498047,-3.323516668554967,2.4328160405890724,71.82210047884861,-20.979551,-6.6328464,9.2753725,27.669737,9.36574,-2.7781422,15.060976,14.374853,-6.8230004,28.359312,20.099781,15.000033,15.202789,8.120131,9.8674135,36.199615,18.354952,-10.595652,2.261842,13.885767,-4.423763,14.646994,-31.61257,-16.556217,23.68558,-3.6465178,-15.177974,-15.105347,-2.1958857
237,74.3626708984375,54.570831298828125,79.55423736572266,-3.5119677349614586,2.0096785676130744,71.63133337721096,-20.033655,-6.1451983,9.3516445,29.280458,6.3645797,-0.60202783,13.475918,12.681234,-8.818232,34.045433,17.791004,15.000033,14.641722,8.303025,10.019024,35.912697,18.324453,-11.009735,1.7392021,14.337045,-4.250913,14.475113,-30.952984,-15.854038,23.349222,-2.8748767,-16.060282,-14.883688,-2.5396628
238,75.28612518310547,55.4229736328125,79.26947784423828,-3.608643182760939,1.6049472714735946,71.36060968957945,-18.920963,-5.750814,8.9264965,30.721954,2.4701877,0.8700113,11.961328,10.357268,-11.191347,39.807606,15.543153,15.000033,14.099421,8.370274,10.206164,35.50015,18.322245,-11.48316,1.1202884,14.975713,-3.9605584,14.280501,-30.27987,-15.219765,22.9929,-1.9415627,-17.185349,-14.573173,-2.9639902
239,76.15670013427734,56.262481689453125,78.95111083984375,-3.5737668599252332,1.2184899162468572,71.08355881349748,-17.75181,-5.510715,8.310969,31.997444,-1.5863272,1.8428524,10.432137,7.5818844,-13.415402,45.60981,13.282728,15.000033,13.525058,8.307059,10.452966,34.93926,18.350132,-11.986669,0.380475,15.764701,-3.6022549,14.0136,-29.598705,-14.66704,22.631105,-0.94113344,-18.419096,-14.216032,-3.3674357
