unveil-humanoid-operators/unveil-humanoid-operators.github.io/feature-analysis-animation/data/feature_matrix_instances/age_waist_mean_vel_jogging_A268_jog_ff_loop_225_R_003__A268.csv
Frame,root_translateX,root_translateY,root_translateZ,root_rotateX,root_rotateY,root_rotateZ,left_hip_pitch_joint_dof,left_hip_roll_joint_dof,left_hip_yaw_joint_dof,left_knee_joint_dof,left_ankle_pitch_joint_dof,left_ankle_roll_joint_dof,right_hip_pitch_joint_dof,right_hip_roll_joint_dof,right_hip_yaw_joint_dof,right_knee_joint_dof,right_ankle_pitch_joint_dof,right_ankle_roll_joint_dof,waist_yaw_joint_dof,waist_roll_joint_dof,waist_pitch_joint_dof,left_shoulder_pitch_joint_dof,left_shoulder_roll_joint_dof,left_shoulder_yaw_joint_dof,left_elbow_joint_dof,left_wrist_roll_joint_dof,left_wrist_pitch_joint_dof,left_wrist_yaw_joint_dof,right_shoulder_pitch_joint_dof,right_shoulder_roll_joint_dof,right_shoulder_yaw_joint_dof,right_elbow_joint_dof,right_wrist_roll_joint_dof,right_wrist_pitch_joint_dof,right_wrist_yaw_joint_dof
0,-0.05498647689819336,-1.6555848121643066,76.8504409790039,-0.4319888309420187,6.523636609175508,105.57342508895526,-22.835485,9.572433,-24.535028,58.45761,-3.9333396,-9.038765,-17.737743,-8.321907,-10.227041,26.669436,-15.698928,5.4560957,-7.9893436,2.5050702,6.2712984,-4.6874785,28.176727,-26.77302,-20.67154,-0.66810626,-2.7953937,0.7766019,34.598217,-23.412615,11.597548,-9.962613,7.018973,-11.384237,4.875277
1,0.6932427883148193,-1.0271762609481812,76.57720184326172,-0.7806565390761832,6.433031953770216,105.66845244408347,-24.62676,10.135789,-24.386118,60.83382,-5.5597024,-7.330619,-18.03764,-7.404136,-10.689586,28.479744,-17.140863,4.724184,-7.8632174,2.8025599,6.5981445,-4.5512495,28.13815,-26.523977,-20.896978,-0.62762344,-2.9291604,0.54808366,33.582176,-23.416515,11.804118,-10.171924,7.489582,-11.462888,4.8330665
2,1.426302194595337,-0.43249815702438354,76.2842025756836,-1.151862518931275,6.316014574658883,105.77388034093964,-26.42837,10.742752,-24.29959,63.319477,-7.245787,-5.552793,-18.31948,-6.4676614,-11.15139,30.318466,-18.603485,3.9878898,-7.768794,3.127524,6.9324102,-4.481315,28.031439,-26.267422,-21.057745,-0.5447374,-3.0570254,0.29117414,32.57769,-23.416943,12.014011,-10.356225,7.96653,-11.549049,4.7967367
3,2.1385152339935303,0.1540398746728897,75.98362731933594,-1.4758011358472376,6.251578716762321,105.85885084067068,-28.210659,11.212823,-24.248537,65.5857,-8.897275,-3.923674,-18.643414,-5.578712,-11.56436,32.103992,-20.036936,3.2540448,-7.625418,3.422627,7.2142777,-4.409445,27.877565,-26.044722,-21.13221,-0.49820647,-3.1989129,0.046472725,31.530924,-23.423025,12.228115,-10.543424,8.417861,-11.621176,4.732843
4,2.82647705078125,0.7270256280899048,75.68566131591797,-1.6781384093775782,6.317934300606945,105.89143120989102,-29.93897,11.368115,-24.17761,67.308304,-10.408627,-2.664195,-19.06857,-4.8013086,-11.884964,33.752834,-21.388462,2.5302484,-7.390628,3.6282535,7.379215,-4.2294188,27.68739,-25.843483,-21.104084,-0.5576451,-3.3743203,-0.1634676,30.33032,-23.453606,12.500446,-10.716001,8.807529,-11.659183,4.5938845
5,3.502640962600708,1.3078954219818115,75.4042739868164,-1.728400075305513,6.589071039094552,105.8566231491932,-31.683186,11.191672,-23.98746,68.39897,-11.783871,-1.8019365,-19.696136,-4.165125,-12.095847,35.277397,-22.653013,1.8076699,-7.048621,3.7160995,7.379855,-3.8858879,27.461737,-25.633532,-21.000273,-0.7492043,-3.6064222,-0.34813344,28.924957,-23.524553,12.852721,-10.871208,9.176989,-11.660799,4.364693
6,4.160974979400635,1.899428129196167,75.1363525390625,-1.6695535343868348,7.004662285989494,105.7727760072434,-33.430195,10.782302,-23.697456,69.03305,-13.056025,-1.229851,-20.466152,-3.6251006,-12.229523,36.713364,-23.854822,1.0859739,-6.6396627,3.7242696,7.265413,-3.4125643,27.205767,-25.405077,-20.843674,-1.0348545,-3.8785658,-0.5169494,27.374601,-23.636097,13.268633,-11.0255575,9.537791,-11.636776,4.06537
7,4.807868003845215,2.5068740844726562,74.8915786743164,-1.5473950361816187,7.441509086313595,105.65835341523746,-35.02037,10.139063,-23.415699,69.27155,-14.15004,-0.9629135,-21.194254,-3.1349182,-12.317002,38.006035,-24.981903,0.3870015,-6.2004156,3.689539,7.1160116,-2.8431761,26.940018,-25.185732,-20.618227,-1.39086,-4.150547,-0.64409125,25.739239,-23.780228,13.741629,-11.19352,9.807642,-11.585516,3.7033007
8,5.4356279373168945,3.1262967586517334,74.6636962890625,-1.4040181162663459,7.7767260875152955,105.53154741133822,-36.301987,9.257048,-23.263245,69.183174,-14.997018,-1.0154243,-21.697237,-2.6476781,-12.38887,39.100517,-26.02221,-0.26756212,-5.7648516,3.6492043,7.011473,-2.2071202,26.69469,-25.00557,-20.315279,-1.7952458,-4.382496,-0.7004593,24.066622,-23.94446,14.269729,-11.373568,9.902325,-11.506083,3.2886255
9,6.053889751434326,3.7487428188323975,74.44906616210938,-1.2353552327693815,7.993011187764984,105.39539991805883,-37.244614,8.098074,-23.274647,68.74471,-15.557336,-1.4441941,-21.957333,-2.173359,-12.452865,40.013058,-26.987959,-0.8620376,-5.339927,3.5907266,6.9539695,-1.4924163,26.494091,-24.88827,-19.89643,-2.340291,-4.5826864,-0.65505165,22.336792,-24.119644,14.888804,-11.52472,9.721112,-11.376917,2.745736
10,6.661062717437744,4.398920059204102,74.27198028564453,-1.023420980010039,8.150831379725398,105.24034962480907,-37.935265,6.6978974,-23.39185,67.92238,-15.876876,-2.2112372,-22.060349,-1.7245733,-12.494542,40.758614,-27.876526,-1.413004,-4.909829,3.4952986,6.9125457,-0.6667285,26.345905,-24.806547,-19.408596,-3.0116942,-4.767896,-0.5254642,20.517292,-24.29857,15.606744,-11.64452,9.337039,-11.201668,2.0991254
11,7.267787456512451,5.049187660217285,74.13229370117188,-0.799833335237921,8.244224561312159,105.06478451610607,-38.39663,5.1548247,-23.607626,66.773705,-16.019342,-3.190515,-21.980995,-1.2601187,-12.5104065,41.282417,-28.654144,-1.9483696,-4.4724736,3.3921857,6.914383,0.26320246,26.253792,-24.716782,-18.968092,-3.6299286,-4.910494,-0.3542197,18.64904,-24.473381,16.376217,-11.799487,8.91751,-11.016843,1.5099623
12,7.856272220611572,5.725478172302246,74.03559112548828,-0.5910150574582288,8.267428318093154,104.86752437870821,-38.647465,3.5621715,-23.91175,65.35668,-16.042028,-4.2576737,-21.693878,-0.7402479,-12.49567,41.529053,-29.28706,-2.4964952,-4.021763,3.3112469,6.9850388,1.2836348,26.21833,-24.581907,-18.68132,-4.014695,-4.98067,-0.18283422,16.768906,-24.640081,17.139708,-12.049702,8.629306,-10.864951,1.1383402
13,8.444986343383789,6.41250467300415,73.97936248779297,-0.40302407093924286,8.181899826737967,104.64485050125847,-38.614353,1.8657959,-24.396158,63.623085,-15.93195,-5.4637666,-21.148151,-0.15977421,-12.444815,41.489414,-29.780317,-3.0677297,-3.5559971,3.2622018,7.1612606,2.4053473,26.243174,-24.40867,-18.576023,-4.0371194,-4.928039,0.025627615,14.860715,-24.80107,17.891571,-12.407536,8.520044,-10.776662,1.051079
14,9.036884307861328,7.076601028442383,73.9549331665039,-0.2221971248199492,8.003127856395755,104.39712885349809,-38.30912,0.06306675,-25.06569,61.54967,-15.67334,-6.833542,-20.368471,0.46456853,-12.358683,41.185513,-30.142857,-3.650819,-3.0772,3.2323549,7.4181023,3.6335695,26.330528,-24.211775,-18.598515,-3.8231628,-4.7809515,0.27893618,12.9127865,-24.958677,18.662853,-12.836968,8.49783,-10.725634,1.1548058
15,9.61644172668457,7.762517929077148,73.97477722167969,-0.05532473805397862,7.806374823090325,104.13090079753073,-37.87424,-1.6944691,-25.771912,59.23973,-15.3187475,-8.220923,-19.446844,1.1336356,-12.241221,40.621777,-30.356354,-4.239684,-2.5852442,3.21877,7.6885905,4.9455614,26.47346,-23.967403,-18.730534,-3.5726533,-4.627509,0.49196365,10.977784,-25.106733,19.446049,-13.345877,8.517344,-10.671449,1.3670499
16,10.179770469665527,8.458603858947754,74.03118133544922,0.0956962673777547,7.666717688638474,103.85264400139734,-37.454895,-3.2695076,-26.34094,56.792892,-14.899446,-9.487063,-18.474157,1.8444978,-12.095984,39.80007,-30.40186,-4.825099,-2.0764399,3.2145658,7.9044886,6.30979,26.659811,-23.65519,-18.944283,-3.4834602,-4.5573983,0.57959396,9.111542,-25.235611,20.226831,-13.942799,8.529935,-10.5734825,1.6063918
17,10.752025604248047,9.162160873413086,74.11618041992188,0.23161546386620127,7.604698301286553,103.55952762973422,-37.072987,-4.6655245,-26.756144,54.176548,-14.40476,-10.596983,-17.466484,2.5949068,-11.914405,38.704803,-30.293568,-5.398995,-1.5399628,3.215327,8.046064,7.7307353,26.880177,-23.254526,-19.24502,-3.6156688,-4.6151624,0.47697595,7.2970476,-25.34358,21.002497,-14.637183,8.5580015,-10.417648,1.8914225
18,11.315387725830078,9.865896224975586,74.2369384765625,0.35134878413483206,7.578615790201413,103.2482651013302,-36.64216,-5.9475803,-27.09604,51.333965,-13.803822,-11.634183,-16.372126,3.383601,-11.691715,37.337917,-30.036093,-5.9672484,-0.9793888,3.2262735,8.147538,9.217068,27.13136,-22.78081,-19.632265,-3.8594515,-4.745059,0.2411758,5.5117373,-25.432394,21.780626,-15.41645,8.613142,-10.22672,2.251856
19,11.892045021057129,10.579643249511719,74.38372802734375,0.4503485882461577,7.570122844677055,102.92545409170643,-36.146748,-7.087356,-27.317709,48.333416,-13.093525,-12.648106,-15.175288,4.207417,-11.438448,35.722607,-29.595085,-6.5385876,-0.40659142,3.2507904,8.222096,10.739332,27.408924,-22.272303,-20.072954,-4.154762,-4.88715,-0.02821529,3.8121226,-25.495087,22.553705,-16.25228,8.626806,-10.015626,2.6249695
20,12.463725090026855,11.301763534545898,74.54660034179688,0.52528129247504,7.560498689332453,102.59776885560295,-35.573456,-8.059007,-27.382458,45.245308,-12.281514,-13.688103,-13.859095,5.0643272,-11.165827,33.878426,-28.934643,-7.1218333,0.17109248,3.2904477,8.2814455,12.257273,27.708633,-21.772306,-20.52396,-4.439503,-4.9829874,-0.22986813,2.2532084,-25.520815,23.31045,-17.115557,8.528834,-9.79989,2.9508505
21,13.03526782989502,12.045309066772461,74.74110412597656,0.5753468243823023,7.548182403017015,102.25493234429058,-34.907593,-8.845475,-27.268402,42.022385,-11.339411,-14.781244,-12.3754225,5.963553,-10.8454075,31.709507,-28.045301,-7.7361064,0.7722688,3.3475552,8.325647,13.77676,28.024393,-21.26946,-20.977594,-4.71822,-5.0161986,-0.38473293,0.85035866,-25.499847,24.039997,-18.003916,8.267784,-9.581538,3.2086482
22,13.610240936279297,12.812068939208984,74.95355987548828,0.6690691377254395,7.506939803348775,101.87659840579818,-34.082466,-9.542685,-26.800943,38.588024,-10.232671,-15.000033,-10.738696,6.8090615,-10.431044,29.338339,-27.00792,-8.34113,1.4141092,3.35723,8.378361,15.306215,28.353409,-20.748419,-21.441412,-5.01434,-5.0182953,-0.52986723,-0.4281016,-25.431654,24.749851,-18.918653,7.8865576,-9.353936,3.4359243
23,14.17676830291748,13.596211433410645,75.17129516601562,0.7964685580213771,7.421558827529337,101.47555569347558,-33.08359,-10.168489,-26.128586,34.998592,-8.996392,-15.000033,-9.027917,7.590511,-9.982655,26.973186,-25.836891,-8.905744,2.0717719,3.3148408,8.454949,16.81265,28.699675,-20.24594,-21.911997,-5.292869,-5.0039587,-0.58787495,-1.5990294,-25.322624,25.453495,-19.832766,7.4608703,-9.119015,3.6609855
24,14.750489234924316,14.38934326171875,75.39122772216797,0.8550399583349914,7.322304019036183,101.08981295684035,-32.002125,-10.693772,-25.415476,31.43619,-7.715079,-15.000033,-7.302789,8.416972,-9.607212,24.644146,-24.444796,-9.422848,2.7006488,3.319044,8.52037,18.261868,29.071981,-19.80102,-22.385984,-5.519571,-4.9886603,-0.4806446,-2.6741195,-25.183046,26.15757,-20.727764,7.0681396,-8.878182,3.9115193
25,15.340167045593262,15.193110466003418,75.61149597167969,0.8423882161038574,7.203970359324484,100.71655919737785,-30.827835,-11.114655,-24.611628,27.89021,-6.346326,-15.000033,-5.5082498,9.297194,-9.295442,22.248291,-22.751495,-9.886961,3.306434,3.374461,8.574996,19.658298,29.480907,-19.42525,-22.866861,-5.6637206,-4.963997,-0.13749015,-3.6411688,-25.020235,26.861765,-21.62051,6.716968,-8.620955,4.189866
26,15.946076393127441,16.006593704223633,75.82706451416016,0.75480452705294,7.0669333547583975,100.34467318771563,-29.549122,-11.419485,-23.71212,24.311638,-4.8801513,-15.000033,-3.6020217,10.244322,-9.011153,19.69144,-20.759792,-10.317482,3.9056616,3.4871066,8.622494,21.027607,29.92975,-19.090553,-23.372025,-5.752739,-4.926724,0.38523364,-4.4892154,-24.837856,27.55462,-22.52828,6.371783,-8.349643,4.483109
27,16.55416488647461,16.824310302734375,76.02774047851562,0.5827555837626627,6.916907031790825,99.98337188898347,-28.203348,-11.627961,-22.812452,20.779547,-3.4319725,-15.000033,-1.6942021,11.253313,-8.771594,17.173489,-18.582165,-10.718921,4.4824047,3.6590466,8.666006,22.361729,30.41537,-18.77726,-23.90801,-5.839232,-4.900917,0.9736767,-5.2379584,-24.641823,28.226244,-23.430687,6.044625,-8.084729,4.7946143
28,17.178110122680664,17.640104293823242,76.20433044433594,0.3293157263288137,6.763185740943951,99.6442306413847,-26.834888,-11.764896,-21.999395,17.377138,-2.1156409,-15.000033,0.09238868,12.311532,-8.600135,14.909553,-16.338161,-11.090668,5.019222,3.8826375,8.705292,23.64847,30.929749,-18.468344,-24.47804,-5.9725933,-4.910857,1.5134186,-5.9090877,-24.440145,28.86614,-24.30678,5.7468085,-7.846364,5.1277685
29,17.8156681060791,18.450862884521484,76.35525512695312,0.001267160389644756,6.611169388592474,99.33517690273534,-25.423931,-11.84787,-21.239197,14.0555315,-0.9183161,-15.000033,1.7123547,13.422609,-8.5393095,12.967092,-14.019569,-11.49848,5.512253,4.1541953,8.731707,24.876833,31.473646,-18.17897,-25.073605,-6.191178,-4.974987,2.0117688,-6.5175037,-24.240017,29.48458,-25.15927,5.4817104,-7.635738,5.4627686
30,18.461212158203125,19.262296676635742,76.48406982421875,-0.38147423244002826,6.465483345597412,99.05476121227538,-23.900522,-11.860272,-20.497105,10.633307,0.29421046,-15.000033,3.2153363,14.574414,-8.571401,11.227266,-11.5671,-11.901926,5.9654737,4.457143,8.739744,26.056746,32.049553,-17.907656,-25.695776,-6.4580283,-5.077491,2.515765,-7.050603,-24.045,30.07928,-26.000908,5.244973,-7.4429703,5.803088
31,19.12371826171875,20.080045700073242,76.5904769897461,-0.7787143841567644,6.339277659940648,98.80433579638395,-22.51969,-11.892001,-19.78289,7.6177616,1.2707543,-15.000033,4.6110163,15.71482,-8.628698,9.633734,-9.047187,-12.139779,6.370805,4.746168,8.732196,27.199041,32.647232,-17.618418,-26.352448,-6.7084045,-5.1912785,2.9694428,-7.4874854,-23.855505,30.621014,-26.828909,5.03506,-7.272415,6.185626
32,19.806974411010742,20.885719299316406,76.67570495605469,-1.1563411604142921,6.241963814895584,98.580697592509,-22.410051,-12.319477,-18.92062,7.4531345,0.732396,-15.000033,5.927556,16.80316,-8.62677,8.110722,-6.5217795,-12.058321,6.721957,4.9844747,8.713986,28.306578,33.247875,-17.279148,-27.044209,-6.877158,-5.287446,3.3160846,-7.812956,-23.670362,31.083307,-27.632511,4.851047,-7.128558,6.6474843
33,20.493118286132812,21.676982879638672,76.74441528320312,-1.5158445442143418,6.191075131580702,98.42059726354358,-22.317644,-12.666554,-18.214106,7.329192,0.138879,-15.000033,6.935467,17.831696,-8.629277,7.053274,-4.1788116,-11.766977,6.9839873,5.2166905,8.661492,29.223927,33.711987,-16.965202,-27.595839,-6.8960214,-5.359959,3.5111425,-8.025778,-23.534332,31.460615,-28.41007,4.7247725,-7.0167804,7.2322206
34,21.179523468017578,22.471696853637695,76.79456329345703,-1.8199214993835793,6.1882971875130295,98.3387323184714,-22.210718,-12.990196,-17.610355,7.1922827,-0.47919413,-15.000033,7.3975596,18.731524,-8.764984,6.9270387,-2.2378993,-11.271469,7.1460643,5.4045963,8.572051,29.900282,34.049404,-16.707195,-27.957104,-6.807581,-5.428199,3.5822718,-8.137259,-23.442223,31.767813,-29.155033,4.6472063,-6.9341764,7.9086065
35,21.88167953491211,23.271453857421875,76.82173919677734,-2.0876360659183577,6.200578342533135,98.2648617143161,-22.089376,-13.247627,-17.032877,7.113432,-1.1055872,-15.000033,7.8243456,19.571796,-8.845972,6.8236656,-0.32307196,-10.302196,7.2145996,5.465807,8.520902,30.902891,34.57493,-16.22005,-28.726887,-6.733316,-5.4779325,3.6107652,-8.209787,-23.29746,32.072147,-29.855762,4.5497017,-6.8732805,8.582722
36,22.582006454467773,24.067323684692383,76.81488800048828,-2.2541565699535755,6.211262907844639,98.15055743613719,-21.909395,-13.467268,-16.398245,7.0160074,-1.647528,-15.000033,8.290003,20.261604,-8.807798,6.7023597,1.474528,-8.569825,7.312394,5.4593935,8.442889,31.515533,34.934273,-15.90626,-29.155548,-6.5860853,-5.5229697,3.5720587,-8.147911,-23.198141,32.289154,-30.482662,4.3910394,-6.812652,9.214782
37,23.286096572875977,24.857730865478516,76.76846313476562,-2.3289994613848433,6.211763734751814,97.976746866459,-21.669935,-13.617111,-15.588776,6.933027,-2.212813,-15.000033,8.791661,20.83039,-8.590993,6.604855,3.0611556,-5.8610635,7.3991795,5.3123493,8.400016,32.280598,35.36705,-15.482918,-29.808092,-6.400552,-5.546826,3.4889476,-7.9951296,-23.077576,32.476357,-31.052244,4.11239,-6.7589297,9.801212
38,23.98611831665039,25.641674041748047,76.69140625,-2.316391481541971,6.218228379772107,97.78791519343828,-21.355797,-13.714143,-14.696391,6.8139963,-2.7742426,-15.000033,9.285588,21.308979,-8.251953,6.549262,4.4434843,-2.3721006,7.457353,5.0192504,8.375574,33.09093,35.881012,-14.969064,-30.569979,-6.1939006,-5.567052,3.341928,-7.7359676,-22.929325,32.601887,-31.580118,3.7588267,-6.720788,10.378336
39,24.682504653930664,26.425106048583984,76.57475280761719,-2.306107491168973,6.233202274776257,97.60429694310308,-21.040314,-13.731648,-13.978201,6.7974386,-3.209302,-15.000033,9.800222,21.782835,-7.893131,6.47833,5.6927214,1.5438359,7.4844084,4.759068,8.31087,33.6016,36.288197,-14.613871,-31.10334,-5.968724,-5.573095,3.173178,-7.40059,-22.809324,32.675583,-32.003956,3.4046915,-6.686131,10.890558
40,25.38348388671875,27.21186637878418,76.44188690185547,-2.255033450715529,6.2751034426222905,97.47423510835561,-20.717823,-13.753801,-13.6665,6.798187,-3.269389,-15.000033,10.280799,22.175507,-7.657934,6.4602227,6.833807,5.5637703,7.4064593,4.4388123,8.225211,34.04679,36.738003,-14.274627,-31.650433,-5.8446918,-5.565104,3.0416968,-7.0366035,-22.673485,32.725437,-32.33002,3.1236517,-6.65346,11.278016
41,26.089885711669922,28.004894256591797,76.2754898071289,-2.1390338497446084,6.316790057966811,97.35137338083128,-20.309963,-13.810717,-13.852502,6.749707,-2.8010368,-15.000033,10.7831955,22.538692,-7.2914085,6.4821696,7.956638,10.181964,7.2852516,4.0655565,8.108749,34.265526,37.159687,-14.073212,-32.052116,-5.7843723,-5.534622,2.9464028,-6.6136475,-22.539043,32.75738,-32.55073,2.89437,-6.6036205,11.494319
42,26.7971134185791,28.799814224243164,76.0911865234375,-1.9786784817823249,6.358001783324546,97.25599225064927,-19.823103,-13.859163,-14.438582,6.663051,-1.934674,-15.000033,11.298879,22.915823,-6.926518,6.538861,8.962302,15.000033,7.069348,3.6894486,7.967314,34.21552,37.44336,-14.016117,-32.24604,-5.722082,-5.4839797,2.8350744,-6.1404696,-22.444254,32.792976,-32.670033,2.6985831,-6.5432534,11.576052
43,27.572694778442383,29.552385330200195,75.95161437988281,-1.9714198305628663,6.605783586079959,97.10011960893877,-19.671728,-13.573517,-15.257824,6.7783465,-0.9775314,-15.000033,11.790787,23.558548,-7.689462,6.132014,10.178818,15.000033,6.9309473,3.3484519,7.6125803,33.976658,37.890266,-14.04753,-32.376278,-5.805042,-5.431084,2.7998996,-5.642922,-22.281218,32.73737,-32.651676,2.5858471,-6.505365,11.591913
44,28.351036071777344,30.30274200439453,75.859130859375,-1.9111395920539012,6.937978517226886,97.20065889666377,-19.677418,-13.305046,-16.333643,6.946104,-0.0002717012,-15.000033,9.798995,23.346521,-10.288443,10.349516,8.826044,15.000033,6.459013,3.0423646,7.2053804,33.371407,38.1588,-14.242018,-32.19892,-5.970154,-5.3851523,2.7774396,-5.2474127,-22.158684,32.670624,-32.409794,2.6392448,-6.5129914,11.611915
45,29.027996063232422,31.03091049194336,75.8153076171875,-1.4860490024750919,7.174687802124665,97.50154548135932,-20.623749,-13.983124,-17.16438,9.372907,-0.04049566,-10.893118,6.8031406,21.66077,-14.181052,17.172255,5.953136,15.000033,5.8203936,2.4702728,6.884564,32.334393,38.449207,-14.742983,-31.729427,-6.3035917,-5.3509626,2.8649597,-4.9350963,-21.98912,32.48198,-31.897528,2.883997,-6.5554595,11.67161
46,29.640262603759766,31.726646423339844,75.70555877685547,-0.7183682214209967,7.349539538972163,97.69315940386731,-24.40792,-15.982563,-17.009253,17.915785,-3.0456603,-4.439088,3.6743376,18.631163,-18.31132,25.27476,2.3310666,15.000033,5.110898,1.626172,6.6724567,31.291977,38.52983,-15.172139,-31.274086,-6.7059546,-5.3110766,2.919848,-4.750815,-21.91231,32.37974,-31.256258,3.3118784,-6.611636,11.692542
47,30.22726821899414,32.40241622924805,75.4813232421875,0.0203963032190581,7.397335942300958,97.6638908084806,-27.465237,-17.711517,-16.635859,25.051207,-5.358723,1.8396008,1.3095586,15.138096,-21.835155,32.83049,-1.1019909,15.000033,4.6087446,0.8636098,6.593688,30.01021,38.51626,-15.7603245,-30.669102,-7.1576405,-5.2544866,3.016753,-4.548795,-21.852207,32.183224,-30.460863,3.8375697,-6.691827,11.730128
48,30.771774291992188,33.062252044677734,75.17179107666016,0.5802542477443721,7.356512448032231,97.45908511967116,-29.514967,-18.833832,-16.1842,30.247484,-7.120629,6.1051044,-0.30938074,11.765898,-24.535404,39.23552,-4.0250626,15.000033,4.2034183,0.3046722,6.6957383,28.714632,38.412476,-16.271727,-30.078974,-7.631371,-5.178626,3.1107085,-4.285037,-21.834356,31.941856,-29.580828,4.4016385,-6.826105,11.775801
49,31.299240112304688,33.70074462890625,74.83551788330078,0.9938163665336754,7.25953553480111,97.11830857337492,-30.651989,-19.295248,-15.6576395,33.70446,-8.665833,7.575836,-1.5128939,8.457528,-26.604425,44.938133,-6.712558,15.000033,3.8788488,-0.09103513,6.974545,27.297337,38.252785,-16.75627,-29.423712,-8.306926,-5.11155,3.226304,-3.947176,-21.83753,31.589756,-28.615866,5.044605,-7.039969,11.938119
50,31.837064743041992,34.32283401489258,74.51919555664062,1.4202299858244527,7.112289193792235,96.73726178536111,-31.337322,-19.434479,-15.014461,36.340065,-10.234522,7.3630185,-2.484769,4.8907447,-28.272346,50.461037,-9.500173,15.000033,3.5557027,-0.4762451,7.4010262,25.738594,38.0482,-17.239058,-28.689358,-9.151655,-5.051354,3.3732042,-3.5602267,-21.852129,31.136368,-27.542439,5.7805753,-7.317424,12.180081
51,32.408050537109375,34.912498474121094,74.22551727294922,1.7629399431750032,7.0572971386986385,96.27667932749885,-31.931915,-19.255379,-14.334941,38.611736,-11.848446,6.4432993,-3.3702233,1.3463922,-29.69346,55.50892,-12.139016,14.09796,3.323848,-0.77705973,7.783948,24.061022,37.802906,-17.753231,-27.885317,-9.816407,-4.94902,3.5483413,-3.0669544,-21.869717,30.616615,-26.346558,6.493136,-7.625364,12.303401
52,33.0062370300293,35.49517822265625,73.97342681884766,1.9979332263114244,7.177820635080721,95.7647619665768,-32.58264,-18.89269,-13.780249,40.678307,-13.411377,5.7883615,-4.296978,-1.9713131,-31.023571,59.87189,-14.439711,11.632224,3.199157,-0.97062033,7.9950323,22.287004,37.51363,-18.336914,-27.017115,-9.951759,-4.7529383,3.7485042,-2.4123182,-21.885012,30.068968,-25.009092,7.063839,-7.935842,12.108474
53,33.59960174560547,36.09691619873047,73.77373504638672,2.325130364906146,7.4366797235113635,95.34078591437482,-33.07609,-18.64463,-13.38031,42.179077,-14.755442,5.60451,-5.379691,-5.254838,-31.980747,63.75309,-16.482357,9.045643,3.0658581,-1.2084935,8.0767565,20.33826,37.174343,-19.05653,-26.002293,-9.441195,-4.420414,4.018597,-1.5510832,-21.892677,29.48715,-23.467405,7.4952784,-8.23599,11.535225
54,34.19642639160156,36.7204475402832,73.61876678466797,2.6987670147608473,7.801452068749142,94.96569201705104,-33.382923,-18.402126,-13.053459,43.122692,-15.960538,5.3837504,-6.6340375,-8.517047,-32.617767,67.2705,-18.389236,6.290427,2.9372401,-1.459,8.076196,18.231709,36.7746,-19.87171,-24.862278,-8.483594,-3.9833496,4.344474,-0.5242219,-21.8933,28.85178,-21.738567,7.832899,-8.547228,10.695655
55,34.76850509643555,37.35270690917969,73.49855041503906,3.041152229120584,8.168183591956037,94.64347297703877,-33.51569,-18.126877,-12.829084,43.770973,-17.07985,5.1230335,-7.9250116,-11.55958,-32.980804,70.29459,-20.139978,3.703423,2.785511,-1.6655324,8.060287,16.12333,36.30377,-20.660393,-23.746447,-7.204022,-3.5011857,4.625353,0.5851366,-21.896975,28.194258,-19.921255,8.021288,-8.892883,9.642164
56,35.34298324584961,37.99479675292969,73.41566467285156,3.2724201829310036,8.430356451763943,94.37621303529937,-33.48004,-17.775354,-12.745747,44.377678,-18.160955,4.814038,-9.097312,-14.193091,-33.136665,72.70493,-21.68386,1.6338166,2.577424,-1.7666924,8.098931,14.168663,35.7584,-21.304674,-22.798096,-5.7191396,-3.038304,4.756485,1.6928272,-21.916836,27.554482,-18.121635,8.006556,-9.292991,8.420759
57,35.92258071899414,38.637001037597656,73.35914611816406,3.345375784355244,8.529078228066174,94.15856124402073,-33.237854,-17.311678,-12.830204,45.017902,-19.24069,4.4380836,-10.088187,-16.356218,-33.12928,74.46649,-22.938208,0.20032896,2.3176603,-1.71759,8.250295,12.416238,35.126064,-21.76234,-22.033482,-3.7549982,-2.5910392,4.660965,2.7896876,-21.957945,26.957685,-16.288515,7.673419,-9.770096,6.837918
58,36.505088806152344,39.265968322753906,73.33214569091797,3.307674774338872,8.528803923740941,93.99078954345588,-32.800472,-16.76063,-13.056854,45.556026,-20.287153,4.004696,-11.007604,-18.154413,-32.96842,75.67948,-23.910212,-0.7806333,2.0044522,-1.5501297,8.4644575,10.773531,34.405575,-22.108498,-21.36413,-1.3422436,-2.142848,4.390465,3.9144337,-22.020365,26.38922,-14.399013,7.0766673,-10.290359,4.92363
59,37.106056213378906,39.87653350830078,73.34213256835938,3.220548723468033,8.50770140767598,93.8823786654842,-32.249958,-16.164194,-13.383541,45.93131,-21.243822,3.5420997,-11.939674,-19.655502,-32.67005,76.42372,-24.670383,-1.4109592,1.612889,-1.3200338,8.652806,9.178103,33.627415,-22.418652,-20.792465,0.94966036,-1.7391328,4.0526056,5.0742865,-22.107445,25.812288,-12.619765,6.4284053,-10.799369,3.0629501
60,37.729122161865234,40.49797821044922,73.39701843261719,3.145430131685934,8.54457366739699,93.84279457069162,-31.669256,-15.5676365,-13.771035,46.085724,-22.054173,3.0790153,-12.96757,-20.923586,-32.23777,76.77356,-25.295734,-1.7921944,1.1269761,-1.089711,8.732124,7.581434,32.84496,-22.752693,-20.345879,2.5400414,-1.4112592,3.7735035,6.284999,-22.224197,25.184484,-11.130877,5.951997,-11.26427,1.6479734
61,38.369441986083984,41.13161087036133,73.48583984375,3.0866248680320685,8.664752579765254,93.8975113286764,-31.086819,-14.984579,-14.242851,46.01297,-22.703304,2.6224751,-14.138017,-21.915745,-31.62973,76.688835,-25.770351,-1.841927,0.5272243,-0.87152994,8.682733,5.985988,32.10215,-23.112217,-20.108257,3.2035286,-1.1395193,3.6018894,7.566793,-22.3695,24.476795,-10.005793,5.750301,-11.713267,0.81182516
62,39.00572204589844,41.77735900878906,73.6021957397461,3.0149075539139325,8.824325945208258,94.03520545197891,-30.461796,-14.388001,-14.811106,45.746372,-23.22309,2.156774,-15.383819,-22.625494,-30.867863,76.15861,-26.064716,-1.5491699,-0.15649723,-0.6441231,8.560344,4.429925,31.412762,-23.470701,-20.085154,3.2560582,-0.9088577,3.4894543,8.934809,-22.536842,23.701971,-9.172683,5.7037497,-12.162331,0.34136245
63,39.649085998535156,42.408206939697266,73.7410888671875,2.9439148859663056,8.999015237579545,94.209776456408,-29.765327,-13.76399,-15.4219055,45.277706,-23.623178,1.6779073,-16.620506,-23.166529,-30.044779,75.2936,-26.237394,-1.1231151,-0.8652414,-0.4196242,8.393931,2.9268796,30.782455,-23.836771,-20.195784,2.9303648,-0.749289,3.420921,10.390856,-22.721966,22.882805,-8.582861,5.7056313,-12.573779,0.11157942
64,40.29827880859375,43.07366180419922,73.91859436035156,2.8822436515460286,9.165254538663158,94.37473414014188,-28.970758,-13.098207,-16.019493,44.601887,-23.915161,1.1825418,-17.77179,-23.646196,-29.25418,74.20265,-26.341831,-0.76774424,-1.5392886,-0.20784716,8.211013,1.4807118,30.210192,-24.225399,-20.346395,2.4592423,-0.6927617,3.3771603,11.937954,-22.9239,22.036608,-8.189817,5.646518,-12.906857,-0.0038634653
65,40.956478118896484,43.75673294067383,74.12437438964844,2.8418568315457793,9.3220512585251,94.53457786698326,-28.059301,-12.394815,-16.602922,43.681236,-24.104153,0.66895026,-18.83672,-24.079733,-28.504347,72.8809,-26.401623,-0.5012482,-2.1830611,-0.016832396,8.005111,0.08138009,29.698986,-24.656477,-20.533817,1.7632082,-0.78792155,3.3680723,13.601602,-23.14429,21.132568,-8.035986,5.432776,-13.142261,0.06483757
66,41.620445251464844,44.44016647338867,74.34439849853516,2.8129112319179432,9.480195537415822,94.70881664956154,-27.051365,-11.65542,-17.196497,42.531555,-24.18346,0.14040563,-19.83873,-24.417751,-27.756548,71.28202,-26.389791,-0.23034313,-2.8202503,0.16259393,7.7683825,-1.2690808,29.250113,-25.124907,-20.808626,0.7637847,-1.0047129,3.3975773,15.377709,-23.379248,20.170717,-8.132279,5.1497703,-13.305233,0.3517376
67,42.29480743408203,45.132781982421875,74.58094024658203,2.77892650366023,9.633954864367931,94.87241145812561,-25.979095,-10.864519,-17.78079,41.230034,-24.148876,-0.4001028,-20.749756,-24.664824,-27.034882,69.451546,-26.275942,0.016836623,-3.4256127,0.3454554,7.523442,-2.5523176,28.854126,-25.603983,-21.140417,-0.30298615,-1.2573918,3.4348607,17.214706,-23.620506,19.2157,-8.375183,4.947619,-13.420951,0.6759798
68,42.97385787963867,45.83201599121094,74.83458709716797,2.7218361451158777,9.777946860488113,94.99991115695846,-24.872871,-10.007549,-18.336847,39.850243,-23.993473,-0.95087105,-21.544714,-24.819534,-26.366055,67.43064,-26.02627,0.21980177,-3.9791582,0.5473821,7.290675,-3.7470424,28.495108,-26.06111,-21.498451,-1.196457,-1.4591547,3.4505236,19.04101,-23.857708,18.33847,-8.644495,4.9756355,-13.512194,0.8555636
69,43.66252517700195,46.54071807861328,75.1060562133789,2.634932374750967,9.915536422657704,95.08241648124701,-23.704319,-9.065994,-18.870739,38.324505,-23.716888,-1.5131115,-22.220121,-24.86224,-25.764648,65.19648,-25.66309,0.35390472,-4.473345,0.77365124,7.0634604,-4.8521843,28.161781,-26.495075,-21.87095,-1.8882045,-1.5981251,3.434324,20.84968,-24.090466,17.544333,-8.919854,5.234912,-13.5593815,0.84201926
70,44.35199737548828,47.257415771484375,75.38445281982422,2.5281257444998237,10.048374406299418,95.13345587475267,-22.472813,-8.052397,-19.385798,36.644726,-23.32287,-2.0891469,-22.785118,-24.791533,-25.224771,62.735767,-25.194267,0.44483963,-4.9227247,1.0187062,6.8324766,-5.8852296,27.852499,-26.923433,-22.261353,-2.489327,-1.716352,3.3999674,22.66376,-24.319859,16.80051,-9.250272,5.6547756,-13.559199,0.731482
71,45.054378509521484,47.98188018798828,75.66716003417969,2.407096272477759,10.168829514854991,95.16078901021709,-21.251652,-7.001696,-19.860794,34.98199,-22.815914,-2.6798396,-23.23905,-24.630043,-24.741407,60.102478,-24.562244,0.5500898,-5.339204,1.2777885,6.6117425,-6.8560395,27.567965,-27.341608,-22.655588,-2.9681628,-1.8073256,3.3565927,24.444433,-24.53932,16.11895,-9.606737,6.273146,-13.558756,0.5610822
72,45.763267517089844,48.69829559326172,75.95135498046875,2.2776846180509716,10.269066418353974,95.1722085208388,-20.107721,-5.951494,-20.27763,33.499672,-22.197554,-3.2855673,-23.581728,-24.40323,-24.305393,57.34622,-23.706495,0.72486645,-5.7376075,1.5405024,6.4137707,-7.769727,27.311495,-27.740793,-23.043169,-3.2917016,-1.8643986,3.3128016,26.145956,-24.73886,15.517897,-9.952664,7.1232777,-13.604801,0.36864132
73,46.47850799560547,49.409942626953125,76.22830963134766,2.134943384773631,10.348300981022003,95.1683739992152,-19.027021,-4.8889346,-20.628017,32.17964,-21.445791,-3.9100692,-23.77989,-24.12106,-23.97022,54.406532,-22.54246,0.9969491,-6.119987,1.8096769,6.237705,-8.635893,27.087849,-28.126818,-23.411934,-3.4193637,-1.8790292,3.275611,27.756077,-24.91662,15.029549,-10.268224,8.392196,-13.723837,0.117340565
74,47.203182220458984,50.128822326660156,76.4998550415039,1.9783797269166188,10.410281679225548,95.14515059846033,-17.980896,-3.80707,-20.926796,30.956577,-20.56908,-4.5521984,-23.847721,-23.758703,-23.721249,51.276497,-21.119959,1.3395559,-6.4785967,2.0839663,6.0781054,-9.447893,26.899462,-28.503025,-23.773972,-3.3786771,-1.8569683,3.239387,29.290548,-25.075426,14.634755,-10.568576,9.999291,-13.892633,-0.1939651
75,47.93630599975586,50.86411666870117,76.75958251953125,1.8265932758406551,10.454370831590168,95.10414899262628,-17.009724,-2.753619,-21.195208,29.919836,-19.611874,-5.204469,-23.850191,-23.300634,-23.442863,48.07623,-19.584421,1.7193829,-6.8124757,2.3452146,5.9391327,-10.196348,26.747286,-28.857998,-24.14719,-3.2436008,-1.8130617,3.1932178,30.752174,-25.2106,14.275298,-10.87447,11.57344,-14.077091,-0.47420874
76,48.67934036254883,51.580810546875,77.0039291381836,1.6964530154513038,10.479450217162444,95.04698229281841,-16.152063,-1.775331,-21.456224,29.156113,-18.618015,-5.860012,-23.849192,-22.746035,-23.016815,44.932076,-18.08509,2.096411,-7.1197577,2.5746791,5.824094,-10.874044,26.631292,-29.182476,-24.54193,-3.0858572,-1.7620287,3.1264887,32.133713,-25.311523,13.895242,-11.196005,12.74636,-14.235092,-0.63537836
77,49.43040084838867,52.29393768310547,77.22984313964844,1.5884073119706743,10.48248230006755,94.96874417125589,-15.389672,-0.86550933,-21.712755,28.637938,-17.571926,-6.5429754,-23.842146,-22.114264,-22.445198,41.822826,-16.534256,2.4442067,-7.394861,2.7729204,5.738432,-11.496312,26.555141,-29.486225,-24.956642,-2.9077215,-1.6928182,3.040823,33.441166,-25.370033,13.480457,-11.535184,13.444,-14.3598795,-0.64689535
78,50.19163513183594,53.01005172729492,77.44457244873047,1.4937775336328103,10.464353458574598,94.8703823754436,-14.701626,-0.008295954,-21.960667,28.328657,-16.458567,-7.2522063,-23.794468,-21.413044,-21.773382,38.696785,-14.896428,2.7824278,-7.635334,2.945029,5.6785674,-12.070179,26.520761,-29.77739,-25.38243,-2.6773827,-1.6026802,2.9408596,34.67128,-25.384548,13.059031,-11.881603,13.852445,-14.467399,-0.55835557
79,50.96282958984375,53.73929214477539,77.6408462524414,1.4226732515079823,10.428196110359043,94.76272829759723,-14.125634,0.76249385,-22.21352,28.304045,-15.322338,-7.9438586,-23.709707,-20.636353,-20.952393,35.63192,-13.39883,3.1333866,-7.8476224,3.0783813,5.6339297,-12.570929,26.523794,-30.039268,-25.824028,-2.4127052,-1.5183144,2.8190587,35.80771,-25.357155,12.641916,-12.230684,13.988662,-14.546536,-0.40565553
80,51.74221420288086,54.46297073364258,77.80744171142578,1.38451757466355,10.376504833145214,94.65761386946892,-13.6989765,1.4133204,-22.48472,28.636059,-14.2031555,-8.572869,-23.583488,-19.78165,-19.937431,32.69834,-12.263846,3.5163658,-8.027973,3.1623094,5.594909,-12.987881,26.553558,-30.26861,-26.277285,-2.1322265,-1.466861,2.6708133,36.84852,-25.286823,12.226047,-12.589031,13.872388,-14.586116,-0.22038804
81,52.53483581542969,55.1810188293457,77.95265197753906,1.4053262531104556,10.313742242839886,94.55868331019164,-13.423341,1.9235044,-22.766497,29.318941,-13.103229,-9.115745,-23.409307,-18.807224,-18.555557,29.774887,-11.677579,3.9258227,-8.18671,3.1750898,5.550002,-13.317797,26.606548,-30.451385,-26.732704,-1.821399,-1.4628986,2.4913201,37.804302,-25.174292,11.805025,-12.958499,13.36494,-14.577536,-0.00430933
82,53.33467102050781,55.90167236328125,78.05941009521484,1.4763477156625555,10.233176861050234,94.46306915358932,-13.2711735,2.3071299,-23.059252,30.307518,-11.99438,-9.601788,-23.159363,-17.767275,-16.888113,26.85663,-11.476727,4.3274384,-8.320228,3.1242313,5.509205,-13.577686,26.682394,-30.600445,-27.18587,-1.475759,-1.4900376,2.284142,38.67664,-25.020481,11.377808,-13.338839,12.504474,-14.53153,0.2592422
83,54.1342658996582,56.626243591308594,78.13101959228516,1.5599855372923963,10.122187272674529,94.37125334020182,-13.239991,2.5878453,-23.387838,31.61203,-10.866492,-10.062413,-22.822302,-16.775862,-15.273988,24.197002,-11.356136,4.723119,-8.425316,3.0442896,5.49112,-13.7682,26.774553,-30.7232,-27.640106,-1.126601,-1.5279807,2.0492768,39.42196,-24.833286,10.983682,-13.7097645,11.569477,-14.467016,0.55644226
84,54.94296646118164,57.35248947143555,78.1694564819336,1.6058415075837487,9.971744791879878,94.27968379238287,-13.33381,2.7974265,-23.778646,33.251293,-9.714766,-10.529238,-22.416737,-15.9017515,-14.05261,22.052172,-11.009433,5.1536784,-8.495972,2.978733,5.5115943,-13.890041,26.872585,-30.82527,-28.095259,-0.80381095,-1.5564108,1.7857769,39.996834,-24.626974,10.662651,-14.0492115,10.839698,-14.399626,0.87130785
85,55.74943923950195,58.078365325927734,78.17372131347656,1.5902371384169496,9.787101770446704,94.17437853853015,-13.579139,2.9252007,-24.311161,35.289307,-8.427438,-11.022005,-21.94496,-15.119487,-13.319566,20.381594,-10.109895,5.811798,-8.523355,2.9560995,5.568044,-13.937251,26.967812,-30.89651,-28.553473,-0.46776906,-1.5675267,1.4603587,40.397213,-24.40977,10.418524,-14.346646,10.359477,-14.32864,1.2221841
86,56.55726623535156,58.78800582885742,78.16573333740234,1.5337813826678974,9.573772929516986,94.0579623155112,-13.963067,2.9647675,-24.95136,37.688087,-7.03811,-11.520274,-21.432362,-14.369865,-12.881824,19.110178,-8.904643,6.6344256,-8.509964,2.9573333,5.650418,-13.917205,27.056978,-30.936419,-29.002884,-0.11620144,-1.5738196,1.0826879,40.646797,-24.18649,10.230519,-14.614895,9.992114,-14.246997,1.608619
87,57.373268127441406,59.50228500366211,78.14950561523438,1.4541130912832325,9.328320088081776,93.94806875616004,-14.446766,2.973997,-25.555777,40.33294,-5.768492,-11.989331,-20.962831,-13.656229,-12.65707,18.473799,-7.965007,7.2896514,-8.465615,2.9694397,5.760574,-13.845359,27.137156,-30.96203,-29.428827,0.1666652,-1.5843129,0.7162036,40.744,-23.967842,10.106447,-14.871321,9.747657,-14.155199,1.9837875
88,58.20344543457031,60.19630432128906,78.11857604980469,1.3626785085272557,9.04738352325406,93.86316511548145,-15.000754,3.0233183,-25.980667,43.119255,-4.8441052,-12.385158,-20.61196,-12.991403,-12.58367,18.688427,-7.865588,7.453196,-8.402648,2.9813912,5.901227,-13.734157,27.205444,-30.989342,-29.818008,0.29769742,-1.606203,0.4245692,40.68694,-23.769245,10.052181,-15.133134,9.637321,-14.05342,2.3004367
89,59.028839111328125,60.88233184814453,78.02298736572266,1.2724391181092598,8.711136574940351,93.8199444247586,-15.621441,3.1108367,-26.216625,46.15894,-4.230213,-12.834878,-20.421556,-12.40229,-12.718671,20.077768,-8.951448,6.8888674,-8.34095,2.9770005,6.0732484,-13.571426,27.26058,-31.022055,-30.180426,0.2533872,-1.6270847,0.23499739,40.492653,-23.598751,10.0804825,-15.424854,9.711185,-13.926879,2.5570023
90,59.86149978637695,61.5682258605957,77.8668441772461,1.1830188888971758,8.322948513795499,93.81188271058505,-16.333069,3.2128265,-26.33502,49.481056,-3.841953,-13.287065,-20.327652,-11.873383,-13.062443,22.39259,-10.831532,5.82227,-8.280887,2.9579637,6.277848,-13.351313,27.302149,-31.046783,-30.519753,0.07955866,-1.6462238,0.10881406,40.161648,-23.457914,10.184496,-15.737412,9.95144,-13.777983,2.7719133
91,60.680206298828125,62.250125885009766,77.6515121459961,1.082484665189892,7.917815128979802,93.8196092399542,-17.158207,3.390624,-26.308128,52.852375,-3.829105,-13.429391,-20.256907,-11.345231,-13.4818,24.998386,-12.983548,4.627663,-8.204629,2.951446,6.515465,-13.097316,27.328587,-31.051306,-30.809315,-0.20570551,-1.6881979,0.010821866,39.666348,-23.351843,10.343648,-16.037712,10.268639,-13.633282,2.9274795
92,61.4832878112793,62.93156051635742,77.40409088134766,0.9378938621062232,7.538951378472765,93.81513952815406,-18.124151,3.7276716,-26.113314,56.02889,-4.3472314,-12.966727,-20.16693,-10.755468,-13.867327,27.319597,-14.922118,3.674214,-8.085565,3.010802,6.7825637,-12.82999,27.333338,-31.023907,-31.030005,-0.5822926,-1.7780974,-0.09277849,38.98571,-23.296307,10.530679,-16.301676,10.578314,-13.520281,3.0073233
93,62.27481460571289,63.57085037231445,77.12413787841797,0.6920484590802848,7.145732690261871,93.79108818092242,-19.231043,4.3281446,-25.735762,59.069134,-5.6766043,-11.648632,-20.053982,-10.067946,-14.231489,29.370451,-16.611786,3.0740886,-7.9134703,3.1810114,7.135974,-12.592123,27.319391,-30.974964,-31.18097,-1.0917083,-1.9205577,-0.19042027,38.104923,-23.2831,10.731176,-16.549986,10.863858,-13.447974,3.0165393
94,63.05704116821289,64.1782455444336,76.8133544921875,0.3725150855242228,6.734757257920104,93.75925053474234,-20.457996,5.1222525,-25.24017,62.057182,-7.690376,-9.718899,-19.95241,-9.317061,-14.623648,31.422192,-18.292486,2.6244912,-7.73117,3.425147,7.547945,-12.344876,27.277533,-30.87394,-31.258919,-1.7242619,-2.1014128,-0.28556156,36.980667,-23.312744,11.010439,-16.734678,11.160948,-13.404089,2.946016
95,63.82988739013672,64.78121185302734,76.47606658935547,0.06066335694469245,6.408432208320191,93.7152499304674,-21.809368,5.9250712,-24.703665,64.80074,-9.924239,-7.6296206,-19.915257,-8.563045,-15.002445,33.37306,-19.92899,2.220268,-7.50218,3.7013757,7.907523,-12.035086,27.20573,-30.742239,-31.26374,-2.3975933,-2.320745,-0.39698943,35.707912,-23.395704,11.318645,-16.875809,11.487384,-13.37997,2.8024876
96,64.59200286865234,65.37541961669922,76.12295532226562,-0.16373632351182862,6.269458422855049,93.65470123626973,-23.301,6.5684094,-24.148312,67.10581,-11.886658,-5.803734,-19.989668,-7.8648114,-15.327068,35.109715,-21.4788,1.7561681,-7.217031,3.9474623,8.095478,-11.591485,27.106754,-30.570066,-31.187977,-3.0259047,-2.5765386,-0.5570705,34.302956,-23.52267,11.667029,-16.919449,11.839984,-13.369871,2.577955
97,65.33042907714844,65.98768615722656,75.7850570678711,-0.2726085323431673,6.396177967606405,93.57633390662755,-25.0605,7.1007857,-23.425413,68.95707,-13.502168,-4.2133803,-20.26672,-7.2530375,-15.590739,36.643524,-22.955772,1.1935,-6.862825,4.1521254,8.042864,-10.99183,26.97228,-30.33475,-31.048683,-3.6189654,-2.9070628,-0.8076577,32.739353,-23.689402,12.056737,-16.837084,12.334508,-13.408391,2.2699895
98,66.05620574951172,66.60115814208984,75.47831726074219,-0.31411207029820315,6.716283174614919,93.48015918960424,-27.026623,7.5774918,-22.548891,70.45623,-15.022217,-2.6860034,-20.698147,-6.6927156,-15.816712,38.030518,-24.377466,0.59105325,-6.4473944,4.3428273,7.824175,-10.2747345,26.799137,-30.04735,-30.84029,-4.2123375,-3.2988122,-1.124438,31.01795,-23.891867,12.485811,-16.665274,12.931068,-13.490073,1.8809896
99,66.77035522460938,67.21144104003906,75.2069320678711,-0.3157029647919333,7.10719603382961,93.36492646698281,-28.954205,7.8594623,-21.727499,71.573654,-16.396442,-1.3922702,-21.114567,-6.1404424,-16.008066,39.20671,-25.695454,-0.011490866,-5.993589,4.5162725,7.537181,-9.456994,26.602274,-29.748535,-30.523827,-4.7594047,-3.673405,-1.4368935,29.190365,-24.12423,12.961683,-16.438046,13.396544,-13.547183,1.4099127
100,67.48767852783203,67.83464050292969,74.96641540527344,-0.30523030622698516,7.446679704531454,93.22988186254237,-30.613491,7.8003864,-21.168453,72.28095,-17.559767,-0.5030464,-21.346216,-5.551782,-16.169193,40.107113,-26.862844,-0.57477385,-5.5287623,4.671054,7.2816505,-8.544301,26.409496,-29.474375,-30.074148,-5.2134213,-3.9548612,-1.6694871,27.296652,-24.379131,13.501469,-16.1787,13.498045,-13.508012,0.8556869
101,68.18341064453125,68.47173309326172,74.75464630126953,-0.2823191946026881,7.7496969523830375,93.06549757259113,-32.02015,7.367307,-20.875755,72.557274,-18.491938,-0.026678607,-21.415049,-4.929641,-16.288515,40.74854,-27.884718,-1.0860585,-5.053342,4.795759,7.042854,-7.4939833,26.239445,-29.223772,-29.458195,-5.652605,-4.1632586,-1.826479,25.285082,-24.652153,14.150745,-15.824448,13.137292,-13.321702,0.1458907
102,68.88534545898438,69.10428619384766,74.57440185546875,-0.236259118162519,8.065894440671544,92.87536262368428,-33.279034,6.6430483,-20.729185,72.413506,-19.204548,0.12259583,-21.385439,-4.2938704,-16.368383,41.152008,-28.779707,-1.569423,-4.56304,4.891299,6.7879643,-6.290804,26.099073,-28.967829,-28.732347,-6.075729,-4.3282914,-1.9336013,23.137665,-24.935171,14.905731,-15.376848,12.457199,-13.027175,-0.69174975
103,69.58621215820312,69.78640747070312,74.45065307617188,-0.18172908514770422,8.32481387447654,92.67861171171666,-34.304726,5.6511827,-20.761938,71.876205,-19.683578,-0.08387263,-21.154123,-3.6250975,-16.433237,41.261864,-29.524178,-2.0414367,-4.0771465,4.9766884,6.588889,-4.9803934,26.002026,-28.703367,-28.009706,-6.314837,-4.390551,-1.9430765,20.942331,-25.213434,15.713234,-14.960745,11.582536,-12.686085,-1.5053736
104,70.27725219726562,70.47857666015625,74.38201904296875,-0.13444148956361743,8.456288374927182,92.49442878666414,-35.00898,4.4149885,-21.016401,70.97134,-19.92081,-0.6752868,-20.618196,-2.903669,-16.505009,41.02314,-30.094963,-2.5190434,-3.6091504,5.0700846,6.5158424,-3.6165683,25.965384,-28.43566,-27.394258,-6.204595,-4.290477,-1.8049959,18.794985,-25.471504,16.5119,-14.697243,10.627292,-12.367167,-2.143183
105,70.96554565429688,71.17449951171875,74.36490631103516,-0.10238113458923627,8.402401223235922,92.32861333114622,-35.276417,2.824734,-21.65674,69.62337,-19.870583,-1.8395308,-19.693882,-2.1210697,-16.593956,40.41003,-30.502916,-3.0048704,-3.1690915,5.180078,6.6262054,-2.1877277,26.004799,-28.173754,-26.9058,-5.509735,-3.9223473,-1.4558927,16.668745,-25.706467,17.30994,-14.5651655,9.436983,-12.078462,-2.598624
106,71.66177368164062,71.86811065673828,74.39737701416016,-0.07743904167714459,8.213264792188799,92.16977562218908,-35.174965,0.93838525,-22.64821,67.83732,-19.579422,-3.4837675,-18.44897,-1.2841682,-16.677618,39.447624,-30.75163,-3.4946442,-2.7467897,5.295413,6.871023,-0.66349995,26.125912,-27.910334,-26.505308,-4.391425,-3.3412273,-0.94154817,14.52203,-25.918602,18.140265,-14.504594,8.008419,-11.787109,-2.9336429
107,72.35789489746094,72.56646728515625,74.47389221191406,-0.05170742838527509,7.980541704237299,92.01184498875058,-34.89544,-0.98064274,-23.72401,65.75831,-19.158651,-5.220271,-17.007055,-0.39732808,-16.728233,38.154324,-30.80524,-3.9932053,-2.3213668,5.401462,7.158477,0.92442656,26.326145,-27.63301,-26.203514,-3.273738,-2.7321382,-0.3714295,12.431482,-26.09971,18.970087,-14.575544,6.673363,-11.512743,-3.104756
108,73.0689468383789,73.2576904296875,74.58705139160156,-0.01694798339820881,7.796548219616423,91.8491411764054,-34.64214,-2.6963103,-24.586922,63.529552,-18.683691,-6.6755934,-15.49093,0.52805895,-16.720263,36.55034,-30.629469,-4.50191,-1.8627442,5.47826,7.394533,2.529762,26.597673,-27.339495,-25.999413,-2.5735776,-2.290266,0.15822782,10.474604,-26.239494,19.752527,-14.8330765,5.762522,-11.279082,-3.071559
109,73.78092193603516,73.97863006591797,74.7374267578125,0.03237008784738387,7.6728256102262655,91.67929641442207,-34.431625,-4.2454705,-25.254576,61.128525,-18.114044,-7.8130045,-13.888046,1.4979646,-16.629723,34.576077,-30.230272,-5.0252566,-1.3548446,5.5182786,7.5667715,4.141569,26.93804,-27.044373,-25.882952,-2.3515618,-2.069084,0.6933237,8.653814,-26.334303,20.465736,-15.306713,5.409653,-11.113022,-2.7530782
110,74.48815155029297,74.71475982666016,74.91848754882812,0.09095552387784284,7.564141575854883,91.50488148629785,-34.162724,-5.724728,-25.854538,58.479748,-17.407885,-8.816954,-12.137434,2.5088832,-16.466698,32.234325,-29.619097,-5.557958,-0.8093838,5.5289135,7.7168226,5.7746196,27.347677,-26.747513,-25.842669,-2.398235,-1.9692627,1.2665427,6.936304,-26.38773,21.132408,-15.952609,5.415932,-10.999599,-2.1977801
111,75.2144775390625,75.44721221923828,75.12010192871094,0.15724419425821243,7.477505951216186,91.32789650177591,-33.873253,-7.0190067,-26.218065,55.645546,-16.610521,-9.66239,-10.288585,3.5329762,-16.262539,29.63718,-28.770073,-6.083192,-0.23733594,5.5070677,7.832031,7.4223075,27.819767,-26.42366,-25.877747,-2.7181218,-1.9643215,1.7680482,5.3447213,-26.402937,21.768707,-16.717434,5.612392,-10.897827,-1.5612564
112,75.94210052490234,76.19853973388672,75.34562683105469,0.23102866022929075,7.419749003165068,91.1502133185194,-33.60209,-8.025386,-26.164078,52.689785,-15.767019,-10.328724,-8.393822,4.5437245,-16.052938,26.89693,-27.657745,-6.5829673,0.35124096,5.4493756,7.900895,9.077851,28.341661,-26.045189,-25.983936,-3.3152897,-2.0259607,2.0862026,3.9040637,-26.381878,22.389061,-17.55188,5.830794,-10.769117,-0.99864715
113,76.67610931396484,76.96755981445312,75.57909393310547,0.3236760158834728,7.388735813084145,90.96933640992282,-33.362553,-8.682236,-25.524355,49.583298,-14.873187,-10.74919,-6.368149,5.546688,-15.8344145,23.843521,-26.220081,-7.06214,0.9661086,5.341838,7.917474,10.758255,28.903835,-25.583841,-26.161386,-4.3491306,-2.18132,2.1240783,2.6399791,-26.321955,22.992073,-18.47931,6.078748,-10.5994,-0.53869987
114,77.42015838623047,77.74267578125,75.81161499023438,0.44182363672422903,7.380842464505465,90.78152832292929,-33.099094,-9.0955925,-24.400791,46.28002,-13.890801,-10.978995,-4.20249,6.545466,-15.585641,20.464418,-24.482403,-7.5172024,1.6090258,5.179798,7.891233,12.471602,29.502775,-25.045996,-26.411875,-5.7622786,-2.4282026,1.9559162,1.5292634,-26.224655,23.57521,-19.507637,6.4272995,-10.4083,-0.1057275
115,78.17681121826172,78.5262451171875,76.03997039794922,0.5657966954257447,7.400307804599551,90.58569417127407,-32.750603,-9.40263,-23.028193,42.810207,-12.820125,-11.175831,-2.0705965,7.5153284,-15.323565,17.118109,-22.555214,-7.9261284,2.2610812,4.9807034,7.8339305,14.191282,30.133202,-24.457218,-26.735806,-7.2362614,-2.6951432,1.7299081,0.53446704,-26.100407,24.146109,-20.574005,6.800744,-10.2111225,0.30372158
116,78.9353256225586,79.31945037841797,76.25629425048828,0.6633149011289599,7.45052054050059,90.38080694893539,-32.281605,-9.711988,-21.667046,39.218563,-11.663123,-11.482744,-0.15855744,8.441975,-15.072833,14.186439,-20.552166,-8.278199,2.9044716,4.779906,7.756546,15.884995,30.787579,-23.84823,-27.125246,-8.4488325,-2.9204407,1.6001686,-0.38081768,-25.965034,24.710361,-21.61973,7.1267242,-10.023974,0.69398344
117,79.69373321533203,80.09803009033203,76.46381378173828,0.7278462044504438,7.5379009165565805,90.16133542001734,-31.692335,-10.011057,-20.315285,35.447586,-10.353621,-11.871282,1.4884684,9.325634,-14.851908,11.741293,-18.434341,-8.627182,3.5553834,4.592974,7.655993,17.524427,31.462233,-23.236984,-27.574158,-9.341819,-3.105125,1.6116433,-1.21417,-25.832497,25.276005,-22.6595,7.433836,-9.844994,1.025231
118,80.4598388671875,80.87783813476562,76.65484619140625,0.749168104437301,7.651553804827776,89.92067195751696,-30.976212,-10.234364,-18.878973,31.46415,-8.898132,-12.286309,2.9886744,10.202443,-14.646824,9.553317,-16.140224,-8.966393,4.22755,4.426735,7.5358377,19.134037,32.152912,-22.601639,-28.088945,-10.075446,-3.2795925,1.6829649,-1.936087,-25.708502,25.829847,-23.730013,7.7482095,-9.6673355,1.307277
119,81.23818969726562,81.6644058227539,76.82600402832031,0.7001109944656704,7.767801602004545,89.6553954478192,-30.09611,-10.388257,-17.491661,27.322615,-7.3887525,-12.817258,4.4299436,11.117938,-14.420725,7.4887915,-13.720506,-9.1982565,4.900446,4.3037047,7.416668,20.751934,32.8497,-21.917206,-28.672565,-10.655234,-3.431805,1.7816627,-2.546363,-25.594067,26.344074,-24.812185,7.9961414,-9.500496,1.6203387
120,82.01852416992188,82.4535903930664,76.96991729736328,0.555675399620832,7.862813836673239,89.3565933170057,-29.021507,-10.474779,-16.279284,23.079378,-5.9164085,-13.55006,5.0485005,11.881862,-14.292441,7.2440915,-12.184657,-9.2051115,5.5592885,4.2432103,7.3167186,22.413746,33.538986,-21.161285,-29.324753,-11.084478,-3.5483391,1.8748657,-3.0503073,-25.487354,26.790428,-25.879807,8.102669,-9.353777,2.0466747
121,82.80817413330078,83.23832702636719,77.07315826416016,0.25973705466390057,7.938718388207115,88.99155719665038,-27.686699,-10.436578,-15.264992,18.572447,-4.4483113,-14.676865,5.655893,12.800834,-14.099616,7.045109,-10.586344,-9.067064,6.232538,4.298147,7.225689,24.133434,34.215282,-20.331629,-30.048937,-11.343045,-3.6158767,1.9763681,-3.4671996,-25.392557,27.17065,-26.92831,8.029205,-9.231592,2.6292524
122,83.577392578125,84.03917694091797,77.13737487792969,-0.15004067076022592,7.93272292021947,88.54092826673525,-25.945393,-10.349055,-14.301352,13.631345,-2.8591762,-15.000033,6.333701,13.816225,-13.815004,6.891379,-8.891407,-8.774685,6.944938,4.455445,7.2015266,25.901293,34.87456,-19.437443,-30.851885,-11.432837,-3.6437376,2.097785,-3.791163,-25.31726,27.493275,-27.972223,7.822398,-9.129793,3.3218706
123,84.35883331298828,84.83646392822266,77.1577377319336,-0.6375844748889501,7.865891751803021,88.04288349967882,-23.76617,-10.134304,-13.521429,8.110104,-0.9864192,-15.000033,7.064641,14.885806,-13.41322,6.766111,-7.155709,-8.185455,7.6634088,4.668395,7.2256193,27.703373,35.507378,-18.47064,-31.726274,-11.391849,-3.6514714,2.197444,-3.9963229,-25.259127,27.74151,-29.010674,7.5350103,-9.044808,4.0695143
124,85.15414428710938,85.63677215576172,77.13899230957031,-1.1140792099906054,7.782671915333779,87.5657465955684,-23.586058,-10.347334,-12.557063,7.1267157,-1.4353994,-15.000033,7.8031783,15.914025,-12.891026,6.6605096,-5.4445324,-7.1508775,8.32783,4.8423185,7.2629614,29.499289,36.1005,-17.435816,-32.636196,-11.25688,-3.660189,2.2336798,-4.0605645,-25.204832,27.898855,-30.031841,7.2175183,-8.97385,4.8159003
125,85.96007537841797,86.42398071289062,77.10002899169922,-1.4717662207311524,7.729977370569849,87.18881157524797,-23.696772,-10.624803,-11.6627245,6.8977375,-2.2394717,-15.000033,8.477678,16.799438,-12.267599,6.589289,-3.7840548,-5.620469,8.906143,4.9332385,7.237525,30.929628,36.455173,-16.566671,-33.19219,-10.897975,-3.67955,2.157225,-3.9784236,-25.166182,27.922731,-30.968199,6.835221,-8.919064,5.6099734
126,86.77861022949219,87.2059555053711,77.03565979003906,-1.837070951439529,7.683744522189549,86.87134942534632,-23.784304,-10.804984,-10.904868,6.8156185,-3.1031542,-15.000033,9.133998,17.707945,-11.540786,6.5123653,-2.1495512,-3.675714,9.382043,5.0152674,7.195206,32.24479,36.738716,-15.669406,-33.650436,-10.395398,-3.7074008,2.0010893,-3.8040714,-25.12746,27.882494,-31.842527,6.3800125,-8.891011,6.4420357
127,87.60427856445312,87.985595703125,76.95796966552734,-2.096685004031613,7.649918583338602,86.63739021720981,-23.770496,-11.023104,-10.326397,6.702414,-3.8169303,-15.000033,9.768319,18.492228,-10.800747,6.456212,-0.59292287,-1.2985768,9.669279,4.942578,7.205553,33.838326,37.045452,-14.552645,-34.46287,-9.865736,-3.7066863,1.8276695,-3.5547426,-25.07396,27.822063,-32.70168,5.9205813,-8.87463,7.2353606
128,88.42781066894531,88.76300811767578,76.84867095947266,-2.3077265272556122,7.597050463373867,86.44916736078814,-23.663408,-11.2416935,-10.003911,6.654184,-4.3220725,-15.000033,10.446134,19.202824,-10.080587,6.4038324,0.8639473,1.4904943,9.848431,4.789287,7.231574,35.365192,37.381516,-13.418262,-35.322083,-9.484632,-3.6875198,1.7214733,-3.229256,-24.999002,27.757784,-33.45747,5.527221,-8.862852,7.8762794
129,89.2398681640625,89.539306640625,76.69087982177734,-2.491990603401658,7.477225802470726,86.2468851694138,-23.371656,-11.45249,-9.883469,6.6509876,-4.725665,-15.000033,11.2310095,19.92539,-9.124114,6.354594,2.249838,5.1254425,10.018204,4.6280217,7.2651644,36.663727,37.672897,-12.449301,-36.08683,-9.157729,-3.6245887,1.7109746,-2.7813485,-24.91416,27.65942,-34.090878,5.1518545,-8.826459,8.359639
130,90.04527282714844,90.31836700439453,76.50306701660156,-2.624326969471026,7.318035047362956,86.09843473940752,-22.871286,-11.679194,-9.996397,6.580727,-4.9750905,-15.000033,12.073267,20.630457,-8.04444,6.3301797,3.50273,9.475382,10.104496,4.421454,7.3080072,37.779774,37.939865,-11.582832,-36.77929,-8.850867,-3.5306344,1.7530309,-2.222314,-24.813065,27.518536,-34.61773,4.7791543,-8.779885,8.733941
131,90.8675308227539,91.10588073730469,76.31095123291016,-2.7277380198528904,7.201986747452755,86.15754471214278,-22.356215,-11.892801,-10.546971,6.5762706,-4.8692136,-15.000033,12.850421,21.22799,-7.4553447,6.350829,4.558065,13.641631,9.943716,4.2223525,7.2914176,38.530613,38.14668,-10.906845,-37.23099,-8.682629,-3.4334319,1.8426535,-1.6383036,-24.71502,27.366228,-34.965244,4.515283,-8.755622,8.988763
132,91.7275390625,91.86206817626953,76.209228515625,-2.7897773172390203,7.270278222920051,86.5171790015872,-22.05033,-12.044947,-11.693806,6.668648,-4.162479,-15.000033,13.429967,21.70684,-8.109796,6.26324,5.5664544,15.000033,9.422392,3.9708567,7.1380734,39.05895,38.340233,-10.356779,-37.617275,-8.754317,-3.3348505,1.9956508,-1.0912755,-24.592539,27.214087,-35.121666,4.4519353,-8.7770605,9.139534
133,92.56523895263672,92.61072540283203,76.19929504394531,-2.4988340609621162,7.437857026374923,87.36354148459745,-21.766129,-12.797485,-13.801228,6.8000636,-2.3488762,-11.935345,13.820785,21.553682,-10.244341,6.33957,6.408634,15.000033,8.377657,3.4585488,6.9023924,38.979923,38.501453,-10.151395,-37.550323,-9.174548,-3.253594,2.238084,-0.6419963,-24.44146,27.10643,-34.960358,4.663157,-8.853274,9.11158
134,93.38298797607422,93.36922454833984,76.19847869873047,-1.8932475262084456,7.595228429715732,88.4304739684068,-21.45021,-14.0112295,-16.377798,7.0638494,0.3596254,-6.4483957,11.330561,20.13143,-14.174893,12.46351,4.0262046,15.000033,7.118678,2.7094193,6.616555,38.343746,38.666317,-10.357074,-37.089027,-9.835429,-3.170786,2.6004827,-0.2683323,-24.17421,26.994556,-34.429253,5.0559373,-8.953818,8.962643
135,94.1429214477539,94.101806640625,76.12554168701172,-1.2106670455363244,7.686021725142178,89.20499375243142,-24.74291,-16.289976,-17.486835,15.179028,-0.95218223,-0.9004675,8.445902,17.824932,-18.187143,20.06647,0.8841548,15.000033,6.073596,1.9133489,6.3792534,37.497,38.732166,-10.715784,-36.539143,-10.591574,-3.0986395,2.9860692,0.08546139,-23.92222,26.881788,-33.711884,5.552924,-9.079422,8.77074
136,94.87041473388672,94.81104278564453,75.93092346191406,-0.7496734353469294,7.6265753487324295,89.53124076313232,-26.940035,-17.8359,-17.928247,21.20221,-2.041609,3.1153922,6.3310556,15.288301,-21.525772,26.88066,-1.8623767,15.000033,5.399257,1.3450532,6.310322,36.607346,38.730347,-11.092479,-36.066475,-11.343933,-3.05639,3.3543208,0.4621359,-23.70338,26.70255,-32.87547,6.051142,-9.238767,8.642301
137,95.55665588378906,95.5097885131836,75.64582824707031,-0.5145117249719383,7.3819095670393295,89.53480650671763,-28.40745,-18.660574,-17.810635,26.06915,-3.8013933,5.102428,4.8642993,12.4411,-24.5193,33.32074,-4.4954405,15.000033,4.976745,1.0256394,6.466819,35.62115,38.67169,-11.494618,-35.630367,-12.199454,-3.0944128,3.6921024,0.8461229,-23.53265,26.422037,-31.910427,6.5791125,-9.467078,8.635322
138,96.20270538330078,96.18928527832031,75.32775115966797,-0.29497514384046825,7.000684015338242,89.40725038460361,-29.560122,-19.141985,-17.366695,30.568302,-6.1252694,5.972049,3.8658524,9.037591,-27.337767,39.768402,-7.2745786,15.000033,4.635076,0.7596052,6.8064046,34.462513,38.56044,-11.971435,-35.16575,-13.180106,-3.193804,4.0251393,1.2539884,-23.409658,26.061167,-30.825205,7.17757,-9.75515,8.678023
139,96.82899475097656,96.85372161865234,75.03144073486328,0.01963287288801057,6.604686161669568,89.28007280131091,-30.425642,-19.457666,-16.817837,34.4623,-8.529697,6.2984943,3.1639526,5.3006387,-29.697664,45.8814,-10.047759,15.000033,4.285628,0.44571948,7.2193575,33.09592,38.405888,-12.552686,-34.63358,-14.058389,-3.2732592,4.382994,1.7668421,-23.317192,25.632868,-29.655966,7.7551703,-10.052926,8.675485
140,97.50077056884766,97.46885681152344,74.76612091064453,0.17628066419504282,6.506557397213852,89.0029320044621,-31.343678,-19.401579,-16.383574,37.804344,-10.718277,6.5199456,2.3312383,1.902684,-31.70565,51.121628,-12.456037,12.7744255,4.100418,0.2759178,7.387207,31.507357,38.21923,-13.259868,-34.008408,-14.608087,-3.249201,4.8008285,2.4619145,-23.228434,25.15257,-28.429262,8.216673,-10.311303,8.534502
141,98.19075012207031,98.09248352050781,74.53743743896484,0.4556143297727156,6.668917830072239,88.79036523099042,-31.988995,-19.358862,-16.091536,40.008266,-12.349108,6.707929,1.1508497,-1.479887,-33.12427,55.882675,-14.7553425,9.968239,3.8803873,0.023141647,7.376978,29.634624,38.00521,-14.124698,-33.241375,-14.84977,-3.0996418,5.3252854,3.384136,-23.114927,24.590693,-27.10747,8.608151,-10.506594,8.284798
142,98.88661193847656,98.7327651977539,74.36143493652344,0.8056542695206785,7.0163340909089715,88.60061825494633,-32.440056,-19.259338,-15.804789,41.415237,-13.752073,6.6062465,-0.3282149,-4.9000616,-34.083153,60.34319,-17.081583,6.693922,3.6562462,-0.27206567,7.244556,27.51589,37.755302,-15.109653,-32.36383,-14.888654,-2.868114,5.93839,4.4728594,-22.970783,23.943138,-25.655794,8.948606,-10.66947,7.967143
143,99.57195281982422,99.39407348632812,74.23722076416016,1.1567811266562504,7.389652162357263,88.43819295871864,-32.67172,-19.105778,-15.581686,42.35703,-15.015236,6.3586206,-1.895571,-8.111293,-34.60466,64.26721,-19.290377,3.510615,3.4247742,-0.5549927,7.0963826,25.30059,37.45379,-16.134596,-31.4919,-14.61958,-2.5629528,6.5732374,5.6489344,-22.81348,23.269907,-24.118225,9.101622,-10.831787,7.500501
144,100.24797821044922,100.04035186767578,74.15165710449219,1.436003706208335,7.625713377214985,88.3052248812021,-32.647175,-18.893505,-15.494645,43.14994,-16.214699,6.1056156,-3.3167896,-10.891093,-34.758976,67.43493,-21.189138,0.98397505,3.1777036,-0.76186705,7.047789,23.125868,37.08509,-17.133839,-30.725765,-13.932456,-2.1884546,7.1519847,6.836998,-22.672224,22.64015,-22.55404,8.933955,-11.02406,6.795347
145,100.89392852783203,100.67361450195312,74.09911346435547,1.6183996241436858,7.654505117420948,88.18671986303485,-32.297466,-18.603313,-15.5636,43.83324,-17.380594,5.859319,-4.538108,-13.205959,-34.587013,69.81974,-22.678076,-0.7447896,2.9307969,-0.8530535,7.167694,20.974346,36.630352,-18.146708,-30.046503,-12.528466,-1.6715807,7.698101,8.038649,-22.56936,22.081745,-20.907875,8.235874,-11.239853,5.635932
146,101.54708862304688,101.30949401855469,74.09489440917969,1.7392715753762462,7.569612134903385,88.08866300932111,-31.665195,-18.23675,-15.753699,44.26181,-18.473179,5.5552382,-5.7331038,-15.162292,-34.112732,71.58433,-23.8278,-1.9575515,2.6701684,-0.85244346,7.387486,18.78997,36.077538,-19.196056,-29.404366,-10.552695,-1.0189867,8.212363,9.298853,-22.510334,21.556425,-19.195953,7.1384363,-11.445832,4.120676
147,102.22295379638672,101.9495849609375,74.12948608398438,1.8128588415135418,7.4517119961631275,88.04034183639074,-30.877487,-17.815645,-16.05591,44.474472,-19.459637,5.2133646,-6.9728713,-16.76752,-33.39996,72.79365,-24.681915,-2.7228546,2.348015,-0.7939708,7.61745,16.627115,35.43663,-20.209887,-28.833752,-8.558501,-0.36745954,8.590199,10.606489,-22.49732,21.036873,-17.596992,6.021175,-11.646961,2.6319277
148,102.91291809082031,102.58975219726562,74.20543670654297,1.853533924773359,7.381921420359218,88.07225270151436,-30.064463,-17.363245,-16.462826,44.514145,-20.30759,4.85213,-8.319237,-18.026014,-32.50277,73.50671,-25.289791,-3.1102617,1.9137939,-0.7160547,7.7694774,14.545136,34.73764,-21.101974,-28.381405,-7.1013045,0.12963627,8.749532,11.942337,-22.527443,20.504246,-16.278566,5.26751,-11.880608,1.5532155
149,103.62217712402344,103.22441101074219,74.3268051147461,1.8508807713846909,7.369130407545012,88.20951991820397,-29.246181,-16.880575,-17.011017,44.401497,-21.013498,4.4677567,-9.803846,-18.853285,-31.367218,73.67366,-25.600864,-2.9903939,1.335254,-0.62212986,7.8388386,12.555889,34.00591,-21.847656,-28.08373,-6.362517,0.42188886,8.661861,13.303326,-22.592497,19.952044,-15.280572,4.9989476,-12.203468,1.0023727
150,104.33667755126953,103.84184265136719,74.47615051269531,1.7993427607427614,7.373073506350731,88.43183245159145,-28.362509,-16.349672,-17.693563,44.114494,-21.594292,4.051672,-11.360265,-19.277948,-30.008944,73.29921,-25.618551,-2.3807507,0.6465694,-0.49914342,7.8695755,10.63149,33.25363,-22.49971,-27.918818,-6.0390673,0.5825504,8.389716,14.700655,-22.686357,19.394,-14.514338,5.009787,-12.596068,0.77173954
151,105.0497055053711,104.4657974243164,74.65091705322266,1.7275684649976502,7.401687940637052,88.70193530257687,-27.420296,-15.769443,-18.44156,43.63114,-22.04997,3.6153653,-12.901719,-19.475483,-28.579624,72.516685,-25.477127,-1.5730541,-0.09657288,-0.36183056,7.846092,8.774996,32.496235,-23.088556,-27.849548,-5.9523416,0.6408968,8.0008745,16.14025,-22.807222,18.83853,-13.953509,5.193099,-12.9955225,0.7589681
152,105.75889587402344,105.12394714355469,74.85477447509766,1.6623300491623176,7.463075162774265,88.98199705522337,-26.425686,-15.141103,-19.185883,42.928333,-22.378983,3.1710513,-14.357793,-19.624735,-27.226185,71.45752,-25.297318,-0.85723215,-0.83822,-0.22448969,7.7542577,6.9940424,31.750942,-23.637115,-27.844112,-5.927398,0.62611806,7.561119,17.631773,-22.957096,18.290405,-13.579167,5.4406385,-13.337197,0.85961914
153,106.47163391113281,105.79794311523438,75.0928955078125,1.6161856615197312,7.575559701186442,89.29252950690764,-25.375835,-14.473332,-19.949167,41.95143,-22.57684,2.7077606,-15.753579,-19.730722,-25.9344,70.10265,-25.106205,-0.26022443,-1.5904386,-0.096821666,7.5719757,5.2902083,31.030289,-24.145796,-27.939703,-6.0232215,0.5220795,7.04745,19.2067,-23.13973,17.73128,-13.453911,5.785814,-13.608028,1.1382937
154,107.20185852050781,106.4676742553711,75.35260009765625,1.5726114394178754,7.729197943823643,89.64406091126637,-24.273874,-13.761613,-20.753107,40.730854,-22.645906,2.2237017,-17.09533,-19.730335,-24.6443,68.40405,-24.850658,0.34324643,-2.3702514,0.030239994,7.317099,3.6606166,30.339985,-24.611046,-28.15079,-6.305619,0.32419702,6.4423895,20.860367,-23.352566,17.159758,-13.573191,6.2707024,-13.836984,1.6227571
155,107.93684387207031,107.14278411865234,75.62216186523438,1.5260147678081855,7.890388013161173,89.98312012015934,-23.132927,-12.987997,-21.527958,39.368427,-22.59355,1.7433192,-18.308315,-19.689783,-23.434557,66.442,-24.5089,0.9062393,-3.1295269,0.17055194,7.035292,2.1147923,29.684683,-25.04415,-28.42054,-6.6056743,0.07603816,5.8186693,22.539965,-23.58745,16.602877,-13.822752,6.797109,-14.025663,2.1507173
156,108.66273498535156,107.84276580810547,75.91169738769531,1.4639358340583781,8.026513494313805,90.25519666504485,-21.96719,-12.137805,-22.203217,37.97024,-22.429579,1.2899069,-19.331284,-19.663902,-22.389532,64.29404,-24.051552,1.3920054,-3.8206284,0.33579054,6.771152,0.66339725,29.068335,-25.454947,-28.69239,-6.7514577,-0.18265848,5.249302,24.188375,-23.832647,16.086163,-14.082057,7.261943,-14.180603,2.5583508
157,109.39095306396484,108.54275512695312,76.20899200439453,1.3804089309080012,8.135215191551247,90.4474874921697,-20.736422,-11.182702,-22.771017,36.458973,-22.15148,0.875124,-20.160305,-19.64145,-21.537365,61.92683,-23.44546,1.802512,-4.432125,0.52832633,6.5246725,-0.68600106,28.492832,-25.842894,-28.959488,-6.6842475,-0.48072827,4.7281265,25.804516,-24.085146,15.614358,-14.337777,7.609586,-14.295905,2.800522
158,110.136962890625,109.2396469116211,76.51496887207031,1.2810625958310662,8.232570126455375,90.58747667735821,-19.452574,-10.1431675,-23.260427,34.819473,-21.758757,0.48119438,-20.83157,-19.590378,-20.843958,59.31028,-22.706987,2.1676483,-4.9890995,0.74009115,6.277192,-1.9409062,27.961248,-26.207457,-29.25418,-6.4998875,-0.82865435,4.2253165,27.410221,-24.343882,15.169646,-14.644758,7.8999643,-14.373111,2.9639878
159,110.87318420410156,109.94515228271484,76.81777954101562,1.177204715767588,8.313857716697314,90.68055871452202,-18.206047,-9.080586,-23.660007,33.25779,-21.267208,0.08868944,-21.353662,-19.526356,-20.302702,56.524456,-21.8774,2.5003045,-5.4950175,0.9621532,6.043761,-3.1223326,27.481962,-26.560354,-29.565928,-6.258593,-1.1607506,3.778866,28.977066,-24.600594,14.737722,-14.981882,8.199724,-14.433155,3.084733
160,111.61909484863281,110.65634155273438,77.114013671875,1.0778649109808185,8.373840813427032,90.73216342706894,-17.081636,-8.055053,-23.964731,31.978342,-20.692802,-0.31849983,-21.733635,-19.46769,-19.905252,53.646408,-20.998669,2.8103857,-5.9523697,1.1832163,5.838505,-4.247691,27.066685,-26.913551,-29.88573,-6.018665,-1.4097244,3.4263258,30.469568,-24.842028,14.307718,-15.317732,8.5757,-14.495783,3.2003615
161,112.362548828125,111.35520935058594,77.40098571777344,0.980018087969929,8.404294508722641,90.73111491227385,-16.056904,-7.0574217,-24.150206,30.972778,-20.010807,-0.7340442,-21.93297,-19.449331,-19.726322,50.62752,-20.0303,3.1093168,-6.355503,1.4012858,5.6673603,-5.3190327,26.729189,-27.281628,-30.229818,-5.751397,-1.5314792,3.213835,31.88229,-25.06207,13.883654,-15.642428,9.07004,-14.563221,3.316277
162,113.11202239990234,112.0736083984375,77.67779541015625,0.8812519360155959,8.409919138812253,90.67803655115576,-15.0915,-6.0676146,-24.232897,30.151196,-19.222923,-1.1520404,-21.966057,-19.42912,-19.756899,47.436867,-18.95907,3.4058046,-6.7018185,1.6154199,5.5238743,-6.3232656,26.475891,-27.658459,-30.610594,-5.44122,-1.5697991,3.111243,33.229164,-25.26,13.465898,-15.970447,9.635047,-14.626374,3.416479
163,113.87386322021484,112.76731872558594,77.9372329711914,0.7873257831063364,8.405415474676959,90.59654767183699,-14.241977,-5.1291213,-24.274641,29.59211,-18.382172,-1.5875998,-21.917948,-19.331177,-19.851624,44.18753,-17.868486,3.692658,-7.0020003,1.8178451,5.402396,-7.254687,26.304617,-28.01967,-31.014883,-5.165395,-1.5882758,3.0404928,34.49685,-25.426315,13.049071,-16.301044,10.201808,-14.687013,3.5050426
164,114.64096069335938,113.46559143066406,78.17822265625,0.7057197059180814,8.404958743025826,90.51063862785813,-13.56149,-4.280813,-24.339642,29.36115,-17.534927,-2.0575523,-21.867016,-19.10331,-19.85506,40.995636,-16.846664,3.946433,-7.265505,2.0009086,5.295713,-8.115955,26.207905,-28.343887,-31.417912,-5.0005674,-1.6508217,2.922987,35.66857,-25.546703,12.630948,-16.626722,10.69885,-14.747551,3.5871665
165,115.4105224609375,114.15754699707031,78.3971939086914,0.6303277840536047,8.422012076363949,90.41501756878759,-13.05204,-3.5135021,-24.44905,29.428944,-16.67847,-2.5846875,-21.84162,-18.754005,-19.751768,37.847355,-15.919592,4.0474224,-7.484143,2.172481,5.195561,-8.934432,26.188982,-28.649271,-31.805023,-4.9770637,-1.7627013,2.7601426,36.74136,-25.611706,12.199089,-16.940649,11.119925,-14.8167,3.6734135
166,116.18771362304688,114.84425354003906,78.59741973876953,0.5589752522810464,8.444819639152126,90.30116181254782,-12.678567,-2.811836,-24.576206,29.760307,-15.786978,-3.15817,-21.790688,-18.329273,-19.608286,34.696888,-15.044563,4.029636,-7.6557035,2.3301976,5.1063123,-9.711131,26.248009,-28.943478,-32.17998,-5.0503035,-1.8922225,2.5834396,37.70456,-25.621338,11.768766,-17.229195,11.493334,-14.890851,3.7584758
167,116.97863006591797,115.51866149902344,78.7706527709961,0.5047748604207675,8.449532001010962,90.18935924320336,-12.438806,-2.2075841,-24.714909,30.408503,-14.869548,-3.7427125,-21.669296,-17.846691,-19.385853,31.609507,-14.204282,4.093124,-7.780093,2.455007,5.044843,-10.41627,26.37613,-29.21368,-32.559372,-5.1833563,-2.049733,2.3701828,38.57909,-25.575495,11.34552,-17.51539,11.801687,-14.9520035,3.8321354
168,117.77223205566406,116.18019104003906,78.91353607177734,0.48569073349987785,8.411329023812824,90.10105386099657,-12.331411,-1.7353016,-24.858189,31.42716,-13.932715,-4.300718,-21.425373,-17.316317,-19.046045,28.633514,-13.370449,4.4443808,-7.8854785,2.521638,5.019405,-11.014778,26.543627,-29.412073,-32.93413,-5.3329244,-2.2430081,2.0788877,39.329315,-25.48138,10.979845,-17.770792,12.01842,-14.983904,3.8712182
169,118.56788635253906,116.85089874267578,79.01653289794922,0.52489235990378,8.327823397687737,90.04028132513173,-12.386148,-1.4350512,-25.002392,32.896183,-12.972141,-4.768854,-21.015732,-16.700703,-18.48633,25.619621,-12.490578,5.3029523,-7.971052,2.514206,5.029177,-11.520021,26.734758,-29.527159,-33.2834,-5.502605,-2.4912891,1.657675,39.987907,-25.338709,10.655552,-18.011574,12.100878,-14.976432,3.856335
170,119.36859130859375,117.52778625488281,79.07794952392578,0.6223859142876457,8.205534523924426,90.00198930488823,-12.582923,-1.2965423,-25.152016,34.75063,-11.975947,-5.182638,-20.44261,-16.035084,-17.751648,22.54135,-11.576266,6.4985714,-8.030632,2.435916,5.0683684,-11.961164,26.945772,-29.584074,-33.58968,-5.706544,-2.7822187,1.133929,40.557762,-25.14948,10.3612995,-18.239279,12.072538,-14.94025,3.8012166
171,120.17959594726562,118.2057876586914,79.10267639160156,0.7544342493878066,8.036107002542927,89.99114723317153,-12.854093,-1.2719905,-25.313229,36.841316,-10.946957,-5.6494393,-19.759066,-15.419088,-17.026514,19.688715,-10.705499,7.6658974,-8.0655365,2.3039575,5.1397777,-12.334292,27.16657,-29.608784,-33.85163,-5.917295,-3.0788589,0.5960635,40.998646,-24.929333,10.125135,-18.440687,12.016539,-14.888153,3.7382963
172,120.99104309082031,118.8756332397461,79.09526824951172,0.8752037111246596,7.819491643738423,90.00481177222302,-13.146542,-1.2910968,-25.4986,39.038723,-9.8997345,-6.277567,-19.061983,-14.914783,-16.49984,17.409876,-9.97596,8.447049,-8.073822,2.1603992,5.2406735,-12.633903,27.38247,-29.621023,-34.068882,-6.1069326,-3.3458517,0.1324845,41.268394,-24.703611,9.976416,-18.598711,12.018583,-14.833921,3.698158
173,121.80595397949219,119.54205322265625,79.05814361572266,0.9893540055847282,7.553743184314573,90.04383661687886,-13.467095,-1.392117,-25.756035,41.40899,-8.660743,-7.24762,-18.362774,-14.5482645,-16.213375,15.751872,-9.431592,8.7815275,-8.059496,2.0041983,5.363852,-12.845451,27.5787,-29.602564,-34.236916,-6.2486377,-3.5777798,-0.2775671,41.372875,-24.488874,9.920749,-18.710323,12.108832,-14.773645,3.690973
174,122.61992645263672,120.21240997314453,78.98286437988281,1.0945233695301808,7.248826837869075,90.10054230269196,-13.855242,-1.5800494,-26.080875,44.026314,-7.3006864,-8.449585,-17.66677,-14.252178,-16.071804,14.616714,-9.045153,8.856181,-8.01979,1.8462863,5.504246,-12.980286,27.748652,-29.543196,-34.343925,-6.3600583,-3.793018,-0.66933703,41.33116,-24.290447,9.942703,-18.783699,12.245998,-14.702734,3.6954703
175,123.42694854736328,120.88841247558594,78.86727142333984,1.1156482818389748,6.926612261309184,90.15569729412695,-14.315064,-1.6998366,-26.400747,46.768017,-6.1992717,-9.554993,-17.072124,-13.921559,-16.064125,14.147348,-8.816357,8.676484,-7.939975,1.7668586,5.662407,-13.063824,27.889988,-29.475601,-34.380066,-6.4733324,-3.9928758,-0.9742519,41.119335,-24.118795,10.037975,-18.822266,12.409122,-14.634137,3.6960418
176,124.22660827636719,121.5569839477539,78.74928283691406,0.9819239596014745,6.606332433381245,90.19391925743216,-14.849586,-1.5794036,-26.625751,49.48212,-5.7181187,-10.22956,-16.673813,-13.4607115,-16.178686,14.488678,-8.738282,8.241749,-7.8102994,1.842844,5.8413343,-13.1174965,28.002756,-29.430536,-34.339703,-6.6199236,-4.1785197,-1.123708,40.715694,-23.985523,10.204059,-18.832176,12.577773,-14.580655,3.6762094
177,125.02871704101562,122.20062255859375,78.62451934814453,0.6353544251370208,6.263270307347821,90.20949254726793,-15.418335,-1.1046313,-26.73745,52.176838,-6.0265784,-10.381124,-16.504038,-12.801067,-16.46392,15.884671,-8.678798,7.3937955,-7.62845,2.1254113,6.0586095,-13.14157,28.085583,-29.42413,-34.217327,-6.820406,-4.359098,-1.0640969,40.114494,-23.897673,10.454466,-18.819881,12.774435,-14.546091,3.633073
178,125.8003921508789,122.86021423339844,78.38269805908203,0.1514458438173952,5.88514661142124,90.22471572023058,-16.022198,-0.39289552,-26.779652,54.88921,-6.892336,-10.178259,-16.458572,-12.018124,-16.93617,18.07921,-8.618702,6.199166,-7.4161506,2.541873,6.31283,-13.124428,28.137392,-29.432806,-34.0169,-7.053206,-4.5316978,-0.8454421,39.337383,-23.854664,10.785278,-18.793962,13.004482,-14.523512,3.5722275
179,126.56929779052734,123.49933624267578,78.10611724853516,-0.35725310539246913,5.516998846448295,90.25963689063705,-16.73794,0.39863124,-26.753325,57.506153,-8.071321,-9.678449,-16.46781,-11.220986,-17.51215,20.54002,-8.756205,4.986815,-7.189655,2.9991915,6.5752544,-13.069101,28.156162,-29.43233,-33.7497,-7.2852015,-4.679771,-0.5525445,38.408073,-23.853281,11.160192,-18.768707,13.224633,-14.509255,3.4933918
180,127.345703125,124.11427307128906,77.82849884033203,-0.8110034473538422,5.2160995129708905,90.3207466131435,-17.659119,1.1407785,-26.665121,59.930042,-9.334951,-8.944528,-16.505787,-10.495166,-18.07703,22.827923,-9.356856,4.0626388,-6.9764223,3.424971,6.8071146,-12.956078,28.155794,-29.372377,-33.4345,-7.4863267,-4.7850847,-0.2729905,37.291374,-23.891926,11.583671,-18.705559,13.381397,-14.502375,3.3857868
181,128.11244201660156,124.71192932128906,77.50473022460938,-1.2403441713131589,4.969597205453329,90.42574239719737,-18.841225,1.8794118,-26.521986,62.225506,-10.785671,-7.8790283,-16.613253,-9.845607,-18.625883,25.06644,-10.721448,3.5399036,-6.773322,3.8677394,7.0361776,-12.846906,28.134548,-29.268469,-33.061745,-7.6651607,-4.840528,0.0025578905,36.006645,-23.966318,12.010645,-18.65106,13.470266,-14.525236,3.2691655
182,128.87155151367188,125.2762680053711,77.14752197265625,-1.6881891858155729,4.763598243216584,90.55773037483036,-20.231697,2.6600568,-26.347898,64.42471,-12.513755,-6.5013723,-16.83093,-9.211259,-19.194899,27.47966,-12.676978,3.2374413,-6.5714493,4.3574157,7.2660985,-12.72132,28.091825,-29.131302,-32.63188,-7.8328323,-4.8569126,0.31056076,34.539814,-24.074617,12.463289,-18.587957,13.513024,-14.572101,3.1393478
183,129.62185668945312,125.83232879638672,76.78490447998047,-2.1013937891026986,4.657272598686524,90.66648789192298,-21.770409,3.3637004,-26.155916,66.39491,-14.265979,-5.043802,-17.151201,-8.588587,-19.718637,29.84803,-14.814082,3.0044057,-6.3401575,4.8293996,7.4307613,-12.470163,28.02582,-28.947153,-32.180977,-7.966627,-4.845674,0.6158378,32.912205,-24.220503,12.962339,-18.48629,13.517698,-14.594503,2.9741013
184,130.34310913085938,126.38484191894531,76.43592834472656,-2.416821090094531,4.706955343057371,90.70334992544151,-23.398317,3.873461,-25.929783,68.00512,-15.776814,-3.7272742,-17.535929,-7.981494,-20.130457,31.902746,-16.699041,2.691922,-6.050955,5.2126684,7.464124,-11.976653,27.935823,-28.697584,-31.74944,-8.043605,-4.8176107,0.88206416,31.14633,-24.41035,13.533768,-18.32011,13.495118,-14.54413,2.749016
185,131.04391479492188,126.96045684814453,76.11626434326172,-2.6078975306334335,5.012582255771544,90.64706691291981,-25.253468,4.1915236,-25.571507,69.24898,-17.003456,-2.4685395,-18.073578,-7.414434,-20.394419,33.588493,-18.252077,2.256533,-5.6823673,5.480524,7.2841043,-11.164566,27.812109,-28.342209,-31.371572,-8.062692,-4.7911577,1.0661907,29.198135,-24.65474,14.205139,-18.068182,13.521556,-14.3895445,2.4484124
186,131.750732421875,127.5486831665039,75.83048248291016,-2.7118858420392136,5.514088443276483,90.52419459788145,-27.304836,4.3682,-25.091713,70.18862,-18.08334,-1.1982275,-18.742064,-6.885434,-20.551926,35.045948,-19.694353,1.7758983,-5.261424,5.675539,6.9495196,-10.096825,27.654127,-27.888805,-31.026825,-8.034464,-4.7548566,1.1955225,27.076815,-24.949776,14.964752,-17.768383,13.575317,-14.163983,2.080555
187,132.4652862548828,128.1529998779297,75.57426452636719,-2.7619006472321277,6.027084979396323,90.36084570304358,-29.2446,4.364952,-24.611998,70.79075,-18.997068,-0.14844683,-19.322285,-6.361857,-20.647245,36.272667,-21.028305,1.2849499,-4.8276267,5.8215847,6.6070113,-8.866582,27.482538,-27.399885,-30.67296,-7.953106,-4.6745677,1.3424658,24.882757,-25.270805,15.780787,-17.47959,13.517438,-13.9135475,1.6625621
188,133.16616821289062,128.7524871826172,75.3421859741211,-2.7885939621987945,6.367976848607545,90.18353999061675,-30.77779,4.1454678,-24.261057,71.02753,-19.711649,0.44933724,-19.598999,-5.809218,-20.725088,37.266308,-22.256468,0.81830204,-4.413123,5.940372,6.403249,-7.57167,27.331236,-26.94786,-30.275816,-7.8168325,-4.5165887,1.5835115,22.703009,-25.585207,16.620525,-17.231485,13.201658,-13.681587,1.2207137
189,133.86306762695312,129.36376953125,75.13780212402344,-2.785741852263451,6.484415070434356,89.99677390036977,-31.813837,3.6709397,-24.084509,70.84827,-20.170582,0.45357373,-19.504353,-5.227571,-20.787111,38.0202,-23.384758,0.38142642,-4.025748,6.0090694,6.383941,-6.1956234,27.225893,-26.560457,-29.798624,-7.5959716,-4.2441163,1.9691492,20.503847,-25.87024,17.521082,-16.95221,12.452389,-13.470185,0.69753456
190,134.56202697753906,129.99681091308594,74.97462463378906,-2.7403820598353597,6.475900469865761,89.78801519053994,-32.52019,2.9809883,-24.001001,70.27771,-20.39176,0.018698389,-19.150412,-4.632523,-20.809607,38.531548,-24.408552,-0.04426206,-3.6435506,6.0143857,6.474249,-4.6891756,27.173933,-26.198141,-29.292454,-7.309062,-3.88406,2.455482,18.237965,-26.114956,18.499119,-16.626162,11.388556,-13.250428,0.112662554
191,135.26123046875,130.64535522460938,74.86296081542969,-2.6724568889242493,6.386126224536534,89.55815970171575,-32.99547,2.1563601,-23.962473,69.403786,-20.452381,-0.64116055,-18.593822,-4.0117736,-20.79862,38.800224,-25.310963,-0.45998046,-3.2517588,5.991886,6.6356034,-3.1055307,27.18067,-25.836658,-28.85264,-7.02652,-3.4987137,2.978789,15.978046,-26.312944,19.489223,-16.362503,10.294768,-13.023028,-0.38904247
192,135.9580078125,131.3086700439453,74.79263305664062,-2.604340223476155,6.258675904220851,89.30807016246389,-33.336388,1.2756251,-23.921392,68.31321,-20.429579,-1.3128258,-17.891356,-3.3529816,-20.760857,38.824554,-26.073414,-0.86690974,-2.8305283,5.9767785,6.8264847,-1.5053744,27.247503,-25.46279,-28.563587,-6.8163404,-3.1518922,3.4777048,13.800568,-26.46405,20.413755,-16.271898,9.454625,-12.799493,-0.6647037
193,136.650634765625,131.9613494873047,74.74384307861328,-2.5431225050181143,6.06088346343778,89.02764345989169,-33.496593,0.3126954,-23.927383,66.97877,-20.333519,-2.0152504,-16.999735,-2.6398025,-20.693226,38.583668,-26.692976,-1.2711135,-2.3750968,5.98547,7.0754614,0.109597154,27.381187,-25.103285,-28.450865,-6.6374774,-2.8047547,4.035313,11.698027,-26.574116,21.25894,-16.373169,8.913639,-12.593403,-0.63426447
194,137.3285369873047,132.62680053710938,74.72443389892578,-2.4785026219246484,5.784541012191907,88.71962103007662,-33.45364,-0.74850684,-24.003962,65.365845,-20.13215,-2.8281348,-15.905551,-1.8838363,-20.588572,38.082607,-27.177685,-1.6712772,-1.8944265,5.9968953,7.3881164,1.7695671,27.583832,-24.756115,-28.467476,-6.4768815,-2.4424357,4.654608,9.638093,-26.648111,22.068077,-16.599424,8.528229,-12.40311,-0.38786557
195,138.00128173828125,133.28964233398438,74.73489379882812,-2.397448593867332,5.5095189095269665,88.40445908862719,-33.33453,-1.8186867,-24.056017,63.545227,-19.830275,-3.636051,-14.709773,-1.113477,-20.451092,37.357132,-27.524347,-2.0581837,-1.3896664,5.990481,7.6871843,3.4604106,27.841873,-24.367832,-28.585644,-6.4376965,-2.1671028,5.153611,7.666262,-26.687485,22.842348,-16.948195,8.292856,-12.220656,-0.042031214
196,138.6705780029297,133.96533203125,74.77623748779297,-2.2909185400558965,5.315654650773424,88.10211023026673,-33.262775,-2.8162663,-23.975548,61.587715,-19.424675,-4.3313303,-13.513931,-0.35780615,-20.287706,36.444374,-27.729767,-2.4229596,-0.85706174,5.944116,7.894998,5.15824,28.131086,-23.89072,-28.767406,-6.617618,-2.0815425,5.3490057,5.832433,-26.693426,23.572104,-17.419512,8.201683,-12.035838,0.28687125
197,139.32858276367188,134.65859985351562,74.8476791381836,-2.1521727963875157,5.233227804964464,87.80349523100163,-33.26908,-3.7557466,-23.755234,59.46956,-18.88862,-4.8965793,-12.3517885,0.373549,-20.084852,35.344395,-27.800003,-2.7666361,-0.2755467,5.8492785,7.9782085,6.860402,28.427607,-23.297787,-28.996517,-7.1713705,-2.2849143,5.1075773,4.1227655,-26.67379,24.256987,-18.03653,8.340528,-11.846726,0.60117793
198,139.98895263671875,135.35829162597656,74.94278717041016,-1.9892632062603859,5.21620672606723,87.5020177800945,-33.279175,-4.6686316,-23.443615,57.152966,-18.22344,-5.3903117,-11.162808,1.0946288,-19.842834,34.03828,-27.732647,-3.0962317,0.34626815,5.7225122,7.9779243,8.569323,28.722218,-22.62265,-29.273636,-8.000151,-2.6907043,4.5448346,2.5209255,-26.63574,24.900145,-18.786907,8.681567,-11.65579,0.94701445
199,140.64736938476562,136.07496643066406,75.05850982666016,-1.8122929741509426,5.230198216636561,87.22132275219951,-33.25506,-5.509829,-23.007061,54.689194,-17.466925,-5.827456,-9.910206,1.8110218,-19.590805,32.540905,-27.5168,-3.4095128,0.9738635,5.574336,7.929198,10.259254,29.015244,-21.913656,-29.58218,-8.819712,-3.1262367,3.8552928,1.0748644,-26.577925,25.4868,-19.622978,9.047692,-11.459569,1.277944
200,141.3152618408203,136.80099487304688,75.1927261352539,-1.6309527230638905,5.24053491232779,86.98522146855335,-33.158775,-6.239049,-22.409853,52.130993,-16.65906,-6.2228336,-8.557106,2.528934,-19.357275,30.864397,-27.141148,-3.700511,1.5748892,5.4137,7.868789,11.903988,29.314474,-21.216276,-29.909096,-9.340607,-3.4307969,3.2439656,-0.16358255,-26.491253,26.001568,-20.49732,9.259745,-11.257152,1.5497017
201,141.9936981201172,137.5341339111328,75.33988952636719,-1.4353543475261699,5.241442396494506,86.79884622377087,-32.982273,-6.84243,-21.600044,49.450607,-15.770853,-6.554549,-7.0580587,3.2450411,-19.144285,28.931576,-26.602983,-3.9533145,2.1540132,5.227899,7.802238,13.507297,29.627142,-20.519482,-30.255468,-9.493563,-3.5804377,2.6966352,-1.1718744,-26.365612,26.417015,-21.413397,9.239683,-11.050495,1.7440506
202,142.67626953125,138.28033447265625,75.49866485595703,-1.2233305749736143,5.248973869009128,86.64820975754311,-32.7253,-7.35694,-20.602467,46.614414,-14.784847,-6.83186,-5.436541,3.9571066,-18.932638,26.749666,-25.903296,-4.171292,2.727892,5.0096564,7.7137036,15.08412,29.954882,-19.800522,-30.633568,-9.429664,-3.6602738,2.1331825,-1.9852191,-26.200403,26.746847,-22.382637,9.090256,-10.840316,1.8902979
203,143.3654022216797,139.04710388183594,75.66382598876953,-1.014475114141353,5.261401984386594,86.52819463817025,-32.372326,-7.8192315,-19.501144,43.680206,-13.756439,-7.1134515,-3.755402,4.677361,-18.720446,24.447603,-25.031425,-4.376691,3.2795784,4.775866,7.6082096,16.628727,30.299223,-19.083069,-31.048075,-9.183251,-3.6811059,1.6631968,-2.6439834,-26.003536,27.038347,-23.368855,8.903245,-10.624227,2.0170403
204,144.06149291992188,139.82693481445312,75.82807922363281,-0.8343264652577275,5.277059008121802,86.43348416473259,-31.917866,-8.256473,-18.388283,40.711994,-12.743433,-7.4527564,-2.0819077,5.420508,-18.50807,22.16345,-23.98129,-4.593852,3.794464,4.5503535,7.490009,18.126692,30.660776,-18.395947,-31.49471,-8.789419,-3.651661,1.3954145,-3.1835775,-25.788157,27.334198,-24.34329,8.772462,-10.39972,2.1519911
205,144.7705535888672,140.60366821289062,75.99031066894531,-0.672607843619496,5.297483507981068,86.36303239976061,-31.354559,-8.659045,-17.218618,37.673046,-11.730024,-7.8414392,-0.3786745,6.1925373,-18.271545,19.816868,-22.714048,-4.8415227,4.278076,4.3285794,7.3566117,19.574612,31.044298,-17.73956,-31.985306,-8.12618,-3.534734,1.3893496,-3.5825996,-25.563288,27.637465,-25.328478,8.726543,-10.15534,2.2729623
206,145.47689819335938,141.3865509033203,76.14826202392578,-0.5229188011055481,5.321234982229704,86.31444123991128,-30.674122,-9.021708,-15.968365,34.517754,-10.680358,-8.256869,1.3839326,6.9867344,-18.01161,17.351908,-21.236567,-5.1016774,4.7401443,4.1016426,7.2126307,20.987406,31.4515,-17.093943,-32.527676,-7.218761,-3.3360865,1.5739055,-3.82413,-25.332323,27.921507,-26.346878,8.715794,-9.895517,2.3731933
207,146.19834899902344,142.16845703125,76.29315185546875,-0.4151671132711024,5.342432187332251,86.28037889705335,-29.887741,-9.36344,-14.768591,31.317154,-9.631903,-8.724772,3.1162834,7.802408,-17.770296,14.968581,-19.61709,-5.3467097,5.173562,3.89637,7.0695863,22.368874,31.875221,-16.464128,-33.10331,-6.3225074,-3.1271625,1.8628446,-3.953066,-25.101923,28.182138,-27.361824,8.718041,-9.640988,2.5037234
208,146.91912841796875,142.95062255859375,76.42369079589844,-0.38412391279015573,5.355241530426966,86.25491506020377,-29.017418,-9.693485,-13.75266,28.159515,-8.630475,-9.268254,4.7298346,8.647477,-17.59249,12.859538,-17.920034,-5.551532,5.570541,3.7476635,6.936285,23.713123,32.301266,-15.861105,-33.683285,-5.689283,-2.983476,2.1727211,-4.014048,-24.87962,28.414759,-28.33612,8.712063,-9.412756,2.715552
209,147.6435546875,143.7284393310547,76.54116821289062,-0.4553705556254323,5.355260920778082,86.23932114405355,-28.056286,-10.002865,-12.926993,25.035,-7.700266,-9.923808,6.240334,9.562686,-17.515778,10.991069,-16.099714,-5.7454567,5.9318724,3.6852732,6.811849,25.006388,32.723106,-15.296549,-34.24665,-5.344544,-2.9283025,2.5196638,-4.0211587,-24.675318,28.624025,-29.278172,8.7123,-9.201636,3.0194044
210,148.3719482421875,144.50265502929688,76.63829040527344,-0.6153108187789361,5.3444693763172735,86.22900288533732,-27.001982,-10.267478,-12.23306,21.908787,-6.816054,-10.661463,7.709071,10.559969,-17.49763,9.225495,-14.1082,-5.9302363,6.268516,3.7030005,6.692476,26.248722,33.1404,-14.7663555,-34.804924,-5.162352,-2.9207296,2.9345083,-3.9467974,-24.494373,28.806322,-30.208197,8.725978,-9.000627,3.3883505
211,149.10232543945312,145.28192138671875,76.71283721923828,-0.8490591165857685,5.327176065397742,86.2160605130063,-25.902483,-10.472274,-11.705397,18.87008,-5.967149,-11.40596,9.1073065,11.602617,-17.46943,7.609349,-12.010039,-6.037471,6.5802946,3.7813437,6.5774746,27.441858,33.54699,-14.262067,-35.36751,-5.168718,-2.9442956,3.356995,-3.7797275,-24.337025,28.948938,-31.107409,8.717575,-8.833752,3.8192227
212,149.84445190429688,146.05599975585938,76.76798248291016,-1.1307405202166438,5.310317449074087,86.19998655543093,-24.80761,-10.610909,-11.378315,16.01614,-5.144108,-12.0855465,9.880073,12.473423,-17.481272,7.3291326,-10.471448,-5.982688,6.8595734,3.8962495,6.4639378,28.581036,33.932487,-13.780917,-35.930847,-5.38726,-2.9834614,3.726087,-3.5114107,-24.197815,29.040712,-31.946774,8.652114,-8.726152,4.308495
213,150.58990478515625,146.82972717285156,76.80744171142578,-1.4723126511914137,5.304368746464055,86.20185311234107,-23.724182,-10.693954,-11.314532,13.352319,-4.3317003,-12.746484,10.545293,13.378561,-17.462404,7.207168,-8.866907,-5.8089857,7.0833845,4.0594482,6.338286,29.663363,34.29097,-13.3257065,-36.48837,-5.9219613,-3.0412636,4.0222244,-3.1469219,-24.073225,29.085283,-32.72131,8.5125065,-8.703053,4.8870316
214,151.3346405029297,147.60789489746094,76.82722473144531,-1.8692120920966495,5.307874985986751,86.23134670541594,-22.623344,-10.720872,-11.479317,10.813798,-3.527039,-13.4032955,11.160323,14.345156,-17.434364,7.108624,-7.114345,-5.517507,7.2442384,4.270463,6.20093,30.677656,34.62266,-12.905248,-37.02433,-6.7233586,-3.1271152,4.2757554,-2.6977074,-23.96219,29.092606,-33.43486,8.320688,-8.746519,5.5464916
215,152.08070373535156,148.38453674316406,76.83305358886719,-2.271310290837478,5.312212131187811,86.27928986602019,-21.483746,-10.681107,-11.767013,8.3580675,-2.712529,-13.944425,11.739508,15.304204,-17.345045,7.027946,-5.2494245,-4.991449,7.3487973,4.4799795,6.0659194,31.600609,34.926624,-12.5283985,-37.526535,-7.5873137,-3.2330117,4.5004764,-2.171947,-23.861704,29.063837,-34.060387,8.099092,-8.816923,6.2260413
216,152.8311767578125,149.157470703125,76.81909942626953,-2.6341565096219917,5.308221533036361,86.33623467514803,-20.896458,-10.705727,-11.95918,7.256874,-2.5660934,-14.257128,12.301326,16.189667,-17.136599,6.96538,-3.314767,-4.1198373,7.403368,4.6423664,5.9469666,32.40727,35.201168,-12.204681,-37.979218,-8.309547,-3.3493807,4.7107353,-1.5785706,-23.767982,29.000244,-34.570446,7.868137,-8.873723,6.865285
217,153.5817413330078,149.9235076904297,76.78593444824219,-2.9989042677696354,5.2871470327552155,86.39321495368893,-20.684816,-10.696442,-12.013728,7.1825957,-3.0946553,-14.492139,12.862739,17.058018,-16.783352,6.915965,-1.2827339,-2.855091,7.415109,4.7934136,5.848888,33.11534,35.4465,-11.9288435,-38.391228,-8.85877,-3.4885576,4.9114137,-0.89963263,-23.677162,28.895113,-34.971504,7.610807,-8.912645,7.4901004
218,154.3218536376953,150.6945343017578,76.72381591796875,-3.372945819821337,5.258487990475401,86.47396983509769,-20.386684,-10.583487,-12.101994,7.1341147,-3.702871,-14.665575,13.340732,17.919268,-16.33845,7.019097,0.75585604,-1.239127,7.3606176,4.944038,5.761597,33.722668,35.66342,-11.705082,-38.759033,-9.334613,-3.649515,5.0942264,-0.14397393,-23.587122,28.755072,-35.263824,7.3229074,-8.954277,8.119129
219,155.06427001953125,151.4660186767578,76.64398956298828,-3.6476747342873725,5.24134958758171,86.61586046883531,-20.03992,-10.530553,-12.346826,7.1082335,-4.025006,-14.454457,12.951821,18.433016,-16.06938,8.86596,1.8544707,0.7108099,7.195753,5.0089836,5.675535,34.15072,35.829823,-11.566413,-39.01989,-9.726402,-3.801339,5.2480564,0.637225,-23.50436,28.608755,-35.40874,7.0442233,-8.993719,8.67759
220,155.81790161132812,152.23635864257812,76.55366516113281,-3.701679298768327,5.2543267666942555,86.8462925795544,-19.681131,-10.707104,-12.853648,7.1013246,-3.7008286,-13.51835,12.232248,18.638254,-15.84493,11.2819195,2.5293443,2.9386995,6.900741,4.8661613,5.5835443,34.363228,35.98428,-11.525171,-39.16387,-10.042369,-3.9146771,5.3770485,1.3974293,-23.408262,28.467875,-35.36736,6.8129644,-9.024819,9.097359
221,156.57083129882812,152.99221801757812,76.46971130371094,-3.4372931542026275,5.315674889542654,87.16996737877335,-19.314009,-11.219229,-13.713047,7.093337,-2.3321862,-11.5428295,11.178752,18.4982,-15.463874,14.229247,2.8543048,5.696842,6.463618,4.4199243,5.46173,34.333923,36.10032,-11.598254,-39.158054,-10.259789,-3.983416,5.4640474,2.1447687,-23.301739,28.362017,-35.126873,6.627888,-9.024614,9.329818
222,157.29922485351562,153.73646545410156,76.39453887939453,-2.9131561410807882,5.404545308070869,87.53777220399273,-19.293066,-12.051751,-14.657792,7.8742137,-0.6096408,-8.767473,9.843513,18.095734,-14.922407,17.681824,2.8207407,8.940216,5.9340053,3.7162437,5.3174133,34.110603,36.188915,-11.76593,-39.042007,-10.387333,-4.0212975,5.5176673,2.8873122,-23.170023,28.27961,-34.692654,6.4707875,-9.0005665,9.424728
223,158.0186767578125,154.47178649902344,76.2955551147461,-2.2676530604075813,5.477127348418281,87.87280723722888,-20.573324,-13.290709,-15.1714525,11.50932,-0.27181286,-5.67434,8.336073,17.46453,-14.527921,21.600277,2.2948112,12.128609,5.3752365,2.9054577,5.1918426,33.725216,36.243988,-12.0012045,-38.848347,-10.4497,-4.024773,5.554145,3.570746,-23.025436,28.20509,-34.067352,6.356952,-8.990111,9.448191
224,158.72056579589844,155.1977996826172,76.16201782226562,-1.6698858598436979,5.488461140518469,88.10025360225667,-21.911217,-14.401198,-15.342964,15.368566,-0.6028578,-2.7626095,6.802013,16.616482,-14.597789,25.874992,1.2726816,14.67195,4.858659,2.1693225,5.1323133,33.19433,36.26603,-12.2914,-38.60638,-10.472162,-3.9906552,5.5937624,4.1523805,-22.881502,28.105436,-33.2585,6.3007007,-9.030752,9.468541
225,159.42234802246094,155.88052368164062,75.98281860351562,-1.2346727799680355,5.425694236159114,88.14272535636509,-23.724995,-15.328926,-15.138454,20.378145,-2.2536652,0.12430949,5.3575907,15.587812,-15.441956,30.42049,-0.14762144,15.000033,4.4462204,1.6092631,5.141983,32.53378,36.249386,-12.626866,-38.34923,-10.419729,-3.9112928,5.6283536,4.598997,-22.770964,27.99172,-32.26975,6.3390102,-9.134234,9.485461
226,160.11827087402344,156.54083251953125,75.72815704345703,-0.9639031763690131,5.28668264563405,88.01937002338224,-25.831585,-16.059128,-14.774399,26.210585,-4.7278028,3.1548495,4.048831,14.376091,-16.55709,35.146114,-1.8243932,15.000033,4.125519,1.2377661,5.2304554,31.772587,36.197163,-12.990375,-38.103573,-10.296907,-3.7896981,5.6510215,4.9693274,-22.713295,27.86758,-31.148365,6.458487,-9.279647,9.463533
227,160.76968383789062,157.17526245117188,75.42577362060547,-0.7612604255000999,5.100168826445535,87.82998753112415,-27.66117,-16.589605,-14.448021,31.600145,-7.278891,5.820309,2.8635986,12.874647,-17.815823,39.889404,-3.6098862,15.000033,3.838964,0.978979,5.40475,30.82106,36.097355,-13.439995,-37.765778,-10.173682,-3.6404018,5.6855593,5.3635654,-22.686121,27.664104,-29.939552,6.5953727,-9.456931,9.424425
228,161.400634765625,157.80685424804688,75.10960388183594,-0.5417125442407853,4.962858006674165,87.63614441823171,-28.923698,-16.925995,-14.215061,35.69651,-9.367977,7.5866504,1.7081279,10.997872,-19.146065,44.484684,-5.346334,15.000033,3.5258543,0.7298098,5.6189475,29.72922,35.966156,-13.919056,-37.35323,-10.138598,-3.4800248,5.7474184,5.8625226,-22.670126,27.358944,-28.708319,6.691083,-9.660304,9.373715
229,162.03294372558594,158.4236297607422,74.80599975585938,-0.21761938709272702,4.905208328784226,87.47004813907307,-29.612812,-17.120272,-13.981529,38.39059,-10.975351,8.08976,0.5280094,8.49377,-20.655445,49.129204,-7.1578536,15.000033,3.148719,0.39148423,5.8835106,28.46555,35.80738,-14.402773,-36.83,-10.302628,-3.3355787,5.83002,6.4662585,-22.629713,26.921322,-27.425076,6.8077073,-9.905978,9.382441
230,162.6631622314453,159.0211639404297,74.52783966064453,0.24147246754825955,4.877185222872717,87.3423176036143,-29.957949,-17.28214,-13.663129,40.283615,-12.437006,7.7011385,-0.591659,5.3477716,-22.233894,53.88982,-9.177751,15.000033,2.6954615,-0.065150276,6.2124686,27.045473,35.62197,-14.89473,-36.216812,-10.595221,-3.1924515,5.931222,7.1137285,-22.551437,26.38268,-26.038406,6.9468555,-10.191996,9.427918
231,163.3087921142578,159.60166931152344,74.28712463378906,0.5411179171260528,4.973753053269191,87.1005435898406,-30.299673,-17.138062,-13.343034,41.95291,-13.953507,6.909856,-1.6671382,2.1300173,-23.881922,58.27013,-11.112973,13.585867,2.3449502,-0.36826375,6.426626,25.500143,35.411972,-15.4530325,-35.538635,-10.8269005,-3.0041254,6.0821385,7.8144712,-22.443506,25.782213,-24.575632,6.956006,-10.4827385,9.383046
232,163.94857788085938,160.1785888671875,74.09320068359375,0.8186474570512481,5.098929964126149,86.87434074352025,-30.510279,-16.95363,-13.096128,43.34787,-15.352277,6.32542,-2.6916623,-0.9517201,-25.209118,62.102528,-12.905459,11.488266,2.0087664,-0.62056553,6.555163,23.836214,35.17745,-16.151793,-34.80726,-10.8132715,-2.7239485,6.315165,8.596904,-22.33241,25.148018,-23.08459,6.683778,-10.742862,9.1161585
233,164.58409118652344,160.77381896972656,73.95662689208984,1.1171875312072388,5.274052393017435,86.67946521473324,-30.561426,-16.78522,-12.929277,44.370888,-16.578434,6.074609,-3.7967176,-3.8803587,-26.06817,65.43744,-14.523155,9.355331,1.6897771,-0.8345829,6.563349,22.002634,34.91106,-17.061563,-33.98186,-10.46363,-2.2926764,6.672458,9.509835,-22.239693,24.451038,-21.535196,5.949374,-10.950157,8.533943
234,165.2142333984375,161.3822784423828,73.86012268066406,1.4310751346893043,5.503786986892477,86.50238606602815,-30.444502,-16.587692,-12.806011,44.978565,-17.668041,5.86962,-5.0089846,-6.771725,-26.64188,68.41813,-16.074184,7.046179,1.389966,-1.0162809,6.487214,19.999857,34.59929,-18.131668,-33.069534,-9.8988695,-1.748335,7.1275835,10.558581,-22.17323,23.667934,-19.954134,4.883647,-11.116734,7.720721
235,165.8280029296875,162.010986328125,73.80067443847656,1.7086471496643483,5.7132162771825366,86.35352634201708,-30.16169,-16.345388,-12.765652,45.33374,-18.658722,5.671066,-6.254983,-9.416629,-26.901443,70.93438,-17.540668,4.8308797,1.0917561,-1.1447372,6.4094133,17.929535,34.23265,-19.253183,-32.163204,-9.2430935,-1.1896759,7.605067,11.70617,-22.143353,22.843493,-18.475449,3.8025858,-11.2641115,6.809233
236,166.43060302734375,162.65097045898438,73.78595733642578,1.8972892233954453,5.8260789632535745,86.24276403705176,-29.714743,-16.03953,-12.846846,45.600822,-19.589573,5.434751,-7.4514832,-11.612042,-26.830387,72.88409,-18.880318,2.9831421,0.7698798,-1.1978242,6.413254,15.893586,33.811207,-20.319101,-31.348866,-8.615166,-0.7180003,8.027468,12.905871,-22.160475,22.032223,-17.228323,3.021982,-11.427256,5.930901
237,167.0301055908203,163.26966857910156,73.80252838134766,1.9633714140061633,5.786361395295935,86.15595728730882,-29.059605,-15.638936,-13.0718355,45.826187,-20.488459,5.1453547,-8.581028,-13.259831,-26.390392,74.24036,-20.066292,1.5339775,0.43209285,-1.1453539,6.567468,13.887337,33.33568,-21.339052,-30.618723,-7.9467864,-0.34657758,8.408641,14.1559725,-22.230528,21.24912,-16.228655,2.558904,-11.629406,5.004465
238,167.65176391601562,163.87384033203125,73.85631561279297,1.9378437376384925,5.645592321138232,86.09283170329806,-28.21443,-15.151203,-13.416188,45.925587,-21.330345,4.824273,-9.706454,-14.463765,-25.638044,75.08179,-21.084198,0.36489913,0.07838469,-1.0004377,6.8165636,11.8771925,32.805393,-22.360456,-29.938087,-7.206095,-0.024598895,8.773341,15.480809,-22.352991,20.469347,-15.423572,2.2701876,-11.853212,3.9951682
239,168.29421997070312,164.4639129638672,73.94872283935547,1.868363081111448,5.48806842056637,86.08451045400379,-27.269974,-14.61623,-13.85099,45.861164,-22.071165,4.47918,-10.8423605,-15.338217,-24.70701,75.462296,-21.903276,-0.4798096,-0.32708398,-0.8069569,7.0569344,9.909363,32.228504,-23.342794,-29.338974,-6.5614223,0.23705448,9.064242,16.867435,-22.522947,19.689152,-14.826613,2.234466,-12.087501,3.1052215
