unveil-humanoid-operators/unveil-humanoid-operators.github.io/feature-analysis-animation/data/feature_matrix_instances/age_waist_rom_jogging_turning_A164.csv
Frame,root_translateX,root_translateY,root_translateZ,root_rotateX,root_rotateY,root_rotateZ,left_hip_pitch_joint_dof,left_hip_roll_joint_dof,left_hip_yaw_joint_dof,left_knee_joint_dof,left_ankle_pitch_joint_dof,left_ankle_roll_joint_dof,right_hip_pitch_joint_dof,right_hip_roll_joint_dof,right_hip_yaw_joint_dof,right_knee_joint_dof,right_ankle_pitch_joint_dof,right_ankle_roll_joint_dof,waist_yaw_joint_dof,waist_roll_joint_dof,waist_pitch_joint_dof,left_shoulder_pitch_joint_dof,left_shoulder_roll_joint_dof,left_shoulder_yaw_joint_dof,left_elbow_joint_dof,left_wrist_roll_joint_dof,left_wrist_pitch_joint_dof,left_wrist_yaw_joint_dof,right_shoulder_pitch_joint_dof,right_shoulder_roll_joint_dof,right_shoulder_yaw_joint_dof,right_elbow_joint_dof,right_wrist_roll_joint_dof,right_wrist_pitch_joint_dof,right_wrist_yaw_joint_dof
0,-0.05168427526950836,-1.7439186573028564,77.16607666015625,-0.25987925292259517,1.4645162332401687,89.68507515550621,2.909342,8.621354,10.193252,6.9864717,-13.0473995,-9.800181,4.7786407,-7.9919996,-14.240814,7.027143,-13.38148,8.235808,-2.006288,0.6260732,4.9282875,5.333705,20.286377,-25.243235,48.876434,8.84332,1.4501355,-1.5179071,3.5723789,-15.231181,24.612074,53.257008,-14.217448,2.2192395,-2.8408678
1,-0.05266961455345154,-1.7428176403045654,77.16488647460938,-0.2636087240953975,1.4733704470290112,89.6910685493877,2.9035723,8.627524,10.192682,6.9861417,-13.062458,-9.8198,4.7732596,-7.9896765,-14.246628,7.0265746,-13.389393,8.243425,-2.0007658,0.6108992,4.9466724,5.3389106,20.314121,-25.249313,48.84915,8.896786,1.4590448,-1.5731333,3.5464566,-15.229384,24.64843,53.20556,-14.259715,2.2226663,-2.7645946
2,-0.05413585528731346,-1.741438388824463,77.16340637207031,-0.2662975445620769,1.4816417985600283,89.69710040995055,2.8985987,8.63435,10.192337,6.9858675,-13.079015,-9.841994,4.7683115,-7.987281,-14.253058,7.025966,-13.397113,8.25139,-1.9894361,0.60311675,4.9634676,5.3247175,20.320137,-25.258226,48.847687,8.965645,1.4682866,-1.6321802,3.5264523,-15.230116,24.668161,53.152977,-14.318776,2.224466,-2.6783617
3,-0.05582117661833763,-1.7380750179290771,77.16109466552734,-0.2689201703064583,1.491038451409998,89.70295615555872,2.8921974,8.639951,10.19168,6.985354,-13.092543,-9.859021,4.7623014,-7.985194,-14.2582245,7.025377,-13.404775,8.25877,-1.9872304,0.5931512,4.9768786,5.3179703,20.329906,-25.269024,48.842804,9.011008,1.4750391,-1.676853,3.4966457,-15.233143,24.718266,53.107964,-14.345676,2.2301648,-2.612661
4,-0.05460198223590851,-1.736980676651001,77.1589584350586,-0.27146473442162306,1.503146228028054,89.70755500563294,2.881814,8.644558,10.190674,6.98488,-13.099081,-9.8634,4.751956,-7.983117,-14.259501,7.0252395,-13.411057,8.264746,-1.977352,0.5848355,4.993515,5.3084354,20.334738,-25.282698,48.836452,9.037672,1.4751732,-1.6912322,3.461239,-15.235651,24.766579,53.06771,-14.3518095,2.2395022,-2.5830963
5,-0.05482393875718117,-1.7337541580200195,77.15547943115234,-0.2766022044052236,1.517408417448298,89.71206544447436,2.8673518,8.6501045,10.187109,6.9850826,-13.09506,-9.852464,4.738811,-7.977867,-14.256708,7.025105,-13.414775,8.268669,-1.9683044,0.5787892,5.009896,5.304562,20.338533,-25.3021,48.826466,9.021378,1.4634293,-1.6555744,3.4156387,-15.237943,24.838268,53.042454,-14.292578,2.252658,-2.626334
6,-0.05553518980741501,-1.7281014919281006,77.1545181274414,-0.2812330592071493,1.533147951078755,89.71629273071461,2.850035,8.655024,10.182172,6.9858475,-13.083749,-9.830502,4.7235856,-7.9717765,-14.250712,7.0250015,-13.416791,8.2711115,-1.9585863,0.57281816,5.0269003,5.302051,20.340895,-25.325254,48.81605,8.97606,1.4429572,-1.5849671,3.3618321,-15.239121,24.924133,53.02841,-14.189367,2.2683837,-2.7201886
7,-0.05687370523810387,-1.7250111103057861,77.15343475341797,-0.2854148493740648,1.5525837386303558,89.71840473453778,2.8287807,8.658509,10.178906,6.986654,-13.070868,-9.80056,4.703509,-7.966623,-14.2422695,7.0249896,-13.419249,8.273014,-1.9533062,0.5661869,5.041497,5.3054204,20.341908,-25.343706,48.80048,8.9248905,1.4242293,-1.5083454,3.294682,-15.23859,25.02776,53.01956,-14.092311,2.2911327,-2.809924
8,-0.06036568060517311,-1.7231603860855103,77.15289306640625,-0.28833069428736596,1.5776804504357673,89.7166975962408,2.802764,8.659705,10.180234,6.9869366,-13.062373,-9.765738,4.6770196,-7.964454,-14.232453,7.02382,-13.423977,8.275379,-1.9445022,0.5595411,5.056752,5.306745,20.341208,-25.357937,48.778114,8.892801,1.4175478,-1.4562521,3.2145364,-15.2366295,25.125984,53.003475,-14.062786,2.3233886,-2.8355067
9,-0.06284675002098083,-1.7182773351669312,77.15046691894531,-0.28796806835169186,1.6056553469921893,89.70951164751385,2.764611,8.659341,10.186693,7.010244,-13.072394,-9.72272,4.644531,-7.967978,-14.22022,7.0254917,-13.433575,8.276625,-1.93715,0.55086815,5.074253,5.3083105,20.338531,-25.363008,48.747383,8.8861685,1.4283463,-1.4345614,3.1191287,-15.232721,25.229782,52.981174,-14.134731,2.375552,-2.7655447
10,-0.06835928559303284,-1.7177032232284546,77.1438980102539,-0.28784731076383585,1.6360224532455383,89.69825890664312,2.7127144,8.658896,10.196033,7.059889,-13.099677,-9.671587,4.609888,-7.973699,-14.206079,7.0247884,-13.444982,8.277027,-1.9315554,0.5422641,5.094008,5.3110156,20.333897,-25.361294,48.709465,8.891889,1.4503107,-1.4280987,3.0080369,-15.22644,25.340223,52.95885,-14.272908,2.4419768,-2.6358724
11,-0.07739574462175369,-1.7175242900848389,77.13587188720703,-0.28715620557969596,1.6751291974459328,89.68495862334727,2.6515498,8.658002,10.207265,7.1101446,-13.12868,-9.6206,4.5643067,-7.9806495,-14.190438,7.0256257,-13.457558,8.280862,-1.9226652,0.53451574,5.109126,5.314254,20.327751,-25.356949,48.66849,8.905582,1.475646,-1.4343423,2.8886597,-15.218495,25.44923,52.927433,-14.4196,2.5058718,-2.4935436
12,-0.08636841922998428,-1.716814398765564,77.12743377685547,-0.28939184424969544,1.7280614656662565,89.67125570382584,2.5775537,8.657517,10.218615,7.1558642,-13.153849,-9.577719,4.504111,-7.987192,-14.173985,7.0254197,-13.468638,8.292772,-1.9077381,0.5284955,5.113123,5.319669,20.320906,-25.353199,48.62712,8.920958,1.4969215,-1.4505329,2.7634416,-15.210224,25.552004,52.882725,-14.515329,2.5503018,-2.3861425
13,-0.1001221239566803,-1.7121683359146118,77.11918640136719,-0.2944125323667171,1.8001110853624198,89.65983847680366,2.4849236,8.659659,10.22737,7.195795,-13.17637,-9.551598,4.424855,-7.9918246,-14.159133,7.023969,-13.478991,8.319641,-1.8962446,0.52614367,5.0972867,5.3345075,20.311302,-25.343254,48.584667,8.940888,1.5164598,-1.480698,2.6267729,-15.199769,25.657167,52.834126,-14.525281,2.554547,-2.3359644
14,-0.11162737756967545,-1.704035758972168,77.11114501953125,-0.3005672292691933,1.8867568085383415,89.6490381017525,2.3773127,8.662972,10.235475,7.2326603,-13.196515,-9.535706,4.3309803,-7.995991,-14.144595,7.020428,-13.48867,8.357203,-1.8768272,0.52631193,5.0695157,5.349697,20.301634,-25.337702,48.54019,8.965279,1.5369883,-1.5249095,2.488618,-15.190683,25.749878,52.770763,-14.49116,2.532473,-2.3119428
15,-0.1214684471487999,-1.6968942880630493,77.10370635986328,-0.3064825104247484,1.9799463462869562,89.63380403991074,2.2656128,8.663839,10.247726,7.267764,-13.219198,-9.5153,4.2275305,-8.002753,-14.125835,7.0189476,-13.497461,8.39352,-1.8524389,0.5259581,5.0409694,5.366451,20.289808,-25.32691,48.494827,8.991542,1.5507054,-1.5736423,2.3406997,-15.179922,25.846281,52.692104,-14.45195,2.5225117,-2.2914908
16,-0.1362878680229187,-1.690089464187622,77.09583282470703,-0.30944407344597535,2.071283534955769,89.60927603279112,2.1606472,8.659088,10.268816,7.301385,-13.247755,-9.475719,4.119978,-8.014976,-14.098291,7.0247583,-13.506545,8.416429,-1.8156193,0.5214756,5.024519,5.3794255,20.276567,-25.311354,48.450043,9.01596,1.5501424,-1.617518,2.1847475,-15.166519,25.945034,52.58901,-14.453796,2.5624695,-2.2496278
17,-0.15461696684360504,-1.6810592412948608,77.0893325805664,-0.3086402736929872,2.16111534573338,89.57049495533218,2.0191665,8.656567,10.296052,7.4283895,-13.334434,-9.413542,4.0013537,-8.033723,-14.057476,7.048265,-13.519545,8.419023,-1.7583151,0.51163936,5.0218453,5.385091,20.263792,-25.293669,48.408054,9.032479,1.5248058,-1.6580068,2.0248446,-15.150387,26.046135,52.46005,-14.5172,2.6833808,-2.167467
18,-0.17683246731758118,-1.6698962450027466,77.08454132080078,-0.3053957990346243,2.25322601570705,89.52127763901498,1.8199339,8.660618,10.323463,7.681717,-13.494161,-9.335932,3.876445,-8.056088,-14.00746,7.072166,-13.5281515,8.408995,-1.7011615,0.49684379,5.0216923,5.393512,20.243446,-25.256557,48.37352,9.050144,1.4811664,-1.6980656,1.8372098,-15.117707,26.168856,52.337357,-14.614003,2.8586452,-2.0669916
19,-0.19137884676456451,-1.664947748184204,77.0765151977539,-0.30000825904599493,2.3440342535565963,89.46983097246128,1.6220971,8.659317,10.353129,7.9398265,-13.660915,-9.244578,3.7529778,-8.083752,-13.954413,7.0965323,-13.536557,8.396098,-1.632351,0.477582,5.031253,5.3979816,20.224693,-25.22308,48.335426,9.071281,1.4384843,-1.7323583,1.6443673,-15.081821,26.282896,52.18544,-14.720353,3.0373273,-1.9711118
20,-0.2140474021434784,-1.6583036184310913,77.07012176513672,-0.29148218561808953,2.429913229766159,89.42451387275953,1.4122351,8.654081,10.375914,8.234828,-13.849662,-9.141275,3.6368675,-8.118525,-13.904607,7.1235538,-13.548989,8.390288,-1.5552288,0.456404,5.0574512,5.402455,20.213223,-25.199305,48.27845,9.100774,1.4152584,-1.7564337,1.4587097,-15.058961,26.37758,51.974087,-14.806434,3.1693962,-1.9046715
21,-0.24505530297756195,-1.6460779905319214,77.0631103515625,-0.27985785958365056,2.511812186503883,89.3875323885674,1.1864452,8.644283,10.3904705,8.573893,-14.067552,-9.021388,3.5291035,-8.160912,-13.859767,7.1515236,-13.566767,8.390457,-1.5052588,0.4294107,5.088415,5.427977,20.195677,-25.149366,48.205925,9.163062,1.4179945,-1.7696038,1.2331717,-15.023295,26.49551,51.758602,-14.847145,3.2158797,-1.9158471
22,-0.29199695587158203,-1.6212350130081177,77.05660247802734,-0.265885878616396,2.591299681054503,89.35442224662037,0.9504068,8.63,10.400887,8.942648,-14.306614,-8.885665,3.4258378,-8.209894,-13.816388,7.1813836,-13.588048,8.392556,-1.4402237,0.4002132,5.1327496,5.448882,20.18462,-25.116089,48.117977,9.236776,1.4369093,-1.7746779,1.020916,-15.001443,26.588715,51.48178,-14.868804,3.21096,-1.9686852
23,-0.3117508590221405,-1.6225067377090454,77.04289245605469,-0.24961123006762864,2.6648747071551235,89.32368260985336,0.71289593,8.61165,10.407471,9.328685,-14.553469,-8.743713,3.3294141,-8.264725,-13.773668,7.2135153,-13.609019,8.401841,-1.3885189,0.36931023,5.190907,5.480109,20.16941,-25.059381,48.022655,9.312531,1.4629729,-1.7695273,0.77941525,-14.972071,26.700054,51.19184,-14.892197,3.2205718,-2.0046253
24,-0.34470754861831665,-1.6143349409103394,77.02992248535156,-0.23262630881686674,2.729487344295416,89.29358369350142,0.47903192,8.588998,10.410408,9.726824,-14.798232,-8.605073,3.2427633,-8.325566,-13.730352,7.2460413,-13.6286,8.424019,-1.3290044,0.33887753,5.2714195,5.501842,20.152061,-24.997637,47.931923,9.364861,1.4883126,-1.7509844,0.5263186,-14.939356,26.807192,50.87176,-14.94991,3.3085113,-1.9532479
25,-0.40149688720703125,-1.5941208600997925,77.0196533203125,-0.21350805256183067,2.775522462962235,89.26436542680395,0.25087517,8.559788,10.405919,10.152265,-15.042447,-8.467142,3.1758559,-8.395644,-13.686144,7.2796726,-13.645875,8.46729,-1.2473735,0.31000412,5.3912354,5.501361,20.139036,-24.953377,47.84512,9.386962,1.5170914,-1.7152177,0.2816323,-14.91778,26.889214,50.494873,-15.0743885,3.5317216,-1.7413361
26,-0.4570840001106262,-1.5817701816558838,77.00587463378906,-0.19216231314346416,2.8074971939099247,89.23673536295763,0.025677163,8.524417,10.395275,10.601685,-15.289915,-8.326616,3.1239474,-8.473887,-13.64182,7.3148127,-13.662028,8.526535,-1.1771677,0.28093225,5.535979,5.502376,20.117706,-24.887632,47.76144,9.400925,1.5507365,-1.6648418,0.004382694,-14.885592,26.987612,50.10906,-15.239456,3.842975,-1.4287952
27,-0.5074953436851501,-1.5751845836639404,76.99151611328125,-0.17295212292525325,2.8435799582018597,89.20960286805185,-0.20039542,8.48909,10.386011,11.045464,-15.534432,-8.192463,2.9449348,-8.582077,-13.579609,7.6170735,-13.816778,8.587113,-1.0977429,0.2532973,5.683825,5.498501,20.093775,-24.812859,47.6815,9.393463,1.5797684,-1.6058885,-0.28000528,-14.851296,27.085142,49.69322,-15.396982,4.1480455,-1.1271124
28,-0.5535744428634644,-1.5660500526428223,76.97515106201172,-0.15862837139544142,2.901601878941851,89.1820637932613,-0.42929748,8.45873,10.385847,11.451077,-15.769441,-8.073312,2.7391016,-8.684207,-13.518259,7.928683,-13.972506,8.633984,-1.0120013,0.22800107,5.8120923,5.5034227,20.07033,-24.712631,47.59569,9.3583355,1.5939032,-1.5466229,-0.56952757,-14.817465,27.193611,49.24648,-15.4908495,4.3549814,-0.9524285
29,-0.6077327132225037,-1.543593168258667,76.96117401123047,-0.1536492778903277,2.993369140949098,89.15474748511575,-0.67264825,8.440036,10.398066,11.813191,-15.992227,-7.980202,2.4922955,-8.773987,-13.458866,8.250408,-14.125719,8.655178,-0.92299896,0.20663516,5.908667,5.5239706,20.04873,-24.571959,47.50058,9.290736,1.5879022,-1.4956372,-0.86630625,-14.784744,27.319527,48.770977,-15.457433,4.402477,-0.9701217
30,-0.6675231456756592,-1.5114504098892212,76.94710540771484,-0.15492752921688965,3.106859976556283,89.12786314767648,-0.9267958,8.42816,10.418188,12.151214,-16.206896,-7.9055414,2.217434,-8.85744,-13.400386,8.58285,-14.278614,8.661256,-0.8301194,0.1875209,5.989117,5.556528,20.029732,-24.399729,47.394886,9.195598,1.5679393,-1.4475209,-1.1695495,-14.753619,27.457489,48.262287,-15.340414,4.3521442,-1.1066388
31,-0.7230563759803772,-1.4864825010299683,76.93041229248047,-0.15544381814066985,3.224256257527286,89.09965081990013,-1.1689413,8.411973,10.442234,12.462805,-16.418669,-7.8303742,1.9510257,-8.940414,-13.342744,8.893331,-14.421745,8.67104,-0.7259279,0.16756257,6.071714,5.5907106,20.015934,-24.224072,47.280075,9.077419,1.541421,-1.38785,-1.4694754,-14.7274885,27.594994,47.709087,-15.247099,4.296815,-1.2703108
32,-0.7769612669944763,-1.466081142425537,76.91443634033203,-0.15067563622824856,3.327660053247784,89.06846519862374,-1.3833888,8.380978,10.46518,12.7613945,-16.634995,-7.735298,1.7289144,-9.029599,-13.285907,9.150584,-14.546661,8.703367,-0.62721515,0.14235544,6.1725454,5.637018,20.004768,-24.04131,47.148754,8.951092,1.5149767,-1.3040794,-1.782313,-14.696819,27.749,47.125767,-15.279559,4.331061,-1.3743644
33,-0.8441832065582275,-1.4375059604644775,76.89952850341797,-0.13642198770139669,3.4075620776100966,89.02950050124649,-1.5570605,8.329125,10.488314,13.045091,-16.859533,-7.6075635,1.5615783,-9.129316,-13.22468,9.351085,-14.652952,8.767697,-0.5154905,0.10837223,6.303154,5.6812754,19.998777,-23.874325,47.003635,8.797484,1.5010715,-1.1768293,-2.0971925,-14.665165,27.901747,46.500546,-15.514019,4.4999456,-1.3777556
34,-0.91892409324646,-1.4055458307266235,76.8858413696289,-0.11580234009219183,3.475065904938151,88.98519660158404,-1.7030647,8.263705,10.512926,13.312744,-17.089087,-7.459876,1.4293671,-9.235243,-13.160909,9.510564,-14.745032,8.852535,-0.40104645,0.067619525,6.4514537,5.734461,19.997786,-23.702003,46.84155,8.62057,1.4920971,-1.0193013,-2.423059,-14.627696,28.066057,45.843624,-15.877716,4.746882,-1.3340306
35,-0.9924711585044861,-1.3546156883239746,76.87017059326172,-0.09646185952521004,3.543098876991219,88.94460043477865,-1.8405267,8.192761,10.534919,13.568498,-17.317377,-7.311047,1.3234247,-9.340908,-13.105534,9.625651,-14.820971,8.945187,-0.28357545,0.02594034,6.600504,5.79183,20.003624,-23.533625,46.67399,8.446851,1.466265,-0.8618904,-2.7478642,-14.586958,28.230173,45.1507,-16.263285,5.011486,-1.2883359
36,-1.070816993713379,-1.2994385957717896,76.85311126708984,-0.08294803394446772,3.6248536139248957,88.91680696943739,-1.9908837,8.125177,10.549862,13.821597,-17.541056,-7.18002,1.2345943,-9.439472,-13.069486,9.693579,-14.879071,9.0330105,-0.16749246,-0.010207969,6.7341266,5.854847,20.017319,-23.37021,46.507923,8.306672,1.4019494,-0.73585624,-3.0615375,-14.545227,28.387863,44.416946,-16.56123,5.2345114,-1.2880136
37,-1.1610859632492065,-1.2373411655426025,76.8388671875,-0.0777100863068116,3.720245404287035,88.90777962979126,-2.1578193,8.064378,10.554111,14.077719,-17.761198,-7.072633,1.1711794,-9.528241,-13.060703,9.70469,-14.918739,9.112748,-0.05555627,-0.037602145,6.85069,5.923186,20.038874,-23.20167,46.342262,8.211007,1.2924029,-0.68492234,-3.3632228,-14.504753,28.541784,43.632423,-16.709663,5.3999367,-1.381847
38,-1.2503126859664917,-1.1701282262802124,76.82283782958984,-0.07694628113970428,3.8236453712329834,88.91140427791598,-2.3307135,8.005136,10.550912,14.331667,-17.979555,-6.9785085,1.1342347,-9.611373,-13.071779,9.663877,-14.940927,9.191106,0.05005105,-0.06140895,6.958306,6.0038204,20.070478,-23.023643,46.167393,8.144075,1.149783,-0.68175095,-3.6627285,-14.462651,28.699965,42.80588,-16.775833,5.539926,-1.5340083
39,-1.3401820659637451,-1.109563946723938,76.8060531616211,-0.0777293310813954,3.9389338559347076,88.91889853616225,-2.509174,7.9436426,10.546453,14.574641,-18.192741,-6.89235,1.1038413,-9.692886,-13.089951,9.590669,-14.9470005,9.270379,0.1580383,-0.08509667,7.0554943,6.090556,20.110891,-22.864471,45.992977,8.090994,0.98075116,-0.64901006,-3.950414,-14.420009,28.848843,41.945812,-16.846607,5.6676555,-1.663296
40,-1.4295332431793213,-1.0319513082504272,76.79010772705078,-0.07760943983862698,4.0701907594339435,88.92141893489836,-2.6911018,7.8755226,10.547208,14.793536,-18.394547,-6.8088384,1.0600879,-9.776616,-13.102478,9.504993,-14.938502,9.352749,0.27292883,-0.11318397,7.140294,6.1813703,20.160027,-22.74743,45.8258,8.037949,0.79189163,-0.5096862,-4.2243676,-14.376393,28.981228,41.06885,-17.007805,5.796218,-1.6891754
41,-1.5327390432357788,-0.9563434720039368,76.77562713623047,-0.07845190928382496,4.225194536058811,88.91466181657515,-2.8913074,7.8034506,10.555518,14.998154,-18.584541,-6.727444,0.98558354,-9.861355,-13.103757,9.415093,-14.911653,9.436199,0.39846095,-0.14620472,7.2057734,6.2730713,20.219284,-22.718016,45.706627,7.9887366,0.5152995,-0.12957221,-4.4845915,-14.330353,29.093176,40.181236,-17.337662,5.9388895,-1.5470271
42,-1.6427123546600342,-0.8813626170158386,76.7593002319336,-0.07977580774730741,4.399402625102688,88.90398441457529,-3.1060772,7.728497,10.567758,15.192617,-18.765806,-6.650656,0.8947669,-9.945903,-13.101206,9.30995,-14.8672495,9.520454,0.53391373,-0.18266203,7.254607,6.3645835,20.288925,-22.754726,45.62153,7.949368,0.17052966,0.4127532,-4.731785,-14.282198,29.186605,39.274597,-17.773281,6.0834827,-1.2933979
43,-1.741760015487671,-0.8026676177978516,76.74537658691406,-0.07788685237716123,4.57871294286348,88.89500763313268,-3.3033404,7.643742,10.581851,15.348449,-18.937538,-6.5777736,0.81803995,-10.033111,-13.10189,9.174453,-14.810693,9.610387,0.6751301,-0.22254905,7.300285,6.4608474,20.365675,-22.775568,45.49182,7.9087505,-0.10502846,0.87460804,-4.961609,-14.233789,29.262468,38.3392,-18.19005,6.206566,-1.0296549
44,-1.8465068340301514,-0.7036734223365784,76.7330093383789,-0.07144180923165108,4.749223811645715,88.89330832941364,-3.4568486,7.543332,10.594705,15.45132,-19.10094,-6.507839,0.7844995,-10.126628,-13.113003,8.996544,-14.74877,9.711019,0.81511575,-0.26534665,7.3562465,6.567397,20.4449,-22.696522,45.23927,7.8515053,-0.17373128,1.0134264,-5.1717076,-14.188023,29.3255,37.36591,-18.461998,6.2875757,-0.8583401
45,-1.9727461338043213,-0.641330361366272,76.7154312133789,-0.05944197858989621,4.90353751193963,88.90193472895712,-3.551967,7.4255347,10.602044,15.489793,-19.258049,-6.435697,0.8182949,-10.222779,-13.139307,8.749999,-14.674367,9.8234415,0.9487955,-0.30687815,7.4301124,6.6881075,20.522802,-22.45861,44.812744,7.781319,0.074680604,0.65332,-5.3689423,-14.146908,29.378428,36.349968,-18.513742,6.316408,-0.81624585
46,-2.0871801376342773,-0.52400803565979,76.70169067382812,-0.04287977425612264,5.050425779878909,88.91738936076388,-3.6060438,7.2934275,10.606466,15.476204,-19.408152,-6.363437,0.8986623,-10.321409,-13.176318,8.447204,-14.585414,9.9452915,1.0754558,-0.34698895,7.513907,6.8230634,20.599316,-22.112022,44.261948,7.7085624,0.54324174,-0.039174944,-5.553934,-14.109952,29.425041,35.295666,-18.423983,6.30718,-0.84671307
47,-2.200727701187134,-0.3706202208995819,76.68844604492188,-0.02010849729944348,5.200130807880367,88.93540500062724,-3.636571,7.1485896,10.616086,15.41989,-19.545155,-6.301421,0.9902772,-10.429292,-13.217433,8.131677,-14.496936,10.075693,1.1982616,-0.39254376,7.596261,6.9720607,20.675783,-21.73807,43.660664,7.6273623,1.0586271,-0.792678,-5.717056,-14.079148,29.46767,34.213116,-18.298975,6.2767334,-0.9117686
48,-2.3174543380737305,-0.22486531734466553,76.67444610595703,0.008958525788907528,5.36264774278452,88.95180226778713,-3.6626465,6.9926786,10.638854,15.334008,-19.66524,-6.2599516,1.0571595,-10.553187,-13.256027,7.847572,-14.424257,10.213913,1.322615,-0.44949082,7.667093,7.131495,20.753923,-21.421513,43.083996,7.5217857,1.4467713,-1.3359978,-5.8439612,-14.056866,29.505907,33.10602,-18.244555,6.2417097,-0.97304404
49,-2.4458491802215576,-0.0943605899810791,76.65579986572266,0.04360444055916145,5.544016102762896,88.9652812459087,-3.689338,6.829711,10.681252,15.214976,-19.762817,-6.2548933,1.09836,-10.689751,-13.292536,7.5809608,-14.3601,10.360661,1.456645,-0.5176664,7.719815,7.3029275,20.834095,-21.183907,42.555515,7.4256063,1.6469527,-1.5910034,-5.9261675,-14.046258,29.534529,31.95502,-18.311039,6.2050066,-1.027333
50,-2.58168363571167,0.04829992353916168,76.63742065429688,0.08179389260646153,5.737836389818748,88.97816000220843,-3.7043238,6.6578,10.737712,15.053385,-19.839226,-6.2765107,1.0817446,-10.847667,-13.320602,7.4214253,-14.355689,10.515785,1.6001263,-0.59329635,7.7619753,7.4820986,20.915613,-20.986984,42.036774,7.329591,1.7562281,-1.7039576,-5.9660993,-14.049158,29.54935,30.757027,-18.4356,6.158131,-1.0916151
51,-2.715543746948242,0.20027104020118713,76.61502075195312,0.12968612828286757,5.9350237264135774,88.99193306396728,-3.7079413,6.4711065,10.797241,14.869418,-19.90787,-6.29671,0.9985484,-11.035303,-13.337063,7.4066005,-14.426761,10.677706,1.750146,-0.6719109,7.797627,7.636029,20.977507,-20.833704,41.54137,7.1551127,1.8369033,-1.7345862,-5.973237,-14.061461,29.547642,29.559496,-18.557247,6.1009884,-1.1585435
52,-2.852012872695923,0.35111725330352783,76.59229278564453,0.18803075040528583,6.127273227873454,89.00796228691327,-3.6967952,6.263183,10.84903,14.675959,-19.978996,-6.287357,0.9214011,-11.241469,-13.354863,7.4007573,-14.497824,10.844562,1.8824308,-0.76934755,7.854507,7.815103,21.071709,-20.68031,40.965004,6.8133435,1.9534348,-1.7618108,-5.945918,-14.092965,29.547922,28.356594,-18.602116,6.0334706,-1.2204798
53,-2.9931063652038574,0.5085001587867737,76.56702423095703,0.26020613312797797,6.312489455060199,89.02500058487851,-3.6669543,6.0306783,10.891479,14.470088,-20.0501,-6.233825,0.85255945,-11.46766,-13.373213,7.4019694,-14.569621,11.017081,2.015235,-0.87667215,7.922663,7.9789896,21.166899,-20.551758,40.351753,6.273211,2.1165078,-1.7579956,-5.885541,-14.133972,29.529713,27.167149,-18.556822,5.963415,-1.2764381
54,-3.134742021560669,0.684414803981781,76.54163360595703,0.342700280236122,6.495314398820423,89.04297274595505,-3.6204278,5.7778497,10.929424,14.245462,-20.116665,-6.153634,0.78833085,-11.711158,-13.392594,7.40829,-14.642168,11.195785,2.1454546,-0.99341714,7.998523,8.138929,21.26505,-20.444967,39.70663,5.583055,2.2935333,-1.7005537,-5.79364,-14.184306,29.499212,25.979158,-18.455564,5.8878913,-1.3307776
55,-3.2855324745178223,0.8485803604125977,76.51158905029297,0.4347285072173464,6.676239891595294,89.06536740928743,-3.5643432,5.5099916,10.961627,14.01386,-20.188004,-6.0669236,0.72605556,-11.969693,-13.415501,7.4274745,-14.715109,11.378559,2.268421,-1.1201369,8.081041,8.282856,21.36655,-20.37034,39.053406,4.7819953,2.4829526,-1.6426034,-5.6724334,-14.245925,29.46105,24.815659,-18.321024,5.791035,-1.3817093
56,-3.434396505355835,1.0178340673446655,76.47715759277344,0.5332190869241378,6.855400217345453,89.09557993854598,-3.5031617,5.23175,10.987382,13.782148,-20.270926,-5.9937663,0.663235,-12.241742,-13.444557,7.4654083,-14.786338,11.563511,2.3805106,-1.256705,8.169582,8.394557,21.470655,-20.340952,38.41872,3.907892,2.6847813,-1.6370181,-5.523249,-14.321837,29.418491,23.700018,-18.176163,5.6548142,-1.4275702
57,-3.5752367973327637,1.1953036785125732,76.43921661376953,0.6406430764977815,7.0380131029567305,89.13779952084911,-3.442893,4.941259,11.003961,13.548681,-20.371435,-5.940864,0.51408595,-12.548096,-13.464207,7.695291,-14.953387,11.757855,2.48334,-1.4030849,8.258957,8.4738655,21.575645,-20.357561,37.809032,2.8776538,2.910682,-1.7091752,-5.34186,-14.416524,29.368395,22.632544,-18.035215,5.462088,-1.4658533
58,-3.7316336631774902,1.389528751373291,76.39299774169922,0.7554997246143408,7.222340233040895,89.18906375977471,-3.3787196,4.6373944,11.012666,13.3104105,-20.484089,-5.8976555,0.21051422,-12.905039,-13.456114,8.263749,-15.293908,11.959617,2.579558,-1.5581107,8.352035,8.52528,21.68114,-20.41589,37.21198,1.7019718,3.1590626,-1.8245618,-5.126538,-14.531852,29.30849,21.598845,-17.882866,5.2259855,-1.49762
59,-3.875282049179077,1.5686403512954712,76.34188842773438,0.8788937734997748,7.398512030093943,89.2424085660532,-3.3019147,4.3255086,11.018386,13.077554,-20.601593,-5.857914,-0.16154356,-13.289556,-13.434392,9.006717,-15.708232,12.153178,2.6669927,-1.7210343,8.45929,8.54131,21.788612,-20.520443,36.625484,0.5607787,3.4100332,-1.9478536,-4.8821564,-14.665258,29.244116,20.597109,-17.695917,4.9772735,-1.5257608
60,-4.033912181854248,1.7611010074615479,76.28520202636719,1.010678618022413,7.5570166332489155,89.29055029551381,-3.206675,4.010467,11.026279,12.863336,-20.717838,-5.814784,-0.6136284,-13.702877,-13.390974,9.967914,-16.207005,12.322752,2.7431192,-1.8935114,8.590253,8.515291,21.900484,-20.675867,36.0475,-0.36683163,3.6416736,-2.0463133,-4.616168,-14.811212,29.181139,19.630924,-17.452534,4.746491,-1.5534194
61,-4.192664623260498,1.9721381664276123,76.22054290771484,1.1653980553840164,7.7107460012572115,89.329762072039,-3.1057398,3.673387,11.040139,12.659354,-20.817049,-5.755548,-1.1678426,-14.162501,-13.300561,11.152263,-16.824354,12.460666,2.8096116,-2.095261,8.73066,8.451871,22.020624,-20.894453,35.471405,-1.0426763,3.853272,-2.1120002,-4.3319016,-14.96478,29.124022,18.704563,-17.10344,4.5329294,-1.5907437
62,-4.337817192077637,2.1778385639190674,76.15089416503906,1.3439512866565921,7.8602172122259715,89.36414670970612,-2.9970994,3.3131273,11.057695,12.457764,-20.904896,-5.68587,-1.8037949,-14.662668,-13.173631,12.515867,-17.535559,12.576955,2.8677275,-2.3254697,8.880253,8.3557625,22.149822,-21.170425,34.897427,-1.5600178,4.054052,-2.1644764,-4.0281177,-15.12406,29.068064,17.820345,-16.676334,4.3228064,-1.6328205
63,-4.456061363220215,2.3720428943634033,76.0731430053711,1.5189819482294713,7.977207479659527,89.39763446273663,-2.8514912,2.9609506,11.07508,12.269483,-21.004473,-5.6262455,-2.4866219,-15.180653,-13.050689,14.072134,-18.27356,12.681489,2.9131918,-2.5545006,9.068267,8.218363,22.28457,-21.481215,34.337086,-1.9371449,4.235579,-2.2141454,-3.7096834,-15.28906,29.007343,16.9843,-16.263226,4.1277294,-1.6610541
64,-4.584618091583252,2.6036603450775146,75.99143981933594,1.6658022332938591,8.033213341710212,89.43402808319925,-2.6419168,2.6473057,11.08854,12.112688,-21.143925,-5.597147,-3.1754236,-15.694133,-12.974159,15.823531,-18.96773,12.783537,2.940812,-2.7526472,9.3234,8.028941,22.418612,-21.803715,33.804344,-2.1911306,4.3891735,-2.2710307,-3.3810856,-15.461073,28.93774,16.202423,-15.956696,3.95965,-1.6573024
65,-4.730398654937744,2.8485519886016846,75.90511322021484,1.7873363328107457,8.0158030933537,89.48575569442313,-2.3435242,2.365853,11.092951,11.967239,-21.324484,-5.6222625,-3.8239858,-16.209597,-12.943232,17.728653,-19.633028,12.889141,2.9430656,-2.916471,9.650221,7.786606,22.548899,-22.144072,33.29707,-2.2560894,4.5003395,-2.3597279,-3.0395072,-15.642997,28.865803,15.479933,-15.781445,3.812519,-1.6197081
66,-4.881260395050049,3.0739798545837402,75.8248519897461,1.896825699418,7.94153570603878,89.54679206525688,-1.9733077,2.0999415,11.092362,11.825126,-21.529936,-5.6836033,-4.4638686,-16.740788,-12.937336,19.798504,-20.292133,12.990441,2.9243982,-3.062721,10.033834,7.4931226,22.674522,-22.510996,32.813652,-2.1453648,4.576767,-2.468922,-2.683235,-15.835274,28.792679,14.811695,-15.68738,3.6832612,-1.5576026
67,-5.005385398864746,3.316871166229248,75.74786376953125,1.9853995529136155,7.825779412724715,89.593102343324,-1.5691769,1.8644296,11.0974245,11.727194,-21.764511,-5.739448,-5.1476855,-17.28014,-12.974172,22.071497,-20.876925,13.074198,2.8971415,-3.1924095,10.473325,7.1424,22.791395,-22.883423,32.368557,-1.9929537,4.6437354,-2.554344,-2.3201377,-16.033825,28.706871,14.190493,-15.653765,3.5883203,-1.4701842
68,-5.143877029418945,3.5600523948669434,75.6740493774414,2.0454257601478947,7.683596727326001,89.60054370163421,-1.1668246,1.673724,11.119164,11.711851,-22.030811,-5.748272,-5.9319863,-17.825615,-13.066942,24.597893,-21.323473,13.122819,2.8722715,-3.3057055,10.967518,6.728012,22.893686,-23.239267,31.978111,-1.9330467,4.7271094,-2.570977,-1.9603261,-16.230083,28.598303,13.612027,-15.659545,3.5439503,-1.3571975
69,-5.261994361877441,3.8093137741088867,75.60426330566406,2.0737375708740617,7.502387906184559,89.55331373876871,-0.77046037,1.5331628,11.163416,11.814323,-22.340595,-5.688618,-6.817138,-18.393436,-13.2127285,27.414398,-21.568588,13.244193,2.8611498,-3.402056,11.540109,6.2357826,22.976486,-23.571136,31.657143,-2.0274603,4.8282046,-2.4937499,-1.6237636,-16.416817,28.465633,13.0978155,-15.708476,3.5675688,-1.2057008
70,-5.383987903594971,4.064276695251465,75.53878784179688,2.0745622477703525,7.27905506366722,89.46756988509767,-0.3567215,1.4344751,11.223273,11.995676,-22.685247,-5.5864787,-7.7761726,-18.992477,-13.395236,30.495455,-21.663176,13.389237,2.8527296,-3.4805632,12.181743,5.671691,23.03833,-23.889174,31.399843,-2.1945412,4.9346104,-2.350033,-1.3073522,-16.591381,28.31698,12.655879,-15.811269,3.645598,-1.020447
71,-5.506597518920898,4.302669525146484,75.47661590576172,2.052785403321038,7.042826799047087,89.36706896428079,0.06948401,1.3706139,11.291365,12.204591,-23.042517,-5.4711766,-8.807701,-19.610695,-13.613934,33.762638,-21.710556,13.309795,2.8239923,-3.5446389,12.841426,5.0602813,23.080093,-24.197258,31.191051,-2.3530426,5.0519524,-2.1737285,-0.9892406,-16.752796,28.157438,12.264449,-15.956627,3.7479482,-0.82774496
72,-5.620645046234131,4.5546793937683105,75.41110229492188,2.0131369934531227,6.823683740528945,89.27552360206931,0.5154918,1.3306624,11.360959,12.362063,-23.379568,-5.3719497,-9.90291,-20.229685,-13.87805,37.121014,-21.80807,12.769258,2.7516158,-3.600003,13.468551,4.428323,23.104221,-24.498373,31.012627,-2.421471,5.186613,-1.999293,-0.64652693,-16.901855,27.99189,11.899735,-16.133024,3.8446596,-0.6538922
73,-5.723647594451904,4.852495193481445,75.34810638427734,1.9505154398479783,6.611576473341095,89.18671157787274,0.9917061,1.3220315,11.444755,12.48062,-23.70635,-5.2878,-11.086246,-20.876656,-14.215126,40.69899,-21.970816,11.523843,2.636093,-3.6454132,14.07284,3.786724,23.110884,-24.786678,30.873932,-2.4070926,5.313792,-1.8100233,-0.2818107,-17.037241,27.820528,11.58351,-16.316122,3.9279985,-0.48774123
74,-5.821200370788574,5.143476486206055,75.28804779052734,1.8670293498912747,6.395969732153865,89.0929713655719,1.4971986,1.3439785,11.541818,12.580147,-24.029375,-5.2059803,-12.3328,-21.559587,-14.6206045,44.466152,-22.150814,9.750075,2.4858057,-3.6828554,14.674196,3.122581,23.099842,-25.06037,30.777302,-2.3436363,5.4394407,-1.5967127,0.093988836,-17.158106,27.64213,11.320766,-16.519531,4.0136104,-0.32106885
75,-5.913318157196045,5.459965705871582,75.23149108886719,1.7721141759466612,6.206681638399296,89.01526691328135,2.0042686,1.3802391,11.624886,12.628527,-24.326748,-5.1384883,-13.5732765,-22.224014,-15.056919,48.115334,-22.356289,7.863066,2.29059,-3.720216,15.237388,2.425319,23.074165,-25.331175,30.693184,-2.1911607,5.6166663,-1.4056838,0.4966283,-17.266668,27.45793,11.055202,-16.78694,4.1071415,-0.18517716
76,-5.994325637817383,5.800271987915039,75.16932678222656,1.6767757925155076,6.074488823205185,88.97383489383499,2.4786024,1.4183322,11.66695,12.607761,-24.584425,-5.0975156,-14.758242,-22.798502,-15.48241,51.36859,-22.594524,6.2937794,2.0419557,-3.7636704,15.72696,1.6855333,23.038588,-25.612139,30.5893,-1.9098914,5.8988667,-1.2839553,0.94550306,-17.36818,27.267412,10.726775,-17.162367,4.2139225,-0.11056506
77,-6.05295467376709,6.1518874168396,75.10162353515625,1.583209882440865,6.014864007311603,88.97722393855324,2.8972998,1.4523525,11.653971,12.518773,-24.801731,-5.086064,-15.899404,-23.292994,-15.939713,54.23108,-22.914495,5.110375,1.733563,-3.8191493,16.131998,0.8902221,22.995592,-25.910187,30.466805,-1.4472992,6.3341317,-1.2497476,1.4438725,-17.463226,27.086182,10.34397,-17.713186,4.3491273,-0.14931807
78,-6.130040168762207,6.52597188949585,75.04698181152344,1.48311405600913,6.0099646408008605,89.01297674613387,3.2827003,1.4935282,11.603194,12.368742,-24.987627,-5.098193,-17.03081,-23.721066,-16.434368,56.858112,-23.301226,4.1141615,1.3717413,-3.8801687,16.471542,0.051427152,22.944553,-26.216642,30.333971,-0.8385252,6.882274,-1.2805504,1.985474,-17.551203,26.90951,9.926491,-18.396435,4.506629,-0.26919138
79,-6.190169334411621,6.924564361572266,74.99726104736328,1.3678046449426597,6.040167966755121,89.06892453985854,3.6532605,1.557605,11.5348625,12.181096,-25.149605,-5.132173,-18.145933,-24.011866,-16.871117,59.199787,-23.657717,3.3509026,0.9695387,-3.934082,16.756836,-0.80494213,22.885721,-26.524271,30.169285,-0.17641804,7.4636726,-1.3616621,2.5806422,-17.637772,26.704512,9.423323,-19.08877,4.6590705,-0.37498423
80,-6.223891735076904,7.2650299072265625,74.94544219970703,1.227527689244448,6.085810872601016,89.13288627092084,4.030802,1.6590261,11.469693,11.971992,-25.29316,-5.186311,-19.244495,-24.091736,-17.15802,61.20578,-23.879967,2.8695195,0.5424458,-3.9665062,17.00117,-1.6540232,22.820063,-26.82789,29.94976,0.44575578,7.999102,-1.4751439,3.2486641,-17.732721,26.43537,8.772419,-19.666578,4.7764473,-0.37229833
81,-6.2642717361450195,7.702038288116455,74.89591979980469,1.06060711845661,6.149192508554827,89.20599769127897,4.4154115,1.8035076,11.411338,11.741982,-25.425114,-5.259472,-20.337986,-23.907621,-17.254276,62.85294,-23.937183,2.749676,0.09393621,-3.9742987,17.199446,-2.50795,22.74734,-27.145288,29.712448,0.9893779,8.477822,-1.6017301,4.010582,-17.843725,26.08007,7.939911,-20.11017,4.853518,-0.20281394
82,-6.292761325836182,8.134860038757324,74.8505859375,0.8692722291364272,6.238580532600766,89.29258087660088,4.79852,1.9835575,11.350351,11.481645,-25.541426,-5.35238,-21.435722,-23.495895,-17.225468,64.178116,-23.883202,2.960477,-0.3795574,-3.960736,17.350618,-3.3765059,22.666588,-27.4778,29.454025,1.5086716,8.937904,-1.7548904,4.868081,-17.972776,25.657907,6.9454646,-20.478281,4.9034605,0.07239186
83,-6.332560062408447,8.594361305236816,74.81453704833984,0.6599154479711699,6.343056852599116,89.38543268085996,5.183191,2.1935518,11.287373,11.207955,-25.63517,-5.4656672,-22.5279,-22.930193,-17.137457,65.21139,-23.739927,3.38275,-0.87493813,-3.9238346,17.474588,-4.232546,22.58007,-27.794302,29.093151,2.0479584,9.373408,-1.964123,5.8074393,-18.121597,25.19676,5.810217,-20.765345,4.923777,0.3678974
84,-6.346848487854004,9.035701751708984,74.77151489257812,0.43635200597962814,6.45149235040591,89.47761926228381,5.574535,2.427578,11.222903,10.932937,-25.69901,-5.6002684,-23.602728,-22.284494,-17.052921,65.9811,-23.52758,3.8910036,-1.3913544,-3.8622127,17.591755,-5.044808,22.493544,-28.06102,28.543097,2.6527705,9.7779455,-2.2600877,6.8126197,-18.291698,24.724157,4.5546155,-20.965412,4.913326,0.5974726
85,-6.3517913818359375,9.507707595825195,74.72987365722656,0.19457730588338462,6.559667998403765,89.57282870212818,5.973989,2.6937773,11.152506,10.659608,-25.74089,-5.7605667,-24.653856,-21.559967,-16.986443,66.47303,-23.230238,4.508599,-1.9456873,-3.7709665,17.711365,-5.795912,22.411253,-28.250797,27.774145,3.3643253,10.162587,-2.6921568,7.8858156,-18.481514,24.248024,3.174672,-21.045252,4.8417673,0.7067582
86,-6.367491722106934,10.002236366271973,74.69426727294922,-0.06555075308180931,6.67375776258451,89.67294460457444,6.378687,2.9915648,11.077536,10.386133,-25.76511,-5.9438744,-25.688602,-20.727201,-16.902584,66.677704,-22.85,5.282433,-2.5361707,-3.6545224,17.823872,-6.4970655,22.336794,-28.382738,26.824146,4.1514683,10.522853,-3.2323885,9.034491,-18.68991,23.753923,1.6580542,-21.01705,4.7210865,0.7514047
87,-6.37060022354126,10.499246597290039,74.66808319091797,-0.33043544141180675,6.79782462782463,89.76851454711229,6.7925487,3.2999501,11.006629,10.102603,-25.749254,-6.1412983,-26.711817,-19.818932,-16.786839,66.625984,-22.426409,6.118076,-3.1304889,-3.5260797,17.921984,-7.162877,22.276611,-28.496794,25.707523,4.946566,10.830096,-3.794452,10.253927,-18.920565,23.231718,0.008541626,-20.942356,4.613431,0.81114584
88,-6.372071266174316,11.036219596862793,74.64833068847656,-0.5866855323805273,6.935833567479439,89.8506811042853,7.2134213,3.5995393,10.94793,9.808688,-25.675512,-6.344938,-27.724878,-18.867537,-16.626692,66.34576,-21.994135,6.9199038,-3.6962173,-3.3971734,17.999472,-7.805058,22.237583,-28.632277,24.433353,5.6804795,11.059346,-4.2903485,11.542972,-19.179781,22.671076,-1.775884,-20.881548,4.5807385,0.9658472
89,-6.374663352966309,11.564697265625,74.63175964355469,-0.8321084299266777,7.090057049694513,89.91815138535512,7.64552,3.8848796,10.9025345,9.487587,-25.53958,-6.558689,-28.736336,-17.873291,-16.40982,65.82931,-21.554914,7.6777143,-4.223359,-3.272863,18.0544,-8.4265175,22.224485,-28.802565,22.973612,6.34938,11.186106,-4.698622,12.924018,-19.473455,22.049955,-3.7425404,-20.868399,4.6622972,1.2713732
90,-6.363802433013916,12.118752479553223,74.62224578857422,-1.072379255976545,7.257412630848711,89.97608368177762,8.089701,4.165341,10.865624,9.140643,-25.347883,-6.7855053,-29.735025,-16.82905,-16.142237,65.06069,-21.0926,8.431504,-4.727591,-3.14411,18.095232,-9.016189,22.237947,-28.987885,21.319475,6.9797893,11.232632,-5.062637,14.409192,-19.800882,21.37229,-5.896918,-20.862648,4.8171134,1.6747136
91,-6.348893165588379,12.692460060119629,74.61808776855469,-1.3085897420134147,7.433996083141463,90.02489432245315,8.541653,4.4430194,10.836335,8.786191,-25.095867,-7.0168743,-30.691853,-15.756659,-15.839522,64.05666,-20.611353,9.160337,-5.2156215,-3.0038788,18.128801,-9.56771,22.278212,-29.177309,19.51289,7.547164,11.245967,-5.391467,15.9713955,-20.159529,20.66858,-8.166662,-20.814077,4.9873457,2.0918837
92,-6.331487655639648,13.275257110595703,74.62092590332031,-1.5405684839442058,7.6159555473442575,90.06464537499517,8.991008,4.720328,10.813545,8.455855,-24.781326,-7.243791,-31.579517,-14.676609,-15.516341,62.835995,-20.114048,9.843861,-5.695281,-2.8464499,18.160814,-10.075124,22.345587,-29.359293,17.596708,8.027005,11.2734995,-5.69546,17.578575,-20.544971,19.970602,-10.474282,-20.672455,5.1158414,2.4376822
93,-6.323725700378418,13.876241683959961,74.63577270507812,-1.775540960450807,7.7992497426689,90.09313440154546,9.472612,4.996047,10.804236,8.089646,-24.389479,-7.464687,-32.391205,-13.585159,-15.17761,61.38318,-19.598713,10.475368,-6.1631503,-2.6658735,18.191376,-10.556955,22.443716,-29.542578,15.552519,8.445738,11.35581,-5.994611,19.239178,-20.960787,19.2716,-12.834721,-20.36651,5.188978,2.699451
94,-6.298357963562012,14.492826461791992,74.65587615966797,-2.0082192580607496,7.986319874171687,90.11160563340408,9.851276,5.292276,10.792975,7.965911,-24.068314,-7.683462,-33.131947,-12.478661,-14.811705,59.68797,-19.05921,11.060165,-6.6185317,-2.4669123,18.219578,-11.003002,22.574577,-29.726963,13.357252,8.805939,11.459868,-6.2781134,20.970287,-21.408358,18.554184,-15.283994,-19.941721,5.2382236,2.9187136
95,-6.262816429138184,15.131786346435547,74.68962097167969,-2.2285361261326386,8.182937421256845,90.12470472317617,10.194784,5.5830345,10.775465,7.911375,-23.688562,-7.898718,-33.79013,-11.373215,-14.41067,57.7736,-18.49075,11.596671,-7.076584,-2.2601862,18.247005,-11.366826,22.735567,-29.884176,11.052527,9.046788,11.523658,-6.5099287,22.734047,-21.87407,17.838594,-17.758333,-19.520813,5.2719927,3.089199
96,-6.212863445281982,15.76590347290039,74.73115539550781,-2.4249303252451044,8.394845288256123,90.13700117900257,10.517129,5.8536863,10.743225,7.870714,-23.183922,-8.108813,-34.35456,-10.285241,-13.966424,55.662037,-17.887617,12.083324,-7.554328,-2.0604625,18.27189,-11.6009,22.922049,-29.982138,8.685123,9.111066,11.485841,-6.652706,24.477942,-22.33605,17.152102,-20.174793,-19.233112,5.298794,3.2051208
97,-6.152928829193115,16.416776657104492,74.78216552734375,-2.6023737695909577,8.630674266327873,90.14865766521291,10.812019,6.1149964,10.703182,7.8426456,-22.554504,-8.342394,-34.819714,-9.198942,-13.480907,53.30035,-17.231667,12.517255,-8.063008,-1.8657222,18.285786,-11.703824,23.134615,-29.996235,6.2343397,8.97855,11.347352,-6.6883607,26.18752,-22.782204,16.49821,-22.523033,-19.17303,5.3131857,3.2614071
98,-6.112672805786133,17.090776443481445,74.85153198242188,-2.7647291838124515,8.884040068372386,90.15899127391172,11.089416,6.366262,10.655685,7.8250265,-21.816217,-8.589617,-35.179844,-8.118554,-12.953218,50.68258,-16.523844,12.894216,-8.592916,-1.6751431,18.290123,-11.697483,23.376648,-29.94577,3.6890767,8.682293,11.136591,-6.638656,27.875343,-23.211416,15.864903,-24.825628,-19.259071,5.3115263,3.2633295
99,-6.0413336753845215,17.781457901000977,74.93012237548828,-2.8954411265055118,9.13898903129236,90.17195904823764,11.198387,6.6135354,10.562788,8.167898,-21.140398,-8.792738,-35.425537,-7.084793,-12.374909,47.902557,-15.787041,13.212365,-9.129696,-1.5042218,18.296099,-11.5751705,23.64581,-29.86655,1.1209434,8.243571,10.832241,-6.525415,29.520826,-23.617226,15.260529,-27.04035,-19.358154,5.305006,3.2201698
100,-5.959770679473877,18.493444442749023,75.02147674560547,-2.977912856051871,9.379845786973753,90.19078264747671,11.153936,6.833733,10.406982,8.8653755,-20.510815,-8.896463,-35.55119,-6.1324553,-11.740823,45.058308,-15.048046,13.473268,-9.656917,-1.367889,18.312187,-11.336687,23.935669,-29.797352,-1.3879901,7.68498,10.412475,-6.371304,31.098034,-23.989586,14.697687,-29.1179,-19.339148,5.304857,3.1417382
101,-5.875313758850098,19.22625732421875,75.12445831298828,-3.01130580337843,9.608509769563572,90.22984106697791,11.001987,7.015213,10.169977,9.803531,-19.85961,-8.897863,-35.540226,-5.251054,-11.035752,42.071777,-14.288792,13.69353,-10.178109,-1.272942,18.338606,-10.990541,24.24284,-29.745695,-3.813686,6.99265,9.7811575,-6.166976,32.614346,-24.32227,14.172625,-31.06373,-19.142487,5.321538,3.0263448
102,-5.787176132202148,19.97381591796875,75.22535705566406,-3.003117239399932,9.831797065959607,90.28886360470939,10.763193,7.164672,9.869485,10.928698,-19.165447,-8.829263,-35.387115,-4.4288645,-10.274121,38.902985,-13.491986,13.8665285,-10.698952,-1.2085401,18.369255,-10.545693,24.565517,-29.69759,-6.18692,6.166544,8.977836,-5.910772,34.074333,-24.615433,13.680603,-32.889866,-18.852047,5.345515,2.8733463
103,-5.706701278686523,20.734140396118164,75.34001159667969,-2.9628940072889214,10.04216127662786,90.34943248375434,10.459655,7.281847,9.548797,12.221148,-18.423738,-8.687945,-35.119217,-3.6903937,-9.503681,35.727234,-12.68444,13.964948,-11.2083845,-1.1597675,18.400543,-10.006965,24.897831,-29.661041,-8.499999,5.2471004,8.184248,-5.6349025,35.44304,-24.867289,13.240635,-34.554855,-18.550959,5.3585978,2.6927748
104,-5.63085412979126,21.520645141601562,75.45983123779297,-2.8990565605891288,10.233407415753723,90.39045571985619,10.124393,7.3683605,9.254985,13.637246,-17.622341,-8.468419,-34.774803,-3.0492191,-8.774873,32.732506,-11.898496,13.966993,-11.689552,-1.1112894,18.427362,-9.384042,25.231054,-29.649805,-10.738938,4.2734327,7.5827494,-5.3664327,36.68288,-25.075573,12.869683,-36.01082,-18.323957,5.3431,2.4959862
105,-5.538339614868164,22.34333038330078,75.57573699951172,-2.814386371502551,10.408953897074223,90.40739457528186,9.762592,7.4238315,8.983147,15.163724,-16.748589,-8.164172,-34.3589,-2.4923165,-8.078226,29.89547,-11.113688,13.848957,-12.142469,-1.0513071,18.44164,-8.682324,25.56129,-29.68089,-12.917312,3.112532,7.252422,-5.056953,37.80017,-25.238758,12.582142,-37.231174,-18.206238,5.2749634,2.2604182
106,-5.4501953125,23.17401695251465,75.68939208984375,-2.7070039135194093,10.571422146597111,90.41330406417636,9.362646,7.451521,8.718776,16.80953,-15.803099,-7.780205,-33.861225,-2.0041153,-7.406174,27.144821,-10.325282,13.639861,-12.570631,-0.9874757,18.44622,-7.909853,25.88747,-29.75158,-15.021504,1.7917775,7.0810304,-4.707447,38.80682,-25.35748,12.366877,-38.241962,-18.151194,5.170442,1.990928
107,-5.373129844665527,24.015016555786133,75.79447937011719,-2.583460943107485,10.715163260381239,90.40801831895747,8.909219,7.4707503,8.4964,18.610008,-14.808976,-7.3257856,-33.31976,-1.5843242,-6.814259,24.629637,-9.605086,13.398214,-12.955903,-0.9266462,18.4502,-7.0762534,26.202251,-29.848785,-17.001862,0.5931255,6.97302,-4.415535,39.677845,-25.434282,12.201725,-39.07512,-18.121523,5.07245,1.7400696
108,-5.274250507354736,24.92681312561035,75.89642333984375,-2.45620511394299,10.837304379272624,90.38776080121238,8.387633,7.508266,8.352557,20.595648,-13.788888,-6.811483,-32.777916,-1.2245913,-6.356923,22.504128,-9.02607,13.179822,-13.277237,-0.86788297,18.460247,-6.197799,26.49279,-29.960125,-18.802504,-0.20100974,6.8386474,-4.282046,40.38702,-25.472258,12.065156,-39.76157,-18.077873,5.024122,1.5592916
109,-5.184787750244141,25.831981658935547,75.99654388427734,-2.3449840119345553,10.955450601062653,90.33280704485391,7.7764792,7.5849185,8.309875,22.78153,-12.743565,-6.2046185,-32.277378,-0.9056363,-6.0614815,20.821978,-8.598351,13.023704,-13.510134,-0.7882635,18.462717,-5.290074,26.743832,-30.098831,-20.395193,-0.45747778,6.6651816,-4.380526,40.93764,-25.470171,11.951067,-40.30081,-17.998074,5.0577593,1.47822
110,-5.094052314758301,26.745393753051758,76.06584167480469,-2.250950979048294,11.071053786262253,90.24265624647461,7.0917387,7.702007,8.356689,25.132654,-11.65345,-5.5121837,-31.805935,-0.6128214,-5.898362,19.518105,-8.296687,12.893736,-13.656911,-0.6777138,18.45226,-4.3693666,26.946976,-30.281578,-21.783573,-0.34399843,6.499853,-4.641547,41.34373,-25.428192,11.867954,-40.678783,-17.906416,5.143697,1.4645616
111,-5.018503189086914,27.650352478027344,76.12187194824219,-2.166083286426296,11.159518762361166,90.13916969566014,6.363532,7.8626966,8.475537,27.629562,-10.517658,-4.801951,-31.33375,-0.34621447,-5.833727,18.578655,-8.145107,12.728631,-13.737657,-0.5517103,18.44791,-3.4436567,27.100851,-30.497572,-22.961979,-0.028690841,6.3448524,-4.9531107,41.589634,-25.353508,11.818946,-40.893597,-17.830765,5.2322702,1.4759526
112,-4.934898376464844,28.583065032958984,76.16070556640625,-2.0780760297328413,11.195099008295383,90.04478605721343,5.619257,8.068187,8.643424,30.262835,-9.343183,-4.137613,-30.830305,-0.11163001,-5.831356,17.991043,-8.1689825,12.466229,-13.776479,-0.42911926,18.470964,-2.5122533,27.210386,-30.72904,-23.93154,0.31954274,6.2040596,-5.2039123,41.660694,-25.259863,11.806964,-40.9513,-17.798502,5.2741113,1.4692605
113,-4.818965435028076,29.5528621673584,76.17716217041016,-1.9706551674599881,11.148348157989957,89.96859490093335,4.905705,8.319106,8.86784,33.03688,-8.117004,-3.5516076,-30.22085,0.06454033,-5.931594,17.735886,-8.438579,12.196549,-13.821621,-0.32028338,18.539734,-1.5259866,27.246569,-30.956676,-24.693096,0.7260626,6.080459,-5.348432,41.5589,-25.200012,11.850193,-40.86105,-17.812626,5.239746,1.4070919
114,-4.72437047958374,30.505237579345703,76.1646728515625,-1.8564972540022098,11.040671170037232,89.89418585371791,4.194219,8.627491,9.150951,35.96368,-6.8478355,-2.9922543,-29.548916,0.19128378,-6.131184,17.83399,-8.924461,11.915284,-13.806141,-0.23047356,18.64305,-0.50365704,27.282656,-31.234941,-25.27924,1.239337,5.9726334,-5.430848,41.270935,-25.077936,11.942179,-40.58565,-17.8806,5.1544414,1.3374605
115,-4.6275458335876465,31.476837158203125,76.11811828613281,-1.768966886078737,10.921634748405069,89.80857926343495,3.3926353,9.014868,9.456428,39.064377,-5.5777917,-2.3933506,-28.959488,0.31519067,-6.3314543,18.329384,-9.504009,11.41592,-13.728449,-0.10816138,18.749577,0.49302965,27.27734,-31.50447,-25.663275,1.7800591,5.874764,-5.541566,40.815556,-24.956675,12.0567465,-40.171658,-17.956041,5.0756955,1.2806549
116,-4.543850421905518,32.43669128417969,76.04205322265625,-1.7354566531996143,10.83909962601929,89.70117119063357,2.4111576,9.498906,9.7471895,42.35997,-4.348144,-1.6873004,-28.594387,0.48049694,-6.4348106,19.261654,-10.055064,10.488762,-13.555235,0.08140625,18.829634,1.392248,27.235811,-31.747738,-25.8351,2.2535214,5.781503,-5.748775,40.20873,-24.847363,12.162682,-39.65499,-18.005402,5.056357,1.2665699
117,-4.4571027755737305,33.41136169433594,75.93470764160156,-1.7529770461512566,10.832736422334143,89.5859950584451,1.15233,10.086356,9.978324,45.970474,-3.0230498,-0.791548,-28.536154,0.6736694,-6.4120507,20.730152,-10.444463,8.85528,-13.27824,0.34534732,18.8303,2.1811936,27.152075,-31.97491,-25.776352,2.6398773,5.7052464,-6.14017,39.449173,-24.728264,12.24831,-39.044914,-18.004795,5.13146,1.3349544
118,-4.357374668121338,34.3958740234375,75.8010025024414,-1.7863142164727202,10.857296776326256,89.47406590689758,-0.29374373,10.761617,10.173244,49.83493,-1.6258721,0.26893944,-28.675158,0.8557149,-6.327189,22.663229,-10.759731,6.6971436,-12.926659,0.6447341,18.787405,2.9030702,27.029072,-32.191364,-25.507143,2.9854057,5.6430216,-6.654162,38.547417,-24.609642,12.323826,-38.34182,-17.973251,5.266055,1.456354
119,-4.234391212463379,35.360633850097656,75.64585876464844,-1.825540285989401,10.836213707573,89.34635794136105,-1.7382165,11.50514,10.395129,53.710896,-0.4428251,1.3883846,-28.867783,1.0398295,-6.207596,24.843918,-11.212167,4.496114,-12.503886,0.9404805,18.794197,3.5373,26.869453,-32.386375,-25.039396,3.2990792,5.5688696,-7.1416845,37.502316,-24.49896,12.402344,-37.510937,-17.964111,5.404812,1.5707996
120,-4.117376327514648,36.28223419189453,75.4544677734375,-1.8752921951669468,10.699736156236806,89.17697739747503,-3.0115104,12.302184,10.697548,57.393112,0.22036947,2.433654,-28.977663,1.2595872,-6.0560474,27.061731,-12.021518,2.7342088,-12.012418,1.2134188,18.942974,4.0729227,26.677639,-32.54213,-24.393896,3.5904667,5.4576216,-7.45274,36.308243,-24.409967,12.501335,-36.517723,-18.027775,5.4928923,1.6164588
121,-4.023806571960449,37.1964111328125,75.22764587402344,-1.9508170258212618,10.414770081115016,88.94129903796002,-4.0678725,13.22862,11.164463,60.962715,0.2818473,3.38854,-29.051287,1.5404396,-5.8312726,29.454319,-13.356118,1.5255328,-11.431297,1.4830323,19.285603,4.507639,26.457273,-32.641106,-23.61486,3.84536,5.32087,-7.5750847,34.97788,-24.349623,12.606287,-35.38522,-18.17023,5.49688,1.552739
122,-3.931001663208008,38.12063217163086,74.95722198486328,-2.0482013857718036,10.025640638259476,88.65613137169372,-5.00152,14.26843,11.722678,64.521065,-0.12422298,4.3053207,-29.131807,1.8612235,-5.5255,32.067432,-15.0608225,0.6185987,-10.77518,1.7624586,19.762642,4.864427,26.210089,-32.68288,-22.695683,4.063325,5.1671047,-7.578803,33.50441,-24.31858,12.722209,-34.122864,-18.362679,5.453445,1.4165535
123,-3.8543038368225098,39.02177047729492,74.69291687011719,-2.155290243103478,9.586139370805517,88.35254080719288,-5.8779807,15.252633,12.189967,67.91199,-0.97398335,5.1106753,-29.099112,2.199195,-5.189848,34.583813,-16.8871,-0.052106284,-10.097919,2.0380244,20.296333,5.1754394,25.937298,-32.670944,-21.58159,4.27527,4.967116,-7.4365516,31.842268,-24.322891,12.89961,-32.66788,-18.600542,5.4134007,1.2613817
124,-3.7598609924316406,39.92238235473633,74.43170928955078,-2.2622097070529157,9.151328841091031,88.06251638908391,-6.7767277,15.985062,12.394305,70.96728,-2.2268589,5.709448,-28.843283,2.5350165,-4.882609,36.69971,-18.592543,-0.55033416,-9.455651,2.2906451,20.80905,5.4755797,25.640345,-32.60518,-20.217672,4.512124,4.6915402,-7.121116,29.948063,-24.371944,13.190401,-30.960293,-18.878551,5.4278126,1.1389368
125,-3.678574323654175,40.82929229736328,74.19026184082031,-2.40450476663372,8.706179542897821,87.76375206731657,-7.684508,16.386583,12.266233,73.67246,-4.0882154,6.064793,-28.293455,2.915836,-4.625047,38.311813,-20.14386,-0.8081554,-8.8516865,2.537141,21.326593,5.8042,25.317297,-32.465122,-18.563457,4.7799354,4.241375,-6.608231,27.751497,-24.476145,13.632422,-28.897867,-19.139105,5.498444,1.0169032
126,-3.592014789581299,41.77116394042969,73.93745422363281,-2.581403037799244,8.234749306122037,87.44812917608874,-8.591114,16.535797,11.924685,76.12131,-6.500188,6.198663,-27.539742,3.3383896,-4.3973503,39.61642,-21.66922,-0.81835425,-8.271987,2.7894907,21.874065,6.153515,24.968693,-32.23998,-16.671541,5.067433,3.6626093,-5.918004,25.292635,-24.632149,14.206802,-26.552183,-19.394623,5.604476,0.87480223
127,-3.5209524631500244,42.72994613647461,73.68621826171875,-2.7258325767685254,7.790183795401292,87.16995588321922,-9.578605,16.483126,11.493846,78.29509,-9.019621,6.1168838,-26.70545,3.7109377,-4.196145,40.746838,-23.164282,-0.7354215,-7.7399836,3.0148873,22.37684,6.4859223,24.602219,-31.952412,-14.633348,5.378828,3.1463351,-5.0890317,22.697952,-24.819572,14.873052,-24.12181,-19.745537,5.7612343,0.78563726
128,-3.4441449642181396,43.70792770385742,73.45564270019531,-2.7708633650714347,7.426016096991454,86.98279554562642,-10.729032,16.291143,11.09006,80.17049,-11.202539,5.828182,-25.911272,3.9398527,-4.012467,41.826466,-24.619574,-0.7130733,-7.267373,3.1719608,22.761744,6.7490025,24.23013,-31.636591,-12.526959,5.710697,2.8820205,-4.159322,20.092049,-25.010977,15.578323,-21.793722,-20.299784,5.981497,0.8306605
129,-3.3494603633880615,44.67080307006836,73.23511505126953,-2.6719946534592105,7.170248136722084,86.93129702675289,-12.101186,15.915736,10.698036,81.733055,-12.94236,5.25545,-25.207594,3.96506,-3.855107,42.91137,-26.060682,-0.7845282,-6.872582,3.2140772,22.992365,6.8759613,23.8564,-31.327375,-10.219817,5.916674,2.9379795,-3.045392,17.434813,-25.182611,16.341953,-19.461674,-21.168888,6.328674,1.090752
130,-3.256603717803955,45.62989807128906,73.03294372558594,-2.476455967407322,6.9891083170023816,86.97484043674085,-13.632064,15.362824,10.2932825,82.994675,-14.47143,4.432983,-24.523373,3.84928,-3.7270756,43.92387,-27.48221,-0.8691856,-6.524901,3.1690173,23.118774,6.8988895,23.48339,-31.01141,-7.714951,6.037019,3.206292,-1.7580884,14.688852,-25.32416,17.164892,-17.073359,-22.280125,6.766728,1.517535
131,-3.160046100616455,46.59663009643555,72.84367370605469,-2.253344959813693,6.8437436983771756,87.03908086601541,-15.227911,14.767018,9.957673,83.96938,-15.845299,3.5260515,-23.797688,3.6840835,-3.6074846,44.788425,-28.827877,-0.95004797,-6.1643286,3.1032128,23.194906,6.916658,23.126331,-30.651121,-5.2996016,6.3434315,3.6214292,-0.47556648,11.973803,-25.436481,17.971165,-14.893845,-23.466278,7.160121,1.9960653
132,-3.0747506618499756,47.58157730102539,72.68119812011719,-2.0686513623847684,6.6969419017902965,87.0500044302292,-16.797705,14.259316,9.761428,84.659454,-17.119667,2.6970022,-22.970646,3.561799,-3.4761314,45.433216,-30.042551,-1.01118,-5.734167,3.0835528,23.272785,7.038624,22.80947,-30.209122,-3.2746422,7.109293,4.1287837,0.6244338,9.403783,-25.531822,18.692719,-13.184757,-24.553545,7.381713,2.404002
133,-2.988900661468506,48.56439971923828,72.53785705566406,-1.9459122149502177,6.537584281068024,87.00341360832952,-18.349602,13.869848,9.700539,85.06766,-18.305063,1.9770325,-22.024117,3.5098083,-3.3558383,45.847816,-31.118109,-1.0689554,-5.2281103,3.1320233,23.366983,7.2827477,22.548643,-29.673765,-1.6535649,8.714477,4.855457,1.4982426,6.972452,-25.629341,19.340883,-11.982754,-25.607151,7.352764,2.722237
134,-2.907365322113037,49.562068939208984,72.42631530761719,-1.8467554080758068,6.386160146253396,86.9331090406084,-19.92237,13.535151,9.736682,85.180695,-19.367874,1.2820841,-20.99193,3.4819167,-3.2493477,46.07021,-32.082726,-1.125925,-4.6796875,3.2101235,23.45265,7.6193557,22.348452,-29.059834,-0.3313971,10.90323,5.8016744,2.2187295,4.620335,-25.735928,19.954384,-11.15801,-26.672853,7.1582685,3.0021594
135,-2.8338303565979004,50.5350227355957,72.32901763916016,-1.7480084534252802,6.252857479340421,86.82255831205404,-21.476997,13.244404,9.87914,84.98618,-20.29474,0.59827006,-19.89162,3.460298,-3.1075077,46.101227,-32.935173,-1.1473615,-4.0936217,3.2917404,23.520267,8.09053,22.218052,-28.369293,0.56741995,13.001493,6.709721,2.8020265,2.3730485,-25.843655,20.517464,-10.70546,-27.550936,6.920171,3.226039
136,-2.762601613998413,51.53665542602539,72.2586898803711,-1.6253802981918501,6.148312667555685,86.6551557493181,-22.972952,12.984865,10.139526,84.47044,-21.071178,-0.089101814,-18.741934,3.4255056,-2.8828743,45.944305,-33.67521,-1.0997093,-3.4706545,3.3467097,23.56032,8.740939,22.172983,-27.604895,0.9132997,14.3342285,7.3088484,3.2997327,0.2525686,-25.937563,21.01375,-10.611709,-28.044785,6.760997,3.3835495
137,-2.6964874267578125,52.552276611328125,72.22498321533203,-1.4730069018487553,6.0716769571657085,86.40225016099134,-24.404232,12.766506,10.5567045,83.604,-21.705158,-0.83458644,-17.552633,3.3851771,-2.5393515,45.613983,-34.32753,-0.9491863,-2.8034368,3.3588274,23.58914,9.63768,22.230963,-26.701662,0.5668992,14.674771,7.4302096,3.7583377,-1.7533154,-26.006142,21.446083,-10.952016,-27.942665,6.6973577,3.4458919
138,-2.6413726806640625,53.57867431640625,72.21072387695312,-1.303509905242918,6.0191453308187395,86.08016209209963,-25.78535,12.592808,11.110778,82.39479,-22.198648,-1.6174481,-16.313667,3.3431113,-2.1115873,45.1099,-34.888165,-0.7282592,-2.1000047,3.33205,23.607004,10.782469,22.398804,-25.66376,-0.40984398,14.399306,7.2334833,4.1516175,-3.6720939,-26.046917,21.84565,-11.683211,-27.40535,6.671969,3.4272425
139,-2.5794999599456787,54.62432098388672,72.22734832763672,-1.114852660198448,5.9972539908252855,85.74041695828296,-27.10533,12.433969,11.727231,80.88366,-22.525742,-2.3404686,-15.009343,3.2724144,-1.6582454,44.405754,-35.311794,-0.5015559,-1.3777488,3.2678194,23.580885,12.104567,22.669209,-24.6047,-1.8272147,13.734701,6.940009,4.437897,-5.4899387,-26.05698,22.226326,-12.623839,-26.800856,6.695124,3.3846045
140,-2.5157299041748047,55.68949508666992,72.28792572021484,-0.9103548955764025,6.012074632278917,85.43496499404976,-28.351965,12.25506,12.330285,79.110146,-22.66222,-2.907752,-13.626412,3.1467273,-1.2376634,43.47654,-35.55243,-0.33013892,-0.6447032,3.1729047,23.47482,13.499308,23.024364,-23.651577,-3.463491,12.906592,6.777138,4.5828996,-7.1803436,-26.034187,22.5825,-13.600732,-26.501167,6.7772603,3.3794558
141,-2.456472158432007,56.78929138183594,72.39007568359375,-0.6759971272649538,6.06788767230315,85.1612644178405,-29.51996,12.081318,12.972246,77.06904,-22.60676,-3.2601624,-12.153181,2.9414313,-0.85198724,42.286137,-35.63485,-0.23311594,0.1143056,3.0417728,23.276407,14.93515,23.455822,-22.843565,-5.313244,11.796465,6.8320403,4.579463,-8.742887,-25.976452,22.891348,-14.594303,-26.686071,6.948195,3.442019
142,-2.3927383422851562,57.92250061035156,72.52838897705078,-0.4167780527512177,6.160782167151213,84.89781029941523,-30.607021,11.906733,13.671565,74.73616,-22.372366,-3.468174,-10.601788,2.6731129,-0.4750175,40.86391,-35.575237,-0.17858602,0.90335083,2.8725638,23.003998,16.453987,23.960012,-22.11315,-7.455648,10.344555,6.980385,4.450026,-10.186758,-25.884277,23.152756,-15.683821,-27.134577,7.1922407,3.539199
143,-2.3266379833221436,59.0691032409668,72.70286560058594,-0.16027425795105532,6.28419547707912,84.66801451958798,-31.610739,11.654602,14.295247,72.12936,-21.957811,-3.6243405,-8.995337,2.3808815,-0.1228865,39.279263,-35.307842,-0.14497295,1.6984198,2.6822445,22.66583,18.043858,24.520197,-21.430986,-9.777826,8.868072,7.134757,4.2095346,-11.499873,-25.763287,23.387531,-16.84408,-27.619518,7.449687,3.6371357
144,-2.263099431991577,60.26121520996094,72.91059875488281,0.066122135106482,6.430660680347308,84.49495424951097,-32.53182,11.2581625,14.702122,69.26508,-21.361094,-3.8132722,-7.3538713,2.1070642,0.18860705,37.59319,-34.76175,-0.10658804,2.477733,2.4930038,22.26632,19.67636,25.108507,-20.775337,-12.14822,7.688103,7.2042785,3.8680055,-12.665517,-25.625109,23.610434,-18.052404,-27.913074,7.661805,3.7001476
145,-2.190073013305664,61.475807189941406,73.14360046386719,0.2623056744822308,6.606469940555593,84.39771096869988,-33.388042,10.696006,14.837898,66.12949,-20.550571,-3.9746833,-5.631501,1.8548422,0.45656583,35.706573,-33.920536,-0.043977637,3.2353535,2.3130774,21.780819,21.327768,25.7091,-20.15831,-14.553502,6.972372,7.194986,3.3715668,-13.674598,-25.482431,23.804596,-19.321218,-27.974333,7.835822,3.7124143
146,-2.1277341842651367,62.72338104248047,73.4026107788086,0.43819087255611056,6.811300124610745,84.35949481993597,-34.161907,10.018207,14.770364,62.713924,-19.541006,-4.0787177,-3.8343408,1.6100601,0.6875558,33.62419,-32.819313,0.030682186,3.9805906,2.137766,21.213339,23.000025,26.31745,-19.585707,-17.031786,6.529673,7.144043,2.7301953,-14.531684,-25.3444,23.961815,-20.66548,-27.9174,7.996661,3.694038
147,-2.0595858097076416,64.00292205810547,73.6771240234375,0.5774725703147504,7.02660803624352,84.3501416074662,-34.799328,9.271681,14.534509,59.034348,-18.397543,-4.25051,-2.0650432,1.3931384,0.8825557,31.574747,-31.481594,0.093316056,4.7163234,1.9743873,20.608797,24.691793,26.917704,-19.033453,-19.518366,6.1414957,7.00462,2.0471437,-15.237386,-25.218443,24.107323,-22.061329,-27.744272,8.112867,3.6609714
148,-1.9993698596954346,65.29674530029297,73.96538543701172,0.6598032510504243,7.233788357985843,84.33824386499934,-35.250656,8.503329,14.160996,55.10446,-17.184881,-4.617475,-0.42645273,1.2266643,1.0434206,29.791288,-29.92779,0.11811791,5.44398,1.835393,20.009516,26.392624,27.484793,-18.481192,-21.931404,5.5915446,6.7306266,1.4248816,-15.795908,-25.109764,24.272152,-23.482153,-27.458097,8.153754,3.6293228
149,-1.955510139465332,66.59632873535156,74.26119995117188,0.6780447348082776,7.4402104111930365,84.32830448003936,-35.503815,7.673839,13.582074,50.80997,-15.804618,-5.2825084,1.062974,1.1197648,1.1693788,28.298582,-28.111229,0.096122324,6.1564975,1.7328271,19.406746,28.089952,27.99967,-17.932665,-24.26467,4.864113,6.2715206,0.85956633,-16.216532,-25.027042,24.465523,-24.933949,-27.00394,8.100047,3.6104121
150,-1.910066843032837,67.94549560546875,74.56339263916016,0.6351739447877904,7.6465493750429685,84.32864498096968,-35.548023,6.8018546,12.781617,46.135094,-14.249057,-6.1399775,2.4580736,1.0716258,1.2631276,26.987898,-26.038553,0.039543096,6.855298,1.6736412,18.783281,29.769375,28.455751,-17.40611,-26.528381,4.0674047,5.6650186,0.2996057,-16.494104,-24.976768,24.67343,-26.428585,-26.398033,7.973088,3.5943398
151,-1.8568575382232666,69.31510162353516,74.86293029785156,0.5291290273867094,7.823242234948724,84.31443103790807,-35.348827,6.009643,11.8829975,41.241394,-12.704838,-7.0118117,3.7703245,1.085457,1.333238,25.885626,-23.804977,-0.04644991,7.5551596,1.6614949,18.168306,31.415129,28.847958,-16.907145,-28.672562,3.1729865,5.0023427,-0.22574905,-16.613928,-24.956367,24.893164,-27.933342,-25.750555,7.801511,3.5655704
152,-1.8236802816390991,70.70608520507812,75.16337585449219,0.3539009447821701,7.9413397047866985,84.26037214374406,-34.887028,5.4044113,11.030389,36.291943,-11.354213,-7.7320924,5.0197096,1.1647117,1.3887922,24.999659,-21.496807,-0.15371516,8.268106,1.6980487,17.58902,33.01855,29.172806,-16.437069,-30.650656,2.1557696,4.3741207,-0.6862953,-16.573729,-24.957207,25.127678,-29.403566,-25.172396,7.613855,3.5087426
153,-1.7931768894195557,72.11769104003906,75.44712829589844,0.0985943516236279,7.986675828524756,84.13838953972191,-34.10561,4.9779663,10.220556,31.136478,-10.231623,-8.301023,6.2291574,1.3238649,1.4553026,24.310537,-19.05165,-0.2988701,9.024656,1.793948,17.055664,34.59446,29.425003,-15.995085,-32.463947,0.93921435,3.772493,-1.0669115,-16.36408,-24.97463,25.37863,-30.831995,-24.686523,7.392534,3.4021251
154,-1.7626434564590454,73.5542984008789,75.71665954589844,-0.2659154710632847,7.959619378400904,83.95014172569734,-32.995117,4.726957,9.400679,25.686398,-9.206286,-8.801966,7.4205775,1.5928798,1.5341325,23.772196,-16.420006,-0.47520602,9.822331,1.9797349,16.557585,36.143,29.603828,-15.584622,-34.13383,-0.43343255,3.1602046,-1.3933116,-16.001495,-25.010462,25.651176,-32.229137,-24.239725,7.130062,3.2640727
155,-1.7168171405792236,75.01578521728516,75.96174621582031,-0.7550302105317236,7.855560079309594,83.71667487038734,-31.648527,4.7271967,8.668981,20.251799,-8.233059,-9.221112,8.613023,1.9912928,1.6032861,23.348593,-13.700387,-0.64234424,10.623256,2.2808964,16.08955,37.636738,29.717316,-15.211102,-35.64897,-1.8087655,2.582238,-1.6915362,-15.5197,-25.061783,25.951666,-33.57699,-23.826872,6.870375,3.1360385
156,-1.674105167388916,76.50578308105469,76.17547607421875,-1.3576919479956224,7.682660073723402,83.47393891146804,-30.19839,4.996086,8.139543,15.185368,-7.283074,-9.55904,9.798029,2.5081315,1.6344326,23.034336,-11.009021,-0.76656806,11.409599,2.7134047,15.6165695,38.92506,29.753176,-14.971969,-36.87496,-3.0122528,2.0859241,-1.9684972,-14.95431,-25.098011,26.250286,-34.812298,-23.458185,6.648519,3.0845497
157,-1.6260104179382324,78.00425720214844,76.35960388183594,-2.0674960012763965,7.452569134738144,83.2355694412183,-28.58368,5.511355,7.917744,10.30205,-6.2661953,-9.867041,10.973532,3.1380112,1.6227046,22.812637,-8.345463,-0.90111643,12.083624,3.2160301,15.164684,40.329136,29.775946,-14.636364,-38.09907,-4.1263633,1.6638504,-2.2418823,-14.315475,-25.150543,26.6662,-36.01582,-23.075756,6.4909163,3.0445836
158,-1.5872372388839722,79.51380920410156,76.51561737060547,-2.8474731063007934,7.176746156425094,83.00486993815579,-27.60572,6.2714972,7.8852677,7.2010536,-6.1115956,-10.167157,12.10783,3.834269,1.5684965,22.72788,-5.67531,-1.0456464,12.703246,3.77527,14.710836,41.696926,29.766325,-14.323494,-39.182995,-5.185767,1.2975107,-2.4844959,-13.56906,-25.210238,27.130175,-37.168423,-22.705343,6.365422,3.0272577
159,-1.5387722253799438,81.02127075195312,76.6448745727539,-3.580073699466621,6.895529934268036,82.83050867349021,-27.832506,7.140307,7.8681445,7.0261874,-7.335544,-10.389546,13.087984,4.4679613,1.4277818,22.929523,-3.1019576,-1.0848556,13.261525,4.2961793,14.246838,42.850365,29.734985,-14.126424,-40.015415,-6.070747,1.0005065,-2.7010067,-12.753168,-25.250399,27.554827,-38.219467,-22.422459,6.2633076,3.0891163
160,-1.5001802444458008,82.5118408203125,76.75033569335938,-4.153341447768101,6.650936138722289,82.75759081230494,-27.92679,7.7609572,7.9135036,6.901746,-8.332202,-10.439773,13.801785,4.922147,1.1592325,23.563557,-0.72808486,-0.9025211,13.65662,4.6533375,13.810209,43.847828,29.686491,-13.94596,-40.69808,-6.6977353,0.7821199,-2.9339807,-11.942491,-25.28889,27.968502,-39.18339,-22.2796,6.196141,3.2281275
161,-1.4705272912979126,83.98534393310547,76.8338851928711,-4.61833041532922,6.440219856460395,82.78476043963833,-27.8781,8.228181,8.089789,6.8604603,-9.1980095,-10.269975,14.25898,5.266198,0.76333934,24.629929,1.4904776,-0.4998946,13.89332,4.9021983,13.386308,44.68488,29.620436,-13.797621,-41.22372,-6.992399,0.6665537,-3.1872876,-11.130883,-25.327831,28.364014,-40.062477,-22.329355,6.179875,3.4969778
162,-1.4458608627319336,85.444091796875,76.89018249511719,-4.969950127622475,6.2652567576362275,82.90985776221352,-27.668457,8.552178,8.421583,6.8386955,-9.917586,-9.91512,14.467909,5.492234,0.24476126,26.114372,3.5585191,0.069702566,13.994129,5.0364795,12.968708,45.35,29.548677,-13.704279,-41.564156,-7.0222883,0.6374689,-3.4381602,-10.291546,-25.360758,28.734526,-40.856415,-22.526888,6.203293,3.873832
163,-1.4146103858947754,86.8967514038086,76.91888427734375,-5.1856782782571536,6.135638158156711,83.11933067121791,-27.340008,8.659972,8.682261,6.854119,-10.330144,-9.412424,14.419891,5.5620112,-0.37057096,27.984846,5.4089646,0.8151899,13.960623,5.0347123,12.585619,45.81727,29.470554,-13.649481,-41.721134,-6.9018984,0.64878225,-3.6808558,-9.446998,-25.38919,29.081274,-41.562996,-22.784105,6.2346554,4.2633686
164,-1.3811862468719482,88.34197998046875,76.91326904296875,-5.193924217437834,6.0651942434154025,83.4107449413195,-26.910234,8.421982,8.668583,6.8678813,-10.237731,-8.7829485,14.092764,5.3880997,-1.0664631,30.241692,6.950457,1.760707,13.77873,4.83612,12.271865,46.049793,29.370535,-13.6277895,-41.67767,-6.7353134,0.65524566,-3.910369,-8.634647,-25.417799,29.410318,-42.166977,-23.009693,6.244837,4.567007
165,-1.3423712253570557,89.76220703125,76.89759826660156,-4.952084694192884,6.082755896234809,83.80632422986812,-26.366188,7.7274876,8.210846,6.8776536,-9.427,-7.942783,13.438399,4.9138494,-1.8719049,32.97814,8.286751,3.1058016,13.418028,4.405007,12.002575,45.974358,29.207758,-13.667985,-41.361576,-6.494708,0.6530161,-4.126938,-7.849971,-25.448357,29.732294,-42.665108,-23.225302,6.2309556,4.7745543
166,-1.327425241470337,91.12440490722656,76.88652038574219,-4.534109485526861,6.154230030410207,84.28840441820168,-25.71138,6.705022,7.449013,6.935363,-8.047116,-6.942352,12.508471,4.2212334,-2.7484312,36.170776,9.422527,4.7667108,12.944068,3.8064902,11.767486,45.629387,29.060442,-13.781105,-40.81524,-6.153571,0.66241103,-4.313854,-7.055661,-25.455435,29.996307,-43.063824,-23.466972,6.2017264,4.948506
167,-1.3232758045196533,92.46830749511719,76.84565734863281,-3.9749986387769276,6.208007967756014,84.80568203452863,-24.951443,5.4973154,6.679429,7.0085487,-6.423171,-5.975103,11.411434,3.3422358,-3.601979,39.673275,10.099519,6.3636513,12.4057255,3.0794775,11.634213,45.097946,28.950998,-13.924665,-40.11716,-5.7853975,0.67674404,-4.482648,-6.2779675,-25.443583,30.198402,-43.358482,-23.660091,6.153866,5.0794425
168,-1.3132110834121704,93.82693481445312,76.72674560546875,-3.3564155356163416,6.176504949759291,85.30036367403565,-24.11973,4.316724,6.1544967,7.118698,-4.936768,-5.190884,10.275942,2.3571656,-4.3652434,43.274292,10.094647,7.507057,11.850415,2.3223855,11.652762,44.395966,28.843922,-14.094117,-39.271957,-5.439779,0.69222856,-4.654166,-5.557053,-25.418585,30.337599,-43.51885,-23.731686,6.0825267,5.168504
169,-1.3166276216506958,95.12958526611328,76.5435791015625,-2.6517657572855797,6.055766608248863,85.76854928818568,-24.955463,3.3458567,5.8143415,10.96344,-5.534969,-4.6264324,9.120208,1.2002664,-5.0786586,47.01088,9.188922,8.069878,11.287346,1.4985551,11.841597,43.561302,28.761255,-14.258327,-38.349644,-5.0987835,0.70800996,-4.8537383,-4.8920617,-25.390713,30.39517,-43.581696,-23.6094,5.978205,5.2229753
170,-1.3223625421524048,96.38160705566406,76.33039093017578,-1.866039142662989,5.865108353517952,86.22382880526712,-25.6773,2.3735871,5.660961,14.81748,-6.102039,-4.170477,7.922766,-0.11510621,-5.7546844,50.91386,7.5766816,8.266013,10.7028265,0.5959517,12.178329,42.615677,28.725216,-14.40104,-37.371746,-4.75705,0.725262,-5.065855,-4.2472353,-25.370342,30.382284,-43.581486,-23.347092,5.8498607,5.2317314
171,-1.3115720748901367,97.62889862060547,76.08238220214844,-1.0921396549941116,5.5907737195047735,86.64719344738177,-26.239958,1.5247191,5.6407194,18.603943,-6.7644596,-3.7223632,6.7182927,-1.4146317,-6.3106666,54.783733,5.644622,8.228754,10.134882,-0.276493,12.639985,41.47664,28.70834,-14.597182,-36.208122,-4.4720917,0.7446386,-5.237178,-3.5880556,-25.347624,30.291101,-43.47361,-23.063612,5.7123747,5.1866283
172,-1.2841674089431763,98.89151763916016,75.81768035888672,-0.40262143651040094,5.227189454067128,87.02628145509529,-26.517666,0.8448544,5.718488,22.038368,-7.5376887,-3.2126386,5.5156775,-2.5445702,-6.6782284,58.44628,3.7689297,8.091717,9.653107,-1.0282615,13.201769,40.02119,28.716928,-14.961421,-34.704693,-4.30735,0.7674234,-5.2975373,-2.844265,-25.302242,30.066843,-43.2252,-22.88115,5.5751734,5.0896673
173,-1.245659351348877,100.12333679199219,75.54624938964844,0.238504723715554,4.732441855408038,87.38828811512242,-26.46889,0.2721115,5.95095,25.097446,-8.377283,-2.6072166,4.319806,-3.4633064,-6.781545,61.94618,2.0018861,7.8673086,9.190797,-1.7313555,13.961644,38.3841,28.76989,-15.354439,-32.997078,-4.391799,0.7447609,-5.2339826,-2.0326853,-25.22977,29.765207,-42.897175,-22.795473,5.4309626,4.888334
174,-1.203126072883606,101.34913635253906,75.2783432006836,0.8682690817238025,4.131475231943022,87.73339545030161,-26.185886,-0.24477641,6.3311763,27.930914,-9.2956915,-1.9613562,3.1015425,-4.248564,-6.683288,65.36608,0.15106729,7.507405,8.766243,-2.4226768,14.889172,36.528687,28.862162,-15.814634,-31.073374,-4.6549277,0.69144464,-5.068449,-1.1604981,-25.122877,29.361332,-42.474457,-22.757639,5.273141,4.6093106
175,-1.159971833229065,102.56074523925781,75.02213287353516,1.4335093270157406,3.528067959078707,88.02139776632653,-25.748829,-0.69783807,6.7404995,30.493866,-10.36905,-1.353191,1.8003485,-4.9611187,-6.533405,68.6047,-1.7866458,7.04826,8.379953,-3.0512922,15.813109,34.51037,28.974218,-16.369493,-28.945684,-4.9266014,0.69866365,-4.8456025,-0.2720654,-24.981495,28.90802,-41.83264,-22.808449,5.140732,4.2933764
176,-1.1272462606430054,103.77580261230469,74.77356719970703,1.8847984474922121,3.0283492660772033,88.21125340742424,-25.234907,-1.0664929,7.0620675,32.75223,-11.687254,-0.8549141,0.3608195,-5.6748357,-6.4719324,71.54589,-3.8084219,6.519361,8.019012,-3.5611532,16.563349,32.39157,29.076065,-17.0334,-26.620008,-5.0342584,0.85988677,-4.615151,0.5760656,-24.809544,28.469442,-40.844925,-22.989004,5.0739994,3.9800346
177,-1.1146109104156494,105.00748443603516,74.52159881591797,2.1994071087754974,2.67925897578801,88.25793123201538,-24.68722,-1.316562,7.2862463,34.749073,-13.436419,-0.46894363,-1.2885549,-6.405756,-6.4853826,74.2091,-5.985828,5.909728,7.6876082,-3.9181368,17.08672,30.161789,29.13065,-17.807514,-24.008184,-5.1418004,1.2422339,-4.375898,1.3523557,-24.609232,28.087084,-39.398346,-23.242725,5.0984416,3.5966916
178,-1.12261962890625,106.23600769042969,74.28245544433594,2.420589142855068,2.425102246857961,88.20165259294376,-24.076773,-1.4949801,7.4768558,36.518444,-15.532266,-0.1485319,-3.1115942,-7.1209793,-6.5044975,76.644646,-8.296063,5.2165723,7.357413,-4.161577,17.476152,27.810072,29.12019,-18.657822,-21.132122,-5.2665544,1.7820405,-4.115921,2.0682118,-24.380026,27.742556,-37.57183,-23.570787,5.1894627,3.1494298
179,-1.1359366178512573,107.45665740966797,74.05706787109375,2.590013834777445,2.218087071372329,88.13169912556776,-23.378252,-1.6769829,7.6212125,38.02891,-17.669731,0.109242484,-5.0059233,-7.8392653,-6.5886116,78.788605,-10.599711,4.4729934,6.968829,-4.344901,17.781008,25.39685,29.054432,-19.554464,-18.17191,-5.0123434,2.3827446,-3.871613,2.7405314,-24.123156,27.402239,-35.53249,-24.100626,5.312822,2.7947018
180,-1.1670981645584106,108.67837524414062,73.8503189086914,2.747722466338049,2.0097298096602807,88.13662491517502,-22.559265,-1.9178044,7.6959743,39.239418,-19.541323,0.29507694,-6.8667707,-8.586668,-6.80203,80.57424,-12.757197,3.7112868,6.4758296,-4.5258203,18.049662,22.964537,28.962818,-20.488249,-15.29716,-3.9879324,2.9513693,-3.680982,3.4006262,-23.840828,27.019773,-33.46001,-24.95952,5.4329367,2.6884208
181,-1.185882568359375,109.8830795288086,73.67717742919922,2.9119571433132814,1.7977528426721305,88.22862726925752,-21.613144,-2.217852,7.688234,40.13914,-21.09938,0.3835064,-8.703194,-9.4312315,-7.1922383,82.01065,-14.815236,2.8878632,5.8789682,-4.728511,18.286325,20.447166,28.865492,-21.531456,-12.397531,-1.8196234,3.5158296,-3.5189748,4.0448775,-23.519167,26.555176,-31.243011,-26.416435,5.568054,2.9594266
182,-1.179286241531372,111.11250305175781,73.54310607910156,3.06233027690845,1.6053258157895687,88.36641160911498,-20.55798,-2.521623,7.6002593,40.765766,-22.506773,0.3813423,-10.557748,-10.34427,-7.715518,83.12425,-16.821264,2.0102673,5.214578,-4.9285808,18.469221,17.844538,28.76077,-22.682938,-9.442944,1.1849099,4.115237,-3.391412,4.680754,-23.152529,26.023111,-28.853483,-28.328157,5.7101483,3.5003402
183,-1.1562145948410034,112.3449935913086,73.43556213378906,3.1798289011219847,1.4209615795851482,88.55799770839684,-19.394907,-2.8002992,7.4297376,41.14284,-23.770775,0.31696743,-12.371128,-11.216777,-8.313252,83.87034,-18.6409,1.180773,4.4928155,-5.1090465,18.607494,15.288776,28.651997,-23.83698,-6.7157617,4.403607,4.6668644,-3.373934,5.3671384,-22.766245,25.458626,-26.605976,-30.199568,5.794473,4.100919
184,-1.130481481552124,113.58320617675781,73.37167358398438,3.247107979162326,1.2328257768754798,88.81116248637089,-18.126211,-3.0375562,7.1809754,41.293037,-24.898525,0.22311133,-14.0878,-11.945912,-8.936484,84.20952,-20.131723,0.49386656,3.7219992,-5.2482285,18.714397,12.905354,28.553875,-24.8874,-4.4940495,7.2193866,5.076693,-3.5236528,6.177816,-22.40838,24.897,-24.843079,-31.527916,5.781974,4.539518
185,-1.1013373136520386,114.80120086669922,73.33023834228516,3.250608586887439,1.016092073455641,89.16547169225613,-16.724594,-3.2470977,6.817266,41.204826,-25.902405,0.09279785,-15.670574,-12.551837,-9.654239,84.122795,-21.246286,-0.055412345,2.872768,-5.3222976,18.822088,10.663311,28.488531,-25.872274,-2.8014805,9.603534,5.2988133,-3.8692453,7.1727586,-22.115831,24.322021,-23.681196,-32.153694,5.6424956,4.7558293
186,-1.0651181936264038,116.05390167236328,73.3338623046875,3.2013100638743546,0.7847994353482142,89.60537210744874,-15.198246,-3.4281406,6.3514767,40.873222,-26.776081,-0.08421994,-17.150204,-13.085034,-10.487392,83.63322,-22.061718,-0.5117317,1.9588766,-5.341748,18.928282,8.507456,28.465925,-26.844606,-1.515137,11.837797,5.3727293,-4.360328,8.347416,-21.899315,23.709902,-22.995018,-32.337296,5.4180713,4.858507
187,-1.0184063911437988,117.31778717041016,73.36453247070312,3.120061322723151,0.5851672598646381,90.05535241478228,-13.601864,-3.557252,5.867102,40.327236,-27.498198,-0.2685834,-18.576769,-13.491467,-11.31672,82.76051,-22.620295,-0.84596133,1.0500274,-5.331357,18.992342,6.5166907,28.484613,-27.721205,-0.6772756,13.777771,5.3358912,-4.92568,9.668944,-21.768017,23.089174,-22.745539,-32.20604,5.190529,4.8797255
188,-0.9617955684661865,118.59628295898438,73.4285659790039,3.0254478191456515,0.4628758587874763,90.43984195350457,-11.990488,-3.6160219,5.4478,39.5946,-28.046257,-0.42140135,-20.001862,-13.715741,-12.01835,81.51829,-22.963255,-1.0309914,0.20264508,-5.3145223,18.969687,4.7810497,28.539886,-28.398897,-0.3332063,15.282259,5.233663,-5.501109,11.0877285,-21.731022,22.501917,-22.88049,-31.888355,5.0416355,4.8487344
189,-0.8976739645004272,119.88018798828125,73.51902770996094,2.909619811408491,0.43344521863611984,90.74208975491462,-10.352578,-3.5808053,5.114772,38.629578,-28.446575,-0.51989686,-21.465736,-13.695583,-12.544114,79.88257,-23.05961,-1.0183151,-0.5711157,-5.2772264,18.838654,3.3135653,28.641369,-28.837355,-0.57665825,16.331049,5.0277753,-6.1781116,12.635701,-21.8044,21.955883,-23.507364,-31.27121,5.004983,4.730014
190,-0.8372600078582764,121.17426300048828,73.63822937011719,2.7668115305525416,0.4709072094673568,91.00164866003853,-8.666825,-3.4727633,4.826163,37.43682,-28.701199,-0.5841649,-22.925303,-13.484423,-12.96701,77.84481,-22.903576,-0.84339243,-1.3064538,-5.204836,18.630554,2.0733442,28.799593,-29.0908,-1.3643017,16.993603,4.7160764,-6.9537764,14.336271,-21.993902,21.430122,-24.632353,-30.328163,5.0318027,4.521795
191,-0.7728601098060608,122.48394775390625,73.77864837646484,2.6290888986732277,0.5577744665562079,91.2273794734413,-6.974297,-3.3413544,4.569368,36.120026,-28.752708,-0.6449265,-24.312138,-13.196048,-13.339799,75.44882,-22.565434,-0.603237,-2.0245051,-5.118246,18.373343,1.057201,29.005304,-29.191063,-2.5167975,17.261576,4.408695,-7.627781,16.106634,-22.281717,20.927498,-26.017572,-29.320621,5.0820637,4.3012085
192,-0.6926921606063843,123.7965087890625,73.94440460205078,2.525010951212073,0.6768705769438267,91.4279808447589,-5.313635,-3.235427,4.3290086,34.77499,-28.539679,-0.7374043,-25.559263,-12.938568,-13.717984,72.73772,-22.117033,-0.39213774,-2.753645,-5.042164,18.085575,0.2651253,29.236322,-29.161236,-3.8410676,17.13882,4.2170324,-8.002003,17.835083,-22.63461,20.462473,-27.393799,-28.519642,5.120421,4.1469836
193,-0.6094387769699097,125.12065124511719,74.12388610839844,2.4564704814536706,0.842546504932243,91.61140908248169,-3.6833475,-3.158924,4.097062,33.358727,-28.0439,-0.893437,-26.683739,-12.717334,-14.102867,69.685,-21.57349,-0.18827002,-3.5178673,-4.984304,17.74166,-0.29133636,29.476633,-28.969053,-5.341153,16.527662,4.209203,-7.984401,19.470129,-23.033894,20.055033,-28.70141,-28.016047,5.145389,4.0829787
194,-0.5438079237937927,126.45962524414062,74.33100128173828,2.4113199380188512,1.057203632828407,91.77141619315466,-2.0661402,-3.0901093,3.8799038,31.840601,-27.297476,-1.0902097,-27.700535,-12.479775,-14.46922,66.27194,-20.89994,0.040317655,-4.298362,-4.9305134,17.330643,-0.6256169,29.725399,-28.609856,-7.0741324,15.470249,4.314485,-7.6927466,21.05236,-23.47603,19.692816,-30.038904,-27.670923,5.1737638,4.070343
195,-0.4736277759075165,127.82360076904297,74.55696105957031,2.3937426463211,1.2862084333412394,91.89383025631994,-0.47989514,-3.0373104,3.6858325,30.339869,-26.318045,-1.2857283,-28.543442,-12.235253,-14.832916,62.545994,-20.086042,0.22530349,-5.059915,-4.875331,16.889727,-0.7816324,29.981728,-28.150126,-8.916617,14.178027,4.432429,-7.2428584,22.598154,-23.944672,19.34467,-31.366293,-27.411055,5.199976,4.094016
196,-0.3975629210472107,129.18911743164062,74.79696655273438,2.4092861122725093,1.4949354668187824,91.96365628915818,1.0563955,-3.009742,3.5244393,28.978035,-25.124125,-1.4366933,-29.1517,-11.992349,-15.211363,58.554787,-19.12314,0.29924232,-5.7617974,-4.817794,16.45426,-0.80756265,30.241638,-27.666172,-10.737992,12.866199,4.4675407,-6.7547894,24.119669,-24.413069,18.980225,-32.62923,-27.16666,5.2174067,4.1408734
197,-0.32849040627479553,130.57827758789062,75.04896545410156,2.4538601011592998,1.6878155837315727,91.97292455381815,2.551184,-3.0017002,3.3894796,27.731188,-23.678276,-1.5583432,-29.507952,-11.76618,-15.653324,54.214104,-17.954365,0.16178912,-6.3901534,-4.75665,16.021826,-0.73729336,30.503897,-27.176384,-12.510139,11.456934,4.3922763,-6.1768155,25.60628,-24.861637,18.586113,-33.812363,-26.965723,5.218277,4.236781
198,-0.25020861625671387,131.98275756835938,75.30818176269531,2.5275812539836306,1.8782614422650128,91.92926340462057,4.0085816,-3.014559,3.279354,26.557878,-21.987413,-1.6645664,-29.64243,-11.534756,-16.142868,49.52104,-16.605812,-0.11700666,-6.9560766,-4.7002945,15.573701,-0.5486191,30.766928,-26.652267,-14.286555,9.884459,4.249282,-5.475222,27.045399,-25.283281,18.177828,-34.921223,-26.83821,5.2058935,4.384361
199,-0.17607025802135468,133.40997314453125,75.56852722167969,2.64388345032438,2.0444802121527728,91.8418673205345,5.4013987,-3.0691826,3.2133858,25.556873,-20.134819,-1.7101781,-29.574188,-11.262223,-16.589163,44.646202,-15.183259,-0.35475937,-7.4576373,-4.665945,15.119655,-0.22198665,31.023964,-26.104166,-16.039835,8.378671,4.0602465,-4.8011384,28.441414,-25.671984,17.769876,-35.93894,-26.720798,5.1897526,4.5372267
200,-0.09233657270669937,134.87240600585938,75.81877136230469,2.816105959849142,2.16319044584037,91.7212065159291,6.7054834,-3.1876912,3.2115664,24.82377,-18.199883,-1.6498748,-29.3164,-10.928772,-16.887684,39.738758,-13.783224,-0.3800132,-7.8929424,-4.670239,14.669702,0.26051763,31.26199,-25.54645,-17.742308,7.171119,3.8609874,-4.3027396,29.80386,-26.020777,17.372978,-36.852036,-26.54937,5.179565,4.648603
201,-0.005113591905683279,136.34738159179688,76.04973602294922,3.063572879992653,2.210514959869418,91.54571068286344,7.990357,-3.400731,3.2902226,24.284576,-16.11504,-1.4270884,-28.788477,-10.521377,-17.00625,34.608074,-12.309111,-0.15618101,-8.24067,-4.733654,14.231714,0.91238004,31.468428,-24.973606,-19.391483,6.294106,3.6401627,-4.0143604,31.162254,-26.324766,16.983389,-37.64932,-26.288431,5.1679835,4.6904707
202,0.0746193677186966,137.85174560546875,76.25736236572266,3.3860826603272374,2.1982997421272916,91.32292035105316,9.254211,-3.6993587,3.438104,23.911314,-13.857864,-1.0775058,-27.985523,-10.088412,-16.981407,29.195318,-10.7254,0.20994163,-8.51018,-4.8560963,13.800805,1.7065517,31.638418,-24.389732,-20.982822,5.6377606,3.3953927,-3.860302,32.502865,-26.583178,16.593716,-38.338818,-25.98106,5.1526775,4.6944966
203,0.13399270176887512,139.394775390625,76.44371795654297,3.7683548269750813,2.155544103386659,91.11137310183892,10.382174,-4.0495424,3.6277168,23.836775,-11.566063,-0.69166565,-27.031927,-9.711076,-16.813961,23.84934,-9.213138,0.6751634,-8.744827,-5.0250807,13.368708,2.5850577,31.77232,-23.829727,-22.483526,5.213941,3.1818714,-3.8204308,33.77783,-26.799505,16.203161,-38.9422,-25.684797,5.150088,4.705436
204,0.22051569819450378,140.9349365234375,76.58843231201172,4.1924850021220195,2.1117584323757996,90.97447779406231,11.260165,-4.415385,3.821114,24.185946,-9.3706255,-0.3585512,-26.057243,-9.457719,-16.523973,18.926666,-7.956423,1.2086394,-8.993003,-5.224049,12.926043,3.4949646,31.873236,-23.328041,-23.862888,5.036052,3.0535383,-3.873491,34.93614,-26.978056,15.813491,-39.480522,-25.453209,5.1774044,4.767316
205,0.30234572291374207,142.48651123046875,76.70008087158203,4.688833521047105,2.083002523007649,90.93860331883306,11.871879,-4.8320446,4.003873,24.961945,-7.2857366,-0.050557517,-25.057602,-9.357753,-16.122524,14.359398,-7.0167303,1.912605,-9.281508,-5.472789,12.440624,4.453408,31.940958,-22.891113,-25.125313,5.1933837,3.0449767,-4.060057,35.997887,-27.120716,15.418853,-39.973263,-25.29534,5.2541156,4.908688
206,0.3864826261997223,144.0225067138672,76.77908325195312,5.281440361320613,2.037832997148576,90.9819149431456,12.300445,-5.327018,4.184448,26.073181,-5.226169,0.27945817,-23.928894,-9.407004,-15.620497,9.91938,-6.2464814,2.773192,-9.593146,-5.7998405,11.932892,5.4765043,31.975374,-22.505474,-26.284897,5.6513844,3.1195877,-4.3773055,36.989273,-27.227512,15.018826,-40.417603,-25.183313,5.366479,5.1008296
207,0.46832650899887085,145.54379272460938,76.83875274658203,5.890006752300893,1.9612085457653705,91.06848241384294,12.532827,-5.7931204,4.3807526,27.553097,-3.2002943,0.5588691,-23.30974,-9.698921,-14.947933,7.091719,-6.219842,3.5943928,-9.880164,-6.144965,11.45572,6.4948535,31.979074,-22.184631,-27.31248,6.2362394,3.2242105,-4.736272,37.851852,-27.290918,14.631236,-40.77286,-25.122704,5.481302,5.302851
208,0.5665767192840576,147.04302978515625,76.8712387084961,6.398400871060151,1.8583763454484683,91.1456784766503,12.527453,-6.0873923,4.6233854,29.458096,-1.231334,0.7016325,-23.679077,-10.181876,-14.045953,6.9601016,-7.2922587,4.17594,-10.0879135,-6.402565,11.061364,7.467169,31.962969,-21.919722,-28.206736,6.768167,3.3071244,-5.046879,38.5325,-27.32986,14.26498,-41.01881,-25.10599,5.564431,5.4716163
209,0.6802085638046265,148.5160369873047,76.88429260253906,6.801978891474542,1.7292057332178183,91.21707408744284,12.26254,-6.2100873,4.9210334,31.859764,0.71237224,0.62561643,-23.801275,-10.507688,-13.073511,6.8929586,-8.179101,4.484336,-10.211813,-6.5788307,10.740669,8.377875,31.935442,-21.73913,-28.943218,7.256513,3.3697846,-5.2889023,39.014557,-27.334335,13.939527,-41.128536,-25.165659,5.6070585,5.5951962
210,0.8015121221542358,149.9756622314453,76.87252807617188,7.120468141780338,1.5924220576947146,91.28547842838032,11.739912,-6.189528,5.2638726,34.724518,2.6212642,0.3881712,-23.70961,-10.696387,-12.036869,6.869165,-8.9281225,4.625025,-10.260569,-6.6705227,10.479072,9.276407,31.892895,-21.613194,-29.567545,7.7758446,3.4312856,-5.519834,39.34819,-27.31806,13.6125965,-41.15212,-25.28492,5.619309,5.7078624
211,0.910315752029419,151.42849731445312,76.8315200805664,7.270240730853001,1.481109664303442,91.3045743360034,10.967432,-5.938066,5.641454,37.928226,4.4288893,0.102099955,-23.45443,-10.6479845,-11.0437975,6.872271,-9.242849,4.593285,-10.191542,-6.5981936,10.269125,10.108683,31.824562,-21.5449,-30.03906,8.245959,3.4808116,-5.723764,39.474216,-27.279015,13.315156,-41.036037,-25.412155,5.6197467,5.7999372
212,1.003880262374878,152.89137268066406,76.76669311523438,7.166984553207394,1.4273005755563795,91.23035185866888,9.959101,-5.3644714,6.042205,41.34125,6.072668,-0.119628355,-23.079811,-10.258959,-10.204597,6.8864574,-8.826244,4.3797746,-9.970389,-6.278277,10.107051,10.837428,31.718714,-21.521725,-30.332247,8.587774,3.5073612,-5.890017,39.33682,-27.22406,13.073117,-40.732735,-25.494997,5.6261644,5.864008
213,1.1071736812591553,154.31155395507812,76.73783874511719,6.730682039507101,1.474513173457102,91.05227749264385,8.61561,-4.3558106,6.461242,45.075775,7.797439,-0.24031363,-22.572813,-9.41821,-9.525073,6.9066157,-7.3007135,3.893491,-9.585204,-5.6187286,9.953289,11.447469,31.568483,-21.560513,-30.437237,8.76505,3.5030656,-6.014818,38.912556,-27.160677,12.893334,-40.235073,-25.486423,5.6477237,5.8899264
214,1.2293485403060913,155.67779541015625,76.72247314453125,6.041194315024769,1.5748739485216938,90.80772157745962,7.022186,-3.0213485,6.84327,49.084595,9.587535,-0.33996457,-21.911186,-8.241619,-8.960217,6.9522066,-4.9180408,3.2016356,-9.074447,-4.7045746,9.825366,11.965257,31.381456,-21.660292,-30.371855,8.824685,3.4772792,-6.1046844,38.250828,-27.097055,12.758874,-39.583294,-25.423388,5.6751213,5.881336
215,1.3399131298065186,157.04335021972656,76.6244125366211,5.267506837578301,1.6268470791298226,90.5237666903813,5.4430766,-1.6089358,7.1334767,53.049736,10.958809,-0.47273642,-22.419329,-7.1613083,-8.364416,9.795387,-3.7854729,2.5171509,-8.487169,-3.7218676,9.804755,12.42756,31.159584,-21.765606,-30.163572,8.813009,3.4431882,-6.170659,37.40753,-27.04775,12.657461,-38.814873,-25.37639,5.6971784,5.852316
216,1.4468629360198975,158.39671325683594,76.43729400634766,4.546406870036379,1.5471676501376652,90.21452433548183,4.087797,-0.3210103,7.3322153,56.73069,11.382668,-0.6807037,-23.066362,-6.20961,-7.923463,13.197135,-3.3734367,2.0005963,-7.8664503,-2.8228724,9.967562,12.886395,30.907375,-21.810003,-29.852911,8.776297,3.412758,-6.221593,36.416992,-27.036573,12.586629,-37.95337,-25.411505,5.7045674,5.8130584
217,1.5612332820892334,159.6941375732422,76.19804382324219,3.843143048197573,1.320923252405415,89.87001308348,2.9929094,0.9573865,7.5365686,60.229362,10.4166565,-0.94483316,-23.616987,-5.3429556,-7.7209067,16.67665,-3.4577596,1.7065396,-7.2070413,-1.9510679,10.351488,13.357518,30.634708,-21.760733,-29.511679,8.688991,3.3983998,-6.292949,35.296444,-27.087135,12.524039,-37.076824,-25.54831,5.680075,5.7480063
218,1.6700273752212524,160.9537811279297,75.93130493164062,3.108644622224919,0.993429159447922,89.48406805040587,2.0349677,2.2969625,7.749037,63.66676,8.412624,-1.2381953,-24.171572,-4.5269036,-7.691158,20.48406,-3.8753538,1.5008824,-6.510865,-1.0466359,10.902976,13.845876,30.343224,-21.633127,-29.129137,8.534517,3.3898613,-6.3666406,34.01356,-27.205816,12.492752,-36.153152,-25.739378,5.6375523,5.6484838
219,1.7561901807785034,162.2119598388672,75.64258575439453,2.416208730093797,0.5919431916215622,89.0657012287004,1.1247956,3.485943,7.853451,66.904015,5.998736,-1.599683,-24.601797,-3.8113534,-7.6994505,24.278938,-4.6186686,1.2543168,-5.817266,-0.20272782,11.558469,14.37681,30.01787,-21.436132,-28.59809,8.373281,3.363428,-6.371218,32.51554,-27.38418,12.56404,-35.03064,-25.952646,5.613741,5.5354404
220,1.844207763671875,163.46920776367188,75.36470794677734,1.839671286688714,0.1426930605079064,88.62459850968983,0.17219114,4.2905555,7.7360196,69.79044,3.8079655,-2.0732603,-24.760561,-3.1944804,-7.621612,27.656744,-5.649574,0.8782466,-5.156936,0.4809627,12.260092,14.964624,29.63442,-21.18427,-27.797285,8.269791,3.294772,-6.2392697,30.74836,-27.605398,12.807072,-33.549465,-26.158375,5.6446033,5.43242
221,1.9259223937988281,164.70321655273438,75.11155700683594,1.3720339137106923,-0.3903696568639128,88.11871539011277,-0.8177455,4.5838175,7.305938,72.31659,1.9173484,-2.7379153,-24.596586,-2.5934212,-7.428183,30.561857,-7.063995,0.2874611,-4.5043917,0.99653286,13.06941,15.654663,29.163824,-20.84958,-26.718744,8.261372,3.1379473,-5.985435,28.644358,-27.859432,13.259412,-31.603874,-26.245655,5.728151,5.269277
222,1.9978001117706299,165.91270446777344,74.87799835205078,0.9742903506136305,-1.0039006996189064,87.55424380955188,-1.8168312,4.517098,6.679145,74.57053,0.008059565,-3.5456831,-24.19869,-1.9665115,-7.1860094,33.174828,-8.829784,-0.43114275,-3.8538136,1.413534,13.990418,16.409168,28.598211,-20.43562,-25.389809,8.316214,2.9176738,-5.64391,26.236082,-28.138159,13.899791,-29.287891,-26.262993,5.8500557,5.057226
223,2.069927453994751,167.1463165283203,74.67794799804688,0.6698595084886595,-1.6103494448886302,87.0103877665083,-2.885708,4.2684546,6.03648,76.53845,-1.8719559,-4.3550906,-23.64736,-1.3716769,-6.9212155,35.479267,-10.727751,-1.0983851,-3.248719,1.7408775,14.886598,17.113693,27.95294,-20.015217,-23.748707,8.393537,2.7161644,-5.173373,23.63925,-28.416433,14.69259,-26.75389,-26.421255,6.026507,4.9459524
224,2.1500794887542725,168.35052490234375,74.48731231689453,0.4795736894366179,-2.1193783049369435,86.56580388924506,-4.0886602,4.0193787,5.536089,78.19214,-3.658975,-5.028011,-23.018625,-0.9073687,-6.6589484,37.46841,-12.558417,-1.5371172,-2.7177439,1.9761218,15.623614,17.648037,27.259739,-19.671473,-21.738604,8.448721,2.6159234,-4.5280957,20.98552,-28.661095,15.578894,-24.159819,-26.942078,6.2692995,5.0946655
225,2.2415931224823,169.56658935546875,74.32154083251953,0.4521290612643593,-2.5016584691304424,86.27113694506525,-5.4931564,3.7002826,5.1362267,79.52538,-5.3067923,-5.5612283,-22.327345,-0.6880647,-6.4027886,39.172153,-14.385768,-1.665277,-2.267012,2.0428607,16.166346,17.955374,26.536196,-19.449291,-19.183012,8.386179,2.6039457,-3.6121569,18.27305,-28.833908,16.546774,-21.418585,-28.070251,6.6337576,5.688363
226,2.340595006942749,170.7841339111328,74.1796875,0.5573235947376101,-2.8029527059999584,86.07049074195228,-7.0510483,3.2593079,4.77206,80.54208,-6.844943,-6.0198927,-21.542019,-0.6608973,-6.143129,40.609173,-16.296452,-1.5950323,-1.844605,1.9584805,16.595076,18.09862,25.790138,-19.315588,-16.174105,8.252813,2.6460106,-2.4729915,15.47612,-28.91998,17.586664,-18.499193,-29.646513,7.0688114,6.6187205
227,2.468719005584717,172.00881958007812,74.06694793701172,0.6883154032657905,-3.04549389476955,85.88089782351814,-8.662961,2.9089286,4.547788,81.23724,-8.3194685,-6.3752933,-20.670036,-0.68439,-5.8809814,41.76384,-18.136606,-1.4365377,-1.400038,1.8589592,16.946123,18.156181,25.046734,-19.225908,-13.073393,8.210807,2.7986875,-1.2725974,12.677333,-28.935242,18.653255,-15.63967,-31.279911,7.4394007,7.5930066
228,2.5675268173217773,173.1974334716797,73.9752426147461,0.7428582640244041,-3.251660671027562,85.62060502498083,-10.231339,2.8618593,4.559917,81.602295,-9.778453,-6.600344,-19.719664,-0.604213,-5.6127334,42.61933,-19.7513,-1.3020953,-0.89404047,1.8801802,17.254139,18.215319,24.338575,-19.130743,-10.25214,8.412628,3.1240184,-0.1664659,9.9477005,-28.913391,19.716055,-13.076514,-32.559032,7.6412244,8.299278
229,2.6342127323150635,174.38531494140625,73.91256713867188,0.6907385265151158,-3.4237699509733903,85.26567033172756,-11.751054,3.1899247,4.8400545,81.626976,-11.312953,-6.6973014,-18.680962,-0.36572155,-5.336663,43.14284,-21.10184,-1.2102753,-0.31030396,2.0658143,17.5218,18.251568,23.67949,-19.036938,-7.6811604,8.921529,3.7784405,0.92777026,7.2574754,-28.88342,20.815437,-10.7787695,-33.37445,7.630411,8.609975
230,2.6951963901519775,175.573974609375,73.87860870361328,0.5892329592300756,-3.551495227241908,84.86022095100131,-13.262933,3.7678227,5.3239903,81.30935,-12.867067,-6.6926823,-17.558062,-0.056421775,-5.0497284,43.359673,-22.272804,-1.106471,0.32041636,2.338851,17.73688,18.258184,23.068453,-18.954485,-5.2351737,9.623679,4.693403,2.0524702,4.594805,-28.84528,21.956697,-8.67658,-33.924526,7.4856105,8.690741
231,2.7564499378204346,176.7767333984375,73.87271881103516,0.47097417949762393,-3.6374244254559756,84.42590416170638,-14.734652,4.5086565,5.964369,80.653046,-14.270725,-6.5972486,-16.375338,0.27339113,-4.7432246,43.33247,-23.290846,-0.99595046,0.9632629,2.6491888,17.904858,18.344349,22.519794,-18.841608,-3.1317918,10.415469,5.592628,2.9967983,2.0296059,-28.789581,23.072897,-6.9198937,-34.259888,7.302083,8.66924
232,2.8025224208831787,177.96328735351562,73.88948059082031,0.3671403262524613,-3.683858100347086,83.9845767920015,-16.134392,5.3250766,6.7182026,79.66392,-15.356839,-6.418211,-15.158176,0.5733613,-4.4110947,43.125732,-24.183443,-0.8839636,1.5868125,2.942516,18.032534,18.62705,22.061192,-18.65845,-1.601713,11.205265,6.190767,3.55871,-0.36779013,-28.704681,24.095955,-5.6545014,-34.434673,7.1710143,8.675126
233,2.842211961746216,179.1671600341797,73.93507385253906,0.2793722662742562,-3.6992557912625204,83.52698474441216,-17.444809,6.2923317,7.6699843,78.33416,-16.053665,-6.121978,-13.892614,0.8433665,-4.039906,42.73015,-24.953136,-0.77651554,2.187667,3.2093434,18.133148,19.170582,21.720573,-18.374924,-0.7614852,12.144285,6.3796825,3.6063855,-2.6060562,-28.59228,25.026085,-4.9500065,-34.36088,7.087539,8.724578
234,2.883321523666382,180.36062622070312,73.99826049804688,0.19318340019708824,-3.680033498866481,83.0465007416591,-18.663912,7.4001484,8.830887,76.65738,-16.472702,-5.7344112,-12.572824,1.1013813,-3.6333582,42.123466,-25.588865,-0.67192256,2.7831252,3.4611058,18.19954,19.924023,21.505135,-18.017868,-0.49713087,13.220439,6.3114595,3.2797596,-4.7235556,-28.45569,25.90207,-4.7042685,-34.045288,7.0125504,8.754358
235,2.920668363571167,181.5560760498047,74.08736419677734,0.12288481650071635,-3.60891444279093,82.5683776790673,-19.799438,8.445864,10.044188,74.651276,-16.713053,-5.3388095,-11.234058,1.3254808,-3.2150915,41.34824,-26.096989,-0.5620727,3.3753436,3.6748009,18.206778,20.823263,21.407986,-17.635406,-0.68408686,14.103456,6.091137,2.7880726,-6.6976337,-28.285542,26.709278,-4.7967353,-33.690014,6.984101,8.777055
236,2.9660215377807617,182.75674438476562,74.18955993652344,0.07561028037516608,-3.468791490011715,82.11843087342996,-20.869118,9.242109,11.137951,72.32318,-16.8668,-5.0067143,-9.910713,1.4955666,-2.8111362,40.442814,-26.48141,-0.4364849,3.9706004,3.8291063,18.12868,21.792099,21.415518,-17.279087,-1.1842136,14.468271,5.8354197,2.3360972,-8.506973,-28.06723,27.425236,-5.100468,-33.501682,7.0388618,8.8065195
237,3.022325038909912,183.9676971435547,74.31829833984375,0.06934495248212613,-3.2206672762421222,81.7028909421484,-21.93326,9.792637,12.105469,69.64124,-16.965456,-4.618513,-8.620963,1.5917213,-2.427718,39.35408,-26.762192,-0.2812926,4.5724654,3.898462,17.929821,22.844126,21.527458,-16.945023,-2.064965,14.16181,5.5341825,1.919584,-10.14999,-27.79078,28.033651,-5.638764,-33.56638,7.2087774,8.841716
238,3.07867169380188,185.18128967285156,74.46167755126953,0.09019915104464879,-2.8849662657134276,81.30827304680211,-22.962387,10.189904,13.021213,66.60611,-16.960506,-4.1730337,-7.343086,1.6286634,-2.0531254,38.080845,-26.93018,-0.10431305,5.175389,3.8938496,17.632805,24.013409,21.744827,-16.60374,-3.363346,13.378694,5.148043,1.4410796,-11.649383,-27.45639,28.551836,-6.440001,-33.7721,7.466443,8.877714
239,3.1459898948669434,186.40618896484375,74.61837768554688,0.10699473238938889,-2.5322749276504175,80.93014421106162,-23.854218,10.403796,13.816607,63.270565,-16.81115,-3.901113,-6.0522118,1.6439943,-1.6849797,36.73967,-26.945753,0.07344007,5.772051,3.8556492,17.296547,25.241451,22.048311,-16.26992,-4.881738,12.322663,4.7538586,0.96501964,-13.030132,-27.068195,29.003952,-7.376572,-34.023262,7.7596154,8.92376
240,3.2123215198516846,187.65121459960938,74.79035949707031,0.08275427220796373,-2.2347416628580983,80.56384328228424,-24.510391,10.4134655,14.415018,59.683346,-16.469963,-4.026294,-4.7224646,1.6790878,-1.3211583,35.447285,-26.769958,0.231822,6.355281,3.8360329,16.976257,26.452549,22.40585,-15.966066,-6.4018745,11.205012,4.421811,0.5619949,-14.308989,-26.632195,29.41013,-8.327098,-34.226273,8.036,8.988576
