unveil-humanoid-operators/unveil-humanoid-operators.github.io/feature-analysis-animation/data/feature_matrix_instances/age_waist_rom_jogging_A181_jog_arc_cw_stop_001__A181.csv
Frame,root_translateX,root_translateY,root_translateZ,root_rotateX,root_rotateY,root_rotateZ,left_hip_pitch_joint_dof,left_hip_roll_joint_dof,left_hip_yaw_joint_dof,left_knee_joint_dof,left_ankle_pitch_joint_dof,left_ankle_roll_joint_dof,right_hip_pitch_joint_dof,right_hip_roll_joint_dof,right_hip_yaw_joint_dof,right_knee_joint_dof,right_ankle_pitch_joint_dof,right_ankle_roll_joint_dof,waist_yaw_joint_dof,waist_roll_joint_dof,waist_pitch_joint_dof,left_shoulder_pitch_joint_dof,left_shoulder_roll_joint_dof,left_shoulder_yaw_joint_dof,left_elbow_joint_dof,left_wrist_roll_joint_dof,left_wrist_pitch_joint_dof,left_wrist_yaw_joint_dof,right_shoulder_pitch_joint_dof,right_shoulder_roll_joint_dof,right_shoulder_yaw_joint_dof,right_elbow_joint_dof,right_wrist_roll_joint_dof,right_wrist_pitch_joint_dof,right_wrist_yaw_joint_dof
0,-2.2557244300842285,-0.7574719786643982,75.65939331054688,6.76911194447156,-3.008493555114001,5.620825458284197,-7.7727456,1.3793794,3.730705,8.907792,-3.5355334,-15.000033,8.071094,-14.228952,-17.521238,60.911343,5.50188,-13.296923,11.190279,1.607335,9.936146,45.656155,29.488592,-2.075592,-36.861507,1.0269086,-11.741455,3.9069588,4.7681336,-27.741838,44.108555,-35.572376,-41.81192,-6.665726,-4.780473
1,-1.2867019176483154,-0.4234408140182495,75.32615661621094,7.486925477366371,-3.3074166479110705,5.426763458993277,-9.572248,0.8661167,3.9084074,14.967669,-6.4620757,-15.000033,7.0849237,-16.572931,-18.075628,64.49709,5.692489,-13.783813,10.307476,0.8877437,10.574119,44.11635,29.656872,-1.9813827,-36.401455,1.597461,-11.801071,3.563187,4.9476833,-27.853664,43.661716,-34.7826,-41.634823,-6.9871507,-4.3505445
2,-0.3633427917957306,-0.08478687703609467,74.95249938964844,8.033962114910365,-3.616325910827557,5.218700770041283,-11.154333,0.40115824,4.0133867,20.540874,-9.029922,-14.823272,6.1985526,-18.844566,-18.68067,68.05557,6.024593,-14.357112,9.503401,0.33611667,11.14237,42.61863,29.922165,-1.9249487,-36.023888,2.1621184,-11.84551,3.2106323,5.1810083,-27.970755,43.18114,-34.03047,-41.4156,-7.359208,-3.9001467
3,0.5386694073677063,0.2459980994462967,74.48712921142578,8.644737731873796,-3.981757217529605,5.075387813591216,-12.273197,-0.415585,4.1869435,25.194593,-11.155597,-13.298205,5.351884,-21.15255,-19.136045,71.62377,5.9840217,-14.95906,8.659656,-0.27570373,11.7725525,41.03671,30.257343,-1.9308563,-35.534702,2.6748762,-11.912073,2.9592605,5.5211554,-28.092136,42.59822,-33.31008,-41.281452,-7.6352673,-3.458486
4,1.42266047000885,0.5450062155723572,73.98833465576172,9.172181476347626,-4.4398374363973,4.934568826548736,-12.914335,-1.129216,4.441922,29.122955,-13.13824,-12.266698,4.4423404,-22.888628,-19.040424,75.03714,5.1747227,-15.000033,7.8096466,-0.81543916,12.534597,39.178806,30.65679,-2.0554976,-34.680584,3.0839753,-12.035909,2.9263465,6.0185637,-28.202333,41.829956,-32.59317,-41.36422,-7.6743717,-3.0552952
5,2.2983827590942383,0.836396336555481,73.4966812133789,9.655525707219079,-5.027796006082256,4.806650646607122,-13.013922,-1.6763095,4.8063154,32.33415,-15.09994,-11.92946,3.4638662,-24.049973,-18.463675,78.38765,3.2197874,-15.000033,6.9546394,-1.3304931,13.503355,36.923756,31.1286,-2.3799043,-33.303944,3.2411947,-12.3155,3.183458,6.737698,-28.278664,40.822056,-31.827854,-41.677025,-7.405422,-2.7826622
6,3.1607656478881836,1.1165894269943237,73.04349517822266,10.112499260617232,-5.702279808163581,4.682717639936883,-12.744354,-2.0870864,5.253982,35.081196,-17.085989,-12.070635,2.4246738,-24.777668,-17.560898,81.7045,0.45281175,-15.000033,6.116524,-1.8413233,14.6101885,34.23929,31.676893,-2.9151325,-31.426046,3.1960194,-12.700686,3.6576061,7.610707,-28.312231,39.629177,-31.012865,-42.158924,-6.9181623,-2.593698
7,4.008496284484863,1.3973135948181152,72.6253433227539,10.665900271179828,-6.427122861994643,4.586284066800025,-12.141265,-2.608992,5.7540483,37.280804,-18.926449,-12.270326,1.3866128,-25.412998,-16.565454,84.86683,-2.566103,-15.000033,5.277536,-2.4809518,15.7700405,31.535002,32.263023,-3.5705063,-29.52064,3.2882674,-12.997632,4.257891,8.545028,-28.305988,38.295326,-30.225748,-42.828537,-6.316363,-2.3077164
8,4.85910701751709,1.6652921438217163,72.2520523071289,11.170361798254072,-7.083086378390355,4.449342920775627,-11.45237,-3.1298184,6.224367,39.16892,-20.621159,-12.187833,0.3381736,-26.109728,-15.804596,87.68876,-5.2347775,-15.000033,4.443138,-3.1067247,16.828224,28.685112,32.85516,-4.252419,-27.533815,3.7314265,-13.012845,4.8732862,9.379741,-28.278894,36.9339,-29.52203,-43.710636,-5.705985,-1.74758
9,5.705166816711426,1.9223250150680542,71.91484069824219,11.570017066015062,-7.654718255162327,4.241703255025797,-10.697114,-3.5772374,6.6279535,40.772503,-22.181635,-11.696295,-0.7017109,-26.9811,-15.408878,90.129005,-7.4185705,-15.000033,3.6192675,-3.6532965,17.781092,25.847227,33.417206,-4.938982,-25.566145,4.736255,-12.589905,5.5839367,10.083404,-28.239443,35.543785,-28.912941,-45.0572,-4.9877267,-0.7456005
10,6.563521385192871,2.1679794788360596,71.61365509033203,11.89807526836372,-8.18264010385135,3.9862389592789302,-9.802327,-3.9370723,6.9809813,42.061325,-23.652897,-11.004194,-1.7484578,-27.910486,-15.213725,92.2757,-9.4248085,-15.000033,2.783246,-4.1533885,18.692484,22.96185,33.92788,-5.646753,-23.54366,6.1103053,-11.855136,6.3805094,10.715196,-28.187986,34.10876,-28.365944,-46.783745,-4.171897,0.5748793
11,7.42950963973999,2.3923351764678955,71.33328247070312,12.144844177262991,-8.63642187219877,3.6988578246659656,-8.848743,-4.202162,7.284166,43.129192,-25.05676,-10.275369,-2.8681238,-28.711252,-15.09098,94.13201,-11.319981,-15.000033,1.9488757,-4.601098,19.497183,20.185526,34.3576,-6.28405,-21.733438,7.614373,-11.043146,7.034926,11.333899,-28.135912,32.66279,-27.908932,-48.402378,-3.5149412,1.9333596
12,8.320910453796387,2.611530303955078,71.07662963867188,12.299046792012971,-8.985964094835701,3.3965004445208287,-7.9207845,-4.3652644,7.548203,44.071346,-26.41046,-9.672703,-4.129084,-29.187931,-14.920366,95.69643,-13.165903,-15.000033,1.1078315,-4.9890137,20.130144,17.615377,34.68269,-6.7499595,-20.334526,9.013454,-10.407553,7.3297515,11.974268,-28.106153,31.262548,-27.565645,-49.410145,-3.233552,3.0276294
13,9.230052947998047,2.8239877223968506,70.84324645996094,12.353264627264128,-9.222899583469728,3.0955613548632614,-7.04151,-4.432612,7.764778,44.91786,-27.735926,-9.228212,-5.5715156,-29.279982,-14.664175,96.98721,-14.995959,-15.000033,0.21776758,-5.306278,20.557783,15.363164,34.887882,-6.9476185,-19.454638,10.436446,-10.024557,7.0943346,12.640466,-28.12147,29.889275,-27.34638,-49.663956,-3.4801042,3.8576727
14,10.141759872436523,3.0187461376190186,70.63883209228516,12.313964068170074,-9.364265086578742,2.785191181311271,-6.171589,-4.3966713,7.9370346,45.62443,-29.023146,-8.864682,-7.1520405,-29.096607,-14.407382,97.99597,-16.759392,-15.000033,-0.732354,-5.5484285,20.823286,13.345101,34.977013,-6.9167757,-18.946106,11.965969,-9.78466,6.478711,13.31092,-28.196228,28.544447,-27.250565,-49.419067,-4.0775366,4.5489106
15,11.076696395874023,3.192901134490967,70.48645782470703,12.190506471891341,-9.417734626492349,2.441014268145461,-5.2973795,-4.23733,8.103641,46.161842,-30.228916,-8.580178,-8.81204,-28.692728,-14.218329,98.677345,-18.391983,-15.000033,-1.6847819,-5.71093,20.971909,11.463808,34.961365,-6.767792,-18.724445,13.329362,-9.658236,5.770012,14.009271,-28.333673,27.297035,-27.30284,-48.770977,-4.7313623,4.9829574
16,11.998323440551758,3.332733631134033,70.37604522705078,11.993101125132078,-9.389668122108452,2.0362076108497846,-4.4026814,-3.9427555,8.310056,46.498135,-31.307554,-8.367464,-10.496882,-28.119106,-14.160372,98.98899,-19.827791,-15.000033,-2.5751894,-5.7925043,21.048908,9.637837,34.853268,-6.6138115,-18.72269,14.250898,-9.59326,5.256659,14.751843,-28.526104,26.214558,-27.516575,-47.824326,-5.157067,5.035421
17,12.93020248413086,3.430842161178589,70.3177490234375,11.717814192434545,-9.276227034848638,1.5722339376369872,-3.494767,-3.512934,8.574992,46.633244,-32.254086,-8.226811,-12.224923,-27.355646,-14.244497,98.91116,-21.041573,-15.000033,-3.379313,-5.7926607,21.051805,7.8336005,34.657856,-6.4685955,-18.980331,14.621983,-9.594538,4.9998527,15.555917,-28.767004,25.322525,-27.93747,-46.52776,-5.2683735,4.600694
18,13.850617408752441,3.509192943572998,70.2942886352539,11.365360106431694,-9.076367665102703,1.0575888457654627,-2.576038,-2.9676127,8.893119,46.575523,-33.08428,-8.162604,-14.006616,-26.385227,-14.447355,98.45883,-22.064837,-15.000033,-4.1222053,-5.710126,20.961945,6.0804768,34.379223,-6.290892,-19.49909,14.6016445,-9.672309,4.861123,16.407822,-29.052021,24.574505,-28.536383,-44.852844,-5.2432604,3.766619
19,14.770257949829102,3.5703952312469482,70.30884552001953,10.954300793790052,-8.801214977480878,0.4754105224793607,-1.6203476,-2.330628,9.277263,46.304768,-33.781574,-8.173415,-15.775127,-25.257269,-14.772293,97.63514,-22.91374,-15.000033,-4.8114805,-5.549052,20.801401,4.382682,34.031067,-6.1123633,-20.151876,14.309239,-9.772394,4.825493,17.267193,-29.37316,23.929224,-29.208227,-42.9443,-5.1989756,2.6932251
20,15.696962356567383,3.593825578689575,70.36079406738281,10.502268378784013,-8.461922188812853,-0.19013325315441829,-0.600679,-1.6257939,9.738245,45.800064,-34.32981,-8.258034,-17.462023,-24.020082,-15.220586,96.441795,-23.60871,-15.000033,-5.449796,-5.3142705,20.59304,2.7489774,33.631702,-5.966764,-20.817633,13.861739,-9.841615,4.87928,18.103079,-29.71707,23.340584,-29.854946,-40.9504,-5.2418675,1.5454947
21,16.635534286499023,3.5831029415130615,70.44644165039062,9.992471191494094,-8.044540979278787,-0.9733214160511914,0.4926048,-0.8171569,10.325578,45.03955,-34.76029,-8.437459,-19.07197,-22.649078,-15.824839,94.843056,-24.161184,-15.000033,-6.002355,-4.99589,20.333426,1.1823056,33.186455,-5.8438363,-21.51417,13.1408,-9.873107,5.0560446,18.906353,-30.075016,22.802748,-30.459532,-38.79095,-5.4447336,0.32826075
22,17.58357048034668,3.5562918186187744,70.56747436523438,9.431118360042408,-7.554972439345353,-1.8541335378307602,1.6538249,0.066550545,11.034675,44.031696,-35.06004,-8.704811,-20.62014,-21.119894,-16.556376,92.830185,-24.555887,-15.000033,-6.474226,-4.6095695,20.01746,-0.31484663,32.69822,-5.7288356,-22.299038,12.131449,-9.895507,5.3540745,19.690102,-30.443691,22.334503,-31.063095,-36.43323,-5.761603,-1.0245473
23,18.556285858154297,3.5220015048980713,70.73316955566406,8.99690061959621,-7.095348579157869,-2.6792308079752987,2.9712813,0.70681053,11.723435,42.678467,-35.07607,-8.969336,-22.016672,-19.649557,-17.250067,90.50358,-24.815271,-15.000033,-7.0185804,-4.3435364,19.697254,-1.7336265,32.187714,-5.649235,-23.107164,11.09999,-9.906733,5.7054477,20.454298,-30.816395,21.925758,-31.65392,-34.0926,-6.099063,-2.456735
24,19.56165885925293,3.4921069145202637,70.935302734375,8.62171778464048,-6.6525193964248235,-3.446128189966465,4.368401,1.1679516,12.337425,41.116234,-34.806534,-9.214326,-23.284458,-18.092108,-17.674887,87.88875,-24.88886,-14.216439,-7.6152916,-4.09883,19.365723,-3.07205,31.682682,-5.6421323,-23.873178,10.307606,-9.898761,6.0470514,21.20324,-31.182104,21.561008,-32.219837,-31.98188,-6.351169,-3.9224749
25,20.577150344848633,3.4549460411071777,71.1622085571289,8.207700696930738,-6.193120325409005,-4.215365872561063,5.819719,1.5856191,12.901234,39.368687,-34.291798,-9.447406,-24.424583,-16.420025,-18.077637,84.95177,-24.715925,-13.496829,-8.20171,-3.7785323,19.019804,-4.3360105,31.202444,-5.7227035,-24.605831,9.823896,-9.84856,6.4136453,21.92863,-31.532276,21.260744,-32.75619,-30.109743,-6.469205,-5.497236
26,21.615774154663086,3.396695137023926,71.42034149169922,7.756661352982562,-5.708089403819458,-5.003023548499364,7.325929,1.9755613,13.447,37.421192,-33.551563,-9.690696,-25.433456,-14.658369,-18.53257,81.669205,-24.338772,-13.010061,-8.765101,-3.4010854,18.654253,-5.514865,30.749596,-5.869671,-25.341639,9.4987545,-9.763663,6.8279176,22.625916,-31.86151,21.026062,-33.266293,-28.375896,-6.5175953,-7.185135
27,22.666963577270508,3.31955623626709,71.70358276367188,7.2934280886338465,-5.1895447364979175,-5.784135437761947,8.792871,2.333607,13.9584055,35.428055,-32.584316,-9.979587,-26.290339,-12.873137,-19.030128,78.06661,-23.850895,-12.560105,-9.324455,-2.9957244,18.249292,-6.57841,30.32291,-6.0669947,-26.066957,9.265963,-9.678046,7.207345,23.312838,-32.162716,20.812939,-33.75522,-26.831034,-6.5400157,-8.836688
28,23.732730865478516,3.224700689315796,72.002197265625,6.843045324292587,-4.629157178578799,-6.533145216349628,10.126085,2.6580322,14.41345,33.54425,-31.385786,-10.345228,-26.973253,-11.127805,-19.565508,74.15691,-23.340021,-11.951762,-9.901196,-2.5904794,17.781044,-7.499029,29.918877,-6.300234,-26.757002,9.0619335,-9.625897,7.469065,24.120586,-32.424545,20.575863,-34.325634,-25.579275,-6.570119,-10.2971525
29,24.819320678710938,3.113351345062256,72.31466674804688,6.394106686126588,-3.9996948996151125,-7.240975772725661,11.290077,2.9644082,14.788612,31.78038,-29.951908,-10.81739,-27.47633,-9.406808,-20.172466,69.83211,-22.805538,-11.131588,-10.482766,-2.1688151,17.23606,-8.304123,29.538647,-6.587873,-27.394064,8.891704,-9.630969,7.5890994,24.586044,-32.65965,20.316944,-34.5822,-24.467045,-6.5526767,-11.565824
30,25.918540954589844,2.992504596710205,72.63538360595703,5.938748220017202,-3.314181729003021,-7.92251197492389,12.335017,3.2481382,15.085322,30.067924,-28.28708,-11.362212,-27.799454,-7.6684074,-20.836182,65.0833,-22.189362,-10.199565,-11.082302,-1.7244811,16.620258,-8.9735985,29.182951,-6.911708,-27.995657,8.781559,-9.669286,7.6095023,25.207932,-32.85836,20.069149,-34.966366,-23.685972,-6.470449,-12.713648
31,27.032493591308594,2.855590343475342,72.9592056274414,5.512423041600993,-2.6234881713426286,-8.58684816941304,13.295328,3.477694,15.316263,28.446798,-26.406303,-11.9149475,-27.930244,-5.939179,-21.477709,60.05925,-21.483927,-9.1888685,-11.675419,-1.2927274,15.988265,-9.501689,28.85092,-7.28208,-28.595634,8.705996,-9.70151,7.551345,25.780895,-33.013844,19.785955,-35.27213,-23.028622,-6.4050508,-13.690178
32,28.152191162109375,2.6987318992614746,73.2762680053711,5.15262300376534,-1.9778999070778895,-9.241952145073574,14.205703,3.624403,15.497313,26.961493,-24.327738,-12.41544,-27.862167,-4.258952,-22.015518,54.918995,-20.690048,-8.141003,-12.25093,-0.9135997,15.383542,-9.870476,28.539759,-7.7000237,-29.222921,8.640667,-9.689016,7.434465,26.379034,-33.108963,19.425352,-35.54003,-22.422459,-6.442775,-14.441264
33,29.28163719177246,2.5270211696624756,73.58802795410156,4.868796483586543,-1.37187021314956,-9.889804603131838,15.08799,3.6871185,15.665926,25.574724,-22.020895,-12.88886,-27.55745,-2.5640717,-22.391024,49.46793,-19.751963,-6.9095917,-12.814519,-0.5951854,14.800715,-10.071338,28.250195,-8.169293,-29.879894,8.590966,-9.6112585,7.2674837,27.029346,-33.13057,18.950665,-35.77858,-21.88961,-6.613338,-14.874788
34,30.429224014282227,2.33477783203125,73.88732147216797,4.6589222798657355,-0.7882647018440019,-10.51919879140766,15.928156,3.6624181,15.784909,24.268442,-19.487015,-13.355594,-26.997725,-0.87383455,-22.633907,43.625366,-18.65309,-5.5362067,-13.369361,-0.33647117,14.217882,-10.122969,27.985186,-8.699174,-30.545485,8.569115,-9.491845,7.0378838,27.701424,-33.07586,18.388767,-35.972073,-21.464819,-6.8603835,-15.039775
35,31.598159790039062,2.1217875480651855,74.16380310058594,4.545333028573178,-0.2591779453232277,-11.119595734391488,16.705542,3.5236907,15.76661,23.12033,-16.790129,-13.7527685,-26.224722,0.6522695,-22.808174,37.76037,-17.469698,-4.3327065,-13.900241,-0.16468266,13.650642,-10.051984,27.74574,-9.296905,-31.21267,8.55972,-9.358729,6.7331357,28.359472,-32.94312,17.796387,-36.103016,-21.08807,-7.145892,-15.09372
36,32.783660888671875,1.8934290409088135,74.42011260986328,4.541658273822117,0.18797704731658188,-11.685724342520126,17.390116,3.259538,15.536665,22.224794,-13.995864,-14.023401,-25.326674,1.8724552,-23.00455,32.329758,-16.308428,-3.590101,-14.388581,-0.099222116,13.11169,-9.88428,27.531916,-9.9684105,-31.872612,8.54841,-9.239938,6.3405037,28.998526,-32.732784,17.23045,-36.18092,-20.716469,-7.4346604,-15.193325
37,33.97357940673828,1.6560763120651245,74.65031433105469,4.6430930383348175,0.5478339470251791,-12.230132304061803,18.033258,2.8723247,15.150069,21.497162,-10.947747,-14.254089,-24.313307,2.7831142,-23.323183,27.39199,-15.197328,-3.435989,-14.834294,-0.13068166,12.605748,-9.61086,27.347067,-10.71737,-32.536385,8.518626,-9.130558,5.8455415,29.612068,-32.43708,16.688505,-36.177456,-20.311691,-7.7356133,-15.3450775
38,35.174835205078125,1.4162695407867432,74.84854125976562,4.850960091274506,0.8394859845775557,-12.752880212070918,18.628344,2.3647816,14.625765,20.922558,-7.660696,-14.468119,-23.199278,3.4577343,-23.722155,22.818857,-14.123341,-3.6688747,-15.24951,-0.2621018,12.113279,-9.225995,27.195297,-11.537951,-33.196293,8.483451,-9.0194435,5.2577286,30.299137,-32.049908,16.152996,-36.1847,-19.951574,-8.061319,-15.475632
39,36.38034439086914,1.1745108366012573,75.0111083984375,5.1542365835925485,1.0818433332820112,-13.242546249922773,19.049421,1.7670165,13.873996,20.711514,-4.46312,-14.522822,-22.134533,3.887402,-24.105494,18.89188,-13.179628,-4.0892467,-15.599135,-0.4892455,11.629395,-8.786145,27.073643,-12.441112,-33.820065,8.470771,-8.92554,4.602458,30.758976,-31.593018,15.6467705,-35.979107,-19.574883,-8.383825,-15.624158
40,37.583919525146484,0.9336231350898743,75.1377182006836,5.516102490162796,1.2990827447925677,-13.692259211920685,19.161034,1.1371019,12.834161,21.093687,-1.6840723,-14.275002,-21.265068,4.072801,-24.375628,15.888741,-12.451732,-4.515554,-15.875508,-0.7818668,11.14008,-8.314963,26.97396,-13.405987,-34.37992,8.508504,-8.86963,3.9021466,31.120491,-31.092085,15.205189,-35.730225,-19.296032,-8.673443,-15.835211
41,38.78520584106445,0.6835167407989502,75.23045349121094,5.940645978604884,1.5053335046405856,-14.100764949006436,18.836893,0.38601258,11.246683,22.212008,0.75141853,-13.505625,-20.611937,3.9511597,-24.517323,13.896685,-12.062624,-4.818709,-16.08233,-1.1298445,10.624195,-7.8096848,26.89077,-14.4443245,-34.885025,8.582486,-8.857938,3.1319125,31.37146,-30.565823,14.829904,-35.419453,-19.116678,-8.933193,-16.151773
42,39.984737396240234,0.4272513687610626,75.28567504882812,6.375735370755872,1.7073683481773136,-14.479049248047673,18.165154,-0.44670597,9.293066,23.917301,3.0126061,-12.4047165,-20.153196,3.589137,-24.61297,12.811879,-11.962863,-5.137106,-16.221598,-1.4716151,10.096657,-7.2707605,26.82015,-15.55763,-35.338913,8.684753,-8.881214,2.289307,31.476454,-30.022245,14.498705,-34.99691,-18.984545,-9.173465,-16.545729
43,41.182918548583984,0.18777161836624146,75.30901336669922,6.700391482104339,1.9136231521762426,-14.840912500528347,17.330223,-1.0964575,7.5465126,26.002832,4.87267,-11.394594,-19.94346,3.1693647,-24.693184,12.6040535,-11.976856,-5.7159214,-16.274656,-1.7000192,9.607346,-6.7274623,26.752787,-16.712496,-35.70272,8.852749,-8.938585,1.4307578,31.448635,-29.4745,14.2078085,-34.514763,-18.897362,-9.375398,-16.95628
44,42.375213623046875,-0.03670799359679222,75.29834747314453,6.811373235928511,2.123654291314055,-15.20518024538738,16.503178,-1.2693907,6.5305114,28.2944,6.031295,-10.839161,-20.022018,2.8580258,-24.778408,13.249836,-11.932215,-6.8072724,-16.218,-1.7269881,9.210704,-6.1988635,26.676716,-17.870308,-35.951546,9.124033,-9.030775,0.61136633,31.258066,-28.941105,13.953995,-33.98804,-18.833628,-9.519852,-17.324102
45,43.54192352294922,-0.26163268089294434,75.24617767333984,6.678144277559453,2.356215991802749,-15.547934428301001,15.687641,-0.8670348,6.2862725,30.827684,6.245384,-10.890695,-20.501108,2.6316202,-24.905209,14.997858,-11.534407,-8.768644,-16.06393,-1.5065573,8.888485,-5.6810603,26.58354,-19.061928,-36.099964,9.496671,-9.173469,-0.15426798,30.915627,-28.439623,13.729329,-33.43558,-18.767136,-9.608519,-17.645775
46,44.66144943237305,-0.5032445192337036,75.15538787841797,6.430180699872768,2.582556135849019,-15.855441492463163,14.847372,-0.09185456,6.509215,33.62769,5.727169,-11.255708,-21.27644,2.3329766,-25.079523,17.723227,-10.898484,-11.359383,-15.837853,-1.1663694,8.616347,-5.1675005,26.47052,-20.291325,-36.15163,9.954137,-9.364254,-0.89912564,30.447643,-27.9752,13.53298,-32.858982,-18.707855,-9.646546,-17.954418
47,45.79429244995117,-0.7355437874794006,74.99119567871094,6.179827300084438,2.7341562923303315,-16.170581525541873,14.049389,0.973583,7.1972184,36.601913,4.8002534,-11.605066,-22.056944,1.9843305,-25.238365,20.823244,-10.463656,-13.935025,-15.528931,-0.8576915,8.44732,-4.6537933,26.336206,-21.472221,-36.071247,10.515323,-9.578125,-1.6385599,29.845558,-27.546474,13.377159,-32.252598,-18.693628,-9.620343,-18.244122
48,46.932708740234375,-0.9430207014083862,74.7671890258789,6.039116399942992,2.7264088691785773,-16.48171651147007,13.3824,2.232573,8.312332,39.622013,3.8107963,-11.597339,-22.625965,1.4739623,-25.245663,23.985271,-10.850035,-15.000033,-15.181987,-0.72009516,8.4513445,-4.127339,26.178192,-22.51094,-35.83188,11.199475,-9.792058,-2.3845935,29.07432,-27.15233,13.277596,-31.58713,-18.763163,-9.517301,-18.508469
49,47.99569320678711,-1.1751288175582886,74.5228500366211,5.890477401698146,2.6060858365925887,-16.835931896102963,12.783738,4.0019016,10.134713,42.905594,2.6064277,-11.263966,-23.010817,1.1194748,-25.013288,27.055933,-12.325297,-15.000033,-14.721745,-0.6348034,8.634418,-3.6135588,25.997887,-23.39714,-35.440407,12.027688,-10.02729,-3.2134447,28.121222,-26.789457,13.213828,-30.867352,-18.9237,-9.331459,-18.734575
50,49.0222053527832,-1.3976120948791504,74.24726104736328,5.623941452884599,2.4250625658256446,-17.27782932875171,12.251083,6.416,12.594551,46.548283,0.9958048,-10.740007,-23.317137,1.1185039,-24.640554,30.107868,-14.470114,-15.000033,-14.102587,-0.47610795,8.965938,-3.0943284,25.79625,-24.167679,-34.92064,12.983187,-10.2933,-4.091384,27.00037,-26.458315,13.187256,-30.101274,-19.156893,-9.069922,-18.92968
51,50.02375411987305,-1.617055892944336,73.94481658935547,5.254985754412129,2.1470991394530086,-17.86463403290622,11.881268,9.176826,15.196779,50.319233,-0.7999286,-9.909501,-23.42532,1.4339207,-24.194849,32.95004,-16.784544,-15.000033,-13.342023,-0.26343176,9.459006,-2.4851718,25.569597,-24.795843,-34.27148,14.031973,-10.546151,-4.868176,25.701197,-26.168098,13.249668,-29.25162,-19.455856,-8.738409,-19.117748
52,51.022483825683594,-1.8264895677566528,73.64260864257812,4.825578146443921,1.729558916251803,-18.642678886039484,11.716259,11.897032,17.46429,53.956234,-2.5332477,-8.679979,-23.16677,1.9774138,-23.720337,35.320824,-18.739487,-15.000033,-12.476454,-0.038403887,10.124452,-1.6924738,25.314365,-25.246027,-33.495808,15.14098,-10.735921,-5.397632,24.205101,-25.933945,13.465926,-28.278141,-19.810896,-8.340538,-19.32645
53,52.016456604003906,-2.0450868606567383,73.35852813720703,4.294037072155249,1.0540937526703769,-19.707093068950517,11.874462,14.532721,19.361294,57.436806,-4.18191,-6.9080467,-22.33817,2.8051643,-23.205513,37.09915,-20.212608,-15.000033,-11.461477,0.21859136,11.100757,-0.6419391,25.022676,-25.472998,-32.58239,16.291533,-10.8455515,-5.6421328,22.420778,-25.775808,13.913127,-27.077684,-20.232298,-7.858695,-19.642454
54,53.00199508666992,-2.293694496154785,73.0890884399414,3.6680234063299757,0.17245069339038036,-20.997301858514376,12.304118,17.203815,21.12352,60.851833,-5.8527274,-4.717432,-21.08321,3.892109,-22.616014,38.477234,-21.510332,-15.000033,-10.3269825,0.553945,12.327791,0.62879217,24.692684,-25.481398,-31.553009,17.504616,-10.896319,-5.683569,20.36318,-25.69146,14.571086,-25.694414,-20.705923,-7.2900887,-20.033863
55,53.96731948852539,-2.55810284614563,72.8331298828125,3.069081656524121,-0.7003907156633744,-22.326086427568836,12.704164,19.748165,22.687607,64.12851,-7.4751387,-2.4147782,-19.722763,5.007146,-21.957714,39.616158,-22.71721,-15.000033,-9.206793,0.9304843,13.52384,2.0350087,24.332867,-25.32895,-30.456495,18.809128,-10.8905945,-5.553526,18.194565,-25.648575,15.346494,-24.317171,-21.193422,-6.664637,-20.345858
56,54.92934036254883,-2.842630624771118,72.59616088867188,2.6049269689934382,-1.3409929435453969,-23.515107167201883,12.744787,22.043406,23.974253,67.21335,-8.995686,-0.29309615,-18.584658,5.940062,-21.260117,40.667614,-23.910583,-15.000033,-8.204727,1.276508,14.413841,3.47337,23.958368,-25.09742,-29.327414,20.234133,-10.829588,-5.28046,16.092474,-25.600792,16.11973,-23.140175,-21.668789,-6.019971,-20.414602
57,55.893959045410156,-3.1441192626953125,72.38400268554688,2.3045645554271146,-1.6659826061594627,-24.563809618585825,12.304709,24.0913,24.984478,70.12592,-10.40298,1.5950863,-17.770037,6.6521354,-20.501324,41.657677,-25.111078,-15.000033,-7.2998548,1.5290045,14.920401,4.9313183,23.574673,-24.81529,-28.089518,21.891197,-10.654174,-4.7640686,14.057499,-25.514896,16.873213,-22.15752,-22.139315,-5.3052335,-20.12428
58,56.86096954345703,-3.4146456718444824,72.20146942138672,2.1019204981868866,-1.7966809602869285,-25.557021654441964,11.516571,25.957968,25.739632,72.9008,-11.730053,3.4045591,-17.098906,7.245189,-19.68581,42.514587,-26.280529,-15.000033,-6.4204545,1.7069604,15.193958,6.4390335,23.181183,-24.472244,-26.736595,23.72522,-10.363722,-4.026284,12.025349,-25.380342,17.643814,-21.277533,-22.635338,-4.5321975,-19.572744
59,57.83088684082031,-3.6652355194091797,72.04955291748047,1.9536724361413462,-1.8122711591659988,-26.448041961206197,10.410201,27.634146,26.17894,75.51191,-12.994046,5.157309,-16.48648,7.7356167,-18.897743,43.240936,-27.40856,-15.000033,-5.5872707,1.8463174,15.304544,7.9536576,22.789156,-24.094183,-25.407864,25.518482,-10.058404,-3.2732847,10.0742235,-25.196638,18.38206,-20.564123,-23.170528,-3.8344922,-18.914982
60,58.79537582397461,-3.9042916297912598,71.9103775024414,1.8200480134637542,-1.7925215394060665,-27.188563572369517,9.011368,29.099142,26.24127,77.927864,-14.203129,6.869018,-15.84911,8.137775,-18.218124,43.83668,-28.482512,-15.000033,-4.821414,1.9895053,15.322214,9.435737,22.418028,-23.706074,-24.247377,27.060171,-9.853916,-2.7004263,8.286854,-24.972574,19.033125,-20.087631,-23.751572,-3.343369,-18.30671
61,59.760833740234375,-4.144598007202148,71.78570556640625,1.6969669747657756,-1.716580297714201,-27.72834854082359,7.174587,30.333496,25.820824,80.214264,-15.324131,8.618812,-15.218251,8.416845,-17.703476,44.324585,-29.530563,-15.000033,-4.1583033,2.1432116,15.220205,10.893547,22.080975,-23.290993,-23.291307,28.429703,-9.80029,-2.379368,6.6970253,-24.713127,19.557756,-19.899874,-24.439934,-3.1231143,-17.726068
62,60.717437744140625,-4.402790069580078,71.68134307861328,1.6030165909040226,-1.553602437424305,-28.106114382207274,4.8960776,31.320248,24.976303,82.358284,-16.345959,10.373,-14.6231985,8.575829,-17.299467,44.694405,-30.547766,-15.000033,-3.5767093,2.2777805,14.979132,12.357906,21.783533,-22.844587,-22.479422,29.69544,-9.83786,-2.1897144,5.257318,-24.424623,19.98821,-19.954716,-25.210508,-3.0975509,-17.113853
63,61.67389678955078,-4.670373439788818,71.61481475830078,1.5297610370756844,-1.3701415615614714,-28.402108584020464,2.418257,32.04903,23.896189,84.22532,-17.30763,11.968544,-13.979305,8.686164,-16.92494,44.899746,-31.47308,-15.000033,-3.024726,2.3932774,14.681392,13.829974,21.535315,-22.399355,-21.833246,30.632986,-9.92697,-2.0359793,3.9146984,-24.124928,20.385546,-20.170383,-25.930765,-3.1796176,-16.572214
64,62.612247467041016,-4.932373523712158,71.58049011230469,1.4676158013224965,-1.2330626412659238,-28.694649303006425,-0.0039813453,32.52895,22.77412,85.69012,-18.250662,13.236858,-13.201123,8.817741,-16.499935,44.896446,-32.247482,-15.000033,-2.452602,2.494771,14.412682,15.311898,21.346645,-21.983355,-21.38028,31.014624,-10.025687,-1.8250693,2.6241808,-23.836058,20.811096,-20.476166,-26.46563,-3.2764993,-16.2032
65,63.5378303527832,-5.195420742034912,71.57681274414062,1.398196007897301,-1.1614128851249104,-28.982138937858895,-2.356871,32.77213,21.609053,86.7511,-19.207342,14.166491,-12.259393,9.003039,-16.007341,44.651173,-32.854958,-15.000033,-1.8620721,2.603584,14.195653,16.80899,21.22683,-21.596684,-21.162823,30.660393,-10.153328,-1.5505476,1.3745288,-23.576654,21.298433,-20.896011,-26.74407,-3.3772016,-16.101566
66,64.47471618652344,-5.463240623474121,71.62051391601562,1.3314516887531567,-1.1196060826450478,-29.229312914639486,-4.738669,32.7658,20.344044,87.47216,-20.13584,14.832848,-11.199112,9.196822,-15.486789,44.193775,-33.32794,-15.000033,-1.2816553,2.7152932,13.993638,18.332144,21.175692,-21.217085,-21.178457,29.725145,-10.328043,-1.2598033,0.19850636,-23.350632,21.814156,-21.474972,-26.84154,-3.5191884,-16.19614
67,65.4173812866211,-5.753420352935791,71.70429992675781,1.295299173299366,-1.0945212803441882,-29.46510817841263,-7.0593085,32.484615,19.033623,87.82153,-20.963243,15.000033,-10.040283,9.359976,-14.943779,43.56493,-33.6745,-15.000033,-0.6968698,2.7987638,13.802052,19.885515,21.183874,-20.840172,-21.376665,28.486277,-10.505468,-0.9406489,-0.8755615,-23.152332,22.314726,-22.17824,-26.845808,-3.682081,-16.335415
68,66.36412048339844,-6.051263809204102,71.82258605957031,1.3250443205526783,-1.0701686603835554,-29.714273440366775,-9.1996765,31.987167,17.904684,87.76945,-21.629648,15.000033,-8.809184,9.438882,-14.384332,42.807884,-33.90103,-15.000033,-0.09085314,2.8217587,13.61428,21.465223,21.23747,-20.463226,-21.69789,27.22285,-10.63971,-0.57767206,-1.8238401,-22.970818,22.754438,-22.962603,-26.846642,-3.8468392,-16.366371
69,67.31815338134766,-6.36077356338501,71.97433471679688,1.43530348124416,-1.0547903985238143,-29.99640035310632,-11.114111,31.254889,16.996683,87.287506,-22.138466,14.808495,-7.473688,9.420835,-13.797699,41.887432,-34.024605,-15.000033,0.5567631,2.7665095,13.439557,23.085537,21.332226,-20.0948,-22.141876,25.844946,-10.726855,-0.13716176,-2.6396794,-22.799803,23.128828,-23.846907,-26.82279,-4.0092673,-16.253902
70,68.27998352050781,-6.688441276550293,72.15869903564453,1.5998401417860038,-1.054705062124848,-30.296324457391915,-12.85246,30.272455,16.142103,86.39771,-22.523365,14.040755,-6.0257955,9.3182335,-13.200428,40.79565,-34.037273,-14.889885,1.2341162,2.6563284,13.280261,24.737083,21.468727,-19.730087,-22.726158,24.260542,-10.795703,0.3616838,-3.3399959,-22.639936,23.458939,-24.836945,-26.744358,-4.1800427,-16.075603
71,69.25829315185547,-7.014482498168945,72.36628723144531,1.8005736072459049,-1.0479222902072187,-30.58223526202706,-14.434231,29.1561,15.402936,85.14336,-22.774607,13.051365,-4.5390916,9.095005,-12.647475,39.627697,-33.908768,-14.479958,1.911276,2.5173643,13.116241,26.378069,21.637857,-19.3475,-23.404911,22.749237,-10.842742,0.8586562,-3.9380393,-22.4926,23.738647,-25.867893,-26.691313,-4.36287,-15.846856
72,70.2510986328125,-7.348372936248779,72.59630584716797,2.0567103065416363,-1.0192760270585817,-30.80679061009098,-15.877766,27.936255,14.794025,83.54772,-22.864494,11.992709,-3.1052792,8.746825,-12.156821,38.510605,-33.637398,-14.034752,2.5386891,2.3337572,12.932209,27.960796,21.823267,-18.930475,-24.12321,21.593737,-10.857168,1.2946047,-4.449701,-22.360302,23.960764,-26.866417,-26.744257,-4.5622053,-15.583163
73,71.24193572998047,-7.674458026885986,72.84849548339844,2.3381229329522877,-0.9507346624402992,-30.98117159590007,-17.209389,26.645844,14.302405,81.599174,-22.750715,10.795175,-1.7230031,8.326449,-11.710435,37.386234,-33.19544,-13.577134,3.1234863,2.1412234,12.709922,29.488207,22.012764,-18.46338,-24.88723,20.907515,-10.815926,1.6598322,-4.8842916,-22.246212,24.118269,-27.829403,-26.973806,-4.7828894,-15.257113
74,72.24825286865234,-8.020048141479492,73.12159729003906,2.64329531922906,-0.8551458589123015,-31.123817020192085,-18.407402,25.267141,13.914652,79.281746,-22.459557,9.411385,-0.3584256,7.8503747,-11.292591,36.21492,-32.592476,-13.110788,3.682484,1.9391828,12.462868,30.97632,22.202927,-17.957071,-25.710394,20.53054,-10.725629,1.9833919,-5.2373314,-22.152191,24.219635,-28.785599,-27.320318,-5.0227766,-14.871949
75,73.2608413696289,-8.378585815429688,73.4183120727539,2.9651603758470784,-0.7536184777157355,-31.228786107437234,-19.439436,23.83121,13.61185,76.62686,-22.075825,7.987471,0.96905845,7.3247337,-10.921176,35.074833,-31.830702,-12.614492,4.2136817,1.7282017,12.208338,32.395885,22.391346,-17.43541,-26.541561,20.33807,-10.616185,2.2642322,-5.5040593,-22.078857,24.280764,-29.715754,-27.668724,-5.2749553,-14.487988
76,74.27249908447266,-8.733537673950195,73.72731018066406,3.297947667184336,-0.6670530503491579,-31.29039621834962,-20.273859,22.367723,13.377691,73.663704,-21.679417,6.6690116,2.241622,6.7565813,-10.612056,34.04163,-30.910563,-12.067629,4.7148056,1.5085405,11.963433,33.71542,22.576727,-16.920122,-27.329134,20.204468,-10.519193,2.500588,-5.6822166,-22.026657,24.317568,-30.59301,-27.904099,-5.530392,-14.164015
77,75.28060150146484,-9.100497245788574,74.04283142089844,3.653916359914751,-0.5983780819906153,-31.287163583208482,-20.904924,20.859674,13.227452,70.34447,-21.284464,5.4990396,3.4701958,6.1411886,-10.355635,33.099144,-29.814535,-11.437729,5.177023,1.2691686,11.730316,34.91722,22.76334,-16.402082,-28.070545,20.202003,-10.433037,2.67326,-5.76769,-22.00008,24.31445,-31.414795,-28.026636,-5.803891,-13.907206
78,76.30077362060547,-9.46971321105957,74.36370086669922,4.0319372811669405,-0.5383847830721817,-31.228815808531305,-21.34056,19.29165,13.155886,66.653885,-20.84135,4.3914213,4.658533,5.4841695,-10.139497,32.219048,-28.547455,-10.748587,5.6053247,1.0137223,11.503207,36.021725,22.953077,-15.871667,-28.7932,20.362436,-10.342741,2.789258,-5.759493,-22.001577,24.265738,-32.20041,-28.086552,-6.0932226,-13.688392
79,77.34977722167969,-9.860225677490234,74.69697570800781,4.405537179768659,-0.4892136764402807,-31.15612085098162,-21.57505,17.699179,13.114062,62.67218,-20.3364,3.300339,5.780181,4.8085704,-9.974193,31.459297,-27.144108,-10.063781,6.017012,0.76508427,11.284305,37.054592,23.137997,-15.350406,-29.488585,20.503376,-10.261641,2.8861132,-5.661042,-22.024544,24.204428,-32.956062,-28.04748,-6.362285,-13.510301
80,78.39972686767578,-10.2376708984375,75.02546691894531,4.747131772726293,-0.45267739209526725,-31.11014035419971,-21.607933,16.126545,13.048946,58.4789,-19.759548,2.1863415,6.810917,4.1368556,-9.872509,30.878279,-25.640896,-9.444708,6.4249606,0.547212,11.072658,38.038525,23.303583,-14.858231,-30.140284,20.444578,-10.204019,3.0004141,-5.485002,-22.056541,24.170637,-33.67843,-27.875803,-6.5753064,-13.3740835
81,79.4621810913086,-10.620843887329102,75.34522247314453,5.072519986911038,-0.4385824645488797,-31.087718324888968,-21.400017,14.545154,12.967947,53.95735,-19.099573,1.096454,7.7847085,3.4526014,-9.836903,30.448322,-24.014208,-8.867173,6.8282833,0.34783062,10.877723,38.96374,23.439281,-14.387505,-30.733387,20.156101,-10.186274,3.1191044,-5.235313,-22.088966,24.165977,-34.351948,-27.508083,-6.732739,-13.290839
82,80.52291870117188,-11.006342887878418,75.6506118774414,5.388208119499412,-0.4433099271541478,-31.073470177969178,-20.953209,12.949852,12.87815,49.075752,-18.350704,0.03791054,8.710527,2.757288,-9.853357,30.143755,-22.252645,-8.308585,7.214059,0.16115588,10.693708,39.822777,23.543156,-13.925278,-31.273586,19.732826,-10.19843,3.227253,-4.9211683,-22.119164,24.18327,-34.967003,-26.984781,-6.8507094,-13.253583
83,81.59870147705078,-11.414423942565918,75.9434585571289,5.654873488425393,-0.4473787821860382,-31.0904718607503,-20.32919,11.422655,12.731919,44.029613,-17.513432,-1.0819687,9.531197,2.0961275,-9.91283,30.016375,-20.402014,-7.829045,7.590913,0.033044357,10.485686,40.58156,23.58707,-13.529676,-31.711283,19.201595,-10.212002,3.3645616,-4.573105,-22.13531,24.232155,-35.48878,-26.428907,-6.9210134,-13.225695
84,82.68489837646484,-11.826294898986816,76.21936798095703,5.832451414934111,-0.42999791005095284,-31.162540079978033,-19.593002,10.048867,12.487894,39.015503,-16.586748,-2.35478,10.191871,1.5132613,-10.008968,30.109238,-18.505835,-7.488432,7.925705,-0.036272086,10.249857,41.385788,23.615866,-13.117365,-32.19231,18.530273,-10.211521,3.5515006,-4.2049937,-22.14442,24.37155,-35.966118,-25.953268,-6.9231477,-13.205856
85,83.77400207519531,-12.248286247253418,76.46916961669922,5.888053200859636,-0.3828379072786656,-31.30401371997137,-18.684956,8.862147,12.144582,33.84615,-15.510928,-3.923085,10.704182,1.0500361,-10.158647,30.374393,-16.501265,-7.3055844,8.256474,-0.0016214993,9.95714,42.193687,23.615698,-12.735444,-32.65634,17.692999,-10.17831,3.7978988,-3.8091135,-22.136234,24.587631,-36.369762,-25.562773,-6.8275485,-13.198463
86,84.86727142333984,-12.674652099609375,76.68643188476562,5.825173858380301,-0.32108031807188103,-31.507616456585914,-17.554491,7.845838,11.714217,28.398035,-14.259928,-5.6963696,11.110166,0.7032387,-10.359221,30.770325,-14.364878,-7.242585,8.5811,0.1369293,9.621361,42.99927,23.580576,-12.37554,-33.102562,16.705242,-10.130921,4.0879087,-3.3878849,-22.107338,24.87386,-36.692253,-25.206182,-6.6517615,-13.207324
87,85.95274353027344,-13.108081817626953,76.86336517333984,5.655666952118022,-0.2594030402488786,-31.7633068281938,-16.313473,7.0208516,11.180109,23.036953,-12.917265,-7.4229007,11.397369,0.44998392,-10.580481,31.35323,-12.193383,-7.2771826,8.820298,0.359371,9.260868,43.824028,23.472776,-11.995027,-33.55687,15.647695,-10.097647,4.420079,-3.0388262,-22.033266,25.296106,-36.878017,-24.930319,-6.453855,-13.199918
88,87.0267333984375,-13.539457321166992,77.00264739990234,5.408087896231535,-0.20804226804452094,-32.05421530390497,-15.13303,6.396891,10.532057,18.25265,-11.625064,-8.8509245,11.542576,0.24562831,-10.797643,32.195404,-10.092926,-7.388671,9.016433,0.65673554,8.897154,44.53929,23.33159,-11.703549,-33.954655,14.619008,-10.08941,4.8334084,-2.7033277,-21.948195,25.752449,-36.983913,-24.767677,-6.304245,-13.119713
89,88.109375,-13.985986709594727,77.10511016845703,5.102790346006516,-0.14084457732459943,-32.374426282516474,-14.122435,5.966846,9.741837,14.226256,-10.433137,-9.896729,11.498383,0.060521964,-11.013269,33.340233,-8.087531,-7.5913486,9.1469755,0.99464166,8.504848,45.206944,23.160736,-11.460247,-34.335953,13.5745535,-10.114578,5.3396053,-2.385039,-21.858784,26.270464,-37.01777,-24.714262,-6.2099967,-12.966281
90,89.19364166259766,-14.423894882202148,77.17381286621094,4.754990104646957,-0.05551295332578203,-32.72187709032377,-13.228772,5.6994505,8.843439,10.7794895,-9.309658,-10.69845,11.273338,-0.12399008,-11.256991,34.766632,-6.129631,-7.882178,9.2170315,1.3580737,8.084372,45.830585,22.960604,-11.259207,-34.696514,12.487577,-10.16694,5.924614,-2.0756962,-21.764906,26.85254,-36.980194,-24.751888,-6.1396794,-12.763074
91,90.26797485351562,-14.856308937072754,77.19866943359375,4.4313005165631605,0.009455277392249157,-33.07424853451849,-12.384651,5.506226,7.933815,7.8539333,-8.276983,-11.331723,10.907495,-0.3923851,-11.547635,36.48563,-4.2486687,-8.215844,9.201384,1.6883383,7.704546,46.340446,22.747498,-11.112297,-35.01675,11.443186,-10.248397,6.5576425,-1.7897627,-21.669203,27.49213,-36.881615,-24.898182,-6.0905194,-12.5266905
92,91.33049011230469,-15.290891647338867,77.17504119873047,4.189854789718615,0.01574552695177387,-33.41034563318956,-12.388526,5.4094505,7.0199428,7.2347894,-8.321197,-11.870254,10.442717,-0.8203123,-11.89709,38.50937,-2.4759748,-8.555692,9.081936,1.9352983,7.4336967,46.67443,22.54793,-11.034449,-35.288177,10.526565,-10.356949,7.2110324,-1.5322561,-21.576967,28.17366,-36.741093,-25.168945,-6.060209,-12.273444
93,92.38334655761719,-15.71765422821045,77.10820770263672,4.034625520920787,-0.03903191052992757,-33.73066968650745,-12.414258,5.269366,6.1978197,7.1892943,-8.65527,-12.359261,9.848269,-1.4197145,-12.283957,40.9211,-0.8201797,-8.944106,8.863568,2.092457,7.275803,46.840733,22.379873,-11.042278,-35.530582,9.727097,-10.497991,7.937971,-1.2874159,-21.489826,28.885633,-36.57819,-25.616306,-6.051557,-11.974761
94,93.41943359375,-16.143320083618164,76.99356842041016,3.9740011035754383,-0.13160062567415776,-34.034716279286755,-12.253359,5.043093,5.4579434,7.2023325,-8.940504,-12.753583,9.108379,-2.211132,-12.707105,43.70743,0.72125256,-9.399231,8.5613985,2.144988,7.1997805,46.857265,22.25467,-11.130761,-35.744015,9.004704,-10.668819,8.740356,-1.0359454,-21.410007,29.61921,-36.397015,-26.21428,-6.067951,-11.63518
95,94.44287109375,-16.57356071472168,76.8233871459961,4.050104696799819,-0.26465945962033777,-34.30581066396335,-11.925401,4.6777062,4.8089614,7.2553644,-8.9193735,-13.005644,8.297948,-3.2561176,-13.196977,46.72504,2.138491,-9.859124,8.175296,2.0545578,7.221269,46.667675,22.185886,-11.280182,-35.87485,8.3952675,-10.850711,9.512477,-0.77790064,-21.344988,30.362135,-36.19469,-26.858528,-6.1063833,-11.32079
96,95.45021057128906,-16.978492736816406,76.64006042480469,4.29913305736174,-0.4428381819730683,-34.53071738613982,-11.448096,4.1277733,4.2562575,7.330449,-8.33288,-13.075867,7.4978695,-4.605572,-13.776612,49.830574,3.422682,-10.258988,7.6901445,1.7896082,7.352476,46.22695,22.167698,-11.461871,-35.868755,7.936295,-11.022671,10.144846,-0.53966933,-21.289383,31.127516,-35.938953,-27.44854,-6.1586995,-11.100316
97,96.43588256835938,-17.371782302856445,76.44610595703125,4.767434118898512,-0.6704253024259401,-34.70592639350881,-11.697649,3.3776755,3.709516,9.332923,-7.7276707,-12.918745,6.7103953,-6.330184,-14.422257,53.0569,4.6947317,-10.540607,7.1179757,1.3042929,7.6066427,45.48744,22.20624,-11.704739,-35.71148,7.6693287,-11.203537,10.622224,-0.31393278,-21.257927,31.907402,-35.668793,-27.953249,-6.22043,-11.00113
98,97.40538787841797,-17.758319854736328,76.19943237304688,5.391407681634342,-0.9556913749575263,-34.849798753037135,-12.218811,2.456009,3.2391875,12.31901,-6.856355,-12.618324,5.9337826,-8.361023,-15.101925,56.43553,5.926034,-10.778935,6.445218,0.6507159,7.952634,44.546467,22.328684,-12.005255,-35.473156,7.545397,-11.387376,11.0277195,-0.1458034,-21.216602,32.775154,-35.319954,-28.445732,-6.274904,-11.014502
99,98.36821746826172,-18.188539505004883,75.84678649902344,6.044549993439477,-1.3069237793122592,-34.98009670128102,-12.685497,1.510813,2.9357708,15.504556,-6.1285877,-12.2888365,5.231737,-10.546986,-15.840447,59.851353,6.8657823,-11.1050415,5.7403154,-0.034732975,8.395116,43.390747,22.518332,-12.349453,-35.123783,7.511536,-11.52244,11.321733,0.07160609,-21.19421,33.573418,-34.94383,-28.920156,-6.3603,-11.046172
100,99.31480407714844,-18.574918746948242,75.48933410644531,6.632223953601846,-1.7227848249615847,-35.10594960892417,-13.073249,0.682092,2.844961,18.74178,-6.2988915,-11.993872,4.64856,-12.778544,-16.674654,63.221928,7.240584,-11.641474,4.9983673,-0.6570899,8.91292,42.08189,22.766123,-12.691329,-34.669083,7.4952526,-11.556286,11.496355,0.35198152,-21.185677,34.29039,-34.493202,-29.398884,-6.483481,-11.058664
101,100.2428207397461,-18.9359188079834,75.10148620605469,7.148473730768508,-2.2003588830907588,-35.21429021626361,-13.528294,0.021303905,2.9980521,22.354435,-7.878697,-11.728532,4.2166023,-15.114199,-17.678137,66.60829,6.9539633,-12.344582,4.180142,-1.2185779,9.499163,40.6414,23.065016,-13.007496,-34.118443,7.4699545,-11.470258,11.474497,0.66261405,-21.18927,34.95726,-33.944817,-29.881916,-6.681794,-11.040375
102,101.14974975585938,-19.31785774230957,74.64968872070312,7.638752254432793,-2.7398159833786937,-35.30366422555766,-14.059378,-0.5346191,3.3373904,26.410177,-10.423348,-11.434385,3.9216518,-17.605028,-18.80876,70.05707,6.1214247,-13.181702,3.2863333,-1.7681681,10.157741,39.037224,23.41343,-13.33131,-33.45945,7.475633,-11.293757,11.285927,0.9955566,-21.204922,35.591652,-33.309402,-30.36413,-6.935657,-11.019668
103,102.04136657714844,-19.707172393798828,74.17561340332031,8.119938692856367,-3.3365723924994963,-35.39671791303997,-14.42872,-1.0516561,3.7668307,30.346546,-13.247969,-11.072072,3.7138746,-20.142673,-19.92333,73.46424,4.78429,-14.255812,2.3869498,-2.316499,10.888749,37.225693,23.809824,-13.709815,-32.649826,7.5459514,-11.047177,11.074898,1.4212878,-21.225576,36.123142,-32.61492,-30.854176,-7.1770053,-11.003614
104,102.94705963134766,-20.107322692871094,73.71086883544922,8.62043395256078,-3.9850984859310215,-35.515421070565594,-14.40152,-1.6184944,4.198337,33.603027,-15.6672735,-10.6008415,3.4492793,-22.413568,-20.593422,76.70131,3.021383,-15.000033,1.5602441,-2.87774,11.692388,35.156742,24.25324,-14.195625,-31.645401,7.7115946,-10.750481,10.9883795,2.009444,-21.241554,36.477055,-31.883287,-31.361446,-7.338729,-10.996975
105,103.85155487060547,-20.49088478088379,73.27680206298828,9.200698608557884,-4.73417524202135,-35.64760638322706,-13.865551,-2.3191636,4.624821,36.050312,-17.553171,-9.920468,3.0639129,-24.265924,-20.536295,79.79727,0.6449054,-15.000033,0.8266651,-3.4984367,12.627462,32.710236,24.753187,-14.851707,-30.31566,7.888659,-10.3894825,11.006374,2.8109422,-21.240953,36.60939,-31.065952,-31.90644,-7.4038973,-10.973005
106,104.73863983154297,-20.863571166992188,72.88906860351562,10.057908179160679,-5.64177457236576,-35.70935361747759,-12.802402,-3.3957756,5.0862727,37.742786,-19.122946,-9.021765,2.7149484,-26.147823,-20.106707,82.84105,-2.3356469,-15.000033,0.07596222,-4.4111276,13.733547,29.93318,25.308939,-15.665777,-28.7223,8.082331,-9.957371,11.076606,3.788094,-21.219389,36.553814,-30.17127,-32.47877,-7.4095364,-10.934709
107,105.60746002197266,-21.244953155517578,72.54695892333984,11.020599157521033,-6.573336422705789,-35.766839760255046,-11.452105,-4.6199546,5.5262547,38.892628,-20.477741,-8.104939,2.3134477,-27.969137,-19.506622,85.68121,-5.4201665,-15.000033,-0.6514974,-5.4623084,14.858512,27.023806,25.887487,-16.568077,-27.106983,8.45596,-9.486119,11.292735,4.867423,-21.181763,36.363014,-29.298897,-33.039993,-7.36952,-10.933587
108,106.4538345336914,-21.626630783081055,72.244140625,11.804230860898665,-7.354645270397397,-35.920167693629885,-10.133386,-5.600877,5.910632,39.839092,-21.791903,-7.399858,1.7204071,-29.540157,-18.958937,88.1639,-8.1210785,-15.000033,-1.3003789,-6.363654,15.832496,24.18946,26.438246,-17.45947,-25.703876,9.181683,-9.006447,11.73539,5.957048,-21.141,36.11011,-28.535263,-33.552433,-7.2957225,-11.022793
109,107.28692626953125,-22.040340423583984,71.98270416259766,12.353568979137439,-7.947847291798768,-36.17283955816495,-8.882561,-6.263158,6.245937,40.597137,-23.100126,-6.975715,0.8873933,-30.879648,-18.527422,90.280495,-10.292108,-15.000033,-1.9047055,-7.0436277,16.637709,21.401033,26.937613,-18.339436,-24.47959,10.493103,-8.458536,12.512232,7.012965,-21.105291,35.839207,-27.818598,-34.01438,-7.137956,-11.246143
110,108.12877655029297,-22.47189712524414,71.7527847290039,12.75219150737832,-8.422344106751696,-36.49396159568529,-7.5929227,-6.713797,6.552628,41.090385,-24.356974,-6.7271104,-0.14193344,-32.021923,-18.121557,92.10431,-12.199643,-15.000033,-2.4885697,-7.5757833,17.346476,18.59261,27.374931,-19.21925,-23.347984,12.238997,-7.8265905,13.526631,8.073819,-21.075117,35.531055,-27.122751,-34.4405,-6.903832,-11.567643
111,108.95087432861328,-22.926321029663086,71.54737854003906,13.041404668219098,-8.80499215728304,-36.883850707064354,-6.2684193,-7.0039415,6.856763,41.37356,-25.537754,-6.5884647,-1.3408092,-32.89187,-17.67575,93.632805,-13.992198,-15.000033,-3.050078,-8.008036,17.962337,15.9245205,27.721663,-19.991005,-22.453331,14.031157,-7.218677,14.55017,9.154145,-21.05514,35.178165,-26.57081,-34.816074,-6.6909275,-11.9209385
112,109.76923370361328,-23.399497985839844,71.36811065673828,13.264591417496463,-9.123175962288474,-37.34599608044283,-4.913966,-7.187781,7.183016,41.49835,-26.616024,-6.492605,-2.6842437,-33.407654,-17.127876,94.86089,-15.806983,-15.000033,-3.5964031,-8.386276,18.481472,13.551217,27.945297,-20.53978,-21.921156,15.4970255,-6.7710786,15.363535,10.258499,-21.05363,34.784817,-26.280602,-35.12821,-6.595847,-12.242096
113,110.57554626464844,-23.886016845703125,71.2177963256836,13.44444253618794,-9.383590157038881,-37.916117747854955,-3.4961789,-7.2853203,7.5714,41.44006,-27.596067,-6.438714,-4.2294025,-33.495804,-16.364105,95.81151,-17.73764,-15.000033,-4.1198854,-8.724023,18.89435,11.509801,28.023273,-20.81151,-21.771545,16.648329,-6.5480366,15.931165,11.391681,-21.080276,34.359394,-26.290182,-35.449043,-6.6485076,-12.513501
114,111.3703842163086,-24.39023780822754,71.11095428466797,13.551880655375895,-9.567759367141143,-38.58332636989151,-2.0259686,-7.266165,8.016207,41.182007,-28.486847,-6.4598994,-5.967699,-33.199398,-15.473547,96.48129,-19.671728,-15.000033,-4.6190643,-8.97956,19.19944,9.683392,27.96701,-20.879541,-21.88891,17.668785,-6.4817796,16.370445,12.55811,-21.141676,33.896767,-26.537945,-35.759636,-6.7950726,-12.770592
115,112.15239715576172,-24.91302490234375,71.05335235595703,13.554704901414958,-9.666634101339934,-39.283610127396365,-0.5693623,-7.1129103,8.472812,40.782173,-29.268284,-6.536679,-7.7608156,-32.626766,-14.710719,96.82398,-21.461344,-15.000033,-5.131236,-9.120898,19.399773,8.0082,27.78005,-20.795366,-22.190647,18.453165,-6.53265,16.691439,13.74107,-21.239927,33.40625,-26.980946,-35.914593,-7.0039353,-13.032534
116,112.90937805175781,-25.46756935119629,71.03988647460938,13.41998129387917,-9.671284363060543,-39.952800901447105,0.8058908,-6.8044953,8.898374,40.302677,-29.922152,-6.6508613,-9.4789715,-31.891798,-14.318443,96.7872,-22.957066,-15.000033,-5.6976686,-9.125658,19.501173,6.446534,27.483213,-20.59643,-22.623634,18.88785,-6.6605616,16.902729,14.907529,-21.361929,32.904053,-27.560642,-35.76908,-7.2447896,-13.317298
117,113.6440658569336,-26.046062469482422,71.06915283203125,13.125567477381615,-9.56476456797166,-40.58996594018592,2.0839846,-6.3122864,9.311139,39.734062,-30.467358,-6.789463,-11.141183,-30.982477,-14.344178,96.3426,-24.108225,-15.000033,-6.3097367,-8.983595,19.50116,5.0164027,27.079165,-20.244644,-23.241718,18.795286,-6.922068,16.982847,16.07408,-21.495794,32.395287,-28.326008,-35.21066,-7.538935,-13.652005
118,114.35972595214844,-26.6478328704834,71.13734436035156,12.701045487758114,-9.35836041512314,-41.22827513426329,3.300439,-5.665014,9.746703,39.0493,-30.903927,-6.964596,-12.794805,-29.853376,-14.66202,95.50744,-24.988293,-15.000033,-6.9442587,-8.717331,19.400703,3.7151635,26.569899,-19.737501,-24.042141,18.283113,-7.320266,16.938293,17.24813,-21.635092,31.870197,-29.281128,-34.341988,-7.897306,-14.014754
119,115.05945587158203,-27.266481399536133,71.2415542602539,12.186685518779944,-9.081141418907615,-41.85412996830515,4.4667926,-4.92682,10.1816845,38.282043,-31.185406,-7.1893396,-14.360228,-28.57578,-15.24068,94.29721,-25.640623,-15.000033,-7.605135,-8.349812,19.216219,2.4727852,25.97809,-19.180283,-24.9006,17.66397,-7.7308903,16.822287,18.405249,-21.776669,31.30229,-30.314936,-33.342712,-8.275366,-14.348355
120,115.76725006103516,-27.890857696533203,71.37983703613281,11.622244505644584,-8.764375233928485,-42.45220078620285,5.5922313,-4.157982,10.585096,37.47,-31.266184,-7.476937,-15.762718,-27.223541,-16.042973,92.73183,-26.113655,-15.000033,-8.290812,-7.903483,18.968979,1.2325511,25.33926,-18.679102,-25.70682,17.248316,-8.029569,16.693993,19.530275,-21.9185,30.655537,-31.330677,-32.39142,-8.626446,-14.597945
121,116.47542572021484,-28.53553581237793,71.55059814453125,10.993603315841463,-8.40215038250941,-43.01454619037821,6.686099,-3.3511462,10.950892,36.5819,-31.15979,-7.839954,-17.024569,-25.770794,-17.053177,90.79586,-26.387775,-15.000033,-9.005333,-7.3679037,18.657866,0.016220547,24.672522,-18.216017,-26.515558,17.088177,-8.1677685,16.546394,20.633852,-22.057644,29.898113,-32.357117,-31.48241,-8.957399,-14.70589
122,117.18561553955078,-29.192256927490234,71.74797821044922,10.298832869953896,-7.985785431457139,-43.550630215836016,7.7429485,-2.4985619,11.29527,35.60558,-30.874342,-8.265085,-18.178835,-24.199017,-18.255692,88.46925,-26.450232,-15.000033,-9.7403965,-6.7505608,18.28621,-1.1387706,23.983017,-17.743885,-27.388737,17.021624,-8.2150545,16.362381,21.73139,-22.188906,29.04848,-33.44348,-30.535831,-9.284702,-14.715051
123,117.89537811279297,-29.878604888916016,71.97608184814453,9.586534985797016,-7.5384853523128195,-44.069977430857456,8.748988,-1.650581,11.609601,34.60883,-30.369064,-8.726811,-19.170172,-22.584347,-19.615362,85.767914,-26.362188,-15.000033,-10.476719,-6.094869,17.882864,-2.2459836,23.289383,-17.31981,-28.243422,17.03676,-8.225625,16.188076,22.812502,-22.30579,28.147146,-34.518234,-29.619114,-9.57623,-14.725976
124,118.60307312011719,-30.59306526184082,72.24042510986328,8.900486294313465,-7.082941106145865,-44.581992163068705,9.686303,-0.84825706,11.87989,33.66819,-29.606058,-9.197389,-19.942873,-20.99225,-21.106451,82.70836,-26.184223,-15.000033,-11.189493,-5.4410353,17.474617,-3.3162858,22.616896,-17.007906,-29.002033,17.119282,-8.252299,16.071884,23.864218,-22.4008,27.22955,-35.510147,-28.801973,-9.804295,-14.838459
125,119.31219482421875,-31.332481384277344,72.5335922241211,8.221966571582495,-6.6243514146154405,-45.07071135039089,10.5514965,-0.0719845,12.071488,32.799236,-28.579103,-9.682916,-20.464643,-19.410301,-22.773802,79.23439,-25.895306,-15.000033,-11.895061,-4.7816124,17.078892,-4.3475003,21.984112,-16.80666,-29.679346,17.290243,-8.302426,16.047546,24.87648,-22.466867,26.283762,-36.418705,-28.16865,-9.942606,-15.099208
126,120.02129364013672,-32.08488845825195,72.8512191772461,7.538080660343849,-6.150113162716746,-45.538025240572544,11.34975,0.68869346,12.1879015,31.966759,-27.310701,-10.18797,-20.782978,-17.783632,-24.585081,75.3367,-25.46913,-15.000033,-12.598109,-4.1075306,16.682428,-5.3056226,21.395973,-16.682762,-30.337582,17.542103,-8.347928,16.087368,25.849096,-22.499098,25.301954,-37.268463,-27.662157,-10.015343,-15.449619
127,120.72554016113281,-32.85672378540039,73.18280029296875,6.895456612585954,-5.65379102253836,-46.019640999237865,12.073545,1.387109,12.269067,31.179167,-25.812876,-10.684265,-20.96232,-16.108395,-26.40882,71.10329,-24.9507,-15.000033,-13.257016,-3.451604,16.261215,-6.15755,20.855236,-16.65269,-30.968483,17.81466,-8.388133,16.146744,26.780628,-22.49401,24.326765,-38.026176,-27.141668,-10.072485,-15.831572
128,121.4453353881836,-33.63759231567383,73.52657318115234,6.471743744452866,-5.2168175343857826,-46.41961569346476,12.855372,1.7705523,12.22808,30.257957,-23.99143,-11.092452,-20.988016,-14.632228,-28.013622,66.72664,-24.456411,-14.421343,-13.962482,-2.9994242,15.824477,-6.875919,20.362492,-16.73545,-31.552504,18.048777,-8.422971,16.180899,27.668633,-22.448988,23.398928,-38.658005,-26.46839,-10.164684,-16.18489
129,122.18367004394531,-34.44102478027344,73.88084411621094,6.1502964184786215,-4.741454855996647,-46.85162318139462,13.567524,2.0160751,12.166154,29.351334,-21.914305,-11.453686,-20.911133,-13.184138,-29.448656,62.036427,-23.960638,-13.045178,-14.602872,-2.605068,15.316244,-7.454281,19.922195,-16.953745,-32.08034,18.236866,-8.459226,16.256777,28.493586,-22.36442,22.518147,-39.139587,-25.533657,-10.310783,-16.49606
130,122.9190673828125,-35.267822265625,74.23684692382812,5.883759286381962,-4.222659406655516,-47.319048721213605,14.184078,2.1935637,12.077352,28.507143,-19.609377,-11.803573,-20.702435,-11.70246,-30.907612,56.96461,-23.408615,-11.644961,-15.177974,-2.2339365,14.7495165,-7.9017525,19.536707,-17.292809,-32.567543,18.406452,-8.493908,16.372694,29.253948,-22.240969,21.665924,-39.490227,-24.436726,-10.484695,-16.792742
131,123.66151428222656,-36.114013671875,74.58301544189453,5.676345352284935,-3.707060560861711,-47.812735392462244,14.746968,2.3029022,11.965976,27.72816,-17.120533,-12.150482,-20.358454,-10.196084,-32.323765,51.68624,-22.726711,-10.219248,-15.675832,-1.9001831,14.162427,-8.21564,19.199945,-17.71249,-33.036186,18.551731,-8.514314,16.379059,29.968355,-22.075493,20.857765,-39.733612,-23.350124,-10.668126,-17.0791
132,124.39598083496094,-36.98536682128906,74.91363525390625,5.533117107758432,-3.2420149999256314,-48.322505819923386,15.294179,2.3442335,11.837533,27.02605,-14.493365,-12.50401,-19.878569,-8.692337,-33.630558,46.394962,-21.856552,-8.774715,-16.085812,-1.6204603,13.591177,-8.395578,18.901627,-18.172203,-33.50559,18.670082,-8.509036,16.124407,30.64901,-21.86349,20.109911,-39.885853,-22.445988,-10.841247,-17.360918
133,125.13433837890625,-37.876216888427734,75.2276382446289,5.454651035285721,-2.8373943790478227,-48.86198018835796,15.891624,2.3206036,11.756462,26.300312,-11.634933,-12.951449,-19.188183,-7.122128,-34.84719,40.892097,-20.678358,-7.2104697,-16.403646,-1.3951942,13.039818,-8.428839,18.638124,-18.68947,-33.97447,18.729895,-8.464657,15.596572,31.310095,-21.600767,19.42863,-39.93972,-21.738522,-10.999075,-17.654905
134,125.87946319580078,-38.78067398071289,75.51644134521484,5.459254616653634,-2.4725456952368106,-49.42421436673026,16.510082,2.200923,11.679384,25.558767,-8.545071,-13.472268,-18.289062,-5.50156,-35.972713,35.075436,-19.227587,-5.568853,-16.639282,-1.2426184,12.483221,-8.330209,18.411171,-19.281788,-34.422386,18.746698,-8.391093,14.863869,31.939035,-21.288736,18.801815,-39.887928,-21.149101,-11.150887,-17.951967
135,126.62432098388672,-39.70016860961914,75.76980590820312,5.578975389478203,-2.1473830229855904,-49.96870693186936,17.054579,1.9363459,11.464334,24.95353,-5.387261,-13.912544,-17.303375,-4.0075665,-36.922066,29.344872,-17.703083,-4.07193,-16.806337,-1.2046635,11.913006,-8.142306,18.217508,-19.90363,-34.838154,18.785828,-8.313415,13.894692,32.510113,-20.932823,18.220167,-39.742897,-20.709127,-11.295627,-18.221544
136,127.36455535888672,-40.63036346435547,75.98908233642578,5.831968136264843,-1.856894377161377,-50.4597233458595,17.420328,1.5028809,10.994235,24.656265,-2.3242583,-14.11808,-16.384232,-2.8314662,-37.641068,24.217846,-16.349342,-2.9313679,-16.915977,-1.3058527,11.322744,-7.9069066,18.050383,-20.507277,-35.211727,18.912283,-8.259351,12.655606,32.99734,-20.544155,17.674227,-39.51914,-20.449932,-11.431085,-18.433586
137,128.10928344726562,-41.56943130493164,76.17037963867188,6.22170301919775,-1.5820211424300017,-50.89969149485045,17.58454,0.8933778,10.271584,24.656427,0.71664697,-14.021341,-15.562963,-2.0223272,-38.235832,19.825014,-15.249887,-2.1941075,-16.967922,-1.5371283,10.6893015,-7.6161027,17.904644,-21.084528,-35.55348,19.083889,-8.245867,11.017218,33.419334,-20.126787,17.165998,-39.218845,-20.413603,-11.565048,-18.603765
138,128.84857177734375,-42.51815414428711,76.30836486816406,6.721241461747936,-1.322247410272253,-51.308811422022494,17.59156,0.14596525,9.3837805,24.890337,3.8018992,-13.73198,-14.812722,-1.5045735,-38.729984,16.048677,-14.339438,-1.7408476,-16.955885,-1.8703806,10.022724,-7.258938,17.778496,-21.658169,-35.860847,19.286406,-8.259495,9.035857,33.783512,-19.683271,16.697073,-38.83806,-20.570543,-11.693125,-18.742682
139,129.58743286132812,-43.45574188232422,76.4053726196289,7.248988176098267,-1.0904662178667426,-51.69046641952126,17.422884,-0.6392134,8.36548,25.471771,6.738745,-13.366913,-14.222469,-1.2467779,-38.97079,13.113635,-13.679569,-1.5364124,-16.869146,-2.2425086,9.377155,-6.8759756,17.66788,-22.22461,-36.098118,19.625729,-8.290701,6.9576483,34.04422,-19.227951,16.254536,-38.38298,-20.842947,-11.795463,-18.81448
140,130.3295440673828,-44.38518142700195,76.46080017089844,7.711861873426388,-0.8986572858096843,-52.049929305850696,17.056858,-1.3596208,7.240152,26.521143,9.321232,-13.042607,-13.869026,-1.2015791,-38.79932,11.227244,-13.321472,-1.552814,-16.698881,-2.5760622,8.81024,-6.502853,17.565928,-22.77525,-36.23217,20.208984,-8.336349,5.028132,34.156944,-18.782665,15.827718,-37.861244,-21.150976,-11.85245,-18.785799
141,131.06121826171875,-45.307865142822266,76.47904968261719,8.098882281469095,-0.7433972117271608,-52.37826210298409,16.411772,-2.0588937,5.870765,28.176569,11.456823,-12.5794325,-13.82939,-1.4513706,-38.06037,10.625858,-13.38707,-1.7073469,-16.44921,-2.8517346,8.31985,-6.129473,17.46253,-23.292757,-36.281136,21.170887,-8.41548,3.1851022,34.120937,-18.363071,15.404338,-37.26727,-21.507391,-11.909434,-18.658129
142,131.7705841064453,-46.23135757446289,76.45597839355469,8.414903868140984,-0.6109761396898135,-52.68242561189576,15.534244,-2.7623556,4.308335,30.318808,13.289217,-12.003244,-14.085749,-1.9563642,-36.881638,11.202527,-13.850675,-2.0447965,-16.121492,-3.062501,7.8870025,-5.746897,17.351711,-23.782112,-36.248993,22.419394,-8.547369,1.3401626,33.960327,-17.976107,14.989667,-36.605103,-21.938477,-11.960331,-18.450846
143,132.4807891845703,-47.14098358154297,76.38412475585938,8.615639818249669,-0.5049123007471081,-52.98851122961824,14.60385,-3.3621156,2.817939,32.67194,14.936189,-11.728625,-14.545841,-2.4996731,-35.51621,12.6113825,-14.522892,-2.7297337,-15.706309,-3.1744237,7.540731,-5.386574,17.235653,-24.265112,-36.082893,23.722078,-8.713692,-0.30096558,33.672863,-17.630005,14.603146,-35.906796,-22.386898,-11.908231,-18.15655
144,133.1896514892578,-48.0307731628418,76.25373840332031,8.665670549003572,-0.4314378294800163,-53.32447680749461,13.771712,-3.734147,1.6389992,35.014763,16.465258,-12.163281,-15.103499,-2.8822768,-34.221985,14.52259,-15.215847,-3.926562,-15.193706,-3.1626074,7.3090944,-5.0713058,17.122334,-24.76218,-35.74241,24.848238,-8.872971,-1.5329713,33.25317,-17.333216,14.265488,-35.19894,-22.795927,-11.656427,-17.766798
145,133.88685607910156,-48.90935134887695,76.07025146484375,8.568247650638504,-0.39969091897799036,-53.6755859837771,13.049923,-3.9828858,0.56308675,37.340813,17.936436,-13.645016,-15.813912,-3.0991075,-32.95936,17.110641,-15.812063,-5.951289,-14.58882,-3.0293548,7.1936626,-4.8028154,17.0193,-25.297548,-35.225487,25.796934,-8.997403,-2.2539043,32.718567,-17.091984,13.987935,-34.512524,-23.155075,-11.145744,-17.29029
146,134.5521240234375,-49.76845932006836,75.85425567626953,8.433517982145949,-0.4243556479912935,-54.020504216815986,12.383663,-4.1006126,-0.11749879,39.754303,19.27313,-15.000033,-16.687044,-3.316668,-31.62863,20.416212,-16.363226,-8.595478,-13.914327,-2.8742716,7.169605,-4.5535426,16.93017,-25.848427,-34.566917,26.672865,-9.092721,-2.5906243,32.075893,-16.906366,13.76499,-33.83603,-23.49654,-10.438491,-16.728918
147,135.2499237060547,-50.60955810546875,75.57633972167969,8.543921903666662,-0.48363338116947635,-54.34750944806558,11.771312,-3.8492045,0.53037196,42.101864,20.487495,-15.000033,-17.777258,-3.9325683,-30.296099,24.417494,-17.195644,-11.207372,-13.215183,-2.966815,7.153019,-4.301132,16.858015,-26.362434,-33.78925,27.40323,-9.158815,-2.681134,31.290318,-16.775171,13.590417,-33.125,-23.829607,-9.619892,-16.063417
148,135.93142700195312,-51.44163513183594,75.2288589477539,8.616446036723433,-0.5866113939213767,-54.7296030849929,11.139725,-3.0049465,1.9472691,44.682312,21.249884,-15.000033,-18.6113,-4.400004,-29.230988,28.006092,-18.197548,-13.287652,-12.4853,-3.0527482,7.23997,-3.981177,16.82434,-26.74625,-32.954857,27.907251,-9.203231,-2.6655548,30.307552,-16.728045,13.485453,-32.336716,-24.157372,-8.770146,-15.284465
149,136.55555725097656,-52.268157958984375,74.8570327758789,8.579649071310621,-0.693585285018701,-55.15029619486674,10.497585,-1.194338,4.480746,47.60007,21.554008,-15.000033,-19.285553,-4.745112,-28.538687,31.382019,-19.625036,-14.713393,-11.680908,-3.0509584,7.4064355,-3.6985815,16.812271,-27.057327,-31.946722,28.067638,-9.233761,-2.4981387,29.126255,-16.721401,13.408258,-31.450329,-24.427763,-7.829524,-14.279759
150,137.16781616210938,-53.07071304321289,74.47921752929688,8.515205212872134,-0.8762104855818069,-55.52066792356237,9.9961195,1.3902012,7.791192,50.782936,21.507437,-15.000033,-19.840862,-5.259262,-28.138235,34.979244,-21.488758,-15.000033,-10.834904,-3.0405116,7.6762757,-3.4979703,16.804508,-27.397053,-30.72711,27.974327,-9.228606,-2.1041753,27.7876,-16.732727,13.327266,-30.487606,-24.664982,-6.7841005,-13.092953
151,137.7803497314453,-53.86096954345703,74.08309936523438,8.224225300030014,-1.125784299456286,-56.03474499525164,9.630587,4.482837,11.091739,54.2288,20.882347,-15.000033,-20.076914,-5.3695555,-27.852411,38.13239,-23.344751,-15.000033,-9.867308,-2.834762,8.100165,-3.2098126,16.804945,-27.606861,-29.48904,27.824875,-9.193714,-1.6564027,26.259832,-16.769382,13.303053,-29.435299,-25.011272,-5.805334,-11.897301
152,138.39523315429688,-54.65972900390625,73.6863021850586,7.670215996318879,-1.5273854863534986,-56.770524024414186,9.421286,7.5087314,13.534354,57.72308,19.560246,-15.000033,-19.78252,-4.880701,-27.556595,40.48358,-24.902538,-15.000033,-8.813396,-2.3926778,8.749062,-2.662,16.80672,-27.601727,-28.42126,27.84572,-9.1052685,-1.2768023,24.513317,-16.908499,13.415987,-28.282902,-25.562069,-5.043849,-10.911804
153,138.97836303710938,-55.46278381347656,73.30046844482422,6.7471703605848266,-2.2032921797839244,-57.846132532706356,9.450481,10.330676,14.896592,61.217403,17.300901,-15.000033,-18.745743,-3.5810223,-27.236233,41.85643,-26.0821,-15.000033,-7.611993,-1.6126101,9.772502,-1.7814122,16.79767,-27.288681,-27.55761,28.114271,-8.935142,-1.023234,22.458002,-17.150497,13.709384,-26.900583,-26.395718,-4.605234,-10.184562
154,139.51309204101562,-56.318328857421875,72.93614959716797,5.507517250327883,-3.093046148777297,-59.19056135976845,9.689275,13.166764,15.67351,64.72631,14.283737,-15.000033,-17.155416,-1.6216805,-26.91663,42.508358,-27.048903,-15.000033,-6.287087,-0.4972794,11.060163,-0.6517469,16.770914,-26.738312,-26.812,28.50816,-8.697161,-0.81404227,20.122728,-17.484865,14.174828,-25.328732,-27.414173,-4.3794374,-9.620322
155,140.04965209960938,-57.15883255004883,72.61613464355469,4.503918912638162,-3.9304176554403423,-60.48507433911858,10.121523,16.75347,17.852957,68.0978,11.007359,-11.407874,-15.643714,0.067662746,-26.443356,43.14307,-28.047068,-15.000033,-5.088042,0.47907594,12.226965,0.65925634,16.741915,-26.029581,-26.197088,28.9193,-8.46442,-0.62729895,17.670807,-17.879063,14.776721,-23.833923,-28.478245,-4.2265167,-9.154842
156,140.58285522460938,-57.9824104309082,72.33245086669922,3.9515104801330168,-4.49609672499021,-61.527597058962144,10.243148,19.991247,20.114948,71.22707,7.8657436,-7.376476,-14.57294,1.0843868,-25.854696,44.07696,-29.194645,-15.000033,-4.149466,1.0578939,13.017125,2.0764496,16.741627,-25.259037,-25.728415,29.238272,-8.307237,-0.43461305,15.277567,-18.28391,15.445429,-22.688501,-29.463089,-4.012114,-8.709555
157,141.10470581054688,-58.80986404418945,72.09477233886719,3.6119507546212457,-4.7555541117854405,-62.389987481129516,9.890566,22.89344,22.056314,74.22805,4.7973332,-3.403409,-13.834008,1.776157,-25.232069,44.99022,-30.354246,-15.000033,-3.391314,1.428207,13.4536705,3.6285403,16.793074,-24.423985,-25.426764,29.498188,-8.241893,-0.21782127,12.935208,-18.674343,16.179037,-21.946661,-30.472515,-3.690024,-8.247757
158,141.62997436523438,-59.60721206665039,71.88672637939453,3.4141985880773094,-4.8152403990622625,-63.15681950204428,9.176677,25.511019,23.693811,77.130165,1.5731192,0.72013956,-13.25751,2.2806897,-24.579391,45.788456,-31.504612,-15.000033,-2.746952,1.6360031,13.678141,5.355372,16.901047,-23.498634,-25.299784,29.730385,-8.228632,0.011672896,10.573385,-19.039017,16.99437,-21.471914,-31.53745,-3.3398654,-7.8070493
159,142.16078186035156,-60.397159576416016,71.70020294189453,3.2963883213446676,-4.780200987444927,-63.81334189624337,8.214283,27.822111,24.996004,79.83224,-1.6667758,4.669945,-12.71809,2.6641219,-23.960354,46.453674,-32.614517,-15.000033,-2.193022,1.7504643,13.788046,7.178355,17.064861,-22.560722,-25.327568,29.82381,-8.251149,0.23967183,8.291215,-19.35457,17.813704,-21.262106,-32.435684,-3.01765,-7.4083233
160,142.6961212158203,-61.19431686401367,71.53364562988281,3.193526536038807,-4.7587527420904,-64.34591929463855,7.1333303,29.847553,25.975056,82.238014,-4.749662,8.150737,-12.087912,2.996907,-23.434448,46.96364,-33.65001,-15.000033,-1.6916852,1.852293,13.87395,8.991762,17.27996,-21.702103,-25.466454,29.671846,-8.292281,0.452143,6.1906886,-19.594713,18.544762,-21.2984,-32.94973,-2.779539,-7.071049
161,143.21231079101562,-61.99680709838867,71.3880386352539,3.0897117936334357,-4.763880317264281,-64.71207058127068,5.9089613,31.694464,26.684244,84.389885,-7.6095686,11.202087,-11.352049,3.2762735,-23.046568,47.324814,-34.62685,-15.000033,-1.2534256,1.957708,13.925072,10.760819,17.548307,-20.954151,-25.689768,29.21622,-8.359877,0.64127153,4.3092313,-19.740957,19.148531,-21.617384,-32.955376,-2.6466882,-6.794734
162,143.71490478515625,-62.808067321777344,71.28263092041016,3.014416214501738,-4.7423793935744465,-64.93186399797251,4.461864,33.34503,27.150354,86.3139,-10.316327,13.986445,-10.570646,3.4724855,-22.755297,47.53873,-35.552315,-15.000033,-0.87987274,2.021285,13.89799,12.523124,17.874247,-20.274282,-26.000418,28.528496,-8.457996,0.8148992,2.5817258,-19.796034,19.662424,-22.183947,-32.604027,-2.586614,-6.5680075
163,144.1951141357422,-63.62600326538086,71.20357513427734,2.9515451586674377,-4.712709696914057,-65.09880095003739,2.6977577,34.392536,26.829882,87.87782,-12.81366,15.000033,-9.706862,3.660001,-22.493374,47.557808,-36.38004,-15.000033,-0.52125335,2.0422142,13.832518,14.280824,18.25303,-19.63869,-26.395622,27.697504,-8.56449,0.9813593,0.9493051,-19.776566,20.114721,-22.86728,-32.08931,-2.5737553,-6.3949265
164,144.66969299316406,-64.45470428466797,71.1678237915039,2.7906367036306077,-4.731779940656945,-65.35854452338414,0.8722483,35.059776,26.074966,89.018906,-15.090023,15.000033,-8.644605,4.049395,-22.180344,47.210953,-36.983555,-15.000033,-0.062311172,2.1583014,13.818721,16.032204,18.670301,-19.030645,-26.868374,26.812664,-8.65663,1.1501331,-0.6339282,-19.7084,20.527897,-23.553581,-31.601835,-2.5836132,-6.276826
165,145.13934326171875,-65.27871704101562,71.17349243164062,2.4589618726689406,-4.840824904721952,-65.76565982792197,-0.8325635,35.64957,25.296223,89.75982,-17.190495,15.000033,-7.295713,4.753566,-21.784603,46.380287,-37.303684,-15.000033,0.5491514,2.4719708,13.909653,17.781948,19.114672,-18.449528,-27.433273,25.839396,-8.727884,1.3192775,-2.1795614,-19.610998,20.897552,-24.253057,-31.096544,-2.6174622,-6.243804
166,145.60592651367188,-66.10506439208984,71.22716522216797,2.211719417851547,-4.9373383290180834,-66.14257009786944,-2.5892344,35.950466,24.547628,90.11731,-19.073889,15.000033,-5.8909044,5.360633,-21.352005,45.378654,-37.511726,-15.000033,1.156581,2.7141755,13.980672,19.520409,19.583857,-17.89786,-28.078651,24.751646,-8.793875,1.481859,-3.6563225,-19.487795,21.218088,-25.02365,-30.498165,-2.6841571,-6.291952
167,146.08148193359375,-66.92852020263672,71.3284683227539,2.0840941916159545,-4.9861186519136,-66.47483452690722,-4.4036875,35.902832,23.833057,90.07871,-20.669426,15.000033,-4.5037694,5.8092566,-20.88535,44.29185,-37.621677,-15.000033,1.7442813,2.8410544,13.992501,21.230814,20.071552,-17.37087,-28.76007,23.651058,-8.862172,1.6422076,-5.0449395,-19.342089,21.50297,-25.830254,-29.94837,-2.77057,-6.3646812
168,146.5507354736328,-67.76133728027344,71.46971893310547,2.1112098106033153,-4.954395656414767,-66.74699562524333,-6.278972,35.444714,23.149958,89.629875,-21.902435,15.000033,-3.2083385,6.0435224,-20.394983,43.206093,-37.64863,-15.000033,2.295025,2.812408,13.9083395,22.896418,20.568586,-16.863897,-29.434845,22.640968,-8.940676,1.8036243,-6.325479,-19.176407,21.764372,-26.633677,-29.588778,-2.862189,-6.4055905
169,147.0282745361328,-68.5889892578125,71.64525604248047,2.31178812803859,-4.8202127659356355,-66.95261442531566,-8.223592,34.51509,22.521925,88.73264,-22.749119,15.000033,-2.0346339,6.040347,-19.885632,42.131477,-37.620453,-15.000033,2.7970998,2.607639,13.712435,24.527359,21.071007,-16.375896,-30.101185,21.699108,-9.042276,1.9810457,-7.501598,-18.991735,22.001404,-27.44946,-29.501886,-2.9498837,-6.4077444
170,147.51885986328125,-69.42277526855469,71.85258483886719,2.6462611024044715,-4.609904334249817,-67.09581685332813,-10.204742,33.155807,21.938646,87.39786,-23.242893,15.000033,-0.9311257,5.85567,-19.373812,41.019024,-37.52445,-15.000033,3.2545636,2.2690017,13.436434,26.12472,21.578217,-15.91021,-30.773418,20.789871,-9.159839,2.1657636,-8.583282,-18.79081,22.207195,-28.286665,-29.597717,-3.0427215,-6.3979845
171,148.01187133789062,-70.26698303222656,72.09583282470703,3.0620152432669996,-4.363071192631021,-67.17931094247022,-12.153079,31.465736,21.356335,85.68939,-23.409834,15.000033,0.14583482,5.5497146,-18.88571,39.87654,-37.319798,-15.000033,3.6755672,1.8484627,13.114019,27.656364,22.085539,-15.469517,-31.4323,19.99759,-9.270054,2.3264372,-9.557801,-18.581455,22.385405,-29.11131,-29.761002,-3.152845,-6.369717
172,148.50828552246094,-71.11807250976562,72.36605072021484,3.5145683220347688,-4.1195249148060595,-67.20615654959647,-13.994127,29.535595,20.737612,83.66586,-23.28073,15.000033,1.2605482,5.071433,-18.52179,38.733654,-36.967716,-14.515888,4.0708127,1.3950806,12.778087,29.089767,22.585052,-15.055403,-32.0556,19.408379,-9.348716,2.4323275,-10.411248,-18.374805,22.540665,-29.885878,-29.875566,-3.29216,-6.3167167
173,149.0155029296875,-71.97563934326172,72.65389251708984,4.005164843593599,-3.9115103934288915,-67.17838674253939,-15.710476,27.293089,19.995167,81.30666,-22.789385,15.000033,2.4592133,4.5097528,-18.219234,37.521755,-36.45885,-13.953766,4.4440618,0.91338426,12.458295,30.410511,23.0739,-14.667629,-32.63415,19.09611,-9.383234,2.4703686,-11.138725,-18.181225,22.65565,-30.621939,-29.944563,-3.465469,-6.2090936
174,149.51632690429688,-72.86611938476562,72.9546890258789,4.3319326005201,-3.816563988704927,-67.26768779650739,-17.18176,24.963564,18.906479,78.65173,-22.027212,14.231376,3.940624,4.216119,-17.838688,35.955887,-35.661926,-13.468722,4.9453826,0.6197272,12.22905,31.643913,23.551653,-14.306119,-33.19057,19.000448,-9.38689,2.4585793,-11.743909,-18.00762,22.731985,-31.34159,-30.014507,-3.6646316,-6.0583873
175,150.01422119140625,-73.78990936279297,73.26664733886719,4.651341127205044,-3.7221824792551135,-67.35351346884929,-18.469532,22.503784,17.574177,75.70134,-21.123253,12.266671,5.4244995,3.9189925,-17.481934,34.383423,-34.7015,-12.963712,5.45066,0.32427233,11.990503,32.793827,24.014183,-13.968634,-33.725864,19.006453,-9.376946,2.4122794,-12.224754,-17.857203,22.803951,-32.035076,-30.036009,-3.882561,-5.9253073
176,150.51158142089844,-74.71513366699219,73.58465576171875,4.963835055659251,-3.610886725436671,-67.4413206375841,-19.503183,20.182383,16.44318,72.49965,-20.243286,10.365001,6.812211,3.5813997,-17.17592,32.949234,-33.583344,-12.366879,5.9623146,0.036183905,11.737648,33.870316,24.452784,-13.652117,-34.243996,18.998684,-9.370087,2.3458655,-12.581208,-17.73017,22.90773,-32.688805,-29.959753,-4.1114416,-5.8682184
177,151.0087432861328,-75.64920043945312,73.90931701660156,5.28222218569534,-3.4752520396641926,-67.52105787367495,-20.297243,18.01181,15.540519,68.99349,-19.349262,8.52533,8.101749,3.194373,-16.918636,31.63753,-32.27734,-11.630702,6.48115,-0.25917372,11.463023,34.862255,24.864492,-13.352343,-34.745605,18.977488,-9.368502,2.2318707,-12.7986145,-17.62827,23.037876,-33.296154,-29.726904,-4.378925,-5.9036307
178,151.50965881347656,-76.59483337402344,74.23724365234375,5.607303368268925,-3.323165419090971,-67.58928434736728,-20.882492,15.90214,14.751498,65.16196,-18.37257,6.6760015,9.322222,2.7741652,-16.690247,30.399237,-30.787022,-10.801573,7.0025406,-0.56049234,11.172127,35.767727,25.249699,-13.069127,-35.22648,18.995918,-9.365033,2.0711207,-12.881371,-17.552574,23.181135,-33.8701,-29.379114,-4.679088,-5.999341
179,152.00259399414062,-77.55278015136719,74.56925201416016,5.907401830685794,-3.162535019726365,-67.67090407384624,-21.262333,13.899561,14.037361,61.093586,-17.396456,4.869842,10.448504,2.351447,-16.48387,29.298819,-29.163906,-9.959822,7.517819,-0.83841115,10.874766,36.617397,25.601906,-12.802836,-35.694675,19.021439,-9.3624935,1.9190378,-12.872019,-17.502693,23.366856,-34.403297,-29.0186,-4.9543595,-6.1388044
180,152.50115966796875,-78.51947784423828,74.8978042602539,6.153925019133025,-3.000669418410381,-67.79218822180363,-21.436592,12.052949,13.370004,56.867653,-16.501251,3.1643941,11.462255,1.9500691,-16.294617,28.394371,-27.460144,-9.18214,8.017294,-1.0663588,10.57905,37.44975,25.90799,-12.554344,-36.159084,19.026949,-9.364024,1.8300014,-12.81675,-17.47611,23.628368,-34.885525,-28.747725,-5.1464906,-6.3072677
181,152.99887084960938,-79.48291778564453,75.21414184570312,6.344675517550856,-2.837621463023977,-67.95917025894506,-21.393793,10.362487,12.747171,52.398785,-15.705121,1.6065894,12.381515,1.5739751,-16.127033,27.666416,-25.656195,-8.454897,8.502904,-1.2405515,10.287121,38.257797,26.157068,-12.308675,-36.611996,19.018549,-9.375035,1.7996467,-12.720096,-17.470776,23.985062,-35.31186,-28.590569,-5.218215,-6.5328736
182,153.49940490722656,-80.44989776611328,75.51471710205078,6.492425246638695,-2.6701878748508268,-68.16018399827563,-21.140457,8.819375,12.174521,47.64982,-14.94391,0.16240521,13.218361,1.2178445,-15.972656,27.080627,-23.734701,-7.744846,8.972939,-1.3713526,9.991398,39.03429,26.345095,-12.068093,-37.05338,19.01343,-9.39376,1.8016019,-12.569374,-17.485456,24.423553,-35.68051,-28.494312,-5.207597,-6.813279
183,154.0010986328125,-81.42889404296875,75.8031997680664,6.586680689893568,-2.4993657993000116,-68.39471147550923,-20.70586,7.4559546,11.644516,42.76607,-14.178726,-1.236145,13.942754,0.8884209,-15.815449,26.68478,-21.749172,-7.091812,9.40998,-1.4481213,9.683796,39.778854,26.468475,-11.858199,-37.473763,18.987362,-9.412483,1.8561578,-12.392479,-17.518288,24.929914,-35.972256,-28.44633,-5.1692724,-7.0869617
184,154.50779724121094,-82.41227722167969,76.07717895507812,6.616917835464407,-2.3268558764593235,-68.66275876857436,-20.121616,6.295671,11.155319,37.89305,-13.365692,-2.66715,14.524801,0.5933742,-15.643118,26.52489,-19.751507,-6.534502,9.798746,-1.4608458,9.35727,40.48148,26.534378,-11.701225,-37.85375,18.906559,-9.422773,1.9857899,-12.214052,-17.564991,25.488787,-36.176323,-28.434525,-5.1577954,-7.2922554
185,155.00802612304688,-83.39186096191406,76.32972717285156,6.561114249407167,-2.147481291739223,-68.9728087404938,-19.326906,5.358709,10.75734,32.855415,-12.423602,-4.264371,14.98315,0.3618648,-15.465019,26.54256,-17.681133,-6.044296,10.14573,-1.3920474,8.999861,41.202904,26.5436,-11.586015,-38.237843,18.774158,-9.413281,2.2181566,-12.037367,-17.630152,26.111406,-36.287792,-28.463472,-5.182076,-7.429556
186,155.5110321044922,-84.38188171386719,76.54739379882812,6.404839053558921,-1.965959850273337,-69.33115317509103,-18.299927,4.633859,10.440534,27.557472,-11.340995,-5.9706225,15.349478,0.2189713,-15.278125,26.690384,-15.509398,-5.5995436,10.463064,-1.2203484,8.615562,41.906105,26.487514,-11.51106,-38.598286,18.600258,-9.392001,2.5330012,-11.855838,-17.714867,26.800434,-36.310528,-28.535439,-5.215047,-7.523569
187,156.01649475097656,-85.37223052978516,76.7351303100586,6.148724235769866,-1.798089767041094,-69.7333930686746,-17.152376,4.103818,10.116514,22.320818,-10.207751,-7.579767,15.610806,0.16537902,-15.06205,27.03251,-13.330515,-5.2558346,10.738481,-0.94061047,8.224326,42.549892,26.377577,-11.486918,-38.926662,18.374657,-9.380767,2.8829947,-11.670764,-17.819345,27.541786,-36.259453,-28.637884,-5.2518525,-7.560507
188,156.51431274414062,-86.36726379394531,76.87622833251953,5.812489427013786,-1.6557570415685288,-70.16791350734906,-16.047937,3.7504542,9.701266,17.585146,-9.177995,-8.876319,15.736654,0.17227292,-14.8087,27.66263,-11.250178,-5.076854,10.964069,-0.5726768,7.8472157,43.08875,26.247509,-11.527152,-39.216038,18.080744,-9.399218,3.226518,-11.47254,-17.938143,28.307106,-36.16178,-28.757124,-5.2890816,-7.526004
189,157.00445556640625,-87.36407470703125,76.97897338867188,5.421087578314225,-1.5116027707373596,-70.62882671796228,-15.076246,3.5660722,9.210797,13.487595,-8.339426,-9.771971,15.6634655,0.19912075,-14.52171,28.645771,-9.28591,-5.096124,11.148656,-0.15345512,7.455704,43.5229,26.116209,-11.639422,-39.46227,17.671595,-9.456897,3.5730577,-11.248339,-18.07106,29.088654,-36.02404,-28.885084,-5.324486,-7.3932405
190,157.50010681152344,-88.36212921142578,77.05379486083984,4.993259777238909,-1.3639158061175267,-71.11164343058414,-14.161222,3.5182528,8.703344,9.815662,-7.6039543,-10.391708,15.404093,0.22053774,-14.233869,29.951399,-7.393357,-5.273317,11.296298,0.29456535,7.051659,43.87523,25.989412,-11.81831,-39.6787,17.165974,-9.541262,3.9445796,-10.997346,-18.21764,29.887623,-35.8405,-29.03109,-5.3618875,-7.1783876
191,157.9911651611328,-89.3600845336914,77.0877456665039,4.589408501216062,-1.2545086982800804,-71.59278532219474,-13.579878,3.555469,8.14098,7.249598,-7.2745953,-10.821896,15.011669,0.16387059,-13.995055,31.582186,-5.6152363,-5.5620494,11.372475,0.7205315,6.7055683,44.100487,25.883026,-12.043388,-39.850952,16.629513,-9.638991,4.3166146,-10.734457,-18.3742,30.696884,-35.61579,-29.208162,-5.40658,-6.9342456
192,158.47288513183594,-90.34378051757812,77.08123016357422,4.260383149336637,-1.2244767580404026,-72.0503591056384,-13.923513,3.6674922,7.453259,7.1418424,-8.009322,-11.145361,14.541749,-0.030149251,-13.846525,33.539165,-3.9920127,-5.9182315,11.34681,1.0832627,6.4863024,44.15677,25.819065,-12.295483,-39.96937,16.126368,-9.734907,4.6671476,-10.469217,-18.534973,31.504683,-35.354977,-29.429358,-5.4641986,-6.712696
193,158.94847106933594,-91.32929229736328,77.03104400634766,4.000256617999369,-1.2847505906657337,-72.4823426993933,-14.052738,3.6773283,6.6534786,7.0954685,-8.720443,-11.352876,13.981586,-0.34585476,-13.767333,35.874786,-2.4989913,-6.4179783,11.214548,1.3900981,6.4014225,44.056686,25.815962,-12.586529,-40.062035,15.637639,-9.830615,5.0131364,-10.191485,-18.693464,32.308014,-35.061787,-29.729198,-5.5449996,-6.4972463
194,159.41448974609375,-92.30534362792969,76.93228149414062,3.8231048948726025,-1.4063033620059515,-72.88795922950555,-13.989227,3.5796318,5.777995,7.085129,-9.357212,-11.403994,13.304138,-0.8139427,-13.755287,38.5773,-1.130892,-7.068192,10.987187,1.6134292,6.4137826,43.810253,25.873987,-12.920874,-40.11647,15.136318,-9.930863,5.3625045,-9.914401,-18.819252,33.101986,-34.70044,-30.094604,-5.649187,-6.2622366
195,159.8748321533203,-93.26575469970703,76.78819274902344,3.788966571693726,-1.5724971315061576,-73.2526106021043,-13.76054,3.3228512,4.9347277,7.103295,-9.534621,-11.354546,12.563068,-1.5312424,-13.8594475,41.52405,0.051497206,-7.7218494,10.670901,1.6906284,6.533334,43.38934,26.0003,-13.2799,-40.104946,14.673573,-10.021562,5.691193,-9.6114645,-18.967037,33.88186,-34.327694,-30.46019,-5.74988,-6.077244
196,160.32041931152344,-94.20114135742188,76.62081909179688,3.9534954876904336,-1.768664487439039,-73.56469964649335,-13.384085,2.8618467,4.2336984,7.1223764,-8.85804,-11.276482,11.814326,-2.5847795,-14.113443,44.605095,0.9796766,-8.223476,10.2754545,1.5560995,6.763281,42.756786,26.18822,-13.641599,-39.982067,14.308414,-10.08961,5.9618244,-9.306042,-19.116573,34.617783,-33.921688,-30.761986,-5.836287,-5.9782324
197,160.7652130126953,-95.10738372802734,76.46284484863281,4.377048649290979,-1.9998115963858527,-73.8146983476715,-12.829128,2.1245403,3.6580288,7.1246,-6.720759,-11.234501,11.060588,-4.021528,-14.446746,47.867504,1.7247634,-8.4519005,9.781883,1.1528357,7.1171923,41.883396,26.433128,-14.01519,-39.748367,14.089015,-10.131062,6.158357,-9.029561,-19.26488,35.342094,-33.47117,-30.969252,-5.9012494,-6.0008006
198,161.1995391845703,-95.97027587890625,76.2777328491211,4.998460896100492,-2.279463340517486,-74.02069680017145,-12.664761,1.2071598,3.1464674,8.340028,-4.1327415,-11.211788,10.306206,-5.763026,-14.826682,51.33034,2.2981257,-8.514526,9.200542,0.5447123,7.584595,40.791477,26.734552,-14.411467,-39.42132,13.970167,-10.151707,6.301104,-8.772267,-19.41274,36.055363,-32.97557,-31.120403,-5.952755,-6.112132
199,161.60891723632812,-96.87797546386719,75.98194122314453,5.68133947209333,-2.604850325833943,-74.21219443049719,-13.347321,0.29308167,2.785402,11.633494,-2.6176722,-11.141702,9.604176,-7.7117324,-15.352395,54.865124,2.5299983,-8.614546,8.570513,-0.13747685,8.129019,39.556076,27.080404,-14.812434,-39.0018,13.88419,-10.152765,6.4114614,-8.49785,-19.5586,36.711292,-32.43193,-31.258253,-5.9935365,-6.260743
200,162.01791381835938,-97.76536560058594,75.6444320678711,6.2976242786773104,-2.967428583800622,-74.4124108981394,-13.98953,-0.49833468,2.6679199,15.021757,-2.1902204,-10.932461,8.9970255,-9.808875,-16.141644,58.37313,2.2296271,-8.979085,7.9188294,-0.7725489,8.715735,38.221592,27.454967,-15.194134,-38.45482,13.751683,-10.136652,6.5079455,-8.169811,-19.699009,37.269535,-31.838055,-31.426556,-6.0266232,-6.395743
201,162.43310546875,-98.59512329101562,75.2918930053711,6.828440786268367,-3.352832424188018,-74.61343160805072,-14.83663,-1.1053346,2.8366582,19.01708,-3.5086427,-10.507329,8.51169,-12.141389,-17.297537,61.943,1.2171495,-9.615735,7.213577,-1.3506457,9.32143,36.81931,27.846506,-15.540915,-37.790455,13.566084,-10.122285,6.566902,-7.832301,-19.83373,37.758087,-31.15027,-31.599264,-6.081166,-6.537724
202,162.82449340820312,-99.41755676269531,74.87885284423828,7.307113195383185,-3.7725091944813944,-74.80971642803964,-15.862658,-1.5668546,3.2086055,23.634056,-5.9850016,-9.914346,8.161089,-14.707665,-18.72593,65.61015,-0.4028,-10.450225,6.446449,-1.8994879,9.96418,35.31413,28.25187,-15.873542,-37.00742,13.365791,-10.103262,6.582655,-7.488583,-19.962656,38.196304,-30.380327,-31.766785,-6.1453,-6.7020187
203,163.2032928466797,-100.24454498291016,74.43577575683594,7.738764566833749,-4.247885654933012,-75.0193830812377,-16.737253,-1.929442,3.6590004,28.168913,-8.830788,-9.229842,7.9371223,-17.369762,-20.247755,69.22178,-2.4095926,-11.563771,5.677857,-2.4101655,10.676511,33.66046,28.669827,-16.229612,-36.072147,13.14945,-10.044141,6.6027036,-7.04274,-20.081692,38.52562,-29.60183,-31.995077,-6.1616397,-6.830041
204,163.57351684570312,-101.07237243652344,74.0205078125,8.151140503136753,-4.796747489848645,-75.25981114680906,-17.13766,-2.2765412,4.094111,31.918459,-11.256539,-8.531179,7.80077,-19.993189,-21.686914,72.61501,-4.570978,-13.02022,4.9736047,-2.8975823,11.493049,31.811106,29.1004,-16.653954,-34.954742,12.916896,-9.90919,6.678531,-6.395551,-20.185572,38.682068,-28.890104,-32.351723,-6.0738482,-6.86221
205,163.92117309570312,-101.88093566894531,73.65065002441406,8.619891926570721,-5.4827943176558955,-75.5142951672084,-16.911629,-2.714181,4.5274057,34.693478,-13.112042,-7.7664704,7.8328385,-22.692171,-23.102922,75.80142,-7.021392,-14.973008,4.3515644,-3.429435,12.504849,29.648582,29.552294,-17.217321,-33.527416,12.551275,-9.664359,6.865704,-5.471659,-20.263998,38.61355,-28.245495,-32.895668,-5.8229775,-6.754367
206,164.2945098876953,-102.6894302368164,73.32792663574219,9.190002407311466,-6.290841444699553,-75.7612425128574,-16.23373,-3.300535,5.0135612,36.864876,-14.803249,-6.882419,7.844985,-25.0919,-23.71943,78.828,-9.79657,-15.000033,3.784985,-4.0382576,13.675403,27.207508,30.023144,-17.910204,-31.835476,12.083588,-9.336162,7.1332436,-4.330141,-20.314747,38.35228,-27.635832,-33.57863,-5.458046,-6.542815
207,164.67271423339844,-103.47779083251953,73.0307388305664,10.098459255776222,-7.225594782522203,-75.91183661302848,-15.043656,-4.367525,5.5564036,38.208252,-16.15562,-5.9314446,7.9436836,-27.690022,-24.11233,81.70091,-12.631148,-15.000033,3.1198306,-5.022497,14.978285,24.703259,30.492561,-18.618456,-30.136145,11.738825,-8.978712,7.3886027,-3.0858128,-20.346144,37.97735,-27.086102,-34.30164,-5.080716,-6.2917557
208,165.00650024414062,-104.26415252685547,72.77175903320312,10.80518225834309,-7.990508315010085,-76.15957081055822,-13.955579,-5.1645164,6.0398064,39.465416,-17.516394,-5.1536255,7.7115436,-29.837816,-24.285248,84.258255,-15.101759,-15.000033,2.5019803,-5.835481,16.07663,22.331415,30.921587,-19.226494,-28.649975,11.750487,-8.647549,7.5367174,-1.8631516,-20.378925,37.577827,-26.608395,-34.966606,-4.7937565,-6.071837
209,165.33396911621094,-105.06356048583984,72.54151916503906,11.258148498363472,-8.540608018851264,-76.50479423855187,-13.020115,-5.6142282,6.4614797,40.663223,-18.916273,-4.591607,7.010692,-31.46961,-24.178032,86.518036,-17.09713,-15.000033,1.9006091,-6.410241,16.933718,20.096357,31.284895,-19.691053,-27.358366,12.321495,-8.334866,7.5262856,-0.67060685,-20.425451,37.166256,-26.20142,-35.63431,-4.6121454,-5.877766
210,165.65554809570312,-105.8741683959961,72.3326644897461,11.546798725717853,-8.958485844954303,-76.91442672416467,-12.097463,-5.8337927,6.84924,41.682056,-20.308025,-4.1688104,5.950186,-32.72609,-23.830427,88.52219,-18.800505,-15.000033,1.2949151,-6.8235526,17.649355,17.914627,31.575733,-20.050053,-26.156517,13.292711,-8.022817,7.400415,0.5429815,-20.488066,36.723194,-25.86037,-36.32491,-4.483345,-5.6859984
211,165.9672393798828,-106.69007110595703,72.14234924316406,11.69222900528011,-9.272396038201506,-77.39592795981893,-11.193507,-5.8486905,7.226985,42.58952,-21.68716,-3.8522995,4.6068416,-33.60186,-23.308142,90.242676,-20.296381,-15.000033,0.6956871,-7.1029015,18.236862,15.84998,31.789665,-20.292862,-25.135414,14.359835,-7.750976,7.1990814,1.7424585,-20.575382,36.290325,-25.592936,-36.879417,-4.402916,-5.5421605
212,166.2410430908203,-107.49913787841797,71.96038818359375,11.718200189872102,-9.50833431145622,-77.9620544205943,-10.312357,-5.683043,7.6202173,43.446556,-23.046585,-3.6098619,3.0712543,-34.09083,-22.692892,91.64306,-21.670206,-15.000033,0.113816895,-7.277245,18.708054,13.966321,31.9257,-20.40716,-24.38291,15.21619,-7.5574255,6.964028,2.8875303,-20.69999,35.912605,-25.40763,-37.138573,-4.363778,-5.4927263
213,166.49948120117188,-108.32231903076172,71.80953216552734,11.60593147445261,-9.659103078713919,-78.652785932301,-9.455022,-5.2926745,8.06348,44.28083,-24.416029,-3.461473,1.303855,-34.126842,-21.96267,92.7259,-22.93795,-15.000033,-0.4247855,-7.3261,19.047874,12.294545,31.979015,-20.369308,-23.935577,15.839536,-7.470991,6.6647935,3.9727404,-20.876553,35.609505,-25.329708,-36.98987,-4.3850985,-5.5658712
214,166.74656677246094,-109.1384048461914,71.68179321289062,11.350530817449267,-9.711520654916907,-79.45745679185785,-8.620581,-4.6672177,8.553495,45.05383,-25.788094,-3.4221692,-0.7183616,-33.714375,-21.126936,93.510284,-24.045446,-15.000033,-0.9282611,-7.231495,19.256962,10.782417,31.952364,-20.189137,-23.725286,16.378286,-7.467943,6.2933965,5.024335,-21.11146,35.354008,-25.360489,-36.539215,-4.4614735,-5.7328825
215,166.96653747558594,-109.95252990722656,71.59529876708984,10.992198738279225,-9.681162581213453,-80.31537693988325,-7.80649,-3.8877425,9.059289,45.71932,-27.095095,-3.450466,-2.8906047,-32.95105,-20.298265,93.98603,-24.940056,-15.000033,-1.4265412,-7.0297904,19.371008,9.367261,31.86339,-19.917805,-23.682323,16.781567,-7.502212,5.9300585,6.0543365,-21.401112,35.110638,-25.473953,-35.95579,-4.54997,-5.954097
216,167.15737915039062,-110.75511169433594,71.54468536376953,10.573454331311032,-9.58347366800085,-81.16348184530786,-7.0121984,-3.0422485,9.547666,46.235874,-28.271795,-3.5009205,-5.110767,-31.946115,-19.579338,94.13983,-25.57375,-15.000033,-1.9470036,-6.7626505,19.426477,7.9938474,31.738289,-19.607859,-23.751219,16.995407,-7.524469,5.656775,7.0763273,-21.73355,34.838966,-25.645262,-35.40927,-4.6074367,-6.1904488
217,167.3235626220703,-111.55374908447266,71.53185272216797,10.092924182548375,-9.404000831290652,-82.0021761136735,-6.2630296,-2.132718,10.025759,46.61175,-29.308271,-3.5667465,-7.4224105,-30.671604,-18.95892,93.96155,-25.889904,-15.000033,-2.4784353,-6.4345813,19.42194,6.664772,31.595787,-19.255146,-23.978447,16.959497,-7.521572,5.4996276,8.100916,-22.099304,34.531906,-25.89504,-34.900566,-4.61677,-6.45782
218,167.47238159179688,-112.33802795410156,71.54771423339844,9.541523564448202,-9.143616023500776,-82.86323499604613,-5.544129,-1.1362958,10.523376,46.85601,-30.231586,-3.669451,-9.827714,-29.102686,-18.417381,93.44931,-25.931608,-15.000033,-2.9987247,-6.040263,19.348751,5.405003,31.44203,-18.843872,-24.388647,16.7121,-7.515013,5.4204593,9.126974,-22.493893,34.196636,-26.23177,-34.35511,-4.6057353,-6.7672663
219,167.59083557128906,-113.13053131103516,71.59146118164062,8.95164101135989,-8.841532481513104,-83.72770816849341,-4.7943997,-0.10758783,11.035921,46.925644,-31.031662,-3.803129,-12.177559,-27.363522,-18.017923,92.60217,-25.804888,-15.000033,-3.5229163,-5.6079025,19.231955,4.1933913,31.284002,-18.408709,-24.881363,16.345354,-7.507069,5.404216,10.146924,-22.91046,33.813763,-26.606571,-33.828327,-4.596396,-7.072499
220,167.68942260742188,-113.94010925292969,71.67212677001953,8.35212577836262,-8.535427754867301,-84.57385890810724,-3.9555082,0.90127254,11.555464,46.77985,-31.699999,-3.962624,-14.339229,-25.575722,-17.802011,91.41884,-25.611696,-15.000033,-4.0644474,-5.1625957,19.094915,3.0065935,31.128223,-17.98837,-25.356207,15.951699,-7.5001225,5.4364195,11.156078,-23.340837,33.361282,-26.968391,-33.377747,-4.610152,-7.325637
221,167.78285217285156,-114.76232147216797,71.77706146240234,7.73288481347294,-8.228417068529234,-85.39166169602758,-3.0137405,1.8945055,12.086688,46.39534,-32.26468,-4.14155,-16.331032,-23.699413,-17.731968,89.880516,-25.355988,-15.000033,-4.636418,-4.700336,18.938757,1.84584,30.979734,-17.575047,-25.826023,15.494211,-7.500807,5.528257,12.150194,-23.780678,32.826942,-27.30951,-33.00555,-4.6734085,-7.4988704
222,167.86643981933594,-115.5857925415039,71.91349029541016,7.0950669273429465,-7.909692688427239,-86.18811024066572,-1.9922991,2.8718596,12.638346,45.79254,-32.715855,-4.344174,-18.203337,-21.716438,-17.761383,87.98107,-25.002905,-15.000033,-5.2314887,-4.224862,18.759026,0.7245952,30.841047,-17.152746,-26.335213,14.942801,-7.5062194,5.684495,13.135527,-24.226662,32.22126,-27.652721,-32.68644,-4.7671475,-7.6213493
223,167.9355926513672,-116.41254425048828,72.07514953613281,6.475523642876617,-7.591911007553357,-86.96718296096206,-0.89912647,3.7855864,13.203437,45.00889,-32.994057,-4.576295,-19.889158,-19.76959,-17.908766,85.74804,-24.59854,-15.000033,-5.833873,-3.763489,18.5666,-0.35478133,30.712566,-16.744303,-26.840431,14.401246,-7.50464,5.8803687,14.121653,-24.669044,31.559772,-27.992697,-32.43732,-4.8443394,-7.7312284
224,167.98931884765625,-117.27854919433594,72.27684783935547,5.949593072207686,-7.305149985718367,-87.70123473381649,0.2842906,4.5181837,13.751571,44.037754,-33.015507,-4.8255005,-21.315464,-18.051952,-18.174221,83.232735,-24.201721,-15.000033,-6.4583836,-3.3917994,18.37889,-1.3940613,30.592669,-16.376017,-27.291553,13.973469,-7.482794,6.0909195,15.113639,-25.093422,30.858547,-28.31721,-32.276684,-4.8588786,-7.86584
225,168.05531311035156,-118.1575927734375,72.50801849365234,5.59258700706271,-7.086391978948417,-88.32194864750174,1.6439168,4.926432,14.228432,42.73259,-32.730576,-5.0684347,-22.46647,-16.630276,-18.355164,80.45812,-23.808012,-14.226311,-7.1705713,-3.183216,18.211536,-2.402073,30.483868,-16.046652,-27.678652,13.691048,-7.427517,6.32598,16.100555,-25.487906,30.119501,-28.626125,-32.27225,-4.768889,-8.0241785
226,168.1190185546875,-119.05951690673828,72.76345825195312,5.2310946308893875,-6.857677586309041,-88.93332497187421,3.0609891,5.285133,14.689853,41.252033,-32.251095,-5.3528113,-23.42389,-15.271232,-18.586597,77.34791,-23.363985,-13.011744,-7.871334,-2.9558988,18.018345,-3.3693466,30.38739,-15.740361,-28.02973,13.496713,-7.348468,6.5937176,17.068048,-25.847025,29.34076,-28.901268,-32.39616,-4.609153,-8.188019
227,168.16397094726562,-119.96754455566406,73.03399658203125,4.879823723883955,-6.613903455604888,-89.55665017397783,4.465273,5.605982,15.155852,39.734013,-31.572552,-5.659348,-24.191076,-14.020499,-18.96028,73.94656,-22.906544,-11.90102,-8.539597,-2.7318656,17.794683,-4.262101,30.29537,-15.461034,-28.354387,13.366609,-7.265805,6.8651876,18.01836,-26.164776,28.534771,-29.11165,-32.522945,-4.4481654,-8.369636
228,168.1972198486328,-120.89763641357422,73.32601165771484,4.563728951305977,-6.352642492323378,-90.20981565838878,5.79317,5.8886175,15.64345,38.312206,-30.692102,-5.960121,-24.780737,-12.883593,-19.445042,70.29353,-22.468023,-10.910892,-9.153475,-2.5319755,17.532755,-5.05816,30.194742,-15.216411,-28.650097,13.276977,-7.1999702,7.1097307,18.954588,-26.435946,27.713085,-29.2234,-32.530647,-4.3552,-8.581279
229,168.21043395996094,-121.84280395507812,73.62654876708984,4.280065965769721,-6.056985041712814,-90.91003267534997,7.028137,6.1365304,16.157234,36.996414,-29.59413,-6.24853,-25.198832,-11.859877,-20.08582,66.35362,-22.046236,-10.077135,-9.698923,-2.3478134,17.213966,-5.7602,30.078611,-15.006522,-28.90834,13.226304,-7.1489816,7.317182,19.860485,-26.660425,26.876474,-29.222273,-32.37284,-4.3595,-8.816954
230,168.21633911132812,-122.80095672607422,73.93495178222656,4.0152016957763275,-5.732814632681733,-91.64486080745493,8.201639,6.349444,16.679796,35.727688,-28.289442,-6.533639,-25.433508,-10.905196,-20.892462,62.09697,-21.60231,-9.353182,-10.188452,-2.1684158,16.84491,-6.3820324,29.946379,-14.828345,-29.123875,13.22904,-7.1043515,7.501186,20.736504,-26.838491,26.021458,-29.122831,-32.1232,-4.421679,-9.071856
231,168.195556640625,-123.76583862304688,74.24291229248047,3.7790730941517325,-5.411519047838897,-92.38693215389033,9.319594,6.5235786,17.194656,34.545486,-26.819248,-6.8130956,-25.471733,-9.969855,-21.782286,57.56857,-21.119875,-8.642487,-10.642565,-2.0109375,16.4549,-6.9170613,29.79188,-14.685772,-29.30512,13.286505,-7.07674,7.6672797,21.60104,-26.962444,25.154081,-28.92643,-31.834759,-4.5081615,-9.361777
232,168.16514587402344,-124.72671508789062,74.55036926269531,3.5842222920443088,-5.124275719747751,-93.10787508855772,10.39162,6.6521883,17.685608,33.48194,-25.219986,-7.084522,-25.30067,-9.0195055,-22.665205,52.80458,-20.584778,-7.8613358,-11.083191,-1.8945566,16.071022,-7.359652,29.605125,-14.584507,-29.457289,13.402688,-7.076859,7.82024,22.466513,-27.018192,24.282404,-28.626064,-31.561121,-4.585254,-9.702232
233,168.11767578125,-125.71540832519531,74.85550689697266,3.4335865328542123,-4.869047804372698,-93.8147387366767,11.426777,6.724921,18.148739,32.512115,-23.472734,-7.36141,-24.873787,-8.050329,-23.588423,47.67302,-19.99525,-7.022654,-11.512487,-1.8205376,15.693211,-7.694605,29.37891,-14.516308,-29.580793,13.602715,-7.122502,7.9657707,23.334108,-26.992228,23.401173,-28.22701,-31.353392,-4.636275,-10.086485
234,168.0554656982422,-126.71218872070312,75.15291595458984,3.3301807566220853,-4.634198234758268,-94.51474999565343,12.42208,6.7380247,18.58363,31.62138,-21.563902,-7.6404676,-24.191212,-7.0498395,-24.577185,42.12454,-19.314665,-6.142389,-11.919976,-1.7897924,15.304768,-7.939081,29.112782,-14.488874,-29.661177,13.880253,-7.20265,8.097361,24.17644,-26.881521,22.510733,-27.706219,-31.170744,-4.682812,-10.506721
235,167.9798126220703,-127.72386932373047,75.43305969238281,3.2889928664824004,-4.437935408885679,-95.17680937744313,13.367738,6.6893754,18.980389,30.861883,-19.538246,-7.89441,-23.315147,-6.015087,-25.49233,36.33699,-18.486164,-5.168024,-12.312244,-1.8267125,14.906773,-8.139914,28.808111,-14.531403,-29.673609,14.18974,-7.2854524,8.201026,24.998638,-26.688402,21.630297,-27.05089,-30.94832,-4.7493887,-10.976666
236,167.8832244873047,-128.75433349609375,75.6988525390625,3.338234863955032,-4.299996649146742,-95.76782140389217,14.26199,6.567698,19.329647,30.270771,-17.43013,-8.093759,-22.306093,-4.9858065,-26.183834,30.506554,-17.470215,-4.0712833,-12.697736,-1.9624622,14.500604,-8.340602,28.466568,-14.673365,-29.599821,14.485982,-7.3390846,8.263064,25.805239,-26.419207,20.776573,-26.250067,-30.61776,-4.861767,-11.509838
237,167.77505493164062,-129.79812622070312,75.93638610839844,3.5272299768873396,-4.250639117896811,-96.28768150464259,15.200918,6.296434,19.655804,29.723919,-15.168703,-8.290786,-21.038303,-4.0045514,-26.680344,24.410202,-16.187906,-2.7231472,-13.076708,-2.2501626,14.103115,-8.529441,28.087103,-14.921405,-29.442242,14.750042,-7.3557224,8.285828,26.612194,-26.073252,19.952059,-25.301655,-30.118093,-5.0495796,-12.135687
238,167.65347290039062,-130.84661865234375,76.13789367675781,3.922438077743768,-4.292644663496628,-96.72342326516959,16.204151,5.7830167,19.923988,29.15421,-12.714276,-8.463962,-19.47501,-3.1726437,-27.00258,17.962923,-14.655876,-1.1937813,-13.471741,-2.759567,13.700078,-8.688235,27.672186,-15.262812,-29.208961,15.007075,-7.3516154,8.271372,27.430702,-25.64945,19.146456,-24.232704,-29.505152,-5.295554,-12.835175
