unveil-humanoid-operators/unveil-humanoid-operators.github.io/feature-analysis-animation/data/feature_matrix_instances/age_ankle_rom_jogging_A041_jog_forward_loop_002__A041.csv
Frame,root_translateX,root_translateY,root_translateZ,root_rotateX,root_rotateY,root_rotateZ,left_hip_pitch_joint_dof,left_hip_roll_joint_dof,left_hip_yaw_joint_dof,left_knee_joint_dof,left_ankle_pitch_joint_dof,left_ankle_roll_joint_dof,right_hip_pitch_joint_dof,right_hip_roll_joint_dof,right_hip_yaw_joint_dof,right_knee_joint_dof,right_ankle_pitch_joint_dof,right_ankle_roll_joint_dof,waist_yaw_joint_dof,waist_roll_joint_dof,waist_pitch_joint_dof,left_shoulder_pitch_joint_dof,left_shoulder_roll_joint_dof,left_shoulder_yaw_joint_dof,left_elbow_joint_dof,left_wrist_roll_joint_dof,left_wrist_pitch_joint_dof,left_wrist_yaw_joint_dof,right_shoulder_pitch_joint_dof,right_shoulder_roll_joint_dof,right_shoulder_yaw_joint_dof,right_elbow_joint_dof,right_wrist_roll_joint_dof,right_wrist_pitch_joint_dof,right_wrist_yaw_joint_dof
0,0.26243358850479126,1.7722941637039185,79.84712982177734,-0.8707431347938306,1.986034344267738,-96.57084373311706,-0.34312347,6.127393,9.234577,11.31377,-11.712333,-6.103568,-3.6160603,-4.485637,-14.196061,12.749215,-10.97427,1.8919954,-0.46067068,0.20149094,6.154657,4.2600884,17.05108,-26.714844,54.69027,0.30384848,3.6237745,4.2382507,-5.9113364,-14.719999,31.524158,61.73811,-7.851249,4.5161657,-1.119039
1,0.26342907547950745,1.7690882682800293,79.84874725341797,-0.8677810713632388,1.9828475128350052,-96.57818605074564,-0.33633706,6.1257057,9.235254,11.30997,-11.71308,-6.109418,-3.6401503,-4.490882,-14.186903,12.800541,-10.990716,1.8745464,-0.4801119,0.198341,6.1660776,4.282803,17.06023,-26.721312,54.645203,0.3054489,3.6310458,4.2687488,-5.9046936,-14.720718,31.520718,61.736996,-7.8738227,4.504248,-1.1020536
2,0.26180994510650635,1.7684584856033325,79.84549713134766,-0.865108138927676,1.9797375072921561,-96.58578598132897,-0.3288458,6.124193,9.235772,11.304914,-11.7134905,-6.1161466,-3.664182,-4.495565,-14.176742,12.851092,-11.006247,1.8565356,-0.5009688,0.19730973,6.1775856,4.298975,17.064486,-26.727238,54.608227,0.30769765,3.6378205,4.3001847,-5.900015,-14.721268,31.518744,61.739403,-7.8939037,4.48975,-1.0867169
3,0.2608241140842438,1.7689263820648193,79.84252166748047,-0.8633964776583897,1.9758831048893981,-96.59228849479834,-0.32268038,6.12417,9.235901,11.303149,-11.714711,-6.12144,-3.6829941,-4.498356,-14.169702,12.892861,-11.01828,1.8394259,-0.5188654,0.19552796,6.187878,4.3079896,17.067463,-26.734367,54.582848,0.3099657,3.641267,4.327067,-5.8946905,-14.721805,31.517176,61.740433,-7.914452,4.4798474,-1.0684152
4,0.25429993867874146,1.7725868225097656,79.84156036376953,-0.8578983051162465,1.9721888364486482,-96.59774344666805,-0.3153241,6.11969,9.2387495,11.296916,-11.712067,-6.121825,-3.7054832,-4.507851,-14.166272,12.94337,-11.037238,1.8258915,-0.52554977,0.18667735,6.19472,4.3180876,17.073376,-26.75542,54.556458,0.30406755,3.6450963,4.355679,-5.882761,-14.723134,31.510838,61.732105,-7.941912,4.4815617,-1.0418104
5,0.24741718173027039,1.7771761417388916,79.84241485595703,-0.8518874579214838,1.9659329344026801,-96.60108321219833,-0.30942932,6.115642,9.243482,11.29607,-11.709588,-6.1134653,-3.71695,-4.517858,-14.172833,12.976543,-11.050777,1.8177412,-0.5235455,0.1695927,6.2016473,4.307651,17.076769,-26.775393,54.561115,0.29947892,3.6386921,4.3765364,-5.871801,-14.723741,31.509676,61.71482,-7.972457,4.5041,-0.99919665
6,0.24385333061218262,1.7804224491119385,79.84317779541016,-0.8447404228807436,1.9581763164439132,-96.60291985984445,-0.30497915,6.1110296,9.249616,11.299257,-11.707346,-6.098781,-3.723049,-4.5295978,-14.186303,13.002529,-11.063445,1.8135365,-0.5172395,0.14784677,6.2086606,4.293572,17.079306,-26.793055,54.574825,0.2977874,3.627142,4.393627,-5.8636007,-14.723842,31.510937,61.693565,-8.008886,4.540636,-0.94444746
7,0.2395627796649933,1.7825090885162354,79.84623718261719,-0.8378398042833409,1.9512783061787764,-96.60313859080016,-0.3005489,6.1067452,9.255082,11.30016,-11.703256,-6.086545,-3.7284057,-4.540713,-14.1998825,13.026892,-11.075986,1.8085272,-0.50718343,0.12488616,6.212069,4.2701883,17.081331,-26.816963,54.600742,0.28976032,3.616767,4.405624,-5.848744,-14.723698,31.512445,61.66742,-8.041917,4.5771866,-0.89531875
8,0.2410047948360443,1.7832776308059692,79.84455871582031,-0.8347882564525835,1.9467668765152275,-96.5994434831495,-0.29700232,6.1062803,9.2552185,11.298774,-11.698265,-6.085765,-3.731629,-4.545655,-14.210073,13.04612,-11.085485,1.7976005,-0.50419605,0.112405054,6.212815,4.2540064,17.084087,-26.842096,54.61549,0.28383893,3.6164634,4.40847,-5.8336797,-14.72335,31.512169,61.650337,-8.0704,4.596248,-0.8671012
9,0.23454923927783966,1.7882475852966309,79.8441390991211,-0.8372785699704863,1.946503229155563,-96.5919510615961,-0.2952252,6.112268,9.249278,11.293572,-11.690949,-6.1054106,-3.737485,-4.541554,-14.211736,13.067549,-11.09448,1.7738633,-0.515022,0.11576546,6.211383,4.2489104,17.086012,-26.85824,54.612797,0.28481784,3.633628,4.3952084,-5.8187456,-14.7230215,31.512705,61.645172,-8.094574,4.586297,-0.87104774
10,0.2332138568162918,1.7935935258865356,79.8447036743164,-0.8439451085696523,1.9486638603084512,-96.58111166341698,-0.2946632,6.123125,9.238951,11.286816,-11.682586,-6.1386385,-3.742111,-4.530646,-14.209087,13.085212,-11.100608,1.7417743,-0.5384378,0.12904736,6.211173,4.250179,17.086927,-26.861702,54.600975,0.29542,3.6599183,4.368595,-5.8095045,-14.722837,31.516178,61.647602,-8.116813,4.559679,-0.8939481
11,0.22384069859981537,1.7904870510101318,79.84271240234375,-0.8505293241604698,1.9515841426718559,-96.5677901866768,-0.2949006,6.133177,9.225884,11.279375,-11.674434,-6.170242,-3.743785,-4.5196943,-14.208372,13.096822,-11.104957,1.7137263,-0.56735057,0.14479965,6.207765,4.261791,17.08749,-26.858866,54.57851,0.3029272,3.6890047,4.3398676,-5.79873,-14.722686,31.523458,61.65129,-8.13344,4.531493,-0.92357534
12,0.21887652575969696,1.7840757369995117,79.84181213378906,-0.8537240703976371,1.9518401371494531,-96.5549684118973,-0.29441255,6.1385355,9.213259,11.276106,-11.670905,-6.185397,-3.7382724,-4.5137463,-14.214424,13.097669,-11.106919,1.7018267,-0.59143174,0.15175338,6.2056656,4.268836,17.087818,-26.85327,54.567963,0.29742897,3.7005544,4.3226333,-5.7896957,-14.72238,31.528883,61.64608,-8.14092,4.523698,-0.9363317
13,0.21563665568828583,1.7790313959121704,79.8434829711914,-0.8522161689763319,1.9484841866265559,-96.5381973985024,-0.2948662,6.136438,9.196346,11.279996,-11.674697,-6.173717,-3.7168527,-4.515398,-14.236711,13.072712,-11.101169,1.7158287,-0.6134248,0.14796123,6.2020087,4.282329,17.088312,-26.842993,54.55807,0.27385375,3.691618,4.321501,-5.7731347,-14.721842,31.530876,61.621456,-8.135508,4.5493927,-0.9295075
14,0.21376246213912964,1.7827014923095703,79.84378051757812,-0.8479536637555434,1.9429484271441648,-96.51890268874455,-0.29510987,6.1295304,9.176665,11.287543,-11.683198,-6.145233,-3.6842828,-4.521372,-14.268544,13.030013,-11.090289,1.7470316,-0.6300174,0.13609938,6.198795,4.295001,17.089504,-26.830687,54.55303,0.23991294,3.6676085,4.329868,-5.751183,-14.721235,31.522913,61.582825,-8.122936,4.596207,-0.91018325
15,0.21567650139331818,1.777387261390686,79.84449005126953,-0.8425190030559824,1.9372658811966113,-96.50260112861844,-0.29502344,6.122023,9.160134,11.29531,-11.691636,-6.1157956,-3.6546884,-4.528367,-14.297398,12.991123,-11.081125,1.7801824,-0.6392508,0.12343501,6.1955647,4.3012433,17.09053,-26.826372,54.554382,0.19605716,3.642406,4.3414426,-5.7336955,-14.720476,31.513863,61.54987,-8.107258,4.6403236,-0.8881183
16,0.21266010403633118,1.7647331953048706,79.84447479248047,-0.8388220859079559,1.9338221753992375,-96.49504774867556,-0.29298422,6.119149,9.15326,11.296448,-11.693874,-6.101441,-3.638731,-4.5306053,-14.311172,12.970231,-11.07716,1.7995454,-0.64180195,0.11509024,6.193554,4.3035254,17.090712,-26.825174,54.55419,0.1612807,3.6315594,4.3470564,-5.724956,-14.720223,31.510433,61.531933,-8.103805,4.6594844,-0.87345356
17,0.20317919552326202,1.7644224166870117,79.84848022460938,-0.8394656142073228,1.9309874810500067,-96.49844635159332,-0.28667307,6.1249948,9.1577635,11.290342,-11.687791,-6.1108947,-3.6359143,-4.5238886,-14.305829,12.96922,-11.0779085,1.7975076,-0.6393863,0.11089873,6.1940765,4.302648,17.091124,-26.826303,54.556427,0.130762,3.637208,4.345402,-5.717119,-14.719783,31.507938,61.517693,-8.1210165,4.6517534,-0.8616725
18,0.19781959056854248,1.7765538692474365,79.84835815429688,-0.8405311627705654,1.929710785777324,-96.51263042189403,-0.2745862,6.133853,9.174347,11.272063,-11.672972,-6.133947,-3.6466117,-4.5137987,-14.2840605,12.986447,-11.084048,1.7834853,-0.6280636,0.10783228,6.1949015,4.29399,17.091934,-26.833735,54.563072,0.09990928,3.656008,4.3387275,-5.715283,-14.718855,31.509478,61.516293,-8.14955,4.619416,-0.8534672
19,0.19502025842666626,1.7830967903137207,79.84647369384766,-0.8422305444830739,1.929131639805322,-96.52640531692778,-0.2668196,6.144102,9.19036,11.26078,-11.661226,-6.1588817,-3.6608963,-4.5031023,-14.260642,13.009289,-11.092675,1.7679111,-0.61627895,0.10705036,6.196225,4.286226,17.09264,-26.84363,54.566742,0.07098571,3.6771405,4.3346686,-5.71923,-14.717645,31.51623,61.520947,-8.177862,4.5842695,-0.85036504
20,0.18679656088352203,1.7850801944732666,79.84579467773438,-0.8425478873569703,1.9283290198200365,-96.53114525921985,-0.262208,6.1500945,9.19775,11.252614,-11.652184,-6.173682,-3.6671185,-4.4959035,-14.246818,13.020185,-11.09809,1.761283,-0.6081844,0.104455315,6.1969056,4.2810445,17.092842,-26.850477,54.567574,0.04604778,3.692018,4.339185,-5.722075,-14.717062,31.523033,61.521095,-8.20179,4.5629725,-0.8528332
21,0.18126599490642548,1.7898012399673462,79.845947265625,-0.8406443041159436,1.926778888456427,-96.52094927599099,-0.2628335,6.14987,9.19104,11.25153,-11.648824,-6.1726456,-3.6605422,-4.4936476,-14.246325,13.013421,-11.098404,1.7689466,-0.6070997,0.09889578,6.19647,4.277162,17.09308,-26.862036,54.565666,0.018020123,3.7000093,4.363829,-5.718652,-14.716253,31.53588,61.50895,-8.219037,4.5652146,-0.86535203
22,0.17639802396297455,1.787512183189392,79.84630584716797,-0.8380159761464923,1.9250556767571234,-96.5014882043596,-0.2685954,6.1466937,9.175683,11.25791,-11.650365,-6.163072,-3.6478963,-4.493989,-14.252903,12.99835,-11.09672,1.7844225,-0.60998,0.09166856,6.191027,4.2774525,17.09353,-26.880547,54.562283,-0.013077917,3.704732,4.4030414,-5.710665,-14.715092,31.56055,61.49217,-8.227777,4.5812387,-0.887397
23,0.17548149824142456,1.789993405342102,79.84451293945312,-0.8356225039755901,1.9235406140167912,-96.4818153921236,-0.27564064,6.143659,9.159174,11.2659235,-11.652796,-6.1524167,-3.6336753,-4.4944935,-14.263123,12.979922,-11.094206,1.8005419,-0.6116414,0.0855086,6.192766,4.277696,17.093643,-26.885408,54.55293,-0.028352758,3.7061296,4.433887,-5.7057858,-14.714971,31.568832,61.471947,-8.246546,4.5978994,-0.9073559
24,0.17628459632396698,1.783558964729309,79.84369659423828,-0.8353194235667192,1.9228898732930857,-96.47020290623198,-0.2826531,6.145451,9.148031,11.274685,-11.655091,-6.148393,-3.6222212,-4.4918866,-14.274365,12.962105,-11.091374,1.8099552,-0.6113444,0.08367652,6.190172,4.2802563,17.093906,-26.890005,54.546955,-0.038495783,3.704336,4.4445868,-5.7023883,-14.71494,31.57931,61.458874,-8.259953,4.606295,-0.92603946
25,0.1710285097360611,1.7785826921463013,79.8439712524414,-0.8369104071999917,1.9243169786206336,-96.4729080144969,-0.289007,6.1528587,9.1469145,11.281743,-11.655588,-6.1533055,-3.617637,-4.4865074,-14.286584,12.947673,-11.0903845,1.8117212,-0.6036036,0.08624569,6.1865654,4.283529,17.093973,-26.888939,54.542706,-0.038837716,3.6956606,4.423099,-5.7048535,-14.714892,31.581137,61.455246,-8.268217,4.601858,-0.93912035
26,0.16687323153018951,1.7797036170959473,79.84362030029297,-0.8426784475055094,1.9274718157569668,-96.48398722663691,-0.30011797,6.1681933,9.150197,11.297193,-11.659662,-6.1636696,-3.6112015,-4.4745226,-14.302381,12.921713,-11.083955,1.8086686,-0.59461945,0.09842492,6.181508,4.2956443,17.09432,-26.875677,54.531956,-0.025450109,3.6788375,4.3717966,-5.7152677,-14.714437,31.579586,61.46566,-8.27852,4.5875697,-0.95281583
27,0.16098567843437195,1.78547203540802,79.84381103515625,-0.8477734272369221,1.929793783156697,-96.49415751232452,-0.30843365,6.1822195,9.153086,11.309029,-11.662155,-6.1760826,-3.6076946,-4.464422,-14.317754,12.904984,-11.080891,1.8017539,-0.58668286,0.10797563,6.177907,4.304531,17.094782,-26.86068,54.525436,-0.006608737,3.6657097,4.3217854,-5.7263017,-14.713668,31.575798,61.47328,-8.286536,4.5736594,-0.9645678
28,0.15564227104187012,1.7876906394958496,79.84410095214844,-0.853741886095531,1.9290531303878347,-96.49266737552479,-0.31447563,6.194847,9.1474085,11.320762,-11.665184,-6.1885653,-3.5984743,-4.454182,-14.332723,12.88959,-11.075845,1.7907284,-0.58644664,0.116199136,6.1770253,4.3154125,17.095522,-26.846506,54.516846,0.018967422,3.664966,4.2919436,-5.736713,-14.712437,31.574003,61.4753,-8.294769,4.565812,-0.9777411
29,0.15132395923137665,1.7921756505966187,79.84510803222656,-0.86068960885126,1.9244293137775346,-96.4727620496736,-0.3167826,6.2047167,9.128503,11.330414,-11.6684265,-6.2033167,-3.5837235,-4.4443097,-14.346753,12.881793,-11.069197,1.768617,-0.5973133,0.12061066,6.174763,4.326014,17.096565,-26.843676,54.512753,0.036561694,3.6859784,4.3008866,-5.7407336,-14.71076,31.582827,61.46696,-8.295789,4.5689254,-0.9960125
30,0.14986303448677063,1.7953146696090698,79.84413146972656,-0.868834188286469,1.9174122416099366,-96.44114312513184,-0.31680462,6.2136064,9.100833,11.338589,-11.671484,-6.2206287,-3.5663595,-4.434358,-14.360856,12.88111,-11.062472,1.7377805,-0.61219066,0.12458199,6.167863,4.332112,17.097263,-26.859558,54.517742,0.043148383,3.721486,4.3352427,-5.737489,-14.70972,31.597298,61.45336,-8.289319,4.578393,-1.0187081
31,0.14613878726959229,1.7866451740264893,79.84512329101562,-0.8759956163803776,1.909185938122788,-96.40893489879323,-0.31582323,6.2211366,9.072976,11.3473015,-11.674927,-6.235117,-3.5467045,-4.4253435,-14.373674,12.878166,-11.055271,1.7121322,-0.62231356,0.1274191,6.160211,4.3361335,17.097488,-26.881367,54.526455,0.060891267,3.755807,4.368551,-5.7298183,-14.709093,31.61051,61.435787,-8.278691,4.589097,-1.0421271
32,0.1410958170890808,1.784757375717163,79.84529113769531,-0.8800075486590775,1.9012003092155956,-96.38749284035462,-0.31568098,6.226586,9.053426,11.3588915,-11.679341,-6.2411942,-3.52636,-4.418143,-14.383649,12.866727,-11.049394,1.7055086,-0.6245636,0.12904349,6.1576996,4.3387947,17.097511,-26.891403,54.53405,0.110125184,3.7732017,4.37354,-5.7275677,-14.708991,31.61604,61.420727,-8.270621,4.595402,-1.0615582
33,0.13841596245765686,1.7893558740615845,79.8451156616211,-0.877909037094279,1.8939350438966003,-96.38265324140745,-0.31921,6.227999,9.046553,11.379211,-11.687705,-6.2329116,-3.5075705,-4.4154468,-14.387948,12.845863,-11.047491,1.732779,-0.6152597,0.12802085,6.156242,4.34213,17.097551,-26.89522,54.541115,0.20010827,3.7647624,4.335334,-5.729508,-14.708944,31.618126,61.410522,-8.261339,4.5969887,-1.0758206
34,0.13274253904819489,1.7929760217666626,79.8448257446289,-0.875590822840336,1.8847159573932324,-96.38624102970729,-0.32550347,6.231209,9.044763,11.411324,-11.701841,-6.2155175,-3.4769516,-4.4091244,-14.391216,12.799444,-11.038945,1.7821393,-0.591045,0.12837595,6.154421,4.349246,17.097557,-26.889397,54.54896,0.34827697,3.7354734,4.2581487,-5.728067,-14.708844,31.616476,61.402843,-8.242174,4.5969424,-1.0925853
35,0.12810319662094116,1.7926971912384033,79.84598541259766,-0.8720105653974789,1.8763984546649395,-96.39171699625447,-0.33226782,6.2330666,9.045108,11.442082,-11.714996,-6.1979146,-3.4531474,-4.405857,-14.394138,12.763848,-11.03578,1.8296057,-0.57195395,0.12736319,6.157139,4.3574705,17.097656,-26.876026,54.55182,0.48753604,3.7077692,4.1878242,-5.732709,-14.708866,31.6135,61.39417,-8.23006,4.593991,-1.1058215
36,0.12584134936332703,1.7893542051315308,79.84593200683594,-0.8694964949558535,1.8697855575586022,-96.39145412689145,-0.33422223,6.2344866,9.042745,11.45774,-11.720188,-6.18977,-3.4384573,-4.404843,-14.400643,12.747901,-11.036853,1.850578,-0.56262547,0.12586011,6.1591797,4.363181,17.09773,-26.86989,54.55461,0.56905293,3.6990628,4.160626,-5.7391963,-14.708996,31.614208,61.38374,-8.222844,4.5888023,-1.1197276
37,0.12635616958141327,1.7864617109298706,79.84477996826172,-0.8737795236754117,1.8631479823531414,-96.38035151276671,-0.33457956,6.242307,9.032484,11.46946,-11.723906,-6.1967,-3.4266577,-4.4004893,-14.417209,12.747496,-11.038309,1.8295854,-0.5685453,0.13048573,6.1622562,4.376439,17.097685,-26.867558,54.54675,0.59287566,3.7195847,4.193622,-5.7483006,-14.709341,31.623331,61.368073,-8.214811,4.590791,-1.1337756
38,0.12032540887594223,1.7980577945709229,79.84432220458984,-0.8796421510298977,1.857909259180348,-96.36409599396565,-0.33220214,6.250885,9.019691,11.471595,-11.722652,-6.2121234,-3.4220755,-4.3977633,-14.438626,12.763857,-11.043533,1.7830048,-0.5819408,0.13543631,6.162916,4.3864985,17.097454,-26.87577,54.541096,0.56431,3.7588775,4.268888,-5.7579618,-14.709687,31.63478,61.34852,-8.20853,4.5973735,-1.1443217
39,0.11756014078855515,1.7970528602600098,79.84517669677734,-0.8852000091737798,1.853940843888603,-96.34744934565424,-0.32944995,6.258536,9.006958,11.468472,-11.718108,-6.229659,-3.422884,-4.3961673,-14.459291,12.787197,-11.050621,1.7323384,-0.5962634,0.14312564,6.151937,4.4036016,17.09597,-26.908323,54.53589,0.49924475,3.7998943,4.359307,-5.7687745,-14.711503,31.673344,61.344967,-8.183577,4.589237,-1.1703037
40,0.1132560446858406,1.7906781435012817,79.84566497802734,-0.8871711847377213,1.850944674048037,-96.33625660346513,-0.326609,6.2619467,8.998454,11.460485,-11.710251,-6.2428493,-3.4281662,-4.3968463,-14.472226,12.809627,-11.058412,1.699142,-0.59502596,0.14445746,6.1501575,4.405681,17.094793,-26.923864,54.540787,0.46274945,3.8181913,4.408936,-5.7758965,-14.713019,31.692202,61.34764,-8.175587,4.542109,-1.2116256
41,0.10885830223560333,1.7940200567245483,79.84645080566406,-0.8846017080492967,1.8491055672096999,-96.3329906608479,-0.32545483,6.260317,8.995533,11.448659,-11.698545,-6.250977,-3.4390328,-4.3996415,-14.474509,12.82747,-11.064561,1.6900011,-0.57342243,0.13882865,6.153251,4.399634,17.094255,-26.92953,54.55273,0.4537622,3.8057466,4.408517,-5.7785215,-14.714733,31.70519,61.367134,-8.180956,4.42945,-1.2878842
42,0.10587462782859802,1.8002420663833618,79.84477233886719,-0.8762814594158106,1.8487213753727458,-96.33549058303238,-0.3202222,6.2509694,8.998454,11.4216385,-11.677749,-6.2565312,-3.4621658,-4.409052,-14.467548,12.858905,-11.077361,1.6937093,-0.54625946,0.1307318,6.153116,4.383779,17.09139,-26.935522,54.582947,0.43719387,3.769554,4.380146,-5.787234,-14.720846,31.749966,61.428,-8.165195,4.243524,-1.4056511
43,0.102323517203331,1.8159022331237793,79.84519958496094,-0.8686275291321084,1.8492543321180248,-96.33808756176046,-0.31856313,6.243243,9.000572,11.400187,-11.660003,-6.2600117,-3.4818425,-4.4157705,-14.460418,12.880325,-11.086157,1.70317,-0.51806176,0.12215159,6.1560497,4.3713155,17.089378,-26.93158,54.605392,0.4348315,3.7318208,4.3421383,-5.7935977,-14.725691,31.776327,61.472668,-8.163938,4.082158,-1.5066394
44,0.09930947422981262,1.8303515911102295,79.84495544433594,-0.8641402043871763,1.8507169854543286,-96.33660794220282,-0.32138962,6.2402544,8.998685,11.388562,-11.648586,-6.261118,-3.4906511,-4.4171624,-14.458726,12.884236,-11.088754,1.7120538,-0.49862573,0.11742306,6.154305,4.3696604,17.088228,-26.927465,54.61632,0.43815595,3.707584,4.315682,-5.798908,-14.728484,31.78743,61.48802,-8.16016,4.0049667,-1.5589607
45,0.09219754487276077,1.835400104522705,79.84481811523438,-0.8625614734409549,1.8551284819514064,-96.33098316918365,-0.33213785,6.2430506,8.99359,11.391972,-11.647084,-6.257079,-3.4905686,-4.412877,-14.462363,12.871374,-11.0867405,1.7230388,-0.49713603,0.118308395,6.1433587,4.3773623,17.087486,-26.92324,54.620388,0.44153175,3.6989443,4.3025236,-5.8087087,-14.729655,31.788439,61.469418,-8.143978,4.0461698,-1.5410976
46,0.08144567161798477,1.838208556175232,79.84383392333984,-0.8645230641509295,1.8628878305888805,-96.32231028940659,-0.35251236,6.2520146,8.985076,11.409999,-11.653869,-6.2492213,-3.4805148,-4.4014363,-14.470445,12.83541,-11.075933,1.7377244,-0.5093689,0.12593718,6.1271358,4.4030623,17.085691,-26.906631,54.60733,0.4578728,3.697629,4.292465,-5.8224435,-14.731609,31.77568,61.419003,-8.127446,4.1770363,-1.470435
47,0.07760798186063766,1.8356399536132812,79.84334564208984,-0.8668633576729315,1.8680519411702905,-96.31109695688188,-0.3688098,6.260534,8.973967,11.4266205,-11.6610365,-6.2422004,-3.465704,-4.390142,-14.481016,12.798574,-11.065293,1.7495664,-0.5202267,0.13293126,6.11344,4.425179,17.084604,-26.894194,54.5948,0.4759123,3.7034845,4.287099,-5.8322687,-14.731722,31.752674,61.362812,-8.115334,4.322971,-1.3904345
48,0.07787381857633591,1.8309268951416016,79.84502410888672,-0.8689286575377171,1.8664441950890878,-96.29662367314951,-0.3731761,6.2656593,8.958688,11.432357,-11.663134,-6.241099,-3.4480305,-4.382673,-14.494518,12.773904,-11.059628,1.7515069,-0.525559,0.13755405,6.1052027,4.441216,17.084135,-26.890041,54.587574,0.49102777,3.7143078,4.287379,-5.8361244,-14.730532,31.734655,61.321503,-8.10821,4.426505,-1.3384514
49,0.07601344585418701,1.830749750137329,79.84412384033203,-0.8702936221128229,1.8557241793498367,-96.27840943000398,-0.35969958,6.2654366,8.93829,11.420756,-11.657515,-6.2498884,-3.4284337,-4.381215,-14.51138,12.769326,-11.061671,1.737547,-0.5290366,0.1400584,6.105994,4.4469895,17.084036,-26.890951,54.59008,0.5006158,3.7326422,4.295376,-5.8371735,-14.730323,31.733402,61.305717,-8.1041565,4.463317,-1.3299423
50,0.0719246193766594,1.8318809270858765,79.84568786621094,-0.8728541322363795,1.8335837268143207,-96.25299177233155,-0.32876578,6.2625947,8.909486,11.397711,-11.647462,-6.265089,-3.3946397,-4.3818846,-14.535818,12.76789,-11.065902,1.7130353,-0.5342259,0.1418691,6.114109,4.460537,17.083593,-26.896902,54.58361,0.5137027,3.7665443,4.316115,-5.8261395,-14.729804,31.734413,61.286575,-8.106735,4.4857044,-1.3395066
51,0.06910546869039536,1.8252842426300049,79.84632110595703,-0.8748942440892236,1.813523379050493,-96.22842542939213,-0.30162287,6.2593875,8.881562,11.377168,-11.638156,-6.280309,-3.3665814,-4.3835087,-14.558862,12.771794,-11.07168,1.6872128,-0.5378378,0.14377259,6.121923,4.4670296,17.08325,-26.902235,54.584736,0.52371264,3.793801,4.3322554,-5.818325,-14.729582,31.737265,61.278767,-8.111503,4.490419,-1.3534722
52,0.06686065346002579,1.8330070972442627,79.84669494628906,-0.8760955946157983,1.7984953614284946,-96.2063450774535,-0.2850819,6.25768,8.857365,11.365113,-11.631265,-6.289237,-3.3436625,-4.3837075,-14.57886,12.770282,-11.074967,1.6698717,-0.539532,0.14545962,6.1236844,4.4760427,17.082293,-26.911453,54.58535,0.52811676,3.8089082,4.340801,-5.807644,-14.729173,31.740858,61.268356,-8.11498,4.5015492,-1.3587338
53,0.06242276728153229,1.8516018390655518,79.84677124023438,-0.8765089489334111,1.793239764110781,-96.18636230860798,-0.29048252,6.258896,8.83708,11.373269,-11.631869,-6.288347,-3.331431,-4.381622,-14.59494,12.761455,-11.074319,1.6647435,-0.5423603,0.14715743,6.1213527,4.4816694,17.08168,-26.910215,54.590015,0.5318231,3.7983098,4.3274536,-5.806076,-14.728706,31.736189,61.260006,-8.124553,4.5213833,-1.3417057
54,0.05703213810920715,1.8617019653320312,79.84674072265625,-0.877299420982031,1.793033428803284,-96.16679128391112,-0.30878347,6.2623816,8.817911,11.393927,-11.63684,-6.2818184,-3.3233595,-4.377221,-14.609881,12.746041,-11.070508,1.6662396,-0.5441498,0.14864668,6.1167784,4.488413,17.081404,-26.902227,54.594257,0.5393766,3.7718484,4.3008204,-5.8050194,-14.728225,31.723417,61.250652,-8.14326,4.5430126,-1.3125544
55,0.05262605845928192,1.8509622812271118,79.84437561035156,-0.876758189355253,1.7948946943024702,-96.15136266961518,-0.329382,6.2656193,8.803196,11.414927,-11.6415615,-6.274245,-3.3215618,-4.373806,-14.620943,12.735504,-11.068616,1.669944,-0.5444853,0.14922963,6.111784,4.491935,17.081469,-26.895824,54.599617,0.54144883,3.7450655,4.274755,-5.8074846,-14.72784,31.714066,61.246105,-8.158355,4.560723,-1.2857045
56,0.05098048225045204,1.8457367420196533,79.84487915039062,-0.8756942376570559,1.795900916732789,-96.1432320553307,-0.3430639,6.2685795,8.794867,11.426585,-11.642683,-6.270711,-3.3237247,-4.3709,-14.626987,12.731808,-11.069163,1.6711446,-0.5390562,0.14860348,6.1111794,4.4936585,17.082024,-26.890444,54.60029,0.5442166,3.7331011,4.2610373,-5.810849,-14.727011,31.706413,61.243706,-8.1681185,4.569625,-1.2715116
57,0.045156169682741165,1.8457823991775513,79.84487915039062,-0.8744388975248164,1.795558755090559,-96.14653711415548,-0.3488964,6.2724504,8.795651,11.428509,-11.64015,-6.273591,-3.331564,-4.3677783,-14.625706,12.737631,-11.073102,1.6692312,-0.5303085,0.14899367,6.1142635,4.493054,17.082232,-26.890266,54.597687,0.5434997,3.7416594,4.266167,-5.81593,-14.72683,31.705784,61.244324,-8.174466,4.5672407,-1.2737367
58,0.03615147992968559,1.8602527379989624,79.84230041503906,-0.8711670233894867,1.7959362219851236,-96.16028354391536,-0.34936973,6.2752724,8.806182,11.420765,-11.633465,-6.279597,-3.3497424,-4.366947,-14.615725,12.757196,-11.082354,1.6665721,-0.51483595,0.1483588,6.1225877,4.488853,17.083305,-26.896843,54.58662,0.5348184,3.767886,4.287404,-5.832392,-14.725938,31.71261,61.25688,-8.169968,4.552871,-1.2898846
59,0.034340281039476395,1.872305989265442,79.84391784667969,-0.8691576298059669,1.7958696676868637,-96.17223317317875,-0.35051796,6.2793465,8.814823,11.415333,-11.628102,-6.2863603,-3.3642724,-4.3644495,-14.608328,12.771758,-11.089482,1.6625738,-0.50044334,0.14807248,6.1267776,4.4858007,17.083937,-26.901041,54.582436,0.5296968,3.7898352,4.3050933,-5.8379045,-14.725425,31.71803,61.262093,-8.1674595,4.541235,-1.3068581
60,0.03140978515148163,1.879162311553955,79.84465789794922,-0.8658470254058257,1.7981611231657415,-96.17772813000065,-0.35543317,6.2804313,8.819544,11.411833,-11.623162,-6.2904735,-3.3815005,-4.3657055,-14.604279,12.79179,-11.099492,1.657105,-0.48308063,0.14608768,6.1253,4.482094,17.084974,-26.90814,54.57965,0.52394044,3.8063622,4.314153,-5.8437476,-14.724436,31.729294,61.2746,-8.153218,4.5334325,-1.3248401
61,0.022807398810982704,1.8847541809082031,79.84225463867188,-0.8642040083555128,1.8017977633480429,-96.168270235065,-0.36740744,6.28083,8.811675,11.417573,-11.622108,-6.290932,-3.3885577,-4.3671303,-14.61256,12.798063,-11.103649,1.6492058,-0.47118682,0.14293204,6.109905,4.4819155,17.086893,-26.909607,54.59135,0.5234791,3.7994342,4.300052,-5.8363347,-14.722084,31.743156,61.275536,-8.132095,4.562168,-1.3298625
62,0.021256649866700172,1.8864161968231201,79.84246826171875,-0.8634728994813133,1.8065145618546243,-96.15023531420584,-0.3867462,6.2809205,8.796611,11.43472,-11.626552,-6.2893486,-3.39438,-4.3698525,-14.627283,12.805927,-11.109256,1.6392286,-0.4582399,0.14005502,6.0912585,4.482581,17.087814,-26.902172,54.606777,0.53389573,3.7806756,4.2714376,-5.8199716,-14.720658,31.745832,61.266064,-8.113635,4.612032,-1.3264364
63,0.025163792073726654,1.8832120895385742,79.84388732910156,-0.8630689243116166,1.8113774034147763,-96.13109407808356,-0.40545198,6.2813277,8.781101,11.450043,-11.6297865,-6.2878833,-3.398153,-4.371908,-14.643022,12.809927,-11.113197,1.6287403,-0.44545552,0.13719742,6.0733852,4.4829535,17.088505,-26.892475,54.622326,0.54777503,3.762413,4.2407303,-5.8024507,-14.719625,31.74728,61.26523,-8.100469,4.6342864,-1.3285003
64,0.020742295309901237,1.887182354927063,79.8419418334961,-0.8627948332345421,1.8166283534872685,-96.11697549164892,-0.42300275,6.283611,8.769976,11.46204,-11.630969,-6.288621,-3.4064481,-4.3722916,-14.654745,12.817803,-11.119201,1.6191812,-0.43569115,0.13543075,6.0582356,4.4841003,17.088919,-26.88301,54.635582,0.56393707,3.754611,4.2169228,-5.7835965,-14.719204,31.74973,61.28351,-8.103066,4.582975,-1.3491287
65,0.013272535987198353,1.8905563354492188,79.84138488769531,-0.862494211793396,1.8239873324027116,-96.11306057619981,-0.4409127,6.289181,8.768534,11.470009,-11.62924,-6.292366,-3.4249618,-4.369947,-14.658136,12.832782,-11.128212,1.6103482,-0.43157125,0.13646281,6.04804,4.4883294,17.089598,-26.868853,54.639313,0.5815937,3.7662067,4.2041416,-5.7705436,-14.719308,31.762486,61.35418,-8.129204,4.3759537,-1.4105083
66,0.009321285411715508,1.8917614221572876,79.84060668945312,-0.8622200498818383,1.8326324053042287,-96.11468121311867,-0.4590365,6.296635,8.772576,11.475074,-11.625391,-6.297945,-3.4498975,-4.366148,-14.6569395,12.852797,-11.139708,1.6017799,-0.43644434,0.14224117,6.040841,4.5023823,17.090233,-26.851883,54.62973,0.5972408,3.7901673,4.199324,-5.768431,-14.720593,31.78831,61.46699,-8.169442,4.0640626,-1.4993104
67,0.0007872977294027805,1.9040454626083374,79.83834075927734,-0.8619325190322535,1.8383230492190938,-96.1149611834679,-0.47157875,6.3034034,8.774791,11.476578,-11.620582,-6.3042684,-3.469609,-4.3625665,-14.657146,12.871065,-11.151127,1.5942365,-0.44756657,0.14885356,6.0355964,4.521225,17.09031,-26.83265,54.61779,0.6120737,3.8143177,4.1964755,-5.769382,-14.723274,31.820719,61.57001,-8.20198,3.7829823,-1.5776076
68,-0.00352575839497149,1.9122716188430786,79.83880615234375,-0.8616304256207511,1.836583388831601,-96.10734200796327,-0.4739533,6.306706,8.767846,11.476189,-11.617163,-6.3103366,-3.4728975,-4.36109,-14.664284,12.88226,-11.16102,1.5886805,-0.45644033,0.15341817,6.0322313,4.537354,17.089828,-26.821154,54.61357,0.6233103,3.8278418,4.1912975,-5.7659273,-14.7252655,31.83673,61.616833,-8.216358,3.6672974,-1.6056697
69,-0.0068397531285882,1.8993895053863525,79.84053802490234,-0.8620698414638225,1.8233646510011434,-96.08611485717564,-0.45811766,6.304783,8.744918,11.467815,-11.6138315,-6.3180394,-3.448453,-4.362028,-14.683752,12.879591,-11.167606,1.5856984,-0.47076026,0.15604267,6.031677,4.5552297,17.088821,-26.814713,54.618656,0.6312413,3.8254817,4.1866174,-5.758224,-14.725682,31.838362,61.57553,-8.197964,3.809587,-1.5568237
70,-0.009239892475306988,1.8876209259033203,79.84021759033203,-0.862863626575183,1.8019978243693273,-96.05628727245784,-0.4300723,6.2996783,8.711602,11.455455,-11.61128,-6.32723,-3.4052448,-4.364258,-14.710914,12.867499,-11.172036,1.584745,-0.48674914,0.1567188,6.0336676,4.571948,17.087526,-26.81442,54.63177,0.6364709,3.8139863,4.183589,-5.748431,-14.724689,31.829134,61.478603,-8.158794,4.118638,-1.457477
71,-0.011007591150701046,1.886114239692688,79.83995056152344,-0.8626979196666035,1.7792013690163377,-96.0266847257628,-0.4014343,6.29353,8.67893,11.445498,-11.609845,-6.333729,-3.360571,-4.367864,-14.738017,12.855797,-11.176234,1.5847204,-0.49851185,0.15548176,6.0359473,4.5852604,17.086008,-26.816425,54.64777,0.6397719,3.7990813,4.17395,-5.7352533,-14.722661,31.81121,61.37058,-8.120322,4.45582,-1.3485628
72,-0.012771464884281158,1.8976404666900635,79.8403549194336,-0.8601140146819586,1.7616128800219166,-96.00599762584898,-0.38283467,6.28822,8.658145,11.442372,-11.608615,-6.333491,-3.3328536,-4.373144,-14.756993,12.855679,-11.182786,1.5846715,-0.49648473,0.1517101,6.037217,4.589282,17.083944,-26.819633,54.662918,0.64199877,3.7868803,4.14925,-5.722784,-14.719282,31.787367,61.301163,-8.098278,4.6813526,-1.2698002
73,-0.01580904610455036,1.9080445766448975,79.84127807617188,-0.8529849755578834,1.751526081486787,-96.00056377751918,-0.38032398,6.2841206,8.657697,11.452068,-11.608041,-6.3209996,-3.3304913,-4.3809867,-14.762121,12.870956,-11.190973,1.5856104,-0.48247355,0.14447205,6.036809,4.589172,17.082802,-26.812141,54.669674,0.6399649,3.7766807,4.0948396,-5.7120667,-14.717103,31.769127,61.28276,-8.093789,4.7498684,-1.2320132
74,-0.02542892098426819,1.9166510105133057,79.84014129638672,-0.8430142528817632,1.745140767341589,-96.00431680338201,-0.38747826,6.2803826,8.669672,11.47172,-11.609222,-6.299879,-3.3420172,-4.390882,-14.758825,12.894939,-11.199787,1.5876462,-0.46049693,0.13390335,6.0376186,4.587163,17.082212,-26.793636,54.669125,0.63901067,3.7662745,4.0181904,-5.7041445,-14.715391,31.749296,61.290993,-8.101433,4.7380586,-1.2126648
75,-0.025949325412511826,1.914297103881836,79.83978271484375,-0.8335549473416212,1.7401514768131658,-96.00742774141341,-0.3961412,6.2774477,8.680711,11.490333,-11.609798,-6.2799854,-3.3553197,-4.4000893,-14.756483,12.919635,-11.209358,1.5882825,-0.44193026,0.12555605,6.0351024,4.5872436,17.082144,-26.783579,54.666885,0.63211346,3.7584338,3.9488463,-5.6973467,-14.714977,31.741982,61.31216,-8.10455,4.6931977,-1.2081096
76,-0.02764693647623062,1.9148319959640503,79.83999633789062,-0.8274266259715755,1.7346577814393713,-96.00073939131426,-0.3986195,6.274599,8.678127,11.497536,-11.608342,-6.2709255,-3.3597956,-4.407222,-14.763661,12.939576,-11.221113,1.5851597,-0.43746725,0.12078782,6.034005,4.5904226,17.082203,-26.774708,54.664745,0.63679165,3.7554505,3.906827,-5.690931,-14.714731,31.73631,61.328606,-8.111557,4.659436,-1.208818
77,-0.02625923417508602,1.9060930013656616,79.84127807617188,-0.8266811542370924,1.72767011115819,-95.97853757792637,-0.38998574,6.2720513,8.6537695,11.485763,-11.603191,-6.278498,-3.348889,-4.410909,-14.787048,12.950827,-11.235563,1.5738573,-0.45605123,0.12285994,6.034305,4.600762,17.082436,-26.77588,54.66082,0.65072703,3.7636082,3.9130464,-5.684876,-14.714627,31.739283,61.338764,-8.119285,4.641137,-1.2217027
78,-0.03187543526291847,1.9087188243865967,79.84076690673828,-0.8297437973112127,1.720507366331901,-95.9467734006889,-0.37855598,6.2707825,8.615633,11.468464,-11.5990505,-6.296559,-3.3320248,-4.4123936,-14.820537,12.962537,-11.255036,1.5567472,-0.48778865,0.13103108,6.0271378,4.616193,17.082935,-26.801666,54.660072,0.65750724,3.779924,3.9554439,-5.6783442,-14.715294,31.763134,61.356514,-8.116018,4.6181397,-1.2516315
79,-0.04027050361037254,1.9067617654800415,79.84034729003906,-0.8333809685388721,1.713807916031221,-95.91352752076669,-0.36571074,6.269518,8.575911,11.44698,-11.592889,-6.31668,-3.3120253,-4.412607,-14.854211,12.967752,-11.271897,1.542127,-0.519384,0.13945156,6.0200124,4.628034,17.08301,-26.826982,54.663452,0.6689541,3.7927313,3.998793,-5.670642,-14.716323,31.782675,61.372353,-8.115631,4.596665,-1.2798861
80,-0.04839179664850235,1.9140998125076294,79.83800506591797,-0.8344462278354626,1.7081171203973329,-95.88673683304805,-0.35797426,6.268011,8.546194,11.432661,-11.586426,-6.330351,-3.2977798,-4.4134035,-14.878145,12.972814,-11.286517,1.5380635,-0.5387499,0.14348298,6.0150766,4.6334667,17.083021,-26.837,54.669704,0.68945044,3.7914126,4.01206,-5.66499,-14.717052,31.789778,61.38436,-8.118754,4.584423,-1.2908068
81,-0.05411505699157715,1.9238896369934082,79.83688354492188,-0.8311105880374811,1.7039497543814655,-95.86834535691277,-0.35659593,6.2644696,8.53081,11.425247,-11.577128,-6.334542,-3.2897704,-4.41529,-14.887281,12.973264,-11.295675,1.5536221,-0.5390851,0.14202115,6.0016694,4.63653,17.08285,-26.837255,54.683468,0.7161667,3.7658234,3.9778478,-5.652744,-14.719101,31.788147,61.39015,-8.119721,4.588763,-1.277432
82,-0.058289576321840286,1.925621747970581,79.83580017089844,-0.8253419044619229,1.7008126381152462,-95.85453486554677,-0.35887378,6.2601037,8.523376,11.421572,-11.566185,-6.3341074,-3.2856364,-4.4175963,-14.887493,12.971425,-11.302301,1.5821918,-0.5285434,0.13514225,5.9947066,4.633069,17.082659,-26.810865,54.698467,0.76496434,3.7236972,3.9097362,-5.639934,-14.7242565,31.766703,61.383385,-8.1308775,4.6035323,-1.244441
83,-0.06175979599356651,1.926236629486084,79.83578491210938,-0.8195416783049996,1.6976229585834777,-95.84303158600139,-0.3628765,6.2566338,8.51853,11.422198,-11.557077,-6.3320403,-3.283081,-4.4196334,-14.886092,12.970427,-11.308048,1.6084615,-0.51829106,0.1283454,5.992202,4.6292763,17.082905,-26.778162,54.708652,0.81485003,3.6822119,3.842453,-5.6289105,-14.730992,31.741291,61.373924,-8.146536,4.6176934,-1.2078319
84,-0.06421633809804916,1.925351858139038,79.8366928100586,-0.8159780109423036,1.6939702752245616,-95.83212406879069,-0.36641708,6.256058,8.511253,11.426317,-11.552815,-6.331404,-3.2804239,-4.420495,-14.890453,12.973954,-11.315197,1.6169649,-0.51461416,0.12552945,5.9869995,4.6270723,17.08317,-26.769506,54.71655,0.83862394,3.659224,3.8138673,-5.6265845,-14.733479,31.733536,61.383945,-8.150536,4.6195974,-1.1871238
85,-0.0693901926279068,1.9221043586730957,79.8362045288086,-0.8155185186113931,1.6897058997971384,-95.82332474162753,-0.37049347,6.260436,8.501334,11.438469,-11.55728,-6.3334866,-3.2811399,-4.42018,-14.903011,12.990029,-11.325917,1.5958686,-0.5205937,0.12659447,5.9898987,4.6240025,17.083992,-26.767231,54.71696,0.8500074,3.6590106,3.8289194,-5.6285253,-14.738332,31.725172,61.39945,-8.163976,4.602464,-1.1773881
86,-0.07484471052885056,1.9248309135437012,79.83504486083984,-0.8172927004974092,1.685077390067166,-95.81702744789852,-0.37464112,6.2680855,8.491275,11.455292,-11.566597,-6.336584,-3.2834778,-4.4188147,-14.91982,13.011686,-11.337027,1.5559266,-0.52926165,0.13168782,5.9952617,4.620723,17.085323,-26.782345,54.710938,0.841788,3.6753788,3.8765779,-5.63495,-14.743451,31.724236,61.423008,-8.1728115,4.574352,-1.1767507
87,-0.08294830471277237,1.927988052368164,79.83509063720703,-0.8188146455121583,1.6800644909478466,-95.80920488383684,-0.37883148,6.275375,8.479239,11.473483,-11.577689,-6.338844,-3.284249,-4.4176273,-14.938111,13.033493,-11.34978,1.5160443,-0.5382024,0.13773473,5.999098,4.6167254,17.087175,-26.810179,54.70521,0.8237586,3.6966212,3.93633,-5.6407547,-14.749094,31.726593,61.450546,-8.177218,4.543199,-1.182885
88,-0.09071948379278183,1.9276384115219116,79.83396911621094,-0.8184425978756663,1.6743602638860788,-95.79624569841067,-0.3785013,6.2785606,8.464122,11.48118,-11.582887,-6.3386335,-3.2783792,-4.4176016,-14.954807,13.045674,-11.362673,1.4950743,-0.5461216,0.1407099,6.0011973,4.611216,17.08887,-26.838297,54.703186,0.810499,3.7126644,3.9879978,-5.641187,-14.753756,31.729778,61.472404,-8.175463,4.5180774,-1.1940078
89,-0.095742367208004,1.9261425733566284,79.83365631103516,-0.815323843211042,1.6669938588010507,-95.77371448766625,-0.3734715,6.275585,8.442543,11.478186,-11.581185,-6.3353357,-3.2605872,-4.4191628,-14.970696,13.042082,-11.37474,1.5043861,-0.55575556,0.14050283,6.0021114,4.605885,17.09076,-26.870392,54.70387,0.8046737,3.7223299,4.035661,-5.6360116,-14.75957,31.737377,61.49077,-8.166193,4.4938893,-1.2193013
90,-0.10213524848222733,1.9280664920806885,79.83304595947266,-0.8107087365232941,1.6583867858995567,-95.74466173218451,-0.36471808,6.2690334,8.416358,11.467286,-11.574764,-6.329893,-3.23391,-4.4214687,-14.987024,13.026989,-11.385941,1.5318053,-0.56734306,0.13993083,6.0033927,4.6004534,17.09387,-26.910398,54.70354,0.7974154,3.7308168,4.0868464,-5.62376,-14.771675,31.751177,61.501144,-8.148432,4.468765,-1.255943
91,-0.10656609386205673,1.9259395599365234,79.83231353759766,-0.8046324970673231,1.6502296760067723,-95.71611940612047,-0.35417807,6.260457,8.390823,11.451989,-11.56716,-6.3226957,-3.210323,-4.4256153,-15.001212,13.017525,-11.401803,1.5610179,-0.58344346,0.13640092,6.0061874,4.597873,17.09554,-26.930176,54.70278,0.80313367,3.7355187,4.122302,-5.6191964,-14.778898,31.761406,61.513283,-8.135703,4.4541025,-1.2829338
92,-0.11376281082630157,1.9268354177474976,79.83206176757812,-0.7986904737737962,1.6454796315307318,-95.69645668131945,-0.3495393,6.2542725,8.372021,11.446024,-11.567349,-6.3143783,-3.2005432,-4.4302144,-15.009985,13.023729,-11.423667,1.5753905,-0.59331626,0.13194484,6.005229,4.5963345,17.095852,-26.932657,54.703682,0.8142294,3.734912,4.1276264,-5.619613,-14.78018,31.761864,61.521942,-8.126144,4.4617352,-1.2814583
93,-0.12182433903217316,1.9265973567962646,79.83203887939453,-0.7908123890281846,1.6422190081294168,-95.68596170082147,-0.34539458,6.2478595,8.361849,11.441135,-11.569605,-6.301492,-3.2041466,-4.438418,-15.0145645,13.04824,-11.452173,1.5708462,-0.5953965,0.12601171,5.998366,4.596009,17.096167,-26.929811,54.709835,0.82591,3.7273622,4.094021,-5.6229973,-14.781493,31.756132,61.526688,-8.107881,4.5036993,-1.239822
94,-0.13112658262252808,1.9247219562530518,79.8309326171875,-0.7772890908479851,1.6414881302263922,-95.68354284008282,-0.33884448,6.235703,8.360845,11.428907,-11.569584,-6.2841616,-3.227347,-4.4559627,-15.0116415,13.1031475,-11.494701,1.5566053,-0.5819432,0.11274162,5.9990206,4.590195,17.098778,-26.891315,54.71459,0.87100214,3.7104669,4.0082974,-5.6242504,-14.790453,31.700842,61.49973,-8.112064,4.5841055,-1.1449454
95,-0.1334698349237442,1.9252896308898926,79.82655334472656,-0.7660577571627809,1.6424666818309823,-95.682316798852,-0.33787844,6.2268558,8.357177,11.426671,-11.57845,-6.2698464,-3.2558854,-4.47132,-15.008244,13.166573,-11.542985,1.5356605,-0.5680924,0.10160536,5.999813,4.586233,17.102358,-26.852037,54.713856,0.90691096,3.6932693,3.9243102,-5.6224103,-14.800273,31.648165,61.47012,-8.119477,4.6581497,-1.0538644
96,-0.14156711101531982,1.923597812652588,79.82275390625,-0.7557880503752245,1.6449078970122828,-95.67552968450642,-0.34113163,6.21774,8.342089,11.43097,-11.596291,-6.263888,-3.2926166,-4.488745,-15.007327,13.252346,-11.606528,1.5127798,-0.56107396,0.092179455,5.996746,4.5856204,17.107323,-26.822615,54.707558,0.9198053,3.6786482,3.8694108,-5.6170816,-14.811881,31.61254,61.446373,-8.130182,4.7024198,-0.99113464
97,-0.1492132842540741,1.9178979396820068,79.81668853759766,-0.7473161436782456,1.6488618925383476,-95.660305973642,-0.35015976,6.2077637,8.307527,11.444401,-11.626259,-6.272822,-3.3416939,-4.509737,-15.011049,13.374001,-11.694961,1.4864511,-0.5623392,0.084687814,5.9848003,4.587865,17.110126,-26.810783,54.699566,0.8980865,3.6693747,3.8574622,-5.6075916,-14.8181715,31.605227,61.439365,-8.145066,4.7005463,-0.9715334
98,-0.15949779748916626,1.9094009399414062,79.8124008178711,-0.7394976911246096,1.6543877730358685,-95.64032521041737,-0.3607836,6.1967535,8.260606,11.459139,-11.662664,-6.291818,-3.3988519,-4.5331755,-15.017014,13.517704,-11.798605,1.4552699,-0.5691387,0.07829623,5.9704843,4.593771,17.114044,-26.800367,54.684864,0.8580947,3.6620688,3.8662531,-5.593946,-14.826855,31.60993,61.43475,-8.167895,4.6700773,-0.9733814
99,-0.16668975353240967,1.9052698612213135,79.80052947998047,-0.7319371948763377,1.6611184622773558,-95.61978029307569,-0.37989527,6.18758,8.213328,11.490299,-11.710956,-6.3099093,-3.4656703,-4.5580482,-15.02182,13.680351,-11.913111,1.4237597,-0.57857215,0.072066166,5.9551096,4.6009026,17.116995,-26.794912,54.66751,0.81160706,3.6541703,3.886147,-5.58217,-14.833348,31.620127,61.432438,-8.18946,4.636581,-0.9845748
100,-0.17791719734668732,1.9061124324798584,79.78919219970703,-0.7226479654411102,1.6693298741629774,-95.6032820929194,-0.4070316,6.1809134,8.179235,11.536302,-11.767466,-6.3159246,-3.540348,-4.583448,-15.021291,13.850356,-12.029315,1.396553,-0.5930882,0.06435091,5.941541,4.613162,17.1218,-26.78686,54.643402,0.77309644,3.641679,3.902203,-5.5768,-14.843573,31.633879,61.424995,-8.200937,4.6234775,-0.9892951
101,-0.1859559565782547,1.9073240756988525,79.78010559082031,-0.7114262476101796,1.6776792909550995,-95.59018853759525,-0.44798782,6.178256,8.161416,11.609882,-11.838182,-6.304699,-3.6237826,-4.609408,-15.014592,14.028988,-12.147296,1.3795161,-0.6077707,0.054607134,5.9328628,4.6207833,17.124264,-26.78145,54.623283,0.74889183,3.61761,3.9100475,-5.5839105,-14.848783,31.636868,61.41628,-8.207399,4.6443114,-0.980392
102,-0.19846369326114655,1.9090287685394287,79.76917266845703,-0.6978855721165635,1.6871677120971642,-95.57903421262247,-0.50011265,6.1771817,8.15361,11.703957,-11.920689,-6.282686,-3.7189922,-4.6380596,-15.002993,14.225114,-12.273135,1.3688263,-0.6267634,0.043847,5.928384,4.630556,17.129223,-26.7733,54.59816,0.7312306,3.5852911,3.9148064,-5.5986166,-14.858654,31.638168,61.401997,-8.210116,4.683252,-0.9647962
103,-0.20827527344226837,1.9018739461898804,79.756103515625,-0.6857895616352634,1.698185100972021,-95.57136278660063,-0.55720073,6.180705,8.151204,11.809875,-12.011407,-6.2572184,-3.815313,-4.663344,-14.989258,14.419256,-12.396767,1.3536346,-0.64292324,0.032230835,5.9240713,4.6391816,17.13183,-26.770113,54.568848,0.7152084,3.5590482,3.9265416,-5.6111026,-14.86354,31.637053,61.386074,-8.208787,4.722432,-0.95532113
104,-0.22405925393104553,1.8939096927642822,79.74575805664062,-0.6758943067031659,1.7128487552164215,-95.56978228029581,-0.6112182,6.1880207,8.151415,11.911847,-12.10323,-6.235047,-3.908223,-4.68315,-14.974537,14.601565,-12.512865,1.3235493,-0.6508178,0.021906199,5.921163,4.6530075,17.145615,-26.773981,54.51585,0.69179565,3.552556,3.9506614,-5.6027536,-14.884426,31.631233,61.34918,-8.2028675,4.7424593,-0.9587029
105,-0.23915860056877136,1.8812345266342163,79.73664093017578,-0.6704302130877412,1.7333973410815684,-95.5795934841296,-0.6703358,6.2042,8.157002,12.025779,-12.205909,-6.217407,-4.0020494,-4.693959,-14.955629,14.772481,-12.618005,1.2694241,-0.6472421,0.012158924,5.906448,4.6576715,17.153036,-26.792625,54.47158,0.65366524,3.5712078,4.0045524,-5.592679,-14.892866,31.626656,61.337532,-8.186549,4.731978,-0.9953362
106,-0.25007858872413635,1.8659658432006836,79.72653198242188,-0.6679033459493778,1.758579597571605,-95.59842565122058,-0.73355925,6.226832,8.169054,12.148697,-12.316537,-6.2007885,-4.097696,-4.6981907,-14.932437,14.936072,-12.715571,1.1990399,-0.63198614,0.002260522,5.887447,4.6590548,17.161726,-26.826283,54.4213,0.603439,3.6084387,4.079635,-5.570012,-14.899353,31.618282,61.322693,-8.160994,4.704952,-1.0538857
107,-0.26866617798805237,1.848660945892334,79.71932983398438,-0.6656769429354059,1.783015094216736,-95.61520223950671,-0.7867738,6.248875,8.179062,12.257177,-12.421004,-6.1854396,-4.18328,-4.7005763,-14.913393,15.088105,-12.809098,1.1268873,-0.6111875,-0.009377022,5.8667383,4.6572204,17.17202,-26.86857,54.366695,0.55937034,3.6542892,4.1522446,-5.535559,-14.904464,31.602673,61.30369,-8.141519,4.673926,-1.1091827
108,-0.29600730538368225,1.838590145111084,79.7105941772461,-0.661573974369875,1.8012000707320013,-95.61839968864264,-0.8153424,6.263814,8.178228,12.326319,-12.503829,-6.171644,-4.2392426,-4.702909,-14.907618,15.207388,-12.898019,1.0673198,-0.60029393,-0.02241221,5.849114,4.6589556,17.182764,-26.900118,54.30401,0.54605097,3.699518,4.1982636,-5.494802,-14.908173,31.583193,61.279995,-8.144076,4.6527495,-1.1363779
109,-0.31761735677719116,1.8153194189071655,79.70464324951172,-0.655148156610688,1.8075263468384861,-95.60178831274568,-0.8071411,6.2686396,8.160772,12.34208,-12.556857,-6.1604896,-4.252252,-4.706957,-14.922368,15.28594,-12.980191,1.0250176,-0.60485226,-0.036307678,5.836486,4.67216,17.1909,-26.912806,54.224037,0.58190405,3.7519054,4.206294,-5.4427376,-14.910078,31.564362,61.247395,-8.182954,4.64294,-1.12624
110,-0.34113016724586487,1.7885297536849976,79.69857025146484,-0.6478258614683348,1.8062065458662722,-95.57237545821198,-0.77184683,6.267343,8.132499,12.318326,-12.588616,-6.151604,-4.234868,-4.710828,-14.951147,15.334404,-13.056607,0.9919961,-0.6199472,-0.05031732,5.8267126,4.689157,17.196074,-26.915434,54.13469,0.6500238,3.8130224,4.191198,-5.3826447,-14.910673,31.549158,61.209282,-8.242771,4.6388583,-1.0936534
111,-0.3603193759918213,1.7567509412765503,79.69699096679688,-0.6389967798147685,1.8070487077346702,-95.54018579042086,-0.72982186,6.2636485,8.10298,12.277003,-12.611985,-6.1429834,-4.2130356,-4.7143593,-14.981603,15.374478,-13.1337595,0.9639616,-0.6298866,-0.07034527,5.8206177,4.709533,17.212484,-26.914814,54.03025,0.7275709,3.866067,4.164553,-5.305847,-14.912722,31.511967,61.149853,-8.312112,4.6415253,-1.0457587
112,-0.38845744729042053,1.7277131080627441,79.69477844238281,-0.6289736635415949,1.8190817400485433,-95.51497780439075,-0.70009273,6.2622976,8.081136,12.23959,-12.639809,-6.132673,-4.2101374,-4.716198,-15.001916,15.424518,-13.216724,0.9364863,-0.6456347,-0.08954556,5.812557,4.7157393,17.224691,-26.909874,53.94549,0.7796847,3.8897843,4.1449475,-5.24712,-14.913521,31.483927,61.100487,-8.343707,4.652229,-0.9977777
113,-0.42180296778678894,1.6953421831130981,79.69142150878906,-0.6158041725492691,1.8462343718742127,-95.49803043874596,-0.69000983,6.260514,8.0678425,12.208747,-12.672223,-6.118889,-4.236478,-4.7191315,-15.007753,15.493288,-13.310117,0.91440254,-0.66214496,-0.112581626,5.805608,4.7029333,17.239887,-26.90445,53.88795,0.7907183,3.8630774,4.133944,-5.204745,-14.912996,31.446896,61.0493,-8.327734,4.6845646,-0.94257045
114,-0.4623244106769562,1.6660717725753784,79.6846694946289,-0.600089034827611,1.8829822514326513,-95.4845602556708,-0.6870283,6.25709,8.058946,12.171205,-12.702012,-6.1031737,-4.276323,-4.722465,-15.00579,15.566451,-13.408556,0.8980699,-0.6815712,-0.13764046,5.7989163,4.6759424,17.253942,-26.897972,53.850258,0.7779699,3.8020113,4.1253824,-5.17316,-14.910762,31.407185,60.99795,-8.279124,4.733768,-0.8783517
115,-0.496937096118927,1.636430263519287,79.67623138427734,-0.58610491448201,1.9251058054215846,-95.47561026484506,-0.6859335,6.258874,8.055794,12.133394,-12.735326,-6.0882316,-4.3215303,-4.7206607,-15.000504,15.640215,-13.507866,0.8763487,-0.702346,-0.15831855,5.785115,4.6467977,17.26073,-26.889725,53.811493,0.7663737,3.7432282,4.1193204,-5.143538,-14.908898,31.381306,60.9566,-8.220083,4.7729464,-0.8199213
116,-0.5067391991615295,1.5990525484085083,79.67179107666016,-0.5774383460913759,1.968234396376799,-95.47187498532405,-0.6803102,6.271606,8.05969,12.099643,-12.776979,-6.0765843,-4.3644676,-4.709293,-14.995707,15.713356,-13.605489,0.8382801,-0.70378274,-0.1794816,5.771826,4.614272,17.274544,-26.883018,53.74118,0.7865321,3.7233753,4.1078963,-5.09603,-14.905217,31.34266,60.914936,-8.191768,4.773209,-0.77548695
117,-0.5524353981018066,1.5716742277145386,79.66474914550781,-0.5781834677598572,2.0100636346146348,-95.47493836686597,-0.6649124,6.301686,8.073425,12.070838,-12.830611,-6.068813,-4.3972783,-4.682052,-14.993004,15.777424,-13.695074,0.7732428,-0.6873786,-0.19373411,5.7472105,4.595604,17.291073,-26.879816,53.621254,0.8514391,3.768228,4.0782933,-5.0202417,-14.90207,31.317345,60.88343,-8.193585,4.7074404,-0.7565764
118,-0.6018646359443665,1.5206470489501953,79.6603012084961,-0.585542987361912,2.053434353390162,-95.48345230760756,-0.64510435,6.344356,8.09491,12.045986,-12.893305,-6.063463,-4.4257293,-4.6429887,-14.990742,15.835635,-13.780256,0.68969303,-0.66523916,-0.19852974,5.7105517,4.5804667,17.298573,-26.873854,53.482067,0.9453844,3.850203,4.0377784,-4.9368076,-14.90101,31.31334,60.87308,-8.203126,4.595882,-0.75475425
119,-0.6434985399246216,1.457721471786499,79.6566390991211,-0.5925318964037114,2.101288171649855,-95.49609841922285,-0.62689227,6.389451,8.120558,12.019877,-12.956989,-6.0606537,-4.460985,-4.6019793,-14.985772,15.898565,-13.868346,0.60502315,-0.64226663,-0.20386913,5.6764407,4.5597506,17.30576,-26.867462,53.33329,1.0391804,3.9364145,4.0193477,-4.8536925,-14.9008045,31.312382,60.8555,-8.216264,4.4896464,-0.7594147
120,-0.6764005422592163,1.402485966682434,79.65098571777344,-0.5927899072945818,2.156593504165429,-95.51147436544707,-0.61345184,6.4265347,8.14671,11.981465,-13.010278,-6.0605083,-4.511985,-4.568624,-14.97543,15.9736,-13.965957,0.5367272,-0.6280837,-0.21791239,5.65678,4.5315514,17.320631,-26.860006,53.18168,1.1031252,3.9928417,4.0555816,-4.7870064,-14.90165,31.307116,60.812683,-8.221237,4.4376435,-0.75941426
121,-0.7182705402374268,1.3595722913742065,79.6433334350586,-0.5823994110385423,2.2208850980842887,-95.53164580343346,-0.6075038,6.450734,8.174359,11.929056,-13.0511055,-6.0629063,-4.5861626,-4.5475793,-14.956558,16.067663,-14.077699,0.49576285,-0.62419003,-0.24049799,5.653687,4.479185,17.334717,-26.864803,53.05062,1.1114199,4.00395,4.196537,-4.757445,-14.901457,31.300177,60.751865,-8.20564,4.474773,-0.748738
122,-0.766840934753418,1.317245364189148,79.63948059082031,-0.5657826304976997,2.2923370689467304,-95.55682652459593,-0.6048848,6.4677825,8.205178,11.863954,-13.08285,-6.0678835,-4.676826,-4.5330696,-14.931189,16.174568,-14.198981,0.4705832,-0.6236838,-0.26952884,5.661761,4.4090133,17.348646,-26.880545,52.92716,1.0844141,3.9908316,4.410855,-4.7476153,-14.900001,31.290209,60.67536,-8.181244,4.5678105,-0.73436785
123,-0.8195558786392212,1.277741551399231,79.63348388671875,-0.5488906276430381,2.368525184346005,-95.58140179863362,-0.6080612,6.4863772,8.234337,11.801913,-13.114646,-6.076053,-4.7721696,-4.5174136,-14.90561,16.284016,-14.322723,0.44485041,-0.6262552,-0.29692116,5.671891,4.3297606,17.362034,-26.893225,52.80795,1.0581441,3.9688694,4.617077,-4.7468686,-14.897919,31.280079,60.604034,-8.156567,4.6605973,-0.72663593
124,-0.8730490803718567,1.2241177558898926,79.62608337402344,-0.5377037623077823,2.446917259608003,-95.60085081251812,-0.6172585,6.514259,8.258153,11.7533655,-13.152204,-6.087719,-4.8602586,-4.4928527,-14.886519,16.38462,-14.441261,0.4027227,-0.6309857,-0.31405035,5.6755404,4.24863,17.370834,-26.891737,52.689552,1.0644951,3.955479,4.735183,-4.7358217,-14.896541,31.270393,60.548653,-8.144366,4.6982865,-0.7366727
125,-0.9238208532333374,1.1632877588272095,79.62053680419922,-0.5343374668941914,2.527306693362655,-95.61142454695648,-0.6357378,6.555017,8.273721,11.725883,-13.200263,-6.1030555,-4.9382634,-4.457303,-14.878161,16.474548,-14.552392,0.33438298,-0.63608015,-0.32223782,5.677998,4.16911,17.391808,-26.857517,52.554718,1.1196945,3.9516783,4.7144403,-4.7149153,-14.895363,31.248524,60.52162,-8.154165,4.6462803,-0.77053773
126,-0.9849283695220947,1.1104825735092163,79.60784912109375,-0.5355541757117416,2.611076079607142,-95.61669445721043,-0.66286534,6.603838,8.2839,11.713067,-13.255098,-6.121689,-5.0127826,-4.4150176,-14.876166,16.559437,-14.659967,0.25035778,-0.6482807,-0.3174818,5.6716747,4.0907555,17.405901,-26.80767,52.41903,1.1987861,3.949771,4.61334,-4.68985,-14.895814,31.234638,60.518436,-8.170113,4.5420794,-0.8244634
127,-1.0483633279800415,1.0559042692184448,79.5965576171875,-0.538083030259321,2.6972989930530242,-95.62147348058245,-0.69059646,6.6565094,8.292139,11.701455,-13.308604,-6.1432385,-5.0841255,-4.3677673,-14.873906,16.638859,-14.7668495,0.16418466,-0.6898645,-0.32382408,5.6893,4.055566,17.460283,-26.700205,52.213856,1.3082287,3.9540749,4.474312,-4.6789517,-14.901541,31.238907,60.489136,-8.192333,4.4317055,-0.8754087
128,-1.1088435649871826,0.972507894039154,79.5913314819336,-0.5391680744078399,2.785836992595459,-95.63087155093741,-0.71387327,6.709488,8.301622,11.683102,-13.356358,-6.167422,-5.154437,-4.317206,-14.864888,16.714262,-14.876414,0.08974292,-0.7075987,-0.3317095,5.696246,3.9737453,17.490015,-26.661345,52.07614,1.4011568,3.964178,4.39009,-4.6643367,-14.906591,31.243378,60.446926,-8.198988,4.363267,-0.91988117
129,-1.1763588190078735,0.8999384641647339,79.58184814453125,-0.5369025453653669,2.87670882944782,-95.64503643491888,-0.72470224,6.75857,8.312437,11.641532,-13.390359,-6.196043,-5.223064,-4.26528,-14.846992,16.785376,-14.990384,0.03300045,-0.71363765,-0.35262054,5.7028866,3.8640368,17.508293,-26.669882,51.981052,1.5170237,3.991124,4.358248,-4.6520996,-14.91141,31.25785,60.37085,-8.192329,4.3583364,-0.9492004
130,-1.2498801946640015,0.8196591138839722,79.57133483886719,-0.5330686112321595,2.970166086041689,-95.66160397756893,-0.7275825,6.8065968,8.323183,11.5846615,-13.414921,-6.2287107,-5.289711,-4.2107286,-14.82363,16.852182,-15.106894,-0.014129325,-0.70606375,-0.38631523,5.7133183,3.7419436,17.53742,-26.716827,51.89509,1.6460149,4.0310526,4.344458,-4.6309433,-14.922393,31.275042,60.256172,-8.174215,4.388048,-0.96916986
131,-1.3189855813980103,0.7395734190940857,79.56253051757812,-0.5308959789511322,3.065594202406144,-95.68193718288373,-0.7375916,6.860537,8.334882,11.543915,-13.444132,-6.261709,-5.355011,-4.1498513,-14.79737,16.914215,-15.223016,-0.059183646,-0.6910753,-0.41907203,5.733704,3.6159353,17.579855,-26.782146,51.799397,1.7329869,4.066978,4.3586907,-4.604463,-14.942978,31.28263,60.114986,-8.1551485,4.426027,-0.98523265
132,-1.393131971359253,0.672281801700592,79.55342102050781,-0.5332041617829366,3.162271704900385,-95.70702814067023,-0.7693209,6.927211,8.348287,11.551034,-13.492693,-6.291103,-5.420888,-4.079889,-14.770678,16.973917,-15.337275,-0.10965954,-0.69398385,-0.43462023,5.7638636,3.495988,17.617846,-26.820456,51.69373,1.7342966,4.0777636,4.409404,-4.603791,-14.963644,31.292469,59.99463,-8.140967,4.443484,-1.0046631
133,-1.4691461324691772,0.5738794803619385,79.54588317871094,-0.5367437215103829,3.262049403698008,-95.74250686993511,-0.8196552,7.003037,8.371362,11.594958,-13.553851,-6.313942,-5.494315,-4.0041785,-14.738742,17.035984,-15.449445,-0.16435148,-0.7196244,-0.42969632,5.803406,3.3772845,17.643559,-26.821314,51.58244,1.5404357,4.0474577,4.555145,-4.6480756,-14.976943,31.306013,59.9209,-8.126696,4.4338202,-1.0216743
134,-1.5499470233917236,0.4812565743923187,79.53536224365234,-0.5411850290761685,3.3645229596249866,-95.78591809639816,-0.88249403,7.0858154,8.401161,11.664307,-13.62262,-6.332774,-5.5721297,-3.922989,-14.70196,17.097502,-15.5602045,-0.22036983,-0.7620612,-0.41602367,5.859207,3.280795,17.684282,-26.797659,51.42837,1.2068676,3.993251,4.770145,-4.712262,-14.996069,31.324335,59.845856,-8.109479,4.414464,-1.0347455
135,-1.6423883438110352,0.41704225540161133,79.51589965820312,-0.5545861973169958,3.4659767676389763,-95.82671343380946,-0.9698406,7.1858444,8.421696,11.79221,-13.71826,-6.352385,-5.640185,-3.827866,-14.670781,17.149176,-15.669272,-0.28260633,-0.8139288,-0.39422396,5.9236264,3.1978397,17.738258,-26.763512,51.258358,0.9398872,3.935256,4.9407644,-4.7816944,-15.018731,31.348497,59.763504,-8.096273,4.3847733,-1.0583982
136,-1.739253282546997,0.3482787311077118,79.49707794189453,-0.5852928180773191,3.5624916908398956,-95.8545178909655,-1.0935827,7.3130603,8.416991,12.011627,-13.859292,-6.3773966,-5.6813827,-3.709193,-14.655913,17.175426,-15.773482,-0.35593763,-0.86221725,-0.35852444,5.9830194,3.1012313,17.77693,-26.748146,51.126183,0.9438783,3.898517,4.964009,-4.840327,-15.034573,31.373068,59.677803,-8.100008,4.3479223,-1.112696
137,-1.8394681215286255,0.24732372164726257,79.47584533691406,-0.6332023644810082,3.64972371637927,-95.85843797480534,-1.2475631,7.4633455,8.375383,12.318985,-14.04897,-6.406155,-5.684818,-3.5699584,-14.665528,17.174326,-15.873909,-0.4459888,-0.91472524,-0.31807524,6.049436,3.0252593,17.838741,-26.74519,50.980995,1.3839182,3.8939657,4.7378063,-4.8664207,-15.062725,31.408777,59.55108,-8.115416,4.2922354,-1.2091789
138,-1.9422783851623535,0.1567530632019043,79.45355987548828,-0.6952780878558704,3.730699629425207,-95.84677581864537,-1.4280481,7.6335855,8.307561,12.700474,-14.27807,-6.4373627,-5.6602345,-3.4124484,-14.692228,17.15043,-15.970276,-0.54869753,-0.9669359,-0.26399234,6.11208,2.9337797,17.882753,-26.760912,50.875877,2.1168761,3.9011166,4.3511868,-4.882456,-15.086591,31.445051,59.426937,-8.146973,4.220314,-1.3396885
139,-2.033297538757324,0.04497729614377022,79.43006896972656,-0.7742226615061376,3.813253997849814,-95.83772094513692,-1.6514535,7.8352904,8.230962,13.173083,-14.544976,-6.476308,-5.62618,-3.2279217,-14.722458,17.107468,-16.061876,-0.654463,-1.0135676,-0.19167186,6.1710677,2.8296578,17.909954,-26.780708,50.79897,2.8776805,3.9093487,3.954124,-4.905173,-15.102653,31.478333,59.304577,-8.18867,4.1567297,-1.4766796
140,-2.135114908218384,-0.060387931764125824,79.40391540527344,-0.8732129091158768,3.905126596424777,-95.84936215229713,-1.9335213,8.080148,8.162939,13.752371,-14.847789,-6.528446,-5.6008554,-3.0073986,-14.742534,17.047663,-16.147263,-0.75380313,-1.0512819,-0.10424827,6.243964,2.7542894,17.968668,-26.78656,50.663746,3.3869898,3.9193578,3.6883109,-4.924196,-15.136175,31.506618,59.12179,-8.226939,4.1282735,-1.5867636
141,-2.254544258117676,-0.15116071701049805,79.36846923828125,-0.9898133152436485,4.0128835251533985,-95.89611843757098,-2.2805376,8.367729,8.117801,14.441527,-15.187751,-6.590922,-5.6011896,-2.750767,-14.740676,16.981071,-16.229155,-0.83924836,-1.0674552,0.001254252,6.3101554,2.6554859,18.008945,-26.788288,50.5532,3.5353248,3.935402,3.6379495,-4.977224,-15.154196,31.525644,58.940918,-8.269584,4.1567545,-1.6692079
142,-2.376948833465576,-0.26129430532455444,79.33409118652344,-1.1232806712107608,4.130825601182965,-95.96515721234971,-2.676529,8.692035,8.0832405,15.218422,-15.56083,-6.6625996,-5.612596,-2.4618354,-14.726678,16.901682,-16.30643,-0.9175369,-1.0713956,0.1141308,6.386296,2.57948,18.08176,-26.77911,50.395454,3.4744482,3.9621482,3.7013242,-5.034534,-15.177788,31.538673,58.71506,-8.314908,4.2240067,-1.7331765
143,-2.507369041442871,-0.36663174629211426,79.29107666015625,-1.2810314756881305,4.247820816299889,-96.03433601293226,-3.1236,9.059162,8.03331,16.102753,-15.9699545,-6.751107,-5.608854,-2.137837,-14.719501,16.796343,-16.376017,-1.000548,-1.0758674,0.24962811,6.4657636,2.511902,18.158735,-26.765915,50.231136,3.3553572,3.987798,3.7864842,-5.098168,-15.194378,31.54575,58.485157,-8.363627,4.2897186,-1.7883123
144,-2.638902425765991,-0.46867769956588745,79.24626922607422,-1.4696909099651734,4.352987223176062,-96.08132887992967,-3.616281,9.473477,7.9432783,17.097975,-16.412146,-6.8649073,-5.5646014,-1.7760236,-14.737736,16.653566,-16.434278,-1.099936,-1.096087,0.4192292,6.5511847,2.4563887,18.237228,-26.752829,50.06553,3.3210385,4.0020275,3.7960951,-5.159136,-15.207178,31.55008,58.263203,-8.411486,4.314194,-1.8407892
145,-2.769512176513672,-0.595780074596405,79.1945571899414,-1.6994622140286715,4.441787702205632,-96.09933772163762,-4.157412,9.946202,7.8060966,18.22085,-16.905685,-7.0145755,-5.46236,-1.3623685,-14.788656,16.45101,-16.473303,-1.22275,-1.1401792,0.6386289,6.64261,2.4110851,18.3059,-26.736633,49.910534,3.4278753,4.003178,3.683573,-5.2128806,-15.216838,31.5441,58.05646,-8.467499,4.2810388,-1.8849231
146,-2.918105125427246,-0.7043488025665283,79.132568359375,-1.9631905947357855,4.520753686456292,-96.10061928610824,-4.7429953,10.467778,7.6355195,19.453323,-17.441544,-7.1943684,-5.320481,-0.90317017,-14.859981,16.203806,-16.497414,-1.3612628,-1.1993086,0.8909542,6.7463408,2.3923464,18.395647,-26.714441,49.726982,3.5874033,3.997479,3.5031345,-5.2593517,-15.2286215,31.52903,57.83939,-8.527695,4.213349,-1.9176313
147,-3.0571494102478027,-0.8111245632171631,79.07319641113281,-2.2428338623570543,4.595518946671523,-96.09197118311576,-5.363436,11.012472,7.437004,20.760971,-17.98116,-7.388634,-5.1553774,-0.42285153,-14.941563,15.929011,-16.515503,-1.5052155,-1.260231,1.1609515,6.8536243,2.3805225,18.482746,-26.693644,49.5415,3.750013,3.9821076,3.322457,-5.3034167,-15.241126,31.516447,57.615196,-8.579139,4.1312556,-1.9543488
148,-3.1934731006622314,-0.937282919883728,78.99879455566406,-2.520808793616696,4.671826436917677,-96.08026921955535,-6.008049,11.554934,7.216439,22.107504,-18.485695,-7.582312,-4.980505,0.05546861,-15.023936,15.637648,-16.535414,-1.6445836,-1.3102099,1.42766,6.9638553,2.3759663,18.5715,-26.67803,49.343403,3.8604343,3.9564872,3.2039561,-5.3405747,-15.25688,31.514044,57.364693,-8.609826,4.05502,-2.0077794
149,-3.334637403488159,-1.0608335733413696,78.92637634277344,-2.8088849081422125,4.751439288200161,-96.0633014351683,-6.6671624,12.106515,6.969626,23.472591,-18.981726,-7.7869983,-4.7992816,0.54536957,-15.114294,15.3335705,-16.55744,-1.789354,-1.346993,1.7002293,7.074201,2.379742,18.665728,-26.669409,49.128036,3.898826,3.9129367,3.1644673,-5.3613753,-15.278863,31.528524,57.078503,-8.621673,3.9764013,-2.0947022
150,-3.476494550704956,-1.170951008796692,78.84261322021484,-3.110347469153992,4.831310457530787,-96.03898598282576,-7.3452773,12.670168,6.6970787,24.874975,-19.476377,-8.008747,-4.6025815,1.0526417,-15.213506,15.0056,-16.576672,-1.9405544,-1.3767804,1.9848964,7.186559,2.3916864,18.761396,-26.664532,48.900856,3.8974555,3.8544936,3.170498,-5.3685837,-15.307114,31.553345,56.76454,-8.619803,3.8893511,-2.2033432
151,-3.6041431427001953,-1.3482208251953125,78.77436828613281,-3.3951196208778525,4.9098738790339365,-96.01380948471598,-8.055898,13.209615,6.4106975,26.341003,-19.902912,-8.224194,-4.4003863,1.5394471,-15.303841,14.674842,-16.600685,-2.075007,-1.3995944,2.2549024,7.307298,2.4126527,18.85712,-26.66156,48.66241,3.8757355,3.797363,3.2087035,-5.3806367,-15.342135,31.581686,56.433613,-8.591577,3.8167312,-2.3037672
152,-3.748356819152832,-1.4604912996292114,78.70266723632812,-3.634376856984611,4.985360485948089,-95.99420237830688,-8.812463,13.690837,6.121528,27.894415,-20.194094,-8.409871,-4.203029,1.968458,-15.368842,14.365425,-16.639318,-2.1693714,-1.4150246,2.4847193,7.4423113,2.444203,18.949867,-26.657753,48.413067,3.8555715,3.7576463,3.2657545,-5.417328,-15.384049,31.607962,56.098263,-8.522865,3.7815216,-2.366287
153,-3.878293991088867,-1.6193406581878662,78.6404800415039,-3.8226576480086996,5.057891362366915,-95.98756049135613,-9.610012,14.113049,5.8440332,29.532124,-20.34127,-8.575679,-4.0106516,2.33477,-15.3971405,14.073511,-16.694054,-2.200682,-1.4221506,2.6723354,7.5931296,2.4830341,19.03797,-26.658648,48.152096,3.8446677,3.7396474,3.3448052,-5.4896874,-15.433633,31.635818,55.75684,-8.39731,3.809451,-2.3732758
154,-3.994314432144165,-1.7599294185638428,78.58619689941406,-3.975231440609051,5.128132863558704,-95.98840480607522,-10.44337,14.491529,5.5688877,31.241161,-20.37608,-8.731413,-3.819273,2.656537,-15.40111,13.792278,-16.761433,-2.1868353,-1.4211218,2.831046,7.7557845,2.5283246,19.121014,-26.66393,47.88186,3.8315127,3.7346387,3.450997,-5.5852194,-15.491688,31.666689,55.40491,-8.22692,3.8818712,-2.3439655
155,-4.11289119720459,-1.8854005336761475,78.53803253173828,-4.094915820992542,5.195165083955803,-95.98351821908686,-11.335526,14.8186,5.268368,33.04797,-20.29035,-8.852167,-3.6284246,2.9327726,-15.400751,13.530156,-16.836843,-2.1663864,-1.4131978,2.959741,7.9280424,2.5833282,19.19792,-26.662828,47.61032,3.8074994,3.7389581,3.5745404,-5.6875405,-15.556908,31.69112,55.04952,-8.039964,3.955169,-2.303423
156,-4.2375335693359375,-2.041513204574585,78.49986267089844,-4.184512456140743,5.258039222169693,-95.95962276059227,-12.307115,15.086018,4.914926,34.97462,-20.073107,-8.912085,-3.4385614,3.163036,-15.415955,13.296985,-16.917103,-2.177936,-1.4000717,3.0566347,8.107181,2.650716,19.267527,-26.644989,47.346336,3.7632232,3.7491198,3.705753,-5.784119,-15.62794,31.702225,54.70306,-7.8627553,3.9852629,-2.2764745
157,-4.352967262268066,-2.2197935581207275,78.4674301147461,-4.240458684058601,5.316471008351427,-95.91270550374388,-13.374698,15.284899,4.485586,37.050484,-19.697172,-8.912384,-3.2522485,3.3423288,-15.451523,13.098469,-16.99939,-2.2465732,-1.3837109,3.1176693,8.293978,2.7296672,19.329254,-26.60281,47.086723,3.6724935,3.770507,3.861516,-5.871315,-15.703009,31.697886,54.380253,-7.687765,3.945424,-2.262249
158,-4.442397117614746,-2.388676166534424,78.44487762451172,-4.263614133051283,5.37092218149608,-95.84990696728737,-14.52238,15.420893,4.001567,39.252567,-19.172895,-8.863351,-3.0677686,3.4737785,-15.497963,12.926479,-17.085632,-2.3469832,-1.363115,3.1453953,8.487951,2.8183057,19.381212,-26.542856,46.832485,3.549344,3.8025749,4.041254,-5.960725,-15.779102,31.683514,54.078754,-7.505395,3.8637333,-2.2503695
159,-4.556482791900635,-2.509308099746704,78.41609191894531,-4.26261509931675,5.421349402695522,-95.77397994880945,-15.726301,15.509664,3.5009766,41.529686,-18.547384,-8.752037,-2.880073,3.5690484,-15.55353,12.770951,-17.179296,-2.4423077,-1.3357899,3.149472,8.688842,2.918925,19.427752,-26.477404,46.589447,3.4398704,3.833182,4.2070227,-6.048434,-15.86302,31.657618,53.762924,-7.3431196,3.7793941,-2.2500088
160,-4.661764621734619,-2.697021245956421,78.39498138427734,-4.24617393230921,5.467959059123814,-95.68822321247362,-16.96338,15.568123,3.0222182,43.8329,-17.868963,-8.5657015,-2.682675,3.63975,-15.616311,12.618292,-17.282307,-2.4956918,-1.2982733,3.1390545,8.892469,3.0263035,19.466196,-26.422464,46.377327,3.391022,3.8503952,4.3229246,-6.137311,-15.952462,31.616995,53.4123,-7.2320104,3.730848,-2.2718225
161,-4.756609916687012,-2.8680737018585205,78.37401580810547,-4.211027164399043,5.507691819067795,-95.58205465127804,-18.26008,15.585065,2.5387597,46.202324,-17.098976,-8.273873,-2.4664876,3.6831686,-15.695191,12.45989,-17.395758,-2.4905062,-1.2514828,3.109264,9.103682,3.135566,19.496843,-26.383646,46.198864,3.4438043,3.8500843,4.363346,-6.215654,-16.047012,31.555202,53.008495,-7.1880217,3.7414677,-2.329062
162,-4.850006580352783,-3.076659679412842,78.3592758178711,-4.1544514739045315,5.541379679711843,-95.45764903020155,-19.617006,15.558687,2.0482476,48.64515,-16.225895,-7.890153,-2.2363157,3.6954174,-15.788545,12.301704,-17.516941,-2.4488273,-1.1952254,3.0576842,9.322126,3.2488604,19.519585,-26.35373,46.0471,3.5638158,3.8390439,4.3532014,-6.2864676,-16.146835,31.474686,52.5686,-7.1922607,3.78617,-2.4127412
163,-4.9350175857543945,-3.2712345123291016,78.34259033203125,-4.085677425389792,5.574934209277307,-95.33712288840354,-20.97384,15.524819,1.6216346,51.066494,-15.340113,-7.466,-2.0111172,3.6852903,-15.878452,12.163039,-17.6469,-2.3920703,-1.1256603,2.998297,9.538057,3.3739183,19.533894,-26.326696,45.920387,3.683651,3.8219428,4.3312917,-6.3668528,-16.254827,31.383694,52.112778,-7.225469,3.8317325,-2.4996703
164,-5.016647815704346,-3.4345407485961914,78.32062530517578,-4.0140972952368426,5.614412165179764,-95.2426671358659,-22.272444,15.522093,1.3243777,53.376324,-14.536483,-7.0504613,-1.8072414,3.6622136,-15.9466505,12.0588045,-17.785053,-2.3416183,-1.0382355,2.946624,9.742637,3.520187,19.538353,-26.295961,45.814713,3.7380023,3.8036575,4.335956,-6.4723835,-16.37415,31.291489,51.656578,-7.2647004,3.8450856,-2.5664465
165,-5.096310138702393,-3.619192600250244,78.29468536376953,-3.939623881885603,5.660745856055871,-95.18732610699004,-23.521763,15.574839,1.1839458,55.618813,-13.804675,-6.6265697,-1.6406096,3.624584,-15.981109,12.009528,-17.938238,-2.3000245,-0.9273106,2.9054143,9.94005,3.6868484,19.531786,-26.257444,45.725773,3.7106452,3.7869132,4.3695984,-6.609735,-16.507029,31.200462,51.20228,-7.32703,3.800087,-2.6056051
166,-5.165266513824463,-3.833259344100952,78.27426147460938,-3.858515389497025,5.710912023234595,-95.15700152441707,-24.74476,15.669076,1.1587188,57.821934,-13.111663,-6.168873,-1.4975632,3.5696638,-15.993238,11.9997015,-18.103374,-2.2576883,-0.796928,2.8689973,10.133326,3.8696256,19.513798,-26.215569,45.65728,3.6360784,3.7685177,4.414215,-6.768617,-16.65401,31.106735,50.738815,-7.4155555,3.7204487,-2.6298704
167,-5.220768451690674,-4.038618564605713,78.25707244873047,-3.7749691339097478,5.765180963694605,-95.13316124221707,-25.915308,15.783172,1.2046502,59.890114,-12.519122,-5.716371,-1.3545538,3.5031655,-16.002556,11.999197,-18.27009,-2.2161624,-0.6574145,2.8384862,10.311014,4.072502,19.484121,-26.175116,45.617493,3.5260823,3.7442856,4.477898,-6.936922,-16.815681,31.007542,50.26328,-7.491119,3.6474686,-2.6456473
168,-5.264388561248779,-4.2817158699035645,78.23941802978516,-3.6926782563757126,5.823969299366606,-95.09713704360794,-27.00563,15.88884,1.2782227,61.72419,-12.088652,-5.3140187,-1.189208,3.4297576,-16.027643,11.979547,-18.428286,-2.1774392,-0.5195357,2.8141503,10.461489,4.2999635,19.442608,-26.140764,45.614555,3.3928,3.7102094,4.5687366,-7.101029,-16.99278,30.898752,49.771885,-7.51693,3.6224043,-2.6591663
169,-5.301503658294678,-4.573639392852783,78.22047424316406,-3.620828131313909,5.888431187567215,-95.02909621279919,-28.01377,15.991134,1.3718631,63.3299,-11.89258,-4.948159,-0.9920266,3.358308,-16.091993,11.928169,-18.56771,-2.1575127,-0.39732307,2.8085237,10.580964,4.543823,19.388046,-26.129303,45.65912,3.235722,3.6701524,4.691138,-7.257871,-17.187683,30.777262,49.26125,-7.468426,3.6648116,-2.668064
170,-5.330277442932129,-4.840277671813965,78.19319152832031,-3.554597731674167,5.958014379008338,-94.94374867602326,-28.954506,16.098444,1.5038934,64.755554,-11.882428,-4.6067758,-0.7769806,3.2834082,-16.179546,11.863766,-18.697065,-2.1501138,-0.28015688,2.8175707,10.675599,4.8030047,19.31976,-26.13489,45.74556,3.0501204,3.624286,4.840127,-7.4106975,-17.401636,30.643707,48.730743,-7.3712335,3.749905,-2.6698868
171,-5.365340232849121,-5.1249799728393555,78.16213989257812,-3.4768022656100817,6.030576658331647,-94.87420908025341,-29.824768,16.184208,1.6712518,65.96207,-11.936726,-4.3412695,-0.55601186,3.189177,-16.250319,11.803676,-18.834562,-2.12376,-0.14340289,2.816655,10.748621,5.0934258,19.239634,-26.128197,45.857487,2.83941,3.5629468,5.0094957,-7.5612984,-17.632582,30.504856,48.18526,-7.25945,3.8526115,-2.6715312
172,-5.388095855712891,-5.4145708084106445,78.14105224609375,-3.369152997708261,6.103945295020546,-94.85357256754558,-30.62183,16.222404,1.8731133,66.91078,-11.9334955,-4.2024875,-0.34010395,3.0590625,-16.264273,11.762083,-18.996296,-2.0467038,0.036515802,2.7801266,10.804136,5.432843,19.151424,-26.078222,45.976067,2.6064453,3.4765534,5.1926675,-7.713885,-17.8749,30.369638,47.631138,-7.164741,3.9474964,-2.6799328
173,-5.410305976867676,-5.743619441986084,78.11885833740234,-3.2186610514076754,6.173105693232882,-94.91116134919898,-31.31664,16.21058,2.1485677,67.56723,-11.856918,-4.2309494,-0.13032599,2.8778188,-16.189184,11.749079,-19.192682,-1.8946397,0.28136337,2.688637,10.840377,5.8365374,19.057314,-25.974972,46.09798,2.3216863,3.345447,5.4132886,-7.8747587,-18.12416,30.249891,47.09272,-7.0831685,4.028256,-2.685961
174,-5.434788227081299,-6.070309162139893,78.09596252441406,-3.0372343855179205,6.24092187050808,-95.0223659730548,-31.921106,16.160513,2.4857984,67.96078,-11.766213,-4.3924727,0.078330666,2.6569173,-16.05416,11.754581,-19.413208,-1.6895161,0.5708476,2.5579016,10.856859,6.296453,18.957819,-25.832739,46.228226,1.9939662,3.179917,5.665047,-8.044509,-18.377958,30.141298,46.564632,-7.001205,4.1079845,-2.6904318
175,-5.4370903968811035,-6.419095993041992,78.08416748046875,-2.846779474149554,6.317190279655051,-95.13965829077311,-32.49314,16.067854,2.8078992,68.14678,-11.651812,-4.625606,0.28312108,2.4206753,-15.911621,11.765019,-19.643019,-1.4691714,0.865442,2.4143405,10.857539,6.796438,18.85519,-25.656275,46.35969,1.68427,3.016195,5.8968954,-8.219189,-18.634783,30.02483,46.01248,-6.9425626,4.1904273,-2.7153337
176,-5.440431594848633,-6.793078899383545,78.06964874267578,-2.6682488865102423,6.41118713548894,-95.21544701139541,-33.09016,15.927799,3.0381162,68.17983,-11.503673,-4.868838,0.48028773,2.1936185,-15.813494,11.770189,-19.869867,-1.2715484,1.1262093,2.2849567,10.847071,7.319544,18.753008,-25.450644,46.484028,1.4519887,2.891399,6.0582976,-8.393923,-18.892776,29.881628,45.398567,-6.9282246,4.279468,-2.7821658
177,-5.452846527099609,-7.09377908706665,78.03821563720703,-2.5108723124528987,6.533444469335287,-95.23691280618085,-33.73929,15.729803,3.14474,68.05921,-11.310608,-5.1229677,0.6531261,1.9870373,-15.77051,11.776353,-20.092573,-1.111705,1.3465376,2.1767602,10.821501,7.849111,18.654417,-25.220343,46.61476,1.3350677,2.8148727,6.1182766,-8.570504,-19.149778,29.7015,44.718758,-6.975395,4.3824863,-2.9062994
178,-5.428513526916504,-7.479077339172363,78.02009582519531,-2.3618316843358236,6.67592537837793,-95.22950106982223,-34.404266,15.4783945,3.1727555,67.75866,-11.080328,-5.415305,0.808312,1.786312,-15.755199,11.787893,-20.317816,-0.9678354,1.5472485,2.0741718,10.780535,8.400236,18.56007,-24.961609,46.746986,1.2934905,2.7680705,6.1099515,-8.750107,-19.404877,29.494501,43.99078,-7.068597,4.495445,-3.0727837
179,-5.438751697540283,-7.873804092407227,77.98383331298828,-2.210647032231299,6.819682936285095,-95.20304177090426,-35.046974,15.193142,3.1601334,67.29426,-10.831736,-5.7240067,0.97988033,1.5780863,-15.763473,11.786402,-20.542395,-0.8221488,1.728329,1.969699,10.732986,9.003044,18.469707,-24.666178,46.846138,1.267938,2.747089,6.0794387,-8.928233,-19.660856,29.273335,43.21248,-7.1845894,4.6051016,-3.2577074
180,-5.452308654785156,-8.247949600219727,77.9467544555664,-2.0469759948149404,6.945869788162901,-95.1672918599078,-35.629326,14.89319,3.1450875,66.68211,-10.583171,-6.026879,1.2019086,1.3486611,-15.791111,11.752971,-20.762026,-0.6570656,1.8899982,1.8565304,10.688522,9.687042,18.382355,-24.326263,46.877174,1.1989412,2.7478905,6.072697,-9.100275,-19.922947,29.052467,42.379345,-7.296946,4.6981797,-3.4371777
181,-5.442933559417725,-8.655816078186035,77.90925598144531,-1.864363467421878,7.044970101955139,-95.12195313294309,-36.135056,14.554108,3.113568,65.901115,-10.337175,-6.341389,1.4864349,1.0880668,-15.8426285,11.688459,-20.98337,-0.46285483,2.0243034,1.7340953,10.656009,10.457992,18.296484,-23.937195,46.832573,1.0711476,2.770516,6.0873117,-9.26224,-20.19518,28.830828,41.483456,-7.398686,4.760997,-3.6090772
182,-5.429769515991211,-9.082869529724121,77.8661880493164,-1.669653694906053,7.128261519443721,-95.06294304627154,-36.58334,14.176515,3.0528867,64.9475,-10.083764,-6.670416,1.814748,0.8058063,-15.919078,11.601793,-21.206533,-0.25050816,2.133639,1.6069285,10.629261,11.300695,18.211216,-23.503092,46.72914,0.9163309,2.8166301,6.103464,-9.416524,-20.479004,28.604126,40.525547,-7.5011497,4.804345,-3.7843204
183,-5.401222229003906,-9.512691497802734,77.82896423339844,-1.4723040084041117,7.208247302207183,-94.99428088320161,-36.99342,13.815908,3.0035641,63.86867,-9.824183,-6.971101,2.176385,0.51903605,-16.01125,11.480131,-21.414406,-0.03387329,2.2341127,1.4766754,10.595858,12.2149105,18.12588,-23.028828,46.56648,0.74639183,2.8845031,6.1408935,-9.557688,-20.773859,28.375307,39.502506,-7.6124854,4.852125,-3.9581785
184,-5.373936176300049,-9.949625015258789,77.78836059570312,-1.2816297234484657,7.2975366473840495,-94.91977390139036,-37.384968,13.52495,3.0079253,62.712532,-9.559096,-7.202253,2.5581617,0.24333903,-16.109732,11.316825,-21.59334,0.17347886,2.3410964,1.3442843,10.543324,13.201136,18.039934,-22.517221,46.343117,0.5735122,2.9723482,6.219313,-9.685021,-21.078331,28.14996,38.415966,-7.738184,4.928063,-4.126089
185,-5.353137493133545,-10.385372161865234,77.74160766601562,-1.103610977391134,7.39447122158135,-94.83112454763432,-37.762646,13.314433,3.0685058,61.474712,-9.294114,-7.3589425,2.9639251,-0.011736683,-16.22144,11.108881,-21.738386,0.3510721,2.4516003,1.2120076,10.474114,14.263124,17.950048,-21.946598,46.06155,0.40763566,3.0950148,6.353133,-9.795985,-21.391663,27.929174,37.240387,-7.895499,5.062175,-4.28262
186,-5.316606044769287,-10.86247730255127,77.69674682617188,-0.931943406343332,7.494014756523122,-94.72940103118677,-38.113983,13.151149,3.1694627,60.13318,-9.025794,-7.464833,3.3977387,-0.25656995,-16.34823,10.862077,-21.858488,0.51199424,2.5577934,1.0781684,10.393555,15.399987,17.853897,-21.317005,45.718945,0.24062169,3.2482407,6.5294075,-9.895385,-21.714619,27.713068,35.985924,-8.075075,5.2341623,-4.4316006
187,-5.267507076263428,-11.360469818115234,77.65069580078125,-0.7567503524163133,7.603701212854781,-94.63217765963797,-38.433254,13.020496,3.3258748,58.706566,-8.738917,-7.522446,3.848191,-0.504725,-16.472994,10.576185,-21.955564,0.6927636,2.6686132,0.9384578,10.294665,16.601992,17.754896,-20.66642,45.306133,0.05428757,3.4013247,6.7269316,-9.986892,-22.046177,27.50128,34.70071,-8.245283,5.392393,-4.5827227
188,-5.228518962860107,-11.840230941772461,77.59383392333984,-0.5680933907664026,7.7317087105573785,-94.55743382706494,-38.715317,12.910325,3.551889,57.214413,-8.4191675,-7.5329475,4.3032727,-0.7703624,-16.578943,10.251637,-22.0323,0.930315,2.794386,0.78665364,10.169954,17.864126,17.661316,-20.034138,44.811836,-0.16877496,3.5237563,6.9241724,-10.078316,-22.38567,27.294706,33.4376,-8.372969,5.484538,-4.7458754
189,-5.184144020080566,-12.337433815002441,77.54084777832031,-0.35638873702334173,7.882494882328597,-94.50245060574824,-38.963997,12.836164,3.8835874,55.64713,-8.060722,-7.4564157,4.772093,-1.0597899,-16.667776,9.861331,-22.09315,1.2475566,2.941155,0.60933036,10.013903,19.21347,17.580143,-19.392899,44.197876,-0.46601412,3.6169512,7.1133914,-10.16921,-22.736,27.088448,32.19932,-8.443632,5.4716854,-4.924804
190,-5.099242687225342,-12.868444442749023,77.50261688232422,-0.12906478578995734,8.051466818935126,-94.46035516086714,-39.178383,12.79349,4.306254,53.99732,-7.6730385,-7.309172,5.2511783,-1.3668278,-16.747406,9.423776,-22.136335,1.6214285,3.1033962,0.4114706,9.834781,20.650253,17.512318,-18.731314,43.46995,-0.81941974,3.6943116,7.305633,-10.251718,-23.09762,26.880749,30.954111,-8.478877,5.389693,-5.1137533
191,-5.049365997314453,-13.398030281066895,77.45193481445312,0.09948638847266589,8.232849187678937,-94.4426697619357,-39.347023,12.744621,4.7553425,52.28611,-7.263362,-7.1726675,5.73331,-1.6810144,-16.809462,8.957812,-22.140934,2.0188718,3.2756872,0.21331412,9.644504,22.12744,17.457584,-18.117863,42.68842,-1.1627849,3.7432768,7.5074496,-10.33426,-23.464619,26.68108,29.71542,-8.492176,5.297901,-5.309019
192,-4.993070125579834,-13.92940902709961,77.39676666259766,0.31364122043805676,8.420683911514034,-94.4608380567308,-39.462288,12.658528,5.1607375,50.538025,-6.8351936,-7.124628,6.2074704,-1.9920841,-16.844463,8.492706,-22.090546,2.4057524,3.4534678,0.035998736,9.452332,23.594309,17.416441,-17.6264,41.922356,-1.4301176,3.7509809,7.7258067,-10.428158,-23.828133,26.498606,28.503956,-8.498254,5.255669,-5.507161
193,-4.919130802154541,-14.48776912689209,77.34588623046875,0.515296546975643,8.616556121864244,-94.51823986611133,-39.516342,12.531402,5.5138955,48.721485,-6.374434,-7.1785345,6.681595,-2.2997139,-16.849638,8.008594,-21.977858,2.7791262,3.6259017,-0.11509268,9.254549,25.06616,17.39437,-17.306559,41.161716,-1.6349667,3.7130218,7.9884257,-10.538585,-24.176775,26.335958,27.312809,-8.502829,5.295018,-5.712554
194,-4.817360877990723,-15.072965621948242,77.30821990966797,0.7090205627905309,8.82255579560887,-94.60888095939612,-39.51748,12.385629,5.8425803,46.83602,-5.882577,-7.290925,6.9965334,-2.6577973,-16.821095,7.857517,-22.002169,3.1556573,3.7992563,-0.2524331,9.045856,26.561914,17.395704,-17.113422,40.38379,-1.8019276,3.6365373,8.282704,-10.669657,-24.508432,26.189821,26.1509,-8.498212,5.377783,-5.926192
195,-4.7330121994018555,-15.652531623840332,77.2577133178711,0.8841791043581467,9.032678102730912,-94.73010928286895,-39.479008,12.232312,6.1304736,44.947056,-5.386205,-7.4523454,7.258095,-3.0233574,-16.761843,7.81475,-22.029724,3.5265083,3.9950333,-0.38001692,8.833103,28.03051,17.416065,-16.982122,39.644325,-1.8825207,3.5265949,8.555486,-10.811151,-24.828651,26.053373,25.04152,-8.486248,5.460545,-6.1391826
196,-4.633828163146973,-16.256175994873047,77.20455932617188,1.0298538429431106,9.240894261079962,-94.8795685866579,-39.41387,12.08061,6.362879,43.12004,-4.9121537,-7.654425,7.5193505,-3.3701487,-16.674318,7.7736206,-21.989565,3.8835,4.235717,-0.49904594,8.623738,29.417927,17.44433,-16.847948,39.001377,-1.8270072,3.3885405,8.754576,-10.9571705,-25.148766,25.92223,24.012543,-8.462641,5.4976234,-6.342393
197,-4.529776096343994,-16.863008499145508,77.15296936035156,1.1414507760054913,9.444216579220445,-95.06603597210481,-39.308002,11.933102,6.536224,41.321644,-4.451415,-7.9400244,7.781944,-3.6951928,-16.550629,7.7334123,-21.874796,4.208988,4.5362234,-0.60781264,8.412371,30.725683,17.473038,-16.704443,38.471375,-1.5717659,3.2045028,8.8363,-11.117265,-25.48463,25.807348,23.067322,-8.426218,5.4717946,-6.5282497
198,-4.42684268951416,-17.475982666015625,77.103271484375,1.224016080868684,9.645563631127985,-95.28810346887667,-39.159363,11.789482,6.6559196,39.53134,-3.9942837,-8.29574,8.048215,-4.0020947,-16.39238,7.687236,-21.691975,4.5117536,4.881594,-0.7001525,8.198362,31.970352,17.500084,-16.585539,38.031887,-1.1578969,2.9775317,8.840337,-11.283805,-25.840395,25.709526,22.181923,-8.375744,5.408966,-6.702311
199,-4.310943603515625,-18.097455978393555,77.05917358398438,1.2820851637772024,9.848662336198357,-95.52739963652982,-39.00424,11.651773,6.7219687,37.845203,-3.5710192,-8.630916,8.309893,-4.2942295,-16.214191,7.652606,-21.459446,4.8247256,5.2485175,-0.7706906,7.994573,33.119053,17.520658,-16.487635,37.68521,-0.69213945,2.7446988,8.840298,-11.423325,-26.20466,25.605665,21.34212,-8.310207,5.331269,-6.875222
200,-4.1531572341918945,-18.754356384277344,77.02703857421875,1.321871774113506,10.057240374155377,-95.76474123427046,-38.879253,11.517772,6.737067,36.35993,-3.211036,-8.856108,8.571865,-4.571972,-16.03236,7.616084,-21.178576,5.1809916,5.6099534,-0.8181525,7.811081,34.141853,17.529478,-16.40352,37.43475,-0.2791997,2.5441012,8.908933,-11.520833,-26.557358,25.47926,20.55476,-8.227527,5.2604394,-7.058691
201,-4.03231954574585,-19.40837860107422,76.98597717285156,1.3380595161114732,10.277721256714749,-96.00834932766438,-38.812767,11.3970585,6.6737947,35.105965,-2.9393425,-8.939771,8.8234825,-4.828111,-15.834082,7.583715,-20.856833,5.6080294,5.964347,-0.8359456,7.64293,35.04907,17.523237,-16.334957,37.27196,0.07422409,2.38423,9.086319,-11.5820265,-26.879147,25.32693,19.837317,-8.129004,5.1859016,-7.2638307
202,-3.899947166442871,-20.071992874145508,76.93782806396484,1.3309521125536266,10.506681149945864,-96.26315079622029,-38.783245,11.284957,6.541958,34.037743,-2.737935,-8.931572,9.067541,-5.0649896,-15.616957,7.553643,-20.488012,6.0820193,6.3171163,-0.83164203,7.481014,35.85297,17.503143,-16.281088,37.204163,0.41915157,2.24625,9.327536,-11.63557,-27.16495,25.16671,19.212215,-8.019038,5.100605,-7.4833684
203,-3.758741855621338,-20.74073028564453,76.89031219482422,1.315856196318219,10.734973607697261,-96.50500315363945,-38.75882,11.156487,6.3986073,33.148037,-2.5750391,-8.871338,9.316264,-5.3032613,-15.412885,7.5285115,-20.068031,6.560033,6.65254,-0.8242395,7.330267,36.52448,17.470837,-16.231874,37.256836,0.7360921,2.1275008,9.576562,-11.688294,-27.41589,25.007774,18.679789,-7.90273,5.031634,-7.7020173
204,-3.602083444595337,-21.442399978637695,76.8479995727539,1.3090726392826704,10.95331595848557,-96.70956942044589,-38.705574,10.985499,6.301611,32.42664,-2.4174674,-8.798402,9.584229,-5.562695,-15.254592,7.5096135,-19.593943,7.0003734,6.9563627,-0.8319125,7.1971354,37.03454,17.427902,-16.17717,37.45444,1.0053087,2.0245118,9.776969,-11.726766,-27.636051,24.850882,18.221329,-7.7924027,5.0065193,-7.904053
205,-3.432382583618164,-22.151554107666016,76.80845642089844,1.3174360934061566,11.156311087548673,-96.87279521386543,-38.61592,10.748623,6.2268643,31.864368,-2.178612,-8.805467,9.880455,-5.85373,-15.156329,7.4951954,-19.064022,7.4099617,7.232777,-0.8626774,7.0888457,37.366325,17.374874,-16.120758,37.830452,1.2300977,1.9338073,9.911859,-11.758243,-27.830185,24.69385,17.83353,-7.685566,5.0588274,-8.083691
206,-3.259331464767456,-22.8724365234375,76.7710952758789,1.334554048531796,11.350808312296625,-97.00607380687198,-38.50908,10.461912,6.158181,31.471714,-1.9032142,-8.844004,10.197054,-6.164542,-15.100936,7.4864426,-18.482971,7.809228,7.4873757,-0.9075549,7.000741,37.538715,17.311632,-16.065186,38.36067,1.4174385,1.8574754,10.011347,-11.776394,-27.998543,24.53243,17.51521,-7.579319,5.165435,-8.249614
207,-3.0785024166107178,-23.606246948242188,76.72889709472656,1.3564631032919554,11.545152033027005,-97.10739345791121,-38.393578,10.159736,6.1646557,31.271986,-1.7582546,-8.74173,10.524682,-6.4815936,-15.075354,7.4843354,-17.851576,8.176418,7.707821,-0.95972186,6.922793,37.577446,17.239685,-15.996466,38.97971,1.5536144,1.8002818,10.0893345,-11.772988,-28.14029,24.373432,17.271807,-7.470257,5.268078,-8.407258
208,-2.91776442527771,-24.349912643432617,76.68405151367188,1.380349761733937,11.747835746890708,-97.17519755000434,-38.27437,9.875238,6.3169346,31.280333,-1.9074667,-8.3266325,10.845831,-6.795821,-15.065112,7.504354,-17.17748,8.487779,7.8814735,-1.0141453,6.8442545,37.510323,17.160982,-15.8998995,39.62167,1.6250173,1.7669555,10.159668,-11.740812,-28.253761,24.224804,17.110195,-7.3569345,5.3084655,-8.56198
209,-2.71575665473938,-25.135168075561523,76.63213348388672,1.4027428671315225,11.957273996015722,-97.20906400490806,-38.15678,9.621361,6.692061,31.573378,-2.4236102,-7.3899345,10.935003,-7.164822,-15.040221,8.041587,-16.724932,8.719222,8.007061,-1.0678542,6.7643104,37.34192,17.074844,-15.772706,40.301064,1.6121484,1.7571595,10.222215,-11.663158,-28.334427,24.07966,17.02086,-7.248514,5.275484,-8.720277
210,-2.5242512226104736,-25.915241241455078,76.57351684570312,1.431494565167091,12.170542878172279,-97.21123966140568,-38.034554,9.372499,7.229797,32.115032,-3.2135637,-6.078916,10.859803,-7.584724,-15.011326,8.951395,-16.413828,8.888419,8.090318,-1.1312772,6.6879845,37.062428,16.981785,-15.618181,41.03912,1.5276766,1.768703,10.270967,-11.556991,-28.38169,23.940807,17.011383,-7.142843,5.198786,-8.877066
211,-2.3333041667938232,-26.693994522094727,76.50985717773438,1.48141832237309,12.395072900401669,-97.18529074753577,-37.89595,9.103013,7.795677,32.751904,-4.1920004,-4.7574587,10.70009,-8.0492115,-14.9839945,10.0327215,-16.126366,9.03469,8.131949,-1.2185953,6.614533,36.67496,16.88594,-15.434339,41.780624,1.405308,1.8035551,10.31019,-11.447933,-28.39734,23.821644,17.097303,-7.0236673,5.081055,-9.021416
212,-2.1559908390045166,-27.48699188232422,76.42945098876953,1.5689728842250634,12.639833035534904,-97.13449479159836,-37.733326,8.790254,8.263523,33.3358,-5.271415,-3.7874913,10.422118,-8.583124,-14.949395,11.329348,-15.873877,9.20048,8.133219,-1.3470086,6.541905,36.182854,16.793694,-15.218955,42.47005,1.2785033,1.863626,10.343969,-11.36592,-28.385836,23.737244,17.29743,-6.872247,4.9250693,-9.141915
213,-1.9458955526351929,-28.289499282836914,76.3583755493164,1.707125791287987,12.923444063158147,-97.06922323725072,-37.534252,8.436889,8.620459,33.83364,-6.5206327,-3.3229284,10.024843,-9.202994,-14.8973875,12.799248,-15.668043,9.426777,8.101586,-1.5382961,6.4517937,35.585514,16.70608,-14.94983,43.110733,1.1424533,1.9591575,10.354792,-11.333482,-28.353456,23.690203,17.628895,-6.674812,4.690055,-9.206187
214,-1.7250391244888306,-29.103803634643555,76.29055786132812,1.890561491481333,13.238053690694892,-96.98543426152266,-37.306175,8.052129,8.935455,34.321163,-7.951606,-3.1526074,9.52139,-9.897413,-14.829679,14.435053,-15.49792,9.685294,8.036294,-1.7839015,6.351046,34.883587,16.622072,-14.634055,43.7228,0.98416436,2.0858119,10.346432,-11.319529,-28.300297,23.668976,18.06553,-6.446423,4.3889537,-9.229055
215,-1.5336114168167114,-29.91342544555664,76.2161636352539,2.1107366848418803,13.552848749122594,-96.86430423373211,-37.075886,7.623634,9.210632,34.817913,-9.391037,-3.0898755,8.921179,-10.645369,-14.758563,16.284334,-15.319804,9.9149475,7.930819,-2.0587356,6.275682,34.078426,16.551188,-14.317731,44.275215,0.8202762,2.2237606,10.354449,-11.299267,-28.225279,23.6727,18.582355,-6.193368,4.104207,-9.270501
216,-1.2996363639831543,-30.738574981689453,76.1429443359375,2.360073146644978,13.837014342566455,-96.68848049529996,-36.866154,7.133935,9.446137,35.33726,-10.665736,-2.945929,8.219643,-11.433845,-14.691866,18.42348,-15.097011,10.050571,7.7744565,-2.340995,6.259021,33.17472,16.499401,-14.041141,44.737457,0.66989005,2.3528304,10.414794,-11.254256,-28.115332,23.707348,19.165337,-5.9302907,3.917305,-9.391562
217,-1.0745285749435425,-31.582324981689453,76.06463623046875,2.6464001873846077,14.092461642672534,-96.45631429662747,-36.714336,6.5680313,9.64572,35.918438,-11.714944,-2.6618326,7.4234333,-12.271412,-14.599325,20.846743,-14.851288,10.069667,7.573585,-2.641492,6.2965565,32.164726,16.480354,-13.817967,45.11042,0.5210476,2.4780822,10.536181,-11.155672,-27.96586,23.771982,19.767366,-5.640799,3.9352765,-9.644024
218,-0.8855260014533997,-32.40819549560547,75.9818115234375,2.9706464515371174,14.330709280289158,-96.17497168752891,-36.597507,5.9398227,9.807502,36.54419,-12.637702,-2.3385954,6.545268,-13.161258,-14.484835,23.491703,-14.574851,10.001612,7.3335557,-2.9707355,6.372914,31.052992,16.496418,-13.626046,45.40167,0.36680576,2.6069317,10.698529,-11.028163,-27.776527,23.864334,20.421646,-5.3238354,4.0842786,-9.984577
219,-0.6496233940124512,-33.244667053222656,75.91590881347656,3.3150468636242008,14.534771734982712,-95.84177301841521,-36.442276,5.269311,9.921931,37.13027,-13.495212,-2.026359,5.5933185,-14.087055,-14.407411,26.34252,-14.184654,9.851024,7.0541067,-3.3033915,6.5081263,29.85526,16.546965,-13.466087,45.590633,0.22672962,2.7236116,10.891472,-10.878724,-27.551746,23.961622,21.183743,-5.029575,4.1762633,-10.330441
220,-0.46184056997299194,-34.05731964111328,75.84537506103516,3.6618717084581753,14.687585567529025,-95.45437261326944,-36.17863,4.5744696,9.979367,37.59512,-14.348349,-1.775765,4.571763,-15.041814,-14.425586,29.400848,-13.606338,9.614991,6.736483,-3.614164,6.7231736,28.587088,16.63062,-13.34064,45.65682,0.12178537,2.8125265,11.105118,-10.723567,-27.301952,24.04373,22.115845,-4.8010707,4.0247045,-10.596765
221,-0.25567522644996643,-34.89685821533203,75.77558135986328,4.014838561713869,14.774870686924361,-94.9846936021332,-35.777306,3.8299937,9.95596,37.895905,-15.201495,-1.6083194,3.496916,-16.04622,-14.560724,32.70418,-12.753,9.272029,6.362588,-3.8944285,7.0398293,27.236814,16.744162,-13.259519,45.593784,0.063363396,2.864084,11.349187,-10.534148,-27.033785,24.076614,23.247814,-4.6977944,3.4738,-10.75802
222,-0.058685511350631714,-35.71979522705078,75.70662689208984,4.379416087921938,14.80649373097801,-94.44250309272424,-35.279404,3.0329723,9.863988,38.080936,-16.023205,-1.4907451,2.3569279,-17.131046,-14.776127,36.2655,-11.704286,8.78868,5.940487,-4.155262,7.442114,25.795557,16.887094,-13.228139,45.41719,0.038280256,2.888946,11.62399,-10.300242,-26.74958,24.075304,24.53115,-4.679786,2.6587353,-10.859989
223,0.10515540838241577,-36.52809143066406,75.62535095214844,4.737995544525308,14.801914606244567,-93.88218133214716,-34.719074,2.234125,9.74385,38.202267,-16.81959,-1.3932437,1.1343502,-18.289188,-15.050886,40.01394,-10.624399,8.14902,5.5070243,-4.4008474,7.8935623,24.28241,17.062477,-13.241507,45.14254,0.028868252,2.9020371,11.905542,-10.060027,-26.456831,24.096008,25.902285,-4.6470566,1.835013,-10.922828
224,0.2536483705043793,-37.33631896972656,75.54935455322266,5.072205569665066,14.782023064696089,-93.35787688884875,-34.13023,1.4874041,9.635344,38.31318,-17.597315,-1.2884979,-0.19465327,-19.502438,-15.363112,43.896645,-9.683563,7.3575845,5.0998955,-4.6304464,8.359246,22.715694,17.272486,-13.294481,44.78324,0.017112086,2.9180105,12.16901,-9.837715,-26.161053,24.187403,27.28815,-4.506671,1.2545816,-10.965114
225,0.428623765707016,-38.15044021606445,75.48611450195312,5.386018813261599,14.738693233187922,-92.8703753909409,-33.50499,0.79565704,9.550914,38.42457,-18.357746,-1.1698273,-1.6229562,-20.893694,-15.873299,48.06874,-8.861523,6.3452764,4.7308164,-4.8516808,8.850881,21.090445,17.514168,-13.395148,44.32802,0.019647235,2.9400756,12.427682,-9.650659,-25.865341,24.356936,28.692387,-4.1976857,1.0173602,-10.999001
226,0.5579997897148132,-38.945709228515625,75.420166015625,5.687541033675528,14.663865654025697,-92.39322216543145,-32.825375,0.13062383,9.467146,38.503223,-19.095188,-1.0511949,-3.1238785,-22.469591,-16.537735,52.520782,-8.116804,5.096222,4.3776565,-5.060904,9.381388,19.39753,17.782938,-13.549864,43.777164,0.038263064,2.9611018,12.687036,-9.475743,-25.569809,24.57903,30.142435,-3.7819378,0.9776747,-11.013248
227,0.7098195552825928,-39.755332946777344,75.36278533935547,5.959814529672053,14.580971801088795,-91.94148375207075,-32.11607,-0.49074176,9.367819,38.54978,-19.811867,-0.94002384,-4.718226,-23.980776,-17.021694,56.95857,-7.568591,3.7647035,4.0295544,-5.237881,9.915611,17.652496,18.08027,-13.746988,43.15927,0.0342529,2.9798086,12.911497,-9.300221,-25.279188,24.863527,31.622288,-3.3374696,1.021209,-10.990287
228,0.829709529876709,-40.55570602416992,75.28768920898438,6.180236457548155,14.517142819801782,-91.53314617361656,-31.408182,-1.0419024,9.236091,38.570698,-20.512655,-0.84590274,-6.4679813,-25.105295,-16.987913,61.0924,-7.3084908,2.5722373,3.677642,-5.3569083,10.41638,15.872589,18.41014,-13.97225,42.499382,-0.031764917,2.9945326,13.064967,-9.104293,-24.999453,25.218153,33.10813,-2.9458585,1.034184,-10.911203
229,0.9471742510795593,-41.34806823730469,75.22804260253906,6.336054080248367,14.477536932100714,-91.17774005109615,-30.718529,-1.5073849,9.061011,38.591347,-21.210274,-0.77238387,-8.472986,-25.554134,-16.142881,64.91705,-7.4112945,1.6703048,3.326376,-5.3995085,10.886328,14.037852,18.775463,-14.233384,41.808823,-0.2491644,2.9879913,13.109709,-8.902696,-24.73639,25.657892,34.62747,-2.5987923,0.9963383,-10.746616
230,1.0520750284194946,-42.1512565612793,75.18118286132812,6.431987586727362,14.453087807320077,-90.86840037238296,-30.035492,-1.887678,8.85284,38.612526,-21.904192,-0.7183687,-10.701764,-25.43848,-14.756034,68.585815,-7.7822046,1.0133257,2.983692,-5.3737025,11.339007,12.148318,19.173298,-14.536459,41.067806,-0.5717885,2.9672327,13.073148,-8.692881,-24.491968,26.171377,36.177254,-2.2618592,0.9662522,-10.5148325
231,1.1535141468048096,-42.959651947021484,75.13772583007812,6.473400452145701,14.450787776602372,-90.5985332357797,-29.351753,-2.18198,8.629177,38.607735,-22.580757,-0.6855145,-13.033337,-25.051033,-13.326212,72.04186,-8.257546,0.5236527,2.6457446,-5.2939076,11.752997,10.248413,19.59908,-14.864216,40.25772,-0.835993,2.9668539,13.017096,-8.434243,-24.26546,26.728426,37.692,-1.9738702,0.9477281,-10.266927
232,1.21435546875,-43.760345458984375,75.1036376953125,6.472443175242738,14.476132201356986,-90.35876582458545,-28.65693,-2.400033,8.410314,38.543163,-23.221418,-0.6725478,-15.358397,-24.766544,-12.317802,75.21658,-8.683938,0.06569651,2.3053584,-5.1809225,12.107446,8.38135,20.049156,-15.198983,39.361374,-0.87778217,3.0204725,13.004079,-8.088418,-24.054533,27.299765,39.108,-1.7739154,0.9434783,-10.054
233,1.2453868389129639,-44.54954147338867,75.08031463623047,6.419308725274512,14.545616775099921,-90.14561327928757,-27.97811,-2.5270872,8.201214,38.433353,-23.831789,-0.6684606,-17.689688,-24.69925,-11.822362,78.10904,-9.018619,-0.38569158,1.961417,-5.020554,12.390186,6.520328,20.528067,-15.566032,38.37847,-0.6430267,3.165267,13.0339575,-7.661497,-23.857185,27.900713,40.43912,-1.6623064,0.9475132,-9.911949
234,1.3239346742630005,-45.37295913696289,75.07897186279297,6.316311705781375,14.650277172398512,-89.96329933741775,-27.30758,-2.5697343,7.996405,38.282227,-24.415316,-0.6758209,-20.066473,-24.697222,-11.597947,80.75814,-9.355863,-0.79863185,1.6176642,-4.8117504,12.615619,4.654625,21.036144,-15.967969,37.314514,-0.2239095,3.3743432,13.077425,-7.169567,-23.672558,28.537226,41.712788,-1.6210864,0.9596254,-9.80567
235,1.399079442024231,-46.23564910888672,75.08982849121094,6.190121099820091,14.758263889694996,-89.81776998937517,-26.57625,-2.5676565,7.800772,38.035145,-24.952168,-0.7117301,-22.425972,-24.768723,-11.575539,83.124725,-9.738881,-1.2441198,1.2749965,-4.5917354,12.800717,2.852449,21.562134,-16.350231,36.165817,0.32822716,3.5848088,13.154509,-6.5915146,-23.500992,29.167843,42.889366,-1.6668712,0.99070096,-9.680175
236,1.3907264471054077,-47.04514694213867,75.07881164550781,6.065755271883712,14.837996122952873,-89.71576834805353,-25.71461,-2.5581543,7.6186795,37.637646,-25.423431,-0.7930323,-24.710743,-24.909964,-11.683834,85.16176,-10.204047,-1.7794284,0.93309855,-4.3941536,12.960984,1.1783689,22.091433,-16.658094,34.937115,0.96391714,3.7335563,13.28729,-5.906901,-23.344305,29.753641,43.928436,-1.8146873,1.0516702,-9.480501
237,1.4436936378479004,-47.94595718383789,75.1001968383789,5.964731954659183,14.883928869457446,-89.66895754606739,-24.707163,-2.5646145,7.4616055,37.085957,-25.83715,-0.93146163,-26.933262,-25.23379,-11.978225,86.89845,-10.834292,-2.5143805,0.599679,-4.2390075,13.102787,-0.38588834,22.62126,-16.9028,33.64598,1.7299352,3.7917588,13.5181,-5.1073003,-23.200338,30.276075,44.861378,-2.1266332,1.1810753,-9.150729
238,1.466115117073059,-48.84164047241211,75.14186096191406,5.8672631670108135,14.911372548712862,-89.6702788355249,-23.58915,-2.5623662,7.324414,36.405457,-26.200243,-1.1120822,-29.111917,-25.707125,-12.465459,88.34168,-11.585596,-3.3838556,0.27258667,-4.101127,13.2151985,-1.8705983,23.154942,-17.110437,32.29658,2.6356564,3.7995286,13.825154,-4.204683,-23.069267,30.757761,45.698803,-2.5757754,1.3586885,-8.732781
239,1.4554098844528198,-49.72927474975586,75.18794250488281,5.736477988182112,14.921077163279751,-89.69901754860553,-22.36969,-2.514058,7.187348,35.590443,-26.493654,-1.3135178,-31.204765,-26.091345,-13.011955,89.39908,-12.295957,-4.17198,-0.06571986,-3.9455771,13.287276,-3.230938,23.687553,-17.243431,30.878849,3.5763881,3.7953444,14.136539,-3.2111769,-22.961327,31.222788,46.36912,-3.0466323,1.5085315,-8.319593
