unveil-humanoid-operators/unveil-humanoid-operators.github.io/feature-analysis-animation/data/feature_matrix_instances/age_waist_mean_vel_jogging_A019_Sideway_Jog_Right_002__A019.csv
Frame,root_translateX,root_translateY,root_translateZ,root_rotateX,root_rotateY,root_rotateZ,left_hip_pitch_joint_dof,left_hip_roll_joint_dof,left_hip_yaw_joint_dof,left_knee_joint_dof,left_ankle_pitch_joint_dof,left_ankle_roll_joint_dof,right_hip_pitch_joint_dof,right_hip_roll_joint_dof,right_hip_yaw_joint_dof,right_knee_joint_dof,right_ankle_pitch_joint_dof,right_ankle_roll_joint_dof,waist_yaw_joint_dof,waist_roll_joint_dof,waist_pitch_joint_dof,left_shoulder_pitch_joint_dof,left_shoulder_roll_joint_dof,left_shoulder_yaw_joint_dof,left_elbow_joint_dof,left_wrist_roll_joint_dof,left_wrist_pitch_joint_dof,left_wrist_yaw_joint_dof,right_shoulder_pitch_joint_dof,right_shoulder_roll_joint_dof,right_shoulder_yaw_joint_dof,right_elbow_joint_dof,right_wrist_roll_joint_dof,right_wrist_pitch_joint_dof,right_wrist_yaw_joint_dof
0,-0.8425506949424744,-1.9133068323135376,77.03987121582031,-1.3447953702122992,-0.6914315959449119,70.64478951258126,0.9058757,11.223407,20.52138,19.342852,-17.897417,-5.7482533,-6.301546,-6.9666996,-17.587809,17.923306,-12.4656,4.4975243,-1.4706407,-0.26747873,9.75612,-1.9291053,10.871935,-22.369125,67.7086,7.825718,-5.6638474,1.3312981,-1.1255738,-6.7528963,7.7163954,61.204803,-29.148224,-3.8265684,-1.1035464
1,-0.8496365547180176,-1.9104894399642944,77.04193878173828,-1.3575965363684068,-0.700089322582113,70.6498782905248,0.9087577,11.238341,20.516087,19.355703,-17.906311,-5.777313,-6.2739773,-6.951814,-17.600151,17.88516,-12.445575,4.503354,-1.491655,-0.26930216,9.765403,-1.9066858,10.893266,-22.368954,67.684456,7.89778,-5.6708474,1.3322446,-1.1131049,-6.7347727,7.6874995,61.192326,-29.251184,-3.821612,-1.0861319
2,-0.851061224937439,-1.9092152118682861,77.0424575805664,-1.3700504287952493,-0.7103424121996172,70.65472466421181,0.91611296,11.252288,20.511702,19.363377,-17.913464,-5.808233,-6.243271,-6.936878,-17.612644,17.844141,-12.424377,4.5105133,-1.5178977,-0.26233497,9.771864,-1.8891897,10.898569,-22.366804,67.67395,7.9686694,-5.679927,1.3373941,-1.0986621,-6.728763,7.67123,61.180298,-29.351326,-3.8149264,-1.0669469
3,-0.8516389727592468,-1.9164316654205322,77.03914642333984,-1.3835497133800538,-0.7174114410565992,70.66021402078854,0.91486824,11.268772,20.505379,19.380615,-17.923594,-5.8354096,-6.2174115,-6.9211802,-17.625315,17.806093,-12.403923,4.514993,-1.5315286,-0.2618101,9.780453,-1.8762589,10.914037,-22.371424,67.65855,8.044377,-5.6858377,1.3385282,-1.0837417,-6.708945,7.626819,61.166267,-29.456795,-3.8118665,-1.0505136
4,-0.8556156158447266,-1.9119890928268433,77.0411148071289,-1.3990155994328755,-0.716562192075974,70.66703199162188,0.89129275,11.29149,20.49465,19.422329,-17.941315,-5.853052,-6.204659,-6.9038825,-17.637934,17.776577,-12.386134,4.51276,-1.5450418,-0.25969014,9.780697,-1.8752126,10.931627,-22.391443,67.65375,8.108312,-5.6854835,1.3366567,-1.0733085,-6.686409,7.5897603,61.158104,-29.523289,-3.812837,-1.0474473
5,-0.8576017618179321,-1.9102519750595093,77.03888702392578,-1.4182341618867753,-0.7036989157527324,70.6757065559866,0.8361997,11.323951,20.477102,19.496649,-17.969652,-5.8598747,-6.211102,-6.8828654,-17.650034,17.75932,-12.371248,4.4986353,-1.5664537,-0.24957718,9.769542,-1.8860987,10.945581,-22.420713,67.662704,8.171111,-5.6778555,1.3288709,-1.0698628,-6.6707087,7.567189,61.156322,-29.532028,-3.8224683,-1.0618919
6,-0.8629167675971985,-1.9193757772445679,77.03485107421875,-1.4396430929134294,-0.6825617689302207,70.68551935062628,0.7598232,11.362176,20.455233,19.592442,-18.004549,-5.858765,-6.230907,-6.8599334,-17.66151,17.750614,-12.358633,4.4762383,-1.6010404,-0.2310238,9.752186,-1.9017081,10.952004,-22.443293,67.67785,8.239778,-5.6650558,1.3163961,-1.0748575,-6.664797,7.5597496,61.159683,-29.501535,-3.8387198,-1.0875492
7,-0.8660532236099243,-1.9259132146835327,77.03150177001953,-1.4623414075955623,-0.6586354007602526,70.69647295639793,0.6724555,11.404545,20.43077,19.703842,-18.04438,-5.8509026,-6.2542667,-6.8362017,-17.67464,17.743204,-12.346718,4.454267,-1.6060867,-0.21901749,9.731025,-1.9314228,10.975104,-22.510094,67.69559,8.277273,-5.6479354,1.3030015,-1.0657547,-6.6452646,7.5263376,61.154602,-29.464035,-3.8545842,-1.116
8,-0.8708008527755737,-1.9260704517364502,77.03137969970703,-1.4830414512983867,-0.6387816471687964,70.70922229508545,0.58842826,11.445267,20.406002,19.819965,-18.08506,-5.836742,-6.269522,-6.815725,-17.691494,17.729479,-12.334273,4.442209,-1.6343366,-0.20052852,9.714406,-1.9495752,10.9824705,-22.530525,67.70358,8.311356,-5.632176,1.292517,-1.0669812,-6.639834,7.518833,61.152817,-29.436178,-3.861571,-1.133998
9,-0.8748435378074646,-1.928091287612915,77.02840423583984,-1.5001964587070333,-0.6230382778546076,70.72472212383865,0.5058616,11.483161,20.38079,19.945482,-18.12637,-5.8101206,-6.2780523,-6.8026714,-17.714489,17.713758,-12.324788,4.445167,-1.6523212,-0.18862748,9.7007265,-1.9677298,10.996467,-22.556883,67.70161,8.3048115,-5.617586,1.2876347,-1.0601529,-6.629483,7.5053563,61.141563,-29.429258,-3.851403,-1.1395439
10,-0.8741015791893005,-1.934842586517334,77.02613067626953,-1.5140448037096161,-0.6085446842092116,70.74124628878431,0.42088476,11.519068,20.355778,20.081104,-18.169024,-5.77266,-6.285429,-6.7953997,-17.74017,17.699066,-12.318071,4.4574013,-1.6577718,-0.18445592,9.689918,-1.9848384,11.019607,-22.59212,67.685425,8.265517,-5.6003356,1.2846737,-1.0460291,-6.6131196,7.4814286,61.12083,-29.435003,-3.830821,-1.1388272
11,-0.8843603730201721,-1.9330406188964844,77.02660369873047,-1.5305536929167356,-0.5967424187050306,70.75894416221954,0.33893177,11.557789,20.329365,20.216972,-18.213495,-5.7374706,-6.2846437,-6.783824,-17.767347,17.674475,-12.307056,4.471353,-1.6780291,-0.16940977,9.67968,-1.9982635,11.026689,-22.597168,67.671745,8.236045,-5.582937,1.2822514,-1.0387013,-6.608365,7.4756355,61.106518,-29.438526,-3.8133874,-1.1341397
12,-0.8868412971496582,-1.9341418743133545,77.02350616455078,-1.5526842470660296,-0.588979950025116,70.77577210392361,0.2681973,11.601199,20.303099,20.338459,-18.258123,-5.717565,-6.2727118,-6.760754,-17.791225,17.634151,-12.286688,4.479666,-1.6939918,-0.14909396,9.671659,-2.0064907,11.032921,-22.595572,67.654236,8.227586,-5.562176,1.2752503,-1.0265183,-6.60436,7.467261,61.09246,-29.441566,-3.814047,-1.1290414
13,-0.8908071517944336,-1.9375227689743042,77.02165222167969,-1.5865748385631708,-0.588663288041268,70.7919509855564,0.21539998,11.655514,20.27606,20.43995,-18.305084,-5.7224526,-6.236071,-6.71487,-17.811604,17.55768,-12.245674,4.4792347,-1.7002379,-0.12161766,9.674552,-2.00188,11.044144,-22.570915,67.61463,8.260497,-5.5311875,1.2570916,-1.0023494,-6.597392,7.4424896,61.067986,-29.45436,-3.8451607,-1.1178372
14,-0.9004070162773132,-1.938381552696228,77.01994323730469,-1.626268911711459,-0.5944681994258515,70.80755777660234,0.1779321,11.714417,20.249838,20.52437,-18.351816,-5.7427454,-6.183113,-6.656256,-17.828798,17.459948,-12.192639,4.4748497,-1.7062049,-0.08882268,9.683593,-1.9852847,11.055543,-22.522547,67.55987,8.318952,-5.49306,1.2330416,-0.97951066,-6.5903764,7.41617,61.047783,-29.471056,-3.8964152,-1.102268
15,-0.897280216217041,-1.9386205673217773,77.0218276977539,-1.6667146740634338,-0.598882368512584,70.82314997086362,0.1377787,11.773931,20.222382,20.610294,-18.399378,-5.76478,-6.132237,-6.596882,-17.846407,17.363806,-12.140604,4.4690685,-1.712442,-0.052464213,9.686201,-1.9734979,11.061066,-22.4875,67.51978,8.372936,-5.460491,1.2112112,-0.954616,-6.587334,7.3987365,61.030983,-29.48012,-3.946974,-1.092408
16,-0.8931564092636108,-1.938684105873108,77.02053833007812,-1.7015571594046628,-0.5949037551093534,70.83891394650566,0.07994036,11.828836,20.193108,20.712648,-18.44665,-5.774687,-6.1030855,-6.5504756,-17.867535,17.295946,-12.104127,4.464608,-1.7345759,-0.023233697,9.688055,-1.9644835,11.0746,-22.448456,67.48738,8.425985,-5.4471416,1.1856935,-0.9445501,-6.5820923,7.3851485,61.019062,-29.493685,-3.982267,-1.089447
17,-0.9014868140220642,-1.9413460493087769,77.01508331298828,-1.7300758765775344,-0.5765690173394278,70.85550338950574,-0.011190549,11.880282,20.158762,20.84733,-18.496113,-5.7662635,-6.1053667,-6.520292,-17.896223,17.263687,-12.089438,4.461852,-1.766519,0.005782923,9.669857,-1.9782681,11.08252,-22.467833,67.50472,8.45058,-5.461043,1.1669999,-0.9433322,-6.580812,7.3903804,61.01958,-29.487772,-3.9921894,-1.1086302
18,-0.9054208397865295,-1.9484837055206299,77.00804138183594,-1.7553584338771504,-0.5488436328557368,70.87253416905331,-0.12389533,11.930488,20.120779,21.003197,-18.547836,-5.7478004,-6.131465,-6.500532,-17.92912,17.26209,-12.089309,4.4593825,-1.7999334,0.033245977,9.640462,-2.0066395,11.093605,-22.529099,67.55063,8.457381,-5.4938784,1.1493695,-0.94161505,-6.5810246,7.401098,61.0209,-29.471579,-3.9886322,-1.1406356
19,-0.9098443388938904,-1.9439358711242676,77.0085678100586,-1.7764278377644303,-0.5211528376722726,70.8886797874279,-0.23172621,11.974114,20.085207,21.149137,-18.594158,-5.726803,-6.1607475,-6.4869485,-17.960518,17.267363,-12.09373,4.457364,-1.8176646,0.057419945,9.609194,-2.0350862,11.109262,-22.608858,67.59156,8.442772,-5.5294013,1.1355052,-0.92636675,-6.582848,7.4021,61.011623,-29.457184,-3.9776037,-1.1709856
20,-0.9089943766593933,-1.947217583656311,77.00406646728516,-1.792479630067834,-0.5029829204278481,70.90242852536929,-0.3103892,12.006661,20.057344,21.259655,-18.630371,-5.7108965,-6.181025,-6.477692,-17.98371,17.273962,-12.097014,4.455953,-1.824621,0.07574411,9.587284,-2.0489388,11.122057,-22.642502,67.6011,8.423314,-5.5535016,1.1261526,-0.90765965,-6.585111,7.3938494,60.9997,-29.458967,-3.9648895,-1.1859156
21,-0.9073512554168701,-1.9487049579620361,77.00369262695312,-1.7995723031408635,-0.5004424439634493,70.91241017872748,-0.3383977,12.019223,20.04318,21.305151,-18.645157,-5.6989117,-6.182556,-6.475281,-17.994282,17.274652,-12.094819,4.455995,-1.8102688,0.08181172,9.581724,-2.0353844,11.136842,-22.612322,67.55105,8.384553,-5.5627656,1.1246111,-0.8753682,-6.58828,7.3707385,60.97362,-29.48333,-3.9470363,-1.1754674
22,-0.9109780192375183,-1.9512763023376465,77.0022964477539,-1.7997016761022164,-0.507464326358094,70.91976636856137,-0.33390382,12.017034,20.03816,21.308048,-18.644873,-5.6878657,-6.1758785,-6.480304,-17.99653,17.278498,-12.092428,4.4572096,-1.7926121,0.079812095,9.585816,-2.002024,11.14755,-22.526157,67.46521,8.337064,-5.5646095,1.130681,-0.84325147,-6.591069,7.3499312,60.945965,-29.521732,-3.920813,-1.1516997
23,-0.9119895100593567,-1.9513447284698486,77.00247955322266,-1.799655615713988,-0.5149031015249763,70.92691073701087,-0.3292709,12.015308,20.0333,21.312391,-18.647425,-5.6825237,-6.1714506,-6.4858446,-17.997377,17.28841,-12.092809,4.4577312,-1.8046198,0.07500952,9.595693,-1.9429383,11.163843,-22.384003,67.35284,8.312783,-5.562336,1.1282411,-0.832192,-6.596269,7.3539405,60.93167,-29.563175,-3.8975801,-1.125219
24,-0.9157087802886963,-1.9484754800796509,77.0032958984375,-1.8068413067731481,-0.5129071589922389,70.93517005031948,-0.35435212,12.028461,20.021069,21.35611,-18.667553,-5.687729,-6.180015,-6.48396,-18.003347,17.304422,-12.096191,4.4556174,-1.8008345,0.08079554,9.583744,-1.914965,11.17047,-22.311571,67.298775,8.294643,-5.554917,1.1232476,-0.8030328,-6.599533,7.344327,60.918304,-29.597198,-3.8837888,-1.1145092
25,-0.9275328516960144,-1.9520378112792969,76.99205017089844,-1.8235292967662968,-0.49786578330000986,70.94552937467056,-0.42094228,12.060953,19.997133,21.453777,-18.713213,-5.7138853,-6.2093344,-6.4738026,-18.015831,17.335182,-12.106416,4.4500737,-1.8175316,0.09803111,9.558977,-1.8931525,11.176937,-22.262774,67.27527,8.320275,-5.541714,1.1001191,-0.78678244,-6.604337,7.341314,60.92222,-29.629063,-3.8906164,-1.1164824
26,-0.9278996586799622,-1.9546343088150024,76.98467254638672,-1.8456483008620495,-0.47499338935288743,70.95640914492338,-0.510493,12.104122,19.96748,21.580524,-18.773653,-5.7554073,-6.252194,-6.4585934,-18.031012,17.376272,-12.120996,4.442117,-1.8366476,0.122037664,9.521625,-1.881072,11.183961,-22.24004,67.27927,8.3642235,-5.5229964,1.0674658,-0.7685711,-6.611224,7.338174,60.93341,-29.658497,-3.910283,-1.126455
27,-0.9261049032211304,-1.9550201892852783,76.9801025390625,-1.8711507944993442,-0.44966990239913573,70.96849460138588,-0.6121327,12.155133,19.93483,21.727299,-18.841717,-5.793086,-6.296295,-6.4395795,-18.049438,17.415903,-12.136169,4.433113,-1.856417,0.15101059,9.480992,-1.8696176,11.188821,-22.232336,67.28933,8.413589,-5.5007772,1.0328336,-0.74842805,-6.616914,7.3314342,60.94483,-29.683826,-3.9304967,-1.1434495
28,-0.922368586063385,-1.9493390321731567,76.97763061523438,-1.8978641676363106,-0.4269125571998246,70.9813487683966,-0.71301967,12.210005,19.90333,21.88083,-18.908236,-5.8076677,-6.329925,-6.417356,-18.070988,17.44179,-12.147568,4.4242387,-1.8724144,0.1821122,9.443281,-1.8566598,11.195555,-22.227514,67.29509,8.452498,-5.479238,1.0022912,-0.7234363,-6.6259975,7.316452,60.950092,-29.702023,-3.9401703,-1.1665183
29,-0.9268091320991516,-1.9537724256515503,76.9709701538086,-1.9266774840815968,-0.40529180316068397,70.99670602973336,-0.8203237,12.271976,19.872408,22.053036,-18.974888,-5.7834992,-6.3540845,-6.3921423,-18.098475,17.454275,-12.156255,4.4151993,-1.8885064,0.21571308,9.405864,-1.8445942,11.201409,-22.224382,67.299965,8.481141,-5.4565926,0.97852206,-0.7006887,-6.6345725,7.2995396,60.957825,-29.70309,-3.9325385,-1.2082164
30,-0.9255114197731018,-1.9528273344039917,76.9647216796875,-1.958923306551716,-0.3828370169595937,71.01366098632789,-0.9387163,12.343111,19.840055,22.248392,-19.046373,-5.7345767,-6.373879,-6.3625693,-18.130959,17.458654,-12.163825,4.4053507,-1.8994597,0.25663766,9.372939,-1.8262362,11.210068,-22.228815,67.28882,8.509775,-5.430592,0.95304495,-0.66955346,-6.647865,7.268675,60.951942,-29.697426,-3.918289,-1.2581218
31,-0.9266365170478821,-1.950485110282898,76.96147918701172,-1.9913622215595328,-0.3646431925212046,71.02985618358889,-1.045991,12.412921,19.809511,22.43178,-19.11276,-5.685573,-6.38247,-6.329947,-18.16288,17.449776,-12.166544,4.395918,-1.9122723,0.2957743,9.3404,-1.8088245,11.217084,-22.234138,67.28678,8.527824,-5.4079604,0.93222576,-0.63942444,-6.659119,7.2380457,60.9499,-29.692347,-3.9001675,-1.3046044
32,-0.9232617020606995,-1.9515981674194336,76.95690155029297,-2.0216532093704616,-0.3554936951806493,71.0424301645869,-1.122221,12.473274,19.783155,22.57244,-19.16644,-5.661338,-6.3734846,-6.29454,-18.188622,17.423868,-12.161857,4.387858,-1.9286268,0.33002648,9.311866,-1.7891718,11.221612,-22.23405,67.294235,8.527692,-5.3945394,0.91628295,-0.6094195,-6.6663795,7.2087135,60.950466,-29.702084,-3.8856666,-1.3272903
33,-0.923065185546875,-1.947145700454712,76.95819091796875,-2.0501090370523087,-0.35830922935292375,71.0485643084732,-1.1564246,12.522864,19.763813,22.65633,-19.20464,-5.675643,-6.339078,-6.2523866,-18.204609,17.369787,-12.145206,4.381003,-1.944223,0.35934246,9.291339,-1.7638044,11.224994,-22.229717,67.30796,8.500278,-5.3963404,0.90472597,-0.5744984,-6.671684,7.173882,60.945644,-29.737799,-3.8773446,-1.3070492
34,-0.9202634692192078,-1.947748064994812,76.95558166503906,-2.0779081286916434,-0.3699328342702058,71.05060025091439,-1.1616083,12.566046,19.749126,22.702614,-19.232218,-5.712767,-6.2843666,-6.2045755,-18.214811,17.292501,-12.119084,4.3750167,-1.949821,0.3888425,9.281239,-1.7360923,11.231503,-22.227312,67.32,8.455708,-5.4091725,0.8931669,-0.53191864,-6.681449,7.1112585,60.929745,-29.798588,-3.8758829,-1.2521309
35,-0.9172146916389465,-1.9479295015335083,76.9522705078125,-2.103107612352166,-0.38646776222683826,71.05271540358794,-1.1532441,12.603189,19.735607,22.731047,-19.253044,-5.7534504,-6.223394,-6.1590657,-18.22351,17.21326,-12.091401,4.370689,-1.9537907,0.4158719,9.276143,-1.7080923,11.238418,-22.229078,67.32988,8.403083,-5.42095,0.8833314,-0.48622882,-6.6913824,7.0475802,60.91146,-29.859417,-3.8773804,-1.1951188
36,-0.9057915806770325,-1.9393978118896484,76.95057678222656,-2.123497192112417,-0.4039143017841384,71.05940014372375,-1.146627,12.633524,19.719566,22.760431,-19.270897,-5.7781916,-6.1722903,-6.1253858,-18.234762,17.158058,-12.07246,4.3688745,-1.9734155,0.43474388,9.266933,-1.683618,11.24111,-22.22596,67.347176,8.355426,-5.4212074,0.87839276,-0.45473635,-6.6952786,7.0172668,60.915565,-29.892181,-3.8763824,-1.1722949
37,-0.9108276963233948,-1.9435253143310547,76.94986724853516,-2.1418119090431804,-0.4229181265305546,71.07318998141594,-1.1475997,12.6616125,19.697111,22.802305,-19.289167,-5.780279,-6.1300764,-6.101753,-18.252323,17.126274,-12.059943,4.370362,-1.9732877,0.45914078,9.272163,-1.6609067,11.2501135,-22.23709,67.33259,8.327177,-5.399457,0.865522,-0.4037937,-6.709106,6.948671,60.895416,-29.924782,-3.8874366,-1.1725208
38,-0.9136431217193604,-1.9413894414901733,76.95211791992188,-2.15603671968924,-0.44501611459750723,71.09103407804167,-1.145879,12.683287,19.672075,22.84108,-19.303476,-5.7701044,-6.092567,-6.0878077,-18.272018,17.111885,-12.052499,4.374865,-1.9837884,0.47802874,9.277447,-1.6398621,11.257947,-22.248657,67.31851,8.296789,-5.3651466,0.8555263,-0.36118275,-6.7225604,6.904971,60.889507,-29.933754,-3.899218,-1.198884
39,-0.9112324714660645,-1.9465473890304565,76.94798278808594,-2.1661253756889964,-0.4676355745841959,71.10994327644703,-1.1396763,12.698448,19.648417,22.870733,-19.312954,-5.756127,-6.0583334,-6.0802183,-18.291311,17.106583,-12.049729,4.379785,-2.0015705,0.4917165,9.2816,-1.6177675,11.263133,-22.254335,67.306755,8.272048,-5.3317485,0.84866416,-0.32376438,-6.7323465,6.8743353,60.891563,-29.933819,-3.9095562,-1.2355634
40,-0.8952491283416748,-1.9338054656982422,76.94921875,-2.170905151697162,-0.48844988500326536,71.12686347022377,-1.1264073,12.705223,19.630154,22.88394,-19.31684,-5.746546,-6.0280023,-6.0779853,-18.307432,17.106092,-12.053102,4.382826,-2.0205386,0.49923295,9.283045,-1.5955431,11.267866,-22.257942,67.302536,8.253441,-5.312444,0.84660876,-0.28843862,-6.741658,6.846484,60.89623,-29.933868,-3.9150765,-1.2680372
41,-0.8966854810714722,-1.937206506729126,76.94799041748047,-2.1688437247192853,-0.5077109583333737,71.1407165604842,-1.101996,12.702005,19.620642,22.87563,-19.312792,-5.7415543,-5.998621,-6.080899,-18.319298,17.10594,-12.063084,4.3830833,-2.0301683,0.5030414,9.286632,-1.5704452,11.275588,-22.268852,67.295616,8.239086,-5.315173,0.84857225,-0.24569932,-6.7565327,6.808784,60.88956,-29.93699,-3.9186275,-1.291295
42,-0.8981527090072632,-1.9394232034683228,76.94930267333984,-2.1608745755373495,-0.5263657919454274,71.15377743518361,-1.0702555,12.690124,19.615965,22.852856,-19.303358,-5.7373323,-5.972326,-6.090557,-18.329157,17.112822,-12.080718,4.382021,-2.0504131,0.49651086,9.28345,-1.5484159,11.279497,-22.271193,67.30894,8.230586,-5.3332644,0.8591657,-0.21812825,-6.764,6.790594,60.90469,-29.932135,-3.9158313,-1.3228737
43,-0.8887522220611572,-1.9324829578399658,76.95006561279297,-2.1495752039075793,-0.5431049295652983,71.16560140269411,-1.034945,12.672308,19.613798,22.817932,-19.289394,-5.7364607,-5.951413,-6.1043897,-18.33641,17.12559,-12.100665,4.3803053,-2.0710232,0.4868858,9.280561,-1.5239819,11.282217,-22.2722,67.31735,8.227678,-5.3508167,0.8698972,-0.18546547,-6.76884,6.7728415,60.91174,-29.928852,-3.9102554,-1.3485339
44,-0.8790915608406067,-1.9298967123031616,76.95130920410156,-2.1383062850217063,-0.5563857783494348,71.17701932535768,-1.0024244,12.652373,19.609707,22.777262,-19.274328,-5.741465,-5.9385514,-6.1200185,-18.342411,17.143833,-12.118329,4.378718,-2.08383,0.48249525,9.278779,-1.5002779,11.289887,-22.280561,67.31361,8.225779,-5.357518,0.8686602,-0.1475179,-6.781856,6.731676,60.91122,-29.93279,-3.9113512,-1.3529564
45,-0.8936570882797241,-1.9401335716247559,76.94599151611328,-2.1293379417071545,-0.5660143692331295,71.18736884844105,-0.9722774,12.632024,19.602467,22.72834,-19.258839,-5.757293,-5.9331584,-6.1343193,-18.346292,17.164679,-12.130104,4.3769803,-2.0992277,0.48200062,9.275486,-1.4796711,11.299412,-22.290377,67.30484,8.221849,-5.347063,0.85407126,-0.11635651,-6.798084,6.6838355,60.91714,-29.935547,-3.919645,-1.333075
46,-0.8869310021400452,-1.9394323825836182,76.94567108154297,-2.120425404297693,-0.5724918739187123,71.19670264214642,-0.9436,12.610026,19.593744,22.672976,-19.243052,-5.7812595,-5.933814,-6.149022,-18.348286,17.187958,-12.138641,4.374804,-2.1294777,0.47750634,9.262993,-1.4617672,11.302848,-22.288107,67.308876,8.221736,-5.3273044,0.8363175,-0.09708287,-6.8040934,6.654528,60.940815,-29.932213,-3.9259233,-1.3047769
47,-0.8760082721710205,-1.9347892999649048,76.95093536376953,-2.109069987673406,-0.5762969586165217,71.20623032949965,-0.91677237,12.583479,19.58544,22.612307,-19.223637,-5.8043838,-5.942676,-6.168777,-18.349937,17.220587,-12.150128,4.3727055,-2.162606,0.47045392,9.250303,-1.4473826,11.304864,-22.285013,67.31379,8.223279,-5.3052015,0.81995785,-0.08044291,-6.8076024,6.630554,60.964638,-29.930264,-3.9262025,-1.277724
48,-0.8694382309913635,-1.9333008527755737,76.9553451538086,-2.0890966839937524,-0.5776824574678149,71.2168707883874,-0.8921022,12.545764,19.579885,22.548033,-19.19792,-5.8170595,-5.965543,-6.2030873,-18.351395,17.276873,-12.173916,4.3720417,-2.1753542,0.46324933,9.246808,-1.4346675,11.312526,-22.290545,67.30184,8.234469,-5.2892275,0.8030957,-0.053616807,-6.820528,6.564134,60.96867,-29.953978,-3.9240823,-1.250947
49,-0.8704802989959717,-1.9440103769302368,76.95489501953125,-2.0597909578373645,-0.5737634755085443,71.23152919688192,-0.8786756,12.496448,19.573956,22.48909,-19.16787,-5.816397,-6.0094404,-6.2554936,-18.356327,17.366186,-12.215332,4.372504,-2.1876574,0.44759762,9.240865,-1.4308621,11.320245,-22.30756,67.297874,8.239158,-5.2816358,0.7973336,-0.029799746,-6.8335104,6.5137863,60.970028,-29.97371,-3.8990529,-1.2460077
50,-0.8666995763778687,-1.9476121664047241,76.95756530761719,-2.023094893826616,-0.5654351031387528,71.2484490865322,-0.8720399,12.436994,19.568394,22.429443,-19.132927,-5.8073297,-6.0702806,-6.3221436,-18.362904,17.480679,-12.268997,4.374002,-2.2096791,0.42331767,9.230523,-1.4284433,11.324612,-22.317066,67.299835,8.248333,-5.2772126,0.80012476,-0.009000925,-6.8404403,6.482871,60.97058,-29.993965,-3.854864,-1.2564806
51,-0.8629940748214722,-1.948476791381836,76.95769500732422,-1.9845387566485861,-0.5579878773032578,71.26341960791169,-0.8612871,12.375518,19.566673,22.365025,-19.09466,-5.79405,-6.1301894,-6.3898535,-18.366915,17.594116,-12.322275,4.3760023,-2.2343924,0.39632687,9.220361,-1.4266725,11.32665,-22.322845,67.304756,8.2579565,-5.2763247,0.807962,0.0091966,-6.8433614,6.461324,60.976593,-30.017286,-3.8106947,-1.2763973
52,-0.872942328453064,-1.9526342153549194,76.95669555664062,-1.9505126446539074,-0.5567790862472183,71.2723433051487,-0.83658975,12.320965,19.571405,22.293474,-19.055351,-5.780758,-6.1714797,-6.445095,-18.365463,17.680159,-12.363094,4.3778667,-2.2580056,0.3746899,9.213657,-1.422766,11.328088,-22.328844,67.309616,8.263222,-5.279513,0.81772256,0.025203621,-6.844945,6.442155,60.99491,-30.042326,-3.7852337,-1.3003235
53,-0.8669387698173523,-1.9554353952407837,76.95747375488281,-1.9220678984255173,-0.5645738025716334,71.27276629455534,-0.7915596,12.275682,19.586401,22.21246,-19.01405,-5.764451,-6.1880274,-6.4846144,-18.3559,17.732563,-12.38895,4.378582,-2.2709804,0.36049145,9.212853,-1.4160153,11.330159,-22.344547,67.31104,8.258638,-5.2897935,0.831964,0.04891278,-6.845964,6.4135833,61.02148,-30.077497,-3.7894344,-1.3313272
54,-0.8656400442123413,-1.95639169216156,76.96283721923828,-1.8971298672642032,-0.5780779946506355,71.26707336848673,-0.7343888,12.237073,19.60876,22.127504,-18.971977,-5.7446322,-6.18894,-6.513859,-18.340893,17.763031,-12.404948,4.378494,-2.2719758,0.35054207,9.215133,-1.412966,11.333068,-22.37558,67.31543,8.242738,-5.305778,0.8515292,0.08012857,-6.8450494,6.3775873,61.053146,-30.120426,-3.8116949,-1.3710915
55,-0.8598143458366394,-1.9539581537246704,76.9643325805664,-1.8726361360538575,-0.5934369799056031,71.25894152191117,-0.66979665,12.197537,19.633614,22.032198,-18.926626,-5.7278943,-6.183689,-6.5399194,-18.322683,17.782104,-12.415292,4.3799577,-2.2786975,0.34091085,9.219245,-1.4055358,11.335108,-22.398825,67.31592,8.23064,-5.3204684,0.8695991,0.10391727,-6.8418875,6.3514075,61.091522,-30.15828,-3.8369098,-1.4083446
56,-0.8660346269607544,-1.9600391387939453,76.96829223632812,-1.8473873230148352,-0.6062609610112589,71.25133554805451,-0.6057099,12.153608,19.655947,21.92722,-18.8795,-5.721455,-6.1809797,-6.5668297,-18.304293,17.797436,-12.42207,4.3848815,-2.2960517,0.32967436,9.225704,-1.3979983,11.3356285,-22.404448,67.313065,8.232921,-5.3268867,0.87860405,0.11835857,-6.8404617,6.3392196,61.124718,-30.182016,-3.850634,-1.4299235
57,-0.8624143600463867,-1.9552803039550781,76.97357940673828,-1.8168692272837226,-0.6169546970170736,71.24595499336912,-0.53799975,12.096914,19.674007,21.801153,-18.825832,-5.7309446,-6.184295,-6.6013856,-18.283688,17.81674,-12.42867,4.3972197,-2.3069224,0.31423882,9.235303,-1.3899708,11.336657,-22.411097,67.30027,8.25805,-5.3175983,0.87230194,0.12786551,-6.83553,6.306595,61.149334,-30.200735,-3.8520336,-1.424223
58,-0.8580759167671204,-1.9563523530960083,76.97689819335938,-1.784787002702849,-0.6273251867845689,71.23971657756736,-0.464752,12.033764,19.691547,21.658503,-18.767117,-5.7516255,-6.1873775,-6.636884,-18.259941,17.830297,-12.430751,4.414321,-2.3012307,0.29633588,9.254977,-1.3975673,11.338059,-22.421425,67.28722,8.302807,-5.2974453,0.85407156,0.13275386,-6.824337,6.242168,61.166405,-30.228264,-3.8507462,-1.3982013
59,-0.866317868232727,-1.9686923027038574,76.97999572753906,-1.752034838947142,-0.6364952110263368,71.2315960864748,-0.39042753,11.969112,19.711042,21.511068,-18.707537,-5.7730856,-6.1920323,-6.6728487,-18.235298,17.843142,-12.432135,4.43085,-2.3046076,0.27705464,9.272312,-1.399649,11.338723,-22.42358,67.27209,8.3418665,-5.2784915,0.83836186,0.13150911,-6.8136044,6.1989446,61.18444,-30.24159,-3.8448255,-1.370272
60,-0.8686175346374512,-1.977509617805481,76.98379516601562,-1.7173291674848856,-0.6446801417170868,71.21828378419083,-0.31532106,11.904356,19.738628,21.367037,-18.650496,-5.7846465,-6.2036395,-6.712166,-18.208076,17.868362,-12.439847,4.4418125,-2.3098729,0.25663075,9.286189,-1.3968652,11.338675,-22.423946,67.25647,8.357208,-5.2711573,0.8357899,0.13031282,-6.805348,6.1760645,61.20059,-30.24561,-3.8409243,-1.3504578
61,-0.8733105659484863,-1.980495810508728,76.98489379882812,-1.6801182460722317,-0.650942818378164,71.19730641506048,-0.23842135,11.839451,19.77845,21.22512,-18.596628,-5.784303,-6.2251587,-6.7560353,-18.177683,17.9106,-12.456319,4.4438615,-2.3001966,0.23073445,9.295938,-1.4042758,11.337554,-22.43491,67.25401,8.340183,-5.278438,0.85447115,0.12595744,-6.789245,6.150231,61.22332,-30.258461,-3.841398,-1.3410659
62,-0.8691092133522034,-1.9822686910629272,76.98725128173828,-1.6444726184590723,-0.6546024464504162,71.17218978234675,-0.16575699,11.77889,19.823736,21.092102,-18.54916,-5.7780156,-6.251259,-6.798372,-18.147388,17.956947,-12.4750395,4.439711,-2.2969441,0.21141934,9.303905,-1.4014653,11.336996,-22.437988,67.24075,8.30132,-5.295026,0.8819145,0.12552187,-6.7862206,6.148433,61.23553,-30.25817,-3.843463,-1.3317345
63,-0.8719421625137329,-1.9846564531326294,76.99188232421875,-1.6034535858070207,-0.6599951370840851,71.14317660217861,-0.08468217,11.711073,19.875399,20.948082,-18.49512,-5.765181,-6.28078,-6.8473797,-18.11205,18.012892,-12.498312,4.4358144,-2.2900674,0.18706195,9.313942,-1.3979018,11.336023,-22.443853,67.22657,8.255561,-5.3171477,0.9137077,0.121071965,-6.782522,6.1498866,61.247566,-30.252972,-3.8480558,-1.326207
64,-0.8740360736846924,-1.9868605136871338,76.99674224853516,-1.5569863897115794,-0.6694323243346616,71.11313656414217,0.006920075,11.634366,19.92878,20.789194,-18.429226,-5.7463107,-6.308769,-6.9019628,-18.071674,18.072287,-12.52295,4.4372563,-2.2797103,0.1513646,9.320744,-1.4017028,11.330484,-22.463703,67.2295,8.212317,-5.340298,0.9472559,0.11189397,-6.7617893,6.16106,61.266922,-30.235176,-3.8494658,-1.3358754
65,-0.8562071323394775,-1.983364462852478,77.00338745117188,-1.5115261332963201,-0.68309483547943,71.08484147027252,0.09860127,11.559675,19.977009,20.634733,-18.356447,-5.7170205,-6.3249545,-6.9519696,-18.032001,18.11411,-12.540043,4.444154,-2.2748542,0.123216525,9.339938,-1.4001297,11.328163,-22.470116,67.216034,8.176853,-5.3683934,0.9644935,0.10444015,-6.753516,6.1745234,61.268448,-30.198338,-3.8584611,-1.349946
66,-0.8514521718025208,-1.9834436178207397,77.00714874267578,-1.4637132450815638,-0.6998964012339862,71.05582865834785,0.19385873,11.481906,20.02514,20.478256,-18.276762,-5.6783185,-6.340362,-7.0044622,-17.989765,18.159355,-12.556871,4.454395,-2.2798004,0.08450475,9.354018,-1.4001536,11.3213415,-22.471493,67.217735,8.137504,-5.4007306,0.98487663,0.08950326,-6.7264104,6.2155685,61.27891,-30.14247,-3.8624072,-1.3845406
67,-0.8626848459243774,-1.994333028793335,77.00938415527344,-1.4135698734578872,-0.7185747949921777,71.02457058967593,0.2986413,11.399229,20.076939,20.306961,-18.190943,-5.641709,-6.3538995,-7.0582786,-17.943237,18.20357,-12.573246,4.467038,-2.282884,0.046500765,9.374404,-1.3963122,11.316677,-22.475557,67.210785,8.116707,-5.433165,1.0014764,0.07485501,-6.704863,6.255991,61.279793,-30.088245,-3.8699827,-1.4129308
68,-0.8772121071815491,-1.9992079734802246,77.01762390136719,-1.364763321172083,-0.7367261514083953,70.9907505919713,0.41356486,11.314108,20.13329,20.116266,-18.103544,-5.6192837,-6.3654466,-7.1089973,-17.892714,18.241207,-12.586515,4.480589,-2.2781358,0.01732033,9.402837,-1.3907433,11.315515,-22.485315,67.19314,8.139231,-5.4628625,1.011386,0.062995955,-6.700294,6.2741866,61.267204,-30.059664,-3.8855548,-1.4156548
69,-0.8820760846138,-1.9966191053390503,77.02558135986328,-1.3079832728354068,-0.7576610499159347,70.95029205706496,0.55878884,11.211019,20.204445,19.87527,-18.003586,-5.6152654,-6.3793178,-7.16787,-17.827961,18.28774,-12.605292,4.498327,-2.283484,-0.029898958,9.415755,-1.3764306,11.310142,-22.522697,67.19655,8.197128,-5.488089,1.0442252,0.0453941,-6.678785,6.3447676,61.27314,-30.034918,-3.88981,-1.4172193
70,-0.878035843372345,-1.9959485530853271,77.03202056884766,-1.2544797089310453,-0.7792564317059354,70.90733170790777,0.71402735,11.108265,20.279696,19.617647,-17.902431,-5.624676,-6.387462,-7.220231,-17.759218,18.3226,-12.618962,4.5180335,-2.2827775,-0.0694571,9.4396,-1.3629885,11.306324,-22.561293,67.19183,8.306358,-5.5130486,1.0742052,0.027810208,-6.6635003,6.3936615,61.266678,-30.042528,-3.9021966,-1.3961279
71,-0.8818923234939575,-1.998068928718567,77.035888671875,-1.1949355711987153,-0.8003158056462433,70.86171593482864,0.8804967,10.993951,20.359472,19.335665,-17.79173,-5.638077,-6.402192,-7.2807217,-17.68596,18.368656,-12.637387,4.5378923,-2.2800071,-0.12274907,9.449231,-1.3543792,11.299144,-22.615494,67.21053,8.416832,-5.530963,1.107047,0.013241646,-6.6347833,6.4592185,61.2663,-30.040157,-3.9043887,-1.3825067
72,-0.8861717581748962,-2.000638008117676,77.04237365722656,-1.127127122301501,-0.8201013560273774,70.81437759506947,1.0522302,10.865887,20.440365,19.036879,-17.66962,-5.647286,-6.430238,-7.3557515,-17.611874,18.438017,-12.6648855,4.5550675,-2.2695942,-0.17428154,9.479092,-1.3436962,11.297031,-22.640593,67.19866,8.531921,-5.5398583,1.1070029,-0.0045785042,-6.6278048,6.485486,61.243023,-30.037138,-3.9140272,-1.3530729
73,-0.8905215263366699,-2.001508951187134,77.04898834228516,-1.03759962401375,-0.8387228818776342,70.76299500210098,1.248626,10.700814,20.528639,18.679636,-17.516916,-5.6488585,-6.4848704,-7.464758,-17.531729,18.558455,-12.71479,4.570102,-2.253435,-0.2588372,9.489357,-1.3406559,11.287184,-22.677006,67.21604,8.620802,-5.5340104,1.0926394,-0.0173627,-6.5979013,6.5339956,61.22522,-29.989649,-3.9055324,-1.3436643
74,-0.8966314792633057,-2.0019450187683105,77.05633544921875,-0.9352696803402454,-0.8568161616506004,70.70869757097172,1.459883,10.512858,20.621029,18.287863,-17.34544,-5.6484094,-6.5554924,-7.5942454,-17.447657,18.709578,-12.777561,4.5836735,-2.2310534,-0.35344303,9.510538,-1.3406947,11.27787,-22.691488,67.223625,8.724099,-5.5193014,1.0518234,-0.034593422,-6.572636,6.5575757,61.19472,-29.937384,-3.8983145,-1.3253275
75,-0.8999000191688538,-2.000971794128418,77.06713104248047,-0.8375131852253898,-0.8726095856050715,70.65433302436492,1.665016,10.330897,20.710888,17.903164,-17.176865,-5.649026,-6.62592,-7.717443,-17.365746,18.854584,-12.836244,4.594956,-2.2074604,-0.43774027,9.53716,-1.3335041,11.273839,-22.700735,67.211235,8.812671,-5.497536,1.0007511,-0.04990779,-6.5635614,6.571474,61.151943,-29.885191,-3.8926692,-1.3013469
76,-0.9026474356651306,-2.006049871444702,77.07100677490234,-0.7577855479415571,-0.8848756088965688,70.60240725809678,1.841023,10.181061,20.792805,17.573008,-17.033352,-5.652664,-6.683687,-7.813222,-17.289942,18.965029,-12.877957,4.603708,-2.192231,-0.51251626,9.548683,-1.3366218,11.26124,-22.712868,67.226746,8.86553,-5.470446,0.9710273,-0.06968703,-6.5353928,6.603375,61.126434,-29.846107,-3.8754578,-1.2959703
77,-0.905024528503418,-2.0084755420684814,77.07292938232422,-0.7079214706429592,-0.8918187129666951,70.55359795379407,1.9733998,10.083021,20.861887,17.323887,-16.92927,-5.6638303,-6.7196727,-7.8638678,-17.22478,19.017452,-12.890058,4.6077647,-2.1809173,-0.5549385,9.558801,-1.3341273,11.250768,-22.721806,67.22713,8.872657,-5.434193,0.9600288,-0.0913675,-6.5124555,6.6358767,61.097897,-29.829193,-3.8502133,-1.2953774
78,-0.9050132036209106,-2.01017427444458,77.07734680175781,-0.6801349079907467,-0.8938010220648815,70.50771777179715,2.0689416,10.024136,20.919971,17.140808,-16.85726,-5.6802397,-6.7428217,-7.882825,-17.168495,19.031376,-12.882294,4.6075726,-2.1665413,-0.56910616,9.572871,-1.3270648,11.248097,-22.727673,67.20626,8.847851,-5.3910484,0.95139885,-0.10897345,-6.5069933,6.651438,61.05527,-29.829283,-3.8246772,-1.2893423
79,-0.911548376083374,-2.008591890335083,77.08253479003906,-0.6519348583745972,-0.8961430466382526,70.46164092294075,2.1640954,9.966335,20.979828,16.960306,-16.783726,-5.692238,-6.76559,-7.9011626,-17.11122,19.045286,-12.875367,4.6077633,-2.1729605,-0.5980424,9.567447,-1.3257151,11.231274,-22.733984,67.2247,8.803964,-5.3441896,0.958835,-0.1397186,-6.4705105,6.7137823,61.0468,-29.823153,-3.7876313,-1.3113083
80,-0.9067681431770325,-2.0131995677948,77.08770751953125,-0.6233977265276206,-0.8986459454748196,70.41942809544798,2.2506747,9.910448,21.036495,16.796978,-16.71351,-5.694285,-6.788991,-7.9227443,-17.059168,19.064726,-12.873869,4.609131,-2.1729105,-0.6153563,9.58067,-1.3254164,11.227914,-22.745516,67.222855,8.778573,-5.307375,0.9352347,-0.16272673,-6.4629636,6.7310753,61.023182,-29.83224,-3.7842324,-1.3135995
81,-0.9035460948944092,-2.016838550567627,77.08853149414062,-0.5868190618662028,-0.9030861405563029,70.38021388437662,2.3392754,9.845246,21.09527,16.633797,-16.635555,-5.6796308,-6.815579,-7.956836,-17.009459,19.099138,-12.883869,4.612877,-2.1821232,-0.64863867,9.581626,-1.3468965,11.21754,-22.786167,67.272896,8.759981,-5.273846,0.88867354,-0.18938391,-6.436025,6.7592726,61.03102,-29.841915,-3.800277,-1.3324695
82,-0.9120063781738281,-2.0215845108032227,77.08773803710938,-0.5499808760722937,-0.9079788520008957,70.34393883833106,2.4211023,9.782764,21.15301,16.486044,-16.55928,-5.6538157,-6.841383,-7.992574,-16.963837,19.136135,-12.897861,4.617424,-2.1969054,-0.6767717,9.592333,-1.3741328,11.214074,-22.827372,67.32356,8.752767,-5.244255,0.8115634,-0.2180749,-6.4245405,6.7690883,61.041016,-29.863358,-3.8426902,-1.3443185
83,-0.9162432551383972,-2.0214273929595947,77.09254455566406,-0.5118864651873637,-0.9124824489556735,70.30943403061478,2.4988837,9.71947,21.208466,16.344587,-16.484875,-5.625681,-6.8699317,-8.031216,-16.919153,19.179106,-12.9153805,4.6232305,-2.1941972,-0.7099697,9.597823,-1.4129826,11.20904,-22.898832,67.38961,8.733417,-5.22398,0.75191045,-0.23474176,-6.402587,6.7589335,61.051334,-29.887533,-3.8882113,-1.3604572
84,-0.9146250486373901,-2.024106502532959,77.0985107421875,-0.473841345237105,-0.9158814649410318,70.27579294800606,2.5771205,9.652897,21.260046,16.196259,-16.410234,-5.604306,-6.9005613,-8.070822,-16.873947,19.222824,-12.931213,4.630513,-2.208549,-0.74098146,9.612105,-1.4177948,11.208233,-22.920406,67.40831,8.724251,-5.2246547,0.72965336,-0.25566247,-6.398728,6.759949,61.051144,-29.901686,-3.9289994,-1.366811
85,-0.9164260029792786,-2.0282135009765625,77.10441589355469,-0.4307737825385613,-0.9186838290271775,70.24238189860863,2.6596107,9.576126,21.309042,16.03452,-16.332678,-5.5888886,-6.9393344,-8.118402,-16.823954,19.280695,-12.951653,4.641429,-2.2031934,-0.78111994,9.62196,-1.4102327,11.205124,-22.95337,67.411316,8.697201,-5.2504954,0.7807,-0.2700523,-6.389061,6.750921,61.04863,-29.898403,-3.9580047,-1.3741366
86,-0.9184165000915527,-2.0313284397125244,77.10520935058594,-0.38736736811516953,-0.920321525112482,70.21013894506207,2.7391822,9.497326,21.354197,15.873818,-16.25702,-5.5761943,-6.9816833,-8.167961,-16.773462,19.34291,-12.973055,4.654541,-2.200891,-0.8241979,9.633949,-1.3883554,11.202658,-22.961794,67.39651,8.674404,-5.2980967,0.8742581,-0.2786962,-6.384664,6.7422457,61.03579,-29.888012,-3.983759,-1.377897
87,-0.9244940280914307,-2.0324199199676514,77.10797119140625,-0.34409198895451387,-0.9211758258209176,70.17862549238744,2.8198812,9.416782,21.397114,15.706741,-16.180471,-5.569436,-7.025048,-8.217529,-16.723387,19.405142,-12.993548,4.667296,-2.1991756,-0.8674095,9.645502,-1.36251,11.2002735,-22.965393,67.37382,8.643653,-5.355286,0.9800021,-0.28879166,-6.38181,6.7333784,61.026787,-29.8743,-4.0061483,-1.3803191
88,-0.9253787994384766,-2.0364737510681152,77.10985565185547,-0.30690009621520165,-0.920431254865244,70.14826750198239,2.900542,9.341777,21.436678,15.533765,-16.103447,-5.572637,-7.062433,-8.258874,-16.678642,19.451962,-13.006197,4.6761208,-2.2001498,-0.90400046,9.655303,-1.3474741,11.197781,-22.969997,67.358025,8.600297,-5.4125476,1.0631025,-0.29961142,-6.379748,6.725673,61.02244,-29.862442,-4.0240307,-1.3812134
89,-0.9263912439346313,-2.0425333976745605,77.11194610595703,-0.26994768215424514,-0.9203385895710698,70.11728122742286,2.9985538,9.259155,21.475864,15.32156,-16.013042,-5.593073,-7.096662,-8.299358,-16.635256,19.492706,-13.01509,4.68091,-2.1996803,-0.93914336,9.664313,-1.3497796,11.194114,-22.984764,67.35483,8.518612,-5.4784436,1.1235673,-0.31546417,-6.3785977,6.717204,61.031208,-29.854841,-4.0391407,-1.3817165
90,-0.9356516599655151,-2.0388588905334473,77.11847686767578,-0.23739070750587965,-0.9193889612116676,70.08686689904914,3.103749,9.176504,21.511654,15.088459,-15.916729,-5.6275477,-7.125869,-8.333893,-16.595802,19.521101,-13.016998,4.68233,-2.1970973,-0.9694166,9.671497,-1.3665023,11.192028,-23.006659,67.3614,8.40586,-5.555498,1.1743833,-0.3268123,-6.3808513,6.7096515,61.04094,-29.84517,-4.051065,-1.380612
91,-0.9377658367156982,-2.0434510707855225,77.12008666992188,-0.2102906315545704,-0.9158624812210585,70.05793867495778,3.1943393,9.105264,21.545073,14.881086,-15.831247,-5.660555,-7.154024,-8.361279,-16.559864,19.541832,-13.015281,4.6817775,-2.198021,-0.99421704,9.677163,-1.3838152,11.191581,-23.024158,67.36537,8.310425,-5.6221,1.2085614,-0.335913,-6.3845487,6.7040744,61.049156,-29.833124,-4.05842,-1.37669
92,-0.9398254752159119,-2.0459396839141846,77.1216049194336,-0.19051967024090083,-0.9078651049297559,70.03089677447096,3.2522972,9.056231,21.577816,14.737833,-15.769309,-5.676519,-7.1818323,-8.378687,-16.527853,19.552834,-13.009688,4.6805644,-2.2015407,-1.0120302,9.67867,-1.3977641,11.19184,-23.037123,67.366356,8.274233,-5.6568274,1.221076,-0.34350574,-6.3885627,6.6966534,61.056793,-29.818285,-4.0598893,-1.3702804
93,-0.9460267424583435,-2.0484237670898438,77.1255874633789,-0.17851082666287213,-0.8935043203474099,70.00542235639983,3.265863,9.036306,21.613123,14.683072,-15.739495,-5.6643367,-7.2124352,-8.384836,-16.49832,19.556288,-13.001716,4.6784987,-2.192921,-1.0152007,9.67888,-1.4149209,11.193138,-23.062042,67.361206,8.326309,-5.643119,1.1916734,-0.34176534,-6.404589,6.6614337,61.053837,-29.80122,-4.0625315,-1.3475934
94,-0.9486441612243652,-2.051316499710083,77.1279525756836,-0.1740585360072317,-0.8766630426342868,69.98294406391446,3.2494476,9.039219,21.647299,14.691572,-15.73349,-5.6347146,-7.239363,-8.380808,-16.474108,19.548836,-12.989728,4.6752076,-2.211508,-1.0190885,9.670908,-1.4195102,11.193414,-23.063606,67.35955,8.435291,-5.601029,1.1414095,-0.3436869,-6.4062457,6.6549854,61.06052,-29.779715,-4.0556803,-1.3301152
95,-0.9534736275672913,-2.0496826171875,77.1313705444336,-0.17359406346162876,-0.8535475054251789,69.95936898370057,3.2137802,9.052108,21.6807,14.726838,-15.737866,-5.603691,-7.272013,-8.371029,-16.45001,19.536469,-12.974166,4.6712174,-2.1995344,-1.0091525,9.6686535,-1.4410164,11.196011,-23.069632,67.3478,8.580451,-5.5423555,1.0736254,-0.3462028,-6.4255047,6.601851,61.057926,-29.764368,-4.048833,-1.2988025
96,-0.9499351382255554,-2.0622401237487793,77.1273193359375,-0.173959981131212,-0.8360246255315104,69.93955774593117,3.1875873,9.060608,21.70391,14.747223,-15.738305,-5.587755,-7.2972245,-8.362174,-16.431366,19.523418,-12.958417,4.6685405,-2.2028468,-1.0032233,9.666771,-1.4577781,11.197556,-23.075447,67.34684,8.661495,-5.5090694,1.0515978,-0.35101086,-6.435586,6.5907063,61.061424,-29.741463,-4.026163,-1.29815
97,-0.9577623605728149,-2.0679850578308105,77.1295166015625,-0.17375099432775376,-0.8223582437009932,69.92374514528456,3.170221,9.060122,21.713728,14.745575,-15.732157,-5.5945725,-7.319855,-8.3572,-16.4179,19.514387,-12.944004,4.6676135,-2.203994,-0.99866956,9.671655,-1.478697,11.198564,-23.08186,67.35037,8.669343,-5.508578,1.0886863,-0.36047047,-6.4394174,6.5967736,61.065605,-29.717005,-3.9842272,-1.3340527
98,-0.9617978930473328,-2.064894676208496,77.13291931152344,-0.17478194597601915,-0.8102522718229171,69.91099113473557,3.1544282,9.057192,21.714184,14.73626,-15.723363,-5.6142836,-7.339889,-8.352263,-16.409054,19.503674,-12.928253,4.667568,-2.204232,-0.99103254,9.682764,-1.5107033,11.201355,-23.098106,67.36205,8.625918,-5.5262785,1.1621076,-0.3770117,-6.4487324,6.6254215,61.07156,-29.678242,-3.9273863,-1.3956385
99,-0.9657287001609802,-2.073909044265747,77.13286590576172,-0.17929095847651347,-0.7996425890750849,69.8984985075845,3.1353061,9.060212,21.712412,14.738204,-15.721542,-5.636899,-7.355052,-8.342791,-16.401964,19.487093,-12.909672,4.667647,-2.2148144,-0.9781949,9.68879,-1.5283962,11.207297,-23.112963,67.366264,8.567543,-5.5437117,1.2353508,-0.38818458,-6.46728,6.683832,61.075916,-29.623867,-3.8682792,-1.4542304
100,-0.9657684564590454,-2.087071657180786,77.12895202636719,-0.188627192474019,-0.7908530370884258,69.88306380416647,3.1148734,9.074137,21.717073,14.755972,-15.728487,-5.6523104,-7.361905,-8.323993,-16.393112,19.457441,-12.884637,4.6670537,-2.2196054,-0.96286154,9.696316,-1.5459555,11.211417,-23.114975,67.37011,8.55925,-5.5416512,1.2727226,-0.39630625,-6.47837,6.7091184,61.081375,-29.604918,-3.8240976,-1.478116
101,-0.9652862548828125,-2.0928030014038086,77.12858581542969,-0.20529829775780573,-0.7846734125015373,69.86271625978608,3.0934196,9.10375,21.731752,14.794276,-15.747721,-5.659342,-7.3572464,-8.291987,-16.380798,19.408932,-12.849755,4.6665406,-2.2213252,-0.9428687,9.699096,-1.5578437,11.213129,-23.11434,67.376564,8.609462,-5.5094514,1.2659609,-0.39683193,-6.482082,6.7125683,61.090233,-29.61578,-3.797483,-1.4537787
102,-0.9666709303855896,-2.099505662918091,77.1237564086914,-0.23129208257258005,-0.7803648832578883,69.83989579995459,3.0647097,9.151378,21.749662,14.860452,-15.782751,-5.663653,-7.339709,-8.244497,-16.369461,19.33779,-12.803168,4.665418,-2.2215097,-0.91053534,9.707562,-1.5678735,11.220885,-23.107449,67.37554,8.692879,-5.460724,1.2260524,-0.3923842,-6.499412,6.7023783,61.091885,-29.642288,-3.785335,-1.3912171
103,-0.9706952571868896,-2.103158712387085,77.12316131591797,-0.25429963926654764,-0.7771340682424831,69.81649485067248,3.0395749,9.19566,21.770403,14.924218,-15.816245,-5.6624784,-7.324255,-8.201095,-16.355804,19.27494,-12.762156,4.663745,-2.219808,-0.884742,9.707364,-1.575804,11.222657,-23.102919,67.38129,8.777422,-5.408103,1.1758989,-0.38549483,-6.5027623,6.693679,61.10189,-29.672253,-3.7748199,-1.3284525
104,-0.9703068733215332,-2.0946898460388184,77.13114166259766,-0.27570609600909607,-0.7728140770505123,69.79644660389935,3.0100415,9.23774,21.78674,14.992471,-15.849221,-5.6558304,-7.311728,-8.161668,-16.345284,19.21945,-12.727876,4.6587687,-2.2105412,-0.85574293,9.715771,-1.5894463,11.228522,-23.080496,67.37407,8.8508215,-5.3700433,1.1083103,-0.37372485,-6.514147,6.66161,61.09718,-29.703411,-3.7722962,-1.2707455
105,-0.9712174534797668,-2.091486930847168,77.13151550292969,-0.2867655633414693,-0.7672253028754412,69.78031393425982,2.983629,9.263876,21.80048,15.046274,-15.869679,-5.636916,-7.311611,-8.138839,-16.334599,19.191902,-12.711838,4.6488104,-2.2005446,-0.8355559,9.719129,-1.6018982,11.233579,-23.041664,67.35777,8.887656,-5.3502665,1.016522,-0.3599854,-6.523757,6.637557,61.092884,-29.716478,-3.7697175,-1.2345049
106,-0.9680317640304565,-2.097647190093994,77.13043212890625,-0.29336285893843417,-0.7613745014293982,69.76697849489173,2.9569378,9.283697,21.812273,15.098433,-15.886078,-5.608687,-7.3161287,-8.123468,-16.324867,19.177046,-12.705225,4.635007,-2.1949084,-0.8187012,9.723678,-1.6108469,11.238548,-22.976616,67.32862,8.9136915,-5.3403487,0.89853823,-0.34803316,-6.53291,6.61525,61.08772,-29.72534,-3.7708435,-1.2046045
107,-0.9732896685600281,-2.102431535720825,77.1310806274414,-0.2980667486038661,-0.755546870717517,69.75366188757901,2.9323385,9.300495,21.82415,15.147162,-15.90152,-5.5816193,-7.3225346,-8.111265,-16.3148,19.167786,-12.702758,4.622724,-2.1873846,-0.8045919,9.721056,-1.6186945,11.240909,-22.929497,67.3083,8.92669,-5.334577,0.79895985,-0.3341881,-6.536832,6.602401,61.086838,-29.721857,-3.7722654,-1.1874762
108,-0.9781155586242676,-2.1013474464416504,77.13278198242188,-0.30425384838465236,-0.7509029256783628,69.73770188083857,2.9125903,9.318176,21.83835,15.191772,-15.919207,-5.566212,-7.3249636,-8.096473,-16.303213,19.151793,-12.696022,4.6173067,-2.1911526,-0.79120964,9.723121,-1.620098,11.244145,-22.884644,67.29361,8.956598,-5.3296103,0.7493982,-0.3294554,-6.541671,6.598306,61.088623,-29.716867,-3.7767568,-1.1788516
109,-0.9779013395309448,-2.1022982597351074,77.12945556640625,-0.30954602288865035,-0.748855592375402,69.71732198854635,2.9024105,9.333156,21.857151,15.227468,-15.938898,-5.565596,-7.3241982,-8.082266,-16.287834,19.134108,-12.688406,4.6237597,-2.19694,-0.7805,9.724936,-1.617408,11.246301,-22.88637,67.29813,8.9973,-5.322521,0.7833687,-0.32936686,-6.544119,6.6054573,61.096176,-29.704689,-3.782541,-1.1870136
110,-0.9762579798698425,-2.1002535820007324,77.12992858886719,-0.32161597140902304,-0.7463007330778477,69.69392150152468,2.8855915,9.359618,21.876255,15.281156,-15.971362,-5.5759416,-7.317359,-8.057907,-16.273315,19.101917,-12.673584,4.6361356,-2.2053473,-0.76427346,9.723947,-1.602417,11.247808,-22.915766,67.30632,9.044646,-5.3158154,0.87823325,-0.33190787,-6.545325,6.627388,61.108315,-29.674543,-3.791603,-1.2103623
111,-0.9802066683769226,-2.0925278663635254,77.13026428222656,-0.3304953890572896,-0.7442969205746398,69.67141847249013,2.8780153,9.378237,21.895844,15.315278,-15.995634,-5.591019,-7.312351,-8.038804,-16.258085,19.075596,-12.660964,4.649873,-2.2058697,-0.75163966,9.7116,-1.5864623,11.250425,-22.983652,67.3234,9.062135,-5.308757,0.9874291,-0.3202423,-6.546539,6.6599264,61.115177,-29.63105,-3.796632,-1.242048
112,-0.9819841980934143,-2.0903055667877197,77.12956237792969,-0.33715692330294345,-0.7422996063391876,69.6532962405375,2.8770952,9.390262,21.911983,15.329556,-16.009596,-5.6072507,-7.308977,-8.024273,-16.245636,19.05447,-12.649083,4.65783,-2.2065625,-0.74110657,9.707224,-1.577817,11.251623,-23.014263,67.33095,9.07603,-5.3049326,1.0556347,-0.31315374,-6.5465627,6.6690974,61.115807,-29.606396,-3.8033774,-1.2624998
113,-0.9819563627243042,-2.0930957794189453,77.12730407714844,-0.340452069519894,-0.7396817594784343,69.64069436770086,2.8904738,9.38978,21.923916,15.302529,-16.00306,-5.629084,-7.30898,-8.016608,-16.236403,19.039722,-12.636303,4.6570597,-2.1988158,-0.7323238,9.698589,-1.570794,11.253146,-23.034399,67.3248,9.0581665,-5.3014493,1.0701324,-0.29856506,-6.5453343,6.6667733,61.10873,-29.58345,-3.8083694,-1.2758067
114,-0.9805901646614075,-2.0938222408294678,77.12712097167969,-0.3416527736077817,-0.7368644308365851,69.63131819601941,2.915167,9.380446,21.933453,15.24485,-15.982029,-5.656964,-7.3104577,-8.013487,-16.229013,19.02841,-12.622402,4.6513705,-2.1924741,-0.725991,9.692699,-1.5658938,11.253718,-23.031328,67.30978,9.028917,-5.2993417,1.055146,-0.2839511,-6.544238,6.6583805,61.094067,-29.564957,-3.8123834,-1.2853763
115,-0.9780810475349426,-2.0893032550811768,77.12689971923828,-0.34313554553130476,-0.7340532778233226,69.6247802428637,2.9343255,9.373803,21.940443,15.198352,-15.965349,-5.680571,-7.3128853,-8.010923,-16.223682,19.021368,-12.611645,4.644588,-2.1885176,-0.7196722,9.687568,-1.5591537,11.254499,-23.016937,67.2911,8.993087,-5.3005123,1.0322393,-0.2705003,-6.5415287,6.641239,61.077763,-29.554419,-3.8166125,-1.2891673
116,-0.9833675622940063,-2.085040807723999,77.1328353881836,-0.3479063200229209,-0.7313473698516926,69.62084813689381,2.9338183,9.380568,21.944838,15.198404,-15.96796,-5.6896243,-7.312448,-8.00375,-16.221655,19.013098,-12.604835,4.640443,-2.1917295,-0.7122193,9.682666,-1.5522082,11.254839,-23.006458,67.28002,8.952663,-5.3061585,1.0274042,-0.26344615,-6.5388665,6.6291595,61.066772,-29.545187,-3.818875,-1.2895888
117,-0.9781981706619263,-2.086224317550659,77.1281509399414,-0.3627671449748121,-0.7288078227250034,69.61833008420864,2.897139,9.417493,21.946667,15.285802,-16.008228,-5.6745505,-7.302527,-7.98133,-16.224642,18.990726,-12.598085,4.639616,-2.1980789,-0.69597316,9.684367,-1.5371387,11.256562,-22.982689,67.26208,8.910216,-5.3164783,1.0380647,-0.25613034,-6.529224,6.586749,61.047935,-29.571272,-3.8191326,-1.278053
118,-0.9795252084732056,-2.09265398979187,77.12387084960938,-0.38199343693673415,-0.7266091018986176,69.61847841894021,2.8393955,9.469888,21.94607,15.423984,-16.069782,-5.6425586,-7.2898955,-7.9531493,-16.23089,18.968237,-12.596158,4.6407614,-2.208443,-0.67675394,9.679021,-1.5211779,11.257851,-22.974068,67.25531,8.8376045,-5.330668,1.0624937,-0.25036028,-6.5199633,6.55778,61.036343,-29.58422,-3.814535,-1.265472
119,-0.9800495505332947,-2.088491439819336,77.12452697753906,-0.3988217551340558,-0.7233619412251353,69.6212591248717,2.7802515,9.518849,21.943003,15.560481,-16.129547,-5.6110277,-7.2805047,-7.9291687,-16.238375,18.951801,-12.597672,4.6423125,-2.2264025,-0.6600237,9.671669,-1.5061138,11.258207,-22.97119,67.25474,8.770636,-5.3493195,1.0957378,-0.24721801,-6.5162044,6.5418415,61.02663,-29.59312,-3.8106587,-1.2516294
120,-0.9775217771530151,-2.0778098106384277,77.12449645996094,-0.4139607081445553,-0.7152672824886163,69.6297329009179,2.7251973,9.557053,21.931355,15.665567,-16.176044,-5.598364,-7.27905,-7.911311,-16.251059,18.941267,-12.598261,4.6414027,-2.2502408,-0.6454195,9.6624155,-1.4898973,11.258564,-22.974546,67.25248,8.743683,-5.372101,1.1362616,-0.24748515,-6.511842,6.523903,61.01801,-29.61017,-3.8121119,-1.2364606
121,-0.9798911213874817,-2.0817832946777344,77.12256622314453,-0.42246556532526897,-0.6993783086070741,69.6452422134096,2.683079,9.572021,21.909786,15.708132,-16.195503,-5.6173034,-7.293606,-7.9073353,-16.26791,18.945087,-12.599622,4.6375375,-2.2545834,-0.6422833,9.646602,-1.4896454,11.26098,-23.032557,67.26479,8.768839,-5.4029865,1.1983916,-0.24754117,-6.490542,6.47097,61.015865,-29.651085,-3.824555,-1.2246462
122,-0.9809122681617737,-2.081876277923584,77.12242126464844,-0.4244860166919539,-0.6824361566077871,69.66255543829975,2.6572483,9.568967,21.885933,15.705022,-16.195553,-5.655508,-7.316198,-7.9141192,-16.28361,18.961863,-12.604057,4.6323175,-2.2984557,-0.6421288,9.637205,-1.4832859,11.261313,-23.048384,67.270454,8.844443,-5.438774,1.2573985,-0.25707605,-6.488473,6.4692383,61.00821,-29.67945,-3.8410327,-1.2124602
123,-0.9798823595046997,-2.0783743858337402,77.12281036376953,-0.4255591355770611,-0.6589497244136698,69.68766666286577,2.6187797,9.563987,21.853039,15.706661,-16.195753,-5.6918354,-7.3474946,-7.926179,-16.306458,18.98593,-12.611654,4.6268215,-2.2834828,-0.65186447,9.603645,-1.4955263,11.2653,-23.186102,67.30793,8.8824625,-5.4776826,1.3487667,-0.24612735,-6.459776,6.410507,61.009495,-29.715,-3.8566127,-1.2035803
124,-0.980072557926178,-2.077096700668335,77.11986541748047,-0.4312321212287093,-0.6453879013319477,69.71039245012344,2.5815408,9.5716,21.824074,15.736468,-16.206903,-5.7077546,-7.360234,-7.929403,-16.330078,18.99462,-12.614289,4.621612,-2.3077066,-0.6521724,9.589957,-1.4920839,11.267061,-23.221989,67.31831,8.911744,-5.499428,1.3969536,-0.2521005,-6.449873,6.3908005,61.006203,-29.734722,-3.8617716,-1.1839433
125,-0.9767230749130249,-2.087766170501709,77.1175537109375,-0.4426577529648605,-0.6413493813184581,69.73307670025049,2.5376868,9.597016,21.796782,15.811206,-16.233923,-5.691149,-7.3525248,-7.9224715,-16.358156,18.98532,-12.612062,4.6162133,-2.3180714,-0.6468482,9.582594,-1.4950978,11.268722,-23.239716,67.32741,8.877449,-5.5000777,1.411541,-0.25017828,-6.440539,6.356091,60.9942,-29.74224,-3.851221,-1.1487074
126,-0.9753363132476807,-2.0903587341308594,77.11624145507812,-0.45756843552408877,-0.6432709326266471,69.75676902254357,2.488791,9.632931,21.76878,15.914343,-16.271042,-5.6549296,-7.3335457,-7.910443,-16.389929,18.968157,-12.608193,4.6103797,-2.3248978,-0.63828886,9.58144,-1.5026983,11.270146,-23.237604,67.33529,8.810189,-5.487472,1.4026108,-0.2469585,-6.4323897,6.3142886,60.97725,-29.742662,-3.8315754,-1.1011639
127,-0.9759813547134399,-2.0879881381988525,77.11436462402344,-0.47410375889557416,-0.6466510538554796,69.78055313192483,2.4397767,9.671573,21.741346,16.022356,-16.31044,-5.615473,-7.3101625,-7.895956,-16.422009,18.945982,-12.602322,4.6055923,-2.321121,-0.63067055,9.585977,-1.5190746,11.272699,-23.231985,67.346,8.746449,-5.4700007,1.387404,-0.24642913,-6.4181833,6.2567234,60.96187,-29.75298,-3.8119724,-1.0580261
128,-0.9734880328178406,-2.0737109184265137,77.11572265625,-0.4894928574349509,-0.6460853861748461,69.80285947509918,2.3942814,9.70493,21.715889,16.112942,-16.345253,-5.5891185,-7.2944922,-7.883205,-16.449366,18.929932,-12.598059,4.6035,-2.328259,-0.6216585,9.582634,-1.5230914,11.273645,-23.230072,67.354065,8.708226,-5.455542,1.3862175,-0.24847421,-6.4131846,6.239744,60.955643,-29.753675,-3.7962453,-1.0413406
129,-0.9747887849807739,-2.068197011947632,77.11608123779297,-0.502200896936188,-0.6387790743762966,69.82371773049461,2.350738,9.730055,21.693623,16.18223,-16.374584,-5.5783424,-7.292411,-7.8752904,-16.469822,18.925152,-12.596666,4.606112,-2.3377225,-0.6135378,9.578043,-1.5235353,11.2740345,-23.239498,67.3636,8.717311,-5.446701,1.4152226,-0.25608122,-6.410977,6.2406015,60.955936,-29.766476,-3.787875,-1.0567346
130,-0.9737922549247742,-2.073369264602661,77.1133804321289,-0.5170511280008242,-0.6266167585418112,69.84482949726794,2.300777,9.757069,21.670773,16.253214,-16.407417,-5.5755563,-7.297985,-7.865937,-16.48847,18.925282,-12.596298,4.611436,-2.3435035,-0.60456425,9.56545,-1.5233419,11.274669,-23.275341,67.380646,8.740894,-5.437588,1.4660776,-0.26743758,-6.406212,6.259161,60.968716,-29.779825,-3.7800417,-1.0993439
131,-0.9763835668563843,-2.070380687713623,77.11226654052734,-0.5309696236616737,-0.616200160235848,69.86397095612067,2.2606308,9.780023,21.65006,16.308252,-16.43526,-5.580349,-7.2996206,-7.856159,-16.504715,18.920841,-12.594318,4.616982,-2.3410337,-0.5968146,9.548625,-1.523964,11.275102,-23.317492,67.398674,8.764768,-5.4272585,1.504368,-0.2693873,-6.4015737,6.286594,60.980976,-29.783775,-3.7757676,-1.1523626
132,-0.9743381142616272,-2.064718008041382,77.1107406616211,-0.5461841528091684,-0.6130123383901808,69.88090674065971,2.2343018,9.802666,21.629725,16.352238,-16.46025,-5.5931044,-7.2867894,-7.841837,-16.521608,18.902739,-12.5886135,4.619431,-2.3317447,-0.58617795,9.541248,-1.5294179,11.275094,-23.326376,67.404854,8.793563,-5.4173326,1.4889575,-0.26763776,-6.400312,6.299099,60.988922,-29.782988,-3.7841961,-1.1916072
133,-0.9753609299659729,-2.066281795501709,77.10810089111328,-0.5642937127702429,-0.6204512012315718,69.89484519177581,2.2297676,9.825169,21.609037,16.375933,-16.479673,-5.6206927,-7.2495537,-7.818388,-16.539705,18.85742,-12.573558,4.6167727,-2.3129745,-0.57245594,9.5425205,-1.5397166,11.274858,-23.293835,67.3946,8.82046,-5.404259,1.3902904,-0.2586391,-6.4001656,6.2991548,60.993607,-29.767021,-3.8105183,-1.2164986
134,-0.9784380793571472,-2.0651135444641113,77.1058578491211,-0.5842460249889732,-0.6351898189979657,69.90639191864966,2.2416403,9.846606,21.588587,16.382793,-16.494635,-5.660663,-7.196037,-7.789049,-16.557854,18.794523,-12.552642,4.6111913,-2.3014271,-0.55653113,9.556299,-1.5473708,11.274547,-23.201319,67.36405,8.868203,-5.3909235,1.229476,-0.2605769,-6.403507,6.297106,61.005272,-29.746176,-3.852914,-1.2326685
135,-0.9751978516578674,-2.056499481201172,77.1100082397461,-0.6035387060013819,-0.6519625822052366,69.91703419910124,2.256439,9.86763,21.56926,16.390112,-16.510382,-5.6994705,-7.140601,-7.7603617,-16.576067,18.732649,-12.533333,4.6054564,-2.2853224,-0.54017395,9.570524,-1.5539633,11.27429,-23.111372,67.33035,8.912503,-5.379245,1.066977,-0.25916642,-6.408516,6.2949595,61.01597,-29.72352,-3.8945284,-1.2471443
136,-0.9693337678909302,-2.0495829582214355,77.11011505126953,-0.6193548112823478,-0.6658467005293905,69.92806427645608,2.2610877,9.888373,21.552025,16.415138,-16.531906,-5.7235045,-7.097728,-7.7395654,-16.594423,18.691528,-12.523507,4.602331,-2.2755127,-0.52661455,9.581746,-1.5557053,11.273761,-23.04089,67.30362,8.950911,-5.373663,0.9571228,-0.26042223,-6.4153156,6.308038,61.027428,-29.706263,-3.9201276,-1.2645774
137,-0.9667085409164429,-2.048947811126709,77.10566711425781,-0.6306030292498926,-0.6760866205870588,69.94012993811013,2.2516859,9.908933,21.537233,16.46645,-16.563387,-5.7277403,-7.0730295,-7.729897,-16.613787,18.681799,-12.52846,4.60316,-2.267337,-0.51779664,9.586751,-1.5507244,11.273005,-23.010506,67.28739,8.98399,-5.374706,0.92434376,-0.26564035,-6.421655,6.334972,61.043617,-29.699348,-3.9196503,-1.289775
138,-0.9644162654876709,-2.042778253555298,77.10674285888672,-0.6382837261025395,-0.6853548556033771,69.95211209736037,2.2363596,9.9283085,21.52502,16.532087,-16.600424,-5.7198415,-7.0575714,-7.7277875,-16.633284,18.690155,-12.542422,4.6063266,-2.2528138,-0.5133098,9.590741,-1.5493693,11.2723055,-23.007364,67.28197,9.014031,-5.381181,0.93505573,-0.26748648,-6.4257426,6.3595757,61.05657,-29.704044,-3.9040349,-1.3173102
139,-0.9645554423332214,-2.036599636077881,77.10436248779297,-0.645777245886931,-0.6928717146798595,69.96471907063645,2.215448,9.94886,21.512472,16.605175,-16.638807,-5.7055407,-7.0459228,-7.726861,-16.653412,18.702894,-12.557885,4.609732,-2.2475417,-0.5081099,9.589396,-1.5383368,11.271098,-23.008434,67.27409,9.030997,-5.3895326,0.9649473,-0.2735088,-6.4320054,6.402965,61.076298,-29.700916,-3.8851228,-1.3458438
140,-0.9661372900009155,-2.033332109451294,77.10169982910156,-0.6520426263776498,-0.7000478125955797,69.97602275847514,2.1961484,9.966222,21.500586,16.67095,-16.671211,-5.689826,-7.035916,-7.7270393,-16.669674,18.716192,-12.572132,4.6121163,-2.229997,-0.5048704,9.593001,-1.5405403,11.270436,-23.010212,67.26979,9.033423,-5.39796,0.98483235,-0.27527007,-6.43583,6.4201245,61.090397,-29.707933,-3.8818724,-1.3637168
141,-0.9678123593330383,-2.030111074447632,77.10057830810547,-0.662306557606596,-0.7046925385253844,69.98796904661025,2.167819,9.989548,21.485344,16.744854,-16.70299,-5.671362,-7.025631,-7.7216744,-16.685087,18.721615,-12.580384,4.611498,-2.224726,-0.4959227,9.590051,-1.5369282,11.269114,-23.004322,67.26108,8.995925,-5.408946,0.9972917,-0.27853453,-6.4441805,6.454675,61.111965,-29.692074,-3.8988745,-1.3742387
142,-0.9689149260520935,-2.0253090858459473,77.10030364990234,-0.6724650090877904,-0.7080465020248097,69.99948883847964,2.1355822,10.013029,21.469744,16.821419,-16.732744,-5.647881,-7.017645,-7.716311,-16.698208,18.727695,-12.587675,4.609543,-2.2183187,-0.48592067,9.5890045,-1.5335073,11.267887,-22.993837,67.246765,8.939912,-5.42201,1.0107573,-0.28429767,-6.4537425,6.4785094,61.13583,-29.678967,-3.9301755,-1.3746839
143,-0.9695001840591431,-2.023040771484375,77.09817504882812,-0.679550267476396,-0.7117057393916818,70.01039490750136,2.1108015,10.029401,21.455753,16.881006,-16.753462,-5.625025,-7.011046,-7.715095,-16.708967,18.736275,-12.595231,4.608598,-2.2024481,-0.4811019,9.590417,-1.5380399,11.2676,-22.99007,67.23754,8.885172,-5.432084,1.0206591,-0.28653407,-6.456829,6.487588,61.155045,-29.675575,-3.9615765,-1.3739606
144,-0.9690867066383362,-2.0204403400421143,77.0956039428711,-0.6832993062502731,-0.7162343086206329,70.02139490503761,2.0975513,10.036819,21.442242,16.917345,-16.765192,-5.6089125,-7.0024185,-7.7177196,-16.719564,18.741879,-12.601142,4.6103616,-2.2013159,-0.47567573,9.592729,-1.5335734,11.266323,-22.975399,67.22316,8.850485,-5.4343076,1.0195278,-0.29568505,-6.472625,6.5270047,61.17357,-29.666454,-3.9783554,-1.3795357
145,-0.9660451412200928,-2.018174171447754,77.09719848632812,-0.6787875798997871,-0.7239408423796146,70.03147682218003,2.1103923,10.024993,21.432364,16.905304,-16.755762,-5.6024446,-6.989924,-7.7298636,-16.72793,18.745678,-12.605286,4.616514,-2.1872027,-0.48091775,9.600183,-1.5393606,11.265279,-22.97176,67.21818,8.847417,-5.425616,1.0068501,-0.2999593,-6.483499,6.557216,61.18252,-29.677273,-3.9733381,-1.3965967
146,-0.9660636782646179,-2.014845609664917,77.09575653076172,-0.6690192871271671,-0.733358457542346,70.04120273216215,2.1384099,10.000975,21.424238,16.863577,-16.733171,-5.6021547,-6.9757104,-7.748084,-16.734678,18.74833,-12.608142,4.625448,-2.171823,-0.49157444,9.609977,-1.5464448,11.264277,-22.971561,67.215126,8.86057,-5.4092636,0.9862259,-0.3042068,-6.4932857,6.5938,61.187534,-29.694027,-3.9542732,-1.4209086
147,-0.9667146801948547,-2.012190103530884,77.09487915039062,-0.6572282475376188,-0.7421572838521618,70.05059700033033,2.1705773,9.972186,21.416935,16.81093,-16.70688,-5.6032143,-6.9635773,-7.7692585,-16.740322,18.75364,-12.612571,4.6356783,-2.1511996,-0.5054227,9.620539,-1.5573096,11.263685,-22.973267,67.21548,8.885189,-5.3876147,0.959766,-0.30761385,-6.4992094,6.62081,61.188484,-29.719122,-3.9335554,-1.4438345
148,-0.9755987524986267,-2.007174253463745,77.0980224609375,-0.6464790968550401,-0.7478242753671069,70.05959586684486,2.1930394,9.946976,21.409424,16.772535,-16.690195,-5.600718,-6.957885,-7.7899065,-16.745157,18.765518,-12.621436,4.6456103,-2.139782,-0.5171458,9.624544,-1.5605565,11.262522,-22.965363,67.21452,8.911094,-5.363216,0.93027425,-0.30843183,-6.509583,6.6600747,61.185936,-29.733479,-3.9205787,-1.4596131
149,-0.9779363870620728,-2.000481367111206,77.10103607177734,-0.6385093716591815,-0.7486240550446981,70.06880415999177,2.19969,9.928746,21.400291,16.757208,-16.688969,-5.593853,-6.9603586,-7.8085303,-16.750921,18.784664,-12.6367035,4.6554527,-2.122771,-0.5263371,9.624511,-1.5624381,11.261645,-22.953938,67.21229,8.953023,-5.330959,0.8921114,-0.3072635,-6.516368,6.680743,61.179047,-29.754433,-3.922559,-1.4634235
150,-0.9743329286575317,-1.9936347007751465,77.10474395751953,-0.631264938947072,-0.7461787243870721,70.07791749642308,2.197433,9.913251,21.39042,16.753557,-16.696922,-5.5850153,-6.969765,-7.8275056,-16.756433,18.811617,-12.657671,4.6658854,-2.1115065,-0.5337065,9.621128,-1.5592782,11.260231,-22.93077,67.208084,9.010131,-5.2924895,0.8447586,-0.3050536,-6.5250115,6.7043285,61.16777,-29.77484,-3.9324112,-1.4602457
151,-0.9746989011764526,-1.9917510747909546,77.10319519042969,-0.6228200936028326,-0.7433864093144968,70.08660232505764,2.1965008,9.895499,21.381603,16.746157,-16.70318,-5.5743666,-6.9810095,-7.8479323,-16.760124,18.840853,-12.679073,4.6758466,-2.0984187,-0.5426418,9.617388,-1.5567662,11.25922,-22.909788,67.20458,9.057782,-5.2559705,0.8017672,-0.30309302,-6.5313306,6.7199936,61.15424,-29.792597,-3.9428833,-1.451784
152,-0.9866108298301697,-1.9953949451446533,77.09602355957031,-0.6116347607225352,-0.7431170824688457,70.09423355715343,2.2043262,9.871824,21.374725,16.72552,-16.700418,-5.562166,-6.9917746,-7.8717866,-16.759998,18.872751,-12.69868,4.684469,-2.1017163,-0.5525292,9.618179,-1.5459195,11.257856,-22.872416,67.19303,9.079057,-5.2320232,0.77263093,-0.30651104,-6.544665,6.746503,61.137424,-29.797077,-3.9468622,-1.4373605
153,-0.9913306832313538,-1.9960860013961792,77.09319305419922,-0.5946674630124422,-0.7475451586615547,70.10006669834141,2.2280688,9.837017,21.371784,16.680971,-16.681313,-5.545849,-7.002371,-7.9026394,-16.752615,18.911812,-12.717607,4.691222,-2.0943322,-0.57162607,9.6219635,-1.5460011,11.257898,-22.856342,67.1902,9.04067,-5.2219195,0.77176267,-0.3075352,-6.5517206,6.7518764,61.116528,-29.79216,-3.9422522,-1.4122249
154,-1.0006139278411865,-1.9877197742462158,77.0949478149414,-0.5736196176567916,-0.7546586394975148,70.10458138444773,2.2627385,9.794224,21.371437,16.618996,-16.651077,-5.526214,-7.012986,-7.9379454,-16.740234,18.954884,-12.73567,4.6966596,-2.0911827,-0.59388596,9.630163,-1.5454255,11.259048,-22.838005,67.18395,8.966891,-5.2218423,0.78640044,-0.30993414,-6.560807,6.7531004,61.089516,-29.776365,-3.9340978,-1.3750719
155,-1.0083677768707275,-1.9850730895996094,77.09705352783203,-0.5539482196470559,-0.7609971755070803,70.10891366127355,2.2960455,9.7529955,21.371197,16.558119,-16.621525,-5.5084615,-7.023899,-7.9717727,-16.728113,18.995852,-12.751385,4.701437,-2.08536,-0.61603063,9.635301,-1.5468287,11.26013,-22.82891,67.18359,8.889231,-5.2279525,0.80465215,-0.3102718,-6.564997,6.750773,61.063267,-29.757364,-3.9215503,-1.3459547
156,-1.0050201416015625,-1.9827959537506104,77.09748077392578,-0.5403948934997069,-0.7633695491822848,70.11404269430277,2.3168395,9.721767,21.368715,16.515291,-16.603725,-5.497595,-7.0346704,-7.9982696,-16.721315,19.027872,-12.762788,4.7061877,-2.0784764,-0.63094956,9.638103,-1.5502305,11.262659,-22.821678,67.18753,8.846421,-5.2383504,0.80743015,-0.310231,-6.5710845,6.7509413,61.039936,-29.738646,-3.9077845,-1.3381014
157,-1.0074187517166138,-1.9812653064727783,77.09398651123047,-0.5380389716768602,-0.7605407694678424,70.12118570273724,2.3183925,9.708408,21.361118,16.501568,-16.605148,-5.499184,-7.0420165,-8.010581,-16.724302,19.041712,-12.765321,4.710272,-2.068538,-0.63300854,9.634814,-1.5511287,11.264235,-22.81948,67.19345,8.850428,-5.255109,0.7889253,-0.3100628,-6.573935,6.7535806,61.02554,-29.7231,-3.8955824,-1.3644382
158,-1.0137245655059814,-1.980568289756775,77.09117126464844,-0.537383435800843,-0.7532995311809088,70.12968300883121,2.3122325,9.697131,21.352114,16.49341,-16.612297,-5.507697,-7.0549293,-8.022437,-16.73051,19.057615,-12.768503,4.7148104,-2.0730014,-0.6282969,9.632924,-1.5328273,11.279234,-22.80083,67.17688,8.88228,-5.286586,0.7440981,-0.29868263,-6.5953336,6.7911663,60.992725,-29.683184,-3.8795798,-1.4162151
159,-1.0191218852996826,-1.9769331216812134,77.08963012695312,-0.5410047111196989,-0.7447295783015323,70.1374515813994,2.2986777,9.693968,21.342974,16.49946,-16.626266,-5.5165157,-7.0650263,-8.02792,-16.738655,19.063797,-12.766881,4.7189198,-2.0729592,-0.62227076,9.626294,-1.5231972,11.291775,-22.797413,67.17597,8.922625,-5.313149,0.7050963,-0.2923487,-6.608909,6.816412,60.97149,-29.652212,-3.8611052,-1.4680848
160,-1.0250825881958008,-1.9700847864151,77.0936050415039,-0.542896035002156,-0.7367138963781532,70.14290347847012,2.2842731,9.691272,21.337172,16.511902,-16.640007,-5.5168285,-7.0770235,-8.034756,-16.74296,19.073908,-12.768007,4.723596,-2.0739539,-0.6204687,9.619863,-1.5245832,11.299603,-22.805317,67.19101,8.960952,-5.3248243,0.68451536,-0.2931231,-6.61535,6.8270097,60.956333,-29.633713,-3.8356888,-1.498252
161,-1.028634786605835,-1.9679293632507324,77.09125518798828,-0.5434416755667197,-0.7285214020227957,70.1459971604743,2.2662675,9.691474,21.334982,16.536062,-16.65367,-5.504302,-7.0888743,-8.041451,-16.743065,19.081758,-12.768566,4.729163,-2.081146,-0.6225661,9.614731,-1.5256492,11.312333,-22.834805,67.21076,8.996175,-5.3131366,0.68364173,-0.28997937,-6.6236024,6.8390884,60.926186,-29.60866,-3.7950006,-1.4906812
162,-1.034517526626587,-1.963273286819458,77.09223175048828,-0.5438151988992826,-0.7198946625223328,70.1470222589097,2.2440915,9.695254,21.335564,16.572071,-16.669722,-5.483984,-7.1014895,-8.047054,-16.740606,19.0888,-12.769232,4.73533,-2.0925071,-0.6262308,9.610675,-1.5288475,11.322241,-22.872717,67.23808,9.042651,-5.284265,0.6974033,-0.2903458,-6.6289697,6.843863,60.893932,-29.589863,-3.7432632,-1.4622597
163,-1.0415270328521729,-1.9594706296920776,77.09224700927734,-0.542919053730835,-0.7107874961288487,70.1462633016919,2.222632,9.697317,21.338669,16.605883,-16.68469,-5.4620442,-7.116768,-8.0541935,-16.735989,19.099392,-12.7721195,4.741372,-2.0708623,-0.6307999,9.609691,-1.5299497,11.364942,-22.975245,67.236626,9.035863,-5.2550774,0.7083555,-0.25614595,-6.646775,6.817103,60.829346,-29.567139,-3.7020946,-1.4196107
164,-1.0448793172836304,-1.9580285549163818,77.0912094116211,-0.5387815121428509,-0.7024806620410489,70.14372015252123,2.2114456,9.690647,21.344706,16.61745,-16.692175,-5.4444323,-7.1352696,-8.066241,-16.729734,19.11859,-12.779782,4.7468085,-2.065107,-0.64031327,9.609779,-1.532997,11.405886,-23.039043,67.228584,8.997349,-5.246378,0.7114083,-0.2409244,-6.658432,6.793504,60.793728,-29.5577,-3.6829495,-1.3902497
165,-1.0534578561782837,-1.954999566078186,77.09182739257812,-0.5302433247513555,-0.6952248702739214,70.13815596111543,2.2130954,9.67254,21.3557,16.601524,-16.692188,-5.4334965,-7.1597977,-8.085688,-16.721672,19.152723,-12.795967,4.750682,-2.0793552,-0.65031075,9.599269,-1.5521795,11.416389,-23.053295,67.24173,8.891152,-5.2695427,0.7185961,-0.2416651,-6.6612563,6.7859716,60.797955,-29.561708,-3.6889598,-1.3873199
166,-1.0616732835769653,-1.9535348415374756,77.09040832519531,-0.5173751819253375,-0.6883944394779837,70.12977707876043,2.2253385,9.644683,21.371479,16.562696,-16.6843,-5.4256654,-7.1893005,-8.111221,-16.711168,19.197784,-12.818472,4.753603,-2.0616214,-0.6702254,9.606152,-1.5436672,11.4953375,-23.109959,67.1654,8.689664,-5.309544,0.704987,-0.21557325,-6.676513,6.737526,60.77112,-29.569141,-3.727527,-1.3746992
167,-1.0619550943374634,-1.9539796113967896,77.08695220947266,-0.504172715981365,-0.6814080613151946,70.12121688100771,2.2379153,9.615467,21.386736,16.521914,-16.67548,-5.4185085,-7.21919,-8.13694,-16.699303,19.242535,-12.840312,4.757079,-2.0646465,-0.69497335,9.610697,-1.5307665,11.5739155,-23.142073,67.090355,8.5078535,-5.3515673,0.6840539,-0.20301731,-6.68451,6.707612,60.763115,-29.577276,-3.7707324,-1.3691809
168,-1.071920394897461,-1.947524905204773,77.0860824584961,-0.4936779703877218,-0.6734851534285056,70.11524199203248,2.2392807,9.593214,21.396448,16.502882,-16.67416,-5.409388,-7.245641,-8.158083,-16.686821,19.276646,-12.854986,4.7627263,-2.0732675,-0.7152958,9.61055,-1.5392989,11.635582,-23.185709,67.057014,8.40988,-5.3788223,0.65365046,-0.19320889,-6.689089,6.6823606,60.76256,-29.579597,-3.8064938,-1.3641737
169,-1.076589822769165,-1.9477933645248413,77.08343505859375,-0.49026870501237246,-0.6644470662905059,70.11448597776493,2.222986,9.584639,21.39567,16.517597,-16.684061,-5.3983107,-7.262515,-8.167646,-16.675203,19.286552,-12.855181,4.770651,-2.0810387,-0.73463094,9.616228,-1.54196,11.722858,-23.266644,67.018486,8.429447,-5.379352,0.58942366,-0.17795962,-6.693322,6.650362,60.751278,-29.572287,-3.840428,-1.350456
170,-1.0834088325500488,-1.9437174797058105,77.08419799804688,-0.49116333218578917,-0.6546943498331749,70.11692315406745,2.1947339,9.58464,21.388006,16.5548,-16.701904,-5.3864098,-7.272795,-8.169959,-16.663872,19.27987,-12.845434,4.7801404,-2.0929332,-0.75175285,9.622179,-1.5505383,11.814423,-23.365799,66.99298,8.52699,-5.36514,0.5045005,-0.16243187,-6.6957264,6.618091,60.741974,-29.56005,-3.875204,-1.3353806
171,-1.0934947729110718,-1.9389599561691284,77.08642578125,-0.4884217614133199,-0.6443563955116524,70.11768030808858,2.1694527,9.578981,21.382744,16.585394,-16.716,-5.372757,-7.2892575,-8.1778555,-16.64924,19.28349,-12.839867,4.791339,-2.106407,-0.7704798,9.624984,-1.5762885,11.892116,-23.460556,66.992096,8.637578,-5.3521614,0.42613244,-0.14969422,-6.6979074,6.58995,60.7391,-29.5446,-3.904512,-1.3213798
172,-1.099010705947876,-1.9366790056228638,77.08524322509766,-0.4733673961749501,-0.6333394734271885,70.11196833713085,2.1589887,9.554133,21.388712,16.585905,-16.717678,-5.3565664,-7.3243814,-8.204832,-16.62775,19.32366,-12.852246,4.804464,-2.1061826,-0.8110734,9.6358,-1.587675,12.003929,-23.54607,66.94756,8.678733,-5.35359,0.36448243,-0.1319776,-6.6982236,6.5526805,60.72328,-29.529829,-3.928839,-1.3010917
173,-1.1071869134902954,-1.9377367496490479,77.0805892944336,-0.44120106110885093,-0.624285284560369,70.09722866194694,2.1759064,9.500232,21.410583,16.537144,-16.699703,-5.3356566,-7.380231,-8.258906,-16.598248,19.411213,-12.888656,4.8215523,-2.1032896,-0.8750475,9.650861,-1.5945164,12.123753,-23.592844,66.88315,8.634781,-5.3763003,0.337455,-0.12097383,-6.69513,6.522622,60.710968,-29.511091,-3.941947,-1.2768812
174,-1.1133480072021484,-1.9330554008483887,77.08094787597656,-0.3974749556670153,-0.6162964879098076,70.07647191099318,2.2105627,9.426907,21.442665,16.456022,-16.668385,-5.311185,-7.4497943,-8.331009,-16.562729,19.529322,-12.940361,4.8418264,-2.0974698,-0.9503086,9.665991,-1.610932,12.235113,-23.616673,66.82528,8.547172,-5.4121594,0.33519068,-0.11320722,-6.690728,6.4960995,60.703228,-29.489176,-3.9463034,-1.2505088
175,-1.1124472618103027,-1.91759192943573,77.0829849243164,-0.35035081669133744,-0.6044204430343947,70.05310846726846,2.239603,9.3509035,21.478067,16.37922,-16.638582,-5.287092,-7.53304,-8.408475,-16.522749,19.664938,-12.999212,4.8614006,-2.0939686,-1.0167023,9.664761,-1.677822,12.28981,-23.629473,66.84583,8.456254,-5.455897,0.35627574,-0.10742958,-6.69122,6.477413,60.709736,-29.472944,-3.939687,-1.2360523
176,-1.1314398050308228,-1.9233431816101074,77.07975006103516,-0.30605686210784083,-0.5833586036917818,70.030718609382,2.2447603,9.285153,21.511114,16.330854,-16.618382,-5.267194,-7.628873,-8.479795,-16.479275,19.80181,-13.055532,4.876218,-2.0846355,-1.1002251,9.673178,-1.7072997,12.423048,-23.66487,66.78711,8.360685,-5.496477,0.35073528,-0.09155038,-6.6902013,6.4510493,60.686897,-29.464628,-3.9373205,-1.2220881
177,-1.148222804069519,-1.9328365325927734,77.0732192993164,-0.26656542331228167,-0.5560841615077804,70.00852490704014,2.2329593,9.23136,21.543491,16.304909,-16.605522,-5.2539754,-7.7268534,-8.539307,-16.430655,19.925797,-13.105587,4.882536,-2.0851808,-1.1900052,9.676201,-1.7361591,12.577683,-23.7083,66.72701,8.283745,-5.5382714,0.329043,-0.07404495,-6.682418,6.4430447,60.65898,-29.474258,-3.9281876,-1.2270019
178,-1.1524416208267212,-1.9246799945831299,77.06977081298828,-0.22816655339590303,-0.5239324633438612,69.98528058714001,2.210541,9.182822,21.577322,16.291813,-16.596676,-5.244871,-7.829957,-8.593791,-16.377245,20.046595,-13.153637,4.8833423,-2.0878825,-1.2816852,9.671236,-1.7839745,12.728301,-23.757816,66.69234,8.212905,-5.5840263,0.30592015,-0.054313727,-6.671677,6.443891,60.631218,-29.497942,-3.9112175,-1.2468601
179,-1.1607000827789307,-1.9259178638458252,77.066162109375,-0.1905594129844444,-0.4794524718220729,69.96345369336518,2.1525676,9.143911,21.60645,16.321844,-16.604458,-5.236242,-7.9611607,-8.650462,-16.322256,20.193352,-13.207349,4.8849335,-2.092278,-1.3751799,9.657039,-1.8454363,12.878382,-23.805252,66.66942,8.147266,-5.626712,0.2870928,-0.035555158,-6.6587133,6.4408474,60.601334,-29.521059,-3.8934374,-1.271097
180,-1.1579170227050781,-1.9258360862731934,77.05876159667969,-0.1540745003618212,-0.4154505550310383,69.94529808678877,2.0365832,9.118182,21.625174,16.420538,-16.638834,-5.224446,-8.141796,-8.715997,-16.269388,20.39165,-13.271988,4.8936143,-2.09938,-1.4711386,9.631097,-1.9167743,13.029226,-23.840004,66.64863,8.087183,-5.65906,0.27934662,-0.021852566,-6.6425343,6.422261,60.569614,-29.53051,-3.8808634,-1.2904791
181,-1.1690810918807983,-1.932900071144104,77.04476928710938,-0.12843656527655212,-0.33362413480905323,69.93322244837279,1.8505212,9.122579,21.62629,16.617626,-16.714792,-5.2129097,-8.355183,-8.775841,-16.227133,20.614098,-13.341838,4.9101624,-2.1087134,-1.5605217,9.595165,-1.9960904,13.181707,-23.859526,66.62749,8.026019,-5.6863894,0.29726106,-0.014167773,-6.6222544,6.389251,60.535805,-29.513956,-3.8709545,-1.3066065
182,-1.1891486644744873,-1.9519224166870117,77.02711486816406,-0.11060037526848723,-0.23676579900766762,69.92533071053471,1.6086389,9.149682,21.614779,16.891794,-16.823145,-5.2024455,-8.597728,-8.831657,-16.190783,20.859446,-13.416845,4.9314284,-2.1202679,-1.6466453,9.550093,-2.0847726,13.336905,-23.869928,66.609406,7.9647923,-5.7101603,0.33257633,-0.010482145,-6.5978174,6.3464255,60.499557,-29.481852,-3.8618464,-1.3229861
183,-1.1969213485717773,-1.9660158157348633,77.00918579101562,-0.0797142146126817,-0.1190053892796796,69.9176960409432,1.3262296,9.166714,21.602934,17.194036,-16.937395,-5.1854315,-8.910126,-8.915369,-16.14408,21.191957,-13.511257,4.9579735,-2.1348844,-1.7492511,9.49189,-2.1840599,13.49519,-23.872091,66.59486,7.917864,-5.717277,0.35821384,-0.011619964,-6.569481,6.2889295,60.463085,-29.453066,-3.860768,-1.3338348
184,-1.1965481042861938,-1.9840087890625,76.99190521240234,-0.01519583354337238,0.025472598133492244,69.90661979086332,1.0149782,9.142371,21.602463,17.483982,-17.03615,-5.1539955,-9.333905,-9.058878,-16.069971,21.67694,-13.639729,4.99086,-2.1532898,-1.8880887,9.416537,-2.2953186,13.656412,-23.86637,66.58459,7.9001284,-5.694495,0.34716788,-0.018472314,-6.5378733,6.2110653,60.428352,-29.447247,-3.875001,-1.3334011
185,-1.1968904733657837,-2.0064749717712402,76.96707153320312,0.08549073213217949,0.20350914670433912,69.89609468701124,0.6651865,9.074126,21.611668,17.762989,-17.117493,-5.1029806,-9.874468,-9.263387,-15.971261,22.312862,-13.810995,5.031039,-2.1779923,-2.0651302,9.316548,-2.4237967,13.820481,-23.852795,66.58289,7.92453,-5.618271,0.2765637,-0.029056918,-6.502708,6.1109633,60.397842,-29.475502,-3.912166,-1.316329
186,-1.224844217300415,-2.0229828357696533,76.94361114501953,0.21209633165933536,0.4099598630829549,69.88660111728765,0.27300617,8.977841,21.62582,18.05358,-17.19281,-5.037579,-10.511265,-9.512909,-15.852822,23.070314,-14.015456,5.079127,-2.207468,-2.2707875,9.196342,-2.5675144,13.98739,-23.831535,66.588295,7.9803762,-5.502203,0.16593862,-0.044275455,-6.463775,5.9918666,60.37022,-29.52484,-3.9665456,-1.287125
187,-1.2478686571121216,-2.061833143234253,76.90958404541016,0.3672486054702852,0.6329690830449528,69.86974156482574,-0.13208908,8.845984,21.654179,18.326317,-17.25679,-4.9650517,-11.245015,-9.811946,-15.700306,23.966928,-14.2377205,5.1367893,-2.237007,-2.5072994,9.06928,-2.717248,14.157046,-23.805098,66.59386,8.045055,-5.3896847,0.051890664,-0.067167304,-6.4213786,5.854359,60.340225,-29.580664,-4.025455,-1.2541704
188,-1.2601505517959595,-2.1211185455322266,76.86567687988281,0.5534038324740879,0.8608291923414674,69.83688072820134,-0.5281153,8.673926,21.704634,18.568697,-17.30525,-4.892581,-12.074524,-10.162991,-15.499421,25.015923,-14.459701,5.20662,-2.2616022,-2.7773855,8.948639,-2.8641005,14.32947,-23.775742,66.59327,8.096019,-5.3237495,-0.028538195,-0.1007823,-6.3775616,5.698419,60.302357,-29.62965,-4.076129,-1.2258949
189,-1.289718747138977,-2.174318313598633,76.82152557373047,0.7820438703006943,1.1050319265281252,69.7891683120124,-0.9291924,8.446965,21.777973,18.779108,-17.334986,-4.8164787,-13.026499,-10.580445,-15.256396,26.247576,-14.715917,5.2645144,-2.2820334,-3.0909476,8.8244095,-3.010027,14.5042,-23.750174,66.59519,8.131835,-5.33305,-0.048699055,-0.14646704,-6.33284,5.5190825,60.2574,-29.68775,-4.124608,-1.1960328
190,-1.3181133270263672,-2.2112927436828613,76.77289581298828,1.048001313848944,1.366848147865319,69.73050950814113,-1.3409761,8.172423,21.870539,18.966022,-17.349195,-4.734561,-14.086183,-11.0512905,-14.972809,27.629107,-14.997216,5.322497,-2.299825,-3.4430776,8.694212,-3.1593857,14.680973,-23.727049,66.60079,8.161247,-5.3888555,-0.03375727,-0.20288296,-6.2865405,5.317673,60.20741,-29.755297,-4.1747217,-1.1627216
191,-1.3433712720870972,-2.2669293880462646,76.7213134765625,1.3294761152528267,1.619642350964538,69.6565718703811,-1.7259055,7.877918,21.984308,19.124483,-17.354824,-4.656268,-15.205744,-11.541416,-14.625069,29.113018,-15.23218,5.439344,-2.3117762,-3.8142087,8.582982,-3.3040056,14.8597145,-23.691874,66.58869,8.181375,-5.447998,-0.025105618,-0.26840296,-6.2388897,5.1043983,60.148857,-29.79458,-4.210274,-1.1407808
192,-1.367903232574463,-2.32924222946167,76.67390441894531,1.603803488463782,1.8369623519675957,69.56251515995396,-2.0462708,7.591462,22.120657,19.24742,-17.357983,-4.5913944,-16.33248,-12.014031,-14.193723,30.641624,-15.350784,5.6745906,-2.3157094,-4.1840825,8.515517,-3.4356177,15.0410795,-23.629734,66.53761,8.187838,-5.467398,-0.06427705,-0.3409754,-6.191681,4.8896556,60.07746,-29.769508,-4.2148924,-1.1448016
193,-1.395075798034668,-2.3820817470550537,76.62433624267578,1.8693873883466405,2.0152730367928853,69.44581226286184,-2.2993274,7.315314,22.280048,19.336535,-17.35898,-4.5400815,-17.47627,-12.473222,-13.707646,32.251015,-15.358084,6.005579,-2.308325,-4.5530024,8.4981785,-3.5518036,15.224325,-23.518179,66.4352,8.192324,-5.4291153,-0.1776206,-0.42049712,-6.143704,4.6794915,59.9915,-29.686487,-4.175272,-1.1634989
194,-1.4270824193954468,-2.450310468673706,76.57283020019531,2.1356539617648704,2.168117170309329,69.3091117961548,-2.5041902,7.037739,22.46069,19.395266,-17.35547,-4.4982915,-18.657131,-12.923293,-13.165575,33.95057,-15.287614,6.423189,-2.2929752,-4.92898,8.517849,-3.656886,15.40985,-23.369259,66.29491,8.193087,-5.3581924,-0.33786708,-0.5107566,-6.0958247,4.4696555,59.897243,-29.55877,-4.1040525,-1.1953354
195,-1.453273892402649,-2.501163959503174,76.52608489990234,2.395486140439025,2.294743982067654,69.1544419735686,-2.6551464,6.7659807,22.66102,19.417727,-17.347887,-4.4693794,-19.839472,-13.325776,-12.504703,35.652267,-15.119011,7.008222,-2.2768314,-5.300048,8.570815,-3.74915,15.599644,-23.219122,66.126976,8.166818,-5.274518,-0.50737774,-0.6092011,-6.049915,4.2541523,59.790962,-29.358881,-4.0210314,-1.2655469
196,-1.4781312942504883,-2.5578410625457764,76.47158813476562,2.640697030840143,2.3944095997305257,68.98352733377973,-2.7470777,6.5083675,22.87876,19.398972,-17.337582,-4.457064,-20.990337,-13.640563,-11.662887,37.278427,-14.840784,7.841141,-2.2662764,-5.6542506,8.654109,-3.8288753,15.796245,-23.105,65.94759,8.089603,-5.2023244,-0.6480147,-0.7152552,-6.009562,4.0251765,59.674137,-29.060265,-3.9499063,-1.4010108
197,-1.513485074043274,-2.610168695449829,76.41835021972656,2.878527874152937,2.4690034522715307,68.78328580083016,-2.761906,6.2480917,23.13046,19.29739,-17.309381,-4.4615817,-22.155409,-13.854686,-10.587812,38.899055,-14.44435,8.938447,-2.2584355,-5.9982147,8.77209,-3.887851,15.999468,-23.033611,65.74365,7.9342914,-5.1425686,-0.73244286,-0.8415454,-5.9784365,3.798988,59.552135,-28.642086,-3.89632,-1.5986416
198,-1.536651849746704,-2.644489049911499,76.38024139404297,3.107381262837519,2.5189632059610854,68.55628797585945,-2.7150264,5.993193,23.411522,19.143032,-17.274681,-4.483054,-23.333607,-13.966587,-9.324263,40.538837,-13.968168,10.275664,-2.250566,-6.3316216,8.924689,-3.9283574,16.208773,-22.987318,65.512146,7.7191577,-5.084958,-0.7867941,-0.98313695,-5.9576216,3.5724518,59.42195,-28.1236,-3.8503695,-1.8469782
199,-1.5555630922317505,-2.69096040725708,76.33670806884766,3.307293382615633,2.5407589235852206,68.32855895545237,-2.6328428,5.777664,23.68553,18.996054,-17.252897,-4.520174,-24.412254,-13.966933,-7.963985,42.03986,-13.461881,11.860093,-2.2481246,-6.6309776,9.102803,-3.9603958,16.42573,-22.965588,65.271484,7.4905596,-5.0306687,-0.85416615,-1.113825,-5.9412503,3.3110118,59.27091,-27.532742,-3.81258,-2.1593838
200,-1.5689488649368286,-2.7404489517211914,76.28755950927734,3.459850572087528,2.5302439296114048,68.12665448421812,-2.5501482,5.6390543,23.917847,18.937881,-17.274181,-4.573288,-25.28658,-13.863936,-6.5942373,43.259174,-12.973907,13.682547,-2.2548096,-6.877573,9.29692,-3.9970992,16.653843,-22.971611,65.04317,7.2939763,-4.9809165,-0.9773741,-1.2065525,-5.9217415,2.9758732,59.086407,-26.900572,-3.7829018,-2.550092
201,-1.5540388822555542,-2.7741777896881104,76.25131225585938,3.473631548135643,2.492081560992196,67.88745711111187,-2.5395916,5.7536764,24.13585,19.168577,-17.436579,-4.6807876,-25.886948,-13.446404,-5.2954226,44.019623,-12.386313,15.000033,-2.21445,-6.998388,9.509503,-4.039002,16.89905,-23.00103,64.819786,7.14056,-4.931411,-1.2120423,-1.2614433,-5.895705,2.560821,58.86982,-26.182852,-3.7721622,-3.0898983
202,-1.4871912002563477,-2.8205466270446777,76.22268676757812,3.131335493403336,2.498300279857737,67.48038987862014,-2.8201504,6.505382,24.390665,20.08741,-17.933964,-4.914738,-26.26743,-12.459866,-4.3212404,44.261482,-11.586168,15.000033,-2.0112574,-6.7882905,9.691861,-4.0791745,17.1637,-23.053843,64.59071,7.006281,-4.882981,-1.5204625,-1.2916232,-5.8613553,2.0836523,58.625656,-25.382896,-3.7818081,-3.7500856
203,-1.4144514799118042,-2.8728713989257812,76.19657897949219,2.771604667746501,2.4780936416826345,67.14109566990207,-3.0661082,7.2620916,24.571037,20.967756,-18.405289,-5.150146,-26.537748,-11.592831,-3.4954348,44.457474,-10.90708,15.000033,-1.8569986,-6.552056,9.881162,-4.120614,17.442078,-23.145594,64.37618,6.880682,-4.843294,-1.8063409,-1.2869118,-5.8163357,1.5415095,58.34746,-24.600594,-3.7927125,-4.3941083
204,-1.3407564163208008,-2.906111001968384,76.17422485351562,2.49927297129331,2.460577148559769,66.94411817430351,-3.2500877,7.8311186,24.647839,21.608091,-18.741564,-5.3431435,-26.835821,-11.126198,-2.8718174,44.82999,-10.488139,15.000033,-1.8107424,-6.3802004,10.039853,-4.1717696,17.725191,-23.292467,64.20378,6.755302,-4.8210716,-1.97116,-1.2370144,-5.7566133,0.9283014,58.02934,-23.938692,-3.7799938,-4.8878207
205,-1.2756456136703491,-2.922454357147217,76.15428161621094,2.3604194535303193,2.4578152221334233,66.90585690122522,-3.3568337,8.13368,24.627481,21.93114,-18.905458,-5.4783554,-27.221851,-11.082451,-2.3286896,45.437912,-10.379834,15.000033,-1.8892825,-6.3147755,10.151867,-4.2420635,18.010366,-23.533033,64.09611,6.60801,-4.8324704,-1.9511826,-1.1398602,-5.6774583,0.22116645,57.66042,-23.37994,-3.7157447,-5.2201123
206,-1.211280107498169,-2.9126129150390625,76.141845703125,2.3031962974492086,2.4608583901603427,66.98205858970952,-3.415168,8.271291,24.53321,22.061356,-18.963644,-5.578193,-27.627659,-11.317603,-1.8261874,46.12977,-10.464202,15.000033,-2.051702,-6.3126736,10.23113,-4.332859,18.297325,-23.852833,64.04334,6.449888,-4.8691077,-1.8096675,-0.9985085,-5.5779786,-0.5739663,57.24806,-22.886318,-3.6157582,-5.455951
207,-1.1460320949554443,-2.9020559787750244,76.13518524169922,2.288234134578218,2.4722534371884635,67.15173729283684,-3.47027,8.319305,24.366112,22.104542,-18.965364,-5.6542244,-28.006319,-11.865207,-1.5372735,46.797974,-10.601904,15.000033,-2.270035,-6.3375983,10.281627,-4.439174,18.57906,-24.18365,64.023506,6.323953,-4.9029603,-1.638648,-0.8131666,-5.4617267,-1.4148291,56.815693,-22.526476,-3.516704,-5.5752454
208,-1.0749578475952148,-2.873934030532837,76.14505004882812,2.2748555697537367,2.4921832100520787,67.3964431031045,-3.5662043,8.35452,24.124763,22.169802,-18.96199,-5.71876,-28.307924,-12.764033,-1.641269,47.34612,-10.67511,15.000033,-2.5215583,-6.3494573,10.309568,-4.5543256,18.845205,-24.453587,64.015755,6.273939,-4.905469,-1.5295584,-0.58577794,-5.334265,-2.2551525,56.3867,-22.367596,-3.4554791,-5.557064
209,-0.9950107932090759,-2.832951068878174,76.15158081054688,2.2538495678086106,2.5214220580986404,67.73720303701755,-3.7210867,8.387679,23.786652,22.282852,-18.961166,-5.7715573,-28.501139,-14.134276,-2.3146696,47.77577,-10.715862,15.000033,-2.8278842,-6.331096,10.310874,-4.678145,19.088823,-24.653088,64.031494,6.3423157,-4.8732677,-1.4930779,-0.3107235,-5.1943417,-3.1087499,55.957375,-22.44994,-3.4461036,-5.351317
210,-0.9093236923217773,-2.7846407890319824,76.1546401977539,2.2497976223371294,2.5488891110327727,68.18707906636966,-3.898846,8.374845,23.349852,22.38925,-18.939997,-5.80758,-28.58457,-15.934181,-3.430626,48.141094,-10.815111,15.000033,-3.2047286,-6.3056884,10.293444,-4.8163033,19.309505,-24.814697,64.08352,6.49729,-4.820365,-1.4839083,0.009519987,-5.041827,-3.9874518,55.520435,-22.728456,-3.4679916,-4.984052
211,-0.8207564949989319,-2.729158639907837,76.15706634521484,2.2699692161049096,2.557959001101034,68.71264941399865,-4.066915,8.315123,22.844625,22.484497,-18.9067,-5.8329782,-28.559729,-17.956226,-4.7244606,48.430668,-10.938963,15.000033,-3.619458,-6.2898664,10.281141,-4.967044,19.506458,-24.925589,64.148796,6.6736636,-4.7445908,-1.510385,0.3607008,-4.884437,-4.841101,55.092384,-23.141632,-3.5077572,-4.5473266
212,-0.7294586300849915,-2.6712656021118164,76.13932800292969,2.3188118035553864,2.539163914403472,69.27396789731341,-4.197293,8.209691,22.307459,22.556768,-18.864733,-5.85237,-28.4565,-19.988333,-5.924586,48.623787,-11.021939,15.000033,-4.0385127,-6.2965016,10.290696,-5.12439,19.679762,-24.969099,64.20016,6.8052144,-4.6438246,-1.5813053,0.72780365,-4.7362113,-5.614503,54.689625,-23.62615,-3.550292,-4.1325483
213,-0.6050734519958496,-2.6183290481567383,76.13591003417969,2.1280486396873544,2.600143356202694,69.71233224560554,-4.5554223,8.508638,21.781178,23.013182,-18.998156,-5.9503016,-28.318592,-21.703901,-7.4400864,48.555984,-10.955323,13.68617,-4.3114038,-6.0675573,10.246786,-5.288106,19.82474,-24.91414,64.23316,6.8824854,-4.499643,-1.7164009,1.1116059,-4.6053233,-6.2952213,54.31457,-24.245789,-3.601304,-3.7226663
214,-0.46310582756996155,-2.5692832469940186,76.14312744140625,1.850913203748613,2.6943808622083774,70.13142660989777,-5.004558,8.9477415,21.2268,23.59467,-19.179224,-6.07897,-28.121264,-23.384031,-9.303639,48.37005,-10.901306,11.154836,-4.5436306,-5.747338,10.178569,-5.4573827,19.93935,-24.774118,64.260216,6.9383445,-4.319631,-1.9059857,1.5161006,-4.4912333,-6.9065676,53.962166,-25.003403,-3.6694396,-3.2816238
215,-0.3128132224082947,-2.5158004760742188,76.13849639892578,1.5762972739934744,2.7821993401303984,70.54450882423612,-5.443895,9.386922,20.670914,24.182781,-19.367538,-6.2106977,-27.865864,-24.998987,-11.129448,48.0979,-10.849122,8.631092,-4.7564836,-5.416836,10.113874,-5.6254163,20.026321,-24.593323,64.27645,6.975495,-4.1402216,-2.111694,1.928343,-4.403455,-7.448584,53.63698,-25.7444,-3.740123,-2.8728735
216,-0.1544228345155716,-2.4626147747039795,76.12728118896484,1.319340871445265,2.849610187600665,70.91976572951846,-5.844779,9.819752,20.15519,24.779146,-19.574902,-6.3467,-27.579563,-26.43204,-12.726646,47.721794,-10.704391,6.3866463,-4.9290147,-5.098776,10.066133,-5.78048,20.102432,-24.421717,64.26319,6.9900656,-3.9972322,-2.2972984,2.335346,-4.3398595,-7.9276447,53.3402,-26.317537,-3.7960455,-2.5581405
217,0.00756053626537323,-2.3992319107055664,76.1146469116211,1.0769347020493032,2.88809300163795,71.24754337593733,-6.197548,10.255325,19.692532,25.39858,-19.8174,-6.4832516,-27.288712,-27.687202,-14.074708,47.256466,-10.395346,4.334485,-5.055686,-4.7894607,10.039737,-5.9112277,20.167044,-24.260069,64.20881,6.986537,-3.8989,-2.4656105,2.7380035,-4.3128614,-8.323044,53.077084,-26.687157,-3.8343554,-2.3570747
218,0.1848539412021637,-2.3266773223876953,76.07909393310547,0.8433839791374966,2.9067961058078815,71.54501626932718,-6.519644,10.694715,19.261559,26.039852,-20.083923,-6.621068,-26.997156,-28.8217,-15.264849,46.71089,-9.956881,2.3716075,-5.1464014,-4.480955,10.02639,-6.0240173,20.217651,-24.087666,64.12014,6.962422,-3.8262982,-2.6326377,3.1413429,-4.3191195,-8.641013,52.84537,-26.932356,-3.8611245,-2.2344782
219,0.36198681592941284,-2.2621090412139893,76.039306640625,0.6297763706849818,2.918323830757518,71.8201985329631,-6.8196926,11.118355,18.853941,26.672422,-20.351248,-6.7687407,-26.707195,-29.8071,-16.251194,46.04453,-9.407431,0.74572635,-5.212873,-4.187294,10.016897,-6.1289415,20.259188,-23.908573,64.00847,6.9106708,-3.7740183,-2.7807217,3.5365407,-4.3493085,-8.914493,52.638832,-27.069328,-3.8692281,-2.1709805
220,0.5498178005218506,-2.1934549808502197,75.9925537109375,0.44724348888421067,2.935199728979946,72.08144805575878,-7.114644,11.5105505,18.460196,27.284433,-20.60494,-6.935595,-26.42257,-30.603952,-16.97339,45.208294,-8.748956,-0.28860077,-5.2690845,-3.9200888,10.003077,-6.2302337,20.299288,-23.724318,63.877415,6.8229575,-3.736897,-2.8942316,3.909723,-4.3975058,-9.17603,52.456013,-27.1127,-3.8539493,-2.144872
221,0.7365103960037231,-2.132453680038452,75.94225311279297,0.3069390106159809,2.9608630833942806,72.3323149137039,-7.4069095,11.855122,18.07842,27.863974,-20.836714,-7.1263,-26.125692,-31.206057,-17.406002,44.11788,-7.905262,-0.5600495,-5.315305,-3.6923368,9.980403,-6.3283815,20.341536,-23.53224,63.719734,6.6764994,-3.7198699,-2.9676247,4.259843,-4.4626293,-9.416967,52.30238,-27.018953,-3.809385,-2.1740255
222,0.9444388747215271,-2.0746896266937256,75.8719711303711,0.20038125146346242,2.9883053149607197,72.56778768094244,-7.6905494,12.166103,17.714643,28.427017,-21.059793,-7.3357635,-25.829832,-31.627104,-17.554745,42.805466,-6.8535533,-0.23922917,-5.349236,-3.4946718,9.955079,-6.4078937,20.39243,-23.328465,63.517784,6.4785705,-3.723121,-3.013628,4.5859118,-4.5565414,-9.624167,52.18369,-26.793518,-3.742017,-2.2592852
223,1.1584080457687378,-2.011178731918335,75.79796600341797,0.10991542896081251,3.0144332493796853,72.78350970920869,-7.962174,12.468676,17.369625,28.982588,-21.27997,-7.556768,-25.572407,-31.861319,-17.40588,41.381447,-5.6740203,0.41757774,-5.3772383,-3.3075979,9.931274,-6.463432,20.448742,-23.11286,63.2847,6.275904,-3.7350543,-3.0377991,4.8856225,-4.6755238,-9.819711,52.089275,-26.526558,-3.66104,-2.3596573
224,1.3839385509490967,-1.9336320161819458,75.73413848876953,0.01777626839466512,3.0361750583427383,72.97514215406629,-8.217195,12.787921,17.044434,29.537271,-21.501602,-7.7818365,-25.386614,-31.907541,-16.954746,39.960556,-4.4583054,1.152643,-5.3909135,-3.114894,9.914956,-6.514786,20.500862,-22.904243,63.055737,6.113009,-3.7440705,-3.0418715,5.169487,-4.795868,-10.042243,51.994236,-26.318357,-3.5730996,-2.4365978
225,1.6142888069152832,-1.8694850206375122,75.66107940673828,-0.08464080738579943,3.054032983608522,73.14095720102635,-8.460447,13.1360235,16.738106,30.100506,-21.727741,-8.005356,-25.282095,-31.733976,-16.117723,38.537003,-3.1431096,1.9433614,-5.3879905,-2.901949,9.908578,-6.5491157,20.555157,-22.703215,62.809677,6.000724,-3.7506034,-3.025798,5.428859,-4.9359717,-10.294425,51.914684,-26.178661,-3.4766529,-2.490778
226,1.858221173286438,-1.805077075958252,75.58282470703125,-0.1872893772717159,3.068869340903434,73.2835517783465,-8.692853,13.499601,16.449831,30.667496,-21.955902,-8.2323675,-25.218664,-31.358707,-14.916958,37.052883,-1.7181139,2.9124699,-5.362369,-2.6852133,9.907981,-6.5848556,20.604467,-22.513443,62.56397,5.917939,-3.7599938,-2.9833996,5.678857,-5.0787024,-10.566189,51.839233,-26.068762,-3.3647857,-2.5448773
227,2.1124699115753174,-1.7295751571655273,75.50448608398438,-0.2797558017328633,3.0779529665754715,73.40453584877916,-8.901492,13.8646965,16.18122,31.21833,-22.178873,-8.4710045,-25.156477,-30.86422,-13.518904,35.55196,-0.35989583,4.017598,-5.319324,-2.485807,9.912413,-6.636386,20.643969,-22.33488,62.34896,5.855784,-3.7674425,-2.9201066,5.930799,-5.1927495,-10.865172,51.73648,-25.998844,-3.2459545,-2.5790768
228,2.382749080657959,-1.662093997001648,75.42597961425781,-0.35149441299713874,3.0783459228873995,73.5059773133399,-9.072613,14.21726,15.933775,31.73237,-22.38924,-8.728994,-25.06108,-30.332014,-12.098583,34.074005,0.7622297,5.210669,-5.2924204,-2.2940843,9.92325,-6.634755,20.701626,-22.13977,62.09505,5.785795,-3.7673209,-2.8663106,6.1170917,-5.3513794,-11.196716,51.666607,-25.944784,-3.1544452,-2.5391626
229,2.666975259780884,-1.598022699356079,75.34211730957031,-0.39833744256355696,3.066116576148993,73.59289494224174,-9.196744,14.5484,15.706069,32.195023,-22.581749,-9.009874,-24.90481,-29.774944,-10.664635,32.582024,1.648463,6.5240693,-5.283059,-2.1318712,9.941971,-6.6165032,20.76216,-21.933334,61.845646,5.7206964,-3.7520835,-2.8087142,6.2800183,-5.491018,-11.570765,51.579784,-25.948124,-3.0782888,-2.4230947
230,2.9536550045013428,-1.5384654998779297,75.24942016601562,-0.4245094735688715,3.0421746754678427,73.6642986061042,-9.28228,14.865813,15.497581,32.621563,-22.761848,-9.308095,-24.691063,-29.167051,-9.1508665,31.052511,2.3653042,7.957738,-5.28077,-1.9920459,9.970962,-6.5752864,20.833263,-21.721321,61.583183,5.6631155,-3.7256627,-2.746607,6.4143124,-5.624963,-11.987003,51.489655,-25.998737,-3.0143192,-2.2449038
231,3.2651259899139404,-1.465859293937683,75.14979553222656,-0.4287813047932808,3.010948672271285,73.71407390449234,-9.338682,15.17537,15.312855,33.030144,-22.936113,-9.6176405,-24.456537,-28.543238,-7.617132,29.569397,2.8490036,9.411436,-5.2731714,-1.8827918,10.005966,-6.522445,20.914038,-21.51023,61.336277,5.603973,-3.7031481,-2.6807604,6.5249724,-5.7524414,-12.406326,51.38374,-26.050726,-2.9567382,-2.0453174
232,3.597391128540039,-1.3991622924804688,75.03880310058594,-0.41007260439471693,2.9771417883425357,73.7357788330541,-9.378148,15.483454,15.15594,33.44344,-23.112625,-9.932582,-24.243723,-27.933916,-6.124908,28.217726,3.0425746,10.78652,-5.2497315,-1.8099728,10.042667,-6.4619365,21.005632,-21.301086,61.125885,5.5357246,-3.7008638,-2.6140437,6.610217,-5.8828044,-12.789481,51.256725,-26.054543,-2.9014475,-1.8621885
233,3.9481871128082275,-1.337328314781189,74.91797637939453,-0.3660919178021087,2.9425909550767377,73.72786295373085,-9.405146,15.79377,15.033206,33.87546,-23.301699,-10.250424,-24.056494,-27.334406,-4.6764483,26.99309,2.8371809,12.046017,-5.2141843,-1.7731708,10.070487,-6.386702,21.110125,-21.103003,60.955994,5.43641,-3.7348707,-2.5370567,6.6744614,-6.017288,-13.148151,51.113476,-25.969982,-2.846767,-1.6976067
234,4.313840866088867,-1.2750957012176514,74.78987884521484,-0.29481552162503294,2.9037796625878114,73.69483220222999,-9.411759,16.098421,14.9410515,34.310925,-23.495855,-10.573521,-23.88316,-26.743853,-3.2592442,25.867363,2.2919846,13.229921,-5.172845,-1.7727298,10.095625,-6.29409,21.227865,-20.909767,60.812893,5.316768,-3.7935026,-2.452835,6.713632,-6.15504,-13.49439,50.9579,-25.830774,-2.7953906,-1.5331647
235,4.688051700592041,-1.2230843305587769,74.65784454345703,-0.19710802431100485,2.858654712680967,73.63836094911156,-9.390946,16.389143,14.870101,34.72533,-23.674273,-10.903398,-23.75236,-26.177353,-1.9056112,24.893793,1.6082505,14.369663,-5.119977,-1.8112576,10.136929,-6.1918993,21.356474,-20.699327,60.683487,5.216536,-3.8449626,-2.3823214,6.713022,-6.3065166,-13.786632,50.783875,-25.697527,-2.7495852,-1.3762646
236,5.083333492279053,-1.1752558946609497,74.52145385742188,-0.09129677876149624,2.809081845621867,73.55198752557976,-9.34253,16.684696,14.808194,35.09815,-23.815273,-11.249858,-23.698668,-25.609957,-0.7308026,24.13073,0.9890597,15.000033,-5.0314016,-1.8797423,10.209217,-6.12867,21.465557,-20.466557,60.603485,5.1827264,-3.8584974,-2.3349946,6.6882863,-6.454879,-13.9910145,50.552723,-25.640808,-2.7050323,-1.2431016
237,5.507518768310547,-1.1482820510864258,74.3895263671875,-0.1821617983784247,2.799613314274056,73.34427144667418,-9.385023,17.285372,14.731269,35.601,-23.997509,-11.670804,-23.670713,-24.75068,0.11696974,23.388365,0.59956163,15.000033,-4.868344,-1.7651166,10.295097,-5.9892397,21.613218,-20.128613,60.43205,5.2515,-3.8036609,-2.3766346,6.534485,-6.696793,-14.064084,50.377506,-25.62119,-2.6839952,-1.1073201
