unveil-humanoid-operators/unveil-humanoid-operators.github.io/feature-analysis-animation/data/feature_matrix_instances/age_waist_rom_jogging_A347_jog_ff_stop_180_R_003__A347.csv
Frame,root_translateX,root_translateY,root_translateZ,root_rotateX,root_rotateY,root_rotateZ,left_hip_pitch_joint_dof,left_hip_roll_joint_dof,left_hip_yaw_joint_dof,left_knee_joint_dof,left_ankle_pitch_joint_dof,left_ankle_roll_joint_dof,right_hip_pitch_joint_dof,right_hip_roll_joint_dof,right_hip_yaw_joint_dof,right_knee_joint_dof,right_ankle_pitch_joint_dof,right_ankle_roll_joint_dof,waist_yaw_joint_dof,waist_roll_joint_dof,waist_pitch_joint_dof,left_shoulder_pitch_joint_dof,left_shoulder_roll_joint_dof,left_shoulder_yaw_joint_dof,left_elbow_joint_dof,left_wrist_roll_joint_dof,left_wrist_pitch_joint_dof,left_wrist_yaw_joint_dof,right_shoulder_pitch_joint_dof,right_shoulder_roll_joint_dof,right_shoulder_yaw_joint_dof,right_elbow_joint_dof,right_wrist_roll_joint_dof,right_wrist_pitch_joint_dof,right_wrist_yaw_joint_dof
0,-0.10767322033643723,-1.8896238803863525,78.24491882324219,-0.8453334596184185,5.466295986766756,87.69556866078338,-28.864204,6.652639,8.797973,44.369724,-11.902592,-1.2549131,7.178145,0.1777893,-2.5058641,17.278429,-10.856809,3.1103544,11.101992,0.86209494,7.6046486,42.72459,37.818058,-16.196106,-36.486744,-10.432193,9.546826,9.885476,-0.7401328,-36.253265,32.88064,-37.39338,-0.54043627,1.5109951,-5.866965
1,-0.2349100559949875,-0.8420696258544922,78.43230438232422,-0.8415608651425102,5.65375505002938,87.70320497306028,-28.005932,6.3585563,9.051488,39.903286,-11.480231,-1.4418527,7.041693,0.0046607223,-2.4073932,18.61848,-9.656526,3.1552424,11.407204,0.7503211,7.394447,42.750885,37.725914,-15.938452,-37.076134,-11.040387,9.301245,10.093439,-0.022518476,-36.42377,32.911552,-37.732613,-0.8654454,1.6740901,-5.759409
2,-0.3476808965206146,0.21606485545635223,78.58882904052734,-0.836672739311947,5.850202974073308,87.69649894883833,-27.072063,6.0234203,9.361132,35.17591,-10.988987,-1.6588602,6.9606247,-0.16248694,-2.2857132,19.826284,-8.412306,3.2290313,11.675744,0.6533167,7.171817,42.813072,37.525322,-15.64485,-37.64723,-11.637093,9.075635,10.2563715,0.6359921,-36.61189,33.00966,-38.076485,-1.2179067,1.8478645,-5.6261497
3,-0.4566485583782196,1.2686867713928223,78.71728515625,-0.8501598346638592,6.009236359953349,87.69005524452992,-26.06846,5.6576877,9.617979,30.546162,-10.437739,-1.9198389,6.855096,-0.30541053,-2.1787074,21.146948,-7.169948,3.2594981,11.884218,0.5912919,6.986466,42.793823,37.24777,-15.375669,-38.14223,-12.153565,8.816506,10.42066,1.2417532,-36.809795,33.160877,-38.32893,-1.506672,2.00344,-5.56165
4,-0.5642526149749756,2.3125457763671875,78.81343078613281,-0.8909411360120332,6.087627066875319,87.70116710784238,-25.030678,5.2857904,9.708885,26.43644,-9.864768,-2.2267053,6.6454563,-0.41710666,-2.1292799,22.81693,-5.972222,3.1715412,11.994483,0.576925,6.8871922,42.601532,36.913036,-15.172668,-38.51285,-12.512795,8.470612,10.627106,1.7831035,-37.006485,33.37067,-38.385994,-1.6401061,2.1131432,-5.6635127
5,-0.6688469052314758,3.3445656299591064,78.87800598144531,-0.9645863570785219,6.088202921832293,87.73385415804907,-23.998468,4.9231696,9.541877,22.942951,-9.25998,-2.5811598,6.2991734,-0.50985116,-2.1845982,24.895887,-4.818024,2.9265945,12.0081,0.6111418,6.872303,42.223316,36.525795,-15.037163,-38.755085,-12.690055,8.048274,10.884862,2.2479513,-37.193897,33.64858,-38.19506,-1.512994,2.132004,-5.9593797
6,-0.7744652032852173,4.37670373916626,78.90770721435547,-1.065070867161015,6.030885801436214,87.78204616333373,-22.967707,4.5828614,9.186476,19.892996,-8.63766,-2.9678192,5.865607,-0.5936143,-2.3192952,27.247597,-3.6834922,2.5535903,11.946632,0.6866199,6.916709,41.70837,36.09208,-14.949277,-38.894978,-12.731668,7.570545,11.179239,2.6448605,-37.367985,33.986195,-37.811832,-1.2049453,2.085803,-6.3940053
7,-0.8786590099334717,5.397979736328125,78.90723419189453,-1.17417322198592,5.905138493514469,87.85491468636019,-21.953451,4.277967,8.773326,17.388123,-8.102807,-3.3503916,5.375239,-0.6775024,-2.4736536,29.829607,-2.5783346,2.0856779,11.792834,0.7855367,7.031747,41.053932,35.6321,-14.916012,-38.93402,-12.670898,6.999665,11.514386,2.9850159,-37.520958,34.363205,-37.290398,-0.89396715,2.0533924,-6.9431286
8,-0.9771703481674194,6.409831523895264,78.86949157714844,-1.2630571257999124,5.702536063331196,87.96375537074302,-20.973104,4.006198,8.436745,15.530311,-7.7633367,-3.6900198,4.8564415,-0.76980954,-2.5866892,32.602356,-1.513602,1.5708189,11.533311,0.8785113,7.2275314,40.251926,35.176434,-14.9480505,-38.869858,-12.544414,6.2969007,11.897183,3.2852917,-37.643223,34.75315,-36.685715,-0.7587326,2.116905,-7.581816
9,-1.0713779926300049,7.411446571350098,78.7983169555664,-1.3439526061195042,5.414986086205769,88.11730649503114,-20.014019,3.7753549,8.217668,14.373673,-7.669958,-4.0863113,4.3039236,-0.8505118,-2.665802,35.622375,-0.514556,0.94636536,11.171497,0.9627194,7.5030565,39.310028,34.745804,-15.048538,-38.698975,-12.396053,5.3666105,12.299355,3.5584393,-37.72756,35.165123,-35.998337,-0.74949086,2.295808,-8.338966
10,-1.160715103149414,8.40481948852539,78.68359375,-1.400083614474551,5.056210757628192,88.31646261373118,-19.106817,3.5584474,8.0479765,13.905632,-7.787486,-4.511157,3.6977327,-0.9490875,-2.7412846,38.89637,0.42806366,0.22224383,10.71707,1.0159439,7.850945,38.231865,34.346317,-15.211742,-38.43248,-12.202456,4.256811,12.737759,3.8018951,-37.76878,35.59663,-35.203503,-0.8027925,2.5484085,-9.2141075
11,-1.2275831699371338,9.398185729980469,78.51667785644531,-1.367501410504163,4.649179948503225,88.55693519854343,-18.323767,3.2954836,7.898531,14.111757,-8.083662,-4.7365108,3.0384848,-1.1335075,-2.7745483,42.333668,1.3516388,-0.43089417,10.173369,0.9812943,8.271781,37.0052,33.98718,-15.438033,-38.09058,-11.895511,3.1442611,13.288247,4.016495,-37.75893,35.995827,-34.318,-1.0717825,2.8723745,-10.137966
12,-1.2950490713119507,10.369623184204102,78.34954833984375,-1.1926566700023056,4.212588728802258,88.83205435872031,-17.729156,2.9325795,7.7360663,14.962721,-8.512994,-4.538128,2.324228,-1.4575634,-2.7186344,45.86214,2.2839346,-0.840394,9.550199,0.8094451,8.765429,35.616467,33.681416,-15.731118,-37.695442,-11.408461,2.2077327,14.029145,4.2151284,-37.68931,36.30434,-33.367016,-1.7139951,3.2705102,-11.038549
13,-1.3561574220657349,11.327568054199219,78.14362335205078,-0.8449778977761396,3.7415738210176555,89.14804203826041,-17.366468,2.447838,7.536112,16.613129,-8.963584,-3.6761591,1.5528638,-1.8988886,-2.4889677,49.537346,3.2654023,-0.95908433,8.840627,0.45459038,9.329079,34.066242,33.442696,-16.10917,-37.268105,-10.633885,1.5087334,15.076899,4.4062843,-37.549286,36.52104,-32.37236,-2.9801004,3.8441417,-11.913518
14,-1.4068278074264526,12.278267860412598,77.88397979736328,-0.4006787646944743,3.213608481575553,89.48988618975312,-17.148603,1.8899794,7.3304167,18.948631,-9.433383,-2.3527832,0.75231373,-2.3649251,-2.1154413,53.35972,4.2742443,-0.86139244,8.070087,-0.015619201,9.959912,32.369053,33.274837,-16.568922,-36.806767,-9.641317,0.96095145,16.368383,4.592601,-37.334904,36.661987,-31.315119,-4.7154746,4.577361,-12.777569
15,-1.4567581415176392,13.212044715881348,77.58953857421875,0.05068886371475721,2.6281957981514465,89.82170279388289,-16.954145,1.3109691,7.1572456,21.557056,-10.070608,-0.99383986,-0.042986028,-2.8325353,-1.7199221,57.189297,5.2352242,-0.5669771,7.293752,-0.49398133,10.656557,30.532116,33.172287,-17.082731,-36.306225,-8.630229,0.5150419,17.707779,4.7757187,-37.055218,36.695,-30.157005,-6.471971,5.287178,-13.5945
16,-1.5184961557388306,14.12800407409668,77.2641830444336,0.4606713453164068,1.9977267265043037,90.120069334973,-16.701855,0.7448078,7.033776,24.1048,-11.092475,0.004008762,-0.82615054,-3.3503017,-1.4255922,60.92135,6.0571637,-0.11134413,6.5541234,-0.9113443,11.419643,28.547956,33.124634,-17.625965,-35.744907,-7.8001637,0.10622002,18.895493,4.964063,-36.730232,36.582874,-28.872923,-7.804818,5.7745824,-14.350401
17,-1.592833161354065,15.019761085510254,76.88973236083984,0.8418795020374955,1.263413384413627,90.38109922902468,-16.422218,0.20620099,6.950472,26.79298,-12.790819,0.5329753,-1.5463829,-3.9903252,-1.2698495,64.6206,6.8971586,0.642694,5.8465633,-1.2590756,12.322639,26.380665,33.119495,-18.202305,-35.09113,-7.138766,-0.3200853,19.889372,5.1649184,-36.375546,36.25859,-27.503414,-8.544183,5.910689,-15.017674
18,-1.664530873298645,15.887040138244629,76.47286987304688,1.2300151230312995,0.446872749653973,90.62225106260411,-16.169577,-0.3063781,6.881749,29.773039,-15.02146,0.82294583,-2.2439222,-4.7456064,-1.1762317,68.36188,7.716452,1.652847,5.152249,-1.5953456,13.342028,24.029757,33.151245,-18.830608,-34.36004,-6.564002,-0.72548527,20.78918,5.393733,-36.00085,35.747025,-26.073784,-8.948288,5.812075,-15.626924
19,-1.751102328300476,16.745025634765625,76.02483367919922,1.6427974012922923,-0.31426590242897057,90.85881636974091,-15.912955,-0.80764914,6.8224034,32.657692,-17.375774,0.9943556,-3.0543332,-5.597566,-1.1043646,72.048904,8.133587,2.596287,4.483266,-1.9672227,14.332742,21.541758,33.21872,-19.508446,-33.591244,-6.1711683,-1.0478524,21.605036,5.667207,-35.619644,35.153255,-24.535881,-9.215421,5.643226,-16.261417
20,-1.8309595584869385,17.600751876831055,75.5772705078125,2.0876442922205927,-0.8844571631982162,91.10540317108274,-15.617168,-1.3459182,6.78093,35.031822,-19.427,1.160781,-4.1096344,-6.527584,-1.0238733,75.56703,7.777687,3.1458852,3.848717,-2.4088762,15.149363,18.968468,33.32292,-20.231152,-32.832565,-6.0588737,-1.2266837,22.343483,5.997081,-35.24523,34.585907,-22.84002,-9.537009,5.5742607,-17.005434
21,-1.8994780778884888,18.465017318725586,75.14542388916016,2.6309465320877488,-1.2342494366100276,91.38049676739364,-15.261751,-2.026956,6.8009725,36.749348,-21.0683,1.3396915,-5.453871,-7.6587105,-0.9456201,78.985725,6.3159814,3.1400523,3.2466376,-2.9652913,15.78926,16.208454,33.475758,-21.058308,-31.99645,-6.3616266,-1.1866666,23.01669,6.4118876,-34.87347,34.018597,-20.903767,-9.962676,5.6545787,-17.957077
22,-1.943259835243225,19.339439392089844,74.75601959228516,3.250853319819254,-1.4336609104333007,91.67405620357368,-14.883649,-2.8131347,6.875165,38.056007,-22.528051,1.473203,-7.017323,-8.961632,-0.8543281,82.33211,4.024126,2.7847404,2.6771626,-3.6040776,16.315393,13.264768,33.6718,-21.990942,-31.098677,-7.00217,-0.99040216,23.622807,6.9084578,-34.501797,33.399406,-18.79001,-10.387025,5.7932067,-19.047354
23,-1.9680808782577515,20.23102569580078,74.40158081054688,3.8248135491925366,-1.49576050759659,91.95779755690643,-14.519091,-3.554315,6.9437814,39.089745,-23.863194,1.559285,-8.763464,-10.171541,-0.69659954,85.4133,1.4565053,2.3106532,2.1340268,-4.229987,16.683645,10.350211,33.87866,-22.921392,-30.322271,-7.7550826,-0.77968216,24.136812,7.4322476,-34.154926,32.82186,-16.65308,-10.766734,5.9516487,-20.114052
24,-2.0027859210968018,21.14256477355957,74.10086059570312,4.234240916653125,-1.4329842665726236,92.20344425327079,-14.199242,-4.0987587,6.950141,39.987244,-25.131973,1.5967959,-10.65973,-11.037689,-0.45408684,88.03895,-0.8247991,1.9295241,1.5855757,-4.74246,16.854273,7.7025576,34.05333,-23.70819,-29.851952,-8.38013,-0.69006145,24.515327,7.917135,-33.8745,32.407665,-14.652362,-11.056698,6.0910673,-21.004002
25,-2.0548229217529297,22.0803279876709,73.85384368896484,4.430570775307607,-1.1704696021756398,92.38945006684764,-14.005348,-4.3810015,6.899168,40.785027,-26.362085,1.5788219,-12.831119,-11.43631,-0.084419385,90.18998,-2.6933467,1.6424004,1.009417,-5.0899653,16.749256,5.36558,34.169243,-24.327913,-29.721443,-8.942646,-0.79095477,24.744516,8.286738,-33.699272,32.267212,-12.66042,-11.274384,6.250033,-21.759258
26,-2.106727123260498,23.050270080566406,73.65289306640625,4.483604755363566,-0.7273079978624989,92.53701426540908,-13.893002,-4.4907126,6.821306,41.40894,-27.51973,1.5110422,-15.25302,-11.504412,0.36262667,91.95483,-4.424258,1.3565375,0.39256048,-5.3083878,16.417723,3.2290332,34.222908,-24.828245,-29.820679,-9.511556,-0.99469864,24.829151,8.589608,-33.64117,32.337902,-10.663025,-11.419962,6.4331656,-22.449657
27,-2.159668445587158,24.03582763671875,73.48489379882812,4.4511865837613005,-0.2560069633168019,92.68074242044426,-13.696822,-4.507575,6.6968203,41.822666,-28.566442,1.4109973,-17.667145,-11.415999,0.7489044,93.301636,-6.0581264,1.1243341,-0.26950747,-5.431429,16.01126,1.2748343,34.216362,-25.184357,-30.09851,-9.852818,-1.196496,24.753956,8.954567,-33.699383,32.47156,-8.986651,-11.427539,6.545497,-22.95858
28,-2.2000365257263184,25.015655517578125,73.36170959472656,4.386809717725862,0.09116696999741114,92.85594406286008,-13.252892,-4.509768,6.50422,41.989323,-29.46325,1.2946231,-19.818663,-11.360556,0.94671965,94.1988,-7.641057,0.9949437,-0.9766627,-5.5017233,15.680036,-0.5146778,34.159023,-25.371136,-30.508913,-9.733603,-1.293123,24.505953,9.515676,-33.866394,32.51486,-7.965091,-11.236072,6.4919147,-23.163439
29,-2.2332818508148193,25.987953186035156,73.28536224365234,4.298283363025297,0.2667479581379079,93.05695797159156,-12.510453,-4.5015526,6.2429247,41.91173,-30.229681,1.1573439,-21.658775,-11.370729,0.9396739,94.62814,-9.249627,1.041251,-1.7089041,-5.540127,15.470262,-2.1557982,34.051147,-25.323801,-31.07889,-8.908371,-1.2424296,24.007328,10.348689,-34.14871,32.40453,-7.7907753,-10.722261,6.199381,-22.967682
30,-2.2505621910095215,26.97283935546875,73.26097106933594,4.1578680796933085,0.3539689708447055,93.27042952441352,-11.556888,-4.441239,5.9211574,41.604454,-30.876736,0.9936699,-23.315294,-11.372502,0.78196126,94.605064,-10.834879,1.2132008,-2.4570272,-5.5230646,15.304592,-3.6689498,33.89582,-25.098469,-31.799047,-7.5600533,-1.1184764,23.2892,11.400692,-34.55502,32.202606,-8.279239,-9.95095,5.74164,-22.445448
31,-2.2667343616485596,27.9814395904541,73.29776000976562,3.969940147645788,0.39785756740977213,93.5197990087692,-10.437428,-4.335408,5.529209,41.049976,-31.352507,0.81549877,-24.799858,-11.389374,0.46083018,94.14636,-12.257299,1.3786749,-3.232173,-5.43523,15.145812,-5.080376,33.715416,-24.848324,-32.57087,-6.106373,-0.98680145,22.50559,12.60538,-35.071804,31.939947,-9.184655,-9.150007,5.241655,-21.728102
32,-2.279331684112549,29.016923904418945,73.40045928955078,3.7367817075499192,0.44412848929061394,93.82805749563298,-9.198457,-4.1892505,5.057098,40.23212,-31.605757,0.6337048,-26.12435,-11.436154,-0.03094295,93.275604,-13.37918,1.4114138,-4.0420985,-5.2612076,14.958963,-6.391555,33.54446,-24.721582,-33.31735,-4.9668016,-0.8953934,21.820057,13.888018,-35.667538,31.646723,-10.246819,-8.553427,4.8120003,-20.953548
33,-2.2956337928771973,30.073871612548828,73.5631332397461,3.4419311479649677,0.4797347500398296,94.2376969647115,-7.8011675,-3.9917552,4.454514,39.085716,-31.639439,0.44566277,-27.258244,-11.501148,-0.73200125,91.965385,-14.144,1.2596035,-4.9166007,-4.9854417,14.751649,-7.6115522,33.414593,-24.744846,-34.081013,-4.2354674,-0.83523476,21.285807,15.255628,-36.317173,31.323864,-11.479347,-8.253572,4.463472,-20.07422
34,-2.3112571239471436,31.15699005126953,73.77103424072266,3.0877946072722082,0.49152486290774455,94.72366922399542,-6.2424703,-3.7327764,3.7439036,37.643383,-31.477598,0.24426116,-28.195766,-11.578713,-1.6260328,90.21451,-14.640944,1.0057371,-5.838447,-4.632024,14.545363,-8.704618,33.335995,-24.831608,-34.922863,-3.701467,-0.7803991,20.822285,16.727718,-37.007202,30.952753,-12.970082,-8.121343,4.13697,-19.043823
35,-2.325312852859497,32.253013610839844,74.0228271484375,2.7135721109332804,0.5235754790108798,95.20725512907362,-4.626187,-3.4236841,3.0237963,36.04066,-31.10295,0.03235244,-28.979128,-11.685277,-2.6407514,88.07797,-14.958525,0.7282206,-6.7534275,-4.239068,14.321311,-9.592078,33.309174,-24.945389,-35.79162,-3.3291616,-0.74106014,20.391418,18.229023,-37.717113,30.550663,-14.552012,-8.067407,3.8318067,-18.007027
36,-2.344634771347046,33.363887786865234,74.30284118652344,2.3569466546574795,0.6181391321065343,95.60933357539037,-3.053047,-3.082381,2.3916159,34.40929,-30.496035,-0.18814357,-29.64932,-11.828168,-3.7094154,85.604004,-15.179253,0.5102819,-7.607243,-3.8414958,14.053599,-10.202101,33.327106,-25.053356,-36.62768,-3.0795028,-0.728395,19.953798,19.666185,-38.419834,30.147303,-16.038115,-8.006259,3.549777,-17.108276
37,-2.363954544067383,34.50191116333008,74.60653686523438,2.0185439267969847,0.788491372311191,95.91534301277639,-1.503113,-2.709766,1.8520951,32.67968,-29.632454,-0.4195691,-30.196108,-12.044392,-4.8989506,82.75195,-15.310053,0.40691426,-8.399457,-3.440877,13.714911,-10.509288,33.39065,-25.157745,-37.409813,-2.977454,-0.77475125,19.513985,20.972769,-39.09964,29.796497,-17.358614,-7.957139,3.2987363,-16.375603
38,-2.372196674346924,35.657413482666016,74.93350982666016,1.6800498386616542,1.0105234221778925,96.16306737458997,0.056305036,-2.3016334,1.3625364,30.819971,-28.530151,-0.6665011,-30.584478,-12.283004,-6.2390776,79.50097,-15.311423,0.38726085,-9.159663,-3.0208068,13.319739,-10.543691,33.50629,-25.259436,-38.171566,-3.0309103,-0.85966647,19.085182,22.162045,-39.748646,29.5003,-18.56651,-7.9595895,3.0721173,-15.736598
39,-2.3820412158966064,36.83465576171875,75.27912902832031,1.3526516703583324,1.268640052156302,96.35173586193106,1.5451053,-1.8756341,0.94564646,29.025211,-27.2374,-0.92547786,-30.830276,-12.42695,-7.5993886,75.92579,-15.193183,0.3984813,-9.876169,-2.5898173,12.90074,-10.328437,33.67072,-25.329393,-38.915794,-3.174245,-0.91688794,18.63996,23.266834,-40.35004,29.20869,-19.666887,-7.9631124,2.856288,-15.182603
40,-2.3822102546691895,38.02749252319336,75.6292953491211,1.0492780309907392,1.5470972121070212,96.48061917690202,2.8875334,-1.4511722,0.6210937,27.488266,-25.800556,-1.1882365,-30.963425,-12.381388,-8.831825,72.10238,-14.965487,0.37072733,-10.5339775,-2.1595182,12.487928,-9.896933,33.87403,-25.34773,-39.638664,-3.3390064,-0.88122076,18.15087,24.31873,-40.882774,28.869896,-20.659348,-7.9163203,2.6379712,-14.703732
41,-2.3857226371765137,39.233253479003906,75.9801254272461,0.7607741464916584,1.8564579408249542,96.53744092694008,4.086074,-1.0184318,0.40056515,26.204678,-24.184273,-1.454157,-31.001936,-12.147707,-9.929124,67.9808,-14.630674,0.19120927,-11.12196,-1.7157509,12.071429,-9.249589,34.11099,-25.317633,-40.323658,-3.544335,-0.756357,17.601568,25.313684,-41.330296,28.480982,-21.522577,-7.8422275,2.413936,-14.314033
42,-2.3877530097961426,40.455142974853516,76.33114624023438,0.4867055318000659,2.1983427984958976,96.52543261583244,5.1726904,-0.5820864,0.2667116,25.099607,-22.382866,-1.7206892,-30.928106,-11.768383,-10.950817,63.534172,-14.187008,-0.07719939,-11.641507,-1.2639182,11.635834,-8.38982,34.380188,-25.259083,-40.95681,-3.810848,-0.5676431,17.009966,26.223133,-41.686012,28.076931,-22.242208,-7.761924,2.1908922,-14.010571
43,-2.381829261779785,41.68096160888672,76.67513275146484,0.2536312521404351,2.543525555467974,96.46944953838653,6.129562,-0.18122433,0.19210258,24.238659,-20.480696,-1.9760101,-30.726362,-11.24012,-11.829784,58.85799,-13.634142,-0.2602102,-12.096941,-0.8475389,11.200605,-7.3636694,34.67317,-25.184793,-41.529015,-4.070882,-0.28446457,16.398762,27.044075,-41.946835,27.659985,-22.827751,-7.6205306,1.9720033,-13.757204
44,-2.3640568256378174,42.919193267822266,77.00674438476562,0.08681054048399915,2.863073530374733,96.39709390342668,6.937291,0.14702532,0.14889677,23.692,-18.558922,-2.2113895,-30.384245,-10.576324,-12.491165,54.040234,-12.963669,-0.19711751,-12.492647,-0.50804687,10.784486,-6.2257886,34.975857,-25.111769,-42.021175,-4.2565527,0.122149386,15.790121,27.782457,-42.112206,27.225895,-23.298098,-7.360248,1.7607882,-13.5175085
45,-2.3368682861328125,44.159854888916016,77.32038879394531,-0.0008987387135959578,3.1647727907539536,96.3132433400416,7.6045837,0.3929485,0.14862527,23.425816,-16.571634,-2.4531083,-29.867233,-9.770419,-12.876107,48.895866,-12.115168,0.11718675,-12.826605,-0.25312606,10.375478,-4.98845,35.27958,-25.0779,-42.407322,-4.303403,0.6763025,15.19803,28.46602,-42.17576,26.748106,-23.650774,-6.905424,1.5358839,-13.291849
46,-2.298264503479004,45.414371490478516,77.61185455322266,-0.02176937211595018,3.4569429527297566,96.21033865631102,8.152155,0.5694806,0.19171596,23.39698,-14.483939,-2.7040057,-29.175598,-8.863916,-13.011683,43.40295,-11.093336,0.5730844,-13.092509,-0.06699808,9.96354,-3.6551504,35.577885,-25.086178,-42.674686,-4.257405,1.3552953,14.605872,29.086645,-42.133305,26.23415,-23.873852,-6.3062735,1.3036668,-13.092626
47,-2.2601115703582764,46.672550201416016,77.87357330322266,0.017171425746131983,3.7114063912416833,96.09841777371714,8.587519,0.6742895,0.2374758,23.643671,-12.386526,-2.9226284,-28.343365,-7.9440227,-12.955503,37.87807,-9.984737,1.1589552,-13.294174,0.04321355,9.570448,-2.2575905,35.85778,-25.095144,-42.831844,-4.2148933,2.1185548,13.98786,29.610971,-41.99419,25.728275,-23.989025,-5.701495,1.109541,-12.90348
48,-2.215888023376465,47.935035705566406,78.10433197021484,0.10856481529030429,3.8998512386980413,95.98982717414634,8.917431,0.70688146,0.24691576,24.198795,-10.36275,-3.064104,-27.412169,-7.08453,-12.778451,32.64384,-8.870107,1.8775572,-13.442894,0.072974645,9.219742,-0.82182086,36.103645,-25.05404,-42.88827,-4.273391,2.9277856,13.317629,30.000832,-41.778873,25.276278,-24.017216,-5.224798,0.9991117,-12.712343
49,-2.171804904937744,49.201271057128906,78.29069519042969,0.27928210312107593,4.0179377200670485,95.89259367745083,9.151375,0.6338204,0.21539208,25.034866,-8.360146,-3.091924,-26.351763,-6.279601,-12.437811,27.59029,-7.677412,2.8426943,-13.557675,-0.004237758,8.906608,0.6910954,36.303116,-24.92948,-42.853462,-4.479256,3.809913,12.536834,30.264912,-41.49925,24.880407,-23.958447,-4.873762,1.0035244,-12.530331
50,-2.125337600708008,50.46450424194336,78.43519592285156,0.555231580767034,4.069807672618426,95.81341438206107,9.315246,0.4265532,0.16024925,26.090294,-6.323017,-3.042193,-25.120705,-5.5567183,-11.903388,22.55441,-6.375211,4.009677,-13.647847,-0.20858464,8.623476,2.282564,36.453934,-24.748919,-42.71861,-4.767064,4.7774963,11.67319,30.423994,-41.161613,24.51757,-23.815678,-4.584963,1.0928195,-12.363917
51,-2.0801918506622314,51.72538757324219,78.53520965576172,0.9203398364503972,4.045406702085823,95.75369659891771,9.42799,0.1056196,0.08313916,27.365343,-4.3419514,-2.9717124,-23.798512,-5.0052714,-11.284166,17.873621,-5.139118,5.1646767,-13.702651,-0.52188766,8.389293,3.8808813,36.556942,-24.552925,-42.47645,-5.0678325,5.770067,10.831974,30.479233,-40.782337,24.187143,-23.633402,-4.406366,1.2204167,-12.195795
52,-2.0307586193084717,52.974266052246094,78.5978775024414,1.3159714938817706,3.9494064030750797,95.6967826272292,9.473463,-0.2606929,-0.0047810483,28.91156,-2.5384805,-2.937704,-22.514822,-4.6459246,-10.712585,13.955679,-4.1671143,6.100462,-13.695439,-0.88107604,8.219263,5.410591,36.612934,-24.382269,-42.12014,-5.3189917,6.7236223,10.117328,30.425947,-40.38406,23.88921,-23.452396,-4.3818703,1.3390926,-12.0086975
53,-1.9855618476867676,54.210060119628906,78.62555694580078,1.703492104231064,3.8025020326400485,95.62179905320528,9.408079,-0.62672323,-0.088209696,30.809599,-0.9926277,-2.9705434,-21.330463,-4.411779,-10.209294,10.903519,-3.5823581,6.83216,-13.606696,-1.238296,8.105562,6.880588,36.612976,-24.233122,-41.65526,-5.5010266,7.6829157,9.526809,30.271015,-39.97997,23.608381,-23.282413,-4.522687,1.4395041,-11.797909
54,-1.9420528411865234,55.42720031738281,78.61245727539062,2.0662893277380245,3.617875009203773,95.51526456568136,9.202757,-0.97128135,-0.15517206,33.079857,0.33806613,-3.0376205,-20.213081,-4.223777,-9.737301,8.529853,-3.2617774,7.453663,-13.428981,-1.5708163,8.038824,8.308676,36.54874,-24.098425,-41.074486,-5.6524606,8.65905,9.014776,30.025585,-39.5752,23.337704,-23.11389,-4.7988095,1.5438321,-11.574341
55,-1.9055304527282715,56.64360046386719,78.56869506835938,2.334352426508645,3.402034135950145,95.35899978791068,8.849933,-1.2148708,-0.196278,35.696316,1.498585,-3.109298,-19.271664,-4.0321136,-9.343851,7.035795,-3.1437273,7.874026,-13.141578,-1.808932,8.030193,9.633633,36.42341,-24.015072,-40.34067,-5.801313,9.534894,8.621697,29.688656,-39.182487,23.091145,-22.94708,-5.1949925,1.6517365,-11.344941
56,-1.8784112930297852,57.84544372558594,78.48973846435547,2.452175767666661,3.1560802955047533,95.14279878714692,8.358707,-1.2952044,-0.21136999,38.610832,2.5481534,-3.1609063,-18.791119,-3.8287792,-9.058649,7.0130486,-3.372753,8.002864,-12.7311735,-1.8944327,8.092611,10.798933,36.247623,-24.016459,-39.42316,-5.9794817,10.193415,8.390732,29.26114,-38.819164,22.880297,-22.785368,-5.6939645,1.7631155,-11.116222
57,-1.8566124439239502,59.03522872924805,78.3751220703125,2.4135519363854607,2.882206254081302,94.86059161027997,7.692755,-1.2453839,-0.24907012,41.904778,3.5125835,-3.1158469,-18.090067,-3.5124187,-8.996096,7.1136703,-3.0274174,7.840774,-12.191237,-1.8127844,8.217133,11.811187,36.02446,-24.122696,-38.30815,-6.2336493,10.544018,8.408794,28.7671,-38.493988,22.693373,-22.666294,-6.2833543,1.8765094,-10.889945
58,-1.8352463245391846,60.21141815185547,78.21487426757812,2.245230140213392,2.570492685958769,94.52917230088478,6.884588,-1.0911257,-0.3143068,45.54932,4.368006,-3.0214698,-17.902489,-3.2088554,-9.075621,8.895231,-3.071807,7.4408817,-11.54143,-1.5883069,8.404274,12.699839,35.752304,-24.311924,-37.02017,-6.5399656,10.666119,8.629057,28.212719,-38.209568,22.521503,-22.591988,-6.9712706,1.9913665,-10.663563
59,-1.808454990386963,61.356361389160156,78.04594421386719,1.9577159395598884,2.198939388139709,94.17632027952862,6.061252,-0.77768016,-0.34628004,49.314796,5.106056,-3.0301604,-17.77833,-2.8211627,-9.222224,11.196979,-3.2514114,6.784677,-10.818281,-1.2389779,8.680958,13.462175,35.440575,-24.537125,-35.601112,-6.824457,10.698374,8.89493,27.568727,-37.97482,22.38994,-22.521034,-7.7716827,2.1092649,-10.438954
60,-1.798625111579895,62.499351501464844,77.81038665771484,1.5600756211369062,1.7509362106877835,93.82451348948861,5.3336325,-0.23629156,-0.278234,53.001526,5.702678,-3.2816308,-17.70479,-2.3210194,-9.318495,13.779143,-3.7982173,5.845333,-10.06018,-0.7807035,9.0724745,14.115496,35.10556,-24.735525,-34.111156,-7.015656,10.780693,9.053087,26.801086,-37.80005,22.33148,-22.414804,-8.697304,2.2318022,-10.22015
61,-1.7938258647918701,63.616722106933594,77.51261901855469,1.0218858837068052,1.1850676662892226,93.4719363757111,4.7763543,0.6077915,-0.06223722,56.609962,6.2814813,-3.9669125,-17.781294,-1.7065803,-9.292066,16.935772,-4.865503,4.3878055,-9.268932,-0.18431836,9.6230955,14.659518,34.76365,-24.885622,-32.60123,-7.140621,10.940922,9.080411,25.910923,-37.693443,22.33804,-22.321545,-9.890129,2.389021,-9.970466
62,-1.7722034454345703,64.70360565185547,77.20955657958984,0.40803323293184895,0.5065304027286535,93.12706870932607,4.3358636,1.6479049,0.24707933,60.234306,6.8122425,-4.9302187,-17.957373,-1.0519124,-9.193464,20.65292,-6.2848268,2.5088117,-8.455978,0.4955905,10.307457,15.130579,34.42385,-24.993076,-31.0725,-7.2262926,11.1075115,9.054995,24.915262,-37.65674,22.407154,-22.261753,-11.293994,2.5680304,-9.701665
63,-1.7478963136672974,65.75918579101562,76.86087036132812,-0.20641479506607055,-0.20828037154176726,92.80525552268925,3.8942351,2.7743247,0.5776992,63.84972,7.0171185,-5.79823,-18.067762,-0.37683302,-9.085727,24.345299,-7.875217,0.65787417,-7.653328,1.1876063,11.042504,15.59627,34.08902,-25.03624,-29.497837,-7.2006993,11.2720995,8.977287,23.779156,-37.689236,22.585346,-22.13254,-12.6198015,2.7097852,-9.493124
64,-1.7327358722686768,66.81208801269531,76.42816925048828,-0.7947898701885657,-0.8697983751812323,92.50540023776325,3.31236,3.9373777,0.85979587,67.445854,6.6084194,-6.212819,-18.00354,0.33108723,-9.044474,27.53132,-9.519239,-0.72686684,-6.8829937,1.8668244,11.743955,16.1224,33.755787,-24.988913,-27.850454,-6.9921074,11.425428,8.845764,22.452421,-37.788326,22.926884,-21.81578,-13.577235,2.7608502,-9.429198
65,-1.7016973495483398,67.8553237915039,75.96912384033203,-1.453653689438161,-1.5159134990389318,92.22562458049653,2.6037178,5.2608247,1.0430756,71.15108,5.2989187,-6.0392456,-17.75595,1.1585023,-9.14414,30.281761,-11.363135,-1.496292,-6.149293,2.6210108,12.483923,16.723652,33.412354,-24.780533,-26.126009,-6.514,11.570277,8.509524,20.857363,-37.959858,23.465727,-21.232727,-14.03608,2.6644883,-9.552798
66,-1.6692333221435547,68.87930297851562,75.51166534423828,-2.2026674331505967,-2.1618968824637723,91.95732460412312,1.8150266,6.766831,1.1546937,74.938995,3.298046,-5.5037274,-17.424372,2.071355,-9.314058,32.899918,-13.47795,-1.9077102,-5.452263,3.4778435,13.2687025,17.377266,33.053974,-24.426632,-24.345222,-5.824904,11.704947,8.014361,19.016436,-38.20243,24.18852,-20.451616,-14.164852,2.4680073,-9.819369
67,-1.6472892761230469,69.89044952392578,75.08526611328125,-2.9091145236517697,-2.6830515447015673,91.68158592306226,0.84623766,8.255697,1.2412126,78.56803,1.065214,-4.791139,-17.09295,2.918726,-9.4358225,35.29639,-15.640493,-2.1278238,-4.7794113,4.3158545,13.920866,18.071619,32.690323,-24.049328,-22.502052,-5.0739803,11.817702,7.6584873,17.037022,-38.492268,25.063408,-19.572588,-14.1205015,2.2747116,-10.178861
68,-1.6286962032318115,70.91891479492188,74.69750213623047,-3.4335791764744577,-2.956861056353538,91.37706625630096,-0.4089005,9.5358515,1.3665397,81.80124,-0.93395865,-4.0650635,-16.834671,3.585087,-9.411551,37.325954,-17.599705,-2.3188186,-4.092206,4.9950657,14.268914,18.786232,32.34237,-23.786507,-20.582369,-4.412864,11.905611,7.745622,15.047934,-38.78894,26.042368,-18.706158,-14.068539,2.1873987,-10.576612
69,-1.5982983112335205,71.98157501220703,74.3719482421875,-3.705777596703875,-2.876416428853017,90.98479171019234,-2.0759158,10.563527,1.592813,84.61601,-2.6219597,-3.2565966,-16.747715,4.0620275,-9.191455,38.91772,-19.300508,-2.4856226,-3.2993317,5.423926,14.194521,19.475006,32.021797,-23.728224,-18.374304,-3.9176388,11.910933,8.504455,13.020613,-39.063286,27.20956,-17.731375,-13.987063,2.2584863,-11.098171
70,-1.566275715827942,73.06536102294922,74.10923767089844,-3.8166035893762738,-2.530203801696907,90.52969327854777,-4.0772686,11.436517,1.8670382,87.1326,-4.2268605,-2.3149383,-16.773468,4.4316335,-8.864756,40.153168,-20.864273,-2.552143,-2.4141304,5.668402,13.81927,20.145117,31.732391,-23.802513,-15.946457,-3.4983213,11.863023,9.731334,10.863754,-39.2964,28.55151,-16.592592,-13.792592,2.4217894,-11.73382
71,-1.5406560897827148,74.17440795898438,73.91007232666016,-3.852528051463809,-2.089289791666762,90.11716237783821,-6.22085,12.188909,2.1037242,89.3293,-5.731834,-1.4098568,-16.73506,4.724729,-8.542276,41.074814,-22.286596,-2.559757,-1.5559092,5.8170347,13.331513,20.864115,31.490917,-23.904995,-13.704423,-3.0617206,11.889658,11.084927,8.788646,-39.46246,29.832312,-15.628949,-13.643326,2.6043456,-12.279988
72,-1.5131148099899292,75.28457641601562,73.7613754272461,-3.9016336177358983,-1.7256929750984698,89.85243790020664,-8.313229,12.856065,2.2245584,91.17615,-7.119292,-0.7078858,-16.456335,4.9633174,-8.326086,41.72651,-23.563856,-2.5475135,-0.8304017,5.9716787,12.914901,21.68376,31.327139,-23.951231,-12.0523,-2.526975,12.119726,12.22923,6.992743,-39.550205,30.807617,-15.147194,-13.695938,2.7325706,-12.524915
73,-1.4781920909881592,76.39908599853516,73.64250183105469,-3.9888645372740217,-1.4469061816912256,89.80351506749011,-10.395463,13.471091,2.1850123,92.704414,-8.362479,-0.28280863,-15.913143,5.136853,-8.279547,42.10447,-24.708185,-2.5186613,-0.2958129,6.174679,12.583323,22.628506,31.274904,-23.962292,-11.100094,-1.6730357,12.740368,13.203906,5.507683,-39.558167,31.385393,-15.220053,-14.1572895,2.7941353,-12.3070965
74,-1.4601012468338013,77.49581909179688,73.56704711914062,-4.0647346447630115,-1.17426593803155,89.90067974971363,-12.544797,14.006232,2.0543945,93.91236,-9.468451,-0.028901538,-15.189278,5.236845,-8.334796,42.185783,-25.71492,-2.4549987,0.13553037,6.364139,12.258187,23.666067,31.35151,-23.985327,-10.654919,-0.63371265,13.639768,14.144761,4.1461725,-39.49513,31.707304,-15.600758,-14.844886,2.8171809,-11.768517
75,-1.4506053924560547,78.57826232910156,73.54290771484375,-4.100529999013458,-0.951513056257188,90.04213514460596,-14.621177,14.407652,1.9285132,94.72431,-10.472551,0.15318023,-14.2695,5.2846603,-8.393143,41.986313,-26.556505,-2.3596854,0.55011886,6.4908843,11.976327,24.796583,31.550646,-23.944998,-10.678567,0.15062349,14.482961,14.864135,2.9558208,-39.37691,31.865307,-16.26679,-15.432088,2.7962174,-11.15428
76,-1.4481037855148315,79.66388702392578,73.57431030273438,-4.068039934677576,-0.8223364925027858,90.12656361087437,-16.479267,14.624866,1.902706,95.064545,-11.41208,0.35714516,-13.13875,5.2987504,-8.356097,41.52323,-27.205183,-2.2356315,1.0350279,6.510256,11.778231,26.017017,31.85483,-23.76468,-11.131587,0.2531689,14.92198,15.187815,1.9127427,-39.228966,31.966263,-17.14881,-15.549857,2.7410603,-10.710781
77,-1.4523011445999146,80.74647521972656,73.6590347290039,-3.9447001177876313,-0.8417190305871418,90.13942824405792,-18.065586,14.594538,1.9848672,94.90771,-12.315244,0.63637197,-11.724761,5.2611704,-8.203792,40.76518,-27.681833,-2.057353,1.5874482,6.407809,11.729435,27.375404,32.26043,-23.38638,-12.127618,-0.5927706,14.781826,14.978826,0.9462224,-39.069717,32.02993,-18.275822,-14.932415,2.6434033,-10.517065
78,-1.4515074491500854,81.82945251464844,73.80026245117188,-3.752319740527222,-0.9722697217237899,90.13052766241971,-19.453863,14.36264,2.1424785,94.29273,-13.15627,0.92543757,-10.05677,5.163173,-7.9888186,39.713436,-27.991154,-1.8297642,2.1534135,6.2153006,11.797963,28.89455,32.764927,-22.831615,-13.6729145,-2.1025994,14.283648,14.346144,0.09272978,-38.904224,32.018684,-19.689404,-13.829395,2.5088217,-10.444504
79,-1.4465950727462769,82.92070007324219,73.99679565429688,-3.5226493475645793,-1.1187128841572462,90.09524424149308,-20.688808,14.048453,2.405411,93.24207,-13.894972,1.1378655,-8.274521,5.0344167,-7.7191567,38.439735,-28.085608,-1.6015637,2.7556078,5.959033,11.875725,30.506233,33.340706,-22.162498,-15.540629,-3.870128,13.669613,13.496076,-0.6184962,-38.74127,31.964405,-21.246353,-12.58741,2.3719141,-10.423511
80,-1.443261742591858,84.03657531738281,74.24481201171875,-3.2851568716828905,-1.1859199522445585,90.02953943724783,-21.812963,13.770485,2.8053212,91.77539,-14.49126,1.1869578,-6.515627,4.9066434,-7.39939,37.01206,-27.915916,-1.4221628,3.4129448,5.6651206,11.85044,32.115746,33.9408,-21.45272,-17.471539,-5.478414,13.160113,12.651414,-1.1527345,-38.59076,31.900202,-22.804853,-11.558027,2.2693613,-10.384782
81,-1.4437041282653809,85.18072509765625,74.52911376953125,-3.04255946825458,-1.1624872226294294,89.9170263257755,-22.811739,13.532487,3.372325,89.85109,-14.923915,0.98212457,-4.7539315,4.7941504,-6.9943323,35.352207,-27.455349,-1.3250134,4.1421905,5.3376074,11.695202,33.692753,34.530872,-20.711494,-19.435438,-6.9367576,12.799107,11.772888,-1.4907664,-38.461536,31.828783,-24.377398,-10.774928,2.230794,-10.343394
82,-1.4534509181976318,86.34686279296875,74.84013366699219,-2.779403826493092,-1.0941154798899602,89.76575874759641,-23.65858,13.280988,4.0880113,87.46434,-15.218936,0.58721393,-2.9406888,4.673053,-6.5133314,33.46399,-26.739882,-1.2752266,4.9249606,4.9717026,11.467353,35.25456,35.096394,-19.920258,-21.508265,-8.415187,12.478979,10.773712,-1.6468217,-38.360725,31.7333,-26.027449,-10.072641,2.230054,-10.324896
83,-1.4650194644927979,87.52886962890625,75.17330169677734,-2.5087076118687976,-0.970843581702781,89.60957364932483,-24.3806,13.038721,4.9141164,84.6923,-15.408066,0.14080308,-1.1822784,4.5228505,-6.026135,31.544868,-25.818382,-1.2214808,5.726455,4.579046,11.178651,36.750416,35.619225,-19.124796,-23.569242,-9.732231,12.165534,9.820082,-1.6520228,-38.294613,31.616295,-27.679403,-9.491633,2.2228804,-10.274911
84,-1.4716289043426514,88.71879577636719,75.52265167236328,-2.2396099447257423,-0.783109034142764,89.48255575171406,-25.003345,12.820435,5.8158784,81.607086,-15.522767,-0.22311701,0.4147968,4.3271093,-5.60197,29.792545,-24.739597,-1.1140773,6.5122657,4.173107,10.837726,38.11457,36.077705,-18.380785,-25.486692,-10.701063,11.811035,9.079082,-1.5360563,-38.26755,31.4808,-29.256523,-9.074692,2.166009,-10.137315
85,-1.4894688129425049,89.92194366455078,75.88744354248047,-1.9646248134669033,-0.5193251809373752,89.40109807619862,-25.52307,12.645577,6.849721,78.16904,-15.572536,-0.52356744,1.8587385,4.08081,-5.2456403,28.17164,-23.475191,-0.9423091,7.2775774,3.7430937,10.43026,39.30897,36.45577,-17.710897,-27.224464,-11.200494,11.371015,8.60124,-1.2901341,-38.287075,31.327051,-30.760916,-8.871939,2.0440543,-9.896496
86,-1.5169141292572021,91.1292953491211,76.25550842285156,-1.6810821787463788,-0.18803920844917232,89.34699770379986,-25.912117,12.463796,8.028977,74.341354,-15.535713,-0.8417809,3.1896744,3.7980971,-4.923747,26.614483,-22.017586,-0.7334865,8.030209,3.2902775,9.958376,40.335644,36.748543,-17.102787,-28.815784,-11.345227,10.866546,8.296809,-0.9060094,-38.35808,31.154984,-32.22659,-8.844168,1.8816146,-9.581787
87,-1.5519009828567505,92.34398651123047,76.61772155761719,-1.4086640568377828,0.19015669330451732,89.30141190378782,-26.168737,12.196923,9.244209,70.197235,-15.402216,-1.1256698,4.3530602,3.4953349,-4.6438627,25.26375,-20.439798,-0.49773192,8.757301,2.8450837,9.45181,41.215675,36.953316,-16.557257,-30.260937,-11.287675,10.344433,8.122981,-0.41299686,-38.47675,30.969723,-33.626884,-8.9058895,1.6957912,-9.2035885
88,-1.6014599800109863,93.55858612060547,76.97381591796875,-1.169553239351922,0.595023438480495,89.24506055613331,-26.30643,11.795599,10.364463,65.816795,-15.170884,-1.3029113,5.3091044,3.1914668,-4.4121056,24.237734,-18.80649,-0.24501626,9.445341,2.440073,8.937058,41.96135,37.069725,-16.07468,-31.54842,-11.187452,9.854912,8.034535,0.14690615,-38.63234,30.782318,-34.91792,-8.971011,1.5043657,-8.771659
89,-1.6527503728866577,94.7868423461914,77.32526397705078,-0.9478052024051904,1.057450664785625,89.16624560371346,-26.349525,11.277914,11.405182,61.12304,-14.846752,-1.1746525,6.0261793,2.8647034,-4.2320485,23.540323,-17.095776,0.0721089,10.103536,2.0522294,8.384881,42.576622,37.095448,-15.656953,-32.67967,-11.011941,9.408893,8.065773,0.7641354,-38.821438,30.60992,-36.0828,-9.041071,1.2710887,-8.242887
90,-1.7163206338882446,96.02318572998047,77.66521453857422,-0.7386619732590417,1.576880803345972,89.07616746936951,-26.285648,10.673764,12.405551,56.094627,-14.437047,-0.8244451,6.549694,2.5185015,-4.0895486,23.090202,-15.274364,0.45122227,10.728749,1.6723436,7.79131,43.054123,37.030235,-15.303618,-33.65762,-10.696667,8.981943,8.22509,1.4438004,-39.041508,30.451788,-37.13011,-9.151852,0.99927986,-7.627614
91,-1.782866358757019,97.25825500488281,77.98632049560547,-0.5794811355302524,2.0859002201565766,88.98652200813784,-26.078585,9.98339,13.261616,50.88354,-13.937421,-0.5708667,6.9336295,2.2056715,-3.9685817,22.91985,-13.404321,0.8100752,11.295314,1.3530532,7.216663,43.401516,36.880314,-15.00642,-34.483135,-10.353383,8.572176,8.426529,2.1690278,-39.278267,30.296259,-38.06124,-9.2801895,0.76728594,-7.013447
92,-1.8655422925949097,98.49983215332031,78.27779388427734,-0.5091523134359918,2.515241698140157,88.90657720693963,-25.690409,9.220749,13.860501,45.624645,-13.321121,-0.7253418,7.231477,1.9826667,-3.8592334,23.058659,-11.54037,1.0605706,11.78168,1.1504139,6.7192755,43.633102,36.656517,-14.753438,-35.162144,-10.096481,8.175543,8.583806,2.921508,-39.508755,30.134302,-38.86939,-9.408974,0.65388197,-6.486389
93,-1.9475754499435425,99.7387924194336,78.53721618652344,-0.5612118120432567,2.85517519314859,88.82988077743447,-25.051361,8.36986,14.118815,40.074463,-12.521032,-1.4454789,7.4617352,1.8869131,-3.7788348,23.48707,-9.640742,1.1606817,12.197916,1.1010036,6.2935343,43.766624,36.36463,-14.535808,-35.694023,-9.9606085,7.779808,8.662384,3.7128344,-39.71367,29.961887,-39.548916,-9.580424,0.70133686,-6.0281734
94,-2.038912296295166,100.98088836669922,78.7639389038086,-0.7211706941223531,3.133600917032545,88.74351158941442,-24.157316,7.49402,14.08618,34.15781,-11.529932,-2.4932473,7.614057,1.90122,-3.7269692,24.15938,-7.6672277,1.1673512,12.5609455,1.1806515,5.910808,43.808144,36.007767,-14.3522005,-36.091347,-9.885006,7.3907485,8.712519,4.5283256,-39.885494,29.795343,-40.078423,-9.795337,0.86003935,-5.601264
95,-2.1251940727233887,102.2241439819336,78.95024108886719,-0.9632485783023927,3.3361308793974658,88.64573355003921,-23.074633,6.7149086,13.859785,28.277184,-10.411062,-3.6101027,7.7020383,2.007436,-3.6699364,25.058752,-5.674702,1.1297313,12.860667,1.3626924,5.5946293,43.751064,35.59534,-14.200442,-36.37319,-9.846212,7.0305886,8.774966,5.307564,-40.020496,29.659054,-40.43652,-9.976385,1.0724645,-5.261817
96,-2.2040557861328125,103.45191955566406,79.098876953125,-1.2556645279299885,3.452324956240602,88.54041863723735,-21.922115,6.1162753,13.556071,22.931396,-9.259315,-4.573226,7.728111,2.181059,-3.575969,26.188654,-3.730852,1.0937845,13.084756,1.6153628,5.3677597,43.59281,35.139545,-14.079715,-36.56338,-9.819977,6.7211227,8.891736,5.994395,-40.115463,29.574451,-40.600082,-10.043256,1.2823572,-5.06871
97,-2.2758162021636963,104.66574096679688,79.21391296386719,-1.6090807210734712,3.4871284748522253,88.424125125036,-20.741442,5.690258,13.138851,18.174746,-8.020149,-5.465838,7.674097,2.42337,-3.4734178,27.56006,-1.8011893,1.0639443,13.240873,1.9498172,5.2272696,43.33409,34.63972,-13.990323,-36.654427,-9.774974,6.475178,9.088284,6.5922375,-40.163578,29.541674,-40.552284,-9.935388,1.4867283,-5.0662
98,-2.3493361473083496,105.86212921142578,79.29525756835938,-2.0533738538431834,3.4414444554289676,88.2970574090535,-19.501343,5.4213533,12.571963,13.831625,-6.700264,-6.3833857,7.550552,2.7633405,-3.375921,29.155733,0.14242923,1.0048758,13.333202,2.395264,5.1602697,42.986122,34.095196,-13.927461,-36.64527,-9.733256,6.2792096,9.338303,7.116922,-40.161865,29.55718,-40.29906,-9.708799,1.7122673,-5.2116127
99,-2.4271185398101807,107.0522689819336,79.34029388427734,-2.5222197867765512,3.3185877482721997,88.1901902769434,-18.265692,5.2760415,12.002402,10.120096,-5.496782,-7.1368017,7.355648,3.1499898,-3.2411823,31.003975,1.9817148,0.9155248,13.324331,2.8836029,5.1727643,42.549236,33.524357,-13.883758,-36.56051,-9.754716,6.114025,9.606939,7.5370784,-40.113354,29.633677,-39.862755,-9.457834,1.9467798,-5.43747
100,-2.4951674938201904,108.23255920410156,79.3509521484375,-2.9130172467089595,3.1317273418628795,88.1430469965802,-17.092947,5.160705,11.589981,7.2250614,-4.586626,-7.5317354,7.0685225,3.4942992,-3.0264502,33.159634,3.5866163,0.8096767,13.173964,3.3054457,5.27184,42.02234,32.9568,-13.8534,-36.425484,-9.9026785,5.958669,9.8619585,7.8306937,-40.021584,29.776525,-39.270515,-9.277446,2.1783931,-5.678551
101,-2.557271718978882,109.39443969726562,79.32826232910156,-3.18124152527612,2.893363397535304,88.18261295190628,-16.837135,5.203692,11.394977,7.0460515,-5.028365,-7.4484515,6.6277146,3.763843,-2.697204,35.76112,4.858496,0.60893726,12.86028,3.6058803,5.457463,41.408886,32.407936,-13.83871,-36.236023,-10.2884655,5.7919216,10.109387,8.004597,-39.88212,29.975725,-38.52676,-9.160044,2.4089458,-5.9380703
102,-2.6172292232513428,110.54541015625,79.26439666748047,-3.3310469921320727,2.608364043124464,88.29923642853588,-16.363047,5.1465344,11.418543,7.0454693,-5.4341908,-7.0110717,6.039444,3.9487004,-2.2889345,38.770977,5.8689637,0.3467469,12.401927,3.7852585,5.726693,40.70342,31.881508,-13.84299,-35.98388,-10.855181,5.6264625,10.366027,8.077504,-39.688744,30.221092,-37.619965,-9.065036,2.6418865,-6.2457695
103,-2.66336989402771,111.68441772460938,79.16363525390625,-3.337929092233179,2.276478921411872,88.46872618997305,-15.675669,4.9248495,11.455672,7.086663,-5.6411715,-6.3894806,5.3914466,4.0037246,-1.8454175,41.977726,6.7373033,0.21270715,11.830696,3.8198524,6.0820756,39.890255,31.394154,-13.862378,-35.680225,-11.417516,5.4930468,10.61778,8.051184,-39.444115,30.511433,-36.56051,-9.03663,2.8690479,-6.576011
104,-2.686112880706787,112.814697265625,79.01122283935547,-3.18945048317217,1.8961188032060863,88.66820150493547,-15.056349,4.5360947,11.274799,7.6313486,-5.799095,-5.7530637,4.769366,3.8995705,-1.4110932,45.177303,7.5782466,0.3968867,11.181139,3.6980765,6.523454,38.95802,30.970177,-13.893653,-35.35001,-11.792705,5.4239445,10.854247,7.937188,-39.157635,30.83803,-35.36741,-9.118888,3.0829055,-6.9036956
105,-2.7141668796539307,113.94318389892578,78.8128662109375,-2.8862965562975207,1.447274301992289,88.90207439170955,-14.774628,3.9942462,10.690263,9.359936,-6.0234857,-5.20182,4.205083,3.7289147,-0.87423986,48.348972,8.561155,1.0482218,10.459518,3.4173813,7.061612,37.90999,30.625818,-13.935797,-35.00872,-11.912873,5.4815927,11.0499115,7.7703385,-38.833153,31.174826,-34.071148,-9.351102,3.2784414,-7.228796
106,-2.742474317550659,115.03726196289062,78.60995483398438,-2.468861323125685,0.9222697022150211,89.16479990745889,-14.4673815,3.2809732,9.889112,11.54319,-6.0407367,-4.6496277,3.6753373,3.5393817,-0.22867382,51.584892,9.570517,2.0517623,9.676402,3.0097582,7.690971,36.75654,30.365564,-13.997201,-34.65861,-11.890388,5.6312704,11.224965,7.567717,-38.47237,31.508972,-32.67738,-9.701103,3.4617198,-7.562414
107,-2.7627508640289307,116.13264465332031,78.34832763671875,-1.9717994542608204,0.3449475627146733,89.4239716422328,-14.168593,2.4782662,9.143051,14.022608,-6.1917167,-3.977773,3.1624594,3.1917186,0.30901727,54.870754,10.290572,3.1716094,8.868692,2.5073867,8.383023,35.492115,30.194956,-14.091435,-34.29598,-11.813626,5.759955,11.438522,7.3114176,-38.085606,31.850174,-31.169788,-10.100032,3.641782,-7.8984766
108,-2.778594493865967,117.22737884521484,78.03713989257812,-1.4068981215933691,-0.2520171257218516,89.65427731539229,-13.943291,1.6826627,8.705812,16.697126,-6.854331,-3.0284636,2.6275187,2.4745195,0.5092793,58.205795,10.414549,4.1290245,8.0664015,1.9228907,9.108466,34.10591,30.11866,-14.232079,-33.910545,-11.772089,5.7535906,11.749863,6.9892583,-37.686386,32.20736,-29.540504,-10.47941,3.82668,-8.234227
109,-2.7962286472320557,118.3017349243164,77.69804382324219,-0.7229065715463652,-0.9232568124414661,89.85876299759273,-13.870832,0.92055243,8.65944,19.858212,-8.309051,-1.5109054,2.150641,1.1355087,0.19415982,61.66017,9.823637,4.936803,7.2599416,1.2117132,9.924683,32.574486,30.138084,-14.438763,-33.469402,-11.77651,5.489473,12.18979,6.56638,-37.28604,32.583675,-27.793356,-10.838503,4.0533185,-8.532062
110,-2.813582420349121,119.34243774414062,77.3277816772461,0.0606989768335261,-1.6664762458088835,90.04316848861582,-13.881842,0.16865312,8.817557,23.432451,-10.29895,0.42638054,1.7287611,-0.7161718,-0.4730686,65.22238,8.70227,5.651651,6.4508834,0.38741547,10.821074,30.905252,30.250534,-14.708,-32.992184,-11.783769,5.057976,12.723251,6.0824776,-36.888783,32.959206,-25.957232,-11.2052145,4.3055077,-8.809245
111,-2.841765880584717,120.36013793945312,76.91758728027344,0.871124632931076,-2.3506237964547982,90.20086294406737,-13.863531,-0.58200544,9.039536,26.847908,-12.439954,2.3087165,1.17841,-2.803058,-1.1987276,68.769035,7.1881948,6.075811,5.672972,-0.4958192,11.664674,29.12719,30.454302,-15.021079,-32.544502,-11.802473,4.664166,13.310166,5.6245646,-36.497307,33.314163,-24.043968,-11.553168,4.5110373,-9.146091
112,-2.8752691745758057,121.38902282714844,76.46142578125,1.6531373565329013,-2.8380825069073783,90.33237876647317,-13.752055,-1.3578842,9.226271,29.620962,-14.372167,3.6520054,0.2893247,-4.814526,-1.6820067,72.17809,5.408304,6.0497766,4.952998,-1.390733,12.322112,27.26548,30.748352,-15.361222,-32.187485,-11.846022,4.5125318,13.910873,5.28047,-36.111057,33.6296,-22.06448,-11.856145,4.597985,-9.625132
113,-2.8985695838928223,122.42800903320312,76.01104736328125,2.4809725405931538,-3.08412503697709,90.4334196719153,-13.574415,-2.2477102,9.441592,31.697414,-16.087204,4.2522793,-1.0575941,-6.753354,-1.7899209,75.54318,3.1839976,5.4570856,4.2995276,-2.368578,12.772991,25.264206,31.152754,-15.752544,-31.897818,-11.9258585,4.734695,14.539486,5.0296626,-35.72281,33.923977,-19.903156,-12.071284,4.483638,-10.3497715
114,-2.900773048400879,123.45977783203125,75.5900650024414,3.3757816690114493,-3.1566002294073643,90.51532807589977,-13.40085,-3.2131243,9.726033,33.412025,-17.794672,4.3922997,-2.7554774,-8.71508,-1.6443251,78.88573,0.50774956,4.464673,3.6976593,-3.4420643,13.07519,23.11532,31.66977,-16.215424,-31.655539,-12.045694,5.1935034,15.215774,4.8445373,-35.328564,34.190125,-17.592861,-12.229365,4.2264524,-11.250832
115,-2.8882460594177246,124.49211120605469,75.21270751953125,4.196979098067748,-3.0874360078102594,90.60340806219033,-13.236075,-4.0952225,9.9810705,34.86245,-19.4542,4.3143315,-4.6917095,-10.50869,-1.3597015,81.978584,-2.2313614,3.3301077,3.1220438,-4.4616513,13.2195,20.918549,32.25793,-16.718578,-31.511477,-12.200814,5.692417,15.902679,4.7835484,-34.941124,34.387127,-15.354994,-12.4100685,3.9672213,-12.15072
116,-2.8851397037506104,125.53668212890625,74.8841323852539,4.798082139599734,-2.911453781921244,90.72060367781971,-13.068594,-4.7517843,10.107195,36.09928,-21.005402,4.2612114,-6.7440886,-11.979835,-1.094057,84.59771,-4.6413536,2.2803743,2.5313466,-5.2660394,13.206174,18.780592,32.85209,-17.212698,-31.511526,-12.371148,6.037435,16.551188,4.902253,-34.588413,34.48953,-13.421698,-12.685198,3.8507814,-12.874406
117,-2.908932685852051,126.59929656982422,74.62137603759766,5.104006942842098,-2.56070437654862,90.8878233473562,-12.969895,-5.123605,10.073952,37.115,-22.451654,4.2681108,-9.003121,-13.067143,-0.90601283,86.716675,-6.62344,1.287642,1.8754972,-5.7483954,12.971539,16.66631,33.41419,-17.740368,-31.625433,-12.611399,6.1865,17.20636,5.2137136,-34.297226,34.506794,-11.765734,-13.206984,3.9696677,-13.381009
118,-2.9461264610290527,127.68343353271484,74.41266632080078,5.202481618718545,-2.043649945796878,91.08797035301876,-12.915431,-5.3053575,9.951419,37.874603,-23.811312,4.219228,-11.493373,-13.849149,-0.7418405,88.448906,-8.376598,0.25263268,1.1720172,-5.9835978,12.548119,14.515154,33.93512,-18.315334,-31.80456,-12.892429,6.241501,17.861267,5.6918497,-34.081635,34.45794,-10.308711,-13.882401,4.2326202,-13.762852
119,-2.979389190673828,128.78366088867188,74.25076293945312,5.191854606500174,-1.5102143251268607,91.28402735324796,-12.738694,-5.3896255,9.780989,38.36653,-25.039167,4.131529,-13.983114,-14.426486,-0.61959404,89.77573,-9.954988,-0.72396827,0.47407347,-6.087728,12.083794,12.426462,34.392338,-18.822973,-32.087967,-13.052506,6.229363,18.381824,6.32363,-33.952755,34.34744,-9.200944,-14.415279,4.5048165,-14.047005
120,-3.0128281116485596,129.88818359375,74.13072967529297,5.167214789318152,-1.1107657240019178,91.44061332067292,-12.277234,-5.4635644,9.600148,38.583363,-26.09036,4.0161233,-16.242529,-14.905528,-0.5513049,90.68101,-11.41396,-1.5407896,-0.17868097,-6.1852894,11.7198305,10.501094,34.76005,-19.136002,-32.50207,-12.929488,6.1806602,18.628635,7.0824633,-33.92031,34.192726,-8.58605,-14.508952,4.6498065,-14.264946
121,-3.0328121185302734,130.98387145996094,74.04505920410156,5.155427605327817,-0.8846582065947661,91.51562762385454,-11.469749,-5.5351615,9.444766,38.503475,-26.97189,3.856877,-18.25884,-15.304491,-0.5066189,91.180534,-12.787167,-2.1751766,-0.7528358,-6.3178453,11.490336,8.746952,35.011593,-19.167728,-33.05142,-12.377585,6.0689187,18.45325,8.00313,-33.998165,33.981663,-8.600561,-14.032265,4.6297865,-14.41836
122,-3.0473573207855225,132.0821990966797,74.01773071289062,5.102643425672468,-0.752591698032616,91.53860035617161,-10.40584,-5.5542397,9.283436,38.135654,-27.70041,3.6504297,-20.131508,-15.580001,-0.51465166,91.2748,-14.035079,-2.6813822,-1.2874556,-6.4112334,11.320378,7.094699,35.142372,-19.00351,-33.68595,-11.507094,5.8851805,17.958237,9.085417,-34.196274,33.716496,-9.142358,-13.154949,4.518052,-14.491946
123,-3.0557496547698975,133.1847381591797,74.05431365966797,4.98667697714319,-0.6862454842258577,91.58283748314689,-9.145352,-5.518993,9.050357,37.505592,-28.23871,3.4212875,-21.799385,-15.755087,-0.6674987,90.92409,-15.103387,-3.0715995,-1.8469185,-6.4231615,11.1839695,5.5225224,35.170208,-18.77813,-34.352093,-10.547022,5.6894317,17.384396,10.263495,-34.508606,33.427597,-9.999964,-12.039315,4.344546,-14.491668
124,-3.064513683319092,134.31161499023438,74.16136169433594,4.787860189548559,-0.6567590548344228,91.72156573234538,-7.751746,-5.426742,8.680433,36.645905,-28.553446,3.1955945,-23.199984,-15.854282,-1.0549656,90.09009,-15.93995,-3.3576338,-2.4962673,-6.3163557,11.057671,4.0439186,35.128273,-18.60818,-35.02775,-9.725113,5.5527644,16.971773,11.454653,-34.914852,33.154224,-10.945215,-10.846936,4.1387033,-14.424672
125,-3.076054573059082,135.45384216308594,74.3211441040039,4.467792797988325,-0.6988479494065292,91.99730437464993,-6.1670246,-5.256949,8.108179,35.50109,-28.650494,2.981842,-24.255917,-15.87095,-1.7526299,88.7165,-16.500721,-3.5157053,-3.2641525,-6.0666656,10.977956,2.6707516,35.03012,-18.473837,-35.77373,-9.013448,5.5272226,16.782701,12.647699,-35.401123,32.913578,-11.982149,-9.419768,3.8680632,-14.293924
126,-3.0908737182617188,136.5958709716797,74.53374481201172,4.049853883876693,-0.8113725494376083,92.36341849201091,-4.3891044,-5.0045195,7.388468,34.080296,-28.545156,2.7607257,-25.011116,-15.805499,-2.7016785,86.83768,-16.828403,-3.545942,-4.108347,-5.711724,10.949762,1.4103916,34.877594,-18.317888,-36.59763,-8.3239765,5.5671444,16.693636,13.879347,-35.958893,32.679268,-13.196843,-7.740756,3.5351865,-14.087709
127,-3.1059346199035645,137.75320434570312,74.78056335449219,3.6005745054261276,-0.9117352700836171,92.75848844150325,-2.5618546,-4.695567,6.635068,32.510826,-28.219564,2.5196142,-25.587414,-15.696003,-3.7857413,84.552055,-17.000746,-3.4935827,-4.9861264,-5.3057547,10.90203,0.29331836,34.697483,-18.190392,-37.42127,-7.7948294,5.6049104,16.665508,15.127131,-36.568115,32.431324,-14.47351,-6.187614,3.2188125,-13.797686
128,-3.1113977432250977,138.930419921875,75.05561065673828,3.1877767268514003,-0.9190934043857296,93.1198879430454,-0.82530504,-4.3664074,5.9576497,30.917608,-27.65364,2.248721,-26.105164,-15.5744,-4.8917756,81.95209,-17.096582,-3.4031005,-5.846871,-4.9026313,10.760757,-0.6485251,34.531666,-18.148394,-38.17777,-7.570308,5.5715475,16.666258,16.364138,-37.198586,32.146805,-15.688955,-5.1421046,2.99276,-13.421911
129,-3.112579584121704,140.1210479736328,75.354248046875,2.822035219181198,-0.8142537650041469,93.4468524470206,0.8359963,-4.0344996,5.3537927,29.23116,-26.811153,1.9523945,-26.570465,-15.474672,-6.0564537,79.0121,-17.130573,-3.2481303,-6.7003455,-4.518826,10.496246,-1.3806366,34.41806,-18.199453,-38.893135,-7.7873774,5.429224,16.749893,17.555891,-37.82671,31.844765,-16.810028,-4.8086367,2.8793898,-12.922859
130,-3.1027462482452393,141.3370361328125,75.6706771850586,2.47294331344252,-0.6398727004506835,93.76524479019965,2.4736795,-3.6855075,4.774564,27.427097,-25.716404,1.633516,-26.918583,-15.356122,-7.3228154,75.68955,-17.062477,-3.0069673,-7.563635,-4.135226,10.153327,-1.8901924,34.370293,-18.29728,-39.634125,-8.349243,5.219767,16.922598,18.694801,-38.439228,31.54356,-17.869173,-4.957115,2.8289394,-12.3159485
131,-3.0829100608825684,142.5760498046875,75.99977111816406,2.14259458049417,-0.40953200091947983,94.05249897802406,4.013772,-3.3181283,4.254463,25.684208,-24.43399,1.2866584,-27.16952,-15.144651,-8.582277,72.050735,-16.881586,-2.734233,-8.397621,-3.7492414,9.766197,-2.1771085,34.389126,-18.420261,-40.384155,-9.046214,4.994187,17.080263,19.795826,-39.020706,31.220646,-18.84757,-5.3196697,2.8073854,-11.680711
132,-3.0476269721984863,143.82244873046875,76.3381118774414,1.8336499862394313,-0.13736345008840656,94.28663647706195,5.383307,-2.9315724,3.825362,24.184057,-23.029531,0.9078426,-27.348867,-14.7779875,-9.72018,68.15755,-16.580446,-2.4964685,-9.158369,-3.3577485,9.367085,-2.2589076,34.465736,-18.558956,-41.110706,-9.6668215,4.8068004,17.119938,20.876602,-39.554718,30.847141,-19.723186,-5.6244335,2.7863023,-11.095823
133,-3.0148749351501465,145.087158203125,76.67701721191406,1.5376646045256996,0.19207504169766945,94.45588061055918,6.5857987,-2.514555,3.4942353,22.904222,-21.46842,0.47787154,-27.473183,-14.254611,-10.739586,63.95879,-16.167156,-2.409661,-9.835784,-2.9457805,8.938573,-2.1266062,34.59855,-18.726942,-41.80302,-10.231897,4.6505804,17.026857,21.933207,-40.028835,30.427141,-20.471796,-5.8999457,2.7689824,-10.556238
134,-2.9762706756591797,146.35714721679688,77.01190948486328,1.2576310351407474,0.578178489455724,94.57303908681241,7.6542544,-2.081835,3.2354138,21.777653,-19.736609,0.009212703,-27.522211,-13.605045,-11.682061,59.429398,-15.643979,-2.4111898,-10.449806,-2.522118,8.467935,-1.7809128,34.79089,-18.925842,-42.468197,-10.826172,4.5069747,16.850288,22.944176,-40.436398,29.984068,-21.09085,-6.26356,2.7651732,-10.026894
135,-2.9391672611236572,147.6336669921875,77.3417739868164,1.0169594493302723,0.9822282512854051,94.65451330411064,8.5762205,-1.6712149,3.030291,20.890299,-17.922165,-0.45128313,-27.469837,-12.83355,-12.479263,54.659546,-14.991474,-2.3122485,-11.002595,-2.1202452,7.993271,-1.266722,35.03583,-19.13203,-43.090267,-11.335194,4.414546,16.58399,23.900366,-40.772915,29.514994,-21.58781,-6.5741224,2.7636738,-9.541592
136,-2.9001224040985107,148.9145050048828,77.65248107910156,0.8380937649226593,1.3654801158651964,94.71927476927371,9.345624,-1.3185587,2.8623974,20.314081,-16.10434,-0.8613355,-27.29118,-11.958281,-13.055677,49.72779,-14.178588,-1.9357989,-11.497723,-1.7729205,7.5517716,-0.6333414,35.319035,-19.326939,-43.65029,-11.641297,4.4107413,16.220873,24.805578,-41.03673,29.011787,-21.977453,-6.6937747,2.7560732,-9.134497
137,-2.8543689250946045,150.20419311523438,77.94591522216797,0.7298270501398245,1.7361351227820474,94.77752443646659,9.968287,-1.0333693,2.7366233,20.01419,-14.237457,-1.2515087,-26.950127,-10.96468,-13.357131,44.43551,-13.109942,-1.2389016,-11.94103,-1.4821856,7.13366,0.113813944,35.63429,-19.513906,-44.143536,-11.69854,4.5292077,15.703821,25.68025,-41.22407,28.457355,-22.257029,-6.5234303,2.7485905,-8.799906
138,-2.8077433109283447,151.4969940185547,78.22099304199219,0.6850856628267886,2.105443030914068,94.82461767634871,10.469754,-0.8073815,2.6497726,19.930752,-12.286547,-1.6422225,-26.437033,-9.89279,-13.408432,38.744602,-11.809132,-0.34942734,-12.331181,-1.240276,6.722171,0.9803703,35.9806,-19.709538,-44.56115,-11.569312,4.7403283,15.0523,26.516346,-41.334064,27.862091,-22.418863,-6.158392,2.7462552,-8.523062
139,-2.7582004070281982,152.79598999023438,78.46427154541016,0.7012996413313117,2.4384157809231235,94.86321896026868,10.854985,-0.64947635,2.5766816,20.131557,-10.344048,-1.9712465,-25.763954,-8.845515,-13.263495,32.963818,-10.414041,0.65539247,-12.669013,-1.0638994,6.3440323,1.9365158,36.34686,-19.91495,-44.880413,-11.297255,4.985466,14.373275,27.28061,-41.371834,27.257208,-22.478796,-5.752932,2.7391806,-8.3265
140,-2.708721876144409,154.09259033203125,78.66497802734375,0.7833278057687227,2.699126471795163,94.8953923783613,11.13909,-0.5709935,2.4982815,20.661684,-8.494591,-2.169426,-24.959146,-7.915573,-12.99018,27.432192,-9.069115,1.71412,-12.956653,-0.9719672,6.0254917,2.9494867,36.715874,-20.131092,-45.075058,-10.9267435,5.207902,13.771407,27.937809,-41.347416,26.674604,-22.45296,-5.458134,2.7163255,-8.233723
141,-2.6622586250305176,155.3869171142578,78.82272338867188,0.9656457949025491,2.8831280006248146,94.93257395038658,11.326176,-0.6126586,2.4192898,21.503632,-6.6880355,-2.193421,-23.980001,-7.1093817,-12.546082,22.008324,-7.7366548,2.965697,-13.210406,-0.9987737,5.7572618,4.0312643,37.07543,-20.365124,-45.128624,-10.383015,5.4161,13.227126,28.498804,-41.26633,26.113493,-22.324148,-5.2979484,2.6493006,-8.281854
142,-2.6180317401885986,156.69236755371094,78.94328308105469,1.2960730793747197,2.9868816897276966,94.99672408001128,11.467455,-0.8292722,2.33736,22.549192,-4.8476224,-2.078589,-22.777748,-6.4832377,-11.906977,16.524136,-6.3466034,4.392131,-13.449632,-1.1898764,5.5308223,5.1794677,37.424473,-20.620687,-45.0435,-9.666727,5.630928,12.691833,28.990213,-41.130737,25.556162,-22.106129,-5.196547,2.553193,-8.449152
143,-2.5738821029663086,157.98834228515625,79.01836395263672,1.7607739679688494,2.9917048516865785,95.08562578785643,11.595447,-1.2036942,2.2432847,23.789852,-3.05411,-1.8719702,-21.452612,-6.125692,-11.20085,11.400284,-5.025062,5.7200465,-13.660769,-1.5392864,5.369192,6.3443584,37.76264,-20.895401,-44.82712,-8.937093,5.818801,12.231059,29.400066,-40.9506,25.005173,-21.85587,-5.157421,2.481529,-8.67046
144,-2.5335352420806885,159.2676239013672,79.05697631835938,2.237731501801746,2.9145148392480493,95.15570487675417,11.662383,-1.5977477,2.158197,25.325449,-1.4539098,-1.6386845,-20.141886,-5.9565635,-10.590045,7.0520287,-3.8761184,6.6775913,-13.792033,-1.9276848,5.289336,7.4720054,38.084873,-21.18792,-44.4835,-8.356401,5.948633,11.915689,29.70416,-40.740578,24.465797,-21.617298,-5.1822596,2.4867015,-8.88199
145,-2.4920756816864014,160.5308074951172,79.06401824951172,2.6268749392164312,2.800118197687605,95.1561484216483,11.56856,-1.8939658,2.1284661,27.306204,-0.15552475,-1.3764182,-20.48611,-6.0952096,-9.950492,6.911676,-4.724867,7.126985,-13.795286,-2.2380023,5.27658,8.562346,38.379513,-21.505327,-43.991314,-7.957076,5.9988227,11.783145,29.901552,-40.506325,23.922491,-21.384796,-5.307031,2.6009989,-9.074912
146,-2.4513959884643555,161.7849578857422,79.04342651367188,2.9196262405319473,2.662241007700231,95.08191651253979,11.297816,-2.0760584,2.1674297,29.72159,0.8942568,-1.0636473,-20.613703,-6.116798,-9.423602,6.8368807,-5.4140224,7.2409997,-13.666307,-2.453981,5.318782,9.617148,38.637432,-21.862032,-43.33678,-7.6566944,5.9929543,11.792307,30.001331,-40.25084,23.372196,-21.133081,-5.515969,2.7900298,-9.281034
147,-2.4295663833618164,163.02403259277344,78.99334716796875,3.0942200823244015,2.4846108879789806,94.94569164024414,10.904216,-2.116608,2.247757,32.464237,1.7682354,-0.75143677,-20.499474,-6.0126405,-9.026675,6.802616,-5.8383803,7.2232757,-13.410509,-2.564447,5.436233,10.5876,38.854725,-22.265203,-42.532124,-7.445675,5.9677534,11.898249,29.983303,-39.986908,22.84587,-20.8756,-5.7261796,3.0048327,-9.499743
148,-2.4120593070983887,164.2525177001953,78.90054321289062,3.143837944238006,2.245738823922517,94.76556166148099,10.445668,-2.0086782,2.3350754,35.43251,2.5431247,-0.4991463,-20.116371,-5.7918105,-8.774434,6.791403,-5.8977165,7.274065,-13.043822,-2.5693924,5.651247,11.438127,39.031586,-22.710949,-41.603054,-7.315212,5.9594297,12.055706,29.832588,-39.734783,22.374283,-20.632395,-5.8561263,3.1961644,-9.7327385
149,-2.399561643600464,165.4674530029297,78.76949310302734,3.0929934484011077,1.9320391963354404,94.54284211289286,9.907315,-1.816839,2.3818846,38.700195,3.238423,-0.22262837,-19.389097,-5.4903855,-8.713475,6.8051805,-5.526759,7.5795817,-12.567433,-2.4897847,5.9688582,12.179744,39.165237,-23.201841,-40.551075,-7.2904196,5.9782596,12.268705,29.557041,-39.51024,21.959135,-20.422672,-5.8777747,3.3678036,-9.997793
150,-2.388427972793579,166.66534423828125,78.59346008300781,2.9378880350548298,1.5518717294831024,94.27436290379416,9.288699,-1.535486,2.4036493,42.267693,3.823347,0.063679,-18.34997,-5.087255,-8.819171,6.8516927,-4.7953887,7.996203,-11.985903,-2.3102467,6.3796096,12.833189,39.251488,-23.732563,-39.36946,-7.3672414,6.003652,12.555145,29.170753,-39.31895,21.58375,-20.246546,-5.8310795,3.5400355,-10.292195
151,-2.3630971908569336,167.82162475585938,78.43521118164062,2.633792249985799,1.1120840844771134,93.97630342029177,8.673696,-1.0621374,2.450083,45.931522,4.289447,0.15183736,-17.135994,-4.5164294,-8.996687,6.9337416,-3.8081295,8.227817,-11.32664,-1.9840686,6.8855157,13.386915,39.29266,-24.280947,-38.080788,-7.4934874,6.025409,12.89165,28.668287,-39.167976,21.251606,-20.098541,-5.7391057,3.6879802,-10.586802
152,-2.339838743209839,168.9744873046875,78.2187728881836,2.147313798090796,0.6156321618974012,93.67016730936456,8.143395,-0.29976603,2.564242,49.509674,4.6146474,-0.15262774,-16.409502,-3.8246155,-9.1107,8.182929,-3.2666917,7.980525,-10.6271515,-1.4802696,7.4886856,13.841621,39.29619,-24.813555,-36.715782,-7.6184735,6.033682,13.255126,28.044212,-39.063404,20.971535,-19.978312,-5.625593,3.7872922,-10.853421
153,-2.3270254135131836,170.1273651123047,77.93215942382812,1.4532040515758136,0.008421915730434229,93.35443076877607,7.805221,0.8108828,2.783271,52.96517,4.943496,-1.0850936,-16.62835,-3.08952,-9.101343,11.676828,-3.472739,7.045827,-9.887012,-0.77697253,8.242903,14.181029,39.27184,-25.322424,-35.285374,-7.7705803,6.0040007,13.632013,27.30879,-39.01025,20.724424,-19.92469,-5.5109415,3.833225,-11.057909
154,-2.311357259750366,171.2484893798828,77.61969757080078,0.6578530795370723,-0.7218175256943953,93.05044478836115,7.6289434,2.1137123,3.0568662,56.38098,5.242496,-2.4551215,-16.850828,-2.2963593,-9.099305,15.542197,-3.471778,5.6439166,-9.125947,0.023882464,9.133112,14.439238,39.2266,-25.805004,-33.798275,-7.965016,5.9483614,14.03679,26.47847,-39.0107,20.5126,-19.951866,-5.378258,3.8391685,-11.225484
155,-2.2759270668029785,172.3406524658203,77.27179718017578,-0.12079150534053816,-1.4871549406660591,92.79055865684887,7.4577074,3.4572532,3.321462,59.77741,5.2136455,-3.817094,-17.028227,-1.5302205,-9.157043,19.427513,-3.6272883,4.1013503,-8.392223,0.81277245,10.051583,14.698502,39.163013,-26.233536,-32.287933,-8.128846,5.9118786,14.489909,25.521004,-39.06571,20.38675,-19.990711,-5.1858273,3.8073337,-11.416853
156,-2.2443130016326904,173.41737365722656,76.86766052246094,-0.8515792984389594,-2.175869628225304,92.5815773056902,7.102436,4.7967334,3.5200038,63.197033,4.540571,-4.7420344,-17.123823,-0.7809586,-9.306473,22.975758,-4.312345,2.7181962,-7.716877,1.5620329,10.886358,15.03853,39.077175,-26.577835,-30.780485,-8.19251,5.939794,15.012241,24.392199,-39.174347,20.405876,-19.959137,-4.895796,3.7380147,-11.693859
157,-2.2074074745178223,174.49160766601562,76.41940307617188,-1.656911754058446,-2.802199180789328,92.42633370997997,6.538796,6.337517,3.6445336,66.80536,2.9003918,-5.0873876,-17.199745,0.07739587,-9.586388,26.366562,-5.874876,1.442703,-7.120309,2.3917246,11.684872,15.453605,38.963722,-26.824997,-29.269047,-8.081221,6.046513,15.616935,23.023256,-39.341995,20.586632,-19.814402,-4.403118,3.5914319,-12.067867
158,-2.15617036819458,175.56591796875,75.97034454345703,-2.5641279556003784,-3.393949965566718,92.30624491800633,5.8394203,8.099957,3.7135215,70.54888,0.52542853,-5.103761,-17.305378,1.0291879,-9.919188,29.811226,-8.109027,0.13867639,-6.5863705,3.3278365,12.473154,15.919715,38.81846,-26.981215,-27.748161,-7.853373,6.2091417,16.289806,21.437788,-39.567177,20.91259,-19.59616,-3.7585602,3.3767498,-12.509277
159,-2.1239216327667236,176.62242126464844,75.54563903808594,-3.417984530175231,-3.8540241760622735,92.18278773378528,4.941247,9.785299,3.7061899,74.149376,-2.0665073,-4.9622364,-17.40743,1.9237083,-10.176467,33.021427,-10.567152,-1.0161386,-6.0639205,4.2223325,13.1085205,16.468275,38.636555,-27.057573,-26.226551,-7.6397743,6.4162645,17.010262,19.710184,-39.834084,21.389473,-19.329056,-3.151439,3.1684163,-13.018399
160,-2.0717580318450928,177.69151306152344,75.15499877929688,-4.053656277164399,-4.087574869220595,92.0148565147027,3.7713478,11.0859995,3.6212542,77.33728,-4.3553376,-4.8219776,-17.473509,2.6245923,-10.276452,35.68573,-12.771725,-1.8422987,-5.486643,4.913034,13.451657,17.133827,38.414898,-27.065552,-24.712296,-7.568335,6.6539183,17.757912,17.929592,-40.115772,22.020845,-19.046595,-2.7798252,3.0446916,-13.597519
161,-2.0246033668518066,178.796630859375,74.80899810791016,-4.3924989074750975,-3.995821716375664,91.7331338429861,2.2160437,11.882625,3.4868023,80.06903,-6.268301,-4.6498165,-17.580881,3.103469,-10.188187,37.70795,-14.648478,-2.2166665,-4.754546,5.303223,13.392124,17.909838,38.147633,-27.028776,-23.116596,-7.636029,6.9680624,18.572794,16.019793,-40.40441,22.911633,-18.650341,-2.6923816,3.0565038,-14.397131
162,-1.9894567728042603,179.92051696777344,74.52704620361328,-4.539911741219816,-3.6511692351828904,91.37167287370703,0.32630345,12.345287,3.2987418,82.49358,-8.056547,-4.3905396,-17.740122,3.4525752,-9.996822,39.28678,-16.43767,-2.2558417,-3.9169703,5.4842267,13.032711,18.779552,37.831512,-26.932587,-21.45522,-7.7864614,7.347357,19.448677,13.947529,-40.68907,24.033474,-18.147411,-2.7816725,3.1577861,-15.369762
163,-1.963515043258667,181.05282592773438,74.30506134033203,-4.610546146276797,-3.2180930092736015,91.0457336388447,-1.7196908,12.611314,3.0317745,84.620964,-9.677852,-4.1511803,-17.800865,3.7210839,-9.810658,40.508297,-18.10441,-2.1430492,-3.1128087,5.5738173,12.555486,19.743444,37.476448,-26.75207,-19.887012,-8.065961,7.6874995,20.299356,11.924358,-40.932472,25.158552,-17.75655,-3.0352075,3.2839594,-16.21238
164,-1.9383926391601562,182.20115661621094,74.13710021972656,-4.706831404812439,-2.8618637983398356,90.87305379368888,-3.741122,12.816801,2.6576116,86.45161,-11.08794,-4.03481,-17.604597,3.9503293,-9.723118,41.444416,-19.608902,-2.059719,-2.4640157,5.6948814,12.135197,20.784637,37.106346,-26.486712,-18.57181,-8.520741,7.8853283,21.043678,10.1886015,-41.095715,26.03684,-17.690954,-3.4611084,3.3648217,-16.609737
165,-1.909109354019165,183.35568237304688,74.00211334228516,-4.861839100167706,-2.5810684737371226,90.92275753691868,-5.786018,12.9779625,2.0942535,88.02033,-12.233304,-4.1234946,-17.127165,4.138849,-9.79192,42.08134,-20.949192,-2.031568,-2.006553,5.8873634,11.773595,21.915886,36.73873,-26.139801,-17.514084,-9.217838,7.8862796,21.701841,8.598045,-41.153675,26.621775,-17.808788,-4.1191206,3.388848,-16.36041
166,-1.8940426111221313,184.50814819335938,73.91445922851562,-5.0154355269117525,-2.302648050761484,91.12019821814528,-7.9185023,13.023687,1.3920746,89.31025,-13.143537,-4.338455,-16.44245,4.268076,-9.956767,42.383835,-22.140303,-1.9695699,-1.6570117,6.074316,11.389928,23.136143,36.383396,-25.726824,-16.650843,-10.116815,7.750438,22.30691,7.1611595,-41.103592,27.012152,-18.087578,-5.030062,3.3771486,-15.659787
167,-1.8964629173278809,185.64210510253906,73.86972045898438,-5.1323384507175245,-2.085252373861266,91.36616422632864,-9.982257,12.969503,0.7169569,90.24374,-13.900367,-4.541384,-15.537882,4.355669,-10.123841,42.386997,-23.163143,-1.8806617,-1.3310857,6.2208533,11.042409,24.379438,36.062714,-25.293344,-16.035566,-11.104789,7.5463915,22.801197,5.874189,-40.962852,27.286703,-18.533762,-5.9315634,3.3098357,-14.788974
168,-1.9114526510238647,186.7646484375,73.88282012939453,-5.1755820011080935,-1.987845472673357,91.56183929944655,-11.8213825,12.842123,0.23128529,90.74397,-14.587542,-4.596101,-14.400852,4.416284,-10.198842,42.127914,-24.000189,-1.7709974,-0.93890494,6.29531,10.795715,25.580019,35.808186,-24.887705,-15.731921,-12.073058,7.3469334,23.132421,4.665676,-40.763687,27.527317,-19.108665,-6.516762,3.1839602,-14.03048
169,-1.9327369928359985,187.87734985351562,73.94754028320312,-5.129238614442416,-2.0754495910574176,91.7057542618825,-13.383412,12.605883,-0.058603905,90.79835,-15.217271,-4.415198,-12.953038,4.4342275,-10.171113,41.583233,-24.669691,-1.6275626,-0.48592338,6.291386,10.733671,26.764568,35.644653,-24.49189,-15.858558,-13.091792,7.155829,23.288656,3.561905,-40.52066,27.691223,-19.904367,-6.688223,2.975827,-13.393652
170,-1.9527504444122314,188.98422241210938,74.0676498413086,-5.016510788885481,-2.3010756245861184,91.84256130151942,-14.751659,12.2692585,-0.22504565,90.44454,-15.749256,-4.091776,-11.224503,4.403201,-10.087632,40.742367,-25.172392,-1.4490886,-0.007939642,6.228487,10.81092,27.984327,35.579586,-24.07653,-16.390446,-14.1968,6.946165,23.298964,2.5615785,-40.237957,27.754993,-20.900639,-6.586792,2.7017317,-12.754131
171,-1.9691439867019653,190.0937957763672,74.24107360839844,-4.85897509214681,-2.5558172436503153,91.94278908080042,-15.973073,11.934397,-0.22476946,89.67675,-16.18822,-3.7587173,-9.364595,4.348944,-9.937855,39.662037,-25.465044,-1.2597042,0.52443916,6.113711,10.897586,29.215343,35.61024,-23.660233,-17.17099,-15.230814,6.7472205,23.174734,1.6887026,-39.93214,27.803125,-22.015238,-6.326783,2.4305007,-12.195709
172,-1.9812180995941162,191.2174072265625,74.47090148925781,-4.678255722913411,-2.7301986134334566,91.97721493219605,-17.09426,11.701791,-0.01264343,88.488625,-16.540083,-3.5505886,-7.5252995,4.2972984,-9.708888,38.40476,-25.507565,-1.0847838,1.1373638,5.952245,10.862934,30.425339,35.722942,-23.264608,-18.031485,-16.033295,6.586331,22.928236,0.9441869,-39.627476,27.92617,-23.145422,-6.011737,2.2286923,-11.802675
173,-2.0019168853759766,192.37335205078125,74.74734497070312,-4.464077484796992,-2.815160455259673,91.916168661508,-18.085207,11.592398,0.4706875,86.821144,-16.824602,-3.563909,-5.677357,4.2593327,-9.359373,36.887356,-25.276955,-0.93987453,1.8553909,5.7346497,10.682342,31.60831,35.912445,-22.905283,-18.966114,-16.536234,6.485362,22.516493,0.34054142,-39.3434,28.165012,-24.321232,-5.57431,2.1320198,-11.6789
174,-2.0236406326293945,193.54942321777344,75.05130767822266,-4.210309284199086,-2.8615363314863957,91.78271159866058,-18.921387,11.549898,1.1959746,84.68952,-17.036058,-3.717335,-3.7672603,4.211008,-8.906711,35.118584,-24.803806,-0.80699307,2.653142,5.463764,10.427906,32.779324,36.173866,-22.566591,-20.048029,-16.8309,6.427725,21.94767,-0.114944875,-39.085907,28.461365,-25.59853,-4.9864993,2.0987496,-11.755942
175,-2.0523953437805176,194.74542236328125,75.37252807617188,-3.9367243549455333,-2.850106282060902,91.62744781257284,-19.655088,11.551884,2.0771282,82.1937,-17.141459,-3.8838747,-1.9084557,4.1300654,-8.425693,33.29773,-24.129507,-0.66269743,3.4824986,5.159732,10.111436,33.919395,36.48627,-22.229557,-21.203844,-16.994553,6.3765326,21.311495,-0.42040637,-38.85853,28.752527,-26.916023,-4.4142356,2.078564,-11.858239
176,-2.089229106903076,195.9487762451172,75.70960235595703,-3.667029631845026,-2.7621031913890013,91.50143532062877,-20.339458,11.573757,3.0273142,79.43071,-17.110765,-3.9361084,-0.21333356,4.000872,-7.991897,31.619686,-23.292555,-0.4850634,4.294101,4.845197,9.740825,35.00689,36.817295,-21.876505,-22.3549,-17.097832,6.295832,20.69715,-0.58043426,-38.66255,28.980587,-28.207186,-4.0237117,2.0249448,-11.809053
177,-2.1423795223236084,197.15884399414062,76.05055236816406,-3.3986937439028946,-2.580799099130354,91.42169407861718,-20.99593,11.6281395,4.085523,76.3932,-16.910538,-3.8650293,1.3190005,3.8237894,-7.6127253,30.049501,-22.267622,-0.2581517,5.079449,4.5189676,9.2941065,36.009853,37.14972,-21.516472,-23.470203,-17.111216,6.1721125,20.08697,-0.58022267,-38.50439,29.139788,-29.47838,-3.8366318,1.9299321,-11.57972
178,-2.195342540740967,198.37001037597656,76.39964294433594,-3.121432866086474,-2.3204922615932637,91.36171317127278,-21.57472,11.6933,5.2963324,73.02865,-16.569828,-3.751407,2.733973,3.6105816,-7.2507014,28.517904,-21.048414,0.0012704844,5.858262,4.172023,8.774769,36.92384,37.480503,-21.162384,-24.566477,-17.006739,6.0227485,19.44479,-0.42599234,-38.39135,29.25937,-30.758266,-3.7693794,1.8178774,-11.257068
179,-2.2611889839172363,199.5804443359375,76.7500228881836,-2.848201090652557,-2.009381359910153,91.30733365015989,-22.036448,11.70258,6.571079,69.37229,-16.156126,-3.5930772,3.984377,3.3671896,-6.916494,27.175228,-19.706093,0.2632547,6.623291,3.8173301,8.225981,37.775486,37.79352,-20.802353,-25.636585,-16.849731,5.859114,18.832815,-0.1458708,-38.32076,29.335955,-32.01642,-3.8362503,1.6922226,-10.838516
180,-2.3445382118225098,200.7965545654297,77.09049224853516,-2.5949639177838018,-1.6754630224864797,91.24479593223562,-22.355602,11.604935,7.805671,65.46059,-15.7372465,-3.3773217,5.025333,3.1004279,-6.621152,26.171495,-18.312746,0.49699745,7.363273,3.4727259,7.688155,38.577923,38.06562,-20.427649,-26.660776,-16.708366,5.6945624,18.311361,0.2275618,-38.28301,29.374084,-33.220894,-4.05659,1.555419,-10.320916
181,-2.4354641437530518,202.00865173339844,77.43392944335938,-2.3451139506751306,-1.300112757115094,91.16168225016654,-22.530762,11.425366,9.049547,61.212376,-15.351963,-2.9781,5.8255334,2.7939208,-6.3480515,25.533348,-16.857023,0.7160742,8.087361,3.1243918,7.144434,39.322845,38.277752,-20.043087,-27.620522,-16.552952,5.5306773,17.900887,0.6906759,-38.271908,29.374409,-34.352295,-4.5022254,1.3814335,-9.647604
182,-2.5341386795043945,203.2352752685547,77.77234649658203,-2.098409949357606,-0.8762006698530423,91.06893514427482,-22.573181,11.165428,10.332447,56.625042,-14.96136,-2.4490526,6.424014,2.4532943,-6.0940204,25.172756,-15.307936,0.93262696,8.786859,2.7701435,6.5788355,39.98864,38.42419,-19.657848,-28.505234,-16.3572,5.361524,17.56448,1.2374959,-38.28573,29.351183,-35.41405,-5.1397634,1.1712914,-8.839751
183,-2.636392116546631,204.45578002929688,78.09800720214844,-1.8823550779933484,-0.4498553108265729,90.9839128686956,-22.482967,10.769886,11.503434,51.831474,-14.498978,-2.0201476,6.8748446,2.1152751,-5.890986,25.080418,-13.704265,1.1158541,9.428382,2.4444332,6.0296106,40.58855,38.503124,-19.266766,-29.320911,-16.18484,5.191472,17.276875,1.8234338,-38.320194,29.334658,-36.385376,-5.8341365,0.9708491,-8.008574
184,-2.7482564449310303,205.68678283691406,78.39828491210938,-1.7320534355557762,-0.06840490638324741,90.92198920680872,-22.265457,10.212719,12.396061,46.958252,-13.881115,-1.8988082,7.2354903,1.8200626,-5.773002,25.237644,-12.078255,1.2325833,9.980588,2.1855304,5.533981,41.149826,38.51415,-18.859797,-30.084898,-16.095625,5.025082,17.012934,2.3994496,-38.367992,29.357513,-37.24332,-6.4513826,0.8320253,-7.2638288
185,-2.8663034439086914,206.9113311767578,78.66513061523438,-1.6626308165591752,0.27232831714616296,90.87867387852674,-21.894125,9.484729,12.928243,41.823856,-13.040666,-2.1071143,7.528346,1.5848733,-5.7773857,25.595783,-10.388418,1.2947813,10.441309,2.0123808,5.0776267,41.687325,38.454685,-18.4195,-30.791044,-16.125757,4.8540406,16.759773,2.9599922,-38.423462,29.440702,-37.978264,-7.0517898,0.77543956,-6.598025
186,-2.991577625274658,208.1386260986328,78.9084701538086,-1.6621916984815988,0.5891305739920027,90.84269562694668,-21.358074,8.660765,13.167712,36.376358,-12.008458,-2.4988642,7.735211,1.400135,-5.8753304,26.150229,-8.614551,1.3205094,10.82542,1.9125489,4.6452312,42.19535,38.321804,-17.949997,-31.440786,-16.232302,4.680629,16.53132,3.513561,-38.482544,29.575186,-38.590137,-7.678577,0.77210224,-5.962986
187,-3.1175127029418945,209.3665313720703,79.11791229248047,-1.722850975934507,0.8524096068512779,90.81569717689665,-20.679773,7.8444667,13.176291,30.9299,-10.842443,-3.031251,7.8581705,1.2684523,-6.0039015,26.940493,-6.8180585,1.2793325,11.129904,1.8815223,4.273296,42.645607,38.1198,-17.473011,-32.045033,-16.373247,4.5256824,16.342098,4.0271187,-38.542183,29.751144,-39.06318,-8.174405,0.8075809,-5.4038806
188,-3.2326624393463135,210.58883666992188,79.29676818847656,-1.8356212532668,1.0325021060470794,90.8009436879994,-19.898287,7.117188,13.028466,25.830137,-9.607885,-3.685458,7.8981214,1.1927499,-6.1042767,28.006262,-5.0592484,1.1345946,11.353006,1.917202,3.9987967,43.006363,37.857635,-17.01171,-32.612682,-16.510632,4.4094834,16.207827,4.471021,-38.598965,29.954678,-39.385994,-8.380205,0.8707769,-4.9669366
189,-3.3350348472595215,211.792724609375,79.4340591430664,-2.033914104730119,1.1219884108104854,90.79691174003032,-18.979836,6.4848685,12.684305,20.97966,-8.207091,-4.6318398,7.861421,1.1946416,-6.2155313,29.339369,-3.2948878,0.8456632,11.504575,2.05161,3.8251355,43.29116,37.536236,-16.566336,-33.16041,-16.66283,4.3418694,16.165419,4.845135,-38.652412,30.183855,-39.556637,-8.241778,0.9936579,-4.6504874
190,-3.4509739875793457,212.99005126953125,79.53201293945312,-2.3555041129175804,1.1260216448291525,90.79191623140082,-17.896303,5.974112,12.106816,16.228052,-6.6342487,-5.831091,7.7791924,1.3166263,-6.359148,30.866531,-1.4787172,0.42592463,11.59583,2.3255203,3.7351844,43.512077,37.156048,-16.127125,-33.685555,-16.842888,4.310869,16.197084,5.165153,-38.704216,30.442118,-39.58205,-7.8486867,1.1758626,-4.4332576
191,-3.5514025688171387,214.17665100097656,79.5958480834961,-2.763119699303766,1.0454944070413505,90.78713708487685,-16.762533,5.63156,11.404556,11.949785,-5.1305695,-6.965359,7.6491547,1.5447371,-6.4579635,32.593464,0.305357,-0.075962394,11.618155,2.7068238,3.732762,43.649063,36.729607,-15.702968,-34.179375,-16.996391,4.3028994,16.23813,5.4305954,-38.75288,30.71948,-39.475025,-7.256775,1.3573723,-4.333827
192,-3.6528494358062744,215.34707641601562,79.62516021728516,-3.1465585717117057,0.8998290752715344,90.80283665201696,-15.703384,5.3956347,10.719542,8.498764,-3.91673,-7.709084,7.428014,1.7822378,-6.4365835,34.583786,1.9364343,-0.59193164,11.547734,3.0839097,3.820169,43.668156,36.278194,-15.305089,-34.624306,-17.073877,4.3035955,16.224606,5.6403174,-38.790897,31.003819,-39.243416,-6.5199704,1.4750017,-4.3714485
193,-3.7477805614471436,216.4998779296875,79.62545776367188,-3.40985909344969,0.7181702732372381,90.87053928893367,-15.230838,5.232894,10.0478735,6.9585986,-3.5483031,-7.8590064,7.014103,1.9259151,-6.2546043,37.011402,3.3083012,-1.2035875,11.361332,3.345783,3.9950676,43.555122,35.811882,-14.930078,-35.00361,-17.074791,4.3092585,16.138033,5.796615,-38.80518,31.297226,-38.86703,-5.433385,1.4744949,-4.6219296
194,-3.8315508365631104,217.63623046875,79.58769226074219,-3.5557002174034906,0.5032435736158416,90.99404857149294,-15.187768,5.0613494,9.355156,6.8965178,-3.780428,-7.623366,6.4217334,1.9611741,-5.9683,39.83801,4.48311,-1.9010142,11.059365,3.4896417,4.2530794,43.320522,35.333855,-14.574549,-35.323044,-17.02704,4.325633,16.015722,5.891324,-38.78647,31.605497,-38.334015,-4.041667,1.3913922,-5.0497456
195,-3.912790536880493,218.7664337158203,79.50962829589844,-3.6048413361703933,0.23853529372051646,91.1527813833832,-14.920641,4.781642,8.717344,6.8793707,-3.8889434,-7.2910695,5.765496,1.9081074,-5.630641,42.84652,5.570357,-2.465192,10.655618,3.543841,4.5935493,42.96231,34.861176,-14.249732,-35.588757,-16.928066,4.3525796,15.878386,5.9173975,-38.73223,31.918554,-37.671997,-2.7785127,1.3033551,-5.5082045
196,-3.9872798919677734,219.89639282226562,79.3762435913086,-3.5872198626044263,-0.09509784965205045,91.32225602353128,-14.429682,4.4313803,8.1449795,6.8842173,-3.893235,-7.1521435,5.1545925,1.7998538,-5.2882013,45.84191,6.6664014,-2.6718106,10.1741,3.5457678,5.017253,42.48024,34.42063,-13.968403,-35.816277,-16.778465,4.389269,15.7486515,5.8849998,-38.64514,32.213795,-36.9208,-2.074978,1.3003603,-5.8557687
197,-4.054051876068115,221.00991821289062,79.18946838378906,-3.587022773295173,-0.5275178416601819,91.49041429628795,-13.651699,4.0971756,7.6148605,6.9104238,-3.798908,-7.592453,4.6161323,1.8154161,-4.842413,48.81214,7.907855,-2.4021647,9.631896,3.5789773,5.532708,41.899117,34.03228,-13.725682,-36.03854,-16.562452,4.4415517,15.626048,5.8194504,-38.5309,32.47663,-36.100544,-2.110053,1.3970692,-6.076486
198,-4.1280670166015625,222.10455322265625,78.95056915283203,-3.5665600896344674,-1.0414442784377247,91.67072197847342,-12.607429,3.7441635,7.1269364,6.9712553,-3.6005085,-8.357342,4.0864744,1.9080935,-4.2866387,51.88091,9.180325,-1.7685598,9.02773,3.5929968,6.1365247,41.213757,33.702744,-13.521061,-36.247967,-16.293467,4.5056624,15.506084,5.7362323,-38.389725,32.700413,-35.206276,-2.6324496,1.5546564,-6.238858
199,-4.1960225105285645,223.1974334716797,78.66029357910156,-3.3884481910011517,-1.5899446173647447,91.87621678893188,-12.117403,3.3154948,6.6717253,8.554231,-4.084853,-8.7796335,3.5548704,1.7744863,-3.8054123,55.03091,10.218186,-0.915491,8.361215,3.4410703,6.807409,40.379383,33.43911,-13.375194,-36.40009,-16.016273,4.567077,15.407189,5.624182,-38.216972,32.87192,-34.23299,-3.422109,1.7880949,-6.328459
200,-4.280313014984131,224.2714385986328,78.3924789428711,-2.936692665618386,-2.135251520557219,92.11041431694761,-11.917712,2.6381905,6.309844,10.845148,-4.813186,-8.198367,3.028244,1.1008995,-3.582396,58.21792,10.779684,-0.030828647,7.643589,2.9995306,7.5219803,39.354115,33.24878,-13.310101,-36.4516,-15.774997,4.611668,15.348689,5.4806685,-38.00384,32.975456,-33.18426,-4.2630086,2.110304,-6.330353
201,-4.342064380645752,225.32382202148438,78.10084533691406,-2.1273424341703313,-2.7197418233343664,92.39144212858201,-12.013974,1.6244276,6.0242977,13.949303,-5.6230283,-5.961025,2.6139052,-0.33229527,-3.741985,61.433315,10.842271,0.9478397,6.8632874,2.1795626,8.318941,38.118946,33.14037,-13.335785,-36.3938,-15.582829,4.6226897,15.346109,5.2999144,-37.74044,33.00633,-32.063274,-5.2287836,2.5827868,-6.170146
202,-4.387208461761475,226.3722381591797,77.74566650390625,-1.1308231992776314,-3.3723853640841983,92.68616990074433,-12.254592,0.42520598,5.8353524,17.632698,-6.416785,-2.6032631,2.324468,-2.2606647,-4.1611385,64.65447,10.559839,2.017403,6.0536294,1.1504471,9.185319,36.717472,33.11675,-13.443669,-36.271305,-15.418335,4.612787,15.3908825,5.096884,-37.427547,32.962452,-30.868324,-6.397854,3.174921,-5.866565
203,-4.431088447570801,227.42039489746094,77.35448455810547,-0.14164645281353297,-4.018006108787725,92.93658381706196,-12.46838,-0.77995014,5.797581,21.260063,-7.256603,0.7775603,1.9960302,-4.3585763,-4.648949,67.83412,9.939332,2.895672,5.2777357,0.11201395,10.019312,35.18855,33.172752,-13.626349,-36.109756,-15.274541,4.6110396,15.464299,4.8946486,-37.077614,32.83543,-29.590187,-7.5574718,3.7634537,-5.5532594
204,-4.482194423675537,228.45420837402344,76.93474578857422,0.733852615591761,-4.559077571830067,93.10528745906007,-12.541807,-1.880811,5.898899,24.332264,-8.355592,3.1174684,1.4201167,-6.380143,-4.9891667,70.96375,8.949698,3.3457716,4.579589,-0.8256413,10.723005,33.54901,33.29789,-13.877213,-35.910236,-15.143794,4.6455855,15.5456295,4.7101254,-36.708424,32.61842,-28.216917,-8.485391,4.2314043,-5.376933
205,-4.554381847381592,229.4748077392578,76.45528411865234,1.5926162413537555,-4.997361353368039,93.1573889852226,-12.510962,-2.9267602,6.1869907,26.991545,-10.071947,4.033829,0.5312921,-8.468986,-5.113971,74.19223,7.385081,3.30452,3.9827697,-1.748571,11.317441,31.776215,33.481018,-14.175471,-35.648464,-15.002747,4.715968,15.576973,4.4978256,-36.333973,32.2995,-26.730658,-9.134984,4.5385313,-5.3233194
206,-4.637083530426025,230.4853973388672,75.94900512695312,2.5192316492470237,-5.355760312933974,93.13766045737758,-12.499725,-3.9444468,6.6139545,29.633587,-12.340408,4.1589236,-0.5931344,-10.746105,-5.092235,77.49421,5.303112,2.9411025,3.44946,-2.7427227,11.836635,29.850409,33.715862,-14.531507,-35.317852,-14.8606415,4.808411,15.584263,4.278196,-35.957756,31.87993,-25.16311,-9.614531,4.752507,-5.344675
207,-4.724480152130127,231.48643493652344,75.48553466796875,3.3993127815884074,-5.567733682605165,93.13436220805104,-12.552466,-4.822,7.0133843,32.182793,-14.775421,3.949724,-1.9686692,-12.912886,-4.9209175,80.61398,3.0602658,2.3767664,2.9212644,-3.7001433,12.206408,27.78809,33.999466,-14.989206,-34.945366,-14.760613,4.9317045,15.672834,4.159612,-35.581253,31.375837,-23.57015,-9.931395,4.9236093,-5.539856
208,-4.805613994598389,232.49546813964844,75.07257080078125,4.090196688743289,-5.574889276889437,93.23298653147857,-12.661421,-5.5093393,7.22375,34.396584,-16.927565,3.8499815,-3.601386,-14.645617,-4.6361885,83.29463,1.0259438,1.7129606,2.3358178,-4.4835563,12.356609,25.60795,34.330364,-15.598388,-34.55749,-14.748109,5.0949984,15.950144,4.256728,-35.206467,30.802164,-22.014067,-10.095071,5.102314,-6.004415
209,-4.867762088775635,233.53622436523438,74.71866607666016,4.520563376617029,-5.274515013930937,93.5032389192008,-12.911512,-6.0314145,7.1908526,36.140205,-18.67083,3.9215076,-5.6338573,-15.781928,-4.2400064,85.51927,-0.685319,0.83722764,1.6283442,-4.999436,12.192507,23.202019,34.72841,-16.49141,-34.080624,-14.922364,5.3463597,16.56952,4.612614,-34.82446,30.141653,-20.415913,-10.034774,5.267939,-6.929757
210,-4.924436569213867,234.5924072265625,74.4367904663086,4.768232249838578,-4.729089720640992,93.88582191247133,-13.270631,-6.4389105,7.034264,37.521755,-20.221373,3.9376688,-8.021029,-16.476109,-3.7361913,87.408714,-2.2605107,-0.250159,0.8586344,-5.3183475,11.785421,20.581118,35.186573,-17.629974,-33.538517,-15.244764,5.659199,17.44848,5.1869655,-34.433754,29.366762,-18.787155,-9.769791,5.3972836,-8.2063675
211,-4.976397514343262,235.65728759765625,74.19925689697266,4.912565700161152,-4.1315399897249945,94.26866921534115,-13.531796,-6.7534733,6.8400636,38.594566,-21.623543,3.908216,-10.478698,-16.889694,-3.1997287,88.920395,-3.7810166,-1.3019962,0.123684846,-5.5396347,11.319244,17.974749,35.64864,-18.779463,-33.113426,-15.539456,5.9385643,18.32087,5.9336767,-34.05666,28.513823,-17.313648,-9.438657,5.5418015,-9.482225
212,-5.029382705688477,236.72650146484375,73.99262237548828,5.029057989000212,-3.6746028022925437,94.54019878999044,-13.4877825,-6.9873266,6.686524,39.41639,-22.925234,3.843191,-12.720027,-17.209358,-2.7023766,90.00855,-5.339507,-2.0767806,-0.5119772,-5.7637405,10.973696,15.636189,36.041927,-19.675455,-32.970783,-15.603375,6.102364,18.893682,6.7742186,-33.73062,27.661266,-16.173992,-9.175426,5.7642417,-10.413152
213,-5.082531452178955,237.78233337402344,73.8191146850586,5.120829509106434,-3.390710033467057,94.6520932437404,-13.094976,-7.111769,6.607872,40.00597,-24.162176,3.7264771,-14.731001,-17.425978,-2.208506,90.67762,-6.9940114,-2.4907713,-1.0536047,-5.9937167,10.784984,13.624243,36.321228,-20.230087,-33.10763,-15.3306265,6.1253133,19.045746,7.695094,-33.480946,26.834406,-15.39649,-9.041202,6.1738033,-10.939794
214,-5.13094425201416,238.84027099609375,73.69947814941406,5.150599895604022,-3.183787939115071,94.66918595820168,-12.4542885,-7.1297207,6.5581274,40.326702,-25.301361,3.5645723,-16.634052,-17.475727,-1.7245935,90.94294,-8.681828,-2.6870668,-1.56614,-6.1636868,10.661444,11.807314,36.48292,-20.573885,-33.408314,-14.81904,6.0593843,18.919525,8.704196,-33.316025,26.031187,-14.892995,-8.944466,6.7139297,-11.246446
215,-5.179588794708252,239.90223693847656,73.63440704345703,5.128059521721348,-3.052791762194835,94.65008918765119,-11.571667,-7.0932627,6.4885683,40.346966,-26.281128,3.3961103,-18.352139,-17.461199,-1.3808882,90.77607,-10.32133,-2.7675693,-2.0686767,-6.2783713,10.584788,10.128519,36.529156,-20.778715,-33.84387,-14.167447,5.9407835,18.615742,9.761119,-33.25062,25.28423,-14.668764,-8.789814,7.2072263,-11.353849
216,-5.216962814331055,240.9761199951172,73.63497161865234,5.0604083413335985,-2.996294262264627,94.653828251667,-10.455163,-7.047667,6.3464,40.0374,-27.038967,3.2545815,-19.808962,-17.487854,-1.2996097,90.148834,-11.833476,-2.8269346,-2.587208,-6.3450475,10.539631,8.562916,36.466057,-20.886526,-34.41572,-13.473216,5.8067575,18.23366,10.8249235,-33.302837,24.635578,-14.732437,-8.479862,7.475757,-11.284436
217,-5.259891033172607,242.05471801757812,73.69925689697266,4.944352648144303,-3.070775454052804,94.6724227970815,-9.015114,-6.989489,6.1196527,39.342384,-27.570345,3.1537638,-20.932304,-17.579794,-1.5202658,89.0262,-13.237406,-2.842942,-3.0959117,-6.378626,10.586773,7.1132107,36.277634,-20.83122,-35.191032,-12.694618,5.6457424,17.729336,11.921099,-33.49646,24.092026,-15.18969,-7.9317703,7.453557,-11.002565
218,-5.307003974914551,243.13714599609375,73.82593536376953,4.776777030328757,-3.2578296554587634,94.68213519613718,-7.279554,-6.8841333,5.831987,38.295246,-27.904713,3.0644886,-21.768438,-17.681479,-1.9875051,87.42539,-14.562449,-2.7667265,-3.5912907,-6.367093,10.71508,5.773766,35.957664,-20.613876,-36.130062,-11.7989645,5.4369354,17.073856,13.085034,-33.84055,23.622759,-16.023724,-7.2072167,7.249737,-10.5084915
219,-5.360888481140137,244.22276306152344,74.00139617919922,4.563114388528367,-3.4427180184434123,94.71792914355629,-5.433796,-6.729755,5.483362,37.00129,-28.030682,2.9540641,-22.419165,-17.771338,-2.6753383,85.39994,-15.749652,-2.6472738,-4.1247554,-6.280221,10.80305,4.5211377,35.542973,-20.369825,-37.096157,-10.901449,5.2104025,16.390886,14.289119,-34.31934,23.210514,-17.053032,-6.427045,6.946192,-9.875412
220,-5.419633865356445,245.32969665527344,74.22681427001953,4.310741177997265,-3.5106385627244987,94.81449346432538,-3.6645033,-6.5295305,5.0746555,35.569424,-27.938942,2.7958333,-22.9865,-17.829151,-3.555675,83.00082,-16.741747,-2.5360637,-4.738006,-6.094026,10.731859,3.3474765,35.09829,-20.234747,-37.973576,-10.125266,5.0025907,15.808214,15.500808,-34.89789,22.830788,-18.086294,-5.7202983,6.619475,-9.176653
221,-5.477367877960205,246.4636993408203,74.49059295654297,4.001976290241875,-3.421125193815228,95.00575130477155,-1.990686,-6.279979,4.558263,33.935116,-27.626402,2.58874,-23.466335,-17.893614,-4.7345476,80.174225,-17.57368,-2.4197116,-5.4565744,-5.7930465,10.457066,2.274109,34.671345,-20.220167,-38.818455,-9.4871,4.8403554,15.373505,16.703466,-35.55491,22.489594,-19.107277,-5.0884066,6.2379847,-8.3635025
222,-5.527246952056885,247.61801147460938,74.77859497070312,3.638625816273092,-3.236797220381508,95.26323214386133,-0.33048382,-5.976226,3.9535203,32.078526,-27.101904,2.3425417,-23.795788,-17.938326,-6.2035794,76.90483,-18.260042,-2.2559552,-6.2399435,-5.404318,10.056315,1.3350725,34.275707,-20.248627,-39.715927,-8.942737,4.701118,15.0270815,17.912495,-36.279892,22.187979,-20.19612,-4.4797297,5.7797313,-7.4112644
223,-5.562538146972656,248.79209899902344,75.08293914794922,3.2654936616863015,-2.997704823155486,95.52675282831301,1.2875953,-5.63085,3.3588948,30.168753,-26.370903,2.0546126,-23.999073,-17.858337,-7.750229,73.298416,-18.716576,-2.0711257,-7.032412,-4.9688635,9.592179,0.563745,33.927387,-20.31765,-40.612938,-8.521503,4.552015,14.734942,19.119946,-37.04409,21.899483,-21.275475,-3.9437172,5.322079,-6.436035
224,-5.586582660675049,249.98220825195312,75.40357971191406,2.924790760994073,-2.745201019929674,95.73763276499426,2.838436,-5.264205,2.8706617,28.372814,-25.437082,1.7259017,-24.11596,-17.570345,-9.144352,69.461945,-18.863886,-1.9122456,-7.774315,-4.5351725,9.122498,-0.02470115,33.64262,-20.438381,-41.441128,-8.255267,4.359962,14.46556,20.325474,-37.804214,21.591595,-22.269629,-3.5431406,4.9369364,-5.554343
225,-5.598639965057373,251.1900634765625,75.73772430419922,2.623825093764654,-2.483283579356256,95.87515388593805,4.3655124,-4.877766,2.5144804,26.634981,-24.254982,1.3525157,-24.160475,-17.100992,-10.368689,65.3738,-18.66501,-1.901318,-8.451701,-4.118884,8.635801,-0.4103311,33.439865,-20.628218,-42.186527,-8.17338,4.098933,14.241484,21.492876,-38.530518,21.285002,-23.112879,-3.3767238,4.619961,-4.750243
226,-5.608739376068115,252.41339111328125,76.07487487792969,2.343616483475747,-2.193590755759689,95.97128704151177,5.863651,-4.475235,2.2361865,24.906364,-22.839428,0.93989384,-24.116278,-16.486078,-11.515035,60.991707,-18.1788,-1.9894048,-9.0925865,-3.7088492,8.105994,-0.59667337,33.32991,-20.875515,-42.893284,-8.257225,3.7951689,14.07286,22.596449,-39.212303,21.005487,-23.82017,-3.3988092,4.3317504,-3.9744575
227,-5.6177077293396,253.6459197998047,76.41422271728516,2.0966884741488783,-1.8858446774996227,96.04718631759673,7.248222,-4.0834517,2.0060158,23.346527,-21.283125,0.5064693,-23.99295,-15.693951,-12.4955435,56.386524,-17.467848,-2.0003693,-9.702109,-3.3185875,7.565538,-0.60873175,33.312172,-21.153652,-43.576897,-8.462213,3.493581,13.909181,23.656061,-39.83724,20.72548,-24.42978,-3.4627707,4.091116,-3.2928705
228,-5.616430759429932,254.89096069335938,76.74591064453125,1.8929817631607724,-1.569638562663517,96.12604084655517,8.434966,-3.7274172,1.791761,22.119513,-19.675722,0.07008487,-23.79819,-14.715899,-13.211028,51.61054,-16.588274,-1.7751019,-10.282941,-2.9604285,7.0468173,-0.48612753,33.378754,-21.444628,-44.239563,-8.743209,3.2392285,13.699125,24.69228,-40.393833,20.412075,-24.978745,-3.4179916,3.9210262,-2.769204
229,-5.617520809173584,256.1429443359375,77.06785583496094,1.7350543643508944,-1.235424442879921,96.22392126322815,9.423487,-3.4089844,1.5826983,21.211048,-17.989222,-0.39612547,-23.520424,-13.533332,-13.552725,46.503353,-15.471865,-1.3416641,-10.848707,-2.6346993,6.541977,-0.22714922,33.529247,-21.765375,-44.878983,-9.157478,3.0155094,13.428235,25.717312,-40.875217,20.06877,-25.466526,-3.2180977,3.851152,-2.4394522
230,-5.613739967346191,257.39019775390625,77.37379455566406,1.621315268150215,-0.8840217093051354,96.32880527702324,10.263729,-3.125629,1.3843551,20.54066,-16.189432,-0.89531887,-23.144278,-12.2305975,-13.557166,41.06124,-14.120661,-0.81832975,-11.393448,-2.341236,6.0369334,0.17288162,33.766857,-22.122942,-45.482586,-9.704996,2.8107865,13.122326,26.709087,-41.279137,19.715004,-25.866161,-2.9502344,3.8616457,-2.260592
231,-5.604799747467041,258.6378479003906,77.65877532958984,1.5602738411341057,-0.5417390546201596,96.4249921060894,10.953794,-2.8945098,1.1898386,20.157991,-14.348917,-1.3779762,-22.671265,-10.948803,-13.3518,35.56036,-12.6740265,-0.17529622,-11.894709,-2.0928652,5.554325,0.67960346,34.08326,-22.485931,-46.035725,-10.249685,2.6766677,12.791042,27.650515,-41.60332,19.33926,-26.188583,-2.6692789,3.9033496,-2.1777656
232,-5.5937275886535645,259.8871154785156,77.91651153564453,1.5619488816482539,-0.2360912611156125,96.49981269496786,11.492607,-2.7359095,0.99432546,20.108515,-12.533912,-1.7938296,-22.103973,-9.796232,-13.08546,30.26038,-11.252533,0.64463556,-12.332547,-1.9051757,5.116576,1.2551812,34.462337,-22.82652,-46.517864,-10.652973,2.6630125,12.44383,28.541138,-41.845856,18.924603,-26.459635,-2.4347632,3.9273765,-2.136233
233,-5.586062908172607,261.1333312988281,78.15118408203125,1.6630649510297435,0.034876124617825556,96.56511096930508,11.89848,-2.693306,0.7891837,20.338503,-10.699303,-2.1487725,-21.386816,-8.76471,-12.761098,24.960844,-9.763792,1.8424857,-12.714889,-1.8099093,4.706044,1.877004,34.90154,-23.160679,-46.914284,-10.886479,2.8150966,12.067401,29.422976,-42.001255,18.448868,-26.688446,-2.2451048,3.9242969,-2.1488774
234,-5.571465492248535,262.379638671875,78.35285949707031,1.8935771853656653,0.2670605149736074,96.64632133010163,12.21664,-2.8066204,0.5598832,20.765074,-8.784446,-2.472448,-20.465027,-7.880665,-12.303131,19.479519,-8.1407175,3.324468,-13.065409,-1.8443433,4.3184876,2.5527153,35.40256,-23.505478,-47.224422,-11.016464,3.0957386,11.660521,30.280167,-42.068687,17.92535,-26.858969,-2.0692456,3.919401,-2.23375
235,-5.5492844581604,263.6202087402344,78.50997161865234,2.248940381428867,0.4276663240256937,96.74459145815084,12.473916,-3.0808716,0.30452573,21.404682,-6.835698,-2.742149,-19.41858,-7.2522383,-11.774129,14.239358,-6.5687623,4.744674,-13.387058,-2.0240598,3.9925177,3.294111,35.948986,-23.829292,-47.454525,-11.045601,3.4295805,11.247303,31.066349,-42.05709,17.38653,-26.995018,-1.9438747,3.916495,-2.3456218
236,-5.532026290893555,264.8492126464844,78.63008117675781,2.651857688126169,0.5073344789839771,96.8312215650213,12.633568,-3.4331894,0.05295996,22.363506,-4.946969,-2.93694,-18.37754,-6.861707,-11.274084,9.718129,-5.238772,5.7687125,-13.65694,-2.2825692,3.761035,4.108979,36.51005,-24.100107,-47.602215,-10.975801,3.7404482,10.849062,31.718494,-41.98368,16.87216,-27.099928,-1.9014041,3.9189434,-2.4419377
237,-5.529475688934326,266.0638427734375,78.73007202148438,2.9901430882761404,0.5477827641107179,96.86366701260425,12.580779,-3.7344983,-0.14899997,23.794308,-3.1779437,-3.0315013,-17.885641,-6.6136613,-10.759806,6.9966555,-4.6987586,6.2793655,-13.842644,-2.4899948,3.6079593,4.9950104,37.055798,-24.315142,-47.631054,-10.738731,4.0213304,10.440914,32.216827,-41.858513,16.382557,-27.153894,-1.9538809,3.9290333,-2.5186548
238,-5.523029804229736,267.2626953125,78.80924224853516,3.2458322427478556,0.5683645876638337,96.83508216461324,12.301218,-3.9574192,-0.28682834,25.685286,-1.510356,-3.0493133,-18.385054,-6.492471,-10.176425,6.8757887,-5.385295,6.4815454,-13.932912,-2.6161711,3.5137317,5.916564,37.57162,-24.506054,-47.5104,-10.349748,4.306114,10.013837,32.584167,-41.686146,15.906318,-27.14479,-2.0780346,3.9443605,-2.5999782
239,-5.527065753936768,268.45220947265625,78.85157012939453,3.423191699845932,0.5452427968727412,96.74835913920796,11.866698,-4.099673,-0.35903564,27.952496,0.044085667,-3.0461502,-18.653036,-6.290873,-9.75654,6.8056507,-5.9151793,6.5251627,-13.912299,-2.6779826,3.5047822,6.825779,38.04703,-24.695358,-47.244255,-9.939832,4.581044,9.615723,32.816185,-41.480305,15.46233,-27.084557,-2.2524383,3.9607992,-2.6854706
