unveil-humanoid-operators/unveil-humanoid-operators.github.io/feature-analysis-animation/data/feature_matrix_instances/age_waist_rom_jogging_A072_jog_arc_cw_loop_003__A072.csv
Frame,root_translateX,root_translateY,root_translateZ,root_rotateX,root_rotateY,root_rotateZ,left_hip_pitch_joint_dof,left_hip_roll_joint_dof,left_hip_yaw_joint_dof,left_knee_joint_dof,left_ankle_pitch_joint_dof,left_ankle_roll_joint_dof,right_hip_pitch_joint_dof,right_hip_roll_joint_dof,right_hip_yaw_joint_dof,right_knee_joint_dof,right_ankle_pitch_joint_dof,right_ankle_roll_joint_dof,waist_yaw_joint_dof,waist_roll_joint_dof,waist_pitch_joint_dof,left_shoulder_pitch_joint_dof,left_shoulder_roll_joint_dof,left_shoulder_yaw_joint_dof,left_elbow_joint_dof,left_wrist_roll_joint_dof,left_wrist_pitch_joint_dof,left_wrist_yaw_joint_dof,right_shoulder_pitch_joint_dof,right_shoulder_roll_joint_dof,right_shoulder_yaw_joint_dof,right_elbow_joint_dof,right_wrist_roll_joint_dof,right_wrist_pitch_joint_dof,right_wrist_yaw_joint_dof
0,-2.274087429046631,-1.5505013465881348,76.76194763183594,5.195684341361091,-2.791347381651804,24.762141191563288,-8.24145,3.6514616,3.7427628,8.562827,-9.199093,-10.930519,13.60142,1.8613763,8.836479,53.767197,-7.5473695,4.2689486,9.591616,2.4527395,12.563352,24.13392,30.204166,-27.866714,29.613817,1.0483028,-4.5226517,-5.312077,-10.344633,-25.373262,39.086037,31.766352,26.877474,6.6152134,8.013085
1,-1.5614464282989502,-0.8658896088600159,76.34246826171875,6.14014626300113,-3.050685630975358,24.26409081493407,-9.414728,2.629108,4.353788,13.258293,-9.671155,-10.730088,12.581344,-0.12308266,7.956364,57.293835,-9.106083,3.678755,9.249055,1.4274114,13.070773,23.138107,30.387192,-27.994144,29.403488,1.0704516,-4.560363,-5.543068,-10.013563,-25.348894,39.002247,31.776873,26.66355,6.6459303,7.7465525
2,-0.8973711133003235,-0.2143465280532837,75.87866973876953,7.042279322895974,-3.3173431095228327,23.73681112528898,-10.505761,1.7272176,4.97538,17.826614,-9.924674,-10.500974,11.636155,-2.1290133,7.1405272,60.793125,-10.658619,3.0795338,8.958624,0.4215576,13.563978,22.240917,30.64979,-28.090818,29.089754,1.0989794,-4.586908,-5.7834272,-9.715678,-25.266535,38.92556,31.821457,26.454533,6.680133,7.4866457
3,-0.23019546270370483,0.39373064041137695,75.38134002685547,7.837177051664638,-3.571002096672654,23.23143178649754,-11.478202,1.0334132,5.5810013,22.180618,-10.358133,-10.209461,10.680123,-3.995537,6.419885,64.194016,-12.175823,2.4023232,8.649041,-0.4907933,14.027808,21.318321,30.973482,-28.23817,28.735987,1.0531108,-4.6166735,-6.013664,-9.415036,-25.131517,38.803547,31.9522,26.201263,6.699317,7.2259135
4,0.46181514859199524,0.9659351706504822,74.89437103271484,8.485244839829958,-3.791495794910486,22.802092672104965,-12.23812,0.5604816,6.1611457,26.081644,-11.287769,-9.862491,9.62374,-5.5838714,5.824331,67.426796,-13.634369,1.5867654,8.267717,-1.2651302,14.443523,20.22353,31.354757,-28.54803,28.414722,0.8406115,-4.6627116,-6.2119,-9.065246,-24.935598,38.557762,32.230095,25.846876,6.68506,6.959056
5,1.1567096710205078,1.5090688467025757,74.41187286376953,8.997085730410578,-3.9724592534442786,22.52378915697769,-12.814257,0.24053268,6.707252,29.522882,-12.969365,-9.45854,8.421767,-6.8817606,5.3136854,70.546455,-15.077725,0.52403367,7.767622,-1.9242864,14.813961,18.853954,31.803408,-29.110613,28.204062,0.34456277,-4.728124,-6.351222,-8.649435,-24.666225,38.129913,32.670177,25.357725,6.6259284,6.7383714
6,1.863837480545044,2.044266939163208,73.9538345336914,9.41527599436894,-4.125190618720858,22.352118402902033,-13.266341,-0.026367586,7.2398233,32.629555,-15.178189,-9.032336,7.1159554,-7.969811,4.877533,73.58848,-16.518606,-0.7109706,7.1964626,-2.5145996,15.146926,17.28162,32.31147,-29.872757,28.055683,-0.36196095,-4.805344,-6.4496784,-8.186063,-24.324917,37.552834,33.240776,24.765242,6.5342126,6.54965
7,2.564237594604492,2.59942364692688,73.53516387939453,9.749808627211912,-4.256503161166381,22.163334881915826,-13.542845,-0.26065218,7.7905073,35.356537,-17.5134,-8.645436,5.739811,-8.848206,4.5796623,76.455826,-17.883114,-1.9025497,6.63097,-3.027696,15.433553,15.623603,32.845863,-30.718891,27.854809,-1.0884262,-4.891195,-6.5533476,-7.6928134,-23.92466,36.902466,33.93804,24.113483,6.42927,6.286487
8,3.2659125328063965,3.1841938495635986,73.15674591064453,10.010069578402115,-4.372260051682385,21.83386364317429,-13.575661,-0.43158072,8.375823,37.656277,-19.583998,-8.357062,4.3239884,-9.518176,4.4769664,79.04784,-19.089317,-2.8324978,6.1451483,-3.443571,15.663785,14.087589,33.35567,-31.471926,27.434984,-1.575191,-4.982313,-6.707196,-7.1820965,-23.485077,36.265057,34.753857,23.447346,6.3331723,5.842376
9,3.973898410797119,3.776460886001587,72.8274917602539,10.182038551171944,-4.466002611848286,21.29695033391743,-13.311306,-0.466209,9.004823,39.51083,-21.37032,-8.198757,2.8447661,-9.953995,4.6194444,81.36515,-20.08716,-3.4152696,5.751678,-3.7141218,15.824195,12.551646,33.81131,-32.191944,26.924494,-1.7960021,-5.090845,-6.9474154,-6.668399,-23.014347,35.694847,35.770126,22.702173,6.209965,5.15074
10,4.692453861236572,4.365793704986572,72.5561294555664,10.272269583636815,-4.537363473985179,20.63117168464154,-12.795704,-0.3741366,9.654564,40.97587,-23.070576,-8.127809,1.2876824,-10.161954,4.9394536,83.45871,-20.920538,-3.771195,5.404959,-3.8545308,15.921704,11.062619,34.196594,-32.865177,26.30753,-1.7858053,-5.217015,-7.23979,-6.1356983,-22.513577,35.14806,36.957623,21.88026,6.0712185,4.279261
11,5.4217023849487305,4.928586959838867,72.3342514038086,10.318658051033356,-4.601195713738097,19.93083101366456,-12.096751,-0.23168942,10.287056,42.09833,-24.617496,-8.098422,-0.30215254,-10.18991,5.315934,85.301834,-21.6444,-3.9925365,5.033355,-3.9402773,15.990983,9.571973,34.517933,-33.465256,25.616322,-1.7262082,-5.3475385,-7.5209503,-5.612262,-21.997353,34.632233,38.16213,21.141798,6.0050106,3.3185146
12,6.159424781799316,5.45936918258667,72.1536865234375,10.358331733142151,-4.671501457628941,19.289895303606475,-11.285941,-0.12914936,10.869594,42.919025,-25.941862,-8.0614,-1.8769052,-10.091769,5.6327405,86.859924,-22.316378,-4.1712475,4.5753684,-4.048001,16.066994,8.0984,34.792183,-33.936836,24.821419,-1.7614766,-5.46715,-7.7308655,-5.110281,-21.48863,34.14154,39.212402,20.652033,6.0910764,2.3612032
13,6.887601375579834,5.968092918395996,72.01741790771484,10.403925944199681,-4.761696028607421,18.730332604787655,-10.367903,-0.10388181,11.398525,43.43985,-27.037275,-7.999846,-3.4432893,-9.845621,5.896959,88.149536,-22.946568,-4.3058195,4.0153294,-4.201351,16.173689,6.641169,35.03838,-34.26326,23.865726,-1.8840623,-5.576755,-7.860497,-4.602008,-21.002077,33.649384,40.03008,20.479471,6.4229474,1.3161457
14,7.613516807556152,6.45359468460083,71.9408187866211,10.435852202565384,-4.861735720416569,18.203172725471806,-9.311008,-0.11093957,11.892171,43.6402,-27.935139,-7.9439116,-5.0179973,-9.436494,6.145255,89.177,-23.501007,-4.3528786,3.387069,-4.3605003,16.294914,5.139849,35.267403,-34.50849,22.809,-2.0766962,-5.682278,-7.941629,-4.0744257,-20.543842,33.161934,40.685757,20.54098,6.925737,0.17146383
15,8.353145599365234,6.923520565032959,71.92418670654297,10.441639672395445,-4.9509627325969525,17.69617883648703,-8.1360655,-0.12734896,12.354417,43.52809,-28.623547,-7.908405,-6.574449,-8.935442,6.31358,89.90021,-23.967333,-4.342716,2.7237272,-4.503019,16.395226,3.7340515,35.474762,-34.6378,21.634117,-2.3316112,-5.7711716,-7.9773564,-3.5429246,-20.126871,32.703175,41.230347,20.76799,7.421405,-0.8590238
16,9.103395462036133,7.377618789672852,71.97201538085938,10.40810109029314,-5.008903026877514,17.19698728705048,-6.863489,-0.13148016,12.79157,43.11209,-29.090382,-7.905831,-8.087273,-8.4135895,6.3408933,90.276726,-24.333178,-4.3075876,2.0366688,-4.6057205,16.447882,2.418186,35.65424,-34.67676,20.437286,-2.7328236,-5.8314424,-7.9704614,-3.0392272,-19.768578,32.318916,41.714184,21.08702,7.7366896,-1.5607388
17,9.879286766052246,7.817527770996094,72.0834732055664,10.322609554584444,-5.0254662621095525,16.711266462854894,-5.478666,-0.114646465,13.208053,42.341854,-29.351835,-7.9338536,-9.573042,-7.852835,6.2166004,90.28286,-24.577803,-4.2280145,1.3302523,-4.65513,16.43778,1.2793424,35.791065,-34.553535,19.15107,-3.3147986,-5.8541093,-7.9012914,-2.5422816,-19.48504,31.99986,42.114937,21.562033,7.8223524,-1.8182334
18,10.659822463989258,8.24058723449707,72.25218200683594,10.194195295073762,-5.014768221849393,16.24317500403738,-3.9765291,-0.09624014,13.602783,41.22851,-29.406948,-7.982695,-11.0359,-7.2374506,5.969371,89.93944,-24.712551,-4.0965495,0.58917964,-4.659497,16.38802,0.23740488,35.883614,-34.301006,17.801624,-4.0561175,-5.849376,-7.7742267,-2.0376465,-19.282734,31.736427,42.39983,22.2046,7.7756815,-1.7634628
19,11.465333938598633,8.65219497680664,72.47857666015625,10.042355291009832,-4.992186419166268,15.777960526328975,-2.3926942,-0.094891176,13.973195,39.87439,-29.21857,-8.053163,-12.430187,-6.638437,5.599893,89.26954,-24.774324,-3.9637003,-0.17159873,-4.623802,16.319677,-0.728867,35.939415,-34.001514,16.443045,-4.806617,-5.833,-7.6266484,-1.5386437,-19.158443,31.539295,42.599884,22.851936,7.6476965,-1.5474179
20,12.273092269897461,9.05388069152832,72.74946594238281,9.886377317729714,-4.972400956552566,15.301160133735289,-0.76432014,-0.12655061,14.314668,38.384064,-28.751127,-8.149444,-13.710158,-6.1229215,5.1101985,88.299,-24.80107,-3.8789034,-0.9347234,-4.5496545,16.252655,-1.6793363,35.95834,-33.76119,15.160864,-5.4328103,-5.8202467,-7.494476,-1.0505021,-19.119896,31.418564,42.734447,23.34681,7.4862943,-1.3241928
21,13.087108612060547,9.445091247558594,73.06375122070312,9.729884745131164,-4.971311006807903,14.802759572722909,0.95271766,-0.19995786,14.624434,36.70525,-27.986074,-8.284383,-14.861265,-5.6998754,4.496619,87.016136,-24.819395,-3.8378563,-1.6935669,-4.4619412,16.198416,-2.5208085,35.968674,-33.53858,13.8734455,-5.8816404,-5.7995825,-7.3569875,-0.6239552,-19.119143,31.397364,42.869892,23.637768,7.255724,-1.0763108
22,13.913379669189453,9.827923774719238,73.42416381835938,9.561556627214896,-4.9773101879795165,14.293091652706812,2.760557,-0.3023523,14.899707,34.80996,-26.947239,-8.4513,-15.900697,-5.3321443,3.7576108,85.41049,-24.807592,-3.8146057,-2.4732873,-4.3513966,16.145672,-3.1575522,35.969337,-33.243465,12.489174,-6.1905165,-5.7667747,-7.2078075,-0.2447381,-19.181656,31.48356,42.969242,23.823994,6.9477844,-0.74308676
23,14.74954605102539,10.203755378723145,73.82595825195312,9.380280059111934,-4.963526591425347,13.786769961336976,4.564526,-0.4202922,15.138287,32.82494,-25.654018,-8.627748,-16.827765,-5.01722,2.9005756,83.50795,-24.730108,-3.8255777,-3.2652192,-4.201126,16.081333,-3.8515635,35.96589,-33.021423,11.217343,-6.467682,-5.743936,-7.1043544,0.12571116,-19.301788,31.595774,43.00905,23.912527,6.6394005,-0.40693977
24,15.591963768005371,10.573677062988281,74.26718139648438,9.186240885994566,-4.903463839955031,13.297827377207918,6.2664995,-0.5394278,15.340647,30.88468,-24.128962,-8.791922,-17.643456,-4.7548876,1.9352578,81.33554,-24.55448,-3.888272,-4.037179,-3.9991736,15.982087,-4.5308323,35.96519,-32.88291,10.005465,-6.6357365,-5.7494535,-7.1063924,0.5342171,-19.450829,31.629133,42.983303,23.8997,6.406087,-0.14725935
25,16.44900894165039,10.941269874572754,74.73460388183594,8.975268685388217,-4.7922199666511025,12.840557805703526,7.865922,-0.6598153,15.486466,28.967926,-22.331697,-8.958041,-18.350887,-4.5674014,0.8395463,78.891655,-24.284721,-4.041308,-4.7975035,-3.7437294,15.838192,-5.096405,35.97357,-32.802593,8.758643,-6.5862994,-5.7898736,-7.2632537,0.9788875,-19.613493,31.568771,42.90303,23.722393,6.266413,0.030957038
26,17.32402229309082,11.292608261108398,75.22518920898438,8.748880502284125,-4.643291546467259,12.402854281906164,9.403815,-0.78301674,15.580709,27.030346,-20.270508,-9.13253,-18.939777,-4.4399295,-0.38497227,76.16515,-23.940683,-4.256165,-5.5548735,-3.4464507,15.665436,-5.6372943,35.998444,-32.79366,7.5473366,-6.408174,-5.855015,-7.532257,1.4272498,-19.785807,31.46278,42.78761,23.395721,6.1773705,0.16353661
27,18.20597267150879,11.646723747253418,75.72835540771484,8.517588570727545,-4.458179018884521,11.958004960958997,10.843405,-0.89858645,15.666086,25.17517,-18.040958,-9.283421,-19.395205,-4.3204412,-1.6885284,73.16531,-23.511505,-4.453083,-6.2727613,-3.1167033,15.472401,-6.1086035,36.036194,-32.826584,6.3719125,-6.1796885,-5.93665,-7.8344116,1.8902196,-19.96138,31.300457,42.637688,23.038458,6.1228776,0.23334102
28,19.104190826416016,11.99788761138916,76.24227142333984,8.292624993056302,-4.239072091539122,11.47956660787082,12.149256,-0.99920356,15.788169,23.503002,-15.73551,-9.379965,-19.706236,-4.159879,-3.016427,69.89378,-22.980377,-4.554871,-6.9160633,-2.763844,15.266393,-6.4876604,36.07811,-32.880062,5.254023,-5.9881372,-6.025425,-8.090933,2.375351,-20.133883,31.07321,42.45723,22.76962,6.0876594,0.22297207
29,20.01487922668457,12.34389877319336,76.75940704345703,8.054829228706867,-3.974660816858537,10.965000734028266,13.284676,-1.0506208,15.9802,22.072365,-13.33882,-9.381217,-19.867363,-3.9605217,-4.3970037,66.28377,-22.312954,-4.5537643,-7.4840045,-2.3601027,15.041356,-6.7816486,36.120163,-32.960976,4.1964607,-5.788394,-6.129928,-8.291872,2.886053,-20.298134,30.759861,42.24719,22.602375,6.081161,0.102357164
30,20.93729019165039,12.694743156433105,77.27267456054688,7.809694844184824,-3.6696317201420863,10.424000976535567,14.279035,-1.0687574,16.219202,20.823889,-10.817123,-9.322915,-19.883389,-3.7353227,-5.838714,62.348114,-21.525543,-4.4816384,-7.9892845,-1.9153465,14.795449,-7.004605,36.162212,-33.079285,3.1981084,-5.5554886,-6.2516665,-8.475533,3.4114213,-20.45225,30.371094,42.015034,22.478497,6.1068068,-0.11100597
31,21.87372398376465,13.037778854370117,77.77217102050781,7.604221567351373,-3.3489050662789084,9.84996959074352,15.187524,-1.1218549,16.46216,19.692888,-8.229389,-9.287321,-19.76754,-3.4636357,-7.250348,58.203167,-20.673885,-4.3363404,-8.41996,-1.4941499,14.539127,-7.147409,36.199017,-33.21703,2.279702,-5.406998,-6.369398,-8.636404,3.9381657,-20.596048,29.947653,41.772198,22.408573,6.140463,-0.36392495
32,22.81667709350586,13.367012023925781,78.2499771118164,7.482901279466942,-3.0352374980114534,9.238482848660809,16.068558,-1.2812325,16.656958,18.596628,-5.6285925,-9.352639,-19.539984,-3.1362152,-8.536082,53.962746,-19.815535,-4.127001,-8.76819,-1.1573194,14.27995,-7.179634,36.221584,-33.346626,1.4474795,-5.4490833,-6.4610896,-8.770084,4.4538064,-20.72954,29.533098,41.529778,22.404547,6.1574807,-0.60347223
33,23.773345947265625,13.695016860961914,78.70011138916016,7.4414156504722815,-2.715899094983527,8.58042215306931,16.9532,-1.5588595,16.874546,17.436562,-2.8490322,-9.627291,-19.181036,-2.7388723,-9.683582,49.52199,-18.909363,-3.8718185,-9.031967,-0.8932702,14.009468,-7.101323,36.222782,-33.46677,0.71920675,-5.7575912,-6.5231495,-8.866885,4.9609165,-20.853363,29.120718,41.300224,22.498127,6.136788,-0.84244484
34,24.73651885986328,14.021429061889648,79.11399841308594,7.459254768204477,-2.3820126305942857,7.884406892809865,17.808388,-1.9266722,17.094683,16.258368,0.09058991,-10.0466,-18.69239,-2.3013425,-10.7229185,44.844692,-17.938105,-3.5847943,-9.218517,-0.6764803,13.721422,-6.915773,36.20002,-33.5859,0.083433986,-6.2492166,-6.5657654,-8.932907,5.4626207,-20.967093,28.693708,41.076054,22.673918,6.0955453,-1.1007277
35,25.714618682861328,14.33378791809082,79.48944854736328,7.554960521419029,-2.0609850129755314,7.1743191929946715,18.59703,-2.3883111,17.137583,15.197458,2.8596327,-10.418893,-18.13001,-1.8844548,-11.627159,40.158688,-16.991758,-3.270593,-9.34172,-0.5468096,13.426086,-6.6642103,36.155464,-33.710022,-0.44276574,-6.8296633,-6.587737,-8.988789,5.938154,-21.073124,28.28732,40.848877,22.872833,6.066094,-1.3372495
36,26.69915771484375,14.640551567077637,79.82298278808594,7.749258023054604,-1.7806517190478388,6.47303347886961,19.280153,-2.9368434,16.846342,14.4071,5.1229515,-10.541886,-17.54825,-1.5402893,-12.378758,35.694206,-16.1575,-2.92402,-9.417762,-0.5447817,13.135891,-6.380717,36.09475,-33.83897,-0.8497546,-7.404988,-6.587713,-9.05606,6.367951,-21.173708,27.940493,40.607544,23.03715,6.0815,-1.5109475
37,27.68309783935547,14.935815811157227,80.10819244384766,8.091378533748275,-1.5443623122275363,5.7788617118782915,19.866247,-3.660769,16.005192,13.834538,6.844834,-10.32437,-16.923534,-1.2780257,-12.961972,31.37057,-15.4303,-2.4447935,-9.450682,-0.7219631,12.843838,-6.0386534,36.02052,-33.9584,-1.1485988,-8.002184,-6.5640035,-9.153467,6.7502694,-21.271368,27.665245,40.354614,23.172663,6.1622806,-1.6160482
38,28.67340087890625,15.225040435791016,80.34230041503906,8.563972303983897,-1.3364599012627363,5.0873308328132705,20.380262,-4.5314765,14.768238,13.430992,8.19713,-9.87601,-16.227745,-1.0926996,-13.390936,27.085941,-14.7612295,-1.8800801,-9.440735,-1.0521609,12.547286,-5.620717,35.93402,-34.065456,-1.3505132,-8.652268,-6.516933,-9.265563,7.095644,-21.366833,27.44419,40.091255,23.3041,6.2875266,-1.6730536
39,29.656814575195312,15.496045112609863,80.5205307006836,9.086220826599114,-1.1583647418758278,4.4130523583481684,20.80497,-5.368254,13.5469,13.355042,9.145985,-9.285796,-15.519929,-0.9893265,-13.707545,23.066778,-14.176195,-1.4199084,-9.394167,-1.4581866,12.266192,-5.1845903,35.841267,-34.182205,-1.4395633,-9.273389,-6.4486713,-9.362257,7.4006,-21.45944,27.274492,39.809006,23.402283,6.42853,-1.6798095
40,30.633852005004883,15.75522232055664,80.647705078125,9.56854602931226,-1.0115714404529108,3.7662275836467685,21.104881,-5.9819407,12.755668,13.776239,9.639788,-8.641116,-14.8790045,-0.94193876,-13.962718,19.575657,-13.715917,-1.2342973,-9.311637,-1.8537459,12.020646,-4.774298,35.74914,-34.32769,-1.4113246,-9.77616,-6.3624024,-9.413046,7.661107,-21.546701,27.151815,39.500195,23.437033,6.5560613,-1.6331141
41,31.600582122802734,15.998021125793457,80.72796630859375,9.969606063137473,-0.8844459524026492,3.1467641090921927,21.208893,-6.3260546,12.367187,14.819757,9.546923,-7.93909,-14.369226,-0.91823405,-14.240274,16.725609,-13.408894,-1.4404612,-9.1855,-2.1994653,11.80501,-4.408187,35.664078,-34.5203,-1.2542822,-10.171512,-6.2525425,-9.40442,7.8709993,-21.626879,27.080389,39.1606,23.384836,6.6706557,-1.5144466
42,32.55793762207031,16.220565795898438,80.75688171386719,10.324229553080665,-0.7762863763488003,2.546315554449597,21.138702,-6.457784,12.203107,16.399885,8.898002,-7.132746,-13.962907,-0.8939387,-14.509629,14.400768,-13.25043,-1.8981296,-9.013025,-2.527813,11.613079,-4.054153,35.5866,-34.745174,-0.983102,-10.495006,-6.1205454,-9.353012,8.032968,-21.699183,27.060219,38.796898,23.265217,6.784325,-1.3299443
43,33.50803756713867,16.427762985229492,80.74481964111328,10.64722966222128,-0.7043912789606024,1.9606137350861133,20.996384,-6.328731,12.451316,18.354486,7.885974,-6.2415986,-13.604667,-0.8456148,-14.649958,12.530463,-13.227823,-2.3901076,-8.801757,-2.8505778,11.463102,-3.7020447,35.513874,-34.97746,-0.6141084,-10.705661,-5.980509,-9.27467,8.149119,-21.76458,27.084248,38.42574,23.113544,6.885317,-1.1143366
44,34.453582763671875,16.621488571166992,80.68535614013672,10.960283903508916,-0.688108322652993,1.3860780152780419,20.89343,-5.904587,13.302144,20.513464,6.7132545,-5.283941,-13.234821,-0.77145934,-14.534087,11.046488,-13.318333,-2.7092192,-8.559837,-3.1867654,11.373796,-3.3279219,35.442806,-35.187298,-0.17377947,-10.755338,-5.845802,-9.185932,8.222263,-21.823206,27.144789,38.063828,22.965027,6.962094,-0.9026747
45,35.39781188964844,16.804542541503906,80.57615661621094,11.259761489825584,-0.7408804798155898,0.8194895682832818,20.887974,-5.0981317,15.007881,22.907625,5.3210754,-4.201231,-12.824396,-0.66661465,-14.110328,9.933617,-13.538059,-2.8168643,-8.276774,-3.5293272,11.360718,-2.9483075,35.362328,-35.385403,0.3564377,-10.595435,-5.7185745,-9.088095,8.262844,-21.881634,27.247587,37.697826,22.817799,7.0044074,-0.7040978
46,36.331993103027344,16.981340408325195,80.4186019897461,11.523051361000013,-0.8478747155994492,0.2628108629967197,20.964167,-3.9100556,17.369139,25.584093,3.625846,-3.0041041,-12.415552,-0.5313095,-13.455029,9.2406645,-13.894208,-2.8229065,-7.952587,-3.8546824,11.410128,-2.5646737,35.273632,-35.579716,0.98127383,-10.260768,-5.5911727,-8.9745865,8.26303,-21.938517,27.395773,37.32837,22.65718,7.020562,-0.50010693
47,37.26243591308594,17.145645141601562,80.21189880371094,11.750837475402664,-0.9869303166872446,-0.2811865954174429,21.114208,-2.4731874,19.921152,28.394762,1.814191,-1.8133837,-12.04501,-0.3843163,-12.62622,8.978184,-14.345847,-2.7542071,-7.6040654,-4.156644,11.49786,-2.1672533,35.175663,-35.754177,1.6865779,-9.83717,-5.4638286,-8.850176,8.2181,-21.99424,27.57036,36.969276,22.502281,7.029063,-0.28397986
48,38.18836212158203,17.30488395690918,79.9553451538086,11.9467911663421,-1.136435437100773,-0.8098483185498486,21.2844,-0.93857443,22.223291,31.211695,0.086425446,-0.7472551,-11.757183,-0.24406967,-11.680542,9.170413,-14.858652,-2.641882,-7.249484,-4.434005,11.599585,-1.7453372,35.069584,-35.890663,2.4566507,-9.411747,-5.336952,-8.719936,8.121068,-22.049479,27.753658,36.637276,22.372019,7.0483546,-0.049070735
49,39.11102294921875,17.45519256591797,79.64485168457031,12.19767873650354,-1.306659233335303,-1.3242504360871126,21.526289,0.58913535,24.313438,33.94736,-1.4738894,0.1854222,-11.471243,-0.17084785,-10.4654,9.72017,-15.488739,-2.225631,-6.8873386,-4.7769566,11.6993885,-1.276544,34.958725,-35.98488,3.2936058,-8.979468,-5.2155614,-8.58855,7.989202,-22.104332,27.954683,36.329544,22.2693,7.0769124,0.20874499
50,40.02883529663086,17.602712631225586,79.28299713134766,12.473179003564782,-1.503538217375929,-1.8275727009197618,21.849916,2.1911774,26.392445,36.695953,-2.971315,1.0420418,-11.199051,-0.13009137,-9.012504,10.6626835,-16.244345,-1.5819117,-6.508936,-5.155839,11.815549,-0.7662329,34.844677,-36.04265,4.197303,-8.502046,-5.0974345,-8.452301,7.818555,-22.159204,28.179197,36.0397,22.185266,7.10698,0.48517236
51,40.947959899902344,17.75320816040039,78.86861419677734,12.61329925038084,-1.7034854604466088,-2.3150020739897967,22.11814,3.9775174,28.269651,39.564075,-4.455435,1.8043107,-11.090045,0.013570225,-7.6443634,12.151475,-16.982475,-1.243414,-6.126321,-5.4010277,11.973353,-0.25582048,34.725822,-36.06465,5.1553974,-8.023143,-4.9726944,-8.303482,7.5773873,-22.21293,28.403408,35.770943,22.120592,7.1487646,0.7740565
52,41.8618278503418,17.903024673461914,78.43452453613281,12.476771844059177,-1.8890523195744644,-2.7762483179617683,22.19808,6.040605,29.741295,42.62496,-5.958232,2.4588165,-11.284045,0.37728116,-6.671392,14.315931,-17.523853,-1.7361442,-5.7548776,-5.362923,12.19336,0.2162259,34.598385,-36.053715,6.1556706,-7.5823965,-4.8313518,-8.134667,7.234197,-22.26438,28.601898,35.527557,22.07644,7.2125497,1.0688989
53,42.75687789916992,18.056873321533203,77.98455047607422,12.01048533872644,-2.0795424363602897,-3.197393181300377,22.090256,8.482294,30.814493,45.91433,-7.4472613,2.983755,-11.853405,0.99491316,-6.242263,17.34916,-17.599888,-3.4776778,-5.3938413,-4.994278,12.485896,0.62217903,34.46514,-36.028,7.190172,-7.1973577,-4.6429734,-7.9468675,6.809439,-22.306509,28.740755,35.27935,22.042685,7.328154,1.4002793
54,43.6356201171875,18.198898315429688,77.51182556152344,11.373230808207627,-2.2923031387225077,-3.5767932408754386,21.876116,11.112441,31.560314,49.29301,-8.860655,3.4032676,-12.649835,1.7183233,-6.2164526,20.982433,-17.261375,-6.0545,-5.0430174,-4.459732,12.831825,0.99424624,34.329586,-35.98408,8.262558,-6.8400173,-4.420991,-7.7438154,6.3184104,-22.336563,28.83673,35.030773,22.019669,7.4815855,1.7596148
55,44.48698806762695,18.330841064453125,77.00482940673828,10.701185138140959,-2.5005731122907155,-3.927651534606153,21.496382,13.63848,31.866405,52.614346,-10.208945,3.754827,-13.503107,2.4265049,-6.4314537,24.697247,-16.852001,-8.776607,-4.720514,-3.8843539,13.20801,1.3514291,34.186954,-35.898476,9.40303,-6.5026073,-4.2218385,-7.5222225,5.719324,-22.364027,28.944475,34.836014,22.025148,7.6176353,2.0814493
56,45.281036376953125,18.455875396728516,76.46485900878906,10.070384653176143,-2.667180682669365,-4.271007433466979,20.848978,15.842136,31.62515,55.79537,-11.533956,4.0583777,-14.300841,3.0837374,-6.6444373,28.11728,-16.82661,-10.99525,-4.439468,-3.3288352,13.592346,1.7182336,34.023052,-35.742516,10.640734,-6.1714854,-4.102368,-7.27828,4.966902,-22.407251,29.121305,34.74869,22.081272,7.6816316,2.3010933
57,46.057533264160156,18.584875106811523,75.91915893554688,9.408205292369523,-2.758144351148639,-4.610821307669556,19.786907,17.753395,30.702143,58.930706,-12.90103,4.3143425,-15.180203,3.768771,-6.7922535,31.432266,-17.439632,-12.6570635,-4.223453,-2.7009342,13.97955,2.102074,33.823944,-35.486427,11.9432335,-5.8726916,-4.071144,-7.0578094,4.0112796,-22.48851,29.392313,34.76652,22.219034,7.651338,2.413804
58,46.86528015136719,18.7563419342041,75.38544464111328,8.665255129171706,-2.795001368751775,-4.944130559232407,18.33516,19.461596,29.175056,62.062115,-14.284639,4.48236,-16.202337,4.5059614,-6.9591284,34.87353,-18.492046,-14.100561,-4.059632,-1.9548284,14.381349,2.488709,33.58317,-35.143932,13.312774,-5.5998116,-4.1013403,-6.8476768,2.8942,-22.611635,29.728312,34.844246,22.426542,7.560361,2.450538
59,47.67619323730469,18.966922760009766,74.86634063720703,7.976990101406104,-2.823302147582781,-5.269965276971592,16.646067,20.81965,27.266094,65.05197,-15.598656,4.540452,-17.183134,5.1380816,-7.0712714,38.252117,-19.844257,-15.000033,-3.9105482,-1.2430067,14.799323,2.8715475,33.2944,-34.75641,14.8295355,-5.282529,-4.195061,-6.554773,1.7103705,-22.758394,30.099453,34.973526,22.659775,7.4367447,2.4002914
60,48.488277435302734,19.19721221923828,74.35357666015625,7.491466691880443,-2.8884078350589033,-5.583432543214843,14.894128,21.693527,25.225851,67.77064,-16.765884,4.4813695,-17.914032,5.5069184,-7.060616,41.32515,-21.319761,-15.000033,-3.7376513,-0.7356377,15.232279,3.2398415,32.952732,-34.37352,16.58252,-4.849695,-4.351869,-6.0860677,0.54838276,-22.898823,30.473505,35.169262,22.868902,7.3071384,2.2514114
61,49.28249740600586,19.377378463745117,73.843017578125,7.095398959521866,-2.995996173978299,-5.9620378784822226,13.10571,22.167912,23.000431,70.276146,-17.817,4.163174,-18.252981,5.9070163,-6.973466,43.81102,-22.860352,-15.000033,-3.4517293,-0.33966997,15.70521,3.610775,32.544827,-33.979275,18.658373,-4.265637,-4.612314,-5.4303765,-0.59936786,-23.00798,30.8639,35.5005,23.118229,7.131384,1.9493293
62,50.07262420654297,19.515792846679688,73.34436798095703,6.740185481046059,-3.122011224458369,-6.390884191547042,11.224911,22.28359,20.54083,72.64105,-18.800703,3.6212983,-18.342201,6.3612823,-6.854791,45.914726,-24.566786,-15.000033,-3.086611,0.008244089,16.201946,3.9714825,32.066303,-33.568375,21.010891,-3.5659914,-4.9551363,-4.6315875,-1.7866923,-23.07891,31.284143,35.97819,23.400497,6.9074507,1.517276
63,50.881343841552734,19.631376266479492,72.87928771972656,6.428806859876961,-3.245079672737907,-6.812894995935607,9.300209,22.200804,18.109503,74.871216,-19.70562,3.010508,-18.282372,6.8140507,-6.7274594,47.752724,-26.284843,-15.000033,-2.6997716,0.3201312,16.668747,4.2940755,31.536095,-33.20124,23.50565,-2.7757564,-5.2850966,-3.677892,-2.9817607,-23.111843,31.693586,36.521465,23.556185,6.7224293,1.0588927
64,51.7089958190918,19.72863006591797,72.4689712524414,6.163363191678279,-3.3425806263148217,-7.170201395437264,7.3538074,22.10054,15.943631,76.96388,-20.505028,2.4948277,-18.164526,7.1996627,-6.598905,49.42129,-27.844961,-15.000033,-2.3438106,0.604253,17.056976,4.5612535,30.98852,-32.937508,25.988573,-1.9242569,-5.5068507,-2.5559163,-4.146346,-23.113157,32.040997,37.036774,23.429026,6.6661596,0.67835927
65,52.54631042480469,19.81707191467285,72.11720275878906,5.952057119441386,-3.4131550365253487,-7.4087285069495215,5.327123,21.995264,13.998553,78.93898,-21.12393,2.116819,-17.983932,7.4653077,-6.4863873,50.918205,-29.216768,-15.000033,-2.0575972,0.84287286,17.362225,4.7570667,30.452768,-32.837067,28.471062,-0.871139,-5.578014,-1.058136,-5.25002,-23.080994,32.27849,37.496826,22.864277,6.810425,0.38768503
66,53.38059616088867,19.906408309936523,71.81452941894531,5.790955097836794,-3.4657481297918915,-7.570683078220784,3.2254083,21.814816,12.176694,80.79029,-21.589228,1.7986677,-17.695055,7.6422205,-6.3708572,52.194496,-30.480858,-15.000033,-1.796871,1.0304716,17.61484,4.912863,29.938322,-32.856335,30.984331,0.3368233,-5.5324616,0.7404577,-6.3104825,-23.015245,32.430157,37.94083,21.982054,7.0947704,0.14196385
67,54.212039947509766,19.988691329956055,71.55388641357422,5.661265594084445,-3.492762295502528,-7.742486659223849,1.1379725,21.643366,10.610784,82.47323,-22.02041,1.5322556,-17.326332,7.791693,-6.2037373,53.26869,-31.627247,-15.000033,-1.5016294,1.1939965,17.820328,5.0818706,29.451023,-32.888077,33.4063,1.3821276,-5.416683,2.4267573,-7.3681808,-22.93347,32.564022,38.369953,21.040916,7.410082,-0.043541197
68,55.035545349121094,20.065805435180664,71.32872009277344,5.546627072563379,-3.4871696335061646,-8.01235150491458,-0.84866977,21.576065,9.4311695,83.93586,-22.534952,1.3131623,-16.905542,7.9801807,-5.9378786,54.157562,-32.645386,-15.000033,-1.1146587,1.3608387,17.98617,5.324677,28.993828,-32.814125,35.60521,1.9567292,-5.3101172,3.5900092,-8.455509,-22.863237,32.75291,38.7673,20.302597,7.645815,-0.15906803
69,55.859710693359375,20.128009796142578,71.14673614501953,5.4411426083330365,-3.4411948035628943,-8.416602039094032,-2.7270548,21.681803,8.698796,85.17011,-23.19625,1.1234479,-16.442959,8.240378,-5.550342,54.858784,-33.523094,-15.000033,-0.6073846,1.542291,18.11996,5.663463,28.5644,-32.556225,37.545856,1.9033177,-5.2498426,4.039829,-9.591417,-22.829187,33.019184,39.113518,19.844858,7.8002505,-0.17735676
70,56.68815994262695,20.19314193725586,71.01158142089844,5.352773040971055,-3.360710323414388,-8.90421012209111,-4.5504446,21.929186,8.32226,86.19928,-23.925945,0.98176557,-15.919536,8.533438,-5.069629,55.361023,-34.269558,-15.000033,-0.024396157,1.7265432,18.222958,6.07621,28.163507,-32.175934,39.28146,1.4144274,-5.209594,4.0212092,-10.7429285,-22.836254,33.33505,39.386917,19.533855,7.9227858,-0.113714546
71,57.53010559082031,20.24751091003418,70.9200668334961,5.286948493693123,-3.2584433463812865,-9.433693518798522,-6.3210425,22.261402,8.204973,87.01224,-24.62836,0.936495,-15.3219795,8.819469,-4.5268626,55.670437,-34.897415,-15.000033,0.58934456,1.9037843,18.290857,6.55441,27.798962,-31.768867,40.81514,0.71275204,-5.1821904,3.7802508,-11.870598,-22.880638,33.695915,39.57961,19.314497,7.9807177,-0.02542252
72,58.38138961791992,20.288982391357422,70.87300109863281,5.2544833717385995,-3.1472830899683397,-9.962179982831946,-8.037383,22.608377,8.25794,87.59737,-25.209064,1.0363122,-14.638425,9.052058,-3.9523878,55.796402,-35.42293,-15.000033,1.1882238,2.0567064,18.320547,7.089973,27.483852,-31.432228,42.148224,0.018001016,-5.1628714,3.5629582,-12.935786,-22.951399,34.094025,39.686607,19.129347,7.940781,0.030142587
73,59.24869155883789,20.318214416503906,70.87808990478516,5.2766049882646096,-3.024499064476313,-10.48993780962196,-9.695581,23.002659,8.554932,87.96213,-25.650187,1.3474426,-13.870297,9.183594,-3.3413517,55.747677,-35.8712,-14.869939,1.7685453,2.1604948,18.306643,7.6836157,27.233965,-31.202946,43.271355,-0.7594391,-5.158753,3.3611696,-13.94979,-23.042845,34.552536,39.71262,18.985031,7.746197,0.024419622
74,60.12334060668945,20.330516815185547,70.93434143066406,5.32900688315987,-2.8845343012576237,-11.039871377251092,-11.287289,23.485334,9.112581,88.10992,-26.006428,1.816471,-13.019389,9.275568,-2.6823728,55.504673,-36.217735,-14.723662,2.3597443,2.2366827,18.255741,8.342198,27.05269,-31.028906,44.179104,-1.6928148,-5.165205,3.0667777,-14.928881,-23.154285,35.06444,39.661713,18.90388,7.430017,-0.007385466
75,61.0064582824707,20.33161735534668,71.04035186767578,5.402165111013806,-2.735864122520528,-11.590624275474017,-12.800062,23.932806,9.7909155,88.009964,-26.283312,2.3383625,-12.087436,9.323569,-1.9957088,55.0808,-36.439407,-14.57529,2.954152,2.293275,18.181986,9.0662565,26.929174,-30.872341,44.8824,-2.533056,-5.168286,2.7765908,-15.834587,-23.27879,35.56869,39.526093,18.844662,7.094089,-0.027661262
76,61.90620803833008,20.320388793945312,71.19256591796875,5.486543843120543,-2.5874340014198864,-12.120114292794996,-14.228366,24.21856,10.446678,87.62948,-26.478725,2.8071046,-11.074819,9.319384,-1.3033625,54.48622,-36.51172,-14.413537,3.5449233,2.3395061,18.094633,9.846808,26.843294,-30.702078,45.407024,-3.0313685,-5.159361,2.5896504,-16.636425,-23.409433,36.0071,39.313534,18.767433,6.839416,0.0010854838
77,62.81631088256836,20.303442001342773,71.38855743408203,5.5788491167947525,-2.43823527611565,-12.63475916779238,-15.581822,24.352062,11.093387,86.97435,-26.605076,3.254592,-9.984324,9.264912,-0.59488773,53.728184,-36.44283,-14.245454,4.139208,2.384929,17.987072,10.685453,26.782227,-30.5144,45.733826,-3.0361402,-5.138713,2.559109,-17.337927,-23.542965,36.370293,39.036766,18.637892,6.686334,0.09617776
78,63.74012756347656,20.276578903198242,71.62506866455078,5.684293432567683,-2.2844147613549928,-13.14151411100942,-16.854128,24.38349,11.798531,86.05415,-26.660437,3.7117712,-8.81605,9.159984,0.13524157,52.801064,-36.24503,-14.074212,4.735344,2.4236813,17.853117,11.574669,26.742498,-30.3287,45.879627,-2.7057035,-5.1131244,2.6247509,-17.95863,-23.680126,36.691498,38.70394,18.483301,6.5820613,0.23471138
79,64.6858139038086,20.246395111083984,71.90755462646484,5.805888503327655,-2.1310713598909126,-13.619760537670773,-18.026783,24.248226,12.4924345,84.843285,-26.614311,4.073365,-7.5726132,8.995986,0.85575277,51.70557,-35.89119,-13.8820305,5.3151674,2.4446857,17.702173,12.488567,26.71506,-30.149017,45.92626,-2.2549922,-5.0856085,2.7161107,-18.485367,-23.819519,36.971134,38.31023,18.356539,6.518926,0.39355952
80,65.65071105957031,20.20017433166504,72.22960662841797,5.946234176596061,-1.9834549969567195,-14.048729322368523,-19.082724,23.884659,13.101552,83.3147,-26.43489,4.237232,-6.2550025,8.766112,1.5359057,50.44043,-35.353107,-13.652087,5.8606124,2.438362,17.542978,13.396039,26.68817,-29.980738,45.96157,-1.8994224,-5.0608277,2.7635903,-18.905176,-23.959185,37.20839,37.85319,18.308851,6.4895163,0.549763
81,66.62237548828125,20.139507293701172,72.58661651611328,6.114445791417324,-1.8479219075141022,-14.409274405518602,-20.0292,23.244919,13.5895195,81.44719,-26.115187,4.1736746,-4.8340735,8.454841,2.1715436,48.961205,-34.64496,-13.363801,6.358551,2.3995795,17.380568,14.29357,26.650845,-29.813835,46.002167,-1.6315653,-5.0495043,2.7624855,-19.206997,-24.097721,37.387962,37.32673,18.362318,6.5070233,0.70451516
82,67.61587524414062,20.06460189819336,72.97588348388672,6.304165061210278,-1.7206988996144787,-14.716679396802121,-20.868622,22.378263,13.992746,79.253426,-25.673296,3.9415264,-3.3223789,8.072989,2.775784,47.290943,-33.779045,-13.034838,6.818878,2.339198,17.207634,15.186443,26.599657,-29.650612,46.02018,-1.356683,-5.047375,2.7472851,-19.40774,-24.236773,37.51965,36.74568,18.487305,6.570722,0.8673806
83,68.62198638916016,19.977981567382812,73.3890380859375,6.4934650356540935,-1.5917837880028207,-15.001362276233387,-21.582897,21.372065,14.337905,76.75992,-25.1097,3.5728638,-1.7811366,7.656396,3.3441072,45.527134,-32.72821,-12.704828,7.2597537,2.27416,17.016031,16.060213,26.535988,-29.512478,46.02969,-1.1546373,-5.0375504,2.706408,-19.51901,-24.375944,37.62775,36.12052,18.650454,6.653374,1.0271618
84,69.649658203125,19.87645721435547,73.82807922363281,6.661375878400297,-1.4510213845253108,-15.293748492643752,-22.15482,20.313314,14.651749,73.991005,-24.428665,3.1008012,-0.27267215,7.241554,3.8735814,43.76912,-31.46533,-12.410892,7.6989837,2.2185197,16.797123,16.89769,26.465149,-29.42457,46.047062,-1.1117572,-5.0030107,2.6286118,-19.560675,-24.514765,37.741863,35.469692,18.822275,6.727053,1.1731422
85,70.68892669677734,19.751638412475586,74.2810287475586,6.801507521529315,-1.2987254927637488,-15.583684927081896,-22.589079,19.190765,14.894053,70.91791,-23.607533,2.5085857,1.2343948,6.8359675,4.363325,41.95459,-29.955757,-12.171487,8.130694,2.1766253,16.547205,17.69044,26.391203,-29.40789,46.090527,-1.3096185,-4.9266357,2.5055654,-19.521336,-24.651958,37.857666,34.77872,18.985247,6.7988825,1.2952297
86,71.74264526367188,19.62285614013672,74.75012969970703,6.921431321391967,-1.140692757745099,-15.860188235008618,-22.887196,17.982073,15.045181,67.53303,-22.659683,1.7979883,2.7514946,6.427468,4.8143916,40.07609,-28.23192,-11.963574,8.548387,2.1432853,16.272259,18.44885,26.31504,-29.444656,46.145523,-1.6851481,-4.820653,2.345962,-19.397003,-24.7877,37.96182,34.04535,19.157951,6.8788967,1.4015237
87,72.80988311767578,19.483074188232422,75.21971893310547,7.022770395171183,-0.9739972779985002,-16.15303986306986,-23.032038,16.752735,15.164972,63.88852,-21.637455,1.0276706,4.192669,6.020962,5.2289405,38.301624,-26.357056,-11.757734,8.968748,2.115261,15.978791,19.194977,26.236757,-29.491112,46.16882,-2.0979156,-4.7118993,2.1625578,-19.21088,-24.922562,38.065334,33.297787,19.360786,6.9433293,1.5087152
88,73.8931884765625,19.339447021484375,75.6880111694336,7.109622852589149,-0.7946425050630869,-16.492386433381164,-23.010082,15.563611,15.320357,60.029484,-20.587906,0.25415868,5.478018,5.620759,5.613197,36.785076,-24.385036,-11.523086,9.407656,2.0863698,15.672922,19.954187,26.155254,-29.500633,46.114597,-2.4062777,-4.6280136,1.967098,-18.990568,-25.056856,38.18372,32.568325,19.615934,6.9682198,1.6335244
89,74.97991180419922,19.185382843017578,76.14872741699219,7.201378615330404,-0.5942430763690595,-16.888246275881013,-22.795961,14.397686,15.545863,55.865448,-19.46922,-0.5135254,6.5937095,5.2038198,5.956268,35.539925,-22.263643,-11.268944,9.878695,2.0364873,15.352739,20.726837,26.06833,-29.479593,45.9746,-2.6027665,-4.5737705,1.7732084,-18.72934,-25.188845,38.31133,31.854696,19.91928,6.933533,1.7657741
90,76.07205200195312,19.022974014282227,76.59705352783203,7.289351015472915,-0.3770484584953241,-17.324642108012533,-22.398743,13.239713,15.788509,51.38293,-18.270344,-1.2926334,7.586318,4.7797427,6.2649326,34.482914,-19.9793,-10.998699,10.36861,1.9739863,15.017005,21.502337,25.975756,-29.444345,45.7719,-2.7538738,-4.5356064,1.5711806,-18.422499,-25.317871,38.446503,31.14801,20.264347,6.8564034,1.9016616
91,77.17803955078125,18.84994125366211,77.01885223388672,7.336926184600627,-0.15665303576640588,-17.79336612501547,-21.864014,12.1458025,15.994955,46.74822,-17.07541,-2.072114,8.472673,4.4014173,6.577093,33.6067,-17.63494,-10.671725,10.855177,1.9334836,14.672699,22.297632,25.878756,-29.357172,45.498413,-2.8221238,-4.514537,1.3363472,-18.087526,-25.443888,38.60328,30.4574,20.663029,6.7708435,2.0663164
92,78.28761291503906,18.673269271850586,77.41520690917969,7.308108638474871,0.0525447011781059,-18.287550061623698,-21.235062,11.167895,16.123014,42.12368,-15.9686365,-2.8454015,9.27631,4.1216617,6.9340167,32.889202,-15.328665,-10.248528,11.313516,1.9485238,14.326629,23.126616,25.780455,-29.18121,45.146996,-2.7762232,-4.5119634,1.043573,-17.751482,-25.566605,38.803616,29.797012,21.134016,6.7107787,2.2842944
93,79.40852355957031,18.497007369995117,77.77582550048828,7.180185583841325,0.2565308268703936,-18.82685568517123,-20.463854,10.316189,16.201302,37.365166,-14.941784,-3.6634643,9.982741,3.9727623,7.3623896,32.323284,-12.9778185,-9.7663555,11.757544,2.0357797,13.96862,24.032766,25.678507,-28.865234,44.677452,-2.546626,-4.5352573,0.6664436,-17.421547,-25.687748,39.070927,29.17247,21.739443,6.6851606,2.5518572
94,80.54065704345703,18.319089889526367,78.09809875488281,6.969200468797174,0.4573110560469461,-19.41303417273783,-19.526073,9.5703,16.246302,32.396656,-13.933336,-4.5098324,10.6059065,3.9330566,7.8485923,31.883768,-10.546453,-9.220804,12.196775,2.1797345,13.597882,24.997778,25.574675,-28.440233,44.09907,-2.174335,-4.5835347,0.22476313,-17.086706,-25.8024,39.389423,28.578913,22.45131,6.677954,2.858412
95,81.6656265258789,18.12856101989746,78.37760162353516,6.697561162515019,0.634670748682895,-20.012619105838635,-18.503664,8.930928,16.20867,27.497683,-12.948325,-5.287574,11.20836,3.9787788,8.375429,31.52656,-8.203422,-8.518299,12.592441,2.3685198,13.236918,25.960281,25.466421,-27.97138,43.469334,-1.7747043,-4.644869,-0.23838834,-16.742737,-25.914694,39.729877,28.003717,23.152521,6.6849017,3.2173433
96,82.7911376953125,17.934911727905273,78.6086196899414,6.391638569255691,0.7706417806906757,-20.589891476375765,-17.50402,8.396682,16.041616,23.002472,-12.014405,-5.907399,11.8430605,4.083324,8.92506,31.22528,-6.1286845,-7.575325,12.922788,2.5848382,12.90318,26.846,25.370825,-27.551575,42.853146,-1.4762771,-4.7038307,-0.67842907,-16.376575,-26.011982,40.037872,27.446611,23.713718,6.7002196,3.6459134
97,83.90833282470703,17.724672317504883,78.79174041748047,6.04402134292257,0.8684739078073539,-21.14066074300428,-16.57258,7.9916735,15.761122,18.99891,-11.147967,-6.3171062,12.519274,4.2616963,9.531427,30.95795,-4.366189,-6.3522406,13.189334,2.8342574,12.58653,27.669283,25.30331,-27.193142,42.244823,-1.323191,-4.7596436,-1.0918201,-15.982766,-26.083641,40.297516,26.906696,24.091011,6.7250004,4.1777806
98,85.03012084960938,17.526201248168945,78.93265533447266,5.641862713295753,0.9360228256755329,-21.683079480883016,-15.67863,7.714285,15.394086,15.364164,-10.352226,-6.589113,13.203688,4.5253468,10.196007,30.75757,-2.8273075,-4.9078,13.397205,3.1252847,12.282419,28.472355,25.25636,-26.840221,41.60278,-1.2424566,-4.8171372,-1.502093,-15.573645,-26.140913,40.546104,26.381065,24.36085,6.7599444,4.7930517
99,86.14288330078125,17.3284912109375,79.01583099365234,5.217094742597831,0.9650731126961611,-22.210492891492308,-14.816638,7.5076804,14.912572,12.120697,-9.648393,-6.821399,13.876968,4.8266144,10.841467,30.6898,-1.4963924,-3.3112216,13.573188,3.4321465,12.003162,29.180452,25.241974,-26.5467,40.970566,-1.2072247,-4.8669305,-1.8976077,-15.141269,-26.170273,40.749287,25.9,24.545238,6.797544,5.43892
100,87.24441528320312,17.12261962890625,79.04890441894531,4.806540714320947,0.9489123788163931,-22.714231134060665,-13.955376,7.3060164,14.288168,9.239612,-9.028731,-7.107761,14.513854,5.1153617,11.3845825,30.827942,-0.36148733,-1.631321,13.681657,3.720019,11.778522,29.786798,25.25122,-26.279268,40.337563,-1.1634985,-4.900849,-2.2797515,-14.711438,-26.18864,40.949665,25.461187,24.699831,6.829853,6.0506763
101,88.332763671875,16.91387367248535,79.03318786621094,4.438684334306029,0.8855315173313114,-23.177739295159206,-13.343303,7.1285734,13.457953,7.257991,-8.767355,-7.4767942,15.13492,5.3782606,11.835662,31.154383,0.61480075,0.3447564,13.718958,3.9657383,11.611613,30.262476,25.288366,-26.068295,39.72286,-1.108628,-4.912327,-2.6692114,-14.27871,-26.196457,41.134396,25.062368,24.777912,6.8533874,6.6453333
102,89.41507720947266,16.708406448364258,78.96810913085938,4.115853646812989,0.7851828366805277,-23.598890565896102,-13.452384,7.0701303,12.3955145,7.1528344,-9.379382,-7.8780317,15.697589,5.611994,12.200783,31.731195,1.3732691,2.5702162,13.682653,4.1592965,11.495234,30.644346,25.371994,-25.897108,39.096638,-1.0659864,-4.9059725,-3.065241,-13.838234,-26.191896,41.30276,24.692938,24.779457,6.8693266,7.2431145
103,90.4925308227539,16.50541114807129,78.86064910888672,3.8312072686138414,0.6575821712843867,-23.99038130729171,-13.432545,6.931986,11.265867,7.086744,-9.9224205,-8.281804,16.099417,5.783079,12.385273,32.709797,1.8025348,4.5859036,13.605719,4.322771,11.415722,30.855272,25.451921,-25.80266,38.562042,-1.0346748,-4.8970227,-3.4063115,-13.370815,-26.178337,41.426258,24.37629,24.78702,6.885315,7.8002396
104,91.55065155029297,16.310941696166992,78.70549774169922,3.579080463076802,0.5118912947587348,-24.36652612237801,-13.277472,6.7358346,10.125808,7.0555067,-10.420503,-8.661082,16.252844,5.85171,12.299101,34.204296,1.8140643,5.9348836,13.490616,4.433087,11.382406,30.994358,25.598581,-25.71323,38.004974,-1.0231658,-4.8899617,-3.6637363,-12.882174,-26.143335,41.523018,24.111938,24.909609,6.901478,8.260437
105,92.61280822753906,16.11297607421875,78.51119232177734,3.309057911935112,0.3469810624625953,-24.724620208233556,-12.975784,6.525958,8.865082,7.0616803,-11.045571,-9.042614,16.151024,5.85165,11.876638,36.24797,1.3439533,6.3934364,13.354174,4.5558705,11.36916,30.994823,25.772926,-25.683254,37.51364,-1.018883,-4.897202,-3.7963674,-12.3461275,-26.088991,41.570625,23.905197,25.202795,6.9212227,8.61409
106,93.65950775146484,15.919854164123535,78.27547454833984,3.0512848871314917,0.15966784766510758,-25.057649573150055,-12.528317,6.276797,7.5009985,7.101715,-11.729191,-9.429477,15.850298,5.7533717,11.1851845,38.741604,0.46796024,6.2320333,13.179424,4.66129,11.386597,30.865545,25.975819,-25.705301,37.072933,-1.0231118,-4.910947,-3.837121,-11.779073,-26.013538,41.58334,23.754757,25.606314,6.942368,8.886729
107,94.7004165649414,15.722970962524414,77.99758911132812,2.917599460466692,-0.04477983751237464,-25.378948711995925,-11.947109,5.909171,6.277722,7.164174,-12.133316,-9.765186,15.389139,5.4226513,10.349791,41.546326,-0.67241067,5.7440095,12.968489,4.6391163,11.470713,30.602135,26.194256,-25.752493,36.67844,-1.054595,-4.918411,-3.8266504,-11.213623,-25.918362,41.56745,23.677227,26.01858,6.9694185,9.091779
108,95.73662567138672,15.518775939941406,77.67522430419922,3.017902067535942,-0.26121015615837495,-25.704175365392537,-11.246196,5.347179,5.4304667,7.2397013,-11.916827,-9.997493,14.807617,4.736864,9.493974,44.529198,-1.931257,5.225322,12.725901,4.3798637,11.656909,30.202261,26.420216,-25.798513,36.32109,-1.1345831,-4.906555,-3.805853,-10.683453,-25.801664,41.528603,23.690401,26.338377,7.006006,9.243471
109,96.76014709472656,15.317021369934082,77.3558349609375,3.4347076595125325,-0.5064505047100242,-26.048360104174375,-10.361978,4.509378,5.0314584,7.3147,-10.707868,-10.123426,14.142472,3.5643399,8.611701,47.703983,-3.330759,4.6897836,12.458429,3.8103843,11.973494,29.671852,26.64059,-25.833942,36.004074,-1.2588077,-4.867061,-3.7579105,-10.192346,-25.663916,41.480896,23.794321,26.556965,7.069833,9.329192
110,97.7532958984375,15.117862701416016,77.018310546875,4.088283773798128,-0.7803898480905687,-26.41073424906752,-9.959766,3.5351622,4.888433,8.795681,-9.519168,-10.145691,13.405918,2.0010061,7.6956224,51.0798,-4.910852,4.008514,12.166851,3.0094912,12.394684,29.011742,26.85111,-25.869194,35.734505,-1.4153874,-4.8095593,-3.6683788,-9.732172,-25.504091,41.427135,23.987104,26.724504,7.1529145,9.346894
111,98.74298858642578,14.934433937072754,76.65474700927734,4.836095840482071,-1.0515891729917013,-26.780633210779484,-10.2245035,2.6052058,4.934251,11.836959,-9.038094,-10.034937,12.588408,0.28350416,6.845076,54.528503,-6.547894,3.2599099,11.847862,2.1032908,12.86999,28.21549,27.061491,-25.908474,35.50426,-1.6148618,-4.7472563,-3.5818124,-9.31372,-25.316292,41.350677,24.28264,26.824587,7.2198997,9.32691
112,99.71269989013672,14.77607536315918,76.25762939453125,5.524181468689949,-1.2862487921552157,-27.14119950288822,-10.656334,1.8387967,5.127016,15.117428,-9.180001,-9.797705,11.651899,-1.3363154,6.1359954,57.95231,-8.129171,2.512654,11.495584,1.2261623,13.344183,27.281723,27.29066,-25.957062,35.295788,-1.868472,-4.692195,-3.5444448,-8.947908,-25.091387,41.230804,24.696302,26.841768,7.235421,9.299957
113,100.64382934570312,14.62124252319336,75.81275177001953,6.139644953998984,-1.4681350429638635,-27.48081707635517,-11.498386,1.261628,5.507349,19.05028,-10.237841,-9.395277,10.541372,-2.839853,5.5740595,61.424297,-9.666002,1.755284,11.109972,0.36055043,13.823454,26.201088,27.554745,-25.976032,35.108456,-2.2297294,-4.6404176,-3.5671864,-8.657624,-24.82134,41.059246,25.22336,26.792885,7.1740203,9.322593
114,101.55948638916016,14.426216125488281,75.35032653808594,6.7176017555521454,-1.6172644128522662,-27.810162834850694,-12.643079,0.8320943,6.08208,23.549093,-11.87222,-8.855545,9.280625,-4.300127,5.124673,64.97228,-11.206731,0.94585866,10.699113,-0.5163904,14.3188,24.993532,27.8575,-25.975574,34.926704,-2.679151,-4.5855827,-3.6272554,-8.43255,-24.503605,40.841187,25.865856,26.676624,7.0582433,9.363295
115,102.46188354492188,14.197381973266602,74.8858871459961,7.217887806360734,-1.7509225672809723,-28.13708802359967,-13.732806,0.5364624,6.7155285,27.949368,-13.781991,-8.299998,7.9320564,-5.6469707,4.7832665,68.452446,-12.7172165,0.117139615,10.262935,-1.3221977,14.789095,23.685797,28.197786,-26.04082,34.72326,-3.1224804,-4.5363717,-3.720665,-8.229354,-24.139378,40.573425,26.643358,26.451368,6.9282255,9.318622
116,103.34447479248047,13.954045295715332,74.41682434082031,7.623986445645179,-1.8862476492631577,-28.468718449633094,-14.429988,0.3236798,7.286409,31.624765,-15.686378,-7.847307,6.5569234,-6.8312387,4.539231,71.7261,-14.163768,-0.68550205,9.8006525,-1.9947994,15.199659,22.293617,28.57019,-26.262707,34.478382,-3.4672492,-4.501926,-3.843802,-7.9929814,-23.731567,40.24749,27.566273,26.072018,6.824741,9.085212
117,104.23413848876953,13.718770027160645,73.95841217041016,7.93813999391457,-2.0269592035398123,-28.77810926228987,-14.6874275,0.16414511,7.7655654,34.497036,-17.67892,-7.5218196,5.159964,-7.8657846,4.347832,74.81229,-15.574804,-1.4650083,9.288875,-2.522256,15.549338,20.771532,28.971643,-26.710766,34.256294,-3.7194908,-4.4886575,-3.98869,-7.702588,-23.275229,39.820587,28.673922,25.492302,6.789875,8.69371
118,105.13445281982422,13.495243072509766,73.51837921142578,8.18939671269691,-2.162646318624492,-29.067935574685986,-14.6971,0.034026455,8.229987,36.911823,-19.871248,-7.261879,3.7040439,-8.7818575,4.21731,77.782974,-16.962116,-2.2285473,8.739015,-2.9590743,15.857475,19.11314,29.396633,-27.334686,34.0475,-3.9209642,-4.4899683,-4.159375,-7.3820252,-22.77087,39.298496,29.945457,24.74624,6.797651,8.180832
119,106.05170440673828,13.279576301574707,73.1092300415039,8.401871007348328,-2.289178524775268,-29.391589234356637,-14.49141,-0.09234231,8.719245,38.91377,-22.02815,-7.0521464,2.1857703,-9.554997,4.2006736,80.57408,-18.258184,-2.9436376,8.192754,-3.3401423,16.122536,17.391048,29.833305,-28.040764,33.72873,-4.035196,-4.496836,-4.371241,-7.0430574,-22.23497,38.758373,31.298254,23.908262,6.7866707,7.450483
120,106.98695373535156,13.061531066894531,72.76282501220703,8.59890924159972,-2.4020851723918812,-29.801745922419514,-14.094222,-0.21869661,9.26135,40.537315,-23.91207,-6.882725,0.5991169,-10.157708,4.348328,83.1165,-19.390839,-3.5765173,7.689057,-3.6952355,16.343092,15.692826,30.267815,-28.720903,33.17135,-4.011264,-4.5011635,-4.6399345,-6.6963983,-21.69438,38.286068,32.6405,23.057516,6.6978188,6.4030595
121,107.9156494140625,12.82707405090332,72.48139190673828,8.796610534738152,-2.4957844259482855,-30.35806383938177,-13.47065,-0.32032862,9.8983755,41.759193,-25.490288,-6.7721987,-1.1010656,-10.5734825,4.73272,85.4404,-20.30551,-4.1193233,7.2682114,-4.022979,16.521496,13.998096,30.695028,-29.393095,32.36221,-3.7322414,-4.504403,-4.99349,-6.3394814,-21.164934,37.92842,33.997463,22.129522,6.4709907,4.8457413
122,108.85331726074219,12.576849937438965,72.2528305053711,8.982869152861475,-2.5734058447326102,-31.016220948558438,-12.619461,-0.3888313,10.594217,42.58372,-26.886013,-6.721762,-2.9011512,-10.81011,5.2886176,87.56458,-21.044182,-4.5855517,6.8935637,-4.306582,16.660894,12.287604,31.112736,-30.083273,31.35611,-3.245669,-4.5136156,-5.416593,-5.9589734,-20.651426,37.641567,35.37854,21.10992,6.1744275,2.8813908
123,109.77918243408203,12.302125930786133,72.06843566894531,9.135800671609617,-2.643498236009043,-31.674091082802544,-11.609767,-0.44597197,11.255885,43.076763,-28.092628,-6.6996226,-4.7219267,-10.877833,5.8574786,89.408844,-21.672321,-4.9734197,6.4825926,-4.5490475,16.761196,10.581751,31.519836,-30.735306,30.1901,-2.7922816,-4.5288644,-5.858539,-5.550565,-20.167297,37.38102,36.665997,20.157417,5.9254823,0.8550096
124,110.67288208007812,12.01156997680664,71.92057037353516,9.23323137139084,-2.7161562156064942,-32.2292760836244,-10.515348,-0.51991105,11.794857,43.30475,-29.104574,-6.6693735,-6.479779,-10.796306,6.281409,90.888016,-22.259472,-5.280878,5.9646497,-4.751762,16.817343,9.066011,31.90764,-31.20871,28.76854,-2.5051806,-4.543324,-6.272015,-5.094974,-19.7317,37.090637,37.73331,19.44137,5.818415,-0.8837833
125,111.57218170166016,11.711115837097168,71.83076477050781,9.279116744360817,-2.7960106352748224,-32.64168479243532,-9.347354,-0.6411039,12.183669,43.2574,-29.92906,-6.6131067,-8.177256,-10.552235,6.5433116,91.99615,-22.826231,-5.478853,5.2777014,-4.926837,16.837227,7.435976,32.296406,-31.636496,27.30396,-2.6629329,-4.5641847,-6.67978,-4.580215,-19.360056,36.769306,38.507168,18.98521,5.923574,-2.3465576
126,112.48448944091797,11.400991439819336,71.80707550048828,9.282428193959698,-2.879052589563128,-32.969488937794985,-8.071308,-0.7897942,12.472273,42.90915,-30.566185,-6.553857,-9.847798,-10.149534,6.7057157,92.77125,-23.33004,-5.5755486,4.5063143,-5.062929,16.815445,5.9366345,32.680614,-31.938673,25.579794,-2.9643977,-4.583506,-7.097525,-3.9751463,-19.059475,36.40666,39.035385,18.71458,6.1595736,-3.6796596
127,113.3926773071289,11.060205459594727,71.85226440429688,9.227137054773504,-2.9632706632610777,-33.25838629512146,-6.689704,-0.9215215,12.691345,42.293324,-30.995335,-6.510716,-11.455714,-9.6465,6.7360053,93.19126,-23.744972,-5.626016,3.6773462,-5.1347566,16.766283,4.5320525,33.056396,-32.16154,23.7089,-3.3695335,-4.5886354,-7.460604,-3.3404832,-18.835527,36.05274,39.401405,18.662575,6.3748164,-4.748551
128,114.31391143798828,10.706497192382812,71.96138000488281,9.097159838244636,-3.0469576899882265,-33.55385091248958,-5.205268,-0.9921126,12.873815,41.445755,-31.196806,-6.5014343,-12.964509,-9.097511,6.602729,93.233734,-24.046776,-5.6858363,2.828876,-5.1157713,16.701853,3.2677479,33.41164,-32.30968,21.741024,-3.7794406,-4.568371,-7.7027054,-2.729492,-18.69283,35.74598,39.692566,18.85338,6.4190826,-5.4168105
129,115.22774505615234,10.338627815246582,72.12964630126953,8.86141484148178,-3.138619206726582,-33.855568739778164,-3.5877385,-0.9684723,13.016459,40.330837,-31.200747,-6.535052,-14.37113,-8.477729,6.2763243,92.871506,-24.216303,-5.7568684,1.9467863,-4.9715104,16.62761,2.1714432,33.731934,-32.339554,19.636473,-4.1830144,-4.49762,-7.764248,-2.1522436,-18.64028,35.47929,39.91166,19.39798,6.2210245,-5.52227
130,116.14898681640625,9.959622383117676,72.34989166259766,8.537280842870192,-3.2382217718204496,-34.14280861010147,-1.8438656,-0.8818726,13.110446,38.944042,-31.00612,-6.5975504,-15.686477,-7.7794423,5.7766337,92.11487,-24.27068,-5.810874,1.0263903,-4.720175,16.537296,1.3502327,34.00885,-32.20286,17.289211,-4.5402546,-4.3910294,-7.691691,-1.5667443,-18.681192,35.22833,40.012722,20.247118,5.874991,-5.174428
131,117.08134460449219,9.55474853515625,72.62339782714844,8.180030686060515,-3.3303495680503126,-34.43071668665653,-0.036108017,-0.7827048,13.17824,37.375263,-30.549894,-6.6715264,-16.896627,-7.078345,5.1491113,91.00389,-24.245832,-5.8576946,0.07018854,-4.4179115,16.44745,0.31283113,34.269173,-32.158047,15.165196,-5.094724,-4.304407,-7.578831,-1.0020646,-18.80658,35.056248,40.023792,21.189024,5.4776764,-4.649757
132,118.02377319335938,9.130885124206543,72.94631958007812,7.845706159233008,-3.399223525646085,-34.735131858005104,1.7744079,-0.7232979,13.238935,35.711666,-29.767803,-6.740447,-17.986752,-6.449255,4.4424696,89.57862,-24.177532,-5.9076843,-0.8364985,-4.1181254,16.338089,-0.49794862,34.51018,-32.104538,12.983242,-5.543168,-4.282805,-7.518089,-0.41722706,-18.992823,34.9464,39.967655,21.997433,5.117114,-4.221197
133,118.96894073486328,8.690285682678223,73.31604766845703,7.544255110775068,-3.4470686733260836,-35.07097024967791,3.623909,-0.7211338,13.287556,33.89475,-28.616308,-6.8140907,-18.95698,-5.9031157,3.6638982,87.83696,-24.092701,-5.9695573,-1.7127987,-3.8427598,16.213636,-1.2957289,34.747463,-32.12134,10.914382,-6.043705,-4.3567333,-7.514364,0.13464595,-19.227547,34.963657,39.888565,22.682673,4.7662535,-3.881019
134,119.9054946899414,8.230926513671875,73.71849060058594,7.246909398347657,-3.4802717169879025,-35.42689583654664,5.527177,-0.7451582,13.3134365,31.909369,-27.141619,-6.895304,-19.803953,-5.3968396,2.7894285,85.75728,-23.97137,-6.029238,-2.5743835,-3.564988,16.074837,-2.0576308,34.983513,-32.17173,8.903525,-6.5964017,-4.4936643,-7.5244117,0.6521968,-19.505032,35.07853,39.780445,23.337032,4.3939977,-3.508985
135,120.8486557006836,7.756210803985596,74.15740203857422,6.952688638965649,-3.4890050214788033,-35.78004028035434,7.3898816,-0.77646464,13.327092,29.908625,-25.414013,-6.9583936,-20.51172,-4.9232607,1.8260038,83.35494,-23.778683,-6.0644255,-3.4210622,-3.2713213,15.918663,-2.7357798,35.21869,-32.25074,6.9387126,-7.1096654,-4.650931,-7.5772033,1.163645,-19.812128,35.227074,39.6284,23.863087,4.06685,-3.225608
136,121.799560546875,7.2677836418151855,74.62422943115234,6.6614670370825975,-3.463056400967705,-36.108118048063865,9.115471,-0.7966428,13.342459,28.050875,-23.504768,-6.978543,-21.068098,-4.479335,0.7852006,80.644485,-23.48042,-6.0564213,-4.2523904,-2.9486756,15.7438135,-3.3341615,35.453156,-32.3756,5.050613,-7.5181875,-4.7861385,-7.700539,1.6966643,-20.130205,35.34424,39.41962,24.161415,3.8479564,-3.1541777
137,122.7641830444336,6.770481109619141,75.11600494384766,6.365704410516034,-3.4011693944768653,-36.39737676439573,10.702469,-0.7967805,13.352462,26.33293,-21.380146,-6.965293,-21.472055,-4.0769734,-0.33956757,77.608025,-23.077908,-6.037817,-5.0834846,-2.5881183,15.549544,-3.9076612,35.691963,-32.57632,3.2816427,-7.797603,-4.8955913,-7.9207983,2.2346349,-20.447882,35.445023,39.16593,24.126623,3.7808301,-3.3614628
138,123.73601531982422,6.249968528747559,75.62161254882812,6.071506989832867,-3.3087228204134775,-36.66516246770516,12.190596,-0.78780085,13.357254,24.699883,-19.026144,-6.930239,-21.725128,-3.7108233,-1.5422837,74.24349,-22.590382,-6.0034122,-5.9045687,-2.2043047,15.337152,-4.424855,35.935513,-32.833805,1.5953934,-7.9784017,-4.9993677,-8.215868,2.7636657,-20.760155,35.550213,38.8855,23.832897,3.820904,-3.7727282
139,124.70811462402344,5.716935634613037,76.13509368896484,5.800479207436782,-3.1859144430096973,-36.935327845774076,13.54584,-0.7827253,13.385179,23.230167,-16.537998,-6.8532505,-21.82791,-3.3569176,-2.7866158,70.58602,-22.005507,-5.8830576,-6.6836443,-1.8199245,15.10854,-4.86315,36.178566,-33.12423,-0.011049047,-8.131123,-5.0915713,-8.541529,3.3036869,-21.05928,35.61243,38.583397,23.452068,3.8982215,-4.3003345
140,125.68208312988281,5.1805009841918945,76.6484603881836,5.57250607961223,-3.0329162588410394,-37.2306346816379,14.737922,-0.7960218,13.464966,21.990839,-14.006201,-6.714775,-21.78468,-2.9948654,-4.0348616,66.66176,-21.307016,-5.6133575,-7.387408,-1.4559766,14.8632765,-5.227618,36.4127,-33.435444,-1.5161147,-8.338441,-5.166089,-8.852812,3.8777745,-21.336815,35.580017,38.264053,23.152918,3.93987,-4.8573337
141,126.66439056396484,4.634649753570557,77.15577697753906,5.372577864597821,-2.8368880182620444,-37.55265793220104,15.714844,-0.79723626,13.65553,21.056273,-11.371824,-6.450569,-21.581953,-2.6412349,-5.316206,62.386925,-20.440525,-5.184074,-8.009753,-1.086925,14.594005,-5.5102787,36.630795,-33.77909,-2.9245305,-8.614811,-5.217367,-9.150684,4.485511,-21.586433,35.43845,37.94882,22.925327,3.911773,-5.4724145
142,127.65685272216797,4.076541423797607,77.64356994628906,5.198596022781775,-2.6025661526686066,-37.89123361478496,16.507568,-0.78831774,13.935136,20.373117,-8.607157,-6.102433,-21.223272,-2.2982733,-6.6260514,57.762497,-19.425625,-4.6329184,-8.565311,-0.7128686,14.299906,-5.743763,36.83158,-34.168663,-4.2128143,-8.928716,-5.250078,-9.45528,5.1117067,-21.805122,35.21511,37.63857,22.696434,3.8579037,-6.175386
143,128.65382385253906,3.507516860961914,78.11260223388672,5.087882945166346,-2.3545938438964207,-38.25023977425907,17.207626,-0.8356589,14.200972,19.813362,-5.843406,-5.8019567,-20.742275,-1.9334552,-7.8724327,52.92931,-18.35355,-3.975845,-9.05174,-0.3936049,13.985023,-5.9006267,37.01184,-34.5678,-5.389276,-9.239021,-5.272164,-9.74867,5.764518,-21.9909,34.915672,37.30405,22.535976,3.8175564,-6.88087
144,129.65330505371094,2.9214043617248535,78.54882049560547,5.077327966889859,-2.1169744792692757,-38.63167132914579,17.908852,-1.013617,14.336047,19.234577,-3.209817,-5.669901,-20.176079,-1.5273625,-8.960716,48.027374,-17.313372,-3.2373884,-9.471273,-0.18724582,13.653282,-5.9849916,37.170567,-34.94525,-6.438138,-9.525245,-5.292108,-10.014659,6.4503865,-22.1427,34.549805,36.913822,22.516924,3.8278816,-7.503893
145,130.64959716796875,2.3282198905944824,78.94409942626953,5.19381028659871,-1.8822598764538878,-39.03526382696073,18.64945,-1.3752255,14.311977,18.513834,-0.5905081,-5.759293,-19.47759,-1.095903,-9.890138,42.90246,-16.283009,-2.368974,-9.830563,-0.116782464,13.290212,-5.968212,37.30791,-35.290962,-7.36868,-9.783202,-5.3250976,-10.243009,7.1754584,-22.257473,34.108204,36.45442,22.685017,3.917332,-8.049758
146,131.64895629882812,1.7157105207443237,79.29492950439453,5.415328457704318,-1.6404040171706131,-39.45344200084714,19.38371,-1.8819178,14.166676,17.724669,2.050536,-5.9919415,-18.632002,-0.6799187,-10.685163,37.49439,-15.215674,-1.4103737,-10.135218,-0.153702,12.89454,-5.861829,37.42515,-35.619312,-8.180612,-10.025681,-5.3622317,-10.446066,7.9319086,-22.33325,33.591515,35.944473,22.993166,4.056573,-8.556287
147,132.64486694335938,1.101127028465271,79.59468841552734,5.706320944561506,-1.411100938794847,-39.876031385156004,20.089912,-2.473616,13.879916,17.00298,4.4672303,-6.2836637,-17.716503,-0.29296285,-11.302351,32.074898,-14.157208,-0.50856113,-10.390151,-0.2793878,12.489272,-5.7040505,37.51932,-35.92576,-8.861332,-10.242558,-5.3759623,-10.641938,8.697318,-22.37049,33.032246,35.408344,23.381107,4.195786,-8.987146
148,133.6333465576172,0.47803428769111633,79.83767700195312,6.032078136563767,-1.2147418590974057,-40.293084986297295,20.74052,-3.0866272,13.442459,16.50029,6.4031997,-6.547993,-16.819107,0.06934033,-11.713135,26.944536,-13.15771,0.21334879,-10.599127,-0.47659746,12.099136,-5.5148597,37.58883,-36.201588,-9.414249,-10.413486,-5.338691,-10.84764,9.455961,-22.377037,32.460377,34.861996,23.787113,4.2873745,-9.304344
149,134.61212158203125,-0.16048240661621094,80.02454376220703,6.417826074256183,-1.0454572007245124,-40.69361944213779,21.339235,-3.7908099,12.654936,16.171211,7.7910805,-6.795242,-15.94749,0.41915,-11.910181,22.060944,-12.196296,0.7853421,-10.748684,-0.77139056,11.710772,-5.314205,37.644005,-36.478535,-9.844022,-10.559838,-5.234209,-11.076758,10.257193,-22.358412,31.835592,34.264736,24.252083,4.3123655,-9.493585
150,135.5825958251953,-0.801592230796814,80.15311431884766,6.902605045013842,-0.8996777175452377,-41.07323760116373,21.921942,-4.620161,11.574597,15.935725,8.785877,-7.0495934,-15.050994,0.70800227,-11.914496,17.292356,-11.251637,1.2628641,-10.872571,-1.196245,11.312261,-5.0662456,37.6777,-36.723904,-10.152175,-10.678179,-5.079075,-11.324459,11.0772915,-22.312405,31.18217,33.630116,24.79536,4.2992735,-9.580045
151,136.53196716308594,-1.4364237785339355,80.22164916992188,7.457204389887097,-0.7993731407560482,-41.443872917302706,22.481684,-5.4369874,10.600311,15.936028,9.439496,-7.243055,-14.170013,0.894651,-11.757334,12.884295,-10.392878,1.5888473,-10.958352,-1.7266748,10.947072,-4.79262,37.691895,-36.94109,-10.334016,-10.734849,-4.89904,-11.552152,11.884253,-22.239445,30.524055,32.97337,25.301693,4.2791247,-9.568207
152,137.45828247070312,-2.071168899536133,80.23837280273438,8.01140093017241,-0.7609460484220659,-41.83385492619059,22.973347,-6.059761,10.157113,16.365305,9.7742405,-7.3109426,-13.318254,1.0159329,-11.479062,9.011795,-9.650934,1.7123479,-10.980042,-2.2962365,10.663136,-4.5197935,37.687164,-37.130787,-10.378555,-10.700413,-4.720789,-11.721545,12.63311,-22.138538,29.890102,32.32493,25.6554,4.28197,-9.462561
153,138.3631591796875,-2.7069590091705322,80.21148681640625,8.481261528835823,-0.7755077776585936,-42.28663583042513,23.33138,-6.374363,10.402125,17.390896,9.670547,-7.2426043,-13.220316,1.0414541,-11.150064,7.233101,-9.8507805,1.4831561,-10.902523,-2.8225965,10.48144,-4.2466927,37.660313,-37.281227,-10.275768,-10.545412,-4.5359592,-11.835019,13.305229,-22.014317,29.288984,31.696327,25.80552,4.3143673,-9.219345
154,139.25283813476562,-3.3411455154418945,80.15250396728516,8.869204252582087,-0.8290442952996658,-42.79917581165845,23.548355,-6.408755,11.129617,18.972874,9.097194,-7.0648303,-13.728392,1.0638107,-10.746986,7.1349044,-10.803731,0.9930912,-10.723267,-3.3022218,10.38271,-3.9679158,37.607765,-37.3997,-10.029872,-10.293652,-4.33699,-11.9078,13.920449,-21.86747,28.704975,31.07767,25.820047,4.3604836,-8.8488865
155,140.12567138671875,-3.972907066345215,80.05021667480469,9.21974084337109,-0.9268846319742944,-43.33308496670747,23.672874,-6.188134,12.223926,20.969904,8.211337,-6.771331,-14.068566,1.1951177,-10.176298,7.070969,-11.615688,0.5533521,-10.482197,-3.7710967,10.353614,-3.6756597,37.52783,-37.48457,-9.6613655,-9.991587,-4.1505194,-11.926817,14.472977,-21.701557,28.154526,30.479107,25.768326,4.414246,-8.440088
156,140.99159240722656,-4.603031635284424,79.89601135253906,9.587624657899614,-1.0760281990032892,-43.84555346579616,23.761929,-5.7656865,13.5639715,23.219898,7.183601,-6.360313,-14.217861,1.3618822,-9.350761,7.028091,-12.245443,0.4721033,-10.226566,-4.2755537,10.379755,-3.3599992,37.42174,-37.530766,-9.19337,-9.687652,-4.0022297,-11.878943,14.9580555,-21.521757,27.6567,29.907608,25.720337,4.4707007,-8.08269
157,141.8463897705078,-5.24232292175293,79.69036865234375,10.041501969957116,-1.2956296674537144,-44.32308641286622,23.891075,-5.1854606,15.233908,25.665459,6.014337,-5.790034,-14.15764,1.5075171,-8.0989485,7.002938,-12.731222,1.0273167,-9.965398,-4.889389,10.465754,-3.0046115,37.291733,-37.52829,-8.630093,-9.385942,-3.9062362,-11.749513,15.401181,-21.331156,27.215574,29.337631,25.679602,4.5239425,-7.805114
158,142.68492126464844,-5.88073205947876,79.43740844726562,10.527469389784951,-1.572470342490779,-44.788966217421546,24.045452,-4.395527,17.24056,28.374203,4.629679,-5.0745225,-13.895382,1.6722549,-6.5202503,6.994531,-13.071245,1.9857419,-9.675285,-5.5578113,10.616613,-2.6159315,37.13872,-37.480076,-7.9640026,-9.064904,-3.8451273,-11.54894,15.797634,-21.132915,26.822044,28.772501,25.614506,4.5781198,-7.5578575
159,143.51666259765625,-6.513284206390381,79.13970947265625,10.916952526430602,-1.8665317623782791,-45.25121436439927,24.149902,-3.3208263,19.350164,31.347582,3.1050208,-4.3016276,-13.456709,1.9171343,-4.9299746,7.0018544,-13.166261,2.8798738,-9.359037,-6.134186,10.817013,-2.2131631,36.96178,-37.399277,-7.204258,-8.731209,-3.7982152,-11.301753,16.10098,-20.93224,26.474749,28.258368,25.542727,4.644574,-7.313725
160,144.35488891601562,-7.132583141326904,78.80706024169922,11.083175994699022,-2.141184233638388,-45.71081679414597,24.129927,-1.8894131,21.329117,34.56706,1.5349607,-3.5570343,-12.873492,2.308496,-3.6384284,7.029588,-12.924101,3.24123,-9.0260935,-6.47541,11.048909,-1.8164701,36.75835,-37.299786,-6.357632,-8.390774,-3.7448752,-11.032546,16.265139,-20.73635,26.171312,27.842077,25.481804,4.734818,-7.045719
161,145.18650817871094,-7.758442401885986,78.43256378173828,11.032603848680615,-2.4092965281077903,-46.161706404982766,24.03769,-0.07924204,23.202663,38.006264,-0.021978898,-2.8235505,-12.0780325,2.8219929,-2.6962798,7.0827703,-12.336672,3.076671,-8.683729,-6.5892444,11.304218,-1.4019295,36.525787,-37.176403,-5.437346,-8.022842,-3.6686943,-10.731056,16.310234,-20.548954,25.909632,27.513214,25.420067,4.862782,-6.734099
162,145.99021911621094,-8.375776290893555,78.04400634765625,10.823874470350612,-2.6928959255921305,-46.592867691934515,23.945936,2.058356,25.040993,41.617496,-1.5908878,-2.0655215,-11.082814,3.4337618,-1.9528916,7.169029,-11.450365,2.6051576,-8.33773,-6.5404325,11.593727,-0.9694612,36.263557,-37.026726,-4.433445,-7.631516,-3.5833735,-10.389796,16.257717,-20.372519,25.688644,27.246885,25.353794,5.019619,-6.3978133
163,146.77764892578125,-8.995357513427734,77.64710998535156,10.425040696467848,-2.9738262393882087,-46.993882653718025,23.794119,4.464058,26.677021,45.339672,-3.1888416,-1.3411605,-10.095395,4.20236,-1.4115754,7.4066653,-10.303799,1.6794152,-8.000492,-6.2881446,11.925352,-0.5733176,35.972214,-36.868958,-3.3216808,-7.261161,-3.514293,-10.03843,16.066673,-20.210754,25.509823,27.064808,25.313972,5.18187,-6.0672584
164,147.56324768066406,-9.605562210083008,77.21678924560547,9.82589334502244,-3.2301778585131844,-47.358391350984185,23.496895,7.0501738,27.946064,49.112816,-4.830766,-0.7101423,-10.958707,5.1133637,-1.212088,11.360086,-10.75293,0.14843434,-7.6801205,-5.813182,12.300906,-0.272273,35.653095,-36.721996,-2.0749977,-6.958829,-3.4872842,-9.705903,15.700507,-20.067507,25.373365,26.981182,25.331772,5.328583,-5.77452
165,148.3306884765625,-10.19847297668457,76.7542495727539,8.963363190695993,-3.466912627385521,-47.659205416223074,23.014233,9.929194,28.831808,53.019894,-6.523235,-0.22716677,-12.266087,6.249177,-1.3723031,15.936724,-10.751521,-2.4295988,-7.3968897,-5.0560546,12.731649,-0.10627416,35.314434,-36.599545,-0.71010476,-6.826752,-3.4947095,-9.440078,15.165531,-19.94347,25.260906,26.944677,25.392305,5.4750185,-5.511359
166,149.06866455078125,-10.772001266479492,76.25785827636719,8.00039183743785,-3.705332801391158,-47.89923046428205,22.408142,12.916544,29.387444,56.963116,-8.202235,0.17537503,-13.94104,7.384678,-1.9017506,21.137478,-10.434954,-5.8335686,-7.151342,-4.1886086,13.201811,-0.026631793,34.96397,-36.485504,0.7534884,-6.8106637,-3.5277438,-9.213159,14.496409,-19.836533,25.175236,26.941662,25.486074,5.6274414,-5.2696996
167,149.79026794433594,-11.327049255371094,75.75586700439453,7.142792634514394,-3.931420129524694,-48.130533454310985,21.667032,15.626629,29.574858,60.725227,-9.838836,0.5857637,-15.565814,8.313299,-2.570513,26.162634,-10.190071,-9.257404,-6.908612,-3.4124331,13.678172,0.040153254,34.596306,-36.35164,2.3418503,-6.71883,-3.6106846,-8.938483,13.680458,-19.749037,25.14782,27.063683,25.654215,5.749717,-5.0794144
168,150.5355682373047,-11.857407569885254,75.25130462646484,6.495709992353364,-4.118704786687696,-48.41584724634361,20.738605,17.796204,29.369808,64.17018,-11.437271,1.0632205,-16.7888,9.014128,-3.065214,30.373726,-10.489421,-11.880394,-6.6230354,-2.8198237,14.128951,0.16186152,34.192825,-36.17011,4.091879,-6.356153,-3.766492,-8.528638,12.697529,-19.686773,25.210136,27.410366,25.939793,5.8050714,-4.968371
169,151.3096466064453,-12.361461639404297,74.76484680175781,6.0381600613783295,-4.2316562643702245,-48.81177921854849,19.52736,19.38137,28.732283,67.35923,-13.097495,1.6726964,-17.653708,9.587886,-3.2448997,33.868427,-11.739244,-13.440512,-6.25497,-2.3671477,14.549875,0.34045127,33.728798,-35.925774,6.04745,-5.7417536,-4.0069227,-7.989899,11.481405,-19.662386,25.375608,28.060488,26.499538,5.747792,-4.9114947
170,152.0806121826172,-12.86719036102295,74.30704498291016,5.655651105324239,-4.282596142484969,-49.2828092726996,18.017448,20.569887,27.692928,70.40762,-14.810056,2.3312676,-18.379868,10.139291,-3.2535543,37.068367,-13.690273,-14.390603,-5.830217,-1.9402792,14.955148,0.52776283,33.195255,-35.631855,8.2008915,-4.951301,-4.3124104,-7.3580546,10.062843,-19.67801,25.625566,28.938175,27.267298,5.6090255,-4.9032373
171,152.8196258544922,-13.384326934814453,73.87879180908203,5.314221136489791,-4.315248645209651,-49.75562377589361,16.289415,21.45506,26.353428,73.26124,-16.41943,2.883494,-18.923908,10.679944,-3.1809573,39.932335,-15.873989,-14.964493,-5.39235,-1.5291162,15.338115,0.7269509,32.600075,-35.30828,10.50455,-3.8643448,-4.6513834,-6.5853953,8.564359,-19.719324,25.940535,29.918604,27.950062,5.466155,-5.001331
172,153.54624938964844,-13.933268547058105,73.47944641113281,5.044853789147242,-4.371487700505321,-50.13799928234538,14.4292755,22.06213,24.825619,75.836525,-17.758818,3.2070043,-19.24661,11.096246,-3.0654833,42.433563,-17.830307,-15.000033,-5.001284,-1.1918089,15.685732,0.9432277,31.964045,-34.98293,12.904972,-2.3653274,-4.985864,-5.6215477,7.0990653,-19.761791,26.302282,30.892172,28.25148,5.3953133,-5.2658057
173,154.26400756835938,-14.507572174072266,73.1146240234375,4.757902795990307,-4.473832873664926,-50.40454682256358,12.410034,22.460297,22.993048,78.18069,-18.772179,3.1714702,-19.230148,11.500903,-3.009207,44.377033,-19.431166,-15.000033,-4.6653876,-0.8647647,16.019897,1.1871351,31.299109,-34.664925,15.464567,-0.1482731,-5.3032155,-4.3479543,5.663977,-19.77468,26.731676,31.932861,27.989222,5.435653,-5.786115
174,154.97962951660156,-15.089410781860352,72.80389404296875,4.456306820636558,-4.5959374453096995,-50.60864800364871,10.2211685,22.60953,20.871977,80.33065,-19.559835,2.8626723,-18.92508,11.915971,-2.98009,45.837616,-20.926725,-15.000033,-4.3457727,-0.54058236,16.340103,1.4585918,30.610018,-34.34712,18.175642,2.636227,-5.5745497,-2.817981,4.192932,-19.747728,27.229652,33.093803,27.34839,5.5460305,-6.5055003
175,155.6934051513672,-15.679240226745605,72.55863952636719,4.182913765200363,-4.71367877315095,-50.81350164206785,7.9916325,22.569304,18.760778,82.23552,-20.21509,2.427818,-18.449978,12.312049,-2.9095383,46.979496,-22.298485,-15.000033,-3.9989996,-0.24220842,16.622383,1.7546641,29.914417,-34.03197,20.872828,5.4112406,-5.764459,-1.2453951,2.7088675,-19.697952,27.75045,34.22738,26.584894,5.6800256,-7.2651787
176,156.40260314941406,-16.271989822387695,72.37101745605469,3.9786062716611372,-4.802913153613538,-51.082681936596224,5.8362765,22.43178,16.948204,83.84118,-20.825523,2.0248365,-17.919798,12.662895,-2.730549,47.957317,-23.522058,-15.000033,-3.5844836,0.011790957,16.84822,2.075812,29.238792,-33.716503,23.379324,7.5909414,-5.8891973,0.15396112,1.2460955,-19.66009,28.249334,35.16183,25.959202,5.7829676,-7.9069777
177,157.1074676513672,-16.87344741821289,72.23020935058594,3.859116135438204,-4.863772086926971,-51.421399148872496,3.746149,22.194857,15.451058,85.137924,-21.388496,1.6523519,-17.337486,12.9503765,-2.4297907,48.783485,-24.597664,-15.000033,-3.091128,0.20798977,17.028225,2.4356441,28.600582,-33.380894,25.669376,9.155447,-6.001493,1.4233778,-0.17492859,-19.662207,28.72982,35.816708,25.490492,5.881197,-8.479704
178,157.80445861816406,-17.473163604736328,72.1343765258789,3.7970613687202888,-4.906807304397755,-51.79797014253241,1.6729759,21.848875,14.137442,86.15806,-21.86434,1.2500103,-16.648352,13.189613,-2.0417676,49.38193,-25.533772,-15.000033,-2.5460455,0.36462113,17.178698,2.8508332,28.00557,-33.023235,27.7931,10.364037,-6.1056895,2.6415153,-1.5566591,-19.709911,29.215364,36.25169,25.066393,5.9914165,-9.034672
179,158.48516845703125,-18.069150924682617,72.08843231201172,3.772469455750114,-4.923064152965052,-52.223608943437775,-0.34101605,21.489527,13.061167,86.89943,-22.27425,0.8919871,-15.876999,13.402403,-1.5688962,49.76895,-26.31627,-15.000033,-1.9635625,0.505199,17.289223,3.3253846,27.463886,-32.66519,29.690256,11.0487795,-6.1900315,3.6466591,-2.900696,-19.803295,29.693842,36.509117,24.745016,6.034015,-9.42011
180,159.1544647216797,-18.679811477661133,72.0937728881836,3.763936597052633,-4.903612861530569,-52.70857430133445,-2.2598848,21.215807,12.269638,87.36108,-22.640312,0.6531879,-15.050724,13.612729,-1.014808,49.96466,-26.932604,-15.000033,-1.3570979,0.6525252,17.348421,3.8608103,26.989594,-32.33055,31.300621,11.037239,-6.248162,4.2759686,-4.211993,-19.94135,30.150646,36.63754,24.582432,5.926825,-9.48414
181,159.81813049316406,-19.29093360900879,72.14985656738281,3.767458196982763,-4.839400307973667,-53.27448501569923,-4.088568,21.07595,11.807758,87.54132,-22.967934,0.56213534,-14.171532,13.836417,-0.35732225,49.95677,-27.381533,-15.000033,-0.71258295,0.8128244,17.343504,4.469891,26.597864,-32.012825,32.572792,9.975307,-6.3003216,4.3534684,-5.5056877,-20.13072,30.589493,36.63943,24.689909,5.5731206,-9.072987
182,160.4925994873047,-19.917560577392578,72.25765228271484,3.792886273719114,-4.736764461266102,-53.90955428455474,-5.8472366,21.027588,11.633181,87.436676,-23.242016,0.57725525,-13.22725,14.052964,0.39989987,49.744343,-27.670973,-15.000033,-0.029870583,0.9698615,17.28812,5.15953,26.293566,-31.699926,33.53317,8.049355,-6.345939,4.0050244,-6.77464,-20.374235,31.021812,36.48558,25.01205,5.0437627,-8.302041
183,161.15823364257812,-20.55771255493164,72.41413879394531,3.8390295607163702,-4.609925044527666,-54.573805496039704,-7.52127,21.028654,11.66139,87.04058,-23.452862,0.6668359,-12.222928,14.232495,1.2137995,49.358166,-27.798317,-15.000033,0.65900326,1.1120363,17.208563,5.917699,26.069534,-31.408722,34.245953,5.9040666,-6.348418,3.5236993,-7.9898505,-20.660048,31.440695,36.183163,25.34788,4.504973,-7.42622
184,161.81605529785156,-21.213735580444336,72.62018585205078,3.9166320088339153,-4.471862814587302,-55.22492067300956,-9.094486,21.019047,11.817459,86.34566,-23.590725,0.8027764,-11.170963,14.33262,2.041428,48.84306,-27.77008,-15.000033,1.3241463,1.2160339,17.12693,6.7211537,25.910217,-31.16272,34.79136,4.186575,-6.2958665,3.2079237,-9.123532,-20.966019,31.832447,35.74909,25.486053,4.1137085,-6.705713
185,162.46505737304688,-21.874954223632812,72.87234497070312,4.015827747751092,-4.32451225613259,-55.86359726387603,-10.562009,21.038782,12.136722,85.35576,-23.67606,1.000717,-10.045869,14.352857,2.8876784,48.15141,-27.586014,-14.918433,1.9604627,1.2896914,17.039133,7.5619745,25.810669,-30.989574,35.169147,3.0123541,-6.1749434,3.1458316,-10.197769,-21.277777,32.203026,35.201115,25.298117,3.9001048,-6.185616
186,163.11671447753906,-22.543851852416992,73.17100524902344,4.136992414264546,-4.160630893810119,-56.50760392633892,-11.923519,21.093199,12.65181,84.07156,-23.71225,1.2586459,-8.857357,14.308116,3.7679505,47.288345,-27.248829,-14.79575,2.5828257,1.3351551,16.932392,8.443585,25.768661,-30.873133,35.364727,2.0572739,-6.001602,3.179379,-11.230535,-21.592194,32.558147,34.552135,24.914026,3.7772515,-5.737752
187,163.7721710205078,-23.226436614990234,73.51177978515625,4.280947063779604,-3.982314654154003,-57.145561089726016,-13.166111,21.096432,13.270829,82.4773,-23.664982,1.5141484,-7.654958,14.195564,4.651114,46.34176,-26.748474,-14.676959,3.1958175,1.3463694,16.815145,9.352609,25.767612,-30.771667,35.449238,1.3088608,-5.8247533,3.2366202,-12.189087,-21.905586,32.880844,33.81985,24.499483,3.7234702,-5.3642383
188,164.42320251464844,-23.91996192932129,73.88571166992188,4.448679041347719,-3.7918996212763036,-57.76590996517312,-14.283881,20.966978,13.894971,80.56588,-23.496876,1.7081085,-6.4894633,14.012896,5.5047,45.403244,-26.076647,-14.58449,3.8045518,1.3213288,16.694159,10.266318,25.78134,-30.647406,35.506134,0.75635713,-5.69158,3.2452264,-13.039759,-22.213558,33.152752,33.023495,24.22162,3.7196825,-5.067651
189,165.07318115234375,-24.630708694458008,74.2896728515625,4.6453716538856105,-3.584523519915964,-58.36665712957812,-15.278526,20.707424,14.538926,78.32584,-23.208801,1.8642468,-5.3650703,13.756445,6.335185,44.471832,-25.220913,-14.549219,4.4173007,1.259807,16.562275,11.174661,25.78904,-30.48539,35.559185,0.4671956,-5.6191072,3.1750739,-13.775651,-22.514404,33.364292,32.16417,24.131504,3.792153,-4.8909245
190,165.71080017089844,-25.359661102294922,74.7179183959961,4.867383199356466,-3.3601599250788703,-58.95192261244504,-16.147594,20.34669,15.243619,75.7628,-22.820196,1.9941485,-4.264014,13.430852,7.149003,43.51593,-24.193687,-14.550901,5.0253534,1.1683697,16.414099,12.075126,25.784258,-30.309517,35.593307,0.42976606,-5.5816298,3.0690992,-14.419869,-22.808695,33.52994,31.24714,24.13652,3.942216,-4.819656
191,166.35414123535156,-26.100543975830078,75.16494750976562,5.101081726557986,-3.128596131148065,-59.52135738814116,-16.879866,19.852037,15.941782,72.8834,-22.320566,2.0314476,-3.1984508,13.050043,7.9166756,42.57325,-23.02055,-14.535299,5.610585,1.055918,16.258179,12.956352,25.763525,-30.141794,35.63372,0.5154077,-5.5614214,2.9645154,-14.984396,-23.096199,33.667,30.298721,24.189774,4.114608,-4.770795
192,166.9995574951172,-26.843791961669922,75.6278305053711,5.3337019022497865,-2.9000366292392337,-60.07449124454249,-17.468517,19.199429,16.556116,69.69036,-21.69605,1.9163834,-2.176187,12.628914,8.611767,41.675346,-21.7224,-14.447762,6.15543,0.9303768,16.103199,13.809904,25.725616,-30.001795,35.702488,0.5974792,-5.539985,2.8989182,-15.487518,-23.376911,33.795162,29.352583,24.246464,4.2520638,-4.6600513
193,167.6518096923828,-27.598827362060547,76.10319519042969,5.580523542844647,-2.671318622372754,-60.6031489328583,-17.911114,18.392204,17.095827,66.140526,-20.923876,1.687595,-1.1943661,12.144332,9.2226,40.80907,-20.266136,-14.268007,6.6532154,0.77796274,15.951794,14.625771,25.668451,-29.90467,35.815174,0.6817724,-5.5182195,2.9044092,-15.92471,-23.650494,33.89638,28.399593,24.30306,4.3538394,-4.461713
194,168.2899932861328,-28.370962142944336,76.57083892822266,5.841361409117223,-2.4392522383985726,-61.11024090120211,-18.20968,17.452873,17.573713,62.2387,-20.019989,1.3709607,-0.24663039,11.602986,9.768825,39.962574,-18.652418,-14.024343,7.1151557,0.6024427,15.799473,15.406785,25.59088,-29.838161,35.962143,0.82369924,-5.5041385,2.954414,-16.291534,-23.91759,33.96615,27.43091,24.381449,4.4457946,-4.222043
195,168.93785095214844,-29.163837432861328,77.03421783447266,6.080049948197197,-2.214167741841241,-61.61396563650637,-18.363735,16.400656,17.907953,58.04929,-19.026655,0.90054405,0.6689921,11.066006,10.274922,39.16244,-16.950296,-13.73531,7.5476027,0.43681479,15.64444,16.168455,25.495623,-29.776745,36.12331,0.9695124,-5.490277,2.997904,-16.600956,-24.179106,34.044636,26.472885,24.469643,4.511983,-3.965109
196,169.57940673828125,-29.9620304107666,77.47760772705078,6.259776649126091,-2.007049486231979,-62.13380644992058,-18.370964,15.265863,18.013336,53.630413,-17.989727,0.2193233,1.5554124,10.594967,10.76545,38.432415,-15.225783,-13.420125,7.9562426,0.31391054,15.485394,16.932823,25.387098,-29.68937,36.270973,1.0676484,-5.4691787,2.983382,-16.86928,-24.434668,34.175457,25.550158,24.559711,4.5379505,-3.7160282
197,170.2238006591797,-30.77715301513672,77.90514373779297,6.38303523389824,-1.8227398125432046,-62.68203455510897,-18.180473,14.000517,17.81468,48.807972,-16.866938,-0.73121125,2.4240367,10.188542,11.252329,37.75062,-13.432089,-13.094577,8.347844,0.22736253,15.330818,17.71383,25.265947,-29.562157,36.3999,1.0947953,-5.435527,2.9018745,-17.105003,-24.68396,34.37491,24.66329,24.640095,4.5017095,-3.486955
198,170.86361694335938,-31.59986686706543,78.29898834228516,6.460663028137079,-1.6569987764734437,-63.24891659048636,-17.780228,12.666964,17.338404,43.579258,-15.661854,-1.8551333,3.2788854,9.827933,11.727218,37.10167,-11.547634,-12.742381,8.716964,0.16932932,15.180285,18.504814,25.131582,-29.405787,36.5153,1.0838426,-5.3942113,2.7789912,-17.301926,-24.925327,34.621235,23.801832,24.720278,4.416944,-3.263227
199,171.51475524902344,-32.44651412963867,78.65623474121094,6.469136484551849,-1.5077922920526448,-63.821384175340214,-17.231396,11.443277,16.66989,38.25784,-14.467498,-2.9941864,4.111152,9.548542,12.18388,36.51457,-9.673876,-12.337271,9.049873,0.16784663,15.017,19.28913,24.989931,-29.229992,36.611717,1.0608265,-5.3535604,2.6150773,-17.453203,-25.15617,34.900944,22.976082,24.818005,4.3215647,-3.0289
200,172.16549682617188,-33.30619812011719,78.97522735595703,6.386651422025318,-1.372686737963494,-64.38597184352129,-16.615463,10.468623,15.920937,33.168518,-13.361706,-4.026943,4.9125247,9.383933,12.61669,36.015656,-7.9101186,-11.854444,9.333168,0.24760427,14.824155,20.05675,24.85065,-29.042284,36.67562,1.0527914,-5.3214955,2.4096253,-17.552343,-25.372553,35.1996,22.195578,24.95219,4.2536163,-2.7679613
201,172.8141632080078,-34.17625427246094,79.2480697631836,6.175225049006034,-1.2499640697531988,-64.94938384146744,-15.9151,9.754261,15.102973,28.222172,-12.30465,-5.0620275,5.6899924,9.390677,13.056237,35.577187,-6.2401147,-11.353673,9.568291,0.4417386,14.584267,20.837545,24.72076,-28.832563,36.693798,1.0487363,-5.3001547,2.1567643,-17.605232,-25.573696,35.537106,21.470331,25.15959,4.209253,-2.4704988
202,173.4552459716797,-35.04741668701172,79.4737548828125,5.839814376435264,-1.1462495678453501,-65.52110830180871,-15.080468,9.250497,14.176028,23.25323,-11.243741,-6.1287713,6.458314,9.554715,13.502544,35.17527,-4.6096096,-10.829492,9.765685,0.74421823,14.310945,21.636076,24.601675,-28.59698,36.661274,1.0384649,-5.284193,1.8582922,-17.612827,-25.759409,35.91163,20.79199,25.419542,4.173706,-2.1466238
203,174.1090087890625,-35.92789840698242,79.6517333984375,5.42927456503796,-1.0696804041091195,-66.08923684490375,-14.187486,8.9594145,13.199091,18.526924,-10.244468,-7.0284543,7.22166,9.801208,13.90576,34.836765,-3.0681036,-10.160996,9.924353,1.1145843,14.031613,22.403328,24.495289,-28.354963,36.5805,1.0500792,-5.271246,1.525214,-17.561132,-25.927351,36.2744,20.146067,25.659737,4.1681623,-1.8098586
204,174.754638671875,-36.80087661743164,79.77930450439453,5.012252097086481,-1.0227639448352899,-66.63608980386778,-13.359889,8.845333,12.237707,14.396074,-9.401285,-7.5738044,7.971569,10.036656,14.214796,34.606525,-1.6795076,-9.223112,10.0411005,1.4912517,13.772532,23.084532,24.404963,-28.131117,36.460285,1.1099919,-5.259251,1.1684879,-17.434599,-26.074566,36.572517,19.51877,25.805874,4.2128,-1.4732879
205,175.3957977294922,-37.66866683959961,79.86643981933594,4.636935758510324,-0.9952542283486113,-67.13647963104614,-12.718753,8.857582,11.289481,11.06612,-8.781677,-7.5828815,8.685232,10.211298,14.407138,34.52135,-0.4896915,-7.9410796,10.10062,1.8237492,13.528583,23.668608,24.33463,-27.933916,36.30603,1.2478404,-5.25181,0.7646161,-17.231653,-26.198383,36.78778,18.90538,25.819605,4.324246,-1.115392
206,176.03982543945312,-38.53230667114258,79.91524505615234,4.304471311518404,-0.9797209487644509,-67.59500495762953,-12.230665,8.933423,10.351709,8.377596,-8.345111,-7.225587,9.340254,10.340443,14.5053625,34.60568,0.50813353,-6.3887377,10.110595,2.1022174,13.286502,24.173761,24.29549,-27.762247,36.11894,1.4349521,-5.249171,0.31693047,-16.96338,-26.27932,36.935154,18.332891,25.737345,4.4858713,-0.7345622
207,176.67440795898438,-39.39272689819336,79.92679595947266,4.017513494889447,-0.9809072760557359,-68.03603043332352,-12.23315,9.083382,9.415274,7.087228,-8.53034,-6.8403363,9.924687,10.423221,14.520799,34.89149,1.3257791,-4.665191,10.077791,2.329396,13.069365,24.597082,24.276836,-27.599104,35.89972,1.6256508,-5.2462945,-0.12805685,-16.628893,-26.336235,37.042072,17.790733,25.617785,4.667275,-0.38146645
208,177.28842163085938,-40.24342727661133,79.89051818847656,3.7518210992769703,-1.0081914587822758,-68.49021805976905,-12.597518,9.274775,8.531269,6.984684,-9.263485,-6.7620125,10.432393,10.485958,14.465621,35.406616,1.9886836,-2.8765051,10.031862,2.5358403,12.893566,24.921364,24.277195,-27.454151,35.660484,1.7656382,-5.2358456,-0.51923776,-16.218878,-26.368767,37.111588,17.283669,25.508686,4.8402586,-0.10180765
209,177.90562438964844,-41.09756851196289,79.80303955078125,3.4806604200686504,-1.0662923150197476,-68.96298838612944,-12.763818,9.458047,7.8570504,6.9213953,-9.945821,-7.172386,10.895135,10.561897,14.346787,36.111927,2.5431733,-0.856284,9.968916,2.7484746,12.764793,25.159046,24.296734,-27.314905,35.3756,1.8886611,-5.217469,-0.84909576,-15.729522,-26.38489,37.14973,16.78981,25.40665,5.0100856,0.08269993
210,178.50802612304688,-41.940406799316406,79.6608657836914,3.2221338487959024,-1.1482226557937325,-69.43588695326476,-12.7514305,9.628072,7.3537006,6.8914366,-10.551881,-7.8666024,11.277073,10.629733,14.134739,37.06428,2.9432375,1.374071,9.881808,2.9532518,12.667211,25.291643,24.326227,-27.203531,35.075638,2.0039172,-5.194724,-1.1382577,-15.160624,-26.380867,37.14821,16.31953,25.290237,5.1875916,0.19954883
211,179.119140625,-42.782955169677734,79.47894287109375,3.0102782544858515,-1.248075617055872,-69.90539694650737,-12.58086,9.739733,6.890191,6.8909945,-11.076926,-8.594997,11.497059,10.629035,13.793685,38.383472,3.100846,3.4261098,9.764331,3.0947556,12.615982,25.371912,24.419123,-27.077583,34.707394,2.0365453,-5.16015,-1.4052573,-14.521767,-26.350855,37.108067,15.8811655,25.189445,5.354518,0.27903792
212,179.7156982421875,-43.61549758911133,79.25349426269531,2.882538201182357,-1.3604022400383358,-70.3696342849144,-12.269594,9.740098,6.332786,6.9169374,-11.521659,-9.10398,11.49521,10.486977,13.299487,40.1446,2.9471326,4.917683,9.632365,3.1501145,12.594624,25.341177,24.55167,-26.992254,34.36726,1.8950245,-5.1113906,-1.6401458,-13.826303,-26.289755,37.03772,15.536098,25.137423,5.489037,0.34135807
213,180.32325744628906,-44.440513610839844,78.98876190185547,2.83203658176406,-1.472547613313845,-70.82348008512906,-11.814628,9.627691,5.5379925,6.990149,-12.02391,-9.23453,11.254956,10.206642,12.650566,42.380455,2.4757233,5.726267,9.470986,3.127995,12.591485,25.194218,24.70927,-26.944138,34.066914,1.51751,-5.0402756,-1.8415339,-13.057424,-26.202265,36.940716,15.274904,25.172749,5.576809,0.38215184
214,180.9300537109375,-45.25695037841797,78.68438720703125,2.8500122583695773,-1.5922669962965597,-71.2722842747422,-11.205444,9.421519,4.614319,7.1100783,-12.542507,-9.151607,10.833169,9.787287,11.875133,45.00115,1.7394053,6.0592675,9.285244,3.0346887,12.613653,24.943375,24.900581,-26.926899,33.779697,0.9608679,-4.9498763,-2.0094304,-12.217375,-26.084188,36.813362,15.085839,25.268126,5.631751,0.3923937
215,181.5209197998047,-46.0625,78.3314437866211,2.971814362011933,-1.7448525838927609,-71.73249849407335,-10.454596,9.101853,3.8030338,7.250504,-12.810815,-9.093007,10.298061,9.149234,11.006989,47.871555,0.7679402,6.0345516,9.085782,2.8383107,12.695371,24.597128,25.11328,-26.913996,33.507587,0.3475131,-4.8562865,-2.1515567,-11.349797,-25.943598,36.67448,14.978524,25.362684,5.6788354,0.38901907
216,182.10520935058594,-46.883392333984375,77.92462158203125,3.235955833556476,-1.9529105910245748,-72.218384077418,-9.573132,8.651551,3.3442938,7.3748245,-12.5653925,-9.29599,9.713128,8.211738,10.078082,50.869495,-0.41541162,5.772351,8.882298,2.5024593,12.870184,24.166862,25.338474,-26.878416,33.248962,-0.20049125,-4.775954,-2.2763617,-10.49881,-25.78641,36.54285,14.96257,25.397514,5.742862,0.38913083
217,182.67417907714844,-47.696571350097656,77.45526123046875,3.6684197530701375,-2.255503973725153,-72.74723231827576,-8.891726,8.074808,3.2565672,8.335694,-11.994646,-9.9323,9.147823,6.8646464,9.037819,53.99312,-1.896006,5.2091074,8.684438,2.0138297,13.169051,23.679937,25.559029,-26.78674,33.004635,-0.66616315,-4.708788,-2.369061,-9.654294,-25.622263,36.442207,15.016957,25.367918,5.842558,0.3794294
218,183.24757385253906,-48.496158599853516,77.00019836425781,4.253678267260208,-2.6254131184660126,-73.30998127656483,-8.167902,7.369882,3.4272885,9.605089,-11.007636,-10.817326,8.579207,5.1571703,7.9331765,57.27189,-3.659517,4.3210216,8.48213,1.3865205,13.56666,23.11765,25.769316,-26.658142,32.786674,-1.104148,-4.649407,-2.4298997,-8.801754,-25.452974,36.366024,15.140666,25.305895,5.96105,0.35562348
219,183.826904296875,-49.28578567504883,76.56122589111328,4.970048760844322,-2.985512689792294,-73.8788170985676,-7.557836,6.563446,3.7580826,11.176738,-10.042785,-11.65006,7.9188952,3.2557967,6.928705,60.642754,-5.5364256,3.2867641,8.257426,0.6240057,14.008836,22.41964,25.985304,-26.54892,32.606686,-1.5051736,-4.6060157,-2.4910035,-7.9775743,-25.267733,36.283825,15.376194,25.203026,6.0700154,0.34918323
220,184.40264892578125,-50.05546188354492,76.10045623779297,5.78113197883519,-3.259683964956965,-74.42459293395204,-7.4221196,5.703685,4.1582,13.47023,-9.769512,-12.156653,7.0558453,1.3436751,6.1697335,64.06134,-7.3522234,2.2737823,7.996254,-0.26254147,14.438101,21.53296,26.23737,-26.51882,32.461643,-1.8647807,-4.584975,-2.585398,-7.217396,-25.047176,36.159534,15.769976,25.047422,6.141002,0.3926389
221,184.94155883789062,-50.763343811035156,75.59925079345703,6.748399123474463,-3.4098662360380936,-74.96023032100355,-8.049053,4.7307982,4.70099,16.93256,-10.412444,-12.239846,5.8820267,-0.66117287,5.6965885,67.65495,-9.1082945,1.2792355,7.720456,-1.3723311,14.851567,20.44095,26.551018,-26.543232,32.333897,-2.17998,-4.5678563,-2.7443058,-6.5694737,-24.776997,35.99983,16.31073,24.8368,6.1647162,0.5462199
222,185.44277954101562,-51.48385238647461,75.06582641601562,7.8404707758992505,-3.4782898617780744,-75.49220026626179,-9.186416,3.6957827,5.4200335,21.23013,-11.599042,-12.059263,4.4667273,-2.7755356,5.4515376,71.392784,-10.879814,0.21821336,7.438174,-2.6601331,15.263339,19.191614,26.931803,-26.60582,32.1972,-2.4621506,-4.5549664,-2.9441369,-6.0088425,-24.451502,35.812267,16.993385,24.57347,6.155924,0.77659315
223,185.89010620117188,-52.22764587402344,74.54694366455078,8.876872989899102,-3.512778714776756,-75.97983542228876,-10.369215,2.7755303,6.1777916,25.562075,-13.099384,-11.760197,2.9495544,-4.712189,5.3950286,75.01638,-12.603959,-0.8642982,7.1145883,-3.9000776,15.643519,17.825777,27.376814,-26.782377,32.035755,-2.7264462,-4.581169,-3.1365037,-5.4534135,-24.062977,35.55616,17.867506,24.251995,6.1221247,0.9768725
224,186.30995178222656,-52.9735107421875,74.04557800292969,9.701454365816414,-3.566989445148267,-76.3846651017983,-11.145618,2.0876334,6.8311176,29.15334,-14.686775,-11.497727,1.4747106,-6.197351,5.454675,78.28618,-14.22067,-1.9120407,6.714452,-4.8854413,15.968725,16.3714,27.876715,-27.155754,31.845707,-2.9903324,-4.6823683,-3.2727,-4.811669,-23.603848,35.186035,18.978016,23.863901,6.072403,1.0410923
225,186.7314910888672,-53.73192596435547,73.57868957519531,10.281753650713462,-3.657742093721867,-76.63469657999998,-11.430695,1.6151513,7.3187003,31.837227,-16.449259,-11.283908,0.06659689,-7.149285,5.5735035,81.198265,-15.742355,-2.9717255,6.182392,-5.5687065,16.23594,14.750593,28.433609,-27.850803,31.705502,-3.2598681,-4.903647,-3.2872152,-4.0390906,-23.055054,34.63136,20.394033,23.340372,5.9960246,1.0415907
226,187.1449432373047,-54.50278091430664,73.16466522216797,10.709678893459705,-3.760634702919043,-76.77081953676345,-11.469018,1.250461,7.727661,34.02778,-18.460024,-11.052788,-1.3518163,-7.7061887,5.761764,83.883316,-17.190855,-4.0421247,5.559275,-6.0733137,16.458326,12.957755,29.040384,-28.810091,31.590258,-3.531126,-5.21422,-3.2231717,-3.1857777,-22.411615,33.91831,22.0767,22.701435,5.8942695,1.0042694
227,187.5703125,-55.29180145263672,72.80436706542969,11.01480186356252,-3.8667245084916364,-76.92480593775085,-11.297131,0.97788817,8.132005,35.833443,-20.4813,-10.840167,-2.7825506,-7.9367795,6.0308657,86.30427,-18.512756,-4.9885926,4.9354763,-6.4483113,16.642008,11.134964,29.666342,-29.825314,31.354485,-3.8024566,-5.536883,-3.1956592,-2.3127851,-21.699827,33.17236,23.910814,22.077759,5.7978835,0.7506703
228,187.99888610839844,-56.096031188964844,72.49433135986328,11.229902197411624,-3.966516333933112,-77.22778900911452,-10.940787,0.81096244,8.5960045,37.356827,-22.278353,-10.690979,-4.2288427,-7.9154673,6.395067,88.419174,-19.652817,-5.67811,4.389288,-6.732026,16.792313,9.426023,30.274979,-30.673378,30.876415,-4.064991,-5.7955174,-3.3195624,-1.480043,-20.967539,32.539097,25.7719,21.606773,5.739058,0.09870555
229,188.42251586914062,-56.91041946411133,72.24263763427734,11.333565814651369,-4.065572875406175,-77.76252466731758,-10.362692,0.8267551,9.152943,38.634087,-23.845243,-10.635539,-5.703329,-7.55121,6.9353604,90.23115,-20.548693,-6.011349,3.960619,-6.8697577,16.92385,7.8594947,30.839617,-31.300348,30.145683,-4.254213,-5.9764013,-3.6819837,-0.6776357,-20.243355,32.06053,27.71149,21.192026,5.7157664,-1.2024121
230,188.8319549560547,-57.73469161987305,72.0523681640625,11.32227039354161,-4.168529480256842,-78.44230701103278,-9.554468,1.0191544,9.752546,39.618744,-25.295233,-10.647253,-7.195219,-6.841883,7.5866656,91.76197,-21.235622,-6.077067,3.5807755,-6.8501964,17.031816,6.3665586,31.357826,-31.800518,29.248344,-4.3784723,-6.120439,-4.203078,0.13007851,-19.53869,31.681028,29.742746,20.814892,5.7233624,-2.993666
231,189.214599609375,-58.54200744628906,71.8931884765625,11.250749272662201,-4.262326090826172,-79.14329500501864,-8.579014,1.2789918,10.334515,40.274086,-26.568268,-10.693699,-8.6765375,-6.004255,8.158362,92.98843,-21.803864,-6.02713,3.174878,-6.771309,17.095297,4.9169908,31.841965,-32.196484,28.228464,-4.5534363,-6.232556,-4.74692,0.9388667,-18.881397,31.388218,31.666086,20.735268,5.769947,-4.8434663
232,189.56634521484375,-59.374393463134766,71.7838134765625,11.174927776364909,-4.3320865276643925,-79.74192170367397,-7.505355,1.4821408,10.842739,40.564793,-27.60578,-10.736532,-10.129175,-5.2615323,8.473514,93.88475,-22.344133,-6.016325,2.6734903,-6.730855,17.094814,3.5750172,32.308834,-32.462967,27.040901,-4.8408623,-6.3141556,-5.181263,1.7516454,-18.310097,31.164513,33.26948,21.217886,5.8431945,-6.321376
233,189.899658203125,-60.22978591918945,71.7389907836914,11.115632126195454,-4.368255111397774,-80.19711213628052,-6.3482785,1.5742009,11.261893,40.456947,-28.397211,-10.757637,-11.580585,-4.6490493,8.507369,94.44633,-22.875881,-6.0688705,2.056391,-6.765162,17.026962,2.3023756,32.780094,-32.605923,25.6461,-5.3181434,-6.355546,-5.4797764,2.6103065,-17.857895,30.98957,34.43106,22.620655,5.9796586,-7.4111996
234,190.21139526367188,-61.106109619140625,71.75580596923828,11.039957011113344,-4.381072750941743,-80.57665223598435,-5.074606,1.6188663,11.62485,39.975315,-28.970877,-10.780125,-13.033811,-4.0697565,8.349856,94.68068,-23.350008,-6.1082797,1.3724997,-6.8115096,16.912638,1.1085631,33.2626,-32.633343,24.032661,-5.926984,-6.355965,-5.7117944,3.5383103,-17.537949,30.860962,35.23203,24.719494,6.145111,-8.311667
235,190.49298095703125,-61.998497009277344,71.82991790771484,10.922422504042956,-4.384499903784674,-80.92092053008301,-3.6837075,1.6624256,11.949393,39.17637,-29.32851,-10.820098,-14.4377575,-3.548495,8.00158,94.57853,-23.755054,-6.1421623,0.6425336,-6.818525,16.771545,0.035552327,33.749313,-32.564785,22.274647,-6.5868273,-6.3338737,-5.887498,4.4907074,-17.35195,30.802519,35.77571,26.902489,6.2418284,-8.911186
236,190.7625732421875,-62.885921478271484,71.95321655273438,10.736322011493792,-4.393395165586886,-81.27064206582682,-2.1725745,1.7520508,12.254893,38.114132,-29.470953,-10.892534,-15.738456,-3.106539,7.4628553,94.13146,-24.081251,-6.1759343,-0.10769972,-6.7344184,16.618979,-0.7561743,34.218773,-32.361805,20.361305,-7.143062,-6.3069267,-6.0163836,5.4167347,-17.291582,30.83471,36.180744,28.553198,6.1989436,-9.090862
237,191.0336151123047,-63.80708694458008,72.13817596435547,10.45028796884186,-4.422994392142812,-81.62375850538692,-0.49533218,1.919728,12.544725,36.731693,-29.422869,-11.015538,-16.908276,-2.7534328,6.6820664,93.29914,-24.326544,-6.1875186,-0.92852616,-6.537972,16.470015,-1.7080278,34.6731,-32.190907,18.656048,-7.863033,-6.27879,-6.0637765,6.25461,-17.36531,31.025787,36.478054,29.574379,5.9611073,-8.626537
238,191.28489685058594,-64.73697662353516,72.36822509765625,10.085783547579167,-4.463670685024977,-81.96234410593493,1.3358452,2.1329865,12.811527,35.022247,-29.175451,-11.170291,-17.968338,-2.4762092,5.6733336,92.0938,-24.498823,-6.174221,-1.774731,-6.2489834,16.301968,-2.2794263,35.08806,-31.814354,16.681454,-8.442415,-6.2383857,-6.0319686,7.0781307,-17.569662,31.303871,36.60531,30.272434,5.6115556,-7.636133
239,191.5290069580078,-65.67994689941406,72.63774871826172,9.686835630736281,-4.49004993366155,-82.30294984091077,3.2310565,2.34632,13.0575905,33.12446,-28.685577,-11.319684,-18.937256,-2.2566316,4.533173,90.58333,-24.603666,-6.1722064,-2.6503155,-5.901393,16.136166,-2.858182,35.47816,-31.432768,14.786997,-9.059117,-6.203517,-5.995736,7.871698,-17.88392,31.640457,36.585785,30.646685,5.2688327,-6.5367856
240,191.7604522705078,-66.62797546386719,72.94879913330078,9.304963308094747,-4.476942642293231,-82.66361113491529,5.101529,2.5130548,13.283521,31.167728,-27.90412,-11.432971,-19.83855,-2.0785205,3.3634741,88.83867,-24.647604,-6.2200093,-3.4926643,-5.527295,15.971371,-3.2763221,35.84306,-31.044506,12.870805,-9.567225,-6.1852117,-6.0233703,8.67327,-18.265598,31.94028,36.4396,30.675953,5.0414596,-5.740884
241,191.98703002929688,-67.59832000732422,73.29375457763672,8.939226979885689,-4.426416210486558,-83.05069017883108,6.9874225,2.6202936,13.48032,29.069769,-26.786272,-11.529722,-20.677498,-1.9613243,2.1665463,86.85855,-24.64824,-6.3540883,-4.310732,-5.1387014,15.809247,-3.7199574,36.192272,-30.72908,11.091075,-10.069798,-6.1949716,-6.140221,9.442567,-18.693048,32.246735,36.18881,30.136196,4.959438,-5.3682184
