unveil-humanoid-operators/unveil-humanoid-operators.github.io/feature-analysis-animation/data/feature_matrix_instances/age_waist_mean_vel_jogging_A093_jog_arc_cw_start_003__A093.csv
Frame,root_translateX,root_translateY,root_translateZ,root_rotateX,root_rotateY,root_rotateZ,left_hip_pitch_joint_dof,left_hip_roll_joint_dof,left_hip_yaw_joint_dof,left_knee_joint_dof,left_ankle_pitch_joint_dof,left_ankle_roll_joint_dof,right_hip_pitch_joint_dof,right_hip_roll_joint_dof,right_hip_yaw_joint_dof,right_knee_joint_dof,right_ankle_pitch_joint_dof,right_ankle_roll_joint_dof,waist_yaw_joint_dof,waist_roll_joint_dof,waist_pitch_joint_dof,left_shoulder_pitch_joint_dof,left_shoulder_roll_joint_dof,left_shoulder_yaw_joint_dof,left_elbow_joint_dof,left_wrist_roll_joint_dof,left_wrist_pitch_joint_dof,left_wrist_yaw_joint_dof,right_shoulder_pitch_joint_dof,right_shoulder_roll_joint_dof,right_shoulder_yaw_joint_dof,right_elbow_joint_dof,right_wrist_roll_joint_dof,right_wrist_pitch_joint_dof,right_wrist_yaw_joint_dof
0,1.6789672374725342,0.0665249153971672,78.21343994140625,1.165404755418108,1.7817241216933541,179.6345325599699,3.080016,4.151134,11.8965,7.0474086,-11.102451,-3.5720437,1.5279192,-9.488283,-12.571818,8.003846,-10.50111,7.150967,-2.879824,-1.2814159,5.466688,1.9588104,14.747398,-29.48002,51.41061,-1.2110113,3.4863193,-3.0937111,-8.966578,-8.983194,33.602898,55.038414,6.622694,7.1090126,2.1696095
1,1.6791144609451294,0.0559757798910141,78.21420288085938,1.1705753547858748,1.9277236260412351,179.64191094415867,2.910507,4.1394243,11.895332,7.0486174,-11.1489525,-3.5101979,1.3693026,-9.49209,-12.553777,7.9783564,-10.530989,7.0875177,-2.795475,-1.2858068,5.384697,1.9156976,14.762577,-29.475052,51.245686,-1.1693565,3.4920104,-3.1464143,-9.147972,-8.979896,33.686657,54.789692,6.709363,7.066432,2.1378574
2,1.686984658241272,0.05375438556075096,78.21353149414062,1.177379036531732,2.069238926207154,179.65081720931593,2.7464123,4.1245685,11.890773,7.049095,-11.19594,-3.453348,1.2144947,-9.49877,-12.53568,7.958844,-10.566113,7.0265403,-2.7735558,-1.2939612,5.307722,1.9468471,14.812149,-29.406254,51.006237,-1.1240734,3.5021105,-3.2149243,-9.34053,-8.977985,33.850586,54.538616,6.8327107,7.02295,2.0988677
3,1.6985026597976685,0.052981097251176834,78.21289825439453,1.1818283918782462,2.2202488745100895,179.6563752954967,2.570436,4.1159663,11.892521,7.050062,-11.239237,-3.3892965,1.0437832,-9.501962,-12.515338,7.9433813,-10.599177,6.960373,-2.740548,-1.3048241,5.2346153,1.9818463,14.880745,-29.336699,50.743084,-1.0791842,3.5076244,-3.2718852,-9.541696,-8.9823475,34.017647,54.26765,6.944438,6.9832263,2.0575156
4,1.7118310928344727,0.050051137804985046,78.21259307861328,1.1798916577811032,2.3949733984110484,179.65368927806918,2.36577,4.1227508,11.9103365,7.0516505,-11.273972,-3.308457,0.84376025,-9.4942045,-12.491491,7.91715,-10.616795,6.8811502,-2.6939633,-1.3131028,5.1577635,2.0168433,14.967729,-29.264818,50.455162,-1.0396038,3.4994264,-3.2914984,-9.775529,-8.993642,34.228848,53.97155,7.049809,6.951661,1.9993975
5,1.73000967502594,0.05070691183209419,78.21694946289062,1.1750674645292358,2.6092233043302775,179.64187258356603,2.1118956,4.141034,11.950769,7.0530667,-11.292781,-3.2150848,0.586594,-9.480365,-12.462477,7.8920712,-10.616771,6.7896347,-2.6160913,-1.3167329,5.056699,2.006504,15.036081,-29.212496,50.197685,-1.0005441,3.4700828,-3.2570083,-10.051676,-9.00686,34.474255,53.667156,7.1437874,6.9324183,1.9122157
6,1.7562642097473145,0.05252722650766373,78.22720336914062,1.1710038118414805,2.8515119419752706,179.62326521376124,1.8238578,4.1616354,12.008632,7.0525503,-11.298379,-3.1165068,0.2987109,-9.462056,-12.430708,7.847262,-10.593754,6.6891913,-2.570924,-1.3291068,4.9565663,2.0600235,15.161423,-29.10338,49.8353,-0.95762074,3.4304152,-3.1998665,-10.369812,-9.03129,34.814724,53.326077,7.253751,6.9232035,1.8008779
7,1.7828662395477295,0.05895708501338959,78.2388687133789,1.167814744766736,3.0950867573319463,179.59687133841314,1.5350485,4.181814,12.076838,7.05262,-11.301217,-3.0057206,-0.00524373,-9.443603,-12.389251,7.8275423,-10.58435,6.576062,-2.5007505,-1.3449936,4.860687,2.0991185,15.287298,-29.007334,49.48517,-0.92431855,3.38357,-3.1169987,-10.704099,-9.055359,35.16493,52.97684,7.344801,6.91471,1.6917495
8,1.8080525398254395,0.06602878868579865,78.25272369384766,1.1692631215692886,3.3140723685065,179.5610915788768,1.2794836,4.197124,12.148915,7.0543704,-11.311819,-2.871539,-0.3585127,-9.443961,-12.323973,7.978686,-10.678854,6.448504,-2.427196,-1.3677117,4.7892685,2.1623693,15.42544,-28.892895,49.122223,-0.9013164,3.3370225,-3.02407,-11.048568,-9.079789,35.541813,52.619465,7.4149733,6.899782,1.6035517
9,1.8333024978637695,0.07228968292474747,78.25175476074219,1.1416603856384173,3.5050916689253824,179.5219340139085,0.74613464,4.316747,12.190109,7.737115,-11.687762,-2.705234,-0.80250996,-9.439072,-12.239401,8.402462,-10.933237,6.303224,-2.3595366,-1.3673978,4.748383,2.2629,15.587063,-28.748682,48.725677,-0.8880363,3.294852,-2.9195616,-11.407287,-9.10448,35.96065,52.257435,7.4600935,6.8744373,1.5286231
10,1.8632993698120117,0.07833787798881531,78.24510955810547,1.0897627545593815,3.6783111031356057,179.47791390018108,0.08835179,4.498877,12.21626,8.741335,-12.234437,-2.5130339,-1.2015879,-9.399109,-12.159122,8.777888,-11.17217,6.140326,-2.2876298,-1.3457327,4.728682,2.378192,15.758593,-28.589592,48.317345,-0.88305527,3.251965,-2.7963946,-11.781444,-9.125974,36.41169,51.89145,7.4816537,6.843382,1.4604512
11,1.8777329921722412,0.08183006197214127,78.23644256591797,1.0297068816953616,3.838349703138761,179.42517811197578,-0.53901273,4.6865983,12.240753,9.724319,-12.776848,-2.3103766,-1.5757171,-9.345888,-12.072253,9.135419,-11.409374,5.963468,-2.2131913,-1.316031,4.723128,2.510722,15.939935,-28.421265,47.90674,-0.8901822,3.2043936,-2.6663601,-12.166601,-9.144313,36.876575,51.51519,7.4923587,6.811637,1.4219582
12,1.8806451559066772,0.07872796058654785,78.22508239746094,0.968106340378657,3.990248261936153,179.36149218252444,-1.10753,4.8612638,12.265548,10.617145,-13.279775,-2.1138372,-1.9248704,-9.287123,-11.974531,9.464419,-11.641992,5.7762814,-2.1349459,-1.2817755,4.7249627,2.6579814,16.13002,-28.255266,47.50796,-0.91509163,3.147969,-2.5408611,-12.555341,-9.160191,37.33066,51.119846,7.502236,6.7845273,1.436721
13,1.8746800422668457,0.0757710412144661,78.21563720703125,0.9028909322856868,4.130789480026132,179.28781642626328,-1.610652,5.0235953,12.28404,11.411868,-13.737255,-1.9231018,-2.257274,-9.223228,-11.8632,9.791397,-11.881445,5.560417,-2.0520709,-1.2387979,4.7358756,2.8230937,16.32809,-28.093382,47.11612,-0.96156144,3.0753388,-2.4091434,-12.9444895,-9.174333,37.768375,50.703953,7.5052977,6.7673326,1.5289555
14,1.878806233406067,0.07175619900226593,78.20587921142578,0.8331630991415533,4.2590538798293975,179.20467441176902,-2.0613647,5.1807494,12.298089,12.13779,-14.165078,-1.7287103,-2.569625,-9.151911,-11.740625,10.111,-12.125487,5.3204827,-1.9640257,-1.1882273,4.757953,3.0044916,16.534235,-27.93108,46.728554,-1.0262215,2.9907393,-2.269647,-13.336087,-9.187332,38.20109,50.27056,7.4976306,6.756239,1.6802475
15,1.8699970245361328,0.06565848737955093,78.19721221923828,0.7691684418825361,4.383017172740508,179.10885345736287,-2.458185,5.32209,12.32484,12.775826,-14.559067,-1.5336663,-2.8647738,-9.083938,-11.606336,10.406501,-12.365917,5.095202,-1.8689004,-1.1432039,4.785139,3.1925313,16.747814,-27.771498,46.36183,-1.1036636,2.9067585,-2.147128,-13.731323,-9.198965,38.629078,49.81539,7.496115,6.742166,1.8503249
16,1.8579833507537842,0.05536854267120361,78.18748474121094,0.7209289627712538,4.510442987233414,178.99713536606998,-2.8016398,5.4374437,12.3810425,13.312103,-14.917766,-1.3414527,-3.145193,-9.029551,-11.459825,10.660444,-12.593934,4.9232507,-1.7644829,-1.1166924,4.8116384,3.3760395,16.967943,-27.618904,46.03479,-1.189477,2.8363948,-2.0660863,-14.131998,-9.209297,39.052116,49.33627,7.5158176,6.7162385,1.9987962
17,1.8514463901519775,0.0461176335811615,78.17681884765625,0.6949140225476502,4.641815843226411,178.86519479234656,-3.083089,5.519157,12.477822,13.729823,-15.231287,-1.1468302,-3.411561,-8.99611,-11.295445,10.868969,-12.805876,4.8208833,-1.643806,-1.1146334,4.8369546,3.5484838,17.194174,-27.479656,45.752113,-1.2823545,2.782685,-2.0382767,-14.542199,-9.219636,39.479145,48.829185,7.5704875,6.674346,2.1134956
18,1.823734164237976,0.03870502859354019,78.16814422607422,0.6849808007251039,4.773404846278537,178.71609403184095,-3.30634,5.574483,12.604843,14.043355,-15.504871,-0.9495213,-3.663259,-8.97735,-11.115173,11.042883,-13.007931,4.7656045,-1.50984,-1.129364,4.864084,3.716628,17.426031,-27.34956,45.504646,-1.3841709,2.7388842,-2.0487683,-14.959956,-9.230548,39.907356,48.295677,7.6492105,6.6217046,2.2165058
19,1.7816858291625977,0.027552004903554916,78.15885925292969,0.6820831189449471,4.906992461502201,178.5575290343367,-3.4901996,5.6153665,12.746196,14.285755,-15.7603655,-0.7608008,-3.8997543,-8.96386,-10.93062,11.184084,-13.204308,4.7382116,-1.3757737,-1.1540989,4.8915896,3.8876102,17.662704,-27.219316,45.29286,-1.4974767,2.7031522,-2.0818589,-15.376619,-9.240202,40.316402,47.742344,7.7285924,6.5643315,2.318737
20,1.752023458480835,0.017661049962043762,78.1538314819336,0.6767748480016781,5.0447648705109716,178.3972651010408,-3.6532178,5.6534963,12.886313,14.488446,-16.018356,-0.5916207,-4.1194077,-8.94531,-10.753514,11.293714,-13.39945,4.7191877,-1.2546953,-1.1819328,4.917589,4.0685444,17.903072,-27.079027,45.117527,-1.6241461,2.6735244,-2.121666,-15.782775,-9.244926,40.683697,47.17673,7.7818255,6.5076404,2.431046
21,1.7120206356048584,0.011145438067615032,78.1469497680664,0.668058709549437,5.1838980665977505,178.23099478711373,-3.788327,5.6896267,13.025754,14.646476,-16.283772,-0.44338226,-4.3147945,-8.919678,-10.583665,11.359957,-13.593187,4.715222,-1.1464858,-1.2132215,4.942451,4.2640963,18.14759,-26.92484,44.97568,-1.749932,2.659027,-2.1647093,-16.185635,-9.242268,41.011936,46.614883,7.811156,6.4360266,2.5670047
22,1.6675171852111816,-0.0022094598971307278,78.14373016357422,0.6607697421745315,5.32452575406461,178.0567651494328,-3.8901541,5.7176323,13.171561,14.748355,-16.546297,-0.31130323,-4.48811,-8.892369,-10.416202,11.38521,-13.783587,4.732602,-1.046227,-1.2515436,4.9662375,4.469937,18.396645,-26.761908,44.868473,-1.8786052,2.6576285,-2.219081,-16.588556,-9.231213,41.309124,46.05178,7.826206,6.351748,2.7169387
23,1.607165813446045,-0.015721581876277924,78.13928985595703,0.653811766486367,5.4721110304945775,177.88544965003993,-3.9779642,5.7405066,13.317299,14.81381,-16.803596,-0.19623663,-4.6573105,-8.866234,-10.254666,11.398478,-13.974119,4.7517905,-0.9588586,-1.2955358,4.986159,4.679658,18.648376,-26.594236,44.8046,-2.039299,2.6505966,-2.286031,-16.981062,-9.211178,41.56433,45.469086,7.8152814,6.2872295,2.8563032
24,1.5512843132019043,-0.024272635579109192,78.13423919677734,0.6464471685636167,5.632387509778978,177.72797879256598,-4.070828,5.761039,13.456602,14.862229,-17.05272,-0.10099193,-4.8367515,-8.843051,-10.102899,11.421794,-14.164609,4.7531576,-0.88928175,-1.3431824,4.9992523,4.884786,18.899488,-26.42779,44.7953,-2.261762,2.6191552,-2.3667345,-17.352673,-9.182457,41.76643,44.849712,7.766385,6.274687,2.9609349
25,1.4792208671569824,-0.03479410707950592,78.1272201538086,0.6371148537683782,5.807522809962834,177.58468732746812,-4.1675754,5.7800927,13.591945,14.888505,-17.29293,-0.034873243,-5.027564,-8.82167,-9.961465,11.454906,-14.3583975,4.7242813,-0.83358455,-1.389787,5.00321,5.0791945,19.146263,-26.268656,44.861008,-2.5715644,2.5493033,-2.4610896,-17.70268,-9.144906,41.9045,44.19817,7.6859064,6.3219624,3.0304706
26,1.409604787826538,-0.038976848125457764,78.1247329711914,0.6270144594239597,5.994345511108027,177.4505188094553,-4.2564225,5.7951155,13.726783,14.878,-17.524538,0.009028758,-5.2228413,-8.801991,-9.828121,11.487909,-14.554345,4.678113,-0.79015917,-1.4371865,4.999211,5.264777,19.387596,-26.114052,44.99606,-2.9468336,2.4541664,-2.5684822,-18.036892,-9.099256,41.986553,43.524025,7.576446,6.411823,3.0760298
27,1.3272905349731445,-0.05211940035223961,78.12186431884766,0.6178573315105113,6.190102957016315,177.3285598572927,-4.3522716,5.8070736,13.85175,14.860604,-17.750242,0.039615896,-5.425597,-8.785412,-9.703251,11.529442,-14.746164,4.632988,-0.7665007,-1.4915696,4.9891806,5.446776,19.624952,-25.955109,45.169033,-3.3451622,2.3557804,-2.689188,-18.34992,-9.046632,42.029125,42.809353,7.421199,6.5404587,3.0903587
28,1.2486753463745117,-0.06944849342107773,78.11419677734375,0.6116188452166168,6.391880761120998,177.22186223263972,-4.4678836,5.8165917,13.958402,14.861402,-17.971565,0.06981404,-5.640207,-8.7740345,-9.58699,11.589614,-14.9275675,4.607316,-0.77103335,-1.5598364,4.97599,5.632043,19.861694,-25.781807,45.34618,-3.7245612,2.275864,-2.8234687,-18.640568,-8.989195,42.051918,42.038406,7.20706,6.703812,3.0662704
29,1.1705964803695679,-0.07610281556844711,78.10734558105469,0.6099154397480779,6.602017594493653,177.12794663277606,-4.606579,5.822642,14.048789,14.881871,-18.193047,0.09960075,-5.871208,-8.769055,-9.475173,11.668027,-15.099263,4.6119456,-0.7971986,-1.6459872,4.963244,5.8137193,20.09928,-25.585999,45.539833,-4.1042213,2.2132697,-3.000288,-18.90767,-8.927544,42.045525,41.201363,6.9051037,6.920674,2.975602
30,1.0849016904830933,-0.07949266582727432,78.09871673583984,0.6112702193538965,6.820906523511836,177.0462716463251,-4.76176,5.8256907,14.126217,14.910763,-18.412106,0.1236465,-6.115274,-8.7688,-9.369437,11.760583,-15.263889,4.635089,-0.843986,-1.7456652,4.9491663,5.993025,20.338018,-25.37359,45.75742,-4.4970593,2.1595006,-3.2101915,-19.150496,-8.861478,42.004124,40.304962,6.530068,7.1878595,2.831947
31,0.9975202083587646,-0.08292040973901749,78.08454895019531,0.6130307845178407,7.043012976039838,176.9829318613574,-4.932863,5.8285036,14.182853,14.958458,-18.624285,0.14638494,-6.3658066,-8.77199,-9.2778425,11.874569,-15.420184,4.661271,-0.92881924,-1.8535861,4.928432,6.1905055,20.580585,-25.15404,45.956318,-4.850049,2.1242924,-3.3953004,-19.371893,-8.793554,41.95697,39.361115,6.1398115,7.466829,2.690479
32,0.9180254340171814,-0.08664348721504211,78.06986236572266,0.6131273262658904,7.263034040245994,176.94387281653246,-5.120346,5.8339977,14.211387,15.037606,-18.825338,0.17222543,-6.61738,-8.777287,-9.208218,12.01883,-15.56774,4.674986,-1.0693413,-1.9647999,4.896391,6.4286904,20.831247,-24.935427,46.09073,-5.1101155,2.116669,-3.4979227,-19.57242,-8.727678,41.93356,38.377003,5.7914753,7.7188196,2.6053474
33,0.8159581422805786,-0.08631216734647751,78.05394744873047,0.604414468184518,7.474993595369408,176.9319044960482,-5.3238554,5.850255,14.203414,15.155868,-19.0177,0.19264732,-6.857912,-8.7745495,-9.164575,12.181645,-15.693397,4.6662498,-1.2741071,-2.074993,4.859591,6.717973,21.093666,-24.705034,46.14751,-5.2465286,2.1546023,-3.4975793,-19.754082,-8.665973,41.943035,37.339985,5.48696,7.9497013,2.5908413
34,0.7202900648117065,-0.08085959404706955,78.0340347290039,0.5906829636442293,7.683531240309301,176.94332424765946,-5.542873,5.873019,14.165175,15.304153,-19.201729,0.2076743,-7.0944242,-8.768143,-9.141889,12.363727,-15.8019,4.6452556,-1.533064,-2.1886172,4.8193183,7.048962,21.369179,-24.46046,46.144478,-5.293286,2.227685,-3.4272492,-19.913395,-8.608821,41.97029,36.244225,5.200639,8.174736,2.6177716
35,0.6247939467430115,-0.0769629031419754,78.01615142822266,0.5857183001268378,7.898481581116313,176.9746353009034,-5.7791214,5.8866363,14.110721,15.472138,-19.372253,0.23830302,-7.348963,-8.77843,-9.134604,12.590953,-15.919544,4.626971,-1.8351583,-2.3140688,4.7620707,7.4118843,21.65845,-24.226984,46.084846,-5.2947664,2.3018413,-3.3092864,-20.041714,-8.558768,42.006756,35.107426,4.946397,8.368328,2.6743178
36,0.506422758102417,-0.07507776468992233,77.99551391601562,0.6028188988788591,8.129521614994793,177.0223605561895,-6.0315757,5.8757243,14.054049,15.643711,-19.5204,0.30244625,-7.643748,-8.8253565,-9.137135,12.889911,-16.072834,4.6262207,-2.1678865,-2.4584315,4.674521,7.796536,21.961123,-24.031092,45.971653,-5.29489,2.3430672,-3.1658123,-20.126331,-8.520092,42.040558,33.944046,4.7343264,8.505172,2.7486408
37,0.38440677523612976,-0.06539545208215714,77.96802520751953,0.635708844680147,8.383781686955222,177.09157840035368,-6.3106365,5.8497643,13.993577,15.824221,-19.64314,0.40622666,-7.9668527,-8.89922,-9.159999,13.225661,-16.25114,4.6397862,-2.536179,-2.6154258,4.549315,8.207565,22.278,-23.883965,45.81009,-5.3141336,2.332081,-2.9601748,-20.160528,-8.4962635,42.06558,32.726124,4.5447917,8.586082,2.8572967
38,0.25160977244377136,-0.06019246578216553,77.93766021728516,0.6807550545135664,8.654328459264333,177.18229044515996,-6.612368,5.8123136,13.9238205,16.016811,-19.743591,0.53903586,-8.309129,-8.994084,-9.202417,13.590886,-16.44487,4.66205,-2.941167,-2.7829905,4.394945,8.646443,22.609638,-23.771389,45.596344,-5.3260837,2.2905111,-2.694602,-20.146605,-8.489686,42.085445,31.448847,4.3774652,8.622402,3.0000603
39,0.10873892903327942,-0.05695563554763794,77.90508270263672,0.7543789908992283,8.930785541665209,177.28386225046938,-6.916822,5.740005,13.852074,16.20823,-19.827555,0.6944387,-8.706896,-9.135737,-9.240358,14.075575,-16.686148,4.7039094,-3.3648818,-2.973567,4.2225327,9.096328,22.954193,-23.683298,45.32329,-5.3062873,2.2455316,-2.4493918,-20.091059,-8.503642,42.10688,30.161913,4.2822127,8.604711,3.13968
40,-0.03278622031211853,-0.0539826937019825,77.86436462402344,0.8734464652108627,9.202708800112902,177.38571683007729,-7.201937,5.6085777,13.78624,16.38058,-19.898071,0.866035,-9.19472,-9.350517,-9.249359,14.765616,-17.006527,4.77674,-3.78838,-3.1997702,4.0425744,9.538358,23.30802,-23.61111,44.98596,-5.229678,2.2241635,-2.3046532,-20.000938,-8.541755,42.13639,28.915321,4.31002,8.52368,3.2388093
41,-0.18885675072669983,-0.046540260314941406,77.81511688232422,1.0470125507601307,9.482938847008935,177.49635131989484,-7.4827776,5.403147,13.717617,16.528305,-19.9464,1.0713229,-9.794127,-9.653032,-9.235616,15.679817,-17.419718,4.9026604,-4.219086,-3.4663212,3.8387518,9.975941,23.66911,-23.553776,44.57475,-5.049022,2.2476563,-2.2979772,-19.885708,-8.608702,42.188988,27.695978,4.507189,8.378462,3.291326
42,-0.34536969661712646,-0.04518457502126694,77.75581359863281,1.2654148802436533,9.771501024477164,177.6182560054422,-7.7630596,5.1388845,13.646215,16.65923,-19.972755,1.3072755,-10.48177,-10.026355,-9.206278,16.772537,-17.90634,5.070255,-4.662549,-3.765123,3.6109722,10.415399,24.037176,-23.515041,44.09662,-4.7901454,2.296252,-2.381204,-19.738413,-8.70713,42.25845,26.482603,4.837957,8.173759,3.3168314
43,-0.5036629438400269,-0.03903183713555336,77.68700408935547,1.5179220764420713,10.038780740177193,177.73178895197833,-8.006006,4.835239,13.593886,16.781403,-19.997149,1.5374801,-11.221084,-10.448976,-9.138889,18.023338,-18.445805,5.240922,-5.0950723,-4.0915217,3.394771,10.838907,24.4105,-23.496693,43.57201,-4.5382013,2.3358462,-2.505422,-19.532734,-8.833442,42.31112,25.305216,5.2226934,7.9094186,3.3161376
44,-0.6767303943634033,-0.038974616676568985,77.60839080810547,1.7948103659340267,10.255408058390412,177.81672355502178,-8.171239,4.5101614,13.582162,16.895815,-20.03951,1.7258952,-11.979676,-10.900543,-9.0094595,19.419386,-19.016375,5.375767,-5.49334,-4.4430604,3.2252345,11.227904,24.786713,-23.50129,43.024395,-4.3789735,2.3329422,-2.620913,-19.247599,-8.980342,42.31382,24.203869,5.5795956,7.584162,3.2897227
45,-0.8465747237205505,-0.030772626399993896,77.51897430419922,2.108885806222409,10.41713546456886,177.86759457971803,-8.252126,4.148115,13.617765,17.002176,-20.090036,1.8750743,-12.765048,-11.392679,-8.7899,20.974785,-19.628433,5.4480147,-5.8546915,-4.8320227,3.1021447,11.596666,25.165253,-23.532106,42.446407,-4.304577,2.2787347,-2.7317605,-18.891006,-9.142746,42.274494,23.193022,5.917892,7.156141,3.223981
46,-1.0337936878204346,-0.022317146882414818,77.4149169921875,2.4635595636431313,10.538422090051961,177.89545523465318,-8.264124,3.74222,13.68852,17.093622,-20.141037,2.0013342,-13.582534,-11.9294405,-8.497852,22.674261,-20.278814,5.485614,-6.1916304,-5.260439,3.0085356,11.948568,25.546612,-23.586954,41.832314,-4.2800345,2.1911998,-2.857963,-18.477686,-9.319126,42.204006,22.261215,6.2696776,6.6387815,3.1241856
47,-1.2335067987442017,-0.010604198090732098,77.30229187011719,2.833435166467837,10.617697591712878,177.9045618597105,-8.211075,3.3256493,13.785344,17.182068,-20.221342,2.0888531,-14.400377,-12.481454,-8.178385,24.469055,-20.9326,5.53044,-6.5022755,-5.709848,2.956168,12.245374,25.929382,-23.662455,41.208992,-4.348855,2.0776236,-2.9736083,-17.991049,-9.504752,42.068653,21.404346,6.5864387,6.1134,3.016608
48,-1.434674620628357,0.0017692622495815158,77.18161010742188,3.1913904572312664,10.654118115756896,177.8989622064012,-8.102358,2.934178,13.899207,17.288311,-20.358702,2.1211185,-15.186271,-13.021247,-7.878926,26.31022,-21.556864,5.62247,-6.7830296,-6.16005,2.9561775,12.444888,26.310854,-23.759275,40.606575,-4.55487,1.9453355,-3.0528336,-17.41338,-9.692639,41.833103,20.619392,6.8191695,5.662547,2.9263487
49,-1.646034836769104,0.024279503151774406,77.0525131225586,3.5414879539430384,10.63595578820539,177.87220103799612,-7.9095244,2.5610833,14.039361,17.385633,-20.559912,2.0886495,-15.917425,-13.557315,-7.5963225,28.178402,-22.150219,5.8181305,-7.028088,-6.6210647,3.0221355,12.547143,26.690245,-23.88497,40.035614,-4.9706564,1.7862462,-3.0784397,-16.737724,-9.875984,41.489033,19.913958,6.964662,5.2803583,2.8573265
50,-1.8657677173614502,0.04475884512066841,76.91697692871094,3.893074353320038,10.568202382170789,177.82393152549864,-7.640231,2.193642,14.205653,17.474613,-20.809223,2.001342,-16.61789,-14.10195,-7.3108563,30.104118,-22.730354,6.0773954,-7.240059,-7.0978527,3.1438854,12.566384,27.067127,-24.041523,39.483547,-5.5531454,1.59971,-3.0684633,-15.977569,-10.050881,41.052513,19.293653,7.0440245,4.932119,2.7957864
51,-2.0860865116119385,0.0729823037981987,76.77676391601562,4.227363285880999,10.47492691721071,177.76721649169573,-7.3590717,1.8592613,14.376089,17.621616,-21.107735,1.8716851,-17.336254,-14.636952,-7.0417995,32.14023,-23.298231,6.2945833,-7.428164,-7.562413,3.298507,12.482962,27.437405,-24.221611,38.94704,-6.1712747,1.4040252,-3.0496943,-15.149055,-10.215401,40.5272,18.754902,7.0513306,4.6562266,2.7394536
52,-2.3064093589782715,0.10863488912582397,76.63362884521484,4.52737968193931,10.379455934749727,177.7157487834983,-7.1255965,1.5830213,14.530444,17.88384,-21.451971,1.7126682,-18.115425,-15.143347,-6.807756,34.3312,-23.850424,6.365219,-7.601791,-7.9874578,3.4625654,12.274679,27.794542,-24.419004,38.426037,-6.693743,1.2178057,-3.0476482,-14.2653,-10.369078,39.91777,18.292942,6.978955,4.491462,2.6863775
53,-2.5419859886169434,0.1421864777803421,76.48046875,4.795117494324148,10.285993210733036,177.6717825088024,-6.956301,1.3671402,14.671432,18.281963,-21.84419,1.5167936,-18.974947,-15.623683,-6.603208,36.718872,-24.39568,6.2569237,-7.7558494,-8.373977,3.6330764,11.923625,28.135551,-24.651083,37.937428,-7.08725,1.0566101,-3.0653148,-13.311109,-10.508534,39.20797,17.890848,6.7965236,4.492144,2.6581206
54,-2.7807343006134033,0.18490073084831238,76.32210540771484,5.039439173713806,10.1824890644711,177.62872979765822,-6.8184867,1.198783,14.809173,18.784267,-22.285385,1.2812526,-19.883574,-16.090866,-6.418737,39.261703,-24.929256,6.0256476,-7.886684,-8.733958,3.822134,11.441197,28.458433,-24.918802,37.48004,-7.4201517,0.90657663,-3.0895329,-12.283828,-10.630045,38.40177,17.556728,6.517645,4.622993,2.6496205
55,-3.0178160667419434,0.23056094348430634,76.15998840332031,5.253241127054593,10.066866120026065,177.5870532932033,-6.698442,1.080847,14.934969,19.371058,-22.770926,1.02629,-20.805853,-16.53178,-6.269659,41.878216,-25.427185,5.6988444,-8.009463,-9.055789,4.02778,10.849215,28.756624,-25.18911,37.029465,-7.7151413,0.74240357,-3.1210475,-11.221378,-10.735489,37.54053,17.329807,6.2046423,4.78851,2.618717
56,-3.265342950820923,0.28740012645721436,75.99488830566406,5.4280559644994915,9.937238493057283,177.54703130213542,-6.5827007,1.0168701,15.039504,20.022146,-23.296206,0.7716023,-21.70923,-16.938639,-6.1710453,44.495113,-25.869493,5.3033133,-8.142684,-9.325303,4.247477,10.172513,29.020773,-25.423475,36.56111,-7.9918947,0.53862935,-3.1609774,-10.160843,-10.830293,36.66845,17.246967,5.9213114,4.8936353,2.5213742
57,-3.5209994316101074,0.34059539437294006,75.83103942871094,5.560528435111724,9.78386629301567,177.50492993860487,-6.4625673,1.004524,15.120828,20.744118,-23.871456,0.5351419,-22.585354,-17.314072,-6.1281843,47.14377,-26.25077,4.7936826,-8.289571,-9.536648,4.4910207,9.402823,29.243584,-25.62507,36.122105,-8.254344,0.28743982,-3.2129884,-9.093515,-10.915268,35.779625,17.304659,5.6582613,4.934879,2.3559177
58,-3.802480459213257,0.40076738595962524,75.66655731201172,5.654270524069924,9.610359849264238,177.46191067746142,-6.345675,1.0440013,15.184082,21.541529,-24.494509,0.30174923,-23.449835,-17.66604,-6.1326346,49.84942,-26.585533,4.167545,-8.445108,-9.692932,4.7548246,8.53177,29.422766,-25.803688,35.71468,-8.489211,0.0018738719,-3.2748005,-8.005018,-10.989519,34.8635,17.490673,5.3913565,4.9565644,2.1418962
59,-4.07165002822876,0.4573672115802765,75.49995422363281,5.710092987469505,9.435437369697354,177.42546473645254,-6.239631,1.1408801,15.232064,22.384151,-25.138832,0.04104627,-24.30462,-17.99042,-6.1819935,52.529446,-26.881826,3.517821,-8.616792,-9.793532,5.015231,7.5853977,29.558636,-25.930061,35.24882,-8.690724,-0.31218275,-3.338989,-6.924826,-11.060156,33.95826,17.827032,5.1614385,4.935802,1.8654357
60,-4.3568949699401855,0.5208442211151123,75.32820129394531,5.728750647149007,9.278094262424034,177.40296900996907,-6.151224,1.2994792,15.269111,23.239565,-25.779575,-0.27837905,-25.155602,-18.280537,-6.27593,55.109016,-27.147886,2.9417305,-8.813844,-9.837795,5.249469,6.5947742,29.65384,-25.970789,34.62868,-8.851923,-0.6488275,-3.3987856,-5.8801928,-11.13949,33.103718,18.328289,5.010724,4.849255,1.5113579
61,-4.656011581420898,0.588828444480896,75.15546417236328,5.692949538979986,9.139068622621169,177.39220473632093,-6.0894814,1.5424001,15.299728,24.13071,-26.42237,-0.67774546,-25.992445,-18.515886,-6.438264,57.587406,-27.383425,2.4431984,-9.03545,-9.812362,5.4586134,5.5805974,29.707796,-25.904596,33.845894,-8.947991,-1.0256683,-3.4399757,-4.8746066,-11.236205,32.309444,19.012217,4.995996,4.660041,1.052799
62,-4.967732906341553,0.6643373966217041,74.97895812988281,5.606371597951566,9.009832925509388,177.39056119138814,-6.0446725,1.8569411,15.32415,25.05861,-27.077436,-1.1381804,-26.818058,-18.706036,-6.665153,60.010326,-27.588018,1.9782671,-9.280485,-9.718504,5.652832,4.5272226,29.722017,-25.745934,32.944386,-8.989036,-1.4398433,-3.470133,-3.886166,-11.353656,31.558355,19.853857,5.0811434,4.3898034,0.5048548
63,-5.289031982421875,0.7437810301780701,74.79943084716797,5.501385747270388,8.895531426874248,177.40506638580956,-6.0053186,2.1952484,15.339105,25.977112,-27.727192,-1.6290237,-27.655031,-18.881939,-6.9160776,62.359432,-27.770939,1.5775384,-9.553872,-9.580507,5.823579,3.408595,29.706295,-25.521248,31.90481,-9.020899,-1.8544103,-3.5157018,-2.8971698,-11.498543,30.842476,20.796537,5.1654143,4.1039023,-0.0849742
64,-5.6183648109436035,0.8248310685157776,74.61023712158203,5.41134391269351,8.80132602479053,177.4424295689458,-5.9624805,2.5120487,15.339681,26.843258,-28.353985,-2.1207309,-28.528841,-19.07267,-7.149105,64.61987,-27.942274,1.2753174,-9.858094,-9.425636,5.963528,2.200053,29.676098,-25.259441,30.701101,-9.091892,-2.2314405,-3.604224,-1.8905852,-11.6814165,30.150652,21.78124,5.1514635,3.869605,-0.6703692
65,-5.958881378173828,0.9111323356628418,74.41409301757812,5.327912855760208,8.734624439045389,177.5087214672415,-5.9512696,2.8241332,15.316789,27.708658,-28.981344,-2.6173868,-29.448513,-19.263693,-7.3750553,66.79874,-28.098196,1.1032045,-10.193288,-9.24249,6.0749793,0.90775687,29.639187,-24.951075,29.289042,-9.266859,-2.5686274,-3.762742,-0.8687129,-11.90715,29.455824,22.841,5.036332,3.6857512,-1.2552787
66,-6.300992488861084,0.9914827346801758,74.21379089355469,5.238226326863607,8.69090046113687,177.5986465517155,-5.9633484,3.1466222,15.275992,28.573563,-29.609455,-3.1318126,-30.401552,-19.441595,-7.6130624,68.904236,-28.235018,1.0434223,-10.551854,-9.023431,6.162909,-0.45594898,29.599487,-24.59113,27.684637,-9.507375,-2.881944,-3.9708307,0.17545673,-12.177961,28.762014,23.972948,4.867295,3.5250335,-1.8592081
67,-6.664453506469727,1.080162763595581,74.01457214355469,5.171706111474967,8.657863462766857,177.70186863856827,-5.931073,3.430692,15.233597,29.33048,-30.190298,-3.6416376,-31.38314,-19.63505,-7.8309336,70.919556,-28.361168,1.0565963,-10.920893,-8.805962,6.22494,-1.9079605,29.569403,-24.219604,25.9451,-9.704983,-3.1603756,-4.1855693,1.278199,-12.503006,28.098434,25.057081,4.6220803,3.4161067,-2.4597523
68,-7.03581428527832,1.1704249382019043,73.82002258300781,5.158228430704316,8.623130169694369,177.80805788525402,-5.7863827,3.6265388,15.205085,29.869596,-30.675108,-4.1230745,-32.38918,-19.876091,-7.9930754,72.826935,-28.484785,1.1040705,-11.283277,-8.629163,6.261489,-3.4673114,29.564905,-23.882296,24.123146,-9.754091,-3.394946,-4.3637447,2.4844153,-12.8953,27.489435,25.95865,4.2803745,3.389685,-3.0336814
69,-7.407800197601318,1.2599608898162842,73.63369750976562,5.227589612766607,8.588027940916872,177.92485174002928,-5.528834,3.7000775,15.1890135,30.176651,-31.058367,-4.5723324,-33.45283,-20.190758,-8.065944,74.65687,-28.616795,1.196022,-11.633542,-8.527358,6.269898,-5.160048,29.596878,-23.61023,22.18161,-9.610075,-3.6027236,-4.5019712,3.7914767,-13.366694,26.936188,26.714787,3.8282206,3.454386,-3.6115386
70,-7.809421539306641,1.3569004535675049,73.46421813964844,5.356375201877225,8.557632981312098,178.05404419366113,-5.1908946,3.6846614,15.176937,30.305988,-31.36448,-4.998814,-34.56679,-20.554272,-8.07404,76.40751,-28.749634,1.3506885,-11.972052,-8.474421,6.254926,-6.968293,29.66629,-23.385265,20.09346,-9.340808,-3.7821815,-4.6198983,5.200443,-13.919827,26.412104,27.345984,3.2850068,3.5970404,-4.1904674
71,-8.236117362976074,1.4658316373825073,73.31307220458984,5.495708294884163,8.524345364653898,178.17733474520497,-4.7533555,3.632527,15.171476,30.249725,-31.585825,-5.397043,-35.6649,-20.917414,-8.071934,78.00994,-28.862623,1.5332423,-12.290836,-8.419246,6.229333,-8.844317,29.772503,-23.179468,17.919271,-9.006273,-3.893734,-4.7088084,6.7565737,-14.550694,25.89806,27.700024,2.6801295,3.8115613,-4.696153
72,-8.68040943145752,1.5796326398849487,73.18570709228516,5.5965318456465845,8.48119376885564,178.2763989388134,-4.195594,3.5982275,15.175554,30.000904,-31.713875,-5.7631617,-36.681995,-21.236107,-8.112212,79.39496,-28.931644,1.7073659,-12.583619,-8.310878,6.2077823,-10.741255,29.914715,-22.96364,15.719089,-8.665564,-3.8974044,-4.7609076,8.504809,-15.250746,25.373281,27.62233,2.0408947,4.0920115,-5.054544
73,-9.146955490112305,1.6911512613296509,73.08912658691406,5.65995687514342,8.426055345838957,178.35675590217284,-3.5182312,3.5832617,15.182853,29.563776,-31.76008,-6.085,-37.62215,-21.514214,-8.185832,80.55973,-28.950338,1.8808877,-12.845272,-8.156519,6.1952167,-12.69517,30.087091,-22.757313,13.4960985,-8.340437,-3.7665453,-4.768832,10.48599,-16.020454,24.81507,27.044697,1.3142744,4.472375,-5.2455378
74,-9.64059829711914,1.819723129272461,73.02266693115234,5.707200320735936,8.363076549005049,178.42498669101187,-2.7296913,3.5659513,15.190922,28.939339,-31.721478,-6.3687205,-38.516087,-21.772787,-8.271054,81.538506,-28.929108,2.065371,-13.07415,-7.977423,6.1886764,-14.728514,30.286076,-22.58217,11.225542,-7.9975314,-3.5281072,-4.7387457,12.680538,-16.85989,24.217783,26.044436,0.5038051,4.940694,-5.303217
75,-10.158824920654297,1.9551070928573608,72.98666381835938,5.71988022277298,8.29393489033953,178.46464877337226,-1.8173101,3.564448,15.208662,28.109406,-31.560755,-6.638781,-39.332355,-21.995083,-8.407519,82.30827,-28.872923,2.2257662,-13.274642,-7.7477574,6.1905384,-16.768412,30.52005,-22.406702,8.918727,-7.610738,-3.22101,-4.6847463,15.036116,-17.756762,23.586306,24.693453,-0.28435737,5.420048,-5.2378902
76,-10.71378231048584,2.1003897190093994,72.98468017578125,5.679630200166889,8.220453562858394,178.45932152419346,-0.7677645,3.5962408,15.246164,27.05324,-31.241438,-6.920494,-40.041454,-22.168056,-8.633392,82.85083,-28.782204,2.3271015,-13.459648,-7.443264,6.2022014,-18.722229,30.808294,-22.185205,6.5676613,-7.1535573,-2.883013,-4.6229115,17.489288,-18.689215,22.934483,23.078333,-0.94274575,5.831448,-5.065176
77,-11.290007591247559,2.2437210083007812,73.01361846923828,5.572576423852299,8.127430184008784,178.41438044628075,0.47317237,3.6644504,15.297796,25.6821,-30.756773,-7.232549,-40.613068,-22.310045,-8.985173,83.16273,-28.664188,2.3486643,-13.64003,-7.053668,6.241006,-20.592287,31.17058,-21.929243,4.1267004,-6.5281715,-2.487297,-4.5520816,20.07348,-19.648527,22.263163,21.148127,-1.4871453,6.172307,-4.7725577
78,-11.888649940490723,2.396257162094116,73.07020568847656,5.409922007363395,8.019617736664372,178.33630225454263,1.8816894,3.7600615,15.362336,24.026518,-30.119596,-7.5637074,-41.06963,-22.42253,-9.436508,83.25295,-28.51366,2.3111794,-13.816155,-6.5963206,6.307489,-22.393938,31.612856,-21.645672,1.5735354,-5.784301,-2.02397,-4.4696217,22.817299,-20.6297,21.549255,18.869343,-1.9623784,6.4751167,-4.3595715
79,-12.516353607177734,2.580618381500244,73.15536499023438,5.212693954290121,7.927756555853949,178.210646809567,3.3545094,3.878048,15.454575,22.244999,-29.319466,-7.890601,-41.4585,-22.46451,-9.935665,83.1211,-28.319908,2.2389643,-13.991978,-6.0903015,6.369658,-24.054413,32.13663,-21.274946,-1.0540589,-5.115404,-1.5563562,-4.3873906,25.628086,-21.610035,20.790403,16.384869,-2.304895,6.7162933,-3.8665533
80,-13.161486625671387,2.7588798999786377,73.27027130126953,5.003616571041487,7.881529626114195,178.02192202065442,4.784372,4.0124755,15.588651,20.508553,-28.351921,-8.186538,-41.82882,-22.395578,-10.427333,82.76702,-28.071861,2.1576679,-14.17503,-5.5602565,6.3881364,-25.496115,32.745632,-20.750906,-3.7112036,-4.71061,-1.1481085,-4.313972,28.37924,-22.558489,20.00966,13.87721,-2.4530852,6.8735633,-3.3377671
81,-13.823358535766602,2.957517385482788,73.40491485595703,4.773702145992183,7.8751949935304735,177.76761693189204,6.20206,4.165904,15.769265,18.769333,-27.198595,-8.468458,-42.174343,-22.221035,-10.92942,82.193405,-27.7689,2.052001,-14.374,-5.001355,6.35847,-26.713882,33.45577,-20.055622,-6.417174,-4.582107,-0.8181995,-4.2412114,31.053696,-23.461683,19.224007,11.361024,-2.3604493,6.9333234,-2.7578285
82,-14.49714469909668,3.167713165283203,73.56069946289062,4.516199219083726,7.896248831277141,177.4548623187441,7.638775,4.3344827,15.989383,16.973194,-25.867744,-8.7423935,-42.474125,-21.955564,-11.461266,81.39767,-27.416672,1.916793,-14.589354,-4.411131,6.2962365,-27.723717,34.278233,-19.212753,-9.205273,-4.643461,-0.5305754,-4.164179,33.685486,-24.319796,18.437067,8.786814,-2.074465,6.9138904,-2.1171892
83,-15.195459365844727,3.396777868270874,73.73609161376953,4.261292765617025,7.963211564671684,177.0805394882588,8.998219,4.4988112,16.245388,15.271722,-24.401623,-8.958186,-42.75624,-21.575195,-11.962632,80.36948,-27.012018,1.7936416,-14.815318,-3.8236144,6.186445,-28.486898,35.204594,-18.216434,-12.02342,-4.9337687,-0.27067673,-4.092873,36.19585,-25.12029,17.675932,6.269669,-1.6769422,6.841024,-1.4704456
84,-15.896918296813965,3.649104356765747,73.93475341796875,4.042238989863739,8.093535855636677,176.63968335812848,10.186284,4.639323,16.534372,13.824532,-22.849874,-9.061311,-43.048336,-21.058098,-12.367332,79.09777,-26.554262,1.7245219,-15.039509,-3.2794437,6.0106897,-28.965103,36.213745,-17.063002,-14.809931,-5.483942,-0.021835843,-4.0374227,38.488003,-25.84525,16.976126,3.9459841,-1.254793,6.737128,-0.8732329
85,-16.6214542388916,3.918473720550537,74.15274047851562,3.8756118985388586,8.306012046711025,176.11345417952424,11.189644,4.7363696,16.863964,12.645476,-21.198332,-9.011595,-43.397106,-20.371767,-12.615659,77.5673,-26.044178,1.7216452,-15.234166,-2.7993748,5.737033,-29.170984,37.293983,-15.74993,-17.516504,-6.441366,0.2065428,-3.9797823,40.531,-26.489504,16.365393,1.857457,-0.76400375,6.60678,-0.33299708
86,-17.358253479003906,4.212326526641846,74.38790893554688,3.747164365914919,8.582584677807844,175.5057549800818,12.055068,4.7993016,17.237394,11.67554,-19.445274,-8.838112,-43.765938,-19.540037,-12.746169,75.781494,-25.484901,1.7629322,-15.398118,-2.3715014,5.3818936,-29.129906,38.44119,-14.27963,-20.161425,-7.7421403,0.40929425,-3.9171274,42.350494,-27.05792,15.839522,-0.040745765,-0.18970352,6.439481,0.17827888
87,-18.103811264038086,4.52070951461792,74.64241027832031,3.646734545762829,8.884080365721966,174.84473576299555,12.7771015,4.856019,17.646559,10.976809,-17.65613,-8.589152,-44.066204,-18.626013,-12.833247,73.76893,-24.869488,1.8390424,-15.553702,-1.9921612,4.9975386,-28.829725,39.63671,-12.660257,-22.772596,-9.097627,0.61025524,-3.8826187,43.928715,-27.5486,15.386701,-1.7341802,0.33513063,6.231224,0.65802264
88,-18.8648738861084,4.84760046005249,74.91129302978516,3.5609606832055998,9.172625416744506,174.160242645633,13.357149,4.9383698,18.080814,10.592383,-15.8881855,-8.315268,-44.211784,-17.689043,-12.955633,71.55709,-24.19416,1.9415311,-15.720586,-1.6533214,4.634453,-28.279387,40.851505,-10.911588,-25.354496,-10.2181635,0.83472997,-3.9120765,45.2504,-27.953995,14.991165,-3.2062266,0.67725646,5.975157,1.1024855
89,-19.638282775878906,5.190258502960205,75.1922836303711,3.483077123058018,9.453332787706877,173.43858602070662,13.813989,5.05131,18.568605,10.481391,-14.094119,-8.046869,-44.202282,-16.690336,-13.0961075,69.09315,-23.407726,2.0718896,-15.8711815,-1.3434336,4.2847595,-27.505205,42.0658,-9.021466,-27.869812,-11.046634,1.1077543,-4.0596623,46.30865,-28.263866,14.650898,-4.424093,0.7658485,5.641241,1.534831
90,-20.420169830322266,5.552948951721191,75.47942352294922,3.416639325545098,9.740959088825646,172.67215646804326,14.147863,5.1884375,19.106586,10.628079,-12.25675,-7.752435,-44.068077,-15.611185,-13.227291,66.37408,-22.528074,2.2344997,-15.9900675,-1.0686185,3.9260173,-26.536787,43.265373,-7.003036,-30.279604,-11.727892,1.4123021,-4.293829,47.108047,-28.478828,14.376916,-5.3955083,0.6787324,5.238375,1.9494964
91,-21.217782974243164,5.931692600250244,75.76884460449219,3.3602487290145144,10.015226473308001,171.9019945506139,14.327415,5.3749514,19.63495,11.118805,-10.473877,-7.3933473,-43.77249,-14.535349,-13.421449,63.49239,-21.648169,2.4238338,-16.117702,-0.83687645,3.5816216,-25.36934,44.419872,-4.91499,-32.59849,-12.264586,1.7095593,-4.521812,47.65763,-28.603704,14.176625,-6.1699843,0.5086877,4.8179593,2.2974126
92,-22.02179718017578,6.320165157318115,76.05424499511719,3.3044453696220217,10.259137254093899,171.17374857277747,14.3040695,5.6532865,20.09092,12.06879,-8.856937,-6.9343677,-43.28431,-13.54018,-13.7628765,60.538177,-20.85835,2.6365492,-16.291325,-0.6424726,3.271503,-24.037552,45.489155,-2.8416173,-34.814762,-12.656941,1.9589064,-4.6530547,47.981606,-28.644629,14.047037,-6.8037877,0.34958598,4.4334335,2.5302517
93,-22.83344841003418,6.719455718994141,76.33300018310547,3.2194082874086645,10.481885693956112,170.5040602802391,14.044119,6.0719543,20.470112,13.520939,-7.3977637,-6.352547,-42.56473,-12.614705,-14.327836,57.41855,-20.175655,2.8970861,-16.513077,-0.44099528,2.989286,-22.59868,46.445858,-0.80257636,-36.88381,-12.84426,2.151137,-4.675588,48.09243,-28.597328,13.963328,-7.295841,0.073394924,4.1109295,2.661793
94,-23.649564743041992,7.137971878051758,76.59584045410156,3.0867982878487443,10.698790255630819,169.8835183554815,13.571432,6.6431556,20.79148,15.399071,-6.0329504,-5.687539,-41.636024,-11.695454,-15.095563,54.08907,-19.53685,3.2009237,-16.75846,-0.20054504,2.7223482,-21.115496,47.278843,1.1795712,-38.75863,-12.831614,2.3100042,-4.643927,48.007263,-28.458038,13.911463,-7.638032,-0.3198223,3.819097,2.7085319
95,-24.470252990722656,7.564986705780029,76.83368682861328,2.9198000178360997,10.900580486190046,169.31546647624856,12.951667,7.3351607,21.02927,17.581501,-4.763405,-4.994448,-40.564583,-10.782579,-15.999554,50.72108,-18.914566,3.4998584,-17.014078,0.06353982,2.4772036,-19.592756,47.975765,3.024635,-40.468864,-12.718858,2.4406922,-4.565285,47.776398,-28.232983,13.893982,-7.884809,-0.5441147,3.527273,2.6285422
96,-25.28008460998535,8.00511360168457,77.0478515625,2.748968581566431,11.073612635684418,168.7949500591089,12.262978,8.087452,21.164577,19.928667,-3.5859554,-4.319125,-39.42051,-9.891748,-16.950798,47.50103,-18.29085,3.7441883,-17.263388,0.3154604,2.2595644,-18.074047,48.525024,4.631649,-42.011635,-12.600807,2.549725,-4.4466233,47.447594,-27.933456,13.918883,-8.09138,-0.3109125,3.2036133,2.380922
97,-26.095972061157227,8.462348937988281,77.22986602783203,2.57852908867346,11.217325590609244,168.32621235881854,11.508191,8.893399,21.182295,22.429739,-2.51275,-3.6475124,-38.18903,-9.0181265,-17.956705,44.39636,-17.640934,3.9442496,-17.500605,0.55302745,2.0644052,-16.575932,48.920624,5.9733224,-43.387806,-12.476755,2.6370587,-4.27507,47.039948,-27.560423,13.987536,-8.264979,0.5623198,2.8332326,1.8943149
98,-26.915464401245117,8.924217224121094,77.38135528564453,2.4144781033238933,11.332983638893001,167.90277131919675,10.692549,9.731577,21.100903,25.06495,-1.4961796,-2.9627721,-36.849194,-8.155853,-19.026743,41.334026,-16.97979,4.122608,-17.724403,0.77639693,1.8907017,-15.117313,49.166992,7.0644546,-44.584248,-12.290756,2.7017717,-4.0589237,46.54286,-27.110832,14.083611,-8.389796,1.8833584,2.4228902,1.2177092
99,-27.729957580566406,9.393710136413574,77.49174499511719,2.2959113650426284,11.408618166571065,167.4995341754224,9.87786,10.522942,20.95716,27.73329,-0.48140115,-2.2965364,-35.47668,-7.3417478,-20.068771,38.48519,-16.361727,4.244689,-17.913147,0.9447768,1.7435877,-13.65862,49.27527,7.9143577,-45.6489,-12.070957,2.7470603,-3.8311331,45.970448,-26.59018,14.1810465,-8.488586,3.3811202,1.9751083,0.49100456
100,-28.538978576660156,9.8746976852417,77.56498718261719,2.255137292497683,11.43538101608827,167.09222412297873,9.107079,11.210945,20.788185,30.377531,0.562874,-1.6746726,-34.14994,-6.6186743,-21.001076,36.036396,-15.849098,4.273776,-18.0538,1.022864,1.6296418,-12.192218,49.258034,8.517088,-46.594337,-11.839204,2.7747827,-3.623776,45.327324,-26.00991,14.262629,-8.583618,4.790308,1.504488,-0.15102
101,-29.339643478393555,10.35437297821045,77.59638977050781,2.313379077690695,11.40866971395965,166.68504746429025,8.378928,11.809382,20.625105,33.049023,1.6315645,-1.1016566,-32.87517,-6.044075,-21.861996,34.079872,-15.454149,4.2329845,-18.161114,0.9831557,1.5472226,-10.698053,49.12015,8.857381,-47.435715,-11.601014,2.766606,-3.428509,44.614742,-25.372486,14.32982,-8.687865,6.207457,1.0113235,-0.6978683
102,-30.139490127563477,10.84406852722168,77.5847396850586,2.4493246165118485,11.337258401663858,166.282430288994,7.6510544,12.355721,20.443216,35.814915,2.676155,-0.551631,-31.627718,-5.591867,-22.677773,32.538994,-15.164462,4.1298814,-18.23689,0.8497032,1.4943783,-9.164744,48.86637,8.952247,-48.185425,-11.346003,2.7271357,-3.2327914,43.832935,-24.676447,14.38603,-8.7919445,7.7212005,0.48812547,-1.2095618
103,-30.947961807250977,11.31810188293457,77.52845001220703,2.624667167271753,11.233908241300398,165.85969153731858,6.8955793,12.842742,20.194427,38.665222,3.6561863,-0.004142191,-30.441158,-5.1877036,-23.352625,31.357155,-15.01119,3.8995657,-18.25698,0.6692921,1.4809314,-7.613234,48.511303,8.83699,-48.83605,-11.06801,2.6920197,-3.0618484,42.97883,-23.934555,14.418652,-8.884987,9.058108,-0.047467366,-1.6654261
104,-31.747814178466797,11.790223121643066,77.42520904541016,2.801990594080527,11.110748654187544,165.39347110275793,6.089946,13.256001,19.831247,41.57795,4.5358005,0.5571344,-29.349754,-4.761377,-23.788101,30.47705,-15.025254,3.4744544,-18.205471,0.4878959,1.5172303,-6.068026,48.074444,8.549277,-49.369053,-10.762249,2.6966171,-2.9393551,42.041466,-23.168165,14.425175,-8.956699,9.949878,-0.57232344,-2.052242
105,-32.53763961791992,12.248411178588867,77.2627944946289,3.026039233598308,10.955111725377096,164.8877828989816,5.2287464,13.564763,19.370754,44.610477,5.3572316,1.1869212,-28.325483,-4.3308206,-23.906681,29.863607,-15.12204,2.9496834,-18.099045,0.25680563,1.5975561,-4.49063,47.565315,8.080663,-49.811882,-10.443411,2.7740848,-2.863418,41.015385,-22.394186,14.420709,-9.008619,10.252847,-1.0848916,-2.3935237
106,-33.320281982421875,12.707122802734375,77.03804016113281,3.294979483410539,10.767786680517805,164.3501507417558,4.316392,13.808032,18.827566,47.787025,6.10105,1.8741165,-27.366875,-3.9329798,-23.780695,29.571825,-15.323739,2.3159976,-17.951971,-0.023128424,1.7236602,-2.8589535,46.990406,7.4319916,-50.175095,-10.1106825,2.8963833,-2.8231575,39.903347,-21.616697,14.40744,-9.054247,10.144436,-1.5872879,-2.6998456
107,-34.09320831298828,13.149526596069336,76.75568389892578,3.5042208932133185,10.579084010021592,163.7656284523733,3.3398418,14.046737,18.140244,51.03079,6.6483183,2.5085428,-26.54761,-3.5222847,-23.530575,29.67504,-15.81909,1.3494833,-17.745016,-0.23569837,1.9153805,-1.2153023,46.367493,6.6608357,-50.41869,-9.7406225,3.0064774,-2.826511,38.700043,-20.839205,14.365554,-9.094521,9.838894,-2.0609655,-2.9388843
108,-34.87035369873047,13.566550254821777,76.4110107421875,3.552082039063836,10.41721393932811,163.1215671293817,2.282147,14.303012,17.239567,54.25433,6.891659,2.94735,-25.945393,-3.0482,-23.266941,30.246515,-16.796787,-0.17535025,-17.466356,-0.27005056,2.189548,0.38631815,45.71825,5.8255963,-50.4844,-9.314675,3.0469363,-2.8777711,37.394024,-20.064611,14.28484,-9.126208,9.552069,-2.4904966,-3.0745022
109,-35.65458679199219,13.961601257324219,76.00878143310547,3.393154418591767,10.29896181067719,162.43226173553037,1.0961949,14.539455,16.037323,57.484386,6.879191,3.1200454,-25.624144,-2.4972796,-22.995016,31.423018,-18.517864,-2.7686012,-17.136528,-0.06681266,2.527285,1.9814922,45.05555,4.917278,-50.398655,-8.851909,3.0066223,-2.9488504,36.00654,-19.286545,14.148107,-9.146166,9.322957,-2.858279,-3.0503345
110,-36.4026985168457,14.360177993774414,75.58547973632812,3.102014549909963,10.198095959906453,161.70473617303028,-0.1892167,14.681156,14.589363,60.745956,6.646754,3.0668952,-25.537798,-1.862347,-22.609364,33.115704,-20.783705,-6.182471,-16.762732,0.28741455,2.9200945,3.5561469,44.387463,3.896621,-50.149982,-8.358735,2.9134915,-3.0441577,34.530537,-18.50452,13.972351,-9.151035,9.044692,-3.1778722,-2.9015849
111,-37.12821960449219,14.76926326751709,75.1397933959961,2.748769622652673,10.079420090385632,160.91795980286213,-1.4896114,14.700258,13.039711,63.97282,6.0541368,2.8041246,-25.588062,-1.1217068,-22.086761,35.053368,-23.118416,-9.481074,-16.315844,0.69339716,3.395823,5.0438466,43.722244,2.8076737,-49.67766,-7.8040714,2.767384,-3.2049744,32.916836,-17.73174,13.798184,-9.140509,8.720495,-3.4816823,-2.7279267
112,-37.82054901123047,15.166097640991211,74.64523315429688,2.39072154673953,9.912954797924055,160.04640044202705,-2.733611,14.613169,11.537067,67.12274,4.9510217,2.3678234,-25.660563,-0.3066081,-21.462477,36.97961,-25.102032,-11.697716,-15.7736025,1.0667661,3.985998,6.4083514,43.061295,1.7256197,-48.93577,-7.1628633,2.5663779,-3.468469,31.112118,-16.990501,13.67031,-9.117415,8.35775,-3.8013918,-2.63084
113,-38.470367431640625,15.53609561920166,74.10450744628906,2.021095177502424,9.692084765091911,159.08503664425925,-3.9200258,14.386915,10.041003,70.251465,3.0797796,1.6653068,-25.815742,0.5272706,-20.776094,39.02601,-26.687979,-12.353038,-15.15078,1.4271394,4.7255106,7.659673,42.401836,0.68663937,-47.885902,-6.4843683,2.264477,-3.8747973,29.116474,-16.280796,13.57692,-9.119657,7.9904604,-4.1752906,-2.6369243
114,-39.095252990722656,15.873697280883789,73.54376983642578,1.602862248601666,9.432849001608028,158.0403601203455,-5.0757008,14.056271,8.551299,73.394684,0.5552874,0.7369541,-26.079409,1.336029,-20.021597,41.33436,-28.129791,-12.038994,-14.459383,1.830304,5.584912,8.850478,41.736126,-0.32399172,-46.587257,-5.7709966,1.874413,-4.3850493,26.948938,-15.598109,13.501228,-9.133624,7.61024,-4.576236,-2.6951666
115,-39.714759826660156,16.20823860168457,73.0147933959961,1.1460609808787234,9.141717982102564,156.90463883518413,-6.1843877,13.767379,7.2438316,76.45927,-2.1875885,-0.17476681,-26.283083,2.1092687,-19.203077,43.63897,-29.468538,-11.374,-13.682211,2.2513156,6.500809,10.015264,41.048523,-1.2897294,-45.131226,-4.9307384,1.4752809,-4.919094,24.58169,-14.968026,13.485693,-9.091994,7.165532,-4.9366426,-2.7920182
116,-40.340030670166016,16.542789459228516,72.54215240478516,0.6738244957542185,8.823868710479939,155.6757245336373,-7.2408257,13.645302,6.241777,79.33171,-4.6841316,-0.8501378,-26.249409,2.9100044,-18.33628,45.58926,-30.729563,-10.940583,-12.818931,2.6536586,7.4111576,11.214583,40.316017,-2.169501,-43.621696,-3.87183,1.1475258,-5.399529,21.985596,-14.433943,13.5893135,-8.939785,6.614447,-5.188566,-2.917652
117,-41.003273010253906,16.874061584472656,72.10600280761719,0.14083085304765636,8.449574920098863,154.28295548517931,-8.19875,13.745765,5.53992,82.00026,-6.83403,-1.2712066,-25.897093,3.8995726,-17.442095,47.03416,-31.886713,-10.837522,-11.840528,3.0689728,8.363557,12.487295,39.4947,-2.9413078,-41.980316,-2.6999986,0.9509178,-5.734577,19.055733,-14.033704,13.889439,-8.610361,5.907356,-5.2843533,-3.121606
118,-41.73085403442383,17.18638038635254,71.70640563964844,-0.4412758653286283,8.020882003471677,152.75581636143008,-9.086654,14.01033,5.0475607,84.5078,-8.855251,-1.5399934,-25.336006,5.052372,-16.538244,48.146595,-32.918823,-10.763997,-10.793804,3.5335412,9.366737,13.857858,38.560402,-3.5785437,-40.220436,-1.4169801,0.828458,-6.002028,15.837358,-13.76231,14.363875,-8.178021,5.10539,-5.2673726,-3.4027927
119,-42.4310188293457,17.4394474029541,71.34770965576172,-0.9613157334130732,7.596613759110049,151.24181777583655,-10.015676,14.375944,4.7235837,86.80561,-10.742976,-1.6332927,-24.662256,6.181995,-15.632441,49.01569,-33.85248,-10.6876545,-9.781017,3.9894876,10.305378,15.353059,37.537933,-4.0504165,-38.585155,0.22784977,0.67890817,-6.371886,12.5192,-13.590177,14.930706,-7.7839446,4.325027,-5.207904,-3.6710105
120,-43.17030715942383,17.700674057006836,71.06395721435547,-1.3128471829783976,7.244431159148439,149.88633110376955,-11.098458,14.777718,4.5247574,88.844185,-12.486838,-1.5272024,-23.960026,7.0745807,-14.71947,49.73752,-34.723377,-10.57435,-8.8888035,4.350483,11.070253,16.972494,36.485977,-4.353124,-37.302967,2.4791546,0.38789755,-6.994262,9.286492,-13.476611,15.50612,-7.5514894,3.672858,-5.1801076,-3.831504
121,-43.9384651184082,18.01057243347168,70.85051727294922,-1.4349606828303654,6.981589039047361,148.76029086178826,-12.384125,15.166842,4.4333453,90.62367,-14.064141,-1.1379449,-23.226929,7.5933785,-13.804063,50.359924,-35.58349,-10.411504,-8.168479,4.5275373,11.64281,18.6925,35.44663,-4.474754,-36.357716,5.8546767,-0.15877427,-7.981632,6.1247816,-13.38518,16.121439,-7.4442525,3.119255,-5.2134566,-3.859242
122,-44.72853088378906,18.35418701171875,70.70601654052734,-1.3997139096254199,6.782392336249746,147.77200611010724,-13.807154,15.587071,4.456527,92.15883,-15.480591,-0.50442696,-22.41829,7.8726044,-12.885296,50.82472,-36.40356,-10.227389,-7.541326,4.551291,12.086172,20.494247,34.428127,-4.45202,-35.638275,10.050145,-0.9324636,-9.176897,2.948483,-13.298261,16.80871,-7.401184,2.6173813,-5.2696276,-3.7984388
123,-45.515869140625,18.732746124267578,70.61556243896484,-1.3036771798147764,6.650972770655836,146.82040866501,-15.309014,16.108301,4.591289,93.42349,-16.777512,0.20553434,-21.554113,8.079605,-11.938815,51.08124,-37.109333,-10.039473,-6.893098,4.5091457,12.410789,22.36487,33.443424,-4.3694806,-35.213463,14.075721,-1.7977337,-10.337629,-0.16879596,-13.214807,17.487356,-7.4914203,2.241589,-5.3231936,-3.6556392
124,-46.32624816894531,19.142250061035156,70.58401489257812,-1.2439051462181976,6.588693901135408,145.804886027599,-16.833517,16.805761,4.8375225,94.39007,-17.988913,0.8243997,-20.661808,8.373406,-10.933408,51.08781,-37.62396,-9.860085,-6.1077027,4.496144,12.619994,24.28296,32.508614,-4.3152084,-35.15111,16.951542,-2.548683,-11.269186,-3.1538553,-13.148974,18.076843,-7.779076,2.0695057,-5.3475757,-3.4360106
125,-47.137542724609375,19.56310272216797,70.58991241455078,-1.252709376795184,6.609047254860677,144.699685462464,-18.390408,17.813156,5.270128,95.06281,-19.156555,1.3063592,-19.760765,8.793155,-9.849877,50.82713,-37.9401,-9.694803,-5.137921,4.5345592,12.699468,26.272877,31.631985,-4.2833295,-35.582157,18.368504,-3.0766854,-12.033908,-6.007884,-13.117653,18.571915,-8.323332,2.206074,-5.3444657,-3.091928
126,-47.955299377441406,20.0061092376709,70.64286804199219,-1.2796657750987157,6.705865852292921,143.5558931932041,-19.992199,19.050611,5.873789,95.447296,-20.249735,1.7339588,-18.833439,9.234848,-8.693062,50.33023,-38.096775,-9.53159,-4.0429306,4.5712547,12.653302,28.328691,30.813751,-4.245693,-36.43807,18.866747,-3.4602761,-12.730774,-8.757602,-13.12499,19.019768,-9.0830765,2.5879142,-5.3229604,-2.63708
127,-48.772186279296875,20.469438552856445,70.75057983398438,-1.2973326424125367,6.850209709453134,142.3895258223565,-21.596563,20.277279,6.512494,95.5218,-21.187103,2.1349537,-17.855768,9.642053,-7.4679003,49.63086,-38.08264,-9.353226,-2.8671443,4.591701,12.506941,30.382067,30.056215,-4.256375,-37.477043,18.758638,-3.7435513,-13.248121,-11.373271,-13.168831,19.423264,-9.959171,3.034294,-5.2688828,-2.1674094
128,-49.596920013427734,20.947221755981445,70.90572357177734,-1.2778194496427746,7.014133564959972,141.21761259787093,-23.17049,21.25553,7.047245,95.265785,-21.88601,2.5427566,-16.801561,9.963256,-6.183424,48.756027,-37.88778,-9.146158,-1.6467456,4.5844007,12.283868,32.347256,29.366581,-4.3808746,-38.441006,18.3573,-3.9801786,-13.462441,-13.820865,-13.244214,19.774939,-10.85066,3.3647108,-5.172119,-1.777015
129,-50.44642639160156,21.440534591674805,71.1223373413086,-1.216771143731333,7.21367725616828,139.98329152416176,-24.728113,22.033173,7.533794,94.691345,-22.306425,3.0600786,-15.683317,10.209631,-4.770609,47.68663,-37.530174,-8.899818,-0.32167774,4.5324926,11.961721,34.229992,28.748657,-4.6613345,-39.30423,17.481562,-4.156844,-13.21669,-16.117819,-13.353246,20.080845,-11.73761,3.4842045,-5.0110083,-1.4990015
130,-51.32033157348633,21.960479736328125,71.39207458496094,-1.1313903516740391,7.457335866688572,138.69745332237466,-26.278135,22.706738,8.020393,93.804054,-22.500399,3.641072,-14.510471,10.39347,-3.2474747,46.418648,-37.009647,-8.622828,1.1098467,4.439566,11.540217,36.05911,28.20528,-5.0551105,-40.18523,16.05516,-4.2623453,-12.618862,-18.28226,-13.500449,20.348475,-12.663187,3.503105,-4.8004503,-1.2791762
131,-52.214630126953125,22.50572967529297,71.7152328491211,-1.0257658146978317,7.707017048429163,137.48044731269377,-27.789202,23.11465,8.349415,92.57153,-22.517416,4.101965,-13.256362,10.469584,-1.7585906,45.001858,-36.295593,-8.332469,2.5234854,4.327921,11.074888,37.782578,27.746431,-5.4954104,-41.030895,14.549103,-4.352215,-11.937948,-20.277658,-13.683528,20.56537,-13.624721,3.5457022,-4.583715,-1.0802402
132,-53.12594223022461,23.077613830566406,72.08312225341797,-0.9016573192640355,7.923326378621282,136.452633305863,-29.22858,23.09403,8.3631115,90.959076,-22.404982,4.2629895,-11.897218,10.398757,-0.45127714,43.48551,-35.358902,-8.046021,3.795905,4.222951,10.618707,39.34975,27.385925,-5.9126782,-41.797226,13.43165,-4.4594774,-11.441491,-22.063272,-13.897846,20.715338,-14.6246805,3.728609,-4.402736,-0.86445874
133,-54.073726654052734,23.670034408569336,72.49170684814453,-0.7584020582894739,8.090562201171243,135.63415554743008,-30.601564,22.532799,7.9490128,88.94397,-22.161995,4.081445,-10.389321,10.167559,0.6667555,41.812233,-34.175816,-7.7514286,4.9132385,4.135049,10.182729,40.756073,27.139757,-6.2857304,-42.50171,12.881906,-4.5754247,-11.194798,-23.627577,-14.148154,20.76889,-15.681809,4.125185,-4.2641916,-0.60824406
134,-55.040889739990234,24.276660919189453,72.93911743164062,-0.5976702219640656,8.229592350102354,134.9638083028603,-31.893051,21.5617,7.206616,86.54829,-21.780746,3.6720355,-8.767784,9.807007,1.655525,39.98459,-32.77068,-7.444788,5.9415927,4.0496383,9.740236,42.032597,27.013077,-6.6404247,-43.16983,12.626074,-4.678737,-11.050389,-24.989906,-14.441104,20.73449,-16.798525,4.6507964,-4.1447034,-0.33602932
135,-56.02876663208008,24.900793075561523,73.4052963256836,-0.42371718861395563,8.355849327011008,134.44228426398388,-33.044533,20.37013,6.290628,83.80195,-21.291203,3.080452,-7.128851,9.350667,2.4666085,38.145256,-31.183653,-7.1549006,6.8689566,3.9548132,9.285633,43.192707,26.996107,-6.969511,-43.76738,12.454135,-4.77095,-10.957263,-26.175238,-14.779,20.64873,-17.926632,5.200058,-4.0409465,-0.07888904
136,-57.037479400634766,25.5360164642334,73.88501739501953,-0.23772884016860352,8.485255574913015,134.0709641630962,-34.00473,19.135212,5.3647904,80.71173,-20.712076,2.3437493,-5.558419,8.832757,3.0561361,36.419323,-29.445374,-6.910185,7.6839643,3.839968,8.817925,44.24747,27.069548,-7.268476,-44.262394,12.1605625,-4.856358,-10.87038,-27.179155,-15.149741,20.55788,-19.039015,5.6397233,-3.951344,0.12927277
137,-58.063446044921875,26.191547393798828,74.3707275390625,-0.0376140563992272,8.611642920625435,133.89870853889985,-34.76842,17.776821,4.3544235,77.20539,-20.003736,1.3275821,-4.033832,8.245097,3.3673918,34.78598,-27.510239,-6.7017245,8.327844,3.712263,8.341038,45.20728,27.227121,-7.5109,-44.658367,11.733581,-4.940383,-10.82493,-28.025719,-15.549393,20.471106,-20.117739,5.9150224,-3.867524,0.27806005
138,-59.09431076049805,26.867202758789062,74.85330963134766,0.17449936026969104,8.726895194753853,133.9093106186546,-35.330578,16.255217,3.2001336,73.283226,-19.17714,0.06947863,-2.5231009,7.5931225,3.435227,33.202576,-25.381487,-6.5200925,8.81194,3.5774033,7.8562703,46.08341,27.46602,-7.6909266,-44.98039,11.272696,-5.019295,-10.832685,-28.728779,-15.98348,20.366566,-21.164558,6.107645,-3.7933302,0.38946536
139,-60.1331787109375,27.559911727905273,75.33500671386719,0.3909425920822489,8.846202760386255,134.00795903736633,-35.679504,14.790602,2.0933099,69.06158,-18.304302,-1.1535093,-1.0954982,6.9265804,3.354608,31.755955,-23.15808,-6.391937,9.228024,3.4219053,7.3600698,46.88235,27.766518,-7.836139,-45.221443,10.742286,-5.086051,-10.81564,-29.250591,-16.443773,20.249777,-22.192488,6.2718005,-3.7461967,0.47670802
140,-61.18122863769531,28.25973892211914,75.80028533935547,0.607073676409586,8.986961803314115,134.10075806917925,-35.83048,13.588296,1.2367746,64.65534,-17.443398,-2.0764737,0.17802839,6.285744,3.2209532,30.531157,-20.936375,-6.3427105,9.653379,3.2255392,6.8452597,47.62233,28.096134,-7.966039,-45.375004,10.110851,-5.136019,-10.698104,-29.58861,-16.919584,20.130394,-23.181631,6.4779596,-3.7431202,0.5560831
141,-62.24118423461914,28.973880767822266,76.250732421875,0.8440681784024417,9.171416052016143,134.1921467792176,-35.811893,12.651431,0.66079,59.987164,-16.54978,-2.6044283,1.2594794,5.6488767,3.0262558,29.54555,-18.670725,-6.4116826,10.077064,2.9625862,6.2938,48.31095,28.436596,-8.062302,-45.43064,9.321242,-5.1791434,-10.453998,-29.75558,-17.405258,20.017939,-24.123821,6.7646465,-3.8057303,0.63534087
142,-63.302303314208984,29.710948944091797,76.68115997314453,1.0989130416974509,9.3836213994562,134.3240141158536,-35.615997,11.86474,0.28108126,55.007286,-15.592744,-2.9088943,2.1960769,5.0011625,2.7274806,28.756533,-16.333754,-6.5727057,10.446135,2.650236,5.715843,48.953266,28.781992,-8.108924,-45.397667,8.413856,-5.2199993,-10.132866,-29.779661,-17.902159,19.910414,-25.001112,7.098163,-3.9185202,0.70782965
143,-64.3658676147461,30.460628509521484,77.0758056640625,1.3314876789971877,9.585609458207545,134.45623581794413,-35.2238,11.247612,0.13651091,49.87021,-14.647162,-3.1296375,3.0401053,4.3890414,2.3725016,28.161762,-14.040222,-6.753578,10.787822,2.336294,5.1513305,49.540836,29.117668,-8.138063,-45.288967,7.5043325,-5.2471614,-9.77564,-29.629072,-18.395254,19.812016,-25.823435,7.3947144,-4.043243,0.7604943
144,-65.42808532714844,31.221210479736328,77.43407440185547,1.5032156551474196,9.739613010905016,134.54711912039346,-34.624836,10.826399,0.25874504,44.735474,-13.783456,-3.3979053,3.8521347,3.861004,2.015744,27.739115,-11.8982115,-6.8841476,11.117619,2.0654895,4.6364355,50.07,29.421818,-8.171645,-45.111248,6.7048006,-5.2467327,-9.423333,-29.314426,-18.866749,19.72449,-26.559416,7.5951724,-4.141742,0.7838906
145,-66.50601959228516,31.986417770385742,77.754638671875,1.6048449686397814,9.83793905846379,134.57571717138944,-33.747723,10.64979,0.7313616,39.434902,-12.996052,-3.7063951,4.6767144,3.436457,1.7041757,27.407663,-9.869024,-6.96918,11.443902,1.8424225,4.1684723,50.579105,29.677704,-8.19956,-44.872913,6.0720177,-5.216415,-9.059504,-28.833242,-19.30052,19.662058,-27.186035,7.700622,-4.2053504,0.7664555
146,-67.58911895751953,32.76272201538086,78.0363998413086,1.6529610521796227,9.896195592049262,134.56106853277944,-32.60403,10.667364,1.5311924,33.894268,-12.22211,-4.0168033,5.4902596,3.090685,1.4074035,27.172993,-7.8985662,-7.041673,11.747487,1.6542716,3.7351117,51.057194,29.880089,-8.205047,-44.5597,5.536223,-5.163454,-8.677241,-28.19642,-19.684286,19.639719,-27.705496,7.716861,-4.2536197,0.7169027
147,-68.66564178466797,33.55018615722656,78.2690200805664,1.647570664475272,9.910153497994829,134.51779046745432,-31.29554,10.772514,2.5254447,28.39041,-11.433744,-4.3991995,6.262776,2.805542,1.0723178,27.118002,-6.0579767,-7.075912,12.000297,1.5114787,3.3518486,51.482635,30.017376,-8.201413,-44.19109,5.040954,-5.0855637,-8.327594,-27.48607,-20.021372,19.644785,-28.085772,7.640811,-4.2901683,0.66302294
148,-69.73727416992188,34.350494384765625,78.4540023803711,1.5850198398664312,9.875524422077145,134.45879028003972,-29.940416,10.882078,3.5670557,23.237103,-10.619577,-4.911407,6.9742355,2.568394,0.6486731,27.30725,-4.4145584,-7.048535,12.189343,1.4377501,3.0402462,51.801086,30.079855,-8.215034,-43.769615,4.5257187,-4.9807534,-8.065197,-26.729403,-20.312752,19.68051,-28.34498,7.4259443,-4.318938,0.62450564
149,-70.81009674072266,35.13397979736328,78.5861587524414,1.4210570140950933,9.787696555929433,134.359623906326,-28.50568,11.0610895,4.7631893,18.375538,-9.742161,-5.664166,7.659176,2.4185755,0.13037233,27.696556,-2.9618888,-6.9231977,12.329604,1.4756355,2.7882714,52.037308,30.05555,-8.249852,-43.309704,3.999153,-4.8204985,-7.9178185,-25.9485,-20.565504,19.76073,-28.456411,7.0379615,-4.333023,0.62003314
150,-71.87443542480469,35.89575958251953,78.6640853881836,1.1311064784654485,9.635921867883326,134.20353909412455,-26.927877,11.35819,6.1447453,13.649897,-8.798433,-6.600153,8.346012,2.3918886,-0.4392535,28.23865,-1.6522642,-6.736856,12.4387245,1.6531354,2.5960546,52.210846,29.9382,-8.300694,-42.809826,3.4897752,-4.6133966,-7.855386,-25.122478,-20.780241,19.894562,-28.427568,6.5006866,-4.3323517,0.6329516
151,-72.92037200927734,36.62431716918945,78.69288635253906,0.7780506112854237,9.425894171368995,134.03681987697706,-25.292248,11.648692,7.446533,9.213194,-7.8163776,-7.5028043,8.961549,2.4236224,-1.0575241,29.044807,-0.5152522,-6.5703464,12.475993,1.922392,2.4869227,52.258884,29.731215,-8.368274,-42.233498,2.959472,-4.413498,-7.8430305,-24.27111,-20.955217,20.063913,-28.269917,5.9019213,-4.3314657,0.6372712
152,-73.9493408203125,37.32508850097656,78.6826171875,0.48262172675118825,9.188372994731365,133.93197849208357,-24.639793,11.890983,8.207658,7.1837697,-7.868509,-8.1342125,9.3933935,2.382513,-1.7441964,30.2621,0.39748892,-6.4949937,12.378615,2.1707695,2.4717083,52.110176,29.444996,-8.453188,-41.53888,2.3703756,-4.275664,-7.8440647,-23.417196,-21.08887,20.241604,-27.991438,5.3369775,-4.3454266,0.60708576
153,-74.95686340332031,38.0062370300293,78.6407470703125,0.3161965508988406,8.96461711943605,133.93990297344249,-24.781496,11.99113,8.402493,7.0900984,-8.722565,-8.318753,9.531727,2.1908937,-2.5304308,32.04452,1.0016097,-6.555595,12.105901,2.31967,2.533977,51.728428,29.0792,-8.563978,-40.679146,1.6969784,-4.2124977,-7.882346,-22.546541,-21.176981,20.425285,-27.59845,4.8397737,-4.375237,0.5392214
154,-75.94576263427734,38.6785888671875,78.5678482055664,0.2624537057136111,8.756862637112084,134.04786291711477,-24.827003,11.865237,8.346618,7.051983,-9.401996,-8.200675,9.410049,1.8494436,-3.4262447,34.340385,1.3061284,-6.7090354,11.667355,2.379685,2.6555161,51.140728,28.632671,-8.700219,-39.668724,0.96254724,-4.1949687,-7.9663277,-21.657219,-21.217606,20.627993,-27.080505,4.358789,-4.4151254,0.44527438
155,-76.91326904296875,39.33658218383789,78.44682312011719,0.312987367018286,8.537616515291617,134.23277374011641,-24.74648,11.526748,8.074292,7.0482917,-9.854328,-8.018044,9.131418,1.337107,-4.4191995,36.991882,1.4026016,-6.892306,11.084537,2.3639157,2.8471534,50.359966,28.124132,-8.850717,-38.554,0.19997327,-4.2166815,-8.035145,-20.752361,-21.208197,20.842937,-26.449196,3.8394442,-4.469728,0.31805432
156,-77.85479736328125,39.991790771484375,78.26689147949219,0.4559740861293634,8.27727524381834,134.46748360962025,-24.509602,10.999191,7.622103,7.0622396,-10.0280695,-8.011854,8.809384,0.6414464,-5.4933405,39.831345,1.3894024,-7.0396724,10.389998,2.2837255,3.1207702,49.398827,27.58658,-9.003181,-37.384693,-0.5611818,-4.2723913,-8.022975,-19.82447,-21.147081,21.052588,-25.724009,3.2288816,-4.542791,0.15123206
157,-78.78547668457031,40.63939666748047,78.02684020996094,0.6562776041333047,7.9466616004296595,134.74577210992157,-24.068338,10.289324,6.9017997,7.097223,-10.007723,-8.374288,8.502341,-0.23732534,-6.729855,42.850285,1.3805175,-7.15499,9.604038,2.1687994,3.493321,48.248596,27.039715,-9.16734,-36.14465,-1.3609627,-4.377508,-7.8761187,-18.840551,-21.02768,21.23741,-24.91238,2.5192032,-4.616479,-0.048390776
158,-79.69745635986328,41.27737045288086,77.73876190185547,0.9376365154807118,7.567886790156955,135.0835094766161,-23.452822,9.375781,5.925319,7.168816,-9.79982,-8.9450245,8.155547,-1.3275713,-8.097552,46.139755,1.2821046,-7.2841563,8.716133,1.981505,3.9454155,46.907265,26.488773,-9.342778,-34.819912,-2.207043,-4.531901,-7.63443,-17.798878,-20.848438,21.398712,-24.011274,1.7362168,-4.6938815,-0.27909175
159,-80.60197448730469,41.907073974609375,77.41156768798828,1.3716399023699735,7.183421167879257,135.47892585468168,-22.739294,8.246041,4.878838,7.2591596,-9.223048,-9.444057,7.72149,-2.6539674,-9.407027,49.6622,0.8976203,-7.3983283,7.7242517,1.6369027,4.43554,45.397766,25.94969,-9.503361,-33.469364,-3.0217505,-4.7060776,-7.3700666,-16.733017,-20.62037,21.545513,-23.02579,0.8774785,-4.8095136,-0.5569896
160,-81.4786148071289,42.47800827026367,77.10861206054688,2.0173776717682608,6.828993082988198,135.9227557181716,-22.173832,6.9147286,3.9184391,7.7098002,-8.269533,-9.594553,7.155242,-4.1963763,-10.462731,53.363728,0.046411756,-7.438504,6.641726,1.0657122,4.9235425,43.7447,25.445686,-9.626796,-32.156162,-3.7284122,-4.8678093,-7.152276,-15.666373,-20.36278,21.680763,-21.973581,-0.060364507,-4.9971614,-0.90104
161,-82.35388946533203,43.059722900390625,76.75316619873047,2.9379563929259462,6.4997456721523585,136.44760243760288,-23.079205,5.3264627,2.84133,11.296924,-7.940099,-9.273414,6.490526,-6.0081253,-11.278568,57.272182,-1.4279854,-7.31632,5.464958,0.20722929,5.407506,41.90761,24.990196,-9.726197,-30.84175,-4.2417064,-5.0245633,-6.995065,-14.576467,-20.087706,21.780355,-20.85756,-1.1389176,-5.297834,-1.358676
162,-83.21815490722656,43.63037872314453,76.3394546508789,4.02626203956537,6.149349384622488,137.01405827298967,-24.003515,3.478721,1.8166524,15.094741,-6.9082017,-8.708516,5.788989,-7.974651,-11.915241,61.358448,-3.3673818,-7.0603995,4.2384663,-0.8326611,5.908405,39.89981,24.586584,-9.815032,-29.532063,-4.629685,-5.186675,-6.85579,-13.435432,-19.798883,21.835669,-19.692848,-2.3321571,-5.6767797,-1.9138714
163,-84.07670593261719,44.1981315612793,75.87249755859375,5.096937035278192,5.762606887797589,137.51192681995082,-24.89708,1.7001776,1.0610502,19.024155,-5.977588,-8.0798235,5.013208,-9.815536,-12.2573595,65.49315,-5.485903,-6.769758,3.042194,-1.8783634,6.4214096,37.81989,24.24512,-9.873919,-28.355104,-5.046098,-5.3248873,-6.718169,-12.264175,-19.507448,21.868767,-18.520416,-3.5063212,-6.0573106,-2.487206
164,-84.92255401611328,44.75910186767578,75.34773254394531,6.0093203718961306,5.348939275577673,137.85231740085212,-25.698154,0.28448263,0.74866897,22.94832,-5.9388323,-7.5051727,4.0782785,-11.30174,-12.195143,69.58093,-7.5107694,-6.5379677,1.9394279,-2.7957165,6.9402895,35.747902,23.981749,-9.88689,-27.424448,-5.64555,-5.4109,-6.567484,-11.0740595,-19.22611,21.895283,-17.386068,-4.5251637,-6.36919,-2.9968462
165,-85.74868774414062,45.30827331542969,74.77904510498047,6.7602096280045405,4.909930134564145,138.02687785494558,-26.556665,-0.6634314,0.9868433,27.20923,-7.2498493,-6.888887,2.912213,-12.343053,-11.60573,73.71178,-9.44872,-6.3901815,0.9441766,-3.5915987,7.489231,33.67851,23.815899,-9.863715,-26.770342,-6.4902234,-5.440682,-6.389183,-9.888396,-18.964838,21.914528,-16.275478,-5.2847815,-6.6184134,-3.4290407
166,-86.5546875,45.86440658569336,74.2017822265625,7.420085684358197,4.45318468928687,138.08416321320212,-27.486473,-1.2621139,1.5998077,31.830313,-9.460291,-6.15975,1.5544355,-13.024821,-10.607178,77.91372,-11.426583,-6.2509184,0.03936863,-4.329632,8.070681,31.558498,23.754251,-9.825414,-26.326525,-7.497221,-5.429533,-6.1902323,-8.668317,-18.723936,21.901138,-15.19889,-5.8755126,-6.839137,-3.824784
167,-87.32017517089844,46.41930389404297,73.63217163085938,7.998489017416899,4.013048135597717,138.0397150693458,-28.253944,-1.624594,2.3376937,36.229294,-12.005641,-5.4582667,0.062344536,-13.456642,-9.441946,82.00851,-13.352687,-6.0631666,-0.7849598,-5.0034566,8.636971,29.3888,23.79122,-9.771445,-26.051014,-8.600667,-5.378335,-5.9901648,-7.3457365,-18.50359,21.838646,-14.226761,-6.4506497,-7.005916,-4.17817
168,-88.08954620361328,46.98558044433594,73.09243774414062,8.519686278413515,3.625395219813974,137.91236649375324,-28.650454,-1.918099,2.9926772,39.846886,-14.324311,-4.939598,-1.5154089,-13.799381,-8.335368,85.81692,-15.138697,-5.789492,-1.5536429,-5.612426,9.136878,27.171915,23.912525,-9.698264,-25.904957,-9.732764,-5.2869267,-5.810846,-5.8483434,-18.303268,21.714722,-13.434441,-7.1665916,-7.0914965,-4.48385
169,-88.85338592529297,47.56544494628906,72.59149169921875,9.027393803115801,3.3049748719072576,137.70205389539305,-28.62265,-2.2252264,3.5771773,42.53899,-16.37963,-4.6701674,-3.2115784,-14.116297,-7.246297,89.365715,-16.774912,-5.3866735,-2.286416,-6.1862273,9.563933,24.87764,24.113745,-9.62877,-25.897413,-10.994662,-5.1229506,-5.6241307,-4.139382,-18.12166,21.519175,-12.812888,-8.208654,-7.048529,-4.7430463
170,-89.61962127685547,48.149269104003906,72.14360046386719,9.513116155069712,3.0387904012581433,137.40790416830401,-28.317745,-2.4917116,4.202517,44.65154,-18.455694,-4.55846,-5.0449376,-14.344438,-6.089943,92.74007,-18.308065,-4.891237,-2.977123,-6.7239304,9.940395,22.501347,24.396835,-9.574151,-26.032032,-12.380978,-4.897565,-5.4274497,-2.2556732,-17.96262,21.252253,-12.333871,-9.447633,-6.9050846,-4.9515157
171,-90.37821197509766,48.749149322509766,71.75816345214844,9.930730149683688,2.8196389461119384,137.04767681604733,-27.825453,-2.6906037,4.8272114,46.352863,-20.462355,-4.5266743,-6.9640603,-14.494632,-5.003905,95.847466,-19.722132,-4.4070497,-3.6210117,-7.1796083,10.258814,20.084486,24.752695,-9.507391,-26.25394,-13.661223,-4.6723394,-5.2863393,-0.24523541,-17.839525,20.925787,-12.039504,-10.565033,-6.7450247,-5.096841
172,-91.14427185058594,49.36081314086914,71.43720245361328,10.230702672811269,2.638375592386071,136.63844583840753,-27.224901,-2.7795537,5.399314,47.805305,-22.3075,-4.5012984,-8.926695,-14.586486,-4.1164923,98.58801,-20.989552,-4.04046,-4.2150373,-7.5047784,10.514949,17.669636,25.164536,-9.396137,-26.508072,-14.601463,-4.5056434,-5.2742805,1.8431162,-17.767757,20.560036,-11.976223,-11.238431,-6.6536365,-5.174117
173,-91.91053009033203,49.98203659057617,71.17572021484375,10.390866747267141,2.4975444790796804,136.14294277133328,-26.499596,-2.7030296,5.9223866,49.027264,-23.991596,-4.4800982,-10.978726,-14.647266,-3.4187593,100.96846,-22.058733,-3.843714,-4.718996,-7.667528,10.716262,15.238854,25.612375,-9.239722,-26.809914,-15.058049,-4.4249535,-5.469897,4.073764,-17.754824,20.116673,-12.222949,-11.29483,-6.6754704,-5.167786
174,-92.6823959350586,50.61631774902344,70.97032928466797,10.445110598262668,2.3985833646188377,135.5681953632182,-25.615402,-2.4925249,6.4174,49.94796,-25.557325,-4.496425,-13.140295,-14.68126,-2.8384206,103.029465,-22.938454,-3.7603574,-5.1509314,-7.6919775,10.870461,12.758507,26.09108,-9.066674,-27.159582,-15.17684,-4.393503,-5.823706,6.460753,-17.80052,19.59408,-12.751873,-10.928144,-6.75828,-5.0881634
175,-93.452880859375,51.26423263549805,70.82038116455078,10.427306700089966,2.3289880626286976,134.9971898791265,-24.614029,-2.2294867,6.848497,50.58011,-26.972244,-4.535445,-15.332787,-14.684092,-2.4212031,104.7172,-23.689375,-3.7467277,-5.5969887,-7.617823,10.972327,10.255822,26.610207,-8.882443,-27.487944,-15.156174,-4.372526,-6.2191343,8.875036,-17.90375,19.072874,-13.443977,-10.368627,-6.8416586,-4.972026
176,-94.21261596679688,51.9251708984375,70.72370147705078,10.3672386668763,2.2767665032597364,134.51285450458352,-23.542658,-1.9941852,7.1790066,50.941895,-28.201523,-4.582541,-17.474958,-14.65424,-2.2106683,105.974266,-24.371885,-3.749127,-6.1479206,-7.4912386,11.014592,7.769781,27.18854,-8.684553,-27.732922,-15.196588,-4.320846,-6.539072,11.179281,-18.064312,18.641026,-14.170126,-9.851139,-6.866192,-4.858419
177,-94.95199584960938,52.6069221496582,70.68195343017578,10.259489426331715,2.2387591733076784,134.15029742325117,-22.427248,-1.7986741,7.3700213,51.051956,-29.2508,-4.650044,-19.575426,-14.633234,-2.2717166,106.78638,-25.022749,-3.7740152,-6.848742,-7.3074746,10.991172,5.252527,27.852173,-8.47689,-27.865662,-15.316893,-4.2266216,-6.7768664,13.356479,-18.285078,18.314165,-14.9315815,-9.415523,-6.7975736,-4.762871
178,-95.67192840576172,53.29429626464844,70.69786071777344,10.093790063752865,2.2186713103510463,133.86288746487634,-21.240698,-1.5981643,7.447718,50.899426,-30.13357,-4.745032,-21.665077,-14.623719,-2.5684414,107.17693,-25.595325,-3.841249,-7.644226,-7.059327,10.915019,2.7052042,28.606253,-8.2687235,-27.933811,-15.428596,-4.114089,-6.9832172,15.485722,-18.562859,18.040148,-15.796685,-8.943398,-6.673538,-4.6652393
179,-96.3864974975586,54.00859832763672,70.782470703125,9.893531749396354,2.2159597986659847,133.6105318600715,-19.952282,-1.3908943,7.469951,50.45894,-30.829918,-4.8437133,-23.694584,-14.567727,-2.9957106,107.14765,-26.031282,-3.9156046,-8.481652,-6.786466,10.8021145,0.24553876,29.42995,-8.054513,-27.989527,-15.567803,-3.9924784,-7.128725,17.556932,-18.887459,17.817146,-16.716911,-8.437437,-6.5438595,-4.5511436
180,-97.09828186035156,54.739654541015625,70.9256591796875,9.68121408693821,2.2304680810522575,133.3530414963196,-18.528862,-1.1790227,7.4950514,49.70165,-31.318136,-4.922076,-25.616056,-14.402744,-3.4469938,106.70046,-26.272615,-3.9623854,-9.31925,-6.523684,10.662422,-1.99589,30.287687,-7.807541,-28.087776,-15.763578,-3.8689375,-7.189454,19.532803,-19.248886,17.657558,-17.61725,-7.905171,-6.4567356,-4.404219
181,-97.81765747070312,55.505516052246094,71.13148498535156,9.444762762218707,2.260420656595343,133.11957589616853,-16.94215,-0.9585667,7.5060196,48.564236,-31.63497,-4.966086,-27.422592,-14.113251,-3.9453936,105.807495,-26.301233,-3.9524744,-10.196314,-6.2572474,10.483823,-4.002404,31.162613,-7.495709,-28.226753,-15.980198,-3.7351165,-7.1430635,21.37655,-19.654203,17.59177,-18.463068,-7.3315253,-6.4373736,-4.207959
182,-98.54264068603516,56.29585266113281,71.39579010009766,9.177289254418351,2.3063016754401624,132.9185330990323,-15.218823,-0.73090345,7.4842715,47.07967,-31.775301,-4.99987,-29.126398,-13.735306,-4.533854,104.471214,-26.15651,-3.9059813,-11.127529,-5.965945,10.264311,-5.8398795,32.056156,-7.126692,-28.375937,-16.206985,-3.588771,-7.0157557,23.099781,-20.113804,17.610285,-19.278603,-6.723708,-6.453127,-3.973741
183,-99.25574493408203,57.114105224609375,71.71286010742188,8.910161945741617,2.3713810647557834,132.67729441291868,-13.404418,-0.51094854,7.4859767,45.360996,-31.664953,-5.052515,-30.710005,-13.275878,-5.133865,102.7412,-25.868645,-3.8644774,-12.035383,-5.671511,10.024763,-7.4876685,32.95639,-6.721624,-28.54931,-16.505728,-3.4455006,-6.855731,24.726158,-20.619991,17.669903,-20.061836,-6.126331,-6.4690795,-3.7263825
184,-99.97982025146484,57.956825256347656,72.07111358642578,8.674798437887635,2.458612966606808,132.323014399016,-11.541072,-0.31530225,7.5648065,43.52073,-31.227278,-5.145908,-32.15506,-12.735474,-5.6689925,100.664505,-25.466057,-3.870381,-12.838776,-5.3959327,9.781853,-8.932671,33.846798,-6.3031363,-28.748377,-16.935698,-3.3199723,-6.7138968,26.271685,-21.154844,17.72597,-20.800377,-5.589096,-6.451581,-3.489023
185,-100.69914245605469,58.822853088378906,72.4715805053711,8.471311163347156,2.567522677823813,131.82885166527794,-9.569492,-0.14702551,7.729968,41.46239,-30.426872,-5.318024,-33.468193,-12.092705,-6.112554,98.22993,-24.933767,-3.977506,-13.510837,-5.1395416,9.532518,-10.160753,34.722855,-5.865207,-28.954178,-17.609335,-3.211866,-6.5833454,27.715334,-21.717718,17.773897,-21.489983,-5.15349,-6.3831353,-3.2361653
186,-101.41748046875,59.69721221923828,72.9056396484375,8.28326619447038,2.6973577649051492,131.23513825248668,-7.4882903,-0.006711919,7.953192,39.164467,-29.307343,-5.543672,-34.64027,-11.343178,-6.5086913,95.416275,-24.276426,-4.143577,-14.087719,-4.8867097,9.267045,-11.186456,35.586655,-5.394038,-29.166754,-18.457685,-3.1142762,-6.4452887,29.054995,-22.31404,17.826988,-22.132944,-4.789399,-6.2847204,-2.9635262
187,-102.14151000976562,60.596187591552734,73.36666107177734,8.12035283630755,2.850775939856401,130.56917991102395,-5.4302387,0.09470776,8.229998,36.866093,-27.917654,-5.7401943,-35.63338,-10.513779,-6.8851852,92.252396,-23.54753,-4.2730665,-14.582908,-4.640582,8.990164,-12.032519,36.42901,-4.8994465,-29.408201,-19.26427,-3.030324,-6.333773,30.325472,-22.926498,17.870165,-22.715418,-4.4409766,-6.182093,-2.7257764
188,-102.86153411865234,61.52747344970703,73.84688568115234,7.994770837378643,3.0301094364378516,129.8578950855667,-3.5309594,0.1504902,8.556988,34.815334,-26.313185,-5.8199453,-36.41733,-9.638654,-7.25512,88.76462,-22.797325,-4.269136,-15.002361,-4.4072595,8.704262,-12.741006,37.235104,-4.4077115,-29.68357,-19.808084,-2.9605691,-6.2853346,31.562214,-23.523567,17.883574,-23.219172,-4.0586863,-6.101597,-2.5741613
189,-103.57937622070312,62.465087890625,74.33720397949219,7.900128095416694,3.243210167989759,129.07138044975463,-1.8212146,0.18161908,8.961524,33.095867,-24.476974,-5.7371235,-36.997364,-8.691569,-7.587253,84.89488,-22.042212,-4.1684732,-15.308941,-4.183866,8.408809,-13.32405,38.001255,-3.9254274,-29.982998,-20.03622,-2.9168391,-6.326303,32.758316,-24.083725,17.860254,-23.611332,-3.6048346,-6.0546784,-2.5417082
190,-104.29737854003906,63.42057418823242,74.8247299194336,7.835157297199331,3.485944566816158,128.206062883458,-0.23523483,0.18303819,9.440698,31.587,-22.401657,-5.53459,-37.379208,-7.6725936,-7.8670354,80.64182,-21.257011,-4.009535,-15.496665,-3.9771268,8.098629,-13.78092,38.729664,-3.4529643,-30.284927,-20.059658,-2.892354,-6.4343224,33.894943,-24.603386,17.804892,-23.896055,-3.1241653,-6.027786,-2.5885653
191,-105.01763916015625,64.38362884521484,75.30906677246094,7.823120995487261,3.7436035109126444,127.32985159468873,1.2362258,0.11428019,9.94597,30.231236,-20.15636,-5.2572546,-37.544197,-6.662811,-8.1241045,76.10498,-20.420164,-3.7032626,-15.620458,-3.8069189,7.7681427,-14.1265135,39.40936,-3.0079339,-30.591238,-19.899065,-2.859151,-6.572393,34.987183,-25.073893,17.719028,-24.098457,-2.6883404,-6.009704,-2.6576042
192,-105.72284698486328,65.35296630859375,75.79301452636719,7.884212072611243,4.002679181175171,126.5111296705524,2.6055467,-0.06406785,10.424428,28.961746,-17.80189,-4.951945,-37.48198,-5.744982,-8.387075,71.37707,-19.50518,-3.1622326,-15.733099,-3.688953,7.410492,-14.38693,40.021236,-2.617524,-30.891804,-19.570547,-2.7889879,-6.705712,36.053024,-25.48287,17.602415,-24.24347,-2.3704996,-5.9883575,-2.6914656
193,-106.43556213378906,66.33319091796875,76.26141357421875,8.03508100793921,4.279091450365074,125.76197862329421,3.8601108,-0.3649843,10.901188,27.749863,-15.246803,-4.597672,-37.18083,-4.902781,-8.6025915,66.32954,-18.435507,-2.2682588,-15.828334,-3.6271312,7.0081115,-14.590866,40.551945,-2.302699,-31.177158,-18.968174,-2.6662524,-6.854846,37.110737,-25.816015,17.44034,-24.32595,-2.1938734,-5.9543924,-2.6859875
194,-107.15522766113281,67.33773803710938,76.70732116699219,8.263496983969373,4.573863344567634,125.04961538732137,5.000173,-0.76594514,11.3961,26.63362,-12.490524,-4.176,-36.645096,-4.124469,-8.748057,60.930428,-17.237064,-1.1200699,-15.875946,-3.616536,6.566716,-14.743625,41.000244,-2.0640335,-31.434816,-18.11202,-2.5087993,-7.0340066,38.148045,-26.067102,17.23495,-24.328892,-2.1229148,-5.9161534,-2.6649997
195,-107.88804626464844,68.36354064941406,77.12823486328125,8.556962809993934,4.851948987027624,124.3761609790799,6.0566707,-1.2497567,11.8393135,25.644598,-9.724943,-3.7418592,-35.900124,-3.4864113,-8.914322,55.419327,-16.029636,0.05843544,-15.893947,-3.6566508,6.1155396,-14.828184,41.366135,-1.895412,-31.661306,-17.20758,-2.337229,-7.198766,39.140305,-26.242523,17.008669,-24.263283,-2.1437562,-5.887281,-2.612853
196,-108.62496185302734,69.38275146484375,77.51349639892578,8.897323974208179,5.078940449071265,123.74342942869667,7.068031,-1.7985791,12.153104,24.797613,-7.1378245,-3.3543046,-34.979107,-3.0458794,-9.216665,50.042408,-14.928808,1.0577157,-15.903533,-3.7415035,5.6852016,-14.817061,41.649807,-1.7819775,-31.861973,-16.461891,-2.1698332,-7.3025475,40.06447,-26.357027,16.785265,-24.14605,-2.2397442,-5.8815064,-2.5160356
197,-109.36495971679688,70.4185562133789,77.8623275756836,9.303658489428416,5.2345987412263915,123.17733248096059,8.090386,-2.4330845,12.324575,24.0005,-4.6466026,-3.0226707,-33.823227,-2.795106,-9.669835,44.685413,-13.915544,1.9408057,-15.932269,-3.8825507,5.285875,-14.68549,41.845673,-1.7223661,-32.04596,-15.932341,-2.0036561,-7.312045,40.94409,-26.418264,16.55453,-23.972921,-2.4483309,-5.907972,-2.3453202
198,-110.10404968261719,71.46858215332031,78.16896057128906,9.781929442995846,5.339238693550127,122.67205467976848,9.101887,-3.15858,12.381558,23.251083,-2.1759105,-2.7224877,-32.43154,-2.702172,-10.23526,39.24004,-12.921999,2.7855246,-15.970291,-4.0786324,4.9017177,-14.445395,41.94581,-1.7149777,-32.21685,-15.504788,-1.8289361,-7.2628207,41.785397,-26.426765,16.311924,-23.74737,-2.7625885,-5.9579587,-2.1195955
199,-110.84202575683594,72.522705078125,78.42862701416016,10.296536078748627,5.420933284443906,122.18158173217758,10.017723,-3.927437,12.303322,22.711845,0.072890446,-2.4636474,-30.94582,-2.7546248,-10.976613,34.00483,-11.993021,3.4345014,-15.987717,-4.305367,4.5270743,-14.1149845,41.971764,-1.7367245,-32.373924,-15.142057,-1.6555815,-7.2010927,42.540775,-26.400452,16.092312,-23.49941,-3.0920405,-6.018312,-1.8981075
200,-111.57568359375,73.56855010986328,78.63461303710938,10.803444953414871,5.511377586821906,121.65842768489513,10.745813,-4.6837373,12.074024,22.55609,1.8898737,-2.2554383,-29.524174,-2.914674,-11.967995,29.313381,-11.186221,3.7495832,-15.956938,-4.5327945,4.1558986,-13.708708,41.951637,-1.758785,-32.516743,-14.811186,-1.4945956,-7.170695,43.15791,-26.361198,15.937684,-23.259113,-3.3449852,-6.0745826,-1.7412908
201,-112.30290222167969,74.61366271972656,78.78234100341797,11.303604641508501,5.6256088566207705,121.0890805739188,11.261443,-5.4227486,11.703458,22.843977,3.1587877,-2.0926285,-28.199415,-3.1963913,-13.378965,25.241554,-10.53852,3.6679907,-15.8476515,-4.7516675,3.7782764,-13.21965,41.859886,-1.7720556,-32.65869,-14.541006,-1.3504772,-7.179429,43.651093,-26.289587,15.827169,-23.037523,-3.5180686,-6.129761,-1.6606663
202,-113.01082611083984,75.64483642578125,78.86631774902344,11.811507212199887,5.7505097968616665,120.49673727441743,11.605232,-6.1621385,11.198921,23.496197,4.003465,-1.9751344,-26.921122,-3.5525172,-15.149077,21.662903,-10.041563,3.3143737,-15.708012,-4.9795504,3.3920767,-12.613642,41.715084,-1.76817,-32.801662,-14.344472,-1.2188368,-7.195177,44.01351,-26.216303,15.790841,-22.80902,-3.641067,-6.186883,-1.6434613
203,-113.69444274902344,76.66030883789062,78.89212036132812,12.285800260961695,5.880217295154351,119.88420350133565,11.772815,-6.872506,10.550185,24.489153,4.563694,-1.9242877,-25.741997,-3.8626454,-16.996662,18.645292,-9.700425,2.8239524,-15.537665,-5.185278,3.0343647,-11.905021,41.526146,-1.7561603,-32.9662,-14.138128,-1.0921934,-7.241546,44.236813,-26.145714,15.813128,-22.578213,-3.7138972,-6.2369614,-1.6517231
204,-114.36451721191406,77.65650939941406,78.85612487792969,12.685588594723761,6.008443957618027,119.25399866464971,11.759904,-7.530179,9.749279,25.792776,4.9821143,-1.9687961,-24.712954,-4.035371,-18.627983,16.248016,-9.512277,2.3105655,-15.339603,-5.3372555,2.7373729,-11.112054,41.30749,-1.7483652,-33.160954,-13.838346,-0.96336204,-7.33986,44.300613,-26.080402,15.894122,-22.341152,-3.7358217,-6.270642,-1.6533587
205,-115.01634216308594,78.63583374023438,78.76441955566406,12.971491647014119,6.170876636777111,118.58064659244107,11.467021,-8.13194,8.780454,27.522312,5.269508,-2.107472,-23.91236,-4.0877213,-20.120039,14.623008,-9.552902,1.6503296,-15.079751,-5.397596,2.4889896,-10.240396,41.062885,-1.7393882,-33.396362,-13.396215,-0.83413893,-7.5078945,44.178387,-26.023376,16.04647,-22.094448,-3.6489084,-6.2753057,-1.639999
206,-115.66032409667969,79.60269165039062,78.6267318725586,13.14976548433443,6.368401656821117,117.86089003077984,10.912423,-8.6901655,7.671218,29.674543,5.3432407,-2.3530009,-23.313913,-4.061687,-21.564915,13.732205,-9.834534,0.8180929,-14.759663,-5.368523,2.2767022,-9.275467,40.79086,-1.7214596,-33.666786,-12.868676,-0.70940274,-7.727271,43.879627,-25.97451,16.271658,-21.836952,-3.469869,-6.25964,-1.6297859
207,-116.28962707519531,80.57633209228516,78.4329605102539,13.254362324690906,6.538299047758794,117.13303251158517,10.288696,-9.217382,6.4705634,32.00192,5.2161293,-2.7592256,-22.815346,-3.9385421,-22.68369,13.357923,-10.232196,0.055276044,-14.436671,-5.285764,2.1329768,-8.190953,40.50074,-1.7031333,-33.96896,-12.328103,-0.5864603,-7.9628124,43.43771,-25.929522,16.547796,-21.56145,-3.3117583,-6.246851,-1.6289438
208,-116.90956115722656,81.53153228759766,78.18450164794922,13.32427279620653,6.615895396247965,116.43779510060705,9.785631,-9.726195,5.2274537,34.26846,4.8924775,-3.372483,-22.313972,-3.7034607,-23.201302,13.269711,-10.5921135,-0.40116882,-14.16937,-5.1926713,2.091273,-6.97189,40.20879,-1.6992519,-34.292397,-11.850524,-0.46158203,-8.177202,42.885338,-25.88079,16.853985,-21.25778,-3.2879355,-6.260259,-1.6425823
209,-117.5221939086914,82.48222351074219,77.8777084350586,13.443185963597083,6.535302185619015,115.79840881628293,9.530942,-10.389961,3.8088787,36.34535,4.3795705,-4.265707,-21.643063,-3.3604615,-22.851692,13.197885,-10.672552,0.050450936,-13.995721,-5.182251,2.1854064,-5.607613,39.926113,-1.7073961,-34.64961,-11.436821,-0.3178419,-8.363073,42.233826,-25.82352,17.191269,-20.925585,-3.4740977,-6.3126817,-1.6624776
210,-118.12737274169922,83.4351806640625,77.52079010009766,13.56446536731032,6.348415249363659,115.18562879057946,9.4038,-11.168881,2.2619808,38.39359,3.6321642,-5.4040437,-20.907242,-2.934354,-21.844913,13.352508,-10.626054,1.0892736,-13.874464,-5.2053103,2.3898191,-4.104743,39.654476,-1.7221848,-35.045635,-11.056954,-0.1627709,-8.534806,41.45875,-25.75413,17.571962,-20.565525,-3.7946193,-6.389748,-1.6885413
211,-118.72834777832031,84.39674377441406,77.11373901367188,13.54008942846488,6.160298744822149,114.56876897236342,9.221718,-11.73558,0.8943688,40.60203,2.5936744,-6.6517673,-20.427639,-2.430416,-20.628778,14.246936,-10.887679,1.5773623,-13.75074,-5.0948806,2.6515546,-2.4891684,39.39683,-1.7640861,-35.440235,-10.741201,-0.028217448,-8.688329,40.54312,-25.66478,17.989887,-20.165297,-4.137196,-6.4738574,-1.7373707
212,-119.33003997802734,85.35177612304688,76.6771011352539,13.240716100795312,6.05943522203312,113.93136600367875,8.825461,-11.769567,-0.021626567,43.112595,1.2603608,-7.8607225,-20.5011,-1.853983,-19.648397,16.328472,-11.8285055,0.3803947,-13.582564,-4.7096124,2.9197698,-0.8042364,39.157047,-1.8669969,-35.779415,-10.520424,0.054364942,-8.818827,39.47971,-25.542416,18.436642,-19.720615,-4.3895044,-6.5479417,-1.8251675
213,-119.89656829833984,86.30130767822266,76.23420715332031,12.586889705374048,6.0279478742235115,113.2835988638638,8.27768,-11.1341305,-0.4827738,45.896263,-0.40466538,-9.098181,-21.33368,-1.1880517,-18.948576,20.103395,-13.671417,-3.6937609,-13.374381,-3.9660118,3.209063,0.93862534,38.945736,-2.072558,-36.079353,-10.441427,0.10106381,-8.929813,38.32413,-25.369352,18.870384,-19.26767,-4.609528,-6.599672,-1.9287575
214,-120.52378845214844,87.24490356445312,75.7240219116211,11.802623935361076,5.9776272074902055,112.67039441397509,7.7332816,-10.1434765,-0.6533193,48.759624,-2.2920341,-10.3583975,-22.628574,-0.4774939,-18.288961,24.990566,-15.97511,-9.76428,-13.179483,-3.1054275,3.5373726,2.714713,38.77385,-2.3872604,-36.321857,-10.476528,0.123178996,-9.024002,37.09536,-25.13731,19.296474,-18.816996,-4.833655,-6.639983,-2.045772
215,-121.08719635009766,88.17610168457031,75.20916748046875,11.225481183223545,5.887151013353772,112.17112727771789,7.1540413,-9.156162,-0.5721006,51.590282,-4.1293435,-11.368645,-23.972918,-0.053943574,-17.699278,30.043829,-18.324295,-15.000033,-13.073742,-2.469833,3.856604,4.4691625,38.63975,-2.7844856,-36.41329,-10.546188,0.0802821,-9.09217,35.716187,-24.851519,19.77497,-18.315798,-4.9136033,-6.684814,-2.2241824
216,-121.62468719482422,89.08850860595703,74.69522094726562,11.25203405085945,5.723691348631084,111.933313064725,6.483544,-8.609397,-0.31227458,54.263596,-5.599744,-11.813962,-25.063894,-0.71543497,-17.156788,34.848446,-20.748142,-15.000033,-13.202093,-2.4288857,4.112828,6.1724,38.524765,-3.2223938,-36.27413,-10.56801,-0.0709249,-9.121453,34.088238,-24.525938,20.360056,-17.6962,-4.6961007,-6.7530146,-2.5136032
217,-122.09513092041016,89.98023986816406,74.11833190917969,11.085429196733886,5.826220818330674,111.5081997373763,5.1897593,-7.4498353,0.41603112,57.574898,-7.187674,-11.920296,-25.882162,-0.60376763,-16.678738,38.193775,-22.760534,-15.000033,-13.100309,-2.2434328,4.2626023,7.842479,38.442833,-3.6837757,-35.93004,-10.449388,-0.39580446,-9.134582,32.23357,-24.15781,21.02681,-17.02257,-3.9724023,-6.8665643,-2.9305487
218,-122.52081298828125,90.83460235595703,73.52623748779297,10.742995429941661,6.118691239656172,110.96784580080816,3.4680882,-5.7076006,1.4631861,61.335663,-8.870794,-11.746916,-26.711443,-0.123529114,-16.298653,41.08453,-24.772985,-15.000033,-12.8487,-1.9206978,4.3415637,9.499553,38.394325,-4.1817837,-35.415623,-10.260473,-0.85560566,-9.122758,30.189528,-23.739717,21.734539,-16.308126,-2.8747475,-7.0191774,-3.4475791
219,-122.93890380859375,91.65583038330078,72.97514343261719,10.309489221835301,6.476493419714142,110.33353971229766,1.593189,-3.6446562,2.5937142,65.147514,-10.539743,-11.302424,-27.446068,0.4526168,-15.936378,43.691246,-26.72062,-15.000033,-12.485346,-1.5631043,4.4074507,11.171238,38.32649,-4.6856556,-34.71627,-10.157502,-1.3329467,-9.046766,27.921814,-23.282358,22.519611,-15.467162,-1.7626299,-7.180845,-4.0554075
220,-123.35897827148438,92.45492553710938,72.50860595703125,9.889866319825384,6.776847029885635,109.62669848171548,-0.19736595,-1.5728674,3.6393256,68.635765,-12.102399,-10.594254,-27.892988,0.9741022,-15.492152,45.910137,-28.446152,-15.000033,-12.058461,-1.2788242,4.5170894,12.915502,38.157818,-5.143759,-33.842228,-10.284635,-1.7089413,-8.885835,25.389505,-22.811811,23.42964,-14.423361,-0.99434936,-7.312659,-4.752181
221,-123.78305053710938,93.278076171875,72.13495635986328,9.494593782724445,7.031326696619002,108.80852595122782,-1.9108,0.57401747,4.7344913,71.80291,-13.589534,-9.488444,-27.978397,1.5348395,-14.956926,47.52374,-29.834599,-15.000033,-11.563153,-1.0675566,4.6663713,14.80487,37.800274,-5.529258,-32.682564,-10.819656,-1.9270921,-8.634842,22.440332,-22.359098,24.56649,-13.000004,-0.67141527,-7.3951306,-5.70176
222,-124.24837493896484,94.12398529052734,71.8484878540039,9.07477236134041,7.285395210243521,107.88263426247569,-3.6450768,2.9213722,5.8851137,74.824814,-15.07882,-8.007253,-27.78988,2.246015,-14.414722,48.56519,-30.950245,-15.000033,-11.006302,-0.84553224,4.8400035,16.843018,37.23736,-5.8369956,-31.300802,-11.606841,-2.0594604,-8.346053,19.149693,-21.931366,25.85853,-11.337738,-0.5937376,-7.443384,-6.8657537
223,-124.73143005371094,94.97769927978516,71.63663482666016,8.662281453966303,7.473708791387752,106.93468827417809,-5.34999,5.185288,6.8100853,77.59765,-16.529089,-6.416357,-27.34028,3.0159726,-13.877352,49.20993,-31.892256,-15.000033,-10.443807,-0.61707103,5.0695596,18.944456,36.52401,-6.072411,-29.932756,-12.304264,-2.1784453,-8.071039,15.804625,-21.51773,27.118649,-9.806906,-0.66751385,-7.4633927,-7.9334393
224,-125.20177459716797,95.89482879638672,71.49372100830078,8.294541865712059,7.534152107415303,106.05231447789133,-7.00277,7.059173,7.259923,80.01045,-17.845802,-4.996912,-26.637646,3.7309039,-13.332808,49.634216,-32.74565,-15.000033,-9.922693,-0.40864894,5.378839,21.000944,35.7557,-6.261035,-28.802042,-12.585166,-2.3547199,-7.8366094,12.677775,-21.10042,28.185846,-8.733514,-0.8019532,-7.4660983,-8.58323
225,-125.62821197509766,96.81158447265625,71.39556121826172,7.995834205751127,7.382633790658379,105.28696703021603,-8.591707,8.41433,7.147362,82.07419,-18.979414,-3.7306807,-25.57453,4.314947,-12.787317,49.862846,-33.56013,-15.000033,-9.487521,-0.2707255,5.827743,22.985863,34.994705,-6.417483,-27.884684,-12.296249,-2.6308427,-7.5735173,9.8150215,-20.656216,29.067036,-8.174171,-1.0697751,-7.4504128,-8.631342
226,-126.02696228027344,97.7469711303711,71.34697723388672,7.750714836221387,7.076834454947501,104.58700295274971,-10.163266,9.383946,6.6542063,83.8331,-19.957626,-2.5178368,-24.17623,4.8181033,-12.223546,49.809345,-34.27857,-15.000033,-9.080192,-0.20415364,6.3799324,24.934706,34.25039,-6.5568814,-27.081423,-11.664624,-2.9607623,-7.2582855,7.075485,-20.176264,29.846563,-7.9348283,-1.487758,-7.4158726,-8.272386
227,-126.41427612304688,98.67579650878906,71.35454559326172,7.534246029758782,6.7680064900790144,103.88481416314434,-11.7903595,10.05441,5.9497743,85.241844,-20.769058,-1.5212696,-22.651989,5.300186,-11.594492,49.50237,-34.83905,-15.000033,-8.602606,-0.15979435,6.9113765,26.833364,33.534863,-6.699052,-26.502304,-10.936878,-3.2830844,-6.9813356,4.441784,-19.67075,30.509155,-7.94669,-1.8813151,-7.377643,-7.751108
228,-126.79199981689453,99.63140869140625,71.41853332519531,7.320915883508253,6.6063060196901855,103.10973979974077,-13.534063,10.522373,5.1991878,86.24773,-21.403612,-0.9045366,-21.20937,5.8212175,-10.851757,48.971832,-35.180283,-15.000033,-7.9547,-0.08932174,7.298137,28.66063,32.863102,-6.8639913,-26.253317,-10.363659,-3.5406187,-6.8361363,1.9089396,-19.166399,31.036087,-8.157303,-2.0722141,-7.344309,-7.313082
229,-127.14632415771484,100.59920501708984,71.54185485839844,7.092454056686085,6.642769400418503,102.2468106933821,-15.449658,10.754195,4.387756,86.821556,-21.82264,-0.8271085,-19.875118,6.4171133,-9.966294,48.142864,-35.289715,-15.000033,-7.0922613,0.02511885,7.5034294,30.421476,32.247,-7.039484,-26.44547,-9.949603,-3.709356,-6.8957267,-0.49999067,-18.682985,31.426378,-8.65103,-1.9310629,-7.3208823,-6.9974017
230,-127.49250793457031,101.56942749023438,71.7115249633789,6.861473486119085,6.791913590474345,101.32883364779757,-17.473204,10.719291,3.467895,86.996666,-22.03377,-1.1651635,-18.542435,7.035852,-8.958166,47.030247,-35.19826,-15.000033,-6.070732,0.15135975,7.5944443,32.124752,31.687479,-7.2170267,-26.99987,-9.593027,-3.8251479,-7.092439,-2.7810895,-18.227009,31.707619,-9.439546,-1.5728507,-7.2992163,-6.6839013
231,-127.8519515991211,102.53753662109375,71.91861724853516,6.648700046072287,6.999811490756267,100.35522541967576,-19.484957,10.528851,2.5507038,86.8056,-22.098658,-1.6525793,-17.217737,7.6113644,-7.8565483,45.7979,-34.91249,-15.000033,-4.93905,0.262389,7.60344,33.76083,31.176458,-7.421632,-27.744572,-9.38118,-3.9215486,-7.3120337,-4.9577465,-17.806143,31.901688,-10.375206,-1.1884931,-7.2654495,-6.3807006
232,-128.21331787109375,103.512451171875,72.16226959228516,6.475870058369345,7.214021220655681,99.32676811981447,-21.37295,10.297855,1.7426744,86.28012,-22.074947,-2.0227942,-15.912232,8.079515,-6.6964836,44.6117,-34.440823,-15.000033,-3.7473001,0.33676973,7.5634403,35.31427,30.70067,-7.6823053,-28.50377,-9.398143,-4.0309463,-7.4398727,-7.0603876,-17.431456,32.028954,-11.302299,-0.96798205,-7.2078853,-6.094096
233,-128.56134033203125,104.49999237060547,72.44999694824219,6.35252569454991,7.449805750245039,98.19907430252962,-23.152647,10.028634,1.0634621,85.4312,-21.958235,-2.1985471,-14.640045,8.439711,-5.4196615,43.479446,-33.781284,-15.000033,-2.4465744,0.36728072,7.4630466,36.77777,30.245878,-8.017728,-29.276125,-9.759319,-4.1666927,-7.4376316,-9.112306,-17.116606,32.0913,-12.201869,-0.9857639,-7.1227584,-5.82676
234,-128.89944458007812,105.5084457397461,72.77252960205078,6.260253132695566,7.72671465491066,96.9865488770375,-24.861078,9.689945,0.45356247,84.24101,-21.730574,-2.3194087,-13.393867,8.719544,-4.036146,42.33156,-32.93666,-15.000033,-1.0344553,0.37289974,7.292894,38.1556,29.807264,-8.412486,-30.1369,-10.383053,-4.310013,-7.3734493,-11.097784,-16.868164,32.097652,-13.151171,-1.1308044,-7.0180492,-5.5757923
235,-129.25096130371094,106.55095672607422,73.1238021850586,6.190464891284878,7.999972292480821,95.78101557152884,-26.427309,9.336423,-0.09372866,82.69621,-21.42176,-2.4419594,-12.160953,8.884985,-2.6929417,41.224194,-31.927212,-14.943871,0.36826596,0.36823422,7.0915685,39.45064,29.388485,-8.84102,-31.022598,-11.058965,-4.444558,-7.2905393,-12.988346,-16.683374,32.071198,-14.142967,-1.3146056,-6.8997726,-5.338193
236,-129.60806274414062,107.61398315429688,73.5032730102539,6.169639541935903,8.226099900289848,94.6819478425436,-27.773531,8.978244,-0.54919827,80.760376,-21.05155,-2.6087236,-10.947445,8.827076,-1.5526171,40.25017,-30.793541,-14.587237,1.6361909,0.3320916,6.8980308,40.668224,28.998175,-9.274631,-31.87154,-11.577648,-4.5525756,-7.229929,-14.754418,-16.55246,32.028526,-15.165786,-1.4525803,-6.7753224,-5.1107993
237,-129.94644165039062,108.69628143310547,73.90518188476562,6.158758784021613,8.386608299873277,93.68464397869651,-28.883522,8.660146,-0.9497624,78.434,-20.65156,-2.8430452,-9.704843,8.645316,-0.60557604,39.33984,-29.470755,-14.159988,2.7698956,0.30401972,6.7307916,41.822132,28.643587,-9.695512,-32.70797,-11.87777,-4.619649,-7.1934566,-16.409925,-16.476013,31.971727,-16.22135,-1.5481588,-6.6349506,-4.90415
238,-130.28472900390625,109.80179595947266,74.31672668457031,6.164003015069952,8.508894176480439,92.74745266160869,-29.791357,8.364431,-1.291336,75.726746,-20.206636,-3.1147978,-8.451856,8.358052,0.21624167,38.4778,-27.966612,-13.677203,3.8270836,0.27399814,6.5696583,42.910393,28.325918,-10.115194,-33.55759,-12.075285,-4.6579022,-7.160277,-17.963324,-16.455864,31.893372,-17.317225,-1.6436177,-6.4787707,-4.7157874
239,-130.61412048339844,110.92442321777344,74.74057006835938,6.181721276634706,8.617344737100549,91.88820371890411,-30.514511,8.114407,-1.5672473,72.65916,-19.687393,-3.4392843,-7.248667,7.9973025,0.89838403,37.710815,-26.353882,-13.233552,4.789973,0.23942769,6.3979926,43.923153,28.04643,-10.539945,-34.36795,-12.227796,-4.687852,-7.1366787,-19.3912,-16.481062,31.787989,-18.437082,-1.7041827,-6.3260727,-4.5216975
240,-130.94493103027344,112.07059478759766,75.16915130615234,6.2059927674103905,8.736179832239761,91.12451729999644,-31.071486,7.927757,-1.7683433,69.24698,-19.063587,-3.8352475,-6.1603785,7.5925574,1.4224815,37.091484,-24.70357,-12.92436,5.6387825,0.19425803,6.1989007,44.852264,27.806538,-10.972968,-35.087685,-12.393037,-4.729944,-7.129226,-20.67552,-16.531088,31.646376,-19.552086,-1.695383,-6.196292,-4.297742
