unveil-humanoid-operators/unveil-humanoid-operators.github.io/feature-analysis-animation/data/feature_matrix_instances/age_ankle_rom_jogging_A037_jog_forward_start_003__A037.csv
Frame,root_translateX,root_translateY,root_translateZ,root_rotateX,root_rotateY,root_rotateZ,left_hip_pitch_joint_dof,left_hip_roll_joint_dof,left_hip_yaw_joint_dof,left_knee_joint_dof,left_ankle_pitch_joint_dof,left_ankle_roll_joint_dof,right_hip_pitch_joint_dof,right_hip_roll_joint_dof,right_hip_yaw_joint_dof,right_knee_joint_dof,right_ankle_pitch_joint_dof,right_ankle_roll_joint_dof,waist_yaw_joint_dof,waist_roll_joint_dof,waist_pitch_joint_dof,left_shoulder_pitch_joint_dof,left_shoulder_roll_joint_dof,left_shoulder_yaw_joint_dof,left_elbow_joint_dof,left_wrist_roll_joint_dof,left_wrist_pitch_joint_dof,left_wrist_yaw_joint_dof,right_shoulder_pitch_joint_dof,right_shoulder_roll_joint_dof,right_shoulder_yaw_joint_dof,right_elbow_joint_dof,right_wrist_roll_joint_dof,right_wrist_pitch_joint_dof,right_wrist_yaw_joint_dof
0,0.3653697073459625,2.2448885440826416,78.61761474609375,0.25337197048763027,-3.0060046036611787,-100.44109884704788,5.110124,1.4559814,14.880053,10.609654,-12.070611,0.46165466,2.0971127,-9.605099,-5.1690354,9.358526,-7.8511415,10.0949135,1.566441,1.5220133,7.6413965,-2.5083995,12.456838,-40.795547,59.69648,-4.597438,8.164048,6.6467204,-3.0810905,-9.447138,19.274147,68.605865,-13.927432,6.9668446,-4.480964
1,0.5003675222396851,2.32883358001709,78.60492706298828,0.2942737910923383,-2.938656234242953,-100.52625535372911,5.0182776,1.345839,14.993818,10.561236,-12.015018,0.5175262,1.7625754,-9.721517,-5.027606,9.711223,-7.9225545,10.150189,1.6524335,1.4464024,7.676738,-2.5913572,12.4846,-41.044212,59.81806,-4.8374166,7.9669833,6.752462,-3.1633832,-9.445004,19.974081,68.48139,-13.860551,6.9972467,-4.7908754
2,0.5879750847816467,2.365093469619751,78.59752655029297,0.340133861491169,-2.8719160711763414,-100.61464476463465,4.9267254,1.2309875,15.112559,10.513131,-11.9592905,0.5740105,1.4079245,-9.844014,-4.878813,10.103388,-8.015705,10.206815,1.6702968,1.3658974,7.702462,-2.6294026,12.520296,-41.223804,59.923294,-5.0854297,7.7582135,6.86286,-3.2805326,-9.4386215,20.83597,68.38806,-13.733087,7.0423484,-5.131632
3,0.6653587818145752,2.390230655670166,78.5929183959961,0.380837928610772,-2.8037314231859156,-100.69649299460768,4.8330803,1.1207422,15.222037,10.465837,-11.904621,0.6293717,1.0616477,-9.959941,-4.73615,10.480821,-8.099606,10.260645,1.6430161,1.2816583,7.7262325,-2.6355205,12.570144,-41.35596,59.99977,-5.292425,7.567143,6.958522,-3.4169664,-9.424084,21.652418,68.30956,-13.620627,7.0674834,-5.433842
4,0.7362418174743652,2.4172773361206055,78.59009552001953,0.4177645117528005,-2.7302691057623902,-100.763072741543,4.7316318,1.0197589,15.309589,10.42343,-11.853656,0.68235147,0.71808857,-10.064586,-4.6055803,10.85725,-8.177395,10.308126,1.6211103,1.191785,7.7388635,-2.6472812,12.619126,-41.517864,60.078087,-5.4377213,7.4199047,7.0302486,-3.5313115,-9.405299,22.208984,68.221466,-13.585185,7.0398097,-5.631816
5,0.8131567239761353,2.444894552230835,78.58621215820312,0.44710310131193753,-2.6462464094104297,-100.80838578734974,4.6129236,0.9316798,15.366598,10.392753,-11.810225,0.73366016,0.38554057,-10.153401,-4.4910817,11.206247,-8.23578,10.353175,1.5728602,1.0967299,7.730132,-2.6510303,12.657892,-41.680088,60.15833,-5.4880214,7.32702,7.081465,-3.6308343,-9.387893,22.463518,68.12625,-13.621153,6.9399476,-5.676718
6,0.8783845901489258,2.4799840450286865,78.58673095703125,0.4727712987751354,-2.554208777198133,-100.83845813976409,4.482082,0.85244125,15.401683,10.368458,-11.770287,0.78360295,0.05598647,-10.231862,-4.387351,11.545041,-8.28368,10.395749,1.4967492,0.9822274,7.703024,-2.6145175,12.73756,-41.84668,60.190998,-5.483566,7.277028,7.1184964,-3.7309155,-9.348666,22.52403,68.04167,-13.696819,6.7895293,-5.620188
7,0.9495794773101807,2.512176036834717,78.58332061767578,0.49389971983883973,-2.465274638805529,-100.86239953977879,4.3581657,0.7784694,15.427908,10.338603,-11.729284,0.830023,-0.27127007,-10.304518,-4.292086,11.897619,-8.338245,10.426372,1.4188541,0.8717698,7.6757345,-2.5877967,12.804908,-42.020462,60.23669,-5.4502764,7.251778,7.128201,-3.822219,-9.315703,22.462715,67.95895,-13.832109,6.6189756,-5.533876
8,1.0104596614837646,2.545253276824951,78.57931518554688,0.51362648439412,-2.389176241109444,-100.88947749873677,4.260707,0.7048862,15.458128,10.286922,-11.679187,0.8708616,-0.59961677,-10.376903,-4.202849,12.291056,-8.418025,10.435652,1.3608816,0.75812835,7.6614575,-2.5647988,12.896499,-42.22622,60.269722,-5.441745,7.2400575,7.0995545,-3.9108658,-9.274505,22.375969,67.89454,-14.030714,6.460147,-5.501751
9,1.0838165283203125,2.56777024269104,78.57769775390625,0.5281343872306046,-2.3311756608850884,-100.91572124148537,4.1980877,0.6315241,15.489031,10.2069645,-11.616514,0.9060557,-0.92512316,-10.448031,-4.115785,12.733597,-8.523616,10.408459,1.2947683,0.65397483,7.664248,-2.5503972,12.985818,-42.438732,60.314896,-5.4765186,7.2386904,7.031521,-4.002732,-9.240875,22.294846,67.85759,-14.325724,6.3021655,-5.539867
10,1.1502572298049927,2.5981686115264893,78.57927703857422,0.5384872815506089,-2.284445108283108,-100.93844976288815,4.15102,0.5624579,15.515825,10.124714,-11.555239,0.93655306,-1.2524018,-10.516354,-4.032351,13.219143,-8.651223,10.354217,1.2216716,0.5556221,7.6759644,-2.5409448,13.073838,-42.661125,60.36764,-5.529169,7.254457,6.929956,-4.0927653,-9.214498,22.167671,67.83816,-14.702065,6.1349645,-5.6069565
11,1.2089601755142212,2.636021852493286,78.58102416992188,0.5493534754338458,-2.242917187359042,-100.96859626097726,4.1238766,0.49105707,15.54995,10.016794,-11.482888,0.9624309,-1.5789971,-10.585566,-3.9610834,13.717939,-8.79428,10.300172,1.1546022,0.46000537,7.6901555,-2.5295236,13.160612,-42.87861,60.416107,-5.5495114,7.283663,6.7915993,-4.1796694,-9.193814,22.030989,67.8193,-15.074812,5.99463,-5.695342
12,1.2575870752334595,2.6619975566864014,78.58029174804688,0.5696473894146348,-2.1998057174369134,-101.01678165377935,4.109415,0.41471428,15.602529,9.884394,-11.400798,0.9834665,-1.9103186,-10.659143,-3.9091492,14.215497,-8.954172,10.27267,1.1088967,0.35982502,7.702535,-2.5011036,13.266229,-43.08194,60.42808,-5.4920144,7.3240027,6.612208,-4.2641916,-9.173078,21.916105,67.785385,-15.361583,5.9163866,-5.796858
13,1.300483226776123,2.6946003437042236,78.57852172851562,0.5972141946419339,-2.1511284536518023,-101.0884770971591,4.0998826,0.33819348,15.679354,9.735174,-11.312243,0.99674267,-2.2644205,-10.73308,-3.8630114,14.732705,-9.137494,10.247048,1.0672834,0.2650555,7.703776,-2.4583468,13.35563,-43.227818,60.428635,-5.2756443,7.3774643,6.357017,-4.360695,-9.158794,21.873962,67.74301,-15.53211,5.935432,-5.9285717
14,1.3439521789550781,2.720630168914795,78.5716552734375,0.6282064820902713,-2.1010507453667056,-101.1769795718101,4.1001143,0.26162678,15.773469,9.56764,-11.216424,1.0031952,-2.6345155,-10.807535,-3.8236341,15.2731085,-9.343881,10.218269,1.0373861,0.16894384,7.7035336,-2.393665,13.466743,-43.34871,60.386814,-4.955799,7.4459524,6.0376496,-4.4617414,-9.144046,21.859304,67.6924,-15.638903,6.023519,-6.0877314
15,1.402488350868225,2.743715286254883,78.56389617919922,0.6642114553235523,-2.056084077798541,-101.27480282199417,4.1202984,0.17956491,15.875864,9.375382,-11.111564,1.0081056,-2.9876688,-10.891409,-3.8206227,15.793539,-9.560958,10.242518,1.0019428,0.08177332,7.6981897,-2.345822,13.528532,-43.446198,60.39607,-4.63864,7.5099964,5.7271476,-4.563884,-9.137435,21.86442,67.65001,-15.685091,6.125346,-6.239098
16,1.4364739656448364,2.7684948444366455,78.55500793457031,0.7084235855069806,-2.0219228228806703,-101.3742388050597,4.172471,0.08539485,15.977551,9.146997,-10.993433,1.0165751,-3.296478,-10.994324,-3.8832612,16.262882,-9.780813,10.37597,0.9805724,-0.018053437,7.708715,-2.274409,13.644446,-43.580616,60.352135,-4.467892,7.5699983,5.4928436,-4.6469655,-9.126139,21.827051,67.597244,-15.6930895,6.1830845,-6.3465443
17,1.4593174457550049,2.799180030822754,78.54795837402344,0.7661490515912096,-2.000809912641956,-101.47973361410473,4.2665963,-0.030388016,16.080805,8.868366,-10.857984,1.0328617,-3.5404167,-11.136289,-4.059526,16.656233,-9.988155,10.710637,0.9536919,-0.12515147,7.726692,-2.2079086,13.748509,-43.746346,60.339638,-4.4887424,7.6192813,5.381668,-4.722647,-9.117627,21.775091,67.55373,-15.651561,6.18521,-6.398539
18,1.4935741424560547,2.824016571044922,78.54425048828125,0.8324363564519072,-1.9890840891841857,-101.59312427128485,4.3936386,-0.15945698,16.18834,8.54994,-10.708918,1.0526794,-3.74705,-11.30665,-4.3210917,17.014563,-10.195058,11.189135,0.9310336,-0.23300287,7.748245,-2.1493583,13.836969,-43.937416,60.35462,-4.6319056,7.6637435,5.3489413,-4.7889695,-9.111983,21.711897,67.5133,-15.55881,6.160904,-6.415007
19,1.5236456394195557,2.841174840927124,78.54010009765625,0.8942732964231694,-1.9845502217228843,-101.7030809761505,4.5308566,-0.28002846,16.29195,8.23031,-10.559433,1.0689033,-3.9383833,-11.466669,-4.5869102,17.357338,-10.422823,11.647021,0.9211907,-0.3334334,7.778003,-2.092135,13.936322,-44.123062,60.356514,-4.8177996,7.701953,5.3254743,-4.837944,-9.108018,21.607708,67.46591,-15.432149,6.1145678,-6.406433
20,1.5499800443649292,2.859976291656494,78.53898620605469,0.9398775621988934,-1.9852452175125044,-101.79869116979512,4.6657686,-0.3757456,16.384195,7.9273577,-10.414141,1.0751356,-4.1285043,-11.577467,-4.774817,17.687876,-10.690391,11.923008,0.89805776,-0.40826637,7.8079834,-2.048677,14.000774,-44.226814,60.38013,-4.947229,7.7264442,5.244729,-4.881369,-9.10752,21.480663,67.428635,-15.275048,6.053475,-6.3875327
21,1.5735194683074951,2.8779561519622803,78.53819274902344,0.9651329227537618,-1.9937930502094208,-101.88246192589693,4.7847266,-0.4358776,16.471558,7.6770988,-10.2857,1.0672708,-4.3360815,-11.619703,-4.831669,18.04294,-11.040168,11.944104,0.9030151,-0.46331626,7.854082,-2.0063837,14.090396,-44.25822,60.35278,-5.0289326,7.743578,5.0597477,-4.896266,-9.109387,21.253336,67.37403,-15.100897,5.962133,-6.332545
22,1.5888211727142334,2.8938400745391846,78.53939056396484,0.9792042952663017,-2.0101602855175784,-101.95880026911307,4.9040184,-0.4749529,16.55548,7.4466705,-10.162401,1.0500518,-4.537608,-11.615612,-4.8119297,18.384932,-11.444091,11.809375,0.9016014,-0.5011389,7.9068213,-1.9639019,14.170869,-44.20704,60.316086,-5.0894213,7.751321,4.8163114,-4.9051323,-9.113344,20.988,67.32616,-14.889849,5.84479,-6.247088
23,1.5907496213912964,2.9104089736938477,78.54212188720703,0.9884229091448861,-2.0285014240742103,-102.01851117494041,5.0223775,-0.50734246,16.622023,7.2203875,-10.039253,1.0300735,-4.7054324,-11.590863,-4.789995,18.648026,-11.82739,11.614964,0.9058741,-0.53634167,7.9687786,-1.9139565,14.286618,-44.159336,60.239586,-5.130177,7.750474,4.577896,-4.891209,-9.118403,20.699795,67.25642,-14.661598,5.7273107,-6.171707
24,1.5838404893875122,2.925091028213501,78.54617309570312,0.9999548514027566,-2.042823211663438,-102.05289772013566,5.13467,-0.54449016,16.656734,6.992663,-9.916288,1.0136907,-4.8013496,-11.571344,-4.843753,18.74501,-12.110505,11.457797,0.8742945,-0.56602716,8.013204,-1.8870478,14.355203,-44.14156,60.23581,-5.12914,7.7302704,4.4166636,-4.8755326,-9.119079,20.48735,67.19835,-14.406388,5.6401377,-6.16014
25,1.5878753662109375,2.9352304935455322,78.54830932617188,1.0197120656534169,-2.0506465979158173,-102.05566939293067,5.147848,-0.5672232,16.649326,6.9586334,-9.896976,1.0075006,-4.7971478,-11.576872,-5.0408173,18.605848,-12.297206,11.380404,0.8448372,-0.6091675,8.059219,-1.8623263,14.469432,-44.2284,60.209904,-5.081832,7.689728,4.3389287,-4.829914,-9.113536,20.30206,67.107796,-14.136958,5.5830383,-6.2448115
26,1.576850175857544,2.944504737854004,78.54668426513672,1.0323674656986181,-2.055084572117757,-102.03069340638648,5.1461306,-0.58349746,16.606743,6.9423604,-9.887121,1.0070392,-4.7255983,-11.580386,-5.3277917,18.306768,-12.429592,11.325608,0.7762114,-0.6382124,8.091159,-1.8540511,14.546357,-44.331707,60.239357,-4.9800096,7.625898,4.316238,-4.781358,-9.103357,20.184038,67.02591,-13.830508,5.5456944,-6.3997245
27,1.5639917850494385,2.9501421451568604,78.54515075683594,1.0382549483114965,-2.05851905370146,-101.98850113838876,5.1357865,-0.58898556,16.547798,6.943368,-9.885646,0.99847734,-4.6286902,-11.560182,-5.5935574,17.953693,-12.470926,11.241032,0.7184833,-0.6646104,8.12087,-1.8567915,14.636284,-44.47095,60.272064,-4.8855243,7.560646,4.3441105,-4.7149124,-9.084757,20.053867,66.936516,-13.531131,5.5259333,-6.5548177
28,1.5472753047943115,2.9576756954193115,78.54871368408203,1.0294659491549658,-2.0641002490456017,-101.93945718404676,5.1322985,-0.5719129,16.490047,6.943721,-9.88249,0.96780276,-4.5522594,-11.486825,-5.728706,17.662445,-12.392755,11.073155,0.6569244,-0.6710648,8.143772,-1.8772345,14.693582,-44.58443,60.34702,-4.8290586,7.507024,4.4209623,-4.644885,-9.06802,19.923235,66.85584,-13.252802,5.52668,-6.6443243
29,1.5233454704284668,2.958542823791504,78.5585708618164,0.9972650082466387,-2.0720822603272935,-101.88093607792477,5.1357226,-0.5222182,16.435637,6.9446344,-9.876053,0.90796024,-4.515845,-11.334176,-5.6704607,17.466045,-12.134573,10.788862,0.63645536,-0.6630505,8.167361,-1.9253021,14.763251,-44.74682,60.436577,-4.8673434,7.4685926,4.5811815,-4.5464816,-9.041902,19.7161,66.75875,-13.030967,5.5562196,-6.64693
30,1.4942971467971802,2.957474708557129,78.56983947753906,0.9515717556177736,-2.0808522629289445,-101.80990493269145,5.1432347,-0.44855115,16.376017,6.9466944,-9.868307,0.82783693,-4.493882,-11.125219,-5.4900193,17.304552,-11.729023,10.423482,0.61484194,-0.6373318,8.186886,-1.9896649,14.820008,-44.91604,60.55411,-4.951658,7.435102,4.8136797,-4.436292,-9.013964,19.499374,66.657776,-12.832572,5.612996,-6.600359
31,1.461337685585022,2.9550540447235107,78.5765151977539,0.8994581346645344,-2.0913321628589636,-101.73460625619231,5.155536,-0.3648194,16.31214,6.949402,-9.86317,0.7371298,-4.471255,-10.906068,-5.278136,17.168701,-11.291389,10.024822,0.62903726,-0.61153036,8.205823,-2.067195,14.887021,-45.09254,60.669876,-5.0407457,7.416335,5.0491166,-4.3126554,-8.973625,19.249546,66.56382,-12.649282,5.674929,-6.5204954
32,1.4231234788894653,2.9483087062835693,78.57487487792969,0.8546088378877933,-2.104247861054835,-101.66341947839986,5.1744957,-0.28558904,16.244947,6.95103,-9.864663,0.64555204,-4.4321055,-10.721019,-5.1228557,17.047413,-10.9375515,9.639528,0.62492335,-0.5786013,8.220156,-2.1296692,14.924002,-45.159695,60.786728,-5.053986,7.416143,5.2159986,-4.2040596,-8.946682,19.068401,66.50056,-12.430175,5.725015,-6.4237094
33,1.3798792362213135,2.9338185787200928,78.56916809082031,0.8231370046336541,-2.118984380911484,-101.5993779648625,5.1987348,-0.21572824,16.174435,6.9541774,-9.876459,0.5507686,-4.3844986,-10.580412,-5.0309935,16.965965,-10.700496,9.232612,0.6282319,-0.54685044,8.226295,-2.1850889,14.9426775,-45.13557,60.904457,-4.976009,7.449414,5.26744,-4.0950766,-8.930312,18.94019,66.46137,-12.178785,5.7572536,-6.3033934
34,1.3351627588272095,2.9169411659240723,78.56743621826172,0.7964556374588913,-2.1368995331108582,-101.53910964818537,5.2305655,-0.14820321,16.1016,6.95633,-9.894931,0.44921473,-4.3337026,-10.460377,-4.959144,16.92448,-10.521031,8.794523,0.68261284,-0.5218484,8.244748,-2.2591617,14.967126,-45.06986,61.010284,-4.8306193,7.5134416,5.242374,-3.9772577,-8.905428,18.76409,66.42981,-11.958826,5.777055,-6.1462708
35,1.2779268026351929,2.9005119800567627,78.57228088378906,0.7700382762192604,-2.1567522860035298,-101.4767566077588,5.266976,-0.07831803,16.02426,6.9589458,-9.916191,0.34874246,-4.2527976,-10.354065,-4.9240794,16.85496,-10.368662,8.409661,0.73526156,-0.49439776,8.257671,-2.3144226,14.991146,-44.964794,61.09938,-4.679456,7.5787287,5.2262287,-3.8721292,-8.876628,18.618467,66.431404,-11.703779,5.79502,-5.983537
36,1.2095988988876343,2.8931331634521484,78.57606506347656,0.7367810505896156,-2.178816173030614,-101.40800097958152,5.306332,-0.0018701046,15.941345,6.9624257,-9.936034,0.25705805,-4.113497,-10.254729,-4.939801,16.6879,-10.2121935,8.162264,0.7757917,-0.45768124,8.262814,-2.3428998,15.006642,-44.84701,61.170708,-4.573973,7.6190352,5.298423,-3.781117,-8.852477,18.511349,66.46565,-11.389789,5.8183722,-5.8371058
37,1.1708720922470093,2.8607630729675293,78.58077239990234,0.696970644542636,-2.2054266826575857,-101.33178893248053,5.3523865,0.07979197,15.852067,6.9654574,-9.953975,0.1766585,-3.8975012,-10.168278,-5.019494,16.39454,-10.05096,8.106044,0.8118005,-0.40863824,8.262244,-2.3465352,15.012422,-44.73747,61.22637,-4.5216537,7.6186957,5.499161,-3.7027614,-8.8336735,18.435556,66.54,-10.996164,5.8417044,-5.7126617
38,1.1179903745651245,2.8287642002105713,78.58877563476562,0.6549460886393939,-2.2356590279988287,-101.25045188792292,5.399021,0.16513471,15.757044,6.980136,-9.978146,0.103152476,-3.619285,-10.096149,-5.1509786,16.006226,-9.895607,8.185484,0.85601866,-0.35067397,8.254817,-2.3348815,15.009176,-44.63632,61.27118,-4.5055356,7.5945373,5.781364,-3.624391,-8.8231945,18.3833,66.641266,-10.539017,5.8641105,-5.59776
39,1.0495225191116333,2.805945634841919,78.5981216430664,0.6086403199209186,-2.2651800251506162,-101.16511598828069,5.429731,0.259421,15.658076,7.0295224,-10.019262,0.033928823,-3.3100028,-10.024973,-5.308088,15.565019,-9.734424,8.320726,0.88682353,-0.28876424,8.248194,-2.3081474,14.991433,-44.47643,61.301956,-4.4980288,7.5700083,6.083533,-3.5738091,-8.810131,18.342358,66.772736,-10.080316,5.894733,-5.4831595
40,0.9810040593147278,2.7853329181671143,78.60713958740234,0.5590119613347689,-2.2891453175855356,-101.07692049707804,5.451558,0.36233988,15.556977,7.0841503,-10.060577,-0.033393417,-3.0039515,-9.941294,-5.4651895,15.118636,-9.559258,8.43177,0.91882104,-0.22294074,8.235814,-2.2732491,14.961646,-44.275513,61.31377,-4.521899,7.569127,6.3551397,-3.5316381,-8.800833,18.296412,66.90378,-9.656302,5.9445653,-5.3622866
41,0.9149162173271179,2.757441759109497,78.61644744873047,0.49993525099210956,-2.303752901590447,-100.98558069354924,5.458531,0.47867793,15.454625,7.149724,-10.104999,-0.098097034,-2.7089386,-9.841556,-5.620231,14.672594,-9.363846,8.51372,0.9520953,-0.14927763,8.218558,-2.2263374,14.922962,-44.01176,61.292797,-4.591494,7.604802,6.594213,-3.5029757,-8.795157,18.225908,67.03483,-9.227462,6.0193114,-5.223611
42,0.8446860909461975,2.7241082191467285,78.62670135498047,0.43357815437256514,-2.3120909323561487,-100.89052780859564,5.454817,0.60650986,15.350132,7.2240705,-10.1514015,-0.15931311,-2.4092367,-9.73269,-5.7850404,14.206803,-9.156215,8.602764,0.9952681,-0.06894381,8.197356,-2.165594,14.8851,-43.71405,61.235355,-4.7084064,7.662886,6.826447,-3.4783497,-8.792636,18.136053,67.16544,-8.786398,6.1126966,-5.0745106
43,0.7710537910461426,2.6963675022125244,78.63633728027344,0.36498222422436755,-2.3206862595400795,-100.79235027037855,5.44882,0.7408314,15.242244,7.3028917,-10.199092,-0.2196769,-2.1019483,-9.616364,-5.954765,13.727883,-8.945848,8.680969,1.0402912,0.010423994,8.178483,-2.0971203,14.847712,-43.395866,61.15842,-4.8283167,7.725459,7.0320277,-3.4622316,-8.79146,18.052107,67.296555,-8.441431,6.2144775,-4.931314
44,0.6979694962501526,2.6635591983795166,78.64672088623047,0.2972360408544475,-2.3372345714951424,-100.69119056914042,5.4465046,0.8783607,15.129248,7.3890777,-10.251075,-0.281964,-1.7831093,-9.492929,-6.125337,13.243302,-8.742393,8.730955,1.0121515,0.09258123,8.167339,-2.0266647,14.747869,-42.962444,61.130142,-4.856651,7.769227,7.186205,-3.5103948,-8.789777,18.063507,67.4738,-8.29569,6.315088,-4.813114
45,0.6185824871063232,2.6355056762695312,78.65843200683594,0.23163266980005967,-2.367083382613576,-100.5876606930615,5.4552417,1.0188353,15.010252,7.4814625,-10.309924,-0.3436235,-1.4439765,-9.359537,-6.2953496,12.749514,-8.548514,8.751821,1.0408202,0.16095342,8.170936,-1.9649311,14.683364,-42.599003,61.078197,-4.859142,7.797475,7.27741,-3.5260274,-8.78825,18.041113,67.61986,-8.422427,6.4154224,-4.7165055
46,0.5346295237541199,2.6094682216644287,78.67170715332031,0.16530062103786697,-2.4059995192716537,-100.48128002781871,5.468645,1.1653482,14.8860655,7.583812,-10.376142,-0.40433747,-1.086308,-9.2155285,-6.4676595,12.240728,-8.356764,8.752164,1.0261562,0.22856666,8.180616,-1.8924547,14.587986,-42.152416,61.043697,-4.8011765,7.8135448,7.3156333,-3.5837877,-8.783983,18.08382,67.80052,-8.736967,6.520627,-4.640416
47,0.4475404918193817,2.587545394897461,78.6843490600586,0.0995923629253813,-2.442508744804275,-100.37076452478159,5.4766583,1.3144151,14.757935,7.6861978,-10.437896,-0.47029307,-0.73126554,-9.066075,-6.643922,11.732377,-8.167143,8.729371,1.0315704,0.28751904,8.193153,-1.8281113,14.509703,-41.75918,60.98684,-4.752407,7.829688,7.337879,-3.630432,-8.779202,18.125822,67.95428,-9.1695,6.616877,-4.5753503
48,0.3549148142337799,2.567586898803711,78.69738006591797,0.03357759062124465,-2.465709493286949,-100.25518338429363,5.4676795,1.4634689,14.626976,7.783502,-10.4861355,-0.5475831,-0.39964744,-8.916383,-6.825574,11.239633,-7.979393,8.6807,1.0199682,0.34026963,8.194051,-1.7756538,14.424428,-41.418022,60.92799,-4.7313643,7.850908,7.379587,-3.682863,-8.773995,18.218012,68.08846,-9.626,6.6938705,-4.5242076
49,0.2599257826805115,2.549434185028076,78.70762634277344,-0.034613098818944046,-2.4675999453967083,-100.13324614999703,5.4345503,1.6168679,14.492579,7.869687,-10.512556,-0.6483871,-0.10185178,-8.761116,-7.015364,10.763759,-7.788822,8.589544,1.0088773,0.38915747,8.175821,-1.7432964,14.335743,-41.163937,60.860836,-4.7588954,7.889074,7.4597793,-3.7269545,-8.770375,18.34937,68.186325,-10.136009,6.751603,-4.4945703
50,0.16793867945671082,2.5324697494506836,78.7196044921875,-0.1040392473136385,-2.455555255044221,-100.00559700159738,5.384254,1.7753047,14.353956,7.95216,-10.526071,-0.76609486,0.18239628,-8.597882,-7.2134504,10.282997,-7.591679,8.463051,1.0052208,0.4328435,8.149543,-1.7222519,14.258819,-40.98137,60.770893,-4.8195705,7.93831,7.555501,-3.7616475,-8.769185,18.50296,68.24934,-10.732097,6.79488,-4.4821396
51,0.07357609272003174,2.517422676086426,78.73381805419922,-0.17076967010047675,-2.4427058762228633,-99.87423961255134,5.3298383,1.9294944,14.212076,8.037814,-10.538794,-0.87860435,0.4693213,-8.4376955,-7.416411,9.795394,-7.3913913,8.333626,1.0007992,0.46862912,8.127613,-1.7092576,14.1918,-40.850418,60.669533,-4.893135,7.977961,7.6420574,-3.7931051,-8.769334,18.673868,68.28782,-11.331233,6.8192677,-4.468878
52,-0.024654746055603027,2.501671075820923,78.74748992919922,-0.2266865008689537,-2.441957108117706,-99.74070496002557,5.2842417,2.0710888,14.067988,8.133682,-10.562041,-0.9641343,0.80370766,-8.286665,-7.6250715,9.241158,-7.1657157,8.232861,1.0071309,0.49250805,8.127185,-1.7044177,14.147009,-40.77648,60.556046,-4.9674897,7.989147,7.69472,-3.814376,-8.769479,18.830301,68.298134,-11.859092,6.819475,-4.4344068
53,-0.11751475930213928,2.4839565753936768,78.7541275024414,-0.23701313230636728,-2.451401051420453,-99.60523790670236,5.262149,2.15041,13.925324,8.199511,-10.57712,-1.001257,0.90711886,-8.22897,-7.7949204,9.206225,-7.2276077,8.183244,0.98178566,0.4718754,8.138536,-1.7157308,14.085506,-40.722763,60.476173,-5.0418696,7.9575663,7.7130694,-3.855651,-8.768989,19.00841,68.30701,-12.28811,6.7949944,-4.349629
54,-0.21996253728866577,2.474039077758789,78.76302337646484,-0.23430402319424,-2.4699473425959084,-99.46349485314632,5.2451468,2.2140887,13.776736,8.272619,-10.5992155,-1.0095452,1.0267102,-8.188599,-7.972684,9.167102,-7.2972484,8.158841,0.9747988,0.43523937,8.172302,-1.7466187,14.049091,-40.75163,60.38182,-5.138066,7.9011455,7.707471,-3.8835409,-8.768203,19.14797,68.277054,-12.681451,6.7456274,-4.2284484
55,-0.3187016248703003,2.46152663230896,78.7689437866211,-0.22596331813178486,-2.490498177764249,-99.32883157375363,5.232433,2.2727778,13.636392,8.34291,-10.6199,-1.015199,1.1442232,-8.1526575,-8.13997,9.132077,-7.369207,8.138776,0.9715423,0.39320126,8.204586,-1.7764305,14.012111,-40.801167,60.29433,-5.209665,7.8280706,7.6733236,-3.9081116,-8.766707,19.330101,68.24226,-13.014103,6.6762147,-4.138642
56,-0.4118686020374298,2.447275161743164,78.77277374267578,-0.22202453994003332,-2.5063756660711136,-99.21384341070709,5.222473,2.3412416,13.519201,8.4037075,-10.633467,-1.040445,1.2419664,-8.104254,-8.279201,9.109197,-7.4383097,8.102365,0.9918967,0.3582391,8.224052,-1.7892417,13.977212,-40.845165,60.20408,-5.219149,7.75104,7.603841,-3.918141,-8.763545,19.583982,68.20885,-13.280758,6.590238,-4.141804
57,-0.5121129155158997,2.438762664794922,78.77711486816406,-0.22635849681160353,-2.517280517218753,-99.12460299467875,5.2180123,2.4257386,13.432811,8.45039,-10.634901,-1.098364,1.3228517,-8.03514,-8.382299,9.086607,-7.4949856,8.044075,1.0095396,0.33578745,8.215597,-1.7726449,13.927577,-40.870308,60.133827,-5.1245914,7.651592,7.49739,-3.929035,-8.7555275,20.010033,68.215225,-13.433238,6.4721456,-4.315396
58,-0.6041077971458435,2.4185791015625,78.78119659423828,-0.23268760158375681,-2.526468926660254,-99.05361232926741,5.219913,2.5168312,13.36854,8.486234,-10.62814,-1.1740539,1.3939289,-7.9556546,-8.459571,9.0648775,-7.544832,7.975598,1.039966,0.31768245,8.196034,-1.7436093,13.874889,-40.904053,60.071968,-4.9559374,7.5323253,7.3563576,-3.9318955,-8.743145,20.535358,68.23412,-13.503522,6.3252616,-4.6030025
59,-0.7075080871582031,2.4073386192321777,78.78568267822266,-0.23907524598508936,-2.531778636718578,-98.99228559747705,5.221028,2.6095183,13.313668,8.518792,-10.620734,-1.252173,1.4535902,-7.8724775,-8.524446,9.050468,-7.5958905,7.902006,1.0467949,0.30229315,8.163368,-1.6951929,13.799973,-40.8665,60.02383,-4.7644577,7.4231677,7.1868467,-3.9513984,-8.723262,21.109524,68.26476,-13.532756,6.1880035,-4.886399
60,-0.8117116093635559,2.3919143676757812,78.7889633178711,-0.24440369963584652,-2.531084368271421,-98.93187022176687,5.214369,2.6972518,13.255522,8.553938,-10.618364,-1.3175691,1.5072266,-7.7928734,-8.591319,9.035056,-7.647602,7.8280993,1.0723112,0.2846265,8.134105,-1.643438,13.724949,-40.76564,59.958824,-4.622973,7.359751,6.992041,-3.9641886,-8.704871,21.569418,68.250916,-13.599107,6.0937214,-5.0342793
61,-0.9027796983718872,2.3755035400390625,78.78956604003906,-0.24737775041799226,-2.5219827484096005,-98.8711092407259,5.1948586,2.7773032,13.191868,8.595718,-10.624479,-1.3631216,1.5531229,-7.719809,-8.662515,9.016929,-7.7012897,7.756609,1.091008,0.26405007,8.104624,-1.5761113,13.632541,-40.530243,59.87087,-4.5203342,7.3708963,6.7529807,-3.9876618,-8.687736,21.91721,68.190544,-13.701517,6.073149,-4.9943376
62,-0.9934170246124268,2.352104425430298,78.7931137084961,-0.24778533950858767,-2.5060478433642905,-98.81436444637855,5.1694503,2.851971,13.129381,8.634966,-10.632402,-1.3978559,1.5883403,-7.6500735,-8.730713,9.003441,-7.7586503,7.6845684,1.1281505,0.24089932,8.076937,-1.4964877,13.542154,-40.223248,59.752766,-4.440207,7.43374,6.473353,-4.0014586,-8.676172,22.17681,68.080086,-13.819483,6.0984774,-4.835999
63,-1.0839722156524658,2.335502862930298,78.79730987548828,-0.24840449703957665,-2.487632017107095,-98.76115184734584,5.1422124,2.9260643,13.0680275,8.675114,-10.643424,-1.4310561,1.6185137,-7.5797176,-8.795263,8.992823,-7.815275,7.6078825,1.1591628,0.22126937,8.047051,-1.4108391,13.446084,-39.884148,59.64452,-4.3989873,7.497364,6.1926494,-4.017104,-8.667716,22.413486,67.96115,-13.940684,6.124725,-4.632698
64,-1.173949122428894,2.3205761909484863,78.80188751220703,-0.25219165155169887,-2.4713314620280795,-98.7112102880632,5.120941,3.0035584,13.007981,8.713829,-10.656511,-1.4719138,1.6494406,-7.504543,-8.856035,8.984822,-7.868549,7.5225163,1.1677767,0.21368925,8.009954,-1.3347872,13.326372,-39.55986,59.59981,-4.412031,7.5108275,5.952007,-4.041291,-8.660273,22.681343,67.87398,-14.056422,6.1069684,-4.4575152
65,-1.2661629915237427,2.3068430423736572,78.80672454833984,-0.26218059078460043,-2.4611475382844463,-98.6651667355399,5.111073,3.0847883,12.94931,8.751382,-10.673545,-1.5222592,1.6811432,-7.4243197,-8.909682,8.989548,-7.922736,7.4263773,1.1848489,0.21409254,7.974401,-1.2632558,13.22237,-39.311584,59.587467,-4.5342183,7.4541216,5.775179,-4.0559945,-8.656308,22.95422,67.80912,-14.182801,6.0176773,-4.319017
66,-1.3546477556228638,2.2953603267669678,78.80933380126953,-0.2732874231924595,-2.4536126269740755,-98.62293320324316,5.1081033,3.168134,12.891937,8.78811,-10.694254,-1.5773635,1.7134455,-7.3402424,-8.957867,8.999168,-7.9753623,7.3217487,1.1762781,0.22628663,7.9325857,-1.1934069,13.094386,-39.057793,59.6267,-4.7253346,7.3539147,5.6369247,-4.083677,-8.6541195,23.257433,67.77502,-14.306812,5.8879557,-4.186221
67,-1.439792513847351,2.2711455821990967,78.81236267089844,-0.28670456082109014,-2.442261090872719,-98.58316173930336,5.102198,3.253137,12.836009,8.822421,-10.713723,-1.6368006,1.738843,-7.2543077,-9.0052805,9.0111,-8.025498,7.2113695,1.1786684,0.23988226,7.888944,-1.1306107,12.976247,-38.826847,59.68474,-4.933354,7.24496,5.4994054,-4.0986853,-8.654667,23.525562,67.72815,-14.430657,5.7514415,-4.0534363
68,-1.5287779569625854,2.243950843811035,78.81452178955078,-0.3016865589605971,-2.420372012850863,-98.54484116507271,5.0834155,3.3407187,12.781445,8.853137,-10.727113,-1.700223,1.7522125,-7.167116,-9.057338,9.018938,-8.070497,7.0979533,1.1826463,0.2537555,7.8393526,-1.0785478,12.85931,-38.5874,59.765995,-5.084586,7.1576543,5.325954,-4.1025157,-8.656687,23.754467,67.65426,-14.53901,5.644709,-3.9201808
69,-1.6157783269882202,2.217665433883667,78.81511688232422,-0.3204604733024247,-2.380065109817372,-98.50231449310164,5.043091,3.4326398,12.721842,8.879154,-10.732476,-1.7727228,1.7429355,-7.0782547,-9.12245,9.03076,-8.113061,6.9736085,1.2055078,0.25980496,7.776969,-1.0270314,12.768314,-38.347477,59.851395,-5.1358275,7.094851,5.075727,-4.0735765,-8.65967,23.92332,67.521034,-14.633232,5.587221,-3.7902703
70,-1.6929607391357422,2.1943395137786865,78.81720733642578,-0.3420071511156031,-2.327048532786014,-98.45799924536578,4.987679,3.5286279,12.659173,8.903228,-10.733413,-1.852711,1.7214401,-6.9864364,-9.196971,9.037579,-8.14893,6.840483,1.2086588,0.2704289,7.6986556,-0.9813039,12.658215,-38.07009,59.98306,-5.11629,7.0376015,4.779864,-4.039312,-8.664471,24.090021,67.3683,-14.705658,5.558686,-3.6659331
71,-1.7796300649642944,2.177492141723633,78.8199691772461,-0.3622506041713295,-2.274604422623376,-98.42255379950183,4.93266,3.622919,12.606621,8.925129,-10.732305,-1.9299055,1.693896,-6.896187,-9.262473,9.0463295,-8.183984,6.7137113,1.2373779,0.27609956,7.6341662,-0.9470658,12.581205,-37.837284,60.10303,-5.129412,7.0004063,4.5049663,-3.9992707,-8.668566,24.184282,67.20509,-14.781076,5.526931,-3.5311627
72,-1.877974510192871,2.169179677963257,78.82305145263672,-0.3773781018632652,-2.236671364250753,-98.40639611657876,4.8926387,3.7115028,12.577141,8.9478245,-10.73339,-1.9939308,1.6772997,-6.809189,-9.302587,9.042748,-8.213009,6.608871,1.23869,0.2921666,7.5942693,-0.94480497,12.4776125,-37.602074,60.258106,-5.2300735,6.9872384,4.32018,-4.0086985,-8.675685,24.260681,67.1018,-14.850379,5.465523,-3.3785603
73,-1.9466198682785034,2.2262508869171143,78.8251953125,-0.3805066542565084,-2.2150500104878246,-98.42663785409043,4.8693237,3.7904341,12.590647,8.971846,-10.737517,-2.0355644,1.6626229,-6.7287116,-9.297221,9.030131,-8.236261,6.5384436,1.2643915,0.30975553,7.597559,-0.9863038,12.3862295,-37.424454,60.41821,-5.530337,7.0067677,4.2628193,-4.0615983,-8.684716,24.239029,67.05083,-14.93806,5.348269,-3.1785874
74,-2.020876407623291,2.2353968620300293,78.82789611816406,-0.3767443593493626,-2.201404238279264,-98.47322555468344,4.8548236,3.8627074,12.635081,8.99399,-10.741458,-2.0624926,1.6445366,-6.652665,-9.260138,9.0123005,-8.255201,6.49121,1.3108684,0.31379914,7.6200004,-1.0100294,12.3669195,-37.327312,60.515343,-6.003554,7.058477,4.297999,-4.120294,-8.687817,24.166843,67.01473,-15.005262,5.2003183,-2.9555552
75,-2.099334955215454,2.2065229415893555,78.83055114746094,-0.37365433479038707,-2.200689086457201,-98.51470076105993,4.853261,3.9346156,12.674332,9.018582,-10.747632,-2.0897443,1.6444696,-6.577053,-9.225687,8.991606,-8.274712,6.447645,1.3316572,0.32907364,7.68923,-1.080263,12.329131,-37.178097,60.638176,-6.3785853,7.1262946,4.342442,-4.230929,-8.693566,24.03169,67.01076,-15.115063,5.0471354,-2.7284417
76,-2.176093578338623,2.1944637298583984,78.82987976074219,-0.3761908892193826,-2.208100165395773,-98.52137694102646,4.8588276,4.010928,12.673995,9.049943,-10.758255,-2.132226,1.6683897,-6.4997206,-9.225811,8.980311,-8.304077,6.388133,1.33766,0.3464345,7.73477,-1.1393667,12.300256,-37.105797,60.759476,-6.6044545,7.208465,4.379479,-4.291862,-8.696892,23.940563,66.989136,-15.170145,4.939081,-2.5734284
77,-2.2538795471191406,2.190631151199341,78.82978820800781,-0.39243450839967603,-2.2329218566786624,-98.47510318539028,4.8807845,4.0947843,12.611327,9.0896435,-10.774086,-2.1988482,1.7326992,-6.418549,-9.277922,8.984816,-8.347968,6.3017063,1.3169867,0.37060317,7.7759094,-1.2025979,12.272788,-37.07906,60.88778,-6.5640516,7.3129787,4.364347,-4.309192,-8.696598,23.869616,66.94559,-15.18907,4.885317,-2.5020857
78,-2.354307174682617,2.1901798248291016,78.82836151123047,-0.41417167739266364,-2.271887625143269,-98.39531247687418,4.915503,4.182921,12.509344,9.137844,-10.795437,-2.279912,1.825373,-6.3355713,-9.361611,9.001269,-8.402644,6.2007303,1.2597076,0.3982595,7.817806,-1.2470491,12.266062,-37.081596,60.99155,-6.3581343,7.4419656,4.332194,-4.3073616,-8.693722,23.831406,66.89758,-15.167791,4.866822,-2.4898317
79,-2.437854766845703,2.146413803100586,78.82962799072266,-0.43679356083846776,-2.3102945420544803,-98.30798866756273,4.9533834,4.2686825,12.402338,9.178406,-10.813611,-2.3625596,1.9204262,-6.255351,-9.453059,9.019367,-8.46061,6.1009984,1.1839596,0.4257667,7.8540998,-1.2874826,12.265856,-37.104248,61.088192,-6.095555,7.573137,4.3271146,-4.3099465,-8.690094,23.81079,66.863785,-15.136601,4.866982,-2.5045729
80,-2.516819477081299,2.114459753036499,78.82890319824219,-0.4567571677578458,-2.3352958214218615,-98.2377116705994,4.9731827,4.3558054,12.3213215,9.225016,-10.835317,-2.4351654,2.0031452,-6.1740165,-9.53177,9.012765,-8.507422,6.016935,1.1729456,0.44126952,7.879136,-1.3835067,12.27329,-37.2355,61.22032,-5.9285216,7.688843,4.4021583,-4.296375,-8.67583,23.737005,66.83186,-15.12777,4.870032,-2.5221176
81,-2.5985939502716064,2.104764699935913,78.82709503173828,-0.4672859609231607,-2.3339441053922387,-98.19098503667581,4.970721,4.4342012,12.278576,9.254589,-10.848784,-2.492717,2.0519633,-6.1003423,-9.5913,8.987957,-8.548131,5.9602733,1.1727978,0.4466534,7.872981,-1.481339,12.291627,-37.434925,61.34978,-5.893579,7.783893,4.600185,-4.2989464,-8.658857,23.679646,66.82895,-15.120329,4.878078,-2.5405746
82,-2.669940948486328,2.110151529312134,78.8242416381836,-0.4730438584313199,-2.317327305122199,-98.15443086423295,4.954276,4.5088096,12.255161,9.276433,-10.858824,-2.5425293,2.0850043,-6.030648,-9.643941,8.94831,-8.584556,5.9204073,1.173869,0.44637644,7.848923,-1.589148,12.31757,-37.686535,61.482975,-5.9150753,7.868,4.882885,-4.307281,-8.64325,23.63811,66.84067,-15.108338,4.8975573,-2.5718071
83,-2.7386157512664795,2.114396095275879,78.82215881347656,-0.4784773314220649,-2.3014091885532895,-98.12496521769744,4.93857,4.583338,12.241759,9.300082,-10.869427,-2.588025,2.1155882,-5.961116,-9.690043,8.909955,-8.619986,5.8810997,1.1759467,0.4475419,7.826043,-1.6959012,12.345941,-37.94594,61.60654,-5.9242516,7.9439764,5.1821,-4.3260117,-8.630524,23.611658,66.871704,-15.097516,4.9226894,-2.6092997
84,-2.8222265243530273,2.0581512451171875,78.822998046875,-0.48722614080141863,-2.3018139986850636,-98.1016421446101,4.9392624,4.6612253,12.230725,9.332951,-10.883544,-2.6328306,2.154753,-5.8893948,-9.7278,8.891285,-8.657911,5.8261995,1.2161354,0.45063707,7.821185,-1.8010122,12.388297,-38.22361,61.702873,-5.8796043,8.018429,5.4343057,-4.335337,-8.614535,23.565208,66.91082,-15.098732,4.9469924,-2.6488125
85,-2.8915886878967285,2.0082621574401855,78.822998046875,-0.5021314018034277,-2.3313771230356686,-98.08207252007301,4.9675245,4.7476363,12.2184725,9.383055,-10.904093,-2.6790054,2.212613,-5.8113194,-9.758465,8.904363,-8.700667,5.7424226,1.2353717,0.46889448,7.852132,-1.8813405,12.426476,-38.43302,61.76777,-5.707995,8.088746,5.622959,-4.376226,-8.602472,23.557287,66.989204,-15.100528,4.9699235,-2.6893315
86,-2.9692482948303223,2.001436233520508,78.82274627685547,-0.5223520027927044,-2.378860722511061,-98.06804253744245,5.0123477,4.839323,12.210226,9.4440775,-10.928065,-2.7243624,2.2799482,-5.7300067,-9.781616,8.93858,-8.746706,5.641367,1.2602684,0.49413326,7.903511,-1.9512306,12.470766,-38.63422,61.80831,-5.468528,8.155017,5.7848563,-4.429767,-8.590538,23.561846,67.09327,-15.104862,4.9944057,-2.7349358
87,-3.0374982357025146,2.006805181503296,78.82215881347656,-0.5398699133861229,-2.424541876940469,-98.06084406686718,5.056807,4.9277015,12.207522,9.50515,-10.952884,-2.7656796,2.3428621,-5.651301,-9.797638,8.973058,-8.791346,5.5441504,1.2861878,0.5193322,7.952919,-2.0135114,12.513782,-38.80528,61.833134,-5.206088,8.217138,5.9160433,-4.4890623,-8.581165,23.586643,67.20824,-15.113989,5.022174,-2.7811623
88,-3.1046369075775146,1.9955909252166748,78.81938934326172,-0.54932282678916,-2.4490208450990454,-98.0619176688371,5.0866113,5.001846,12.212679,9.54885,-10.9719515,-2.7994165,2.3874996,-5.582767,-9.806613,8.987777,-8.8306,5.472141,1.3233538,0.5328498,7.977664,-2.0711603,12.561623,-38.949444,61.840263,-4.9780197,8.276293,6.014138,-4.5403013,-8.57426,23.624628,67.315346,-15.132158,5.055258,-2.825216
89,-3.1667654514312744,1.9681247472763062,78.81722259521484,-0.5447863376921723,-2.433493797881259,-98.07549741829352,5.082721,5.0548644,12.229939,9.56983,-10.981998,-2.8223176,2.3940852,-5.5294623,-9.80314,8.972026,-8.860509,5.43775,1.3694535,0.53287613,7.9557247,-2.1397533,12.58726,-39.05102,61.86143,-4.7799053,8.327801,6.082414,-4.5837665,-8.573107,23.68412,67.41591,-15.162292,5.0950303,-2.865057
90,-3.219464063644409,1.9545962810516357,78.81414031982422,-0.5317635712940033,-2.3931910116829034,-98.09964680054013,5.059866,5.092637,12.257393,9.573221,-10.98448,-2.8369446,2.3762577,-5.4871154,-9.788832,8.937442,-8.884046,5.427305,1.4315966,0.5234,7.9093604,-2.2187045,12.598213,-39.115826,61.88526,-4.5813165,8.373965,6.119015,-4.6244445,-8.574253,23.738907,67.515274,-15.217232,5.139076,-2.9004617
91,-3.277069330215454,1.9624742269515991,78.81307983398438,-0.5185479455496059,-2.3582002973386964,-98.1261282552913,5.0442476,5.129092,12.285913,9.578039,-10.991458,-2.849006,2.3645966,-5.446673,-9.774374,8.9033785,-8.908495,5.422948,1.5047807,0.51360077,7.853239,-2.283459,12.620636,-39.197884,61.889965,-4.436366,8.417044,6.1275163,-4.6470447,-8.578894,23.831955,67.60916,-15.247816,5.1885242,-2.94181
92,-3.339885950088501,1.943873643875122,78.81346893310547,-0.5160761341279717,-2.3603543873322046,-98.14682275524241,5.064769,5.1772494,12.307129,9.599405,-11.012289,-2.8641324,2.3946116,-5.3984876,-9.770309,8.882256,-8.937954,5.406849,1.565021,0.5214711,7.8410583,-2.332285,12.644018,-39.22188,61.864204,-4.296366,8.461075,6.087616,-4.6772037,-8.588874,23.926847,67.70052,-15.290632,5.238126,-2.979625
93,-3.403083562850952,1.8991234302520752,78.81184387207031,-0.5287930017025481,-2.4223654065294946,-98.15660421629086,5.1425266,5.245637,12.315451,9.650069,-11.057217,-2.884079,2.4905107,-5.3375735,-9.784639,8.885856,-8.978537,5.3721013,1.6014102,0.5607783,7.891383,-2.3561177,12.66435,-39.180317,61.80179,-4.155835,8.512396,5.968534,-4.720175,-8.606254,24.046303,67.79987,-15.332417,5.289106,-3.0199502
94,-3.44510817527771,1.8446664810180664,78.80947875976562,-0.5519499384036078,-2.52293442757383,-98.16156060136488,5.2594175,5.3257985,12.317508,9.715949,-11.117042,-2.9058993,2.631096,-5.26875,-9.809288,8.899276,-9.023641,5.328855,1.6329472,0.619337,7.979549,-2.3763456,12.677163,-39.095505,61.72976,-4.0236936,8.564164,5.7839355,-4.7690773,-8.628746,24.177,67.907104,-15.379181,5.3400126,-3.0607114
95,-3.4954075813293457,1.8209298849105835,78.80477142333984,-0.5764247788854986,-2.627004553757699,-98.16665522937076,5.3798137,5.4057007,12.318677,9.78298,-11.178045,-2.9276073,2.7749772,-5.200642,-9.83405,8.914486,-9.067997,5.285246,1.6306038,0.6861864,8.074588,-2.3635914,12.687119,-38.946663,61.621136,-3.9100606,8.608266,5.5999823,-4.8223248,-8.6649475,24.350107,67.999886,-15.417512,5.3956394,-3.0949085
96,-3.5480878353118896,1.8374338150024414,78.80006408691406,-0.5917460444096495,-2.6994297028802867,-98.18016940165052,5.471108,5.4729877,12.327608,9.83273,-11.2247925,-2.9473503,2.8815167,-5.1414003,-9.845362,8.920522,-9.104978,5.249018,1.6425736,0.73771656,8.13798,-2.35519,12.690257,-38.803925,61.516792,-3.8547647,8.633317,5.484916,-4.8606124,-8.700985,24.502266,68.06742,-15.466892,5.452688,-3.1157675
97,-3.5920612812042236,1.8522260189056396,78.79561614990234,-0.593918184380461,-2.720920785745775,-98.2069403085981,5.514253,5.5223613,12.3486185,9.858279,-11.250824,-2.965249,2.9262233,-5.0946503,-9.836989,8.9166355,-9.132758,5.2213445,1.663023,0.7657696,8.150234,-2.3366928,12.687454,-38.64899,61.4049,-3.87568,8.634733,5.4709334,-4.883717,-8.735576,24.646616,68.106926,-15.526133,5.517479,-3.1218588
98,-3.632782459259033,1.8398759365081787,78.79364013671875,-0.5873108513758779,-2.713327083725453,-98.24323897325017,5.5315614,5.560125,12.378092,9.867254,-11.263594,-2.9821239,2.9337156,-5.0563397,-9.815193,8.910177,-9.156014,5.1982255,1.765527,0.7673381,8.124686,-2.3537393,12.684534,-38.580124,61.318184,-3.9924448,8.620454,5.525211,-4.8734946,-8.743793,24.693699,68.132614,-15.62072,5.5841374,-3.1206412
99,-3.679426670074463,1.8083038330078125,78.79359436035156,-0.5813839982074369,-2.703878294620035,-98.27753806025335,5.5453897,5.594243,12.405168,9.876347,-11.275703,-2.9969382,2.9411645,-5.020916,-9.793497,8.8983755,-9.175983,5.180323,1.7350498,0.78130794,8.106983,-2.297062,12.669545,-38.33765,61.18036,-4.0689063,8.594309,5.587416,-4.9165616,-8.770483,24.885399,68.16305,-15.678329,5.6530666,-3.1104288
100,-3.7280173301696777,1.7662951946258545,78.79468536376953,-0.578483354752984,-2.717259596847279,-98.3046915757105,5.581804,5.629581,12.425721,9.891911,-11.294278,-3.0089564,2.9743936,-4.985593,-9.778145,8.893103,-9.200446,5.1679125,1.8237805,0.7892881,8.102576,-2.3144948,12.665309,-38.290146,61.088047,-4.193603,8.568752,5.6411304,-4.906312,-8.775225,24.913115,68.16656,-15.772432,5.701108,-3.0951717
101,-3.7651069164276123,1.736867070198059,78.793701171875,-0.585817162633536,-2.776124082280565,-98.31598022875652,5.6583204,5.672056,12.430014,9.930999,-11.332879,-3.0152934,3.0694077,-4.945122,-9.778458,8.880229,-9.224835,5.165362,1.734629,0.83554703,8.160919,-2.2686572,12.632153,-38.0353,60.96479,-4.2214026,8.532748,5.646997,-4.9674244,-8.810751,25.114532,68.174194,-15.832349,5.7396626,-3.068467
102,-3.79801869392395,1.7015537023544312,78.79246520996094,-0.5948719798684858,-2.859587576543557,-98.31862981989111,5.7591567,5.714329,12.425742,9.977203,-11.379262,-3.0171072,3.1936886,-4.905606,-9.78557,8.872357,-9.253772,5.171094,1.722159,0.88158023,8.239617,-2.2704415,12.607581,-37.912582,60.86589,-4.2957435,8.490614,5.6515985,-4.9918313,-8.834935,25.203484,68.15548,-15.924506,5.761809,-3.0325515
103,-3.8299403190612793,1.6787303686141968,78.79019165039062,-0.6047352309944525,-2.9375804783775035,-98.32264360911829,5.855073,5.7549577,12.423915,10.018716,-11.420677,-3.0204,3.311092,-4.8673086,-9.791283,8.862747,-9.279794,5.176417,1.7027682,0.9291897,8.31359,-2.2742462,12.577872,-37.79599,60.76627,-4.350656,8.45147,5.6520557,-5.010211,-8.862061,25.283997,68.11899,-16.001198,5.775129,-2.9930363
104,-3.864441156387329,1.6852997541427612,78.78899383544922,-0.6106176997204305,-2.9791261427207223,-98.33851630907448,5.9151397,5.7918496,12.435961,10.045131,-11.444464,-3.0311368,3.3808358,-4.8317275,-9.786434,8.852706,-9.300053,5.1726832,1.6781534,0.974888,8.348493,-2.281444,12.52833,-37.67713,60.674583,-4.361843,8.425535,5.6550426,-5.0155435,-8.901556,25.36365,68.0615,-16.03607,5.7829304,-2.95563
105,-3.896941900253296,1.6724333763122559,78.7874984741211,-0.6092102376185213,-2.9646832579530225,-98.37041481714519,5.921855,5.82202,12.46869,10.044665,-11.43708,-3.0539553,3.3783808,-4.8015647,-9.767337,8.843097,-9.312848,5.1562843,1.7046086,0.9854799,8.321582,-2.2913182,12.514381,-37.640842,60.558483,-4.3572545,8.4256735,5.6776977,-4.9962006,-8.9094925,25.368814,67.99242,-16.039091,5.780302,-2.9251144
106,-3.9251294136047363,1.6598528623580933,78.7852554321289,-0.6036338948163213,-2.914797929966768,-98.41244952509953,5.8933334,5.848215,12.514443,10.029083,-11.410285,-3.0845118,3.3304572,-4.7746925,-9.739488,8.831884,-9.319312,5.132409,1.7209127,0.990959,8.259714,-2.300285,12.486028,-37.59476,60.4415,-4.3072357,8.4400625,5.7075386,-4.969642,-8.920785,25.367554,67.904884,-16.008558,5.768979,-2.8931031
107,-3.9556779861450195,1.642795443534851,78.7835922241211,-0.5975197164810275,-2.864981713095322,-98.45608465941844,5.866374,5.8730764,12.560547,10.009288,-11.382706,-3.1155427,3.283007,-4.7481837,-9.710683,8.817199,-9.323333,5.1054683,1.7385619,0.98970973,8.194254,-2.3118315,12.482646,-37.587128,60.321476,-4.2661033,8.450766,5.719961,-4.958509,-8.920968,25.36184,67.83646,-15.951831,5.7495565,-2.8678684
108,-3.983086347579956,1.6253395080566406,78.78292083740234,-0.5951709954443991,-2.8194579849948522,-98.50848525227602,5.845217,5.9007616,12.609734,9.996404,-11.371208,-3.1400735,3.2327535,-4.71843,-9.672074,8.814746,-9.33051,5.07798,1.770879,1.000713,8.136557,-2.3148077,12.462648,-37.541817,60.186817,-4.153356,8.474731,5.6907473,-4.914873,-8.922532,25.328157,67.72781,-15.912865,5.7402115,-2.8551188
109,-4.000363349914551,1.6230506896972656,78.78129577636719,-0.5980047444132851,-2.8047808718685077,-98.56555552145767,5.8587704,5.9329,12.652658,9.993503,-11.386592,-3.1578295,3.215862,-4.68209,-9.629062,8.813648,-9.339644,5.047668,1.7987303,1.032931,8.110737,-2.3349633,12.429563,-37.47554,60.07483,-4.0281744,8.486381,5.601603,-4.9036546,-8.92472,25.297523,67.65003,-15.871283,5.7291713,-2.8576558
110,-4.0238213539123535,1.6084537506103516,78.77975463867188,-0.6060146100376101,-2.7997168373711574,-98.63033600234196,5.883423,5.9682045,12.695948,9.997008,-11.418322,-3.1723235,3.2062373,-4.641084,-9.578704,8.815041,-9.3486595,5.013436,1.8238963,1.0774155,8.092271,-2.361022,12.387088,-37.390774,59.974037,-3.8749228,8.496212,5.4709663,-4.900498,-8.926776,25.271198,67.577995,-15.817419,5.718602,-2.8739128
111,-4.0462188720703125,1.59684157371521,78.77962493896484,-0.6134234109909944,-2.8078942695699443,-98.68772174173178,5.9200954,6.001925,12.733468,10.004904,-11.454925,-3.1814523,3.2138166,-4.602586,-9.534842,8.818,-9.3595085,4.9843726,1.8433627,1.121571,8.086051,-2.3743181,12.365937,-37.336494,59.855267,-3.7162626,8.502054,5.3217273,-4.8927817,-8.92739,25.245394,67.50262,-15.757121,5.707764,-2.8938966
112,-4.0745086669921875,1.583963394165039,78.779296875,-0.6214335291489567,-2.8339175348841166,-98.72222012957803,5.9672127,6.0311637,12.758355,10.023646,-11.490321,-3.1831956,3.2506042,-4.573153,-9.511774,8.818731,-9.372466,4.9698086,1.8279214,1.1701735,8.0986185,-2.4006724,12.327417,-37.296936,59.77561,-3.5290186,8.492268,5.169671,-4.8946886,-8.929233,25.22152,67.441216,-15.712703,5.693733,-2.901523
113,-4.097680568695068,1.5686208009719849,78.77902221679688,-0.6272300321190798,-2.8889856533990117,-98.72194558867639,6.032649,6.0542984,12.765099,10.059388,-11.52479,-3.1690433,3.334667,-4.557246,-9.521001,8.817537,-9.390318,4.9782996,1.7777966,1.2164096,8.136047,-2.424876,12.299155,-37.3263,59.712727,-3.339786,8.463386,5.0221815,-4.8897715,-8.931002,25.204012,67.38171,-15.67312,5.6792307,-2.9027853
114,-4.107656955718994,1.5596195459365845,78.77729797363281,-0.6314445231049532,-2.96771959377257,-98.6975088815185,6.1145334,6.073425,12.758566,10.1080885,-11.561826,-3.1426897,3.4552944,-4.5504246,-9.552355,8.815191,-9.411639,5.0028977,1.7107041,1.2662888,8.193521,-2.4598222,12.265237,-37.410557,59.67742,-3.1407845,8.420162,4.869997,-4.877989,-8.934963,25.176388,67.323494,-15.641288,5.663912,-2.9007885
115,-4.116281032562256,1.5102965831756592,78.77812957763672,-0.6357704929386389,-3.047414759172225,-98.66836220482568,6.1967535,6.0910897,12.747222,10.154999,-11.595297,-3.1205313,3.5785656,-4.544931,-9.587748,8.811583,-9.43229,5.0292296,1.6501606,1.3156745,8.2501335,-2.5110474,12.227712,-37.530247,59.66872,-2.9389384,8.369697,4.7144322,-4.8569417,-8.9411545,25.136904,67.26491,-15.614522,5.644136,-2.8868163
116,-4.127188682556152,1.4943628311157227,78.77680206298828,-0.6416450280487155,-3.105897998052698,-98.65263102227705,6.26406,6.1091995,12.73906,10.183603,-11.618036,-3.1191158,3.671471,-4.5337543,-9.609781,8.806605,-9.44844,5.042962,1.5918702,1.3598515,8.290099,-2.5514371,12.205048,-37.631706,59.64392,-2.7298388,8.323674,4.554267,-4.847873,-8.944975,25.109837,67.221176,-15.5867,5.616753,-2.8538706
117,-4.1390604972839355,1.4842772483825684,78.7740478515625,-0.6510686761804643,-3.1332243898729617,-98.65744570288228,6.3124657,6.128313,12.734872,10.180344,-11.6217785,-3.1526988,3.7209609,-4.5128455,-9.6123495,8.797848,-9.4575405,5.0393586,1.5648882,1.3981023,8.300008,-2.6058779,12.186968,-37.74076,59.629734,-2.5042405,8.2753525,4.3818703,-4.8333225,-8.946626,25.073557,67.18386,-15.562459,5.575907,-2.7966795
118,-4.152454376220703,1.4767482280731201,78.77326965332031,-0.6618597403850913,-3.142539180436439,-98.67197605229488,6.348256,6.147687,12.730367,10.160482,-11.614114,-3.2092056,3.746053,-4.486795,-9.605571,8.786274,-9.462193,5.0262785,1.5407813,1.4321601,8.2951765,-2.6591983,12.177533,-37.843224,59.61384,-2.2564332,8.222828,4.197131,-4.82596,-8.945289,25.043552,67.15939,-15.541304,5.5249143,-2.720249
119,-4.165170192718506,1.465981125831604,78.77228546142578,-0.6708585413714663,-3.1460813714907028,-98.68961029988868,6.3784137,6.165668,12.728335,10.137813,-11.605326,-3.2655494,3.7604399,-4.4617777,-9.594339,8.778409,-9.466947,5.0087185,1.5050882,1.4624486,8.288201,-2.7050657,12.175043,-37.926746,59.595734,-2.0225043,8.178356,4.0201664,-4.831342,-8.942843,25.028978,67.146675,-15.517306,5.4743805,-2.6316707
120,-4.176449298858643,1.4513697624206543,78.76925659179688,-0.6778766209814135,-3.1556413157708096,-98.70465696292102,6.409469,6.1803036,12.732576,10.126054,-11.605547,-3.298739,3.7783332,-4.4432764,-9.58292,8.778595,-9.475479,4.9911942,1.52514,1.4830785,8.273401,-2.783784,12.173995,-38.111946,59.619774,-1.8976123,8.154089,3.8879395,-4.804462,-8.934526,24.966255,67.124626,-15.488491,5.434287,-2.5432687
121,-4.189459323883057,1.4438865184783936,78.76771545410156,-0.6789969047296199,-3.1736032467330597,-98.7149759444999,6.436203,6.192199,12.744806,10.141479,-11.625068,-3.296995,3.7995858,-4.434179,-9.572121,8.793192,-9.489671,4.97136,1.5271819,1.4976338,8.268072,-2.8572779,12.1785,-38.283005,59.652832,-1.8659188,8.159767,3.790331,-4.7914386,-8.925923,24.917381,67.112816,-15.448408,5.406379,-2.4432704
122,-4.198164463043213,1.4376100301742554,78.76598358154297,-0.678067170845033,-3.194090630539171,-98.72423694241955,6.4606767,6.2006164,12.76355,10.165724,-11.652169,-3.2743824,3.817666,-4.431626,-9.559334,8.819398,-9.508348,4.9479394,1.5218681,1.5061774,8.263464,-2.9280527,12.188296,-38.454903,59.695374,-1.9052942,8.186955,3.719115,-4.7846026,-8.918434,24.88164,67.10879,-15.395468,5.3861203,-2.3320208
123,-4.19883918762207,1.419026255607605,78.76358032226562,-0.6752940899561697,-3.21625173151254,-98.733320822339,6.484259,6.2079654,12.783621,10.194637,-11.682222,-3.2469127,3.8376708,-4.4304056,-9.545763,8.843676,-9.526054,4.9274564,1.5153929,1.5118529,8.261906,-2.9958553,12.202974,-38.62669,59.739857,-1.9588372,8.220225,3.66977,-4.7785206,-8.9116335,24.852425,67.10465,-15.342221,5.3735094,-2.2250748
124,-4.201478481292725,1.4087896347045898,78.7615737915039,-0.6746184419669649,-3.23985798186748,-98.7431177333937,6.5136003,6.215275,12.80034,10.213064,-11.704208,-3.2304811,3.8628068,-4.4264693,-9.532495,8.858589,-9.541049,4.91647,1.4972372,1.5189481,8.266987,-3.0520878,12.218031,-38.77031,59.77652,-1.9571685,8.243288,3.6355698,-4.7804313,-8.906304,24.840576,67.10199,-15.297992,5.36855,-2.1378765
125,-4.208620071411133,1.4094257354736328,78.76110076904297,-0.6744034545844565,-3.264826884198234,-98.75692870796883,6.5486784,6.2235813,12.815243,10.222717,-11.718041,-3.2292206,3.895389,-4.4172893,-9.516138,8.8571,-9.550571,4.9201946,1.4613254,1.529197,8.285696,-3.097185,12.227441,-38.863274,59.80397,-1.840888,8.251144,3.6051283,-4.799784,-8.90333,24.851767,67.104355,-15.276679,5.3738375,-2.075125
126,-4.214978218078613,1.3952780961990356,78.76102447509766,-0.674678193457679,-3.290702217402911,-98.77326789260593,6.5867114,6.2318177,12.829698,10.227674,-11.727322,-3.2347226,3.9314344,-4.406062,-9.497246,8.846607,-9.557062,4.9339385,1.4651946,1.5312116,8.29543,-3.1466868,12.253219,-39.033318,59.83432,-1.7190001,8.254635,3.6011257,-4.7940636,-8.895142,24.856012,67.097885,-15.251048,5.389817,-2.036301
127,-4.222009181976318,1.3828917741775513,78.75782012939453,-0.6758465896411703,-3.3179213031669943,-98.78610176365008,6.6276464,6.239069,12.839579,10.2267475,-11.73283,-3.244021,3.9700165,-4.395477,-9.482769,8.836392,-9.564758,4.9494147,1.4721638,1.5270917,8.313901,-3.1817093,12.305302,-39.1939,59.83726,-1.6125485,8.258721,3.620408,-4.789724,-8.879727,24.836273,67.08749,-15.240215,5.407536,-2.005515
128,-4.22422456741333,1.3774299621582031,78.75591278076172,-0.6783208267323482,-3.3463213370643228,-98.78928090879782,6.66588,6.246012,12.839703,10.23003,-11.741613,-3.2541218,4.0120854,-4.3868513,-9.480121,8.828669,-9.573489,4.9582777,1.4455727,1.5301926,8.3311615,-3.2029347,12.346302,-39.300087,59.846107,-1.5762143,8.263644,3.6782095,-4.7957997,-8.868953,24.8262,67.08237,-15.217884,5.422913,-1.9761593
129,-4.221428394317627,1.3632769584655762,78.75402069091797,-0.6843096295562379,-3.3768548041305526,-98.7787109419751,6.7037067,6.252397,12.826463,10.233484,-11.751531,-3.2667124,4.0600576,-4.381536,-9.495184,8.825683,-9.585553,4.9596334,1.4051739,1.5413874,8.340263,-3.2191927,12.375725,-39.37778,59.869946,-1.6974351,8.265527,3.8156738,-4.7977457,-8.863314,24.799547,67.07866,-15.184597,5.433914,-1.9446871
130,-4.225012302398682,1.3647290468215942,78.75370788574219,-0.6921131613947835,-3.4090497318299935,-98.75781640068665,6.739209,6.259053,12.8022995,10.241527,-11.764288,-3.2826004,4.1128783,-4.3778644,-9.523431,8.825499,-9.60039,4.9573584,1.364491,1.55609,8.344603,-3.230361,12.408015,-39.449326,59.897827,-1.9279072,8.263219,4.0138783,-4.791386,-8.859571,24.74935,67.0715,-15.1482725,5.443175,-1.9152045
131,-4.222996234893799,1.3512624502182007,78.75210571289062,-0.6997472760044889,-3.441013553842798,-98.73476675867441,6.7751284,6.263665,12.775745,10.245258,-11.775296,-3.2973785,4.162629,-4.3758426,-9.553146,8.829772,-9.615524,4.950723,1.33288,1.5695958,8.352472,-3.241176,12.443859,-39.534245,59.921417,-2.1465325,8.270942,4.204564,-4.7726526,-8.858453,24.676634,67.04713,-15.111607,5.4524746,-1.894458
132,-4.224149703979492,1.3478305339813232,78.75086975097656,-0.7061359280986903,-3.470422784057684,-98.71448396321895,6.805941,6.266486,12.751074,10.250993,-11.787249,-3.3067153,4.203011,-4.375014,-9.576127,8.84005,-9.629857,4.938846,1.296194,1.5784806,8.367171,-3.2543552,12.479036,-39.627083,59.951485,-2.2189097,8.294078,4.314226,-4.7561183,-8.8590555,24.604364,67.01355,-15.068771,5.4627457,-1.8881587
133,-4.227187156677246,1.354892611503601,78.74854278564453,-0.710085782407221,-3.4952722072846547,-98.69958593561887,6.8290873,6.2673683,12.729664,10.258784,-11.800317,-3.3081841,4.2282944,-4.374497,-9.587837,8.858854,-9.641386,4.916258,1.2614895,1.5802569,8.389669,-3.2747223,12.519285,-39.75183,59.98799,-2.06188,8.345747,4.292081,-4.7375174,-8.860027,24.529041,66.963264,-15.025131,5.474377,-1.9040645
134,-4.2179365158081055,1.3488832712173462,78.74651336669922,-0.712563691480826,-3.5172396217177266,-98.68659779767184,6.8453364,6.2670465,12.708334,10.271542,-11.816268,-3.3043888,4.2420783,-4.375126,-9.593855,8.887297,-9.652535,4.885282,1.1703222,1.5848022,8.415138,-3.2865791,12.529298,-39.81161,60.05135,-1.7244836,8.413582,4.1824985,-4.7541313,-8.860309,24.510363,66.93441,-14.968344,5.4889417,-1.9402833
135,-4.220419406890869,1.3484712839126587,78.7451171875,-0.7146801815783572,-3.5393218731350267,-98.67307790594886,6.8622303,6.264665,12.687531,10.281004,-11.83028,-3.2991102,4.255013,-4.377192,-9.5992775,8.915856,-9.66397,4.8562455,1.1870061,1.5736042,8.445652,-3.327177,12.587785,-40.029453,60.09179,-1.4431076,8.488621,4.079161,-4.701073,-8.86183,24.363977,66.84366,-14.921719,5.499816,-1.9763811
136,-4.221242904663086,1.3451240062713623,78.74517822265625,-0.7154191191389185,-3.565864199498169,-98.6571495737462,6.8851314,6.2610283,12.667315,10.287726,-11.842628,-3.2958572,4.278489,-4.3806233,-9.609393,8.935598,-9.676028,4.839802,1.1494902,1.5655698,8.485656,-3.340662,12.627257,-40.143307,60.12269,-1.2596534,8.545365,4.047586,-4.681829,-8.862472,24.264128,66.77542,-14.845209,5.5124955,-2.003825
137,-4.214529991149902,1.3498729467391968,78.74520111083984,-0.7159071095739432,-3.597947740684309,-98.63921091687155,6.9161954,6.2556014,12.648987,10.291068,-11.853271,-3.295432,4.3195047,-4.384821,-9.624698,8.936902,-9.687855,4.844221,1.109274,1.5566745,8.534084,-3.3458147,12.658284,-40.219906,60.14579,-1.2500983,8.576881,4.130088,-4.6697526,-8.862595,24.152782,66.71466,-14.736101,5.5248013,-2.0205958
138,-4.210120677947998,1.348268747329712,78.74552154541016,-0.7148162912836302,-3.6336356179711005,-98.62081799531911,6.9523296,6.248424,12.632691,10.29224,-11.862793,-3.2961102,4.369576,-4.3904414,-9.642036,8.929035,-9.700188,4.862077,1.0919677,1.5428206,8.594078,-3.3524075,12.695885,-40.301483,60.154068,-1.3466579,8.59716,4.279328,-4.642411,-8.862551,23.998825,66.63376,-14.614685,5.5379014,-2.0310583
139,-4.207327365875244,1.348900556564331,78.74577331542969,-0.7139626719672235,-3.671082030963582,-98.59862272387187,6.989187,6.24095,12.614388,10.292611,-11.870865,-3.2972965,4.4212465,-4.397115,-9.663612,8.922339,-9.713013,4.88001,1.0838819,1.5246801,8.660511,-3.352418,12.748571,-40.39009,60.141903,-1.5034828,8.6154785,4.448424,-4.6086297,-8.861424,23.823936,66.54507,-14.4909935,5.545948,-2.0333755
140,-4.2071638107299805,1.3626182079315186,78.74481964111328,-0.7142186804051214,-3.702423134561762,-98.57419812492341,7.0147686,6.235975,12.5943775,10.299147,-11.879694,-3.2985704,4.4584765,-4.404124,-9.687098,8.929034,-9.725363,4.884398,0.99064374,1.5181665,8.693309,-3.3285003,12.753389,-40.39075,60.17285,-1.6402004,8.635583,4.579369,-4.607295,-8.86089,23.792131,66.50888,-14.3278885,5.5499744,-2.044718
141,-4.201879978179932,1.3590073585510254,78.74370574951172,-0.7174213482692738,-3.74422829574437,-98.53395245031255,7.044418,6.2337976,12.560965,10.310321,-11.8868265,-3.3012083,4.5054607,-4.4121957,-9.727743,8.942964,-9.734305,4.866597,0.99939066,1.4971913,8.776447,-3.3457944,12.802751,-40.524036,60.15891,-1.8409884,8.681999,4.7158,-4.553585,-8.85566,23.558203,66.39546,-14.256526,5.5370975,-2.0216136
142,-4.193859577178955,1.3578294515609741,78.74186706542969,-0.7216825083356472,-3.780052824388981,-98.49174151004982,7.063136,6.23442,12.527649,10.325877,-11.892639,-3.3050196,4.536298,-4.4209437,-9.77091,8.972549,-9.743398,4.8347254,0.89334357,1.4874171,8.823669,-3.3198016,12.809156,-40.539093,60.17576,-2.047575,8.729167,4.8301873,-4.543527,-8.854364,23.514196,66.34062,-14.118743,5.520811,-2.0110843
143,-4.19414758682251,1.3675751686096191,78.73767852783203,-0.7258601749260323,-3.817810701267852,-98.44549740038723,7.083235,6.2333784,12.489175,10.341379,-11.899698,-3.3070855,4.570107,-4.430795,-9.816436,9.003089,-9.754105,4.803894,0.918913,1.4624583,8.891409,-3.3353744,12.86998,-40.702965,60.157524,-2.291231,8.781948,4.9324155,-4.4698462,-8.842327,23.271528,66.23014,-14.058359,5.4950185,-1.9793015
144,-4.190325736999512,1.369905948638916,78.73458862304688,-0.7269972713152975,-3.8563743766086933,-98.39970246585946,7.1055074,6.2278943,12.446759,10.357023,-11.912821,-3.3042843,4.611864,-4.441311,-9.85686,9.022037,-9.766342,4.7889814,0.8723401,1.4440674,8.946602,-3.3128448,12.907643,-40.762413,60.14906,-2.4615355,8.812278,5.000845,-4.435481,-8.832613,23.14021,66.16902,-13.958647,5.47842,-1.9548222
145,-4.184988975524902,1.3724528551101685,78.73355102539062,-0.724791671044654,-3.905649983476254,-98.35127703248935,7.141957,6.2148438,12.394197,10.37368,-11.938673,-3.2906184,4.679298,-4.453304,-9.892371,9.021377,-9.781466,4.8022842,0.802536,1.4316967,9.001374,-3.2754302,12.925051,-40.77823,60.157562,-2.5210927,8.812084,5.007854,-4.4133387,-8.827053,23.045147,66.137794,-13.846253,5.4685907,-1.9306929
146,-4.184852600097656,1.3788261413574219,78.73248291015625,-0.7203950283365825,-3.9626085447114914,-98.29951273446505,7.188801,6.1959505,12.3335085,10.38939,-11.972522,-3.269433,4.7619486,-4.467648,-9.925642,9.01318,-9.801193,4.833218,0.77390975,1.4128135,9.069253,-3.2460854,12.963127,-40.822372,60.153915,-2.5213156,8.795504,4.965172,-4.380629,-8.813133,22.880892,66.107925,-13.764975,5.456454,-1.8964099
147,-4.1798810958862305,1.3806228637695312,78.73387145996094,-0.7145813710702039,-4.00770090147018,-98.2511710457041,7.222942,6.1770883,12.276038,10.402517,-12.001385,-3.2517648,4.831205,-4.4812427,-9.955577,9.001866,-9.818235,4.8621745,0.7147704,1.3987633,9.113919,-3.19961,12.98068,-40.819935,60.164146,-2.544983,8.774912,4.9409957,-4.3597274,-8.8051815,22.781382,66.098526,-13.655247,5.452927,-1.868236
148,-4.175759792327881,1.3847706317901611,78.7337646484375,-0.7110906445832825,-4.023380287357541,-98.21422088405015,7.22781,6.162873,12.235018,10.403869,-12.009594,-3.2486699,4.857616,-4.492458,-9.979448,8.99765,-9.829024,4.8695874,0.6925635,1.3815284,9.138747,-3.1674852,13.00341,-40.821243,60.167637,-2.6864262,8.773924,4.990136,-4.3303647,-8.792468,22.643173,66.07832,-13.566817,5.4543056,-1.8385415
149,-4.1668782234191895,1.3819241523742676,78.7347640991211,-0.7096344767560284,-3.992251952902962,-98.19366842544497,7.1859307,6.1554937,12.219069,10.385487,-11.984132,-3.2687228,4.8138523,-4.500418,-9.994663,9.009258,-9.832263,4.8415093,0.7061729,1.3553401,9.117851,-3.1436331,13.035415,-40.824905,60.1676,-3.0601134,8.796746,5.176986,-4.293304,-8.770342,22.485968,66.05356,-13.475643,5.4677515,-1.8132064
150,-4.165892124176025,1.3800657987594604,78.73664855957031,-0.7083343704053531,-3.927576589568498,-98.1842186795278,7.108259,6.1534305,12.2190695,10.3587,-11.938832,-3.3042395,4.7229714,-4.5052824,-10.003527,9.027877,-9.829778,4.79113,0.71116585,1.3322672,9.055911,-3.1111062,13.051919,-40.794304,60.177155,-3.5833185,8.828627,5.4578524,-4.254773,-8.755938,22.376238,66.031746,-13.353914,5.49288,-1.7950109
151,-4.154665946960449,1.3715007305145264,78.7370834350586,-0.7068285367447045,-3.858026356739634,-98.17764981441528,7.0286894,6.1502357,12.221848,10.324202,-11.887705,-3.341409,4.625444,-4.5107217,-10.010752,9.046737,-9.82637,4.7398977,0.7608568,1.2967168,9.001964,-3.0935278,13.0928,-40.790047,60.170364,-4.0761847,8.867643,5.721378,-4.222928,-8.715666,22.19308,66.02062,-13.28492,5.5151925,-1.7728761
152,-4.162814140319824,1.4198968410491943,78.73302459716797,-0.7050765711956457,-3.8093416116445646,-98.16273218705106,6.968437,6.1430774,12.210504,10.301969,-11.854174,-3.3664045,4.5602875,-4.51881,-10.024175,9.057048,-9.825873,4.709378,0.7642251,1.2751995,8.959838,-3.061183,13.110425,-40.766666,60.17846,-4.3696737,8.899839,5.8773932,-4.1966004,-8.695707,22.087364,66.0123,-13.202648,5.539381,-1.7556305
153,-4.157251358032227,1.3941677808761597,78.7361831665039,-0.7004855232883772,-3.7913317231300234,-98.13696734812933,6.9435086,6.1279473,12.18025,10.284377,-11.839268,-3.377105,4.5428753,-4.5311623,-10.044671,9.055187,-9.830348,4.7088294,0.76648873,1.2530953,8.952021,-3.034853,13.134222,-40.7734,60.190254,-4.363422,8.934107,5.864687,-4.184972,-8.6656685,21.965475,66.02099,-13.164276,5.559058,-1.7362151
154,-4.151094436645508,1.4249926805496216,78.73329162597656,-0.6973548341493022,-3.788937207049022,-98.1058363628475,6.935002,6.108644,12.139457,10.272207,-11.835936,-3.380456,4.5503726,-4.5456424,-10.069118,9.045517,-9.837013,4.725464,0.76387703,1.2325207,8.957925,-3.008173,13.158135,-40.797718,60.206173,-4.172585,8.9719925,5.749377,-4.180385,-8.630956,21.85212,66.04099,-13.145967,5.5786333,-1.7184488
155,-4.143476963043213,1.4382590055465698,78.73239135742188,-0.6917461483256608,-3.7920355459478334,-98.07132094965489,6.9304047,6.087916,12.09428,10.265757,-11.83877,-3.3759668,4.5668335,-4.561787,-10.096834,9.033262,-9.843437,4.748384,0.73950285,1.2214086,8.967732,-2.972315,13.167816,-40.79755,60.22416,-3.929514,9.002951,5.6067986,-4.1740723,-8.613843,21.781275,66.05296,-13.119323,5.598653,-1.7037809
156,-4.136331558227539,1.440299153327942,78.73231506347656,-0.6863124242308298,-3.7921144449671504,-98.03739316945172,6.9181876,6.0682793,12.052488,10.265497,-11.842588,-3.363259,4.5758333,-4.579112,-10.125952,9.027157,-9.849499,4.7662587,0.73085207,1.2104083,8.978151,-2.9405584,13.175725,-40.780952,60.23564,-3.7710748,9.023497,5.5080557,-4.1703362,-8.596695,21.69299,66.06881,-13.106996,5.6106567,-1.6921111
157,-4.130558490753174,1.4422258138656616,78.73268127441406,-0.6795809448909482,-3.7898076058780146,-98.00312498116531,6.896751,6.049543,12.014048,10.276753,-11.8515215,-3.3334389,4.5785303,-4.5985737,-10.158736,9.025958,-9.853879,4.7785454,0.724802,1.2006689,8.985006,-2.897571,13.181033,-40.72874,60.233303,-3.7349107,9.025626,5.474486,-4.1627045,-8.582112,21.612549,66.08223,-13.0885105,5.6162987,-1.6882428
158,-4.123738765716553,1.4509620666503906,78.73527526855469,-0.6709941895795082,-3.7890259036276634,-97.96790047388149,6.871283,6.0310388,11.97596,10.29898,-11.867187,-3.2897377,4.581156,-4.6200047,-10.194797,9.028718,-9.858761,4.790281,0.714995,1.1889187,8.997773,-2.8463168,13.187555,-40.63495,60.218544,-3.7362926,9.015289,5.4624853,-4.1665435,-8.561336,21.532299,66.105125,-13.081741,5.6162024,-1.6892525
159,-4.11836051940918,1.4563544988632202,78.73795318603516,-0.664144700062231,-3.7841770731309863,-97.93133084601958,6.841925,6.0125933,11.938699,10.3175535,-11.8779745,-3.2496274,4.5776935,-4.6413226,-10.231346,9.033492,-9.862153,4.7991986,0.7041878,1.1810704,9.003079,-2.7932456,13.19046,-40.546215,60.20261,-3.7764106,9.003364,5.468047,-4.1675234,-8.5495,21.477718,66.125,-13.065027,5.6148844,-1.695501
160,-4.112849235534668,1.4595636129379272,78.7393569946289,-0.6595596201321121,-3.7696641985703763,-97.89340378854061,6.8063426,5.9961905,11.902451,10.323609,-11.875101,-3.2308912,4.5649548,-4.6592507,-10.265986,9.032666,-9.8587885,4.802797,0.688536,1.1727376,9.006558,-2.7518194,13.193878,-40.457317,60.191742,-3.8192558,9.000951,5.474458,-4.1779003,-8.534493,21.43602,66.14182,-13.055804,5.616007,-1.7020985
161,-4.1094279289245605,1.4675955772399902,78.7406005859375,-0.6583810578028804,-3.740010810294342,-97.85322080233365,6.7631655,5.9809136,11.868503,10.305599,-11.847612,-3.2459457,4.5325017,-4.674062,-10.295841,9.035254,-9.85219,4.8000746,0.68622893,1.1669787,8.993426,-2.7315412,13.194965,-40.423508,60.197342,-3.902579,9.014511,5.4960766,-4.1745305,-8.528901,21.415503,66.13938,-13.034859,5.622448,-1.7131888
162,-4.101332187652588,1.4767229557037354,78.7387924194336,-0.6599987442023817,-3.6998355766911475,-97.81112701960721,6.7131114,5.967717,11.836182,10.273783,-11.804577,-3.2830086,4.4898987,-4.6854296,-10.323328,9.032125,-9.838511,4.7923007,0.68780804,1.1611116,8.977695,-2.725725,13.196361,-40.394264,60.20804,-4.0050893,9.037349,5.5274696,-4.175236,-8.521851,21.396906,66.12972,-13.024321,5.6304536,-1.7252163
163,-4.08636999130249,1.4824588298797607,78.7397232055664,-0.6631861618448145,-3.658537026759093,-97.76902127042486,6.661881,5.956196,11.803245,10.241473,-11.761351,-3.3224406,4.446142,-4.6953425,-10.3522215,9.028145,-9.823149,4.7810736,0.6944969,1.1583709,8.958777,-2.7243855,13.196812,-40.385212,60.22208,-4.115546,9.058705,5.55821,-4.1751633,-8.519386,21.390636,66.12006,-13.011169,5.6371417,-1.7390826
164,-4.07465934753418,1.490034580230713,78.74162292480469,-0.6665410791996942,-3.622784098409397,-97.72858949392929,6.6130953,5.944889,11.767611,10.218923,-11.730937,-3.3443384,4.40706,-4.7064323,-10.3863535,9.028839,-9.811487,4.7679067,0.7020517,1.1566743,8.945468,-2.7223878,13.196963,-40.378304,60.233948,-4.204987,9.07066,5.572998,-4.175406,-8.517856,21.38629,66.11156,-13.003686,5.640715,-1.7504623
165,-4.064212799072266,1.496566653251648,78.74422454833984,-0.6679210103637049,-3.5940658686788174,-97.69040136989864,6.565924,5.934447,11.728843,10.212923,-11.719747,-3.3424432,4.372633,-4.719882,-10.429866,9.039566,-9.807853,4.746085,0.70872337,1.1532472,8.93625,-2.7187996,13.197077,-40.374306,60.247128,-4.2808356,9.06924,5.5711203,-4.1781783,-8.515574,21.386833,66.108574,-12.998044,5.6413007,-1.7579694
166,-4.056296348571777,1.5032545328140259,78.74547576904297,-0.6695026916448708,-3.568215114164964,-97.65355567283466,6.51438,5.9266777,11.68744,10.224346,-11.723483,-3.3277814,4.337638,-4.733903,-10.479815,9.05963,-9.810135,4.7170677,0.71373665,1.1500176,8.923803,-2.7128103,13.196924,-40.37929,60.26459,-4.3541174,9.057679,5.5593905,-4.1874776,-8.512332,21.401623,66.118744,-12.988492,5.6387873,-1.7644788
167,-4.054643154144287,1.5087252855300903,78.74710845947266,-0.6720591683549288,-3.545226629304968,-97.61642897938846,6.465762,5.91889,11.643457,10.23657,-11.730987,-3.3063047,4.310111,-4.746275,-10.529979,9.070748,-9.807388,4.6947865,0.7179591,1.1516466,8.917616,-2.7057636,13.196418,-40.384125,60.274353,-4.398908,9.043104,5.533781,-4.1985154,-8.510296,21.420612,66.12865,-12.9874325,5.6333404,-1.773132
168,-4.048245906829834,1.5181570053100586,78.74916076660156,-0.6749059107750152,-3.521686574573536,-97.577109208272,6.4174376,5.9088035,11.595593,10.244917,-11.736356,-3.2836895,4.2877264,-4.756853,-10.574528,9.067892,-9.795018,4.693332,0.7209106,1.1614599,8.92153,-2.7018163,13.195538,-40.38218,60.27012,-4.3929367,9.031144,5.488384,-4.2122107,-8.510011,21.43269,66.13418,-13.010074,5.6231804,-1.7844775
169,-4.036083698272705,1.5322847366333008,78.75292205810547,-0.6808758059557066,-3.5055229124346785,-97.53116541876851,6.373341,5.8989663,11.537723,10.260332,-11.748363,-3.2562857,4.284101,-4.762341,-10.613188,9.04308,-9.768108,4.726673,0.70569175,1.1914022,8.949721,-2.6945071,13.193713,-40.36314,60.235134,-4.277632,9.019677,5.391632,-4.2497835,-8.511895,21.448242,66.15154,-13.058777,5.6086593,-1.8005999
170,-4.019723892211914,1.555199384689331,78.75635528564453,-0.6865081780670474,-3.496622378678647,-97.4820588820069,6.3380404,5.886622,11.474017,10.273303,-11.762366,-3.222518,4.294553,-4.7662005,-10.647285,9.005748,-9.732674,4.784225,0.68695813,1.2318267,8.994257,-2.68689,13.192232,-40.344513,60.180542,-4.084473,9.00714,5.257539,-4.290765,-8.5141115,21.458862,66.166794,-13.132433,5.591033,-1.8190509
171,-4.008213520050049,1.5408068895339966,78.76425170898438,-0.6942646218954389,-3.4738091660725083,-97.43309391588015,6.2831326,5.876363,11.409346,10.291719,-11.7747755,-3.1925569,4.295702,-4.766916,-10.681382,8.952662,-9.687527,4.841459,0.64038706,1.2806243,9.040091,-2.6696274,13.185638,-40.26285,60.112743,-3.8958743,8.997311,5.138533,-4.369646,-8.525601,21.490541,66.205536,-13.213166,5.5635777,-1.8349936
172,-3.9993345737457275,1.5562947988510132,78.7711181640625,-0.697880897412341,-3.4158217437847918,-97.39128266200775,6.1971445,5.860469,11.35475,10.288254,-11.763738,-3.1751788,4.2467303,-4.7747126,-10.714229,8.915927,-9.649797,4.87527,0.6057513,1.3077124,9.038174,-2.6603665,13.174338,-40.17581,60.08619,-3.8503957,8.993696,5.105111,-4.4089704,-8.544434,21.541098,66.2113,-13.273821,5.530531,-1.8525137
173,-3.986903667449951,1.5746619701385498,78.7793197631836,-0.6969473264927956,-3.3127264437395016,-97.3559417986252,6.0712953,5.8410645,11.311435,10.256463,-11.719989,-3.1804588,4.140218,-4.7876797,-10.749299,8.8895,-9.617509,4.87461,0.6502281,1.2951618,8.964692,-2.6870086,13.171745,-40.162926,60.126507,-4.06312,9.007298,5.2173204,-4.3913784,-8.5482,21.551294,66.194374,-13.323626,5.4845815,-1.8704304
174,-3.9733517169952393,1.5856715440750122,78.78579711914062,-0.6951299352881865,-3.1768454674280675,-97.32446071701654,5.912967,5.820083,11.274444,10.210241,-11.655806,-3.200865,3.99108,-4.8036656,-10.785331,8.872467,-9.589905,4.8532867,0.7207473,1.2624061,8.846409,-2.731298,13.166276,-40.16026,60.208687,-4.432121,9.031059,5.424067,-4.345698,-8.553156,21.565252,66.16147,-13.3625345,5.42883,-1.8883547
175,-3.9633541107177734,1.6003168821334839,78.79363250732422,-0.69056036593923,-3.02134420122545,-97.29941558592978,5.7357426,5.796108,11.243149,10.156474,-11.584683,-3.2199774,3.8158908,-4.8217874,-10.81709,8.856623,-9.56043,4.8245177,0.8013336,1.2233601,8.709532,-2.783691,13.16055,-40.16598,60.30619,-4.8236566,9.048862,5.638986,-4.2847915,-8.554782,21.56406,66.11605,-13.4017315,5.370085,-1.9139802
176,-3.9532277584075928,1.6177012920379639,78.80235290527344,-0.6816996150159228,-2.8601576084216482,-97.28264134039061,5.550793,5.768822,11.216157,10.108233,-11.5233135,-3.2215261,3.631796,-4.84123,-10.840155,8.836248,-9.524454,4.8016014,0.85672927,1.1995956,8.587527,-2.8195705,13.156407,-40.1511,60.3697,-5.0917277,9.050338,5.772878,-4.2555523,-8.554335,21.540161,66.09328,-13.457749,5.3097296,-1.9526609
177,-3.9451074600219727,1.6379995346069336,78.81108856201172,-0.6665531026021485,-2.6895497112132936,-97.276564489641,5.351169,5.735405,11.192766,10.06964,-11.4733,-3.194213,3.427615,-4.8646746,-10.85219,8.820711,-9.481083,4.782566,0.8850286,1.1952516,8.48073,-2.8386495,13.151928,-40.105343,60.393867,-5.1754985,9.03156,5.7826056,-4.255764,-8.553192,21.494247,66.09019,-13.540396,5.247364,-2.005441
178,-3.936797857284546,1.671494722366333,78.82103729248047,-0.6489249944664292,-2.505229410399857,-97.27942924227733,5.13468,5.6972513,11.173614,10.033704,-11.426651,-3.1490679,3.2022994,-4.8910007,-10.856057,8.804822,-9.430499,4.7626157,0.8940831,1.20249,8.382549,-2.8498633,13.146159,-40.018383,60.394833,-5.141149,8.999885,5.715855,-4.2840667,-8.551322,21.42018,66.10472,-13.6546135,5.1793175,-2.0641856
179,-3.925307512283325,1.6865136623382568,78.83271789550781,-0.6258332213698924,-2.3181344741172802,-97.28783269472547,4.9202065,5.655898,11.161133,9.991064,-11.383012,-3.103049,2.97382,-4.9186926,-10.853359,8.785357,-9.381086,4.7509227,0.8781497,1.2144936,8.303704,-2.857326,13.134704,-39.89677,60.384502,-5.0636005,8.959246,5.6300297,-4.336475,-8.546681,21.322163,66.12266,-13.774937,5.1129885,-2.1319883
180,-3.9254777431488037,1.7062591314315796,78.84032440185547,-0.5987573598744602,-2.139452216406992,-97.29789787230366,4.727488,5.61317,11.157299,9.929654,-11.339761,-3.0733023,2.7656064,-4.945372,-10.846405,8.748699,-9.3362255,4.755929,0.844556,1.2211947,8.231158,-2.8598228,13.128021,-39.81582,60.382305,-5.0587254,8.911332,5.5903153,-4.383265,-8.543618,21.235987,66.126114,-13.84786,5.056922,-2.2178345
181,-3.9296586513519287,1.7217533588409424,78.84026336669922,-0.5423602288338019,-1.9707595733449066,-97.31622766602565,4.5741467,5.540691,11.175956,9.818224,-11.278805,-3.0579388,2.3339791,-5.045431,-10.800745,9.2197695,-9.572627,4.7855997,0.80151427,1.2032559,8.186521,-2.8713393,13.119097,-39.75132,60.38654,-5.14016,8.8552685,5.6126065,-4.4405923,-8.538497,21.1142,66.1126,-13.9134865,5.013409,-2.313541
182,-3.9321582317352295,1.7425764799118042,78.83719635009766,-0.4809694299656613,-1.810746575926407,-97.33728920304776,4.440654,5.4651284,11.204326,9.691429,-11.217047,-3.0526252,1.8877165,-5.1527653,-10.744878,9.746525,-9.849058,4.8296623,0.74683714,1.1846092,8.158143,-2.8819277,13.112551,-39.72372,60.390568,-5.2829266,8.789908,5.672225,-4.495188,-8.533951,20.980854,66.08219,-13.957249,4.9808164,-2.4251976
183,-3.9433765411376953,1.7678247690200806,78.83306121826172,-0.41877594885812514,-1.6485430009421962,-97.3596013663558,4.3127418,5.39063,11.235698,9.552872,-11.161508,-3.0590618,1.4509288,-5.2565856,-10.68891,10.251455,-10.122461,4.883984,0.6899791,1.161026,8.129575,-2.8951423,13.10947,-39.71803,60.400772,-5.4260263,8.721947,5.735865,-4.539093,-8.530505,20.826332,66.03402,-13.962471,4.949352,-2.5497954
184,-3.960355281829834,1.792841911315918,78.82766723632812,-0.3511825372490573,-1.4716959337834459,-97.383177491949,4.1818047,5.3110967,11.266875,9.392769,-11.112757,-3.0778825,1.0053302,-5.3625627,-10.636813,10.74651,-10.401063,4.945473,0.65657145,1.1205372,8.082341,-2.9224284,13.109848,-39.74276,60.429085,-5.5178432,8.658872,5.7734914,-4.5520964,-8.525423,20.629326,65.958565,-13.911988,4.9094644,-2.6847897
185,-3.9824631214141846,1.800893783569336,78.8243408203125,-0.2739695817746356,-1.262922743300705,-97.41168525540036,4.027532,5.222009,11.3030405,9.207715,-11.06093,-3.1033878,0.5202402,-5.47922,-10.590203,11.251286,-10.695823,5.015294,0.6489611,1.0521646,7.995797,-2.9637802,13.115574,-39.801296,60.4802,-5.5159125,8.606399,5.7669783,-4.530939,-8.515617,20.399101,65.85002,-13.797605,4.8587093,-2.8426907
186,-3.9994542598724365,1.835293173789978,78.8106918334961,-0.19185474691995108,-1.033684925209476,-97.44368976828676,3.8606305,5.128484,11.343845,9.003971,-11.009559,-3.1373024,0.009616783,-5.6011915,-10.545696,11.7637005,-11.005026,5.092694,0.62868655,0.9679954,7.8848186,-2.9989972,13.123977,-39.856197,60.53991,-5.448111,8.558769,5.7348185,-4.498993,-8.504895,20.177042,65.72388,-13.618469,4.8030906,-3.0223036
187,-4.022447109222412,1.8431164026260376,78.80284881591797,-0.1133857791612303,-0.8144889579532096,-97.4721384750028,3.7185073,5.0388374,11.377706,8.785098,-10.97774,-3.191728,-0.48213103,-5.714329,-10.50191,12.271431,-11.316891,5.1747146,0.6438736,0.8793649,7.7833304,-3.0538456,13.140391,-39.960625,60.612545,-5.400567,8.508768,5.7057743,-4.4366117,-8.486032,19.879622,65.57942,-13.403906,4.741604,-3.196691
188,-4.055660724639893,1.8494071960449219,78.79414367675781,-0.04736694312559385,-0.6352854897857584,-97.48973385820607,3.6362135,4.9614305,11.3925295,8.556644,-10.984859,-3.2785683,-0.91128135,-5.8056707,-10.457482,12.762098,-11.619472,5.258516,0.63917834,0.80722785,7.718367,-3.0927048,13.160564,-40.04872,60.674965,-5.4311037,8.446131,5.707005,-4.3703732,-8.466534,19.569553,65.447754,-13.130947,4.6797023,-3.3479333
189,-4.08852481842041,1.8486114740371704,78.7815933227539,-0.0017999377128177427,-0.5132478814151175,-97.48879658292722,3.6333163,4.901908,11.373305,8.316551,-11.026329,-3.4202554,-1.2471697,-5.86611,-10.416245,13.216959,-11.903267,5.36151,0.6008712,0.76492935,7.7045555,-3.110812,13.178316,-40.11079,60.726826,-5.5820446,8.361567,5.7555046,-4.300952,-8.454179,19.25482,65.30792,-12.784538,4.643536,-3.448396
190,-4.124516487121582,1.8493095636367798,78.76312255859375,0.028743290377641176,-0.42865617479683754,-97.4754437676218,3.6894712,4.854345,11.33113,8.058075,-11.092227,-3.6041117,-1.5214101,-5.9064484,-10.377574,13.65051,-12.177395,5.479354,0.59037757,0.7361217,7.7274485,-3.1409955,13.204607,-40.21965,60.778946,-5.825108,8.263392,5.8342338,-4.1997213,-8.442289,18.860617,65.13791,-12.393432,4.620212,-3.5111024
191,-4.15854024887085,1.844566822052002,78.74483489990234,0.05804901740482019,-0.35646224755962685,-97.46317342819418,3.7707624,4.812211,11.292375,7.7969604,-11.2036495,-3.7898674,-1.7854402,-5.9415298,-10.334089,14.103152,-12.461497,5.5768685,0.5491066,0.7133495,7.7619257,-3.1506314,13.227312,-40.282497,60.82475,-6.065644,8.164073,5.914633,-4.1022415,-8.435761,18.486216,65.00639,-11.948691,4.5631094,-3.5899055
192,-4.203085422515869,1.7794512510299683,78.73635864257812,0.09993396760170592,-0.2719025402702874,-97.46575348257609,3.8499887,4.766491,11.283909,7.537031,-11.375772,-3.9373362,-2.0918262,-5.9864473,-10.277511,14.618264,-12.776076,5.61868,0.5188936,0.6794042,7.791041,-3.1580215,13.254051,-40.327972,60.86647,-6.241795,8.080221,5.9709635,-3.9964242,-8.426994,18.092209,64.94595,-11.487085,4.4188604,-3.7272213
193,-4.264104843139648,1.7491141557693481,78.72257232666016,0.16069750361797633,-0.1693894997420116,-97.49153247939691,3.921116,4.71162,11.318018,7.2828374,-11.633812,-4.0272107,-2.4579968,-6.0488534,-10.205463,15.21255,-13.12987,5.5872,0.47121572,0.6284739,7.8098383,-3.1462822,13.279752,-40.313816,60.89947,-6.323245,8.009615,6.002282,-3.9082098,-8.412906,17.731937,65.00263,-10.984433,4.140749,-3.956471
194,-4.318435192108154,1.7674946784973145,78.6919174194336,0.23350456761368885,-0.06148574748784487,-97.53165747237634,3.9766243,4.6561294,11.3771305,7.077624,-11.987061,-4.08447,-2.8567462,-6.120705,-10.120987,15.864174,-13.511719,5.5039654,0.40801388,0.56704587,7.8268476,-3.1200252,13.302865,-40.25522,60.92928,-6.3517885,7.946283,6.0213556,-3.8305786,-8.394474,17.390734,65.14579,-10.438711,3.765845,-4.2448754
195,-4.381359577178955,1.7430715560913086,78.66706085205078,0.31001043702789566,0.0488980380393864,-97.57384995890762,3.938394,4.6229334,11.438717,7.087394,-12.482255,-4.135778,-3.2570062,-6.1884885,-10.026279,16.521452,-13.901192,5.3930316,0.35384575,0.49704847,7.8416777,-3.093672,13.335748,-40.187996,60.959072,-6.3507133,7.898968,6.020031,-3.7410643,-8.361085,17.009203,65.328156,-9.897301,3.3703606,-4.5456557
196,-4.450516223907471,1.6409454345703125,78.658447265625,0.38195659107148383,0.15884923284090838,-97.60597192278952,3.905977,4.5993156,11.495105,7.09715,-12.965603,-4.2063174,-3.6280205,-6.2387457,-9.924002,17.134583,-14.278842,5.278689,0.27668944,0.43573415,7.848454,-3.0595863,13.362022,-40.08228,60.999035,-6.3267803,7.8733344,5.9901676,-3.6317225,-8.330703,16.613163,65.5075,-9.372388,3.0352209,-4.8170094
197,-4.514366149902344,1.5961494445800781,78.63543701171875,0.4507465513807707,0.26629131605979656,-97.61974322858022,3.8808415,4.5837374,11.540922,7.106611,-13.4388275,-4.2945285,-3.9644082,-6.274207,-9.820274,17.703867,-14.64103,5.15431,0.2016373,0.37745816,7.846363,-3.0279858,13.389586,-39.96093,61.05021,-6.2665076,7.8774915,5.900446,-3.4839087,-8.292462,16.140947,65.67459,-8.881489,2.7743568,-5.045848
198,-4.596712589263916,1.569264531135559,78.60639953613281,0.5200467592357517,0.3733255129959976,-97.62338084660641,3.8615458,4.5733943,11.585239,7.1178484,-13.920369,-4.389654,-4.2807264,-6.299484,-9.71206,18.24924,-14.997341,5.011828,0.12215411,0.31923768,7.836109,-2.9941535,13.41661,-39.816074,61.11019,-6.1683145,7.9054537,5.7652507,-3.311917,-8.248509,15.621098,65.85524,-8.404611,2.547425,-5.2574296
199,-4.700491428375244,1.4608014822006226,78.59176635742188,0.5852251569928352,0.4828120241532036,-97.62963810327027,3.8463917,4.572281,11.634345,7.1270194,-14.389712,-4.5028744,-4.5778484,-6.305221,-9.58836,18.754004,-15.3476515,4.8739223,0.064276956,0.25626346,7.8252106,-2.9754643,13.455705,-39.69341,61.180508,-6.0873556,7.9467225,5.645113,-3.1261878,-8.181102,15.054368,66.04174,-7.9601316,2.3511312,-5.461542
200,-4.791840553283691,1.3841770887374878,78.56507110595703,0.6402983416598083,0.5978844265238891,-97.65157356094115,3.8297923,4.5869308,11.694099,7.1354537,-14.827397,-4.645398,-4.8582196,-6.280891,-9.438643,19.204348,-15.692133,4.76319,-0.022954246,0.21696834,7.8187613,-2.9540386,13.481791,-39.548702,61.256744,-6.056429,7.9867225,5.5988026,-2.9404137,-8.138829,14.562225,66.20948,-7.5134683,2.1857402,-5.6645904
201,-4.886691570281982,1.317735195159912,78.53765869140625,0.6830156992548984,0.7208674232687379,-97.70672760068813,3.8101628,4.620597,11.779022,7.140968,-15.222206,-4.8456507,-5.1373663,-6.2168255,-9.238264,19.606886,-16.02672,4.6899104,-0.079353705,0.19536349,7.8306947,-2.9675436,13.508564,-39.44357,61.34948,-6.129164,8.035461,5.6560144,-2.7543466,-8.10039,14.066634,66.35234,-7.0921783,2.053857,-5.8809414
202,-4.986265182495117,1.2491543292999268,78.50755310058594,0.7161596549563617,0.849745105660464,-97.78362038054908,3.790395,4.6698365,11.881953,7.143693,-15.586445,-5.088731,-5.409961,-6.1201572,-9.000906,19.968111,-16.35334,4.641054,-0.14341158,0.19544967,7.851909,-2.990834,13.52593,-39.329605,61.45282,-6.2617044,8.093818,5.7802715,-2.5654032,-8.080597,13.603891,66.47737,-6.674473,1.9571114,-6.1032395
203,-5.093174934387207,1.1706886291503906,78.47659301757812,0.7432077479064677,0.9805232484894316,-97.85119181719351,3.7726316,4.7300572,11.976008,7.147313,-15.935865,-5.320646,-5.64459,-6.007338,-8.7730255,20.269915,-16.680458,4.604302,-0.20251465,0.20311685,7.8683033,-3.0215905,13.541561,-39.242283,61.563072,-6.399419,8.143405,5.933969,-2.3404677,-8.069111,13.142085,66.57846,-6.284463,1.8816605,-6.2995095
204,-5.207171440124512,1.077216625213623,78.45297241210938,0.7681032359680955,1.109338007002256,-97.87897922388876,3.7593117,4.795471,12.034291,7.1548057,-16.286665,-5.487357,-5.8103337,-5.8951635,-8.600376,20.494984,-17.017157,4.5672398,-0.31608105,0.2105166,7.8563657,-3.0171196,13.551298,-39.137474,61.66782,-6.4708366,8.163773,6.0798693,-2.0728843,-8.068473,12.758399,66.67025,-5.9055448,1.8179662,-6.4464297
205,-5.324976444244385,0.9370088577270508,78.43387603759766,0.7890321186337645,1.2352392262477934,-97.84910963009838,3.7512994,4.867571,12.04283,7.1653366,-16.647697,-5.5806093,-5.8844576,-5.783569,-8.5010195,20.616404,-17.370424,4.536277,-0.4663997,0.2179854,7.8138156,-2.9925268,13.562542,-39.068798,61.771484,-6.4257727,8.151375,6.1877894,-1.7374414,-8.075072,12.385122,66.74039,-5.551532,1.7641528,-6.5134354
206,-5.457681179046631,0.805031955242157,78.41532135009766,0.8056705728943115,1.3603192943754816,-97.78140218533969,3.7477634,4.9472427,12.017883,7.1776714,-17.009802,-5.6268477,-5.8879633,-5.665702,-8.448015,20.6498,-17.733248,4.514826,-0.6597674,0.22758846,7.7468777,-2.944981,13.574046,-39.010727,61.87371,-6.3084855,8.11599,6.2852917,-1.356357,-8.0882435,12.052986,66.79764,-5.209029,1.7275405,-6.526748
207,-5.6009955406188965,0.6655204892158508,78.39681243896484,0.8235593584515546,1.484663076791605,-97.70141974920406,3.7477114,5.0294123,11.976691,7.191774,-17.35818,-5.6244564,-5.853997,-5.5481486,-8.419547,20.63856,-18.092224,4.48608,-0.84981817,0.23499027,7.6721854,-2.883644,13.588929,-38.948177,61.959953,-6.2155356,8.063001,6.4159455,-0.93599766,-8.114378,11.764582,66.82951,-4.9030094,1.7044357,-6.5199933
208,-5.754533290863037,0.5284857153892517,78.38031005859375,0.8475678798526576,1.6084860868292903,-97.63434690720385,3.752191,5.1093574,11.936524,7.2065125,-17.678953,-5.5716486,-5.814419,-5.436621,-8.394165,20.622757,-18.431953,4.4336176,-1.0392528,0.22596714,7.591596,-2.8011844,13.598115,-38.81586,62.036472,-6.234477,7.9947276,6.6271963,-0.5165516,-8.139068,11.596214,66.86555,-4.63628,1.692824,-6.5444975
209,-5.908445835113525,0.38369476795196533,78.37114715576172,0.881620516403149,1.7328155849403333,-97.57722339108324,3.7573996,5.1817174,11.891334,7.22405,-17.976229,-5.443726,-5.7757277,-5.341749,-8.382664,20.616482,-18.748348,4.3234825,-1.2157943,0.20722,7.516434,-2.695744,13.610144,-38.615593,62.085453,-6.3985066,7.904876,6.932588,-0.082287565,-8.192942,11.54884,66.876015,-4.410669,1.6995745,-6.5962605
210,-6.081217288970947,0.21405158936977386,78.36164093017578,0.922199521700029,1.8573529645398588,-97.5197466362634,3.7651548,5.2503185,11.834619,7.242063,-18.254385,-5.2493715,-5.7212896,-5.257234,-8.390747,20.596588,-19.049707,4.1747527,-1.4031459,0.17738311,7.43297,-2.564439,13.618777,-38.357136,62.12348,-6.6554003,7.791892,7.309248,0.3651542,-8.2631,11.622665,66.87855,-4.2124934,1.7242568,-6.663387
211,-6.241078853607178,0.03586624190211296,78.34766387939453,0.962964778905183,1.9797030093088859,-97.47697917165806,3.7801218,5.324035,11.783273,7.2625365,-18.503872,-5.0362062,-5.645842,-5.16354,-8.389652,20.545061,-19.338072,4.0508003,-1.5834178,0.1467697,7.350889,-2.4123504,13.624993,-38.044994,62.126892,-6.9647827,7.670944,7.7322025,0.82244426,-8.345345,11.760927,66.86916,-4.06338,1.7498895,-6.7357454
212,-6.421001434326172,-0.12627002596855164,78.32963562011719,0.9978883185443476,2.0975910644418803,-97.46408587008658,3.8120291,5.4108896,11.755307,7.2776847,-18.710163,-4.8520536,-5.545196,-5.041965,-8.350589,20.446043,-19.616087,4.0147557,-1.7414329,0.12374042,7.2783346,-2.2392814,13.631469,-37.679268,62.06878,-7.284398,7.5580196,8.177267,1.2855659,-8.432518,11.912237,66.84601,-3.9831488,1.7598351,-6.8049254
213,-6.613401889801025,-0.2949819564819336,78.31315612792969,1.025421535890562,2.2060737035443023,-97.49033019514225,3.8678958,5.516519,11.761077,7.2909975,-18.874882,-4.7259088,-5.4081573,-4.881693,-8.256018,20.287287,-19.895195,4.0995035,-1.8722128,0.10435481,7.2194233,-2.039285,13.640699,-37.24615,61.9418,-7.6058884,7.461991,8.651086,1.7574114,-8.524306,12.089205,66.807625,-4.0009255,1.7400835,-6.8662753
214,-6.813451766967773,-0.4690092206001282,78.28784942626953,1.0475203468816507,2.3078269904616864,-97.54592618149285,3.9432998,5.6357822,11.790057,7.3011346,-19.001873,-4.6267405,-5.2392206,-4.6943383,-8.125635,20.0783,-20.169067,4.2659216,-1.9833922,0.08565315,7.169646,-1.8128015,13.653559,-36.749577,61.756374,-7.9502544,7.3723783,9.16203,2.2386744,-8.6212435,12.308523,66.75532,-4.0996494,1.7028211,-6.925279
215,-6.998269081115723,-0.6595662832260132,78.2612533569336,1.058387639752487,2.410853132300087,-97.61704238386851,4.007722,5.771463,11.825862,7.3421993,-19.105188,-4.5125933,-5.07523,-4.4930315,-7.986551,19.874855,-20.43425,4.469413,-2.0818958,0.08161251,7.125769,-1.5720623,13.671442,-36.2197,61.51485,-8.325579,7.2759833,9.68846,2.7183208,-8.722023,12.529786,66.6944,-4.2268105,1.6706948,-6.989686
216,-7.200560569763184,-0.8521038889884949,78.2291030883789,1.0629838066985544,2.5246456356666807,-97.69013739922976,4.0400066,5.912909,11.854169,7.423605,-19.185394,-4.340764,-4.9332356,-4.2966714,-7.863859,19.686476,-20.66372,4.6642046,-2.1710556,0.09545546,7.082523,-1.3297464,13.695771,-35.68948,61.221634,-8.739647,7.1596775,10.208827,3.1882088,-8.823462,12.707936,66.62868,-4.3320208,1.6662906,-7.0664396
217,-7.3993024826049805,-1.0361039638519287,78.1948471069336,1.0613130114389526,2.6589217476470304,-97.78139803494928,4.045632,6.066764,11.8988695,7.5233846,-19.267263,-4.118082,-4.832342,-4.0987697,-7.740309,19.509335,-20.83566,4.839118,-2.236599,0.12619337,7.030037,-1.0861568,13.728883,-35.155437,60.861115,-9.246764,7.0182886,10.741283,3.6492195,-8.922511,12.837012,66.56384,-4.4179163,1.6859199,-7.172562
218,-7.590059757232666,-1.2242940664291382,78.15503692626953,1.0484103862797363,2.807661909863521,-97.89018545664085,3.782331,6.2924037,11.928797,8.178858,-19.62759,-3.8621883,-4.7542458,-3.888337,-7.612954,19.327528,-20.962994,5.0165377,-2.2812333,0.17447741,6.9724684,-0.83526605,13.771823,-34.607822,60.43623,-9.826932,6.857812,11.288761,4.10535,-9.018684,12.936101,66.49711,-4.507377,1.7207605,-7.2994766
219,-7.784645080566406,-1.411284327507019,78.11528015136719,1.013543523949206,2.9581053905581913,-97.97548354800097,3.0984356,6.616121,11.866613,9.708423,-20.353537,-3.546017,-4.654694,-3.6676068,-7.534089,19.117355,-21.062855,5.200049,-2.3350184,0.25469965,6.9237256,-0.5814348,13.82246,-34.0694,59.981125,-10.374385,6.6838903,11.807411,4.55253,-9.114537,12.996721,66.41947,-4.5799904,1.7853166,-7.4162703
220,-7.980435371398926,-1.5989584922790527,78.06692504882812,0.9412700704452992,3.098527986673022,-97.99548545229065,2.2267072,6.9858284,11.676475,11.596099,-21.09366,-3.141239,-4.4902554,-3.4320793,-7.558346,18.853512,-21.151455,5.3919864,-2.426782,0.38767207,6.89764,-0.33284062,13.875276,-33.56616,59.532764,-10.785006,6.5046716,12.254558,4.988933,-9.214826,13.006374,66.31999,-4.616407,1.8938953,-7.491742
221,-8.159777641296387,-1.7910652160644531,78.00882720947266,0.8084791761113307,3.2493329448927657,-97.92096532598616,1.0934864,7.4308047,11.290494,13.934828,-21.857746,-2.594197,-4.2593126,-3.1641972,-7.736315,18.503721,-21.216955,5.592866,-2.5874414,0.60589814,6.870166,-0.08864306,13.925048,-33.122925,59.105648,-11.021849,6.3093495,12.615055,5.4338374,-9.318178,12.917367,66.18165,-4.5957885,2.071471,-7.5119076
222,-8.341743469238281,-1.9849612712860107,77.93525695800781,0.6142620011856043,3.411409123583547,-97.77877238951594,-0.23988074,7.943742,10.750355,16.600069,-22.629704,-1.9332435,-3.975703,-2.850067,-8.032423,18.067194,-21.244413,5.7977667,-2.7913818,0.9080138,6.84286,0.14718448,13.9688635,-32.725407,58.685966,-11.144965,6.1003118,12.914789,5.8832154,-9.424508,12.744188,66.01576,-4.5348544,2.3010147,-7.495466
223,-8.521160125732422,-2.2068963050842285,77.85873413085938,0.3844931980918352,3.542349896630116,-97.61244930137819,-1.6287893,8.472111,10.160204,19.388252,-23.355837,-1.2550225,-3.6190774,-2.5003557,-8.367548,17.569002,-21.247889,6.002629,-2.9843185,1.2544438,6.867449,0.36012426,14.002897,-32.336327,58.268875,-11.195555,5.9064493,13.173108,6.3050885,-9.538766,12.572976,65.84254,-4.4700785,2.541389,-7.4592175
224,-8.70017147064209,-2.4518511295318604,77.77783203125,0.15465125471135377,3.5984819763215667,-97.46593144930661,-2.9390097,8.9622,9.632258,22.13587,-24.000496,-0.65914893,-3.172503,-2.1383462,-8.659005,17.046288,-21.247244,6.2051296,-3.1214488,1.6023235,6.9987073,0.5467663,14.027942,-31.90918,57.832382,-11.2149315,5.756497,13.405934,6.670452,-9.682135,12.502859,65.67445,-4.431122,2.7489824,-7.414661
225,-8.881711959838867,-2.6523380279541016,77.6916275024414,-0.08039434067661069,3.551962398157807,-97.3455057203838,-4.1566763,9.418593,9.153154,24.905724,-24.569159,-0.17926258,-2.603203,-1.7533734,-8.891763,16.48914,-21.244526,6.4321537,-3.2009075,1.9584416,7.2705564,0.70920676,14.040571,-31.394154,57.360485,-11.168106,5.6719785,13.566464,6.973886,-9.860331,12.542374,65.50447,-4.417955,2.921659,-7.3549275
226,-9.0243558883667,-2.8701624870300293,77.61534881591797,-0.32316914586731565,3.4306461130628794,-97.23089811493833,-5.3467693,9.850059,8.687679,27.764166,-25.081161,0.23602523,-1.9320784,-1.3503598,-9.100546,15.88943,-21.233297,6.6768064,-3.252385,2.332668,7.6493087,0.8551621,14.040284,-30.818136,56.860756,-11.046697,5.633337,13.661544,7.2317977,-10.074608,12.656095,65.32244,-4.412138,3.079826,-7.273335
227,-9.162788391113281,-3.1005101203918457,77.54768371582031,-0.5353997582393303,3.273764562428589,-97.12522499252194,-6.50247,10.221941,8.317103,30.584309,-25.538357,0.6134957,-1.2302406,-0.9801884,-9.279435,15.309076,-21.231218,6.887058,-3.2649722,2.6769316,8.080136,0.97098744,14.028165,-30.26539,56.374435,-10.9339695,5.6059294,13.791576,7.437864,-10.321068,12.860872,65.160904,-4.424468,3.2109728,-7.1901603
228,-9.305679321289062,-3.346283435821533,77.48851013183594,-0.6809076709315798,3.119925561251435,-97.03105192915226,-7.625877,10.510047,8.118476,33.26066,-25.949099,0.98594,-0.5627593,-0.69252163,-9.425894,14.802306,-21.250893,7.0119443,-3.2257783,2.945158,8.507837,1.0449998,14.006361,-29.821003,55.94251,-10.912713,5.5552707,14.057207,7.586103,-10.593076,13.174313,65.04827,-4.4662085,3.3070164,-7.126204
229,-9.426989555358887,-3.602820634841919,77.4396743774414,-0.7515352433697519,2.9595005775805516,-96.94285398529176,-8.714526,10.72182,8.127281,35.834133,-26.343956,1.3780509,0.070258304,-0.5017529,-9.543051,14.399271,-21.301353,7.03045,-3.120647,3.1235454,8.940302,1.0587178,13.977149,-29.53725,55.576473,-11.024881,5.4747,14.537152,7.6819353,-10.891876,13.631155,64.98597,-4.5266104,3.3349833,-7.0711236
230,-9.556209564208984,-3.8571114540100098,77.39722442626953,-0.7673647799739126,2.777699644285754,-96.86087185609838,-9.776849,10.878298,8.296471,38.367508,-26.723787,1.7711899,0.6996548,-0.38258165,-9.633941,14.069384,-21.375341,6.9738827,-2.9570358,3.240423,9.399253,1.0239078,13.940906,-29.362421,55.25365,-11.220392,5.379855,15.160373,7.722381,-11.216699,14.211446,64.961464,-4.6046867,3.3100681,-7.0192604
231,-9.689874649047852,-4.130002021789551,77.36793518066406,-0.7368482686039719,2.604970852381555,-96.796137274709,-10.829656,10.980446,8.577055,40.779575,-27.050806,2.1281126,1.3066368,-0.32261094,-9.698008,13.777343,-21.461205,6.8695774,-2.753604,3.313774,9.850391,0.9752912,13.896688,-29.223032,54.963436,-11.441323,5.2706604,15.803162,7.6890945,-11.55215,14.849893,64.98846,-4.7282596,3.2925885,-6.9995627
232,-9.811748504638672,-4.408179759979248,77.35765838623047,-0.6674771003377803,2.472083361631298,-96.7600348600688,-11.890205,11.026529,8.922025,42.986614,-27.286098,2.4109411,1.8670827,-0.31050143,-9.733231,13.497291,-21.552073,6.743908,-2.5262237,3.356513,10.257981,0.9416835,13.843879,-29.049883,54.70259,-11.631756,5.148798,16.343071,7.564516,-11.87663,15.477798,65.085464,-4.927262,3.342849,-7.0435185
233,-9.917444229125977,-4.708169460296631,77.35399627685547,-0.5494210657417963,2.38557161141039,-96.7607362378586,-12.9528,11.015184,9.372456,44.962147,-27.399467,2.599618,2.3656616,-0.35742757,-9.7332325,13.245536,-21.65745,6.5755925,-2.26411,3.3540838,10.611904,0.92607534,13.782209,-28.84104,54.483784,-11.777815,4.9910283,16.768545,7.33027,-12.176095,16.120893,65.29131,-5.2291145,3.4984214,-7.1725006
234,-10.03262710571289,-5.0047101974487305,77.35152435302734,-0.3835760048529354,2.3291258693152823,-96.79009523632365,-14.015717,10.954194,9.93655,46.76259,-27.422773,2.718422,2.8159935,-0.4646959,-9.7024,13.033591,-21.77983,6.359813,-1.9614067,3.3003106,10.930329,0.9107598,13.713534,-28.629318,54.31141,-11.9083,4.8050094,17.139118,6.994758,-12.450501,16.800516,65.596954,-5.6142216,3.720706,-7.36906
235,-10.155043601989746,-5.323481559753418,77.34864044189453,-0.19206797680295898,2.2997842868682925,-96.8357685009818,-15.101586,10.850157,10.520887,48.42329,-27.406742,2.793773,3.2424862,-0.6058254,-9.6554,12.818986,-21.898836,6.1478105,-1.6397382,3.2199864,11.219875,0.8968547,13.6405525,-28.397655,54.16513,-12.030939,4.6406155,17.438595,6.5889935,-12.698222,17.441889,65.942924,-6.0402393,3.9563105,-7.604723
236,-10.262131690979004,-5.662804126739502,77.3490982055664,0.003009157118239503,2.2946338933065507,-96.88513249765383,-16.234262,10.706663,11.032741,49.978752,-27.401613,2.850054,3.6696734,-0.75418,-9.606709,12.559013,-21.990705,5.9904156,-1.3194528,3.1376927,11.486147,0.88447833,13.566373,-28.130953,54.02511,-12.154363,4.5477695,17.65123,6.1434426,-12.91731,17.96683,66.27356,-6.467337,4.14933,-7.8523617
237,-10.366415977478027,-6.017917633056641,77.34929656982422,0.20583862702893166,2.3224357694787496,-96.93831596063914,-17.42599,10.503033,11.463658,51.415104,-27.41529,2.8806357,4.09021,-0.915871,-9.553948,12.246483,-22.051432,5.917806,-1.0055122,3.0507054,11.720619,0.87705904,13.491419,-27.817284,53.886627,-12.278432,4.559398,17.749657,5.6528926,-13.10426,18.349428,66.61217,-6.9505196,4.30085,-8.129514
238,-10.467123985290527,-6.378955364227295,77.34864044189453,0.42496935591551616,2.3816767397940577,-97.00064458259378,-18.664251,10.243272,11.86132,52.72208,-27.421965,2.873426,4.4950523,-1.1011242,-9.491425,11.904463,-22.092949,5.8963695,-0.68436605,2.947191,11.923127,0.8731848,13.415533,-27.470083,53.759438,-12.400621,4.6431465,17.750738,5.1053023,-13.257907,18.631557,66.98267,-7.49088,4.4336762,-8.442722
239,-10.55986499786377,-6.741386413574219,77.34632110595703,0.6440641226903605,2.454138820296414,-97.06840536539346,-19.932802,9.965407,12.217246,53.9312,-27.417557,2.845118,4.9090295,-1.2890668,-9.428637,11.533047,-22.116697,5.88097,-0.3496987,2.8363564,12.11008,0.86588204,13.342566,-27.112267,53.64723,-12.52767,4.7508445,17.704517,4.522133,-13.384976,18.838144,67.318306,-7.966805,4.533389,-8.749777
240,-10.656546592712402,-7.121641159057617,77.34111785888672,0.8466158261111829,2.5215446786872096,-97.13779253993515,-21.214727,9.706959,12.521243,55.074497,-27.3967,2.81153,5.35113,-1.4596918,-9.374922,11.142272,-22.128609,5.827047,0.0050008087,2.7303607,12.300011,0.8520781,13.2781,-26.76572,53.546085,-12.665574,4.834404,17.66056,3.9277112,-13.494981,18.992239,67.54849,-8.255738,4.5807123,-9.007552
241,-10.770598411560059,-7.52773380279541,77.32068634033203,1.0315807350395327,2.5803118495489543,-97.19814583134425,-22.513788,9.456891,12.754692,56.150658,-27.359365,2.7801824,5.8436203,-1.6109035,-9.347743,10.703295,-22.115944,5.729221,0.38136137,2.63001,12.49122,0.83264434,13.226266,-26.443596,53.460056,-12.808571,4.8914156,17.611753,3.3495245,-13.5910845,19.055544,67.641045,-8.264113,4.5474195,-9.217025
