unveil-humanoid-operators/unveil-humanoid-operators.github.io/feature-analysis-animation/data/feature_matrix_instances/age_waist_mean_vel_jogging_A205_jog_ff_stop_180_R_004__A205.csv
Frame,root_translateX,root_translateY,root_translateZ,root_rotateX,root_rotateY,root_rotateZ,left_hip_pitch_joint_dof,left_hip_roll_joint_dof,left_hip_yaw_joint_dof,left_knee_joint_dof,left_ankle_pitch_joint_dof,left_ankle_roll_joint_dof,right_hip_pitch_joint_dof,right_hip_roll_joint_dof,right_hip_yaw_joint_dof,right_knee_joint_dof,right_ankle_pitch_joint_dof,right_ankle_roll_joint_dof,waist_yaw_joint_dof,waist_roll_joint_dof,waist_pitch_joint_dof,left_shoulder_pitch_joint_dof,left_shoulder_roll_joint_dof,left_shoulder_yaw_joint_dof,left_elbow_joint_dof,left_wrist_roll_joint_dof,left_wrist_pitch_joint_dof,left_wrist_yaw_joint_dof,right_shoulder_pitch_joint_dof,right_shoulder_roll_joint_dof,right_shoulder_yaw_joint_dof,right_elbow_joint_dof,right_wrist_roll_joint_dof,right_wrist_pitch_joint_dof,right_wrist_yaw_joint_dof
0,-0.42622774839401245,-2.0341432094573975,72.88899993896484,-2.876935520491175,2.523679506590354,85.81542099272602,-21.051691,20.627417,6.6173506,107.47397,-17.880644,6.990604,-17.608555,4.0325637,-2.699972,48.961063,-31.877573,-2.1456034,-0.9038489,6.0575333,13.148418,27.647663,23.86852,-21.670706,-21.065254,9.384391,-1.9500543,21.697153,1.6301013,-25.59298,25.123343,-15.29873,-11.539786,3.6947782,-8.990386
1,-0.3715508282184601,-0.44884198904037476,73.09297943115234,-2.7057525861220117,2.6879777953357262,86.0103893241797,-23.047556,19.933767,6.533359,106.24646,-17.927809,6.525944,-15.507691,3.7605197,-2.6685836,47.353626,-31.783403,-2.0099728,-0.011124701,6.016762,12.80778,28.650337,24.058466,-21.776144,-21.76314,8.791484,-2.3532557,20.658049,0.80350125,-25.476656,25.166214,-16.248293,-11.380744,3.3911765,-8.836557
2,-0.32561394572257996,1.1656596660614014,73.35430145263672,-2.54287250560764,2.846591436348268,86.19567627194621,-25.065594,19.251106,6.40642,105.10687,-18.000055,6.0587287,-13.396427,3.4997678,-2.645267,45.752544,-31.793446,-1.8782991,0.8988945,5.938387,12.470722,29.733816,24.361752,-21.884588,-22.552172,8.138241,-2.7384803,19.615965,-0.12889549,-25.24393,25.226297,-17.084583,-11.298779,3.0772128,-8.668331
3,-0.2822881042957306,2.809173107147217,73.68222045898438,-2.368523059707578,3.0019719402243017,86.39748592862858,-26.955547,18.581156,6.364464,103.73859,-18.042833,5.6062775,-11.287956,3.224909,-2.629657,44.13372,-31.595617,-1.7311631,1.8186667,5.799407,12.118938,30.845337,24.732895,-21.950697,-23.381622,7.4910574,-3.1031668,18.607738,-1.0095804,-24.925993,25.29592,-17.878073,-11.133951,2.7690387,-8.513057
4,-0.24415305256843567,4.480225086212158,74.06576538085938,-2.160516767256984,3.1567025457865237,86.64293241582848,-28.56092,17.926422,6.5345697,101.82337,-18.008602,5.182807,-9.1997,2.910549,-2.6210437,42.482113,-30.882809,-1.5504282,2.7324986,5.573357,11.737069,31.947166,25.126892,-21.918955,-24.212563,6.916458,-3.4486985,17.67043,-1.6844146,-24.553307,25.376379,-18.695604,-10.728909,2.4838092,-8.399477
5,-0.20716828107833862,6.180598735809326,74.50003051757812,-1.9063557759396632,3.310515525923391,86.95571967681383,-29.845057,17.285728,6.964561,99.26829,-17.903353,4.7998934,-7.0913506,2.544594,-2.6155803,40.736897,-29.568693,-1.348763,3.6386468,5.2536664,11.31885,33.006157,25.515308,-21.781384,-25.019224,6.4769487,-3.8396764,16.74637,-2.0868235,-24.15041,25.456364,-19.588371,-9.921718,2.2277052,-8.380092
6,-0.17359234392642975,7.890891075134277,74.96955871582031,-1.6183451481468303,3.4622752190216866,87.31857057041371,-30.876974,16.647665,7.584405,96.24008,-17.756083,4.435696,-4.975535,2.1431103,-2.6142843,38.939865,-27.8276,-1.1316264,4.5321984,4.8689103,10.876969,34.03054,25.883278,-21.56779,-25.797724,6.1344895,-4.261674,15.83303,-2.2898912,-23.735264,25.539465,-20.540377,-8.829567,1.9922692,-8.425178
7,-0.1537981778383255,9.619621276855469,75.47257232666016,-1.316897611506549,3.614190087145526,87.69666481492774,-31.657816,15.997559,8.345672,92.803696,-17.555836,4.056848,-2.949581,1.7257249,-2.6205745,37.232773,-25.74291,-0.87144667,5.3919144,4.4420705,10.424774,35.04861,26.209822,-21.278225,-26.545834,5.8080015,-4.598729,15.052763,-2.3522992,-23.323841,25.65055,-21.514421,-7.7132816,1.7748252,-8.440846
8,-0.15221400558948517,11.371028900146484,75.99398040771484,-1.0221105600424216,3.769091529854788,88.05418853530117,-32.19437,15.327416,9.196548,89.018265,-17.288769,3.6377578,-1.1051909,1.3136522,-2.633279,35.748173,-23.38993,-0.53925174,6.1948643,3.9963994,9.973838,36.087887,26.469908,-20.910276,-27.261656,5.421593,-4.7343726,14.527316,-2.337376,-22.92998,25.818449,-22.46758,-6.8331494,1.5763118,-8.334868
9,-0.15599285066127777,13.139748573303223,76.5278549194336,-0.7330995484609825,3.9292468602347963,88.38046906995754,-32.475616,14.648472,10.151398,84.84657,-16.952194,3.2177103,0.5403371,0.91054434,-2.6512938,34.50316,-20.662186,-0.14194998,6.944073,3.535839,9.525821,37.153183,26.634905,-20.443413,-27.925476,4.893424,-4.595073,14.338333,-2.2406962,-22.562943,26.05652,-23.40737,-6.2112274,1.3989202,-8.086961
10,-0.16357848048210144,14.914419174194336,77.05622100830078,-0.44297046175167437,4.093288912086163,88.69606846353847,-32.500347,13.944895,11.22372,80.26299,-16.552452,2.7875216,2.0372589,0.51314545,-2.661925,33.431778,-17.561256,0.32210174,7.6386747,3.0577838,9.074487,38.21229,26.692041,-19.889622,-28.520819,4.2959447,-4.2630043,14.402843,-2.0356748,-22.228252,26.355171,-24.352161,-5.7203655,1.2445084,-7.7481995
11,-0.18959680199623108,16.710311889648438,77.57231903076172,-0.1595060473693645,4.2591889117942,89.0103059581403,-32.29832,13.181748,12.3539505,75.32985,-16.084696,2.2620914,3.4017,0.13523611,-2.640675,32.52436,-14.310955,0.89540404,8.255242,2.5738876,8.618739,39.238884,26.650196,-19.295425,-29.052477,3.7837346,-3.8532872,14.595907,-1.7501979,-21.931156,26.705187,-25.283401,-5.3965726,1.1136924,-7.334005
12,-0.21997575461864471,18.511098861694336,78.06144714355469,0.10749811718928468,4.424823783417657,89.33114898786393,-31.90373,12.334433,13.477335,70.095314,-15.537662,1.5656893,4.648485,-0.20871381,-2.5613015,31.771221,-11.131219,1.6133994,8.775807,2.093994,8.159039,40.215454,26.533266,-18.704134,-29.543377,3.5086305,-3.4773817,14.791583,-1.4075491,-21.675266,27.091026,-26.187063,-5.274719,1.0054271,-6.859809
13,-0.2567121684551239,20.328533172607422,78.51283264160156,0.3866181008225209,4.600157049411753,89.6566047796016,-31.257324,11.422288,14.690205,64.39302,-14.874395,0.7136888,5.759349,-0.54646873,-2.3871922,31.154015,-7.9306936,2.513336,9.210315,1.5816284,7.686908,41.15375,26.35528,-18.109562,-29.994135,3.5425582,-3.1675465,14.986283,-0.9806593,-21.461496,27.503315,-27.077005,-5.443777,0.91366804,-6.3097954
14,-0.2915899157524109,22.145591735839844,78.9229507446289,0.6701938649795255,4.782647064965708,89.97955176571396,-30.35784,10.43883,15.977465,58.19603,-14.083602,-0.26084423,6.7486672,-0.85790944,-2.1124022,30.65377,-4.627917,3.5901356,9.574928,1.0461601,7.2067995,42.060654,26.119143,-17.493748,-30.412054,3.7882578,-2.8613641,15.237769,-0.4578459,-21.291471,27.94065,-27.968239,-5.857283,0.83494717,-5.682399
15,-0.3195408880710602,23.965242385864258,79.28173828125,0.8883690361771396,4.950586256796508,90.30293869427483,-29.333109,9.366601,17.088161,51.77414,-13.210491,-1.3789359,7.6673684,-1.0544827,-1.7735469,30.288277,-1.4710153,4.7883096,9.858579,0.5725877,6.736668,42.920765,25.839453,-16.878836,-30.83549,4.1452284,-2.526887,15.510756,0.11358577,-21.171627,28.400629,-28.847698,-6.349589,0.7733704,-5.0134463
16,-0.36196523904800415,25.78715705871582,79.5813980102539,0.9808450337413638,5.0809024044200015,90.62723242370295,-28.292177,8.22013,17.776882,45.380615,-12.295899,-2.6342342,8.567641,-1.0703257,-1.424295,30.06133,1.3083016,6.0223656,10.057248,0.23604362,6.298432,43.720722,25.538836,-16.288673,-31.308207,4.510176,-2.1336188,15.772374,0.6953741,-21.11044,28.874722,-29.711727,-6.753629,0.73718125,-4.3393145
17,-0.41154736280441284,27.605701446533203,79.81282806396484,0.8898549074908138,5.177519800463741,90.95008104595108,-27.184523,7.007542,17.916222,38.775017,-11.278854,-4.1457024,9.489192,-0.83939576,-1.031584,29.889818,3.6830602,7.307845,10.179527,0.088665165,5.867092,44.491425,25.24012,-15.722551,-31.874735,4.9023285,-1.6312569,16.042593,1.3050569,-21.120155,29.37116,-30.5893,-7.0671554,0.7477058,-3.6368043
18,-0.45904484391212463,29.422252655029297,79.97160339355469,0.6230955342335001,5.2377690966551995,91.25232623830033,-25.883017,5.8493466,17.621021,31.785196,-10.126589,-5.80045,10.411904,-0.3908402,-0.5787396,29.785122,5.7980843,8.637013,10.256039,0.11880357,5.4507184,45.241566,24.950611,-15.172722,-32.52685,5.3532715,-1.0488219,16.33193,1.9767175,-21.207087,29.872948,-31.501043,-7.363091,0.7945614,-2.897412
19,-0.5116379857063293,31.237136840820312,80.06723022460938,0.20375362588885537,5.228481942132768,91.51122532203985,-24.418255,4.929826,17.027126,24.859545,-8.944142,-7.2872787,11.289448,0.20834547,-0.16854982,29.911125,7.6786547,9.86647,10.313766,0.32505602,5.116965,45.924892,24.666687,-14.654105,-33.225224,5.781803,-0.47644538,16.595985,2.691012,-21.369665,30.337322,-32.430756,-7.5887494,0.843446,-2.1777334
20,-0.5678535103797913,33.02684783935547,80.10310363769531,-0.33015662477457264,5.123055302348419,91.71606467400808,-22.9209,4.3500304,16.308046,18.604837,-7.8746195,-8.369168,12.061891,0.8742928,0.080057755,30.442308,9.331361,10.858277,10.366434,0.68721086,4.9265842,46.488693,24.378382,-14.182954,-33.914013,6.110807,-0.005654757,16.792,3.4195874,-21.600655,30.725887,-33.34717,-7.690742,0.8617862,-1.5341326
21,-0.6226530075073242,34.793212890625,80.07345581054688,-0.9574162254236732,4.924535058914781,91.8824504614121,-21.483952,4.0589657,15.517663,13.164818,-6.9745345,-8.969796,12.700463,1.5866777,0.15168628,31.44096,10.79109,11.640182,10.397336,1.1906449,4.8828635,46.930813,24.073437,-13.759023,-34.594635,6.3322387,0.34860244,16.896776,4.1340094,-21.902184,31.05207,-34.24421,-7.647898,0.84265465,-0.95846397
22,-0.7001294493675232,36.52192687988281,79.98020935058594,-1.6586099566672883,4.656760475704906,92.03358886628732,-19.966925,3.9084847,14.622673,8.037548,-6.042039,-9.277146,13.198089,2.3062918,0.06335484,32.884365,12.005307,12.238461,10.381205,1.8072406,4.9518976,47.26553,23.75022,-13.375837,-35.272827,6.488391,0.6301039,16.93627,4.8477316,-22.274822,31.333195,-35.129208,-7.4898367,0.8058573,-0.42975172
23,-0.7879388332366943,38.220333099365234,79.85247039794922,-2.3200531257264885,4.35004000825475,92.20124455048897,-20.16453,4.200955,13.541103,7.160362,-7.080581,-9.481033,13.480097,2.8410616,-0.28456002,34.86378,12.813574,12.536829,10.28826,2.411583,5.125963,47.452347,23.419462,-13.037732,-35.889324,6.575146,0.8349696,16.944202,5.590325,-22.696898,31.539637,-35.982754,-7.2419944,0.7570964,0.013214314
24,-0.8758654594421387,39.89773941040039,79.68991088867188,-2.857105284770044,4.028736662062424,92.40506497210761,-20.45772,4.3790135,12.420737,7.0455794,-8.175435,-9.741109,13.508361,3.0415227,-0.9803578,37.408176,13.081145,12.420686,10.101114,2.9046357,5.394855,47.45944,23.101728,-12.74816,-36.39263,6.585831,0.9605933,16.956821,6.383732,-23.132242,31.640638,-36.76884,-6.933241,0.7008949,0.3356277
25,-0.9557710289955139,41.5417366027832,79.47855377197266,-3.3137700633192333,3.678150605914725,92.63442401985368,-20.483953,4.4168935,11.252968,7.000329,-9.097159,-10.2452345,13.292983,2.917373,-2.1138167,40.590122,12.712244,11.753947,9.820808,3.31894,5.7622275,47.307957,22.80911,-12.502572,-36.80425,6.4565635,0.9738133,16.983496,7.2069983,-23.55315,31.640522,-37.45841,-6.5270123,0.6212318,0.52541006
26,-1.0219472646713257,43.167213439941406,79.21392059326172,-3.676962314838201,3.3066760912627307,92.89921199889656,-20.272161,4.3090267,10.04055,7.00275,-9.820754,-10.859549,12.870132,2.452839,-3.6026616,44.35323,11.771928,10.62511,9.439094,3.6384928,6.218806,47.008797,22.54569,-12.295768,-37.136837,6.206008,0.8876813,17.009613,8.031476,-23.944908,31.557285,-38.034725,-6.0285854,0.5200716,0.60711557
27,-1.0407170057296753,44.791282653808594,78.88802337646484,-3.810715647652566,2.9656768897110974,93.23418157086178,-19.885569,3.924036,8.856354,7.031994,-10.036697,-11.259133,12.270573,1.5251551,-5.2522297,48.488342,10.401732,9.277854,8.941594,3.7236333,6.73235,46.52235,22.323505,-12.1303005,-37.34124,5.9492574,0.7693189,17.037296,8.870185,-24.285849,31.380718,-38.479515,-5.5302463,0.42810065,0.60109437
28,-1.0381592512130737,46.39679718017578,78.51739501953125,-3.584439981819974,2.7019028205606648,93.6671466982884,-19.39515,3.131586,7.7620316,7.086613,-9.44462,-11.120473,11.524144,0.04925844,-6.872255,52.78364,8.7681875,7.9698987,8.325731,3.441981,7.2658377,45.811905,22.161226,-12.009256,-37.371796,5.799269,0.6863328,17.0707,9.7352085,-24.550806,31.09819,-38.768284,-5.1257896,0.37655956,0.5288034
29,-1.0212829113006592,47.96958541870117,78.11763763427734,-2.8790237174755906,2.524210064101206,94.23404381412777,-18.774857,1.7806689,6.683528,7.148231,-7.4813685,-10.365583,10.671989,-2.1250637,-8.514122,57.273914,6.815292,6.764248,7.5692596,2.6608007,7.8169513,44.865837,22.077042,-11.927633,-37.225285,5.7521305,0.6399943,17.113283,10.643511,-24.712181,30.698544,-38.902008,-4.8227234,0.38729995,0.3971677
30,-1.0679302215576172,49.4771614074707,77.7601089477539,-1.8297912549614577,2.3764310428255344,94.88376188336903,-18.565245,0.08727372,5.6300497,8.450343,-5.089362,-9.236283,9.781361,-4.8370028,-10.158707,61.980274,4.525293,5.561446,6.67514,1.4960012,8.386807,43.79394,22.07074,-11.840524,-36.990826,5.744374,0.59984404,17.166584,11.498832,-24.73015,30.269173,-38.797916,-4.587784,0.44257644,0.18257585
31,-1.0842498540878296,51.01000213623047,77.30209350585938,-0.688959700680523,2.2098462936643455,95.51207297145766,-19.93099,-1.5454086,4.8499293,13.392105,-4.5105214,-7.8385954,8.870117,-7.6784024,-11.556562,66.7025,2.131195,4.371837,5.8652515,0.2617106,8.974043,42.454224,22.155022,-11.895056,-36.566418,5.8441033,0.59248155,17.237045,12.4481735,-24.663256,29.624926,-38.58249,-4.4237413,0.5035805,-0.056659766
32,-1.104323387145996,52.56957244873047,76.76863098144531,0.3227193762870796,2.004131447228622,96.03253028756959,-21.099426,-2.9801638,4.498118,18.119328,-4.7163177,-6.1638603,7.8816504,-10.28166,-12.504814,71.275345,-0.15624616,3.1975224,5.113054,-0.83642274,9.555,41.043808,22.312643,-11.990373,-36.080357,6.0595994,0.6353263,17.331318,13.302803,-24.494644,28.971127,-38.11661,-4.3591647,0.54390687,-0.3834912
33,-1.1445521116256714,54.09674835205078,76.20301818847656,1.2392418348209633,1.7327246725653365,96.49326305898721,-22.37585,-4.184872,4.587339,23.383846,-6.3879504,-3.7581892,6.8121967,-12.700587,-13.014908,75.80524,-2.3533905,2.0261292,4.4183183,-1.8168285,10.178527,39.508293,22.538084,-12.153304,-35.52624,6.414461,0.7465241,17.396782,14.116598,-24.235611,28.231073,-37.46033,-4.3071117,0.5437022,-0.7417478
34,-1.170953392982483,55.590187072753906,75.60113525390625,2.0999620297781267,1.4101197104879541,96.90817969968631,-23.74704,-5.179756,4.9180956,29.214033,-9.0615835,-0.70467657,5.656151,-14.986524,-13.193097,80.334694,-4.5394278,0.8666341,3.7726052,-2.7274544,10.84371,37.824574,22.82867,-12.389354,-34.8869,6.886966,0.9110494,17.44899,14.917091,-23.890762,27.39828,-36.633144,-4.28486,0.523526,-1.1430873
35,-1.2186163663864136,57.06752395629883,75.02851104736328,2.8271900926697966,1.121663642261078,97.17752494572576,-24.870495,-5.879493,5.279316,34.670105,-12.097088,2.2322145,4.2606907,-16.932144,-12.994275,84.6701,-6.634285,-0.22707845,3.235117,-3.494658,11.454156,35.98175,23.162655,-12.71501,-34.078884,7.4656105,1.1011101,17.585413,15.65678,-23.45573,26.53773,-35.55985,-4.4636164,0.50915223,-1.6670859
36,-1.281852126121521,58.5101318359375,74.50064086914062,3.3806339426790895,0.9640220577849958,97.21168551286101,-25.493137,-6.279373,5.590624,38.944836,-14.839831,4.2569933,2.4506528,-18.378637,-12.374089,88.62578,-8.561873,-1.1994523,2.837695,-4.0800867,11.907593,33.98113,23.504416,-13.132767,-33.02762,8.143272,1.2907988,17.898815,16.265541,-22.920769,25.724905,-34.140278,-5.0185604,0.5320783,-2.3908055
37,-1.3311848640441895,59.9560432434082,74.02965545654297,3.7687223161087764,1.0262729513600397,96.95843283230684,-25.638935,-6.3768353,5.9724035,41.908504,-17.258732,4.995278,-0.0066383216,-19.292038,-11.226067,92.2863,-10.319871,-2.1184065,2.5842628,-4.467104,12.141449,31.709414,23.83806,-13.696784,-31.582968,8.876827,1.4175528,18.590345,16.663261,-22.263323,24.968878,-32.18944,-6.101003,0.63152874,-3.3727512
38,-1.3622066974639893,61.40434265136719,73.64178466796875,4.050642455373337,1.2538692295912195,96.49002727276631,-25.48738,-6.244982,6.498863,44.087322,-19.690569,4.912269,-3.0007572,-19.758064,-9.63258,95.73515,-11.935088,-2.9730966,2.4315565,-4.727332,12.216687,29.229124,24.153177,-14.359058,-29.852594,9.690041,1.522669,19.549667,16.88356,-21.481737,24.231627,-29.779913,-7.591337,0.80418307,-4.5458403
39,-1.3727092742919922,62.85445022583008,73.3459243774414,4.253652709773788,1.5238997972160988,95.90345489309132,-25.032352,-5.9864955,7.091882,45.6793,-22.006872,4.469534,-6.18205,-19.817091,-7.8549876,98.79049,-13.371755,-3.6050522,2.3206954,-4.938372,12.219285,26.80531,24.416021,-14.961491,-28.129908,10.6795025,1.7326043,20.388485,17.022522,-20.611479,23.539696,-27.198095,-9.256006,1.0143079,-5.809417
40,-1.3756481409072876,64.32027435302734,73.12617492675781,4.404497959865623,1.709538840395496,95.29361966190542,-24.253498,-5.7067237,7.6349573,46.854244,-24.062614,4.125825,-9.193181,-19.5544,-6.1549907,101.26648,-14.601385,-3.8634732,2.1772265,-5.166262,12.233659,24.670193,24.585218,-15.357625,-26.652037,11.950672,2.1613379,20.698702,17.168879,-19.712635,22.946478,-24.74459,-10.856741,1.2124066,-7.0798855
41,-1.3785837888717651,65.79275512695312,72.97868347167969,4.503981857819074,1.7604675061065338,94.59804631815585,-23.056215,-5.383871,8.150829,47.573025,-25.866268,3.9437122,-12.018852,-18.904032,-4.4648933,103.12861,-15.5851555,-3.6396286,2.020281,-5.413035,12.311061,22.811068,24.614408,-15.500936,-25.300402,13.628461,2.8333917,20.311567,17.307878,-18.81505,22.502777,-22.343304,-12.632552,1.3944926,-8.553536
42,-1.3851398229599,67.29513549804688,72.89655303955078,4.5440263779135845,1.7447690440002601,93.79607374314345,-21.473936,-4.991823,8.69781,47.769478,-27.478342,3.70401,-14.788436,-17.876575,-2.7405863,104.479034,-16.352457,-3.050891,1.8436118,-5.6317167,12.396649,21.091726,24.492476,-15.471969,-23.94432,15.655672,3.6520545,19.420082,17.40789,-17.93073,22.196442,-19.907583,-14.598521,1.6085411,-10.218269
43,-1.4010635614395142,68.81021881103516,72.87481689453125,4.540750241649383,1.7125723463544027,93.04585948306878,-19.674477,-4.6256504,9.175515,47.556526,-28.819983,3.4360285,-17.391035,-16.723436,-1.2407733,105.329285,-16.982502,-2.2941937,1.5525404,-5.8096466,12.416312,19.525984,24.253597,-15.34955,-22.780846,17.864616,4.5405865,18.165634,17.555004,-17.103355,21.978365,-17.752537,-16.177011,1.8276772,-11.691908
44,-1.4040335416793823,70.35746765136719,72.9202651977539,4.507271066105289,1.716392686359098,92.5053090414248,-17.832003,-4.3679385,9.472286,47.053493,-29.814266,3.1641965,-19.749758,-15.715684,-0.19196048,105.68652,-17.547394,-1.5672684,1.0638034,-5.934842,12.303974,18.15154,23.960197,-15.209319,-22.048779,20.070929,5.4400563,16.710272,17.85955,-16.396917,21.786192,-16.226625,-16.784147,1.9765832,-12.602828
45,-1.4022307395935059,71.93212127685547,73.02688598632812,4.439635184183858,1.772795770404591,92.26015523826395,-15.96564,-4.2422595,9.508017,46.231163,-30.47554,2.8798306,-21.88151,-14.90506,0.3605428,105.51116,-18.04493,-0.84255564,0.32956666,-6.0002303,12.050709,17.036547,23.641323,-15.008773,-21.94927,22.466705,6.461269,14.842298,18.428371,-15.861163,21.59621,-15.621942,-15.88983,2.0021057,-12.77297
46,-1.3943580389022827,73.51521301269531,73.19368743896484,4.335021420305993,1.8528337660275296,92.21362491233812,-13.995332,-4.1892157,9.346656,45.051083,-30.834984,2.5711083,-23.839718,-14.210044,0.5663445,104.80724,-18.449596,-0.054595757,-0.5843386,-6.0057178,11.705586,16.148533,23.296755,-14.740948,-22.34348,25.07956,7.5441,12.549724,19.23812,-15.503374,21.436548,-15.771732,-13.902217,1.9424468,-12.434078
47,-1.3952925205230713,75.12149047851562,73.41983795166016,4.209900162130573,1.9436009927074422,92.24934661055667,-11.94625,-4.161774,9.085926,43.616543,-30.84007,2.2546604,-25.615007,-13.697135,0.50031537,103.64319,-18.785961,0.6601694,-1.5822273,-5.948009,11.290624,15.394115,22.95549,-14.532572,-22.984228,27.438028,8.448147,10.341874,20.205952,-15.310105,21.3142,-16.339235,-11.654486,1.8465985,-11.8322
48,-1.4127262830734253,76.75003814697266,73.7015151977539,4.080415678381857,2.032069574799449,92.24977107346648,-9.845618,-4.1178346,8.826364,42.035515,-30.44181,1.9489037,-27.189981,-13.411637,0.22553657,102.089386,-19.074862,1.1749918,-2.5563653,-5.8286457,10.828426,14.69098,22.666317,-14.517515,-23.636726,29.024002,9.015672,8.772086,21.245506,-15.255865,21.218727,-16.979134,-9.988498,1.7332926,-11.217988
49,-1.423536777496338,78.4032211303711,74.04324340820312,3.949783365304831,2.1168080010723505,92.21472209199855,-7.6559005,-4.073434,8.536367,40.24145,-29.613087,1.6611375,-28.541914,-13.428375,-0.32950097,100.12899,-19.347012,1.4685471,-3.506555,-5.6566343,10.305691,14.058651,22.475092,-14.763731,-24.307526,29.612246,9.246615,8.109097,22.34774,-15.33249,21.158997,-17.679012,-9.104364,1.5557947,-10.575539
50,-1.4177558422088623,80.08927154541016,74.43502044677734,3.8057638500657496,2.205749782646571,92.19464181517745,-5.3846765,-4.0308604,8.174539,38.222828,-28.393385,1.3791145,-29.667963,-13.683066,-1.1816959,97.73393,-19.588245,1.626904,-4.459848,-5.432659,9.724554,13.554766,22.392012,-15.197315,-25.13886,29.461042,9.280877,8.057394,23.560452,-15.531066,21.117844,-18.597963,-8.561399,1.3175845,-9.792943
51,-1.415441870689392,81.82042694091797,74.86392211914062,3.6392627353217155,2.298868757231534,92.14647550001577,-3.1230843,-3.9410138,7.8325567,36.163353,-26.830198,1.094641,-30.57636,-13.991982,-2.1999485,94.95441,-19.748833,1.6835712,-5.354512,-5.1505394,9.12689,13.159164,22.404799,-15.733738,-26.097641,28.77386,9.193648,8.329242,24.867575,-15.815,21.049196,-19.628841,-8.247941,1.0809448,-8.983123
52,-1.4139889478683472,83.57481384277344,75.32474517822266,3.4436660121905516,2.395438632369057,92.02723848534335,-0.9607279,-3.7655344,7.606612,34.244263,-24.967808,0.8006627,-31.283815,-14.180576,-3.2436204,91.83523,-19.778141,1.664407,-6.1299124,-4.809511,8.548817,12.83691,22.489397,-16.290236,-27.133047,27.765383,9.054018,8.630459,26.235115,-16.130795,20.910492,-20.636873,-8.064299,0.90804374,-8.258014
53,-1.3985610008239746,85.34778594970703,75.80744934082031,3.215481629489165,2.4875942746665327,91.8067948358757,1.129869,-3.5007665,7.5408,32.45178,-22.735111,0.5167015,-31.779655,-14.232369,-4.335295,88.367294,-19.67813,1.4916216,-6.7566795,-4.4118757,7.984961,12.564264,22.638788,-16.898994,-28.221567,26.322767,8.879702,9.004558,27.651918,-16.44261,20.680653,-21.564323,-8.115013,0.8084092,-7.618184
54,-1.3650678396224976,87.12923431396484,76.30040740966797,2.961923356108581,2.5764315857430637,91.51025449281666,3.1725879,-3.1760423,7.582297,30.72955,-20.146437,0.23964974,-32.045265,-14.201816,-5.5413084,84.52968,-19.483494,1.2004354,-7.261564,-3.9689138,7.4136047,12.343028,22.858831,-17.591722,-29.362339,24.400505,8.617841,9.556236,29.105904,-16.741274,20.384138,-22.437384,-8.428793,0.7417372,-7.008693
55,-1.320151686668396,88.92568969726562,76.79721069335938,2.689065022168164,2.6744106458802843,91.17875104048522,5.0833817,-2.810975,7.6797986,29.174711,-17.359573,-0.07251344,-32.10145,-14.035919,-6.7702928,80.336464,-19.18239,0.9686656,-7.676271,-3.4974253,6.844744,12.1837635,23.139656,-18.278406,-30.54971,22.31767,8.246854,10.082,30.554686,-17.018839,20.051193,-23.246603,-8.7969675,0.70104694,-6.4578066
56,-1.2700139284133911,90.72118377685547,77.28643035888672,2.405818587448494,2.7952260588274704,90.85584168215937,6.783191,-2.423367,7.7755365,27.87256,-14.522773,-0.464931,-31.976717,-13.695617,-7.921763,75.785934,-18.752047,0.96123296,-8.042717,-3.0091941,6.287089,12.101951,23.461716,-18.861195,-31.7761,20.394295,7.761485,10.377484,31.948769,-17.270853,19.719475,-23.978476,-9.011692,0.6847244,-5.9951477
57,-1.2177059650421143,92.52364349365234,77.7624282836914,2.0736156439018503,2.9667450524149284,90.54671245199665,8.225933,-1.9719846,7.866785,26.82022,-11.526725,-0.9705816,-31.64827,-13.160186,-9.056935,70.72596,-18.109657,1.2237045,-8.366579,-2.4578743,5.7188015,12.074115,23.813246,-19.32089,-33.024048,18.590149,7.1074157,10.358943,33.281128,-17.4949,19.386465,-24.605015,-9.008417,0.69618434,-5.646732
58,-1.1695083379745483,94.32352447509766,78.20814514160156,1.7034632224821595,3.172835730509947,90.23128772423973,9.477444,-1.4730818,7.9613585,25.96115,-8.3337965,-1.5777806,-31.105555,-12.443524,-10.189455,65.16798,-17.275095,1.6658742,-8.631654,-1.8548096,5.1403627,12.092069,24.192896,-19.7038,-34.289925,16.7788,6.318742,10.129228,34.56819,-17.693155,19.038261,-25.135271,-8.905481,0.73765063,-5.390695
59,-1.1211479902267456,96.12071228027344,78.617919921875,1.3726671782496096,3.362681815043266,89.91926470207629,10.620627,-1.0273371,8.017252,25.30036,-5.1892357,-2.258194,-30.404736,-11.589706,-11.134141,59.34143,-16.36805,2.2282388,-8.851861,-1.294141,4.5940146,12.197437,24.594612,-20.009249,-35.595654,15.147448,5.530653,9.7776375,35.79746,-17.87506,18.690205,-25.607758,-8.768443,0.80791426,-5.184033
60,-1.0639609098434448,97.91868591308594,78.98121643066406,1.1590709552886795,3.4866541122074124,89.62248138699691,11.734251,-0.7318552,8.0030575,24.835463,-2.3321416,-2.965245,-29.605433,-10.673405,-11.703599,53.479965,-15.514996,2.8307009,-9.050402,-0.8662679,4.122817,12.441885,25.010073,-20.226995,-36.97283,13.887037,4.8691673,9.404295,36.957058,-18.054762,18.36336,-26.067423,-8.66104,0.90547985,-4.986124
61,-0.9995142221450806,99.72410583496094,79.28081512451172,1.0888468740382706,3.533931097816286,89.34057850568587,12.864236,-0.6311199,7.8563895,24.483646,0.2663794,-3.7102098,-28.66204,-9.700923,-11.802268,47.409954,-14.715536,3.4515889,-9.240844,-0.5932626,3.7220213,12.86973,25.433353,-20.331743,-38.464695,13.127285,4.3389034,8.998301,38.07249,-18.249672,18.07031,-26.52707,-8.575432,1.0459945,-4.8236704
62,-0.9417843818664551,101.53902435302734,79.51062774658203,1.1265742868374358,3.5297335556352283,89.07763733603703,13.97039,-0.67710656,7.6022673,24.243492,2.7242608,-4.5063615,-27.532566,-8.71402,-11.520531,41.025703,-13.8937845,4.0792513,-9.427009,-0.43086547,3.375429,13.454552,25.862587,-20.322206,-40.05229,12.738337,3.8771605,8.52956,39.150955,-18.466589,17.797794,-26.98093,-8.48051,1.2252227,-4.710286
63,-0.8894098997116089,103.35000610351562,79.67797088623047,1.258743018064745,3.4785907289356506,88.85136392952559,14.995339,-0.8201359,7.3601856,24.247168,4.9352508,-5.282696,-26.289747,-7.834068,-10.967202,34.67958,-13.075012,4.662805,-9.61425,-0.37321043,3.1079917,14.139262,26.296057,-20.230427,-41.668625,12.528349,3.5039947,8.073749,40.15044,-18.699734,17.525122,-27.44267,-8.406914,1.4120259,-4.5826674
64,-0.8382806777954102,105.14471435546875,79.78792572021484,1.469113952177758,3.3843952015901766,88.67730114785884,15.871771,-0.99936175,7.26175,24.651077,6.783715,-5.949656,-25.026005,-7.1418414,-10.269951,28.750204,-12.282733,5.191567,-9.803189,-0.416534,2.943107,14.859076,26.732128,-20.095268,-43.23713,12.3079195,3.2425725,7.703429,41.024857,-18.9331,17.234673,-27.916946,-8.388921,1.5748016,-4.375076
65,-0.7824530601501465,106.92193603515625,79.83599090576172,1.8140945597373714,3.2406414937450134,88.56624895180883,16.61024,-1.240351,7.334022,25.461782,8.261877,-6.50208,-23.73629,-6.679819,-9.423967,23.167707,-11.491704,5.714917,-10.004127,-0.62273234,2.8797195,15.615455,27.176876,-19.917694,-44.78554,12.121346,3.1465333,7.4134774,41.776337,-19.15375,16.912659,-28.412127,-8.460846,1.7080334,-4.026399
66,-0.7087683081626892,108.66321563720703,79.81757354736328,2.323904912334973,3.0335305638743346,88.51866389395272,17.248348,-1.5579296,7.5148196,26.632944,9.42544,-6.9159884,-22.365839,-6.44994,-8.3825445,17.756306,-10.681165,6.249204,-10.221503,-1.0251579,2.9109225,16.435986,27.634247,-19.682333,-46.337715,12.040375,3.1866002,7.174396,42.425262,-19.35758,16.573776,-28.917902,-8.602087,1.82629,-3.582173
67,-0.6207140684127808,110.35819244384766,79.73909759521484,2.924383048603652,2.7644888493697146,88.52189893368062,17.74128,-1.844031,7.8220944,28.259672,10.234836,-7.077885,-20.97934,-6.404595,-7.226504,12.806205,-9.908721,6.761521,-10.433294,-1.5489764,3.0457342,17.288265,28.094225,-19.409573,-47.80495,11.919418,3.2643414,7.0202675,42.944218,-19.539354,16.24575,-29.404444,-8.763217,1.9290007,-3.1371157
68,-0.5266210436820984,112.01385498046875,79.61112976074219,3.475915422963417,2.45701417146687,88.54224688267638,18.016878,-1.944803,8.293886,30.445349,10.631129,-6.9108653,-19.612925,-6.4017744,-6.051202,8.516355,-9.174263,7.208712,-10.588856,-2.049552,3.2826858,18.112394,28.533651,-19.13724,-49.069046,11.615183,3.2818644,6.9851165,43.29911,-19.693903,15.948362,-29.82505,-8.895226,2.0164402,-2.7852905
69,-0.43157222867012024,113.6485366821289,79.44493103027344,3.913261725563762,2.139716900151709,88.57923689988009,17.99295,-1.7579074,9.011326,33.35739,10.5045595,-6.3411508,-19.39086,-6.452743,-4.687043,7.2368965,-9.818689,7.5693126,-10.667655,-2.448118,3.6049712,18.84659,28.935081,-18.89321,-50.06581,11.044496,3.2134993,7.09162,43.49171,-19.809706,15.6693,-30.172495,-8.991887,2.0844536,-2.5361965
70,-0.33434978127479553,115.25891876220703,79.23356628417969,4.242683784666078,1.8186039204427913,88.61615531671853,17.710524,-1.2598931,9.949585,36.92496,9.866143,-5.4225388,-19.515049,-6.4135838,-3.2132413,7.158438,-10.8965435,7.8720813,-10.653874,-2.7469962,4.005072,19.488867,29.290169,-18.681728,-50.81937,10.3056,3.1086428,7.312741,43.523914,-19.883291,15.395323,-30.444387,-9.080741,2.13401,-2.341883
71,-0.2535223662853241,116.86759948730469,78.96727752685547,4.397747805873192,1.4982328995192484,88.58972972801793,17.260023,-0.42495084,10.987992,40.898277,8.850854,-4.319204,-19.441448,-6.1566606,-1.8334078,7.1279545,-11.55689,8.117026,-10.499344,-2.8805027,4.488472,20.059906,29.58261,-18.50903,-51.32673,9.527951,2.981493,7.6078415,43.36239,-19.928593,15.144559,-30.606075,-9.161469,2.1738677,-2.2122762
72,-0.21631589531898499,118.46674346923828,78.64801025390625,4.3210665359526,1.1812095925466624,88.44248832015674,16.728373,0.7263199,12.00744,45.025837,7.6193976,-3.219842,-19.160143,-5.6281657,-0.68404955,7.1308603,-11.554349,8.290712,-10.168601,-2.7871652,5.0590615,20.586243,29.790243,-18.374592,-51.589478,8.840789,2.847984,7.935362,42.97724,-19.97182,14.936675,-30.632383,-9.229477,2.2134001,-2.1599755
73,-0.20346371829509735,120.04451751708984,78.27882385253906,3.98375605670593,0.849616061096299,88.15512201021613,16.159542,2.1617162,13.000672,49.314236,6.129936,-2.125942,-18.615938,-4.79328,0.21269001,7.1635747,-10.686919,8.55528,-9.636644,-2.4146702,5.7314153,21.01764,29.856623,-18.312569,-51.530975,8.219625,2.6923232,8.292365,42.364338,-20.01293,14.767316,-30.506735,-9.269433,2.2500935,-2.2039557
74,-0.19960714876651764,121.59769439697266,77.87380981445312,3.4199885313748197,0.5024129803090143,87.76796265616706,15.536231,3.8489592,13.982817,53.837837,4.3537664,-1.0029718,-17.838974,-3.695086,0.9373064,7.2408624,-9.142493,8.883872,-8.949618,-1.7988203,6.5016317,21.421719,29.852703,-18.280918,-51.24709,7.59915,2.5104125,8.7124815,41.553936,-20.073795,14.63269,-30.279682,-9.269723,2.2804105,-2.3379076
75,-0.11781802028417587,123.07413482666016,77.52234649658203,2.6768971712014027,0.159803101033678,87.31957541437903,14.8484125,5.7422175,14.88434,58.457073,2.4867327,0.013584914,-17.86998,-2.3717632,1.543684,9.346916,-8.2788105,8.969917,-8.193257,-0.9831219,7.3118024,21.800543,29.731007,-18.246975,-50.744522,7.11319,2.33953,9.134448,40.5483,-20.2052,14.559435,-29.977812,-9.266298,2.318599,-2.5375855
76,-0.028861474245786667,124.56951141357422,77.102294921875,1.8344035315418423,-0.16187214621518792,86.85188668906437,14.084257,7.7855043,15.647172,63.030663,0.72212464,0.81609863,-18.85938,-0.92857695,1.9848386,13.604683,-8.463986,8.491725,-7.4180794,-0.069108814,8.112243,22.150755,29.509394,-18.2029,-50.048412,6.883558,2.2229056,9.519247,39.34853,-20.384312,14.561942,-29.608551,-9.3132105,2.374796,-2.7625418
77,0.03466908633708954,126.06153869628906,76.61000061035156,0.89284266456253,-0.5052190449983934,86.31472423197684,13.331128,10.033,16.34362,67.607346,-0.8942438,1.288383,-20.276947,0.63085216,2.218828,18.960775,-8.781975,7.1170964,-6.60836,0.9372786,8.962691,22.51738,29.204094,-18.10154,-49.228565,6.9359026,2.190297,9.849505,37.96059,-20.625954,14.634789,-29.224188,-9.429996,2.441995,-2.9869587
78,0.09676296263933182,127.51183319091797,76.06401824951172,-0.03953595715592591,-0.9044269790058136,85.74548665832737,12.623037,12.319339,16.973162,72.193184,-2.4351687,1.5492635,-21.974483,2.162701,2.239256,25.226004,-9.107211,5.12218,-5.8002276,1.929654,9.880211,22.92848,28.823635,-17.939398,-48.292393,7.2013173,2.217134,10.151231,36.389133,-20.93107,14.797521,-28.822865,-9.582988,2.5197935,-3.2412086
79,0.1494152694940567,128.94395446777344,75.48281860351562,-0.8535435312947516,-1.2859259468920967,85.27874496477445,11.780903,14.426088,17.378479,76.655594,-3.9229088,1.8201983,-23.488995,3.440123,2.0657995,31.23777,-9.610104,3.0476394,-5.0987215,2.791729,10.748333,23.38259,28.370111,-17.75047,-47.197857,7.653022,2.2633834,10.455076,34.620026,-21.290895,15.099196,-28.336294,-9.730354,2.6276493,-3.5750942
80,0.22809343039989471,130.3568878173828,74.9242935180664,-1.5326744348898058,-1.5476992545766002,85.02145446619289,10.568621,16.230959,17.390963,80.885475,-5.389602,2.291575,-24.475912,4.379995,1.7508107,36.056324,-10.585963,1.4327763,-4.5720534,3.4981682,11.440403,23.858953,27.837666,-17.580462,-45.882374,8.265708,2.2885702,10.792291,32.636868,-21.690132,15.575134,-27.685942,-9.832168,2.783661,-4.0369673
81,0.3185943365097046,131.7823944091797,74.40819549560547,-2.1417966033927893,-1.6195022269530122,84.98334652253659,8.804824,17.768349,16.889332,84.985115,-6.8753886,3.0627203,-24.963123,5.0394793,1.2833735,39.666607,-12.442682,0.38895562,-4.2255774,4.085973,11.908427,24.36918,27.202253,-17.422817,-44.27308,9.0499115,2.2657747,11.143769,30.359114,-22.129745,16.258377,-26.817158,-9.84979,3.0048354,-4.6745996
82,0.3823929727077484,133.22886657714844,73.93343353271484,-2.7272923589720386,-1.544806453277872,85.09236243960014,6.5868683,19.10453,15.977694,88.992966,-8.352374,3.982199,-25.19179,5.539093,0.6756219,42.663975,-15.006835,-0.38178483,-4.0092106,4.616611,12.2202425,24.907705,26.454012,-17.258633,-42.404984,10.015441,2.2233899,11.497411,27.819988,-22.602741,17.114275,-25.796425,-9.808301,3.2762742,-5.4557805
83,0.4255850911140442,134.6605682373047,73.52041625976562,-3.2450568754744697,-1.391310422472154,85.32753627000186,4.079228,20.17996,14.832848,92.718956,-9.745421,4.8705277,-25.17894,5.8966045,0.018775871,45.128487,-17.754946,-0.94646,-3.8818011,5.0957913,12.424915,25.417776,25.62127,-17.130905,-40.37702,11.138614,2.20556,11.899181,25.189215,-23.067135,18.061684,-24.732147,-9.769088,3.5679867,-6.300555
84,0.4525391459465027,136.07591247558594,73.1967544555664,-3.64468335594524,-1.2301355172991908,85.68019196601756,1.4709259,20.957716,13.646534,95.94524,-10.9743595,5.564979,-24.90024,6.095855,-0.59942204,47.090416,-20.153187,-1.3617494,-3.7896879,5.5136757,12.571486,25.832117,24.761547,-17.102959,-38.287525,12.393596,2.2597363,12.404248,22.635382,-23.462635,19.007551,-23.712978,-9.806087,3.8504288,-7.115954
85,0.49330639839172363,137.4701690673828,72.95437622070312,-3.900363901108916,-1.055013239023339,86.23117450345138,-1.3220191,21.426016,12.37811,98.67526,-12.004698,6.058072,-24.305672,6.0402837,-1.2106603,48.48592,-22.142553,-1.5791136,-3.7417939,5.8323793,12.649434,26.091139,23.914276,-17.235163,-36.02986,13.983985,2.4609466,13.127443,20.131945,-23.736193,19.949612,-22.644596,-9.950601,4.155745,-7.9194264
86,0.5379109978675842,138.89749145507812,72.78468322753906,-4.044759611492773,-0.836142971780925,86.959444252634,-4.3565454,21.605902,10.9883795,101.00853,-12.868242,6.439604,-23.413355,5.7510533,-1.853294,49.332436,-23.992928,-1.5933084,-3.715539,6.0519037,12.641751,26.238697,23.096785,-17.501923,-33.60445,15.845048,2.7830613,14.015344,17.621437,-23.869497,20.889797,-21.500607,-10.17937,4.4868455,-8.726659
87,0.58992600440979,140.32794189453125,72.6826400756836,-4.115639303244051,-0.6134884113913143,87.69918365383569,-7.3989162,21.555304,9.682263,102.88684,-13.599948,6.6977096,-22.299599,5.386772,-2.4407094,49.76836,-25.653063,-1.5147674,-3.6112263,6.2186737,12.584769,26.372238,22.343025,-17.838425,-31.286787,17.546503,3.1072922,14.883763,15.210896,-23.865417,21.765747,-20.444847,-10.484693,4.770367,-9.442737
88,0.6343985199928284,141.78549194335938,72.6396713256836,-4.155249249919979,-0.426746603382985,88.28470199841458,-10.21561,21.35523,8.658024,104.24889,-14.238409,6.8189416,-21.044498,5.1087456,-2.878581,49.932056,-27.071863,-1.45727,-3.332863,6.3769526,12.513159,26.593107,21.697197,-18.181412,-29.35782,18.655888,3.293763,15.564943,13.000465,-23.745678,22.529251,-19.632526,-10.856294,4.930219,-9.976144
89,0.6646445989608765,143.25631713867188,72.65084075927734,-4.162377565854887,-0.30493319787358736,88.65928426953464,-12.757735,21.01649,7.9663463,105.063515,-14.781401,6.7733107,-19.626543,4.952705,-3.1168244,49.82523,-28.270067,-1.4394658,-2.8377275,6.5363984,12.455734,26.939228,21.196623,-18.555733,-27.909885,18.969538,3.293389,16.09068,11.017289,-23.518278,23.167395,-19.111912,-11.362516,4.924462,-10.287655
90,0.6761954426765442,144.72998046875,72.70994567871094,-4.123269937945205,-0.22381850785130986,88.91466536023248,-15.140085,20.539547,7.511833,105.36782,-15.211378,6.5806093,-18.017246,4.829577,-3.21269,49.386288,-29.263914,-1.4012051,-2.174435,6.6658673,12.388605,27.367727,20.852415,-18.9869,-26.814491,18.731552,3.1724927,16.541939,9.210375,-23.183868,23.713608,-18.793163,-11.983331,4.7975917,-10.434481
91,0.6712573766708374,146.2078857421875,72.81409454345703,-4.053268096380042,-0.14161378651697068,89.10770985795692,-17.37826,19.999008,7.258604,105.19548,-15.545293,6.3002777,-16.28608,4.7142005,-3.2256896,48.653652,-29.992926,-1.3435798,-1.3996569,6.7505727,12.267927,27.866575,20.657272,-19.40391,-26.03133,18.184893,2.9560375,16.82393,7.5542374,-22.762589,24.2082,-18.615263,-12.569724,4.6014447,-10.476154
92,0.6770630478858948,147.6984405517578,72.97953033447266,-3.9658147325194593,-0.015938510852607363,89.29535989483595,-19.486906,19.460432,7.169611,104.58104,-15.800945,5.9904485,-14.502012,4.585133,-3.2162497,47.66707,-30.397715,-1.2706455,-0.5799927,6.7763953,12.053317,28.433558,20.591377,-19.726711,-25.531435,17.57464,2.6739328,16.838413,6.0277753,-22.289883,24.692102,-18.537745,-12.97019,4.389624,-10.472991
93,0.680310070514679,149.2178497314453,73.20626068115234,-3.8671831847947633,0.17240565891167928,89.46210771905659,-21.489267,18.945478,7.2573614,103.51075,-15.988483,5.6383753,-12.6456585,4.455734,-3.1721895,46.34259,-30.484602,-1.189132,0.28823894,6.7554975,11.726126,29.087643,20.649734,-19.933544,-25.396479,16.8865,2.2954342,16.458622,4.648218,-21.791874,25.171957,-18.624905,-13.1356125,4.1583576,-10.412214
94,0.6738764047622681,150.756591796875,73.48467254638672,-3.7506495577864487,0.3980433835899172,89.58705079953018,-23.361526,18.433552,7.527802,101.967964,-16.10657,5.2217884,-10.693115,4.3306284,-3.0702682,44.693283,-30.280403,-1.0967048,1.2216444,6.6923547,11.31611,29.82947,20.82834,-20.0619,-25.616928,16.01211,1.827534,15.758446,3.4289238,-21.278252,25.63605,-18.892761,-13.140443,3.8857,-10.277758
95,0.6592245101928711,152.32525634765625,73.82006072998047,-3.607141644859221,0.6364120290514503,89.71959437849561,-25.044426,17.912542,7.9415545,99.9826,-16.155676,4.783546,-8.710393,4.177538,-2.955562,42.91303,-29.760342,-0.9857339,2.1686172,6.5650883,10.857002,30.630863,21.096882,-20.118227,-26.028505,15.062414,1.3535345,14.943967,2.345984,-20.760885,26.09523,-19.241283,-13.016574,3.6001563,-10.123613
96,0.6321277618408203,153.9180145263672,74.19772338867188,-3.4276357650641494,0.8629160236488753,89.9101181925813,-26.478235,17.359295,8.46108,97.58217,-16.132605,4.3605137,-6.76348,3.965876,-2.87454,41.19501,-28.899252,-0.84923077,3.0702233,6.356401,10.381303,31.457605,21.407406,-20.103788,-26.44996,14.159954,0.9447287,14.223485,1.3665253,-20.255247,26.566002,-19.559315,-12.798427,3.3310473,-10.002734
97,0.603719174861908,155.52447509765625,74.60782623291016,-3.2022152299606144,1.0771025603959752,90.18838980303,-27.645359,16.777302,9.126246,94.74245,-16.0502,3.9821784,-4.830297,3.6817253,-2.8330388,39.519344,-27.661285,-0.68512154,3.903449,6.0613465,9.881421,32.285828,21.72568,-20.01354,-26.834826,13.332238,0.57261086,13.573088,0.47187287,-19.777325,27.070126,-19.814692,-12.418797,3.0844638,-9.966583
98,0.5685200095176697,157.1591796875,75.049072265625,-2.937045777492663,1.2895729377772946,90.52477913184202,-28.56402,16.154348,9.946288,91.45089,-15.911627,3.6062365,-2.8940566,3.3443384,-2.8102148,37.81826,-26.076553,-0.49873394,4.6848893,5.6999955,9.346397,33.12389,22.03964,-19.845884,-27.247375,12.530349,0.21125074,12.900895,-0.32097703,-19.337345,27.604855,-20.068844,-11.883603,2.847113,-9.974613
99,0.5119205713272095,158.81419372558594,75.51165008544922,-2.6515430524947,1.492676667949388,90.8798582440253,-29.235483,15.444937,10.829403,87.74973,-15.698137,3.1640725,-1.0277884,2.977011,-2.8125877,36.214245,-24.218317,-0.2945267,5.4175024,5.2965307,8.803498,33.980583,22.334755,-19.607147,-27.672186,11.767235,-0.075882785,12.318463,-0.9930081,-18.939962,28.146587,-20.351015,-11.334561,2.6191044,-9.942253
100,0.44949090480804443,160.4786376953125,75.98070526123047,-2.3677006152983546,1.6788596316965703,91.21333948353751,-29.667263,14.620131,11.672914,83.67389,-15.388845,2.6007428,0.69838434,2.6054916,-2.8444204,34.82404,-22.153948,-0.076231934,6.107475,4.876422,8.278693,34.861984,22.595293,-19.303684,-28.08894,11.058688,-0.2283686,11.93943,-1.5265172,-18.58553,28.670366,-20.685488,-10.913452,2.401718,-9.785546
101,0.3801804482936859,162.15528869628906,76.45674133300781,-2.0808315079514728,1.848503866351642,91.51796685656949,-29.838175,13.686788,12.485429,79.15841,-14.96332,1.9166449,2.2796779,2.2282634,-2.9178507,33.647793,-19.806868,0.12606628,6.7648478,4.437999,7.7718287,35.75969,22.804766,-18.928896,-28.470884,10.363484,-0.20995352,11.842765,-1.9091114,-18.273918,29.173956,-21.075315,-10.643981,2.1948528,-9.489491
102,0.3101232349872589,163.8397216796875,76.92020416259766,-1.7863570978068275,2.004162702026097,91.81427759126437,-29.748613,12.6572275,13.291106,74.190636,-14.4361315,1.14475,3.7506287,1.8407497,-3.0236545,32.635624,-17.171946,0.32988307,7.379488,3.9771616,7.2710586,36.664837,22.95693,-18.481655,-28.821146,9.696298,-0.06754053,11.953037,-2.1607604,-18.00934,29.672766,-21.500992,-10.455245,1.9990327,-9.096456
103,0.2300083190202713,165.552734375,77.36762237548828,-1.5040430251806067,2.1422826435684055,92.10143143204999,-29.44508,11.531709,14.003016,68.87408,-13.839002,0.29648146,5.1090674,1.4666634,-3.127175,31.808432,-14.410121,0.6035961,7.9329,3.51736,6.7848477,37.582893,23.058182,-17.975374,-29.17413,9.152888,0.13496517,12.152457,-2.301846,-17.794697,30.165707,-21.969664,-10.345435,1.816179,-8.6107
104,0.13339996337890625,167.26470947265625,77.78746795654297,-1.2515482839542225,2.259823362589861,92.37700330435374,-28.97249,10.322134,14.534944,63.29811,-13.2007675,-0.60815215,6.35558,1.1313126,-3.1874447,31.178135,-11.676197,1.0132715,8.410913,3.0789623,6.3212442,38.525135,23.12395,-17.422686,-29.572897,8.828578,0.33749652,12.3229885,-2.3526196,-17.633501,30.648252,-22.485104,-10.313389,1.6475887,-8.035336
105,0.03546007722616196,168.981689453125,78.169921875,-1.0102753291778237,2.362101870553775,92.64471345069065,-28.27331,8.9969845,14.892011,57.259438,-12.479979,-1.5639511,7.4843655,0.81969076,-3.1769326,30.726847,-8.897825,1.5680213,8.816007,2.636474,5.873744,39.50681,23.164797,-16.81657,-30.03569,8.784016,0.53836346,12.467573,-2.2891924,-17.527626,31.108265,-23.066025,-10.404507,1.4926609,-7.323231
106,-0.0572788342833519,170.70816040039062,78.50823211669922,-0.7832501737663261,2.4475339126060494,92.89789230225192,-27.315472,7.598509,15.087846,50.71235,-11.656254,-2.5454483,8.514065,0.5431043,-3.1003876,30.420015,-6.0106144,2.2503042,9.166668,2.1928864,5.4428306,40.524014,23.18252,-16.151262,-30.552395,8.951847,0.7666767,12.639203,-2.1029832,-17.479198,31.542778,-23.715975,-10.603563,1.3476863,-6.488722
107,-0.15729700028896332,172.43988037109375,78.79304504394531,-0.6317336287275207,2.503406795550111,93.12280316820504,-26.198921,6.2604017,15.0514345,44.022457,-10.802046,-3.5056717,9.471478,0.37331635,-2.969289,30.27239,-3.1990838,3.0714302,9.472343,1.8207115,5.045372,41.55587,23.181683,-15.446202,-31.12888,9.236618,1.0097228,12.795123,-1.8309486,-17.490992,31.95632,-24.425106,-10.817328,1.2106003,-5.6267986
108,-0.26661479473114014,174.178955078125,79.0127182006836,-0.6104647314616213,2.5174849182092505,93.30673917666432,-25.024778,5.1018095,14.733672,37.557957,-9.984574,-4.413247,10.379776,0.3698609,-2.8019485,30.298615,-0.6477745,4.024353,9.730215,1.5833458,4.7013717,42.60602,23.166319,-14.70196,-31.790934,9.540271,1.2526917,12.889958,-1.5172542,-17.565966,32.369705,-25.18417,-10.95188,1.0833825,-4.8370457
109,-0.37241828441619873,175.9088897705078,79.15763854980469,-0.7907805528631815,2.4848799277860856,93.43939183926405,-23.75601,4.1560636,14.038699,31.150763,-9.175345,-5.3348756,11.286271,0.6199394,-2.5654714,30.415882,1.6533804,5.1656537,9.963874,1.5547453,4.391263,43.68456,23.14472,-13.917529,-32.556183,9.911568,1.5050683,12.8917675,-1.1407553,-17.709682,32.77637,-26.01598,-11.011856,0.974319,-4.108222
110,-0.4866572916507721,177.62991333007812,79.24003601074219,-1.1723803000578792,2.4012813077028565,93.51331077216334,-22.302477,3.4553223,13.014547,24.607607,-8.315866,-6.246643,12.177202,1.1088766,-2.2440789,30.640472,3.8026571,6.448467,10.186146,1.7288517,4.1176376,44.804836,23.117859,-13.086617,-33.433083,10.375119,1.7695744,12.831262,-0.681457,-17.927324,33.164906,-26.931967,-11.037221,0.88180035,-3.3998094
111,-0.594725489616394,179.33123779296875,79.26095581054688,-1.6976047766731144,2.2560981520454653,93.52499131333188,-20.753355,3.0700583,11.855914,18.36955,-7.46176,-7.0391192,12.979342,1.73462,-1.9042914,31.143642,5.74277,7.6987762,10.399303,2.0598626,3.924799,45.918377,23.07654,-12.246243,-34.378544,10.804195,2.0241487,12.766136,-0.17256099,-18.219131,33.518482,-27.906157,-10.98975,0.79459524,-2.756729
112,-0.7157924771308899,181.00474548339844,79.2249526977539,-2.2579588089472877,2.052708861364455,93.48960231399552,-19.260145,2.9508765,10.786246,12.951655,-6.693327,-7.646013,13.58848,2.343284,-1.6420002,32.13203,7.3876553,8.756788,10.583702,2.4530349,3.8505006,46.962273,23.006483,-11.436337,-35.325745,11.074132,2.2472677,12.754283,0.34439495,-18.580034,33.82633,-28.901169,-10.831758,0.7015202,-2.2248526
113,-0.8493664860725403,182.6537322998047,79.13606262207031,-2.7786701402059117,1.8073797379229923,93.4144591664025,-17.782423,2.9657466,9.900439,8.21846,-5.975961,-8.044454,13.921001,2.8424473,-1.490319,33.75606,8.718274,9.633866,10.720255,2.8371003,3.8923514,47.941257,22.888426,-10.65544,-36.260754,11.158881,2.4381182,12.795153,0.829498,-19.013056,34.116802,-29.892792,-10.544092,0.59825927,-1.8282619
114,-0.9866557121276855,184.26614379882812,78.99916076660156,-3.2436692056415803,1.537469044912916,93.32452675871133,-17.763662,3.2376547,9.034116,7.0867023,-6.914694,-8.32899,13.987308,3.21037,-1.449307,35.971928,9.723039,10.3978615,10.783306,3.1903484,4.026942,48.854233,22.716742,-9.889519,-37.18378,11.128632,2.605157,12.860126,1.3008434,-19.516777,34.394768,-30.89323,-10.149981,0.49133074,-1.5411683
115,-1.1166809797286987,185.85194396972656,78.81484985351562,-3.5713985400322703,1.2670816309028872,93.2787198134882,-18.02626,3.3866394,8.22153,6.98536,-7.98773,-8.575672,13.804504,3.3361344,-1.5847307,38.69961,10.313631,10.993069,10.724298,3.421071,4.2549763,49.61869,22.508102,-9.158091,-38.037254,10.999997,2.7414174,12.9667,1.7941155,-20.06719,34.614506,-31.893415,-9.675567,0.38418722,-1.3355716
116,-1.2225284576416016,187.42323303222656,78.58177185058594,-3.7072689264038297,1.0149880867477246,93.32632717539434,-18.109354,3.265334,7.4520683,6.932774,-8.509374,-8.8340435,13.414337,3.1403348,-1.9456644,41.824574,10.420073,11.365075,10.508922,3.4588797,4.5748158,50.167187,22.296766,-8.479253,-38.780792,10.785172,2.8409982,13.136049,2.3433275,-20.62428,34.72603,-32.878338,-9.149816,0.27967906,-1.1804515
117,-1.297343373298645,188.99588012695312,78.29480743408203,-3.647019350699825,0.7783118600161496,93.46611015635568,-17.987772,2.8837967,6.665624,6.9258895,-8.399342,-9.338239,12.838499,2.5705738,-2.6196167,45.40124,9.9553585,11.454351,10.136446,3.2777143,4.9889593,50.52021,22.10369,-7.847509,-39.433113,10.414832,2.8884997,13.395462,2.9241617,-21.154184,34.719788,-33.827858,-8.531974,0.1680509,-1.0668765
118,-1.3499407768249512,190.54649353027344,77.94888305664062,-3.393121639084779,0.555873723312479,93.68008563258887,-17.667753,2.2711854,5.892725,6.95538,-7.755639,-9.973649,12.080301,1.6267996,-3.5345244,49.43399,8.981268,11.299792,9.623156,2.8799016,5.481703,50.708725,21.936872,-7.254473,-40.00793,9.898336,2.8915508,13.733313,3.5052164,-21.638996,34.622482,-34.70913,-7.82974,0.04968029,-1.0059501
119,-1.4399151802062988,192.00389099121094,77.63057708740234,-2.919040700510685,0.36134345418857267,93.98444821796377,-17.197582,1.4145281,5.22754,7.0356846,-6.695556,-10.266747,11.168507,0.3551672,-4.4804935,53.71642,7.665932,11.014315,8.971064,2.2543194,6.024374,50.69436,21.818985,-6.7099295,-40.467365,9.36331,2.8798158,14.11304,4.1079454,-22.062216,34.43632,-35.480473,-7.14482,-0.057169426,-0.99591327
120,-1.537140965461731,193.4307403564453,77.2773208618164,-2.220570356635053,0.1995879202497411,94.38664941776159,-16.623547,0.32440293,4.7633862,7.184326,-5.314268,-9.745507,10.132059,-1.1443539,-5.248357,58.033546,6.193136,10.723628,8.198752,1.4126525,6.591127,50.445713,21.783594,-6.22673,-40.78374,8.934149,2.8859181,14.501338,4.7663927,-22.410112,34.154915,-36.112087,-6.5784025,-0.13418293,-1.035029
121,-1.6081037521362305,194.8765106201172,76.84381103515625,-1.2884787293863975,0.04412094713744577,94.92590900208873,-18.33747,-0.8298042,4.5581756,12.601611,-5.9242806,-7.995723,9.022573,-2.828752,-5.810583,62.40242,4.5280914,10.472372,7.2827134,0.33939925,7.2010064,50.00424,21.864979,-5.7938547,-41.026024,8.586201,2.9375849,14.885163,5.4941125,-22.676083,33.77449,-36.636066,-6.1276894,-0.16095802,-1.1247683
122,-1.6647018194198608,196.3276824951172,76.33735656738281,-0.3495601160918939,-0.15906922414997116,95.52628671821577,-20.29454,-1.9504803,4.6120687,19.014847,-6.334714,-5.4367175,7.9066386,-4.4676867,-6.244189,66.80402,2.6737099,10.165336,6.3029823,-0.74341357,7.8639746,49.419586,22.07294,-5.421865,-41.24001,8.261774,3.0151494,15.295235,6.295315,-22.861374,33.279377,-37.070442,-5.7502384,-0.15022822,-1.2571458
123,-1.7309391498565674,197.7467498779297,75.79132080078125,0.3998540045351678,-0.40610937311806655,96.05997547098156,-22.041235,-2.8213706,4.825592,25.279045,-6.8279963,-2.7682073,6.750314,-5.8442836,-6.5188365,71.063835,0.814145,9.762042,5.395166,-1.6212928,8.542213,48.63377,22.396898,-5.154957,-41.328823,8.0376,3.08058,15.7625,7.1820717,-22.96469,32.651726,-37.363026,-5.486532,-0.13522232,-1.4223882
124,-1.7958025932312012,199.1499786376953,75.20952606201172,1.0135686973092481,-0.6335590093166594,96.46402471165668,-23.258226,-3.5215883,5.08214,30.439772,-7.8086834,-0.6133124,5.4269977,-7.0336123,-6.5877986,75.1103,-0.93335843,9.282365,4.6241946,-2.3362968,9.177255,47.541794,22.81465,-5.0308456,-41.14334,7.99307,3.0942485,16.313507,8.146796,-22.970642,31.890446,-37.438812,-5.3746624,-0.15180738,-1.619187
125,-1.8539892435073853,200.53553771972656,74.62867736816406,1.652356670559717,-0.8000523611390233,96.80822912701073,-24.037783,-4.25748,5.330214,34.615135,-9.750464,0.97692007,3.850134,-8.208031,-6.408698,79.07488,-2.6037786,8.753823,3.9297128,-3.0541422,9.76608,46.085007,23.323622,-5.018742,-40.664032,8.179725,3.0344687,16.91147,9.168984,-22.855492,30.97734,-37.289955,-5.3578496,-0.224434,-1.7718061
126,-1.9164432287216187,201.90171813964844,74.0910415649414,2.3500917085849418,-0.9184541587335456,97.1270736250874,-24.609125,-5.0473337,5.5881863,38.410023,-12.4531555,2.3354404,2.0507638,-9.3772955,-6.010084,83.000656,-4.2673626,8.197253,3.2766557,-3.8178518,10.31728,44.302402,23.921497,-5.1147857,-39.937748,8.546528,2.928851,17.55964,10.232631,-22.602957,29.936628,-36.91183,-5.4372826,-0.32929096,-1.9083445
127,-1.9734368324279785,203.26339721679688,73.59759521484375,3.006143378257606,-0.9940891581349524,97.3144280160783,-24.921324,-5.731676,5.8561053,41.725437,-15.386139,3.4184167,0.066016525,-10.429026,-5.436978,86.67739,-5.8594117,7.6244264,2.7402196,-4.518162,10.786411,42.249638,24.5707,-5.3862534,-38.925632,9.024684,2.8124778,18.339806,11.319429,-22.208464,28.843672,-36.224674,-5.739773,-0.42800453,-2.182215
128,-2.0304877758026123,204.6271514892578,73.16462707519531,3.510670813258635,-1.0329316596999132,97.26149604064842,-24.898983,-6.141802,6.1653786,44.40512,-17.982534,4.183141,-2.0740297,-11.256962,-4.741441,89.8981,-7.309988,7.031651,2.3766801,-5.030983,11.1410885,39.999203,25.210087,-5.8895288,-37.598263,9.551334,2.7199001,19.3241,12.405406,-21.679949,27.784113,-35.156403,-6.393201,-0.4774,-2.7460997
129,-2.106320858001709,205.9834442138672,72.82500457763672,3.821529806734426,-1.0063494027545599,96.8467743665865,-24.491974,-6.1559815,6.6113205,46.3458,-20.183178,4.526906,-4.4970784,-11.816995,-3.839565,92.67947,-8.572807,6.367892,2.2303858,-5.269245,11.369002,37.452663,25.796787,-6.707912,-35.79602,10.159631,2.6515906,20.726648,13.464386,-21.00479,26.782425,-33.535454,-7.540026,-0.43613908,-3.7505271
130,-2.180274486541748,207.3425750732422,72.56615447998047,4.007338693912385,-0.9171672253904658,96.16130570902939,-23.755428,-5.8980994,7.186958,47.669605,-22.267986,4.5075808,-7.1941147,-12.165006,-2.7452123,95.115105,-9.682112,5.6404834,2.2283144,-5.3249965,11.497463,34.66681,26.305464,-7.7431126,-33.641632,10.87499,2.6034026,22.437193,14.481694,-20.182383,25.81311,-31.428425,-9.078984,-0.3082511,-5.065716
131,-2.260422706604004,208.725830078125,72.38124084472656,4.123537426176448,-0.8218049204965776,95.41287983926208,-22.75844,-5.5589995,7.774838,48.527473,-24.163448,4.3239107,-9.92478,-12.3625345,-1.666609,97.10882,-10.689601,4.9298415,2.2338326,-5.3343973,11.56057,31.937883,26.70068,-8.774996,-31.500315,11.628031,2.5930498,24.022024,15.454722,-19.266489,24.898977,-29.135578,-10.774368,-0.12892707,-6.433022
132,-2.339433431625366,210.12997436523438,72.2704849243164,4.223159771005883,-0.7769016485939014,94.80967093308172,-21.574213,-5.327176,8.237524,49.0702,-25.794388,4.171276,-12.443181,-12.494796,-0.80968064,98.56227,-11.648642,4.319394,2.0996518,-5.419972,11.593176,29.517433,26.952154,-9.613326,-29.677294,12.360972,2.6197634,25.031557,16.404234,-18.344955,24.076103,-27.001501,-12.385136,0.040291168,-7.616932
133,-2.4060721397399902,211.54052734375,72.21996307373047,4.311847011125033,-0.8109151881698515,94.37037402225427,-20.163734,-5.216992,8.55763,49.283867,-27.175253,4.0670333,-14.7201395,-12.573097,-0.19595203,99.44716,-12.575323,3.8148994,1.8037139,-5.587547,11.626064,27.385445,27.022217,-10.229554,-28.094847,13.154206,2.7100854,25.230024,17.40213,-17.470903,23.345625,-25.08071,-14.083875,0.20718367,-8.712024
134,-2.4806745052337646,212.95790100097656,72.22064971923828,4.365420391861419,-0.8920754539399158,93.99745189913668,-18.508488,-5.1337776,8.798235,49.109932,-28.3359,3.9159954,-16.871002,-12.577906,0.2601015,99.81711,-13.43671,3.376448,1.3885672,-5.75581,11.639839,25.409126,26.900984,-10.723124,-26.595207,14.025514,2.830379,24.870962,18.448393,-16.664228,22.712921,-23.27059,-15.903743,0.40100196,-9.814789
135,-2.548577070236206,214.3944091796875,72.27607727050781,4.3926244635348795,-0.9854571505673468,93.72452922377158,-16.711954,-5.096815,8.925143,48.626755,-29.22156,3.743217,-18.865007,-12.572526,0.5257356,99.69789,-14.2209835,3.0225983,0.8280153,-5.909851,11.592939,23.617365,26.63069,-11.143184,-25.320183,14.820702,2.8853886,24.248018,19.491657,-15.973795,22.19501,-21.698915,-17.397175,0.5510754,-10.70772
136,-2.60891056060791,215.8551483154297,72.39166259765625,4.404278520396575,-1.0553836471585787,93.58526052620088,-14.879806,-5.1241283,8.902623,47.915535,-29.77923,3.5760176,-20.67208,-12.622637,0.5710286,99.116425,-14.918886,2.7715404,0.1106819,-6.037927,11.452613,22.053928,26.283367,-11.533301,-24.443954,15.367523,2.7955017,23.671083,20.51155,-15.466302,21.792393,-20.532251,-18.111034,0.5641887,-11.182129
137,-2.6741552352905273,217.31820678710938,72.56298065185547,4.399666802808071,-1.0957447153873543,93.66623561366059,-13.020843,-5.2555084,8.63847,46.950375,-30.01408,3.4279077,-22.270945,-12.7769375,0.33527854,98.047775,-15.540447,2.6812425,-0.8123213,-6.1506796,11.221145,20.776737,25.89689,-11.871259,-24.114729,15.5595665,2.504883,23.13494,21.566936,-15.205176,21.497982,-19.975248,-17.69414,0.3748742,-11.088234
138,-2.743494987487793,218.80328369140625,72.80011749267578,4.373663185193847,-1.1233963513163094,93.92441897780489,-11.0872965,-5.4537873,8.169159,45.711266,-29.95243,3.281876,-23.673038,-13.015224,-0.14796314,96.48744,-16.095558,2.722325,-1.9038126,-6.2360377,10.928305,19.75336,25.47114,-12.157254,-24.2361,15.479334,2.0744624,22.523262,22.724869,-15.20115,21.29488,-19.983984,-16.431265,0.045878444,-10.575211
139,-2.816460132598877,220.31263732910156,73.0885009765625,4.325379062460295,-1.1366718478040478,94.19840995396467,-9.10037,-5.627529,7.6552124,44.29059,-29.574738,3.12193,-24.89491,-13.281381,-0.7713838,94.4939,-16.575352,2.7877681,-3.0345595,-6.2533393,10.580967,18.88987,25.028873,-12.469749,-24.615425,15.239171,1.6104326,21.981956,23.96783,-15.422121,21.15497,-20.323673,-14.835636,-0.3316701,-9.880162
140,-2.8831725120544434,221.84042358398438,73.43043518066406,4.256818037627389,-1.1346944153624694,94.325750278633,-7.0818286,-5.6959906,7.2635965,42.777546,-28.859497,2.9325905,-25.94908,-13.503495,-1.4348164,92.11966,-16.969975,2.779687,-4.0622354,-6.1715612,10.184159,18.091108,24.609915,-12.895372,-25.063335,14.951299,1.2182214,21.659615,25.266842,-15.808633,21.038548,-20.743633,-13.435975,-0.6908454,-9.24725
141,-2.9471471309661865,223.39071655273438,73.8228988647461,4.163058567239816,-1.1125749275008066,94.26264573460973,-4.995336,-5.64657,7.023101,41.119312,-27.786098,2.7088306,-26.835052,-13.667008,-2.162548,89.345184,-17.32435,2.6695352,-4.944392,-5.994464,9.716218,17.354048,24.256437,-13.499842,-25.588518,14.598508,0.93510175,21.715322,26.592905,-16.332718,20.944548,-21.188957,-12.278842,-1.0814775,-8.661185
142,-3.0091936588287354,224.97975158691406,74.25897979736328,4.044827701434332,-1.0725438922296582,94.0935737514048,-2.847526,-5.5240107,6.8534856,39.302227,-26.376354,2.4594004,-27.526758,-13.777578,-3.0115573,86.14477,-17.636017,2.5347414,-5.7304177,-5.747768,9.183932,16.724102,23.982399,-14.239102,-26.283463,14.126781,0.70382243,22.038488,27.9593,-16.984076,20.864803,-21.76455,-11.12391,-1.5172393,-8.005756
143,-3.0569183826446533,226.58291625976562,74.72550201416016,3.9076941776751886,-1.0252805490567631,93.84895620067572,-0.72073865,-5.3444066,6.761713,37.469654,-24.671257,2.1902974,-28.005669,-13.789943,-3.9292996,82.55694,-17.821104,2.4353962,-6.4218373,-5.439628,8.631467,16.179777,23.779602,-15.027687,-27.08412,13.596827,0.48716652,22.37026,29.38113,-17.717894,20.753895,-22.429974,-10.082018,-1.9048795,-7.387111
144,-3.0966475009918213,228.20654296875,75.21564483642578,3.7564363166737644,-0.9812939582932768,93.55973676465743,1.3035507,-5.126892,6.7538996,35.765175,-22.710186,1.9070596,-28.261284,-13.670559,-4.853955,78.61321,-17.794025,2.4191568,-7.023757,-5.0826697,8.097529,15.692694,23.62852,-15.780023,-27.913515,13.075844,0.25251213,22.448034,30.853825,-18.468962,20.57154,-23.1137,-9.278065,-2.1590476,-6.9133267
145,-3.134658098220825,229.85198974609375,75.71643829345703,3.5858538929396464,-0.9455827911957401,93.19352257881135,3.2427838,-4.867399,6.8752303,34.17053,-20.417233,1.638211,-28.279034,-13.405059,-5.80221,74.252304,-17.474277,2.4707644,-7.5034814,-4.6731343,7.580935,15.248302,23.518963,-16.504827,-28.741625,12.536714,0.00041997098,22.211113,32.35833,-19.189587,20.307955,-23.756725,-8.815324,-2.2546368,-6.634309
146,-3.1589720249176025,231.50711059570312,76.22398376464844,3.3983471573625055,-0.9138531756280291,92.74543942518028,5.12907,-4.5723577,7.109198,32.6351,-17.80365,1.3655505,-28.060898,-12.994934,-6.794112,69.46287,-16.924582,2.5845337,-7.859852,-4.2223973,7.0564766,14.842421,23.457518,-17.246328,-29.582777,11.96674,-0.25019813,21.790014,33.865955,-19.868664,19.983585,-24.34656,-8.628916,-2.2483745,-6.480767
147,-3.1766865253448486,233.17141723632812,76.7215347290039,3.2173136957864137,-0.8822684109703807,92.28913563324382,6.9123516,-4.277469,7.362445,31.230362,-15.024607,1.0235736,-27.635303,-12.455356,-7.7573433,64.34347,-16.263252,2.8007643,-8.154633,-3.7646952,6.5256224,14.4718075,23.449272,-17.964586,-30.440113,11.452173,-0.5017267,21.209896,35.35838,-20.49974,19.612318,-24.895607,-8.590793,-2.178733,-6.385139
148,-3.178358554840088,234.83290100097656,77.20240020751953,3.0651439627729786,-0.8453196855318963,91.90014319642877,8.542249,-4.0160007,7.5336905,30.020773,-12.229312,0.549321,-27.037344,-11.81988,-8.611601,58.98053,-15.603726,3.147419,-8.4566,-3.330482,5.990309,14.138525,23.498707,-18.613825,-31.314972,11.079008,-0.75974834,20.495401,36.815495,-21.080322,19.213394,-25.413774,-8.571783,-2.0825553,-6.281134
149,-3.1731672286987305,236.5038604736328,77.66043853759766,2.9137367281287077,-0.7866745780482495,91.59494344041235,10.003533,-3.759262,7.5984025,28.972776,-9.317128,-0.09578516,-26.199688,-11.077346,-9.391638,53.13322,-14.917723,3.6286006,-8.782751,-2.8900185,5.4287963,13.833685,23.613459,-19.187899,-32.197147,10.903589,-1.0430695,19.591522,38.24877,-21.610453,18.787655,-25.88545,-8.584114,-1.9697065,-6.1947765
150,-3.1686294078826904,238.17919921875,78.07719421386719,2.770131099635082,-0.7153002997255085,91.33861146687126,11.334642,-3.5174446,7.5853405,28.048304,-6.2440743,-0.8855163,-25.114641,-10.238792,-10.0998535,46.774033,-14.13405,4.2100782,-9.101909,-2.4479825,4.8485804,13.565797,23.797646,-19.705109,-33.097183,10.863343,-1.3458648,18.507347,39.66253,-22.088314,18.32978,-26.31316,-8.68101,-1.8212397,-6.1471186
151,-3.1603732109069824,239.8724365234375,78.43231201171875,2.7009468570302264,-0.6611149484067252,91.13137890309427,12.565518,-3.3779058,7.474467,27.292927,-3.2406197,-1.7721292,-23.906635,-9.398764,-10.610144,40.310562,-13.306589,4.8438888,-9.411141,-2.0856469,4.295526,13.359522,24.048237,-20.158243,-34.05637,10.869902,-1.6377302,17.362246,41.02954,-22.514553,17.84141,-26.740948,-8.798278,-1.6299343,-6.0620975
152,-3.1580772399902344,241.5699462890625,78.72222900390625,2.7718632823343974,-0.6536764870242461,90.97560542965125,13.714904,-3.4193296,7.2572284,26.764486,-0.53093094,-2.6892557,-22.70943,-8.66686,-10.805887,34.18062,-12.500048,5.477446,-9.71519,-1.8811475,3.8140743,13.242605,24.357344,-20.535925,-35.11572,10.8385,-1.8858203,16.273703,42.316967,-22.891188,17.331654,-27.206959,-8.870835,-1.3887339,-5.8657217
153,-3.1461246013641357,243.26412963867188,78.95172119140625,3.054975699402992,-0.7007101242066174,90.8883813540203,14.822155,-3.7337859,6.8501806,26.385714,1.9077057,-3.629885,-21.516844,-8.121569,-10.604994,28.304764,-11.711607,6.123314,-10.0361,-1.9016358,3.3899117,13.226057,24.727089,-20.830233,-36.302513,10.780304,-2.0745163,15.191622,43.558975,-23.226154,16.79164,-27.749361,-8.870692,-1.0654862,-5.5060143
154,-3.1285271644592285,244.9388427734375,79.12858581542969,3.5275327795319456,-0.7939574343487601,90.87572334800142,15.879552,-4.2731533,6.271357,26.142244,4.1911483,-4.601632,-20.244844,-7.786696,-10.080842,22.47349,-10.900668,6.7647448,-10.385229,-2.119237,3.0080082,13.303693,25.160904,-21.039822,-37.600056,10.731097,-2.2243788,14.078942,44.76477,-23.52208,16.225403,-28.349531,-8.836933,-0.6735337,-5.035248
155,-3.108017921447754,246.57894897460938,79.2498779296875,4.103635510056454,-0.9368136058458072,90.92030431991489,16.823137,-4.8946657,5.6850586,26.205112,6.228091,-5.5453415,-18.942923,-7.658378,-9.367906,16.993221,-10.099759,7.33877,-10.74643,-2.4684246,2.7096424,13.465948,25.64883,-21.166367,-38.974545,10.646583,-2.353494,13.070785,45.85542,-23.772152,15.66066,-28.952053,-8.806718,-0.2737907,-4.533171
156,-3.0982930660247803,248.1956024169922,79.31446075439453,4.674624800690262,-1.1238857938737252,90.99249613589662,17.559927,-5.428351,5.280424,26.779554,7.9026175,-6.4055033,-17.700142,-7.6512117,-8.612058,12.229941,-9.350269,7.817065,-11.087551,-2.8550017,2.5324104,13.68919,26.171083,-21.218119,-40.370506,10.4857,-2.4792168,12.301748,46.74184,-23.964088,15.129389,-29.488985,-8.818924,0.07202433,-4.077641
157,-3.0769615173339844,249.77926635742188,79.32615661621094,5.161491577697431,-1.3273144067556384,91.0915930727578,17.98389,-5.7847104,5.0710287,28.025581,9.158264,-7.2348304,-16.503685,-7.6473627,-7.8495183,8.104305,-8.562568,8.193441,-11.400788,-3.2011929,2.4706743,13.924698,26.721188,-21.202696,-41.776573,10.261322,-2.5845342,11.7923355,47.393085,-24.079332,14.624146,-29.93547,-8.9044485,0.35568088,-3.6503465
158,-3.03940486907959,251.32980346679688,79.28961181640625,5.581284273099495,-1.5417209588575704,91.20480834569469,18.109295,-5.9730554,5.021914,29.905228,10.015028,-8.020385,-16.606947,-7.764504,-6.8530297,7.1518197,-9.152532,8.505048,-11.665913,-3.515646,2.5026453,14.167284,27.29563,-21.130878,-43.18619,9.993172,-2.6679945,11.4757,47.836487,-24.11385,14.136343,-30.296808,-9.041667,0.60547316,-3.2177465
159,-2.994232177734375,252.84585571289062,79.20201110839844,5.930482365994961,-1.7833931516393033,91.27544984143252,18.022467,-5.9420724,5.2627425,32.30331,10.466757,-8.61758,-16.888433,-7.7956514,-5.797346,7.046459,-9.926617,8.792268,-11.823062,-3.7933614,2.6398766,14.449691,27.867975,-21.01756,-44.53996,9.651838,-2.7709875,11.354507,48.06766,-24.085384,13.696562,-30.544598,-9.185949,0.8150323,-2.836727
160,-2.949812412261963,254.34681701660156,79.06458282470703,6.220489883286828,-2.071492486903885,91.25446078006205,17.836933,-5.6643124,5.9045496,35.06071,10.526101,-8.889948,-16.940496,-7.7071295,-4.759152,7.000486,-10.504075,9.0857315,-11.8261385,-4.039288,2.8934758,14.802692,28.39689,-20.87378,-45.768185,9.212421,-2.9357367,11.426088,48.09407,-24.028471,13.33186,-30.665615,-9.288258,0.9802339,-2.567532
161,-2.923039436340332,255.83636474609375,78.87226104736328,6.508157545010345,-2.4307240705882527,91.1296910598474,17.623985,-5.159201,7.059078,38.182774,10.138511,-8.783556,-16.707544,-7.566241,-3.6902084,7.017367,-11.051211,9.482435,-11.663724,-4.290057,3.2814665,15.220528,28.846489,-20.695421,-46.85583,8.623495,-3.2064903,11.724859,47.940548,-23.972948,13.031203,-30.681877,-9.300098,1.0854142,-2.4436395
162,-2.9035768508911133,257.3112487792969,78.62793731689453,6.747208829113492,-2.837719955566627,90.9224499214485,17.346367,-4.370578,8.620666,41.716377,9.306998,-8.363725,-16.226408,-7.351921,-2.5987177,7.092962,-11.495809,9.929857,-11.364436,-4.4899635,3.7895236,15.665822,29.20145,-20.482592,-47.79803,7.925535,-3.5563192,12.228193,47.60884,-23.93048,12.781646,-30.606346,-9.249407,1.1403924,-2.4342377
163,-2.8941268920898438,258.75933837890625,78.33541870117188,6.815909393822473,-3.2447546828065255,90.64221450434741,16.973299,-3.2001479,10.35685,45.536266,8.146897,-7.696223,-15.587212,-6.9570184,-1.5879023,7.206888,-11.513128,10.231909,-10.950999,-4.5183086,4.3794827,16.127216,29.45375,-20.252428,-48.551704,7.232199,-3.918903,12.848189,47.076736,-23.908949,12.604944,-30.41997,-9.201881,1.1797153,-2.5028903
164,-2.900740623474121,260.1986999511719,78.00001525878906,6.607191275420059,-3.6107102646912694,90.3068201863043,16.477613,-1.5933579,12.034193,49.495846,6.7950926,-6.8605113,-14.868442,-6.273763,-0.75295484,7.324645,-10.768369,10.201649,-10.456887,-4.273325,5.010851,16.601435,29.601496,-20.017506,-49.082638,6.6523733,-4.223539,13.499832,46.324104,-23.912058,12.526536,-30.103033,-9.224384,1.2379514,-2.6133075
165,-2.9234328269958496,261.62896728515625,77.6117935180664,6.08957119529832,-3.9670977077371465,89.89240933345938,15.930573,0.48180833,13.677989,53.60351,5.2250614,-5.791047,-14.796968,-5.2422285,-0.009252316,9.071083,-9.671048,9.925146,-9.854431,-3.7225268,5.715331,17.077738,29.630861,-19.802107,-49.378323,6.177684,-4.453245,14.221397,45.35984,-23.932913,12.535466,-29.652773,-9.341183,1.3059647,-2.7811623
166,-2.8927152156829834,263.01007080078125,77.25390625,5.369349255699809,-4.3467954703172165,89.42138754617389,15.398309,2.9029198,15.326797,57.85467,3.4159887,-4.4959292,-15.378142,-3.937541,0.6317948,12.536937,-8.547015,9.528636,-9.200523,-2.9796987,6.5031586,17.645508,29.567562,-19.526783,-49.533714,5.7521586,-4.6469765,15.029268,44.16028,-23.986824,12.663839,-29.072508,-9.515156,1.374242,-3.023977
167,-2.853045701980591,264.3888854980469,76.85843658447266,4.552124607864975,-4.706806626884342,88.9794555004038,14.805542,5.4715056,16.792715,62.09729,1.5190233,-3.1678598,-15.986345,-2.5038624,1.0255795,16.174395,-7.350796,8.843105,-8.546956,-2.1371486,7.2816753,18.204851,29.400404,-19.252615,-49.459244,5.4403787,-4.8038063,15.8258295,42.803722,-24.072018,12.880034,-28.43912,-9.714816,1.4721872,-3.2914264
168,-2.8012003898620605,265.7685852050781,76.41229248046875,3.717142734536713,-4.989343212170902,88.64120591651394,14.0224,8.028724,17.909542,66.21792,-0.32643548,-1.9944017,-16.78565,-1.0971948,1.1360356,20.102283,-6.9162664,7.604032,-7.961222,-1.2808735,7.963439,18.72361,29.14225,-18.984127,-49.12717,5.2972093,-4.922998,16.509903,41.31555,-24.18699,13.18237,-27.79002,-9.913585,1.6288849,-3.5350783
169,-2.749743938446045,267.1252136230469,75.94218444824219,2.807467711887175,-5.165774483003694,88.39275525526949,12.980533,10.6945915,18.681519,70.3258,-2.1223094,-1.0639225,-18.06308,0.32749495,0.9428703,24.856302,-7.5899835,5.255058,-7.440326,-0.3562882,8.545392,19.204311,28.802063,-18.698566,-48.571754,5.3148255,-4.9982767,17.034939,39.688892,-24.3329,13.554446,-27.177437,-10.095358,1.874008,-3.7067792
170,-2.7088186740875244,268.471923828125,75.4346694946289,1.8299556428225563,-5.270212596298879,88.20603128957242,11.728725,13.455148,19.174654,74.43865,-3.9191763,-0.26774886,-19.654919,1.7345502,0.51336986,30.22252,-8.923584,2.0226333,-6.9658,0.6264895,9.066557,19.68312,28.381731,-18.39114,-47.817783,5.4655294,-5.0288625,17.465044,37.911358,-24.503727,14.005813,-26.574306,-10.273706,2.1843646,-3.847439
171,-2.642165184020996,269.7884216308594,74.9325942993164,0.8905584813115915,-5.318126807909915,88.11933139750408,10.253056,16.035828,19.330412,78.34076,-5.6697044,0.4911914,-21.08371,2.9479787,-0.027321912,35.263054,-10.586749,-1.2013086,-6.5633545,1.5568576,9.503285,20.16554,27.876953,-18.096834,-46.804977,5.7743764,-5.0213876,17.865116,35.988953,-24.68557,14.570147,-25.896795,-10.465723,2.5095048,-4.0429096
172,-2.562091588973999,271.0765075683594,74.4631118774414,0.07458120194480197,-5.317905891360142,88.16653419873673,8.513573,18.188406,19.097195,81.83293,-7.334004,1.3027959,-21.945871,3.8684413,-0.5874264,39.170174,-12.25781,-3.4746459,-6.247578,2.3538702,9.831442,20.645016,27.278599,-17.856325,-45.46352,6.2678704,-4.981967,18.297878,33.931908,-24.858665,15.275531,-25.057762,-10.689512,2.7992733,-4.3770676
173,-2.5019595623016357,272.3848571777344,74.04185485839844,-0.6441331451047781,-5.21665682631522,88.37020020210272,6.3384485,19.887484,18.374693,84.97063,-8.943421,2.2484708,-22.187277,4.5138535,-1.2194654,41.76723,-14.024028,-4.389014,-6.017211,3.0234551,10.006558,21.103617,26.558138,-17.6612,-43.66848,6.9428854,-4.963183,18.7163,31.65321,-25.023266,16.178713,-23.981625,-10.8956785,3.053076,-4.9290204
174,-2.4587490558624268,273.7066345214844,73.69500732421875,-1.31811286353724,-5.01494734103275,88.69767545175995,3.739705,21.237207,17.22005,87.83977,-10.496524,3.2475843,-22.074091,4.9859395,-1.957583,43.597103,-16.05244,-4.4873924,-5.8587823,3.6332486,10.053653,21.543503,25.70655,-17.488365,-41.477295,7.791504,-4.9438925,19.097626,29.186216,-25.170616,17.233398,-22.75197,-11.0884495,3.2957873,-5.6392703
175,-2.4444432258605957,274.99371337890625,73.4350814819336,-1.8992400288362383,-4.8054919289860685,89.09765819799391,0.9688705,22.196644,15.855561,90.30121,-11.907328,4.154796,-21.684584,5.3115516,-2.7113953,44.94103,-18.11449,-4.238971,-5.74133,4.182666,10.057238,21.97055,24.762932,-17.378456,-39.091637,8.83345,-4.8149023,19.546963,26.730118,-25.25776,18.300545,-21.505966,-11.376974,3.516258,-6.3717117
176,-2.4398367404937744,276.2685546875,73.26032257080078,-2.3355865155913254,-4.685360666945243,89.52909135380919,-1.6910776,22.749834,14.525607,92.19609,-13.087313,4.8339806,-21.062008,5.5049043,-3.3633485,46.038628,-19.960966,-4.104182,-5.6172214,4.6509852,10.101275,22.377033,23.801102,-17.401375,-36.718086,10.084044,-4.46066,20.180025,24.474562,-25.228687,19.237473,-20.33916,-11.885587,3.7012572,-6.975189
177,-2.4265801906585693,277.55023193359375,73.15515899658203,-2.576946586519622,-4.700897060470128,90.02995020458526,-4.206439,22.825602,13.247622,93.485054,-13.980016,5.277653,-20.140558,5.4942126,-3.8794045,46.89997,-21.57309,-4.1374435,-5.472566,4.9782357,10.227422,22.759775,22.865074,-17.626074,-34.28955,11.824205,-3.708592,21.183208,22.435862,-25.02391,20.012102,-19.155369,-12.784648,3.851225,-7.407238
178,-2.4150149822235107,278.8528137207031,73.10574340820312,-2.6643159062109625,-4.79861768516581,90.6096700435649,-6.6795325,22.464857,11.96696,94.25728,-14.637764,5.5588493,-18.902618,5.2936635,-4.3302746,47.402977,-23.064857,-4.119859,-5.289275,5.1648927,10.383558,23.11341,21.97361,-18.034115,-31.744204,13.93079,-2.6328106,22.437267,20.512943,-24.627787,20.686804,-17.887417,-13.99006,3.9703708,-7.724879
179,-2.3897480964660645,280.1507568359375,73.10272216796875,-2.678082361357299,-4.927505943866108,91.18236055010405,-9.029032,21.858292,10.811616,94.54853,-15.147276,5.662917,-17.464046,5.046541,-4.7259254,47.585506,-24.376244,-4.0905156,-5.027044,5.27922,10.513538,23.441298,21.174044,-18.551653,-29.298668,15.816909,-1.5152816,23.632246,18.702374,-24.073078,21.286892,-16.666677,-15.238383,4.046823,-7.934088
180,-2.3758840560913086,281.448974609375,73.14411926269531,-2.697179758220211,-5.034046195208285,91.66096128250392,-11.187944,21.208927,9.8862915,94.39246,-15.599557,5.5755568,-15.94351,4.8925376,-5.065719,47.48564,-25.447256,-4.084559,-4.654837,5.392369,10.5672,23.769094,20.527374,-19.091215,-27.20695,16.90807,-0.6785236,24.506767,17.019472,-23.421074,21.830208,-15.659169,-16.25044,4.0659885,-8.053141
181,-2.3706531524658203,282.7572021484375,73.24007415771484,-2.728899953328818,-5.119025668949361,92.01119632334496,-13.144029,20.54221,9.197101,93.764114,-16.013601,5.2253366,-14.31455,4.855067,-5.332543,47.044567,-26.293901,-4.1135325,-4.1602335,5.520414,10.55489,24.127066,20.086897,-19.66685,-25.589891,16.932566,-0.21674739,25.087877,15.511393,-22.703497,22.288002,-14.98324,-17.013914,4.005494,-8.054256
182,-2.35467529296875,284.0714111328125,73.38554382324219,-2.740262866473029,-5.207258593544445,92.28154800941165,-14.923775,19.798159,8.689046,92.65387,-16.354858,4.6511827,-12.531213,4.85681,-5.52352,46.265125,-26.93841,-4.148434,-3.560656,5.622034,10.507319,24.531996,19.8634,-20.305313,-24.355778,16.220886,0.022553876,25.523502,14.182945,-21.92149,22.660803,-14.571086,-17.635767,3.8739238,-7.952376
183,-2.3331387042999268,285.385009765625,73.57274627685547,-2.741541865481332,-5.278405245815968,92.50826691223986,-16.534166,19.051916,8.360167,91.11922,-16.632607,4.004568,-10.692112,4.885733,-5.6543646,45.283325,-27.329517,-4.165765,-2.8849456,5.684398,10.404111,24.995758,19.83593,-20.926514,-23.448309,15.11988,0.07681284,25.739538,12.97601,-21.101425,23.012924,-14.314553,-18.014515,3.7065172,-7.832867
184,-2.3090384006500244,286.7169494628906,73.79991149902344,-2.7471866197479553,-5.3111934634630344,92.72882684841613,-17.983742,18.36514,8.210784,89.21733,-16.851736,3.4298844,-8.89906,4.930609,-5.7434382,44.241062,-27.419247,-4.149672,-2.1790128,5.69953,10.226319,25.541502,19.961502,-21.436401,-22.813496,13.981327,-0.009963213,25.651731,11.830748,-20.287554,23.422167,-14.11265,-18.043474,3.5430255,-7.7834296
185,-2.2937467098236084,288.05279541015625,74.07318115234375,-2.766198471981005,-5.293064616712255,92.93614117135766,-19.288614,17.780375,8.2668085,86.94591,-17.044168,2.9667752,-7.139786,5.0171514,-5.7715917,43.078327,-27.180546,-4.117894,-1.4475114,5.689551,9.955813,26.178057,20.21832,-21.802217,-22.504911,12.698014,-0.2976455,25.116577,10.7422695,-19.518421,23.934437,-13.988234,-17.559414,3.3942084,-7.8675895
186,-2.284099817276001,289.40118408203125,74.3796615600586,-2.7917450528591927,-5.236415811908873,93.1163611337985,-20.437605,17.25996,8.513765,84.27708,-17.201859,2.5332956,-5.375306,5.1382475,-5.735065,41.756687,-26.646772,-4.073661,-0.6918113,5.66281,9.609891,26.896317,20.59704,-22.065002,-22.528667,11.150372,-0.76389706,24.193245,9.748387,-18.807163,24.52027,-14.005275,-16.650768,3.24153,-8.03118
187,-2.291731357574463,290.7640686035156,74.71432495117188,-2.7987203009026476,-5.158146207362478,93.29629524789316,-21.396267,16.731337,8.898298,81.21727,-17.264181,2.0865347,-3.6706045,5.2359414,-5.679405,40.45583,-25.861229,-3.9869614,0.046673443,5.591543,9.221283,27.69051,21.063192,-22.240726,-22.745386,9.681675,-1.2526253,23.11019,8.848427,-18.160051,25.141802,-14.118118,-15.590584,3.0825791,-8.182567
188,-2.316378116607666,292.13232421875,75.07074737548828,-2.768527105582026,-5.075445808451397,93.50345212117892,-22.132175,16.119843,9.3667965,77.77172,-17.167915,1.5838567,-2.0920682,5.2547956,-5.6525645,39.356884,-24.867695,-3.8295853,0.724026,5.4506464,8.82194,28.54387,21.56637,-22.340458,-22.995932,8.649215,-1.6350021,22.107824,8.033544,-17.57903,25.763609,-14.269594,-14.653248,2.919275,-8.230622
189,-2.3463919162750244,293.5097961425781,75.44456481933594,-2.6858981687875456,-4.982106848208467,93.76432065055819,-22.646765,15.390538,9.925161,73.88743,-16.879045,1.0394222,-0.6150733,5.182216,-5.666987,38.416492,-23.638445,-3.5929174,1.3127149,5.226151,8.3924055,29.444998,22.074858,-22.361181,-23.221973,8.251527,-1.95686,21.197077,7.2889204,-17.069221,26.406252,-14.435903,-13.835709,2.7646146,-8.173233
190,-2.3805758953094482,294.904052734375,75.82960510253906,-2.5651196968116943,-4.872998830010641,94.0589272650899,-22.946335,14.572462,10.594194,69.56269,-16.434317,0.45802572,0.7800917,5.050749,-5.6974196,37.571175,-22.164913,-3.294799,1.8312054,4.942842,7.922924,30.38471,22.578184,-22.29604,-23.473621,8.27796,-2.2797542,20.26725,6.615632,-16.636923,27.089365,-14.640084,-13.0168915,2.6173031,-8.051534
191,-2.423297166824341,296.2912902832031,76.22184753417969,-2.4279249813335437,-4.766285304473076,94.34461897074874,-23.009989,13.691282,11.335601,64.86692,-15.872247,-0.21149999,2.0228117,4.8767614,-5.736486,36.9662,-20.516603,-2.945415,2.3080246,4.6354103,7.458346,31.347168,23.057262,-22.15092,-23.752613,8.481717,-2.5122159,19.382751,6.028041,-16.284369,27.77272,-14.900381,-12.296428,2.460362,-7.8393955
192,-2.480306386947632,297.6748962402344,76.60934448242188,-2.2983105559356285,-4.679462656503239,94.57733140933672,-22.820103,12.781048,12.108291,59.854393,-15.225896,-1.0113168,3.0485787,4.6773324,-5.7747655,36.732185,-18.753065,-2.5512824,2.7764823,4.3392076,7.041325,32.30892,23.4882,-21.935871,-24.054976,8.621014,-2.5543547,18.60485,5.538143,-16.012259,28.412935,-15.229226,-11.775467,2.2761638,-7.509471
193,-2.5526015758514404,299.0548095703125,76.98580932617188,-2.159170833781042,-4.60937664510087,94.76097072466321,-22.306221,11.835144,12.96081,54.29173,-14.429479,-1.9826809,3.8468127,4.4464965,-5.8098617,36.872578,-16.802706,-2.1504037,3.2448812,4.0383387,6.667132,33.242855,23.849384,-21.655685,-24.347626,8.680583,-2.3435376,17.964481,5.1500993,-15.825733,29.001705,-15.6259775,-11.510506,2.0512547,-7.017242
194,-2.6256561279296875,300.4346008300781,77.33861541748047,-2.009717005087459,-4.549751940856894,94.91105683265276,-21.482729,10.827332,13.881552,48.15824,-13.456521,-3.0907114,4.464226,4.1953993,-5.840008,37.30003,-14.649225,-1.7062389,3.6965337,3.732864,6.317128,34.152336,24.13283,-21.308632,-24.621977,8.785378,-1.946897,17.419817,4.851392,-15.730336,29.563868,-16.080446,-11.436506,1.7973459,-6.3898993
195,-2.7121331691741943,301.81524658203125,77.67346954345703,-1.8991739877346425,-4.514130102118801,94.99842646575917,-20.4647,9.796238,14.736151,41.830925,-12.40575,-4.2416296,4.9217005,3.971745,-5.8509545,38.009075,-12.436957,-1.1176785,4.1325445,3.4843194,6.01304,35.06212,24.339867,-20.894749,-24.911104,8.903423,-1.4531592,16.923544,4.632022,-15.723274,30.104403,-16.599512,-11.471479,1.5336088,-5.708188
196,-2.8016769886016846,303.1820983886719,77.97150421142578,-1.8802830467987612,-4.516563429766086,94.9940496896039,-19.376863,8.81991,15.390161,35.720642,-11.395342,-5.3248615,5.232946,3.8264766,-5.826319,39.006126,-10.315262,-0.2984093,4.5565434,3.3567674,5.775205,36.00097,24.478937,-20.413488,-25.254211,8.999658,-0.95016783,16.430561,4.4820204,-15.795675,30.625935,-17.188076,-11.535786,1.2798421,-5.051793
197,-2.900073766708374,304.5517578125,78.19764709472656,-2.0185875026680544,-4.564625154179718,94.8767596337691,-18.178545,7.9695907,15.834058,29.716557,-10.453545,-6.320916,5.397771,3.8483315,-5.721158,40.302258,-8.191342,0.8704252,4.991243,3.4155478,5.599228,36.98772,24.552996,-19.854275,-25.67227,9.054188,-0.42393208,15.943037,4.4122686,-15.947077,31.130354,-17.847023,-11.701207,1.0189853,-4.4079385
198,-3.0017292499542236,305.92376708984375,78.34896850585938,-2.3111679128182763,-4.657890787030462,94.65814055919628,-16.801353,7.293744,16.109516,23.629717,-9.509492,-7.240425,5.4175034,4.056314,-5.541227,41.884926,-6.0330086,2.3150592,5.4395204,3.654988,5.4780936,38.009354,24.560034,-19.221638,-26.154652,9.088367,0.16101882,15.482237,4.423936,-16.180403,31.610653,-18.577345,-11.980312,0.7446453,-3.7445874
199,-3.1180851459503174,307.2698669433594,78.4586181640625,-2.711338763718958,-4.796187708044453,94.36106353370423,-15.362824,6.826556,16.177803,17.844336,-8.566005,-8.050345,5.3055625,4.3737054,-5.3675117,43.73873,-4.0798388,3.8013976,5.873081,4.029842,5.4263678,39.049564,24.505169,-18.536715,-26.696554,9.127592,0.7494816,15.032865,4.4917474,-16.487791,32.055634,-19.377913,-12.208874,0.49705467,-3.1099792
200,-3.235274076461792,308.5979309082031,78.50633239746094,-3.139701664611616,-4.971310602983753,94.01662800592713,-14.016515,6.521992,16.022863,12.796704,-7.637599,-8.763226,5.059047,4.658721,-5.3037753,45.872475,-2.5718012,5.07564,6.255692,4.457897,5.4563236,40.09257,24.399254,-17.819427,-27.290194,9.195137,1.2856871,14.580187,4.58467,-16.852455,32.456116,-20.237444,-12.225823,0.31967157,-2.5512862
201,-3.3551177978515625,309.8983154296875,78.4838638305664,-3.534719322753311,-5.16017047251129,93.6084183206445,-12.761718,6.2683535,15.667049,8.442551,-6.688481,-9.385942,4.6010838,4.84062,-5.3122525,48.436485,-1.5365286,6.170373,6.591583,4.8713183,5.5616035,41.16257,24.241283,-17.051338,-27.960287,9.30688,1.772966,14.11149,4.675988,-17.265232,32.821545,-21.155554,-11.98359,0.24078953,-2.0685503
202,-3.475053310394287,311.1794128417969,78.40076446533203,-3.8769366712945024,-5.3573605614402435,93.14753476999545,-12.705874,6.3155074,15.019787,7.122101,-7.044742,-9.948356,3.9179742,4.879501,-5.387449,51.45427,-0.89134383,7.1635695,6.877744,5.2463207,5.731508,42.24706,24.028841,-16.2301,-28.692823,9.443856,2.2338464,13.638404,4.778018,-17.720684,33.15318,-22.119984,-11.575182,0.23365705,-1.6414438
203,-3.5931200981140137,312.4488220214844,78.25126647949219,-4.1126140188601905,-5.571628091972313,92.71278127916696,-12.992066,6.3229966,14.2081375,6.9822993,-7.670652,-10.491206,3.1020324,4.604617,-5.6807117,54.737667,-0.6988502,7.854951,7.0604415,5.518824,5.9729886,43.275433,23.779781,-15.397457,-29.423317,9.574967,2.6419115,13.183222,4.9153786,-18.198174,33.430508,-23.103884,-11.050093,0.25937444,-1.2875125
204,-3.7024145126342773,313.7132873535156,78.0439224243164,-4.203100895786241,-5.815366304336696,92.37735379801953,-13.081645,6.109481,13.312535,6.899825,-7.906005,-11.050678,2.2693264,3.8677797,-6.3274956,58.06291,-1.0086507,8.043617,7.093509,5.642644,6.2932525,44.19187,23.528648,-14.591568,-30.096483,9.665776,2.9722953,12.770804,5.106874,-18.66837,33.628807,-24.067438,-10.46022,0.27744055,-1.0204895
205,-3.774711847305298,314.98834228515625,77.76322174072266,-4.18729330583835,-6.1245212910893665,92.14421082485205,-12.896602,5.7081866,12.210223,6.851571,-7.798986,-12.107602,1.5184945,2.5516922,-7.5010805,61.443455,-1.987364,7.507992,6.9760013,5.6435304,6.7180014,45.055965,23.302818,-13.791055,-30.75437,9.712795,3.2078032,12.395854,5.35175,-19.109606,33.742172,-25.005375,-9.723604,0.27810228,-0.8523502
206,-3.8320155143737793,316.2448425292969,77.42668151855469,-4.041159755632389,-6.4752154567267,91.98528097951109,-12.463961,5.1066365,10.930759,6.8388343,-7.3660088,-13.484947,0.8119525,0.6919281,-9.024752,64.96226,-3.582219,6.403502,6.7314167,5.492656,7.230037,45.88712,23.11143,-12.981279,-31.423384,9.720152,3.3674717,12.056628,5.629493,-19.510075,33.777122,-25.912703,-8.850248,0.27980325,-0.76997954
207,-3.916400671005249,317.4737548828125,77.08815002441406,-3.6620738502974195,-6.800228558927164,91.91687655000896,-11.90368,4.2293515,9.7185545,6.8739386,-6.476893,-14.244821,0.055230025,-1.5727711,-10.503663,68.4843,-5.4837227,5.1177654,6.360706,5.085064,7.774587,46.57336,22.96538,-12.209049,-32.021137,9.665153,3.482672,11.783358,5.925821,-19.852722,33.729156,-26.73789,-8.029502,0.28368762,-0.74762166
208,-4.041682720184326,318.646728515625,76.78123474121094,-2.972753274107252,-7.043581531404475,91.94357074857723,-11.346788,3.0234792,8.821414,6.9726124,-4.97773,-13.462804,-0.8784428,-4.054804,-11.569732,71.85712,-7.3313985,4.0334296,5.8780727,4.345798,8.298726,47.007862,22.879145,-11.524752,-32.47076,9.527649,3.5852408,11.606098,6.226503,-20.11716,33.593365,-27.432184,-7.4510803,0.2919553,-0.75777173
209,-4.130112171173096,319.8182678222656,76.40879821777344,-1.8914557433709887,-7.208700781444992,92.11978667243375,-11.935919,1.5413977,8.2724905,9.540821,-3.4870043,-10.177773,-2.023381,-6.8551188,-12.210823,75.115875,-9.060215,3.2030253,5.2308774,3.1832774,8.807823,47.21757,22.871483,-10.917886,-32.82233,9.251558,3.6896205,11.5188,6.5143514,-20.28778,33.3703,-27.996775,-7.1808667,0.31042394,-0.79206216
210,-4.2068352699279785,320.98846435546875,75.97808837890625,-0.7690193171230612,-7.364839274375002,92.38639059040186,-14.489635,0.30748504,8.08394,16.435347,-3.1572013,-5.2076135,-3.2562854,-9.662807,-12.656259,78.18044,-10.746183,2.3887415,4.4734654,1.9614844,9.311245,47.314182,22.951555,-10.372931,-33.16412,8.8636675,3.781091,11.514506,6.8042326,-20.367655,33.05558,-28.450413,-7.118621,0.34093142,-0.85196376
211,-4.27559757232666,322.13653564453125,75.48831939697266,0.029955905261068054,-7.529788301992424,92.59346905900055,-16.86175,-0.49066517,8.287674,23.03947,-2.7468112,-0.19092599,-4.559819,-11.894165,-12.890561,80.83165,-12.283572,1.578607,3.7642741,1.0822326,9.780263,47.264114,23.11559,-9.935138,-33.418663,8.468738,3.844361,11.619517,7.125012,-20.365973,32.641655,-28.762274,-7.200776,0.37700024,-0.933523
212,-4.337482929229736,323.2607116699219,74.95954132080078,0.5962583868900894,-7.65950007815651,92.64803598413192,-18.548882,-0.991421,8.656732,28.24444,-3.0015054,3.351466,-6.0548487,-13.475055,-12.73489,83.02957,-13.672011,0.8890613,3.2084992,0.4726312,10.179694,46.94381,23.354183,-9.643603,-33.413445,8.169757,3.8594341,11.856606,7.4857306,-20.277657,32.13423,-28.87393,-7.359546,0.40604794,-1.0478443
213,-4.4169111251831055,324.37554931640625,74.45172119140625,1.1454973377077957,-7.669674220242104,92.56638740971214,-19.667824,-1.4485575,9.061065,32.25004,-4.6631813,4.922933,-7.9653664,-14.537811,-11.975647,84.89237,-14.98912,0.40522924,2.7890701,-0.09398969,10.4560795,46.29667,23.670952,-9.487521,-33.141815,7.924935,3.8052826,12.218583,7.854619,-20.083447,31.518856,-28.79557,-7.512951,0.42179364,-1.130131
214,-4.500378608703613,325.46173095703125,73.989501953125,1.7450834350489377,-7.575204115258115,92.41739622385093,-20.58266,-1.8560861,9.522329,35.920002,-7.4433384,5.4259467,-10.24153,-15.241727,-10.723247,86.47691,-16.238821,0.100257404,2.4382863,-0.7008762,10.6306505,45.357918,24.067701,-9.456787,-32.64587,7.7031426,3.6948705,12.699649,8.223627,-19.770967,30.801996,-28.518919,-7.719162,0.42995256,-1.2012895
215,-4.556212902069092,326.54736328125,73.57105255126953,2.3143136494913095,-7.4684375831795435,92.2014556179225,-21.257397,-2.0990646,9.986993,39.30145,-10.612612,5.4221616,-12.608772,-15.629209,-9.26842,87.665825,-17.322592,-0.06430842,2.1646266,-1.2611687,10.771793,44.143368,24.522371,-9.585121,-31.82464,7.6253924,3.5591378,13.321596,8.627897,-19.342478,30.031672,-27.951899,-8.118425,0.4361917,-1.4028641
216,-4.578442096710205,327.6321105957031,73.21021270751953,2.7440399619943654,-7.449815007422563,91.90714447496995,-21.606188,-2.1184688,10.4038515,42.273495,-13.368496,5.47131,-14.77786,-15.738894,-7.918704,88.33421,-18.143427,-0.1384031,1.9770406,-1.655378,10.959017,42.678013,24.996851,-9.89938,-30.58077,7.815534,3.4318426,14.101648,9.099112,-18.81391,29.263807,-27.013449,-8.847978,0.45060223,-1.8757173
217,-4.588301658630371,328.7033386230469,72.90145874023438,2.9489783413172304,-7.563753896890078,91.49596524181798,-21.541956,-1.8726753,10.783975,44.71572,-15.555501,5.608316,-16.68583,-15.447821,-6.7167225,88.39575,-18.635107,-0.079773754,1.8653876,-1.7557136,11.237652,40.839165,25.483335,-10.499432,-28.714632,8.178972,3.2699358,15.218061,9.666426,-18.178526,28.503052,-25.597235,-10.036345,0.48294583,-2.7097902
218,-4.616738796234131,329.7654113769531,72.64712524414062,3.0015853419096783,-7.755391780632741,90.98279502353711,-21.118492,-1.4571245,11.1957035,46.678066,-17.550325,5.558968,-18.451334,-14.785774,-5.5488276,87.93357,-18.867214,0.11269606,1.8254678,-1.6517074,11.565033,38.6691,25.971731,-11.336939,-26.35677,8.692925,3.0821934,16.606129,10.298082,-17.435785,27.721613,-23.773596,-11.579258,0.5486474,-3.8062756
219,-4.634632110595703,330.8302917480469,72.44598388671875,3.0182302117866495,-7.9776950653334735,90.43079030447936,-20.447002,-1.0471514,11.646587,48.23107,-19.335274,5.427547,-20.072855,-14.022803,-4.483001,87.07511,-18.946127,0.32316646,1.8557913,-1.5328987,11.895587,36.44921,26.403809,-12.195568,-23.884888,9.592505,2.9887931,17.902863,10.934886,-16.630342,26.953592,-21.759806,-13.262101,0.6629909,-5.0314054
220,-4.678761005401611,331.900390625,72.30670166015625,3.1197731622790266,-8.18085751722514,89.90272135775508,-19.650723,-0.7889595,12.115623,49.455486,-20.894152,5.316612,-21.567144,-13.4349575,-3.570001,85.94906,-18.977293,0.4367955,1.9261668,-1.5793339,12.1851635,34.45672,26.697578,-12.843811,-21.649181,11.128532,3.1072533,18.721252,11.516664,-15.838393,26.265234,-19.788652,-14.86511,0.8258331,-6.2648816
221,-4.702465057373047,332.96063232421875,72.21451568603516,3.3542077880256733,-8.38137718794703,89.35465741344304,-18.656649,-0.70332533,12.634228,50.2689,-22.23264,5.242131,-22.948334,-13.069183,-2.7615616,84.553566,-18.981833,0.43234715,2.0590189,-1.8267442,12.460561,32.69957,26.771566,-13.220737,-19.562387,13.749411,3.5431814,18.853235,12.062579,-15.119975,25.695215,-17.880426,-16.57536,1.0946299,-7.629614
222,-4.721888542175293,334.0021667480469,72.16635131835938,3.6510490117321144,-8.593903892100018,88.77248541282742,-17.439814,-0.7074926,13.189098,50.67153,-23.35921,5.152517,-24.206257,-12.787038,-2.0499709,82.829414,-18.910917,0.37208015,2.2068071,-2.1534595,12.734349,31.026949,26.601366,-13.433132,-17.434881,17.239073,4.1737604,18.47107,12.59942,-14.499142,25.2493,-15.963876,-18.408865,1.4698658,-9.152527
223,-4.747488498687744,335.03369140625,72.16250610351562,3.947869322418367,-8.764518240561639,88.26494350476042,-16.202782,-0.7730261,13.676202,50.869766,-24.257463,5.0462527,-25.33735,-12.591783,-1.536527,80.818634,-18.760403,0.2657989,2.2496457,-2.502314,12.940663,29.456518,26.219603,-13.512691,-15.444469,20.843122,4.767556,17.784838,13.095078,-13.998067,24.931444,-14.139594,-19.89125,1.8224534,-10.582963
224,-4.757284641265869,336.05743408203125,72.19440460205078,4.181685540861437,-8.840660877636138,87.94220898243057,-15.148618,-0.868909,13.996085,51.07324,-24.915009,4.924078,-26.337961,-12.493638,-1.321268,78.56386,-18.528563,0.12240584,2.081473,-2.8264036,13.018252,28.030107,25.696907,-13.477626,-13.80887,23.780586,5.1334476,17.062164,13.531456,-13.636817,24.73331,-12.526851,-20.556559,1.9895658,-11.679394
225,-4.740905284881592,337.0712890625,72.2710189819336,4.337328139694158,-8.784964195694082,87.86454443192399,-14.347898,-1.0076106,14.105553,51.297543,-25.312363,4.7857404,-27.247156,-12.534794,-1.4609257,76.07755,-18.25084,-0.10898182,1.676057,-3.1457748,12.929393,26.814842,25.0674,-13.247468,-12.665176,26.027187,5.2279596,16.255718,13.915964,-13.436359,24.662533,-11.214276,-20.02299,1.8517493,-12.380677
226,-4.710412502288818,338.076416015625,72.38495635986328,4.445489855353609,-8.633529797007979,87.9637947538292,-13.690429,-1.1888114,14.060746,51.45032,-25.464607,4.6310945,-28.05194,-12.70352,-1.8936679,73.33818,-17.923374,-0.4089259,1.1063492,-3.4723248,12.716552,25.767319,24.335075,-12.841769,-11.892075,27.916422,5.1456976,15.299298,14.289597,-13.401372,24.706808,-10.161083,-18.619741,1.4892998,-12.815206
227,-4.671675205230713,339.07037353515625,72.53672790527344,4.513257883554194,-8.445512009850177,88.15725887791297,-13.1089325,-1.3638412,13.916023,51.579906,-25.41241,4.4628396,-28.673586,-12.928575,-2.5424993,70.33611,-17.48135,-0.66326046,0.43147472,-3.7482731,12.442246,24.778044,23.544628,-12.433872,-11.34004,29.194265,4.9685955,14.458813,14.687273,-13.512868,24.811302,-9.290378,-16.952137,1.0342637,-13.028595
228,-4.630943298339844,340.0541687011719,72.71746063232422,4.547672160400661,-8.27945453057186,88.36214784426011,-12.5360365,-1.4872235,13.727239,51.734646,-25.197456,4.2833004,-29.03391,-13.133619,-3.3324575,67.055145,-16.85624,-0.7595716,-0.2670579,-3.9262214,12.173537,23.74852,22.769205,-12.211369,-10.8775015,29.596766,4.802031,13.997887,15.153402,-13.737674,24.899961,-8.528599,-15.629909,0.6238832,-13.077779
229,-4.584482669830322,341.0393371582031,72.93505859375,4.538666412371398,-8.13033559416632,88.58575921953611,-11.963753,-1.5604911,13.473221,51.884445,-24.81116,4.095493,-29.112177,-13.33547,-4.3380785,63.436752,-16.004154,-0.69413805,-0.97536325,-4.00018,11.906154,22.663208,22.072144,-12.253267,-10.5280285,28.733938,4.664478,14.074873,15.697611,-14.05438,24.942276,-7.8892384,-14.702267,0.26229385,-12.892645
230,-4.516757965087891,342.03607177734375,73.18659973144531,4.485957313958608,-7.972877231527348,88.86168303318082,-11.425668,-1.6031799,13.137001,52.018715,-24.238556,3.8958726,-28.943943,-13.536166,-5.5774274,59.499317,-14.964331,-0.50392544,-1.689746,-4.009585,11.61696,21.582212,21.469511,-12.478543,-10.371765,26.821865,4.516155,14.526925,16.321144,-14.450306,24.945042,-7.411838,-13.882449,-0.104650885,-12.465783
231,-4.438485622406006,343.03857421875,73.47087097167969,4.416153144932289,-7.835510097941431,89.14628324739871,-10.912758,-1.6024418,12.781641,52.206234,-23.50815,3.6755774,-28.544323,-13.64129,-6.877937,55.32959,-13.7850065,-0.1425548,-2.3509238,-3.9797926,11.346154,20.528906,20.953466,-12.829993,-10.364775,24.51174,4.3771234,15.132582,17.05061,-14.897309,24.89195,-7.05608,-13.279005,-0.4355525,-11.963349
232,-4.356624603271484,344.03521728515625,73.7621841430664,4.356846664606079,-7.74758162212211,89.3966511053453,-10.413849,-1.548712,12.470712,52.511337,-22.645836,3.4252753,-27.935516,-13.5754595,-8.052857,51.008144,-12.511304,0.42363822,-2.906732,-3.9364119,11.129959,19.521496,20.50297,-13.249951,-10.452729,22.461864,4.289499,15.67474,17.897375,-15.360639,24.76874,-6.761424,-13.009808,-0.6962337,-11.551823
233,-4.240187644958496,345.0340881347656,74.05657196044922,4.295277169458218,-7.726442038056945,89.59366594297992,-9.897992,-1.4173037,12.230464,52.929337,-21.633236,3.1441512,-27.030895,-13.318376,-9.135419,46.348396,-11.003838,1.298882,-3.3440497,-3.8708994,10.982503,18.567883,20.103226,-13.74615,-10.6294985,20.730223,4.2998376,16.174042,18.855968,-15.81569,24.565943,-6.4896307,-13.263853,-0.88633746,-11.2525015
234,-4.151204586029053,346.0680236816406,74.35523986816406,4.226432733081257,-7.755222657328558,89.7646213015806,-9.37485,-1.2331359,12.023401,53.42478,-20.462168,2.830757,-25.846312,-12.905459,-10.167887,41.33038,-9.2655735,2.4251728,-3.6976085,-3.78449,10.878194,17.65588,19.754522,-14.342901,-10.90709,19.011883,4.37015,16.722668,19.896393,-16.255173,24.293158,-6.2396307,-13.939352,-1.0281897,-10.985274
235,-4.046128749847412,347.0673828125,74.62555694580078,4.191877311961804,-7.812639515748277,89.93672720201978,-8.895689,-1.0650119,11.818958,54.014687,-19.169746,2.4748363,-24.559042,-12.390727,-10.974863,36.28833,-7.564336,3.57563,-3.9921327,-3.7198668,10.793807,16.776436,19.457952,-15.002983,-11.262862,17.419855,4.443099,17.212183,20.987347,-16.67615,23.966692,-6.005867,-14.718746,-1.121412,-10.764528
236,-3.941377639770508,348.0696105957031,74.86709594726562,4.2316280518979035,-7.87688888385582,90.1369904646441,-8.511322,-0.98090655,11.585071,54.71502,-17.797207,2.0670924,-23.351076,-11.863442,-11.400926,31.590382,-6.1898613,4.5133104,-4.2554617,-3.7181425,10.705862,15.922568,19.213879,-15.683732,-11.678674,16.069374,4.468612,17.529526,22.097635,-17.077263,23.608223,-5.7850046,-15.283296,-1.1621413,-10.604585
237,-3.843003034591675,349.07379150390625,75.07563018798828,4.391887235898738,-7.947691420985755,90.37104726319048,-8.229951,-1.039302,11.331784,55.523186,-16.299034,1.6491665,-22.233917,-11.37896,-11.366143,27.232758,-5.312716,5.156606,-4.494989,-3.8209395,10.604638,15.100272,19.027071,-16.388596,-12.166313,14.975237,4.4561806,17.640135,23.241568,-17.456167,23.211023,-5.575409,-15.599291,-1.128079,-10.520098
238,-3.728504180908203,350.0759582519531,75.25633239746094,4.646810057503084,-8.037990196021262,90.62786674202056,-8.022854,-1.2096207,11.069252,56.42489,-14.668992,1.2045896,-21.118807,-10.956081,-10.970957,23.066587,-4.7636504,5.6018414,-4.6997156,-4.008178,10.505375,14.314109,18.8996,-17.135891,-12.735678,14.0804,4.4352994,17.604237,24.429333,-17.810907,22.764713,-5.3834424,-15.821026,-1.026684,-10.498867
239,-3.6201510429382324,351.0922546386719,75.41850280761719,4.92889368985311,-8.142970993447353,90.90587896675308,-7.890819,-1.4188772,10.76321,57.429462,-13.010055,0.63726497,-20.056087,-10.61248,-10.346183,19.289165,-4.342315,5.8982844,-4.8703437,-4.2204256,10.419175,13.554495,18.823803,-17.902163,-13.366758,13.395078,4.388389,17.447433,25.618523,-18.142672,22.293055,-5.212029,-15.910245,-0.89700615,-10.516019
240,-3.503887414932251,352.0857238769531,75.53072357177734,5.163435322196128,-8.254592788750767,91.20090760282434,-7.8409433,-1.5872073,10.376553,58.557426,-11.433441,-0.14961125,-19.11368,-10.322622,-9.622832,16.11618,-3.8476326,6.1260405,-5.008841,-4.389793,10.3549795,12.811381,18.785471,-18.65786,-14.036745,12.932742,4.2947364,17.193413,26.75991,-18.457344,21.826422,-5.055391,-15.829206,-0.7780902,-10.547695
