unveil-humanoid-operators/unveil-humanoid-operators.github.io/feature-analysis-animation/data/feature_matrix_instances/age_waist_mean_vel_jogging_A040_jog_backward_stop_001__A040.csv
Frame,root_translateX,root_translateY,root_translateZ,root_rotateX,root_rotateY,root_rotateZ,left_hip_pitch_joint_dof,left_hip_roll_joint_dof,left_hip_yaw_joint_dof,left_knee_joint_dof,left_ankle_pitch_joint_dof,left_ankle_roll_joint_dof,right_hip_pitch_joint_dof,right_hip_roll_joint_dof,right_hip_yaw_joint_dof,right_knee_joint_dof,right_ankle_pitch_joint_dof,right_ankle_roll_joint_dof,waist_yaw_joint_dof,waist_roll_joint_dof,waist_pitch_joint_dof,left_shoulder_pitch_joint_dof,left_shoulder_roll_joint_dof,left_shoulder_yaw_joint_dof,left_elbow_joint_dof,left_wrist_roll_joint_dof,left_wrist_pitch_joint_dof,left_wrist_yaw_joint_dof,right_shoulder_pitch_joint_dof,right_shoulder_roll_joint_dof,right_shoulder_yaw_joint_dof,right_elbow_joint_dof,right_wrist_roll_joint_dof,right_wrist_pitch_joint_dof,right_wrist_yaw_joint_dof
0,0.31060507893562317,2.2060506343841553,78.87429809570312,-2.490816530809589,-2.3054856200370675,-91.68669716536749,-0.8738971,7.1056085,8.156626,19.082935,-17.41323,-3.2032573,0.8455605,-1.4336818,-15.908484,17.724516,-14.088055,1.6715364,-2.4334455,3.8048809,10.531664,-10.723184,15.309336,-49.09981,61.3478,1.9283149,1.4605539,1.4692296,-10.004141,-15.08739,49.30815,59.969875,-0.58295316,3.2663867,-6.574676
1,0.23681989312171936,2.126034736633301,78.88866424560547,-2.4925760633630603,-2.2946202688796995,-91.69861877880693,-0.88331556,7.1123977,8.18642,19.089087,-17.427086,-3.1954591,0.82334834,-1.4325807,-15.899967,17.739796,-14.090749,1.6723201,-2.4348345,3.8065603,10.523919,-10.727387,15.327557,-49.061043,61.31041,1.9367923,1.4681207,1.4141763,-10.002499,-15.078926,49.281036,59.96175,-0.6026287,3.2594066,-6.58298
2,0.21866892278194427,2.1011743545532227,78.8927001953125,-2.4933790922656778,-2.2830469447739405,-91.71027504767424,-0.89343226,7.1195974,8.216985,19.094934,-17.44084,-3.187076,0.80039984,-1.4311942,-15.891787,17.755022,-14.0932045,1.6728534,-2.4316525,3.8096914,10.517809,-10.736123,15.342515,-49.021217,61.274654,1.9488775,1.4761999,1.3542786,-10.016746,-15.072336,49.265793,59.964256,-0.60151935,3.2507157,-6.5908265
3,0.2888902425765991,2.1818642616271973,78.87493133544922,-2.4952734772590888,-2.2730107725985804,-91.72244251864721,-0.9018641,7.126403,8.2459345,19.101032,-17.454403,-3.179938,0.77880806,-1.4300299,-15.882844,17.770992,-14.096459,1.6737853,-2.429025,3.812056,10.511393,-10.747557,15.353088,-48.988342,61.247566,1.9576108,1.4825631,1.303926,-10.027596,-15.067661,49.253555,59.962234,-0.60019195,3.2445595,-6.598132
4,0.31166180968284607,2.203253746032715,78.86815643310547,-2.4952226532090167,-2.2669339880159245,-91.73573741611693,-0.9010611,7.1309667,8.271527,19.097923,-17.462278,-3.1757565,0.76424414,-1.4286581,-15.872279,17.782225,-14.098421,1.6757742,-2.4286022,3.8139598,10.506134,-10.757394,15.358712,-48.96746,61.227055,1.9628782,1.4881475,1.2779227,-10.032215,-15.064907,49.24173,59.9542,-0.6071913,3.2440891,-6.603018
5,0.31345197558403015,2.1993649005889893,78.86768341064453,-2.4928167033207513,-2.2669227198113453,-91.7518374588777,-0.8874856,7.1327243,8.294063,19.084366,-17.464378,-3.1761081,0.7569309,-1.427728,-15.85767,17.792915,-14.10192,1.6801103,-2.4273565,3.810745,10.5133505,-10.767036,15.366914,-48.950184,61.205074,1.9793099,1.4929441,1.2842921,-10.053926,-15.060706,49.235134,59.94999,-0.61356926,3.252277,-6.5993824
6,0.3144848048686981,2.192673921585083,78.8687973022461,-2.4902177040638023,-2.2711525909585344,-91.77001053148597,-0.86379004,7.132497,8.314561,19.061127,-17.461006,-3.1797187,0.7559885,-1.4265964,-15.840309,17.800522,-14.105095,1.6861016,-2.4279144,3.8053372,10.52208,-10.772321,15.3748455,-48.944496,61.185,1.9926642,1.4975582,1.317769,-10.074229,-15.056045,49.232388,59.944443,-0.6245103,3.2669837,-6.5930724
7,0.3105289041996002,2.1934783458709717,78.86666870117188,-2.487036043516688,-2.2764109529735195,-91.78686863779544,-0.8393616,7.1313534,8.3309965,19.037283,-17.45591,-3.184039,0.7578151,-1.4254754,-15.824145,17.805365,-14.107011,1.6912355,-2.4302258,3.7990513,10.529636,-10.777811,15.380943,-48.944668,61.17032,2.003711,1.5000789,1.3548564,-10.085358,-15.051759,49.227245,59.93195,-0.64193195,3.2821705,-6.58766
8,0.30757153034210205,2.194847345352173,78.86800384521484,-2.484082437303064,-2.2799660755266,-91.79936615179813,-0.8226024,7.130062,8.341769,19.022167,-17.453102,-3.1864529,0.7558606,-1.4265678,-15.81277,17.816324,-14.111719,1.6932194,-2.429615,3.7945836,10.537344,-10.787838,15.386102,-48.947033,61.155235,2.0141346,1.5014153,1.3727744,-10.101987,-15.047853,49.2247,59.927326,-0.64845365,3.2895072,-6.585293
9,0.30830949544906616,2.191587448120117,78.87107849121094,-2.483057136632558,-2.281188921193735,-91.80503336350012,-0.8180296,7.1290164,8.342803,19.020786,-17.453535,-3.186147,0.7500872,-1.4295622,-15.808843,17.832354,-14.118102,1.6899347,-2.4301794,3.7902212,10.544084,-10.801325,15.394477,-48.947678,61.139675,2.0244908,1.4988848,1.3606553,-10.11856,-15.041135,49.224575,59.92744,-0.6473562,3.285777,-6.5890236
10,0.3092181086540222,2.1891708374023438,78.87155151367188,-2.481542929191603,-2.2815188102561095,-91.8060755111392,-0.8193911,7.1275215,8.336503,19.025879,-17.454351,-3.1844628,0.7439317,-1.4337838,-15.809895,17.849056,-14.1244545,1.683234,-2.4360595,3.789747,10.549662,-10.813978,15.399838,-48.94478,61.12444,2.035921,1.4944735,1.332887,-10.129559,-15.036655,49.224247,59.92687,-0.6497834,3.274998,-6.5960326
11,0.30989399552345276,2.188404083251953,78.86968994140625,-2.481482729399181,-2.2810869104257927,-91.80605692516598,-0.823037,7.126184,8.329467,19.033125,-17.456112,-3.1824267,0.7368705,-1.4383326,-15.8121195,17.866776,-14.131511,1.6761421,-2.4403303,3.789557,10.554005,-10.826991,15.402069,-48.943077,61.111843,2.0475504,1.4891902,1.3029225,-10.138868,-15.034759,49.22514,59.92383,-0.6470953,3.2644055,-6.6036506
12,0.3090594708919525,2.1884307861328125,78.86775970458984,-2.4805526091600982,-2.280032771462237,-91.80844621083678,-0.82263684,7.125428,8.329148,19.033018,-17.456459,-3.1810455,0.73154783,-1.4415104,-15.811597,17.878092,-14.13517,1.67181,-2.4468896,3.7888134,10.556624,-10.836802,15.403631,-48.9414,61.10003,2.05335,1.4850363,1.2843585,-10.144411,-15.033283,49.224403,59.916683,-0.64767724,3.259513,-6.6093993
13,0.309326708316803,2.188575506210327,78.86653900146484,-2.478085027634131,-2.278030502761176,-91.81449535600929,-0.81694406,7.1238203,8.339595,19.023405,-17.45581,-3.1802802,0.7251141,-1.4456967,-15.807558,17.889032,-14.138212,1.6718687,-2.4580095,3.7872527,10.565182,-10.849364,15.405491,-48.936466,61.08683,2.0513377,1.4822425,1.2773486,-10.1469755,-15.0312395,49.215977,59.90126,-0.6589032,3.263495,-6.617943
14,0.3090102970600128,2.1891489028930664,78.86713409423828,-2.47344763438171,-2.2759089718873238,-91.8223147292593,-0.8072935,7.1225734,8.356308,19.007431,-17.454304,-3.1798954,0.7201427,-1.44937,-15.801829,17.895973,-14.138684,1.6742177,-2.459663,3.7814884,10.579494,-10.866304,15.412227,-48.9327,61.070957,2.0514941,1.4806694,1.2759899,-10.156592,-15.023586,49.1908,59.889,-0.6722826,3.2726026,-6.622402
15,0.307633638381958,2.186824083328247,78.86732482910156,-2.470242987407541,-2.2726645116718216,-91.83063703050837,-0.8000338,7.121412,8.373533,18.994099,-17.454216,-3.1795647,0.7139293,-1.4527174,-15.794437,17.902546,-14.140241,1.677179,-2.4680173,3.777644,10.585285,-10.874676,15.4154,-48.93112,61.056545,2.0441625,1.4796827,1.2807535,-10.154262,-15.019474,49.174217,59.870224,-0.6886194,3.2826858,-6.62697
16,0.3071155250072479,2.182878255844116,78.86918640136719,-2.4650479761230972,-2.2681837556803806,-91.83813498835256,-0.79533195,7.1183834,8.386626,18.9825,-17.45284,-3.1787915,0.70450974,-1.4570541,-15.785205,17.912785,-14.146084,1.6793079,-2.4693067,3.7690911,10.589088,-10.888577,15.419063,-48.932816,61.048138,2.0401773,1.4784375,1.2831372,-10.1606245,-15.014691,49.160885,59.85961,-0.69756025,3.288248,-6.624456
17,0.3065946698188782,2.1795413494110107,78.86946868896484,-2.459855395440347,-2.2620019381674874,-91.84461518923153,-0.7954869,7.111511,8.393572,18.97475,-17.449265,-3.1771934,0.68961567,-1.4638507,-15.771875,17.928963,-14.15901,1.6800582,-2.4648972,3.752273,10.587027,-10.90488,15.426904,-48.94127,61.043297,2.0359023,1.477024,1.28335,-10.170937,-15.0041065,49.150475,59.85962,-0.7081787,3.2865195,-6.612155
18,0.3006044328212738,2.1760618686676025,78.86865997314453,-2.4529390678292655,-2.2540927641649247,-91.85072935711966,-0.79909307,7.1023707,8.39711,18.96947,-17.444838,-3.1751325,0.67060494,-1.4719692,-15.755396,17.949373,-14.177176,1.6802773,-2.4654276,3.7324142,10.578498,-10.919417,15.433477,-48.948437,61.045155,2.0292628,1.4747598,1.2845107,-10.18881,-14.995208,49.16429,59.866207,-0.70468885,3.281559,-6.5941324
19,0.30925941467285156,2.172779083251953,78.86724853515625,-2.44800448751176,-2.24604770468753,-91.8565514116521,-0.8038428,7.094254,8.399569,18.966265,-17.441507,-3.1731284,0.6517122,-1.4790481,-15.73948,17.969135,-14.194974,1.6804247,-2.4681594,3.7150638,10.568603,-10.931162,15.437827,-48.950615,61.047714,2.025003,1.4730924,1.2860994,-10.205089,-14.98925,49.179836,59.870964,-0.70082957,3.276296,-6.5766296
20,0.3134617209434509,2.170517921447754,78.86527252197266,-2.445853322911662,-2.239817182076593,-91.86237292403871,-0.80829906,7.0922413,8.40304,18.968603,-17.44412,-3.1720824,0.6394869,-1.4810091,-15.728516,17.980616,-14.205727,1.6807139,-2.4658074,3.7046347,10.560961,-10.939416,15.440109,-48.950474,61.046513,2.0267165,1.4733303,1.2873291,-10.217873,-14.986206,49.188572,59.869602,-0.6918368,3.2747695,-6.567262
21,0.31285539269447327,2.1682121753692627,78.8643569946289,-2.447315529352839,-2.2340317649295827,-91.86901913754637,-0.8141522,7.0951056,8.409227,18.976982,-17.453787,-3.1711712,0.6277104,-1.4807488,-15.72269,17.993376,-14.212767,1.6814953,-2.4767885,3.7003372,10.557382,-10.93788,15.445782,-48.93271,61.03629,2.029983,1.4748347,1.2895026,-10.2412405,-14.977261,49.20844,59.873722,-0.66710424,3.2782574,-6.570812
22,0.313847154378891,2.1634368896484375,78.86294555664062,-2.4529908971820005,-2.230255393326556,-91.8756975109437,-0.81839097,7.103183,8.416085,18.988222,-17.467892,-3.1707463,0.62267286,-1.4755766,-15.720957,17.997814,-14.213402,1.6823078,-2.477136,3.7021232,10.552876,-10.93746,15.447468,-48.92271,61.028175,2.0340831,1.4777249,1.2917317,-10.246574,-14.974132,49.20801,59.861168,-0.64755875,3.285481,-6.580864
23,0.313338965177536,2.1600732803344727,78.86227416992188,-2.457707196567386,-2.226104547686532,-91.88208344788876,-0.8255389,7.1137342,8.4225645,19.004644,-17.484816,-3.1713095,0.6184469,-1.4685347,-15.721274,17.999924,-14.211762,1.6832542,-2.485912,3.7077014,10.551197,-10.929171,15.449637,-48.896408,61.013634,2.0464928,1.4820105,1.2937105,-10.2483015,-14.969567,49.19962,59.84524,-0.6452614,3.2935357,-6.5941367
24,0.3144935965538025,2.156769275665283,78.86005401611328,-2.462190830459336,-2.222132723910374,-91.88844632058372,-0.83031714,7.1209087,8.429716,19.015709,-17.497671,-3.1730542,0.61153996,-1.4651676,-15.720347,18.008398,-14.214026,1.6849684,-2.4909534,3.708998,10.550594,-10.926635,15.451788,-48.877876,61.007145,2.047974,1.4846756,1.2975261,-10.255598,-14.965024,49.19692,59.835255,-0.6405664,3.293715,-6.6051636
25,0.31719771027565,2.1544432640075684,78.85790252685547,-2.46198719278576,-2.217287281129139,-91.89444334042825,-0.8349157,7.1242957,8.436803,19.021706,-17.505003,-3.1770184,0.6012847,-1.4659792,-15.719012,18.021519,-14.219169,1.6881343,-2.5024033,3.7065141,10.548865,-10.921314,15.454687,-48.859188,61.004055,2.0361505,1.4858189,1.3062598,-10.257354,-14.9587755,49.192753,59.82678,-0.6619829,3.2818742,-6.6152487
26,0.31745848059654236,2.154730796813965,78.85706329345703,-2.460815330216749,-2.2125133370470085,-91.90001763417125,-0.83879614,7.1267686,8.443979,19.025143,-17.509834,-3.1829267,0.5899257,-1.468009,-15.718187,18.037426,-14.225529,1.6921399,-2.501378,3.7024622,10.546628,-10.924952,15.455644,-48.859043,61.00987,2.0113616,1.4864391,1.3177259,-10.265757,-14.957007,49.196667,59.82128,-0.6688834,3.263585,-6.624786
27,0.3153936564922333,2.152987003326416,78.85672760009766,-2.458479961223257,-2.207381706446565,-91.90617216423942,-0.8426252,7.1269956,8.451942,19.027874,-17.514015,-3.1883533,0.5761965,-1.4724979,-15.715855,18.057743,-14.234776,1.6959727,-2.5074933,3.6969085,10.544616,-10.925753,15.45689,-48.859505,61.017223,1.9791027,1.4866943,1.3320756,-10.267653,-14.95428,49.200905,59.814335,-0.6832958,3.243456,-6.636965
28,0.31349021196365356,2.1502010822296143,78.85620880126953,-2.4561401249902053,-2.2045686099248436,-91.91197322620717,-0.84095854,7.1267056,8.459636,19.02704,-17.517653,-3.191773,0.56902957,-1.4755032,-15.712165,18.070946,-14.242438,1.698074,-2.5164437,3.6916342,10.539667,-10.9164,15.461326,-48.85991,61.017887,1.9579244,1.4892383,1.3405153,-10.271319,-14.942117,49.20845,59.820213,-0.68522894,3.2343106,-6.6486826
29,0.31201499700546265,2.1456377506256104,78.85418701171875,-2.4564683737214756,-2.2057580116665645,-91.91748950017582,-0.83500737,7.1271625,8.46662,19.029722,-17.52525,-3.19273,0.5711431,-1.4759964,-15.706175,18.0759,-14.248955,1.697148,-2.5189588,3.6902964,10.54074,-10.908316,15.461699,-48.86084,61.016796,1.9596896,1.4947829,1.3395944,-10.273094,-14.9398,49.21135,59.81781,-0.66210896,3.2407746,-6.655278
30,0.314777135848999,2.1389076709747314,78.8524398803711,-2.458456618688718,-2.2090403708751283,-91.92299290397375,-0.8247422,7.126464,8.47394,19.031118,-17.53341,-3.1919932,0.57779425,-1.4762247,-15.69809,18.07812,-14.256545,1.6943226,-2.526304,3.6910896,10.542485,-10.893613,15.461555,-48.860783,61.01187,1.968731,1.5026402,1.3355535,-10.269085,-14.938619,49.21266,59.81613,-0.63306063,3.256127,-6.661722
31,0.318280965089798,2.1323044300079346,78.8521957397461,-2.458396114436268,-2.2131773094662353,-91.92894714293213,-0.8135193,7.125814,8.481074,19.03292,-17.542131,-3.1902409,0.58602583,-1.4760317,-15.689372,18.078836,-14.263464,1.6915491,-2.53146,3.6940162,10.537166,-10.865177,15.46033,-48.862278,60.999393,1.9856721,1.5126196,1.33061,-10.278622,-14.933819,49.236404,59.830986,-0.5740924,3.2777636,-6.6687245
32,0.3204461336135864,2.1279807090759277,78.85139465332031,-2.4585000418751863,-2.2127632621819378,-91.93460791983559,-0.80922496,7.1255803,8.486544,19.035593,-17.549269,-3.187822,0.58696264,-1.4760555,-15.68246,18.082314,-14.269148,1.6906451,-2.5418236,3.6951735,10.53821,-10.850223,15.459647,-48.85986,60.99511,1.9918222,1.5156015,1.3272883,-10.271393,-14.932133,49.235703,59.827065,-0.5603883,3.2890952,-6.677501
33,0.3212687075138092,2.124744176864624,78.85128784179688,-2.4599881201024805,-2.206530531958543,-91.94103718226032,-0.81533444,7.1271396,8.49115,19.042803,-17.556816,-3.1848645,0.57604975,-1.4758849,-15.677202,18.093403,-14.2748785,1.6923132,-2.556201,3.6986287,10.530639,-10.826173,15.458116,-48.8507,60.98772,1.9939281,1.5137695,1.3276074,-10.252957,-14.9284725,49.223236,59.818718,-0.58160216,3.2968047,-6.690186
34,0.32003018260002136,2.124598979949951,78.85022735595703,-2.459215281472569,-2.194841645258973,-91.94773552486488,-0.8295158,7.1296296,8.494548,19.051714,-17.563541,-3.181143,0.55614305,-1.4756101,-15.673229,18.108572,-14.28015,1.6954618,-2.56023,3.7010705,10.523598,-10.807886,15.454381,-48.835773,60.981976,2.0090194,1.5087383,1.3258198,-10.234359,-14.918577,49.181416,59.813507,-0.6351892,3.2995367,-6.6992083
35,0.3200600743293762,2.1207966804504395,78.84932708740234,-2.458611437390685,-2.1838561742866838,-91.95389870372465,-0.84317875,7.1305146,8.496776,19.060907,-17.570011,-3.1764674,0.53850985,-1.4764601,-15.669728,18.120893,-14.285543,1.699496,-2.5748453,3.7029881,10.516115,-10.787626,15.452408,-48.82638,60.976887,2.0064542,1.5015173,1.3277793,-10.205009,-14.912972,49.14842,59.79957,-0.69078445,3.2994573,-6.7130766
36,0.31948980689048767,2.115659236907959,78.84724426269531,-2.455295965072955,-2.1766974665172696,-91.95947093722694,-0.8507226,7.1269536,8.498132,19.067272,-17.575403,-3.1708272,0.52220166,-1.4828563,-15.665214,18.142582,-14.296938,1.7038893,-2.5748107,3.6990561,10.514054,-10.775116,15.450365,-48.824524,60.97256,2.015398,1.4969081,1.325148,-10.183783,-14.907608,49.110558,59.79423,-0.7311847,3.296718,-6.7206016
37,0.32217660546302795,2.109449625015259,78.84635162353516,-2.4456179283916257,-2.1768775718334368,-91.96325235139052,-0.8472217,7.1149607,8.4966345,19.06992,-17.579107,-3.1622047,0.5146166,-1.4979458,-15.660299,18.16863,-14.315073,1.7095292,-2.5741014,3.6886072,10.516875,-10.76338,15.447917,-48.836327,60.967064,2.018546,1.4951457,1.324043,-10.166442,-14.901772,49.08534,59.7954,-0.7393217,3.2908208,-6.7271304
38,0.3246559202671051,2.1061995029449463,78.84355163574219,-2.4331900318132,-2.1814423838608836,-91.96595451742454,-0.8370586,7.0969796,8.492956,19.06922,-17.580997,-3.1513808,0.51056015,-1.5196419,-15.655032,18.201153,-14.339452,1.7164028,-2.5666652,3.6720138,10.518512,-10.752814,15.442761,-48.863983,60.96522,2.0183315,1.49525,1.3248868,-10.137304,-14.89122,49.04824,59.79887,-0.74837375,3.2817793,-6.733437
39,0.31702950596809387,2.099217414855957,78.84150695800781,-2.4231451534859563,-2.1849865046448964,-91.96811254855267,-0.82974625,7.082997,8.488773,19.072502,-17.584957,-3.1425369,0.5089449,-1.5365242,-15.650414,18.225384,-14.358944,1.7220049,-2.572987,3.6598234,10.526792,-10.740314,15.441677,-48.87069,60.957508,2.0230668,1.4945261,1.3211914,-10.127848,-14.889429,49.045395,59.803425,-0.73386127,3.2740667,-6.7383885
40,0.3231929540634155,2.0978870391845703,78.8396987915039,-2.4146419661234915,-2.1818348038426696,-91.97136195177082,-0.82926303,7.071921,8.489217,19.073069,-17.58759,-3.1380112,0.4943563,-1.5516754,-15.644319,18.258068,-14.378962,1.7256665,-2.569089,3.648135,10.521418,-10.723653,15.439915,-48.882812,60.95087,2.0274112,1.495376,1.3150702,-10.112153,-14.886589,49.041973,59.81007,-0.72506154,3.269318,-6.7434816
41,0.3245854675769806,2.095872402191162,78.83841705322266,-2.41495016065188,-2.1673590251232087,-91.97505374176016,-0.8472776,7.076208,8.492454,19.08345,-17.594347,-3.1416652,0.46974277,-1.5505861,-15.638288,18.277355,-14.38503,1.7246207,-2.5681188,3.64612,10.506252,-10.711032,15.438074,-48.885788,60.95113,2.0305145,1.4947996,1.2993364,-10.087453,-14.883499,49.03341,59.806774,-0.74978065,3.2725523,-6.749639
42,0.3222443759441376,2.0907399654388428,78.83988952636719,-2.419919443576612,-2.145786223522714,-91.97931473331606,-0.87717074,7.088626,8.498073,19.100735,-17.60464,-3.150475,0.43655226,-1.541616,-15.631517,18.293318,-14.385213,1.720679,-2.5635405,3.648018,10.48623,-10.70154,15.436418,-48.88174,60.954205,2.038982,1.4939498,1.2759155,-10.065016,-14.880746,49.02623,59.802837,-0.78377354,3.2798018,-6.754954
43,0.3177676200866699,2.0884177684783936,78.83890533447266,-2.428124414567677,-2.12448644902581,-91.983247358059,-0.9059463,7.102705,8.504756,19.11642,-17.614676,-3.1609654,0.4049194,-1.5309,-15.626063,18.307188,-14.384576,1.7160627,-2.5607307,3.6510527,10.465127,-10.690208,15.433281,-48.870476,60.958534,2.047592,1.494173,1.2543565,-10.039655,-14.875505,49.01528,59.79971,-0.8235662,3.2884634,-6.7578764
44,0.3193477392196655,2.0847103595733643,78.83866119384766,-2.4314526426055196,-2.111719425749087,-91.98646428469068,-0.9202748,7.111496,8.511222,19.124258,-17.62266,-3.1695974,0.3862866,-1.5253304,-15.623411,18.31958,-14.38871,1.7132195,-2.563553,3.6521835,10.4519415,-10.672868,15.428066,-48.851746,60.960857,2.0564108,1.4954308,1.2451135,-10.009559,-14.867256,48.998272,59.79774,-0.8633469,3.2944798,-6.756769
45,0.32127633690834045,2.0787036418914795,78.8364028930664,-2.432781478575944,-2.1138356082106475,-91.98843040957557,-0.91194844,7.1135154,8.517813,19.12309,-17.629614,-3.1766582,0.38892856,-1.5269685,-15.625833,18.33117,-14.400911,1.7122657,-2.5668457,3.6509373,10.454748,-10.655938,15.4203825,-48.84201,60.96253,2.0468113,1.4991978,1.2606429,-9.997464,-14.856728,48.995403,59.816116,-0.8626177,3.295753,-6.752161
46,0.32181021571159363,2.0734004974365234,78.83289337158203,-2.4322829334497325,-2.1247353199701653,-91.98960811148446,-0.89064515,7.1126814,8.524976,19.117489,-17.636953,-3.1836898,0.40478125,-1.5319623,-15.632058,18.340904,-14.41739,1.712113,-2.576211,3.6495693,10.465319,-10.629266,15.417549,-48.834373,60.953,2.0222952,1.5053221,1.2931815,-9.968126,-14.853344,48.98647,59.81934,-0.86292845,3.296809,-6.7464647
47,0.3224901556968689,2.070678234100342,78.83141326904297,-2.429886528693531,-2.135996194001293,-91.99059073513709,-0.86667806,7.1091228,8.53156,19.107887,-17.6421,-3.1888,0.4220316,-1.5389892,-15.637509,18.35,-14.434291,1.7132648,-2.578743,3.646428,10.478831,-10.608845,15.4143305,-48.83047,60.9446,1.9994532,1.5120233,1.3240067,-9.949892,-14.850068,48.98277,59.82829,-0.8444046,3.2962866,-6.7372284
48,0.3262108266353607,2.0629465579986572,78.8316879272461,-2.425915605644295,-2.139865343070449,-91.99210955965198,-0.8506948,7.102382,8.53707,19.09702,-17.644451,-3.1899436,0.4287098,-1.5475347,-15.637203,18.360071,-14.448047,1.716313,-2.5820467,3.6423001,10.47925,-10.585702,15.406608,-48.82311,60.941723,1.9901185,1.518896,1.3422296,-9.927784,-14.842871,48.979275,59.8414,-0.8383601,3.295121,-6.727849
49,0.3270496129989624,2.0573229789733887,78.83065032958984,-2.41831273783171,-2.132343798211961,-91.99458457357676,-0.84806335,7.0914407,8.540074,19.086315,-17.643042,-3.184796,0.42063874,-1.5578115,-15.627868,18.369146,-14.455592,1.7227898,-2.5780709,3.634985,10.470782,-10.571089,15.402916,-48.819477,60.940216,1.993752,1.5260533,1.3372536,-9.908696,-14.839792,48.98261,59.849037,-0.8275233,3.2929454,-6.718642
50,0.3277910053730011,2.0496389865875244,78.8318099975586,-2.4103590550537324,-2.1198253644636953,-91.99718292782495,-0.85232925,7.078515,8.540747,19.078064,-17.641064,-3.1753578,0.40742147,-1.5681341,-15.61346,18.374609,-14.458536,1.731745,-2.580081,3.6292093,10.461965,-10.558715,15.401292,-48.815735,60.93704,1.9981211,1.532129,1.3234947,-9.883133,-14.838431,48.98191,59.848274,-0.83361715,3.289922,-6.7109947
51,0.3298081159591675,2.0412819385528564,78.83295440673828,-2.3983667974180523,-2.1018342772292415,-92.00034687459534,-0.86025906,7.061306,8.54269,19.063887,-17.635124,-3.164703,0.38289174,-1.5831896,-15.597442,18.389977,-14.4653635,1.7408448,-2.5835536,3.6178968,10.427578,-10.535583,15.386044,-48.79555,60.949444,2.0249927,1.5394523,1.2990776,-9.849458,-14.827255,48.99211,59.85651,-0.8383488,3.2877703,-6.7004423
52,0.3321319818496704,2.0340518951416016,78.83271026611328,-2.3924899517850324,-2.0877787724443846,-92.00140841818278,-0.86844146,7.0529923,8.543582,19.058897,-17.635157,-3.158811,0.36698818,-1.5899912,-15.588946,18.39776,-14.470607,1.7458985,-2.584191,3.613069,10.409654,-10.52637,15.37207,-48.79043,60.96259,2.0350053,1.5414668,1.2871622,-9.844869,-14.81777,49.015835,59.87888,-0.81737375,3.2851949,-6.6913953
53,0.33198803663253784,2.0280139446258545,78.83238220214844,-2.395721083193328,-2.0757744632773103,-91.99977113302026,-0.8813193,7.0555534,8.544344,19.067059,-17.643415,-3.1598952,0.3542136,-1.58816,-15.590329,18.404964,-14.478284,1.7445021,-2.5908754,3.6144216,10.396226,-10.511627,15.3642845,-48.78421,60.96722,2.0383627,1.5382277,1.2865328,-9.822321,-14.812281,49.015984,59.883003,-0.82837886,3.2859085,-6.683146
54,0.3299853801727295,2.0253448486328125,78.83042907714844,-2.401993126655001,-2.0641157694106274,-91.9964214012518,-0.8971806,7.064889,8.544922,19.080748,-17.655083,-3.1650796,0.34288704,-1.5803405,-15.597728,18.41,-14.486151,1.7390013,-2.6010852,3.6199138,10.384991,-10.494274,15.359749,-48.77795,60.967373,2.0381181,1.530864,1.2917349,-9.793654,-14.808818,49.008453,59.87909,-0.8517229,3.288278,-6.6757145
55,0.3311159908771515,2.02321457862854,78.8288345336914,-2.4089879987371696,-2.054543249050064,-91.99312817105772,-0.91037834,7.073701,8.545273,19.094133,-17.666887,-3.1703072,0.3337493,-1.573415,-15.606298,18.416197,-14.495134,1.7337794,-2.6077337,3.6238723,10.378496,-10.48183,15.357386,-48.77494,60.96733,2.0364811,1.5229752,1.2977934,-9.775357,-14.806973,49.004482,59.88021,-0.8641372,3.2892315,-6.665836
56,0.33173349499702454,2.016869068145752,78.82765197753906,-2.412249742922012,-2.0477037222560956,-91.99148749403876,-0.91658914,7.0758753,8.544703,19.100468,-17.674877,-3.171777,0.3264006,-1.5731236,-15.611744,18.426254,-14.505293,1.7329965,-2.6101139,3.6225226,10.37057,-10.472412,15.347494,-48.770966,60.975273,2.039286,1.5175997,1.301479,-9.76463,-14.799445,49.003563,59.89329,-0.8646828,3.2873924,-6.6513314
57,0.3325055241584778,2.0115668773651123,78.82589721679688,-2.406361562111804,-2.046856598075024,-91.99256499773531,-0.90883946,7.0667033,8.543096,19.093237,-17.675274,-3.167214,0.3245121,-1.5838215,-15.612794,18.441082,-14.517614,1.7388921,-2.612178,3.6122358,10.368788,-10.465516,15.341433,-48.766533,60.981365,2.0388913,1.5158134,1.302149,-9.756927,-14.794752,49.00557,59.907566,-0.8548206,3.280248,-6.630055
58,0.3362291753292084,2.004368782043457,78.82424926757812,-2.3973155988993597,-2.0498630027023825,-91.99499535896913,-0.89308584,7.0509295,8.540183,19.079712,-17.672518,-3.1591225,0.3256504,-1.6015699,-15.611828,18.460781,-14.532595,1.7488312,-2.6132236,3.5960581,10.37024,-10.458452,15.337327,-48.759075,60.986298,2.0404687,1.5149273,1.3009835,-9.7531395,-14.791537,49.00903,59.92572,-0.8367999,3.268853,-6.6027484
59,0.3394724428653717,1.9965546131134033,78.82313537597656,-2.3900346563210126,-2.0526327606619157,-91.99810072076897,-0.8792873,7.037676,8.536999,19.069847,-17.671658,-3.151113,0.32819074,-1.6164637,-15.610133,18.476065,-14.543992,1.7593771,-2.6176069,3.5837893,10.374015,-10.452629,15.336217,-48.755116,60.98683,2.0350225,1.515479,1.3010328,-9.743078,-14.790611,49.008343,59.93475,-0.828738,3.2600327,-6.581452
60,0.3405732810497284,1.9916532039642334,78.82302856445312,-2.3802485447509207,-2.0547435159232847,-92.001718136632,-0.8622341,7.0211706,8.538906,19.051558,-17.667643,-3.1443565,0.32361674,-1.6346569,-15.605489,18.502457,-14.559019,1.7695549,-2.6176121,3.5675037,10.373876,-10.44698,15.329771,-48.745216,60.993168,2.0417478,1.5179821,1.2985119,-9.746843,-14.785574,49.021595,59.952637,-0.80288184,3.2532928,-6.561895
61,0.3427668511867523,1.984869122505188,78.822021484375,-2.3748036272348307,-2.0513566856978884,-92.00457934164042,-0.85796213,7.014647,8.542289,19.045774,-17.671192,-3.141043,0.3130807,-1.6424308,-15.600313,18.524015,-14.566752,1.7776235,-2.620551,3.5630982,10.371874,-10.442665,15.326974,-48.741367,60.996338,2.0427086,1.5200928,1.2972325,-9.747263,-14.783452,49.035095,59.96208,-0.7856209,3.2534912,-6.5579457
62,0.3439379632472992,1.9804043769836426,78.82181549072266,-2.3732835760971485,-2.045620043310411,-92.00785909471544,-0.85776967,7.0116224,8.548136,19.042624,-17.677132,-3.1392264,0.298503,-1.6461989,-15.593306,18.545055,-14.570794,1.785314,-2.6314795,3.5636256,10.365052,-10.43509,15.319668,-48.73383,61.001934,2.0417233,1.5241957,1.2970324,-9.753055,-14.77836,49.071938,59.973595,-0.7580147,3.259135,-6.56545
63,0.34530195593833923,1.9736336469650269,78.82295989990234,-2.3727850796947387,-2.0403987112889403,-92.01145357650451,-0.85766673,7.01016,8.555166,19.041414,-17.684208,-3.1390147,0.28534496,-1.6486121,-15.585941,18.56456,-14.575149,1.7916093,-2.6385043,3.5657651,10.361943,-10.430606,15.316423,-48.73144,61.00293,2.040597,1.5284336,1.2974048,-9.74374,-14.776082,49.08086,59.969234,-0.7580578,3.2653463,-6.574494
64,0.34714803099632263,1.9659671783447266,78.82343292236328,-2.367386815154232,-2.035918943580009,-92.016190771725,-0.85407585,7.0046506,8.564063,19.037052,-17.688728,-3.1399007,0.27189043,-1.6569036,-15.578329,18.590546,-14.588064,1.7960682,-2.6449149,3.5629325,10.355918,-10.427637,15.30971,-48.7318,61.01246,2.0418985,1.5306463,1.3014106,-9.750928,-14.771965,49.11042,59.979153,-0.7327701,3.2688828,-6.584399
65,0.35181576013565063,1.9582405090332031,78.82293701171875,-2.3606210626697446,-2.034668958218188,-92.02151407646613,-0.8454231,6.99532,8.574947,19.032236,-17.69231,-3.1439264,0.26341993,-1.6715918,-15.571514,18.619787,-14.611629,1.7978536,-2.6546328,3.556523,10.353691,-10.421915,15.304713,-48.729,61.019863,2.0487804,1.5295651,1.309387,-9.74682,-14.768697,49.11698,59.981277,-0.73425347,3.2682433,-6.5928173
66,0.35396894812583923,1.9522607326507568,78.81951141357422,-2.349500675870104,-2.0349666260832007,-92.02764041470671,-0.831982,6.9830055,8.588223,19.023634,-17.693346,-3.1504164,0.2570513,-1.6906726,-15.564628,18.65235,-14.642586,1.7975731,-2.658496,3.5467782,10.355635,-10.422346,15.300953,-48.733074,61.02924,2.0575807,1.5266497,1.3195658,-9.755301,-14.766379,49.12471,59.990532,-0.7258212,3.2649121,-6.601235
67,0.3559202253818512,1.946575403213501,78.81652069091797,-2.3435542754493572,-2.035611953519034,-92.03375186414434,-0.82133836,6.9751472,8.599613,19.022102,-17.69754,-3.156716,0.25588575,-1.704623,-15.55915,18.675041,-14.668906,1.7955128,-2.6633954,3.5401826,10.35741,-10.420763,15.299711,-48.734932,61.034573,2.0685236,1.5247283,1.329344,-9.758278,-14.765618,49.125893,59.993126,-0.7246042,3.2607615,-6.6080747
68,0.35669422149658203,1.9399110078811646,78.81437683105469,-2.3365185287918,-2.0370231885150862,-92.04156784982578,-0.8096764,6.96818,8.61035,19.02005,-17.701532,-3.1584902,0.25239053,-1.7173204,-15.551732,18.701828,-14.692199,1.7936981,-2.6662025,3.5330174,10.358799,-10.419031,15.297991,-48.73826,61.041664,2.0792785,1.5237027,1.3428801,-9.759426,-14.764461,49.126408,59.994324,-0.7229447,3.2548165,-6.612941
69,0.35554447770118713,1.9327638149261475,78.81263732910156,-2.337734338808585,-2.038241725705614,-92.04960170501495,-0.8053518,6.9711366,8.614389,19.031067,-17.710827,-3.1536362,0.2541011,-1.717038,-15.546375,18.713072,-14.69945,1.7893155,-2.6671357,3.5327427,10.358647,-10.419471,15.296604,-48.742237,61.04904,2.0894394,1.5271356,1.3558972,-9.760605,-14.763478,49.12627,59.99513,-0.7183119,3.2466185,-6.6104507
70,0.35444390773773193,1.927479863166809,78.81156921386719,-2.3414867691215093,-2.0397515703221885,-92.0586872172169,-0.8043008,6.978753,8.615266,19.048933,-17.72275,-3.1441321,0.25737244,-1.7110214,-15.541271,18.719505,-14.699483,1.7830597,-2.671023,3.5362918,10.35805,-10.4188175,15.295678,-48.74429,61.055824,2.0981479,1.532107,1.3709291,-9.756208,-14.762647,49.123608,59.990784,-0.7187178,3.235752,-6.604526
71,0.34638363122940063,1.921932578086853,78.8115005493164,-2.3495159257214606,-2.0412503417271854,-92.06780470374385,-0.8064872,6.9924445,8.615467,19.074606,-17.739971,-3.1361418,0.26512775,-1.6980103,-15.536318,18.715578,-14.694031,1.7777244,-2.6659846,3.5413725,10.354684,-10.4194355,15.293474,-48.750908,61.06518,2.1111276,1.5381453,1.3862853,-9.750455,-14.760769,49.11523,59.986877,-0.71727043,3.2251987,-6.598018
72,0.35244572162628174,1.9117140769958496,78.81002044677734,-2.355433884692894,-2.041555174113376,-92.07568782245374,-0.8031882,7.0018277,8.620028,19.087273,-17.753468,-3.1337636,0.27381748,-1.6881504,-15.529941,18.707401,-14.690539,1.7779999,-2.658736,3.545287,10.351746,-10.4225,15.291504,-48.75732,61.070984,2.1219218,1.5430719,1.3941531,-9.753913,-14.759215,49.11275,59.986877,-0.7079754,3.222677,-6.599544
73,0.356814444065094,1.902823567390442,78.80821990966797,-2.3624484065014753,-2.0408627922579647,-92.08310820437646,-0.79627836,7.0132074,8.631108,19.093266,-17.769007,-3.1423693,0.28981906,-1.6741492,-15.520936,18.680609,-14.683629,1.7862887,-2.6497114,3.5513668,10.344797,-10.4264555,15.287759,-48.76587,61.07773,2.1276987,1.5459919,1.3951677,-9.75536,-14.75664,49.11191,59.987213,-0.6997316,3.230462,-6.6145377
74,0.35933050513267517,1.8916252851486206,78.8079833984375,-2.3674160161551225,-2.0378561346453052,-92.08919080071114,-0.78658986,7.0210752,8.646336,19.089706,-17.78321,-3.1568847,0.30398822,-1.6629502,-15.510068,18.652777,-14.679858,1.801033,-2.6406727,3.5545576,10.336207,-10.428017,15.28689,-48.767292,61.07863,2.1369424,1.5481263,1.389653,-9.761142,-14.7561655,49.11419,59.985622,-0.6883382,3.2440076,-6.6333694
75,0.35322195291519165,1.880272626876831,78.80912780761719,-2.3753817700341298,-2.0368108332133397,-92.09595460333193,-0.7753369,7.0333376,8.661856,19.088413,-17.799017,-3.172322,0.3271923,-1.6456962,-15.499514,18.610075,-14.669289,1.8150142,-2.6349752,3.564227,10.3277855,-10.426986,15.282849,-48.767395,61.079037,2.1434891,1.5495871,1.3833052,-9.764839,-14.754122,49.125313,59.98407,-0.6755235,3.2626994,-6.662146
76,0.3593827486038208,1.8730616569519043,78.80906677246094,-2.379421805521743,-2.0352403587628105,-92.10042497656707,-0.7669938,7.039888,8.671714,19.08902,-17.811462,-3.1801312,0.34232858,-1.6363637,-15.492828,18.58614,-14.666683,1.8240892,-2.635964,3.5712726,10.321674,-10.42421,15.279052,-48.762135,61.076614,2.1482902,1.5491679,1.3804452,-9.762452,-14.752228,49.12662,59.977856,-0.67983687,3.273515,-6.6851377
77,0.36473098397254944,1.865418791770935,78.81000518798828,-2.383132679995317,-2.0349619569541977,-92.10227008280093,-0.7619876,7.042613,8.673327,19.096636,-17.822115,-3.1767294,0.3548794,-1.6324631,-15.491813,18.57509,-14.668838,1.8258132,-2.6383073,3.5798087,10.323073,-10.428571,15.273253,-48.757397,61.075466,2.1501117,1.5449678,1.3790295,-9.769776,-14.74962,49.125984,59.977573,-0.6849603,3.2752466,-6.704032
78,0.3659772276878357,1.8566612005233765,78.81027221679688,-2.385074232797524,-2.0347374927630737,-92.10292237351244,-0.7584686,7.041047,8.670779,19.10556,-17.830017,-3.1662967,0.3641872,-1.633764,-15.4936,18.573835,-14.675272,1.8235424,-2.6469975,3.5874298,10.3241625,-10.427003,15.272269,-48.75456,61.06649,2.142896,1.5391678,1.3803744,-9.764683,-14.749081,49.120502,59.966877,-0.7036182,3.27269,-6.722923
79,0.3658773601055145,1.8474819660186768,78.80874633789062,-2.386647817277433,-2.035446712780696,-92.10233933152223,-0.7561216,7.0409994,8.6657095,19.11765,-17.838135,-3.1556168,0.37494445,-1.6341282,-15.497891,18.571806,-14.680403,1.8187312,-2.6503458,3.5958955,10.330957,-10.4300375,15.269852,-48.748337,61.056477,2.1433723,1.5336767,1.3825445,-9.761088,-14.747988,49.10282,59.956974,-0.73115236,3.2684104,-6.7402673
80,0.3642040193080902,1.8383780717849731,78.80734252929688,-2.3891463579563457,-2.034149800600797,-92.10385428572998,-0.7540991,7.041907,8.664782,19.125296,-17.844244,-3.1503975,0.3803228,-1.6345215,-15.50006,18.5734,-14.685742,1.8134363,-2.6507733,3.5978374,10.332129,-10.4344015,15.268657,-48.747475,61.052414,2.1436791,1.5322919,1.38949,-9.762413,-14.747491,49.09809,59.9526,-0.7417471,3.2643597,-6.749352
81,0.36184489727020264,1.8323607444763184,78.80664825439453,-2.392935812540649,-2.032305971052013,-92.10702063591523,-0.7530045,7.0484595,8.667549,19.132864,-17.851334,-3.1541777,0.38543907,-1.6304021,-15.501972,18.57035,-14.686465,1.8061349,-2.6425867,3.5940444,10.335435,-10.448534,15.267324,-48.751118,61.057365,2.154868,1.5367743,1.4048631,-9.772451,-14.747013,49.101345,59.95496,-0.7389044,3.2588532,-6.7509437
82,0.362988144159317,1.8268694877624512,78.80652618408203,-2.3978388398396087,-2.0294669505021523,-92.1113575794692,-0.7527747,7.0574,8.672536,19.138807,-17.857512,-3.1629128,0.38770464,-1.6251137,-15.503741,18.568584,-14.685943,1.7966169,-2.6314287,3.584995,10.335856,-10.467514,15.2654295,-48.762466,61.070732,2.166051,1.5449662,1.4268891,-9.793099,-14.746364,49.1254,59.96724,-0.71222943,3.2517498,-6.7467484
83,0.3641492426395416,1.8224523067474365,78.80654907226562,-2.402598429886674,-2.02551813553182,-92.11640161528611,-0.7535882,7.065822,8.678415,19.143755,-17.86246,-3.1725116,0.38772586,-1.6201705,-15.504194,18.567543,-14.68522,1.7879614,-2.6302502,3.5756874,10.329697,-10.479286,15.2623625,-48.77348,61.085186,2.164628,1.5534809,1.4529663,-9.810814,-14.744776,49.16814,59.9803,-0.67812693,3.2465818,-6.745476
84,0.36584752798080444,1.8138351440429688,78.80634307861328,-2.405168907066021,-2.020074549715381,-92.12144218247485,-0.7570913,7.071204,8.683243,19.150822,-17.866945,-3.1790035,0.38492677,-1.617213,-15.501887,18.568624,-14.686496,1.7832336,-2.6350796,3.5690932,10.323526,-10.484819,15.258833,-48.77416,61.09361,2.152628,1.5590355,1.4745446,-9.825697,-14.742155,49.20364,59.990314,-0.6530275,3.2450824,-6.7477255
85,0.3688989281654358,1.8064624071121216,78.80648040771484,-2.4062688600282875,-2.012065148161038,-92.12630992288643,-0.7626929,7.07184,8.6865425,19.156645,-17.869764,-3.1810188,0.37755108,-1.6169703,-15.495442,18.57345,-14.691637,1.7840033,-2.642063,3.5657752,10.319958,-10.489601,15.255891,-48.770092,61.094303,2.116277,1.5598127,1.4911679,-9.837573,-14.739185,49.2182,59.995907,-0.6432473,3.2493346,-6.7535
86,0.37033307552337646,1.799534797668457,78.80718994140625,-2.4044048891399767,-2.00243273035693,-92.13145549822306,-0.7698845,7.0697722,8.689201,19.16253,-17.871859,-3.1808922,0.36823428,-1.6176281,-15.485963,18.578362,-14.697948,1.7883381,-2.647036,3.5633557,10.316042,-10.491849,15.253793,-48.7656,61.088825,2.065029,1.5586628,1.5052947,-9.841511,-14.736563,49.217342,59.994637,-0.64339364,3.2573328,-6.761616
87,0.3713235557079315,1.7943004369735718,78.80651092529297,-2.402171128650269,-1.9923854551395188,-92.13695383435287,-0.7799218,7.0665474,8.692159,19.172255,-17.87371,-3.1797335,0.35591307,-1.6203302,-15.475615,18.58765,-14.705559,1.7942029,-2.6508474,3.5608652,10.314582,-10.497074,15.251696,-48.760624,61.083996,2.0131896,1.5570482,1.516606,-9.849275,-14.733629,49.212826,59.993332,-0.6447176,3.266351,-6.7697525
88,0.37064099311828613,1.7915507555007935,78.80708312988281,-2.4003026874586713,-1.986528255760414,-92.14319506743476,-0.7895862,7.064776,8.696508,19.189526,-17.876272,-3.1789196,0.34664965,-1.6237015,-15.466717,18.598764,-14.711389,1.7994497,-2.6533327,3.5584025,10.314983,-10.501869,15.250048,-48.75608,61.08158,1.9824399,1.5573595,1.5220006,-9.849019,-14.731016,49.20722,59.984924,-0.6495409,3.2707791,-6.77782
89,0.3715629577636719,1.7889949083328247,78.80683898925781,-2.396446367439447,-1.9846768442983234,-92.15084186433798,-0.801069,7.063953,8.702917,19.21911,-17.881435,-3.177977,0.33844534,-1.6299111,-15.4597025,18.616196,-14.717152,1.8048952,-2.6464822,3.551973,10.321689,-10.516328,15.248588,-48.75236,61.087467,1.9820975,1.5610723,1.5178841,-9.853402,-14.728908,49.205185,59.97255,-0.6451925,3.2718358,-6.7850094
90,0.3722701370716095,1.7857117652893066,78.80606842041016,-2.3928345124881076,-1.9872566043592865,-92.15935968649451,-0.81128705,7.063456,8.710816,19.255402,-17.887308,-3.176577,0.3333291,-1.637793,-15.453877,18.636482,-14.722229,1.8111938,-2.6347883,3.5437882,10.335191,-10.538206,15.24473,-48.74709,61.100548,2.0024726,1.5663196,1.5064043,-9.8716755,-14.724538,49.218777,59.966366,-0.6166614,3.2686777,-6.7930727
91,0.37513604760169983,1.7818572521209717,78.80474090576172,-2.3893759068383202,-1.988758295415558,-92.16788764554462,-0.8258269,7.06424,8.71883,19.29626,-17.89235,-3.1758115,0.32533896,-1.6453773,-15.448031,18.658558,-14.726276,1.8160667,-2.623657,3.5365698,10.345039,-10.555973,15.241893,-48.744106,61.112007,2.027733,1.5718285,1.4942542,-9.8874,-14.7219515,49.23657,59.956696,-0.58844155,3.2646236,-6.8010826
92,0.37633460760116577,1.7777900695800781,78.80258178710938,-2.3861523171750445,-1.9845602948745111,-92.17575521254967,-0.84925985,7.067268,8.72613,19.338589,-17.894926,-3.176801,0.30812848,-1.6506174,-15.441301,18.683296,-14.729856,1.8172102,-2.6189845,3.530869,10.348174,-10.567882,15.23964,-48.738697,61.12105,2.0488946,1.5760639,1.4863555,-9.892766,-14.720129,49.247314,59.9378,-0.5823848,3.2623246,-6.8090777
93,0.3773779571056366,1.7750147581100464,78.80178833007812,-2.38811816593862,-1.9725495440781973,-92.18241948702037,-0.88646406,7.0755644,8.731411,19.38717,-17.895935,-3.1812644,0.28023753,-1.6502546,-15.433006,18.707996,-14.730772,1.8129865,-2.6134686,3.5263355,10.34517,-10.582141,15.236558,-48.73427,61.132725,2.0686479,1.5779355,1.48019,-9.907615,-14.718239,49.263985,59.923153,-0.57933116,3.2617626,-6.8143916
94,0.377136766910553,1.7752925157546997,78.80191802978516,-2.3901797509251685,-1.9557391762218779,-92.18801180629721,-0.9331088,7.0874295,8.735218,19.440603,-17.895134,-3.188144,0.24486315,-1.646666,-15.424202,18.733845,-14.730127,1.805115,-2.6070988,3.522869,10.336838,-10.594749,15.235061,-48.73276,61.144554,2.089759,1.5777806,1.4747471,-9.919652,-14.717508,49.275043,59.904156,-0.58754593,3.2617807,-6.817579
95,0.375244140625,1.7776857614517212,78.80413818359375,-2.3920903913961507,-1.9357886659060983,-92.19395699222478,-0.98559433,7.0988226,8.739811,19.4967,-17.892984,-3.1945581,0.2030705,-1.6442825,-15.415214,18.763783,-14.7302685,1.795669,-2.610525,3.5198221,10.326653,-10.606377,15.2308855,-48.72501,61.157867,2.1062534,1.5779458,1.4740384,-9.930439,-14.715854,49.292023,59.881817,-0.6019172,3.2621012,-6.824003
96,0.37328222393989563,1.7805722951889038,78.80667877197266,-2.388823980827614,-1.9174524579744896,-92.20089153666325,-1.0291395,7.102357,8.748059,19.536745,-17.886652,-3.1973574,0.15770629,-1.6504579,-15.406506,18.804325,-14.736192,1.7871245,-2.611575,3.5146112,10.320696,-10.616019,15.227947,-48.719276,61.162025,2.1182017,1.5801755,1.4804724,-9.944582,-14.714983,49.297955,59.861816,-0.61428833,3.2596927,-6.8309603
97,0.36777591705322266,1.790837049484253,78.80833435058594,-2.379973768911657,-1.9012903672653871,-92.20887600151407,-1.0641915,7.0960546,8.76204,19.563978,-17.876663,-3.1947274,0.10984163,-1.6680928,-15.399263,18.856037,-14.7495,1.7791127,-2.6198514,3.5083013,10.320675,-10.624708,15.222683,-48.711876,61.15933,2.11745,1.5862894,1.5019323,-9.950983,-14.713586,49.285606,59.835724,-0.6422718,3.2552311,-6.842682
98,0.37198150157928467,1.7944750785827637,78.80998229980469,-2.3686953155922725,-1.889080377366844,-92.21667634989791,-1.091738,7.0871344,8.778366,19.584108,-17.864872,-3.1894112,0.06768995,-1.6882104,-15.394289,18.90523,-14.763013,1.7701523,-2.6328642,3.5037487,10.3207245,-10.626396,15.221409,-48.710777,61.148365,2.1035845,1.5937463,1.5314386,-9.956631,-14.713277,49.278465,59.812817,-0.6608589,3.2483504,-6.8583937
99,0.3738512694835663,1.7998052835464478,78.8089599609375,-2.3509332900212128,-1.8692291275631712,-92.227129178618,-1.1250726,7.069355,8.797502,19.595621,-17.848122,-3.1818867,0.0028557063,-1.7198031,-15.385484,18.980204,-14.786459,1.763221,-2.637616,3.4909453,10.323506,-10.635068,15.21988,-48.70931,61.13228,2.091641,1.6043205,1.5651107,-9.9751215,-14.713188,49.26259,59.790215,-0.6784042,3.241172,-6.872964
100,0.3766540586948395,1.8082020282745361,78.80765533447266,-2.3345764169430963,-1.8503443924948348,-92.23949145511578,-1.1562829,7.053962,8.813792,19.601574,-17.828487,-3.1764452,-0.061865248,-1.7468429,-15.373541,19.051296,-14.803842,1.7591652,-2.624163,3.4779537,10.332047,-10.662515,15.212382,-48.71153,61.12842,2.0901952,1.6108127,1.575604,-9.9869175,-14.714339,49.20728,59.76131,-0.7160422,3.2334497,-6.876173
101,0.3757222890853882,1.8174318075180054,78.80841064453125,-2.320425820524665,-1.8282850205325547,-92.25551590751893,-1.1920074,7.042068,8.8250475,19.60489,-17.806267,-3.1735642,-0.13317806,-1.7681643,-15.35567,19.118906,-14.811207,1.7609661,-2.6132061,3.4624088,10.329746,-10.6831665,15.20782,-48.7046,61.125656,2.0925694,1.6137449,1.5589775,-10.007283,-14.716593,49.18794,59.738155,-0.72704566,3.2264574,-6.8748527
102,0.38013356924057007,1.8257243633270264,78.80973815917969,-2.306687958959005,-1.8051428636508118,-92.27391290651644,-1.2291529,7.032573,8.832893,19.604893,-17.781868,-3.1720426,-0.20709224,-1.7851446,-15.334648,19.182907,-14.811434,1.7667853,-2.606544,3.4473689,10.321022,-10.694948,15.206688,-48.69356,61.118374,2.0941334,1.6151154,1.5273441,-10.01971,-14.71744,49.176067,59.711056,-0.7415874,3.220029,-6.871216
103,0.37459778785705566,1.8449939489364624,78.81269073486328,-2.291132273579344,-1.7793399788439574,-92.29356817120276,-1.2666992,7.019152,8.842927,19.597664,-17.754549,-3.17057,-0.29124057,-1.8070998,-15.31134,19.259262,-14.817506,1.7716966,-2.5981433,3.4285831,10.322371,-10.71847,15.203124,-48.658924,61.114506,2.1171715,1.6140144,1.4858758,-10.04497,-14.7222805,49.14662,59.681206,-0.7603917,3.2135928,-6.8601475
104,0.37261128425598145,1.8610841035842896,78.81334686279297,-2.2769296814241193,-1.7573662626787512,-92.31016880853828,-1.3005978,7.008976,8.854579,19.591608,-17.731121,-3.1703923,-0.3657024,-1.8256425,-15.2929735,19.326612,-14.8254795,1.7690694,-2.599871,3.4152455,10.324594,-10.734222,15.201,-48.635788,61.108894,2.1320233,1.6111807,1.4629006,-10.066677,-14.727093,49.123993,59.649563,-0.768625,3.2083085,-6.8575926
105,0.3731149137020111,1.8739416599273682,78.81340789794922,-2.2656668929846555,-1.7386378053813907,-92.32264213186879,-1.3290994,6.999449,8.870629,19.582409,-17.710907,-3.1714442,-0.4329321,-1.844412,-15.280845,19.390734,-14.841684,1.7541713,-2.6112227,3.4082189,10.329856,-10.74375,15.198884,-48.620667,61.099934,2.1424022,1.6051867,1.4636537,-10.085198,-14.7347355,49.092613,59.615124,-0.7702347,3.2053075,-6.862043
106,0.37643200159072876,1.8880082368850708,78.81291198730469,-2.254031706895177,-1.722219992295215,-92.33300882882962,-1.3533462,6.99072,8.88972,19.569574,-17.69228,-3.1737158,-0.49619886,-1.8630672,-15.272188,19.453302,-14.862942,1.7312235,-2.6230414,3.4038656,10.338823,-10.755169,15.196706,-48.616375,61.09227,2.1510262,1.5964022,1.4771963,-10.088327,-14.747227,49.03789,59.563557,-0.7820451,3.205636,-6.8697066
107,0.37467095255851746,1.9064202308654785,78.81190490722656,-2.2442442220806282,-1.7059054242544935,-92.34320339322997,-1.3798627,6.9836297,8.908433,19.55968,-17.675533,-3.176312,-0.55924815,-1.8799635,-15.2639265,19.51397,-14.883678,1.7082288,-2.6347237,3.4000068,10.346481,-10.7661085,15.19538,-48.61871,61.086723,2.1551187,1.5881748,1.494781,-10.095475,-14.759101,48.99218,59.516018,-0.7782182,3.2025368,-6.8812428
108,0.36824148893356323,1.929233193397522,78.81165313720703,-2.234651913019996,-1.687799529139133,-92.35536451846725,-1.4133898,6.9788723,8.923715,19.557274,-17.659893,-3.178435,-0.62573224,-1.8937014,-15.252765,19.572418,-14.898134,1.6932088,-2.6414244,3.3939981,10.352337,-10.780749,15.19471,-48.62134,61.08709,2.1577725,1.5835336,1.5054661,-10.106035,-14.771481,48.957832,59.471375,-0.7638581,3.191198,-6.8942957
109,0.36278191208839417,1.948575496673584,78.81111145019531,-2.2260054479680607,-1.6673012517129777,-92.3695410699384,-1.4564878,6.9756536,8.93264,19.564667,-17.64511,-3.178546,-0.69561106,-1.9042169,-15.237763,19.62619,-14.90366,1.691575,-2.640872,3.3850195,10.356309,-10.80259,15.194736,-48.624077,61.094433,2.1571877,1.5841041,1.5053254,-10.105145,-14.792598,48.923264,59.41191,-0.7514401,3.1684902,-6.9075184
110,0.3584347069263458,1.9684141874313354,78.81129455566406,-2.2167757787307845,-1.6452643880002293,-92.38458292464698,-1.5055288,6.973748,8.93752,19.5774,-17.630539,-3.1775773,-0.7668034,-1.9120913,-15.220705,19.675196,-14.903098,1.6979718,-2.644909,3.3730295,10.353735,-10.821198,15.19514,-48.622818,61.10849,2.1530383,1.5880778,1.5015043,-10.119105,-14.798712,48.916695,59.37598,-0.7181384,3.1360538,-6.925039
111,0.3507660925388336,1.9974600076675415,78.8077621459961,-2.2092555656950097,-1.6229831345651233,-92.40168997566941,-1.5591354,6.976053,8.943187,19.597548,-17.61958,-3.178295,-0.84224373,-1.916976,-15.202517,19.728065,-14.901966,1.7041764,-2.643637,3.362823,10.357968,-10.845694,15.19698,-48.62013,61.123413,2.1532102,1.5924649,1.4947377,-10.133273,-14.817372,48.91025,59.32672,-0.67877847,3.1025317,-6.942869
112,0.34563353657722473,2.021672487258911,78.8059310913086,-2.205107570332269,-1.6012533112405523,-92.42189809842966,-1.6140008,6.9849925,8.954404,19.621737,-17.612122,-3.1835084,-0.92147857,-1.9170929,-15.184145,19.78599,-14.901679,1.7017254,-2.6467955,3.3584754,10.363143,-10.862115,15.201364,-48.61505,61.133434,2.1566656,1.5948391,1.489975,-10.12676,-14.851275,48.896786,59.250603,-0.6565942,3.0776002,-6.963987
113,0.33849313855171204,2.049787998199463,78.80517578125,-2.2061981298165154,-1.580820868099286,-92.4452959976148,-1.6691238,7.003618,8.973494,19.650423,-17.610342,-3.1963072,-1.0046045,-1.9107757,-15.167247,19.85003,-14.903038,1.6883115,-2.647873,3.3589647,10.371208,-10.876554,15.205776,-48.61392,61.14644,2.166333,1.5941095,1.4869003,-10.133419,-14.879897,48.89683,59.186317,-0.6241596,3.058392,-6.992952
114,0.3305515646934509,2.082101345062256,78.80267333984375,-2.2105006406070142,-1.561071029268116,-92.47145591046133,-1.7266489,7.0300274,8.997362,19.685204,-17.613434,-3.2144406,-1.0909177,-1.8985679,-15.150845,19.91761,-14.90431,1.6682478,-2.651351,3.363634,10.381438,-10.88757,15.211548,-48.61154,61.15996,2.1800597,1.59197,1.4841748,-10.131431,-14.912515,48.896244,59.11034,-0.6021643,3.0439823,-7.028081
115,0.32044994831085205,2.1102805137634277,78.79996490478516,-2.215888784538819,-1.5409462313640114,-92.50031670065798,-1.7867475,7.0585637,9.023413,19.723686,-17.617558,-3.2326057,-1.1832082,-1.8856504,-15.132132,19.993185,-14.907656,1.6438847,-2.6544516,3.3695703,10.391621,-10.8961735,15.219238,-48.609882,61.17182,2.1926205,1.5892465,1.48289,-10.125875,-14.951526,48.89436,59.02716,-0.5772861,3.0340924,-7.0600305
116,0.309883713722229,2.140371322631836,78.79740142822266,-2.2172809708599055,-1.5195185810867267,-92.53206786751507,-1.85042,7.0834417,9.048956,19.76482,-17.619112,-3.245546,-1.284634,-1.8768458,-15.10849,20.08232,-14.916205,1.6173931,-2.66169,3.3722005,10.3950615,-10.898186,15.226762,-48.603867,61.183548,2.201029,1.5867901,1.4847428,-10.103872,-14.985537,48.869797,58.94052,-0.57131624,3.0292847,-7.081003
117,0.299339234828949,2.1715011596679688,78.7947006225586,-2.2177598749485092,-1.4952651169446707,-92.56670235010677,-1.9224343,7.105652,9.071277,19.814207,-17.618837,-3.2502377,-1.3971527,-1.8712153,-15.079771,20.18495,-14.929894,1.5861832,-2.6671243,3.3713393,10.392957,-10.898384,15.235365,-48.602264,61.193954,2.202312,1.5866816,1.49241,-10.078449,-15.021068,48.833057,58.852314,-0.5557707,3.0365849,-7.0849056
118,0.28898632526397705,2.205427646636963,78.7919921875,-2.2173209612090266,-1.4691127148024241,-92.60417312254911,-2.0011475,7.127365,9.092481,19.871172,-17.618404,-3.2500975,-1.5183777,-1.8666844,-15.047322,20.297897,-14.9469595,1.5501448,-2.6702418,3.3705482,10.388125,-10.8963995,15.247082,-48.60603,61.199844,2.1971476,1.5873489,1.5039002,-10.039539,-15.066445,48.77699,58.75033,-0.5446409,3.052574,-7.076098
119,0.27835267782211304,2.238481283187866,78.7881851196289,-2.211902385331761,-1.4437814033944711,-92.64445267807079,-2.0770206,7.145114,9.116821,19.923883,-17.615301,-3.2491899,-1.6458046,-1.8668835,-15.010276,20.423796,-14.969023,1.5150825,-2.6724257,3.3656404,10.38114,-10.890292,15.259513,-48.605988,61.20546,2.1911192,1.5871,1.515398,-9.992068,-15.112696,48.71643,58.642143,-0.537262,3.066735,-7.0652494
120,0.2673405110836029,2.2751693725585938,78.78639221191406,-2.2005312401026464,-1.4220568106165858,-92.68725029386243,-2.1402566,7.155645,9.148691,19.960577,-17.607725,-3.251878,-1.7764281,-1.8749903,-14.967348,20.5634,-14.99692,1.4868221,-2.672368,3.3537946,10.374052,-10.88049,15.2702,-48.59611,61.21347,2.188543,1.5839907,1.5226994,-9.9525385,-15.151797,48.675945,58.542202,-0.51716316,3.0673082,-7.0623493
121,0.25266632437705994,2.311887502670288,78.7828140258789,-2.1814837616170775,-1.4048776327020673,-92.72994263683299,-2.1890268,7.1566463,9.186485,19.978985,-17.595505,-3.2594736,-1.9077848,-1.8928839,-14.919711,20.715551,-15.029699,1.4708899,-2.6709726,3.3384717,10.373639,-10.86201,15.290453,-48.572296,61.20439,2.190187,1.5774443,1.525457,-9.869712,-15.22582,48.618416,58.3769,-0.52774787,3.050948,-7.067432
122,0.23858051002025604,2.348769187927246,78.7786636352539,-2.155282210828806,-1.3907007051713984,-92.77341099925664,-2.227499,7.1500096,9.228934,19.983387,-17.57872,-3.2696943,-2.0426862,-1.9189825,-14.8671,20.88153,-15.067714,1.4628882,-2.6716144,3.3152158,10.370066,-10.841892,15.305457,-48.539394,61.204884,2.1923976,1.5678225,1.52738,-9.809684,-15.281758,48.591328,58.23875,-0.5146965,3.0198789,-7.0798516
123,0.22583787143230438,2.384154796600342,78.772705078125,-2.124443357230793,-1.3784246444320618,-92.82311123351855,-2.2584808,7.1400447,9.280405,19.979713,-17.55949,-3.280993,-2.183703,-1.9492992,-14.807865,21.061447,-15.112287,1.4536922,-2.6692672,3.2912986,10.372181,-10.811242,15.329019,-48.493332,61.18798,2.2004914,1.5576055,1.5224674,-9.725925,-15.367123,48.562836,58.061707,-0.50645995,2.989367,-7.091787
124,0.216950923204422,2.4181172847747803,78.7683334350586,-2.0908900751731783,-1.3672248808341176,-92.8844915750995,-2.2853992,7.1310816,9.345274,19.974882,-17.540361,-3.291906,-2.3349657,-1.9810952,-14.739503,21.25884,-15.1662855,1.4342238,-2.660108,3.2640302,10.373711,-10.773544,15.353689,-48.440758,61.168297,2.2121053,1.5480226,1.5076703,-9.636824,-15.44973,48.536762,57.89301,-0.49849844,2.9681346,-7.101459
125,0.2084628939628601,2.4549012184143066,78.76152038574219,-2.0532762622071945,-1.3595038167065319,-92.96210213147918,-2.3007042,7.1246223,9.430542,19.963575,-17.520494,-3.30302,-2.4955199,-2.0134873,-14.659088,21.476633,-15.232882,1.3989863,-2.636042,3.230783,10.374373,-10.728636,15.37392,-48.376904,61.151936,2.2371926,1.5393816,1.4770796,-9.5775,-15.512354,48.54804,57.774887,-0.45066562,2.959284,-7.112585
126,0.19056284427642822,2.4971396923065186,78.75360870361328,-2.011954154201598,-1.3548192748052694,-93.05194329108875,-2.3053734,7.1183405,9.531917,19.944,-17.498854,-3.3147736,-2.6636343,-2.0474856,-14.568563,21.711601,-15.30939,1.3538101,-2.610098,3.196348,10.379875,-10.668024,15.403348,-48.292843,61.117355,2.271238,1.5310577,1.4327922,-9.500926,-15.591986,48.56751,57.637875,-0.40573806,2.9600885,-7.1237783
127,0.16981109976768494,2.5407278537750244,78.7460708618164,-1.9666375359008077,-1.3478295083483558,-93.14682928702615,-2.3132832,7.1094503,9.637103,19.925583,-17.476086,-3.3255324,-2.8427474,-2.085087,-14.473244,21.959875,-15.390591,1.3069278,-2.579414,3.1552782,10.378308,-10.609923,15.426791,-48.21526,61.096382,2.3002813,1.5225465,1.3890854,-9.428603,-15.647701,48.576687,57.529846,-0.3676444,2.9600887,-7.1311326
128,0.14231696724891663,2.576507329940796,78.73999786376953,-1.9188105029912343,-1.3328734331903316,-93.23922134902695,-2.3384902,7.095377,9.733581,19.917707,-17.453186,-3.3335688,-3.0355906,-2.1272893,-14.378659,22.21563,-15.47046,1.2664244,-2.562595,3.114079,10.378621,-10.544655,15.467706,-48.137978,61.054592,2.3160057,1.5144334,1.3549827,-9.33687,-15.730137,48.56306,57.38347,-0.34851596,2.9563718,-7.1254177
129,0.12497252225875854,2.6193628311157227,78.73326873779297,-1.866058976556984,-1.3090819239190492,-93.32414759699279,-2.3826423,7.074061,9.812313,19.91884,-17.428028,-3.3358285,-3.2375424,-2.174585,-14.29041,22.47032,-15.544323,1.2379651,-2.5522833,3.068284,10.371797,-10.486615,15.511489,-48.082775,61.01801,2.3081064,1.5069892,1.3337634,-9.233325,-15.805356,48.507755,57.238495,-0.36407796,2.943359,-7.105256
130,0.09879575669765472,2.6621601581573486,78.72758483886719,-1.8103621939564858,-1.279297693815845,-93.40650450919918,-2.4375463,7.0470014,9.882217,19.922176,-17.400818,-3.3340743,-3.4488597,-2.226457,-14.204187,22.729038,-15.616079,1.2161791,-2.5476425,3.0183008,10.359934,-10.432208,15.558697,-48.04131,60.98437,2.2814035,1.4998271,1.3193976,-9.118594,-15.875037,48.423027,57.094063,-0.4073537,2.9255316,-7.0745754
131,0.08230241388082504,2.7112600803375244,78.7186050415039,-1.7504085236320925,-1.2433545828048442,-93.49401075282283,-2.5052967,7.0181994,9.9565735,19.93655,-17.374712,-3.3339128,-3.680159,-2.2824895,-14.110453,23.008787,-15.694264,1.1925404,-2.5408351,2.964141,10.345578,-10.3764715,15.613173,-48.006546,60.948116,2.2487338,1.4922111,1.3135476,-9.002849,-15.946363,48.32565,56.945015,-0.44617692,2.90588,-7.036879
132,0.06073811650276184,2.757725238800049,78.70523834228516,-1.683653980919826,-1.2012740141319815,-93.59423644944394,-2.582576,6.9905086,10.049599,19.958794,-17.350939,-3.3410153,-3.9425123,-2.343019,-13.999663,23.327787,-15.787667,1.158717,-2.5273306,2.9052012,10.328535,-10.315186,15.673806,-47.97065,60.910908,2.221158,1.4830519,1.3181581,-8.887178,-16.019066,48.22094,56.786884,-0.4672036,2.887715,-6.996385
133,0.03851860389113426,2.8058652877807617,78.69051361083984,-1.613383998631062,-1.1517171913438873,-93.710805133059,-2.6696198,6.967776,10.167853,19.989061,-17.330938,-3.3606267,-4.238564,-2.404951,-13.866676,23.6867,-15.898606,1.1108179,-2.5068436,2.8440053,10.304065,-10.250221,15.732855,-47.936615,60.882225,2.1949492,1.4699157,1.3416057,-8.759861,-16.084248,48.091255,56.62386,-0.48166442,2.8672428,-6.9526105
134,0.014364132657647133,2.858867645263672,78.67607879638672,-1.5392586427234731,-1.0952204936792351,-93.8390995860819,-2.7654767,6.9471416,10.303196,20.024004,-17.311808,-3.388475,-4.5624037,-2.4688044,-13.717433,24.076908,-16.022055,1.0538676,-2.4763472,2.7798781,10.277544,-10.1834135,15.797941,-47.91011,60.851265,2.1671765,1.4545916,1.3800848,-8.643567,-16.152235,47.960506,56.462128,-0.45970288,2.8439333,-6.9032474
135,-0.013857034035027027,2.9242775440216064,78.6590347290039,-1.4569573381983103,-1.0340152518613164,-93.9744180501199,-2.8729274,6.922708,10.446394,20.07114,-17.295074,-3.415945,-4.912341,-2.5401785,-13.558405,24.502642,-16.15631,0.99313056,-2.4449887,2.708355,10.25003,-10.114396,15.868859,-47.87993,60.823418,2.1438887,1.4398804,1.4183576,-8.530165,-16.222637,47.831284,56.288876,-0.4313584,2.8268347,-6.852094
136,-0.04842471331357956,2.9897894859313965,78.64144134521484,-1.3640531519866985,-0.970594833707258,-94.11215243835176,-2.991834,6.8878956,10.588437,20.133127,-17.280054,-3.434348,-5.286037,-2.6245627,-13.396375,24.96664,-16.299086,0.93375593,-2.4197795,2.6245186,10.222373,-10.040587,15.942689,-47.83018,60.80401,2.1387568,1.4289967,1.4412435,-8.4179945,-16.292618,47.71181,56.097664,-0.41730085,2.8246334,-6.803042
137,-0.07727710902690887,3.0531163215637207,78.62230682373047,-1.2603726034853975,-0.9045891164834368,-94.2510583720796,-3.121576,6.8398657,10.72649,20.206863,-17.263834,-3.4381614,-5.6855,-2.7244248,-13.233437,25.472666,-16.448845,0.8755556,-2.401571,2.5271146,10.194988,-9.966044,16.020401,-47.764763,60.793926,2.1553671,1.4231223,1.4416022,-8.327861,-16.36393,47.6266,55.898853,-0.4020116,2.843829,-6.756314
138,-0.1111816018819809,3.121507167816162,78.59847259521484,-1.146915806932378,-0.8349381204927906,-94.3934644082235,-3.2624362,6.7821875,10.865682,20.292934,-17.248478,-3.4328778,-6.1108203,-2.8364625,-13.06566,26.017946,-16.607105,0.8164831,-2.3901339,2.4185345,10.166169,-9.886171,16.102531,-47.682995,60.789104,2.1906304,1.4206161,1.428336,-8.237255,-16.436527,47.548756,55.68165,-0.40398777,2.8790452,-6.71008
139,-0.14755123853683472,3.1885504722595215,78.57261657714844,-1.0240107264157932,-0.7631476995209217,-94.54044055371021,-3.4152877,6.719038,11.008633,20.39699,-17.237923,-3.4264874,-6.55706,-2.9566743,-12.890219,26.594112,-16.774511,0.7586073,-2.37954,2.299667,10.1397,-9.803802,16.189161,-47.58806,60.79174,2.2289605,1.4196068,1.4111162,-8.157788,-16.510118,47.48502,55.455643,-0.38887993,2.9182522,-6.6653814
140,-0.1821003556251526,3.2621548175811768,78.54463958740234,-0.8930079169329003,-0.6909252156072461,-94.69322436469244,-3.582542,6.6548877,11.157876,20.528015,-17.238125,-3.4270706,-7.017964,-3.080712,-12.704734,27.19065,-16.95246,0.7041537,-2.3685117,2.1714199,10.11734,-9.719502,16.280249,-47.48096,60.804173,2.252911,1.4183155,1.3994555,-8.0750475,-16.582853,47.41694,55.214592,-0.3586539,2.95029,-6.6231585
141,-0.21913868188858032,3.3434841632843018,78.51093292236328,-0.7499669836027085,-0.6099039252916608,-94.83656584557721,-3.775848,6.577371,11.300476,20.681135,-17.244999,-3.4332185,-7.5015664,-3.2219074,-12.520517,27.813402,-17.144953,0.6634641,-2.3693092,2.0300727,10.091281,-9.6340685,16.374672,-47.36159,60.828136,2.2587886,1.4187778,1.3971014,-8.009981,-16.655006,47.37003,54.977898,-0.27654377,2.9715698,-6.5840883
142,-0.259878009557724,3.4245223999023438,78.47444152832031,-0.5954094192863051,-0.5221486114480762,-94.97503623560318,-3.9901826,6.4888954,11.439487,20.854445,-17.257484,-3.4415863,-8.006558,-3.3772795,-12.334383,28.462141,-17.350042,0.63245755,-2.3815236,1.8764559,10.06152,-9.545458,16.472193,-47.227478,60.86299,2.2549176,1.420936,1.3983686,-7.943619,-16.72607,47.326298,54.731052,-0.17965728,2.98892,-6.5475707
143,-0.30880066752433777,3.505984306335449,78.43487548828125,-0.4390187955868696,-0.4447859664948833,-95.13927423821768,-4.2039666,6.4157763,11.602077,21.06315,-17.287102,-3.4571028,-8.520242,-3.519465,-12.122838,29.133337,-17.558256,0.59117615,-2.372194,1.7175939,10.048033,-9.456579,16.574156,-47.082603,60.906773,2.246679,1.4204447,1.3997339,-7.8773575,-16.794018,47.27283,54.465332,-0.077943005,3.0041244,-6.5128975
144,-0.3547292649745941,3.594388723373413,78.39132690429688,-0.28960042289253324,-0.3946272510296183,-95.35972681800064,-4.395748,6.384638,11.8149,21.322168,-17.345085,-3.484871,-9.030299,-3.620687,-11.862446,29.823944,-17.760588,0.5196674,-2.3083787,1.5599755,10.070634,-9.370282,16.683271,-46.931953,60.957344,2.2387378,1.4127754,1.3974308,-7.8198175,-16.856543,47.202152,54.17892,0.024474507,3.01864,-6.4793344
145,-0.3735809028148651,3.7110280990600586,78.3393783569336,-0.14263636069533367,-0.3695050737865194,-95.6808768926249,-4.5524745,6.4058657,12.125008,21.624186,-17.434864,-3.5310116,-9.562401,-3.6680446,-11.508774,30.555887,-17.960426,0.40495694,-2.1442032,1.3917676,10.129551,-9.291364,16.80435,-46.776268,61.015633,2.2354724,1.3935174,1.3843578,-7.766043,-16.909302,47.09947,53.859394,0.12409444,3.038618,-6.448667
146,-0.5279532074928284,3.7759509086608887,78.29893493652344,0.0058513484923709115,-0.36195234537616455,-96.07447303810257,-4.688651,6.464674,12.504479,21.966011,-17.550499,-3.5914886,-10.113552,-3.6765373,-11.087443,31.323631,-18.160786,0.2600175,-1.9105748,1.2130283,10.215874,-9.212511,16.939184,-46.609848,61.076756,2.235704,1.3665694,1.3640391,-7.708664,-16.950516,46.965885,53.511677,0.21289612,3.0613093,-6.420731
147,-0.6018595099449158,3.880594253540039,78.2392807006836,0.13945797854864544,-0.3819558291074746,-96.46222588696777,-4.8215613,6.5486712,12.868177,22.365,-17.688196,-3.6556194,-10.627617,-3.6624954,-10.68119,32.081043,-18.350859,0.10390434,-1.6888019,1.0492483,10.336489,-9.124987,17.084532,-46.437164,61.134296,2.225911,1.3394743,1.349385,-7.6634455,-16.982761,46.82872,53.1622,0.29752725,3.0745084,-6.391972
148,-0.6497818231582642,3.997711420059204,78.17341613769531,0.2396920040382307,-0.44014857778389976,-96.76604600959853,-4.9692616,6.6466103,13.1303625,22.839094,-17.843912,-3.7124586,-11.048728,-3.6440573,-10.372286,32.78171,-18.519423,-0.04400804,-1.5606527,0.9269093,10.497116,-9.020629,17.23319,-46.26124,61.18451,2.194317,1.3194444,1.3533193,-7.634552,-17.010653,46.70757,52.827473,0.37454602,3.0666847,-6.3586535
149,-0.7109922170639038,4.121991157531738,78.1067123413086,0.2999271813297688,-0.5868526317348586,-96.93886858351824,-5.0782347,6.7458806,13.239935,23.378067,-18.01751,-3.753534,-11.287897,-3.6354961,-10.205273,33.3962,-18.664644,-0.17315626,-1.5774423,0.85712624,10.735993,-8.888492,17.377115,-46.08211,61.226967,2.1348934,1.3101783,1.381167,-7.624943,-17.040947,46.6238,52.521072,0.4684786,3.0241642,-6.316025
150,-0.7696414589881897,4.268965721130371,78.03395080566406,0.3287442855214538,-0.8011518606984239,-97.03124963934134,-5.158507,6.857046,13.251268,23.97667,-18.210258,-3.7857635,-11.399968,-3.6255488,-10.129161,33.955296,-18.792192,-0.29529536,-1.685718,0.8262469,11.036662,-8.739421,17.513147,-45.897484,61.272102,2.0565908,1.3065041,1.4259509,-7.618766,-17.075481,46.553715,52.21869,0.5623032,2.9576201,-6.2669315
151,-0.8383333683013916,4.400597095489502,77.96553802490234,0.3377172041114643,-0.9868278204440795,-97.11131139882853,-5.3204355,7.0022607,13.237475,24.655104,-18.418676,-3.820481,-11.543007,-3.5941072,-10.083084,34.500454,-18.90032,-0.42426527,-1.804874,0.8215805,11.323729,-8.601525,17.642347,-45.71175,61.333942,1.9697754,1.3029299,1.4824421,-7.6340194,-17.112597,46.48316,51.91125,0.6396242,2.8898082,-6.2190323
152,-0.8845232725143433,4.390272617340088,77.9548110961914,0.337762341412193,-1.0474792286612762,-97.24736040245735,-5.675096,7.202802,13.271453,25.435596,-18.639488,-3.869001,-11.8759,-3.522184,-10.005641,35.0756,-18.988947,-0.57420105,-1.857171,0.83085066,11.520785,-8.496384,17.768322,-45.522533,61.420547,1.8895427,1.2940673,1.5447606,-7.670227,-17.145792,46.380943,51.577713,0.6597731,2.8441105,-6.180254
153,-0.9738280177116394,4.62361478805542,77.83939361572266,0.3266147172006986,-0.9162983869614466,-97.47260393152295,-6.307961,7.479453,13.39608,26.349981,-18.88875,-3.9322557,-12.506376,-3.3946352,-9.87152,35.71341,-19.05074,-0.75600785,-1.8065164,0.851513,11.569388,-8.438667,17.896408,-45.338104,61.542767,1.8218677,1.2763876,1.6164548,-7.736851,-17.167765,46.235676,51.21695,0.59991413,2.8263142,-6.150792
154,-1.0591241121292114,4.786403656005859,77.75454711914062,0.3017892362646299,-0.6588098271551849,-97.74582714164296,-7.139809,7.8157578,13.562194,27.376968,-19.164286,-4.003424,-13.328379,-3.2252138,-9.717433,36.386818,-19.090115,-0.96020406,-1.7001151,0.88775766,11.522542,-8.409961,18.027966,-45.155277,61.6884,1.7591925,1.2538308,1.6984155,-7.830923,-17.17583,46.061386,50.843746,0.47987625,2.8236132,-6.12745
155,-1.1360005140304565,4.927409648895264,77.6791763305664,0.26409079561226617,-0.3775080353054119,-98.02303789430346,-8.0381565,8.17622,13.7055855,28.46514,-19.43227,-4.0824347,-14.178538,-3.0381541,-9.574852,37.044315,-19.121168,-1.1697699,-1.5850122,0.9381878,11.471347,-8.388511,18.160172,-44.962025,61.835808,1.6889873,1.2323968,1.7816,-7.953387,-17.172352,45.883686,50.474697,0.34739056,2.8308713,-6.1129236
156,-1.2101279497146606,5.061671733856201,77.60929870605469,0.2197726578421215,-0.17441481978959783,-98.26041254451272,-8.86805,8.523763,13.764182,29.554863,-19.659931,-4.170467,-14.896112,-2.858299,-9.47395,37.63686,-19.15859,-1.3671038,-1.5066997,1.0034541,11.505878,-8.356263,18.282217,-44.745827,61.971725,1.6012826,1.2177141,1.8575624,-8.11011,-17.164572,45.734257,50.128704,0.25823992,2.8429835,-6.1100745
157,-1.2802700996398926,5.218171119689941,77.53180694580078,0.1650616047267195,-0.09148533928199508,-98.45061962963798,-9.57081,8.850564,13.720279,30.622587,-19.843864,-4.2745404,-15.411602,-2.684972,-9.416902,38.13208,-19.20916,-1.5454667,-1.4794605,1.0880708,11.661949,-8.30242,18.389694,-44.496616,62.098724,1.4877495,1.2094424,1.9233,-8.299612,-17.15905,45.63274,49.8047,0.22989866,2.8680525,-6.120168
158,-1.3540436029434204,5.394009113311768,77.44501495361328,0.09987410611667333,-0.06918454908055406,-98.61544323710335,-10.225884,9.174263,13.607578,31.699518,-19.998999,-4.3925266,-15.820352,-2.5075998,-9.3891535,38.562122,-19.263361,-1.7142687,-1.4802656,1.19215,11.888314,-8.238944,18.486158,-44.220543,62.222828,1.3566564,1.2050403,1.9835285,-8.52178,-17.157326,45.56564,49.490376,0.2390521,2.9062448,-6.141208
159,-1.43036949634552,5.587797164916992,77.35455322265625,0.0298211123384473,-0.05715365417126916,-98.75481701958653,-10.906199,9.493819,13.4429655,32.807808,-20.117277,-4.512801,-16.209362,-2.337164,-9.394976,38.97312,-19.310545,-1.8798797,-1.4997053,1.3087269,12.144264,-8.177984,18.578829,-43.929577,62.329174,1.2213501,1.2068541,2.0411367,-8.761815,-17.158981,45.493538,49.17278,0.25158802,2.9409015,-6.1709805
160,-1.497572898864746,5.793241024017334,77.25972747802734,-0.03914168769269289,-0.005091657855577709,-98.86844497641252,-11.684132,9.8078785,13.24283,33.970196,-20.19163,-4.6241617,-16.665552,-2.1855705,-9.43867,39.413345,-19.341206,-2.0486443,-1.5190918,1.4322815,12.386338,-8.1462555,18.660524,-43.64901,62.423157,1.0926352,1.2165946,2.1003847,-9.002956,-17.162296,45.369133,48.84219,0.23466197,2.9552002,-6.2065687
161,-1.5663985013961792,5.987806797027588,77.16888427734375,-0.11569460460505662,0.099883878759386,-98.94904274141794,-12.576435,10.12159,12.993259,35.184727,-20.216225,-4.739501,-17.196873,-2.0480533,-9.536913,39.872124,-19.34386,-2.2248344,-1.5399773,1.5716395,12.603135,-8.1504,18.730824,-43.3889,62.510624,0.9661934,1.23796,2.1630013,-9.233092,-17.164846,45.169662,48.490932,0.18252747,2.9326644,-6.2485137
162,-1.6414132118225098,6.212733745574951,77.0706787109375,-0.19927057459511754,0.23114130162134483,-98.99923695050924,-13.545905,10.430256,12.691065,36.442245,-20.1969,-4.862012,-17.76296,-1.9225733,-9.68206,40.33356,-19.327606,-2.404281,-1.5657127,1.7269125,12.815524,-8.184393,18.783443,-43.14135,62.600662,0.8380397,1.2684355,2.2276368,-9.463309,-17.166569,44.919937,48.13031,0.111174695,2.8860457,-6.298006
163,-1.7095288038253784,6.455440044403076,76.96815490722656,-0.27106822090617105,0.37968608819975264,-99.03380485300198,-14.578277,10.716798,12.369786,37.74229,-20.135921,-4.965454,-18.373451,-1.8241963,-9.841809,40.82779,-19.309248,-2.5803196,-1.5892353,1.879452,13.027959,-8.244476,18.814386,-42.900967,62.68866,0.7131578,1.3008505,2.2939682,-9.711252,-17.167835,44.65565,47.775776,0.02270686,2.8428652,-6.355606
164,-1.7756214141845703,6.706996917724609,76.85829162597656,-0.3118687934461261,0.5362470255298665,-99.06765037460188,-15.661469,10.96658,12.063037,39.090786,-20.038214,-5.022799,-19.039265,-1.7673024,-9.983346,41.38884,-19.30684,-2.7463245,-1.599474,2.004865,13.262971,-8.314008,18.851349,-42.636646,62.72747,0.6181217,1.3303881,2.353647,-10.002554,-17.17371,44.388145,47.43114,-0.092981115,2.8300705,-6.410556
165,-1.8396884202957153,6.963919639587402,76.73976135253906,-0.3202339756431362,0.7040386795036582,-99.10317870563027,-16.807858,11.191761,11.793394,40.491215,-19.863043,-5.0656495,-19.769718,-1.7512792,-10.10186,42.02153,-19.320087,-2.899571,-1.5945902,2.1056778,13.509995,-8.402368,18.875858,-42.37237,62.742687,0.55197644,1.356006,2.411553,-10.337018,-17.180992,44.139362,47.100563,-0.24556017,2.8725994,-6.479786
166,-1.8933051824569702,7.233054161071777,76.6121826171875,-0.30475034594457295,0.8856710036412798,-99.13288519694737,-18.017551,11.394392,11.538987,41.938953,-19.620625,-5.096633,-20.555225,-1.769921,-10.212508,42.707485,-19.33995,-3.043463,-1.5899562,2.1875856,13.786254,-8.489998,18.916702,-42.06248,62.691784,0.535817,1.3824184,2.4594526,-10.709758,-17.200909,43.877254,46.75717,-0.4472532,2.9509404,-6.5486684
167,-1.9428575038909912,7.520233631134033,76.47776794433594,-0.2632636198895267,1.0729843989489731,-99.15634720016683,-19.2619,11.546838,11.270312,43.4288,-19.394413,-5.045196,-21.381945,-1.8281391,-10.312353,43.449142,-19.37448,-3.1799407,-1.5796556,2.249314,14.0607,-8.592396,18.945263,-41.762108,62.623665,0.49575475,1.405482,2.5099082,-11.110956,-17.223866,43.637592,46.439156,-0.62553257,3.024101,-6.6166716
168,-1.9896365404129028,7.811713218688965,76.33662414550781,-0.193177203911804,1.2572828181796656,-99.17330902427703,-20.511099,11.620669,10.959631,44.954697,-19.26699,-4.8413167,-22.23588,-1.930781,-10.398323,44.248726,-19.431334,-3.3105268,-1.5696115,2.2858956,14.329154,-8.701584,18.96319,-41.46077,62.53473,0.40187937,1.4225467,2.5641165,-11.539291,-17.249529,43.42922,46.162983,-0.7363486,3.0513961,-6.667271
169,-2.036797285079956,8.104615211486816,76.18755340576172,-0.09140701318451679,1.4460323204099397,-99.17279133381554,-21.80484,11.602022,10.584042,46.512096,-19.246098,-4.3596644,-23.12249,-2.0851958,-10.47454,45.10249,-19.515629,-3.432435,-1.5786009,2.293668,14.59864,-8.803331,18.98012,-41.121258,62.39587,0.25944662,1.4306011,2.6169193,-11.994727,-17.28892,43.25354,45.91166,-0.77392656,3.012801,-6.6957283
170,-2.073190450668335,8.394283294677734,76.02706146240234,0.039491721479811503,1.640595086263728,-99.158240733816,-23.141397,11.505049,10.168283,48.10044,-19.286163,-3.6755073,-24.045128,-2.28514,-10.539464,46.008953,-19.620987,-3.54441,-1.6145045,2.2803903,14.880484,-8.885131,19.007252,-40.728535,62.184776,0.091158345,1.4321916,2.6659038,-12.46897,-17.372097,43.12079,45.64349,-0.7559556,2.935587,-6.7095037
171,-2.100069761276245,8.681920051574707,75.8506088256836,0.19368495326446325,1.8228566261883148,-99.15145144595765,-24.428993,11.3443985,9.756101,49.725273,-19.39454,-3.0189118,-24.985434,-2.5158663,-10.580917,46.971893,-19.738039,-3.6501617,-1.6289494,2.2494683,15.160548,-8.983326,19.028725,-40.368084,61.962223,-0.12688223,1.4329495,2.7213063,-12.962308,-17.468725,43.013515,45.402412,-0.68334484,2.8448915,-6.708119
172,-2.115151882171631,8.969285011291504,75.66295623779297,0.3656147553095961,1.9749445935199879,-99.17434910493758,-25.578798,11.137419,9.388418,51.399773,-19.586567,-2.6189086,-25.925379,-2.7618194,-10.587804,47.99583,-19.857603,-3.7539554,-1.6169143,2.208615,15.441174,-9.09537,19.045021,-40.052147,61.744072,-0.39212528,1.4379219,2.7873452,-13.484205,-17.580511,42.95306,45.201416,-0.553988,2.76907,-6.6891766
173,-2.124525785446167,9.25703239440918,75.45858764648438,0.566877946472046,2.0886475661000232,-99.21877840962189,-26.567297,10.822506,9.009469,53.082417,-19.90207,-2.617071,-26.856644,-3.0461128,-10.566136,49.098515,-19.99669,-3.8556206,-1.5793098,2.148925,15.728849,-9.222065,19.056513,-39.79106,61.52489,-0.74395,1.4478971,2.8715138,-14.028772,-17.709646,42.932377,45.02632,-0.3232291,2.7099247,-6.6453695
174,-2.1314046382904053,9.536003112792969,75.25064086914062,0.797325786185787,2.175266952411935,-99.2773742105987,-27.446533,10.413446,8.623383,54.796867,-20.332113,-2.8645577,-27.790606,-3.3664362,-10.517454,50.272213,-20.153925,-3.9524786,-1.522171,2.0698624,16.022024,-9.360907,19.063326,-39.568016,61.29652,-1.1668731,1.4595829,2.9689643,-14.594049,-17.857407,42.94703,44.87213,-0.0072251293,2.6547773,-6.5795445
175,-2.134774923324585,9.80875301361084,75.03458404541016,1.0322793729373356,2.2462060558575354,-99.37371724262458,-28.233335,10.044954,8.356503,56.636803,-20.815718,-3.1510544,-28.735209,-3.6696935,-10.425758,51.476295,-20.288765,-4.045285,-1.4387935,1.9915612,16.308521,-9.512438,19.066238,-39.373863,61.075527,-1.5854901,1.4730778,3.066893,-15.194098,-18.02222,43.01736,44.767918,0.31008762,2.6098661,-6.5061855
176,-2.1259539127349854,10.083057403564453,74.80740356445312,1.2462794700667958,2.3128832407411677,-99.53108297266303,-28.94483,9.856681,8.325842,58.694653,-21.283083,-3.2624333,-29.700005,-3.901838,-10.276897,52.672287,-20.361595,-4.135983,-1.3235818,1.9353291,16.575878,-9.678845,19.066742,-39.20349,60.880238,-1.9298869,1.4884009,3.1525903,-15.84132,-18.19909,43.162663,44.743107,0.5411091,2.5810409,-6.440202
177,-2.1199562549591064,10.373185157775879,74.57459259033203,1.4351308439987507,2.3843866674181347,-99.78249328210916,-29.585373,9.934264,8.613283,61.029,-21.736692,-3.12728,-30.717777,-4.0350275,-10.043258,53.873653,-20.343021,-4.2272344,-1.1543494,1.9038001,16.821877,-9.862061,19.06618,-39.049694,60.709606,-2.2149498,1.5066365,3.2254665,-16.56966,-18.384083,43.4124,44.82406,0.6700195,2.571336,-6.381605
178,-2.107618808746338,10.648788452148438,74.34400177001953,1.6099786160848892,2.4527548900030642,-100.10720531216556,-30.136429,10.204927,9.124949,63.57524,-22.207628,-2.849842,-31.771912,-4.098218,-9.743897,55.09013,-20.26147,-4.318356,-0.94315815,1.8880751,17.053522,-10.056777,19.065313,-38.912186,60.55273,-2.4644544,1.5277455,3.291192,-17.366549,-18.573849,43.7513,44.992683,0.7413155,2.576728,-6.324332
179,-2.097533941268921,10.938966751098633,74.11082458496094,1.7681413513456035,2.503265395745141,-100.44798374524053,-30.578226,10.569057,9.713569,66.234,-22.667122,-2.4813857,-32.802017,-4.124426,-9.433782,56.288628,-20.16159,-4.4066963,-0.73396695,1.891192,17.270962,-10.259372,19.065315,-38.80501,60.417385,-2.6286964,1.5502826,3.3466067,-18.179106,-18.764149,44.132454,45.218258,0.7601411,2.5922503,-6.27438
180,-2.0672380924224854,11.193706512451172,73.86026000976562,1.9081015039860953,2.5210520052927308,-100.74797598484209,-30.897186,10.915906,10.239644,68.90664,-23.082806,-2.0817332,-33.747837,-4.1496663,-9.166433,57.435043,-20.089336,-4.49007,-0.56927234,1.9135941,17.473896,-10.462529,19.06625,-38.73608,60.30867,-2.6498618,1.5733662,3.388414,-18.962236,-18.952583,44.513554,45.476734,0.73982704,2.6124523,-6.2374535
181,-2.0473663806915283,11.443486213684082,73.61007690429688,2.024156317319345,2.5016895950166393,-101.00141085743189,-31.091528,11.260576,10.710999,71.628685,-23.450144,-1.5934902,-34.598312,-4.176978,-8.952222,58.528038,-20.046196,-4.5665784,-0.4518981,1.9642539,17.659784,-10.661356,19.066673,-38.710384,60.228203,-2.4909413,1.5951658,3.4181633,-19.711895,-19.13936,44.914055,45.787003,0.6533562,2.6378472,-6.218061
182,-2.022732973098755,11.688745498657227,73.36282348632812,2.1188117581619625,2.4526341781477994,-101.23624290275319,-31.161243,11.647351,11.186486,74.42828,-23.786497,-1.0073721,-35.38435,-4.1909475,-8.76454,59.585617,-20.012585,-4.6396565,-0.3605801,2.0388663,17.829235,-10.861543,19.065922,-38.72317,60.174484,-2.1890547,1.6170081,3.437009,-20.45453,-19.324972,45.348644,46.158134,0.50724256,2.6703036,-6.212037
183,-2.0044138431549072,11.920317649841309,73.10868835449219,2.2046975486782965,2.3769407719158675,-101.44511334513535,-31.103714,11.997038,11.612157,77.19714,-24.085688,-0.46615297,-36.107483,-4.2035384,-8.599906,60.5979,-20.000488,-4.715305,-0.30144733,2.1181061,17.986916,-11.075997,19.066582,-38.776043,60.15016,-1.8066231,1.6420279,3.440834,-21.17405,-19.506168,45.7545,46.539158,0.35235447,2.7074134,-6.2123094
184,-1.9845284223556519,12.166679382324219,72.85722351074219,2.2952299064596486,2.278176625924408,-101.62058418055366,-30.92467,12.225122,11.937355,79.834946,-24.342216,-0.11836807,-36.773827,-4.227464,-8.453695,61.56328,-20.025364,-4.7998343,-0.2793575,2.1812413,18.136337,-11.317958,19.073383,-38.87446,60.157017,-1.4084358,1.6736977,3.4252765,-21.841314,-19.677933,46.054493,46.874012,0.2226276,2.7467518,-6.2118006
185,-1.9752137660980225,12.430792808532715,72.60436248779297,2.4011149500839206,2.150732641628868,-101.77292198252049,-30.608225,12.295865,12.166797,82.32145,-24.534008,-0.04895138,-37.37724,-4.263605,-8.313659,62.477253,-20.09892,-4.900531,-0.2878372,2.215164,18.28732,-11.591996,19.090542,-39.028,60.197227,-1.0014577,1.7165724,3.388093,-22.478237,-19.836584,46.25022,47.192608,0.139013,2.7849193,-6.2029
186,-1.9642713069915771,12.688597679138184,72.3536605834961,2.514172495040727,1.9951155503204863,-101.90173243097644,-30.161283,12.245811,12.328782,84.71175,-24.670185,-0.17337137,-37.918797,-4.3089013,-8.184606,63.34492,-20.211428,-5.013672,-0.32732496,2.2303066,18.434328,-11.886761,19.119156,-39.23066,60.263897,-0.5545484,1.7677807,3.3310745,-23.079311,-19.980732,46.361774,47.50789,0.06282465,2.8241377,-6.191509
187,-1.9433941841125488,12.934151649475098,72.11371612548828,2.6196728110041962,1.8239372395311568,-101.9827014014722,-29.62273,12.098612,12.410806,87.013596,-24.788755,-0.38645127,-38.4074,-4.3712673,-8.08744,64.16423,-20.341173,-5.127966,-0.41219157,2.2400415,18.55773,-12.196399,19.159386,-39.472324,60.34935,-0.081744365,1.8189783,3.2573438,-23.630121,-20.11559,46.390987,47.77574,0.0041693733,2.8680723,-6.190544
188,-1.9258747100830078,13.171346664428711,71.8792953491211,2.702243527766714,1.6497286193081855,-101.99116772027855,-29.032999,11.8808775,12.395969,89.23418,-24.925055,-0.58307976,-38.852715,-4.459498,-8.044315,64.934364,-20.465878,-5.233019,-0.5548536,2.2594342,18.639143,-12.514339,19.21011,-39.740993,60.444397,0.406542,1.8619809,3.1699543,-24.106876,-20.250908,46.33369,47.941006,-0.030255219,2.9208877,-6.2129173
189,-1.914821743965149,13.417938232421875,71.65386962890625,2.7537039573092685,1.4742516140632422,-101.91587508860816,-28.401268,11.577201,12.257116,91.386314,-25.102291,-0.7491344,-39.2518,-4.5759106,-8.069486,65.657845,-20.585724,-5.330797,-0.7630529,2.2988946,18.673046,-12.848436,19.271778,-40.060616,60.567066,0.94886154,1.8936152,3.0577927,-24.472914,-20.391785,46.14196,47.96671,-0.061984785,2.9934876,-6.262744
190,-1.9032024145126343,13.655969619750977,71.43627166748047,2.7839447544548874,1.2913092211910586,-101.7714588684855,-27.706944,11.177606,12.01472,93.463844,-25.297373,-0.9404468,-39.60095,-4.7183504,-8.146778,66.33422,-20.710533,-5.4257526,-1.0247996,2.3483875,18.670963,-13.200613,19.343777,-40.431114,60.71436,1.538316,1.9180348,2.9231164,-24.75766,-20.543896,45.843094,47.888046,-0.068815805,3.080212,-6.3324666
191,-1.8941941261291504,13.904021263122559,71.2237777709961,2.8030647832788285,1.101073023415296,-101.571329978384,-26.944155,10.723238,11.720486,95.444244,-25.473705,-1.1543304,-39.909657,-4.8871427,-8.2546215,66.960594,-20.834936,-5.512203,-1.3281605,2.3967633,18.640635,-13.555883,19.423244,-40.804207,60.845978,2.090464,1.938182,2.7891538,-24.971027,-20.714514,45.4885,47.71267,-0.057530727,3.1635487,-6.417215
192,-1.883971929550171,14.151957511901855,71.02082061767578,2.8211921551977444,0.9037922597723905,-101.32965653434428,-26.108648,10.257871,11.4235325,97.30376,-25.593668,-1.3852866,-40.186714,-5.0818706,-8.371549,67.53286,-20.952297,-5.5836987,-1.662772,2.432725,18.589455,-13.898074,19.506752,-41.127552,60.922047,2.5240037,1.9578956,2.6789339,-25.139019,-20.912842,45.14552,47.457767,-0.018669687,3.225612,-6.512156
193,-1.792932152748108,14.43777847290039,70.80799102783203,2.8434132939484202,0.6974281192417712,-101.0337147990015,-25.19604,9.764832,11.123692,99.05012,-25.648064,-1.6440283,-40.441666,-5.317389,-8.493032,68.06979,-21.060055,-5.6308393,-2.0486476,2.4549513,18.522432,-14.233037,19.59211,-41.406796,60.947803,2.814584,1.9763772,2.5941567,-25.241926,-21.142233,44.786766,47.092255,0.028696831,3.2616334,-6.625097
194,-1.783625841140747,14.709379196166992,70.62213134765625,2.862680968542301,0.4824313913990489,-100.68163276246172,-24.210361,9.23325,10.795705,100.69217,-25.654581,-1.9296325,-40.666878,-5.5891867,-8.630556,68.56706,-21.161522,-5.6598105,-2.4824731,2.4698756,18.435286,-14.5695715,19.679195,-41.665348,60.943512,3.0057378,1.9926243,2.5244262,-25.297195,-21.407207,44.41559,46.629295,0.11741001,3.2807474,-6.755097
195,-1.7905669212341309,14.985093116760254,70.45828247070312,2.870905857756232,0.2622688866857667,-100.30394887000521,-23.159676,8.719236,10.456232,102.20955,-25.620508,-2.2088869,-40.8451,-5.863873,-8.785867,68.98359,-21.259558,-5.685427,-2.9233754,2.4828622,18.323042,-14.886996,19.767605,-41.865944,60.881603,3.125913,2.0103877,2.473568,-25.282858,-21.709198,44.05387,46.07593,0.22384079,3.2899923,-6.8847966
196,-1.7927368879318237,15.267779350280762,70.30599975585938,2.859928160262707,0.04046312527743968,-99.93131715160824,-22.052353,8.277054,10.123522,103.57954,-25.55109,-2.448789,-40.958584,-6.107818,-8.961645,69.27805,-21.357208,-5.722095,-3.333942,2.4987946,18.180006,-15.162095,19.858389,-41.96677,60.733902,3.2040741,2.0333953,2.4453561,-25.18583,-22.04785,43.732594,45.44777,0.32799286,3.296329,-6.9973407
197,-1.7944904565811157,15.555444717407227,70.16936492919922,2.823410198694334,-0.18433995599710196,-99.56248711326904,-20.875599,7.923724,9.793666,104.81388,-25.46362,-2.6455605,-41.00281,-6.310991,-9.161468,69.45161,-21.467743,-5.771572,-3.7152164,2.522636,18.001421,-15.398942,19.955736,-41.965004,60.50145,3.2545557,2.0686293,2.4298737,-25.03705,-22.424553,43.50076,44.763622,0.46390375,3.2855027,-7.0833845
198,-1.797201156616211,15.861410140991211,70.05581665039062,2.767446231961284,-0.4132858527420646,-99.18447484477211,-19.631523,7.63157,9.459541,105.9174,-25.345737,-2.8156788,-40.98578,-6.48993,-9.384556,69.52092,-21.584751,-5.825698,-4.088196,2.5518768,17.791422,-15.600491,20.062374,-41.87425,60.19087,3.260317,2.112434,2.4282289,-24.803328,-22.836973,43.307808,43.98917,0.59782004,3.2602375,-7.1535683
199,-1.7902811765670776,16.172630310058594,69.9634017944336,2.6990554213723152,-0.6424658167323719,-98.80971528486303,-18.355024,7.3862686,9.135883,106.857445,-25.156744,-2.9562504,-40.911575,-6.6505723,-9.626837,69.47212,-21.68359,-5.8841944,-4.434591,2.577951,17.561543,-15.752461,20.17565,-41.68599,59.787144,3.20371,2.152876,2.4618957,-24.507458,-23.28273,43.132942,43.151966,0.74921787,3.249253,-7.221446
200,-1.7823772430419922,16.490203857421875,69.90185546875,2.627857473381197,-0.8678587058482365,-98.45054388469016,-17.0816,7.1728063,8.836582,107.6038,-24.85515,-3.064614,-40.783302,-6.798558,-9.884564,69.2895,-21.738356,-5.946873,-4.742986,2.5944145,17.319397,-15.837369,20.289616,-41.387623,59.277344,3.0654962,2.1774862,2.551789,-24.07667,-23.752363,42.884506,42.213028,0.8436293,3.2838938,-7.3012424
201,-1.757063865661621,16.78843116760254,69.87078094482422,2.5454845148589427,-1.0938153045088033,-98.11197974853293,-15.791372,7.038626,8.580989,108.16786,-24.417147,-3.1191325,-40.578606,-6.9246025,-10.165749,68.955574,-21.793085,-6.0174246,-5.004213,2.603082,17.06074,-15.8481865,20.39879,-40.941994,58.65582,2.8341005,2.185289,2.7122157,-23.528849,-24.243322,42.569214,41.18048,0.84752977,3.388934,-7.381063
202,-1.7523016929626465,17.1326904296875,69.86881256103516,2.4528938896188746,-1.3203494408973067,-97.78664597689128,-14.480062,6.9753904,8.356269,108.55971,-23.863775,-3.1280682,-40.302303,-7.02699,-10.470804,68.48071,-21.843412,-6.0942783,-5.2291207,2.6071556,16.77998,-15.796085,20.501938,-40.364693,57.93774,2.5221236,2.1813123,2.929251,-22.844608,-24.753273,42.190598,40.039295,0.76466477,3.54345,-7.4588947
203,-1.7648252248764038,17.51068878173828,69.8928451538086,2.361513729283488,-1.5378266701981724,-97.46833117922839,-13.209054,6.882249,8.128056,108.74792,-23.223852,-3.1330194,-40.002407,-7.1255326,-10.784245,67.89874,-21.79511,-6.1697555,-5.425171,2.597897,16.485567,-15.702797,20.598536,-39.737274,57.14763,2.142407,2.1614397,3.1827013,-22.013536,-25.275988,41.729015,38.804737,0.68568116,3.7063715,-7.563221
204,-1.7699629068374634,17.907846450805664,69.95303344726562,2.2845349069791228,-1.7362024286899953,-97.150560490086,-12.039291,6.6559935,7.85996,108.70129,-22.526459,-3.1778705,-39.725845,-7.2417436,-11.090507,67.24001,-21.551908,-6.236531,-5.5905514,2.5664124,16.190748,-15.59871,20.687069,-39.14908,56.310574,1.7087946,2.121902,3.453358,-21.113113,-25.804312,41.211258,37.558704,0.77204716,3.8350482,-7.7226715
205,-1.7560455799102783,18.33090591430664,70.05469512939453,2.2313626719584008,-1.9072209964116469,-96.81693943362212,-10.995948,6.28374,7.54206,108.43714,-21.780237,-3.2119539,-39.50567,-7.406117,-11.397026,66.54278,-21.0858,-6.295989,-5.7405806,2.5072074,15.883963,-15.486454,20.765013,-38.607525,55.416504,1.1898038,2.0579782,3.762844,-20.081505,-26.333452,40.586773,36.25806,0.9616523,3.9339423,-7.962808
206,-1.7320642471313477,18.76546287536621,70.1924819946289,2.190005089217865,-2.0580075551057773,-96.47559206803791,-10.043684,5.8162484,7.1906767,107.965195,-20.97103,-3.23176,-39.310337,-7.600291,-11.708813,65.78151,-20.449303,-6.3514743,-5.8672476,2.4253347,15.561547,-15.358733,20.830177,-38.07784,54.46482,0.58701766,1.9710442,4.112797,-18.893133,-26.86095,39.84454,34.874767,1.198729,4.019628,-8.262546
207,-1.707545518875122,19.2177734375,70.3685073852539,2.1550416097819385,-2.200618604582089,-96.15701279156238,-9.147347,5.2441845,6.8054004,107.24932,-20.098425,-3.3523674,-39.090748,-7.771709,-12.007517,64.891556,-19.667198,-6.399025,-5.9464164,2.3292556,15.244739,-15.214466,20.881058,-37.568607,53.487747,-0.028891245,1.8676609,4.4531574,-17.613894,-27.377035,39.033195,33.46865,1.5840663,4.0682206,-8.582494
208,-1.6748465299606323,19.714000701904297,70.57939147949219,2.116293675700007,-2.347618419911144,-95.89170924820212,-8.271419,4.557465,6.38271,106.24874,-19.166069,-3.688879,-38.797783,-7.8670583,-12.273988,63.80887,-18.765291,-6.4340234,-5.967921,2.2255147,14.945116,-15.040296,20.916384,-37.078262,52.520252,-0.58876294,1.7559469,4.733221,-16.18729,-27.862787,38.144127,32.01648,2.1184871,4.0560822,-8.883143
209,-1.619194507598877,20.2215633392334,70.828857421875,2.085484914437138,-2.5118980647318145,-95.72333954199318,-7.3697124,3.706076,5.9205675,104.91647,-18.171438,-4.325098,-38.422737,-7.8552227,-12.470428,62.534573,-17.75223,-6.452447,-5.88602,2.1026695,14.667699,-14.822801,20.934942,-36.603275,51.547073,-1.1139705,1.6262231,4.947056,-14.652367,-28.30253,37.20224,30.561834,2.9685197,3.9442713,-9.163538
210,-1.6528003215789795,20.71739959716797,71.13784790039062,2.0631123036508012,-2.6834961498461016,-95.62431497801428,-6.4620275,2.7163694,5.402955,103.28667,-17.133974,-5.1774955,-37.99023,-7.769158,-12.617302,61.09675,-16.614622,-6.4579544,-5.731227,1.9608958,14.4006815,-14.561529,20.9361,-36.13434,50.55778,-1.6254772,1.4790303,5.1185403,-12.9901905,-28.684492,36.19542,29.089224,4.042933,3.752947,-9.4402685
211,-1.629305124282837,21.254592895507812,71.467529296875,2.022753638301769,-2.841591686178943,-95.51834396320258,-5.6091204,1.6917908,4.805672,101.44448,-16.089325,-6.1136594,-37.501633,-7.650368,-12.782757,59.471287,-15.345131,-6.457451,-5.5857162,1.8260075,14.143167,-14.289724,20.920153,-35.688442,49.59877,-2.0644891,1.3388497,5.244812,-11.304947,-28.999613,35.18433,27.6755,5.135656,3.546286,-9.700862
212,-1.5866672992706299,21.83711814880371,71.82485961914062,1.938237634865146,-2.964531061011343,-95.32925864029944,-4.873865,0.7361197,4.114935,99.474976,-15.060937,-6.9994197,-36.958275,-7.5398164,-13.036243,57.631256,-13.933863,-6.457561,-5.536574,1.7229851,13.891086,-14.034156,20.887236,-35.27463,48.714874,-2.368458,1.230506,5.323313,-9.669526,-29.238457,34.216923,26.37451,6.0149126,3.3901577,-9.936703
213,-1.551211953163147,22.452800750732422,72.20966339111328,1.7919240532269352,-3.0331341401045306,-95.0077211866382,-4.3165607,-0.18125066,3.2606516,97.4011,-13.979848,-7.880129,-36.358162,-7.450969,-13.432214,55.543865,-12.404554,-6.4782047,-5.638646,1.6712815,13.632996,-13.794734,20.834898,-34.87931,47.905296,-2.4983094,1.1624141,5.3437076,-8.109288,-29.391685,33.304676,25.211626,6.6336303,3.297025,-10.153504
214,-1.5301307439804077,23.09482192993164,72.6222915649414,1.5992644945890315,-3.0626670540011993,-94.60440430926236,-3.8740149,-1.088087,2.2704804,95.176956,-12.863795,-8.788917,-35.698715,-7.356268,-13.92297,53.23098,-10.757584,-6.508853,-5.8411617,1.6516163,13.370076,-13.553969,20.761852,-34.495045,47.153084,-2.4909167,1.1213167,5.311482,-6.6007175,-29.45204,32.440678,24.175097,7.105231,3.2339633,-10.355713
215,-1.5070152282714844,23.753093719482422,73.05828857421875,1.3924506487913773,-3.0833684764605604,-94.1948115637872,-3.4405353,-1.87509,1.2820051,92.78913,-11.856769,-9.584322,-34.99035,-7.23125,-14.422951,50.754993,-8.942602,-6.509872,-6.0688004,1.6312463,13.115646,-13.323685,20.673893,-34.152805,46.487217,-2.4105754,1.0988542,5.247993,-5.144521,-29.41689,31.64489,23.261278,7.440181,3.2014167,-10.5347395
216,-1.425868034362793,24.489362716674805,73.48454284667969,1.20240154577981,-3.125274238067646,-93.85296829060928,-2.9254525,-2.4297922,0.451429,90.22149,-11.091674,-10.112286,-34.2431,-7.0506277,-14.845953,48.171482,-6.9091325,-6.4413075,-6.2445626,1.5766071,12.8852,-13.112256,20.580873,-33.882557,45.92844,-2.3184304,1.0873356,5.174265,-3.7699137,-29.287802,30.946999,22.487825,7.6692414,3.1986146,-10.681608
217,-1.4036346673965454,25.205257415771484,73.92925262451172,1.029684833631731,-3.204880633421727,-93.59276798553319,-2.3120193,-2.742407,-0.20547031,87.44793,-10.642756,-10.324356,-33.4264,-6.774976,-15.15957,45.43256,-4.617322,-6.3223953,-6.351734,1.4786422,12.694084,-12.908459,20.490852,-33.687622,45.47367,-2.205133,1.0957402,5.092525,-2.4417121,-29.060469,30.340757,21.84111,7.777816,3.2410731,-10.798942
218,-1.3945951461791992,25.921743392944336,74.37690734863281,0.8599416338085004,-3.3027761008696332,-93.37579616134909,-1.657797,-2.8641288,-0.74398077,84.48424,-10.417738,-10.296206,-32.551357,-6.4211874,-15.40803,42.529808,-2.1036067,-6.1617093,-6.4306855,1.3501781,12.528986,-12.708163,20.40714,-33.554447,45.107403,-2.0488288,1.1250732,4.9923224,-1.1812389,-28.734518,29.828289,21.335968,7.7625694,3.3237574,-10.889196
219,-1.3713306188583374,26.666650772094727,74.80658721923828,0.706613790177913,-3.396200826808094,-93.19703050345717,-0.9921304,-2.7864027,-1.1059376,81.374405,-10.297273,-10.070809,-31.688093,-6.0487294,-15.615451,39.567688,0.577162,-5.9016695,-6.495885,1.1886061,12.360699,-12.524191,20.332952,-33.48096,44.829926,-1.8882633,1.1555889,4.874467,-0.035503507,-28.324047,29.422726,20.973906,7.6340456,3.419317,-10.943209
220,-1.3321424722671509,27.445051193237305,75.2109603881836,0.5784607691570631,-3.4633002637164894,-93.05044586026649,-0.3432488,-2.5095825,-1.2331518,78.15801,-10.165193,-9.702135,-30.905474,-5.716993,-15.804912,36.646595,3.376734,-5.4838724,-6.5618973,0.99452907,12.162778,-12.369721,20.270918,-33.465443,44.639122,-1.7624882,1.1677066,4.739847,0.96963954,-27.853165,29.124557,20.734383,7.397095,3.500965,-10.95231
221,-1.2858167886734009,28.237321853637695,75.57929229736328,0.46436590995377297,-3.4987857643710947,-92.95043000340614,0.29502684,-1.8893056,-0.9555577,74.73064,-10.08283,-9.212676,-30.215038,-5.430751,-16.05033,33.74234,6.4261274,-5.0093102,-6.618703,0.7819409,11.932206,-12.239824,20.2219,-33.51206,44.542114,-1.6950227,1.1557761,4.5954576,1.8436955,-27.34075,28.945269,20.61131,6.99486,3.5801246,-10.914158
222,-1.2482229471206665,29.023338317871094,75.90948486328125,0.37189352056997255,-3.5151902174583514,-92.89535951057042,0.94452864,-1.032852,-0.32389605,71.09983,-10.091416,-8.615905,-29.595259,-5.158747,-16.30006,30.832912,9.700603,-4.465855,-6.66134,0.54108053,11.686257,-12.129631,20.186455,-33.620182,44.53019,-1.6613486,1.1304222,4.4377975,2.6159446,-26.79545,28.868422,20.588537,6.446605,3.6653106,-10.832616
223,-1.1903315782546997,29.837984085083008,76.18941497802734,0.33335945778501935,-3.5175284425290774,-92.85478506017992,1.5894854,-0.2816264,0.36802903,67.478035,-10.0366535,-7.926779,-29.04116,-4.899018,-16.37516,27.973621,12.948928,-3.6175582,-6.708895,0.24501804,11.432609,-12.053636,20.166082,-33.784527,44.57498,-1.6286157,1.0970501,4.2521763,3.2878525,-26.228924,28.84898,20.631704,5.876879,3.7258112,-10.708792
224,-1.1201685667037964,30.668106079101562,76.42058563232422,0.3864708402321674,-3.5124517621555116,-92.79476305036461,2.195281,0.06656692,0.7999538,64.0873,-9.757498,-7.1122336,-28.528465,-4.6619115,-16.076696,25.189493,15.931969,-2.217866,-6.7823153,-0.13775901,11.180235,-12.028397,20.163246,-34.002094,44.648407,-1.5657222,1.0608414,4.0236487,3.8625174,-25.655119,28.840578,20.702644,5.411847,3.7314124,-10.544275
225,-1.0434463024139404,31.509855270385742,76.59107971191406,0.5811471547967013,-3.4993049516512036,-92.70266486160844,2.7279928,-0.108954124,0.84085506,60.91165,-8.880288,-5.9448166,-27.96417,-4.4923816,-15.298624,22.24094,18.751978,-0.014886581,-6.896987,-0.6506747,10.91597,-12.050715,20.180832,-34.287247,44.74758,-1.4724364,1.015332,3.7331188,4.370742,-25.081936,28.82872,20.771534,5.0949483,3.660535,-10.328697
226,-0.9556926488876343,32.34172821044922,76.70417785644531,0.9002190567229048,-3.4858005183577387,-92.58784760364122,3.208449,-0.6032817,0.66719294,57.87141,-7.593627,-4.469072,-27.335974,-4.4019804,-14.106963,19.117758,21.499489,2.8269467,-7.0451393,-1.2836914,10.649858,-12.113663,20.21929,-34.639484,44.878757,-1.3639722,0.960281,3.3926091,4.815903,-24.513262,28.830196,20.845669,4.859812,3.5348747,-10.065117
227,-0.85859215259552,33.17403030395508,76.73722839355469,1.2846831814864792,-3.4909596772918423,-92.44859993786751,3.684527,-1.2309048,0.38886023,55.068657,-6.5632396,-3.0541646,-26.75015,-4.3797345,-12.597165,16.235039,23.887705,5.9146323,-7.214615,-1.9856182,10.424962,-12.227785,20.276663,-35.0328,45.027737,-1.2332423,0.90998757,3.0334654,5.159725,-23.958197,28.847204,20.941639,4.6656113,3.389975,-9.77529
228,-0.7705654501914978,34.01788330078125,76.6830062866211,1.6540234294785459,-3.523070678156787,-92.29316980917037,4.201212,-1.8257705,0.08751084,52.589878,-6.455925,-2.101352,-26.355219,-4.3906765,-10.928097,14.077213,25.60363,8.825039,-7.38399,-2.676862,10.27997,-12.403009,20.348461,-35.43845,45.179058,-1.0713391,0.87842554,2.6877503,5.363034,-23.429579,28.882359,21.074604,4.474174,3.261279,-9.480708
229,-0.6675626635551453,34.86946105957031,76.57258605957031,1.9688861965150193,-3.5779249617554405,-92.11406128080985,4.829693,-2.3888745,-0.32630864,50.408928,-7.598811,-1.8829209,-26.163378,-4.3904295,-9.128192,12.724927,26.515266,11.692932,-7.557351,-3.3142307,10.212964,-12.643078,20.431227,-35.860195,45.327198,-0.85928017,0.87116665,2.3353953,5.4300895,-22.937061,28.929586,21.237837,4.297272,3.148692,-9.149557
230,-0.5606236457824707,35.74298858642578,76.40611267089844,2.242928933190501,-3.640308249883687,-91.92134096208261,5.519611,-2.9581785,-0.8680013,48.459408,-9.564145,-2.1447303,-26.143272,-4.3848386,-7.2229185,12.016172,26.729383,14.616655,-7.732666,-3.903327,10.202592,-12.943166,20.522068,-36.306904,45.47951,-0.60692203,0.8789498,1.96948,5.382767,-22.48554,28.987404,21.416433,4.150747,3.0369968,-8.782339
231,-0.4838494062423706,36.6360969543457,76.17591857910156,2.2990851688919367,-3.6875278807018805,-91.8300475735066,6.0883346,-3.218958,-1.333206,46.900414,-11.999976,-2.5904996,-26.195171,-4.2578654,-6.381586,11.65398,26.582493,15.000033,-7.8038025,-4.280299,10.271461,-13.298739,20.617002,-36.75531,45.640312,-0.34540442,0.8946292,1.6410826,5.2058125,-22.080671,29.066896,21.615465,4.004833,2.939044,-8.449316
232,-0.38998398184776306,37.55819320678711,75.89490509033203,2.2814329254497605,-3.71043911800946,-91.80440035389378,6.42108,-3.3202484,-1.556279,45.65831,-14.3735485,-2.7897701,-26.655037,-4.0778866,-5.5060143,12.211044,25.962894,15.000033,-7.8067503,-4.565396,10.410438,-13.70308,20.70829,-37.17543,45.81024,-0.10444136,0.9116614,1.4042189,4.8730087,-21.73124,29.180113,21.849535,3.8272753,2.865832,-8.22026
233,-0.2659507989883423,38.503501892089844,75.58585357666016,2.275328784515781,-3.6920747218194876,-91.82327751662194,6.4779816,-3.3687406,-1.4818716,44.716156,-16.610579,-2.60745,-27.773746,-3.83721,-4.0884914,14.12655,24.6638,15.000033,-7.7679644,-4.830363,10.608998,-14.17165,20.789885,-37.551632,45.973484,0.11876998,0.9316594,1.2708576,4.3600426,-21.448668,29.323872,22.10339,3.6080105,2.8103068,-8.098114
234,-0.12219861149787903,39.461952209472656,75.25511932373047,2.29317941170499,-3.6483822488448463,-91.8692972716484,6.3445005,-3.4158208,-1.2141815,44.046482,-18.924356,-2.252662,-29.400377,-3.4935994,-2.2636216,17.159338,22.750034,15.000033,-7.701579,-5.0921373,10.867379,-14.703634,20.860409,-37.896713,46.13808,0.34037405,0.9573822,1.213532,3.6947107,-21.23606,29.493824,22.36236,3.3681037,2.771198,-8.051482
235,0.03429047018289566,40.4388542175293,74.89665985107422,2.365943115773043,-3.621204475979518,-91.91838088293095,6.0973463,-3.5245576,-0.86486036,43.57142,-21.229158,-1.8333044,-31.204384,-3.1626318,-0.51680374,20.751196,20.552795,15.000033,-7.623892,-5.395353,11.192666,-15.276211,20.919851,-38.23178,46.34917,0.5417989,0.9837106,1.2271081,2.9282765,-21.085918,29.699495,22.645052,3.1211777,2.7683845,-8.0985365
236,0.2039887011051178,41.39384841918945,74.51485443115234,2.4934620423958562,-3.6458147316000193,-91.9524491570196,5.802417,-3.7160525,-0.5364853,43.22538,-23.44653,-1.4619584,-32.894665,-3.0217395,0.67341524,24.401178,18.358902,15.000033,-7.5452943,-5.752973,11.590425,-15.865425,20.967466,-38.57658,46.650402,0.7054756,1.0057833,1.3075835,2.1022346,-20.98417,29.95171,22.982983,2.8796797,2.8208344,-8.257287
237,0.379099041223526,42.34891128540039,74.12560272216797,2.6898447302761603,-3.743053757863773,-91.9685030918872,5.4872613,-4.01789,-0.24404809,42.99245,-25.61492,-1.1622084,-34.465435,-3.1656065,1.3181449,28.130348,16.157642,15.000033,-7.470525,-6.185648,12.082953,-16.476501,20.999924,-38.924248,47.022606,0.813422,1.0332395,1.4706684,1.1811188,-20.926565,30.273804,23.423485,2.6152687,2.9444082,-8.587652
238,0.5516042709350586,43.30448913574219,73.7431869506836,2.860367417885218,-3.8987903731428646,-92.00629529561365,5.1047444,-4.288396,0.075982034,42.98476,-27.818916,-0.91159016,-35.940727,-3.4507794,1.5513535,31.941109,13.938432,15.000033,-7.354387,-6.5893683,12.684562,-17.126146,21.0162,-39.27107,47.458073,0.8783815,1.0653566,1.7121869,0.1601211,-20.915447,30.645393,23.936298,2.3300793,3.126487,-9.059012
