unveil-humanoid-operators/unveil-humanoid-operators.github.io/feature-analysis-animation/data/feature_matrix_instances/age_waist_rom_jogging_A078_jog_ff_start_180_R_001__A078.csv
Frame,root_translateX,root_translateY,root_translateZ,root_rotateX,root_rotateY,root_rotateZ,left_hip_pitch_joint_dof,left_hip_roll_joint_dof,left_hip_yaw_joint_dof,left_knee_joint_dof,left_ankle_pitch_joint_dof,left_ankle_roll_joint_dof,right_hip_pitch_joint_dof,right_hip_roll_joint_dof,right_hip_yaw_joint_dof,right_knee_joint_dof,right_ankle_pitch_joint_dof,right_ankle_roll_joint_dof,waist_yaw_joint_dof,waist_roll_joint_dof,waist_pitch_joint_dof,left_shoulder_pitch_joint_dof,left_shoulder_roll_joint_dof,left_shoulder_yaw_joint_dof,left_elbow_joint_dof,left_wrist_roll_joint_dof,left_wrist_pitch_joint_dof,left_wrist_yaw_joint_dof,right_shoulder_pitch_joint_dof,right_shoulder_roll_joint_dof,right_shoulder_yaw_joint_dof,right_elbow_joint_dof,right_wrist_roll_joint_dof,right_wrist_pitch_joint_dof,right_wrist_yaw_joint_dof
0,-0.05057254433631897,2.991098403930664,78.50064086914062,-0.19615642521075766,-0.9854010574872385,-85.2359771126386,4.0297737,0.95740134,6.797157,7.619561,-11.249325,-1.6389467,3.726507,-2.732662,-5.8087726,8.133813,-9.664436,3.8272963,-2.493575,-0.07311699,7.435476,1.1145036,17.58443,-31.169853,48.730324,2.7104564,7.2129397,1.7490722,4.1869707,-12.487197,22.148315,52.474907,2.053802,0.30050895,-7.9047723
1,-0.04237479716539383,3.0035741329193115,78.50171661376953,-0.16565902348834552,-0.9897492290658909,-85.24279298450264,4.0250506,0.9126353,6.7908673,7.629574,-11.247615,-1.5759312,3.730914,-2.7740643,-5.787853,8.124337,-9.679933,3.8881204,-2.4737666,-0.10091294,7.4415708,1.1140487,17.588509,-31.170038,48.721268,2.7096763,7.2269025,1.74559,4.1738906,-12.487956,22.151365,52.416588,1.9256734,0.20210947,-7.9108596
2,-0.024066677317023277,3.002626419067383,78.50117492675781,-0.1346913266694764,-0.9945170981696525,-85.2495858027908,4.0206757,0.8650054,6.785011,7.639998,-11.245437,-1.5087051,3.7340152,-2.8166366,-5.7662206,8.118488,-9.696599,3.9488432,-2.4541876,-0.12898661,7.4503527,1.1140963,17.596573,-31.168255,48.708656,2.7091243,7.241489,1.7404466,4.165711,-12.491671,22.152485,52.354443,1.7840344,0.0974667,-7.9154058
3,-0.023476894944906235,3.0093467235565186,78.50013732910156,-0.10770381692315532,-0.9983307208772487,-85.25609062225392,4.018593,0.82216686,6.7793427,7.644697,-11.243552,-1.4524566,3.7414877,-2.853344,-5.7470427,8.102799,-9.710265,4.009457,-2.43391,-0.15278888,7.457281,1.1118915,17.601473,-31.168768,48.700016,2.7085583,7.2545133,1.7372305,4.155686,-12.496476,22.15631,52.286858,1.6697409,0.0055172816,-7.922323
4,-0.025515904650092125,3.0137736797332764,78.49918365478516,-0.0897474201275265,-1.0001192223499327,-85.26196428473757,4.0218472,0.79062617,6.773531,7.6366205,-11.242599,-1.4212496,3.754667,-2.8790355,-5.7330246,8.073759,-9.722114,4.0701575,-2.4125168,-0.17101134,7.4612675,1.1053642,17.604437,-31.172691,48.697258,2.7080655,7.26389,1.7372812,4.140271,-12.501583,22.166536,52.204712,1.6219244,-0.05563844,-7.9343467
5,-0.022995522245764732,3.0175909996032715,78.49639892578125,-0.08258234453849132,-0.9993680989763005,-85.26849074306867,4.0321703,0.77610624,6.767605,7.611087,-11.241537,-1.424839,3.7761054,-2.8893213,-5.7256584,8.025088,-9.728916,4.133347,-2.3881035,-0.18086548,7.462001,1.0974987,17.60732,-31.179716,48.695354,2.7076252,7.267327,1.7406324,4.1201177,-12.50766,22.184467,52.10119,1.6818085,-0.069969,-7.956427
6,-0.0196781437844038,3.01904296875,78.4932632446289,-0.08366526543406462,-0.9972668707333866,-85.27507710518199,4.049763,0.7735771,6.761243,7.5693083,-11.238374,-1.4530364,3.8060906,-2.888726,-5.7234826,7.958017,-9.730068,4.198239,-2.3694713,-0.1870921,7.4588127,1.0928673,17.613688,-31.191053,48.693024,2.6958225,7.2666864,1.7509704,4.106078,-12.521795,22.232666,51.967052,1.8370614,-0.047871497,-7.993517
7,-0.019184306263923645,3.0200929641723633,78.48957824707031,-0.08571501485044622,-0.9932082261666505,-85.27994626460297,4.067063,0.77487177,6.7541175,7.5254493,-11.238182,-1.4901866,3.8368607,-2.884638,-5.7237544,7.887538,-9.734181,4.260048,-2.3586366,-0.18916783,7.4575424,1.0988754,17.625513,-31.193916,48.675053,2.6875536,7.2659283,1.7594599,4.086401,-12.547356,22.288467,51.819904,1.9997048,-0.019310707,-8.022557
8,-0.017069604247808456,3.021132469177246,78.48500061035156,-0.08591795287102283,-0.987854533135303,-85.28066591388665,4.0817857,0.7715239,6.74555,7.4835987,-11.240145,-1.5206515,3.8630676,-2.8845348,-5.7242565,7.8251467,-9.747354,4.314153,-2.3403072,-0.19580065,7.457889,1.0867682,17.630308,-31.203642,48.673916,2.68809,7.26815,1.7660906,4.0547338,-12.5572195,22.316175,51.68729,2.0789633,-0.012476395,-8.030768
9,-0.015843283385038376,3.0213027000427246,78.47876739501953,-0.08001390040120317,-0.9805166505857243,-85.27810941223382,4.0924244,0.7624538,6.738335,7.4452634,-11.24547,-1.5405248,3.8823771,-2.889573,-5.722048,7.7731776,-9.770471,4.357223,-2.3466568,-0.20404239,7.456444,1.0970328,17.643728,-31.208605,48.648098,2.6715076,7.275143,1.776997,4.0244503,-12.585532,22.387276,51.540794,2.0971582,-0.03867287,-8.01963
10,-0.017441675066947937,3.021695137023926,78.47343444824219,-0.07346535808232342,-0.9714512342424482,-85.27349053328078,4.101518,0.75186646,6.732194,7.4070587,-11.253538,-1.5579615,3.898045,-2.8962607,-5.7187796,7.725221,-9.799644,4.3925476,-2.3524077,-0.21331586,7.457903,1.1026539,17.656256,-31.211552,48.621735,2.6617794,7.284233,1.7857153,3.9857361,-12.611883,22.445316,51.397305,2.0523636,-0.083951324,-7.9862676
11,-0.0191310103982687,3.020941734313965,78.46881866455078,-0.0662200332816022,-0.9612119843330328,-85.26309601581158,4.1098895,0.7386142,6.7200284,7.367035,-11.261197,-1.5758016,3.914543,-2.9047008,-5.72066,7.6778903,-9.834719,4.425242,-2.3648913,-0.22276717,7.4628716,1.1120421,17.673367,-31.213669,48.587692,2.6534796,7.295569,1.7928396,3.9471703,-12.646269,22.505713,51.23468,1.992743,-0.12456223,-7.949156
12,-0.016653312370181084,3.020674467086792,78.46367645263672,-0.056574626976604904,-0.9506096748585352,-85.24328455675088,4.1177344,0.72201025,6.694737,7.325643,-11.266761,-1.5968534,3.9374835,-2.9143825,-5.7340765,7.6262283,-9.875127,4.4604845,-2.374509,-0.23571654,7.4678884,1.1057146,17.686342,-31.22821,48.574497,2.650476,7.30828,1.7994345,3.9033523,-12.668876,22.551577,51.063206,1.9428438,-0.13955243,-7.9253225
13,-0.013770414516329765,3.0188276767730713,78.45710754394531,-0.046064827152339526,-0.9415160979295785,-85.21103408850436,4.1316123,0.6998349,6.6511817,7.272668,-11.26718,-1.6279881,3.975294,-2.9262705,-5.7632184,7.559534,-9.922856,4.504706,-2.3856237,-0.2540316,7.474372,1.0831584,17.695917,-31.25437,48.58243,2.6613715,7.328164,1.8022909,3.8528557,-12.682166,22.58695,50.87805,1.9081221,-0.110473335,-7.920018
14,-0.016204101964831352,3.014836549758911,78.4493179321289,-0.03451199967947847,-0.9326838186894731,-85.16900097542265,4.148168,0.67290294,6.5941877,7.212821,-11.26452,-1.6657369,4.0219,-2.9405,-5.803883,7.4852686,-9.978552,4.553583,-2.401484,-0.27539042,7.4839225,1.0553958,17.70068,-31.279034,48.597633,2.6893451,7.3540034,1.800905,3.795833,-12.68726,22.61067,50.68015,1.8683091,-0.052446935,-7.9225445
15,-0.021172991022467613,3.007436752319336,78.44416046142578,-0.023508799739402144,-0.9207543935709688,-85.12203678351504,4.157048,0.6468609,6.53158,7.161779,-11.262182,-1.6970352,4.0646057,-2.9542248,-5.8499413,7.416673,-10.033722,4.595886,-2.4135299,-0.29660895,7.4949036,1.0348856,17.733225,-31.33375,48.593216,2.682344,7.375307,1.8060511,3.7613513,-12.716764,22.6468,50.43712,1.859042,0.0062834015,-7.932543
16,-0.02215730771422386,2.998467445373535,78.4394302368164,-0.01636835006049419,-0.9026546105871434,-85.07538469285122,4.1498337,0.62544227,6.471311,7.1306057,-11.260207,-1.7087247,4.0901513,-2.9656897,-5.894987,7.367843,-10.079778,4.620379,-2.4326897,-0.31364793,7.5025187,1.0112901,17.74057,-31.348097,48.61559,2.689306,7.377609,1.8110769,3.6939108,-12.722414,22.657242,50.23357,1.8271278,0.032867126,-7.9367375
17,-0.021174177527427673,2.979308605194092,78.43668365478516,-0.012720899607974925,-0.8772307387632852,-85.02517684555734,4.1182556,0.60927564,6.4097757,7.1326456,-11.261935,-1.6915623,4.094481,-2.9748626,-5.941473,7.346566,-10.117056,4.6214514,-2.4582105,-0.3258914,7.510063,0.9955296,17.757391,-31.357971,48.63417,2.6576293,7.351542,1.8242927,3.6243773,-12.735328,22.660442,50.028347,1.8138442,0.009200666,-7.9329457
18,-0.020525863394141197,2.9660215377807617,78.4347152709961,-0.01734938428979402,-0.8452647136718272,-84.96928038390381,3.9954479,0.60910004,6.3422313,7.3119407,-11.346973,-1.6550807,4.086856,-2.9780195,-5.99315,7.3370204,-10.145309,4.605509,-2.494505,-0.32876232,7.521864,1.0005119,17.78456,-31.347992,48.630188,2.6140137,7.307052,1.8380928,3.554258,-12.756089,22.649237,49.81026,1.802969,-0.043954186,-7.9206915
19,-0.016709154471755028,2.961571216583252,78.4319839477539,-0.025903581174710467,-0.8087107570332223,-84.91755158694262,3.8514295,0.6163336,6.279813,7.5285416,-11.448009,-1.6126982,4.0688853,-2.9766824,-6.04173,7.336263,-10.16615,4.5799756,-2.5238724,-0.32811275,7.5346184,1.0051672,17.808716,-31.326962,48.62893,2.5741293,7.2607775,1.8526921,3.4753666,-12.774492,22.633902,49.588203,1.7869604,-0.09771161,-7.915126
20,-0.013625684194266796,2.9538302421569824,78.4291000366211,-0.03495902951876726,-0.7694148169389442,-84.87930887542683,3.716162,0.6280484,6.2328753,7.7258615,-11.541401,-1.578242,4.0435996,-2.9713356,-6.0796485,7.3370237,-10.17897,4.552259,-2.5274742,-0.32763132,7.5512824,1.0043501,17.827272,-31.301035,48.62605,2.5547104,7.2315564,1.8662708,3.392547,-12.78882,22.618105,49.3478,1.7552191,-0.12138173,-7.928041
21,-0.014497076161205769,2.954944133758545,78.42618560791016,-0.047398202970774565,-0.7265663471346201,-84.86163809251279,3.5877585,0.6473421,6.2086005,7.908567,-11.630189,-1.556658,4.0085893,-2.9598234,-6.1017003,7.336706,-10.178728,4.524023,-2.4919052,-0.3278149,7.573437,0.9921967,17.841639,-31.270864,48.624477,2.563614,7.225158,1.8793038,3.306948,-12.800905,22.601856,49.07821,1.7024382,-0.09703504,-7.9753733
22,-0.01518685556948185,2.940711498260498,78.42633056640625,-0.06315424783316484,-0.6799451489510827,-84.85803725074176,3.4578624,0.6736769,6.2000866,8.091035,-11.718772,-1.5401754,3.9635437,-2.9432387,-6.112903,7.3404994,-10.1683445,4.491366,-2.430469,-0.32539195,7.6023493,0.97922647,17.85211,-31.231117,48.61377,2.5936868,7.2338753,1.8933768,3.2201045,-12.811311,22.583015,48.780674,1.6340455,-0.042337764,-8.047029
23,-0.012973346747457981,2.922257423400879,78.4265365600586,-0.0775158691069195,-0.6308375104002256,-84.85749933807413,3.3345566,0.70063686,6.1965237,8.258119,-11.800905,-1.5241392,3.9135346,-2.9258716,-6.121045,7.3483396,-10.1546,4.4534507,-2.3606198,-0.32394683,7.628778,0.96191096,17.856157,-31.192045,48.609745,2.6261637,7.2480035,1.9063808,3.1267257,-12.817355,22.562387,48.48642,1.5601223,0.01377601,-8.114608
24,-0.00817935075610876,2.9004039764404297,78.42771911621094,-0.09195583470996337,-0.5807289928230114,-84.84897229239314,3.2251735,0.7222709,6.186798,8.39577,-11.870337,-1.503791,3.864677,-2.911703,-6.134185,7.3609924,-10.145462,4.409378,-2.3045704,-0.3238039,7.6535482,0.95397377,17.85781,-31.151281,48.596573,2.6510808,7.2619796,1.9138452,3.0265584,-12.821861,22.539526,48.207603,1.4869887,0.04576282,-8.147557
25,-0.0052987150847911835,2.878413438796997,78.42864227294922,-0.10195329996799074,-0.5297992686531965,-84.82569905356502,3.132621,0.73632324,6.165885,8.498347,-11.925532,-1.4729011,3.8150804,-2.902186,-6.157497,7.386978,-10.144312,4.352823,-2.271424,-0.32545477,7.6751914,0.96420676,17.859116,-31.100712,48.564613,2.665166,7.2777157,1.9126396,2.9196076,-12.826769,22.51085,47.950012,1.4409844,0.032344144,-8.128615
26,-0.007822534069418907,2.856276273727417,78.43060302734375,-0.11113203823749072,-0.4773530169189985,-84.7949304322735,3.0527413,0.7463594,6.1404085,8.573729,-11.969279,-1.4357061,3.7632854,-2.8949244,-6.18572,7.4226537,-10.14666,4.286313,-2.2550406,-0.32639772,7.7016473,0.9938265,17.86169,-31.026522,48.506214,2.6833048,7.2969923,1.9003696,2.8038213,-12.83448,22.47705,47.69799,1.4069159,-0.007418307,-8.072289
27,-0.00631601782515645,2.831810235977173,78.4300765991211,-0.11990894265996954,-0.42351436291411415,-84.76616873840874,2.9782526,0.755059,6.1167684,8.63806,-12.007536,-1.4033496,3.713786,-2.8877835,-6.2112474,7.4523087,-10.148405,4.222055,-2.241103,-0.32807878,7.7296324,1.0280412,17.866562,-30.95596,48.44111,2.6980002,7.3146267,1.8858271,2.6812615,-12.844688,22.450977,47.448288,1.3417854,-0.040488236,-8.00732
28,-0.0010214227950200438,2.805234670639038,78.42819213867188,-0.12710252298965782,-0.36880919661885025,-84.74909573336886,2.9151213,0.76312286,6.101792,8.67889,-12.035184,-1.3867253,3.667606,-2.8794203,-6.225923,7.468874,-10.150541,4.1723857,-2.212031,-0.33171982,7.7601438,1.0471568,17.872166,-30.912298,48.39091,2.7086542,7.325155,1.874641,2.551335,-12.853523,22.43236,47.198696,1.1931225,-0.034307703,-7.9577584
29,0.00042179858428426087,2.7935850620269775,78.42672729492188,-0.13580766869823993,-0.31585369574091143,-84.75163697494713,2.8623056,0.77385724,6.100724,8.704904,-12.053068,-1.3936582,3.6251283,-2.8669817,-6.2225733,7.4708786,-10.150387,4.1373625,-2.1603103,-0.3361528,7.796646,1.0481828,17.87619,-30.899534,48.355213,2.7167845,7.3278775,1.8697618,2.416475,-12.858742,22.425463,46.938305,0.9236488,0.025406519,-7.9280887
30,0.0001737677666824311,2.7711544036865234,78.42495727539062,-0.14512651254909614,-0.26439757121072943,-84.76672783766091,2.8194432,0.785451,6.10885,8.715752,-12.062238,-1.4166533,3.5874119,-2.8517804,-6.207232,7.4605126,-10.147624,4.1114564,-2.1029367,-0.33657116,7.8577557,1.0513798,17.889502,-30.880585,48.292233,2.7347894,7.3253193,1.8563019,2.2528784,-12.871014,22.415117,46.674713,0.56090397,0.11832394,-7.8905673
31,0.002551186131313443,2.7364389896392822,78.42217254638672,-0.15017066064046303,-0.20793173950480148,-84.78168583660295,2.780771,0.7938727,6.1175833,8.710446,-12.06702,-1.4439405,3.551793,-2.839273,-6.1916738,7.4391737,-10.148166,4.098704,-2.0409997,-0.3434624,7.901445,1.0423976,17.897568,-30.888474,48.26486,2.7474265,7.316872,1.8475475,2.099715,-12.877326,22.416618,46.418747,0.1712837,0.22918084,-7.869449
32,0.008966835215687752,2.698573350906372,78.41822052001953,-0.15225666806296573,-0.14257702009269918,-84.78364417137706,2.7390945,0.79545027,6.1180825,8.6972,-12.076505,-1.4638427,3.5227666,-2.8336754,-6.1882153,7.3995514,-10.153504,4.103088,-1.9849977,-0.35405207,7.9409065,1.0429463,17.919212,-30.910238,48.22945,2.7579312,7.3064904,1.8339951,1.945289,-12.890583,22.408808,46.176445,-0.19138898,0.3411107,-7.8541474
33,0.01491975411772728,2.6619715690612793,78.41661834716797,-0.14743889664723722,-0.06522025175458016,-84.76688497840418,2.6917398,0.7876282,6.1088395,8.674083,-12.090937,-1.4698931,3.4970555,-2.8383567,-6.201304,7.3438725,-10.163615,4.1296835,-1.9388363,-0.37557328,7.95822,1.0457207,17.949259,-30.954842,48.219128,2.7702656,7.283464,1.8180287,1.8054477,-12.905603,22.399664,45.951,-0.56236917,0.47568873,-7.862674
34,0.019687622785568237,2.6178901195526123,78.4145736694336,-0.13708738497340953,0.02077508074926786,-84.73923881750027,2.6425557,0.77308667,6.0942125,8.639971,-12.107058,-1.4695475,3.4761949,-2.8498914,-6.224154,7.2711654,-10.176019,4.1750236,-1.8994354,-0.40356982,7.9619536,1.0459858,17.980133,-31.01671,48.23146,2.7853234,7.250207,1.8003829,1.6658517,-12.917958,22.391792,45.745514,-0.9557968,0.63286656,-7.888378
35,0.02575507014989853,2.574134111404419,78.41152954101562,-0.124785417986945,0.11285277394323578,-84.70683087900886,2.595052,0.754875,6.0743403,8.594232,-12.123791,-1.4714212,3.4599936,-2.8645537,-6.2516823,7.1852884,-10.19635,4.2303843,-1.8614877,-0.43501306,7.9570084,1.0492035,18.015429,-31.086935,48.24853,2.7967288,7.224773,1.780786,1.5286313,-12.930106,22.382856,45.550835,-1.2829067,0.76622355,-7.911225
36,0.02273842878639698,2.530517578125,78.40839385986328,-0.11377465607998402,0.20852104072671399,-84.67599975593926,2.5515058,0.73681104,6.049202,8.540154,-12.1425705,-1.4844474,3.4496474,-2.8772407,-6.2791963,7.088154,-10.229253,4.2869368,-1.8277442,-0.46478447,7.94524,1.057157,18.047026,-31.146675,48.26713,2.8029656,7.223697,1.7592015,1.3858631,-12.941383,22.380072,45.37051,-1.4548955,0.8288428,-7.9138937
37,0.02249816060066223,2.4773759841918945,78.40380859375,-0.10104972063202099,0.30952658952390366,-84.6458372962459,2.5134788,0.71367323,6.0130057,8.468776,-12.153098,-1.5020971,3.4412367,-2.8923,-6.30785,6.986466,-10.284756,4.351552,-1.7975171,-0.49555224,7.9258347,1.0763801,18.083134,-31.200197,48.269764,2.7947676,7.264862,1.73471,1.2467242,-12.956062,22.381824,45.18668,-1.422719,0.797516,-7.8906884
38,0.028956186026334763,2.4184043407440186,78.39657592773438,-0.0861629079997974,0.4164424151950041,-84.61378185226553,2.4789686,0.6856137,5.9677415,8.383121,-12.159275,-1.5226622,3.3839734,-2.9163413,-6.3367705,6.9871407,-10.415698,4.425938,-1.7740183,-0.5282367,7.9004974,1.1111574,18.129587,-31.247526,48.25384,2.7771082,7.334452,1.7057189,1.1116065,-12.977652,22.390104,44.999424,-1.2396935,0.7008159,-7.8505163
39,0.03670748323202133,2.3616864681243896,78.38658905029297,-0.07602023441596552,0.5250185325294943,-84.58389630344728,2.4469314,0.66360676,5.9250836,8.297205,-12.178395,-1.5620959,3.3275766,-2.9347434,-6.3641195,6.9876237,-10.555725,4.493314,-1.7532115,-0.5552173,7.8745885,1.1529282,18.175402,-31.28345,48.239098,2.7625935,7.404717,1.6748916,0.97248214,-13.002844,22.404152,44.827297,-0.97291267,0.57103467,-7.7986436
40,0.04642540216445923,2.294109344482422,78.3761978149414,-0.07724931050353509,0.631068017497438,-84.56020735167094,2.4155657,0.658515,5.896964,8.226429,-12.228732,-1.636213,3.273713,-2.9384007,-6.3852887,6.988342,-10.693751,4.537203,-1.7269328,-0.569578,7.8533716,1.1904423,18.210478,-31.308031,48.24706,2.7623253,7.447095,1.6453159,0.825235,-13.026551,22.417969,44.686756,-0.69155747,0.44008157,-7.7401533
41,0.0601237416267395,2.2257604598999023,78.36245727539062,-0.09390222829354583,0.7330243962334294,-84.54617165106879,2.3830702,0.6775871,5.891031,8.177018,-12.31845,-1.7573994,3.2208123,-2.9217036,-6.397691,6.9894857,-10.825735,4.548363,-1.6911869,-0.5674126,7.8462877,1.2278056,18.243763,-31.317448,48.26854,2.7801468,7.4478674,1.6174253,0.6692902,-13.054929,22.427284,44.567066,-0.3421869,0.29775846,-7.6684484
42,0.07151536643505096,2.145901918411255,78.34720611572266,-0.12152998345782608,0.8332116866155227,-84.53886801759477,2.3513882,0.7132055,5.899964,8.138599,-12.435388,-1.9144541,3.1687949,-2.890891,-6.404034,6.990824,-10.958131,4.537602,-1.648832,-0.55371505,7.8436823,1.2581611,18.265491,-31.316507,48.31604,2.8114583,7.4235897,1.5918461,0.50189614,-13.079095,22.433802,44.476776,0.08486185,0.1331877,-7.584327
43,0.07640259712934494,2.081531047821045,78.33558654785156,-0.15338674977144345,0.9332755319929892,-84.53297196596749,2.3219001,0.75467783,5.9129915,8.108539,-12.571947,-2.0880935,3.1206172,-2.8543894,-6.407941,6.9928637,-11.09488,4.5181913,-1.6061999,-0.5335438,7.8414707,1.2983533,18.288666,-31.308302,48.358654,2.8459616,7.394568,1.5626969,0.3412093,-13.11035,22.446087,44.40249,0.46968237,-0.021227319,-7.4973097
44,0.08262772113084793,2.0241119861602783,78.32616424560547,-0.18318108214555034,1.0348887391640775,-84.52315930824881,2.293317,0.7917863,5.919035,8.088833,-12.722651,-2.2588298,3.0796747,-2.820093,-6.413148,6.9954925,-11.239905,4.5032387,-1.564653,-0.51582634,7.8251143,1.341955,18.304733,-31.304998,48.407936,2.8761237,7.380322,1.5287157,0.18881725,-13.135061,22.465837,44.367207,0.682516,-0.135364,-7.4220953
45,0.09110880643129349,1.9441416263580322,78.31302642822266,-0.2112501294903358,1.1368937913610466,-84.50509542476775,2.2653048,0.82540315,5.914223,8.085657,-12.895587,-2.4337575,3.048824,-2.786858,-6.4226336,6.9973006,-11.393437,4.4958043,-1.5330212,-0.49729666,7.803022,1.4085596,18.330496,-31.287159,48.424736,2.9046683,7.3993435,1.4575696,0.0587301,-13.174458,22.508106,44.34698,0.65267205,-0.19984877,-7.359929
46,0.11790734529495239,1.8134381771087646,78.29615783691406,-0.24041880106856953,1.238854897195441,-84.4825280390691,2.2380447,0.8599641,5.9046335,8.096346,-13.090156,-2.621087,3.0256255,-2.751558,-6.4337273,6.999606,-11.554477,4.4891157,-1.4996166,-0.47952476,7.770957,1.4739126,18.350391,-31.268608,48.45031,2.9339924,7.436089,1.3646901,-0.06548454,-13.203875,22.556488,44.367584,0.4515554,-0.23338605,-7.3074694
47,0.13186496496200562,1.7279690504074097,78.27738952636719,-0.26792841468541023,1.3439229138765167,-84.46249853128853,2.2142794,0.8905726,5.895027,8.105984,-13.288016,-2.7967389,3.0051572,-2.718964,-6.441943,7.0024233,-11.720625,4.4814744,-1.4708519,-0.46172443,7.730522,1.559765,18.37398,-31.255064,48.464752,2.955637,7.4623227,1.3019994,-0.18239605,-13.237911,22.612312,44.407364,0.20398296,-0.24117036,-7.260822
48,0.13834123313426971,1.6338516473770142,78.25879669189453,-0.2913777417854832,1.4550826780839832,-84.45146414754527,2.199143,0.9122048,5.889475,8.094792,-13.4680605,-2.9386458,2.9823246,-2.694062,-6.4427495,7.0068054,-11.890504,4.471301,-1.4352628,-0.44710124,7.6732073,1.6520146,18.388838,-31.277802,48.49909,2.9599965,7.4488363,1.3278955,-0.2987202,-13.260759,22.65342,44.476063,0.01997274,-0.23024465,-7.2179923
49,0.1530701071023941,1.5265740156173706,78.24281311035156,-0.3110856254434602,1.5753653603492088,-84.4468302960901,2.1885614,0.9224758,5.880438,8.061127,-13.624298,-3.0378864,2.95614,-2.677715,-6.43958,7.0115113,-12.067656,4.4518366,-1.4015448,-0.43058726,7.599703,1.7769232,18.413301,-31.34666,48.521286,2.9351718,7.374655,1.4801812,-0.39600405,-13.301295,22.688013,44.5367,-0.066246085,-0.18536475,-7.1752944
50,0.17470213770866394,1.4000970125198364,78.22708129882812,-0.3282750753175865,1.702310228280567,-84.44634378152455,2.184047,0.92443264,5.8680654,8.009859,-13.766157,-3.107626,2.9285786,-2.6670074,-6.4333057,7.0177016,-12.252089,4.4260454,-1.3601979,-0.4138516,7.5087585,1.9101833,18.43341,-31.458603,48.557552,2.8909242,7.259163,1.7231592,-0.48049882,-13.34045,22.705778,44.61313,-0.12537228,-0.10965258,-7.13437
51,0.20458842813968658,1.2656227350234985,78.21192169189453,-0.3433788816019947,1.8315568905993125,-84.45782015606612,2.1916375,0.922814,5.8679824,7.9431586,-13.901037,-3.158568,2.9019125,-2.6597586,-6.4163146,7.023163,-12.433693,4.4069276,-1.3096951,-0.39715093,7.413111,2.0473626,18.447575,-31.581676,48.59819,2.8397539,7.1359444,1.9926693,-0.5605289,-13.376165,22.715975,44.710827,-0.15925917,-0.031283606,-7.098518
52,0.24066559970378876,1.1235092878341675,78.1932144165039,-0.3559784640040899,1.958534015389111,-84.4893306945506,2.2176967,0.9212921,5.896096,7.8642673,-14.03778,-3.201049,2.8758874,-2.6549132,-6.380535,7.0290914,-12.603438,4.4072504,-1.2475637,-0.38193366,7.326745,2.185191,18.455864,-31.682856,48.630577,2.7949324,7.0390687,2.2241144,-0.64340997,-13.406167,22.725271,44.833572,-0.17153838,0.021287458,-7.0697703
53,0.2752250134944916,0.97970050573349,78.17330932617188,-0.3644149124601228,2.078818234352753,-84.54662114927906,2.2662864,0.92042917,5.9631596,7.77989,-14.184174,-3.2271678,2.8558612,-2.6538572,-6.319473,7.032309,-12.7610445,4.4376025,-1.1620175,-0.3651254,7.260666,2.3218021,18.46296,-31.774885,48.642548,2.748133,6.976952,2.4232633,-0.7164197,-13.446111,22.72865,44.961517,-0.15273996,0.035569556,-7.0440893
54,0.3084721565246582,0.8313453793525696,78.15494537353516,-0.36911473911728765,2.195911540966251,-84.62429695108146,2.333519,0.9174273,6.058442,7.686547,-14.334453,-3.234552,2.8390315,-2.6573946,-6.23867,7.035402,-12.911637,4.4886627,-1.0635343,-0.3471107,7.205688,2.464485,18.467028,-31.86004,48.63949,2.6989667,6.931565,2.6159306,-0.7835067,-13.492934,22.73076,45.100418,-0.10320786,0.028510526,-7.022051
55,0.3429644703865051,0.6782307028770447,78.1360092163086,-0.3738969650196281,2.3173580157849214,-84.71327553845224,2.409767,0.9137678,6.1653457,7.577106,-14.477876,-3.2422254,2.8181617,-2.661632,-6.1487927,7.0386114,-13.049477,4.5430126,-0.96328574,-0.32975313,7.149399,2.613517,18.466713,-31.917818,48.630512,2.6594594,6.8979235,2.769147,-0.8492108,-13.535614,22.73252,45.25869,-0.03800118,0.01707139,-7.008875
56,0.37878870964050293,0.5294528007507324,78.11717987060547,-0.38211192760517537,2.450613538061007,-84.80440068586515,2.4880352,0.9104369,6.267482,7.4388876,-14.600522,-3.2693295,2.7863576,-2.6630054,-6.059947,7.041498,-13.168832,4.582671,-0.8704324,-0.3161441,7.079917,2.770512,18.46335,-31.929678,48.62168,2.6414309,6.871597,2.8500445,-0.9163047,-13.563088,22.731182,45.443123,0.026562512,0.018157544,-7.0092573
57,0.4205574691295624,0.36023765802383423,78.0972900390625,-0.39468802699940553,2.5988856017464137,-84.899130509728,2.5140004,0.9144956,6.363637,7.3814516,-14.766636,-3.3353043,2.7409542,-2.6612365,-5.974494,7.0431285,-13.266766,4.6122475,-0.7856072,-0.29777703,6.9941425,2.9451401,18.452015,-31.868876,48.603027,2.6614118,6.853638,2.8142047,-0.96537673,-13.603954,22.736328,45.625515,0.10671618,0.03619146,-7.0269227
58,0.4561949074268341,0.1923295110464096,78.07582092285156,-0.41026214966700447,2.7577599944875812,-85.00099683523435,2.5073864,0.9239012,6.461532,7.377737,-14.963009,-3.4253492,2.6866379,-2.6579738,-5.886782,7.0428534,-13.346407,4.6374145,-0.6967661,-0.2849525,6.893585,3.1274757,18.439875,-31.765385,48.583473,2.7035596,6.846534,2.693276,-1.0121143,-13.62717,22.735073,45.836273,0.1951922,0.06030559,-7.0611954
59,0.49027782678604126,0.02706942893564701,78.05265808105469,-0.42747437836056384,2.923518354936151,-85.10419239303825,2.4942539,0.9334918,6.5571084,7.374238,-15.146159,-3.5074987,2.6250846,-2.6531413,-5.7973914,7.0440006,-13.411792,4.6451716,-0.6353159,-0.26548627,6.7968407,3.3223047,18.415752,-31.620127,48.55403,2.755686,6.8436832,2.5573485,-1.0624169,-13.658579,22.747969,46.053368,0.2859075,0.09359676,-7.097991
60,0.5300427079200745,-0.14204545319080353,78.03155517578125,-0.4454083806422785,3.0923573244937814,-85.20303943618696,2.4746988,0.94081134,6.645818,7.374613,-15.303506,-3.549756,2.5604007,-2.6464398,-5.707063,7.046386,-13.465446,4.622458,-0.5705126,-0.24809311,6.7137566,3.49191,18.396776,-31.524662,48.530685,2.7711055,6.842333,2.4866197,-1.1036963,-13.675526,22.720966,46.2718,0.34612647,0.13525526,-7.1229644
61,0.5533492565155029,-0.2842283844947815,78.01412963867188,-0.4652792803484713,3.267936090660751,-85.30250050758096,2.444008,0.94904906,6.7326145,7.3792534,-15.4309845,-3.5571628,2.4854712,-2.63418,-5.6092224,7.0493407,-13.498372,4.5590167,-0.51704794,-0.22622153,6.647149,3.648135,18.377438,-31.46517,48.499695,2.7365046,6.842043,2.5224714,-1.1518812,-13.687174,22.674112,46.49321,0.3541262,0.19784582,-7.125348
62,0.5949336290359497,-0.45671287178993225,77.99417114257812,-0.48713120391090664,3.450689327335592,-85.40364001452714,2.4039466,0.9580194,6.8177953,7.3856025,-15.5351515,-3.541827,2.4008422,-2.6178255,-5.5061283,7.0531416,-13.512544,4.4644184,-0.46767417,-0.20233954,6.5901756,3.794501,18.359533,-31.428534,48.46222,2.668529,6.8450646,2.6177485,-1.1987921,-13.692861,22.606407,46.71798,0.32647035,0.27687672,-7.114415
63,0.6452797055244446,-0.6457343697547913,77.9718246459961,-0.5073339864397296,3.6320912128295535,-85.49462767517852,2.3634334,0.9600571,6.8895574,7.3961816,-15.621583,-3.483389,2.3223403,-2.6052032,-5.4095707,7.057369,-13.526147,4.3542643,-0.43243703,-0.179263,6.5466356,3.9306798,18.343632,-31.402897,48.427383,2.6013246,6.849261,2.7090018,-1.2306207,-13.694112,22.520002,46.937614,0.31625625,0.3495428,-7.109077
64,0.7005797028541565,-0.8380661010742188,77.95011138916016,-0.5217011559324262,3.803182723932811,-85.56407171193163,2.3323002,0.9466519,6.9362493,7.412205,-15.6956835,-3.360255,2.2657216,-2.6047041,-5.3330293,7.063305,-13.55847,4.2460575,-0.40275705,-0.15818322,6.5233974,4.0290365,18.317955,-31.38735,48.430748,2.5779727,6.8510695,2.7311463,-1.2230145,-13.69166,22.383606,47.136703,0.3607067,0.39277515,-7.1198397
65,0.7514330148696899,-1.0238487720489502,77.92935180664062,-0.525543330315752,3.953393443326337,-85.60417823025226,2.322346,0.90824765,6.9452724,7.435386,-15.750326,-3.1333914,2.247818,-2.6249495,-5.28397,7.072109,-13.618506,4.138614,-0.3929529,-0.14365162,6.526429,4.1081996,18.288994,-31.366798,48.46144,2.6183155,6.8507733,2.6368186,-1.1718633,-13.686789,22.213268,47.31769,0.51125455,0.38838628,-7.157761
66,0.8121436238288879,-1.2148772478103638,77.90547943115234,-0.522724512114532,4.090287206779859,-85.62234345916094,2.2900286,0.8571282,6.924525,7.539592,-15.82556,-2.8259504,2.2564278,-2.6589344,-5.2542663,7.081659,-13.694088,4.0247126,-0.38178846,-0.12804222,6.549043,4.13884,18.236057,-31.36733,48.547646,2.70043,6.8483777,2.4734635,-1.0781088,-13.676835,21.985033,47.484127,0.7205537,0.35235766,-7.208895
67,0.8739201426506042,-1.4069167375564575,77.87857055664062,-0.5230145924768391,4.23305942838942,-85.62990726098901,2.0765288,0.8285187,6.892221,8.014989,-16.092182,-2.507432,2.2619467,-2.6910377,-5.2335052,7.0918202,-13.775098,3.9118092,-0.39568332,-0.10852398,6.5755644,4.161535,18.186209,-31.37403,48.637196,2.7812886,6.84553,2.3140128,-0.97150224,-13.666334,21.757868,47.639652,0.9449101,0.3142085,-7.276842
68,0.9303091168403625,-1.6081843376159668,77.84852600097656,-0.5365487622888202,4.400631470618402,-85.63839741296934,1.8339529,0.8188692,6.8710155,8.487898,-16.37012,-2.2491355,2.2354224,-2.7059658,-5.211112,7.1011434,-13.850159,3.807129,-0.41947994,-0.07782768,6.5866785,4.158643,18.137264,-31.421747,48.738655,2.813454,6.8431635,2.237838,-0.85783184,-13.652236,21.532373,47.78125,1.1201769,0.3030554,-7.358385
69,0.989987313747406,-1.8117179870605469,77.817626953125,-0.5723391739815974,4.607754071479499,-85.65305252550715,1.5379587,0.8434443,6.8711166,8.964579,-16.666965,-2.0715322,2.15385,-2.690681,-5.1762233,7.1070533,-13.916595,3.7054956,-0.45457703,-0.031714987,6.575042,4.124939,18.0941,-31.525333,48.853256,2.767366,6.843724,2.298287,-0.7538682,-13.632672,21.315487,47.914543,1.2324691,0.33671674,-7.4753437
70,1.0523641109466553,-1.9985533952713013,77.79029846191406,-0.6248722768859888,4.841049590471114,-85.66691355959877,1.1975543,0.89199084,6.8792152,9.46307,-16.983181,-1.9362785,2.037874,-2.6550736,-5.1370883,7.1119003,-13.981152,3.6045575,-0.49929944,0.025901794,6.5512753,4.0616884,18.055475,-31.674423,48.98407,2.6716042,6.8459525,2.4430127,-0.6472792,-13.605913,21.093075,48.038498,1.310444,0.395915,-7.6207423
71,1.114965796470642,-2.1687939167022705,77.76192474365234,-0.6808624782521907,5.077233561293924,-85.67327978157824,0.85689443,0.942719,6.8806396,9.962979,-17.303633,-1.8259174,1.9254785,-2.6189241,-5.11142,7.116896,-14.04371,3.5155299,-0.55874944,0.088082716,6.525889,3.9950616,18.023218,-31.832928,49.10724,2.5725596,6.8462305,2.58952,-0.5165133,-13.575524,20.868357,48.145752,1.3658522,0.4550277,-7.7524514
72,1.1720147132873535,-2.35722017288208,77.73267364501953,-0.7268738496520427,5.293133422428612,-85.665157063416,0.5614075,0.9732672,6.8609996,10.441546,-17.612204,-1.7234567,1.8559833,-2.602477,-5.1171823,7.120923,-14.103351,3.4496684,-0.62841046,0.1480043,6.507335,3.9363427,17.992212,-31.978168,49.21577,2.5138462,6.8409014,2.6571012,-0.3334527,-13.542306,20.631224,48.227985,1.404903,0.48798844,-7.827199
73,1.2622580528259277,-2.604675769805908,77.6936264038086,-0.7404220089817979,5.475164132704143,-85.62757803084047,0.31368783,0.95684725,6.801161,10.933864,-17.924364,-1.6203619,1.8468007,-2.6375234,-5.17565,7.1407623,-14.172552,3.4110868,-0.725362,0.19113454,6.5033307,3.9038434,17.961823,-32.09102,49.30443,2.5124931,6.8359156,2.589464,-0.0871155,-13.511894,20.384418,48.27448,1.4102873,0.49331635,-7.814211
74,1.3501884937286377,-2.843569278717041,77.64131164550781,-0.7338059529451669,5.637645725769748,-85.56838328755758,0.08503017,0.9122332,6.714274,11.455733,-18.251106,-1.5275965,1.84861,-2.7100224,-5.2704115,7.2281933,-14.278221,3.3926394,-0.84767056,0.22552645,6.508799,3.8868542,17.933107,-32.18583,49.37775,2.5438724,6.830673,2.4410536,0.20668788,-13.486854,20.13326,48.290142,1.3863522,0.48329568,-7.742556
75,1.4214396476745605,-3.0640711784362793,77.58182525634766,-0.7204543399337161,5.799973691105847,-85.51809838804516,-0.13854018,0.86101085,6.641736,11.982513,-18.584414,-1.4555057,1.7427729,-2.802445,-5.353347,7.5512238,-14.498976,3.3899233,-0.9766948,0.25478497,6.5147786,3.8753946,17.910398,-32.266758,49.420124,2.594794,6.8124313,2.2941914,0.5294568,-13.46578,19.89608,48.286163,1.3814052,0.45366377,-7.660565
76,1.4813117980957031,-3.278432846069336,77.51957702636719,-0.7057753234072847,5.980677664387864,-85.5075075325797,-0.38746446,0.81918573,6.626171,12.525937,-18.934177,-1.4143546,1.2745928,-2.9193764,-5.367138,8.569976,-15.0718155,3.3995872,-1.0558224,0.27128854,6.5089464,3.817943,17.886415,-32.384724,49.455727,2.643524,6.7684984,2.2367547,0.8805774,-13.436985,19.640032,48.27374,1.4248607,0.39896953,-7.6127124
77,1.5397963523864746,-3.4989328384399414,77.45260620117188,-0.6911571674179637,6.194737950053323,-85.54905162860301,-0.672513,0.79188246,6.6879115,13.070328,-19.303303,-1.4235688,0.70143914,-3.0284348,-5.3110394,9.686286,-15.692927,3.4158244,-1.0827601,0.26852772,6.4801445,3.7189639,17.865324,-32.52979,49.48246,2.6937566,6.701864,2.287229,1.2532508,-13.391875,19.371382,48.25679,1.5246727,0.3068219,-7.6081524
78,1.5990724563598633,-3.742816925048828,77.37940216064453,-0.6742099265259067,6.428616837593089,-85.62486712929285,-0.9788204,0.7717508,6.8019824,13.6214075,-19.68742,-1.4726342,0.046953276,-3.139358,-5.2110744,10.901958,-16.36193,3.4422731,-1.0970149,0.24963787,6.4395742,3.6171112,17.857716,-32.66423,49.47221,2.7575226,6.6177106,2.3977747,1.6400827,-13.340995,19.118557,48.233856,1.6688919,0.18380742,-7.625201
79,1.6650069952011108,-3.9728500843048096,77.30714416503906,-0.6539565692812146,6.658318840031394,-85.72012784789173,-1.292481,0.7541266,6.9406633,14.211443,-20.08928,-1.5242757,-0.6478736,-3.2550223,-5.078529,12.204131,-17.04227,3.4856074,-1.1084362,0.22102438,6.4037914,3.5137427,17.863117,-32.798157,49.416203,2.823484,6.506479,2.558624,2.0338922,-13.282019,18.894115,48.219143,1.8601443,0.05230252,-7.666609
80,1.731195092201233,-4.189276695251465,77.22687530517578,-0.6291284134499071,6.8601500835250695,-85.81998779405221,-1.5920732,0.73332405,7.0777106,14.856384,-20.502571,-1.5428822,-1.3433746,-3.379697,-4.92779,13.583641,-17.697378,3.5564985,-1.1495432,0.19060421,6.390176,3.429656,17.881798,-32.913105,49.290733,2.886678,6.3582006,2.7573297,2.4144955,-13.223175,18.738935,48.2312,2.1100817,-0.06465786,-7.7376666
81,1.8106225728988647,-4.430552959442139,77.1404800415039,-0.5945828505993341,7.0179419432924535,-85.91106949419112,-1.859358,0.7005179,7.197168,15.55868,-20.935892,-1.5075214,-1.9845214,-3.5192716,-4.7721233,14.980227,-18.324558,3.6764379,-1.2452316,0.15962669,6.410992,3.3779283,17.912397,-33.00041,49.10263,2.970628,6.150602,2.9979146,2.779559,-13.170245,18.663301,48.27247,2.4627795,-0.12027095,-7.847996
82,1.8824392557144165,-4.679541110992432,77.0535888671875,-0.5523739476420477,7.147750852556597,-86.00431578640072,-2.1045716,0.6602623,7.316708,16.298326,-21.38324,-1.442083,-2.6081161,-3.668967,-4.6033416,16.420277,-18.938723,3.8368778,-1.3732951,0.12401097,6.4543476,3.3456008,17.95563,-33.070297,48.859077,3.0709608,5.8958645,3.2846727,3.139427,-13.120896,18.645414,48.333263,2.8982782,-0.14104828,-7.992177
83,1.9447780847549438,-4.906405925750732,76.97066497802734,-0.5114219596636388,7.274605859050691,-86.12207969425381,-2.3629067,0.62605584,7.456945,17.086533,-21.831127,-1.3735906,-3.29669,-3.8142774,-4.396802,17.99166,-19.52535,3.9954107,-1.4965636,0.08419951,6.503084,3.317757,18.018297,-33.131683,48.52885,3.1396985,5.635338,3.6037774,3.496886,-13.070889,18.681652,48.406822,3.335701,-0.21340919,-8.15094
84,2.0053751468658447,-5.158437252044678,76.89202117919922,-0.47923967436495135,7.423630789287785,-86.28675770591212,-2.6636357,0.61013025,7.639906,17.921972,-22.259623,-1.3293422,-4.134897,-3.9424562,-4.1282616,19.78619,-20.068287,4.1108246,-1.5804181,0.047296114,6.539275,3.2731416,18.089455,-33.189228,48.093742,3.1334124,5.4086347,3.9419296,3.8599532,-13.032893,18.772116,48.477768,3.6980054,-0.42176422,-8.302497
85,2.0839309692382812,-5.389998435974121,76.8111801147461,-0.4595757412715198,7.612454458592227,-86.5168225002633,-3.0220916,0.6202069,7.888778,18.799915,-22.670286,-1.3148441,-5.15488,-4.0425525,-3.7784426,21.820425,-20.582949,4.176635,-1.595932,0.016122648,6.5472493,3.198012,18.164337,-33.254555,47.559067,3.0214157,5.246328,4.3201914,4.234673,-13.010407,18.931211,48.55156,3.912096,-0.8028981,-8.430106
86,2.1633121967315674,-5.609170436859131,76.73329162597656,-0.44644809010310216,7.824160592249276,-86.79640265440008,-3.4188788,0.6478765,8.186154,19.720314,-23.0704,-1.3145926,-6.3051,-4.120993,-3.365079,24.040262,-21.06671,4.2138352,-1.5673819,-0.010979126,6.538696,3.1001112,18.238337,-33.322903,46.94181,2.8347125,5.118675,4.7379694,4.617822,-13.004885,19.154442,48.630707,4.0377655,-1.3059229,-8.547658
87,2.2308359146118164,-5.839035987854004,76.65641021728516,-0.4304407539226529,8.032081425391155,-87.09638716710307,-3.830921,0.6782315,8.494423,20.690332,-23.449644,-1.3242744,-7.53556,-4.1933165,-2.9203472,26.413876,-21.470455,4.2245836,-1.5379176,-0.04087203,6.539131,3.0009723,18.319283,-33.377457,46.220596,2.6170254,4.97601,5.147153,5.006911,-13.013809,19.410618,48.691956,4.194155,-1.8842375,-8.678498
88,2.2912485599517822,-6.095761775970459,76.5745849609375,-0.40135036814886876,8.20947131456783,-87.3876749149146,-4.235219,0.6949531,8.775353,21.71593,-23.797272,-1.3384776,-8.799212,-4.2750115,-2.4746065,28.917702,-21.744322,4.2107577,-1.5466076,-0.080928944,6.5721374,2.9115653,18.408236,-33.406788,45.388268,2.412271,4.769304,5.500801,5.3996634,-13.034601,19.66309,48.71531,4.4987545,-2.4924746,-8.844162
89,2.367169141769409,-6.339562892913818,76.49700164794922,-0.3578409339506516,8.364004208698526,-87.66761382451217,-4.643365,0.6939323,9.024388,22.799536,-24.104967,-1.3526372,-10.103729,-4.3672934,-2.0343668,31.564447,-21.862864,4.1724844,-1.605238,-0.13071157,6.62829,2.8486679,18.509697,-33.404255,44.419933,2.1864135,4.4606595,5.7968793,5.7903786,-13.067387,19.916155,48.720184,5.076396,-3.1899168,-9.075444
90,2.4341418743133545,-6.583764553070068,76.42588806152344,-0.30387875043312834,8.50497167786062,-87.94981885771303,-5.059203,0.6832315,9.26007,23.932838,-24.379465,-1.369369,-11.458157,-4.457676,-1.5882939,34.345478,-21.84666,4.117551,-1.6926523,-0.18880089,6.7004857,2.8048675,18.625576,-33.37727,43.32224,1.9311976,4.084866,6.0555263,6.1825986,-13.1116085,20.184431,48.708126,5.8314195,-3.9797072,-9.346169
91,2.499460220336914,-6.833280086517334,76.34197998046875,-0.23743719683129505,8.608055722942895,-88.22918473371311,-5.4496326,0.66414666,9.479724,25.108898,-24.628632,-1.3959752,-12.813174,-4.544087,-1.1406556,37.198082,-21.713566,4.0617085,-1.7989872,-0.26282108,6.816167,2.757996,18.757608,-33.334885,42.131016,1.7284744,3.7039564,6.2633185,6.5853295,-13.1637335,20.446178,48.635864,6.552072,-4.730966,-9.596574
92,2.559265375137329,-7.063357353210449,76.24712371826172,-0.1573613738850298,8.64902228478844,-88.50071846779278,-5.780284,0.63873005,9.68296,26.3173,-24.86179,-1.4435009,-14.124178,-4.6275387,-0.69635004,40.06922,-21.4861,4.018073,-1.9123477,-0.36050457,7.0026894,2.6838443,18.9071,-33.288204,40.88382,1.6592338,3.380467,6.4087977,7.0089083,-13.218792,20.676542,48.459923,7.0266423,-5.309593,-9.775386
93,2.6221413612365723,-7.321570873260498,76.15728759765625,-0.05345439958032029,8.608925821571635,-88.77017939551813,-6.0318666,0.59583795,9.875668,27.564247,-25.06888,-1.5208402,-15.385531,-4.707666,-0.22700778,42.99176,-21.122211,4.003795,-2.0235896,-0.49676022,7.2819185,2.5844069,19.07477,-33.23824,39.57106,1.7767851,3.1166377,6.4911475,7.4543424,-13.271727,20.871769,48.165077,7.079948,-5.6430774,-9.843271
94,2.669292449951172,-7.5746283531188965,76.06267547607422,0.07000989921741096,8.504978064898653,-89.03796971469939,-6.225157,0.5376812,10.056973,28.850437,-25.248446,-1.622078,-16.6169,-4.781318,0.25760037,45.97851,-20.625128,4.012148,-2.1384716,-0.66468316,7.633889,2.4682775,19.261353,-33.18207,38.179195,2.0253494,2.8851514,6.5175085,7.9156656,-13.321571,21.040794,47.779068,6.8642263,-5.813595,-9.843266
95,2.719815492630005,-7.828678131103516,75.95567321777344,0.19256296069103665,8.367115962456461,-89.29107715574654,-6.384571,0.48451135,10.213754,30.152777,-25.419807,-1.7339538,-17.815786,-4.8489323,0.7021785,48.95362,-20.090147,4.010346,-2.2672825,-0.83779246,8.023634,2.320686,19.46771,-33.126205,36.739037,2.3220172,2.7042472,6.4885545,8.393069,-13.370883,21.178158,47.320385,6.6603346,-5.917723,-9.848843
96,2.7648675441741943,-8.076690673828125,75.83930969238281,0.2939064932970663,8.225009142994223,-89.51646018813726,-6.535317,0.4553997,10.333473,31.45082,-25.604015,-1.8436848,-18.984327,-4.916712,1.0534804,51.849236,-19.616287,3.960058,-2.4199812,-0.98869693,8.41664,2.12685,19.694082,-33.07838,35.280594,2.583621,2.5916193,6.403791,8.889397,-13.422779,21.278442,46.803616,6.7500763,-6.0512896,-9.931978
97,2.8094642162323,-8.33411979675293,75.71275329589844,0.3698477748336039,8.069875493400257,-89.70403929550298,-6.6769757,0.45154735,10.404382,32.756958,-25.806232,-1.9514594,-20.12394,-4.983227,1.3171176,54.699963,-19.204576,3.8221643,-2.602497,-1.1104296,8.8264475,1.885515,19.939362,-33.035202,33.789646,2.8126388,2.5773017,6.2242765,9.415379,-13.4784975,21.321571,46.21246,7.357938,-6.2403755,-10.1538
98,2.8416621685028076,-8.601186752319336,75.58082580566406,0.43023445639342844,7.891029415691655,-89.8629583229932,-6.796676,0.46055567,10.437376,34.072063,-26.013535,-2.0658333,-21.233755,-5.052613,1.5156178,57.528107,-18.8142,3.62215,-2.8072612,-1.2165838,9.264119,1.6029621,20.202787,-32.996914,32.25588,3.044615,2.64277,5.962187,9.97057,-13.537441,21.31542,45.54031,8.284558,-6.4371424,-10.458865
99,2.87785005569458,-8.894062042236328,75.44721221923828,0.4754363954041431,7.7162094413806495,-90.00871982452337,-6.902066,0.48255214,10.453667,35.360447,-26.220097,-2.185618,-22.321753,-5.145278,1.6240304,60.263897,-18.481964,3.4102714,-3.024868,-1.3119284,9.690491,1.2754692,20.485594,-32.97753,30.717592,3.247548,2.733489,5.6942253,10.536366,-13.60344,21.295324,44.82269,9.173679,-6.624234,-10.745358
100,2.9186151027679443,-9.181584358215332,75.30140686035156,0.5058453298331086,7.572982180107913,-90.15681729005239,-7.001107,0.51910716,10.473937,36.586575,-26.41968,-2.3105993,-23.396917,-5.2841454,1.6203314,62.83928,-18.249348,3.2323065,-3.2468827,-1.3994936,10.067461,0.9006681,20.789923,-32.99009,29.210901,3.3880928,2.7958124,5.497356,11.093536,-13.681948,21.29895,44.093777,9.671109,-6.777502,-10.913792
101,2.9398584365844727,-9.494362831115723,75.15480041503906,0.522429756841082,7.467020690495499,-90.31671710992552,-7.0865364,0.5717438,10.513877,37.73296,-26.61719,-2.4392917,-24.448757,-5.479554,1.5048823,65.24927,-18.142391,3.1409435,-3.4732013,-1.4809744,10.382316,0.49260208,21.118868,-33.0396,27.72561,3.4645476,2.8248825,5.400604,11.644217,-13.774846,21.339365,43.357166,9.5839615,-6.8842154,-10.915615
102,2.958932638168335,-9.79503059387207,75.01311492919922,0.5248327632301273,7.384062569254028,-90.47832801115707,-7.157201,0.6375699,10.5597515,38.821136,-26.81364,-2.5736215,-25.481344,-5.728514,1.2945335,67.53945,-18.142166,3.0865128,-3.7093859,-1.5533218,10.657076,0.052434728,21.47293,-33.1177,26.2418,3.4923382,2.846717,5.359719,12.197053,-13.881696,21.397999,42.594246,9.135443,-6.956998,-10.812969
103,2.985862970352173,-10.108695030212402,74.8704605102539,0.5120808445422576,7.322101664994293,-90.62742218862954,-7.2314634,0.713019,10.587245,39.877956,-26.999914,-2.7132092,-26.524204,-6.0377073,0.99193436,69.71361,-18.224316,2.9597375,-3.9554687,-1.6125332,10.905595,-0.44487205,21.848993,-33.21831,24.78603,3.4621236,2.85362,5.3422623,12.742309,-14.005175,21.46531,41.80516,8.596513,-7.007171,-10.672508
104,3.018810510635376,-10.455526351928711,74.72838592529297,0.4833530401741682,7.278946993991565,-90.74995124291043,-7.3268247,0.79493225,10.570075,40.92763,-27.165169,-2.8550308,-27.605455,-6.4104137,0.60101044,71.77059,-18.359674,2.6556354,-4.211648,-1.6543964,11.141781,-1.0261222,22.240892,-33.335323,23.388226,3.3655593,2.8373668,5.3161883,13.272235,-14.14964,21.53165,40.987663,8.238532,-7.0440063,-10.559925
105,3.035114288330078,-10.800850868225098,74.59178924560547,0.43925897403226016,7.2599834871751305,-90.83747279461207,-7.4669785,0.88378197,10.492662,41.99738,-27.303764,-3.0065513,-28.740929,-6.9028788,0.06960436,73.730804,-18.58698,2.0740588,-4.485012,-1.6779171,11.361499,-1.7065166,22.641058,-33.482803,22.085052,3.1792169,2.771435,5.3117995,13.775967,-14.317265,21.602863,40.142597,8.209919,-7.0564294,-10.520249
106,3.058626890182495,-11.137296676635742,74.44508361816406,0.38012591416120944,7.26423981455747,-90.89880621377789,-7.6366644,0.9825076,10.369865,43.06841,-27.422798,-3.1642058,-29.907413,-7.5013285,-0.58107406,75.58856,-18.911877,1.2912587,-4.773341,-1.6833557,11.5595,-2.4758732,23.045923,-33.660503,20.860893,2.9159021,2.667247,5.333839,14.264013,-14.507572,21.682095,39.2679,8.341631,-7.0431595,-10.508445
107,3.0885181427001953,-11.471600532531738,74.29998779296875,0.3045366202123714,7.279710649236682,-90.94573689976926,-7.7959204,1.0937247,10.221563,44.09995,-27.532553,-3.3096569,-31.078066,-8.09783,-1.2424839,77.2998,-19.250408,0.4755448,-5.061604,-1.6702328,11.747472,-3.3214867,23.457382,-33.84131,19.666534,2.6216562,2.5752316,5.3113008,14.759372,-14.723773,21.753025,38.35848,8.427467,-7.0267806,-10.455445
108,3.112990140914917,-11.840084075927734,74.1618423461914,0.21079641525613727,7.294766846911671,-90.99021195657771,-7.903098,1.2189959,10.06845,45.046406,-27.64091,-3.425915,-32.232044,-8.578384,-1.812933,78.81916,-19.510448,-0.20110047,-5.335332,-1.636489,11.9381075,-4.227022,23.881557,-33.99793,18.44567,2.341272,2.5467942,5.1731257,15.288186,-14.970469,21.798758,37.40388,8.262954,-7.029797,-10.291412
109,3.123427152633667,-12.216355323791504,74.02708435058594,0.0994969782253779,7.307410654722477,-91.03951331223303,-7.961163,1.358867,9.917215,45.920734,-27.746986,-3.4908197,-33.37985,-8.912701,-2.27397,80.141655,-19.667204,-0.71152234,-5.591104,-1.5835644,12.139062,-5.184093,24.320147,-34.112804,17.196451,2.085144,2.6003182,4.847196,15.855168,-15.247891,21.79868,36.423275,7.703449,-7.0781217,-9.942204
110,3.1382997035980225,-12.611026763916016,73.89990234375,-0.029329009373149476,7.323398815342613,-91.08610300546444,-7.9871845,1.5128404,9.756413,46.737362,-27.846294,-3.5197096,-34.531307,-9.154279,-2.684466,81.28834,-19.764103,-1.1351212,-5.8368206,-1.5108869,12.343092,-6.19984,24.773493,-34.20581,15.939313,1.8296773,2.7083948,4.3891973,16.451698,-15.556025,21.764915,35.409184,6.8891206,-7.1579123,-9.463697
111,3.1364355087280273,-13.007065773010254,73.77662658691406,-0.17827877605753598,7.343123925677129,-91.119902602696,-7.9639525,1.681747,9.579826,47.46178,-27.946697,-3.5519936,-35.67102,-9.312643,-3.061974,82.25724,-19.80543,-1.4575329,-6.0733166,-1.4140368,12.5418825,-7.2827616,25.249237,-34.31075,14.647765,1.5654671,2.8539753,3.9196405,17.085419,-15.902906,21.725906,34.30708,6.043414,-7.2287083,-8.980112
112,3.13045072555542,-13.42016315460205,73.65887451171875,-0.34997192591752274,7.366854032129661,-91.13079836488673,-7.8741107,1.8665967,9.381436,48.057953,-28.055126,-3.6266224,-36.781376,-9.398669,-3.4234748,83.0432,-19.798512,-1.6656189,-6.3027825,-1.2884564,12.729325,-8.436107,25.759401,-34.460316,13.284627,1.2806371,3.0193133,3.558499,17.768322,-16.299763,21.711626,33.0527,5.3905644,-7.2425213,-8.61297
113,3.1271800994873047,-13.85051155090332,73.55086517333984,-0.5411145292089069,7.389082660339391,-91.12085466087122,-7.714561,2.0629222,9.161505,48.53473,-28.184904,-3.75876,-37.869427,-9.387246,-3.7467692,83.64775,-19.73563,-1.7135078,-6.517817,-1.1392245,12.918483,-9.6676445,26.312447,-34.675556,11.817576,0.98718,3.1999884,3.3475528,18.51127,-16.756727,21.73219,31.6034,5.0215416,-7.174277,-8.417441
114,3.1295816898345947,-14.295655250549316,73.44908905029297,-0.7518390249428943,7.411648387853783,-91.09400295771474,-7.495451,2.2732875,8.92293,48.907375,-28.329592,-3.9254029,-38.94269,-9.278647,-4.0347695,84.07082,-19.6141,-1.618687,-6.7210946,-0.9665668,13.112351,-10.966536,26.909554,-34.93918,10.253332,0.68106985,3.4051046,3.219713,19.317759,-17.275656,21.765724,29.980375,4.809288,-7.0483246,-8.317974
115,3.119523048400879,-14.765538215637207,73.35884857177734,-0.9890686790633285,7.446342799327635,-91.04273207779771,-7.2184567,2.5098076,8.663271,49.14742,-28.46556,-4.108323,-39.98558,-9.122956,-4.3394055,84.31,-19.446358,-1.4633459,-6.9296503,-0.7593251,13.289697,-12.305498,27.551641,-35.22601,8.612027,0.32909167,3.636618,3.1315532,20.188583,-17.853167,21.794872,28.217672,4.6510425,-6.8875093,-8.239741
116,3.097752332687378,-15.252622604370117,73.2853775024414,-1.2596948788000537,7.504975631130309,-90.95969162830788,-6.88615,2.7841291,8.380359,49.229176,-28.570848,-4.289405,-40.98061,-8.971142,-4.7117085,84.36146,-19.244444,-1.3308231,-7.1593394,-0.5080198,13.428415,-13.659712,28.240755,-35.511127,6.9177017,-0.10147246,3.897044,3.0403156,21.118216,-18.484781,21.802462,26.359299,4.4424543,-6.71756,-8.10805
117,3.0643320083618164,-15.756538391113281,73.23326110839844,-1.5725152446704915,7.5838281214470715,-90.83467092813221,-6.5083346,3.1065044,8.058915,49.180508,-28.672266,-4.463728,-41.93307,-8.820253,-5.1645045,84.22716,-19.008083,-1.2236943,-7.412319,-0.20837784,13.538136,-15.0699625,28.980608,-35.81467,5.164334,-0.69198996,4.198153,2.9513044,22.112911,-19.173567,21.79654,24.377604,4.1802616,-6.546079,-7.9017158
118,3.0359160900115967,-16.293874740600586,73.21056365966797,-1.92131877388587,7.679472433580789,-90.67458593478598,-6.081035,3.4697578,7.7059283,49.00432,-28.771276,-4.640568,-42.847965,-8.64888,-5.6698093,83.90569,-18.731424,-1.1031852,-7.680252,0.13247013,13.627535,-16.531252,29.771748,-36.146553,3.3340225,-1.401095,4.534922,2.8851001,23.180101,-19.920738,21.776796,22.255806,3.9118454,-6.3594456,-7.659593
119,3.015475273132324,-16.847488403320312,73.2072982788086,-2.2902998225318303,7.804152322007858,-90.49813480773253,-5.584942,3.8584461,7.352618,48.63512,-28.806208,-4.8224926,-43.708496,-8.481582,-6.2171464,83.389854,-18.419044,-0.9920324,-7.9655643,0.50924563,13.671529,-17.96064,30.61287,-36.46233,1.4455503,-2.0834455,4.8849993,2.819809,24.315378,-20.71155,21.720484,20.053507,3.6088896,-6.1503024,-7.398633
120,2.9721755981445312,-17.455242156982422,73.24411010742188,-2.6634318596155215,7.9698238021655206,-90.32423421976796,-4.999791,4.257028,7.0300064,48.00621,-28.714743,-5.0118046,-44.496716,-8.340617,-6.7949314,82.67192,-18.07311,-0.9113934,-8.269927,0.91481704,13.643449,-19.267483,31.503757,-36.710915,-0.48275733,-2.5857964,5.226283,2.730288,25.503565,-21.522692,21.607054,17.84475,3.240485,-5.9128838,-7.1372733
121,2.9206807613372803,-18.093687057495117,73.3128890991211,-3.0526827053733365,8.182601341557406,-90.13949062644362,-4.3266873,4.690179,6.7385163,47.109978,-28.540892,-5.2217436,-45.210224,-8.253507,-7.4445577,81.74734,-17.729853,-0.87090874,-8.60142,1.3614457,13.534713,-20.478403,32.453087,-36.894497,-2.4526815,-2.8529482,5.583142,2.5921872,26.743721,-22.344599,21.42937,15.633015,2.739111,-5.6240907,-6.8702717
122,2.8813886642456055,-18.77669906616211,73.41187286376953,-3.4601714227406615,8.435509632202212,-89.94100334763168,-3.5741205,5.1579757,6.4653163,45.98125,-28.299301,-5.4444175,-45.856453,-8.196096,-8.154146,80.61962,-17.371798,-0.8527417,-8.953573,1.8453089,13.360171,-21.623856,33.466713,-37.033978,-4.4744716,-2.9703999,5.956743,2.4220352,28.035906,-23.175629,21.198149,13.3971405,2.136615,-5.297225,-6.590428
123,2.825986862182617,-19.490129470825195,73.55047607421875,-3.8558697109121276,8.71995361403071,-89.76254679910443,-2.7332914,5.6086397,6.219992,44.6189,-27.886171,-5.6529837,-46.42494,-8.1201515,-8.845741,79.290474,-16.941122,-0.8538276,-9.30652,2.3357015,13.124972,-22.62478,34.53894,-37.101048,-6.527687,-2.9977517,6.2903914,2.2537389,29.35645,-24.000486,20.92369,11.187205,1.5495642,-4.9809566,-6.3170066
124,2.767597198486328,-20.239971160888672,73.72734832763672,-4.2095345296072075,9.026731227751542,-89.6375592712652,-1.7946402,5.9881763,6.0107646,43.018696,-27.195726,-5.8218904,-46.908913,-7.977784,-9.438157,77.76478,-16.374878,-0.8702416,-9.640557,2.8001924,12.831039,-23.402369,35.65812,-37.064144,-8.58021,-2.992307,6.527501,2.121252,30.671219,-24.796526,20.62149,9.067721,1.0922418,-4.7227635,-6.0733194
125,2.7195143699645996,-21.038944244384766,73.94053649902344,-4.515728210860244,9.366709905730824,-89.5850234479853,-0.72789395,6.268316,5.829409,41.098885,-26.23905,-5.928,-47.33377,-7.774797,-9.922111,76.055626,-15.64799,-0.97394896,-9.938919,3.2341216,12.449726,-23.966768,36.821472,-36.919476,-10.60049,-2.9384117,6.6556864,2.0374656,31.964655,-25.553305,20.300177,7.073058,0.78455985,-4.533944,-5.8746934
126,2.6623921394348145,-21.88956069946289,74.18527221679688,-4.788407105216476,9.739013370846374,-89.58434692601138,0.4514727,6.4799066,5.6739683,38.894184,-25.063639,-5.990389,-47.692398,-7.5284457,-10.335034,74.15711,-14.797853,-1.1425927,-10.211477,3.6500554,11.985419,-24.332476,38.03025,-36.672115,-12.606833,-2.8041754,6.703191,1.9811853,33.241486,-26.267937,19.956902,5.185622,0.5637826,-4.3891897,-5.709383
127,2.5966761112213135,-22.77018165588379,74.45797729492188,-5.025532106137849,10.116707928693877,-89.60883892465789,1.6791161,6.654423,5.560398,36.582787,-23.622414,-6.0484138,-47.92703,-7.209125,-10.661854,72.03592,-13.858489,-1.2337759,-10.477816,4.0390277,11.488618,-24.521833,39.276417,-36.32324,-14.573121,-2.6766515,6.6781287,1.9368281,34.485493,-26.927864,19.592508,3.4040926,0.42224893,-4.2808185,-5.562769
128,2.5265939235687256,-23.690383911132812,74.76089477539062,-5.224122638774347,10.472713213631396,-89.63137970810453,2.8904748,6.8208776,5.5029993,34.340378,-21.865171,-6.14175,-47.98067,-6.7894554,-10.880107,69.65687,-12.862972,-1.1051997,-10.755794,4.390511,11.007316,-24.4803,40.542706,-35.855965,-16.520666,-2.5945494,6.5882874,1.8894609,35.67695,-27.512981,19.208952,1.7362512,0.34956378,-4.201679,-5.4202175
129,2.4552485942840576,-24.639545440673828,75.08394622802734,-5.372466390364917,10.802489673120236,-89.65908490024464,4.113944,6.9753485,5.5458446,32.128056,-19.725609,-6.2640715,-47.837486,-6.262912,-10.954284,66.97589,-11.83265,-0.73657537,-11.032569,4.689456,10.536719,-24.203972,41.81583,-35.260056,-18.420694,-2.5534902,6.408123,1.813989,36.813663,-28.00624,18.795755,0.2006648,0.37748358,-4.156848,-5.270761
130,2.3738319873809814,-25.61986541748047,75.42497253417969,-5.469347592627459,11.117272996822614,-89.7016866376079,5.361244,7.091606,5.663759,29.897655,-17.25715,-6.3997693,-47.521534,-5.6543174,-10.885777,64.0179,-10.748191,-0.20465477,-11.297116,4.9341364,10.053396,-23.727098,43.087242,-34.54598,-20.246094,-2.535435,6.1427255,1.726191,37.890266,-28.401592,18.365137,-1.1909348,0.4928921,-4.1480145,-5.125164
131,2.2918901443481445,-26.631107330322266,75.77493286132812,-5.525614361188705,11.414025397442535,-89.7351945838892,6.5435395,7.168681,5.76178,27.809795,-14.585043,-6.5745587,-47.037975,-4.985048,-10.700751,60.846428,-9.578551,0.49141958,-11.562514,5.134869,9.572161,-23.026016,44.347034,-33.723873,-22.048416,-2.5477412,5.8459654,1.6704111,38.882385,-28.69897,17.946417,-2.43616,0.62135124,-4.163395,-5.001276
132,2.1896681785583496,-27.65083885192871,76.13189697265625,-5.559655498656168,11.690616626572966,-89.73582315494643,7.5806055,7.221725,5.74096,26.006462,-11.825406,-6.8178463,-46.388657,-4.268235,-10.433159,57.510708,-8.285796,1.3537048,-11.85245,5.305956,9.117628,-22.185747,45.57875,-32.83067,-23.794353,-2.6416614,5.5708723,1.6941206,39.757305,-28.905363,17.57437,-3.5370152,0.6897658,-4.1917386,-4.916618
133,2.074281930923462,-28.69216537475586,76.4877700805664,-5.57733144242124,11.955320219925547,-89.68484710742356,8.442524,7.263514,5.5547805,24.500868,-8.853884,-7.1746073,-45.527916,-3.4925463,-10.083707,53.887104,-6.771834,2.4361422,-12.183179,5.4598074,8.684836,-21.167904,46.76544,-31.843426,-25.486801,-2.8375401,5.3131385,1.7945262,40.522934,-29.012985,17.251925,-4.47779,0.6927181,-4.243259,-4.8919477
134,1.9743708372116089,-29.758563995361328,76.82373046875,-5.563085777751286,12.204816923052375,-89.59610964991536,9.181215,7.2832327,5.239529,23.21776,-5.65829,-7.6368437,-44.454372,-2.6699784,-9.612029,49.968925,-5.0837426,3.715568,-12.534366,5.580449,8.261739,-19.970951,47.896458,-30.762938,-27.114222,-3.1077101,5.050273,1.9508379,41.18896,-29.017582,16.965288,-5.258868,0.66432804,-4.319717,-4.9121637
135,1.8740571737289429,-30.84248924255371,77.14004516601562,-5.503768509111803,12.421421971308765,-89.49052738729894,9.839979,7.263144,4.8247323,22.157984,-2.506501,-8.15221,-43.239388,-1.8508548,-9.00513,45.980747,-3.3996756,5.0798984,-12.873237,5.647805,7.855306,-18.67045,48.96454,-29.654198,-28.665403,-3.3938293,4.807846,2.1828685,41.759193,-28.93657,16.711185,-5.930707,0.58786935,-4.3969097,-4.9415035
136,1.7694594860076904,-31.931236267089844,77.43154907226562,-5.391901221405866,12.58865000078398,-89.38984168099499,10.463094,7.188188,4.3565216,21.314947,0.34367865,-8.65175,-41.96507,-1.0831575,-8.271042,42.166603,-1.8965917,6.4157443,-13.16494,5.652408,7.4694314,-17.314318,49.965893,-28.575928,-30.156796,-3.627519,4.6119084,2.5101085,42.23534,-28.798023,16.48426,-6.542113,0.45983836,-4.450378,-4.944959
137,1.6641631126403809,-33.023277282714844,77.6833267211914,-5.222510822532019,12.698869085049806,-89.28882277784341,11.077557,7.044437,3.829467,20.629354,2.9456313,-9.162122,-40.614296,-0.32473332,-7.3135595,38.473232,-0.64029515,7.748348,-13.419396,5.5939827,7.1049128,-15.927694,50.89539,-27.549204,-31.575567,-3.80592,4.5053744,2.975817,42.641624,-28.621063,16.276463,-7.114018,0.27203593,-4.467135,-4.9161773
138,1.5733673572540283,-34.128292083740234,77.88656616210938,-4.998495718943576,12.76111317060001,-89.17417715990676,11.675968,6.8331237,3.224417,20.076801,5.4237967,-9.70935,-39.14417,0.40104187,-6.1727557,34.800426,0.46779537,9.107082,-13.653905,5.481726,6.7559834,-14.484341,51.746616,-26.54976,-32.9188,-3.9552855,4.462534,3.5568862,42.98433,-28.407215,16.087376,-7.6339073,0.04097758,-4.461526,-4.8741436
139,1.476678490638733,-35.24052047729492,78.04483795166016,-4.73592860780254,12.788477639665437,-89.05848049912683,12.231602,6.5772877,2.5892537,19.730856,7.6255565,-10.201432,-37.617302,0.98432297,-5.086273,31.327774,1.5027472,10.398709,-13.85411,5.3267407,6.4234076,-13.0107975,52.514477,-25.582129,-34.170574,-4.0660477,4.406539,4.1744823,43.260746,-28.16123,15.917777,-8.12701,-0.21892597,-4.450149,-4.8211184
140,1.3801612854003906,-36.333744049072266,78.14915466308594,-4.45973387688083,12.79757135300715,-88.95847330594866,12.710198,6.3129106,1.9874054,19.67186,9.393206,-10.536477,-36.1233,1.3564302,-4.2995024,28.257069,2.5411937,11.546892,-13.999593,5.1496696,6.1055946,-11.534203,53.193096,-24.654774,-35.3177,-4.1261272,4.2612996,4.7506304,43.46517,-27.888874,15.767134,-8.614434,-0.48992732,-4.4494967,-4.759545
141,1.2908060550689697,-37.4245491027832,78.20915222167969,-4.15901697507,12.786528537378153,-88.8846402035998,13.109433,6.0467787,1.4906714,19.935015,10.633727,-10.626266,-34.632698,1.5252997,-3.880456,25.493547,3.8545752,12.81756,-14.076238,4.9431906,5.794788,-10.074368,53.7809,-23.79229,-36.341705,-4.152175,3.961503,5.317898,43.62472,-27.592236,15.621985,-9.1111765,-0.805866,-4.456547,-4.67333
142,1.2077901363372803,-38.518280029296875,78.21134948730469,-3.836529072061318,12.75394006217187,-88.82927641467666,13.438426,5.774518,1.0686195,20.471352,11.457479,-10.529488,-33.145996,1.5721773,-3.7075756,22.998583,5.321426,14.178847,-14.094433,4.712381,5.490278,-8.639496,54.276306,-23.005468,-37.240562,-4.1400423,3.5644457,5.8990664,43.738136,-27.271862,15.482645,-9.607208,-1.162037,-4.465081,-4.56695
143,1.1100590229034424,-39.59197235107422,78.16836547851562,-3.599822416218525,12.716549805754271,-88.80384993562326,13.649885,5.5892105,0.6426287,21.31823,11.95829,-10.377349,-31.776606,1.6085547,-3.827403,21.013695,6.459504,15.000033,-14.050179,4.5535636,5.2122035,-7.213177,54.673447,-22.270475,-38.048542,-4.04366,3.178168,6.400866,43.759384,-26.931082,15.370778,-10.084556,-1.483099,-4.486175,-4.4750967
144,1.0110456943511963,-40.659690856933594,78.08267211914062,-3.432099348853353,12.715270423659105,-88.78064062059575,13.71863,5.438158,0.1181846,22.374022,12.320169,-10.256344,-30.780897,1.5959221,-4.126683,20.037727,6.6581388,15.000033,-13.978966,4.4618607,4.9361863,-5.790559,54.961483,-21.562592,-38.787468,-3.823739,2.9104033,6.7308598,43.62628,-26.579044,15.309074,-10.513765,-1.6897186,-4.5306773,-4.432024
145,0.9120060205459595,-41.706573486328125,77.9639663696289,-3.4018052857959846,12.776945816291535,-88.77741364633248,13.573383,5.4052405,-0.56058306,23.741982,12.461517,-10.146781,-30.267788,1.567685,-4.801356,20.347363,5.6101317,13.481112,-13.871076,4.507925,4.643569,-4.3651047,55.13278,-20.873102,-39.465977,-3.4214032,2.805794,6.8065076,43.33555,-26.222012,15.302715,-10.890312,-1.7315018,-4.6119576,-4.4320416
146,0.8038082122802734,-42.702857971191406,77.8394546508789,-3.523786131351577,12.868179297906071,-88.81092663856202,13.248659,5.5368314,-1.3327589,25.460402,12.305684,-10.008514,-30.067776,1.5899146,-5.8153844,21.609451,3.7184908,10.823103,-13.709216,4.700371,4.362944,-2.940752,55.188416,-20.218721,-40.074326,-2.8721297,2.7998815,6.6907153,42.92009,-25.863253,15.336991,-11.233427,-1.6588076,-4.71997,-4.4629498
147,0.6973170638084412,-43.73276901245117,77.6558609008789,-3.711611596954473,12.934111646945794,-88.85405839820072,12.871785,5.7427683,-2.119546,27.353033,12.028249,-9.909019,-30.00626,1.668898,-6.8282223,23.385963,1.4381531,7.9523263,-13.516021,4.9479923,4.1459107,-1.5308082,55.129868,-19.616081,-40.603172,-2.2803175,2.8370805,6.510326,42.37769,-25.50889,15.40318,-11.552117,-1.5432624,-4.8304267,-4.549607
148,0.6149439811706543,-44.774715423583984,77.39749908447266,-3.927005322034634,12.92218199795975,-88.89733206855756,12.539836,5.9807167,-2.8306775,29.31838,11.764736,-9.936417,-29.874012,1.838905,-7.5935783,25.147175,-0.754578,5.741628,-13.297914,5.2035637,4.0512733,-0.13027033,54.960026,-19.073057,-41.05347,-1.7461948,2.8646703,6.393392,41.7096,-25.165176,15.493733,-11.858878,-1.4576344,-4.9188895,-4.7178793
149,0.5399523377418518,-45.80864715576172,77.10059356689453,-4.1694670378770216,12.824491030105339,-88.91917068897746,12.269043,6.2347665,-3.4950566,31.355501,11.572098,-10.188155,-29.615948,2.0750575,-8.093394,26.811735,-2.906826,4.4057517,-13.071301,5.469913,4.0831776,1.2560087,54.68223,-18.608585,-41.439854,-1.318822,2.87778,6.379899,40.932243,-24.83408,15.617032,-12.169882,-1.3848811,-4.9861293,-5.0353174
150,0.46100056171417236,-46.78665542602539,76.7877426147461,-4.452002003578034,12.666428576941307,-88.93154706570415,11.988826,6.5381813,-4.145044,33.549023,11.354787,-10.582002,-29.337013,2.356165,-8.448929,28.625734,-5.221385,3.4880898,-12.828334,5.7645974,4.212272,2.634853,54.29832,-18.217201,-41.767178,-0.933791,2.9020786,6.399935,40.046734,-24.514462,15.769838,-12.48109,-1.297068,-5.0433745,-5.468906
151,0.34741148352622986,-47.707122802734375,76.47496795654297,-4.774781774941323,12.452794275774249,-88.98318058331965,11.659852,6.928471,-4.687026,35.930958,11.015441,-10.951669,-29.077808,2.7131252,-8.676311,30.556581,-7.477578,2.8439524,-12.537599,6.082842,4.446918,4.004439,53.808372,-17.86942,-42.00122,-0.533869,2.9319947,6.416863,39.015274,-24.210207,15.93071,-12.764826,-1.2475599,-5.081289,-5.893374
152,0.25285327434539795,-48.63783645629883,76.1441421508789,-5.138587882802832,12.187537874205223,-89.12198956326496,11.252968,7.4345956,-5.0289345,38.52269,10.462159,-11.139426,-28.876837,3.1751266,-8.789919,32.57032,-9.450795,2.3283813,-12.168834,6.42195,4.7946677,5.401663,53.21034,-17.520168,-42.138554,-0.05006293,2.9614937,6.3942504,37.80295,-23.928286,16.076698,-12.997956,-1.2886436,-5.0887227,-6.1835303
153,0.1755465865135193,-49.556575775146484,75.7926025390625,-5.57433793628433,11.83630515933945,-89.40597460171814,10.834333,8.081546,-5.0852203,41.345963,9.633457,-11.139165,-28.779148,3.7910109,-8.7374115,34.777664,-11.057063,1.9641297,-11.682945,6.806195,5.308122,6.8274074,52.498394,-17.139639,-42.184067,0.4537653,2.937833,6.329386,36.383038,-23.67961,16.187916,-13.182186,-1.455549,-5.042188,-6.241645
154,0.12506753206253052,-50.43057632446289,75.42613220214844,-6.072318644670353,11.408189174350557,-89.79477303359302,10.4042635,8.841346,-4.9289703,44.383724,8.585807,-11.03445,-28.754648,4.4968805,-8.535367,37.180443,-12.43902,1.7960372,-11.118401,7.243006,5.964387,8.268979,51.67172,-16.746912,-42.141,0.9628183,2.8796866,6.236756,34.775826,-23.468382,16.282944,-13.332151,-1.7081907,-4.9537263,-6.157501
155,0.07234235107898712,-51.305110931396484,75.05177307128906,-6.572739653520735,10.97309932126641,-90.18889789168252,9.84524,9.656509,-4.7107124,47.584263,7.408452,-10.806795,-28.728598,5.175591,-8.301444,39.568993,-13.701755,1.7181203,-10.551381,7.697205,6.6575775,9.874017,50.73039,-16.352959,-42.104618,1.6837845,2.8878036,6.1124196,33.028015,-23.281796,16.395378,-13.447537,-1.9892083,-4.86809,-6.0877414
156,0.020227989181876183,-52.149085998535156,74.6776123046875,-7.018209767500688,10.602189573267825,-90.49033416500177,9.035573,10.472165,-4.584309,50.893715,6.193134,-10.432891,-28.625896,5.740835,-8.160006,41.71308,-14.939909,1.6397983,-10.090907,8.131366,7.3014555,11.253211,49.705467,-16.058796,-41.740074,2.569683,3.0598345,5.925205,31.144714,-23.114492,16.583855,-13.502952,-2.2539644,-4.8275304,-6.1879425
157,-0.027904747053980827,-52.99775695800781,74.31320190429688,-7.409106581799669,10.314884937345258,-90.67864871947174,7.9178495,11.2681055,-4.628284,54.388954,4.933778,-9.865381,-28.452751,6.2073584,-8.177891,43.580643,-16.159702,1.5632257,-9.73412,8.519379,7.88233,12.747895,48.585495,-15.82983,-41.261124,3.838996,3.383236,5.7170196,29.086168,-22.946552,16.901093,-13.430157,-2.407699,-4.8642793,-6.585367
158,-0.06476747244596481,-53.81039810180664,73.95343780517578,-7.7732458109988185,10.07455357389085,-90.80595936247323,6.5706387,12.059189,-4.760493,58.065716,3.5917726,-9.1386,-28.244764,6.6312337,-8.290445,45.280952,-17.312822,1.5336097,-9.439443,8.882293,8.449988,14.309953,47.37098,-15.651648,-40.661636,5.38796,3.8146644,5.470514,26.841953,-22.774231,17.314058,-13.245487,-2.5102563,-4.9476085,-7.167422
159,-0.09644056856632233,-54.626094818115234,73.62261962890625,-8.096521870585494,9.869442860533983,-90.88373253852251,5.06768,12.856074,-4.8943596,61.750187,2.210751,-8.342332,-27.966793,7.005102,-8.428545,46.78001,-18.40408,1.5334603,-9.168589,9.234094,8.981815,15.818699,46.09155,-15.552782,-39.969654,7.103914,4.407679,5.120847,24.540499,-22.594858,17.697031,-13.085729,-2.7208169,-5.0259748,-7.7288275
160,-0.12229519337415695,-55.44916915893555,73.31270599365234,-8.365538455591377,9.687517831720493,-90.92315834424865,3.4803178,13.685975,-4.940754,65.26833,0.8316325,-7.558105,-27.583805,7.3170257,-8.52004,48.046307,-19.440073,1.5433595,-8.873788,9.584629,9.451863,17.172384,44.791595,-15.565473,-39.23259,8.886134,5.213678,4.6119046,22.31401,-22.404886,17.919527,-13.088055,-3.196273,-5.04757,-8.061517
161,-0.1403205543756485,-56.259822845458984,73.02838897705078,-8.576829666386706,9.537141604943482,-90.88754382250823,1.7774711,14.609014,-4.8857837,68.65404,-0.5322686,-6.797117,-27.0972,7.54248,-8.582544,49.08864,-20.437449,1.5641919,-8.569137,9.93487,9.853128,18.35808,43.48995,-15.711533,-38.452812,10.82065,6.436583,3.87931,20.170738,-22.19362,17.93636,-13.269021,-4.0955315,-5.014338,-8.033178
162,-0.15229149162769318,-57.069236755371094,72.7880859375,-8.739905401761984,9.421614643967231,-90.78503469381567,-0.06285157,15.607357,-4.783014,71.978325,-1.9096979,-6.009728,-26.52064,7.7028146,-8.648336,49.91316,-21.387894,1.6027935,-8.253815,10.270867,10.194237,19.414223,42.191353,-15.983919,-37.59811,12.936105,7.9701133,2.9492276,18.046114,-21.95683,17.817678,-13.552098,-5.2981963,-4.955707,-7.7736735
163,-0.14486567676067352,-57.90053176879883,72.58807373046875,-8.861184230986488,9.321253620831245,-90.69362472527091,-1.9602958,16.593952,-4.637077,75.130394,-3.3218734,-5.188224,-25.842539,7.8444633,-8.662894,50.49806,-22.257818,1.647349,-7.866472,10.579737,10.473107,20.34831,40.923916,-16.344822,-36.688305,15.033676,9.407125,1.9348704,15.955425,-21.703718,17.617949,-13.924172,-6.537446,-4.859036,-7.470076
164,-0.11714690923690796,-58.7430419921875,72.42355346679688,-8.945725631832582,9.21655043572086,-90.69083743952991,-3.8312075,17.47054,-4.44126,77.99388,-4.783133,-4.335582,-25.05123,8.006646,-8.566769,50.8235,-23.016258,1.6872041,-7.348779,10.847201,10.6910305,21.187374,39.729576,-16.73866,-35.771847,16.880245,10.358023,0.9972041,13.927371,-21.448332,17.392567,-14.395214,-7.5417833,-4.701889,-7.31185
165,-0.10317078232765198,-59.595149993896484,72.31439971923828,-9.00249367429953,9.098248302147745,-90.81571568964173,-5.6624866,18.237093,-4.1545258,80.57915,-6.3227596,-3.420221,-24.139486,8.20978,-8.326781,50.878784,-23.673687,1.7165309,-6.6690845,11.078879,10.852502,21.946852,38.63896,-17.144653,-34.84777,18.40937,10.714509,0.22233045,11.951925,-21.19128,17.16634,-15.005571,-8.268405,-4.423201,-7.3902593
166,-0.07734182476997375,-60.45438003540039,72.25343322753906,-9.02315619260468,8.978610463737061,-91.01923376536583,-7.4876885,18.925379,-3.7817008,82.93253,-7.9164767,-2.4637764,-23.113047,8.417,-7.9758463,50.6785,-24.242327,1.7420573,-5.8655887,11.269785,10.957481,22.650066,37.65748,-17.563694,-33.939064,19.707859,10.703295,-0.44178426,10.021478,-20.925514,16.913784,-15.746811,-8.845349,-4.0496426,-7.5926437
167,-0.0445372499525547,-61.31629180908203,72.24370574951172,-8.993604026399394,8.87008009215275,-91.25128090676479,-9.301014,19.486742,-3.3721085,84.99876,-9.499718,-1.5541772,-21.99081,8.583935,-7.5535545,50.25301,-24.69595,1.7747828,-4.984177,11.396446,11.005223,23.344252,36.785904,-17.967396,-33.132988,20.76246,10.449321,-1.0251163,8.165444,-20.657553,16.615988,-16.550886,-9.255559,-3.6863856,-7.8061357
168,-0.012739762663841248,-62.19005584716797,72.28231811523438,-8.900882492249622,8.785260903377193,-91.46192018913182,-11.101737,19.875175,-2.970215,86.72228,-11.005207,-0.77625346,-20.78999,8.668912,-7.1016197,49.62731,-25.00568,1.826516,-4.076105,11.436956,11.000792,24.083267,36.02242,-18.320528,-32.5202,21.564714,10.074219,-1.5680091,6.412759,-20.404018,16.258625,-17.357384,-9.480235,-3.4403472,-7.921069
169,0.01806579902768135,-63.0868034362793,72.37250518798828,-8.750460287719703,8.732926704764033,-91.67897675200533,-12.911912,20.100763,-2.5475693,88.10723,-12.458844,-0.15202293,-19.536926,8.680459,-6.6012816,48.816933,-25.191677,1.9003116,-3.1170807,11.39114,10.938462,24.89625,35.37416,-18.59469,-32.154648,22.04819,9.491333,-2.1087613,4.738524,-20.179657,15.83416,-18.153996,-9.463746,-3.368622,-7.8776727
170,0.08096753805875778,-64.02312469482422,72.52315521240234,-8.547345850306632,8.70522936019425,-91.9153859346548,-14.7242,20.18185,-2.0727293,89.17239,-13.870859,0.36092052,-18.218088,8.628635,-6.043435,47.807568,-25.257921,1.9947697,-2.0966291,11.27005,10.827163,25.763023,34.843163,-18.806087,-31.995678,22.230171,8.6839,-2.618282,3.1392891,-19.986345,15.357833,-18.981558,-9.227876,-3.404822,-7.7513857
171,0.11795809119939804,-64.96456909179688,72.72408294677734,-8.2782413045437,8.68839242217306,-92.0986561755757,-16.49694,20.086329,-1.581099,89.882324,-15.148235,0.7783658,-16.78881,8.477548,-5.487034,46.573685,-25.158834,2.1145463,-1.0862699,11.069918,10.695681,26.658537,34.41246,-18.988539,-31.989155,22.239864,7.8749866,-3.0436544,1.6768914,-19.823275,14.845979,-19.86507,-8.871569,-3.4716415,-7.63336
172,0.16118401288986206,-65.88648223876953,72.96453094482422,-7.930279857289558,8.667949920466153,-92.15652680808873,-18.18759,19.78021,-1.1073203,90.19984,-16.197954,1.1164883,-15.203236,8.194264,-4.9930253,45.087425,-24.846647,2.2620964,-0.15798992,10.790652,10.571372,27.546318,34.054043,-19.179445,-32.069836,22.21638,7.283653,-3.3318424,0.41790217,-19.690859,14.311822,-20.83399,-8.49685,-3.492227,-7.613393
173,0.216519296169281,-66.8549575805664,73.26017761230469,-7.496455318713774,8.631545422700603,-92.06391500788533,-19.800888,19.214539,-0.67143506,90.11059,-16.969046,1.3620598,-13.414052,7.766233,-4.5653043,43.292965,-24.352219,2.436897,0.67288834,10.436182,10.466207,28.41196,33.75095,-19.391975,-32.243668,22.207064,6.988866,-3.480741,-0.60852724,-19.590727,13.745244,-21.933212,-8.152951,-3.4156833,-7.7545295
174,0.2806502878665924,-67.87167358398438,73.61604309082031,-6.9873784545352375,8.58680398389686,-91.86180409597051,-21.346922,18.421022,-0.23467961,89.62546,-17.512754,1.5097072,-11.460563,7.2153115,-4.1877704,41.22136,-23.68626,2.640591,1.4422057,10.012792,10.366959,29.257275,33.500084,-19.610943,-32.51505,22.147644,6.8653493,-3.5222201,-1.4377391,-19.527802,13.141362,-23.142164,-7.780181,-3.2937174,-7.995339
175,0.3649403154850006,-68.94243621826172,74.01869201660156,-6.416504918862039,8.548700283323724,-91.57682576589326,-22.787964,17.483522,0.25189292,88.746475,-17.894058,1.5847002,-9.429963,6.5632453,-3.8901489,38.984154,-22.777298,2.8752856,2.155188,9.525654,10.264385,30.072878,33.29161,-19.831264,-32.8147,22.013796,6.82352,-3.450547,-2.0916567,-19.508366,12.517938,-24.390108,-7.3169856,-3.2037203,-8.239872
176,0.45995432138442993,-70.02760314941406,74.45317840576172,-5.797239286100754,8.532595403497226,-91.23489478065387,-24.087902,16.48414,0.8316344,87.47759,-18.179928,1.6103474,-7.40808,5.8353567,-3.6968946,36.69473,-21.555124,3.1395566,2.815002,8.980893,10.149141,30.845707,33.11056,-20.04894,-33.07069,21.783077,6.773044,-3.261092,-2.5911446,-19.539251,11.893769,-25.608992,-6.7022023,-3.2221544,-8.39108
177,0.5471653938293457,-71.12760925292969,74.91735076904297,-5.105556968562,8.529286910989832,-90.80526233583487,-25.223242,15.382624,1.5145706,85.771904,-18.387558,1.5199033,-5.3319993,5.0071177,-3.6261306,34.273373,-19.987846,3.4397662,3.3961236,8.360844,10.032709,31.562668,32.946266,-20.278376,-33.23999,21.42417,6.6919255,-2.8859549,-2.9060984,-19.627571,11.246317,-26.809622,-5.840487,-3.404329,-8.387111
178,0.632366418838501,-72.25440216064453,75.40948486328125,-4.347927363380815,8.53000662169641,-90.2856486013748,-26.203892,14.147273,2.2756817,83.63012,-18.478241,1.3122432,-3.1911626,4.0897202,-3.665047,31.717474,-18.129372,3.7710984,3.9054105,7.6782217,9.920351,32.221615,32.795795,-20.52043,-33.35857,20.96445,6.6230607,-2.3528433,-3.023211,-19.776356,10.567678,-28.035067,-4.786692,-3.6944149,-8.288272
179,0.729674756526947,-73.41239166259766,75.91474914550781,-3.5822554831966524,8.553665048345337,-89.74340902254154,-27.046791,12.8740425,3.0988944,81.12626,-18.439865,1.1108028,-1.1425611,3.1625102,-3.7790616,29.248484,-16.034746,4.1122465,4.3887405,6.981585,9.792538,32.828293,32.655952,-20.744953,-33.468506,20.46485,6.5743327,-1.8018614,-2.997419,-19.984123,9.903878,-29.25524,-3.707061,-4.0029345,-8.182051
180,0.8533328771591187,-74.56666564941406,76.4201431274414,-2.864650314479993,8.622230655663001,-89.24518320265277,-27.776737,11.662419,3.9644833,78.3408,-18.264141,1.0440217,0.6579038,2.2996745,-3.9241607,27.085526,-13.755369,4.4415255,4.8853464,6.315654,9.628284,33.399498,32.521492,-20.914812,-33.62052,19.987425,6.5567164,-1.3737584,-2.8966267,-20.24588,9.30893,-30.423197,-2.7713504,-4.2444925,-8.160433
181,0.9712225794792175,-75.7400131225586,76.92054748535156,-2.176116492179517,8.76515186412428,-88.79372188100358,-28.42117,10.566404,4.953107,75.26856,-17.943893,1.2869488,2.1575093,1.481636,-4.0993266,25.267239,-11.20228,4.7406597,5.4000793,5.6568317,9.405872,33.936607,32.385345,-21.009876,-33.823257,19.53324,6.591565,-1.1208963,-2.7185915,-20.562222,8.790926,-31.534863,-1.9915951,-4.399098,-8.273734
182,1.0676559209823608,-76.90647888183594,77.4110336303711,-1.5013280236789994,8.962498356264089,-88.35422718200563,-28.954718,9.515616,6.03785,71.87343,-17.496944,1.7169192,3.4414666,0.686584,-4.3068223,23.701017,-8.394506,5.0278325,5.903178,4.9958825,9.142885,34.437393,32.24374,-21.046425,-34.053154,19.076584,6.6679053,-0.96492404,-2.4402435,-20.933575,8.3262,-32.603577,-1.2904596,-4.514145,-8.466663
183,1.1723980903625488,-78.09623718261719,77.87986755371094,-0.8996027794304375,9.166776103224954,-87.93882156294565,-29.338919,8.438512,7.0263968,68.19285,-16.948898,2.0333004,4.561353,-0.018427487,-4.503197,22.400951,-5.5290456,5.3364935,6.383156,4.394545,8.874133,34.911636,32.098495,-21.040735,-34.308132,18.637365,6.7499604,-0.8508557,-2.0998347,-21.350227,7.924519,-33.619064,-0.70665425,-4.6060343,-8.674907
184,1.278200387954712,-79.27872467041016,78.32003784179688,-0.4261312548048641,9.331850029654403,-87.56494876566413,-29.538025,7.2815876,7.7179418,64.24682,-16.310312,1.9541614,5.5817885,-0.56779474,-4.644742,21.342918,-2.7816038,5.69714,6.831015,3.906792,8.632303,35.376827,31.95482,-21.003786,-34.590054,18.235422,6.8013225,-0.7245919,-1.744221,-21.79577,7.6003523,-34.556618,-0.28143883,-4.689364,-8.832025
185,1.3818084001541138,-80.4799575805664,78.72830963134766,-0.09012560744910582,9.464793507595553,-87.25816365640364,-29.537699,6.024082,8.025209,59.92008,-15.544325,1.4227396,6.4960527,-0.95114934,-4.69597,20.498753,-0.08999251,6.1308,7.26953,3.5334342,8.41115,35.83653,31.816294,-20.924368,-34.90834,17.891514,6.8111815,-0.58443296,-1.3880138,-22.263023,7.3563976,-35.404697,-0.07128686,-4.758591,-8.913931
186,1.4776334762573242,-81.67327117919922,79.09806060791016,0.13533957587052708,9.586589524453238,-87.00840573223606,-29.352686,4.744311,8.034465,55.219257,-14.659471,0.62575114,7.2977705,-1.1965445,-4.6717687,19.837957,2.6296344,6.6241984,7.699892,3.244537,8.194644,36.291058,31.68405,-20.795414,-35.266766,17.590776,6.8001466,-0.45532718,-1.0108703,-22.751543,7.184977,-36.171185,-0.042829823,-4.807554,-8.954633
187,1.5524780750274658,-82.88504028320312,79.42034912109375,0.2521288920156517,9.673379725573094,-86.78258323297065,-28.989435,3.5398896,7.8109946,50.33667,-13.727079,-0.34790355,8.04419,-1.3002778,-4.6117377,19.345728,5.240904,7.147588,8.083216,3.043611,7.99978,36.74948,31.561773,-20.62997,-35.660465,17.29445,6.778597,-0.32345894,-0.6084512,-23.25149,7.0880957,-36.8678,-0.104103476,-4.8495708,-8.9742985
188,1.636749267578125,-84.11782836914062,79.69296264648438,0.26892904524232575,9.699820963911263,-86.54600125328835,-28.454592,2.4833004,7.438673,45.455498,-12.799539,-1.4253054,8.801639,-1.2661759,-4.565722,18.987082,7.61234,7.662477,8.379609,2.9278243,7.845042,37.225563,31.454208,-20.441563,-36.087193,16.96656,6.756858,-0.17420974,-0.17748594,-23.746334,7.0679946,-37.504276,-0.16464482,-4.8983097,-8.991791
189,1.7040420770645142,-85.35742950439453,79.9077377319336,0.14695866738884597,9.642675719965666,-86.29275642262026,-27.693031,1.5493989,6.7589736,40.427944,-11.849129,-2.722942,9.661495,-1.0579573,-4.596193,18.642784,9.786882,8.1760845,8.578167,2.9295342,7.7413855,37.75614,31.369343,-20.211777,-36.57344,16.593971,6.7371144,-0.0033208162,0.2699099,-24.232187,7.1468697,-38.074013,-0.21988419,-4.9700923,-9.01711
190,1.7681933641433716,-86.59479522705078,80.0686264038086,-0.11494307406007098,9.518910672699944,-86.04872138070499,-26.679502,0.7629921,5.7826276,35.156254,-10.844187,-4.2108974,10.586354,-0.6771801,-4.6584215,18.321875,11.839952,8.689455,8.709219,3.0450692,7.6783795,38.33651,31.310179,-19.93233,-37.126457,16.195782,6.714213,0.18240847,0.7323975,-24.709703,7.3168774,-38.572712,-0.31431872,-5.053174,-9.035217
191,1.8245633840560913,-87.83168029785156,80.181640625,-0.4585831938069068,9.365220419542167,-85.82480208357738,-25.50242,0.22746639,4.868345,29.92829,-9.82404,-5.6361594,11.44485,-0.18528582,-4.6539683,18.195166,13.6848755,9.148571,8.793014,3.2215972,7.638236,38.90768,31.273188,-19.63476,-37.703625,15.784317,6.6878333,0.38009733,1.2294987,-25.168526,7.534255,-39.016438,-0.43541318,-5.1190815,-9.022461
192,1.856114387512207,-89.06354522705078,80.24375915527344,-0.8191637739390184,9.22050044516704,-85.62846205047842,-24.295181,-0.01336779,4.393634,25.085543,-8.829444,-6.7780666,12.09364,0.34599054,-4.4947853,18.453686,15.219722,9.502494,8.84773,3.4008472,7.600266,39.40093,31.25179,-19.356472,-38.254765,15.374178,6.657959,0.5865842,1.7828987,-25.59179,7.752781,-39.41957,-0.572069,-5.1396837,-8.952864
193,1.8921053409576416,-90.27859497070312,80.24311065673828,-1.2118394387982248,9.093950014780232,-85.44011779449119,-23.098421,0.024113722,4.445348,20.642347,-7.822618,-7.621992,12.500719,0.9285657,-4.2100344,19.164375,16.361904,9.682884,8.863308,3.595083,7.550821,39.80488,31.244408,-19.104536,-38.769577,14.957109,6.6268973,0.81330097,2.3994713,-25.971146,7.9570394,-39.790497,-0.75367993,-5.083253,-8.786654
194,1.9229758977890015,-91.4979248046875,80.19193267822266,-1.6754704605101953,8.962862504612591,-85.26118338466765,-21.880795,0.28165677,4.8497386,16.494226,-6.8027806,-8.311952,12.744642,1.590389,-3.8479426,20.225403,17.179152,9.71872,8.836029,3.8419757,7.5024605,40.147556,31.253126,-18.864262,-39.26813,14.531666,6.5940347,1.0578717,3.0682094,-26.308353,8.170429,-40.119827,-0.97973466,-4.9737163,-8.541822
195,1.9579496383666992,-92.69022369384766,80.09146118164062,-2.14652394493081,8.828917725982512,-85.11711404390618,-20.702797,0.6694333,5.605134,12.848982,-5.878891,-8.874338,12.797482,2.251356,-3.362994,21.659231,17.75616,9.723248,8.777914,4.0847383,7.466944,40.414684,31.274878,-18.641525,-39.73091,14.124444,6.5554385,1.2959697,3.777228,-26.600994,8.408387,-40.379707,-1.1952473,-4.866764,-8.279824
196,2.0040485858917236,-93.87210845947266,79.95084381103516,-2.5330676825215117,8.702421666019395,-85.02439153388292,-19.623154,1.073285,6.708845,9.903607,-5.1515603,-9.321121,12.625583,2.816958,-2.7123117,23.478634,18.176342,9.829186,8.691776,4.2363057,7.4511676,40.582542,31.303415,-18.444473,-40.13106,13.762876,6.5074143,1.5024321,4.5133696,-26.843576,8.687627,-40.545288,-1.3461539,-4.8173175,-8.062328
197,2.040799856185913,-95.02401733398438,79.77100372314453,-2.7873069345684636,8.622393496488016,-84.99272243056208,-18.670263,1.4456496,8.373471,7.716517,-4.6438417,-9.737573,12.137986,3.3080373,-1.7622643,25.773664,18.46929,10.094576,8.574046,4.2412286,7.422659,40.64654,31.33078,-18.268295,-40.459347,13.4771385,6.447335,1.6600775,5.2544565,-27.02101,9.033224,-40.57644,-1.3794429,-4.8636737,-7.9071107
198,2.0861563682556152,-96.16551971435547,79.54403686523438,-2.9165833668516874,8.58578806383438,-84.98916397564842,-18.284302,1.8459594,10.51891,7.1861806,-4.8297944,-10.089258,11.354009,3.7384937,-0.5977072,28.5437,18.561934,10.475391,8.405837,4.104035,7.3788776,40.58927,31.353104,-18.121439,-40.699062,13.25182,6.3785295,1.7830278,6.0076427,-27.119476,9.430167,-40.484802,-1.3450681,-4.9691815,-7.7703342
199,2.133065938949585,-97.31253051757812,79.28446197509766,-2.9048104857885617,8.54193347277308,-84.96999156850175,-17.947367,2.1583712,12.735284,7.211014,-5.143977,-10.193936,10.396103,3.99912,0.507676,31.679201,18.384346,10.955074,8.160536,3.8236625,7.372999,40.39393,31.37385,-18.016056,-40.830315,13.038606,6.304514,1.8930995,6.7984085,-27.167107,9.844636,-40.325066,-1.3304847,-5.075622,-7.6375976
200,2.169177770614624,-98.46539306640625,79.00166320800781,-2.7415472410726918,8.437019352578993,-84.89785825451389,-17.423891,2.2842598,14.613897,7.2731233,-5.335341,-9.8659,9.388146,3.9651513,1.2912456,35.07028,17.87228,11.501877,7.78244,3.3977592,7.4513707,40.114033,31.403925,-17.923914,-40.88437,12.776628,6.228018,2.0191753,7.5801744,-27.199991,10.311361,-40.092556,-1.4259064,-5.123511,-7.51901
201,2.2058193683624268,-99.6277847290039,78.67469024658203,-2.4245351618585884,8.211140925064521,-84.78917840735217,-17.146059,2.4069753,16.089035,8.540047,-5.912232,-8.990156,8.442917,3.6359835,1.7483859,38.708714,16.95873,12.220205,7.32447,2.8309495,7.660833,39.694668,31.44108,-17.89207,-40.800617,12.465271,6.10782,2.1679988,8.454719,-27.20256,10.769809,-39.86525,-1.6440811,-5.0392222,-7.386151
202,2.2511892318725586,-100.76200103759766,78.30549621582031,-1.9829068140307071,7.892739068953404,-84.6728180382579,-17.114113,2.5751188,17.362661,10.999556,-6.89171,-7.693037,7.514649,3.0996532,2.018821,42.603115,15.707959,13.088312,6.799567,2.1408486,7.9645705,39.16837,31.492836,-17.903975,-40.615353,12.1237755,5.957193,2.3321433,9.374905,-27.171589,11.258128,-39.588425,-1.9404167,-4.8731937,-7.25733
203,2.3065240383148193,-101.86750793457031,77.90345001220703,-1.4595941478384877,7.562887746772666,-84.5306463610068,-17.158901,2.6406937,18.389956,13.85762,-8.07792,-6.148694,6.485113,2.3369458,2.0684214,46.666416,14.265881,13.865956,6.216819,1.3593442,8.296827,38.489746,31.570618,-17.97223,-40.347946,11.761752,5.8644032,2.4999766,10.287338,-27.100431,11.73331,-39.22762,-2.3226113,-4.7570686,-7.1206565
204,2.3779144287109375,-102.9352798461914,77.48925018310547,-0.8783979195189111,7.315752211313216,-84.3317180515307,-17.440193,2.5331523,19.094057,16.9898,-9.644002,-4.5177674,5.2127953,1.2870644,1.8745948,50.82773,12.782236,14.310095,5.5813875,0.5205529,8.588167,37.575405,31.661718,-18.13393,-39.98962,11.393577,5.9164352,2.6564465,11.184913,-27.023518,12.122126,-38.796257,-2.7812974,-4.8227215,-6.975336
205,2.437465190887451,-104.01009368896484,77.02342987060547,-0.17738509137156508,7.206145502753581,-84.05874430746493,-18.22001,2.2061262,19.314966,20.798536,-11.906074,-2.580315,3.6075132,-0.2206422,1.3958462,55.19063,11.25681,14.375836,4.863478,-0.4458957,8.785313,36.445057,31.753538,-18.384682,-39.573135,11.027053,6.164641,2.7973714,12.020214,-26.968084,12.429975,-38.269062,-3.345723,-5.1434054,-6.7978377
206,2.499481678009033,-105.02816772460938,76.52289581298828,0.6067195236449872,7.171037423163669,-83.73385447301065,-19.361233,1.7419686,19.076923,25.22925,-14.721442,-0.32394397,1.79075,-2.1129284,0.70701456,59.730587,9.643992,14.164088,4.0763483,-1.4931433,8.928232,35.119263,31.838345,-18.718727,-39.08834,10.651909,6.5525312,2.9325547,12.832029,-26.93857,12.679171,-37.674732,-3.997419,-5.6366553,-6.611095
207,2.5588767528533936,-106.01696014404297,75.97985076904297,1.3798398751247507,7.147450262510866,-83.3635892956275,-20.462017,1.1988367,18.611652,29.517477,-17.605341,1.7899224,-0.10906058,-4.1727386,-0.035622384,64.23019,7.997739,13.668607,3.252775,-2.4979405,9.072629,33.541904,31.921259,-19.153843,-38.47449,10.246145,7.005523,3.0782666,13.700196,-26.918169,12.864055,-37.059227,-4.662318,-6.1993785,-6.4976215
208,2.6029937267303467,-106.9766616821289,75.42769622802734,2.074704481559303,7.078041248565087,-82.95020637394273,-21.152948,0.6385838,18.211693,32.98011,-20.09116,3.2912438,-1.994884,-6.1995854,-0.6981414,68.49714,6.355992,12.889445,2.4280176,-3.372199,9.27562,31.651236,32.017334,-19.71328,-37.66744,9.785632,7.4496613,3.253672,14.710644,-26.876566,12.97151,-36.46803,-5.2718735,-6.727021,-6.5311756
209,2.64795184135437,-107.9411849975586,74.90043640136719,2.7589863287899212,6.951601242753388,-82.44215053087784,-21.360859,-0.016990203,18.0062,35.47169,-22.081577,3.9605532,-3.8935595,-8.291989,-1.2559887,72.607544,4.655473,11.726471,1.5903939,-4.1785603,9.570111,29.348444,32.144848,-20.44557,-36.5897,9.176169,7.867423,3.5006793,15.92297,-26.784616,12.969421,-35.8885,-5.819093,-7.262568,-6.7626147
210,2.672464609146118,-108.91716766357422,74.40930938720703,3.475761396165515,6.802729461178838,-81.84618998477092,-21.311188,-0.7634256,17.857464,37.442047,-23.85133,4.0778418,-5.8632374,-10.542579,-1.7398374,76.64908,2.873779,10.222563,0.73922235,-4.9910855,9.910388,26.689352,32.300735,-21.335304,-35.305157,8.44682,8.297117,3.811818,17.288954,-26.630589,12.861267,-35.30108,-6.344849,-7.836886,-7.1339865
211,2.7078216075897217,-109.88483428955078,73.95555114746094,4.110294628619131,6.645047094150196,-81.25559984793098,-21.087984,-1.4107703,17.688951,39.100456,-25.475609,3.9157925,-7.8701696,-12.717323,-2.1346595,80.44098,1.1238418,8.601389,-0.08640464,-5.725998,10.24648,23.8537,32.46293,-22.29715,-33.97049,7.762144,8.748911,4.12233,18.71684,-26.414753,12.70308,-34.72566,-6.8530164,-8.326785,-7.551392
212,2.735355854034424,-110.86289978027344,73.55097198486328,4.542963828536437,6.494438310772094,-80.76491548748236,-20.770689,-1.7963444,17.426432,40.61795,-27.020906,3.7473938,-9.884814,-14.585419,-2.4628904,83.807236,-0.47791055,7.073078,-0.8623867,-6.2838306,10.536944,21.025513,32.603767,-23.232536,-32.733566,7.297791,9.235513,4.3539634,20.100927,-26.150087,12.566814,-34.1776,-7.3458996,-8.609333,-7.920052
213,2.748466968536377,-111.84829711914062,73.20863342285156,4.709322396097021,6.352078448320247,-80.41649544958733,-20.373472,-1.8619374,17.0704,42.042152,-28.517803,3.602412,-11.943518,-16.106705,-2.768883,86.75718,-1.8913734,5.611728,-1.589903,-6.592314,10.790876,18.188944,32.703533,-24.153059,-31.537785,7.158143,9.82111,4.470818,21.411242,-25.844732,12.466753,-33.600163,-7.9252696,-8.564741,-8.231789
214,2.762927770614624,-112.84236907958984,72.928955078125,4.6816644674873835,6.213339958929303,-80.1533836400459,-19.849943,-1.728902,16.68021,43.260906,-29.913395,3.3473852,-14.05882,-17.40012,-3.0652068,89.38083,-3.1914496,4.11877,-2.298619,-6.7086916,11.034598,15.269022,32.75605,-25.085335,-30.323252,7.2418537,10.480669,4.5038366,22.692871,-25.504421,12.385031,-32.99663,-8.554084,-8.286035,-8.527059
215,2.7714343070983887,-113.86674499511719,72.716064453125,4.5414769476503265,6.086407506880502,-79.92300443441755,-19.189842,-1.4983808,16.263123,44.194977,-31.152603,3.0122445,-16.164047,-18.467033,-3.3556652,91.61638,-4.4149313,2.7003858,-3.0084317,-6.7179008,11.252617,12.352794,32.76333,-25.960892,-29.216822,7.420341,11.093269,4.4705615,23.951506,-25.146757,12.347353,-32.472446,-9.024678,-7.972347,-8.790474
216,2.764188051223755,-114.90711975097656,72.55882263183594,4.370335445033449,5.979752843781001,-79.67388289045455,-18.390831,-1.2580297,15.81772,44.7725,-32.18268,2.6256406,-18.194086,-19.300018,-3.6449628,93.39772,-5.583109,1.4741309,-3.744804,-6.7065945,11.4247055,9.540315,32.73522,-26.703978,-28.350513,7.5607486,11.536126,4.3917503,25.183674,-24.795683,12.388619,-32.127174,-9.129196,-7.824117,-9.0178795
217,2.7497148513793945,-115.95831298828125,72.46549987792969,4.162628931103896,5.893638135034811,-79.39634311641481,-17.456604,-0.98602366,15.328052,44.994396,-33.024467,2.1681142,-20.17392,-19.830181,-3.9365196,94.716896,-6.7025356,0.4639218,-4.5222063,-6.672678,11.556651,6.8450894,32.68335,-27.293772,-27.789684,7.651822,11.75422,4.220917,26.40162,-24.467192,12.526781,-32.011253,-8.682045,-7.904966,-9.236306
218,2.7370829582214355,-117.01971435546875,72.44473266601562,3.8833731396386573,5.8255676617822205,-79.11745963624472,-16.388882,-0.64004475,14.805645,44.896366,-33.698975,1.63394,-22.124397,-20.074148,-4.265552,95.6043,-7.7388244,-0.38009316,-5.3308196,-6.574341,11.659013,4.224348,32.612717,-27.771725,-27.45848,7.751038,11.81826,3.9659286,27.604395,-24.166325,12.744557,-32.072662,-7.830871,-8.106975,-9.444944
219,2.726003885269165,-118.09599304199219,72.49644470214844,3.5691882326581434,5.779533264082773,-78.84159305212619,-15.186381,-0.2657233,14.281119,44.46166,-34.15026,1.0693692,-23.972837,-20.1558,-4.674735,96.04678,-8.646283,-1.0456418,-6.1555505,-6.4387817,11.7153225,1.6922586,32.523476,-28.162367,-27.279976,7.8319297,11.794429,3.732096,28.767054,-23.898283,13.020296,-32.255695,-6.867348,-8.371375,-9.599686
220,2.7135426998138428,-119.197998046875,72.61531829833984,3.2570908012461643,5.759210745272755,-78.57245047694407,-13.850634,0.09147218,13.780543,43.677616,-34.32435,0.5181764,-25.645924,-20.201532,-5.1998844,96.031525,-9.383805,-1.5232298,-6.983349,-6.2906404,11.708024,-0.73246944,32.414608,-28.485464,-27.180471,7.871902,11.749185,3.6225784,29.864403,-23.669022,13.333225,-32.506348,-6.083942,-8.636021,-9.660989
221,2.716602087020874,-120.33470916748047,72.80073547363281,2.9612000467658643,5.775374683547739,-78.27880259204608,-12.354833,0.40056553,13.283335,42.443142,-34.220394,-0.013298001,-27.141296,-20.21472,-5.8481708,95.52519,-9.911515,-1.7250423,-7.839233,-6.134217,11.621115,-3.07851,32.28444,-28.750065,-27.162369,7.8389063,11.682814,3.6794307,30.90858,-23.485033,13.686096,-32.86395,-5.500875,-8.90885,-9.621061
222,2.718431234359741,-121.4922103881836,73.04280853271484,2.6615777366391367,5.82313821120365,-77.96915898412615,-10.7095375,0.6968134,12.783506,40.798244,-33.861073,-0.55139536,-28.489147,-20.1452,-6.608189,94.540436,-10.256561,-1.684319,-8.720438,-5.951052,11.46894,-5.354097,32.132698,-28.953451,-27.247768,7.7573595,11.565365,3.8435862,31.908607,-23.347002,14.084216,-33.341347,-4.9774556,-9.211613,-9.501295
223,2.7164862155914307,-122.67890930175781,73.33975219726562,2.342643523807783,5.882036562090791,-77.70777087878076,-8.969812,1.0288155,12.325863,38.936398,-33.220524,-1.099312,-29.659111,-20.030449,-7.4848537,93.13131,-10.485334,-1.5682122,-9.56892,-5.731166,11.27975,-7.5215917,31.965822,-29.094614,-27.383152,7.683798,11.420135,4.0634494,32.840843,-23.250986,14.505235,-33.853138,-4.567164,-9.502155,-9.309271
224,2.7249536514282227,-123.89884185791016,73.68708801269531,1.9884387975928284,5.931172491301494,-77.5593641599552,-7.192762,1.4413106,11.952993,37.056427,-32.276966,-1.655539,-30.619307,-19.894697,-8.484383,91.355934,-10.66397,-1.5350296,-10.325748,-5.4660683,11.082419,-9.533256,31.79636,-29.167933,-27.521801,7.678076,11.2712555,4.2874937,33.682354,-23.187464,14.927545,-34.315063,-4.324374,-9.7399235,-9.054585
225,2.7293286323547363,-125.13406372070312,74.0763931274414,1.5938015852894645,5.953693913226389,-77.53976716554419,-5.324967,1.931281,11.65161,35.10388,-31.007568,-2.2203376,-31.313871,-19.798338,-9.69713,89.18519,-10.853139,-1.6211851,-10.978697,-5.1594796,10.890058,-11.398614,31.638596,-29.16019,-27.658731,7.788004,11.116246,4.5168924,34.42397,-23.152086,15.349488,-34.711628,-4.322464,-9.922154,-8.698891
226,2.7391061782836914,-126.39698791503906,74.4996109008789,1.1668835617114397,5.963536039500553,-77.61698204554463,-3.365868,2.4739516,11.404484,33.02001,-29.436604,-2.7928364,-31.761969,-19.673868,-11.09884,86.59771,-11.005852,-1.7174035,-11.554101,-4.815387,10.688599,-13.130545,31.502747,-29.074932,-27.831333,7.9714465,10.946772,4.7750244,35.07924,-23.143946,15.777668,-35.087063,-4.5143003,-10.070507,-8.251796
227,2.743675708770752,-127.67950439453125,74.9447250366211,0.7131917648028551,5.98461985071771,-77.78385380114813,-1.4496723,3.0745199,11.243795,31.003365,-27.617712,-3.3627684,-32.04866,-19.362333,-12.516959,83.65385,-11.024965,-1.7708043,-12.046129,-4.4302773,10.467044,-14.692758,31.397718,-28.934504,-28.053673,8.150166,10.777106,5.0430555,35.667023,-23.158869,16.193771,-35.450344,-4.7779555,-10.180428,-7.79207
228,2.7378690242767334,-128.9757843017578,75.4017562866211,0.24171488765056784,6.039751902979538,-78.03229332064267,0.29711023,3.7322717,11.197014,29.248627,-25.605255,-3.9189866,-32.26909,-18.73312,-13.764206,80.40971,-10.815447,-1.7497518,-12.444087,-4.0046787,10.218445,-16.04327,31.342968,-28.765377,-28.359701,8.240128,10.6212845,5.3066144,36.211147,-23.183325,16.572783,-35.812336,-4.990578,-10.246247,-7.3923373
229,2.7304790019989014,-130.29171752929688,75.87284088134766,-0.2725906969186017,6.144253012286175,-78.39249209252092,1.8766556,4.4783044,11.311663,27.758362,-23.361433,-4.481913,-32.440815,-17.793243,-14.8722,76.828316,-10.356425,-1.7853914,-12.7117405,-3.5146909,9.926155,-17.179108,31.32481,-28.570942,-28.7467,8.249128,10.514732,5.562728,36.715668,-23.208832,16.9038,-36.16384,-5.142833,-10.2519455,-7.055535
230,2.732398271560669,-131.6313934326172,76.3451919555664,-0.8199355428653016,6.277510198858741,-78.85880004201022,3.354734,5.285467,11.545771,26.453506,-20.887491,-5.0587683,-32.51487,-16.60787,-15.8923025,72.88641,-9.700699,-1.855383,-12.902621,-2.9755147,9.588345,-18.087124,31.337261,-28.29275,-29.204794,8.220876,10.438052,5.806558,37.122173,-23.26675,17.252958,-36.466705,-5.3005857,-10.201641,-6.7697167
231,2.723836660385132,-132.97564697265625,76.80327606201172,-1.337810360950271,6.408962668221652,-79.3668123825587,4.709473,6.0649343,11.790903,25.388317,-18.282904,-5.6221986,-32.491745,-15.174043,-16.649689,68.65225,-8.866114,-1.72708,-13.02542,-2.440061,9.248077,-18.824675,31.402445,-28.00234,-29.72439,8.10416,10.325771,6.0513144,37.50832,-23.331879,17.548264,-36.798645,-5.4392266,-10.128273,-6.5199213
232,2.7047464847564697,-134.32748413085938,77.24565887451172,-1.763247270198254,6.510392155158513,-79.84896509295406,5.919131,6.7295065,11.939499,24.60093,-15.63374,-6.143481,-32.368107,-13.515097,-16.962769,64.187584,-7.869238,-1.1885589,-13.153829,-1.9685221,8.925363,-19.411516,31.52138,-27.707535,-30.268774,7.8667774,10.110277,6.2875204,37.85659,-23.401638,17.819181,-37.1506,-5.552629,-10.058094,-6.3279815
233,2.6958000659942627,-135.7025604248047,77.67125701904297,-2.0956953152280917,6.58218198669364,-80.30498623913887,6.9871125,7.2817445,12.023111,24.065367,-12.810418,-6.683103,-32.128105,-11.574595,-16.681423,59.382263,-6.631017,-0.17452598,-13.297704,-1.5607698,8.621159,-19.823122,31.69859,-27.386858,-30.827265,7.4619045,9.728859,6.506673,38.161945,-23.477352,18.07272,-37.518673,-5.6360583,-9.989778,-6.215686
234,2.698957920074463,-137.08355712890625,78.06805419921875,-2.357007541816157,6.635341610064821,-80.7571711995375,7.9423056,7.741243,12.060709,23.732431,-9.794953,-7.270462,-31.726175,-9.442315,-15.895735,54.21209,-5.1923056,1.140555,-13.437235,-1.1967455,8.325579,-20.046171,31.936975,-27.026619,-31.427635,6.919991,9.231265,6.7106986,38.422062,-23.560495,18.306015,-37.897186,-5.6979747,-9.910859,-6.169421
235,2.7173523902893066,-138.47116088867188,78.43467712402344,-2.52140862095428,6.661685899643429,-81.17022303551869,8.7851095,8.057168,11.940875,23.61461,-6.82666,-7.8059607,-31.121592,-7.35894,-14.795938,48.85922,-3.7411966,2.6095667,-13.586081,-0.9003745,8.047892,-20.126907,32.231956,-26.666834,-32.091675,6.32631,8.720241,6.9105153,38.646633,-23.64807,18.501982,-38.301163,-5.7423935,-9.832773,-6.148325
236,2.747248411178589,-139.85940551757812,78.76036071777344,-2.565515177658985,6.654174621705145,-81.5110246035943,9.499274,8.194057,11.571514,23.746002,-4.1434455,-8.154312,-30.30675,-5.535502,-13.596419,43.512268,-2.4402063,4.104314,-13.751759,-0.6929622,7.7958245,-20.122093,32.57111,-26.357546,-32.828465,5.7667246,8.298608,7.1197815,38.850193,-23.731176,18.642443,-38.743553,-5.7756157,-9.767276,-6.1109376
237,2.7881267070770264,-141.25096130371094,79.04562377929688,-2.4540740054887555,6.6153985087712766,-81.75477688584579,10.059665,8.135353,10.932867,24.137058,-1.7461588,-8.21226,-29.25153,-3.9520907,-12.180657,38.010014,-1.2716926,5.7519174,-13.942296,-0.59999824,7.556054,-20.072784,32.944973,-26.134111,-33.630287,5.230509,8.015749,7.3577976,39.051315,-23.799667,18.710419,-39.231606,-5.7806973,-9.729583,-6.0514083
238,2.837175130844116,-142.65194702148438,79.28754425048828,-2.188064159403912,6.543425124509893,-81.91327911301997,10.486795,7.8927307,10.093422,24.748915,0.50356704,-8.035421,-27.918884,-2.601193,-10.49063,32.24962,-0.15530024,7.5301876,-14.153012,-0.6257834,7.3265333,-19.959463,33.34783,-25.978168,-34.473053,4.6867948,7.8096547,7.611723,39.247353,-23.848131,18.713764,-39.759052,-5.7634554,-9.709486,-5.987269
239,2.8861918449401855,-144.04556274414062,79.47595977783203,-1.8005088501393929,6.426627073898118,-82.01303459567067,10.826748,7.483417,9.106226,25.555458,2.570546,-7.7055664,-26.363789,-1.6344901,-8.864523,26.5479,0.8702533,9.14436,-14.367514,-0.75872165,7.128301,-19.758423,33.771614,-25.859785,-35.331726,4.185102,7.6167107,7.847829,39.41178,-23.875668,18.670712,-40.30912,-5.759611,-9.680312,-5.912686
