unveil-humanoid-operators/unveil-humanoid-operators.github.io/feature-analysis-animation/data/feature_matrix_instances/age_waist_rom_jogging_A268_jog_ff_loop_180_R_003__A268.csv
Frame,root_translateX,root_translateY,root_translateZ,root_rotateX,root_rotateY,root_rotateZ,left_hip_pitch_joint_dof,left_hip_roll_joint_dof,left_hip_yaw_joint_dof,left_knee_joint_dof,left_ankle_pitch_joint_dof,left_ankle_roll_joint_dof,right_hip_pitch_joint_dof,right_hip_roll_joint_dof,right_hip_yaw_joint_dof,right_knee_joint_dof,right_ankle_pitch_joint_dof,right_ankle_roll_joint_dof,waist_yaw_joint_dof,waist_roll_joint_dof,waist_pitch_joint_dof,left_shoulder_pitch_joint_dof,left_shoulder_roll_joint_dof,left_shoulder_yaw_joint_dof,left_elbow_joint_dof,left_wrist_roll_joint_dof,left_wrist_pitch_joint_dof,left_wrist_yaw_joint_dof,right_shoulder_pitch_joint_dof,right_shoulder_roll_joint_dof,right_shoulder_yaw_joint_dof,right_elbow_joint_dof,right_wrist_roll_joint_dof,right_wrist_pitch_joint_dof,right_wrist_yaw_joint_dof
0,-0.1260364055633545,-1.105857491493225,74.99687194824219,-2.805907703656251,14.009097868083977,94.43043157256746,-16.467957,-1.9732754,-5.6414256,35.54228,-31.887712,6.35635,-36.78687,-11.594872,-14.148514,73.69628,-14.986561,-0.37924817,-9.226445,1.5977516,8.49249,-18.971588,26.297318,-21.271755,-18.843681,-4.872539,-1.3145074,17.870028,33.7826,-21.094349,16.33666,-7.493279,4.512748,-15.664805,-9.998536
1,-0.1563262939453125,0.10645303130149841,75.28244018554688,-2.9714488625174935,14.129976368209489,94.27072325916444,-14.582923,-1.5669436,-5.675707,33.411896,-30.613098,6.110373,-37.06863,-10.996339,-14.597066,69.86386,-14.635761,-0.18687907,-9.4995985,1.8438797,8.271401,-19.722258,26.335854,-21.183033,-19.029255,-4.6862617,-1.2944477,17.935469,34.800236,-21.136242,16.093462,-7.574891,4.0391626,-15.692452,-9.6155615
2,-0.17942693829536438,1.3183411359786987,75.57077026367188,-3.133151516305319,14.24566319996859,94.10957575932555,-12.669166,-1.1684092,-5.7051377,31.241127,-29.382936,5.8741326,-37.332294,-10.391298,-15.074891,66.03067,-14.294063,0.017452734,-9.7737,2.0867202,8.046107,-20.51428,26.35606,-21.103544,-19.18975,-4.493272,-1.2724179,18.01545,35.854485,-21.177197,15.839155,-7.660089,3.5343695,-15.72199,-9.218906
3,-0.19911353290081024,2.539386510848999,75.861572265625,-3.283742643829671,14.362993586622816,93.95239111132646,-10.842282,-0.7916049,-5.720482,29.22494,-28.103807,5.609566,-37.50614,-9.707165,-15.519346,62.01913,-13.892201,0.2716867,-10.037127,2.3278902,7.82789,-21.266895,26.368519,-21.03813,-19.345278,-4.301497,-1.2555724,18.06251,36.86714,-21.210793,15.590068,-7.759742,3.1002834,-15.756644,-8.853547
4,-0.2172478288412094,3.7561826705932617,76.14361572265625,-3.4115063895227276,14.488329940233232,93.80595881967746,-9.216939,-0.45325133,-5.7188435,27.561646,-26.682587,5.2852755,-37.51549,-8.885353,-15.856758,57.648746,-13.3643675,0.60517156,-10.271438,2.5685196,7.629275,-21.908499,26.38272,-21.000208,-19.514505,-4.1226296,-1.251596,18.032345,37.774612,-21.23289,15.348696,-7.8992023,2.841344,-15.797125,-8.559542
5,-0.2275269478559494,4.97052526473999,76.41399383544922,-3.5301279883654613,14.626086848173694,93.66030698429125,-7.7941513,-0.13778587,-5.6912913,26.245462,-25.039694,4.887154,-37.3176,-7.906672,-16.07358,52.742767,-12.714401,0.9215,-10.469748,2.8194523,7.4556427,-22.416607,26.407873,-20.986448,-19.696571,-3.9497356,-1.2701352,17.904,38.547012,-21.234468,15.129116,-8.059049,2.7855422,-15.84747,-8.371773
6,-0.24057170748710632,6.2080159187316895,76.66586303710938,-3.6315182252955585,14.767286070659868,93.5211169077972,-6.5067635,0.14725968,-5.655176,25.175407,-23.236572,4.436404,-36.92827,-6.8338747,-16.186178,47.385002,-11.95339,1.2157403,-10.651344,3.0638254,7.3020267,-22.825367,26.44432,-20.986368,-19.888102,-3.7814124,-1.304385,17.702997,39.207325,-21.216259,14.935971,-8.219423,2.8725557,-15.903905,-8.26326
7,-0.2484150230884552,7.432810306549072,76.8969955444336,-3.67625154963739,14.89731545226482,93.4210566109507,-5.3486576,0.35267118,-5.6513467,24.367275,-21.378714,3.954742,-36.357967,-5.741728,-16.161291,41.781944,-11.017321,1.6462798,-10.817513,3.2527106,7.1755676,-23.143024,26.520405,-21.027681,-20.130903,-3.6507087,-1.3382584,17.470793,39.787663,-21.152279,14.733293,-8.41952,3.067984,-15.957173,-8.162573
8,-0.24171823263168335,8.673661231994629,77.0965347290039,-3.6223651283224725,15.000709094187599,93.39568437303696,-4.3134785,0.42735302,-5.720592,23.834076,-19.56627,3.4670622,-35.616024,-4.705014,-15.968356,36.13213,-9.841036,2.3776093,-11.023016,3.341476,7.0638437,-23.371172,26.60927,-21.081821,-20.41318,-3.557021,-1.3530148,17.215061,40.25677,-21.058056,14.56444,-8.634598,3.335509,-15.9965,-8.040624
9,-0.2311343252658844,9.916726112365723,77.25997161865234,-3.4202701779781046,15.067670321739113,93.48035294303655,-3.3618612,0.32805791,-5.8564425,23.509382,-17.75758,2.984152,-34.619556,-3.7084386,-15.467769,30.156307,-8.242295,3.605383,-11.288591,3.289248,6.971724,-23.52114,26.713938,-21.160297,-20.742414,-3.5044389,-1.3281884,16.91699,40.65526,-20.930174,14.405946,-8.899388,3.7423062,-16.026592,-7.8695216
10,-0.21152722835540771,11.161442756652832,77.38084411621094,-3.030200230589265,15.07671809633006,93.6905949256223,-2.436879,0.012191951,-6.0677056,23.32029,-15.870382,2.5018673,-33.29299,-2.8459299,-14.6712675,23.737263,-6.2709703,5.1750107,-11.628646,3.0580225,6.916308,-23.592094,26.8377,-21.264944,-21.10907,-3.4867847,-1.2773199,16.571875,40.983765,-20.766268,14.262397,-9.211861,4.2800765,-16.048784,-7.679201
11,-0.1964728981256485,12.411406517028809,77.44818878173828,-2.440306641237598,14.999278158063406,94.0211670039496,-1.527103,-0.5532038,-6.4107647,23.302732,-13.960476,2.02451,-31.740625,-2.3121178,-13.816072,17.450495,-4.25472,6.7604284,-12.033788,2.6249974,6.912876,-23.58701,26.9747,-21.401537,-21.497828,-3.5107234,-1.2344961,16.233126,41.223988,-20.57217,14.140037,-9.566052,4.8088746,-16.04766,-7.4938655
12,-0.18280097842216492,13.649203300476074,77.46114349365234,-1.7390959311098284,14.848872643115495,94.41247316699287,-0.71161836,-1.2936897,-6.9135356,23.593096,-12.139491,1.5363696,-30.16388,-2.129877,-13.211273,11.931982,-2.515773,8.056343,-12.446328,2.0675292,6.9526334,-23.508272,27.110792,-21.57266,-21.887867,-3.579996,-1.2352927,15.95486,41.346634,-20.359943,14.040257,-9.945069,5.1916957,-16.010103,-7.3368993
13,-0.16939494013786316,14.874351501464844,77.4417495727539,-1.0056858718109787,14.681319320420302,94.81861978984111,-0.10896825,-2.135246,-7.568225,24.307837,-10.424529,1.0191239,-28.584356,-2.162008,-13.051124,7.0841203,-1.0935981,9.177873,-12.828202,1.4689814,6.9967427,-23.351078,27.234018,-21.772919,-22.28407,-3.6945107,-1.2950746,15.737317,41.348007,-20.133678,13.951373,-10.339861,5.366338,-15.92143,-7.2157607
14,-0.15640240907669067,16.10667610168457,77.38948822021484,-0.28449825094022496,14.519329475302186,95.21886280881206,0.24515173,-3.0196412,-8.323966,25.482527,-8.832278,0.46201804,-28.951185,-2.7127202,-13.107475,6.9234943,-2.0528994,10.258346,-13.161376,0.87911934,7.0330973,-23.119724,27.33942,-22.000687,-22.683708,-3.84663,-1.3942059,15.5558195,41.230873,-19.894527,13.870472,-10.748552,5.4177165,-15.794173,-7.11729
15,-0.14419516921043396,17.330812454223633,77.31526184082031,0.24947976892958754,14.38511848555908,95.52741007414906,0.29242247,-3.7583072,-9.104443,27.240067,-7.5405216,-0.16823833,-29.142647,-3.054803,-13.32049,6.793988,-2.7086487,10.966844,-13.372347,0.47344932,7.0721693,-22.809214,27.407553,-22.24248,-23.070793,-4.0194654,-1.5173248,15.427368,40.967583,-19.690826,13.810119,-11.166116,5.440907,-15.656367,-7.0388103
16,-0.14787060022354126,18.54438018798828,77.21142578125,0.5466227469463645,14.27502124248331,95.69892759656938,0.06529986,-4.3006425,-9.845454,29.565548,-6.6542788,-0.8884549,-29.169342,-3.1272595,-13.493855,6.7488136,-2.8734636,10.986868,-13.429384,0.304827,7.126856,-22.4,27.432894,-22.475523,-23.447783,-4.2003803,-1.647698,15.36515,40.53549,-19.568586,13.789768,-11.595459,5.532329,-15.534754,-6.9775553
17,-0.1635793000459671,19.76112937927246,77.08294677734375,0.4896401383795949,14.21742260437623,95.67157142095107,-0.48177063,-4.5887995,-10.5949955,32.580315,-6.241987,-1.763478,-28.985426,-2.7761667,-13.6211815,6.727775,-2.1955402,10.055542,-13.223653,0.452056,7.1845083,-21.931126,27.436903,-22.795982,-23.796516,-4.4128327,-1.7940695,15.439833,39.90847,-19.419052,13.795955,-11.982723,5.663084,-15.429172,-6.915493
18,-0.16533277928829193,20.963088989257812,76.95562744140625,0.1715580202234092,14.19637134782118,95.49860087762691,-1.2858255,-4.7237005,-11.370527,36.170673,-6.211382,-2.7832773,-28.600868,-2.1214828,-13.798658,6.7399573,-0.87666625,8.403985,-12.806514,0.83608526,7.2357354,-21.435768,27.3845,-23.198902,-24.076637,-4.6444254,-1.9608213,15.612032,39.114388,-19.244844,13.81943,-12.340784,5.796512,-15.327516,-6.85994
19,-0.15662752091884613,22.136430740356445,76.81597900390625,-0.3469224933703859,14.172845567827403,95.25774382478993,-2.254281,-4.6607957,-12.067333,40.132397,-6.5116735,-3.881648,-28.063046,-1.2730924,-14.056088,6.793048,0.50181085,6.4067492,-12.289248,1.4193318,7.3263626,-20.910397,27.286827,-23.59563,-24.295033,-4.869751,-2.1283326,15.783002,38.174152,-19.137218,13.866185,-12.717079,5.98147,-15.244044,-6.8184824
20,-0.16363945603370667,23.299083709716797,76.62701416015625,-0.9422992957327314,14.103563044724138,95.03650070929015,-3.2996652,-4.399382,-12.573302,44.25956,-7.069643,-4.958529,-27.779114,-0.49286002,-14.342478,7.698961,0.9242572,4.4437127,-11.728258,2.0731015,7.4855375,-20.445,27.14557,-23.994246,-24.385084,-5.0647397,-2.2746751,15.866344,37.084282,-19.059202,13.92646,-13.0907755,6.229662,-15.195803,-6.7814918
21,-0.14462506771087646,24.422624588012695,76.39916229248047,-1.611039447697689,13.957636786100629,94.8374050514693,-4.3907733,-3.8461595,-12.76229,48.62287,-7.9395337,-6.0994997,-29.13914,-0.17425323,-14.579076,12.62064,-1.4341815,2.373017,-11.129096,2.7794666,7.7490687,-20.06676,26.987156,-24.388006,-24.346373,-5.270544,-2.4104702,15.8412895,35.833088,-19.003357,14.004742,-13.477846,6.6045547,-15.212695,-6.706929
22,-0.11509360373020172,25.50274658203125,76.1301040649414,-2.258705085787199,13.709128744443236,94.68755018285756,-5.496536,-3.1600895,-12.745855,53.232445,-9.086804,-7.263916,-30.551609,0.017309263,-14.736747,18.198875,-4.4871554,0.09184735,-10.518898,3.4478068,8.113142,-19.735407,26.819473,-24.791824,-24.209305,-5.4906344,-2.5395339,15.75541,34.439114,-18.960247,14.106877,-13.891122,7.071714,-15.275885,-6.6109505
23,-0.09597676992416382,26.58623504638672,75.78783416748047,-2.767577601166836,13.382490089267082,94.64824283817538,-6.637081,-2.5732708,-12.743691,57.883896,-10.346165,-8.18402,-31.731285,0.063122444,-14.825999,23.613186,-7.6953015,-1.951771,-9.962913,3.9813387,8.537424,-19.36862,26.645464,-25.187843,-24.021177,-5.6515465,-2.631015,15.626003,32.911644,-18.93804,14.232793,-14.298239,7.507323,-15.332084,-6.5737104
24,-0.08391459286212921,27.649324417114258,75.39570617675781,-3.1900323064155582,13.06159251142482,94.70522969142277,-7.909936,-2.159464,-12.975798,62.423397,-11.596694,-8.646561,-32.394154,0.11714737,-14.967839,27.912413,-10.446739,-3.3422754,-9.464572,4.4529867,8.953365,-18.873425,26.461649,-25.54887,-23.832762,-5.675994,-2.656744,15.473171,31.24082,-18.961588,14.3808565,-14.653405,7.7917914,-15.328153,-6.675779
25,-0.07990679889917374,28.71759605407715,74.99829864501953,-3.662387461348642,12.767030471622755,94.83434887050814,-9.408349,-1.861561,-13.586664,67.03716,-12.939023,-8.450727,-32.513668,0.28767776,-15.310971,30.995264,-12.724844,-3.856928,-9.008876,5.0112886,9.378631,-18.22103,26.250366,-25.824547,-23.673615,-5.4937663,-2.5820327,15.273435,29.384048,-19.055096,14.550616,-14.969247,7.876006,-15.236346,-6.9337597
26,-0.07254451513290405,29.78428840637207,74.63680267333984,-4.209919176339166,12.492794327127534,95.00653852993139,-11.095124,-1.5996317,-14.435641,71.75944,-14.4068365,-7.7931967,-32.32392,0.53919667,-15.812505,33.45742,-14.886301,-3.7755082,-8.576335,5.676341,9.817288,-17.45089,26.006544,-26.028316,-23.513723,-5.1586647,-2.433818,15.024256,27.34982,-19.22417,14.750858,-15.263525,7.8404684,-15.089928,-7.310867
27,-0.08048837631940842,30.846046447753906,74.31546020507812,-4.745431339246267,12.290812877441581,95.18620504352084,-12.897334,-1.3841456,-15.315817,76.22416,-15.782535,-7.0631595,-31.956139,0.81392884,-16.345987,35.431053,-16.904678,-3.442519,-8.150164,6.348309,10.175844,-16.555342,25.751654,-26.225134,-23.333885,-4.77791,-2.2765448,14.780953,25.19561,-19.46165,15.001193,-15.493118,7.7601094,-14.92903,-7.8071465
28,-0.10673423856496811,31.92152976989746,74.03347778320312,-5.170540006385263,12.20742542216651,95.34181926415597,-14.761313,-1.1992133,-16.016478,80.0768,-16.85673,-6.6285434,-31.523539,1.0588586,-16.768005,37.010906,-18.732151,-3.1992729,-7.7122545,6.911162,10.369028,-15.516177,25.526533,-26.478134,-23.128922,-4.464126,-2.1729848,14.603512,22.971167,-19.750961,15.3229885,-15.60999,7.706899,-14.794097,-8.420892
29,-0.1293422132730484,33.0211067199707,73.79663848876953,-5.471070220719602,12.323045650180568,95.46889401552149,-16.7963,-0.97358036,-16.47781,83.27938,-17.516685,-6.6118183,-31.090626,1.2704449,-17.059792,38.154285,-20.349691,-3.1060474,-7.261314,7.3396945,10.31022,-14.276294,25.36522,-26.819466,-22.908705,-4.2071977,-2.155264,14.555598,20.59289,-20.08627,15.786302,-15.505573,7.7048626,-14.718727,-9.230877
30,-0.14785157144069672,34.13172912597656,73.61091613769531,-5.700748220763809,12.59167376794142,95.57802375169697,-19.021025,-0.7143567,-16.8181,86.02827,-17.89331,-6.7876673,-30.597599,1.4799619,-17.296358,38.845215,-21.788948,-2.9976647,-6.8092957,7.6871853,10.075491,-12.824812,25.28009,-27.193768,-22.71812,-3.969922,-2.184733,14.596807,18.04302,-20.456451,16.383207,-15.23164,7.7167463,-14.67428,-10.212665
31,-0.1631569117307663,35.27804946899414,73.48775482177734,-5.856898812162568,12.866091641623717,95.66647757753803,-21.248781,-0.50941664,-17.086735,88.318436,-18.13888,-6.997493,-29.944859,1.6881597,-17.462444,39.179558,-23.06065,-2.874495,-6.3547726,7.9470434,9.825287,-11.225244,25.279728,-27.542671,-22.593828,-3.8266335,-2.2166777,14.631435,15.472637,-20.830883,17.011305,-14.971157,7.71384,-14.608026,-11.2045765
32,-0.16642706096172333,36.440093994140625,73.41547393798828,-5.939882070417204,12.998483359766343,95.73259645044347,-23.28263,-0.44952956,-17.32626,90.131294,-18.407799,-7.0958233,-29.030024,1.8930764,-17.539736,39.254948,-24.176437,-2.7319772,-5.8855653,8.107442,9.715289,-9.55947,25.36779,-27.822903,-22.549313,-3.8514683,-2.20622,14.564467,13.030879,-21.177574,17.555141,-14.881251,7.6599193,-14.465945,-12.036351
33,-0.17142216861248016,37.594329833984375,73.401123046875,-5.93496496358639,12.9093733132361,95.7871933427799,-25.051147,-0.5839584,-17.55454,91.45922,-18.717476,-7.030649,-27.75941,2.0832822,-17.519209,39.077858,-25.154724,-2.5585876,-5.4008236,8.142687,9.815178,-7.838242,25.553432,-28.049314,-22.548616,-4.12018,-2.1237242,14.35428,10.689611,-21.480871,18.017588,-14.904254,7.5003123,-14.206469,-12.7317705
34,-0.18120810389518738,38.74345016479492,73.44441223144531,-5.849620637283713,12.68941240005966,95.82689898429271,-26.664642,-0.8483681,-17.738117,92.309395,-18.987558,-6.890865,-26.20353,2.255892,-17.40632,38.603443,-25.984818,-2.3576353,-4.9006653,8.058167,10.030754,-6.0219235,25.842028,-28.235315,-22.590128,-4.575434,-1.9959959,14.061199,8.370621,-21.74277,18.459534,-14.945305,7.260299,-13.8651495,-13.347144
35,-0.20008212327957153,39.889549255371094,73.53530883789062,-5.710628252055285,12.445553281825642,95.82813744930523,-28.197062,-1.1615623,-17.841736,92.6824,-19.228342,-6.7467394,-24.502981,2.42083,-17.20345,37.84374,-26.629362,-2.1430871,-4.372166,7.8901753,10.268719,-4.116645,26.221697,-28.33725,-22.74138,-5.0908117,-1.8629088,13.740709,6.1451864,-21.968866,18.847002,-15.108289,7.0209165,-13.505575,-13.762351
36,-0.23515506088733673,41.036048889160156,73.6617431640625,-5.5439167770303985,12.285323718133528,95.76761417562192,-29.72143,-1.4409926,-17.830904,92.57785,-19.452286,-6.6660013,-22.800129,2.5901895,-16.912563,36.81353,-27.051903,-1.9308653,-3.7961545,7.6770854,10.434502,-2.1404731,26.666939,-28.32388,-23.060522,-5.5392613,-1.7671669,13.445436,4.0985303,-22.16631,19.130741,-15.506999,6.8620033,-13.194806,-13.861806
37,-0.2727123498916626,42.188228607177734,73.8250732421875,-5.349090403705427,12.235567220361887,95.61169320127034,-31.257147,-1.692779,-17.690525,91.95266,-19.689238,-6.7238207,-21.12424,2.7728686,-16.496433,35.48504,-27.255686,-1.7337539,-3.1350489,7.421451,10.501851,-0.081979744,27.155506,-28.186075,-23.567228,-5.890215,-1.7195766,13.178535,2.252261,-22.339703,19.260817,-16.21528,6.846821,-12.962441,-13.542996
38,-0.3224855661392212,43.35816955566406,74.02025604248047,-5.111747512298787,12.239994476859154,95.38062246194146,-32.75845,-1.9371376,-17.437483,90.81328,-19.925774,-6.8630176,-19.400663,2.9507415,-15.959945,33.861862,-27.256159,-1.5394723,-2.4031408,7.108528,10.518933,2.0549948,27.677292,-27.943226,-24.210913,-6.2073207,-1.6981896,12.912228,0.56529915,-22.492662,19.270382,-17.155346,6.9163017,-12.771444,-12.8967
39,-0.36586254835128784,44.5462532043457,74.24822235107422,-4.8429418511040465,12.281449236739057,95.13262874450764,-34.19489,-2.1190557,-17.08355,89.232155,-20.11049,-6.955794,-17.618036,3.0971625,-15.369936,32.00857,-27.037403,-1.3266633,-1.6585896,6.7472944,10.501506,4.2244964,28.222221,-27.61344,-24.941137,-6.504172,-1.6981171,12.650241,-0.96727353,-22.631466,19.22556,-18.232162,6.966854,-12.588167,-12.097456
40,-0.4167107343673706,45.735416412353516,74.50518798828125,-4.5473257635204,12.342457900723204,94.92644983534956,-35.533123,-2.1949308,-16.636988,87.28198,-20.192837,-6.8801975,-15.764325,3.1894212,-14.795019,29.985218,-26.581657,-1.072505,-0.9604395,6.346227,10.464898,6.3785076,28.781073,-27.213915,-25.70392,-6.793234,-1.714171,12.396627,-2.3485677,-22.765928,19.191301,-19.350708,6.8953156,-12.380707,-11.31773
41,-0.4713079035282135,46.94573974609375,74.78341674804688,-4.226170261985253,12.42096010913924,94.76166855593453,-36.763596,-2.1779237,-16.078428,84.94804,-20.20408,-6.605547,-13.765003,3.2436898,-14.208435,27.633171,-25.849255,-0.76355964,-0.3050194,5.9054594,10.40531,8.522698,29.346966,-26.729385,-26.502558,-7.0694556,-1.7528312,12.138296,-3.5537217,-22.903326,19.152603,-20.54484,6.6430693,-12.139945,-10.5438795
42,-0.5326746106147766,48.163719177246094,75.07930755615234,-3.866831094658195,12.525896274453375,94.61194116272927,-37.88077,-2.0969198,-15.391687,82.19126,-20.164368,-6.20943,-11.651577,3.2532835,-13.584025,24.975822,-24.859974,-0.40897077,0.3340359,5.415109,10.319043,10.679453,29.913689,-26.152653,-27.359804,-7.3279877,-1.8143562,11.8759775,-4.5832577,-23.046354,19.079405,-21.852957,6.2758183,-11.887482,-9.70492
43,-0.6051558256149292,49.39146423339844,75.38497161865234,-3.4701782951184064,12.654594879015825,94.49679554613543,-38.85666,-1.9429584,-14.588836,79.04811,-20.00959,-5.740638,-9.576595,3.1740308,-12.998378,22.353586,-23.68834,-0.021543281,0.9327357,4.874644,10.220854,12.818904,30.474298,-25.514378,-28.247032,-7.5802484,-1.8842126,11.633766,-5.4651465,-23.197098,19.010923,-23.208776,5.874595,-11.636192,-8.8857565
44,-0.6754229664802551,50.63526153564453,75.69587707519531,-3.042074766870991,12.803800365734952,94.43689660742312,-39.663433,-1.7059169,-13.686562,75.54909,-19.674212,-5.2521095,-7.697588,2.9774528,-12.533788,20.119358,-22.414877,0.38153833,1.4652221,4.2935257,10.124884,14.905723,31.020535,-24.844837,-29.127525,-7.8374248,-1.9478042,11.435213,-6.2288256,-23.357193,18.987553,-24.539343,5.5199842,-11.395037,-8.171551
45,-0.7465581297874451,51.88451385498047,76.00702667236328,-2.5601787217715026,12.97249705559959,94.45649652133913,-40.28733,-1.3805695,-12.607544,71.63207,-19.146566,-4.7297406,-6.006612,2.642958,-12.229968,18.282766,-21.022245,0.8150594,1.9195076,3.6506932,10.032607,16.92049,31.552446,-24.151781,-29.986177,-8.136294,-1.9962358,11.294561,-6.8682203,-23.532091,19.018433,-25.859367,5.201567,-11.140496,-7.608021
46,-0.817069411277771,53.1384391784668,76.31153869628906,-2.035824689840303,13.15946974923302,94.53996424340514,-40.70615,-1.0096081,-11.343255,67.277565,-18.464064,-4.1926174,-4.442517,2.2079468,-12.039937,16.697054,-19.485909,1.2774664,2.3117547,2.957208,9.940772,18.88315,32.067986,-23.416584,-30.842968,-8.457539,-2.0393372,11.19637,-7.362439,-23.726152,19.072926,-27.205442,4.886958,-10.8737955,-7.1412215
47,-0.8844802975654602,54.38344955444336,76.60948944091797,-1.5367895088968213,13.359924321652345,94.6503411200858,-40.904865,-0.642244,-10.036388,62.592594,-17.632076,-3.7303584,-3.0779927,1.747409,-11.920741,15.484991,-17.890131,1.723123,2.6589963,2.287133,9.853482,20.805353,32.551075,-22.639286,-31.703144,-8.725486,-2.0908985,11.119401,-7.7138376,-23.936718,19.129387,-28.544641,4.6225657,-10.638798,-6.7083697
48,-0.9710091948509216,55.6356315612793,76.9020767211914,-1.1313956933646359,13.570051015603973,94.75010543431094,-40.892056,-0.30734378,-8.84673,57.68165,-16.645184,-3.4094648,-1.9788269,1.3328873,-11.829227,14.760769,-16.314615,2.1082885,2.97896,1.7147297,9.769596,22.680986,32.97551,-21.832148,-32.5506,-8.861487,-2.1644588,11.040598,-7.9318657,-24.156128,19.168056,-29.829664,4.4538865,-10.479271,-6.2465844
49,-1.064766764640808,56.88697052001953,77.17981719970703,-0.8181198591979091,13.810506850358834,94.83135383529985,-40.66796,0.042678386,-7.734595,52.380356,-15.369327,-3.1735108,-1.1701189,0.9608494,-11.760843,14.531569,-14.74019,2.4422083,3.273543,1.236821,9.672056,24.507605,33.316082,-20.98321,-33.353184,-8.807851,-2.2835317,10.933605,-8.041199,-24.387413,19.188644,-31.045397,4.4023466,-10.409906,-5.7258162
50,-1.169221043586731,58.1662712097168,77.43204498291016,-0.5687265408788095,14.070449954994986,94.90930251478625,-40.20485,0.3883425,-6.631392,46.63219,-13.818409,-3.0165896,-0.587081,0.61043483,-11.729329,14.7086525,-13.124529,2.7457764,3.5354185,0.82964635,9.564962,26.255445,33.56466,-20.110025,-34.094368,-8.611164,-2.4333553,10.812782,-8.034784,-24.63419,19.200445,-32.208866,4.440369,-10.403188,-5.184121
51,-1.2762078046798706,59.44929122924805,77.65800476074219,-0.41506679091706267,14.299277656624106,94.97892505729965,-39.50783,0.651031,-5.6944103,40.7212,-12.194236,-3.0445704,-0.16932507,0.32569715,-11.721048,15.280661,-11.507359,2.9943974,3.7702637,0.5370238,9.476159,27.875051,33.726604,-19.275936,-34.775043,-8.346451,-2.5693922,10.716943,-7.8892713,-24.887163,19.199419,-33.29956,4.5381827,-10.438801,-4.65663
52,-1.3940203189849854,60.732364654541016,77.85018920898438,-0.3916827459899005,14.444822056056157,95.03030134505826,-38.59297,0.79951525,-5.1056476,34.93079,-10.698899,-3.3372085,0.15409082,0.1524825,-11.721619,16.211668,-9.918285,3.1605086,3.9880273,0.40018016,9.434041,29.322498,33.819324,-18.541933,-35.405132,-8.089726,-2.6464624,10.685513,-7.5858245,-25.129152,19.181347,-34.294613,4.6638794,-10.496924,-4.1758037
53,-1.5136805772781372,62.03199768066406,78.00409698486328,-0.5408542708465812,14.492381904982386,95.0510698493699,-37.401516,0.8869851,-5.0439825,29.046478,-9.307383,-3.952564,0.41217676,0.1373083,-11.753746,17.477898,-8.313966,3.1822727,4.2048125,0.4552202,9.45236,30.649544,33.854515,-17.882177,-36.01557,-7.7802444,-2.6323335,10.69885,-7.1102605,-25.34908,19.135195,-35.201702,4.8439975,-10.588,-3.7112052
54,-1.6297171115875244,63.33638381958008,78.11187744140625,-0.8772937639779412,14.439495308335902,95.01355147160146,-35.895813,1.0598722,-5.406062,22.913599,-7.8932266,-4.7887516,0.6313349,0.30210868,-11.8015,19.015533,-6.6438174,3.0917578,4.440008,0.70719063,9.539404,31.878742,33.838966,-17.272274,-36.61359,-7.404946,-2.5563643,10.74701,-6.489556,-25.547232,19.068365,-36.01806,5.0824547,-10.714261,-3.2517557
55,-1.7453783750534058,64.65702056884766,78.16210174560547,-1.385104448438663,14.26303130529169,94.90024268214479,-34.197773,1.412059,-5.950739,17.037027,-6.564156,-5.6823173,0.8715233,0.6448142,-11.80229,20.719538,-4.9368615,2.994193,4.6954184,1.1457529,9.707278,32.924164,33.789528,-16.77757,-37.175797,-7.1116443,-2.465294,10.884642,-5.7627907,-25.720514,19.003572,-36.70739,5.3132634,-10.845901,-2.8607378
56,-1.8694292306900024,65.98745727539062,78.16876220703125,-1.9752028859334703,13.983876901020484,94.74241678923856,-32.4897,1.8997829,-6.412931,11.963218,-5.4353623,-6.484222,1.0974467,1.0720812,-11.718004,22.601986,-3.2810726,2.99885,4.932275,1.6945072,9.928853,33.676155,33.730225,-16.475224,-37.648308,-7.049424,-2.4073782,11.16912,-4.9661193,-25.861658,18.96003,-37.231445,5.46797,-10.955738,-2.6024563
57,-2.003063201904297,67.30735778808594,78.15205383300781,-2.5831253001733545,13.643921092546469,94.59079253046903,-30.73648,2.4268613,-6.7557383,7.56558,-4.5457253,-7.206441,1.2363106,1.4978194,-11.576089,24.760138,-1.7048248,3.1850414,5.1039667,2.2936623,10.154683,34.12109,33.690914,-16.411163,-38.012634,-7.2592764,-2.3928273,11.696043,-4.102454,-25.941648,18.955683,-37.563156,5.5022783,-11.024098,-2.4931672
58,-2.136981964111328,68.62151336669922,78.1098861694336,-3.179220025513723,13.277343819153682,94.4771365292898,-30.540394,2.7155051,-7.162173,7.064848,-5.630059,-7.8765635,1.2170498,1.8721693,-11.4225025,27.279306,-0.22160101,3.4776828,5.1796675,2.910107,10.372498,34.324955,33.671005,-16.519844,-38.30785,-7.6685195,-2.4028902,12.406322,-3.1526604,-25.978207,18.983582,-37.73802,5.463801,-11.073152,-2.5059295
59,-2.261957883834839,69.94098663330078,78.05326843261719,-3.6583817691572653,12.932942248322368,94.43716953231285,-30.344658,2.8811305,-7.520411,7.004387,-6.5611734,-8.422169,0.94606704,2.0825,-11.26641,30.210205,1.0784066,3.7673302,5.1356387,3.4335983,10.558995,34.22908,33.665306,-16.765623,-38.503986,-8.254773,-2.4432323,13.144891,-2.1537752,-25.97791,19.017857,-37.74266,5.4058633,-11.137526,-2.621868
60,-2.376767873764038,71.26300048828125,77.96448516845703,-3.933662630541466,12.647917750042817,94.49177560448085,-30.002062,2.888683,-7.7659144,6.9700303,-6.8154535,-8.761651,0.36844102,2.0473063,-11.106671,33.54434,2.1310558,3.9564812,4.973132,3.7687542,10.692891,33.748447,33.667263,-17.136282,-38.54784,-8.992838,-2.5165398,13.762334,-1.1419101,-25.933342,19.023966,-37.550755,5.3788986,-11.250866,-2.816523
61,-2.4768261909484863,72.5870361328125,77.85149383544922,-3.993323256600069,12.427058491248411,94.64852561978951,-29.450916,2.7338212,-7.8535814,6.9413276,-6.048654,-9.038037,-0.57077414,1.7987548,-10.87026,37.381653,3.0345042,3.9839928,4.69533,3.907274,10.749318,32.8023,33.67231,-17.693289,-38.387627,-10.027467,-2.6410365,14.252001,-0.12171946,-25.804634,19.014168,-37.11695,5.3852816,-11.424923,-3.1249084
62,-2.581556797027588,73.8694839477539,77.7501449584961,-3.874032864185589,12.249411999751553,94.88801197623746,-28.688227,2.4290876,-7.82155,6.9320965,-4.5160923,-9.253294,-1.7886575,1.3770696,-10.558311,41.620327,3.8200345,3.9342506,4.2758865,3.8717818,10.749511,31.534773,33.672356,-18.358004,-38.123684,-11.327041,-2.8137045,14.671365,0.86879694,-25.58962,19.053291,-36.42508,5.4003053,-11.64248,-3.5517983
63,-2.699779987335205,75.10371398925781,77.65525817871094,-3.5677915241450813,12.101883236537255,95.18133992669527,-27.830257,1.9582132,-7.7317004,6.973103,-2.798585,-9.117113,-3.1281166,0.721476,-10.26514,45.97038,4.309671,3.9200122,3.7461584,3.6384096,10.725362,30.041595,33.6564,-19.033766,-37.8005,-12.584101,-2.9946222,14.989362,1.7930436,-25.30121,19.10732,-35.493076,5.4234486,-11.889971,-3.9953814
64,-2.8079028129577637,76.33895874023438,77.49506378173828,-3.0873243369323298,11.965543504331945,95.49615722301236,-27.955336,1.1830096,-7.6645064,9.162496,-2.559364,-8.327934,-4.4402404,-0.23756349,-10.085171,50.182167,4.304044,4.027669,3.1354291,3.202581,10.716401,28.425001,33.617065,-19.61827,-37.468536,-13.490758,-3.1379077,15.173874,2.6190917,-24.961248,19.140368,-34.344234,5.455675,-12.153208,-4.355333
65,-2.8974313735961914,77.57257080078125,77.25547790527344,-2.400568614203693,11.806727580943134,95.82796732417198,-29.237057,0.03950803,-7.631567,13.928391,-4.0228405,-6.486998,-5.63657,-1.6105242,-10.070584,54.277733,3.629893,4.378986,2.435871,2.53552,10.747053,26.68654,33.54975,-20.080978,-37.149734,-14.021687,-3.2339876,15.151603,3.3124568,-24.589922,19.155554,-32.95644,5.598461,-12.450219,-4.5923553
66,-2.9903764724731445,78.7308578491211,76.99858856201172,-1.6653938540931266,11.569087805471016,96.12582371626425,-30.725475,-1.2166474,-7.5927033,19.462404,-5.948662,-3.918412,-6.7096143,-3.1922443,-10.140978,58.31895,2.4544892,4.8379426,1.6974764,1.799839,10.85184,24.804117,33.45362,-20.466776,-36.841244,-14.318756,-3.2985568,14.9605465,3.9223118,-24.196405,19.163923,-31.359001,5.8224425,-12.780596,-4.7664366
67,-3.092188835144043,79.8619613647461,76.68611907958984,-1.0539404074704706,11.264755421372769,96.34393546400621,-32.025925,-2.367089,-7.527372,24.830206,-7.9989758,-1.3525827,-7.738316,-4.723103,-10.209605,62.204792,1.0434287,5.121338,0.98672074,1.1638416,11.037534,22.81673,33.332973,-20.795593,-36.528896,-14.327631,-3.3261137,14.7372265,4.549208,-23.786806,19.134422,-29.667782,5.933373,-13.102931,-4.9325213
68,-3.20391845703125,80.98905944824219,76.31623840332031,-0.5811106361568908,10.977397626614948,96.50610481517027,-32.85533,-3.30645,-7.393333,29.18847,-9.925565,0.5449453,-8.914374,-6.099204,-10.1738,65.90926,-0.37630767,4.9933424,0.30713433,0.64360124,11.249088,20.74824,33.197113,-21.090517,-36.17748,-13.996974,-3.3145313,14.617377,5.2903204,-23.36088,19.037083,-27.989832,5.734912,-13.37741,-5.151067
69,-3.304823160171509,82.11743927001953,75.92401123046875,-0.15769338070682576,10.72746866151214,96.64935769505136,-33.256157,-4.0635624,-7.139661,32.60787,-11.952152,1.6189436,-10.361334,-7.390308,-9.953726,69.58096,-1.899127,4.282458,-0.3827767,0.14015381,11.49367,18.5599,33.05331,-21.344982,-35.76769,-13.223262,-3.32295,14.638558,6.1616206,-22.900558,18.824379,-26.28597,5.0358863,-13.597405,-5.4194484
70,-3.396599292755127,83.235595703125,75.5535888671875,0.2730026114964924,10.512324524137217,96.78944942492828,-33.460632,-4.7274957,-6.81571,35.625256,-14.240228,2.262111,-12.027646,-8.689251,-9.594802,73.2283,-3.624806,3.179357,-1.0980341,-0.40443403,11.751661,16.237535,32.905495,-21.557468,-35.30322,-12.066735,-3.3329928,14.730943,7.1185856,-22.400852,18.515451,-24.518698,3.9849796,-13.779213,-5.712551
71,-3.465118646621704,84.34640502929688,75.23329162597656,0.6795686533492425,10.391815045779419,96.93197517143314,-33.522377,-5.283975,-6.510043,38.19095,-16.526106,2.6506853,-13.858427,-9.941793,-9.188901,76.61756,-5.3312683,2.0029283,-1.8100493,-0.92549837,11.92159,13.844343,32.755856,-21.76129,-34.795666,-10.724754,-3.2255461,14.866132,8.18079,-21.885645,18.181515,-22.807642,2.8998373,-13.919449,-6.062587
72,-3.5079755783081055,85.46542358398438,74.95098114013672,1.0204419860568348,10.421300537984477,97.07955900992677,-33.475773,-5.736126,-6.3067255,40.212017,-18.51796,2.954137,-15.788413,-11.105872,-8.857493,79.51701,-6.7883725,1.0576767,-2.4878042,-1.3422401,11.913489,11.440346,32.602894,-21.995914,-34.260345,-9.395693,-2.8831704,15.009608,9.381656,-21.400347,17.890606,-21.289057,2.1022136,-14.017804,-6.5048537
73,-3.5495123863220215,86.6189956665039,74.70909118652344,1.3044297887269032,10.699407804383618,97.24972751821471,-33.387383,-6.1036882,-6.212003,41.589367,-20.137075,3.1476994,-17.916632,-12.24652,-8.672313,81.92433,-7.9088078,0.41068566,-3.1366017,-1.6186206,11.637703,8.986983,32.44423,-22.300364,-33.68776,-7.991666,-2.1696122,15.174779,10.794294,-20.981604,17.644253,-20.017408,1.5454403,-14.03865,-7.148698
74,-3.593299627304077,87.79808044433594,74.5164566040039,1.554424614419469,11.170668512651956,97.44173369256416,-33.231407,-6.387101,-6.1754932,42.417454,-21.547565,3.1634464,-20.246157,-13.370285,-8.574235,83.95424,-8.816938,-0.09968562,-3.7710595,-1.7885566,11.170762,6.461292,32.270126,-22.656256,-33.07809,-6.461244,-1.1807327,15.355342,12.411604,-20.63901,17.403482,-18.948938,1.1166699,-13.9941225,-7.947938
75,-3.6435701847076416,88.98346710205078,74.38318634033203,1.740177382231613,11.657447135718282,97.62681126379736,-32.89414,-6.571455,-6.1981606,42.869015,-22.80836,3.112955,-22.554436,-14.355261,-8.514886,85.54456,-9.595656,-0.514342,-4.3752527,-1.8724817,10.679202,3.9452817,32.063457,-23.013098,-32.445362,-5.053171,-0.15217382,15.494889,14.13803,-20.374699,17.183805,-18.06827,1.0367823,-13.965577,-8.706811
76,-3.7047576904296875,90.1886978149414,74.30480194091797,1.8293087726596038,11.982739669501807,97.77224464325613,-32.259926,-6.6398325,-6.283179,43.114895,-23.978731,3.104686,-24.620096,-15.072096,-8.448976,86.63564,-10.322605,-0.86272436,-4.938674,-1.8947893,10.329257,1.524515,31.808582,-23.310648,-31.802326,-4.0101547,0.6768325,15.551838,15.863597,-20.184172,17.0085,-17.349886,1.5225593,-14.039123,-9.231465
77,-3.781078338623047,91.40035247802734,74.28255462646484,1.7995554060150933,12.07179408055866,97.85536096578168,-31.253216,-6.5729895,-6.4357834,43.19545,-25.097311,3.172342,-26.378347,-15.466778,-8.360982,87.203995,-11.000691,-1.1404043,-5.4430823,-1.8669412,10.189418,-0.80339223,31.4891,-23.536873,-31.117018,-3.388802,1.2756705,15.498484,17.584736,-20.067991,16.898527,-16.806946,2.8954747,-14.271394,-9.448766
78,-3.836256265640259,92.60967254638672,74.32091522216797,1.673141388565847,12.028183463310949,97.89629417744307,-29.949476,-6.382556,-6.6494417,43.021896,-26.126366,3.258701,-27.943508,-15.616404,-8.298372,87.28501,-11.587969,-1.3271725,-5.905268,-1.7750266,10.164527,-3.0904548,31.100924,-23.723736,-30.37068,-3.0548396,1.758055,15.3683605,19.340042,-20.026947,16.841063,-16.435085,4.956137,-14.604993,-9.459492
79,-3.873936414718628,93.82249450683594,74.41436004638672,1.4757760185925552,11.942904346168024,97.92561172392894,-28.457851,-6.0967817,-6.913046,42.56688,-27.007257,3.3347406,-29.3596,-15.590536,-8.311512,86.90064,-12.098476,-1.4298483,-6.3645444,-1.6104267,10.176598,-5.3200126,30.660534,-23.87687,-29.603048,-2.9611776,2.1009536,15.223483,21.087906,-20.04872,16.803894,-16.195223,7.1340685,-14.951914,-9.335013
80,-3.9004013538360596,95.03173828125,74.55453491210938,1.240340902437909,11.907351574422469,97.9741279680574,-26.888319,-5.7421384,-7.21706,41.80318,-27.681934,3.3685138,-30.670912,-15.459125,-8.447059,86.07264,-12.54803,-1.4546083,-6.8587327,-1.3679745,10.149238,-7.459628,30.20159,-23.996447,-28.878664,-3.0634654,2.2822328,15.127393,22.782394,-20.113955,16.755733,-16.043295,8.850664,-15.230384,-9.158727
81,-3.9241816997528076,96.24711608886719,74.73661041259766,0.9424552101818215,11.924763886432524,98.06853332707475,-25.220995,-5.2949066,-7.5997677,40.67145,-28.165848,3.344558,-31.85633,-15.189814,-8.740863,84.74788,-12.962804,-1.3778294,-7.416389,-1.025143,10.090775,-9.516159,29.758833,-24.086767,-28.22051,-3.5056949,2.2412055,15.114151,24.419727,-20.212204,16.697208,-16.00026,10.034886,-15.427776,-8.937903
82,-3.9545204639434814,97.5038070678711,74.966552734375,0.5794274207329724,11.954131476142196,98.18702903845222,-23.42012,-4.7456756,-8.044951,39.209583,-28.48367,3.2793138,-32.89694,-14.776473,-9.159128,82.92906,-13.329834,-1.2065403,-8.009885,-0.6054414,10.04279,-11.481058,29.346626,-24.145247,-27.628914,-4.267674,2.0078816,15.151218,26.018469,-20.339697,16.63751,-16.078669,10.96225,-15.581656,-8.635311
83,-3.993582010269165,98.75750732421875,75.21847534179688,0.2077842514237922,12.02018921550034,98.28661327358212,-21.570705,-4.14587,-8.466802,37.537262,-28.590029,3.1860378,-33.83486,-14.319168,-9.64837,80.71457,-13.608197,-0.9913257,-8.589823,-0.1683302,9.9752865,-13.3018,28.967535,-24.16214,-27.135769,-5.059183,1.6967303,15.20183,27.562523,-20.486967,16.556234,-16.219257,11.570708,-15.694975,-8.276531
84,-4.031239986419678,100.020263671875,75.48902130126953,-0.11615584442724798,12.147054789871328,98.32364807056197,-19.752289,-3.551,-8.784144,35.768158,-28.437527,3.0777664,-34.71146,-13.904776,-10.160193,78.20373,-13.75139,-0.7754254,-9.104971,0.23097274,9.852598,-14.934843,28.61589,-24.129814,-26.758062,-5.588965,1.4236525,15.232265,29.037708,-20.6404,16.431948,-16.360125,11.795778,-15.772935,-7.886417
85,-4.064439296722412,101.30142974853516,75.77030944824219,-0.38791627622214636,12.355520319558615,98.2768955489496,-17.934046,-2.9551198,-8.97933,33.79903,-28.00427,2.9576855,-35.55186,-13.53032,-10.691311,75.38038,-13.733385,-0.54284114,-9.538002,0.58999056,9.641861,-16.364935,28.28642,-24.039833,-26.505953,-5.7701616,1.1993312,15.2460985,30.452154,-20.791094,16.247046,-16.48803,11.488837,-15.811437,-7.459226
86,-4.092027187347412,102.58757019042969,76.06001281738281,-0.6343700038251271,12.627020650122171,98.17200796030998,-16.09177,-2.343531,-9.092576,31.617945,-27.321405,2.8136086,-36.315617,-13.139855,-11.273001,72.188774,-13.578257,-0.2680064,-9.912757,0.9361537,9.366001,-17.628868,27.980463,-23.907866,-26.357752,-5.759693,0.969649,15.258006,31.811943,-20.937153,16.009197,-16.632656,10.722864,-15.817809,-6.985868
87,-4.131229400634766,103.88355255126953,76.34797668457031,-0.8476359753878644,12.926814140741765,98.03578166272118,-14.313257,-1.762376,-9.136283,29.479214,-26.422218,2.6406999,-36.951653,-12.735779,-11.907666,68.67184,-13.318476,0.025166146,-10.240675,1.2599031,9.069802,-18.761875,27.700277,-23.758211,-26.282156,-5.634191,0.75398445,15.254245,33.096783,-21.073416,15.738278,-16.789446,9.766983,-15.812997,-6.486048
88,-4.16525936126709,105.19589233398438,76.63624572753906,-1.0181652706309132,13.22027628896786,97.89535740821718,-12.684173,-1.253821,-9.12863,27.634796,-25.338371,2.4402714,-37.412487,-12.326812,-12.594241,64.86977,-12.986515,0.30613795,-10.533214,1.54972,8.798191,-19.79971,27.448708,-23.615776,-26.244875,-5.471446,0.57150847,15.220239,34.28244,-21.19277,15.45711,-16.953148,8.8893,-15.813238,-5.9791865
89,-4.189504146575928,106.50489044189453,76.92350006103516,-1.1415971965719782,13.508827657826572,97.74576735759598,-11.196779,-0.82287514,-9.057598,26.072733,-23.995075,2.2105272,-37.68019,-11.968071,-13.388152,60.72212,-12.595656,0.4798902,-10.782483,1.7980579,8.556211,-20.751495,27.227905,-23.483242,-26.243044,-5.2762923,0.42230067,15.150778,35.352257,-21.292896,15.152082,-17.10733,8.028799,-15.821856,-5.432198
90,-4.216855049133301,107.81671905517578,77.19879913330078,-1.221622945702696,13.805906197011662,97.57701790223051,-9.809475,-0.45499218,-8.928173,24.681984,-22.4045,1.9572555,-37.771053,-11.614115,-14.276599,56.20389,-12.116313,0.6066279,-10.985061,2.0081675,8.32144,-21.598824,27.038193,-23.35121,-26.295708,-5.0136156,0.29766193,15.055064,36.319923,-21.372417,14.817556,-17.257544,7.084864,-15.833327,-4.8460646
91,-4.236949920654297,109.12796020507812,77.4567642211914,-1.2590893576497444,14.094719806624159,97.41097571086182,-8.557937,-0.16000208,-8.787346,23.568563,-20.720545,1.6947018,-37.69293,-11.152882,-15.137435,51.398186,-11.512372,0.8671191,-11.158541,2.1805673,8.098633,-22.339346,26.87973,-23.228783,-26.392365,-4.701662,0.20394993,14.939568,37.203876,-21.426966,14.488106,-17.421923,6.2634196,-15.842582,-4.2907543
92,-4.262991428375244,110.44725036621094,77.6919937133789,-1.2566169571962786,14.35650005271637,97.27239802263708,-7.477631,0.05135739,-8.683801,22.83945,-19.09838,1.4364454,-37.453762,-10.512277,-15.832082,46.382595,-10.744109,1.4116138,-11.320974,2.3132224,7.8947062,-22.970533,26.752142,-23.128153,-26.524887,-4.356592,0.14782438,14.810913,38.020184,-21.452133,14.196102,-17.616215,5.7697473,-15.838294,-3.835411
93,-4.280209064483643,111.77774810791016,77.89965057373047,-1.202296312897648,14.592208585967633,97.16499053809112,-6.544391,0.17241228,-8.611974,22.441814,-17.513723,1.1782285,-37.012028,-9.667156,-16.279829,40.93651,-9.747345,2.2631853,-11.474372,2.4007041,7.710712,-23.498568,26.65957,-23.053339,-26.696438,-3.9311976,0.14425744,14.663876,38.78608,-21.44525,13.939213,-17.856142,5.677829,-15.813336,-3.4948304
94,-4.285069942474365,113.114013671875,78.0732650756836,-1.0779650837782306,14.796027145028928,97.0942080478584,-5.715827,0.18588711,-8.564768,22.303596,-15.883836,0.9122472,-36.322853,-8.739999,-16.53097,35.0041,-8.531087,3.2937517,-11.623836,2.4219284,7.553604,-23.924475,26.603704,-23.000813,-26.910648,-3.4350252,0.18514496,14.496782,39.489124,-21.407236,13.70398,-18.12821,5.869082,-15.768702,-3.2325215
95,-4.298664093017578,114.46204376220703,78.20668029785156,-0.864044151535755,14.934731174434752,97.09044353807298,-4.976139,0.06642178,-8.585259,22.457396,-14.251636,0.6461546,-35.389683,-7.882505,-16.645046,28.915552,-7.16409,4.434547,-11.803877,2.3500578,7.4416795,-24.231035,26.582933,-22.959478,-27.161837,-2.9714253,0.24326424,14.320896,40.1018,-21.347645,13.517698,-18.41655,6.2617464,-15.703788,-3.045258
96,-4.2978339195251465,115.80732727050781,78.2947006225586,-0.541836271079693,14.97593611886034,97.18444580563954,-4.310307,-0.21281566,-8.716028,22.931143,-12.654348,0.39370468,-34.25002,-7.214268,-16.701994,23.060143,-5.728612,5.6544843,-12.024252,2.153841,7.3887973,-24.435865,26.57511,-22.948383,-27.41557,-2.6397943,0.2922288,14.147523,40.61038,-21.245636,13.384624,-18.701035,6.767966,-15.619199,-2.9183295
97,-4.289194583892822,117.15070343017578,78.33468627929688,-0.04585516684194358,14.901080631510045,97.41808630556531,-3.705234,-0.7151772,-8.964166,23.719784,-11.04739,0.19754198,-32.859493,-6.7420006,-16.653183,17.30811,-4.149826,7.173625,-12.349456,1.7799778,7.400453,-24.518036,26.579853,-22.93422,-27.683111,-2.4507835,0.34974837,13.957994,41.028347,-21.141136,13.328596,-18.99357,7.453543,-15.505951,-2.882761
98,-4.270708084106445,118.51079559326172,78.31849670410156,0.666494780674641,14.695082389935758,97.79911408286625,-3.117895,-1.4834137,-9.321784,24.764843,-9.39652,0.054693956,-31.155619,-6.4944153,-16.480604,11.4635315,-2.387626,8.952302,-12.746654,1.1715927,7.4798765,-24.5266,26.601068,-22.96936,-27.944397,-2.3595338,0.42369193,13.753923,41.367634,-20.95484,13.317997,-19.28433,8.312515,-15.3672695,-2.9160857
99,-4.235185623168945,119.86681365966797,78.26123809814453,1.4564649313608335,14.39533362214502,98.2353598818131,-2.6045053,-2.3790302,-9.775285,26.12914,-7.819825,-0.110467024,-29.79745,-6.5791755,-16.303774,7.0665097,-1.2035261,10.597653,-13.150938,0.46443188,7.6007185,-24.430115,26.62854,-23.036167,-28.196037,-2.367938,0.47191274,13.568012,41.597866,-20.747633,13.362659,-19.579622,9.221405,-15.223651,-2.9999886
100,-4.196090221405029,121.21348571777344,78.18346405029297,2.103295396134368,14.08641162408107,98.5918307585406,-2.2884629,-3.1833503,-10.28709,27.932125,-6.4717693,-0.39550266,-30.057209,-7.1212792,-16.171253,6.8862743,-1.9806923,11.721283,-13.449324,-0.117830865,7.720947,-24.199091,26.645153,-23.11604,-28.43765,-2.4773264,0.45058542,13.432601,41.68048,-20.576628,13.455499,-19.877222,10.059495,-15.095151,-3.1070173
101,-4.161104679107666,122.55653381347656,78.0758285522461,2.575414321215516,13.794505782656733,98.83713586942254,-2.1984177,-3.9044967,-10.89678,30.21294,-5.3558536,-0.8628586,-30.015217,-7.519389,-16.506296,6.7646995,-2.608256,12.477632,-13.610912,-0.53907573,7.8226213,-23.80699,26.645367,-23.20926,-28.680109,-2.7206614,0.32818416,13.354332,41.631306,-20.455349,13.600099,-20.1931,10.869265,-14.974572,-3.2636676
102,-4.127054214477539,123.9019775390625,77.93901824951172,2.9550221399284826,13.510575754623641,99.00744256678718,-2.3106127,-4.6223617,-11.573422,32.93147,-4.4190464,-1.462854,-29.737747,-7.828046,-17.144192,6.737945,-3.0852375,13.017483,-13.654517,-0.8906612,7.9016933,-23.29307,26.632668,-23.336636,-28.900906,-3.083252,0.1348549,13.314012,41.431015,-20.323448,13.804367,-20.484306,11.68103,-14.857834,-3.4709804
103,-4.109485626220703,125.26189422607422,77.7685317993164,3.0521531896423824,13.29808586989389,99.04228950454937,-2.7076445,-5.076401,-12.185779,36.13126,-3.7761066,-2.1490836,-29.309296,-7.782896,-17.806198,6.724919,-3.1782541,12.874934,-13.52354,-0.97355664,7.960622,-22.695618,26.604397,-23.48753,-29.087116,-3.496622,-0.084625095,13.313154,41.03458,-20.198566,14.030567,-20.718449,12.382712,-14.766465,-3.6589344
104,-4.107438087463379,126.62910461425781,77.5684814453125,2.7317988147070644,13.197798163795833,98.90459739757574,-3.4181943,-5.0578737,-12.621299,39.782013,-3.4968374,-2.8617408,-28.84146,-7.2015247,-18.191717,6.736136,-2.7153418,11.57784,-13.182815,-0.65016544,8.001612,-22.06101,26.556387,-23.656496,-29.216427,-3.891772,-0.2842211,13.351486,40.385067,-20.080706,14.253049,-20.847967,12.855563,-14.7196665,-3.7586973
105,-4.092950820922852,127.96256256103516,77.40496826171875,1.8365840848998607,13.261076974600293,98.5212236676943,-4.4955754,-4.3904486,-12.851102,43.985928,-3.5997853,-3.6309686,-28.40759,-5.8500276,-18.097557,6.821028,-1.2018588,8.283116,-12.558662,0.23511589,7.983187,-21.395884,26.465437,-23.86887,-29.26188,-4.27682,-0.47432455,13.468467,39.45625,-19.96094,14.4655285,-20.848906,13.056027,-14.735024,-3.7232277
106,-4.0711989402771,129.26841735839844,77.23863983154297,0.48982764683902147,13.390962323684267,97.97001810174578,-5.7913294,-3.2367659,-13.031903,48.629738,-4.012571,-4.4870176,-28.220612,-4.009757,-17.81142,7.6392965,0.87498456,3.5068328,-11.731961,1.5645227,7.9431553,-20.693968,26.319965,-24.12419,-29.226925,-4.67827,-0.6725039,13.647987,38.338955,-19.869707,14.666912,-20.809595,13.063649,-14.795728,-3.6003945
107,-4.062671184539795,130.56468200683594,77.00325012207031,-0.7937476102666737,13.383126957277243,97.49738760224736,-7.0021024,-2.1289368,-13.253963,53.306194,-4.6071877,-5.300223,-30.185045,-3.026445,-17.513876,13.712131,0.24144256,-1.1246152,-10.941919,2.8301616,7.992381,-19.987541,26.15105,-24.383299,-29.121405,-5.060488,-0.839164,13.79844,37.125126,-19.822296,14.856853,-20.814014,12.921871,-14.867504,-3.4625688
108,-4.030788421630859,131.81227111816406,76.70387268066406,-1.6715291629515594,13.142505235088718,97.26666513502144,-8.006366,-1.3993703,-13.527639,57.77581,-5.342194,-5.950457,-31.310774,-2.4209096,-17.51902,18.599577,-0.79614455,-4.145519,-10.334956,3.703311,8.208312,-19.313862,25.982632,-24.610561,-28.954014,-5.3845677,-0.9358139,13.833165,35.841663,-19.804256,15.031592,-20.878323,12.666788,-14.917293,-3.3738978
109,-3.990429639816284,133.0218963623047,76.32894897460938,-2.2342326047799075,12.644862788442895,97.27028202357513,-8.830108,-0.8742894,-13.80961,62.215164,-6.3898168,-6.4904428,-31.761478,-2.2364588,-17.772007,22.901344,-3.113521,-4.971484,-9.895527,4.2708426,8.665956,-18.726662,25.834461,-24.781097,-28.71245,-5.6776667,-0.9442868,13.724957,34.45908,-19.79912,15.171312,-21.013582,12.247875,-14.962642,-3.291125
110,-3.957115411758423,134.19786071777344,75.89453125,-2.6967748122994446,12.000618318356302,97.38784232969493,-9.622484,-0.3264375,-14.075127,66.772736,-7.7601914,-6.94251,-31.918877,-2.2995377,-18.162565,27.266233,-6.455188,-4.5103865,-9.522131,4.743339,9.28517,-18.17096,25.710932,-24.911066,-28.42608,-5.952586,-0.8881626,13.530376,32.930695,-19.803637,15.288415,-21.16917,11.660978,-15.014307,-3.1953063
111,-3.9180452823638916,135.3866424560547,75.45960235595703,-3.132736126510087,11.407277350618354,97.51275943501544,-10.568777,0.21896714,-14.362328,71.24895,-9.231121,-7.1946254,-31.906475,-2.4497244,-18.61498,31.34168,-10.043845,-3.583783,-9.140622,5.198419,9.873396,-17.502924,25.607073,-25.01695,-28.171783,-6.142064,-0.7947673,13.293179,31.230469,-19.836857,15.418955,-21.247168,11.016352,-15.028512,-3.182113
112,-3.8825745582580566,136.58126831054688,75.069580078125,-3.568583149278725,11.040852965043415,97.56064844293519,-11.8228445,0.6539135,-14.70964,75.417366,-10.562877,-7.1434402,-31.782377,-2.4643173,-18.989918,34.60115,-13.024871,-2.9858017,-8.700351,5.671733,10.247289,-16.575304,25.514206,-25.106909,-28.023785,-6.180432,-0.6918688,13.053694,29.345135,-19.929453,15.608007,-21.164564,10.4297695,-14.959153,-3.3520648
113,-3.887725591659546,137.7973175048828,74.74290466308594,-4.042282204354652,11.01640998052828,97.49360124494409,-13.550201,0.9211657,-15.165196,79.34423,-11.733276,-6.591482,-31.598162,-2.1981008,-19.257837,36.792923,-15.164674,-2.884278,-8.182533,6.218497,10.303675,-15.2772045,25.410439,-25.13555,-28.049883,-5.947567,-0.57977104,12.76872,27.20821,-20.117779,15.890989,-20.86443,9.954236,-14.761435,-3.7423804
114,-3.94144868850708,139.0302276611328,74.46702575683594,-4.538902733285337,11.220054502355698,97.35269995474945,-15.630118,1.0564855,-15.699983,83.110634,-12.846831,-5.6684217,-31.337801,-1.7553102,-19.499777,38.23816,-16.91954,-2.8703637,-7.623335,6.8199606,10.1533985,-13.6912155,25.291433,-25.089176,-28.200933,-5.5093784,-0.4491094,12.4281845,24.857439,-20.404476,16.259806,-20.433323,9.538476,-14.469099,-4.3084564
115,-4.000846862792969,140.26632690429688,74.23762512207031,-4.987800469710751,11.474906662678615,97.18227384875688,-17.782606,1.0712963,-16.222246,86.512184,-13.849986,-4.7614346,-30.924633,-1.2447037,-19.686302,39.187458,-18.435274,-2.8606741,-7.0537887,7.3760514,9.943602,-11.956717,25.186077,-25.037443,-28.386698,-5.0750866,-0.3117273,12.124758,22.43039,-20.754963,16.688503,-19.996086,9.136184,-14.151737,-5.020652
116,-4.0269036293029785,141.4806671142578,74.06877899169922,-5.316789215944066,11.604897111271468,97.03344858990528,-19.732069,1.0021478,-16.637892,89.33878,-14.691019,-4.2507105,-30.258904,-0.7848616,-19.788582,39.875317,-19.854864,-2.768056,-6.50442,7.777838,9.826432,-10.220763,25.144985,-25.06204,-28.52037,-4.860801,-0.17573711,11.958385,20.048138,-21.11647,17.139282,-19.649534,8.688857,-13.876439,-5.8376594
117,-4.031911849975586,142.7102508544922,73.9546890258789,-5.486950198700767,11.561611825182128,96.9292734854396,-21.417484,0.8752762,-16.912018,91.53135,-15.302816,-4.301121,-29.265429,-0.4193475,-19.793365,40.310715,-21.230385,-2.553968,-5.9841876,7.9578114,9.84467,-8.505659,25.220757,-25.223661,-28.554642,-4.892645,-0.021755844,12.015779,17.64162,-21.45169,17.673147,-19.272926,8.101978,-13.654414,-6.9104266
118,-4.028203964233398,143.94944763183594,73.8911361694336,-5.544996826020096,11.439801842394134,96.84050730630021,-22.9918,0.6846026,-17.088232,93.210884,-15.725997,-4.6839356,-28.00231,-0.09231591,-19.712887,40.384724,-22.481215,-2.2720642,-5.4747047,7.967743,9.928218,-6.715812,25.431343,-25.459845,-28.579412,-5.0782294,0.14724958,12.237595,15.14427,-21.747011,18.300045,-18.820332,7.4226155,-13.442111,-8.191854
119,-4.0135979652404785,145.20269775390625,73.88529968261719,-5.538741706279388,11.277601323758626,96.74333050171634,-24.499119,0.43386135,-17.191378,94.42619,-16.07026,-5.178657,-26.55657,0.22451332,-19.558758,40.149002,-23.552923,-1.9668602,-4.966534,7.8798532,10.056324,-4.8309317,25.765644,-25.672915,-28.698053,-5.452747,0.29159248,12.503576,12.6779,-21.994759,18.897417,-18.48442,6.7947273,-13.234024,-9.341824
120,-4.005804061889648,146.4362030029297,73.92396545410156,-5.518679800838866,11.11307677574769,96.61392899754622,-25.980875,0.12317397,-17.250492,95.220406,-16.444748,-5.568619,-25.017832,0.56303704,-19.341105,39.657387,-24.391853,-1.6835471,-4.439585,7.769046,10.199156,-2.848398,26.188448,-25.78359,-28.991976,-6.0465517,0.37298873,12.690291,10.374165,-22.195513,19.3287,-18.457224,6.360259,-13.038359,-10.022376
121,-4.021064281463623,147.69332885742188,74.00808715820312,-5.489097911851116,10.925258964986584,96.4442549462345,-27.430477,-0.2878617,-17.288897,95.58256,-16.898449,-5.8195925,-23.360882,0.93438,-19.043924,38.89705,-24.992243,-1.4427861,-3.8773232,7.6513057,10.366586,-0.7716888,26.673256,-25.800976,-29.441778,-6.991366,0.37661415,12.780842,8.248644,-22.353182,19.529757,-18.794458,6.173867,-12.879256,-10.064714
122,-4.055966377258301,148.95066833496094,74.1275405883789,-5.42668805415467,10.703633749835992,96.2461787203331,-28.831139,-0.77565867,-17.287262,95.490456,-17.362999,-6.039044,-21.550117,1.3147447,-18.658972,37.847435,-25.37902,-1.2167292,-3.281615,7.493402,10.556901,1.3755182,27.212416,-25.764294,-29.97814,-8.223514,0.3254701,12.83055,6.237407,-22.474604,19.579203,-19.375418,6.1478734,-12.754614,-9.676962
123,-4.093602180480957,150.1990509033203,74.28108978271484,-5.340056390275933,10.502132865651838,96.02611331256044,-30.205648,-1.2449023,-17.211718,94.96828,-17.772985,-6.2240295,-19.661098,1.6865693,-18.208126,36.551647,-25.545713,-0.97893256,-2.6632857,7.2965074,10.721193,3.56966,27.789602,-25.642134,-30.608027,-9.478836,0.24134283,12.8216095,4.351804,-22.569443,19.550991,-20.126575,6.212551,-12.637077,-9.091132
124,-4.137086391448975,151.4523468017578,74.47058868408203,-5.234947020814796,10.374918454389523,95.79073815635323,-31.573957,-1.6039867,-17.026072,94.03832,-18.062319,-6.373424,-17.769129,2.0332673,-17.715612,35.051083,-25.48511,-0.702601,-2.0345867,7.060489,10.8123,5.785902,28.383492,-25.405928,-31.336306,-10.492615,0.14666255,12.735909,2.6124012,-22.650507,19.516354,-20.987873,6.2977686,-12.497956,-8.539591
125,-4.188957214355469,152.7167510986328,74.69107055664062,-5.1156553575405095,10.346983285581747,95.5098242797487,-32.956505,-1.838432,-16.70706,92.67577,-18.22902,-6.5248914,-15.8750305,2.371261,-17.142744,33.268646,-25.181372,-0.37276298,-1.3703136,6.790683,10.807501,8.047441,28.97393,-25.029976,-32.190647,-11.217921,0.029214084,12.5334425,1.0291167,-22.727608,19.459896,-22.004627,6.4043117,-12.337407,-8.012536
126,-4.248897075653076,153.99415588378906,74.93932342529297,-4.9763297608252275,10.386413524661354,95.18935144622728,-34.322914,-1.9871769,-16.273785,90.86746,-18.309284,-6.6677294,-13.941965,2.6922994,-16.48371,31.209585,-24.642214,-0.0055051874,-0.6750062,6.484693,10.733163,10.356653,29.549603,-24.53577,-33.148155,-11.785468,-0.11390178,12.230597,-0.40873367,-22.804932,19.357073,-23.190649,6.564144,-12.167026,-7.415983
127,-4.316351890563965,155.28208923339844,75.21143341064453,-4.801523954643817,10.461604819136737,94.89079046326155,-35.616127,-2.0508401,-15.748069,88.66069,-18.28748,-6.7342234,-11.993623,2.947705,-15.817742,29.04308,-23.898573,0.38214618,-0.0033682985,6.1317573,10.618822,12.648429,30.10532,-23.9705,-34.137825,-12.19823,-0.24852471,11.895807,-1.6972982,-22.884287,19.257238,-24.455645,6.753934,-11.976741,-6.854933
128,-4.384760856628418,156.5939483642578,75.48975372314453,-4.579717884888347,10.540876997083178,94.6762512712391,-36.775597,-2.0383685,-15.149413,86.097984,-18.152811,-6.663192,-10.058875,3.0964062,-15.229581,26.941391,-22.982168,0.7759319,0.5868529,5.7237134,10.495921,14.861084,30.640575,-23.37523,-35.093426,-12.457505,-0.34147635,11.597613,-2.8375752,-22.966208,19.210201,-25.700354,6.950572,-11.756556,-6.4327273
129,-4.448146343231201,157.9102783203125,75.77222442626953,-4.29317000520222,10.614656085938794,94.57129364423083,-37.789097,-1.9832559,-14.453755,83.16496,-17.911633,-6.432876,-8.086435,3.1316009,-14.735234,24.828375,-21.867989,1.1984271,1.0775601,5.2471347,10.371946,16.99152,31.158062,-22.745977,-36.011253,-12.517392,-0.37084702,11.352202,-3.8112898,-23.05141,19.225258,-26.945036,7.1496177,-11.474103,-6.2189083
130,-4.518068313598633,159.2351837158203,76.05329895019531,-3.9504432348920084,10.699696611858727,94.53995606283122,-38.66118,-1.8912767,-13.639625,79.83476,-17.576365,-6.09787,-6.0899777,3.0757258,-14.294621,22.659187,-20.551945,1.6537389,1.500462,4.7078676,10.234694,19.073086,31.655691,-22.061855,-36.92933,-12.390986,-0.36092338,11.12458,-4.615911,-23.141848,19.269463,-28.234388,7.3616066,-11.144657,-6.144438
131,-4.587138652801514,160.57022094726562,76.33372497558594,-3.5834683737176984,10.80255201114229,94.55278656545728,-39.36009,-1.7363176,-12.73289,76.12734,-17.142223,-5.7156563,-4.1978526,2.9425855,-13.915324,20.663338,-19.103083,2.0970998,1.8732374,4.134589,10.085363,21.089914,32.126,-21.341543,-37.835506,-12.167465,-0.34778628,10.906604,-5.2679415,-23.240337,19.325716,-29.519218,7.5840898,-10.83017,-6.102429
132,-4.656251430511475,161.91629028320312,76.60929870605469,-3.2273791898920354,10.92932733227422,94.58173763182843,-39.858364,-1.491401,-11.766658,72.05827,-16.601757,-5.3438683,-2.5313408,2.752616,-13.606808,19.06591,-17.594143,2.4798062,2.2142777,3.563059,9.923163,23.011663,32.55703,-20.613358,-38.699486,-11.934318,-0.366214,10.68956,-5.7865,-23.35083,19.374798,-30.748018,7.8136873,-10.591402,-5.984538
133,-4.739254474639893,163.27740478515625,76.87738800048828,-2.8694137948442724,11.089683882701202,94.63762363747772,-40.138046,-1.1357678,-10.669225,67.5182,-15.949022,-4.9600935,-1.1157844,2.4918413,-13.390764,17.91298,-16.009903,2.786413,2.518277,2.9825542,9.740309,24.823832,32.942905,-19.882534,-39.504433,-11.69508,-0.42813292,10.4608965,-6.176463,-23.481234,19.41073,-31.91651,8.0762615,-10.439542,-5.779783
134,-4.817595481872559,164.63504028320312,77.13880157470703,-2.503759365653411,11.273340102110856,94.73138219726124,-40.180344,-0.7321703,-9.426471,62.501842,-15.183663,-4.585006,0.11582849,2.1686144,-13.259612,17.092907,-14.327135,3.0401769,2.7791011,2.3911915,9.543371,26.52649,33.282326,-19.146038,-40.2545,-11.406499,-0.5137856,10.227168,-6.4188194,-23.63715,19.434332,-33.06256,8.3652935,-10.342473,-5.5386806
135,-4.896441459655762,165.9886474609375,77.3861083984375,-2.1775676976370004,11.456560677621358,94.83664329952362,-39.980843,-0.35749844,-8.181784,57.182365,-14.299571,-4.3186994,1.1744926,1.8393312,-13.181781,16.618124,-12.614578,3.2506163,3.0135329,1.8464751,9.3502655,28.10644,33.56881,-18.42793,-40.95399,-11.082564,-0.6096976,10.008064,-6.5017476,-23.817223,19.43473,-34.177567,8.629946,-10.295546,-5.24403
136,-4.990358829498291,167.34158325195312,77.61658477783203,-1.9402339887963975,11.616791210938558,94.92560100526377,-39.56531,-0.055969615,-7.101134,51.737648,-13.282342,-4.2304926,2.0692205,1.559373,-13.125277,16.501753,-10.939552,3.4285684,3.2398744,1.4068341,9.175409,29.540993,33.79349,-17.758102,-41.59592,-10.736117,-0.70158654,9.822238,-6.416784,-24.01534,19.401579,-35.247288,8.81816,-10.2943535,-4.8771524
137,-5.094200611114502,168.70509338378906,77.82555389404297,-1.790001068518404,11.76742527423857,94.98907888168162,-38.908264,0.20231564,-6.1944637,45.95671,-11.976188,-4.32648,2.8011296,1.3294008,-13.092222,16.708244,-9.249375,3.57261,3.4688983,1.0699779,9.010359,30.833439,33.94626,-17.127178,-42.176617,-10.311946,-0.78110635,9.648524,-6.15611,-24.232353,19.324217,-36.28339,8.936806,-10.35908,-4.382311
138,-5.211483001708984,170.0844268798828,77.99618530273438,-1.7140665191533064,11.906567542126458,95.03156605563566,-37.9841,0.44678405,-5.3927035,39.745632,-10.386716,-4.559987,3.3929698,1.1393428,-13.087701,17.204077,-7.5089073,3.683739,3.6949937,0.8204761,8.85653,31.9802,34.027145,-16.533699,-42.689,-9.817434,-0.8560456,9.481783,-5.732627,-24.471302,19.211016,-37.283577,9.007455,-10.4840555,-3.78416
139,-5.32557487487793,171.481689453125,78.13040161132812,-1.740792200965175,11.9888941978672,95.0409437104047,-36.83489,0.6811226,-4.764265,33.463634,-8.751937,-4.890197,3.8991435,1.0310657,-13.080525,17.976593,-5.798236,3.7732995,3.9155512,0.696787,8.742362,32.9537,34.04905,-16.017572,-43.128693,-9.359028,-0.93472636,9.364937,-5.179271,-24.725939,19.082405,-38.203396,9.000793,-10.626735,-3.1837058
140,-5.443104267120361,172.88253784179688,78.21514892578125,-1.8993787957607537,11.970041254273454,95.00705076885943,-35.533184,0.93077385,-4.384077,27.526321,-7.3357806,-5.268173,4.3679943,1.0439657,-13.041973,19.019787,-4.200607,3.8453374,4.1275682,0.7356449,8.69423,33.72849,34.033794,-15.618813,-43.49121,-9.045399,-1.0251986,9.343146,-4.5299735,-24.98324,18.958963,-38.99821,8.88364,-10.745407,-2.6807864
141,-5.566048622131348,174.29751586914062,78.24392700195312,-2.239690842014152,11.83165411383708,94.91921057790626,-34.0581,1.2579377,-4.3903685,21.850912,-6.240334,-5.6773987,4.843307,1.2294673,-12.978874,20.285475,-2.6625116,3.9199095,4.348283,0.9838618,8.722535,34.342403,33.99754,-15.32995,-43.795166,-8.859882,-1.1337732,9.417355,-3.7714338,-25.236124,18.840273,-39.663246,8.578253,-10.828416,-2.2803576
142,-5.690284729003906,175.7239990234375,78.22357940673828,-2.7757176880991543,11.577003879365138,94.76402539523092,-32.39104,1.7547898,-4.719489,16.28996,-5.325365,-6.116895,5.3323054,1.6030823,-12.8877325,21.740755,-1.1359069,3.973444,4.5955377,1.4492887,8.828955,34.814354,33.947105,-15.131175,-44.056503,-8.763188,-1.2539171,9.571407,-2.8966475,-25.484583,18.71506,-40.2173,8.123261,-10.898873,-1.932219
143,-5.820609092712402,177.15142822265625,78.15542602539062,-3.429722308796833,11.225941722869134,94.5630791613445,-30.651548,2.4052439,-5.1273513,11.198797,-4.502059,-6.558158,5.7624974,2.0766947,-12.754412,23.481684,0.2468001,3.9481363,4.833091,2.0563412,8.998236,35.082706,33.8914,-15.046346,-44.262108,-8.829427,-1.3752855,9.8246355,-1.9524841,-25.722212,18.592102,-40.643814,7.658963,-10.966455,-1.6548513
144,-5.9503254890441895,178.5775146484375,78.06227111816406,-4.046641043661157,10.840441806404806,94.37565215945534,-29.055412,3.0500448,-5.3640685,7.0701323,-3.7353926,-6.978584,5.992501,2.4718316,-12.597854,25.671824,1.3192968,3.799756,4.988486,2.652178,9.181507,35.06742,33.839302,-15.1042185,-44.374023,-9.133186,-1.4896781,10.197184,-0.99726623,-25.935276,18.485205,-40.908062,7.3240147,-11.0399885,-1.4670948
145,-6.08674955368042,179.98707580566406,77.94868469238281,-4.617549533467384,10.43159879607642,94.21812269370335,-29.013391,3.5082583,-5.452125,6.957758,-4.757631,-7.557702,5.967233,2.7980938,-12.355044,28.425333,2.0511472,3.4699125,5.038235,3.2289004,9.353408,34.75349,33.799,-15.3443575,-44.37475,-9.731301,-1.6020206,10.762813,-0.03365394,-26.109507,18.423885,-40.99035,7.1235247,-11.102804,-1.3981146
146,-6.2245402336120605,181.38702392578125,77.8089599609375,-5.137292425105779,10.013341458497331,94.10128339458761,-28.728983,3.9372838,-5.433625,6.901697,-5.556281,-8.251001,5.7056103,3.0340493,-12.077832,31.684359,2.5008621,3.0005202,4.973636,3.768799,9.5051775,34.194973,33.773823,-15.724204,-44.287655,-10.577245,-1.7238352,11.489981,0.92393,-26.220999,18.417536,-40.86458,6.9876714,-11.155565,-1.4259535
147,-6.347081661224365,182.78236389160156,77.63568115234375,-5.438947757758478,9.663951050559977,94.07589505556386,-28.307165,4.1524935,-5.3500614,6.886791,-5.7802496,-8.639163,5.181738,2.9342735,-11.946285,35.330154,2.6353943,2.5015452,4.7683916,4.1021147,9.606585,33.33978,33.751892,-16.202522,-44.080063,-11.585684,-1.8565264,12.244233,1.8574921,-26.284224,18.4146,-40.54017,6.9533057,-11.234447,-1.5013273
148,-6.471271991729736,184.12411499023438,77.49907684326172,-5.363985088072922,9.454386242643066,94.18395387566886,-27.847378,3.968971,-5.24485,6.9075885,-5.0931478,-8.296683,4.3850894,2.252591,-12.114096,39.237583,2.4254348,2.081231,4.378107,4.050915,9.632983,32.20036,33.72431,-16.687773,-43.765167,-12.67566,-1.9952106,12.884508,2.7041118,-26.285576,18.396927,-39.988865,7.051362,-11.375637,-1.5727203
149,-6.595513343811035,185.42092895507812,77.3844985961914,-4.777282479299106,9.435266953215997,94.47506606143351,-27.360966,3.217182,-5.1159806,6.9591208,-2.7550163,-6.8870482,3.2996368,0.77009934,-12.685388,43.47935,1.8133991,1.7966466,3.7629879,3.4837098,9.523218,30.695702,33.675545,-17.216843,-43.292675,-13.959353,-2.1273065,13.370547,3.4309828,-26.204643,18.373745,-39.170486,7.3674226,-11.60317,-1.6223358
150,-6.707027435302734,186.69952392578125,77.22627258300781,-3.8841913948811757,9.487298805643341,94.86097109308278,-28.951275,1.9133338,-4.9608917,11.723876,-1.5906905,-4.778237,2.0775583,-1.2550313,-13.45047,47.977486,0.88245016,1.549987,2.9775827,2.600842,9.350655,28.954407,33.60488,-17.745218,-42.755733,-15.43559,-2.2575035,13.767095,4.027925,-26.029024,18.398134,-38.07427,7.8543534,-11.891701,-1.6727937
151,-6.786243438720703,187.9831085205078,76.95117950439453,-3.0274133778173167,9.445156580415153,95.18384959790929,-30.573017,0.66418004,-4.626464,16.980997,-0.70437336,-2.6018322,0.9097741,-3.347372,-14.130485,52.432568,-0.21170828,1.2216307,2.1858797,1.7395232,9.266352,27.089827,33.51536,-18.221533,-42.2159,-16.834696,-2.3994672,14.111272,4.5588703,-25.776386,18.419846,-36.764565,8.347496,-12.2008095,-1.720097
152,-6.88102388381958,189.20285034179688,76.6388168334961,-2.389773549012919,9.24262977601748,95.36074459857801,-31.740871,-0.27328986,-4.2271767,21.695843,-0.9357886,-0.8291185,-0.18641907,-5.201275,-14.519547,56.6876,-1.3861557,0.73522663,1.4855701,1.0783826,9.357836,25.155064,33.411797,-18.619982,-41.68064,-17.890366,-2.5676527,14.44241,5.0986676,-25.466774,18.377018,-35.307873,8.68386,-12.494182,-1.7705837
153,-6.987548828125,190.37583923339844,76.27595520019531,-1.9146666999532287,8.840568357548522,95.3905356972226,-32.59367,-0.9846348,-3.8716393,26.351025,-3.1675014,0.56868285,-1.2574207,-6.898938,-14.587233,60.92057,-2.7609432,0.056627646,0.8678139,0.54921573,9.685526,23.106188,33.296684,-18.926926,-41.140507,-18.627872,-2.8391726,14.735412,5.616556,-25.11167,18.23356,-33.65659,8.896831,-12.784721,-1.7715644
154,-7.102563858032227,191.5272979736328,75.85540008544922,-1.4913609496428084,8.31585195833102,95.33464927601003,-33.346012,-1.6345272,-3.577782,31.312468,-6.791086,1.841878,-2.3708117,-8.595543,-14.443523,65.211525,-4.375379,-0.75108504,0.2796549,0.045227557,10.1735,20.90739,33.171387,-19.16852,-40.578506,-19.158937,-3.1789243,14.983219,6.1161385,-24.712727,18.011969,-31.827635,9.052949,-13.086727,-1.7443326
155,-7.2277703285217285,192.67042541503906,75.41846466064453,-1.0897353590717271,7.842827504800925,95.26368619177202,-33.934925,-2.2460341,-3.3417182,35.921288,-10.725792,2.9306686,-3.6456952,-10.219717,-14.128152,69.322525,-6.0578704,-1.5757209,-0.30769724,-0.43986225,10.647294,18.606857,33.042236,-19.384363,-39.961693,-19.349476,-3.433951,15.255742,6.7136164,-24.273443,17.743675,-29.973406,9.036574,-13.367463,-1.8129814
156,-7.368009567260742,193.81776428222656,75.03115844726562,-0.6836562026428451,7.592765873874475,95.25003089579666,-34.30383,-2.8268752,-3.117496,39.5129,-13.872967,3.7741804,-5.2025495,-11.68725,-13.696799,73.01967,-7.627428,-2.3023427,-0.9273849,-0.903758,10.930262,16.257753,32.918583,-19.614588,-39.264584,-19.068773,-3.4506392,15.625692,7.5293903,-23.799961,17.458738,-28.24449,8.731378,-13.593156,-2.1038115
157,-7.479491233825684,194.9705352783203,74.70843505859375,-0.2220353383671696,7.686612504891942,95.33724647595314,-34.49889,-3.3962035,-2.8452733,41.866276,-15.964873,4.3090053,-7.2075806,-13.002955,-13.136041,76.33053,-9.0819435,-2.9374075,-1.6264571,-1.3749361,10.929605,13.81951,32.817474,-19.884274,-38.47014,-18.164814,-3.183174,16.172798,8.631933,-23.28084,17.126635,-26.658857,7.849661,-13.717435,-2.7489815
158,-7.549956321716309,196.13832092285156,74.44943237304688,0.2837595321411089,8.016564061353598,95.49183648958603,-34.574444,-3.9439623,-2.5439677,43.422043,-17.61575,4.5939007,-9.582048,-14.182825,-12.434965,79.36669,-10.49293,-3.509334,-2.3830936,-1.855237,10.737553,11.282255,32.74115,-20.173885,-37.604153,-16.757797,-2.7034817,16.837778,9.956115,-22.713066,16.733873,-25.141724,6.5391216,-13.754905,-3.6469507
159,-7.588180065155029,197.31614685058594,74.2415542602539,0.7481816198382389,8.406480387610113,95.66316366303366,-34.453888,-4.417024,-2.2749267,44.46485,-19.033564,4.748781,-12.054598,-15.156679,-11.681476,81.99895,-11.773304,-3.9472954,-3.1283731,-2.2853658,10.464863,8.748359,32.66546,-20.453783,-36.70015,-15.122055,-2.0368776,17.477026,11.415726,-22.129383,16.346436,-23.709797,5.3374352,-13.776169,-4.5791283
160,-7.640378952026367,198.48768615722656,74.08447265625,1.0848838833733936,8.679935918218431,95.79510909728316,-34.05201,-4.7661753,-2.1043487,45.263687,-20.417746,4.8923283,-14.34418,-15.871946,-10.976929,84.09395,-12.837926,-4.1827207,-3.7936952,-2.6004658,10.233669,6.3114386,32.549328,-20.690323,-35.781197,-13.523529,-1.2193512,17.942202,12.925681,-21.582977,16.042927,-22.388945,4.78427,-13.87801,-5.3394136
161,-7.698970317840576,199.6666717529297,73.98777770996094,1.2655597748170067,8.796288781852429,95.86299979479911,-33.310883,-4.9684625,-2.0449102,45.840088,-21.83019,5.0379963,-16.396551,-16.315031,-10.346634,85.61567,-13.622081,-4.132475,-4.354563,-2.759596,10.067148,3.9510977,32.349876,-20.887026,-34.805405,-11.847465,-0.10455511,18.180923,14.514373,-21.116304,15.858307,-21.163889,5.073037,-14.118407,-5.949451
162,-7.774487018585205,200.87425231933594,73.95794677734375,1.3373198945773666,8.847021711866352,95.89840821681831,-32.282837,-5.0493393,-2.0629146,46.065422,-23.161486,5.12922,-18.34612,-16.52676,-9.769568,86.64089,-14.179329,-3.8547976,-4.8608546,-2.7833934,9.910689,1.604307,32.048798,-21.060902,-33.73406,-10.001681,1.2702864,18.23588,16.220139,-20.73986,15.757216,-20.048342,5.911939,-14.451867,-6.5038443
163,-7.851703643798828,202.0984344482422,73.99258422851562,1.3251982605976163,8.85470103019416,95.92690518092591,-31.046947,-5.0357018,-2.154756,45.98283,-24.353271,5.1799173,-20.190327,-16.548222,-9.2789955,87.20201,-14.604289,-3.4948149,-5.3470435,-2.7075598,9.774152,-0.70821583,31.653294,-21.203152,-32.59101,-8.279182,2.5814369,18.13162,17.970163,-20.454197,15.711058,-19.112703,7.111446,-14.827367,-6.9060335
164,-7.9351887702941895,203.3467254638672,74.09526062011719,1.2509191304719955,8.842403410539518,95.97449360276113,-29.68383,-4.955561,-2.3164763,45.637524,-25.347813,5.205043,-21.929031,-16.420555,-8.901773,87.33204,-14.992004,-3.1971629,-5.847433,-2.5749552,9.670031,-2.9489136,31.193401,-21.29789,-31.422297,-6.9795284,3.5064144,17.92956,19.689413,-20.253672,15.691751,-18.431604,8.482344,-15.185076,-7.0609326
165,-8.00051212310791,204.57183837890625,74.24661254882812,1.0958996612389473,8.782920576172259,96.04959832744169,-28.1688,-4.788666,-2.565794,45.032574,-26.149517,5.2072797,-23.548306,-16.09579,-8.637599,87.006935,-15.3668165,-3.0006413,-6.366683,-2.3900268,9.644265,-5.1266394,30.691792,-21.32557,-30.214989,-6.2182884,3.9448707,17.603157,21.375994,-20.138056,15.706955,-18.079357,10.239753,-15.521925,-6.8772583
166,-8.057727813720703,205.77732849121094,74.4388656616211,0.8579368586302301,8.675097783660007,96.13879915703063,-26.476034,-4.525429,-2.8912704,44.150604,-26.784786,5.18175,-25.045675,-15.589368,-8.476486,86.216805,-15.680075,-2.8303726,-6.888531,-2.1449766,9.68454,-7.2481556,30.15758,-21.300993,-28.974262,-5.8288617,4.0700936,17.164423,23.06187,-20.108257,15.765298,-18.003399,12.404658,-15.844731,-6.4179554
167,-8.108375549316406,206.965087890625,74.67051696777344,0.5890289162450456,8.580916621052012,96.2348591360126,-24.684517,-4.2118664,-3.2487743,43.00996,-27.232302,5.1312647,-26.436552,-15.032998,-8.427086,85.00998,-15.916965,-2.6588027,-7.412422,-1.8630766,9.716761,-9.262798,29.60979,-21.25712,-27.780209,-5.694946,3.976654,16.749012,24.730438,-20.152088,15.836216,-18.089256,14.4895525,-16.112696,-5.8310947
168,-8.157075881958008,208.1582489013672,74.93993377685547,0.3421646817040973,8.562726196622341,96.32988824534831,-22.875164,-3.8945987,-3.5983615,41.628998,-27.469358,5.055182,-27.736502,-14.548333,-8.500991,83.43316,-16.059572,-2.4541562,-7.9346843,-1.565414,9.665815,-11.112995,29.074043,-21.222872,-26.723501,-5.703741,3.759216,16.491892,26.365923,-20.246832,15.8856535,-18.224297,16.0,-16.305439,-5.271992
169,-8.203173637390137,209.38983154296875,75.24317169189453,0.1120186447613917,8.64120583499876,96.43460507693423,-21.016699,-3.5691092,-3.968324,39.896477,-27.516495,4.9537764,-28.943802,-14.133907,-8.732677,81.448586,-16.10942,-2.1777577,-8.465299,-1.2459719,9.504082,-12.77169,28.572752,-21.207512,-25.842754,-5.914899,3.361513,16.465351,27.977127,-20.379633,15.912803,-18.410164,16.793386,-16.421856,-4.752962
170,-8.244869232177734,210.63372802734375,75.5611572265625,-0.12246493417683725,8.782560898807244,96.54870138974525,-19.08869,-3.2131767,-4.36647,37.84669,-27.379791,4.8231406,-30.044365,-13.7324915,-9.108291,79.03977,-16.073328,-1.8505831,-9.000417,-0.90299106,9.279346,-14.255582,28.114567,-21.194517,-25.113579,-6.3662543,2.7613814,16.589657,29.56343,-20.545666,15.928614,-18.693378,17.129143,-16.480629,-4.2047734
171,-8.293754577636719,211.8954620361328,75.88819122314453,-0.3343925193207063,8.9667277856561,96.64624117948884,-17.182915,-2.8510385,-4.7264023,35.712822,-27.015345,4.654065,-31.02904,-13.367656,-9.573602,76.274475,-15.945764,-1.5239502,-9.513202,-0.56168216,9.026392,-15.570017,27.700811,-21.172606,-24.53352,-6.908446,2.1034844,16.771751,31.09317,-20.732433,15.911988,-19.018656,17.111164,-16.506582,-3.6610363
172,-8.343879699707031,213.1692657470703,76.22119140625,-0.5003927559575112,9.173516504485791,96.70144677776028,-15.388849,-2.5112917,-4.984114,33.72669,-26.378973,4.4386163,-31.890783,-13.057679,-10.07574,73.220116,-15.720144,-1.2473803,-9.973914,-0.24822451,8.776487,-16.730951,27.32833,-21.13537,-24.08634,-7.393762,1.5345174,16.922344,32.536358,-20.921745,15.839719,-19.330038,16.841627,-16.522207,-3.1535554
173,-8.400247573852539,214.43875122070312,76.55452728271484,-0.608021950372282,9.412451571205684,96.6976077857582,-13.693646,-2.2013009,-5.1066794,31.847254,-25.398571,4.158261,-32.640823,-12.832158,-10.637121,69.85856,-15.396228,-1.0547559,-10.366763,0.026312385,8.518219,-17.729963,26.992653,-21.07793,-23.780499,-7.813127,1.0737816,17.043919,33.89516,-21.103483,15.690212,-19.616724,16.173117,-16.527338,-2.667435
174,-8.45754623413086,215.72451782226562,76.8895034790039,-0.6714540263302171,9.689117441775727,96.65113740540178,-12.060355,-1.914979,-5.138489,29.985546,-24.117445,3.8220687,-33.267128,-12.641027,-11.289407,66.14947,-14.971547,-0.89304394,-10.704956,0.27785322,8.237454,-18.571402,26.69371,-21.012863,-23.612736,-8.234522,0.65008044,17.175503,35.18212,-21.274155,15.475403,-19.90227,15.104759,-16.52021,-2.1914017
175,-8.51283073425293,217.00570678710938,77.21809387207031,-0.7093654722310647,9.97649454273982,96.58587944986581,-10.540088,-1.6617563,-5.1336007,28.301218,-22.665722,3.4684358,-33.732975,-12.391756,-11.981977,62.1214,-14.434839,-0.6858196,-11.000617,0.51481175,7.960666,-19.2921,26.435036,-20.963673,-23.547415,-8.626347,0.2770002,17.287703,36.383526,-21.426018,15.219575,-20.17931,13.956621,-16.514683,-1.7609082
176,-8.564470291137695,218.29312133789062,77.5423812866211,-0.734084074319407,10.247466867375076,96.52678663752067,-9.183448,-1.4464923,-5.145288,26.953075,-21.171778,3.1367419,-34.00483,-12.014297,-12.650192,57.79666,-13.773303,-0.37289056,-11.266898,0.7425163,7.715001,-19.92773,26.222155,-20.954176,-23.55383,-8.958262,-0.03154851,17.352026,37.480854,-21.547752,14.951342,-20.437366,13.048553,-16.5181,-1.4116768
177,-8.607138633728027,219.56472778320312,77.85753631591797,-0.7518162462751165,10.50236014167884,96.46735909855518,-7.979047,-1.2672048,-5.1856265,25.916874,-19.596874,2.8309093,-34.059044,-11.533088,-13.303752,53.06328,-12.972207,-0.04632782,-11.49725,0.96500427,7.5100265,-20.486149,26.063707,-20.998621,-23.640665,-9.238732,-0.25217715,17.38014,38.458424,-21.630692,14.654795,-20.661339,12.385579,-16.525099,-1.1317552
178,-8.647562980651855,220.84732055664062,78.15386199951172,-0.7495972837787205,10.75044555587055,96.40122967292533,-6.900924,-1.1269273,-5.231558,25.124456,-17.893545,2.5316029,-33.903736,-10.972332,-13.958521,47.906868,-12.023578,0.29486746,-11.688482,1.1690733,7.3319407,-20.946444,25.961618,-21.085688,-23.826466,-9.481405,-0.39816973,17.384293,39.323864,-21.670876,14.325894,-20.853382,11.820428,-16.530231,-0.9068956
179,-8.679798126220703,222.13845825195312,78.42214965820312,-0.7140517576678631,10.97553673316004,96.35581742055028,-5.9612765,-1.0377431,-5.282846,24.635468,-16.16791,2.2420068,-33.548412,-10.298925,-14.538678,42.476704,-10.921765,0.8224847,-11.861748,1.329359,7.175635,-21.30271,25.91373,-21.199327,-24.081888,-9.664229,-0.5097457,17.33587,40.086952,-21.669336,14.0119095,-21.031273,11.442154,-16.536068,-0.76989424
180,-8.692242622375488,223.43258666992188,78.65650939941406,-0.6258705300636014,11.158986721929645,96.36253185304082,-5.166843,-1.0161737,-5.340404,24.502207,-14.521302,1.9680867,-32.998554,-9.510161,-14.955274,36.911552,-9.656928,1.6897467,-12.033115,1.422885,7.0358224,-21.565145,25.898502,-21.334188,-24.365396,-9.759574,-0.6273412,17.205107,40.77727,-21.631376,13.748235,-21.224928,11.343777,-16.544172,-0.75259405
181,-8.703052520751953,224.733642578125,78.8516616821289,-0.4531570970181258,11.2925570046999,96.4479808926037,-4.5009007,-1.094323,-5.386392,24.709816,-12.945935,1.7354531,-32.17839,-8.59236,-15.077639,30.931702,-8.115135,3.0168226,-12.221438,1.4197464,6.9106965,-21.738,25.911154,-21.495752,-24.67007,-9.752602,-0.7544171,16.973618,41.41964,-21.551567,13.541079,-21.447506,11.616823,-16.56056,-0.90126616
182,-8.708789825439453,226.04603576660156,78.99657440185547,-0.15153275039767286,11.356388896703143,96.62563433776013,-3.8989625,-1.324989,-5.441419,25.15998,-11.353556,1.5413597,-31.005707,-7.6870008,-14.935543,24.407858,-6.287689,4.6473827,-12.447796,1.2792782,6.8177786,-21.82132,25.954855,-21.684471,-25.008368,-9.658088,-0.8708496,16.656622,42.004433,-21.43532,13.376256,-21.692125,12.188518,-16.58315,-1.1896074
183,-8.705119132995605,227.35955810546875,79.07437896728516,0.32539091493392686,11.309612725723627,96.91004746492466,-3.2980778,-1.7716613,-5.5643334,25.796858,-9.734846,1.3561195,-29.523293,-7.024481,-14.698763,17.811543,-4.3603115,6.34681,-12.724686,0.9426685,6.7804904,-21.83424,26.026197,-21.90114,-25.35607,-9.497905,-0.9824063,16.277437,42.51192,-21.288397,13.252744,-21.954006,12.900384,-16.601543,-1.535531
184,-8.71622371673584,228.68466186523438,79.08955383300781,0.9641387271404135,11.138954220258736,97.28291008883346,-2.6897368,-2.434406,-5.801044,26.621044,-8.111354,1.1403055,-27.862343,-6.7102137,-14.589816,11.710589,-2.533509,7.9201665,-13.037954,0.409009,6.80493,-21.790588,26.118153,-22.140226,-25.690575,-9.291694,-1.0952327,15.858824,42.912205,-21.11943,13.173246,-22.220009,13.594642,-16.603224,-1.8584135
185,-8.708514213562012,229.99887084960938,79.06193542480469,1.6964573038216022,10.889166324459904,97.70591656723093,-2.1716666,-3.2284148,-6.1282268,27.728321,-6.489334,0.86611706,-26.48852,-6.7154546,-14.692678,6.99492,-1.2416219,9.47971,-13.352765,-0.24839036,6.866907,-21.691616,26.224585,-22.392164,-26.007584,-9.010734,-1.2062773,15.368348,43.19531,-20.93108,13.136209,-22.47997,14.314186,-16.581278,-2.1618843
186,-8.69482421875,231.31874084472656,78.99407958984375,2.4492779944142034,10.598381145306606,98.14466568101518,-1.8166735,-4.0706344,-6.5043097,29.200584,-4.919461,0.5409459,-26.944784,-7.284469,-14.724531,6.7813873,-2.169358,11.094811,-13.645243,-0.9419604,6.9435024,-21.52629,26.330162,-22.646921,-26.31474,-8.649001,-1.3171487,14.8030815,43.37137,-20.747066,13.13873,-22.739126,15.123209,-16.546335,-2.4864674
187,-8.679101943969727,232.63075256347656,78.89756774902344,3.1159933047065453,10.29511952169208,98.5347570084968,-1.6563847,-4.8596716,-6.9216404,31.081026,-3.5221357,0.15936603,-27.206758,-7.760096,-14.865223,6.653328,-2.9558256,12.502441,-13.866202,-1.5508965,7.0214825,-21.2814,26.409409,-22.895636,-26.60704,-8.253082,-1.4411088,14.229981,43.419754,-20.61272,13.170443,-22.990915,15.896314,-16.508478,-2.8019588
188,-8.65012264251709,233.9242706298828,78.78083038330078,3.601381337325579,9.992043573231856,98.82805722579332,-1.68803,-5.510533,-7.3880453,33.386654,-2.4099705,-0.28781518,-27.22484,-8.031882,-15.068718,6.562499,-3.5532537,13.449469,-13.949628,-1.996399,7.1080294,-20.963995,26.48224,-23.179329,-26.890541,-7.885173,-1.5914527,13.737952,43.30701,-20.494244,13.219528,-23.202202,16.488539,-16.474022,-3.0601943
189,-8.618254661560059,235.21714782714844,78.6418228149414,3.995899800119443,9.670265465289516,99.02850085737788,-1.8714689,-6.1611795,-7.9335394,36.10612,-1.5293515,-0.8160876,-26.93208,-8.198906,-15.407103,6.530801,-4.042401,14.038419,-13.873181,-2.40284,7.1927524,-20.595251,26.586039,-23.56558,-27.150658,-7.533026,-1.7849638,13.372958,43.016136,-20.331333,13.29847,-23.339252,16.862589,-16.441813,-3.2369034
190,-8.578893661499023,236.50885009765625,78.45858001708984,4.297346010449752,9.328365639099351,99.15663005618137,-2.2067974,-6.799578,-8.54702,39.23951,-0.85896236,-1.4299203,-26.345139,-8.249878,-15.892287,6.543123,-4.401841,14.356111,-13.716907,-2.703202,7.291545,-20.10961,26.64388,-23.92234,-27.4163,-7.153062,-2.005716,13.034526,42.59249,-20.249012,13.39652,-23.482082,17.110748,-16.40368,-3.373442
191,-8.56436538696289,237.818603515625,78.2298583984375,4.392649703692937,9.020400061026884,99.1993339147619,-2.705511,-7.2471027,-9.154155,42.674202,-0.4727034,-2.1003513,-25.620802,-8.045076,-16.299028,6.5915694,-4.475847,14.132932,-13.428293,-2.8097584,7.381536,-19.595945,26.697712,-24.314627,-27.637894,-6.827485,-2.226624,12.749481,42.017498,-20.180544,13.514081,-23.583935,17.235516,-16.3666,-3.4813104
192,-8.577364921569824,239.11936950683594,77.95079040527344,4.166752855119175,8.788219851191526,99.15360947169752,-3.3676305,-7.3169403,-9.6950655,46.29668,-0.44257885,-2.7940638,-24.905573,-7.4315424,-16.413681,6.6708307,-4.111508,13.100994,-13.0041275,-2.5971484,7.45855,-19.083853,26.752441,-24.715273,-27.806248,-6.6261334,-2.4176176,12.496841,41.262226,-20.116436,13.6464205,-23.615372,17.241903,-16.334242,-3.57632
193,-8.620267868041992,240.43128967285156,77.61795806884766,3.474901181389479,8.654311690504013,98.98640524225121,-4.2092404,-6.846036,-10.157853,50.19078,-0.84027725,-3.4797382,-24.191168,-6.1647344,-16.030628,6.687604,-2.849466,10.82736,-12.41326,-1.916767,7.510965,-18.530594,26.806915,-25.118616,-27.948513,-6.6173863,-2.5831034,12.277075,40.345547,-20.057,13.787414,-23.598894,17.084984,-16.308413,-3.6371562
194,-8.628990173339844,241.710205078125,77.28948974609375,2.460276898819534,8.553849361168083,98.7382489831542,-5.142451,-6.021107,-10.613711,54.307255,-1.5797997,-4.181199,-23.440512,-4.434403,-15.357951,6.7362313,-0.82596016,7.639653,-11.71567,-0.8886258,7.5580916,-17.916262,26.821949,-25.486494,-28.070911,-6.742582,-2.7304742,12.065246,39.308315,-20.05362,13.91672,-23.589684,16.7882,-16.281933,-3.659293
195,-8.613527297973633,242.96893310546875,76.94792175292969,1.2970583669213231,8.419537848217407,98.49752495384506,-6.071254,-5.0303707,-11.147412,58.43001,-2.5544486,-4.968827,-22.62828,-2.540864,-14.828497,6.810183,1.268781,4.3497047,-10.989131,0.2887737,7.652305,-17.321331,26.822731,-25.837412,-28.145338,-6.8852806,-2.835046,11.857523,38.141106,-20.074152,14.053583,-23.573692,16.427074,-16.248981,-3.6907117
196,-8.545870780944824,244.18321228027344,76.61672973632812,0.1999361732146508,8.209357347554654,98.34305089227006,-6.9419403,-4.0984797,-11.787887,62.359035,-3.6579802,-5.8930645,-23.769772,-1.3864051,-14.6619835,11.388408,0.23415779,1.7053628,-10.320698,1.4003853,7.8392057,-16.780735,26.817606,-26.12935,-28.1787,-6.925634,-2.8704078,11.621068,36.823322,-20.114086,14.2008295,-23.543669,16.080412,-16.198458,-3.7708726
197,-8.494627952575684,245.35687255859375,76.21733856201172,-0.8759509223349168,7.8769700673757095,98.2925577693864,-7.707222,-3.0950677,-12.505664,66.16297,-4.986098,-7.164332,-24.837145,-0.47822672,-15.0637665,16.264889,-2.1342707,-0.28740078,-9.737788,2.5033507,8.188851,-16.343166,26.820826,-26.314137,-28.18238,-6.8904347,-2.7987652,11.330737,35.32508,-20.16426,14.346321,-23.50878,15.770025,-16.139969,-3.859364
198,-8.471367835998535,246.49777221679688,75.72472381591797,-1.9669979387507273,7.4610364467305015,98.31326523604586,-8.426073,-1.9887336,-13.246692,69.92721,-6.5608153,-8.659289,-25.998661,0.19093868,-15.722234,21.797123,-5.5985622,-2.0080626,-9.197331,3.6304784,8.658952,-15.968085,26.840532,-26.424791,-28.172762,-6.8307962,-2.6446362,11.00889,33.658085,-20.206686,14.476005,-23.466173,15.448561,-16.072336,-3.938392
199,-8.432633399963379,247.61099243164062,75.19280242919922,-2.9463194411728004,7.092343198227059,98.36353559962417,-9.277282,-1.0505667,-14.017106,73.54314,-8.195259,-9.952879,-27.024084,0.6442352,-16.35324,27.101738,-9.319775,-3.3963616,-8.701546,4.6484456,9.117533,-15.45365,26.888695,-26.444447,-28.23551,-6.654439,-2.4772298,10.677418,31.793768,-20.280176,14.650161,-23.344685,15.094782,-15.971454,-4.1022916
200,-8.39039421081543,248.7119903564453,74.71508026123047,-3.709634804425764,6.904666797355001,98.38991447026272,-10.436625,-0.5577673,-14.856108,76.89659,-9.694184,-10.641766,-27.719654,1.0130147,-16.766716,31.269817,-12.395888,-4.3698287,-8.18907,5.459637,9.429142,-14.660705,26.932411,-26.40619,-28.404593,-6.2685833,-2.3677788,10.356381,29.775915,-20.413214,14.863795,-23.133678,14.701498,-15.806979,-4.423031
201,-8.400986671447754,249.8238525390625,74.31439971923828,-4.254822894644764,7.020427533672717,98.34666230843484,-12.098462,-0.70203,-15.902719,80.08195,-11.053929,-10.42467,-28.152872,1.3806866,-16.989887,34.08661,-14.627337,-4.7724595,-7.634593,6.0852833,9.498919,-13.467421,26.939465,-26.233461,-28.772966,-5.5129986,-2.3726096,9.996948,27.528044,-20.658016,15.159486,-22.79518,14.311031,-15.5464115,-4.945057
202,-8.45075798034668,250.9403533935547,73.98399353027344,-4.676881055994501,7.354503419414054,98.24665928432326,-14.129737,-1.2969564,-17.107414,83.138374,-12.349838,-9.612115,-28.452574,1.7262826,-17.162342,36.111553,-16.511997,-4.6942377,-7.0609303,6.624517,9.412204,-11.963292,26.902296,-25.917038,-29.289408,-4.4760942,-2.4474716,9.60139,25.072502,-21.020765,15.543266,-22.388378,13.936558,-15.214285,-5.6344786
203,-8.51050853729248,252.08010864257812,73.72361755371094,-5.0026935685479215,7.721339178607552,98.13135934478247,-16.21995,-2.0531716,-18.2351,85.86339,-13.507756,-8.708001,-28.521736,2.0507007,-17.298141,37.577305,-18.168594,-4.4104376,-6.512805,7.0685186,9.308899,-10.285659,26.847021,-25.558681,-29.796648,-3.435399,-2.5074341,9.260272,22.548712,-21.458021,16.008698,-21.99459,13.515367,-14.865765,-6.459642
204,-8.54826545715332,253.20645141601562,73.53114318847656,-5.247508452865516,7.936264450607286,98.05409874563186,-18.078363,-2.6365268,-19.066282,88.043304,-14.463575,-8.192721,-28.238972,2.353412,-17.395653,38.674553,-19.697756,-4.196524,-6.0324984,7.3924413,9.330303,-8.585878,26.820843,-25.281162,-30.142616,-2.6725078,-2.4611013,9.067249,20.081804,-21.900269,16.52917,-21.662039,12.970255,-14.552086,-7.373481
205,-8.5482177734375,254.3363800048828,73.41117095947266,-5.399225514767772,7.929070793896081,98.05079177086493,-19.628645,-2.932385,-19.562082,89.60236,-15.145008,-8.296809,-27.487198,2.6297684,-17.462246,39.358105,-21.120378,-4.09909,-5.640555,7.542009,9.5442,-6.872151,26.86667,-25.140846,-30.24261,-2.2274861,-2.2850838,9.064263,17.615576,-22.29557,17.152817,-21.26011,12.155416,-14.279266,-8.485279
206,-8.525909423828125,255.48312377929688,73.3493423461914,-5.454618994777286,7.806085361262324,98.08973692505779,-21.049809,-3.0909927,-19.839588,90.663246,-15.600486,-8.7094755,-26.351267,2.8889544,-17.49719,39.546738,-22.380981,-3.9922466,-5.2978525,7.523516,9.871496,-5.071397,26.99952,-25.07253,-30.210573,-1.9697385,-2.0236032,9.205946,15.085314,-22.62738,17.87961,-20.765902,11.13791,-14.005352,-9.75745
207,-8.496746063232422,256.6182556152344,73.34358978271484,-5.442623961457847,7.647702410113728,98.12173976610084,-22.4479,-3.1532793,-19.921795,91.3125,-15.962093,-9.091393,-25.013487,3.1488218,-17.473482,39.37753,-23.460016,-3.8868444,-4.9536657,7.403273,10.227767,-3.219028,27.220272,-25.024635,-30.184881,-1.9212052,-1.6836454,9.4547415,12.593227,-22.892424,18.600351,-20.362469,10.152136,-13.719954,-10.920433
208,-8.483207702636719,257.75714111328125,73.39080810546875,-5.389346948657994,7.534185835730345,98.09678993346309,-23.91939,-3.166129,-19.831734,91.630264,-16.36567,-9.111837,-23.65519,3.4180665,-17.360428,38.988327,-24.336897,-3.7826788,-4.5509076,7.2497272,10.52386,-1.3629766,27.514309,-24.963482,-30.290638,-2.1035817,-1.2735142,9.7743225,10.250629,-23.09926,19.19363,-20.242453,9.429215,-13.432693,-11.708552
209,-8.479005813598633,258.89398193359375,73.48155212402344,-5.284068704723904,7.462837482648998,97.99783231286378,-25.488825,-3.1547143,-19.54537,91.62503,-16.890778,-8.630418,-22.281673,3.6785753,-17.13023,38.391216,-25.015882,-3.6767342,-4.068844,7.06309,10.749613,0.47782806,27.87402,-24.92438,-30.517208,-2.5662317,-0.69509417,10.231876,8.062996,-23.25869,19.63266,-20.449137,9.04954,-13.154235,-12.040247
210,-8.47663688659668,260.0120849609375,73.61643981933594,-5.117813804394813,7.398414144970101,97.85088992968753,-27.090776,-3.0890386,-19.056665,91.252266,-17.459763,-7.853242,-20.807884,3.9169147,-16.795094,37.525127,-25.505442,-3.5615556,-3.5330784,6.8140025,10.94327,2.3224833,28.298166,-24.912962,-30.795572,-3.285833,0.016771061,10.829868,5.97824,-23.378023,19.981703,-20.872543,8.878613,-12.89113,-12.064374
211,-8.477143287658691,261.1174011230469,73.78693389892578,-4.923420255982629,7.371922253511229,97.66980350116742,-28.682463,-2.9364257,-18.415604,90.51178,-17.977175,-6.971694,-19.278429,4.1470494,-16.384495,36.415096,-25.790766,-3.4245517,-2.9604533,6.52776,11.086256,4.1792817,28.770706,-24.854837,-31.15309,-4.1745963,0.6563745,11.428727,4.0187016,-23.465008,20.251156,-21.466597,8.824882,-12.653712,-11.866657
212,-8.487035751342773,262.2301330566406,73.99173736572266,-4.735457479478502,7.414714426124977,97.46939969540766,-30.223295,-2.6619198,-17.669325,89.400696,-18.341276,-6.1725917,-17.736216,4.3879647,-15.929105,35.082233,-25.855326,-3.258026,-2.36607,6.2313914,11.159341,6.0516067,29.265074,-24.682932,-31.61544,-5.1363754,1.0239275,11.878221,2.2167838,-23.527796,20.442472,-22.198326,8.798215,-12.450931,-11.533159
213,-8.516829490661621,263.3616027832031,74.22696685791016,-4.563545758109221,7.545350112318017,97.22920099846141,-31.72386,-2.2357688,-16.788677,87.90159,-18.52672,-5.5190005,-16.174269,4.6619525,-15.392481,33.45101,-25.687653,-3.0537367,-1.7246288,5.935187,11.138119,7.9405937,29.75625,-24.384956,-32.187523,-6.2263827,1.0238588,12.123007,0.57815385,-23.576605,20.52122,-23.106995,8.835538,-12.307248,-11.011118
214,-8.549232482910156,264.5111999511719,74.48979187011719,-4.38573316233694,7.743354589247862,96.9486032488164,-33.173622,-1.6873116,-15.745713,86.01398,-18.594992,-4.9182463,-14.572387,4.9432364,-14.765007,31.536415,-25.298773,-2.8180256,-1.0364624,5.6241136,11.034276,9.830279,30.232489,-24.005844,-32.835163,-7.460925,0.7813592,12.232551,-0.9090072,-23.617662,20.493916,-24.198051,8.964873,-12.2103405,-10.285918
215,-8.585916519165039,265.6752014160156,74.76966857910156,-4.189373630649016,7.981832196034269,96.67284093788169,-34.506947,-1.0726207,-14.587717,83.76304,-18.571552,-4.3208084,-12.956073,5.184187,-14.121241,29.497324,-24.708212,-2.566555,-0.35437167,5.284077,10.882224,11.694347,30.688871,-23.567236,-33.518166,-8.682111,0.4335125,12.241873,-2.2418828,-23.654593,20.416868,-25.381588,9.0808935,-12.113321,-9.495614
216,-8.619023323059082,266.8489074707031,75.0712890625,-3.96580851407478,8.233926182747,96.44780683118009,-35.66364,-0.45181927,-13.364261,81.17269,-18.482952,-3.6778715,-11.35652,5.343948,-13.542161,27.497873,-23.937723,-2.3122125,0.2637182,4.904564,10.720244,13.518739,31.126738,-23.077557,-34.210926,-9.733032,0.11584853,12.192112,-3.4190116,-23.686188,20.351326,-26.570635,9.077876,-11.972022,-8.778622
217,-8.65585994720459,268.02630615234375,75.38553619384766,-3.7089692942857764,8.50013747378236,96.28411513308924,-36.64206,0.18567643,-12.036962,78.2288,-18.3653,-2.9295406,-9.736097,5.42569,-13.040023,25.464117,-22.950874,-2.0551999,0.80810386,4.4792094,10.550994,15.314791,31.548403,-22.512169,-34.923676,-10.622802,-0.18045212,12.053098,-4.4256973,-23.710186,20.295101,-27.780212,8.910355,-11.765551,-8.150963
218,-8.68594741821289,269.21600341796875,75.70732116699219,-3.423096246952228,8.79222523986131,96.15860708096474,-37.445374,0.8361837,-10.575742,74.91634,-18.20424,-2.140684,-8.101648,5.4467335,-12.578434,23.354643,-21.753483,-1.7843537,1.3036656,4.010305,10.3599,17.09575,31.952229,-21.867586,-35.67408,-11.419674,-0.50871825,11.815909,-5.270631,-23.72763,20.220625,-29.045012,8.637467,-11.52293,-7.5447607
219,-8.71682357788086,270.3995056152344,76.0287094116211,-3.1173218735259356,9.100321241823709,96.06763409941435,-38.0374,1.4264983,-9.056073,71.25314,-17.945175,-1.4420589,-6.552312,5.400992,-12.171485,21.384726,-20.431332,-1.4987359,1.7440368,3.5099604,10.16072,18.846342,32.335953,-21.181242,-36.45054,-12.054202,-0.80470294,11.561885,-5.982177,-23.741745,20.148201,-30.309755,8.309669,-11.27545,-6.970943
220,-8.744180679321289,271.58929443359375,76.34420776367188,-2.801957225952031,9.414345585708514,96.00758870294096,-38.39177,1.8944683,-7.5630784,67.24056,-17.515182,-0.9519984,-5.1790257,5.28529,-11.832597,19.758718,-19.0704,-1.2021511,2.1231246,2.9935892,9.965809,20.546246,32.695923,-20.492682,-37.237,-12.454558,-1.0065113,11.373996,-6.5892177,-23.757164,20.097736,-31.51734,7.978936,-11.052723,-6.4406657
221,-8.76723861694336,272.7896728515625,76.65763854980469,-2.4611877668823285,9.745382038670686,95.99144953964291,-38.506783,2.2557812,-6.042097,62.7637,-16.865755,-0.62096393,-3.9983852,5.0802917,-11.579999,18.497044,-17.654446,-0.9015072,2.429005,2.4447074,9.771648,22.188034,33.03293,-19.803652,-38.03967,-12.559337,-1.0748299,11.2822275,-7.0927324,-23.77738,20.066055,-32.674698,7.617964,-10.840699,-5.9745502
222,-8.793350219726562,273.99267578125,76.96332550048828,-2.100653041048731,10.0916333208753,96.01752841502099,-38.38332,2.5166175,-4.473747,57.822514,-16.020767,-0.421739,-2.9587495,4.808742,-11.403649,17.498646,-16.151308,-0.596166,2.6695292,1.8717763,9.576593,23.779613,33.34654,-19.09704,-38.86228,-12.418906,-1.0523705,11.24221,-7.4709363,-23.805418,20.03682,-33.816074,7.2132335,-10.63005,-5.55904
223,-8.835286140441895,275.2030944824219,77.2538070678711,-1.7773618938364868,10.423499519225812,96.05862530756525,-38.024776,2.6319256,-3.0235476,52.584652,-15.001451,-0.47716087,-2.0508242,4.5331125,-11.273816,16.7974,-14.620202,-0.27907202,2.8710194,1.3351568,9.395774,25.314451,33.628567,-18.38874,-39.683296,-12.12684,-1.0011135,11.224799,-7.713948,-23.844875,20.006357,-34.926872,6.838736,-10.455886,-5.156577
224,-8.874983787536621,276.4128112792969,77.52354431152344,-1.5447420170347743,10.711013045212647,96.0847806624987,-37.44685,2.5891635,-1.877322,47.206223,-13.821988,-0.8843394,-1.2578834,4.317487,-11.158177,16.41009,-13.110234,0.057554152,3.0625858,0.8972767,9.242535,26.775848,33.865585,-17.702705,-40.466995,-11.773304,-0.98233545,11.19965,-7.8135633,-23.90034,19.971535,-35.9887,6.5679646,-10.352506,-4.729996
225,-8.926590919494629,277.6348571777344,77.76632690429688,-1.4137168402445084,10.955670847420496,96.08818345614573,-36.603485,2.3992043,-1.1098258,41.459816,-12.342986,-1.7022431,-0.5604221,4.1826906,-11.060863,16.292404,-11.596529,0.41645545,3.2526293,0.5688589,9.115684,28.169317,34.046535,-17.035677,-41.19937,-11.319248,-1.0131184,11.150763,-7.7658186,-23.980995,19.930052,-37.01203,6.43076,-10.33328,-4.254933
226,-8.989503860473633,278.8771667480469,77.96602630615234,-1.3793093923066684,11.157293446778866,96.06872668907413,-35.46738,2.1416228,-0.6646418,35.23834,-10.55066,-2.8216238,0.06792306,4.127675,-10.980367,16.396479,-10.038629,0.79723406,3.4392645,0.3448141,9.020371,29.487688,34.169785,-16.386705,-41.8903,-10.731917,-1.0593692,11.093174,-7.571892,-24.092447,19.879847,-38.00694,6.3878536,-10.375743,-3.7573078
227,-9.055129051208496,280.12451171875,78.12590789794922,-1.4694340096893297,11.281820331951712,96.00486123245499,-34.10151,1.9326608,-0.5269224,28.924326,-8.659259,-4.0809298,0.6544081,4.187668,-10.873792,16.731163,-8.45927,1.2010452,3.639439,0.26570848,8.979844,30.69003,34.239376,-15.786803,-42.54048,-10.11171,-1.1048418,11.043611,-7.2363186,-24.231754,19.81923,-38.95495,6.4086795,-10.459141,-3.2741532
228,-9.125617980957031,281.37518310546875,78.24146270751953,-1.709636192194234,11.298234447249317,95.88053783967575,-32.60973,1.8703558,-0.6554786,22.990185,-6.9197254,-5.3344994,1.2138356,4.391116,-10.703949,17.323462,-6.889961,1.6260543,3.8653448,0.36835027,9.012629,31.734768,34.263832,-15.269649,-43.145386,-9.559155,-1.1329682,11.019491,-6.7674494,-24.39056,19.747343,-39.82949,6.460477,-10.563456,-2.8406043
229,-9.20428466796875,282.6372985839844,78.3064956665039,-2.1491042111149787,11.189235970911891,95.67941227737589,-30.973587,1.9948013,-1.1579235,17.395346,-5.3537235,-6.6989956,1.7687138,4.7862387,-10.473214,18.158901,-5.2615366,2.0688796,4.1356907,0.70190847,9.132627,32.64975,34.24755,-14.828941,-43.71466,-9.019839,-1.1396086,11.017966,-6.1498046,-24.565205,19.660782,-40.641594,6.5494742,-10.702791,-2.4447434
230,-9.294459342956543,283.9044494628906,78.316650390625,-2.799832386132138,10.954878316585283,95.39879077107227,-29.12366,2.357193,-2.0055695,11.904121,-3.8402297,-8.190751,2.3395224,5.3970447,-10.185775,19.189661,-3.5615988,2.5296,4.452961,1.2741808,9.338388,33.45548,34.19409,-14.452379,-44.25811,-8.466686,-1.1321754,11.03258,-5.3864627,-24.757528,19.560354,-41.398228,6.6885066,-10.879269,-2.071268
231,-9.386560440063477,285.1697082519531,78.29883575439453,-3.5374931296944645,10.641270208726771,95.0970223831021,-27.296541,2.896481,-2.912755,7.0333204,-2.5545244,-9.528096,2.827384,6.0932674,-9.849776,20.521511,-1.9698132,3.021717,4.753457,1.966399,9.583604,34.078377,34.114872,-14.170085,-44.751907,-8.043528,-1.1133052,11.075242,-4.518356,-24.961855,19.454226,-42.059284,6.852562,-11.05711,-1.7529678
232,-9.486176490783691,286.4212646484375,78.25965118408203,-4.183542797597422,10.326251331522704,94.85754114680084,-27.439896,3.2971911,-3.6967828,6.8770866,-3.5425582,-10.421701,3.077288,6.6733484,-9.498214,22.321447,-0.69812864,3.5639699,4.9511065,2.601124,9.799785,34.42643,34.02598,-14.018559,-45.15448,-7.8962564,-1.0863559,11.160308,-3.59351,-25.163515,19.350859,-42.571312,7.015134,-11.202155,-1.523598
233,-9.582307815551758,287.6647644042969,78.20414733886719,-4.707658787374518,10.03044733676387,94.70633926515191,-27.353043,3.6265066,-4.180511,6.8122816,-4.5130005,-10.855935,3.0368507,7.1362023,-9.05575,24.65984,0.23574242,4.214505,5.022553,3.1497195,9.958675,34.495113,33.93957,-14.015618,-45.469788,-8.0955715,-1.033781,11.301828,-2.606775,-25.348465,19.264196,-42.91845,7.160895,-11.29345,-1.4082252
234,-9.68587589263916,288.90020751953125,78.12113952636719,-5.1298169507230815,9.751688909423455,94.6307692656942,-27.061222,3.8794358,-4.499251,6.8102326,-5.4401984,-10.975119,2.7282526,7.489408,-8.563656,27.507044,0.89784324,4.953759,4.9819984,3.62134,10.068438,34.321537,33.86169,-14.138001,-45.705387,-8.559037,-0.96259815,11.495078,-1.5641372,-25.502241,19.196611,-43.09384,7.3024316,-11.3544,-1.3805387
235,-9.779290199279785,290.1393127441406,78.00247192382812,-5.359437193507833,9.524279975346651,94.63698683674639,-26.637133,3.9545615,-4.7020535,6.8376665,-5.9428644,-10.773475,2.1597292,7.564296,-8.214523,30.792246,1.2416934,5.6651106,4.816028,3.9111276,10.126624,33.872627,33.79185,-14.362314,-45.814045,-9.201455,-0.9132972,11.7246895,-0.51958376,-25.617985,19.13743,-43.076923,7.4575133,-11.418064,-1.401549
236,-9.860149383544922,291.3985290527344,77.84825897216797,-5.314459443849254,9.378640616750028,94.72730138000865,-26.152603,3.7501497,-4.83674,6.872307,-5.6438375,-10.234432,1.3500777,7.1836467,-8.187775,34.42984,1.2351867,6.220677,4.5089183,3.9154155,10.132031,33.13684,33.73288,-14.651156,-45.771854,-9.939497,-0.9261041,11.973965,0.46107605,-25.679394,19.08514,-42.83207,7.6424665,-11.517301,-1.4318026
237,-9.930425643920898,292.6078186035156,77.71790313720703,-4.914735264221013,9.337144335539367,94.92350589220614,-25.588602,3.1703725,-4.8779826,6.896879,-3.9577699,-9.319464,0.29068303,6.231374,-8.504616,38.478,0.854657,6.594893,4.041035,3.55706,10.04995,32.057346,33.68021,-15.048888,-45.534267,-10.832116,-1.0283563,12.270994,1.3862333,-25.686707,19.058487,-42.35898,7.8884683,-11.663538,-1.5005597
238,-10.007076263427734,293.791015625,77.5809326171875,-4.241609317741017,9.348592414131536,95.19240027157068,-24.977503,2.306016,-4.779609,7.093729,-1.3230876,-8.074473,-0.9329869,4.815688,-9.006437,42.860577,0.17394039,6.8257627,3.4674509,2.9274075,9.894559,30.63019,33.621758,-15.58772,-45.10029,-11.888306,-1.1960844,12.617815,2.2799208,-25.626999,19.048517,-41.649773,8.174787,-11.836817,-1.6057818
