unveil-humanoid-operators/unveil-humanoid-operators.github.io/feature-analysis-animation/data/feature_matrix_instances/age_waist_rom_jogging_A138_jog_ff_loop_180_R_003__A138.csv
Frame,root_translateX,root_translateY,root_translateZ,root_rotateX,root_rotateY,root_rotateZ,left_hip_pitch_joint_dof,left_hip_roll_joint_dof,left_hip_yaw_joint_dof,left_knee_joint_dof,left_ankle_pitch_joint_dof,left_ankle_roll_joint_dof,right_hip_pitch_joint_dof,right_hip_roll_joint_dof,right_hip_yaw_joint_dof,right_knee_joint_dof,right_ankle_pitch_joint_dof,right_ankle_roll_joint_dof,waist_yaw_joint_dof,waist_roll_joint_dof,waist_pitch_joint_dof,left_shoulder_pitch_joint_dof,left_shoulder_roll_joint_dof,left_shoulder_yaw_joint_dof,left_elbow_joint_dof,left_wrist_roll_joint_dof,left_wrist_pitch_joint_dof,left_wrist_yaw_joint_dof,right_shoulder_pitch_joint_dof,right_shoulder_roll_joint_dof,right_shoulder_yaw_joint_dof,right_elbow_joint_dof,right_wrist_roll_joint_dof,right_wrist_pitch_joint_dof,right_wrist_yaw_joint_dof
0,-0.17095404863357544,-1.2790549993515015,76.16392517089844,-1.5850440561666355,10.024829710958635,96.96535765364924,16.32986,8.470209,7.6166353,19.766693,-4.387041,-4.8174253,-34.330704,-7.193891,-12.472631,28.674505,-11.10001,3.2547958,-18.852062,3.8800163,12.750294,-0.36191064,32.510788,-40.857788,-25.719957,11.79079,-6.103636,5.2124352,38.783672,-29.67198,26.598007,21.088371,3.1920497,0.5107122,-7.8711452
1,-0.03141139820218086,-0.18139654397964478,76.24742126464844,-1.6399047372395241,9.909064770390197,96.99156834761816,15.741633,8.963506,7.6258307,22.42041,-3.3833296,-4.225654,-33.4485,-6.796161,-12.55339,27.951881,-10.670981,3.412597,-18.78948,4.101324,12.678742,0.4147499,32.614532,-40.92073,-26.12671,11.85356,-5.9502335,5.2176247,38.771587,-29.623652,26.406326,20.422146,3.7182932,0.36000282,-8.139688
2,0.1171782836318016,0.9259765148162842,76.29361724853516,-1.6834767974605276,9.798949370163506,97.01708405729227,15.239772,9.421155,7.632362,24.876831,-2.262087,-3.6154387,-32.540157,-6.389326,-12.618712,27.087004,-10.154311,3.6163533,-18.689398,4.31222,12.584479,1.116715,32.70387,-41.065826,-26.516401,11.896278,-5.787184,5.2258334,38.7774,-29.500679,26.18521,19.805544,4.2494197,0.1997004,-8.412268
3,0.28730159997940063,2.015634775161743,76.3277359008789,-1.731033711625098,9.66157655852798,97.02726059957331,14.775006,9.903051,7.7084565,27.319668,-1.1498832,-3.0441499,-31.669321,-5.9986844,-12.666306,26.497665,-9.808903,3.7300706,-18.539701,4.500257,12.513267,1.8121121,32.768845,-41.19316,-26.801168,11.981333,-5.638938,5.230883,38.697445,-29.319897,25.986801,19.248423,4.710008,0.041417506,-8.680983
4,0.4538708031177521,3.0900771617889404,76.33406829833984,-1.7924917877337467,9.461637606715149,97.0043006377133,14.3080635,10.4670925,7.9229608,29.927128,-0.172529,-2.5658383,-30.900366,-5.650081,-12.69203,26.606873,-9.8966675,3.6176202,-18.316748,4.6505723,12.511993,2.5579066,32.79837,-41.213745,-26.892868,12.167843,-5.5295687,5.2274446,38.431152,-29.086632,25.85543,18.763847,5.020529,-0.1028505,-8.937518
5,0.635010838508606,4.191683769226074,76.2640380859375,-1.8511921082029463,9.177609422817572,96.95875229360533,13.844646,11.136296,8.323513,32.800415,0.6129454,-2.1940498,-30.258772,-5.3888626,-12.68599,27.679976,-10.541771,3.1852965,-18.025904,4.7371635,12.580908,3.375085,32.783073,-41.11963,-26.731237,12.523004,-5.487189,5.2390995,37.973946,-28.801376,25.809765,18.356928,5.1501207,-0.21971224,-9.175741
6,0.8025543689727783,5.280587673187256,76.14994049072266,-1.893862533375344,8.825105150679713,96.89829643455859,13.390496,11.869832,8.847796,35.88061,1.2477397,-1.889378,-29.689707,-5.197925,-12.643096,29.418085,-11.575588,2.5269117,-17.68422,4.7621136,12.701257,4.232259,32.72116,-40.949234,-26.37158,12.998357,-5.4919863,5.25796,37.375084,-28.469618,25.824413,18.015562,5.1467075,-0.31710184,-9.402785
7,1.002474308013916,6.340237617492676,76.01951599121094,-1.9418983733723418,8.425811672679362,96.79781498853623,12.902627,12.636557,9.398716,39.118256,1.7507918,-1.6237632,-29.144726,-5.0051513,-12.565662,31.412052,-12.827643,1.7872928,-17.280645,4.756284,12.891149,5.108977,32.611286,-40.6873,-25.895052,13.481162,-5.4969673,5.2322793,36.610214,-28.102213,25.878208,17.73264,5.0520196,-0.41514495,-9.630239
8,1.1986231803894043,7.37979793548584,75.85704040527344,-2.0275843626357664,8.006780370117765,96.62735035295852,12.334857,13.420898,9.885153,42.45972,2.1438267,-1.3708856,-28.595867,-4.7286267,-12.463512,33.28061,-14.139762,1.1092529,-16.803974,4.7635126,13.16721,5.9894676,32.453697,-40.312477,-25.386158,13.858255,-5.4562726,5.109117,35.65678,-27.714996,25.95117,17.49694,4.9077225,-0.53409666,-9.869736
9,1.381744146347046,8.397640228271484,75.67582702636719,-2.165361233908724,7.570647687822367,96.35891750973134,11.677469,14.281433,10.369087,45.96135,2.4926198,-1.156247,-28.095228,-4.3323197,-12.322214,35.045815,-15.542787,0.46068326,-16.23784,4.79821,13.542421,6.885009,32.249725,-39.7996,-24.901777,14.061842,-5.3675585,4.8006063,34.511204,-27.317896,26.029718,17.279867,4.712607,-0.69174004,-10.109646
10,1.5627952814102173,9.401424407958984,75.43534851074219,-2.337052809300845,7.105384516374434,96.01357868016032,10.947405,15.234504,10.862535,49.66349,2.7417557,-0.9635453,-27.64273,-3.8519802,-12.139411,36.8731,-17.095776,-0.21202156,-15.596695,4.846857,14.006984,7.807751,31.998768,-39.162674,-24.395683,14.163799,-5.2527714,4.3600845,33.193718,-26.915726,26.121334,17.080393,4.4524627,-0.8718176,-10.348511
11,1.749818205833435,10.36274242401123,75.15997314453125,-2.5398701990987433,6.619989680023649,95.63337890843881,10.136456,16.187517,11.204791,53.470577,2.7447004,-0.7259801,-27.147152,-3.3146026,-11.952969,38.623344,-18.697882,-0.7999546,-14.916692,4.9200625,14.539419,8.745182,31.69662,-38.437714,-23.796112,14.261776,-5.1026096,3.946056,31.718796,-26.51547,26.240847,16.925922,4.150468,-1.0435327,-10.612816
12,1.910873293876648,11.324722290039062,74.87870025634766,-2.767798334007554,6.124756552442021,95.26161291901994,9.230884,17.01399,11.237371,57.275253,2.3676188,-0.4068311,-26.520613,-2.7567115,-11.803864,40.163685,-20.253908,-1.1938634,-14.234328,5.0258503,15.115365,9.681038,31.33682,-37.659985,-23.028019,14.453487,-4.9085884,3.7154024,30.105465,-26.124823,26.401283,16.840195,3.8291643,-1.1756626,-10.928529
13,2.0395708084106445,12.28243637084961,74.5970458984375,-3.037562882669996,5.598587912648544,94.8799392956045,8.240804,17.647926,10.88844,61.13904,1.4587544,0.03203004,-25.73142,-2.1689487,-11.707052,41.4902,-21.788702,-1.3186563,-13.544569,5.178083,15.759426,10.660844,30.914192,-36.79223,-22.143099,14.866299,-4.6391225,3.6728153,28.370415,-25.742975,26.573502,16.781612,3.4680154,-1.2123367,-11.321803
14,2.1976449489593506,13.21092414855957,74.29082489013672,-3.345942474977477,5.045351602324685,94.47736493136034,7.1618366,18.111027,10.252846,65.09129,0.13305952,0.52093506,-24.839048,-1.5453771,-11.644903,42.678497,-23.34618,-1.248804,-12.834795,5.3728833,16.468203,11.6721945,30.428396,-35.83153,-21.14519,15.414582,-4.307968,3.7429883,26.509947,-25.369059,26.755203,16.742924,3.066183,-1.1841351,-11.77196
15,2.369415044784546,14.166435241699219,73.99108123779297,-3.6507651020866696,4.514444680148796,94.10842740589482,5.9549794,18.402592,9.430719,68.97249,-1.3301258,0.9295052,-23.888477,-0.93319064,-11.610755,43.7106,-24.857918,-1.100182,-12.131545,5.589009,17.176228,12.608996,29.880577,-34.861713,-19.88625,15.875234,-3.9737852,3.9640725,24.514597,-25.01057,26.9964,16.794277,2.6765137,-1.1904023,-12.235378
16,2.5254549980163574,15.11962604522705,73.70582580566406,-3.9173132857250246,4.056074235978697,93.82639566789148,4.58243,18.552969,8.525238,72.62001,-2.6560707,1.1447059,-22.920551,-0.37763792,-11.595271,44.562187,-26.251534,-0.9881279,-11.460672,5.8046455,17.821331,13.365321,29.269829,-33.967144,-18.219904,16.027042,-3.6962934,4.377939,22.372843,-24.679691,27.34202,17.002365,2.3519828,-1.3315126,-12.6693125
17,2.6865406036376953,16.078767776489258,73.4656753540039,-4.147341229320197,3.6721526858917426,93.67884888386281,3.0171797,18.541689,7.481402,76.0336,-3.8027549,1.0940021,-21.922497,0.09484118,-11.623409,45.22585,-27.517511,-0.92821944,-10.8587265,6.024643,18.428003,13.902609,28.584684,-33.15588,-16.07248,15.929372,-3.5318673,5.056387,20.03657,-24.38561,27.795885,17.422281,2.1570997,-1.6732965,-13.074081
18,2.8456780910491943,17.012540817260742,73.24666595458984,-4.35939634578493,3.3413255359792693,93.62570323459065,1.2920989,18.35979,6.2919574,79.29494,-4.9093246,0.8543195,-20.878931,0.5087477,-11.691083,45.714233,-28.690939,-0.86222404,-10.30548,6.2598033,19.019747,14.27753,27.82092,-32.380474,-13.5315075,15.664487,-3.4396405,5.9547462,17.540918,-24.124697,28.317898,17.975538,2.0506763,-2.149184,-13.470157
19,2.9834823608398438,17.93360137939453,73.06024169921875,-4.550024451681247,3.0789679144690094,93.58606057230934,-0.5488625,18.085121,5.12238,82.3591,-5.9687653,0.5489967,-19.828672,0.8997839,-11.743935,46.0331,-29.762497,-0.794146,-9.74044,6.4966297,19.534859,14.52999,26.995665,-31.641478,-10.6976385,15.041537,-3.3435624,6.9465747,14.998471,-23.886356,28.896957,18.532383,1.9187125,-2.6609309,-13.844466
20,2.9758141040802,18.86393165588379,72.92545318603516,-4.70995409349137,2.9003569986857918,93.482501225885,-2.4623756,17.799166,4.1273303,85.15573,-6.9625196,0.30353943,-18.806932,1.3010186,-11.730259,46.187954,-30.72722,-0.7292609,-9.1036005,6.7177086,19.909317,14.706369,26.140438,-30.941793,-7.6833143,13.862514,-3.1721575,7.9123955,12.505964,-23.655323,29.54071,18.984886,1.6491338,-3.1101913,-14.183052
21,3.0988292694091797,19.843666076660156,72.80162811279297,-4.851078337553329,2.8408738190099476,93.29460257962344,-4.5095143,17.521782,3.2889347,87.69992,-7.8399014,0.13623735,-17.857042,1.7431812,-11.649506,46.180122,-31.585743,-0.6771229,-8.361691,6.92195,20.104776,14.781199,25.25833,-30.276892,-4.2727213,11.611792,-2.8674622,8.927821,10.0210705,-23.415413,30.321606,19.438862,1.2664098,-3.5287337,-14.560601
22,3.2677135467529297,20.829612731933594,72.7035903930664,-4.973320420417671,2.8821469016624044,93.06429724156352,-6.6926546,17.21744,2.5419426,90.00792,-8.611036,-0.009830136,-16.946438,2.1995914,-11.527386,46.003666,-32.338734,-0.6330249,-7.549821,7.1039844,20.16139,14.751122,24.351582,-29.641191,-0.5025577,8.540463,-2.520192,10.033992,7.495047,-23.157852,31.23081,19.930128,0.8107204,-3.9491558,-14.958496
23,3.387465238571167,21.776958465576172,72.6236572265625,-5.0562057137711225,2.9583187999216363,92.8054287305608,-8.891078,16.906157,1.956879,92.013145,-9.348834,-0.11952788,-16.001207,2.6259458,-11.353998,45.66151,-32.987305,-0.5839773,-6.7082124,7.2470303,20.13416,14.714096,23.471037,-29.036318,3.1151175,5.6019115,-2.2466714,11.060715,5.001857,-22.88547,32.17295,20.26633,0.19929525,-4.2760854,-15.220567
24,3.4830052852630615,22.756988525390625,72.59398651123047,-5.075884533743612,3.0037483737842465,92.53223022692663,-10.987423,16.616837,1.6014469,93.648895,-10.127159,-0.17317139,-14.946031,2.978428,-11.12047,45.1531,-33.529747,-0.51889426,-5.877893,7.337407,20.085375,14.799175,22.701939,-28.460293,6.0256567,3.742201,-2.1122756,11.832976,2.6248863,-22.60924,33.054478,20.240934,-0.6464299,-4.41809,-15.18708
25,3.58343243598938,23.75259017944336,72.60723114013672,-5.037993737027387,2.9970117715682205,92.2455710043492,-12.987343,16.376749,1.4734254,94.915245,-10.982626,-0.15027371,-13.766857,3.2569282,-10.830834,44.498047,-33.987183,-0.43621442,-5.076318,7.3795424,20.051243,15.088433,22.118927,-27.888193,8.049714,3.421647,-2.0914261,12.328684,0.38113087,-22.331518,33.856834,19.7521,-1.9080386,-4.2813396,-14.694048
26,3.682508707046509,24.77107048034668,72.65725708007812,-4.952516895808159,2.974574184051919,91.9383735670737,-14.948696,16.185402,1.5344421,95.83896,-11.862026,-0.05918135,-12.50028,3.4814386,-10.490003,43.690735,-34.35462,-0.348535,-4.276353,7.3649635,20.006916,15.56722,21.748075,-27.326502,9.395593,4.040347,-2.1229115,12.636837,-1.7590367,-22.04912,34.646557,18.904001,-3.485296,-3.960282,-13.852843
27,3.772533655166626,25.74909019470215,72.72151947021484,-4.80252600845793,2.957512974541423,91.6122414054316,-16.827492,16.032948,1.8005883,96.38692,-12.708624,0.07756519,-11.147584,3.6362014,-10.090481,42.69642,-34.5949,-0.26443008,-3.45838,7.2657056,19.925987,16.218473,21.591085,-26.818266,10.096452,4.9509478,-2.2038012,12.745441,-3.7793663,-21.768198,35.455605,17.79249,-5.0341353,-3.636295,-12.923419
28,3.848534345626831,26.774860382080078,72.83029174804688,-4.572314710040752,2.967245366737232,91.26874018037519,-18.577208,15.907341,2.2913144,96.52743,-13.466487,0.23491365,-9.709177,3.7017238,-9.624435,41.47923,-34.668736,-0.18809009,-2.5996747,7.0578136,19.783709,17.010567,21.63104,-26.406868,10.200232,5.508941,-2.3408356,12.638614,-5.658355,-21.504118,36.30373,16.503923,-6.2065415,-3.464498,-12.1772785
29,3.9134182929992676,27.868392944335938,73.00938415527344,-4.240655035668201,3.002066908470516,90.88773911286933,-20.162714,15.83833,3.0850296,96.23559,-14.150098,0.43180668,-8.166599,3.6535676,-9.058752,40.01416,-34.598354,-0.13864909,-1.6822437,6.724368,19.569967,17.970661,21.867136,-26.118013,9.580201,5.564275,-2.5809581,12.180275,-7.4026303,-21.279728,37.23077,14.998917,-6.892301,-3.4896774,-11.702538
30,3.986236095428467,28.955455780029297,73.20716857910156,-3.821252161706454,3.0545115633286763,90.47504396358465,-21.600657,15.818913,4.1554313,95.5275,-14.78259,0.66128045,-6.5277953,3.4966464,-8.410254,38.333443,-34.39905,-0.10663215,-0.7262525,6.2851043,19.31109,19.105944,22.296778,-25.924118,8.253973,5.4491997,-2.9036348,11.411008,-9.004693,-21.104,38.219196,13.225091,-7.275854,-3.6124296,-11.354419
31,4.050647735595703,30.096683502197266,73.45748901367188,-3.350150554695686,3.1370234389067932,90.07201822453351,-22.922674,15.779018,5.365992,94.43253,-15.3214245,0.85994726,-4.8364434,3.2562463,-7.7464886,36.489075,-34.021294,-0.046782196,0.24005243,5.7714334,19.03154,20.334755,22.881586,-25.78739,6.512759,5.250452,-3.2166429,10.5832815,-10.441278,-20.971796,39.193794,11.269662,-7.44894,-3.758519,-11.060461
32,4.119258403778076,31.23843002319336,73.71823120117188,-2.8671910548042514,3.2610278950298457,89.71996152395882,-24.168884,15.653862,6.5753427,92.98087,-15.7225685,0.971759,-3.132442,2.9651344,-7.1341343,34.52393,-33.414993,0.08761008,1.1903825,5.21776,18.74655,21.549099,23.561977,-25.671835,4.686479,5.0662913,-3.434968,9.957827,-11.697606,-20.870184,40.073635,9.238976,-7.508332,-3.856707,-10.748181
33,4.198550224304199,32.33457946777344,73.99518585205078,-2.365971029145054,3.4288830190498185,89.43227044816311,-25.366533,15.411576,7.756289,91.15957,-15.973728,0.9594614,-1.3638756,2.6291182,-6.578574,32.312614,-32.56293,0.3207702,2.1182756,4.6257195,18.450134,22.682707,24.306461,-25.60108,2.8363621,4.889178,-3.5285578,9.632091,-12.790475,-20.791815,40.846733,7.1475306,-7.3938828,-3.8968413,-10.429722
34,4.297543525695801,33.50140380859375,74.33412170410156,-1.8332321520627461,3.6340949207206155,89.18713016722879,-26.481607,15.086263,8.983171,88.95106,-16.1006,0.8555892,0.46772376,2.2339566,-6.05081,29.875204,-31.495243,0.6282495,3.032949,3.986335,18.131971,23.772692,25.107271,-25.580442,0.8505744,4.694118,-3.5487378,9.459658,-13.738536,-20.739454,41.554165,4.9713454,-7.0864134,-3.9102361,-10.134481
35,4.368898391723633,34.68263626098633,74.66849517822266,-1.2941427006381443,3.8744895295788835,88.97337788721482,-27.471771,14.715426,10.258479,86.3786,-16.114649,0.71226233,2.2415972,1.7919043,-5.562242,27.475407,-30.22203,0.9819589,3.9318101,3.3191998,17.79473,24.85748,25.93368,-25.546003,-1.1875393,4.559542,-3.537884,9.341612,-14.529141,-20.71542,42.191376,2.76144,-6.7506156,-3.8909426,-9.816616
36,4.414054870605469,35.915279388427734,75.04363250732422,-0.7764903397514475,4.147704248196672,88.78038852148434,-28.295444,14.332991,11.583254,83.465805,-16.02832,0.5796514,3.8373904,1.3187866,-5.121333,25.37771,-28.754726,1.3522028,4.808531,2.6484532,17.436522,25.961977,26.739271,-25.437859,-3.1740253,4.5668116,-3.5390809,9.179894,-15.154591,-20.722776,42.758137,0.5771357,-6.5529876,-3.834955,-9.429029
37,4.439722537994385,37.16965103149414,75.40758514404297,-0.2749000724345067,4.465023194179229,88.61349352698817,-28.956814,13.954709,12.988511,80.191864,-15.832926,0.49009278,5.243615,0.80410653,-4.7456884,23.60113,-27.061224,1.7563344,5.6631646,1.9719306,17.038435,27.06596,27.489588,-25.245447,-5.0749326,4.7904005,-3.5652113,8.937345,-15.623927,-20.767195,43.250042,-1.563764,-6.501933,-3.7373197,-8.943879
38,4.47797966003418,38.411373138427734,75.77706909179688,0.2185865369099887,4.822318958215299,88.47857658361907,-29.466248,13.54096,14.4625845,76.54445,-15.528306,0.40003332,6.51547,0.25796205,-4.4177322,22.023645,-25.150433,2.1997435,6.48681,1.289987,16.602335,28.136253,28.173025,-25.0035,-6.90184,5.181928,-3.597068,8.669852,-15.95257,-20.853432,43.67596,-3.679374,-6.522274,-3.602396,-8.390856
39,4.5078840255737305,39.646793365478516,76.14874267578125,0.6786848976989341,5.193166335706893,88.36564210359619,-29.79771,13.046454,15.936326,72.549866,-15.132435,0.24981628,7.62535,-0.27533177,-4.093255,20.724474,-23.100147,2.6347754,7.2629437,0.6336007,16.153631,29.177032,28.776747,-24.728283,-8.61771,5.64089,-3.6289003,8.420283,-16.138998,-20.981386,44.05403,-5.763963,-6.6556773,-3.4426432,-7.807962
40,4.531688690185547,40.88536834716797,76.52466583251953,1.078983399083491,5.5511883649963085,88.2628695641834,-29.930298,12.436027,17.334421,68.22655,-14.660913,-0.012047914,8.553684,-0.75584567,-3.7286286,19.772764,-20.984941,3.018348,7.9743733,0.03443747,15.715542,30.187214,29.287989,-24.436981,-10.180193,6.0645804,-3.6530216,8.230515,-16.186745,-21.146465,44.40565,-7.80467,-6.942002,-3.2715352,-7.233318
41,4.5264716148376465,42.16632080078125,76.89978790283203,1.4341298846190509,5.919489906966836,88.1658375986969,-29.851788,11.703676,18.69738,63.43774,-14.128946,-0.35721654,9.248184,-1.2039361,-3.3108048,19.229935,-18.784077,3.3327096,8.622333,-0.51768565,15.266599,31.163467,29.692131,-24.132753,-11.576173,6.4689965,-3.6646194,8.098895,-16.103971,-21.347996,44.74616,-9.796113,-7.4923015,-3.07022,-6.654613
42,4.497775077819824,43.47019577026367,77.2578125,1.7476418021051574,6.301804471704348,88.07714474772054,-29.571415,10.858748,20.037582,58.184505,-13.510164,-0.770881,9.7513075,-1.6244165,-2.8557942,19.022411,-16.45995,3.6227117,9.2127,-1.0259773,14.79665,32.083557,29.98276,-23.818472,-12.802626,6.896713,-3.6683624,8.005921,-15.898561,-21.586037,45.065395,-11.7323065,-8.252212,-2.8453684,-6.0558467
43,4.471806049346924,44.77809143066406,77.5864486694336,1.9855331262340774,6.642919849866383,87.997048920918,-29.107225,9.910311,21.227184,52.68954,-12.756298,-1.2995276,10.179114,-1.9626485,-2.370037,19.034414,-14.071712,3.9385204,9.737455,-1.4569046,14.345264,32.952477,30.164225,-23.506582,-13.8629875,7.3004336,-3.668771,7.96733,-15.562386,-21.852146,45.34245,-13.607348,-9.018629,-2.643015,-5.471139
44,4.4263224601745605,46.117225646972656,77.91032409667969,2.1088176659927313,6.886513980290915,87.92400188746167,-28.477468,8.903244,22.124565,47.182625,-11.831494,-1.9691733,10.650535,-2.1559865,-1.8590128,19.13786,-11.670415,4.3144035,10.190996,-1.7724334,13.952088,33.781067,30.248611,-23.20502,-14.767939,7.6292024,-3.6698105,7.9999313,-15.095272,-22.132683,45.55739,-15.405407,-9.586229,-2.504837,-4.9369383
45,4.372418403625488,47.4743537902832,78.21945190429688,2.0904829850984386,7.007608923228071,87.83864666313717,-27.61038,7.8332934,22.650185,41.475864,-10.634034,-2.8386068,11.214604,-2.1699553,-1.2803088,19.265942,-9.160015,4.764903,10.587886,-1.942704,13.6320095,34.603485,30.237871,-22.902515,-15.524206,7.8677254,-3.6825953,8.123807,-14.478642,-22.416632,45.700706,-17.134346,-9.896249,-2.4592602,-4.4487796
46,4.354172706604004,48.81278991699219,78.48151397705078,1.9410827521611682,7.035113288211875,87.73738392840981,-26.483019,6.757938,22.857756,35.469044,-9.206555,-3.8208375,11.823553,-2.0211222,-0.6324053,19.4533,-6.521151,5.271282,10.935317,-1.979949,13.359477,35.406548,30.132338,-22.597506,-16.1293,8.040556,-3.7008605,8.325512,-13.732533,-22.699162,45.786015,-18.782335,-10.0587435,-2.4743893,-3.9921339
47,4.340066909790039,50.19708251953125,78.69544982910156,1.6769927680192118,6.993258881953302,87.64572423887664,-25.213743,5.8153067,22.818598,29.588558,-7.7368155,-4.7421427,12.437112,-1.7203027,0.011491155,19.748447,-3.9312086,5.7972054,11.216447,-1.902579,13.1140995,36.146084,29.948103,-22.309328,-16.603178,8.159517,-3.6994274,8.571178,-12.903984,-22.972948,45.82416,-20.307741,-10.125082,-2.4986982,-3.5909197
48,4.350313186645508,51.58292770385742,78.84374237060547,1.3200700959466138,6.90995930871631,87.59356986909938,-23.964014,5.097548,22.635347,24.328033,-6.422615,-5.471022,13.003161,-1.2917796,0.5675796,20.217453,-1.5770053,6.2978644,11.412353,-1.7407022,12.875363,36.78048,29.712067,-22.05537,-16.970587,8.230512,-3.6535785,8.828376,-12.040605,-23.229155,45.823277,-21.66849,-10.146387,-2.4818625,-3.2682197
49,4.370009422302246,52.95419692993164,78.95734405517578,0.8392928592029021,6.80324881737687,87.58414946490808,-22.800552,4.6181083,22.32193,19.766323,-5.282845,-6.0792456,13.4896145,-0.7079026,1.0072829,20.88682,0.5047396,6.698315,11.535956,-1.4740697,12.613253,37.325665,29.442373,-21.835653,-17.244745,8.232564,-3.5404391,9.106201,-11.124348,-23.457735,45.778008,-22.861082,-10.079185,-2.405277,-3.0460734
50,4.39268159866333,54.31350326538086,79.0150375366211,0.23265045775703855,6.656474400236251,87.60771134301791,-21.67464,4.333259,21.849909,15.740865,-4.255169,-6.6284547,13.9149,0.022238487,1.3651795,21.749374,2.4021485,7.020131,11.594169,-1.0971937,12.34522,37.80824,29.14389,-21.639532,-17.43113,8.161597,-3.3783536,9.419343,-10.1408825,-23.651913,45.68272,-23.90158,-9.916671,-2.2970421,-2.9060943
51,4.405028820037842,55.703121185302734,79.04100799560547,-0.38889069640131596,6.4589023912237105,87.69221790657531,-20.61985,4.166747,21.282246,12.426903,-3.4237428,-6.9977427,14.277503,0.77749777,1.635697,22.85346,4.090024,7.37254,11.541649,-0.705894,12.11978,38.20333,28.825087,-21.46704,-17.540695,8.05098,-3.2048726,9.743621,-9.146331,-23.8094,45.547115,-24.77293,-9.767135,-2.1784732,-2.81066
52,4.423990726470947,57.07018280029297,79.02442169189453,-0.8962429272356255,6.206342743588848,87.87260423870791,-19.674725,4.008334,20.680515,9.997714,-2.8659785,-7.0644855,14.559015,1.4249086,1.8119563,24.26937,5.530362,7.881247,11.327026,-0.41727075,11.984772,38.48241,28.49635,-21.318804,-17.580845,7.9343743,-3.0574617,10.054414,-8.1911745,-23.929144,45.377506,-25.463074,-9.7393675,-2.0716345,-2.7228005
53,4.441896438598633,58.433616638183594,78.97627258300781,-1.25813172160235,5.900478475489919,88.18686607027239,-18.87127,3.8447585,20.081837,8.587255,-2.6900578,-6.880959,14.762022,1.9656804,1.896229,26.028147,6.7085238,8.648894,10.902307,-0.26747984,11.945256,38.653732,28.163044,-21.181639,-17.539658,7.8052044,-2.9572303,10.359199,-7.291427,-24.007015,45.185123,-25.957067,-9.867912,-2.0008204,-2.6495633
54,4.460885524749756,59.7804069519043,78.89362335205078,-1.5028842530909468,5.555327458399625,88.62562551145392,-18.269835,3.6910443,19.44451,8.221185,-2.9060233,-6.492706,14.853887,2.417753,1.8740872,28.158564,7.6034236,9.595743,10.28977,-0.23785153,11.975381,38.724247,27.826672,-21.058844,-17.41426,7.647693,-2.8817937,10.667033,-6.421693,-24.036549,44.964222,-26.25861,-10.092013,-1.9491546,-2.6059792
55,4.492193698883057,61.10228729248047,78.78421783447266,-1.5940916774443779,5.181912967504505,89.14533473720508,-17.9268,3.4832647,18.709194,8.877906,-3.4316797,-5.754469,14.791107,2.683385,1.7195095,30.674536,8.188928,10.57874,9.55005,-0.36047745,12.075147,38.662582,27.493805,-20.975437,-17.22738,7.480761,-2.8009443,10.9558325,-5.568714,-24.015337,44.695805,-26.391573,-10.379608,-1.8766955,-2.5656672
56,4.5174455642700195,62.41613006591797,78.60052490234375,-1.5014749890995405,4.786571388796002,89.69552687676166,-17.828554,3.1346242,17.830475,10.395587,-4.1072826,-4.5145626,14.54716,2.6645973,1.4127272,33.564835,8.460277,11.447364,8.753458,-0.66131246,12.244901,38.438255,27.175097,-20.957806,-17.0023,7.3221073,-2.6857636,11.204635,-4.712985,-23.94482,44.356182,-26.385769,-10.698638,-1.7437193,-2.501736
57,4.571021556854248,63.6983757019043,78.36784362792969,-1.1766922740436156,4.3493769613283115,90.31534656407788,-18.049026,2.5454953,16.627417,12.986851,-4.742909,-2.326486,14.1819105,2.2854927,0.8695591,36.829033,8.454319,12.221726,7.8737845,-1.1938031,12.492365,38.066174,26.881613,-21.013393,-16.764069,7.1652164,-2.4879549,11.400481,-3.8284528,-23.824177,43.926193,-26.248615,-11.062838,-1.5547274,-2.386347
58,4.575506687164307,64.99006652832031,78.16411590576172,-0.7386703291559478,3.842489683816544,90.97705261562815,-18.465696,1.8254554,15.216836,16.461205,-5.3393617,0.5791309,13.764831,1.6859624,0.16291629,40.378212,8.217769,12.927001,6.9304404,-1.8459347,12.815292,37.575943,26.61794,-21.129839,-16.517008,7.001361,-2.2349758,11.560414,-2.9198544,-23.655222,43.418156,-25.975899,-11.481992,-1.3253502,-2.2373905
59,4.574775695800781,66.30506134033203,77.9156723022461,-0.35275890190563497,3.2790369372769512,91.54975556767306,-18.815582,1.1717334,13.957792,20.141672,-6.0865765,3.3515384,13.253609,1.0362769,-0.5120163,44.102394,7.7370005,13.435695,6.0430164,-2.449345,13.201665,36.949123,26.382467,-21.300716,-16.245924,6.8451877,-2.0114348,11.70702,-2.0180223,-23.449139,42.852974,-25.579027,-11.915615,-1.0327055,-2.0972955
60,4.537152290344238,67.59263610839844,77.62667083740234,-0.0674661736295856,2.7024078099119637,91.9381015393591,-18.878874,0.71827507,13.147603,23.422667,-7.281982,5.1785116,12.545735,0.40283844,-0.98780465,47.969353,6.948342,13.657426,5.298338,-2.9449582,13.637762,36.14563,26.169247,-21.518398,-15.9153385,6.711282,-1.9036285,11.861028,-1.1514591,-23.22041,42.24997,-25.075275,-12.323582,-0.65462875,-2.0123487
61,4.486372947692871,68.83451080322266,77.29876708984375,0.15707392238217396,2.113724884520502,92.10827334003329,-18.69159,0.5486842,12.917094,26.497635,-9.330279,5.6945505,11.586732,-0.23106928,-1.1842558,52.132336,5.6749334,13.583133,4.7111144,-3.38221,14.143595,35.190517,25.965216,-21.751192,-15.569074,6.644948,-1.9407533,12.015593,-0.3472821,-22.985243,41.632664,-24.515638,-12.751501,-0.11123104,-1.9899435
62,4.469620227813721,70.00299835205078,76.91370391845703,0.39960113185159957,1.513856328977926,92.13693595670941,-18.405777,0.5957926,13.061809,29.714825,-12.059264,5.4043403,10.412901,-0.9392289,-1.2081565,56.594875,3.9732587,13.287083,4.215342,-3.8359976,14.716915,34.080902,25.764475,-22.006481,-15.197013,6.6274114,-2.0761845,12.161197,0.42432877,-22.749424,40.985626,-23.892776,-13.198813,0.561338,-2.0092134
63,4.4427170753479,71.1495590209961,76.50347900390625,0.6930715760304502,0.9539222495919714,92.10447645174406,-18.020922,0.7249486,13.365176,32.774685,-14.94719,4.806947,9.041976,-1.7677361,-1.1725743,61.11194,2.1204543,12.81657,3.7711978,-4.3151765,15.307358,32.734627,25.576342,-22.335623,-14.685019,6.575488,-2.2823818,12.316094,1.2180375,-22.506449,40.263557,-23.129414,-13.555561,1.2106476,-2.0759559
64,4.398634910583496,72.3061752319336,76.11209106445312,1.0438498089294177,0.47756976413669844,92.07866118082949,-17.474718,0.72969383,13.608719,35.23588,-17.424881,4.3885984,7.5009108,-2.7545066,-1.1816223,65.42356,0.41016892,12.20075,3.3566535,-4.807182,15.86617,31.075516,25.419537,-22.792957,-13.929134,6.40155,-2.5314293,12.501099,2.0904033,-22.242895,39.414684,-22.141047,-13.7142315,1.6838704,-2.1967623
65,4.355589389801025,73.40460968017578,75.74285888671875,1.4762188654665782,0.11646918078034899,92.07889478709215,-16.75431,0.46175653,13.783807,36.912807,-19.3428,4.2582283,5.7224236,-3.9601836,-1.2381092,69.57522,-1.1127169,11.384881,2.9842734,-5.323382,16.389915,28.997337,25.312035,-23.412601,-12.844319,6.0159674,-2.896709,12.716409,3.1030164,-21.942528,38.321598,-20.992756,-13.654724,1.8699797,-2.2570972
66,4.317993640899658,74.49604797363281,75.4384994506836,1.9778843801716588,-0.15909655923854865,92.06512360985595,-15.888799,0.004998091,14.015466,38.03351,-20.986357,4.1601734,3.7198596,-5.3394613,-1.2620914,73.66258,-2.5865448,10.373947,2.6812353,-5.869465,16.902122,26.585875,25.253027,-24.15863,-11.54232,5.476082,-3.3659236,12.959062,4.2216787,-21.604023,37.026844,-19.699266,-13.435827,1.8716289,-2.2886086
67,4.280020713806152,75.61341857910156,75.16041564941406,2.4901215167791384,-0.40070565278835485,92.0139783184162,-14.8575735,-0.5329597,14.273989,38.72121,-22.422743,4.032418,1.6328889,-6.7797165,-1.2449211,77.50226,-3.991194,9.275121,2.4350348,-6.4124203,17.397717,24.054895,25.224785,-24.975422,-10.210126,4.9185915,-3.7833214,13.242919,5.3473372,-21.237658,35.731544,-18.098827,-13.065267,1.8556468,-2.5220373
68,4.252691745758057,76.76396942138672,74.91513061523438,2.9577389816884123,-0.6601759327386407,91.90226097391644,-13.63224,-1.0291357,14.527806,39.101353,-23.722458,3.810529,-0.40807563,-8.177689,-1.1961683,80.915634,-5.3097296,8.1884365,2.2173364,-6.9142957,17.870766,21.60188,25.201748,-25.807913,-9.002383,4.4858065,-3.993552,13.578928,6.36451,-20.858425,34.651848,-16.02691,-12.5463,1.9857079,-3.19327
69,4.269271373748779,77.95279693603516,74.7140884399414,3.403085209539932,-0.9779897412115796,91.63637137615649,-12.093348,-1.4723309,14.85446,39.09422,-24.888447,3.449646,-2.4035752,-9.58977,-1.0571321,83.91765,-6.5460954,7.129082,2.0871694,-7.383118,18.364338,19.163416,25.16503,-26.70884,-7.7664123,4.1555614,-3.8917425,14.006683,7.229931,-20.460325,33.874043,-13.24322,-11.706402,2.352923,-4.6136174
70,4.257096290588379,79.124267578125,74.53655242919922,3.845786799216364,-1.31593544440887,91.2575657140937,-10.290261,-1.9313972,15.245576,38.657444,-25.886293,3.0034642,-4.432349,-11.045683,-0.8429385,86.59158,-7.7093425,6.0388064,2.0123928,-7.8246565,18.86271,16.66666,25.105844,-27.67555,-6.458521,3.8761625,-3.5827875,14.503295,7.9847126,-20.040434,33.293552,-9.8800125,-10.590338,2.8274975,-6.580622
71,4.176212310791016,80.32225799560547,74.40245819091797,4.220262871022085,-1.6108298172864983,90.94694789436038,-8.437597,-2.3776507,15.537488,37.98126,-26.733114,2.5454168,-6.475884,-12.406466,-0.6978937,88.863235,-8.784133,4.91413,1.8315452,-8.196796,19.269907,14.277996,25.020481,-28.590887,-5.376791,3.753345,-3.22353,14.983807,8.657428,-19.630745,32.83246,-6.350908,-9.533179,3.2586925,-8.564322
72,4.0993428230285645,81.5005874633789,74.3122787475586,4.456032594188973,-1.8021579997612154,90.88692557714806,-6.750182,-2.7612453,15.565729,37.275005,-27.45119,2.1391566,-8.499793,-13.538278,-0.7811955,90.65664,-9.752377,3.7589207,1.3851172,-8.461509,19.492579,12.162795,24.911348,-29.340965,-4.8220086,3.8945317,-2.9697218,15.359423,9.292604,-19.28812,32.41142,-3.0989738,-8.878078,3.5366373,-10.037727
73,4.0569047927856445,82.70433807373047,74.25895690917969,4.527099462768775,-1.8517389609213444,91.17168573728637,-5.3309994,-3.0530877,15.247927,36.64347,-28.07286,1.797297,-10.54768,-14.390972,-1.1572555,91.97712,-10.582575,2.5040674,0.58600736,-8.601994,19.489664,10.395012,24.775572,-29.878119,-4.9374905,4.461928,-2.875922,15.64143,9.90277,-19.054237,32.006123,-0.097352974,-8.799488,3.6689196,-10.825362
74,4.009581565856934,83.9175033569336,74.209228515625,4.47261434830713,-1.8005544921841499,91.6902798275351,-4.047508,-3.2574396,14.683598,35.975216,-28.583511,1.4786537,-12.61279,-15.057684,-1.7595426,92.86309,-11.285845,1.1777442,-0.4644556,-8.628299,19.3263,8.865859,24.614796,-30.285477,-5.5354056,5.3550906,-2.852642,15.862861,10.511987,-18.94642,31.650385,2.7756119,-9.079021,3.7268605,-11.229274
75,3.9821083545684814,85.14878845214844,74.2071533203125,4.32362555016476,-1.7078129190917133,92.31753750293313,-2.7556877,-3.3695967,13.982255,35.150387,-28.93196,1.1621666,-14.574685,-15.621214,-2.5576322,93.285805,-11.907875,-0.067845955,-1.6298993,-8.542964,19.077469,7.4635444,24.444855,-30.655546,-6.42733,6.2870774,-2.842878,15.9689665,11.196792,-18.98538,31.342756,5.2012277,-9.472312,3.7115285,-11.43971
76,3.967392921447754,86.42300415039062,74.27606201171875,4.107551245772182,-1.6330651014351483,92.92861985094925,-1.3117005,-3.3885398,13.252883,34.046085,-29.06719,0.83088225,-16.309807,-16.157013,-3.5220227,93.21596,-12.500147,-1.0800172,-2.7678814,-8.353698,18.820414,6.08388,24.291908,-31.084644,-7.439429,6.968943,-2.7926912,15.904561,12.038092,-19.193632,31.078564,6.8510547,-9.732477,3.6203308,-11.643253
77,3.9508626461029053,87.685791015625,74.41141510009766,3.8124369174440313,-1.6141492137820086,93.52707240358893,0.36981055,-3.308424,12.476583,32.561306,-28.996313,0.4834267,-17.742004,-16.675676,-4.7094927,92.60276,-13.080169,-1.7640591,-3.8532624,-8.048262,18.60597,4.694868,24.173985,-31.609867,-8.634167,7.257138,-2.6731544,15.600205,13.095548,-19.606016,30.875214,7.503615,-9.836914,3.39487,-11.884536
78,3.9196598529815674,88.94557189941406,74.55760955810547,3.428857434868056,-1.6092097573143218,94.16695849564006,2.1941998,-3.1192,11.613118,30.792683,-28.746868,0.13141833,-18.936869,-17.139168,-6.1327863,91.474045,-13.623136,-2.2106333,-4.942033,-7.6244545,18.40388,3.363983,24.095915,-32.19465,-10.096023,7.321801,-2.5197675,15.108893,14.351538,-20.233095,30.724413,7.326438,-9.894819,3.0559766,-12.057699
79,3.902620553970337,90.25123596191406,74.73078918457031,2.9872642736750645,-1.5599435285427279,94.7990602128245,4.0335712,-2.8197422,10.739483,28.910782,-28.295511,-0.22588688,-19.980455,-17.53223,-7.699255,89.91636,-14.120312,-2.543154,-6.015866,-7.110505,18.163391,2.1344037,24.066305,-32.82037,-11.681165,7.3419952,-2.3753297,14.55638,15.751658,-21.04204,30.579618,6.602743,-9.862952,2.7185328,-12.119928
80,3.892005205154419,91.57745361328125,74.93951416015625,2.519810437207375,-1.4094219997205497,95.37263941555977,5.7580886,-2.4193199,9.932874,27.080921,-27.613985,-0.5974176,-20.961725,-17.83603,-9.312877,88.0146,-14.563662,-2.88334,-7.0579076,-6.5341654,17.827797,1.0486655,24.096363,-33.46117,-13.245564,7.4957385,-2.2835248,14.067222,17.224768,-21.969679,30.380768,5.647546,-9.704588,2.49613,-12.032599
81,3.902972936630249,92.95148468017578,75.17410278320312,2.009947986155758,-1.1366698054818745,95.87171477491344,7.385146,-1.9017254,9.197368,25.223824,-26.677233,-1.0024366,-21.888268,-18.020798,-11.00422,85.75777,-15.001646,-3.2146754,-8.063603,-5.8795505,17.354362,0.11418376,24.201988,-34.125286,-14.769535,7.842147,-2.2702274,13.67278,18.7493,-22.976675,30.11786,4.4865203,-9.349995,2.4438488,-11.728046
82,3.891758918762207,94.34481811523438,75.43164825439453,1.4498536714449552,-0.7744006274165559,96.31917800423066,8.951974,-1.2790946,8.501878,23.298119,-25.50387,-1.4400367,-22.70605,-18.077528,-12.8161,83.099266,-15.421103,-3.465819,-9.034813,-5.144238,16.784958,-0.68066126,24.392494,-34.818027,-16.335642,8.279253,-2.306775,13.308693,20.33975,-24.04894,29.811647,3.0223954,-8.8523035,2.495044,-11.2440815
83,3.8814570903778076,95.71178436279297,75.71234130859375,0.8946121211910545,-0.34989757033218366,96.72339186598686,10.361759,-0.6116118,7.8651443,21.52732,-24.135944,-1.8870934,-23.415562,-18.026299,-14.671377,80.07103,-15.732304,-3.690257,-9.973075,-4.376776,16.18108,-1.3243252,24.666208,-35.495934,-17.940228,8.746078,-2.3599555,12.953071,21.958385,-25.151981,29.447865,1.4118336,-8.360478,2.5775054,-10.706285
84,3.878026008605957,97.09490966796875,76.0195541381836,0.39592521212983683,0.10970572749147546,97.09425762631068,11.52397,0.04254714,7.2984796,20.14142,-22.616552,-2.312984,-24.024694,-17.89546,-16.486637,76.70681,-15.848794,-3.9482756,-10.885031,-3.6312494,15.593309,-1.811402,25.014994,-36.111675,-19.565874,9.185603,-2.3962843,12.582537,23.546495,-26.237242,29.021431,-0.1609744,-8.027205,2.613213,-10.240796
85,3.8916778564453125,98.50663757324219,76.32515716552734,-0.048872329557895534,0.6278540102502911,97.44558041442924,12.394283,0.68694866,6.7790685,19.1915,-20.919746,-2.7398424,-24.561535,-17.724123,-18.32843,72.98841,-15.75881,-4.369169,-11.79982,-2.907808,14.997335,-2.167578,25.44003,-36.66706,-21.196316,9.613496,-2.3989584,12.234984,25.040222,-27.271236,28.544878,-1.6140121,-7.978713,2.5880942,-9.875449
86,3.902285575866699,99.92998504638672,76.6636962890625,-0.4628641129130991,1.2080240690832882,97.76669056602623,13.030013,1.337388,6.2940607,18.561674,-19.037148,-3.1681314,-25.013435,-17.46373,-20.217232,68.90033,-15.512822,-4.8723717,-12.703206,-2.1869206,14.367254,-2.3970675,25.946486,-37.175945,-22.828072,10.052671,-2.3876858,11.906032,26.443352,-28.240665,28.027649,-2.9930506,-8.115473,2.5361857,-9.546579
87,3.914193868637085,101.32984161376953,77.0118408203125,-0.8255368165422329,1.7926756883588701,98.0339661275574,13.4963455,1.9621625,5.871938,18.241692,-17.046392,-3.534018,-25.338057,-17.030626,-21.991314,64.469154,-15.109795,-5.2243056,-13.543651,-1.4982823,13.743059,-2.4631908,26.527885,-37.607193,-24.459145,10.46143,-2.384509,11.507806,27.789371,-29.127815,27.469173,-4.2980714,-8.252676,2.4505618,-9.242888
88,3.9487011432647705,102.74528503417969,77.35040283203125,-1.1168412902247589,2.3230544910497537,98.22655453726023,13.869691,2.5307298,5.548342,18.203272,-15.017739,-3.7790542,-25.496738,-16.355457,-23.476305,59.699783,-14.529956,-5.203372,-14.272555,-0.8758965,13.161177,-2.3361888,27.169668,-37.930496,-26.0756,10.797804,-2.4124231,10.952143,29.0746,-29.913843,26.880692,-5.496465,-8.189137,2.3265638,-8.953768
89,3.990729808807373,104.22087860107422,77.69050598144531,-1.3656934499181446,2.8172791905713117,98.3432857441569,14.123653,3.0862112,5.352973,18.468853,-12.895683,-3.8646119,-25.460318,-15.36898,-24.6671,54.37461,-13.71001,-4.799004,-14.882631,-0.2878246,12.596298,-2.035366,27.865885,-38.126255,-27.653843,11.001026,-2.4978845,10.069718,30.333853,-30.5798,26.251425,-6.5877876,-7.8638797,2.1452997,-8.685103
90,4.030064582824707,105.70561981201172,78.02399444580078,-1.5781349909598539,3.295665283766933,98.40270113137345,14.251288,3.6346183,5.2591047,19.014236,-10.647942,-3.8500617,-25.238197,-14.119262,-25.633165,48.4902,-12.641656,-4.1312594,-15.400922,0.26831287,12.030769,-1.5857785,28.614483,-38.21706,-29.18518,11.1089115,-2.6207678,8.954222,31.504824,-31.119993,25.599829,-7.5333447,-7.377988,1.9165076,-8.438526
91,4.074309349060059,107.20565032958984,78.33235931396484,-1.6947695114291714,3.700272695087662,98.41741375602071,14.3552265,4.0843654,5.222777,19.747635,-8.371474,-3.818216,-24.840837,-12.748016,-26.300177,42.358032,-11.384217,-3.1988328,-15.845094,0.7039946,11.506801,-0.9535145,29.400415,-38.226475,-30.66972,11.234636,-2.7362945,7.910741,32.636806,-31.53472,24.948832,-8.416263,-6.8718452,1.6812189,-8.195457
92,4.134157657623291,108.68848419189453,78.61272430419922,-1.643917240690681,3.970517156220122,98.39907077060853,14.541132,4.328392,5.2015743,20.57029,-6.1635404,-3.835782,-24.28631,-11.434141,-26.584084,36.322186,-10.014903,-2.0118482,-16.214825,0.92463475,11.070335,-0.12992047,30.199072,-38.197285,-32.09719,11.494136,-2.8023694,7.2456093,33.49364,-31.841646,24.363022,-9.076816,-6.3389163,1.4782797,-7.9415708
93,4.207326889038086,110.2214584350586,78.82738494873047,-1.3432836299889002,4.073091163816133,98.35502590947115,14.88083,4.2539835,5.1819863,21.379978,-3.9302175,-3.8920054,-23.484018,-10.212106,-26.341515,30.128061,-8.391152,-0.33261293,-16.536633,0.8376969,10.720256,0.9430494,30.990698,-38.168423,-33.44411,12.042907,-2.8188548,7.193309,34.252777,-32.045574,23.818068,-9.664708,-5.8532014,1.3134874,-7.6771526
94,4.264499187469482,111.71344757080078,78.99144744873047,-0.7956160869192614,4.029232076177282,98.29973449937437,15.34447,3.8798149,5.172931,22.18569,-1.6177897,-3.9445336,-22.354975,-9.110657,-25.614462,23.577038,-6.493089,1.7163844,-16.810976,0.45810416,10.430199,2.2116532,31.766054,-38.126514,-34.689484,12.782995,-2.7982104,7.536305,34.86808,-32.149693,23.303215,-10.124026,-5.33804,1.1679572,-7.4092984
95,4.317066669464111,113.22314453125,79.10597229003906,-0.06267807248143184,3.860425677141074,98.24910207277303,15.878427,3.2935994,5.167712,23.06331,0.608419,-3.9978738,-21.00319,-8.301689,-24.631609,17.230019,-4.622376,3.617643,-17.039446,-0.15548106,10.196484,3.569255,32.517395,-37.987118,-35.845207,13.452952,-2.7247891,7.8966374,35.34521,-32.15488,22.825254,-10.486824,-4.845864,1.0470814,-7.133226
96,4.399597644805908,114.73361206054688,79.16280364990234,0.7268003893572179,3.6105573855527986,98.18944763331024,16.378994,2.6619365,5.186704,24.166267,2.536855,-4.069242,-19.682465,-7.851138,-23.66789,11.866618,-3.1360738,4.8921714,-17.196743,-0.8727,10.017778,4.912451,33.235176,-37.664043,-36.923195,13.790121,-2.5947647,7.8996,35.65673,-32.06292,22.39928,-10.756492,-4.418655,0.9549947,-6.844864
97,4.488484859466553,116.21267700195312,79.19788360595703,1.4813905256751412,3.321833723191209,98.06531638381973,16.739529,2.0859282,5.269859,25.669346,4.035234,-4.1898203,-18.517046,-7.663312,-22.864794,7.693311,-2.1632733,5.4032984,-17.221966,-1.5932077,9.876313,6.2074075,33.90526,-37.087246,-37.93412,13.620658,-2.3634615,7.2619743,35.768394,-31.871014,22.021442,-10.903813,-4.023713,0.89160633,-6.498413
98,4.596286773681641,117.69508361816406,79.17552185058594,2.179917444996514,2.9962455413768465,97.84936591606527,16.951393,1.5900452,5.440486,27.593197,5.15911,-4.353956,-18.57847,-8.03994,-21.942245,6.923203,-2.867633,5.4438233,-17.098076,-2.294558,9.785855,7.5036077,34.51395,-36.324223,-38.85517,13.12131,-2.043226,6.2495446,35.671173,-31.581793,21.691565,-10.906457,-3.646773,0.8536904,-6.1117516
99,4.698091983795166,119.15241241455078,79.11935424804688,2.725746874183832,2.640171262332535,97.54510783184665,17.019201,1.3108817,5.721996,29.910917,5.9468384,-4.542156,-18.711798,-8.284044,-20.969603,6.820282,-3.7002254,5.1459537,-16.83377,-2.876315,9.794812,8.807468,35.046406,-35.50595,-39.634823,12.551541,-1.7267399,5.3146863,35.37534,-31.20771,21.423248,-10.7752495,-3.3562717,0.8385312,-5.775448
100,4.7772603034973145,120.59932708740234,79.03248596191406,3.0523817836666525,2.249322338565813,97.1722810154831,16.98439,1.3416917,6.122793,32.536083,6.4686804,-4.7328978,-18.650114,-8.180368,-19.89073,6.7578025,-4.223192,4.6495566,-16.447369,-3.2693353,9.9463415,10.111425,35.48816,-34.773556,-40.214764,12.165823,-1.5213481,4.9036574,34.866558,-30.768911,21.22819,-10.499679,-3.2004476,0.8428018,-5.5803075
101,4.850559234619141,122.04357147216797,78.89334869384766,3.1523896251714705,1.798556956451651,96.71927621223162,16.900806,1.7039742,6.697936,35.464237,6.755326,-4.9245253,-18.361193,-7.7107854,-18.56673,6.7274055,-4.4378505,3.9582758,-15.922777,-3.4621363,10.26529,11.416429,35.82147,-34.216236,-40.560482,12.024995,-1.4767292,5.277431,34.151237,-30.275656,21.095375,-10.085811,-3.1546648,0.8213701,-5.5528593
102,4.89763879776001,123.4659194946289,78.71053314208984,3.05699121973213,1.2941551865535526,96.18716627401605,16.759861,2.3526552,7.4136543,38.709133,6.775202,-5.127685,-17.834963,-6.9525814,-17.085503,6.7336597,-4.394493,3.0069015,-15.248642,-3.469185,10.717865,12.676884,36.030872,-33.782593,-40.663643,11.997129,-1.5315442,6.1472263,33.268845,-29.726622,20.99679,-9.559844,-3.2031407,0.79020905,-5.6439195
103,4.973505973815918,124.85275268554688,78.5327377319336,2.7707610403860343,0.7724278351026266,95.62247676561155,16.517721,3.2669384,8.136223,42.207043,6.5152655,-5.3410854,-17.102886,-5.9744444,-15.690009,6.787105,-4.0459113,1.8295649,-14.464685,-3.2747686,11.25777,13.825448,36.11398,-33.389854,-40.524654,12.042956,-1.6333958,7.129552,32.245754,-29.132114,20.921787,-8.935675,-3.4058096,0.83840555,-5.830728
104,5.11536169052124,126.20726776123047,78.38276672363281,2.3156749696334438,0.2668854613545903,95.07414677750597,16.130287,4.4105434,8.729788,45.89583,5.964067,-5.5581923,-16.308056,-4.8840394,-14.605027,7.130155,-3.4642966,0.4625622,-13.62667,-2.8846529,11.838397,14.824793,36.07878,-32.93007,-40.166687,12.118383,-1.7315289,7.8418927,31.109146,-28.508413,20.870968,-8.238518,-3.8207457,1.0561444,-6.0913534
105,5.217628479003906,127.58103942871094,78.1291275024414,1.691215482428485,-0.25386811935944814,94.56451913189755,15.639525,5.8160014,9.180492,49.83268,5.027567,-5.8484664,-17.188936,-4.134311,-13.754778,11.731195,-4.3294706,-1.3452665,-12.750165,-2.3007336,12.478737,15.677621,35.941063,-32.345478,-39.639065,12.221946,-1.8287482,8.170978,29.91348,-27.853464,20.812904,-7.557525,-4.54635,1.5841737,-6.3936715
106,5.288150787353516,128.94351196289062,77.75942993164062,1.0636489190321476,-0.8403656973770112,94.11248245279108,15.128097,7.30203,9.519631,53.945614,3.785657,-6.141382,-18.281143,-3.512974,-13.1284275,17.429743,-5.1241417,-3.5052388,-11.866853,-1.7038454,13.182929,16.448032,35.718094,-31.67219,-38.95955,12.37387,-1.9456185,8.318767,28.65264,-27.168688,20.765768,-6.8862615,-5.5235977,2.342977,-6.7511806
107,5.397768497467041,130.25128173828125,77.38739013671875,0.5045191902782873,-1.437614542291283,93.70956647021528,14.522035,8.726388,9.705771,58.084316,2.431279,-6.275853,-19.140455,-2.9878156,-12.685731,22.87862,-5.933952,-5.463493,-11.0134325,-1.165019,13.894538,17.190395,35.414524,-30.93748,-38.10162,12.558013,-2.0623102,8.3839445,27.22896,-26.487152,20.803083,-6.078884,-6.5618014,3.0904555,-7.217316
108,5.522462368011475,131.51795959472656,77.01033782958984,-0.06994030129383061,-1.950324181416691,93.30298058508545,13.693448,10.1027975,9.709317,62.14552,1.1273794,-6.1432624,-19.468111,-2.3523946,-12.387256,26.975906,-6.976167,-6.6824985,-10.196283,-0.5877243,14.552801,17.94911,35.01535,-30.166683,-37.023846,12.755517,-2.160535,8.4680195,25.547518,-25.860907,20.99501,-4.9985795,-7.4651327,3.5829349,-7.8619514
109,5.60763692855835,132.78143310546875,76.62010955810547,-0.7947394913750246,-2.308139280804078,92.81978815488833,12.525008,11.530401,9.475964,66.23207,-0.14263079,-5.7151527,-19.317322,-1.4166774,-12.273487,29.639553,-8.57303,-6.85703,-9.400234,0.1911148,15.129343,18.778074,34.488895,-29.293613,-35.780273,13.077901,-2.2608912,8.52923,23.525309,-25.33795,21.386309,-3.5581267,-8.189416,3.7159677,-8.834774
110,5.661518096923828,134.0563507080078,76.24954223632812,-1.678207987299445,-2.554731930719443,92.28432361944812,11.068275,13.032857,9.025712,70.388535,-1.4618332,-5.090255,-18.950233,-0.2558899,-12.355135,31.643625,-10.656642,-6.3410997,-8.63969,1.1812721,15.647835,19.644476,33.818596,-28.300734,-34.365578,13.494026,-2.3690174,8.532982,21.235628,-24.922947,21.940826,-1.883457,-8.81084,3.638615,-10.075381
111,5.719738960266113,135.34689331054688,75.93598937988281,-2.57428408128074,-2.767921747182169,91.78979715587998,9.456509,14.480738,8.445598,74.40171,-2.7448633,-4.3394327,-18.406847,0.9084449,-12.530869,33.2514,-12.909147,-5.574853,-7.950852,2.2110782,16.12934,20.445274,33.01552,-27.306162,-32.640427,13.773549,-2.4420598,8.590233,18.831982,-24.588383,22.596283,-0.1601302,-9.32554,3.480982,-11.338251
112,5.772094249725342,136.65232849121094,75.6507797241211,-3.3298921980013114,-3.02445496577209,91.43676081659686,7.819358,15.766822,7.827218,78.072556,-3.9155517,-3.5174003,-17.673933,1.8709298,-12.686613,34.629066,-14.962483,-4.9909625,-7.35701,3.0947852,16.61152,21.075178,32.11251,-26.449154,-30.47185,13.688427,-2.4355576,8.815087,16.47721,-24.289915,23.276577,1.4369667,-9.741692,3.3683627,-12.366259
113,5.8123040199279785,137.94625854492188,75.4122314453125,-3.8981430350539337,-3.3538190162948665,91.28634389027236,6.156852,16.904123,7.174636,81.42149,-4.927428,-2.5068576,-16.660744,2.56122,-12.820819,35.719543,-16.751802,-4.6717815,-6.874811,3.7495217,17.141907,21.513487,31.121181,-25.78024,-27.658455,12.994743,-2.3790505,9.276143,14.15789,-23.983805,23.976044,3.0200171,-10.030258,3.318496,-13.1159725
114,5.872440814971924,139.15277099609375,75.185302734375,-4.356599453352647,-3.709334944277422,91.27621764468505,4.3970757,17.938698,6.441454,84.53856,-5.8292603,-1.3055114,-15.374456,3.1131053,-12.993059,36.408424,-18.43468,-4.408385,-6.4630995,4.265648,17.698503,21.80216,30.048168,-25.238672,-24.32507,11.875775,-2.2914493,9.900935,11.803416,-23.653566,24.71588,4.653059,-10.213567,3.2621543,-13.706863
115,5.926266193389893,140.41477966308594,75.01050567626953,-4.74970843305799,-4.054161352393327,91.32060062233445,2.5604203,18.831,5.6616025,87.34396,-6.696384,-0.13687474,-13.937203,3.6255705,-13.156285,36.76533,-19.966509,-4.185067,-6.0634117,4.715655,18.222307,21.963423,28.939865,-24.784058,-20.864313,10.743564,-2.1065805,10.605498,9.485951,-23.306719,25.473984,6.0963035,-10.374145,3.1925108,-14.124555
116,5.991155624389648,141.68746948242188,74.86549377441406,-5.114378700814305,-4.350916494655149,91.33990459103082,0.68064284,19.528053,4.876441,89.73905,-7.5874195,0.76448804,-12.460876,4.1690607,-13.255505,36.86083,-21.308573,-3.9729304,-5.6243315,5.1664634,18.655464,22.035564,27.869173,-24.37039,-17.694372,10.000192,-1.7448771,11.3220415,7.2587395,-22.969803,26.233816,7.1181703,-10.579619,3.1024427,-14.355416
117,6.0416669845581055,142.9472198486328,74.74942016601562,-5.485768273259619,-4.613387061570592,91.35750784691174,-1.2662201,20.020489,4.026339,91.73867,-8.521481,1.3277326,-10.912815,4.7608905,-13.301044,36.66615,-22.445036,-3.7688763,-5.1532974,5.6519785,19.027418,21.979239,26.88762,-24.008844,-14.820522,9.583955,-1.0276493,12.172316,5.1536937,-22.663706,26.988672,7.617928,-10.778781,2.952908,-14.341484
118,6.08245325088501,144.17564392089844,74.6760482788086,-5.834416888010307,-4.852964873622858,91.40200853343013,-3.2841191,20.328293,3.1340442,93.38405,-9.454644,1.6784291,-9.24208,5.3392396,-13.300535,36.158157,-23.397425,-3.5778158,-4.6651955,6.1214085,19.364914,21.838356,26.011108,-23.702795,-12.122288,9.304159,-0.044570215,13.168892,3.1447353,-22.391031,27.75089,7.7082343,-10.946035,2.7562962,-14.107234
119,6.128634929656982,145.4129180908203,74.65794372558594,-6.100556909194976,-5.030509172400257,91.39779300569352,-5.305857,20.455252,2.3736813,94.61973,-10.350427,1.873756,-7.5384946,5.847696,-13.195325,35.422054,-24.1829,-3.3764358,-4.1260767,6.514957,19.60388,21.790295,25.259563,-23.389978,-9.84366,9.378019,0.901523,14.072284,1.2025831,-22.153156,28.546785,7.4733663,-11.195989,2.5827727,-13.764084
120,6.171510696411133,146.6794891357422,74.68869018554688,-6.222644442525169,-5.107835511656177,91.26842946706145,-7.2632937,20.417261,1.9176764,95.38775,-11.174568,1.9713618,-5.8964987,6.232655,-12.935477,34.55087,-24.824297,-3.1473455,-3.505644,6.769667,19.683159,22.027414,24.656874,-23.003975,-8.247096,10.038272,1.5140407,14.633256,-0.6944188,-21.949484,29.41024,6.990588,-11.648759,2.5022378,-13.424187
121,6.187422275543213,147.93202209472656,74.74111938476562,-6.185647417184106,-5.058421191292661,90.95883223356915,-9.163985,20.199923,1.8126848,95.65877,-11.926176,1.9123029,-4.360729,6.4905353,-12.477505,33.56642,-25.339745,-2.8883412,-2.7711108,6.865952,19.56975,22.66977,24.228008,-22.488913,-7.5183663,11.751808,1.6574103,14.692293,-2.5748055,-21.783485,30.39015,6.2174525,-12.451139,2.5500588,-13.085977
122,6.197768211364746,149.24485778808594,74.843994140625,-6.024761061566611,-4.908446354400405,90.52018885679186,-11.028047,19.83219,1.9785774,95.462616,-12.619912,1.6947695,-2.8736243,6.636875,-11.865247,32.42733,-25.717993,-2.607378,-1.9535213,6.8262095,19.313314,23.636078,23.979433,-21.88599,-7.5272803,14.257169,1.5010508,14.414137,-4.414308,-21.652142,31.479935,5.124596,-13.498125,2.6782248,-12.698263
123,6.21639347076416,150.5579071044922,74.98099517822266,-5.753942987993576,-4.697948783827387,90.03604189995498,-12.806065,19.394222,2.3928509,94.82952,-13.244117,1.4571071,-1.3774751,6.652087,-11.183981,31.127172,-25.93649,-2.3083518,-1.1102782,6.651301,18.977179,24.797712,23.89757,-21.283527,-8.046455,16.703213,1.21258,14.034537,-6.1619277,-21.54133,32.62032,3.821159,-14.530597,2.8338542,-12.299027
124,6.243240833282471,151.89303588867188,75.15369415283203,-5.3846443531482455,-4.467458551457981,89.59031951670806,-14.444296,18.9523,3.0334675,93.786644,-13.788602,1.3316829,0.18439665,6.5182953,-10.519122,29.65976,-25.973242,-1.9967384,-0.29334226,6.345687,18.62086,26.003527,23.956772,-20.7731,-8.822805,18.246368,0.9861592,13.771711,-7.760865,-21.432095,33.73947,2.419063,-15.299319,2.9693623,-11.929897
125,6.268002033233643,153.2463836669922,75.36775207519531,-4.874754239079722,-4.216069493256305,89.19984799923414,-15.9278345,18.49361,3.9635503,92.30632,-14.2781515,1.3463097,1.8469385,6.1875587,-9.867738,27.959524,-25.8518,-1.6758074,0.4717531,5.8635507,18.243761,27.245342,24.152725,-20.389317,-9.882593,18.485535,0.8537032,13.676238,-9.231398,-21.312681,34.85521,0.93155664,-15.722454,3.0757349,-11.636346
126,6.296599864959717,154.6179962158203,75.60747528076172,-4.23518998054216,-3.924921577355764,88.82494600209391,-17.266354,17.98504,5.178804,90.37224,-14.714173,1.4145306,3.567961,5.677945,-9.200296,26.064854,-25.584473,-1.3479295,1.2156292,5.213165,17.825277,28.582247,24.484932,-20.07732,-11.308243,17.933016,0.72493947,13.625928,-10.590169,-21.183605,35.99309,-0.67833567,-15.945288,3.1809366,-11.386463
127,6.341972351074219,155.9821014404297,75.85614013671875,-3.552314388291375,-3.6078603358281436,88.46423658859278,-18.450468,17.45058,6.550314,88.044624,-15.051996,1.4933867,5.281349,5.0764112,-8.560963,24.133913,-25.135698,-1.0121175,1.9726306,4.4866524,17.387999,29.945047,24.92327,-19.796497,-12.909893,17.126207,0.62519604,13.570653,-11.79532,-21.050745,37.08573,-2.3584714,-16.054129,3.2949958,-11.107505
128,6.356367588043213,157.34678649902344,76.12361907958984,-2.915668467884852,-3.2798652733464366,88.11492504722261,-19.476685,16.916893,7.945621,85.3841,-15.245635,1.5491515,6.923827,4.4771924,-7.9892097,22.312298,-24.460545,-0.6594201,2.7781272,3.783952,16.947023,31.241486,25.420158,-19.516413,-14.471803,16.609863,0.57896084,13.464851,-12.8213,-20.927546,38.062492,-4.04686,-16.13151,3.426893,-10.724337
129,6.380800247192383,158.72750854492188,76.39701843261719,-2.3214229619088744,-2.952550121155713,87.7674476861209,-20.3268,16.388647,9.377338,82.37372,-15.278293,1.5912765,8.544549,3.8885264,-7.481244,20.524645,-23.518019,-0.265147,3.652936,3.1183856,16.50227,32.43545,25.948576,-19.239454,-15.95247,16.49883,0.62159795,13.271669,-13.662075,-20.830019,38.892498,-5.769927,-16.067596,3.5703712,-10.17134
130,6.401909828186035,160.1309051513672,76.6888427734375,-1.7347219858974603,-2.6164766995081306,87.42897057497528,-21.00217,15.837019,10.896999,78.987885,-15.18259,1.6235617,10.149166,3.2757607,-7.0195475,18.736048,-22.340801,0.16505381,4.564052,2.4524117,16.046919,33.551785,26.503733,-18.978683,-17.423645,16.52648,0.7271451,13.021704,-14.343593,-20.769257,39.618702,-7.5455093,-15.8600025,3.7280502,-9.504765
131,6.390441417694092,161.54849243164062,77.00286102294922,-1.1924743162669924,-2.255583225243348,87.12000587123246,-21.53764,15.2460985,12.424027,75.270836,-14.98211,1.6088778,11.622107,2.6767359,-6.615105,17.129051,-20.990906,0.59483665,5.4671073,1.812917,15.577932,34.588432,27.0667,-18.727613,-18.839256,16.670593,0.8297218,12.77258,-14.885558,-20.750336,40.281887,-9.300538,-15.76252,3.9167774,-8.82935
132,6.4477128982543945,162.97401428222656,77.2962417602539,-0.7324785162105969,-1.8546725218624731,86.85981823543986,-21.971731,14.608223,13.875147,71.26004,-14.697813,1.5172812,12.853329,2.1287687,-6.275173,15.885337,-19.530552,0.9854651,6.315545,1.2294679,15.087129,35.53234,27.608446,-18.485308,-20.138828,16.909962,0.8631262,12.5808115,-15.311137,-20.772982,40.92839,-10.954026,-16.030546,4.147744,-8.247062
133,6.466274738311768,164.37416076660156,77.61065673828125,-0.3485068479572764,-1.3788254514615323,86.64416979039748,-22.347485,13.961101,15.290565,66.90278,-14.341553,1.4461118,13.809637,1.6297634,-5.9948163,15.000603,-17.926199,1.3424057,7.1139994,0.6980652,14.543061,36.345325,28.111555,-18.256674,-21.283474,17.383718,0.79065317,12.468956,-15.661539,-20.839668,41.604008,-12.499836,-16.885952,4.47339,-7.817437
134,6.4660749435424805,165.78558349609375,77.91931915283203,-0.02695038838618235,-0.8479644756623602,86.46670950474106,-22.632505,13.285644,16.691277,62.18813,-13.899646,1.3755604,14.554127,1.1696775,-5.762916,14.400997,-16.165306,1.6833271,7.869946,0.21190059,13.9524765,37.028988,28.56909,-18.047216,-22.290045,18.064373,0.6520053,12.40131,-15.929018,-20.951319,42.282925,-13.964724,-18.142687,4.865784,-7.467453
135,6.4665069580078125,167.2365264892578,78.21681213378906,0.2168408127999955,-0.3279010288145535,86.33722430185931,-22.754547,12.510479,17.959814,57.18801,-13.337516,1.1226372,15.143034,0.7697533,-5.5749507,14.116671,-14.318338,1.9909877,8.547922,-0.20598179,13.359677,37.627445,28.966301,-17.859573,-23.174305,18.681622,0.49724442,12.348478,-16.072298,-21.102224,42.908382,-15.301672,-19.445852,5.210274,-7.1036897
136,6.43001127243042,168.70114135742188,78.50492858886719,0.36787317441242223,0.1164242067531022,86.2624307286653,-22.647165,11.589128,18.965265,51.967434,-12.620904,0.52651423,15.615112,0.44977963,-5.4290686,14.211953,-12.464078,2.249737,9.1151,-0.52938235,12.807031,38.186443,29.284513,-17.695826,-23.95497,18.968472,0.3761683,12.2778425,-16.05304,-21.281122,43.423115,-16.459768,-20.438887,5.39328,-6.642485
137,6.388498783111572,170.1358642578125,78.78631591796875,0.41926708165468735,0.48625545871203435,86.24223673671175,-22.239557,10.471372,19.657728,46.25682,-11.648188,-0.524907,15.975342,0.2205987,-5.321359,14.669483,-10.54125,2.4389107,9.563728,-0.74226266,12.277598,38.709366,29.510927,-17.559406,-24.623816,18.815384,0.30950734,12.183552,-15.867056,-21.480017,43.80713,-17.401358,-21.096138,5.3377943,-6.003801
138,6.3457794189453125,171.62957763671875,79.02743530273438,0.3860729278838182,0.8117305482124237,86.25945986746382,-21.54801,9.241069,20.08695,40.018967,-10.441529,-1.8626637,16.217047,0.07092111,-5.2468057,15.429734,-8.508548,2.591144,9.918687,-0.85991067,11.750423,39.172615,29.644142,-17.450525,-25.1682,18.385431,0.2686086,12.078402,-15.551237,-21.695078,44.097702,-18.140352,-21.580376,5.1213007,-5.2566795
139,6.294458389282227,173.14892578125,79.23408508300781,0.2717763362479439,1.0702706555890054,86.29082350336537,-20.642603,8.059507,20.280025,33.694008,-9.148036,-3.240479,16.379515,0.002357963,-5.198695,16.455297,-6.461379,2.759605,10.198625,-0.8899298,11.261134,39.5756,29.685247,-17.362339,-25.595364,17.813019,0.229111,11.956923,-15.129264,-21.918915,44.325874,-18.705097,-21.820217,4.8683076,-4.5428295
140,6.249794006347656,174.66160583496094,79.40528106689453,0.07344877568636332,1.2376915837503208,86.31968576811472,-19.626873,7.0614276,20.284565,27.790726,-7.9238853,-4.453515,16.491869,0.020782026,-5.1736646,17.733826,-4.5110683,2.9790885,10.41675,-0.8337366,10.845684,39.925045,29.635717,-17.287172,-25.918724,17.234167,0.16670182,11.814819,-14.627378,-22.14266,44.522705,-19.114727,-21.747652,4.7060676,-4.000953
141,6.206207752227783,176.16905212402344,79.51408386230469,-0.27128406466919724,1.2998557578535823,86.32895679201869,-18.48549,6.2657714,20.044922,22.274252,-6.75626,-5.655929,16.563957,0.18342844,-5.1721487,19.282703,-2.6546397,3.2102516,10.592516,-0.6314443,10.493797,40.257927,29.484713,-17.21103,-26.140265,16.579073,0.045699287,11.639955,-14.023843,-22.357542,44.699356,-19.353851,-21.184237,4.678337,-3.7053053
142,6.154080867767334,177.66366577148438,79.58049774169922,-0.803946444682567,1.259236914653806,86.32522603104677,-17.165956,5.6805825,19.550219,16.932898,-5.578541,-6.9109364,16.614735,0.5367014,-5.1910872,21.045868,-0.81036764,3.4164684,10.714837,-0.23005743,10.189805,40.571323,29.225517,-17.139935,-26.263508,15.812941,-0.110055424,11.436372,-13.327162,-22.559679,44.847412,-19.400726,-20.223087,4.719241,-3.5669565
143,6.0849080085754395,179.1551513671875,79.5984878540039,-1.4499306117572912,1.128753664888314,86.3477106113176,-15.813726,5.3389664,18.947844,12.173657,-4.511849,-7.9154587,16.633732,1.0090708,-5.240359,23.00421,0.9743817,3.6371434,10.735155,0.3066515,9.962851,40.792652,28.873762,-17.098816,-26.27772,15.117322,-0.2367955,11.226266,-12.5999565,-22.74787,44.963608,-19.2807,-19.207281,4.7889476,-3.4814205
144,6.009422779083252,180.64083862304688,79.59488677978516,-2.042194607765908,0.9412955733278159,86.45692016499777,-14.565171,5.121863,18.41519,8.328266,-3.6313787,-8.364741,16.561432,1.4262874,-5.3485556,25.214586,2.606485,3.940705,10.590302,0.8121321,9.846274,40.834435,28.461048,-17.111187,-26.163813,14.66712,-0.27213407,11.035779,-11.897674,-22.91974,45.036613,-19.025995,-18.480618,4.8477216,-3.3448894
145,5.952818870544434,182.09434509277344,79.5674819946289,-2.490491132638423,0.7282026709902808,86.70348550418744,-14.16979,5.1606374,18.005901,7.0362325,-3.8388505,-8.124173,16.29857,1.6993415,-5.528587,27.850782,4.040383,4.359082,10.235421,1.1809307,9.840903,40.68495,28.002897,-17.178167,-25.913286,14.516557,-0.1788235,10.861973,-11.217936,-23.069256,45.05122,-18.633055,-18.144325,4.8782997,-3.1108537
146,5.877503871917725,183.5299530029297,79.51036071777344,-2.806416601331321,0.48566380761720374,87.07368835233987,-14.067535,5.210147,17.675997,6.968271,-4.4742637,-7.3839464,15.848949,1.8167711,-5.7870817,30.93279,5.271526,4.8614345,9.694127,1.4161977,9.934297,40.375305,27.50286,-17.289856,-25.530762,14.561247,0.0020638132,10.698834,-10.532124,-23.189894,45.009365,-18.086655,-18.013159,4.9009023,-2.8428662
147,5.823390007019043,184.95895385742188,79.42391967773438,-2.943921066917449,0.19900937957378254,87.52962528638561,-13.751942,5.0060673,17.335432,6.94888,-4.809829,-6.319358,15.295749,1.688752,-6.1354856,34.305576,6.261603,5.438791,9.011179,1.4767995,10.139666,39.883614,26.982578,-17.450285,-25.023245,14.736671,0.21439703,10.569174,-9.8489,-23.276104,44.917618,-17.41488,-17.99958,4.9330654,-2.6025062
148,5.785791873931885,186.3678741455078,79.2813491821289,-2.8671083206421644,-0.1512573357784213,88.02762470010394,-13.225935,4.481287,16.84683,6.9552774,-4.715092,-5.0989504,14.736271,1.2405146,-6.5787997,37.795113,6.98225,6.082178,8.243392,1.3302364,10.467846,39.19351,26.475948,-17.662928,-24.409565,14.973343,0.40380964,10.499358,-9.169031,-23.32388,44.775345,-16.654438,-18.016842,4.99277,-2.45116
149,5.774575233459473,187.77259826660156,79.08819580078125,-2.5271984546317023,-0.594023160502881,88.58668112187439,-12.435937,3.5579855,16.062449,6.9825473,-3.8993309,-3.589445,14.252646,0.3994663,-7.1739197,41.367413,7.5268774,6.8890233,7.3827477,0.9120259,10.93677,38.30267,26.009886,-17.927025,-23.698011,15.333797,0.58646506,10.48094,-8.470225,-23.328074,44.57404,-15.821475,-18.115946,5.1111584,-2.4072475
150,5.735021114349365,189.16702270507812,78.90031433105469,-1.9903362150351227,-1.1296649513728476,89.19922496689314,-12.474328,2.6758847,15.043093,9.451397,-3.7752798,-1.7676501,13.82146,-0.752286,-7.863766,45.07179,7.900555,7.8150234,6.4403486,0.27607778,11.526826,37.244972,25.5921,-18.239697,-22.911772,15.816494,0.7841258,10.511201,-7.746414,-23.287136,44.30539,-14.899841,-18.318874,5.269642,-2.4354563
151,5.661235809326172,190.50547790527344,78.69705200195312,-1.4048343524876383,-1.7300337480729724,89.78668688878737,-12.581468,1.8105321,14.103045,12.505897,-3.8769138,0.057624195,13.371889,-2.0400505,-8.505195,48.86503,7.938871,8.643105,5.4977336,-0.4221801,12.193897,36.053078,25.224909,-18.602379,-22.078913,16.256134,0.95201904,10.62735,-7.0187125,-23.20862,43.96712,-13.881406,-18.498127,5.4122853,-2.5161693
152,5.622776031494141,191.86744689941406,78.40834045410156,-0.882892004716133,-2.352191730747202,90.28501030246088,-12.651897,1.1070594,13.450531,15.7228985,-4.5140986,1.5843366,12.803192,-3.323219,-8.97704,52.73329,7.4558983,9.172388,4.623478,-1.059761,12.899095,34.747665,24.906605,-19.017347,-21.217028,16.488508,1.0443511,10.867466,-6.308068,-23.106241,43.553974,-12.764467,-18.52404,5.4819975,-2.6322145
153,5.579833507537842,193.19912719726562,78.05329132080078,-0.4073893503496564,-3.038578483765168,90.7128364096628,-12.822176,0.59763455,13.108808,19.535011,-5.9981155,2.7979333,12.148695,-4.6330557,-9.296479,56.78932,6.2003655,9.438972,3.7993164,-1.6521126,13.711616,33.34676,24.627455,-19.477686,-20.362265,16.41982,1.0379157,11.258424,-5.6399956,-22.997509,43.051037,-11.566349,-18.335022,5.405794,-2.744348
154,5.498068809509277,194.4975128173828,77.68035888671875,0.0770964871371526,-3.7883702380630786,91.09601655432097,-13.077739,0.2166508,12.9226885,23.959343,-8.086563,3.854667,11.435706,-6.0248084,-9.518087,61.0199,4.3186793,9.536246,3.0022595,-2.265922,14.626547,31.826391,24.384062,-19.987932,-19.489227,16.15559,0.95772225,11.774482,-4.978733,-22.891037,42.459736,-10.310307,-18.007977,5.2333717,-2.8740406
155,5.428243637084961,195.74948120117188,77.2475357055664,0.5927542813557989,-4.47925962347562,91.39596352027631,-13.208704,-0.11439724,12.840135,28.174501,-10.3653555,4.7023315,10.513633,-7.4577055,-9.567492,65.25814,2.2084315,9.376228,2.2838185,-2.9162016,15.497393,30.13442,24.186708,-20.564663,-18.523481,15.826785,0.8294496,12.376134,-4.258118,-22.781147,41.79654,-8.992093,-17.619755,5.0865498,-3.0985363
156,5.366146564483643,197.00820922851562,76.82068634033203,1.153811035438285,-4.9891759068740145,91.57443324888817,-13.028873,-0.50673723,12.849916,31.393553,-12.420288,5.264962,9.225006,-8.879716,-9.360738,69.321365,0.2779952,8.865546,1.697031,-3.604808,16.178732,28.226591,24.05205,-21.222586,-17.398022,15.559764,0.682544,13.028207,-3.4176285,-22.651955,41.076675,-7.5948763,-17.24785,5.087012,-3.495082
157,5.309474945068359,198.2943115234375,76.43356323242188,1.817152789259758,-5.235952545169849,91.60354228486759,-12.509505,-1.0612097,13.046972,33.367207,-14.204689,5.429404,7.391915,-10.302136,-8.765247,73.27501,-1.4218944,7.8510895,1.2862308,-4.3774037,16.605257,26.022564,24.00002,-21.989853,-16.053755,15.305493,0.46511766,13.818175,-2.4194314,-22.476906,40.26182,-6.092147,-16.93744,5.332914,-4.101848
158,5.267446994781494,199.57974243164062,76.11151885986328,2.5705085301411814,-5.2935130622759345,91.51433946587343,-11.789226,-1.747947,13.44448,34.580288,-15.936961,5.262141,5.1153154,-11.699444,-7.8211536,77.16457,-3.071204,6.448325,1.0166259,-5.229633,16.865551,23.591133,24.026352,-22.845926,-14.584442,15.014257,0.1812109,14.742389,-1.3053027,-22.245966,39.347553,-4.479923,-16.63632,5.733446,-4.870886
159,5.228912353515625,200.87289428710938,75.85491180419922,3.319796313042308,-5.27762589020774,91.35491503408637,-10.902462,-2.478753,13.91575,35.29256,-17.561178,4.9517884,2.6500282,-12.981135,-6.720045,80.78304,-4.602662,4.9502015,0.8130626,-6.071864,17.048132,21.103525,24.1018,-23.727564,-13.137063,14.813337,-0.050666362,15.625167,-0.14300212,-21.975683,38.414158,-2.7780037,-16.27936,6.1266923,-5.752619
160,5.214718341827393,202.15167236328125,75.65638732910156,3.9713334454965397,-5.306746416429067,91.1704849554968,-9.858104,-3.152314,14.318451,35.751904,-19.01212,4.6780915,0.2599545,-14.10308,-5.6786156,83.93331,-5.962435,3.6371007,0.5954061,-6.8086634,17.240894,18.709642,24.187916,-24.57411,-11.821748,14.835819,-0.10727634,16.282265,0.9950426,-21.700571,37.55525,-1.0217488,-15.804155,6.3503428,-6.69947
161,5.193887710571289,203.4242401123047,75.47320556640625,4.53310961891864,-5.415324723225823,90.90096395418341,-8.574196,-3.751316,14.678486,35.916798,-20.278189,4.453467,-2.0567698,-15.130383,-4.6808677,86.6395,-7.1236033,2.5360708,0.39704272,-7.413342,17.484894,16.329832,24.256527,-25.431225,-10.4832115,15.198261,0.1314322,16.65912,2.085535,-21.43981,36.792736,0.92883515,-15.107945,6.346668,-7.8715005
162,5.1407790184021,204.69471740722656,75.31753540039062,5.044905531964943,-5.538291057137415,90.5459452614079,-7.058457,-4.319569,15.042593,35.6731,-21.38345,4.196924,-4.431355,-16.074856,-3.650285,88.994415,-8.119782,1.4990579,0.22808322,-7.921418,17.726759,13.896369,24.300922,-26.315313,-9.077023,15.813854,0.57241803,16.842001,3.166134,-21.200125,36.087273,3.026048,-14.254956,6.1973424,-9.234639
163,5.043398380279541,205.99000549316406,75.1903076171875,5.4591918938738235,-5.649994248716164,90.23921826818,-5.44431,-4.8308096,15.295911,35.177895,-22.322506,3.934961,-6.774704,-16.854422,-2.7461534,90.907234,-9.00304,0.5294359,-0.017841583,-8.333259,17.911425,11.555915,24.327106,-27.136951,-7.8523674,16.512098,1.0156953,16.858145,4.2704053,-21.00622,35.435875,4.9343166,-13.436577,5.9604526,-10.453699
164,4.985116004943848,207.26687622070312,75.10386657714844,5.72891877914615,-5.7277457376520164,90.11495688543049,-3.8678372,-5.250462,15.327375,34.600956,-23.09598,3.692098,-8.9825115,-17.39916,-2.136864,92.28809,-9.824397,-0.3610249,-0.4445494,-8.652195,17.989197,9.460306,24.351492,-27.80579,-7.0729547,17.119946,1.2596298,16.740929,5.4410844,-20.894266,34.835327,6.300359,-12.831205,5.710219,-11.202051
165,4.9538044929504395,208.54942321777344,75.07614135742188,5.839049160283924,-5.78171162744042,90.21494436454118,-2.336572,-5.5647597,15.093138,33.972256,-23.71759,3.49182,-11.04457,-17.670422,-1.8564637,93.12577,-10.5901575,-1.2046982,-1.0764825,-8.8829975,17.975166,7.6429925,24.387339,-28.273348,-6.866497,17.673359,1.2135404,16.428356,6.7431893,-20.895224,34.254387,6.947124,-12.521465,5.4807096,-11.294811
166,4.9360761642456055,209.8328094482422,75.09219360351562,5.815401676850104,-5.821336199536675,90.46630940340167,-0.78236777,-5.773619,14.659045,33.2141,-24.18637,3.309981,-12.994014,-17.740677,-1.8454506,93.46893,-11.273898,-1.9925481,-1.8499167,-9.020427,17.901566,6.018514,24.44321,-28.613869,-7.0822783,18.2325,0.99096745,15.929564,8.179966,-21.02108,33.688282,7.027861,-12.385281,5.2410684,-10.943053
167,4.920698165893555,211.15196228027344,75.14219665527344,5.673870631018882,-5.8226724339776785,90.8309533572637,0.7695311,-5.8627205,14.083605,32.338734,-24.483498,3.1006126,-14.7845955,-17.708838,-2.1295743,93.31326,-11.875603,-2.6438525,-2.7316637,-9.052256,17.747017,4.559634,24.53,-28.923592,-7.569302,18.655983,0.7019365,15.389942,9.703538,-21.273796,33.17208,6.68462,-12.290937,4.9754033,-10.414234
168,4.915531158447266,212.4925079345703,75.25686645507812,5.4309142913447825,-5.760570044483874,91.27055456994785,2.2917414,-5.821579,13.426142,31.360695,-24.592428,2.8196857,-16.36857,-17.675312,-2.7325895,92.65413,-12.39958,-3.0781908,-3.6935027,-8.964947,17.488657,3.2526774,24.659615,-29.28952,-8.186889,18.806036,0.4619856,14.951466,11.254938,-21.648077,32.746338,6.071822,-12.110139,4.668692,-9.974435
169,4.891755104064941,213.85858154296875,75.40571594238281,5.043091379453786,-5.619122333927894,91.83120022796842,3.7772994,-5.612472,12.642297,30.249264,-24.540697,2.4466271,-17.697855,-17.654545,-3.7676146,91.43307,-12.865047,-3.1954434,-4.7846594,-8.712806,17.097893,2.1229105,24.841705,-29.724226,-8.98357,18.552202,0.31333604,14.643335,12.827404,-22.151678,32.450565,5.144894,-11.805681,4.2825727,-9.676402
170,4.880301475524902,215.2386016845703,75.59175109863281,4.519817026576193,-5.41022190174163,92.51257405428606,5.2305202,-5.2437882,11.726893,29.02321,-24.336723,2.0072193,-18.792768,-17.610323,-5.1976476,89.66511,-13.269618,-3.058997,-5.9975166,-8.308207,16.612251,1.1806976,25.080423,-30.182257,-10.024806,17.996311,0.1962332,14.3930435,14.45808,-22.78648,32.248734,3.842526,-11.4463005,3.837709,-9.378885
171,4.883471488952637,216.6436004638672,75.8237533569336,3.9537199256613897,-5.153320221886215,93.20673325675513,6.6508884,-4.78617,10.793072,27.74539,-23.918013,1.5289627,-19.712856,-17.53687,-6.8141036,87.45315,-13.575821,-2.8203268,-7.2233944,-7.826591,16.098063,0.39957145,25.37731,-30.657022,-11.198475,17.35536,0.07457829,14.18819,16.130085,-23.526678,32.07234,2.3263288,-11.0671015,3.4040883,-9.059817
172,4.922832012176514,218.05343627929688,76.08089447021484,3.4377814332535244,-4.872113563975713,93.80661686110406,8.03757,-4.3153663,9.951185,26.481882,-23.222773,1.0368472,-20.51996,-17.426107,-8.409293,84.900406,-13.750864,-2.6356878,-8.355738,-7.351436,15.606638,-0.256174,25.731127,-31.14489,-12.377081,16.846525,-0.09088587,14.017293,17.809828,-24.32626,31.854218,0.7841447,-10.7087345,3.0507183,-8.701047
173,4.943240165710449,219.4710693359375,76.3607177734375,2.981163933333452,-4.568965222920904,94.29236093023444,9.41582,-3.8473916,9.200776,25.186045,-22.204184,0.5154703,-21.225754,-17.271723,-9.976308,82.003006,-13.803774,-2.5313118,-9.383502,-6.9054613,15.126047,-0.7988077,26.14799,-31.653275,-13.5248785,16.510494,-0.32768843,13.917794,19.457003,-25.155283,31.602777,-0.73058426,-10.410654,2.8096316,-8.271881
174,4.969054698944092,220.9058837890625,76.65878295898438,2.5426501911402832,-4.234886920861466,94.71547252549188,10.769162,-3.3508365,8.488168,23.851181,-20.905031,-0.041416302,-21.790545,-17.055115,-11.613931,78.71095,-13.748613,-2.4145937,-10.356472,-6.449873,14.62807,-1.2080563,26.63338,-32.176044,-14.704507,16.237898,-0.60974157,13.882755,21.06951,-26.002934,31.348978,-2.2672968,-10.152716,2.6383576,-7.7923346
175,4.991398334503174,222.36761474609375,76.98109436035156,2.128669473277731,-3.878731169817481,95.07789458715895,12.040281,-2.8364923,7.8416057,22.600565,-19.399925,-0.59283054,-22.201885,-16.749735,-13.271306,75.04459,-13.566609,-2.2687116,-11.263575,-5.9831786,14.128277,-1.4720438,27.18103,-32.687565,-15.926537,16.024416,-0.8953232,13.833111,22.656452,-26.848879,31.064543,-3.774017,-9.886654,2.4929786,-7.322833
176,5.0347442626953125,223.8057403564453,77.3065414428711,1.7466115532035975,-3.5098141284717257,95.3822901543703,13.174964,-2.3137434,7.2897887,21.564283,-17.765516,-1.0980147,-22.451954,-16.332426,-14.893836,71.01605,-13.236952,-2.0800216,-12.091505,-5.504692,13.638728,-1.5887177,27.775888,-33.168518,-17.188269,15.867365,-1.1422542,13.689788,24.22609,-27.666468,30.722149,-5.1922226,-9.566855,2.3295043,-6.922871
177,5.081181049346924,225.27789306640625,77.65117645263672,1.3700420459220999,-3.116669546751096,95.63503518914234,14.165066,-1.7472472,6.8321013,20.750408,-15.976532,-1.5599773,-22.523075,-15.801674,-16.554707,66.5262,-12.720848,-1.8968474,-12.840432,-4.992006,13.146985,-1.5855656,28.410799,-33.642815,-18.45845,15.773624,-1.3484479,13.432754,25.760979,-28.43859,30.317238,-6.483513,-9.190895,2.1381862,-6.6014233
178,5.120309829711914,226.75299072265625,77.99182891845703,1.0049076206392957,-2.701260461939289,95.83093475271563,15.039842,-1.1518294,6.4498243,20.10691,-14.013172,-1.9961962,-22.422123,-15.134078,-18.252783,61.578815,-12.034343,-1.6939082,-13.50908,-4.457448,12.643425,-1.4716762,29.084686,-34.11634,-19.722073,15.745832,-1.5337698,13.1032505,27.244482,-29.157953,29.871445,-7.653199,-8.786376,1.9409407,-6.328579
179,5.15194034576416,228.24258422851562,78.32994842529297,0.7034283170819383,-2.2918308422412927,95.95870538389201,15.814059,-0.61093336,6.1454096,19.654554,-11.95102,-2.3906202,-22.188683,-14.307386,-19.811277,56.329483,-11.233301,-1.3751123,-14.087399,-3.9551394,12.140325,-1.2177511,29.787731,-34.541557,-20.997757,15.777,-1.6893115,12.712855,28.682665,-29.813208,29.398396,-8.706337,-8.354618,1.7412524,-6.1057205
180,5.193270206451416,229.74081420898438,78.6599349975586,0.523312518105676,-1.9172363478559242,96.01097475253381,16.506954,-0.20848386,5.9226947,19.401085,-9.857063,-2.7272966,-21.863558,-13.338631,-21.042355,50.924377,-10.3751545,-0.87103647,-14.570024,-3.540111,11.646429,-0.79634786,30.505283,-34.868713,-22.29644,15.8612795,-1.8066458,12.271703,30.075834,-30.391253,28.912094,-9.643307,-7.8950486,1.5427177,-5.935062
181,5.252302646636963,231.2357177734375,78.96157836914062,0.4761210108639107,-1.5681945956501846,95.9802957154409,17.135859,0.029477734,5.788997,19.277052,-7.6269636,-2.9744651,-21.41239,-12.221178,-21.912182,45.15522,-9.396272,-0.22895537,-14.950951,-3.212185,11.138316,-0.19905363,31.22884,-35.096855,-23.6096,16.033142,-1.8826741,11.7543545,31.401804,-30.881407,28.402737,-10.406727,-7.3671627,1.3285266,-5.8219624
182,5.29180908203125,232.77316284179688,79.22431945800781,0.5368899265572367,-1.23660924315006,95.88078669174392,17.700228,0.14163148,5.735998,19.276833,-5.248321,-3.1587753,-20.800867,-10.999869,-22.492657,38.95795,-8.274534,0.49075067,-15.236109,-2.957412,10.610765,0.5415622,31.955,-35.25323,-24.910408,16.285753,-1.9245386,11.162421,32.630672,-31.280756,27.8746,-10.979737,-6.7747416,1.1017809,-5.76354
183,5.321585178375244,234.30935668945312,79.44926452636719,0.7045931845206949,-0.9515789535796657,95.74301339540959,18.196697,0.13695325,5.742114,19.484798,-2.9121568,-3.3464608,-20.066143,-9.799022,-22.759306,32.701965,-7.1173253,1.3243308,-15.448155,-2.8129673,10.098048,1.3993001,32.674313,-35.32676,-26.187563,16.554787,-1.9382441,10.546037,33.79411,-31.5895,27.358109,-11.461223,-6.204696,0.8957325,-5.7502584
184,5.3403472900390625,235.8466339111328,79.6168441772461,0.9837190224217026,-0.743007831364386,95.6003852424641,18.625689,0.014913247,5.781513,19.978708,-0.8083247,-3.5951335,-19.250374,-8.74383,-22.699877,26.772865,-6.029797,2.3205914,-15.604318,-2.8213475,9.637864,2.3345199,33.37471,-35.316986,-27.424116,16.774406,-1.9278624,9.954958,34.741417,-31.821953,26.907616,-11.798807,-5.6444106,0.7435414,-5.774774
185,5.355057239532471,237.38381958007812,79.7113265991211,1.4683044708335866,-0.6194751127219215,95.46259217666157,19.020512,-0.3389872,5.843102,20.710306,1.0733961,-3.8756497,-18.305672,-7.8961406,-22.192572,21.008259,-4.963879,3.7527046,-15.731818,-3.0811906,9.203017,3.3856788,34.04732,-35.206745,-28.62975,16.958723,-1.8734221,9.382245,35.53458,-31.9863,26.535019,-12.041763,-5.1316133,0.6589618,-5.8533964
186,5.39178991317749,238.9159393310547,79.75641632080078,2.2104080394032812,-0.5844891446438577,95.3371734064259,19.423203,-0.9865183,5.9148474,21.576508,2.8637683,-4.1491117,-17.165413,-7.335242,-21.275034,15.235225,-3.8796697,5.490715,-15.837337,-3.6333933,8.780538,4.55253,34.69093,-35.005238,-29.80392,17.133167,-1.7791469,8.803364,36.151684,-32.08972,26.224953,-12.146613,-4.6142135,0.62288207,-5.986262
187,5.43303918838501,240.40823364257812,79.75347900390625,3.1035789697320246,-0.6465573978954534,95.22888523578227,19.805117,-1.7869339,5.994249,22.648525,4.5093207,-4.4635935,-15.927456,-7.1109366,-20.202837,9.941031,-2.9210522,7.0169992,-15.911826,-4.3754096,8.42546,5.778206,35.303364,-34.72455,-30.930195,17.256483,-1.6847985,8.243005,36.65661,-32.132458,25.955881,-12.207107,-4.128162,0.6199883,-6.1425343
188,5.493350982666016,241.88426208496094,79.7279052734375,3.899972036356389,-0.7797571297972363,95.09749863448943,20.047281,-2.4360957,6.133454,24.142834,5.8708572,-4.8983274,-15.349625,-7.2428985,-19.178774,6.9587564,-2.9093893,7.8316216,-15.891742,-5.051677,8.206165,6.975814,35.87466,-34.393982,-31.971912,17.281971,-1.6299243,7.732273,37.01606,-32.112648,25.71466,-12.229328,-3.6675024,0.63318497,-6.2900887
189,5.556900978088379,243.3300018310547,79.67356872558594,4.466858453887845,-0.9470494442947012,94.87856821078257,20.04692,-2.7734537,6.4356723,26.260395,6.8571925,-5.565934,-15.707141,-7.5861926,-18.255602,6.8411074,-4.1414704,7.6878915,-15.692779,-5.5112605,8.1365185,8.099267,36.38655,-34.037548,-32.90216,17.17948,-1.6223773,7.2369323,37.216736,-32.02074,25.485708,-12.196449,-3.1694596,0.6605788,-6.425248
190,5.617683410644531,244.7538604736328,79.59366607666016,4.854252982447233,-1.1435625435327816,94.56877861306822,19.818222,-2.8608737,6.892353,28.966797,7.483846,-6.404839,-15.821615,-7.701685,-17.442461,6.8017707,-5.2004642,6.9050093,-15.315961,-5.802443,8.186911,9.156797,36.823376,-33.667507,-33.703587,16.978079,-1.6399859,6.758131,37.252346,-31.852213,25.277576,-12.076607,-2.6516056,0.70843,-6.561963
191,5.66239595413208,246.1881866455078,79.46617889404297,5.05066495233117,-1.3813065919310616,94.2162181177425,19.408443,-2.6827579,7.3990855,32.12939,7.7700014,-7.2475357,-15.704268,-7.5510373,-16.681807,6.804729,-5.980236,5.836728,-14.821569,-5.920857,8.360891,10.14926,37.176006,-33.2947,-34.351833,16.725695,-1.678321,6.3805933,37.1058,-31.616268,25.112377,-11.858526,-2.2328537,0.772689,-6.695089
192,5.692072868347168,247.62432861328125,79.28326416015625,5.045193604912511,-1.6761512731533328,93.87544758401101,18.879793,-2.2344663,7.84594,35.590275,7.7491713,-7.934771,-15.3615265,-7.111184,-15.925692,6.825222,-6.3723536,4.8262353,-14.282547,-5.8638706,8.663703,11.089336,37.44094,-32.919277,-34.838654,16.468596,-1.7346653,6.1890984,36.76584,-31.3312,25.01154,-11.543741,-2.028691,0.85017353,-6.820536
193,5.703289985656738,249.02581787109375,79.04513549804688,4.830989348134378,-2.064313819452947,93.55607925775335,18.293837,-1.5182503,8.228036,39.342396,7.448221,-8.458782,-14.726616,-6.3647513,-15.075442,6.852635,-6.30229,3.9899466,-13.708996,-5.6252623,9.125765,11.9794035,37.615604,-32.543587,-35.177296,16.16162,-1.810167,6.233423,36.241486,-31.011276,24.967913,-11.149551,-2.1230278,0.944738,-6.9381213
194,5.716911792755127,250.42372131347656,78.7732925415039,4.419537453429016,-2.536570811585809,93.24414136604334,17.649033,-0.542756,8.572115,43.40153,6.869351,-8.8965,-13.80494,-5.3590713,-14.184139,6.901915,-5.837049,3.1397245,-13.082469,-5.20306,9.731883,12.814626,37.69684,-32.168133,-35.368946,15.801164,-1.9078015,6.456785,35.553734,-30.661978,24.964664,-10.692185,-2.4333458,1.0583974,-7.0508957
195,5.81567907333374,251.7742462158203,78.55500030517578,3.8333782870404436,-3.0402548665839673,92.96010542388123,16.91754,0.6673654,8.814896,47.62723,6.0205984,-9.224406,-12.743861,-4.1797915,-13.429413,7.0599647,-5.1160474,2.1580932,-12.438436,-4.6085267,10.4185,13.602876,37.6852,-31.782515,-35.39219,15.49342,-2.0279064,6.7841644,34.711998,-30.291538,25.008108,-10.175505,-2.8263865,1.1852348,-7.1596713
196,5.910600185394287,253.1467742919922,78.27613067626953,3.110170889040268,-3.5208308054464506,92.7233164701725,16.06373,2.0664678,8.893999,51.883373,4.9116693,-9.418954,-12.929833,-3.2210197,-12.911486,10.096857,-5.7002616,0.9293637,-11.816802,-3.871734,11.120008,14.361031,37.584557,-31.36759,-35.234417,15.343597,-2.1688385,7.140928,33.73092,-29.908966,25.108946,-9.610516,-3.1709805,1.3188304,-7.266759
197,5.969272136688232,254.53805541992188,77.8999252319336,2.2145866949789643,-3.9904454782281613,92.55484215922422,15.10208,3.6992943,8.768373,56.2326,3.4255242,-9.503821,-13.521253,-2.2742584,-12.820337,14.267743,-6.3706994,-0.8443898,-11.237545,-2.963777,11.849437,15.091889,37.40846,-30.911583,-34.94373,15.4317875,-2.321403,7.5250673,32.64543,-29.513723,25.250975,-9.063035,-3.5147336,1.5006922,-7.350422
198,6.046796798706055,255.87313842773438,77.4942855834961,1.2427693517774459,-4.484836218431044,92.46080266236228,14.082688,5.428252,8.45982,60.652077,1.633148,-9.471374,-14.361247,-1.4622184,-13.019336,19.364948,-7.101118,-3.0434215,-10.706206,-1.990282,12.622034,15.812278,37.16775,-30.40991,-34.537354,15.682993,-2.4863079,7.969302,31.468647,-29.104773,25.43226,-8.541454,-3.9067395,1.7209204,-7.4181504
199,6.167889595031738,257.1648254394531,77.08374786376953,0.3134934517505179,-4.9612920154290014,92.41246512934542,12.962753,7.0684757,8.0118885,64.96153,-0.21189313,-9.273619,-15.047061,-0.8023046,-13.345501,24.282993,-7.9687967,-5.1715994,-10.213227,-1.0657369,13.383996,16.552404,36.85351,-29.863611,-33.94187,15.973892,-2.6774504,8.454516,30.116905,-28.695225,25.688873,-7.913524,-4.185041,1.894329,-7.51845
200,6.304962158203125,258.44482421875,76.66062927246094,-0.536901014699763,-5.362773885631794,92.36360497092132,11.664721,8.541958,7.463878,69.02294,-1.8808888,-8.87685,-15.288092,-0.15479825,-13.642326,28.095646,-9.102358,-6.6744757,-9.736808,-0.214159,14.081922,17.33003,36.437202,-29.276659,-33.06597,16.18263,-2.9121675,8.959735,28.521334,-28.306995,26.050234,-7.0606976,-4.194339,1.9352283,-7.702398
201,6.4012579917907715,259.7293701171875,76.25597381591797,-1.4008362871679183,-5.633497587000377,92.276949544898,10.059437,9.930167,6.7418194,72.94245,-3.3550684,-8.187632,-15.099754,0.68131435,-13.926941,30.657719,-10.699342,-7.2599974,-9.271874,0.6748817,14.693579,18.186152,35.87591,-28.60677,-31.906975,16.377447,-3.3066642,9.467668,26.61641,-27.965065,26.527174,-5.9286947,-3.7754393,1.7641962,-7.964478
202,6.459278106689453,261.0055847167969,75.89209747314453,-2.3179704451398195,-5.804185747157183,92.1679552739968,8.187218,11.285447,5.837186,76.77494,-4.7512054,-7.2677817,-14.706974,1.6742928,-14.265168,32.58988,-12.694102,-7.245851,-8.829999,1.646739,15.24325,19.075157,35.151962,-27.860542,-30.467215,16.596188,-3.817788,9.985549,24.464804,-27.672028,27.096712,-4.6153655,-3.0387163,1.4431043,-8.287376
203,6.4935150146484375,262.2781066894531,75.5837631225586,-3.164052783927646,-5.949499713422819,92.07482445483215,6.214537,12.510097,4.8922334,80.32337,-6.05182,-6.297692,-14.140876,2.6399596,-14.592171,34.123764,-14.8137045,-6.9591656,-8.409854,2.5694659,15.754082,19.88329,34.282215,-27.128227,-28.676558,16.670914,-4.227183,10.527438,22.192377,-27.403387,27.731916,-3.2275805,-2.2354033,1.0977329,-8.703389
204,6.508569240570068,263.5272216796875,75.3168716430664,-3.8132351353873175,-6.1458064553467375,92.03991014008784,4.3138585,13.529364,4.065472,83.39726,-7.247846,-5.446317,-13.397473,3.3896298,-14.833753,35.439247,-16.761873,-6.7284427,-8.001489,3.2971065,16.259022,20.502964,33.308556,-26.513037,-26.478172,16.426308,-4.3180695,11.110509,19.937944,-27.117748,28.4008,-1.8678409,-1.6349465,0.85584426,-9.245015
205,6.557122707366943,264.7525939941406,75.10213470458984,-4.192681446002093,-6.432966463887607,92.11120833529633,2.5086012,14.32878,3.3944142,85.98809,-8.311559,-4.726181,-12.407606,3.8226907,-14.994127,36.530228,-18.51683,-6.5879297,-7.6006136,3.725033,16.806332,20.909056,32.248844,-26.045004,-23.740871,15.504599,-3.9824188,11.743756,17.639671,-26.776083,29.156181,-0.37522158,-1.2096343,0.7589995,-10.057823
206,6.62468957901001,265.9865417480469,74.91844940185547,-4.381596028543577,-6.764577625207517,92.25414545788719,0.70449525,14.971483,2.811874,88.20437,-9.262288,-4.0370526,-11.17704,4.067291,-15.123591,37.286865,-20.202703,-6.3861732,-7.190855,3.9365852,17.375725,21.158352,31.109205,-25.681215,-20.551296,14.09232,-3.3645043,12.428387,15.247423,-26.36247,29.985506,1.2699455,-0.8623956,0.7352641,-11.074135
207,6.714521884918213,267.2300720214844,74.7737045288086,-4.475732022817244,-7.088935576968806,92.3890314693189,-1.092807,15.507759,2.3284304,90.01983,-10.157775,-3.3833961,-9.792815,4.2684245,-15.195477,37.70533,-21.728977,-6.167469,-6.7423983,4.061374,17.899889,21.285378,29.9353,-25.410032,-17.195913,12.830541,-2.6167338,13.176077,12.875332,-25.885035,30.76841,2.7966614,-0.74470574,0.7508027,-12.008064
208,6.801323413848877,268.4910583496094,74.66487884521484,-4.573224099532681,-7.353549483916841,92.43485542308215,-2.8786283,15.982073,1.9533225,91.408485,-11.052731,-2.7792852,-8.349351,4.559047,-15.168484,37.791454,-23.00601,-5.970129,-6.224273,4.2313013,18.311323,21.344807,28.799955,-25.210403,-13.9894495,12.353732,-1.8724638,13.994179,10.650193,-25.368406,31.381706,3.9158082,-1.005031,0.77476025,-12.573446
209,6.878399848937988,269.74578857421875,74.61116790771484,-4.713511574584482,-7.556154220930676,92.38931941274845,-4.6839576,16.41133,1.6539308,92.37836,-11.985152,-2.2040918,-6.8258114,4.982208,-15.034164,37.492554,-24.002653,-5.8044147,-5.629682,4.4877467,18.61551,21.328453,27.758171,-25.09987,-10.895338,12.989466,-0.97149605,15.06122,8.598349,-24.833797,31.758793,4.5241194,-1.8514622,0.8100268,-12.621663
210,6.947535991668701,271.0047607421875,74.61284637451172,-4.83861924944789,-7.721751237335133,92.28831002587414,-6.497968,16.772697,1.4470148,92.937904,-12.911347,-1.6630402,-5.180671,5.4461575,-14.802208,36.82163,-24.76737,-5.644378,-4.9615645,4.7504787,18.847815,21.265177,26.828156,-25.069315,-7.8535843,14.311022,0.12742753,16.313744,6.6877832,-24.287567,31.966051,4.742542,-3.1514373,0.863513,-12.326023
211,6.992675304412842,272.2843933105469,74.67328643798828,-4.900187297216171,-7.837983851866418,92.10737834736052,-8.2503605,17.057184,1.4154083,93.05929,-13.762227,-1.2112802,-3.4860325,5.874598,-14.455652,35.89966,-25.336977,-5.470182,-4.2130823,4.9666877,18.986782,21.27094,26.028252,-25.049171,-5.1464005,15.838325,1.1021193,17.398796,4.8792744,-23.736422,32.108574,4.6795077,-4.505777,0.9105125,-11.886749
212,7.051217555999756,273.5166320800781,74.76006317138672,-4.854175819394876,-7.892056508040322,91.82267868909139,-9.866901,17.261328,1.6456116,92.71483,-14.472732,-0.903782,-1.8164394,6.1941004,-13.983946,34.850456,-25.750708,-5.264721,-3.3843913,5.0799146,19.014505,21.472137,25.378874,-24.965454,-3.0689654,17.114693,1.59638,17.987955,3.1522727,-23.185825,32.29981,4.42603,-5.524798,0.9401336,-11.506903
213,7.1102142333984375,274.7769470214844,74.88233184814453,-4.674384041059125,-7.880884592731125,91.37813709816642,-11.306529,17.397163,2.2203503,91.864914,-15.038206,-0.82061535,-0.17672788,6.395261,-13.335832,33.659378,-26.02121,-5.021005,-2.4386613,5.0664167,18.926136,21.93868,24.905174,-24.777119,-1.7839028,18.156664,1.3499185,17.891827,1.5149707,-22.630968,32.562756,3.9340918,-6.0943184,0.9566151,-11.217706
214,7.144411563873291,276.0661315917969,75.04693603515625,-4.392122838123003,-7.80910137962656,90.80313078997189,-12.601448,17.478872,3.0854018,90.53043,-15.49261,-0.9133528,1.4661801,6.5020423,-12.537712,32.28265,-26.130405,-4.7468963,-1.3957875,4.944937,18.740715,22.627897,24.615942,-24.527983,-1.1456807,19.158628,0.5876477,17.335178,-0.030210905,-22.069023,32.865936,3.1805367,-6.4252753,0.9658524,-10.92226
215,7.175851821899414,277.37811279296875,75.24453735351562,-4.039147678436169,-7.676844229990395,90.20152542413199,-13.785311,17.498602,4.1233907,88.7731,-15.83017,-1.0483314,3.0908737,6.4990373,-11.701162,30.802727,-26.075388,-4.450826,-0.3406755,4.72603,18.478449,23.483032,24.493944,-24.27388,-0.9745879,19.944792,-0.32871652,16.6129,-1.510471,-21.50963,33.237595,2.2890227,-6.6059723,0.97041976,-10.6316185
216,7.204070091247559,278.69781494140625,75.46342468261719,-3.6490758284498748,-7.485684463501967,89.67798547476538,-14.890427,17.43734,5.218027,86.65288,-16.046917,-1.0956575,4.6765924,6.37801,-10.93823,29.298632,-25.851866,-4.1419415,0.6373947,4.424472,18.157013,24.433998,24.50332,-24.062183,-1.0728625,20.35734,-1.02695,16.005703,-2.9507341,-20.971504,33.70589,1.3800306,-6.7236366,0.9725128,-10.356298
217,7.227938652038574,280.0096740722656,75.69715118408203,-3.2052218871550053,-7.237587482979959,89.26491921316848,-15.920291,17.249367,6.374905,84.162865,-16.143972,-0.9969866,6.260733,6.115438,-10.270089,27.714052,-25.467808,-3.8186898,1.4938946,4.0214086,17.774458,25.488815,24.624886,-23.902534,-1.4654632,20.280832,-1.4236718,15.504192,-4.3568487,-20.46949,34.306652,0.44902238,-6.744634,0.97717685,-10.088062
218,7.251099586486816,281.352294921875,75.95027923583984,-2.7016369739557553,-6.931795616506519,88.90846997032942,-16.842093,16.941248,7.6532993,81.268295,-16.13212,-0.8454197,7.8332114,5.727839,-9.64663,26.038652,-24.926207,-3.4767177,2.273238,3.521734,17.328207,26.657824,24.850437,-23.768131,-2.2053196,19.833694,-1.7059534,14.973126,-5.6966834,-20.007769,35.025936,-0.57164687,-6.635402,0.98497653,-9.826622
219,7.263131618499756,282.7015380859375,76.22050476074219,-2.184995809781814,-6.566823695431467,88.5835590916789,-17.639265,16.56507,9.016636,77.98608,-16.015043,-0.7391994,9.299678,5.273798,-9.069385,24.430305,-24.219728,-3.124044,3.0221744,2.980951,16.830301,27.859879,25.151472,-23.65099,-3.1223934,19.22311,-1.9050763,14.504746,-6.9351816,-19.59008,35.806023,-1.6630049,-6.489672,0.9901632,-9.592633
220,7.27443265914917,284.0479736328125,76.51394653320312,-1.7048410048814422,-6.141162750659938,88.26439532445892,-18.29874,16.171635,10.427756,74.32508,-15.79078,-0.77424365,10.574017,4.8136735,-8.532782,23.034048,-23.3395,-2.770891,3.789989,2.4574413,16.288185,28.998556,25.486355,-23.551586,-4.0264735,18.661314,-2.058381,14.195261,-8.047866,-19.222776,36.58267,-2.798585,-6.4042645,0.9861129,-9.405022
221,7.283888816833496,285.3834228515625,76.80451202392578,-1.2528095626645106,-5.622525476934649,87.9395568869598,-18.83235,15.777474,11.937485,70.20129,-15.440508,-0.9943627,11.59533,4.3410964,-8.023612,21.900114,-22.26741,-2.4342117,4.6026063,1.9565532,15.671294,30.006351,25.831654,-23.508808,-4.857559,18.135265,-2.157549,14.134916,-9.061215,-18.918861,37.37753,-3.9806516,-6.4620457,1.0103523,-9.365856
222,7.291665077209473,286.7566223144531,77.10706329345703,-0.8135176186353545,-5.023076707059003,87.62770476751301,-19.230883,15.318037,13.553683,65.61276,-14.958849,-1.3635067,12.4202795,3.8404055,-7.5411716,20.957155,-21.021786,-2.1060534,5.422669,1.4585493,14.985176,30.91862,26.179962,-23.517271,-5.6822577,17.567938,-2.1943705,14.251951,-9.977514,-18.686445,38.210934,-5.2271113,-6.592362,1.054384,-9.4319515
223,7.299802303314209,288.1221923828125,77.41047668457031,-0.41976930999075385,-4.407665906420334,87.34350408751841,-19.461887,14.741423,15.162032,60.67905,-14.359299,-1.8408507,13.141688,3.3570304,-7.094781,20.164167,-19.637201,-1.7594196,6.208972,0.98521525,14.286132,31.792128,26.511585,-23.513184,-6.4965706,17.076986,-2.2075107,14.401001,-10.756058,-18.523312,39.013584,-6.5215716,-6.6578016,1.041094,-9.403992
224,7.295657157897949,289.4903869628906,77.70782470703125,-0.10691604858280698,-3.8414086624033583,87.09988312163662,-19.505558,14.027751,16.630184,55.522324,-13.663862,-2.3635788,13.857496,2.9377978,-6.6947937,19.473001,-18.145147,-1.3664012,6.9208493,0.5638661,13.62599,32.68264,26.800072,-23.432785,-7.289869,16.782162,-2.232767,14.436234,-11.363565,-18.420586,39.716713,-7.8361115,-6.5223546,0.89323807,-9.082838
225,7.279749393463135,290.8860168457031,77.98817443847656,0.1295707404567133,-3.324779174634933,86.89672568887491,-19.335201,13.193517,17.973988,49.99816,-12.888573,-2.8039434,14.610085,2.5843394,-6.3407307,18.807695,-16.506632,-0.9033774,7.5421977,0.18092908,12.988055,33.62598,27.023273,-23.233845,-8.059408,16.790873,-2.293075,14.295623,-11.830618,-18.37963,40.314396,-9.172792,-6.245398,0.60113347,-8.320785
226,7.274934768676758,292.292724609375,78.26216125488281,0.30013952861078,-2.83069709585002,86.72413438272089,-18.96442,12.257469,19.226135,44.05297,-12.001416,-3.2130265,15.358407,2.2853687,-6.017351,18.188337,-14.711472,-0.38551277,8.091827,-0.16052073,12.34886,34.575775,27.17448,-22.957647,-8.790187,17.021774,-2.366601,14.063531,-12.181798,-18.403528,40.84527,-10.529785,-5.861981,0.20894104,-7.2534404
227,7.26326847076416,293.7065734863281,78.51583862304688,0.38060179282143186,-2.383877954778818,86.57518510164628,-18.43257,11.245894,20.266724,37.933624,-10.957889,-3.7659535,16.066916,2.0710266,-5.7133927,17.727856,-12.832907,0.1574646,8.589547,-0.40397766,11.745754,35.46583,27.255133,-22.666464,-9.457077,17.312183,-2.4191685,13.813445,-12.374417,-18.479761,41.30656,-11.86301,-5.205184,-0.2766994,-6.1033216
228,7.239221572875977,295.1470031738281,78.73770904541016,0.34453830265082974,-2.0099115356830204,86.43892781524575,-17.766605,10.204546,20.97397,31.869808,-9.701793,-4.6244926,16.707314,1.9747496,-5.417565,17.518671,-10.9324,0.6941182,9.059849,-0.49398082,11.2140255,36.23595,27.27448,-22.4205,-10.039861,17.49897,-2.4135873,13.618712,-12.373664,-18.586037,41.69538,-13.1134205,-4.111082,-0.8456712,-5.087787
229,7.219860553741455,296.5934143066406,78.92034912109375,0.11611209873656757,-1.728475132465988,86.28777982422214,-16.844942,9.174103,21.298132,25.562292,-8.061951,-6.0531106,17.344242,2.1002817,-5.1083946,17.458742,-8.925282,1.2053453,9.548648,-0.33301422,10.752119,36.87872,27.243435,-22.236954,-10.523497,17.577206,-2.3363202,13.502759,-12.134987,-18.701645,41.991817,-14.254049,-2.402988,-1.5546143,-4.1918364
230,7.204003810882568,298.0411376953125,79.06196594238281,-0.34389939569359834,-1.536774413726513,86.10387278785981,-15.597093,8.264562,21.268911,18.839308,-6.0620394,-7.850878,18.032616,2.4942186,-4.759401,17.422375,-6.7432313,1.7018374,10.060794,0.10164175,10.33328,37.447163,27.165644,-22.079975,-10.943851,17.621166,-2.2052243,13.426814,-11.705651,-18.821863,42.203606,-15.291667,-0.21207684,-2.3701422,-3.3003857
231,7.19008207321167,299.4571838378906,79.15465545654297,-1.0043769531672924,-1.4223955182249035,85.89837245363191,-14.207158,7.6380534,20.907318,12.307557,-4.0067735,-9.506912,18.706835,3.1030369,-4.363414,17.506401,-4.4905806,2.1976502,10.5503645,0.75358933,9.953716,37.96736,27.03884,-21.928574,-11.353272,17.58329,-2.02974,13.369713,-11.184766,-18.950235,42.372223,-16.228289,2.1554346,-3.1607497,-2.4893165
232,7.1627631187438965,300.87176513671875,79.20753479003906,-1.6904544187887598,-1.3474273103507235,85.73019122985689,-13.102152,7.3066096,20.27627,7.047816,-2.4143584,-10.525292,19.193487,3.7060204,-3.9805336,17.99822,-2.3811014,2.7413046,10.927324,1.4145427,9.622485,38.43171,26.856503,-21.764114,-11.7727375,17.41455,-1.8220425,13.310528,-10.672223,-19.09155,42.538334,-17.06861,4.38835,-3.8146844,-1.8536671
233,7.124274253845215,302.27386474609375,79.25424194335938,-2.1846194196823694,-1.2537258877617483,85.6691549642179,-14.016166,7.5542564,19.1548,6.7963243,-3.2231598,-10.722484,19.282686,4.039797,-3.743504,19.245604,-0.6054627,3.3998024,11.119934,1.8456845,9.342168,38.815495,26.599955,-21.574608,-12.178845,17.036686,-1.5577987,13.245921,-10.185838,-19.243757,42.710403,-17.813139,6.7244897,-4.355281,-1.4270697
234,7.0712456703186035,303.66204833984375,79.28612518310547,-2.4955578106696867,-1.1495012985110906,85.71554681332239,-14.797828,7.5043755,17.834387,6.6371284,-3.8586805,-10.365851,19.034546,4.1505766,-3.651479,21.1491,0.9036692,4.1804276,11.139231,2.073904,9.11862,39.092674,26.262098,-21.373049,-12.52987,16.499569,-1.2424667,13.18643,-9.687417,-19.398617,42.873734,-18.449558,9.2189455,-4.8432183,-1.1612831
235,7.034112453460693,305.02734375,79.30150604248047,-2.6786274155515066,-1.077050239483438,85.85907848381211,-15.37601,7.220175,16.457554,6.542521,-4.304647,-9.68417,18.595356,4.1443424,-3.6127763,23.480677,2.234082,5.061911,10.993531,2.1703703,8.979137,39.23814,25.862413,-21.179516,-12.808684,15.9447155,-0.93442124,13.13141,-9.189751,-19.54613,43.02506,-18.967342,11.281139,-5.2421017,-1.0513275
236,6.993932247161865,306.384033203125,79.27924346923828,-2.8144094706075746,-1.0853054125932893,86.08070102608333,-15.677783,6.812416,15.152644,6.4945197,-4.5593023,-8.913629,18.113535,4.144422,-3.5256076,26.018713,3.4772117,6.000572,10.7053,2.2311127,8.950357,39.241425,25.438791,-21.01125,-13.018493,15.508042,-0.6907201,13.079443,-8.697602,-19.675203,43.15402,-19.35878,12.319254,-5.5151734,-1.1023312
237,6.964946746826172,307.71832275390625,79.2171859741211,-2.9708586427293926,-1.1846240391781915,86.41006093162177,-15.66819,6.3560796,13.899197,6.4986544,-4.654519,-8.05068,17.608295,4.2379475,-3.3609788,28.770992,4.647297,6.97323,10.25301,2.312013,9.029933,39.115814,25.021008,-20.86597,-13.168383,15.189634,-0.55826396,13.046689,-8.208949,-19.776402,43.26519,-19.622137,11.923547,-5.64572,-1.449031
238,6.929037570953369,309.0609436035156,79.12294006347656,-3.094908132356853,-1.35140627724874,86.84056026186349,-15.382309,5.8141522,12.636598,6.546045,-4.5838647,-7.0044303,17.013819,4.3411922,-3.1621873,31.82756,5.7099524,7.9925513,9.648899,2.347373,9.206782,38.88119,24.617325,-20.73457,-13.282958,14.917454,-0.49403837,13.030638,-7.717687,-19.843725,43.35178,-19.75662,10.490002,-5.6487827,-2.0535107
239,6.895820140838623,310.4047546386719,78.97836303710938,-3.1054309034547303,-1.5859629565471034,87.29913870105992,-14.854513,5.152776,11.423587,6.612764,-4.281979,-5.873947,16.35632,4.329703,-2.934401,35.10495,6.664235,9.06182,8.968188,2.2648647,9.490082,38.541855,24.234894,-20.622593,-13.389858,14.719952,-0.42034364,13.000871,-7.225462,-19.875187,43.38473,-19.7612,8.638835,-5.5379114,-2.6603255
240,6.914304256439209,311.7230224609375,78.77822875976562,-2.9167037389560426,-1.8926029846950279,87.71039231203024,-14.116761,4.308841,10.331673,6.6846023,-3.67092,-4.7637143,15.670156,4.0825915,-2.6795676,38.50023,7.521761,10.19231,8.289771,1.9885706,9.888287,38.102196,23.88086,-20.537254,-13.517788,14.625968,-0.25919327,12.927557,-6.7305574,-19.872435,43.333538,-19.634384,6.9897223,-5.3518867,-3.013959
