unveil-humanoid-operators/unveil-humanoid-operators.github.io/feature-analysis-animation/data/feature_matrix_instances/gender_ankle_rom_jumping_A409.csv
Frame,root_translateX,root_translateY,root_translateZ,root_rotateX,root_rotateY,root_rotateZ,left_hip_pitch_joint_dof,left_hip_roll_joint_dof,left_hip_yaw_joint_dof,left_knee_joint_dof,left_ankle_pitch_joint_dof,left_ankle_roll_joint_dof,right_hip_pitch_joint_dof,right_hip_roll_joint_dof,right_hip_yaw_joint_dof,right_knee_joint_dof,right_ankle_pitch_joint_dof,right_ankle_roll_joint_dof,waist_yaw_joint_dof,waist_roll_joint_dof,waist_pitch_joint_dof,left_shoulder_pitch_joint_dof,left_shoulder_roll_joint_dof,left_shoulder_yaw_joint_dof,left_elbow_joint_dof,left_wrist_roll_joint_dof,left_wrist_pitch_joint_dof,left_wrist_yaw_joint_dof,right_shoulder_pitch_joint_dof,right_shoulder_roll_joint_dof,right_shoulder_yaw_joint_dof,right_elbow_joint_dof,right_wrist_roll_joint_dof,right_wrist_pitch_joint_dof,right_wrist_yaw_joint_dof
0,-0.331002414226532,-2.4083728790283203,78.23391723632812,-0.3476482716831055,-3.2328410921911024,81.91929117996875,8.036835,3.9989085,14.416099,7.243881,-12.152672,-3.9149046,5.297943,-4.734388,-11.20707,8.386855,-10.513206,4.1549864,-2.7697492,-0.76737076,8.742824,5.3222694,16.439539,-30.73464,55.499397,11.970309,1.4647437,11.952232,-5.595244,-14.285382,45.244133,58.43219,-1.0986025,3.6456964,-4.762044
1,-0.33101487159729004,-2.408092737197876,78.2340316772461,-0.3477999365154039,-3.2301550663532708,81.91855229156945,8.033096,3.9989927,14.419551,7.246003,-12.152239,-3.9096615,5.293595,-4.7352395,-11.20704,8.388447,-10.512784,4.154413,-2.7684784,-0.7698437,8.74062,5.3315735,16.445244,-30.733706,55.49241,11.998836,1.4722474,11.961955,-5.587847,-14.286054,45.242558,58.423946,-1.0392398,3.630892,-4.790889
2,-0.3328031003475189,-2.4082274436950684,78.23340606689453,-0.3477243971516319,-3.2270332747898496,81.9177767554295,8.028233,3.9992886,14.423277,7.2500386,-12.152951,-3.904246,5.2880116,-4.736376,-11.207065,8.391412,-10.512804,4.1537557,-2.766811,-0.7730655,8.737545,5.3451185,16.452623,-30.732302,55.48027,12.031973,1.4810829,11.972191,-5.57793,-14.286906,45.240456,58.413105,-0.97509587,3.6141343,-4.8230834
3,-0.33454060554504395,-2.4083728790283203,78.23335266113281,-0.34820996644753943,-3.224318949418514,81.91694873473146,8.023816,3.999306,14.426497,7.2530236,-12.152832,-3.8991709,5.2819257,-4.7377043,-11.206635,8.396471,-10.514163,4.1533475,-2.7654054,-0.7770544,8.735449,5.35992,16.462801,-30.730463,55.465733,12.057363,1.4883633,11.980318,-5.568041,-14.288046,45.238384,58.4017,-0.9211736,3.601216,-4.8492365
4,-0.33580833673477173,-2.409529447555542,78.2343978881836,-0.3489927439478719,-3.222483327161116,81.91615032441479,8.020766,3.998619,14.428668,7.2546687,-12.152185,-3.894896,5.280145,-4.738487,-11.205512,8.393453,-10.510939,4.1534443,-2.7646782,-0.7817333,8.736019,5.3789573,16.476677,-30.727715,55.443325,12.065135,1.493772,11.984537,-5.5572996,-14.289496,45.236748,58.38903,-0.892969,3.5983706,-4.8621674
5,-0.33723184466362,-2.4093716144561768,78.23373413085938,-0.3477287428705118,-3.221881648565083,81.9152375330668,8.018806,3.9970706,14.428778,7.2564926,-12.151647,-3.8917758,5.276671,-4.740221,-11.20263,8.396789,-10.510725,4.1544456,-2.763419,-0.7834751,8.737875,5.385373,16.479296,-30.726664,55.438923,12.048763,1.4946198,11.98607,-5.550335,-14.289668,45.236694,58.386215,-0.89734435,3.6078508,-4.855016
6,-0.33867672085762024,-2.4102320671081543,78.23357391357422,-0.3470059023126632,-3.2213001359846447,81.91416584711969,8.016846,3.9945078,14.427936,7.257034,-12.150104,-3.8894424,5.274545,-4.742144,-11.198461,8.396041,-10.507754,4.156009,-2.7655013,-0.78709656,8.73736,5.4039707,16.486715,-30.722832,55.422836,12.0125065,1.4947387,11.984441,-5.53648,-14.290143,45.238354,58.37608,-0.93048364,3.6311522,-4.8316817
7,-0.33940157294273376,-2.411623001098633,78.23339080810547,-0.3458990940170974,-3.2213137058231904,81.91291926059196,8.016483,3.9916224,14.427107,7.256211,-12.148458,-3.8873174,5.27303,-4.7441497,-11.194175,8.395745,-10.505781,4.157863,-2.7669594,-0.79024816,8.739324,5.420214,16.49298,-30.718662,55.406734,11.972983,1.4931457,11.98063,-5.5267205,-14.290438,45.240845,58.371113,-0.9722159,3.6561663,-4.8065667
8,-0.34275028109550476,-2.41267466545105,78.23310852050781,-0.34469796433696775,-3.221131614681437,81.91121434854146,8.015183,3.9889588,14.4277,7.2571764,-12.148826,-3.8847365,5.271371,-4.7465453,-11.190349,8.395416,-10.505138,4.1597486,-2.7644486,-0.7934724,8.741164,5.4283233,16.495111,-30.716837,55.398434,11.943388,1.4894695,11.975356,-5.518599,-14.290375,45.241615,58.36977,-1.0076766,3.6761115,-4.791452
9,-0.34373024106025696,-2.4135124683380127,78.23375701904297,-0.34327084785626416,-3.219830347878479,81.90922604165443,8.014291,3.985161,14.430016,7.255427,-12.149342,-3.881087,5.2686734,-4.750415,-11.187371,8.395816,-10.50793,4.1620774,-2.7617786,-0.7983919,8.739316,5.4421725,16.497421,-30.713657,55.382828,11.926164,1.4850149,11.967717,-5.508152,-14.290188,45.240433,58.367527,-1.0453839,3.6953177,-4.789623
10,-0.3466596007347107,-2.414361000061035,78.23297119140625,-0.340630293487288,-3.218028586242108,81.90694193416093,8.013058,3.9808266,14.433275,7.2537017,-12.150851,-3.8768268,5.2670546,-4.754742,-11.184839,8.393316,-10.511137,4.1648045,-2.7562962,-0.8041,8.737584,5.4532304,16.498781,-30.71123,55.36729,11.915749,1.478845,11.95758,-5.4993954,-14.289973,45.238243,58.369057,-1.0841779,3.7126002,-4.795605
11,-0.3485613167285919,-2.4158685207366943,78.23248291015625,-0.33876071414754955,-3.216567653388909,81.90391430116706,8.0120735,3.9773202,14.437833,7.252472,-12.152917,-3.8730228,5.2614236,-4.7594295,-11.181906,8.399608,-10.518211,4.167065,-2.7499614,-0.80981714,8.735868,5.4666023,16.501781,-30.70772,55.349197,11.9098015,1.4728196,11.94702,-5.48952,-14.289241,45.232704,58.369408,-1.1234795,3.7279093,-4.803028
12,-0.35123294591903687,-2.4154489040374756,78.23248291015625,-0.3380816339296346,-3.216611754305475,81.89992355635391,8.0127735,3.9761183,14.443592,7.251475,-12.154424,-3.8706458,5.259276,-4.761035,-11.178942,8.4007845,-10.519492,4.1678076,-2.743719,-0.81362313,8.737523,5.474963,16.504059,-30.707064,55.336044,11.902368,1.4685199,11.939235,-5.4840193,-14.28847,45.229347,58.36998,-1.1516497,3.7389657,-4.8071504
13,-0.353878378868103,-2.4171688556671143,78.23246765136719,-0.3406696830975347,-3.2187469518273293,81.8943354336604,8.013896,3.9791644,14.451656,7.2537622,-12.156421,-3.870124,5.260171,-4.7582917,-11.175754,8.397721,-10.513551,4.1662307,-2.7388072,-0.8137547,8.742214,5.4808455,16.505615,-30.708662,55.325855,11.892416,1.4672531,11.934524,-5.481601,-14.287818,45.22815,58.370274,-1.1707262,3.7463014,-4.8066177
14,-0.35328593850135803,-2.418360948562622,78.2342529296875,-0.34480545758516423,-3.222443710157284,81.88753365867058,8.017871,3.9845555,14.462014,7.2544355,-12.157392,-3.87084,5.2598815,-4.7532988,-11.172076,8.399427,-10.506807,4.163049,-2.734163,-0.81110126,8.748988,5.4872456,16.507322,-30.713392,55.314335,11.88026,1.468801,11.932301,-5.4831367,-14.287134,45.228157,58.373425,-1.1839451,3.750846,-4.8045564
15,-0.35362082719802856,-2.419790029525757,78.23556518554688,-0.349885244332603,-3.2264981815803577,81.88061180731488,8.0203905,3.9907868,14.471892,7.258656,-12.159853,-3.8724096,5.25892,-4.7480335,-11.168263,8.403337,-10.500767,4.159552,-2.7295837,-0.8085489,8.755801,5.490648,16.509216,-30.719263,55.308502,11.871099,1.4703014,11.932465,-5.4848638,-14.286315,45.229393,58.37411,-1.1873391,3.7514474,-4.801831
16,-0.355488657951355,-2.4218568801879883,78.23545837402344,-0.35276287178147875,-3.2298029089109495,81.87426890990876,8.02453,3.9940503,14.479404,7.2574573,-12.159337,-3.8743207,5.2578206,-4.7448654,-11.164513,8.406221,-10.495635,4.157116,-2.7253568,-0.80799294,8.760286,5.493456,16.510294,-30.723701,55.307602,11.868537,1.4715548,11.935794,-5.4863706,-14.285819,45.230743,58.3736,-1.1805089,3.7473493,-4.799778
17,-0.35637524724006653,-2.425490379333496,78.23445892333984,-0.35371960002596126,-3.2321577929669445,81.86831584009434,8.02671,3.9945612,14.48382,7.2574973,-12.158992,-3.8775349,5.2561736,-4.7441435,-11.160253,8.408319,-10.491986,4.156064,-2.7204592,-0.8095396,8.762044,5.4966693,16.511822,-30.730774,55.31188,11.876153,1.4726791,11.947477,-5.489187,-14.285169,45.23409,58.372837,-1.1515594,3.733485,-4.7972894
18,-0.35836032032966614,-2.426321506500244,78.23432922363281,-0.3523330304755263,-3.2336919027876143,81.86266898562928,8.030736,3.9923556,14.48614,7.251601,-12.155347,-3.8817444,5.25223,-4.745484,-11.155824,8.41481,-10.491582,4.155718,-2.7164774,-0.81311303,8.761911,5.4986053,16.513142,-30.737106,55.322666,11.89258,1.4732921,11.964134,-5.49111,-14.284614,45.238293,58.368526,-1.1076454,3.7127655,-4.7938366
19,-0.3580883741378784,-2.4274065494537354,78.23392486572266,-0.3521863043159768,-3.2355914976800526,81.85788680950337,8.032421,3.9906604,14.487124,7.250581,-12.15405,-3.8854604,5.251603,-4.746412,-11.151994,8.414735,-10.488713,4.155683,-2.7139504,-0.8158245,8.761654,5.5008597,16.51386,-30.739853,55.332867,11.908923,1.4746885,11.977516,-5.4926796,-14.284317,45.240555,58.36229,-1.0701189,3.6948247,-4.792401
20,-0.36015334725379944,-2.428959608078003,78.23384857177734,-0.3521512317408985,-3.2385399994815365,81.85370792342759,8.036619,3.989454,14.48857,7.2483826,-12.153024,-3.8869383,5.250522,-4.7475033,-11.147819,8.41961,-10.490417,4.1556683,-2.708555,-0.81952906,8.760659,5.5033264,16.51443,-30.741003,55.34226,11.917612,1.4763669,11.984869,-5.4931903,-14.284057,45.242847,58.35905,-1.0444841,3.6829944,-4.797092
21,-0.35953184962272644,-2.4296841621398926,78.2335433959961,-0.35193204102586345,-3.2427867474395486,81.8507123401973,8.0407915,3.989328,14.490076,7.25156,-12.155858,-3.8845298,5.2524157,-4.7482643,-11.143623,8.422925,-10.494223,4.1558075,-2.703124,-0.82188964,8.759455,5.5075727,16.515057,-30.736088,55.34507,11.911464,1.4809233,11.97626,-5.491534,-14.283602,45.242264,58.355843,-1.0524011,3.687645,-4.8116436
22,-0.3609257936477661,-2.4297361373901367,78.23383331298828,-0.35089762807177993,-3.2473057122095685,81.84893510159776,8.045253,3.9894416,14.490949,7.255912,-12.159644,-3.879525,5.2577176,-4.748685,-11.139876,8.421761,-10.49832,4.1561737,-2.6958241,-0.824004,8.757558,5.5111117,16.515148,-30.730972,55.346436,11.89671,1.486726,11.9604645,-5.490345,-14.283443,45.240135,58.35503,-1.0756794,3.7000256,-4.8310885
23,-0.36194998025894165,-2.4305155277252197,78.2312240600586,-0.3519599933999667,-3.253174402645915,81.84727067520443,8.050987,3.9904041,14.492236,7.260191,-12.16361,-3.8746743,5.263599,-4.7485285,-11.136277,8.422071,-10.503058,4.1563683,-2.6904113,-0.82525444,8.756789,5.5169873,16.515202,-30.717388,55.344337,11.882609,1.4922004,11.94004,-5.4866085,-14.283031,45.23377,58.35184,-1.1101371,3.7159288,-4.8529425
24,-0.362693190574646,-2.42984676361084,78.23255157470703,-0.351693220029761,-3.2577214064521507,81.84589770272207,8.055663,3.9916105,14.4934435,7.2631316,-12.166215,-3.872361,5.268384,-4.7480745,-11.13441,8.421726,-10.505114,4.156094,-2.6919434,-0.8277376,8.760812,5.528502,16.515461,-30.688608,55.3346,11.887265,1.4934101,11.925964,-5.485803,-14.281893,45.222343,58.34456,-1.1421821,3.7250888,-4.8643036
25,-0.3626635670661926,-2.4291205406188965,78.23324584960938,-0.35346744220860227,-3.260567001083199,81.84463299574246,8.058574,3.9939055,14.495692,7.2647295,-12.166909,-3.873989,5.2701387,-4.7465944,-11.134669,8.423246,-10.50437,4.1548476,-2.6934319,-0.83012176,8.760756,5.534954,16.515574,-30.675901,55.33525,11.889106,1.4877259,11.93056,-5.486955,-14.28098,45.216976,58.34334,-1.1484007,3.7215352,-4.868022
26,-0.36406078934669495,-2.4291677474975586,78.2332534790039,-0.35529608690810655,-3.2626235413097238,81.84374682960352,8.060442,3.996831,14.498297,7.2660394,-12.1667795,-3.8779151,5.269575,-4.7449865,-11.136494,8.428039,-10.502963,4.1529865,-2.695341,-0.8318022,8.75984,5.5425115,16.515596,-30.668531,55.335857,11.89342,1.478368,11.945449,-5.4879766,-14.280316,45.21216,58.34271,-1.1452363,3.7119644,-4.8668084
27,-0.366056889295578,-2.430222272872925,78.23286437988281,-0.35697806828362766,-3.264096505826741,81.84296798351392,8.0633545,3.9988787,14.500771,7.263442,-12.164882,-3.8823366,5.2693863,-4.743349,-11.138609,8.430971,-10.500663,4.151296,-2.6985726,-0.83385503,8.759251,5.551617,16.515633,-30.65764,55.33388,11.902491,1.468274,11.960309,-5.489257,-14.278945,45.20334,58.341896,-1.1419247,3.7006702,-4.861657
28,-0.3645150661468506,-2.4307918548583984,78.23212432861328,-0.3572273327138229,-3.265306289961554,81.84250174283319,8.065327,3.9993145,14.501695,7.261787,-12.16455,-3.8855553,5.272369,-4.7423725,-11.140008,8.426714,-10.496804,4.150616,-2.7000535,-0.83628595,8.756633,5.5582175,16.515556,-30.651606,55.33242,11.907101,1.4618156,11.96827,-5.4888325,-14.278,45.19755,58.340534,-1.1346983,3.69257,-4.8582063
29,-0.3644925653934479,-2.4303958415985107,78.23269653320312,-0.3564614563942708,-3.266346339875592,81.84210242106317,8.066981,3.9967444,14.500995,7.2597327,-12.16611,-3.8878093,5.273645,-4.743778,-11.139059,8.42648,-10.498598,4.15105,-2.7010252,-0.83879876,8.75235,5.562781,16.515432,-30.649027,55.329433,11.907306,1.4597051,11.965621,-5.4874954,-14.277608,45.19486,58.337437,-1.122585,3.688374,-4.8563976
30,-0.3652009665966034,-2.4310295581817627,78.23231506347656,-0.35459135335172015,-3.267200255596076,81.84177463070588,8.070873,3.991083,14.499246,7.252339,-12.166452,-3.8897212,5.2749834,-4.7469807,-11.1369295,8.425544,-10.501735,4.1523232,-2.7020183,-0.8423325,8.745558,5.571313,16.515022,-30.643518,55.322636,11.910794,1.4593465,11.95595,-5.4836454,-14.2767,45.189648,58.33336,-1.1073012,3.6848497,-4.8526387
31,-0.3653668463230133,-2.4322659969329834,78.23039245605469,-0.35169312028827227,-3.267474285983848,81.8419936825545,8.07314,3.9851463,14.496724,7.2471514,-12.167792,-3.890119,5.274815,-4.7509727,-11.135066,8.426977,-10.5068445,4.1544333,-2.7031896,-0.8461299,8.738803,5.5822296,16.514511,-30.636423,55.310818,11.916693,1.4623215,11.944302,-5.479622,-14.275722,45.18415,58.32945,-1.0975654,3.6838913,-4.8485246
32,-0.3659239709377289,-2.4324634075164795,78.2302474975586,-0.3501441091200099,-3.2675302288373516,81.84316071413609,8.073536,3.9811387,14.493914,7.2453065,-12.169585,-3.8878565,5.2759914,-4.7536755,-11.13547,8.425219,-10.509791,4.1573997,-2.7031872,-0.85071075,8.734391,5.5872455,16.5141,-30.632345,55.303257,11.9161625,1.4662205,11.937514,-5.476556,-14.275052,45.18122,58.325706,-1.093258,3.685758,-4.846442
33,-0.36499106884002686,-2.433654546737671,78.23021697998047,-0.3480589340523759,-3.2658714370724953,81.84582189821734,8.069962,3.9789016,14.490319,7.247643,-12.17149,-3.8805628,5.2753315,-4.7561994,-11.139109,8.422793,-10.511414,4.162434,-2.702003,-0.8568145,8.730891,5.5926895,16.513515,-30.627577,55.29138,11.9143715,1.47726,11.935446,-5.4729524,-14.274044,45.177876,58.321392,-1.1031731,3.6934633,-4.845566
34,-0.3631504774093628,-2.4324264526367188,78.23088836669922,-0.346942980316052,-3.2632133285974376,81.8495814130866,8.063247,3.9777637,14.486081,7.2542095,-12.174422,-3.8695905,5.2749085,-4.7584515,-11.144976,8.417433,-10.511618,4.1690693,-2.7001686,-0.86455923,8.728293,5.596943,16.512884,-30.622007,55.278122,11.911331,1.4926305,11.935622,-5.470471,-14.272874,45.17393,58.318836,-1.1238974,3.7051444,-4.8451557
35,-0.36494648456573486,-2.4319019317626953,78.22986602783203,-0.34575366509142974,-3.261567585855514,81.85374987512422,8.057541,3.977512,14.481774,7.2610354,-12.176936,-3.85912,5.274939,-4.7601457,-11.15124,8.413719,-10.511878,4.1751275,-2.6978931,-0.8721757,8.727473,5.599516,16.512114,-30.616867,55.267284,11.907418,1.5052482,11.937691,-5.4680057,-14.271147,45.170418,58.31717,-1.145936,3.7168863,-4.8456035
36,-0.367092102766037,-2.4336140155792236,78.2256088256836,-0.3462478724893897,-3.263357786562895,81.85751539645969,8.056604,3.978389,14.478405,7.2666636,-12.179319,-3.8533795,5.276505,-4.7609873,-11.156122,8.416016,-10.51434,4.1784196,-2.6947856,-0.8774984,8.728655,5.600434,16.51148,-30.615414,55.262363,11.902464,1.5073626,11.941151,-5.4649787,-14.269627,45.16992,58.31652,-1.1583658,3.7239008,-4.846829
37,-0.364585280418396,-2.4315359592437744,78.22834777832031,-0.3472888520678564,-3.270147126347022,81.86109690780809,8.062271,3.9808078,14.47578,7.2703834,-12.18051,-3.8540897,5.2863703,-4.759593,-11.159828,8.415602,-10.514232,4.1774383,-2.693224,-0.8806725,8.732661,5.6022654,16.511007,-30.615618,55.26358,11.898451,1.4957422,11.948861,-5.4602213,-14.268449,45.171337,58.3167,-1.1641563,3.7263913,-4.849921
38,-0.36276495456695557,-2.430474042892456,78.23028564453125,-0.3496962814725222,-3.28141603866678,81.8646594053041,8.072824,3.984919,14.473689,7.275058,-12.182418,-3.858904,5.2980723,-4.757198,-11.162747,8.423069,-10.517167,4.1736665,-2.6919973,-0.8823057,8.739298,5.603064,16.510328,-30.618486,55.272434,11.893274,1.4719466,11.960501,-5.452639,-14.266787,45.176117,58.31613,-1.1632154,3.725267,-4.8550754
39,-0.3636454939842224,-2.430291175842285,78.2301254272461,-0.35175943966835255,-3.2921054856348886,81.86810021588182,8.083897,3.989095,14.471901,7.2773056,-12.183041,-3.8655307,5.3106847,-4.7541566,-11.1653595,8.427837,-10.518283,4.169301,-2.690063,-0.8830109,8.745928,5.6033382,16.509842,-30.621376,55.28105,11.888625,1.4473026,11.970082,-5.446275,-14.265657,45.180614,58.317253,-1.1603105,3.7228904,-4.8595204
40,-0.3627433776855469,-2.429328441619873,78.23005676269531,-0.35408863861360435,-3.2982784319106324,81.87113267427799,8.089884,3.9920619,14.46992,7.2782073,-12.182864,-3.8717453,5.319191,-4.751835,-11.16813,8.42839,-10.51737,4.166714,-2.687472,-0.8843141,8.747795,5.605147,16.508959,-30.623627,55.283195,11.884811,1.433517,11.972822,-5.4405956,-14.263654,45.185204,58.31933,-1.1586337,3.7221975,-4.861623
41,-0.36238062381744385,-2.4299941062927246,78.22978973388672,-0.35585792283795503,-3.3000419563123704,81.87401397999221,8.092734,3.993946,14.4673815,7.274713,-12.180828,-3.878494,5.321766,-4.749932,-11.171388,8.429692,-10.517487,4.1664615,-2.6843367,-0.8867906,8.747892,5.606259,16.50791,-30.623234,55.283276,11.881827,1.4273108,11.969714,-5.4363832,-14.261893,45.187263,58.32159,-1.1591089,3.7228858,-4.8621817
42,-0.36330297589302063,-2.4294371604919434,78.22987365722656,-0.3572911184781783,-3.2997978143779827,81.87700949624731,8.093451,3.99522,14.464068,7.2699575,-12.178253,-3.8863962,5.3266387,-4.747432,-11.175779,8.420014,-10.511919,4.167424,-2.6793728,-0.88865113,8.741764,5.6049986,16.506958,-30.621185,55.291565,11.879698,1.4164764,11.95347,-5.4253516,-14.260164,45.187405,58.323536,-1.1621159,3.7234871,-4.8625903
43,-0.36318880319595337,-2.429471015930176,78.22986602783203,-0.35901467260143755,-3.297244919612417,81.87978785626312,8.090966,3.9959896,14.461106,7.2659044,-12.17611,-3.8931324,5.323849,-4.7464175,-11.179039,8.421061,-10.512262,4.1689706,-2.674528,-0.89102435,8.737076,5.6052804,16.5059,-30.617865,55.290474,11.879059,1.414701,11.938723,-5.4181824,-14.258399,45.18564,58.324074,-1.1657541,3.7248302,-4.86004
44,-0.3615569770336151,-2.430785655975342,78.22986602783203,-0.3592394532411056,-3.2951740951831874,81.8826209352105,8.088751,3.9958782,14.458859,7.2627935,-12.174538,-3.8964417,5.3230524,-4.746121,-11.1814165,8.4188595,-10.510945,4.1704993,-2.6701188,-0.8941778,8.732861,5.6058083,16.504927,-30.614323,55.289318,11.878917,1.4123046,11.927731,-5.411335,-14.256901,45.1839,58.32339,-1.1695936,3.725643,-4.8560324
45,-0.3629027009010315,-2.43121600151062,78.22904968261719,-0.3582654842380446,-3.294006571100385,81.88601172495113,8.086156,3.9950974,14.457304,7.2629104,-12.175208,-3.8948793,5.324881,-4.746731,-11.182274,8.413776,-10.508294,4.1726575,-2.6681857,-0.8985155,8.729125,5.6068783,16.503157,-30.60903,55.28886,11.880666,1.4087008,11.923173,-5.40559,-14.254385,45.18286,58.321754,-1.1742002,3.7271678,-4.849101
46,-0.3628136217594147,-2.4308087825775146,78.22876739501953,-0.35726637699975333,-3.2929879920845098,81.88955270731681,8.082769,3.993397,14.456363,7.263706,-12.176225,-3.8898573,5.324677,-4.7487645,-11.181757,8.412409,-10.507574,4.175549,-2.6678772,-0.90311927,8.725227,5.6086764,16.500776,-30.604134,55.287636,11.881919,1.4054887,11.922691,-5.4016533,-14.251278,45.184544,58.32009,-1.1766286,3.7290232,-4.840158
47,-0.3628014028072357,-2.4306018352508545,78.22917175292969,-0.35607345712573363,-3.29259315336651,81.89252553314257,8.079756,3.9919038,14.455842,7.266424,-12.178509,-3.883886,5.324641,-4.7508254,-11.180853,8.412652,-10.508356,4.17752,-2.6649349,-0.9059639,8.724324,5.608969,16.500164,-30.602955,55.284042,11.879264,1.4030752,11.922578,-5.398772,-14.250555,45.18542,58.317436,-1.1766338,3.7284245,-4.8340154
48,-0.36250412464141846,-2.4310736656188965,78.2288589477539,-0.35446480744514197,-3.291567383207247,81.89540940435663,8.077021,3.9897976,14.454052,7.268273,-12.179565,-3.878874,5.32061,-4.7539115,-11.181581,8.420484,-10.513427,4.177225,-2.6636832,-0.9117998,8.719666,5.612472,16.497263,-30.598501,55.2816,11.873561,1.4016901,11.921505,-5.3919992,-14.24743,45.18911,58.31239,-1.1772244,3.7256753,-4.828819
49,-0.3623557686805725,-2.430621385574341,78.22891235351562,-0.35429946775974835,-3.291919102350165,81.89701784144351,8.076294,3.9890368,14.450987,7.2713814,-12.180407,-3.8749108,5.3198624,-4.7554364,-11.184684,8.424129,-10.516995,4.172404,-2.659576,-0.9149167,8.718128,5.6144094,16.494907,-30.594496,55.27903,11.858617,1.4007874,11.916395,-5.3886533,-14.245217,45.19259,58.313114,-1.175188,3.7147942,-4.831147
50,-0.3625785708427429,-2.4298059940338135,78.22895812988281,-0.35390145789413596,-3.29255431396765,81.89809205655303,8.076265,3.988473,14.447145,7.276354,-12.181993,-3.870913,5.3188887,-4.7567735,-11.189276,8.430001,-10.522524,4.1645126,-2.654979,-0.9176561,8.716868,5.6164145,16.49138,-30.58955,55.27632,11.836685,1.4007171,11.909361,-5.3857245,-14.242366,45.198017,58.31665,-1.1714679,3.6977878,-4.8379993
51,-0.3633391857147217,-2.4287047386169434,78.22921752929688,-0.35306008064607863,-3.293197155385433,81.89871773218512,8.076516,3.9880457,14.443759,7.280603,-12.18316,-3.8683205,5.3179336,-4.757836,-11.193673,8.435751,-10.528067,4.156961,-2.6524413,-0.9197908,8.715679,5.6193333,16.487694,-30.58316,55.27405,11.818798,1.401717,11.90283,-5.3843637,-14.239625,45.205395,58.320374,-1.1678424,3.681878,-4.846451
52,-0.3633222281932831,-2.42866587638855,78.2292251586914,-0.3535797584134813,-3.2936821046930875,81.89940648419643,8.077081,3.9876554,14.44233,7.281514,-12.182969,-3.868584,5.31759,-4.7584844,-11.196046,8.438428,-10.531414,4.153117,-2.648363,-0.9224672,8.715915,5.6209645,16.486826,-30.58151,55.27109,11.813369,1.4036993,11.899283,-5.3836412,-14.239032,45.20704,58.318947,-1.1681907,3.6751313,-4.851695
53,-0.3641844391822815,-2.428889751434326,78.22904968261719,-0.3531396817410614,-3.2940534008353906,81.89931201853464,8.079685,3.986868,14.44532,7.2754436,-12.180522,-3.8740916,5.3205357,-4.758182,-11.19513,8.432048,-10.5295,4.154888,-2.648584,-0.92522186,8.71615,5.626097,16.483866,-30.577188,55.264526,11.827344,1.4117786,11.900424,-5.3829103,-14.236961,45.211487,58.3164,-1.1745826,3.6759133,-4.861676
54,-0.3641243278980255,-2.430260181427002,78.23036193847656,-0.3527354023522509,-3.293982265097636,81.89912598585042,8.081733,3.9863155,14.450596,7.2682686,-12.178237,-3.8833866,5.3223205,-4.7579775,-11.192248,8.426815,-10.528367,4.160262,-2.648866,-0.9285352,8.71658,5.628145,16.482616,-30.576248,55.26151,11.850931,1.4195813,11.904674,-5.384414,-14.236061,45.21268,58.312366,-1.1842033,3.6836894,-4.86971
55,-0.3616681694984436,-2.430042266845703,78.23087310791016,-0.3521599889055205,-3.294066915737882,81.89831070928578,8.084834,3.9852803,14.456147,7.258639,-12.174319,-3.8922052,5.322013,-4.758112,-11.188251,8.42564,-10.528488,4.166329,-2.6501298,-0.9317847,8.717885,5.633756,16.479588,-30.57351,55.25467,11.885546,1.4314971,11.910002,-5.3862686,-14.233816,45.21399,58.30597,-1.1958394,3.6966596,-4.8781323
56,-0.3627723455429077,-2.4318413734436035,78.22836303710938,-0.351330603906817,-3.294244150388825,81.89749805221301,8.086776,3.9839838,14.458372,7.2528715,-12.171329,-3.8963046,5.325122,-4.757814,-11.185682,8.417458,-10.52369,4.170329,-2.653927,-0.93362397,8.717533,5.6386623,16.473307,-30.569145,55.252155,11.91762,1.4420646,11.909834,-5.3909445,-14.229102,45.21479,58.30623,-1.2057953,3.706143,-4.8798585
57,-0.36113229393959045,-2.433387517929077,78.22930908203125,-0.35045486592139813,-3.294273330951319,81.89658653110456,8.086357,3.981621,14.4553175,7.2536774,-12.169766,-3.8928668,5.323697,-4.7592154,-11.184375,8.418927,-10.522268,4.171501,-2.6566768,-0.93586755,8.71702,5.641798,16.471344,-30.568838,55.250145,11.944274,1.4524144,11.900986,-5.3943586,-14.227754,45.21438,58.30377,-1.2093688,3.7124143,-4.872778
58,-0.3612862229347229,-2.4343791007995605,78.22931671142578,-0.34933583248114447,-3.294078621751054,81.89554133727856,8.083281,3.9790504,14.448971,7.2608433,-12.170216,-3.8848014,5.319476,-4.7615895,-11.183559,8.425428,-10.521736,4.1713157,-2.6603997,-0.9374841,8.716068,5.646737,16.468248,-30.568804,55.246906,11.972561,1.4643039,11.887315,-5.398276,-14.225912,45.212574,58.301167,-1.2108552,3.718608,-4.859629
59,-0.36335745453834534,-2.4347097873687744,78.22871398925781,-0.3481556069840001,-3.2941758648703785,81.8941758157004,8.08141,3.9765868,14.442803,7.266187,-12.1697645,-3.8760574,5.3153906,-4.7637215,-11.182607,8.432514,-10.521397,4.1705084,-2.66381,-0.9387596,8.715361,5.6510105,16.465357,-30.569267,55.244328,11.99864,1.4749044,11.872648,-5.401991,-14.224376,45.210514,58.298668,-1.2121539,3.7236004,-4.845631
60,-0.3650768995285034,-2.4352619647979736,78.22853088378906,-0.34744847178774585,-3.2950653127577594,81.89236915667752,8.080732,3.9757586,14.440164,7.270608,-12.170229,-3.870594,5.3152027,-4.7640557,-11.180866,8.43244,-10.518084,4.169808,-2.6659229,-0.94071656,8.716159,5.653588,16.464184,-30.569965,55.243492,12.017445,1.4815494,11.86226,-5.405162,-14.223808,45.20961,58.29625,-1.2147315,3.726767,-4.8376904
61,-0.36413562297821045,-2.43705677986145,78.22859954833984,-0.34757794777169865,-3.297505972982584,81.89014239132504,8.081918,3.9774008,14.441937,7.273306,-12.171783,-3.8697233,5.3159604,-4.7624793,-11.17785,8.432974,-10.516356,4.169045,-2.665685,-0.94219905,8.718934,5.6561522,16.462364,-30.570852,55.241325,12.032296,1.4848218,11.854461,-5.4084597,-14.222893,45.209038,58.2934,-1.2181143,3.7286649,-4.8345633
62,-0.363053560256958,-2.437655448913574,78.22898864746094,-0.34845758055454945,-3.301598522451506,81.88697461628279,8.085707,3.9807527,14.4474325,7.27421,-12.173606,-3.8713186,5.318107,-4.7597194,-11.173183,8.433582,-10.515473,4.167965,-2.6634688,-0.9419904,8.723104,5.657509,16.45771,-30.572868,55.241776,12.043588,1.4851413,11.849597,-5.415068,-14.220276,45.20912,58.29707,-1.2224643,3.729009,-4.8355722
63,-0.3642844259738922,-2.4375131130218506,78.22870635986328,-0.34980605609285387,-3.305389601516154,81.88398473969046,8.089278,3.9843774,14.453587,7.2745633,-12.175533,-3.8740025,5.320346,-4.7565646,-11.169,8.433124,-10.513952,4.167153,-2.6621592,-0.9425192,8.726532,5.656784,16.452501,-30.57474,55.245113,12.049815,1.4848032,11.84795,-5.420367,-14.217018,45.21087,58.299984,-1.2277087,3.7289941,-4.839642
64,-0.36280250549316406,-2.439349412918091,78.2286605834961,-0.3510178401772504,-3.307768025083917,81.88164829114226,8.091441,3.987092,14.458428,7.2743545,-12.175873,-3.876565,5.3215566,-4.7540956,-11.166472,8.432536,-10.5123005,4.167164,-2.6615317,-0.94385684,8.72892,5.657005,16.449911,-30.57592,55.245304,12.0541115,1.4877254,11.849195,-5.424132,-14.215322,45.21193,58.299458,-1.2345259,3.730179,-4.8436923
65,-0.3618098795413971,-2.4394960403442383,78.22966766357422,-0.3516554505830325,-3.308261577372406,81.87992806492042,8.092609,3.988803,14.461653,7.271665,-12.173216,-3.8800232,5.3217306,-4.752376,-11.166401,8.431009,-10.509515,4.168999,-2.6619291,-0.94436,8.729302,5.65763,16.445518,-30.578062,55.24307,12.057217,1.4986259,11.856535,-5.4282994,-14.212462,45.21262,58.299835,-1.2512058,3.735853,-4.847207
66,-0.3634226620197296,-2.439415454864502,78.22950744628906,-0.35240470886660097,-3.30751959566172,81.87869470173247,8.092318,3.9902425,14.464275,7.2694016,-12.170095,-3.8845692,5.3219924,-4.750724,-11.168093,8.427479,-10.505455,4.172013,-2.6620545,-0.9453269,8.72819,5.657396,16.443409,-30.579735,55.24053,12.058997,1.5124995,11.866587,-5.431697,-14.211171,45.212765,58.299747,-1.27319,3.7432287,-4.850357
67,-0.36343804001808167,-2.441307306289673,78.22901916503906,-0.35320894237772077,-3.306672056419179,81.87780580615113,8.092014,3.9910958,14.466128,7.266708,-12.1664295,-3.8878527,5.3202934,-4.749915,-11.169852,8.428172,-10.504014,4.1745715,-2.6633174,-0.9458993,8.727208,5.658437,16.44006,-30.582153,55.235992,12.056823,1.5271907,11.880433,-5.4342847,-14.209184,45.21133,58.29739,-1.2901847,3.749596,-4.856606
68,-0.3635025918483734,-2.4417316913604736,78.2297134399414,-0.35361607177832705,-3.3066299522476665,81.87713926526017,8.090844,3.991436,14.467105,7.267627,-12.165245,-3.887467,5.319811,-4.749816,-11.170425,8.42799,-10.50295,4.1749873,-2.6653066,-0.94735104,8.725356,5.659543,16.438847,-30.582762,55.23512,12.051107,1.5328075,11.891317,-5.4360285,-14.208484,45.20974,58.29463,-1.2850047,3.7483816,-4.8664455
69,-0.3634304702281952,-2.4424808025360107,78.23042297363281,-0.3526555558482134,-3.3075248089924196,81.87718040013863,8.089062,3.9912472,14.465945,7.2730045,-12.167424,-3.881139,5.3199134,-4.750809,-11.169419,8.429331,-10.504333,4.1722074,-2.6680713,-0.9492669,8.724795,5.6615357,16.433378,-30.58513,55.2371,12.036918,1.5307559,11.910726,-5.4386744,-14.205408,45.204033,58.29179,-1.2445908,3.7360976,-4.8889375
70,-0.3633326292037964,-2.4444046020507812,78.23058319091797,-0.3521417641422083,-3.3092695016470794,81.87748248927433,8.087359,3.9905536,14.463755,7.280125,-12.171036,-3.8707628,5.319587,-4.7525787,-11.167127,8.433606,-10.508495,4.1673045,-2.6742175,-0.9520444,8.722014,5.663979,16.4322,-30.584425,55.24236,12.017207,1.5207368,11.926165,-5.4401584,-14.204761,45.20083,58.286263,-1.1838849,3.7179224,-4.9135475
71,-0.3631467819213867,-2.4436452388763428,78.23037719726562,-0.3502487423727703,-3.311205504467668,81.87807886203757,8.085817,3.9895842,14.461072,7.2878346,-12.175291,-3.860004,5.317601,-4.7550797,-11.164889,8.4420395,-10.514555,4.1618476,-2.679703,-0.9554082,8.720775,5.6665916,16.430208,-30.583185,55.24797,11.997515,1.507644,11.941916,-5.441505,-14.203729,45.19664,58.28097,-1.1147784,3.696504,-4.9415197
72,-0.3621934652328491,-2.443955898284912,78.2301254272461,-0.34887255519522975,-3.3126204200552856,81.87852603641915,8.083492,3.9883945,14.459305,7.2942934,-12.177784,-3.8525705,5.316325,-4.7572274,-11.163681,8.446702,-10.517205,4.1574097,-2.682052,-0.9583187,8.721075,5.6663356,16.42677,-30.581907,55.255222,11.985635,1.4967629,11.953267,-5.4435253,-14.20208,45.191254,58.279808,-1.0603678,3.6777864,-4.9671702
73,-0.36471864581108093,-2.4459798336029053,78.23026275634766,-0.3471440789200849,-3.313766394283113,81.87870949800966,8.08239,3.9865687,14.459177,7.2968674,-12.177558,-3.8486671,5.31379,-4.759638,-11.163942,8.452113,-10.517815,4.1538815,-2.6822963,-0.9607221,8.72293,5.661673,16.422977,-30.581198,55.263428,11.983836,1.4900268,11.954378,-5.4453382,-14.200393,45.18782,58.280117,-1.0256815,3.662977,-4.990854
74,-0.3644994795322418,-2.4468636512756348,78.23036193847656,-0.34536651429305293,-3.314776827039318,81.87885770151095,8.081914,3.983591,14.459968,7.2968426,-12.175341,-3.8464713,5.3082895,-4.763093,-11.164964,8.46219,-10.519077,4.1506524,-2.6813605,-0.96295565,8.72538,5.6521173,16.4175,-30.580374,55.27597,11.988334,1.4858042,11.9496565,-5.4471574,-14.198156,45.18394,58.282322,-1.0015738,3.6506014,-5.01468
75,-0.36389341950416565,-2.447920322418213,78.2294692993164,-0.3433452064988542,-3.315633949294921,81.87866994397046,8.0814495,3.9822118,14.461005,7.2968965,-12.173151,-3.8472524,5.3054748,-4.7647676,-11.165993,8.466978,-10.517827,4.1482177,-2.680693,-0.96389973,8.727813,5.6458936,16.41292,-30.579626,55.283306,11.993323,1.484186,11.942761,-5.4485173,-14.19651,45.18223,58.285275,-0.9904951,3.642999,-5.0304656
76,-0.36320385336875916,-2.450160503387451,78.22930908203125,-0.34355087358987796,-3.3169403036073755,81.87745638060936,8.083167,3.9825785,14.462173,7.2948413,-12.171217,-3.8519785,5.3049326,-4.7638426,-11.165565,8.467667,-10.51565,4.1471467,-2.6797175,-0.96361125,8.729741,5.6409574,16.410698,-30.57938,55.2877,11.994519,1.484878,11.936826,-5.4491286,-14.1957855,45.18211,58.288467,-0.9970549,3.643048,-5.029495
77,-0.36262792348861694,-2.4494266510009766,78.22949981689453,-0.34701795963660464,-3.318783487199561,81.87491305832233,8.088528,3.986543,14.463247,7.288089,-12.168141,-3.8640678,5.3074193,-4.758647,-11.162875,8.463023,-10.512219,4.1480207,-2.6782534,-0.95966375,8.730994,5.6348963,16.405748,-30.579985,55.29156,11.989658,1.490056,11.931849,-5.449271,-14.194244,45.183044,58.293312,-1.035717,3.6582696,-5.001456
78,-0.3632148802280426,-2.4506237506866455,78.22926330566406,-0.3529807507997529,-3.321088437718392,81.87138161508666,8.095902,3.993089,14.464279,7.279576,-12.165363,-3.881919,5.3118844,-4.7502956,-11.158804,8.455838,-10.508898,4.1504216,-2.6761258,-0.95345014,8.731324,5.6286764,16.400703,-30.581968,55.294838,11.981059,1.4984765,11.926521,-5.449777,-14.192814,45.18531,58.301376,-1.0993693,3.6844788,-4.953273
79,-0.36240875720977783,-2.4529922008514404,78.2288589477539,-0.35797594410531614,-3.3232488360593972,81.86740018350628,8.103006,3.9995916,14.4660225,7.2714643,-12.162957,-3.8990998,5.316827,-4.7421246,-11.154284,8.447343,-10.505266,4.153414,-2.673577,-0.9472679,8.731405,5.6226597,16.397026,-30.584312,55.29742,11.973233,1.507173,11.922572,-5.4489956,-14.19175,45.1877,58.30927,-1.1631588,3.7085412,-4.9032645
80,-0.3613723814487457,-2.4536306858062744,78.2289047241211,-0.36072147137347454,-3.3252404528988793,81.86339302827129,8.108488,4.00356,14.469381,7.2655964,-12.1616535,-3.9092312,5.322474,-4.7365627,-11.15037,8.43684,-10.500618,4.1561027,-2.6702607,-0.9440369,8.73168,5.618026,16.39304,-30.586231,55.299217,11.97116,1.5133704,11.921714,-5.4486213,-14.190719,45.19007,58.318413,-1.2005583,3.7170851,-4.8700476
81,-0.36016103625297546,-2.453881025314331,78.22872161865234,-0.3591671355480569,-3.3266514530079156,81.85929539747916,8.10958,4.00382,14.47491,7.265955,-12.163415,-3.908886,5.3217044,-4.7369275,-11.146614,8.438341,-10.502558,4.158599,-2.665908,-0.9449929,8.732167,5.6140733,16.389883,-30.586819,55.30156,11.978989,1.5158036,11.925612,-5.4488444,-14.1900835,45.192616,58.328876,-1.1964407,3.7006526,-4.8603773
82,-0.36152932047843933,-2.4543418884277344,78.22915649414062,-0.3558767047613265,-3.3278588026234313,81.85484716078045,8.11055,4.001297,14.48249,7.2654033,-12.164957,-3.901983,5.3221846,-4.739636,-11.143019,8.436364,-10.503253,4.161197,-2.6619844,-0.9479732,8.732193,5.6094446,16.38455,-30.58552,55.306717,11.993239,1.5157776,11.932952,-5.450113,-14.189216,45.197926,58.34275,-1.1661545,3.667246,-4.863905
83,-0.3617338538169861,-2.4571335315704346,78.22815704345703,-0.3523332785649108,-3.3291016818898345,81.85047904853879,8.109469,3.9984603,14.490239,7.268731,-12.168211,-3.8933105,5.3206863,-4.743605,-11.139505,8.438373,-10.505545,4.163732,-2.6579666,-0.9524852,8.732872,5.6069174,16.381954,-30.583986,55.30835,12.007811,1.5147381,11.940557,-5.450284,-14.188929,45.20113,58.35428,-1.1344221,3.6332703,-4.872404
84,-0.3576357960700989,-2.4593021869659424,78.22994232177734,-0.34899194746714735,-3.3304135117675973,81.846179252486,8.109467,3.9968872,14.496847,7.270846,-12.16966,-3.887489,5.317783,-4.746311,-11.136037,8.443898,-10.508516,4.1659565,-2.6557403,-0.95515,8.734133,5.605699,16.378338,-30.582884,55.30671,12.0166445,1.5145129,11.946633,-5.44936,-14.188582,45.204914,58.361565,-1.1209247,3.6143136,-4.878769
85,-0.35602498054504395,-2.4607486724853516,78.2304916381836,-0.34796970935789007,-3.3319411793381963,81.84170960597189,8.111578,3.9963357,14.502584,7.2695937,-12.167773,-3.8851664,5.319256,-4.746149,-11.132873,8.439961,-10.504413,4.1683097,-2.6570916,-0.95546776,8.733934,5.6044536,16.373447,-30.582682,55.30626,12.0175705,1.5150554,11.952642,-5.450318,-14.188083,45.211754,58.3706,-1.1348999,3.6153448,-4.8823266
86,-0.35498231649398804,-2.4614157676696777,78.22969818115234,-0.34659494240762945,-3.333427451720439,81.83714210718388,8.112294,3.9969296,14.5075445,7.2713113,-12.165741,-3.8840842,5.318956,-4.7455735,-11.129784,8.439399,-10.50059,4.170844,-2.656798,-0.9564246,8.735651,5.603388,16.372395,-30.583652,55.30109,12.015201,1.5152692,11.956692,-5.449667,-14.187924,45.21377,58.37473,-1.1640122,3.6265595,-4.8846607
87,-0.35471704602241516,-2.4626002311706543,78.2295913696289,-0.34582680271127886,-3.335224974344585,81.83321212513128,8.11411,3.9978354,14.511491,7.272325,-12.1640005,-3.884471,5.3187246,-4.744309,-11.127106,8.4399605,-10.497596,4.1724305,-2.6579762,-0.9564323,8.737272,5.603341,16.371292,-30.585342,55.295155,12.009142,1.5152836,11.959558,-5.4479923,-14.187691,45.21602,58.377472,-1.1977366,3.6434028,-4.887908
88,-0.35386285185813904,-2.463446855545044,78.22989654541016,-0.3456400263657452,-3.337589368686799,81.83116486063757,8.116851,3.999356,14.513394,7.2725415,-12.163211,-3.8865829,5.320651,-4.742389,-11.125871,8.439162,-10.495513,4.1722035,-2.6601467,-0.9545094,8.73603,5.604415,16.367577,-30.58981,55.292862,11.999168,1.5144576,11.96003,-5.442413,-14.186667,45.22062,58.37785,-1.2201988,3.6621048,-4.892938
89,-0.3517071306705475,-2.463106632232666,78.22938537597656,-0.3472626956677111,-3.3409132372457213,81.83261916801727,8.121487,4.001785,14.5118,7.27045,-12.16361,-3.8921425,5.3220263,-4.7401757,-11.126965,8.445091,-10.499783,4.1691236,-2.6610236,-0.95391804,8.736066,5.602753,16.366447,-30.590284,55.294365,11.991305,1.5096078,11.950681,-5.436905,-14.186322,45.22165,58.379215,-1.2249312,3.6770344,-4.898058
90,-0.3502083122730255,-2.4638819694519043,78.22936248779297,-0.3494463246401083,-3.3449003080507733,81.83626142403836,8.126443,4.0051584,14.507663,7.2691045,-12.165893,-3.9004548,5.3282714,-4.736433,-11.130049,8.444062,-10.501983,4.163891,-2.6622224,-0.95291185,8.735659,5.6005297,16.36474,-30.589857,55.298252,11.981831,1.5027256,11.935062,-5.428069,-14.185743,45.222622,58.377213,-1.2211789,3.6944816,-4.9049454
91,-0.3497578501701355,-2.463677406311035,78.22920989990234,-0.35193617257685234,-3.348070106491151,81.84031855773895,8.131405,4.0082493,14.502878,7.266065,-12.167317,-3.9081247,5.333579,-4.732836,-11.133267,8.443482,-10.504625,4.1582785,-2.6639345,-0.9519414,8.736017,5.5993543,16.36427,-30.589113,55.300972,11.973206,1.4962721,11.921808,-5.4212556,-14.185548,45.222584,58.375187,-1.2113982,3.707663,-4.908122
92,-0.3492370843887329,-2.462620258331299,78.22908782958984,-0.3542779087172839,-3.351332143711412,81.8434023845422,8.134436,4.0115533,14.4984045,7.2670665,-12.16941,-3.9120333,5.339908,-4.7292967,-11.136188,8.440543,-10.50557,4.1538467,-2.6663635,-0.9518044,8.733688,5.5976105,16.362333,-30.586668,55.309464,11.968179,1.4900717,11.911913,-5.4100137,-14.184902,45.222027,58.36852,-1.1973251,3.7184885,-4.9064198
93,-0.3489132821559906,-2.4617977142333984,78.22906494140625,-0.3552852086618082,-3.352404548743704,81.84417944741382,8.133968,4.0134583,14.495044,7.2709556,-12.170825,-3.9100654,5.341235,-4.7275934,-11.137292,8.441245,-10.50719,4.1519194,-2.670018,-0.9517505,8.731729,5.5993323,16.360872,-30.584322,55.31466,11.966524,1.4871196,11.914756,-5.4042826,-14.184457,45.21997,58.363647,-1.1773703,3.71761,-4.8923893
94,-0.34750884771347046,-2.4610087871551514,78.22986602783203,-0.35574992522980126,-3.352279896720904,81.84407182798391,8.131907,4.0145535,14.491754,7.2761908,-12.171925,-3.9044032,5.338863,-4.727281,-11.137675,8.446688,-10.511076,4.151363,-2.6739054,-0.95337427,8.727666,5.601826,16.358473,-30.579695,55.324005,11.970675,1.4843036,11.924126,-5.3977566,-14.1839695,45.214558,58.355724,-1.1522386,3.7107434,-4.8677106
95,-0.34696370363235474,-2.4616641998291016,78.23018646240234,-0.3552034009340294,-3.351312284343731,81.84345452743955,8.128114,4.015811,14.489171,7.283149,-12.173371,-3.8976552,5.3374767,-4.726578,-11.1377535,8.447563,-10.511615,4.1502,-2.6782575,-0.95431525,8.723918,5.605624,16.357222,-30.576805,55.33016,11.974612,1.4837142,11.935276,-5.3927345,-14.183779,45.210316,58.35005,-1.1253834,3.7009258,-4.844629
96,-0.3449786901473999,-2.462254762649536,78.22956085205078,-0.35553883639470074,-3.349644893937525,81.84313728867657,8.124025,4.0170116,14.488135,7.2881813,-12.174263,-3.8923872,5.334762,-4.7257633,-11.137481,8.449334,-10.511265,4.146595,-2.6817322,-0.95484287,8.720188,5.609474,16.355967,-30.574654,55.333126,11.980313,1.4854587,11.943014,-5.3868012,-14.183624,45.20719,58.34628,-1.1023057,3.6924205,-4.8311386
97,-0.3440892696380615,-2.4621894359588623,78.2298812866211,-0.3553384496215528,-3.346409134115296,81.84346322192484,8.11788,4.018986,14.489356,7.2928452,-12.175258,-3.8887014,5.329825,-4.72457,-11.136706,8.452432,-10.50903,4.1377573,-2.685611,-0.9548014,8.716375,5.6131296,16.35512,-30.574305,55.33205,11.987555,1.4919817,11.946519,-5.3808665,-14.183517,45.20688,58.3471,-1.083427,3.6852968,-4.831906
98,-0.34280821681022644,-2.461578130722046,78.2304458618164,-0.356252063060061,-3.34238513889271,81.84408532732489,8.111321,4.020877,14.492409,7.2954645,-12.175312,-3.8854408,5.3211284,-4.723947,-11.135297,8.46076,-10.507366,4.125527,-2.6901278,-0.9546588,8.712286,5.6169257,16.353777,-30.574944,55.329243,11.996725,1.5013587,11.948525,-5.375086,-14.183357,45.208492,58.350918,-1.0670968,3.678259,-4.8408294
99,-0.3417624235153198,-2.4615590572357178,78.23002624511719,-0.356486637181207,-3.337169226279301,81.84429004673399,8.103056,4.0225744,14.495817,7.2993555,-12.176144,-3.8831322,5.308349,-4.7241483,-11.133277,8.475288,-10.50946,4.114756,-2.6941285,-0.95406437,8.703781,5.6238017,16.351542,-30.57718,55.32506,12.005788,1.5118201,11.949584,-5.3676763,-14.183121,45.2153,58.358765,-1.0496972,3.6708896,-4.8550973
100,-0.3414984941482544,-2.461197853088379,78.23091888427734,-0.35589569466112403,-3.335128746510451,81.84393704166253,8.10114,4.023505,14.498137,7.299141,-12.17579,-3.8827503,5.3049297,-4.723512,-11.132013,8.47806,-10.509089,4.1103535,-2.697158,-0.95442367,8.701879,5.6252117,16.350786,-30.57811,55.32481,12.008901,1.5137548,11.948841,-5.363339,-14.183005,45.21727,58.362377,-1.0408711,3.6680615,-4.861971
101,-0.3388614058494568,-2.4625377655029297,78.23114776611328,-0.35508489515047914,-3.3336531016575637,81.8425952106516,8.101129,4.0228124,14.498742,7.2975864,-12.175019,-3.8842669,5.304705,-4.723762,-11.130918,8.474374,-10.509802,4.116204,-2.6955514,-0.9551894,8.694956,5.6281276,16.349663,-30.58148,55.325733,12.008864,1.5093791,11.943364,-5.353041,-14.182699,45.223907,58.369728,-1.0281459,3.6619737,-4.8729854
102,-0.33858656883239746,-2.462266206741333,78.23043823242188,-0.3532581369010586,-3.3344400826488463,81.84086145570295,8.105626,4.0211825,14.498409,7.293262,-12.173434,-3.8875275,5.3106227,-4.724075,-11.130215,8.463959,-10.51069,4.1288424,-2.693076,-0.9566357,8.692039,5.627913,16.348858,-30.58481,55.328773,12.003985,1.4981189,11.935555,-5.3443327,-14.182282,45.22895,58.37468,-1.0219502,3.6595511,-4.8801236
103,-0.3381005525588989,-2.459949254989624,78.22991943359375,-0.3511080979644066,-3.335305948585962,81.83855738149475,8.110592,4.0198603,14.498145,7.2886095,-12.171943,-3.8921084,5.3168697,-4.723974,-11.12954,8.452901,-10.511598,4.142106,-2.690018,-0.95823324,8.690242,5.6274624,16.34855,-30.587187,55.33129,11.998167,1.4865803,11.928944,-5.338,-14.181961,45.231915,58.380272,-1.0205892,3.658994,-4.88483
104,-0.3374684751033783,-2.461280584335327,78.2291030883789,-0.35130325540809854,-3.3364051354148048,81.83563826689135,8.11562,4.0203023,14.49934,7.283048,-12.16989,-3.897891,5.325141,-4.7215,-11.128577,8.436999,-10.507672,4.149817,-2.6855593,-0.95844847,8.684342,5.625407,16.348244,-30.593779,55.342365,11.988263,1.4743059,11.92572,-5.3271637,-14.181343,45.238564,58.383034,-1.0178037,3.6604578,-4.890022
105,-0.336016982793808,-2.46232271194458,78.2284164428711,-0.35200130876398894,-3.3354522648632123,81.83186447160257,8.117661,4.022416,14.502416,7.2775006,-12.167318,-3.9055648,5.3223157,-4.7191267,-11.126291,8.439566,-10.510218,4.149614,-2.6815867,-0.95726246,8.680751,5.6253686,16.34814,-30.596535,55.34925,11.979674,1.4653213,11.928528,-5.323682,-14.180989,45.241737,58.3861,-1.0230961,3.666416,-4.889564
106,-0.3337971866130829,-2.462186574935913,78.22898864746094,-0.3532246943424625,-3.333765884737464,81.82736907302515,8.117954,4.0259566,14.506432,7.2728524,-12.16506,-3.915052,5.320896,-4.7149625,-11.123961,8.436767,-10.507934,4.144985,-2.6768587,-0.95486575,8.677736,5.6252875,16.348131,-30.598608,55.35635,11.970236,1.4569827,11.934397,-5.321467,-14.180624,45.24484,58.38709,-1.0317907,3.6750376,-4.88649
107,-0.33459827303886414,-2.459688186645508,78.2281723022461,-0.35609056686602475,-3.332647663128061,81.82285364183831,8.118324,4.0303893,14.510979,7.269096,-12.163371,-3.9244356,5.318597,-4.7103696,-11.121481,8.436876,-10.506733,4.1388664,-2.6727178,-0.95208156,8.674079,5.625352,16.348146,-30.60009,55.365337,11.962274,1.4511325,11.94248,-5.3202596,-14.180479,45.247356,58.38816,-1.0409209,3.683922,-4.8824043
108,-0.3322259783744812,-2.4606359004974365,78.22860717773438,-0.3575891873408081,-3.3329227026309636,81.81791752711308,8.121027,4.0347323,14.516007,7.2656107,-12.162788,-3.931828,5.317898,-4.7058177,-11.118618,8.437463,-10.50597,4.1341376,-2.6701648,-0.94945985,8.668572,5.6271234,16.348083,-30.6036,55.37543,11.958076,1.4514681,11.953227,-5.3163953,-14.179999,45.253036,58.386913,-1.0457965,3.6904418,-4.878866
109,-0.3300214111804962,-2.4594902992248535,78.22844696044922,-0.35988600911490753,-3.336090302095743,81.81385092702763,8.126804,4.0388117,14.520423,7.2646427,-12.16539,-3.9369788,5.3206735,-4.701902,-11.116794,8.438555,-10.506269,4.131495,-2.6688764,-0.9464967,8.666491,5.630366,16.348001,-30.60524,55.379284,11.969445,1.466464,11.965648,-5.3145776,-14.179707,45.255558,58.38806,-1.0478376,3.689076,-4.875353
110,-0.33113381266593933,-2.458804130554199,78.22870635986328,-0.36279422726602717,-3.34113541844869,81.80986637898212,8.134268,4.0433226,14.524998,7.2653913,-12.169958,-3.9409451,5.324062,-4.698011,-11.115143,8.442867,-10.508206,4.1293697,-2.6688979,-0.942721,8.664784,5.6363482,16.34776,-30.606895,55.38037,11.989767,1.4912517,11.981391,-5.311535,-14.179215,45.2575,58.387802,-1.0486338,3.6838474,-4.871329
111,-0.32808828353881836,-2.457058906555176,78.2294921875,-0.36376798916489106,-3.3457009980098826,81.80626572212864,8.141706,4.046787,14.529167,7.265544,-12.173914,-3.942851,5.3300066,-4.6946025,-11.113728,8.441345,-10.507394,4.127819,-2.6691246,-0.93921584,8.66374,5.6397433,16.347666,-30.606934,55.383244,12.007676,1.5130988,11.993357,-5.310207,-14.179053,45.25734,58.387043,-1.0469404,3.678673,-4.8683014
112,-0.327318012714386,-2.457948923110962,78.2286376953125,-0.3648419786965571,-3.3511762601583186,81.80277629830395,8.148969,4.050091,14.533044,7.2685256,-12.178435,-3.94244,5.3347387,-4.691947,-11.111008,8.444517,-10.509936,4.126813,-2.6674287,-0.93732953,8.66158,5.647968,16.347363,-30.604816,55.38073,12.01998,1.5317376,12.001077,-5.306714,-14.178775,45.255013,58.385654,-1.0416577,3.6748276,-4.8666224
113,-0.32552051544189453,-2.4578022956848145,78.22776794433594,-0.36393072730681103,-3.354605630200242,81.79958068123781,8.152418,4.051057,14.536401,7.273679,-12.181582,-3.9371839,5.337195,-4.6919003,-11.106571,8.447592,-10.513495,4.127231,-2.6649952,-0.9369515,8.658091,5.6569443,16.346664,-30.594826,55.378178,12.017518,1.5344707,11.996007,-5.3027987,-14.178252,45.246605,58.380306,-1.0336003,3.6763542,-4.8656626
114,-0.3245861828327179,-2.456712245941162,78.2271957397461,-0.36214726850560697,-3.3572758273873022,81.79687273305073,8.154717,4.050489,14.539175,7.2793975,-12.183784,-3.928118,5.3418193,-4.6927395,-11.10151,8.444898,-10.515118,4.128713,-2.6615155,-0.93815887,8.653093,5.6620674,16.346409,-30.589212,55.37942,11.999421,1.5299057,11.986284,-5.3010664,-14.178134,45.241753,58.3764,-1.0157307,3.6794872,-4.8678675
115,-0.3230358958244324,-2.4566550254821777,78.227294921875,-0.35957912897899075,-3.3601421324658878,81.79482872592115,8.15652,4.0502586,14.541084,7.2864447,-12.186431,-3.9196012,5.3435526,-4.6939697,-11.096561,8.448935,-10.520133,4.1297855,-2.6580083,-0.9393375,8.648011,5.6685724,16.345884,-30.579094,55.379364,11.981975,1.5219499,11.973131,-5.298109,-14.177956,45.23318,58.371628,-0.99818265,3.683296,-4.8717275
116,-0.3214123547077179,-2.455622434616089,78.22699737548828,-0.35825507907788806,-3.3630617359341577,81.79406712147993,8.158988,4.0503964,14.54194,7.291006,-12.188466,-3.9155512,5.348131,-4.6938,-11.093847,8.447228,-10.521347,4.1290383,-2.6566885,-0.9406766,8.64733,5.676278,16.345148,-30.557537,55.374336,11.986822,1.5139385,11.958467,-5.294572,-14.177756,45.21679,58.363716,-0.99679977,3.6856458,-4.8757653
117,-0.31989118456840515,-2.4556117057800293,78.2259292602539,-0.3583127843387613,-3.3654893063719364,81.7959453148286,8.161957,4.051769,14.540632,7.292004,-12.189909,-3.919062,5.3506165,-4.692087,-11.094529,8.449554,-10.523454,4.124861,-2.6555555,-0.94018775,8.645468,5.678338,16.344847,-30.550407,55.372158,11.996885,1.5097127,11.952789,-5.291904,-14.177506,45.212147,58.36055,-0.9904538,3.682752,-4.8908615
118,-0.31918877363204956,-2.4543297290802,78.22574615478516,-0.35997284881287833,-3.367501164083262,81.79968730761118,8.165677,4.053543,14.537811,7.288684,-12.18931,-3.9272728,5.35328,-4.6889944,-11.097468,8.451037,-10.524532,4.118383,-2.65465,-0.9389642,8.642061,5.6779237,16.34487,-30.550158,55.371418,12.011448,1.5059974,11.950579,-5.2894707,-14.17712,45.212322,58.36169,-0.98374057,3.6772008,-4.9130607
119,-0.3185340166091919,-2.454725742340088,78.22642517089844,-0.36146126700655806,-3.369873852477151,81.80388949851854,8.169856,4.054921,14.534334,7.2848053,-12.188413,-3.9354827,5.353979,-4.686827,-11.100995,8.457556,-10.528036,4.112492,-2.6539373,-0.93771565,8.638416,5.67724,16.34519,-30.554102,55.370533,12.024207,1.5029937,11.950766,-5.2858486,-14.176495,45.21492,58.361805,-0.977147,3.6719303,-4.9350395
120,-0.3162493407726288,-2.454228639602661,78.22562408447266,-0.36141859143750704,-3.3729109440913607,81.8072194790147,8.173283,4.055595,14.531025,7.2840753,-12.188684,-3.9389682,5.357228,-4.6858687,-11.104005,8.459738,-10.529791,4.109852,-2.6542795,-0.9373431,8.635917,5.6772757,16.345484,-30.557814,55.369213,12.028087,1.5011156,11.952639,-5.284905,-14.176027,45.216625,58.36246,-0.9723477,3.669594,-4.9481335
121,-0.3141310513019562,-2.4549832344055176,78.2262191772461,-0.3600257965958925,-3.3776553931829514,81.80923751534776,8.176419,4.0548873,14.527754,7.2878046,-12.190642,-3.9344866,5.365202,-4.686714,-11.106791,8.455456,-10.529317,4.1124372,-2.656544,-0.93797,8.635235,5.6797867,16.345966,-30.563412,55.365738,12.018127,1.5017387,11.957893,-5.2873845,-14.175152,45.21766,58.363033,-0.9690462,3.6720808,-4.9484963
122,-0.3130589723587036,-2.455286979675293,78.2266616821289,-0.3570675535878978,-3.3833246402142025,81.81064373916918,8.17919,4.053003,14.5244255,7.294405,-12.193821,-3.925195,5.373086,-4.6897144,-11.109394,8.453682,-10.530811,4.1184683,-2.6608682,-0.9389291,8.637215,5.6834965,16.346235,-30.567427,55.359867,12.001547,1.5039862,11.965593,-5.2926416,-14.174373,45.21716,58.36248,-0.96852314,3.6773245,-4.939873
123,-0.31126725673675537,-2.4552502632141113,78.22694396972656,-0.35397642761021497,-3.3890756330781366,81.81206079952507,8.181403,4.051155,14.520826,7.302054,-12.197377,-3.9160483,5.3786883,-4.6931376,-11.111527,8.456758,-10.534785,4.1247773,-2.6643405,-0.94055253,8.639712,5.686617,16.346413,-30.571228,55.354404,11.984118,1.5057849,11.972774,-5.2987757,-14.173534,45.215305,58.36283,-0.97067326,3.6829987,-4.928471
124,-0.3109928369522095,-2.4573280811309814,78.22664642333984,-0.35296874045158,-3.3941460691389485,81.8143028153033,8.183968,4.051058,14.5168495,7.306727,-12.199538,-3.9120696,5.3851624,-4.694,-11.113352,8.456082,-10.53615,4.128163,-2.6637368,-0.9416408,8.642113,5.686207,16.346565,-30.57424,55.352493,11.972526,1.5048578,11.9758215,-5.301798,-14.172477,45.212624,58.360733,-0.9733291,3.6868348,-4.920016
125,-0.30859458446502686,-2.458030939102173,78.22648620605469,-0.3544410606127342,-3.398269162923944,81.81792116246919,8.186668,4.0533624,14.51148,7.3082724,-12.200701,-3.9153783,5.391571,-4.691018,-11.114217,8.452409,-10.534542,4.127218,-2.65832,-0.94286776,8.643665,5.68146,16.346762,-30.575167,55.3566,11.96986,1.498136,11.971969,-5.301345,-14.171689,45.21035,58.35671,-0.97632086,3.6881618,-4.9162
126,-0.30676189064979553,-2.457803249359131,78.2262954711914,-0.3563348632011521,-3.401612822198249,81.82228194349831,8.18991,4.0567665,14.505417,7.306386,-12.200286,-3.922989,5.3936653,-4.686975,-11.113916,8.456539,-10.536618,4.1239014,-2.6496305,-0.94400424,8.645128,5.674962,16.347029,-30.574978,55.362713,11.972015,1.4882369,11.964111,-5.2987275,-14.170982,45.207935,58.35078,-0.9802959,3.6882017,-4.913807
127,-0.30533209443092346,-2.4582037925720215,78.2257080078125,-0.35894603352391985,-3.40478830135386,81.82669702971619,8.193375,4.0604234,14.50003,7.3031087,-12.198625,-3.932395,5.399275,-4.681904,-11.114373,8.452203,-10.533829,4.11991,-2.6393394,-0.945949,8.646829,5.6650043,16.347528,-30.574091,55.37196,11.975619,1.4786928,11.955405,-5.2948804,-14.169777,45.20392,58.343662,-0.9857069,3.6876855,-4.9120536
128,-0.3047977089881897,-2.461759567260742,78.2248306274414,-0.3605147500604397,-3.4076602397127713,81.83043758090693,8.195779,4.06329,14.497036,7.301232,-12.196116,-3.9410715,5.4012394,-4.679138,-11.1163225,8.455581,-10.5356865,4.117128,-2.6324832,-0.9468483,8.647879,5.6596303,16.347767,-30.573004,55.374493,11.976098,1.475891,11.951552,-5.293578,-14.169085,45.201675,58.340042,-0.99099594,3.687163,-4.9104095
129,-0.307041734457016,-2.4604380130767822,78.22441864013672,-0.3600613593416912,-3.41038327739932,81.83283898735611,8.198459,4.06459,14.4983,7.2978835,-12.18981,-3.949651,5.4035325,-4.6787724,-11.1208515,8.45702,-10.536269,4.1158648,-2.6284,-0.9485148,8.6498,5.654407,16.347912,-30.570402,55.37314,11.974006,1.483418,11.954156,-5.2933936,-14.167941,45.197887,58.338173,-1.0024781,3.688123,-4.907255
130,-0.30497559905052185,-2.4625325202941895,78.2251968383789,-0.3597135377180669,-3.4128668979437147,81.83464376732638,8.201458,4.06539,14.50231,7.293127,-12.180797,-3.959169,5.406537,-4.679334,-11.12729,8.456419,-10.536123,4.115179,-2.6270225,-0.9488538,8.651414,5.653193,16.347845,-30.567694,55.365047,11.969777,1.4987437,11.961561,-5.2953696,-14.167192,45.19542,58.340015,-1.0171388,3.6896799,-4.9032454
131,-0.3033447265625,-2.46250319480896,78.2249755859375,-0.35929622622409446,-3.4153603730310147,81.8365415068934,8.204137,4.0656734,14.506123,7.2880726,-12.171688,-3.9671712,5.410075,-4.6803436,-11.134192,8.454619,-10.535278,4.115053,-2.6277592,-0.9493093,8.653833,5.654515,16.347334,-30.560043,55.353886,11.9675045,1.5138714,11.968586,-5.300284,-14.164454,45.190495,58.34434,-1.0303339,3.6893137,-4.9007354
132,-0.30196166038513184,-2.465456008911133,78.22514343261719,-0.35794588944386035,-3.417825133511738,81.83903302839077,8.206074,4.0656595,14.507069,7.2858872,-12.166833,-3.9713283,5.4128914,-4.6814647,-11.140063,8.455182,-10.536077,4.1155257,-2.627948,-0.9494052,8.654559,5.6549997,16.346941,-30.555502,55.34701,11.963154,1.5202367,11.971214,-5.304021,-14.163015,45.187298,58.34555,-1.0291227,3.6840677,-4.9036865
133,-0.30001047253608704,-2.4657773971557617,78.2259750366211,-0.35784887426411416,-3.421363417659358,81.84296707758973,8.2074585,4.0657825,14.503533,7.2886286,-12.169315,-3.9696758,5.4197874,-4.681673,-11.145209,8.450089,-10.534067,4.1175547,-2.6278749,-0.949971,8.6558,5.655047,16.346165,-30.547804,55.344532,11.960845,1.5126972,11.9654045,-5.3081207,-14.160367,45.179413,58.34419,-1.0071343,3.6699705,-4.915883
134,-0.2991971969604492,-2.4666953086853027,78.22624206542969,-0.35778652268332534,-3.42501988604292,81.84729532873524,8.208241,4.0655713,14.497757,7.292624,-12.174534,-3.9638844,5.423954,-4.6826253,-11.149295,8.452066,-10.536199,4.1208572,-2.628889,-0.9499478,8.654262,5.6565714,16.345732,-30.544632,55.34392,11.953135,1.4986218,11.956841,-5.3094,-14.159273,45.17451,58.336548,-0.9684947,3.651685,-4.9341745
135,-0.29856616258621216,-2.46748423576355,78.22607421875,-0.35692474374035627,-3.428600692077963,81.85208792061245,8.207946,4.06511,14.490443,7.2992783,-12.181936,-3.957206,5.4286714,-4.6835833,-11.153486,8.452294,-10.53737,4.1234384,-2.625097,-0.95078045,8.657232,5.652263,16.344854,-30.535671,55.347042,11.954509,1.4796808,11.943992,-5.3120904,-14.1566925,45.157383,58.331356,-0.93698484,3.6303656,-4.951945
136,-0.2977841794490814,-2.4693005084991455,78.22572326660156,-0.3564513283626374,-3.429891646658958,81.85566905238537,8.207302,4.0642333,14.484665,7.2999215,-12.184056,-3.9530525,5.4326344,-4.68392,-11.156357,8.447695,-10.53635,4.1231303,-2.6225104,-0.9512687,8.655628,5.649693,16.344395,-30.532915,55.34735,11.949725,1.470944,11.938209,-5.313691,-14.155387,45.150745,58.324894,-0.9259143,3.6210074,-4.9596567
137,-0.2954101264476776,-2.47115421295166,78.22607421875,-0.35500947139262456,-3.4277597551848573,81.85779943212947,8.202693,4.0628777,14.480323,7.3001375,-12.18352,-3.9527838,5.427637,-4.685372,-11.157235,8.452791,-10.5409355,4.1183047,-2.6178539,-0.95256406,8.65219,5.643637,16.343925,-30.531534,55.347507,11.944989,1.4728457,11.938486,-5.315655,-14.1541395,45.146027,58.31937,-0.9505931,3.624963,-4.9516497
138,-0.29323020577430725,-2.4725537300109863,78.22586822509766,-0.3535739963875523,-3.423247147424351,81.85913296807513,8.196612,4.06099,14.476481,7.2976007,-12.180465,-3.9544852,5.4194922,-4.6867285,-11.15686,8.45774,-10.545779,4.110419,-2.612678,-0.953771,8.64653,5.6372476,16.343594,-30.53174,55.346073,11.938703,1.4813217,11.943117,-5.3173637,-14.153268,45.14489,58.313686,-0.99615264,3.6375942,-4.934342
139,-0.2923891842365265,-2.4742367267608643,78.22573852539062,-0.3520488862710756,-3.418608817936335,81.85998469208079,8.189623,4.059401,14.472994,7.296537,-12.1772585,-3.9563339,5.41044,-4.6881337,-11.156062,8.463448,-10.5504465,4.1022344,-2.6072686,-0.9553553,8.641079,5.629543,16.34281,-30.533115,55.345554,11.933458,1.4922746,11.948891,-5.3198886,-14.151365,45.14438,58.309002,-1.0496359,3.6537507,-4.9148808
140,-0.29289087653160095,-2.4762701988220215,78.2257080078125,-0.3505486033677124,-3.4165245229386834,81.86087816078982,8.185423,4.058888,14.469835,7.2970552,-12.17493,-3.9564953,5.4074316,-4.6880355,-11.156202,8.462708,-10.550465,4.09637,-2.6033018,-0.9558477,8.6382475,5.623113,16.342232,-30.534178,55.345142,11.931623,1.5013877,11.9530735,-5.3239546,-14.14998,45.14498,58.305286,-1.0949366,3.6673517,-4.9011106
141,-0.2912646532058716,-2.4797966480255127,78.22525787353516,-0.3508934083099199,-3.4180784974907596,81.8617280330333,8.184851,4.059981,14.467012,7.301142,-12.174357,-3.9532936,5.4071593,-4.687176,-11.157004,8.464798,-10.549888,4.0936294,-2.5990367,-0.9558702,8.638907,5.6182775,16.341892,-30.535055,55.34521,11.937558,1.5083299,11.954393,-5.3298826,-14.14913,45.14657,58.303387,-1.1331856,3.6782398,-4.8932905
142,-0.289826899766922,-2.4788641929626465,78.22703552246094,-0.3518355178190608,-3.4220619787903965,81.86225312175904,8.185876,4.06197,14.464733,7.30899,-12.175126,-3.9480946,5.406146,-4.686347,-11.157817,8.473542,-10.551283,4.0926375,-2.59819,-0.95562613,8.64454,5.6104846,16.340687,-30.535236,55.347065,11.946034,1.5168097,11.95558,-5.342745,-14.146273,45.150776,58.304623,-1.1770399,3.6920943,-4.8862553
143,-0.2909553050994873,-2.4807329177856445,78.2275390625,-0.35213311956085713,-3.4265250752738976,81.86293983372775,8.188483,4.0641093,14.462544,7.3147984,-12.175331,-3.9435844,5.4094787,-4.68463,-11.159334,8.474147,-10.547994,4.092661,-2.597234,-0.954919,8.649508,5.6060658,16.339968,-30.53493,55.346928,11.955542,1.5234435,11.95599,-5.3528385,-14.144486,45.153683,58.304596,-1.2086864,3.7023854,-4.884827
144,-0.2907250225543976,-2.482238292694092,78.22740173339844,-0.3516343576951108,-3.4271385879919904,81.86304626086081,8.18878,4.0643764,14.462071,7.3148503,-12.173504,-3.9422266,5.4068093,-4.684642,-11.159673,8.478442,-10.547153,4.093374,-2.59714,-0.95492125,8.649341,5.606021,16.339964,-30.534916,55.346912,11.9555645,1.5234516,11.956016,-5.3530207,-14.144454,45.153748,58.30452,-1.2087834,3.7023602,-4.8849025
145,-0.2886650562286377,-2.4869296550750732,78.22728729248047,-0.35320975083580985,-3.432174509176639,81.86738564963304,8.191322,4.0664535,14.456639,7.3161807,-12.174414,-3.9473953,5.414924,-4.682169,-11.164404,8.472014,-10.543063,4.0942163,-2.601224,-0.9511304,8.651878,5.602465,16.339687,-30.533209,55.343452,11.95255,1.5271181,11.956793,-5.367812,-14.143968,45.153263,58.301632,-1.1903917,3.7028575,-4.9069343
146,-0.28734639286994934,-2.48872709274292,78.22673797607422,-0.35543686959302895,-3.435689121456431,81.87247362130836,8.193797,4.067403,14.451677,7.311675,-12.173639,-3.9563024,5.4202332,-4.6807194,-11.169506,8.468547,-10.541216,4.096178,-2.6113572,-0.944817,8.662784,5.6002097,16.338017,-30.522379,55.333363,11.944063,1.5249604,11.956347,-5.3923383,-14.141323,45.150486,58.310307,-1.1333898,3.6910632,-4.9350686
147,-0.2887757122516632,-2.4894940853118896,78.2262954711914,-0.35545186362473924,-3.437603965592295,81.8765154094264,8.194944,4.0677776,14.447869,7.306471,-12.172171,-3.9647546,5.4226937,-4.680078,-11.173498,8.467163,-10.540483,4.0983005,-2.6189806,-0.9412813,8.664574,5.60011,16.336786,-30.516283,55.328358,11.931976,1.5210749,11.956921,-5.4030643,-14.139651,45.147053,58.310375,-1.0763818,3.68063,-4.9635835
148,-0.2890945076942444,-2.4907138347625732,78.2267837524414,-0.3556053372657868,-3.440215055800097,81.87905671281185,8.196679,4.0676537,14.445501,7.303309,-12.170771,-3.968359,5.425469,-4.6800756,-11.176116,8.46556,-10.539789,4.0999646,-2.6237268,-0.9378239,8.668697,5.5983286,16.33566,-30.51157,55.322376,11.92226,1.5168369,11.958532,-5.41688,-14.138138,45.1452,58.312885,-1.0371144,3.6752324,-4.985914
149,-0.2876930236816406,-2.493429183959961,78.22705078125,-0.35474308034748264,-3.442560178998778,81.87886288563072,8.195932,4.067464,14.445282,7.306469,-12.170306,-3.9640632,5.4262285,-4.6809483,-11.176563,8.4652815,-10.539554,4.1010246,-2.6239278,-0.93658817,8.670528,5.59511,16.334806,-30.511024,55.318863,11.912855,1.5125726,11.962608,-5.426069,-14.136847,45.146248,58.3101,-1.0260704,3.6816864,-4.999809
150,-0.2854646146297455,-2.496351957321167,78.22754669189453,-0.3522914686737815,-3.44490316264302,81.87693263075776,8.193756,4.0671415,14.446334,7.3142877,-12.171155,-3.9548542,5.428359,-4.6820083,-11.175934,8.4617195,-10.53819,4.101804,-2.6217585,-0.9357822,8.673378,5.5896187,16.334219,-30.51354,55.316586,11.901557,1.5070173,11.969054,-5.4356613,-14.135733,45.14984,58.30565,-1.0280092,3.6956048,-5.01094
151,-0.2854675054550171,-2.497260808944702,78.22773742675781,-0.3494860273611547,-3.4474349823819272,81.8748403925073,8.191223,4.0670967,14.447902,7.323425,-12.172234,-3.9454637,5.428013,-4.6837254,-11.174499,8.464011,-10.539807,4.1022434,-2.6186044,-0.93566626,8.674578,5.5831804,16.333303,-30.519648,55.31632,11.888461,1.5013121,11.9761915,-5.4432635,-14.133622,45.15641,58.3014,-1.0330172,3.7088044,-5.019676
152,-0.28528377413749695,-2.49873423576355,78.22813415527344,-0.34703761243916703,-3.4505622521521717,81.87385463829297,8.191961,4.067033,14.449464,7.3271523,-12.171655,-3.940478,5.425677,-4.6852937,-11.172942,8.472919,-10.544291,4.1022253,-2.6158397,-0.93581325,8.673267,5.5784454,16.332087,-30.52676,55.316765,11.8765135,1.496018,11.981847,-5.448428,-14.130345,45.162983,58.300606,-1.0328971,3.7135494,-5.0268035
153,-0.2836886942386627,-2.5000243186950684,78.22776794433594,-0.3469098169916143,-3.455260490247911,81.87471744974137,8.195086,4.0685678,14.450813,7.328476,-12.17071,-3.9424653,5.4318733,-4.6838865,-11.171872,8.469863,-10.542365,4.101634,-2.6143944,-0.9362175,8.672995,5.576612,16.331532,-30.528465,55.31306,11.870601,1.4898647,11.983204,-5.450467,-14.128627,45.16455,58.29956,-1.0288812,3.7045143,-5.0293164
154,-0.28263819217681885,-2.501354694366455,78.22772216796875,-0.34705266098158344,-3.460665045945781,81.87651801230518,8.20028,4.07061,14.452475,7.327636,-12.169417,-3.9484003,5.437629,-4.681876,-11.170398,8.470085,-10.541603,4.100638,-2.6134691,-0.936627,8.672888,5.575502,16.33133,-30.528885,55.307915,11.866678,1.4832972,11.982461,-5.45099,-14.127892,45.164997,58.29779,-1.0232381,3.6885777,-5.028305
155,-0.28222137689590454,-2.5012106895446777,78.22659301757812,-0.3484080391599816,-3.467157407822444,81.87868701936763,8.207298,4.072919,14.453602,7.325345,-12.167871,-3.9552214,5.444831,-4.6796255,-11.169517,8.470419,-10.541113,4.0990458,-2.6125658,-0.9372621,8.673321,5.5753803,16.330912,-30.528894,55.303272,11.864324,1.4771242,11.98146,-5.449814,-14.125335,45.165592,58.297375,-1.0169808,3.6692214,-5.0264115
156,-0.2813551425933838,-2.5011279582977295,78.22695922851562,-0.3485110980066681,-3.4719656162103933,81.88116421919626,8.21187,4.0747013,14.452475,7.325533,-12.167933,-3.9594173,5.450029,-4.678122,-11.170707,8.471943,-10.541743,4.096625,-2.6122177,-0.9374715,8.672286,5.5759416,16.330746,-30.52809,55.300793,11.86394,1.4739453,11.980856,-5.4488134,-14.124078,45.165703,58.29709,-1.0141107,3.6582465,-5.0248866
157,-0.2820886969566345,-2.502352476119995,78.226806640625,-0.35035126472311146,-3.4747166264613973,81.88406101089814,8.214182,4.076575,14.448071,7.3266606,-12.168748,-3.9603963,5.4525523,-4.6770024,-11.175329,8.4746275,-10.543665,4.0922303,-2.6117857,-0.9368546,8.670452,5.5763764,16.330593,-30.526787,55.30033,11.865421,1.4752315,11.981218,-5.4473734,-14.122734,45.1657,58.293,-1.0155715,3.6600323,-5.0236845
158,-0.2801975607872009,-2.502528667449951,78.2262954711914,-0.3514356115840288,-3.476620281791693,81.88784463007248,8.214406,4.078429,14.440633,7.3303413,-12.171163,-3.9597769,5.4522586,-4.6769576,-11.182638,8.482707,-10.549026,4.0864406,-2.614322,-0.9375702,8.667034,5.579634,16.330168,-30.519981,55.301453,11.872489,1.4798157,11.981124,-5.4435916,-14.118905,45.16596,58.286324,-1.0226972,3.670275,-5.0222445
159,-0.2798902690410614,-2.5030517578125,78.22642517089844,-0.35258761849081366,-3.478039478455809,81.89130558337965,8.2143135,4.0798707,14.433567,7.334802,-12.174445,-3.957997,5.453579,-4.67653,-11.189745,8.485555,-10.551723,4.081245,-2.6157863,-0.93690765,8.663775,5.5820265,16.329914,-30.516382,55.30329,11.8775215,1.48516,11.982079,-5.440506,-14.116564,45.166203,58.281166,-1.0275744,3.6812506,-5.0213284
160,-0.2781524658203125,-2.50382137298584,78.22634887695312,-0.3532671264836454,-3.4798196284673475,81.89440356839116,8.2141285,4.080349,14.428825,7.338043,-12.176266,-3.9555962,5.4556594,-4.676816,-11.193959,8.486851,-10.553643,4.078874,-2.618619,-0.9372912,8.659765,5.585768,16.32952,-30.51196,55.30528,11.882628,1.4895041,11.983925,-5.436021,-14.113185,45.1665,58.27745,-1.0303049,3.6895452,-5.022246
161,-0.2772881090641022,-2.5037975311279297,78.22673034667969,-0.3519473964956105,-3.4821111280634067,81.89624608157658,8.214833,4.079289,14.428337,7.34027,-12.177412,-3.9511943,5.4581137,-4.6781163,-11.192856,8.487404,-10.555292,4.0812893,-2.6209571,-0.93694407,8.656327,5.5889153,16.329283,-30.511597,55.30748,11.886453,1.4923426,11.986636,-5.432181,-14.110627,45.166115,58.278286,-1.0267856,3.6912098,-5.0252876
162,-0.2774730324745178,-2.504263401031494,78.22550201416016,-0.34863487466468385,-3.4843782777615,81.8972615377711,8.214425,4.0769887,14.430292,7.343854,-12.178859,-3.9450533,5.4610767,-4.68036,-11.188547,8.485786,-10.555747,4.0868773,-2.62432,-0.93642926,8.652901,5.5920677,16.329134,-30.512503,55.30989,11.890436,1.49483,11.989849,-5.427517,-14.108959,45.16539,58.27935,-1.0206426,3.6908402,-5.029604
163,-0.27633729577064514,-2.50500226020813,78.22565460205078,-0.34538367358466854,-3.4868675827285855,81.89864328032577,8.215211,4.074691,14.43238,7.345308,-12.17903,-3.9399266,5.464056,-4.6826415,-11.184558,8.485135,-10.556906,4.092423,-2.6267195,-0.93611985,8.64831,5.596687,16.328993,-30.514832,55.31234,11.891229,1.4969845,11.994757,-5.420165,-14.107388,45.16388,58.28162,-1.013972,3.6899178,-5.034967
164,-0.2758380174636841,-2.5055992603302,78.22566986083984,-0.3435257537011367,-3.4893039006869335,81.90078771122893,8.216349,4.0733232,14.4329815,7.3461413,-12.17933,-3.9385939,5.4682436,-4.683791,-11.183936,8.482232,-10.556454,4.094592,-2.627596,-0.93555295,8.644413,5.601142,16.328775,-30.517506,55.313904,11.88342,1.4977938,12.001539,-5.411926,-14.105496,45.162846,58.282867,-1.0085663,3.6899185,-5.0392394
165,-0.276507705450058,-2.5055654048919678,78.22611236572266,-0.34430235358617445,-3.4918964768030487,81.90477682774817,8.218987,4.073691,14.430831,7.3433228,-12.178162,-3.9434931,5.470101,-4.6837254,-11.188827,8.486098,-10.5592375,4.0914364,-2.6289797,-0.9341883,8.642366,5.6049757,16.328636,-30.51879,55.314133,11.860206,1.4967396,12.012113,-5.403961,-14.104616,45.16231,58.28228,-1.0041691,3.692151,-5.0447936
166,-0.2745263874530792,-2.5059306621551514,78.22579956054688,-0.3460978941954525,-3.4948228489452156,81.91034141717374,8.22197,4.0748463,14.426685,7.339565,-12.176212,-3.9525414,5.473185,-4.6831975,-11.19767,8.489654,-10.561935,4.0851755,-2.630342,-0.9334258,8.636519,5.6119623,16.327702,-30.524565,55.315075,11.821202,1.494902,12.028444,-5.390368,-14.098922,45.161934,58.281654,-1.0011414,3.6972165,-5.0532966
167,-0.27278807759284973,-2.5068888664245605,78.2253646850586,-0.34766197842597507,-3.4976717843818443,81.91538448578808,8.225027,4.0766063,14.422575,7.336672,-12.1750555,-3.961929,5.476537,-4.681948,-11.206524,8.492182,-10.563768,4.0784383,-2.6323302,-0.9319576,8.635259,5.6161156,16.327017,-30.525063,55.31566,11.784794,1.4910196,12.041219,-5.382561,-14.095579,45.1626,58.28321,-1.0019437,3.701581,-5.0548124
168,-0.2740804851055145,-2.508206367492676,78.2251205444336,-0.3492653596668159,-3.50112840831141,81.91886670642086,8.228385,4.0782886,14.419524,7.3349595,-12.174123,-3.9677484,5.4805026,-4.680773,-11.212716,8.493619,-10.564903,4.0739946,-2.6340227,-0.9310702,8.633439,5.6218843,16.326134,-30.52517,55.317844,11.758026,1.4863131,12.049766,-5.375129,-14.091568,45.165176,58.28948,-1.0123887,3.7061412,-5.0461793
169,-0.2713831663131714,-2.5086252689361572,78.2252426147461,-0.34910665160140086,-3.505028037931582,81.9199062785741,8.232408,4.07964,14.418233,7.3359804,-12.174647,-3.9685426,5.4842663,-4.67987,-11.21483,8.495253,-10.566011,4.072718,-2.6337707,-0.9305298,8.633703,5.6277103,16.325596,-30.525192,55.321217,11.745457,1.4790107,12.051808,-5.365103,-14.089116,45.16719,58.29427,-1.0420486,3.7116199,-5.0189066
170,-0.2689153552055359,-2.5104737281799316,78.225341796875,-0.3497084465076845,-3.5095304904174203,81.91955090127973,8.235897,4.081597,14.41762,7.33994,-12.176453,-3.9666018,5.4911637,-4.6782637,-11.214985,8.49064,-10.563942,4.0730877,-2.6321788,-0.93027353,8.635134,5.633271,16.325258,-30.525545,55.326397,11.740641,1.4697329,12.050008,-5.35449,-14.087462,45.169037,58.30088,-1.0855583,3.7177043,-4.9787526
171,-0.2698317766189575,-2.5109987258911133,78.22477722167969,-0.34986326688582925,-3.5142155529468337,81.91875105747516,8.239437,4.0834627,14.417152,7.345338,-12.179253,-3.9633963,5.4962306,-4.676942,-11.21421,8.489912,-10.56361,4.0743275,-2.6299152,-0.93014437,8.636165,5.6396604,16.324938,-30.52607,55.331352,11.738199,1.4612768,12.045845,-5.3429384,-14.085795,45.1711,58.30808,-1.1266395,3.7233024,-4.938159
172,-0.27031049132347107,-2.5115036964416504,78.22401428222656,-0.34960107070700375,-3.5182301317552116,81.91841212945492,8.241505,4.0845666,14.416266,7.350389,-12.181241,-3.9603677,5.499879,-4.676257,-11.213789,8.49065,-10.563783,4.0757093,-2.626932,-0.9300699,8.639278,5.6439614,16.32476,-30.526333,55.332928,11.732887,1.4570926,12.04157,-5.333805,-14.084838,45.17255,58.314224,-1.1471266,3.726855,-4.9126186
173,-0.26648852229118347,-2.5127387046813965,78.2241439819336,-0.3493151217096931,-3.5233840157412843,81.9186884009531,8.245006,4.0854096,14.4142,7.354488,-12.182919,-3.9576218,5.503631,-4.675583,-11.214044,8.4944935,-10.565403,4.0775204,-2.6260567,-0.92997736,8.638561,5.651322,16.324272,-30.526665,55.33266,11.71761,1.458381,12.036408,-5.3211374,-14.081592,45.176086,58.31889,-1.1409451,3.7294798,-4.9019356
174,-0.265613317489624,-2.5142972469329834,78.22372436523438,-0.3491641952963238,-3.527252054670754,81.91935145589915,8.247443,4.084894,14.411562,7.356682,-12.183273,-3.954237,5.5088944,-4.6748004,-11.214646,8.491568,-10.562902,4.079993,-2.62465,-0.9297399,8.639907,5.656155,16.32412,-30.526545,55.329514,11.699114,1.46334,12.031133,-5.3122153,-14.080545,45.17792,58.32383,-1.115529,3.7304149,-4.9039516
175,-0.26534485816955566,-2.5158309936523438,78.2240982055664,-0.3488240858578687,-3.5322407231757698,81.92004275664551,8.24947,4.0854025,14.409004,7.3624005,-12.185755,-3.951201,5.5153737,-4.6736503,-11.215252,8.489287,-10.561362,4.0822,-2.624252,-0.92913234,8.637723,5.6661506,16.323915,-30.526903,55.324135,11.682064,1.4712721,12.023294,-5.298688,-14.077971,45.18534,58.328323,-1.0827166,3.7300835,-4.9108844
176,-0.2668130099773407,-2.5151877403259277,78.2247543334961,-0.3476755429057443,-3.536249130290162,81.91978825238165,8.251993,4.0853095,14.408702,7.364269,-12.185928,-3.9488988,5.5197124,-4.6734486,-11.214482,8.488128,-10.560793,4.0832915,-2.624911,-0.9303447,8.636465,5.674901,16.3238,-30.525398,55.323124,11.6775875,1.4744556,12.014776,-5.2899313,-14.0740185,45.19382,58.33578,-1.0680968,3.7275765,-4.9104643
177,-0.2654283344745636,-2.517024278640747,78.22447204589844,-0.34665702846427615,-3.5399236452114544,81.91910083286626,8.253988,4.085645,14.411273,7.366847,-12.187399,-3.94653,5.520005,-4.6745687,-11.212331,8.4937935,-10.565041,4.082591,-2.6225824,-0.9313753,8.63955,5.6790376,16.323763,-30.524694,55.325886,11.6898,1.4734676,12.002786,-5.282906,-14.072816,45.19538,58.34046,-1.0811106,3.7209127,-4.8991513
178,-0.2633696496486664,-2.519174337387085,78.2243881225586,-0.3454144806166901,-3.543924529544814,81.91726891398,8.257329,4.085433,14.416722,7.3666487,-12.187672,-3.9441464,5.521565,-4.676343,-11.208604,8.496666,-10.5686865,4.0807424,-2.6196816,-0.93496543,8.636762,5.6878166,16.323702,-30.520824,55.332626,11.719019,1.4703163,11.984222,-5.2699594,-14.070486,45.197033,58.347523,-1.1139122,3.7085326,-4.881405
179,-0.2628719210624695,-2.520312547683716,78.2250747680664,-0.34352883656142985,-3.54708831017957,81.91529499909801,8.259381,4.085756,14.421829,7.368096,-12.1887245,-3.94366,5.5227213,-4.6776547,-11.2049265,8.497971,-10.571398,4.0788,-2.6175308,-0.9378134,8.637174,5.6941686,16.323664,-30.517855,55.339962,11.748815,1.4647607,11.969109,-5.259993,-14.068517,45.196686,58.351265,-1.1478152,3.698722,-4.862111
180,-0.26314789056777954,-2.521225929260254,78.22453308105469,-0.34330122543853353,-3.549112230274712,81.91359991718159,8.260483,4.0869823,14.42473,7.3682456,-12.187881,-3.947013,5.523171,-4.677266,-11.201973,8.498614,-10.572956,4.077721,-2.6176338,-0.9398506,8.637158,5.701277,16.323685,-30.515955,55.34639,11.771444,1.4574318,11.961198,-5.2521324,-14.066867,45.195618,58.35395,-1.1701417,3.6955235,-4.8444395
181,-0.26167190074920654,-2.521656036376953,78.22454833984375,-0.3435254721507839,-3.5490581237427734,81.9118382082053,8.262641,4.0882025,14.424662,7.3620267,-12.182201,-3.9576974,5.5223694,-4.6748686,-11.199846,8.49673,-10.571589,4.0783772,-2.621505,-0.9406692,8.6359415,5.7093277,16.323715,-30.51505,55.353275,11.785698,1.4451773,11.963242,-5.2452316,-14.066022,45.19365,58.353767,-1.1792192,3.699894,-4.8260145
182,-0.2631567418575287,-2.522413492202759,78.22322082519531,-0.3452169818711405,-3.54748905766351,81.90979615827028,8.264968,4.0899844,14.422806,7.352194,-12.173742,-3.973741,5.5202956,-4.670698,-11.197945,8.493417,-10.568577,4.079906,-2.6275344,-0.9414606,8.629499,5.7248745,16.323875,-30.51436,55.360645,11.799483,1.425998,11.974016,-5.2345896,-14.064201,45.18777,58.348255,-1.1848328,3.7126968,-4.801968
183,-0.25971123576164246,-2.523052215576172,78.22250366210938,-0.3463433685771507,-3.5458010671484255,81.9078532547627,8.266794,4.0918856,14.420661,7.3437414,-12.166075,-3.9886851,5.5207095,-4.6660104,-11.196424,8.484525,-10.562212,4.0813837,-2.633188,-0.9420776,8.624792,5.7380977,16.324446,-30.515463,55.367012,11.808514,1.4090997,11.985885,-5.2268267,-14.061081,45.180134,58.345104,-1.1851918,3.7264392,-4.782581
184,-0.25961223244667053,-2.524991989135742,78.22268676757812,-0.34752759774983616,-3.545970637014012,81.90591812910341,8.267645,4.0937557,14.420091,7.3414,-12.162614,-3.9961538,5.518456,-4.6635394,-11.193968,8.486726,-10.562371,4.0818,-2.6360435,-0.9430973,8.621848,5.748797,16.325157,-30.517632,55.373234,11.81501,1.3969108,11.993003,-5.2194004,-14.058068,45.171787,58.34393,-1.1841263,3.7373526,-4.769763
185,-0.26056912541389465,-2.5257370471954346,78.22311401367188,-0.3470123011465216,-3.548387992029373,81.90338538516774,8.269188,4.094922,14.422644,7.3437986,-12.16345,-3.9920366,5.5191693,-4.6626506,-11.190005,8.488418,-10.562791,4.0804205,-2.6338964,-0.9451082,8.620904,5.756363,16.32649,-30.521177,55.379425,11.817651,1.3902597,11.994131,-5.2114687,-14.053442,45.161404,58.344524,-1.1823592,3.7456725,-4.7668624
186,-0.2571786642074585,-2.526198148727417,78.22349548339844,-0.3455775532425973,-3.5522942530229287,81.90054943327459,8.26913,4.096448,14.426633,7.353113,-12.168618,-3.9805896,5.519255,-4.6631765,-11.184931,8.495317,-10.56609,4.077933,-2.6300452,-0.94771326,8.621609,5.761022,16.327753,-30.524588,55.386623,11.816148,1.3869053,11.991973,-5.204688,-14.049377,45.15238,58.346825,-1.1761152,3.7529933,-4.771518
187,-0.25901615619659424,-2.5279340744018555,78.2244644165039,-0.3447099283197206,-3.5564378369178162,81.89844330220834,8.268814,4.0978627,14.430468,7.36392,-12.175285,-3.967803,5.523567,-4.663191,-11.181085,8.49469,-10.565925,4.07539,-2.6288455,-0.950251,8.623038,5.7664237,16.32888,-30.525856,55.392437,11.814757,1.386053,11.987686,-5.1982036,-14.045842,45.145786,58.347073,-1.1663901,3.7586005,-4.7778673
188,-0.25716158747673035,-2.5282232761383057,78.22521209716797,-0.344368360230646,-3.5589813419429848,81.89781451249553,8.26861,4.09911,14.432693,7.3694177,-12.17837,-3.9596999,5.523153,-4.663341,-11.179425,8.499971,-10.568325,4.0740056,-2.6315205,-0.95212525,8.6247635,5.7716174,16.329487,-30.52564,55.397053,11.816862,1.3868958,11.982267,-5.1945214,-14.043722,45.142467,58.34639,-1.1526695,3.760076,-4.779826
189,-0.2559156119823456,-2.529287815093994,78.2259521484375,-0.344284910841153,-3.5596069908437102,81.89917848812574,8.268056,4.0992546,14.43263,7.3703227,-12.179003,-3.9581428,5.522476,-4.663531,-11.181283,8.501983,-10.569027,4.0741577,-2.637041,-0.9545878,8.624626,5.778524,16.329739,-30.524864,55.400482,11.825666,1.3901849,11.975249,-5.191054,-14.042675,45.13896,58.343826,-1.1343282,3.7565107,-4.774085
190,-0.25551143288612366,-2.5301640033721924,78.22615814208984,-0.34520616802971954,-3.5588448814879605,81.90301378261701,8.265607,4.099694,14.430314,7.370179,-12.178379,-3.9599326,5.5239177,-4.662747,-11.1866865,8.497087,-10.566266,4.075225,-2.6443071,-0.957641,8.6219,5.7899446,16.330128,-30.521942,55.40026,11.842757,1.3972976,11.965406,-5.1864314,-14.041115,45.13125,58.340187,-1.1127537,3.7478628,-4.7611694
191,-0.25655239820480347,-2.5319859981536865,78.22600555419922,-0.3467447273258457,-3.557652579199501,81.90662077547749,8.263229,4.1000786,14.427964,7.3681216,-12.176651,-3.9631128,5.522938,-4.662181,-11.192131,8.495799,-10.565219,4.0767164,-2.651612,-0.9605685,8.62085,5.7995,16.330723,-30.517994,55.3989,11.860873,1.404655,11.954361,-5.183628,-14.039141,45.12196,58.337257,-1.0951567,3.7393303,-4.7504473
192,-0.2558867633342743,-2.5323753356933594,78.22569274902344,-0.34664890657648995,-3.5562260108159935,81.90805042639147,8.262114,4.100455,14.427463,7.3650985,-12.17496,-3.9656985,5.521285,-4.6614447,-11.195113,8.494569,-10.56353,4.0782933,-2.657846,-0.96296483,8.620877,5.804674,16.330997,-30.516827,55.39968,11.873901,1.4096991,11.943906,-5.181854,-14.038263,45.118645,58.33624,-1.0832005,3.7355485,-4.749563
193,-0.254197359085083,-2.5329439640045166,78.22499084472656,-0.3469190268575608,-3.5542460567899776,81.90732086327306,8.260311,4.1011543,14.428738,7.362057,-12.173105,-3.9682004,5.5198345,-4.6603475,-11.195796,8.490174,-10.559623,4.079985,-2.6598945,-0.9655193,8.619605,5.8093686,16.33146,-30.515951,55.397797,11.89117,1.4147642,11.92878,-5.1789894,-14.037129,45.115532,58.339237,-1.078719,3.736082,-4.76156
194,-0.25200220942497253,-2.5333805084228516,78.22410583496094,-0.3467001407267355,-3.5515478861092955,81.90482162368352,8.257826,4.1027246,14.431489,7.3595643,-12.171685,-3.9714363,5.5179887,-4.658382,-11.194761,8.48433,-10.5546,4.0818286,-2.6590734,-0.9670705,8.6175785,5.8134675,16.332378,-30.516615,55.393105,11.910062,1.4206123,11.910292,-5.1757417,-14.035463,45.114815,58.346725,-1.0803329,3.739493,-4.785462
195,-0.25292694568634033,-2.534221887588501,78.2242660522461,-0.34723891261545836,-3.54964808881184,81.90190144246424,8.255197,4.104047,14.434008,7.3589745,-12.171226,-3.9735408,5.5152183,-4.6571627,-11.193109,8.481768,-10.551162,4.083903,-2.6602952,-0.970512,8.617107,5.8142715,16.332748,-30.51796,55.393253,11.920645,1.422626,11.898464,-5.1753154,-14.034953,45.115776,58.352734,-1.0845119,3.745817,-4.804369
196,-0.25306445360183716,-2.5362496376037598,78.22431945800781,-0.3460713974706321,-3.5469968274346715,81.89881629842253,8.252365,4.1045594,14.43599,7.3580046,-12.1696825,-3.9727209,5.5112753,-4.6566205,-11.190971,8.480644,-10.548458,4.0858464,-2.6596541,-0.97181666,8.614158,5.8157573,16.334166,-30.522236,55.391224,11.924916,1.4231826,11.888332,-5.173133,-14.032981,45.1197,58.3577,-1.0875342,3.7589576,-4.825018
197,-0.2480347901582718,-2.536226987838745,78.22423553466797,-0.3447146128472325,-3.5452845571347984,81.89664738345324,8.248905,4.1039824,14.435576,7.3615108,-12.169749,-3.9664323,5.5063295,-4.657734,-11.188992,8.484567,-10.548304,4.088204,-2.6626697,-0.97540665,8.611571,5.817408,16.335564,-30.527222,55.392433,11.912154,1.41711,11.892286,-5.174875,-14.031273,45.122128,58.359455,-1.0945078,3.7816517,-4.827622
198,-0.25164538621902466,-2.537809133529663,78.22523498535156,-0.34361895411256776,-3.544310427297041,81.89436454600276,8.24532,4.1026382,14.433982,7.367553,-12.170441,-3.9563737,5.504541,-4.6590447,-11.186824,8.483879,-10.5459,4.0908275,-2.6656744,-0.97953594,8.6100025,5.8179364,16.336756,-30.530945,55.39422,11.893387,1.4077986,11.901883,-5.177286,-14.030031,45.123043,58.359264,-1.1053971,3.8093832,-4.8226247
199,-0.2517566382884979,-2.5383687019348145,78.22591400146484,-0.342829146109168,-3.5431994637944366,81.89247015010261,8.240967,4.1020417,14.432258,7.3747196,-12.171696,-3.9470239,5.5039144,-4.6595755,-11.185207,8.480828,-10.542424,4.092793,-2.6659079,-0.9838123,8.606014,5.81666,16.341154,-30.546957,55.399204,11.860791,1.3964226,11.91867,-5.1805263,-14.025953,45.122303,58.359566,-1.1154939,3.8406959,-4.8160267
200,-0.25184130668640137,-2.538884401321411,78.22561645507812,-0.34234291047173077,-3.543067179079845,81.89013470401417,8.240018,4.1020594,14.432788,7.3771334,-12.171864,-3.9429343,5.502589,-4.6595964,-11.183569,8.481527,-10.541696,4.0934544,-2.6663134,-0.9871688,8.605048,5.8150725,16.343664,-30.552357,55.402916,11.844597,1.3899467,11.930699,-5.1833014,-14.023857,45.121574,58.35999,-1.1213707,3.8545918,-4.8143625
201,-0.2528204917907715,-2.539562940597534,78.22579956054688,-0.34229646487662674,-3.5437361620188654,81.8875605168572,8.2420225,4.1032667,14.436624,7.3755784,-12.172331,-3.945687,5.500811,-4.6586847,-11.182232,8.485709,-10.5439625,4.092539,-2.6643536,-0.9895363,8.605242,5.811337,16.34604,-30.556885,55.408268,11.838074,1.3885825,11.941034,-5.18595,-14.022002,45.121967,58.363483,-1.1191504,3.8481061,-4.8206253
202,-0.2525762915611267,-2.5399537086486816,78.22575378417969,-0.3438477270055273,-3.5449749450197348,81.88545919807774,8.244673,4.1055574,14.441724,7.3723216,-12.172686,-3.9527426,5.5018106,-4.6564717,-11.181995,8.486097,-10.545426,4.090451,-2.6633584,-0.99025035,8.604891,5.809005,16.347006,-30.55755,55.412983,11.839521,1.3906963,11.949861,-5.188128,-14.021452,45.122528,58.36608,-1.1150793,3.8333223,-4.8290725
203,-0.25245222449302673,-2.539255380630493,78.22573852539062,-0.3462945056312247,-3.546827237924669,81.88249310200806,8.249669,4.108336,14.448033,7.3664637,-12.172335,-3.9624658,5.5029674,-4.653521,-11.1811,8.486489,-10.546757,4.0872793,-2.6603067,-0.990786,8.605847,5.8043723,16.347528,-30.55777,55.41959,11.842492,1.3939711,11.959796,-5.1906924,-14.021163,45.123672,58.371326,-1.106232,3.8081756,-4.840606
204,-0.2507430613040924,-2.5389468669891357,78.22576141357422,-0.3483807795563544,-3.548361468176495,81.87893587812583,8.254711,4.1113896,14.453205,7.3610415,-12.171092,-3.973066,5.505805,-4.6496706,-11.17983,8.483329,-10.546054,4.083197,-2.6568015,-0.9905125,8.605764,5.799639,16.348007,-30.55735,55.425533,11.843059,1.3977255,11.966664,-5.1938453,-14.020919,45.12506,58.375847,-1.0967144,3.78796,-4.850717
205,-0.250947505235672,-2.539687156677246,78.22479248046875,-0.3519318181717631,-3.5500319619744025,81.8745025781633,8.261331,4.115887,14.45675,7.3552766,-12.168688,-3.986834,5.5056534,-4.644278,-11.177941,8.486206,-10.547538,4.076692,-2.6526878,-0.9882229,8.605683,5.7940874,16.34883,-30.55475,55.43111,11.8403225,1.4030011,11.968449,-5.1977153,-14.02043,45.127594,58.38002,-1.084482,3.771066,-4.860682
206,-0.2509543299674988,-2.5398826599121094,78.22457122802734,-0.35725670936128506,-3.5511903674078233,81.86976921405004,8.26876,4.1207395,14.459105,7.3468113,-12.163811,-4.003621,5.5042768,-4.6380386,-11.176155,8.49061,-10.549694,4.068347,-2.6490788,-0.98460066,8.603261,5.7920504,16.349548,-30.549185,55.433735,11.837458,1.4100844,11.96644,-5.200857,-14.019946,45.13007,58.38078,-1.0722506,3.7593086,-4.8691883
207,-0.2521175742149353,-2.5388123989105225,78.22473907470703,-0.3604739647560135,-3.5520745789284844,81.86469603078822,8.275557,4.1248426,14.46181,7.3403177,-12.160234,-4.0185275,5.50665,-4.631895,-11.173573,8.486643,-10.547531,4.060914,-2.645919,-0.98081064,8.600383,5.7915077,16.349957,-30.542032,55.433323,11.834191,1.4167961,11.964324,-5.204655,-14.019631,45.13199,58.381905,-1.060983,3.7493434,-4.8761344
208,-0.25019821524620056,-2.5381107330322266,78.22478485107422,-0.3630518333056761,-3.5529706544498962,81.86025617821058,8.281234,4.1268077,14.465491,7.333911,-12.157351,-4.026705,5.507473,-4.6285076,-11.169335,8.485145,-10.547163,4.057223,-2.6490042,-0.97915626,8.5989685,5.7952304,16.350355,-30.52676,55.426067,11.832485,1.4198664,11.965952,-5.2115045,-14.019179,45.13628,58.38203,-1.0542079,3.7435188,-4.878953
209,-0.2512415647506714,-2.5370140075683594,78.22378540039062,-0.36137265133526114,-3.5529089573169275,81.85612571232569,8.282629,4.12549,14.471857,7.333443,-12.159084,-4.023945,5.5047307,-4.630088,-11.161461,8.488857,-10.55083,4.0591664,-2.6485643,-0.98077124,8.59378,5.795794,16.350334,-30.52187,55.420673,11.822813,1.4175354,11.977796,-5.2149,-14.01919,45.135735,58.381927,-1.0519944,3.7431211,-4.878271
210,-0.25243616104125977,-2.5369341373443604,78.22329711914062,-0.3569670615326406,-3.5521749464978365,81.85180840992615,8.28176,4.121477,14.480215,7.335225,-12.162907,-4.013802,5.501681,-4.634897,-11.150751,8.490938,-10.554308,4.064924,-2.6490757,-0.9842718,8.588501,5.7974243,16.350159,-30.51618,55.41128,11.810247,1.4114636,11.995682,-5.2186937,-14.019334,45.13321,58.380157,-1.053648,3.746917,-4.873712
211,-0.2530026435852051,-2.537123918533325,78.2230453491211,-0.35297632331476614,-3.5517076299951773,81.84845433821754,8.28096,4.1174006,14.487287,7.337123,-12.1668215,-4.003023,5.5026507,-4.6390557,-11.141385,8.485704,-10.553966,4.0715594,-2.648939,-0.9878916,8.582448,5.796914,16.350044,-30.513226,55.402424,11.798191,1.4062177,12.010458,-5.2219067,-14.019463,45.131073,58.379856,-1.0556269,3.7515996,-4.8687806
212,-0.25273874402046204,-2.536930799484253,78.22344970703125,-0.3517008857237892,-3.5517843221264522,81.84518408399873,8.281561,4.115076,14.491926,7.3368163,-12.1685915,-3.998267,5.499608,-4.6418567,-11.134561,8.489829,-10.557142,4.07632,-2.649871,-0.9891859,8.581361,5.797261,16.349558,-30.50547,55.38862,11.790047,1.4048606,12.0197,-5.2284255,-14.020142,45.12456,58.37834,-1.06159,3.756245,-4.860812
213,-0.2525940239429474,-2.537386417388916,78.22339630126953,-0.35224819010860364,-3.5520995371180675,81.84316224192402,8.2835865,4.11587,14.490867,7.3336463,-12.16705,-4.0038404,5.501227,-4.640368,-11.133838,8.485631,-10.554144,4.07932,-2.6497502,-0.9878641,8.579324,5.794038,16.349165,-30.502502,55.378773,11.785273,1.4084569,12.016003,-5.230813,-14.020503,45.121807,58.376167,-1.0629792,3.7585967,-4.85555
214,-0.2527907192707062,-2.5369362831115723,78.22301483154297,-0.35603258863804715,-3.553503979293529,81.841947169579,8.287685,4.118817,14.486514,7.3281703,-12.163408,-4.0154395,5.503591,-4.6364794,-11.136584,8.482164,-10.550521,4.081739,-2.650761,-0.9825837,8.583852,5.788653,16.348392,-30.49473,55.360023,11.785267,1.4211522,12.000925,-5.2395377,-14.021465,45.113686,58.375076,-1.0690353,3.7629142,-4.8452907
215,-0.25155335664749146,-2.537015914916992,78.22321319580078,-0.3591331807829734,-3.555163896835485,81.84114313661827,8.291561,4.12181,14.481588,7.3239646,-12.160408,-4.026565,5.508248,-4.632154,-11.140417,8.474771,-10.544247,4.0823984,-2.6508145,-0.9782157,8.587022,5.782099,16.347662,-30.490625,55.345634,11.784947,1.4328172,11.985786,-5.245347,-14.022301,45.10889,58.37423,-1.073343,3.7649102,-4.8381476
216,-0.25257977843284607,-2.538084030151367,78.22313690185547,-0.36114194431587493,-3.5572132986702343,81.84063116488456,8.294739,4.123302,14.479087,7.3219895,-12.159221,-4.030906,5.510121,-4.6301374,-11.14248,8.474562,-10.541827,4.080207,-2.6496942,-0.97579694,8.588441,5.7767115,16.347153,-30.489546,55.33388,11.782437,1.4421767,11.976791,-5.248856,-14.022876,45.107597,58.374435,-1.076276,3.7637594,-4.8350163
217,-0.25366508960723877,-2.5378994941711426,78.22444152832031,-0.36101571483325484,-3.560989759822592,81.83989863473343,8.2960415,4.124001,14.480554,7.32853,-12.163567,-4.024911,5.5105605,-4.630679,-11.141674,8.481824,-10.543302,4.072236,-2.6462328,-0.9745716,8.593041,5.768475,16.346474,-30.490366,55.322388,11.777927,1.4530818,11.973171,-5.2539945,-14.023666,45.108273,58.378,-1.0808268,3.756757,-4.837578
218,-0.2529255151748657,-2.538540840148926,78.22587585449219,-0.3595874002333599,-3.5653174239752556,81.83913694617699,8.297028,4.12333,14.484532,7.337385,-12.169865,-4.0124354,5.505958,-4.63372,-11.1391325,8.501241,-10.550745,4.059994,-2.641102,-0.974639,8.597447,5.7585425,16.345472,-30.494915,55.314617,11.770885,1.462761,11.974118,-5.257549,-14.02473,45.11286,58.38179,-1.0839312,3.74605,-4.8446326
219,-0.2508002519607544,-2.5376312732696533,78.22635650634766,-0.35804932784786014,-3.5695450096117654,81.83929715321979,8.297335,4.122238,14.487969,7.3476386,-12.177074,-3.9987864,5.50638,-4.636315,-11.137319,8.510214,-10.553151,4.048835,-2.6364112,-0.97516537,8.600331,5.75007,16.343657,-30.500895,55.308083,11.764465,1.4711416,11.976913,-5.259315,-14.026497,45.11915,58.385437,-1.0867084,3.735386,-4.8516583
220,-0.2535048723220825,-2.5396015644073486,78.22576141357422,-0.35608769458300543,-3.5732311888201136,81.84074988265891,8.297961,4.1204963,14.488166,7.3547993,-12.181967,-3.9891462,5.5060544,-4.639375,-11.137109,8.520732,-10.5581455,4.0443325,-2.6332455,-0.9769816,8.603231,5.7416053,16.34288,-30.504778,55.302883,11.759002,1.4771233,11.97913,-5.260854,-14.027139,45.123405,58.387993,-1.0870388,3.7271516,-4.85536
221,-0.2530916929244995,-2.5382649898529053,78.2248764038086,-0.35451676110437325,-3.5758579779996986,81.84451181357603,8.299236,4.1173773,14.48333,7.357364,-12.183757,-3.984318,5.5105824,-4.642497,-11.139678,8.520262,-10.560018,4.050747,-2.6331291,-0.97989976,8.605189,5.735702,16.341934,-30.50697,55.297333,11.757965,1.4797282,11.980294,-5.2623715,-14.027785,45.126232,58.388554,-1.0866458,3.7239196,-4.852034
222,-0.2540243864059448,-2.5394370555877686,78.22417449951172,-0.3529150890033669,-3.5780675802187654,81.84978277339196,8.301551,4.1130357,14.4754305,7.3562484,-12.1834345,-3.981715,5.518965,-4.645347,-11.14409,8.511536,-10.559339,4.064184,-2.6351008,-0.98344314,8.607105,5.731981,16.340809,-30.506788,55.291122,11.760402,1.4798194,11.981361,-5.2627335,-14.028384,45.127094,58.386475,-1.0866232,3.7233768,-4.8444414
223,-0.2568279504776001,-2.5399630069732666,78.22364044189453,-0.35170944741147603,-3.5804232780474865,81.85588999729076,8.303799,4.1091413,14.466437,7.355016,-12.182869,-3.981438,5.527816,-4.648073,-11.149464,8.502499,-10.55881,4.078022,-2.6389048,-0.9863168,8.610452,5.726798,16.336569,-30.502598,55.287735,11.76567,1.4783391,11.982327,-5.2632284,-14.030308,45.127174,58.382854,-1.0871823,3.7238002,-4.835408
224,-0.2570574879646301,-2.5394623279571533,78.22350311279297,-0.35118424294765876,-3.5819564737707617,81.86134426240166,8.30544,4.1061964,14.4597645,7.3523326,-12.181214,-3.9834123,5.535031,-4.64995,-11.15426,8.493786,-10.556987,4.085568,-2.6405947,-0.9888107,8.612551,5.72356,16.335276,-30.501318,55.282078,11.766707,1.4765574,11.983424,-5.2628627,-14.030813,45.127274,58.381557,-1.0876821,3.7232506,-4.83002
225,-0.2543957829475403,-2.5385708808898926,78.22335052490234,-0.3509478688808053,-3.5831751583902527,81.8662261470286,8.30721,4.1051903,14.455762,7.346878,-12.178034,-3.990788,5.536512,-4.651069,-11.158578,8.495301,-10.558789,4.0836024,-2.641225,-0.9895403,8.615031,5.719198,16.333921,-30.50074,55.2768,11.763038,1.4748566,11.985212,-5.262449,-14.0313225,45.128227,58.382835,-1.0871994,3.720949,-4.8291025
226,-0.2546088397502899,-2.539306879043579,78.22272491455078,-0.3521140427610095,-3.5840502402250207,81.87109749708378,8.308393,4.1053104,14.452907,7.3405995,-12.174329,-4.002429,5.536764,-4.651331,-11.162985,8.49726,-10.559797,4.076156,-2.6415792,-0.9891206,8.617411,5.7137504,16.331696,-30.501198,55.272926,11.755642,1.472551,11.987864,-5.2612667,-14.032105,45.13054,58.3851,-1.0854671,3.7177596,-4.8311296
227,-0.2574803829193115,-2.5411877632141113,78.22309875488281,-0.35326306849460526,-3.5845256852447664,81.8755185056296,8.309081,4.105599,14.451018,7.334804,-12.1704,-4.0123615,5.536335,-4.651527,-11.167029,8.499924,-10.560649,4.0675,-2.641093,-0.98828787,8.618901,5.7094855,16.329178,-30.502502,55.268913,11.74889,1.4695961,11.990096,-5.260113,-14.03299,45.133263,58.38793,-1.0842353,3.7152817,-4.833756
228,-0.2588455080986023,-2.5413057804107666,78.22367858886719,-0.3536363855286246,-3.585045131739764,81.87920688223353,8.307782,4.10575,14.448986,7.3348756,-12.169356,-4.0145116,5.5352125,-4.6525717,-11.170422,8.504113,-10.561909,4.06198,-2.6409125,-0.987701,8.62039,5.7056293,16.327131,-30.504488,55.265686,11.744379,1.4651283,11.990993,-5.258144,-14.033561,45.13604,58.388355,-1.08579,3.7135694,-4.835966
229,-0.2587389647960663,-2.5422542095184326,78.22358703613281,-0.35224670258828644,-3.585199261674072,81.8818567482063,8.303203,4.10463,14.446635,7.3438897,-12.172472,-4.003423,5.5308595,-4.65595,-11.172756,8.5148735,-10.565632,4.060604,-2.6402347,-0.9882991,8.619219,5.700161,16.322212,-30.50963,55.268524,11.743511,1.4566176,11.990417,-5.255783,-14.034692,45.14107,58.38891,-1.0898758,3.7131736,-4.8374605
230,-0.25902554392814636,-2.541905403137207,78.22431945800781,-0.3507921716973011,-3.585598417462297,81.8838078402742,8.297928,4.10305,14.444359,7.3562484,-12.17674,-3.9836488,5.5318265,-4.658887,-11.175059,8.514752,-10.56304,4.0609674,-2.6398747,-0.9895363,8.619443,5.699193,16.32007,-30.512503,55.26514,11.748327,1.4462895,11.987226,-5.2540374,-14.035036,45.143063,58.38791,-1.1007255,3.7137005,-4.836901
231,-0.26072973012924194,-2.5411343574523926,78.22430419921875,-0.34942593331764055,-3.585953091582694,81.8851026181937,8.292408,4.1018705,14.442933,7.369546,-12.181484,-3.9640536,5.531072,-4.661956,-11.176506,8.51785,-10.562287,4.0627418,-2.6389859,-0.99122465,8.620315,5.699152,16.31887,-30.514217,55.260895,11.753345,1.4379655,11.983483,-5.2524614,-14.035124,45.144165,58.38547,-1.111222,3.7148662,-4.8366413
232,-0.2608337104320526,-2.5412981510162354,78.22470092773438,-0.34770876216387464,-3.5855617600523537,81.88628910614565,8.288028,4.1012287,14.442532,7.377918,-12.184141,-3.9532871,5.5288143,-4.6641192,-11.177683,8.522639,-10.563802,4.0654902,-2.6371155,-0.9909074,8.61863,5.699734,16.31514,-30.5191,55.260006,11.754394,1.4349685,11.982445,-5.2483397,-14.035294,45.14604,58.382748,-1.1191367,3.7181602,-4.8404794
233,-0.26131901144981384,-2.540858745574951,78.22496032714844,-0.3486969076457607,-3.585481223477056,81.88663995880036,8.288375,4.101574,14.444748,7.3759184,-12.182413,-3.95552,5.532447,-4.663328,-11.178132,8.514637,-10.560933,4.0696054,-2.633768,-0.98996043,8.6182785,5.7000904,16.312147,-30.520811,55.25924,11.750968,1.4414045,11.982502,-5.24399,-14.035232,45.145588,58.3776,-1.1225508,3.723925,-4.848067
234,-0.2626103162765503,-2.541081190109253,78.22468566894531,-0.3494206235029889,-3.5853920609417216,81.88635697225084,8.29101,4.102275,14.448688,7.368927,-12.178618,-3.9654214,5.535871,-4.6617684,-11.177716,8.507325,-10.560085,4.075219,-2.6292324,-0.9888954,8.618042,5.7011085,16.309484,-30.521822,55.25861,11.74489,1.4545605,11.983519,-5.2386866,-14.035167,45.143936,58.371178,-1.1242537,3.7326076,-4.8591437
235,-0.26438453793525696,-2.5418310165405273,78.22305297851562,-0.35084623099659035,-3.5851326859120425,81.88578042445778,8.295351,4.1028733,14.452823,7.3577065,-12.172972,-3.9778705,5.5391,-4.6597824,-11.177185,8.499135,-10.558685,4.0812297,-2.624716,-0.9876169,8.618216,5.7028675,16.306515,-30.522223,55.25847,11.739441,1.468908,11.985136,-5.233826,-14.035076,45.14166,58.364517,-1.1250055,3.7397017,-4.869369
236,-0.26293787360191345,-2.541783094406128,78.22320556640625,-0.3520069784991648,-3.584429870927968,81.88526891326042,8.297689,4.10325,14.4550705,7.349656,-12.1686535,-3.98778,5.538178,-4.6587358,-11.176929,8.498519,-10.55977,4.086578,-2.621407,-0.9857287,8.619004,5.704545,16.302435,-30.522875,55.260338,11.73798,1.4792674,11.98721,-5.2299943,-14.034829,45.139988,58.35859,-1.1252671,3.7413397,-4.8748946
237,-0.2653333246707916,-2.542053461074829,78.22280883789062,-0.3529839335742898,-3.582895181989752,81.88498764559169,8.298073,4.103859,14.454531,7.344716,-12.166008,-3.995555,5.5381074,-4.657149,-11.178328,8.492908,-10.555815,4.0915074,-2.6204236,-0.9846586,8.620667,5.7072763,16.299986,-30.52314,55.262253,11.739995,1.4840348,11.9894,-5.2291765,-14.034635,45.14122,58.354675,-1.1226602,3.7332716,-4.8746324
238,-0.2648744583129883,-2.541139602661133,78.22261047363281,-0.3543403802031458,-3.5808289236285735,81.88473790488155,8.298271,4.104734,14.4521265,7.3397346,-12.163655,-4.0033493,5.5393515,-4.654612,-11.180797,8.482303,-10.547679,4.096351,-2.621466,-0.9831321,8.623024,5.7117624,16.297493,-30.522816,55.26379,11.744066,1.4865174,11.992383,-5.2300167,-14.034368,45.1447,58.35155,-1.1177908,3.7188191,-4.870849
239,-0.2659602761268616,-2.5423851013183594,78.22193145751953,-0.3557214086875982,-3.57916935817799,81.88440581206414,8.298332,4.10491,14.449617,7.3351583,-12.161123,-4.0086765,5.5390615,-4.653077,-11.182607,8.475907,-10.54166,4.100323,-2.6233315,-0.9821213,8.626082,5.71729,16.295902,-30.522423,55.266254,11.750801,1.4869622,11.994919,-5.2312026,-14.034114,45.14831,58.348515,-1.1138014,3.7047205,-4.864638
240,-0.26613348722457886,-2.5441110134124756,78.2222900390625,-0.356242990377182,-3.578418519956377,81.88367613716414,8.298215,4.103803,14.448811,7.332845,-12.159851,-4.009049,5.535014,-4.6538525,-11.181911,8.480075,-10.541972,4.102614,-2.6287498,-0.9805613,8.627463,5.7252707,16.290665,-30.520248,55.2723,11.760904,1.4864707,11.997597,-5.233962,-14.032949,45.15757,58.34925,-1.1111803,3.6979399,-4.8580847
