unveil-humanoid-operators/unveil-humanoid-operators.github.io/feature-analysis-animation/data/feature_matrix_instances/gender_ankle_rom_walking_A088_neutral_walk_180_R_002__A088.csv
Frame,root_translateX,root_translateY,root_translateZ,root_rotateX,root_rotateY,root_rotateZ,left_hip_pitch_joint_dof,left_hip_roll_joint_dof,left_hip_yaw_joint_dof,left_knee_joint_dof,left_ankle_pitch_joint_dof,left_ankle_roll_joint_dof,right_hip_pitch_joint_dof,right_hip_roll_joint_dof,right_hip_yaw_joint_dof,right_knee_joint_dof,right_ankle_pitch_joint_dof,right_ankle_roll_joint_dof,waist_yaw_joint_dof,waist_roll_joint_dof,waist_pitch_joint_dof,left_shoulder_pitch_joint_dof,left_shoulder_roll_joint_dof,left_shoulder_yaw_joint_dof,left_elbow_joint_dof,left_wrist_roll_joint_dof,left_wrist_pitch_joint_dof,left_wrist_yaw_joint_dof,right_shoulder_pitch_joint_dof,right_shoulder_roll_joint_dof,right_shoulder_yaw_joint_dof,right_elbow_joint_dof,right_wrist_roll_joint_dof,right_wrist_pitch_joint_dof,right_wrist_yaw_joint_dof
0,-0.023240163922309875,2.321763277053833,77.81224060058594,-0.04127967392304728,-3.113675637796108,-88.78872058352482,5.9487767,4.0677714,7.778903,8.468093,-10.824597,-4.8878994,5.8072467,-3.1862047,-5.623373,9.381156,-11.161457,3.5992718,-1.3988504,0.26582825,7.176447,-0.5078536,11.659317,-39.88792,59.90075,-1.656795,4.221892,1.9242148,-1.7354147,-8.744851,38.82616,59.58985,-3.563394,11.025602,-9.090765
1,-0.024644285440444946,2.3152475357055664,77.8134536743164,-0.037635897954098704,-3.142455252769439,-88.79908385120572,5.994686,4.061873,7.7924047,8.463527,-10.843143,-4.8873806,5.8373456,-3.189004,-5.604456,9.392521,-11.172518,3.5970206,-1.3868896,0.25092554,7.2362223,-0.5076279,11.6864195,-39.867134,59.854023,-1.6356747,4.241747,1.9177372,-1.7521346,-8.739836,38.789787,59.563667,-3.5931938,11.034732,-9.052316
2,-0.026879925280809402,2.312276601791382,77.81241607666016,-0.03319713264272347,-3.173004119701246,-88.8102383040775,6.0422416,4.0557694,7.806912,8.46063,-10.8637495,-4.8860884,5.868064,-3.192015,-5.5840454,9.40602,-11.184457,3.5940065,-1.374416,0.23875952,7.294177,-0.5165163,11.699255,-39.848778,59.827114,-1.6159014,4.2616963,1.9135944,-1.7646396,-8.7389555,38.757572,59.53514,-3.619107,11.044694,-9.012171
3,-0.026243530213832855,2.3086531162261963,77.8107681274414,-0.029512752370631754,-3.199979543011353,-88.81984433421206,6.085732,4.0501766,7.819252,8.456263,-10.881672,-4.8862686,5.8967223,-3.1948335,-5.5665483,9.416408,-11.195063,3.5925808,-1.3589623,0.22707456,7.351966,-0.526003,11.716816,-39.830574,59.794548,-1.5931548,4.278265,1.9073738,-1.7771628,-8.739293,38.715755,59.504337,-3.6504917,11.053657,-8.97546
4,-0.018386777490377426,2.300786256790161,77.80870056152344,-0.027115964941305783,-3.2168967760568505,-88.82580199278132,6.117353,4.0462346,7.826272,8.450211,-10.893717,-4.89014,5.9196515,-3.197156,-5.5563426,9.4186735,-11.202711,3.5951433,-1.345835,0.21807158,7.3919854,-0.5314466,11.734186,-39.82261,59.765594,-1.5792243,4.2855935,1.9049437,-1.7876754,-8.740602,38.68655,59.481422,-3.6689217,11.06122,-8.95824
5,-0.010819774121046066,2.294950008392334,77.80587005615234,-0.026932542307585572,-3.2195395090213905,-88.8264049135424,6.133896,4.0440416,7.825285,8.438122,-10.896271,-4.902617,5.933755,-3.1985853,-5.557145,9.410897,-11.207099,3.6050518,-1.3393304,0.21361105,7.4042463,-0.5357287,11.7462015,-39.824715,59.754543,-1.5775083,4.275554,1.9093057,-1.7960602,-8.7413645,38.67915,59.47369,-3.6666677,11.066345,-8.969347
6,-0.008119955658912659,2.285059928894043,77.80474090576172,-0.029295299606345748,-3.212305079064985,-88.82339503952866,6.1394224,4.0433307,7.8185916,8.422229,-10.891766,-4.9211864,5.9427133,-3.199161,-5.5656404,9.393928,-11.207957,3.6201656,-1.3371103,0.21372476,7.3993716,-0.5379491,11.751232,-39.83059,59.751392,-1.5802672,4.2556725,1.9186271,-1.8040898,-8.741572,38.681366,59.47659,-3.6560717,11.070301,-8.999953
7,-0.007799518760293722,2.2775423526763916,77.80261993408203,-0.03197427395890774,-3.201305755467217,-88.81875525599563,6.139269,4.0431986,7.810593,8.408572,-10.886593,-4.936406,5.9478726,-3.200045,-5.576068,9.376847,-11.208666,3.6344676,-1.3356144,0.2137871,7.387902,-0.5418727,11.756429,-39.839436,59.754017,-1.5838679,4.2333426,1.9264405,-1.8118894,-8.741453,38.6884,59.482025,-3.6407084,11.073727,-9.036511
8,-0.00899355299770832,2.26352596282959,77.80115509033203,-0.03215942998667263,-3.193354664599264,-88.81465238899618,6.137572,4.0428443,7.805427,8.405119,-10.8872795,-4.938981,5.950691,-3.201785,-5.5827293,9.368711,-11.212427,3.6420262,-1.3334366,0.21294375,7.3809743,-0.5469279,11.759428,-39.846245,59.754745,-1.5833641,4.2195196,1.9293963,-1.8198081,-8.741267,38.69491,59.482727,-3.6260269,11.078584,-9.068794
9,-0.007705174386501312,2.2549076080322266,77.79930114746094,-0.03207510189225936,-3.189308955204262,-88.81079164312548,6.1333838,4.0430846,7.804481,8.417054,-10.896515,-4.919953,5.94982,-3.204594,-5.584123,9.373571,-11.220518,3.637975,-1.3301615,0.21006891,7.381455,-0.5561691,11.763617,-39.852325,59.754528,-1.5781283,4.2181697,1.9234712,-1.8283259,-8.7407875,38.7019,59.474476,-3.606717,11.086695,-9.097381
10,-0.008479089476168156,2.255216598510742,77.79859161376953,-0.03213066242151953,-3.1856740260054353,-88.80627442059064,6.1221986,4.044499,7.8051915,8.444416,-10.913025,-4.8865514,5.9445343,-3.2078638,-5.5833716,9.386697,-11.231536,3.6264832,-1.3270332,0.20506163,7.385921,-0.5682232,11.771604,-39.857533,59.75076,-1.5724604,4.224406,1.9112132,-1.8387268,-8.739679,38.711826,59.461098,-3.5786564,11.097434,-9.12998
11,-0.0028073028661310673,2.2511115074157715,77.79684448242188,-0.030276660597347835,-3.1829526658802147,-88.8024910653092,6.113652,4.0441194,7.806762,8.46817,-10.928409,-4.8532743,5.9390597,-3.2121553,-5.5812316,9.401361,-11.242707,3.6154935,-1.3245698,0.19938014,7.3916225,-0.57720995,11.78044,-39.85745,59.742188,-1.5583255,4.232202,1.8971872,-1.8489087,-8.738183,38.71846,59.44637,-3.5659072,11.106305,-9.152583
12,0.0007318072021007538,2.2462286949157715,77.79723358154297,-0.028084828477211075,-3.180901095674882,-88.80066379187612,6.11315,4.040643,7.8079295,8.477303,-10.938659,-4.835017,5.9385724,-3.216952,-5.5788293,9.4087715,-11.250956,3.6126328,-1.3218281,0.1936651,7.396707,-0.5833761,11.78677,-39.856377,59.730247,-1.5386788,4.235859,1.8879929,-1.856425,-8.73687,38.722435,59.432316,-3.5801556,11.110085,-9.158573
13,0.009975282475352287,2.23038649559021,77.7990493774414,-0.025682899579337545,-3.181323014339208,-88.80153227843859,6.125825,4.0326376,7.8075113,8.465285,-10.942558,-4.8405447,5.9473014,-3.2222273,-5.5762577,9.403807,-11.253307,3.6227105,-1.318995,0.18758535,7.4015036,-0.58364713,11.792679,-39.855457,59.710255,-1.5069396,4.2361245,1.8842828,-1.86007,-8.735467,38.724392,59.41972,-3.642353,11.104958,-9.137629
14,0.015171016566455364,2.2212095260620117,77.80069732666016,-0.023893713438926763,-3.183230421207018,-88.8043013194727,6.1459785,4.021459,7.8062596,8.441398,-10.943143,-4.8604655,5.960228,-3.2280133,-5.5729733,9.394627,-11.253904,3.6405525,-1.3147644,0.18146758,7.405657,-0.58229196,11.795226,-39.85561,59.687702,-1.4659054,4.2349,1.8835891,-1.8600929,-8.734724,38.72499,59.406395,-3.7371664,11.093659,-9.09769
15,0.017263924703001976,2.2136588096618652,77.80020904541016,-0.019273701969549223,-3.184298354432735,-88.80781150541351,6.167803,4.0090623,7.806261,8.412056,-10.940351,-4.881872,5.974087,-3.2347105,-5.569398,9.381665,-11.25275,3.6595438,-1.3111558,0.17511842,7.40955,-0.57856894,11.798369,-39.854725,59.662514,-1.4303843,4.2303233,1.8870828,-1.860638,-8.733769,38.723347,59.39466,-3.829491,11.0829935,-9.055821
16,0.012021416798233986,2.2130842208862305,77.80001068115234,-0.015064074738134639,-3.1796920117970426,-88.81034636330351,6.175977,3.9990256,7.8087544,8.397547,-10.940865,-4.892088,5.9788513,-3.2417736,-5.566153,9.374419,-11.25473,3.6727326,-1.3080474,0.17019969,7.4094434,-0.57967424,11.800226,-39.854877,59.646202,-1.41885,4.2192645,1.8942043,-1.8639036,-8.733121,38.723682,59.38675,-3.8737607,11.080001,-9.034297
17,0.006288631819188595,2.2084100246429443,77.79722595214844,-0.010589323675145805,-3.168178699247278,-88.81047493483258,6.1733875,3.9890134,7.8151627,8.386887,-10.936347,-4.886169,5.9730134,-3.251654,-5.5644665,9.375338,-11.26212,3.6768618,-1.3127986,0.16503431,7.4084105,-0.5786876,11.803453,-39.851135,59.630432,-1.4446503,4.1942215,1.9145788,-1.8788551,-8.732202,38.72377,59.38724,-3.85465,11.090606,-9.0391445
18,0.011688127182424068,2.1993751525878906,77.79425811767578,-0.006197884098473078,-3.151239348082661,-88.80899803703467,6.1584153,3.9808612,7.823358,8.388845,-10.9341345,-4.87172,5.9618607,-3.261884,-5.564311,9.3759985,-11.270005,3.6757464,-1.3184527,0.16027611,7.399911,-0.5799711,11.805371,-39.847656,59.62362,-1.4942886,4.161414,1.9400373,-1.889001,-8.731835,38.72373,59.388466,-3.7911074,11.10911,-9.063884
19,0.020661767572164536,2.192638635635376,77.79293823242188,0.00036069849514222855,-3.132733788328417,-88.80960885274396,6.1409473,3.9728417,7.8339977,8.392918,-10.932163,-4.8534174,5.944835,-3.272721,-5.561591,9.383579,-11.280907,3.6744344,-1.3256938,0.15715724,7.3963814,-0.58361524,11.807341,-39.84405,59.616177,-1.5505108,4.127519,1.9673928,-1.9127533,-8.731473,38.729748,59.39671,-3.7162144,11.128136,-9.08871
20,0.03182224929332733,2.1768295764923096,77.7926254272461,0.0044849316650309905,-3.120566327722378,-88.81550816960885,6.1322694,3.9661694,7.847017,8.396655,-10.933763,-4.8365064,5.935548,-3.2812371,-5.5532966,9.385364,-11.287581,3.6775436,-1.3268702,0.1527807,7.396672,-0.5858467,11.80858,-39.84166,59.606606,-1.5819247,4.1130004,1.9841655,-1.928354,-8.731252,38.73381,59.399094,-3.68699,11.134472,-9.088794
21,0.03853398561477661,2.1732676029205322,77.79550170898438,0.006160020872428237,-3.119305215272698,-88.82710190637766,6.1377482,3.9613743,7.861752,8.401033,-10.94159,-4.820785,5.9372373,-3.286712,-5.5396814,9.385945,-11.292598,3.687896,-1.3213847,0.14836925,7.408103,-0.5886993,11.809966,-39.84213,59.59238,-1.5794502,4.1241655,1.9872631,-1.9414519,-8.730649,38.735985,59.39763,-3.7300634,11.1186,-9.044497
22,0.04379941523075104,2.1699719429016113,77.79828643798828,0.0070211116691997096,-3.1246410968321925,-88.8426339808804,6.151087,3.958426,7.878256,8.407482,-10.953737,-4.804138,5.9467044,-3.2899692,-5.5223584,9.382973,-11.295002,3.7024136,-1.3092502,0.14321308,7.425363,-0.5933993,11.810253,-39.84669,59.578403,-1.557082,4.152257,1.9816636,-1.9495417,-8.730301,38.73467,59.391735,-3.8172507,11.088781,-8.972313
23,0.04896876588463783,2.1573331356048584,77.7979507446289,0.008802554677198903,-3.1278031915162336,-88.86305731188686,6.1639576,3.9544492,7.898619,8.411459,-10.965129,-4.788298,5.9506764,-3.2934945,-5.4987006,9.381903,-11.297002,3.7171547,-1.2897918,0.13822845,7.4434953,-0.6005179,11.8101,-39.85477,59.564438,-1.5316867,4.1842346,1.9738888,-1.9585671,-8.729663,38.727753,59.385124,-3.9030282,11.061482,-8.904706
24,0.05298933386802673,2.1607484817504883,77.79853820800781,0.012576713955051043,-3.1197026171951867,-88.8884796888736,6.1661005,3.9478765,7.923603,8.409684,-10.970255,-4.7752695,5.93927,-3.2988253,-5.4673004,9.381231,-11.297495,3.7280545,-1.2697878,0.13284375,7.4527607,-0.60595554,11.809627,-39.858803,59.55236,-1.5182567,4.2053213,1.9695673,-1.96973,-8.729436,38.725792,59.37895,-3.9372373,11.05498,-8.877421
25,0.05097871273756027,2.160095691680908,77.79718780517578,0.02171849694390683,-3.0926316709051305,-88.92471681146674,6.151406,3.936231,7.9593105,8.396261,-10.963853,-4.765886,5.897887,-3.3079338,-5.4204035,9.387485,-11.297713,3.7334752,-1.2406619,0.12809037,7.453418,-0.61910665,11.807483,-39.86143,59.54003,-1.5258825,4.217654,1.9719656,-1.9995023,-8.728998,38.724247,59.381954,-3.8818512,11.084378,-8.911085
26,0.0584767684340477,2.155313730239868,77.7963638305664,0.03282015329040522,-3.053245466642149,-88.96744610813391,6.1245904,3.922147,8.000785,8.377588,-10.95131,-4.759083,5.839379,-3.3184848,-5.363881,9.392826,-11.294794,3.7357655,-1.2115602,0.12254328,7.4438343,-0.6286297,11.805982,-39.856785,59.526783,-1.5413148,4.2235317,1.9761329,-2.0314486,-8.729126,38.730656,59.383675,-3.7700021,11.138602,-8.987202
27,0.06799968332052231,2.1584882736206055,77.79632568359375,0.04476307693347821,-3.0137693052872927,-89.0117253075441,6.099861,3.9067502,8.043576,8.355725,-10.937858,-4.753462,5.778547,-3.330014,-5.3048816,9.40319,-11.29501,3.7368553,-1.1906986,0.11835693,7.4372177,-0.63332236,11.803015,-39.84305,59.512234,-1.5574619,4.2240763,1.980857,-2.0702744,-8.729496,38.74931,59.390835,-3.6570773,11.187841,-9.065939
28,0.07998646795749664,2.1527230739593506,77.79747009277344,0.05302473765392427,-2.9869459228008544,-89.05147715246055,6.0889745,3.8929305,8.081589,8.33802,-10.93121,-4.748009,5.737815,-3.3397975,-5.2525277,9.409802,-11.29744,3.7384462,-1.1774967,0.11483264,7.440934,-0.6303192,11.799442,-39.828346,59.498806,-1.5667245,4.2200894,1.9837914,-2.1009598,-8.730497,38.768032,59.398224,-3.6117697,11.204147,-9.106959
29,0.10513481497764587,2.1300151348114014,77.7978744506836,0.05589034455804228,-2.9804812256118947,-89.08342331391874,6.099373,3.8838913,8.110351,8.329599,-10.937164,-4.7463775,5.7276626,-3.344767,-5.211093,9.415042,-11.306596,3.7386634,-1.1630877,0.11318722,7.461734,-0.6213263,11.797572,-39.82456,59.48735,-1.5691442,4.2082973,1.9856921,-2.1119044,-8.731317,38.776287,59.398476,-3.6826277,11.165918,-9.085314
30,0.12017447501420975,2.1222965717315674,77.79933166503906,0.05487822196685683,-2.986449635445243,-89.11238254678972,6.1279798,3.8750794,8.135528,8.316017,-10.945391,-4.747577,5.7334137,-3.3488564,-5.173836,9.424405,-11.322503,3.7376416,-1.1573337,0.114404365,7.4954553,-0.60360986,11.794034,-39.816315,59.474335,-1.5669309,4.1890717,1.9882278,-2.122713,-8.733493,38.790005,59.405094,-3.8220758,11.091785,-9.0267315
31,0.1278662085533142,2.117436408996582,77.79940032958984,0.05673344132916011,-2.9929360691432727,-89.14106883915058,6.1561484,3.865019,8.161192,8.305367,-10.955406,-4.7443633,5.740451,-3.3546224,-5.1372986,9.432783,-11.337404,3.7393956,-1.1557778,0.11522777,7.5305886,-0.5842941,11.78905,-39.807674,59.463024,-1.5618095,4.1700387,1.988048,-2.1316319,-8.737262,38.801914,59.410007,-3.9589977,11.01716,-8.967267
32,0.13132652640342712,2.1179044246673584,77.79965209960938,0.06234756467970654,-2.9887180732822944,-89.17342533517788,6.169092,3.8493931,8.193235,8.299493,-10.964306,-4.7290263,5.732745,-3.3669672,-5.096363,9.438665,-11.34537,3.748046,-1.1583674,0.11365838,7.5589128,-0.56909525,11.781813,-39.798313,59.453773,-1.5559205,4.1580973,1.9832239,-2.149014,-8.743445,38.810135,59.4151,-4.020051,10.976707,-8.941871
33,0.14169935882091522,2.118912696838379,77.80071258544922,0.07655695850757827,-2.968556741764226,-89.21097360341926,6.162275,3.823413,8.235846,8.293784,-10.967047,-4.6936407,5.7002754,-3.390742,-5.0477023,9.446998,-11.346382,3.768271,-1.1617924,0.10505896,7.576561,-0.5591267,11.777341,-39.79248,59.44515,-1.5508019,4.1530786,1.9655441,-2.1798263,-8.747502,38.809475,59.425846,-3.953712,10.99141,-8.981611
34,0.15525773167610168,2.1182172298431396,77.80152130126953,0.09803261846287634,-2.939484321363808,-89.25165416624952,6.1436453,3.7903326,8.285183,8.289868,-10.9670515,-4.644174,5.655176,-3.4223661,-4.9944925,9.453526,-11.341317,3.7966573,-1.1705453,0.09487784,7.5907526,-0.5525422,11.769524,-39.782566,59.43788,-1.5421124,4.151787,1.938563,-2.2222445,-8.75465,38.804436,59.441193,-3.8093772,11.038387,-9.059459
35,0.17542560398578644,2.114302396774292,77.80337524414062,0.11850950874521082,-2.907196091274837,-89.29395207151225,6.1211176,3.7573962,8.335576,8.287037,-10.967689,-4.593941,5.6057544,-3.4542563,-4.9411654,9.460451,-11.334875,3.8254535,-1.1808059,0.08315285,7.6023393,-0.5460257,11.761821,-39.777378,59.430756,-1.5360945,4.1577406,1.9184808,-2.2638602,-8.761702,38.796715,59.45314,-3.6681306,11.087037,-9.127188
36,0.194057434797287,2.1047520637512207,77.80547332763672,0.133404032584634,-2.8781184650817098,-89.33618297704324,6.1050777,3.731804,8.381046,8.281111,-10.970631,-4.556291,5.5626235,-3.478338,-4.892473,9.46501,-11.328448,3.8467534,-1.1924541,0.07084394,7.613785,-0.5360056,11.757994,-39.77911,59.4215,-1.5369239,4.1742034,1.9207467,-2.291587,-8.76518,38.790455,59.45041,-3.612244,11.106976,-9.1357565
37,0.2096189260482788,2.0932703018188477,77.81019592285156,0.13789180187907166,-2.8554679385998436,-89.38038592042139,6.103908,3.716263,8.420629,8.265914,-10.974978,-4.539584,5.5278664,-3.4918253,-4.8487887,9.473538,-11.326345,3.8558464,-1.2052592,0.06569483,7.63204,-0.5210444,11.750167,-39.796345,59.400745,-1.5384481,4.2154393,1.9668182,-2.3146167,-8.772102,38.77784,59.435246,-3.7039802,11.078752,-9.035575
38,0.2273305058479309,2.0948634147644043,77.81484985351562,0.13588803268153296,-2.836286715630157,-89.4257679517995,6.1081843,3.7085516,8.456042,8.251145,-10.983426,-4.535429,5.49848,-3.4975471,-4.8090606,9.48218,-11.325172,3.8575306,-1.2003136,0.0647149,7.649366,-0.52103424,11.732269,-39.85084,59.397453,-1.548392,4.2729845,2.044318,-2.3071353,-8.787683,38.74106,59.385685,-3.8911695,11.023108,-8.864522
39,0.24404223263263702,2.0880727767944336,77.81816101074219,0.13384299406471284,-2.8133675675107193,-89.47042053787663,6.1090765,3.699693,8.49119,8.233269,-10.990154,-4.530691,5.4661493,-3.5038295,-4.7704244,9.487708,-11.321753,3.8595335,-1.2162979,0.059133828,7.665647,-0.50365335,11.724273,-39.872295,59.37669,-1.5632187,4.32544,2.1134562,-2.315101,-8.794555,38.730774,59.35365,-4.06572,10.965579,-8.7045145
40,0.25962895154953003,2.080378532409668,77.81912994384766,0.13639606096262932,-2.779567169151908,-89.51341982135638,6.0945845,3.6824586,8.530436,8.216436,-10.993791,-4.512379,5.421292,-3.5177672,-4.7292523,9.490329,-11.315301,3.8694286,-1.1975889,0.056275573,7.675362,-0.51361406,11.70615,-39.906666,59.385418,-1.6103556,4.347126,2.1472046,-2.308197,-8.811031,38.691162,59.3202,-4.1472616,10.934343,-8.6257305
41,0.2753903865814209,2.075991153717041,77.82159423828125,0.14789180129358181,-2.7276680444410877,-89.55199098999294,6.0540004,3.6522841,8.574611,8.198879,-10.989182,-4.47456,5.3539824,-3.5440662,-4.685512,9.491349,-11.305147,3.8919864,-1.187307,0.04509643,7.67366,-0.51454496,11.699459,-39.89162,59.390232,-1.691608,4.321923,2.1182914,-2.3244,-8.817582,38.678196,59.326187,-4.0576262,10.945488,-8.681196
42,0.29745563864707947,2.0729808807373047,77.82504272460938,0.16405716591524577,-2.663361470039744,-89.58800532952279,5.9964223,3.613785,8.62201,8.1803875,-10.97968,-4.424807,5.2727747,-3.5780468,-4.6402984,9.488841,-11.291194,3.92229,-1.1865326,0.037183538,7.671639,-0.52278864,11.680108,-39.82324,59.4079,-1.7835774,4.264316,2.0465019,-2.352024,-8.83741,38.67832,59.339916,-3.8689976,10.982058,-8.81393
43,0.3222360610961914,2.077512502670288,77.82774353027344,0.18105548021915926,-2.599029302644835,-89.62463278656206,5.9382315,3.5742085,8.670676,8.164432,-10.97288,-4.37099,5.192821,-3.6132352,-4.594072,9.483997,-11.276808,3.9531972,-1.1906255,0.028723909,7.669338,-0.52857757,11.661294,-39.743435,59.42481,-1.8796259,4.203235,1.968188,-2.3773024,-8.857864,38.693047,59.35736,-3.6668005,11.020358,-8.963829
44,0.35123682022094727,2.0644609928131104,77.82988739013672,0.19413007615494246,-2.5472974000880986,-89.66574384025094,5.897847,3.53893,8.719738,8.150965,-10.9749775,-4.320677,5.125454,-3.644531,-4.546283,9.48734,-11.270308,3.9776573,-1.1884156,0.020632409,7.6775274,-0.53371984,11.6472025,-39.682705,59.429802,-1.9593526,4.1682334,1.9153367,-2.3924458,-8.874374,38.700325,59.371586,-3.5512583,11.0354595,-9.062857
45,0.37825655937194824,2.0521535873413086,77.832763671875,0.20163044893240048,-2.5172846927461263,-89.71319249795376,5.885865,3.5124078,8.768855,8.143525,-10.989761,-4.279183,5.0821166,-3.6672044,-4.4979615,9.497299,-11.2718525,3.9886117,-1.1755337,0.011815401,7.703996,-0.53861064,11.640279,-39.655403,59.42125,-2.0153582,4.1687903,1.8960267,-2.3906636,-8.883105,38.695816,59.375507,-3.5768366,11.014306,-9.082682
46,0.4094153642654419,2.041572332382202,77.83660125732422,0.20544163055761858,-2.500535101267284,-89.7644250742639,5.8904977,3.4908137,8.818198,8.140425,-11.012562,-4.2414355,5.0535135,-3.684926,-4.4492607,9.510955,-11.278276,3.9916148,-1.1584619,0.0036558202,7.741542,-0.5414626,11.636221,-39.641872,59.40423,-2.0579484,4.1885476,1.8934252,-2.3781803,-8.88861,38.688774,59.375492,-3.6816561,10.972745,-9.062763
47,0.4321229159832001,2.031721591949463,77.83868408203125,0.20881077193327505,-2.4827544587793873,-89.81749492939963,5.897968,3.466374,8.868579,8.133719,-11.037975,-4.19927,5.0240755,-3.705042,-4.3979154,9.526096,-11.287203,3.9983478,-1.1379281,-0.004512681,7.7833076,-0.55380017,11.631168,-39.623955,59.38647,-2.0915706,4.2171435,1.8993547,-2.3630881,-8.896516,38.671616,59.373417,-3.7977774,10.929349,-9.033314
48,0.45616766810417175,2.026756763458252,77.8379135131836,0.21633146915750953,-2.4497218429266354,-89.86856631333248,5.8889694,3.434693,8.918416,8.1268425,-11.066132,-4.1449957,4.9832172,-3.7317224,-4.344171,9.530518,-11.2909155,4.0201726,-1.1154975,-0.010675188,7.8083854,-0.57148045,11.625244,-39.605045,59.37042,-2.1406548,4.244142,1.9141403,-2.350084,-8.907369,38.654797,59.38332,-3.834865,10.903931,-9.03411
49,0.4892951250076294,2.015230655670166,77.83877563476562,0.22924609529814616,-2.396070310188657,-89.91927559132218,5.8585114,3.3925595,8.97048,8.118067,-11.095857,-4.0711274,4.924384,-3.7683544,-4.2843375,9.52421,-11.288287,4.062234,-1.0941294,-0.016474666,7.811634,-0.5946078,11.61805,-39.57566,59.35419,-2.218963,4.2738748,1.9430989,-2.3415296,-8.922898,38.651657,59.409298,-3.7389483,10.904843,-9.105595
50,0.5305616855621338,2.0001320838928223,77.83905792236328,0.24701606657116418,-2.329507724971199,-89.97069540780262,5.816159,3.343355,9.024465,8.10789,-11.12848,-3.9836867,4.853698,-3.8118255,-4.2195883,9.51324,-11.283276,4.1177926,-1.0757498,-0.020743368,7.7990136,-0.61683476,11.610891,-39.540127,59.33234,-2.3174958,4.3099747,1.9866607,-2.3394923,-8.940741,38.66396,59.455364,-3.5593061,10.918613,-9.219884
51,0.5660214424133301,1.9841728210449219,77.84431457519531,0.2636115123990065,-2.2565966403962885,-90.0182200432458,5.7681355,3.290738,9.0743065,8.094415,-11.162515,-3.8950317,4.7829094,-3.8573217,-4.157327,9.491411,-11.275196,4.180205,-1.0679805,-0.023978151,7.7806787,-0.6384633,11.604527,-39.494804,59.31144,-2.4022472,4.3388705,2.0305412,-2.3367958,-8.960295,38.678802,59.499523,-3.3789532,10.940266,-9.307395
52,0.6025062203407288,1.9643185138702393,77.84688568115234,0.27590922093848624,-2.183357975949778,-90.05879962156182,5.722167,3.2375271,9.115223,8.071979,-11.194792,-3.8172588,4.715725,-3.9013176,-4.1031303,9.466933,-11.270337,4.2429986,-1.0671587,-0.023928063,7.7631097,-0.66185653,11.598924,-39.451866,59.297726,-2.449201,4.3483033,2.0615683,-2.3309562,-8.982728,38.67364,59.534958,-3.2814572,10.9587965,-9.297566
53,0.6412686109542847,1.940851092338562,77.84820556640625,0.2826919058903804,-2.1109483272182814,-90.09557251975485,5.6830783,3.1859903,9.148438,8.034881,-11.224683,-3.7638144,4.655195,-3.9400754,-4.054595,9.436364,-11.2661,4.299685,-1.0717039,-0.023936462,7.7382975,-0.6818879,11.597061,-39.42345,59.298996,-2.448919,4.3259163,2.0809448,-2.3224301,-8.995398,38.639095,59.572334,-3.291664,10.974136,-9.140667
54,0.6866258382797241,1.9266101121902466,77.84769439697266,0.28740119284870713,-2.0369760000167574,-90.12938725862294,5.6473155,3.132995,9.175952,7.9865994,-11.253592,-3.7243166,4.596862,-3.9777038,-4.0093513,9.401628,-11.2628,4.3554754,-1.0725137,-0.018823173,7.722302,-0.71239215,11.595398,-39.39121,59.305172,-2.3980217,4.281292,2.085687,-2.3071508,-9.019714,38.55501,59.58654,-3.3861907,10.989286,-8.871423
55,0.7321182489395142,1.905083417892456,77.84733581542969,0.2933056143643359,-1.9602118924221945,-90.1525719359548,5.6052837,3.0744088,9.192881,7.9397497,-11.282619,-3.6755116,4.5422845,-4.020926,-3.974746,9.358271,-11.260138,4.4211392,-1.0625858,-0.015638584,7.7095757,-0.75893176,11.595044,-39.380745,59.31773,-2.3430614,4.235788,2.0842292,-2.2682195,-9.05823,38.45157,59.56774,-3.5209463,11.0068655,-8.585037
56,0.7817897200584412,1.8837262392044067,77.84724426269531,0.3049266853180867,-1.8792099010973735,-90.15615204331627,5.5443773,3.0065255,9.1922455,7.9121623,-11.315287,-3.5953243,4.4908795,-4.076279,-3.9592927,9.306443,-11.260598,4.507452,-1.0682448,-0.015614066,7.698411,-0.8087233,11.596006,-39.368587,59.32342,-2.3089578,4.2089667,2.0773013,-2.235125,-9.093845,38.382668,59.557,-3.6500893,11.022625,-8.37261
57,0.8268088102340698,1.8922088146209717,77.84884643554688,0.32427232414607327,-1.7939192752193411,-90.12848583257109,5.4581594,2.9247942,9.1633835,7.9092717,-11.349125,-3.4660196,4.4489207,-4.1499324,-3.973266,9.236421,-11.262382,4.6258593,-1.0950543,-0.026960934,7.6933513,-0.8742475,11.597896,-39.352295,59.331036,-2.2961755,4.206197,2.0555615,-2.2100105,-9.116666,38.35355,59.55541,-3.8061736,11.037925,-8.248661
58,0.8738969564437866,1.8752425909042358,77.85043334960938,0.3530760264442104,-1.7050342941245706,-90.07763974192166,5.3523784,2.8306327,9.1128,7.9253693,-11.385361,-3.3035212,4.413114,-4.239387,-4.0090027,9.154323,-11.266761,4.767762,-1.1340611,-0.046541285,7.696728,-0.95381516,11.60136,-39.33366,59.337135,-2.28859,4.217128,2.0200794,-2.1807091,-9.142035,38.34057,59.54049,-3.999744,11.054371,-8.16604
59,0.9277515411376953,1.8526209592819214,77.85113525390625,0.3828239888113026,-1.6125091607677253,-90.02455354336149,5.244557,2.730061,9.060128,7.938601,-11.421676,-3.1351142,4.3753095,-4.3356066,-4.0480905,9.072778,-11.275292,4.91362,-1.1770724,-0.06548224,7.6979847,-1.0285587,11.605477,-39.310703,59.33439,-2.290516,4.237059,1.9884026,-2.1552944,-9.169869,38.34218,59.53279,-4.1587524,11.069129,-8.126329
60,0.993547797203064,1.8198158740997314,77.85662078857422,0.4049931911602781,-1.5166938932929004,-89.98928602364043,5.147372,2.6362348,9.023789,7.939208,-11.462611,-2.9881842,4.331435,-4.4233365,-4.0738363,8.996208,-11.28504,5.0438366,-1.216668,-0.06652494,7.694334,-1.0790309,11.609428,-39.27617,59.30552,-2.3008955,4.262893,1.9773023,-2.1246927,-9.218022,38.352528,59.517746,-4.216292,11.084564,-8.129068
61,1.066755771636963,1.7857029438018799,77.8561019897461,0.4131431844082465,-1.4112552539701686,-89.97792403849623,5.0595355,2.5550694,9.00796,7.916762,-11.505317,-2.870405,4.273773,-4.4955053,-4.084246,8.924319,-11.297118,5.153623,-1.2414957,-0.04789352,7.6664667,-1.1093241,11.607946,-39.239697,59.269436,-2.3315601,4.297626,1.9929564,-2.1155434,-9.248231,38.35975,59.559677,-4.1092587,11.094574,-8.212187
62,1.1433371305465698,1.7474151849746704,77.85380554199219,0.41100296880251447,-1.2982975085636628,-89.97889349980221,4.9739823,2.482117,9.002411,7.884488,-11.552176,-2.7669814,4.208889,-4.5581036,-4.0884647,8.850593,-11.309645,5.253268,-1.267158,-0.010391484,7.62917,-1.1232786,11.6000395,-39.187054,59.21881,-2.3715777,4.3421316,2.025038,-2.1060293,-9.292287,38.38116,59.603813,-3.8849008,11.105247,-8.361475
63,1.21156907081604,1.7124519348144531,77.85162353515625,0.4068134573353162,-1.1905470585102114,-89.9872735769085,4.90164,2.410327,9.005624,7.8493137,-11.604211,-2.6712787,4.1488905,-4.619133,-4.0843987,8.782389,-11.322802,5.34567,-1.2918143,0.038095586,7.5960894,-1.130094,11.582909,-39.13371,59.164207,-2.414297,4.3858147,2.0706613,-2.093226,-9.350449,38.40808,59.643246,-3.6579077,11.114094,-8.507054
64,1.2819104194641113,1.6917973756790161,77.84234619140625,0.3957536820386942,-1.0988037260361023,-89.9955454531661,4.7595863,2.3558173,9.00894,8.015557,-11.766446,-2.578563,4.105504,-4.678592,-4.073669,8.723803,-11.334748,5.4327197,-1.3129882,0.08726054,7.5772734,-1.1325579,11.566949,-39.100334,59.1079,-2.454168,4.4203615,2.127455,-2.0891383,-9.391538,38.423668,59.69948,-3.549369,11.119631,-8.582541
65,1.37513267993927,1.6477694511413574,77.83174133300781,0.386019376564937,-1.0392637720794562,-90.00130825566454,4.6241026,2.3019764,9.016041,8.262766,-11.977064,-2.4896991,4.098243,-4.744289,-4.055003,8.677566,-11.351928,5.520039,-1.3399715,0.14513928,7.5952826,-1.1418946,11.52497,-39.07902,59.061245,-2.4789224,4.444884,2.212818,-2.046524,-9.481726,38.44735,59.684853,-3.6240597,11.128949,-8.536881
66,1.4859439134597778,1.5915744304656982,77.81953430175781,0.3801111775616104,-1.0025038188518813,-90.01005835716094,4.5520034,2.2353053,9.033405,8.445499,-12.160146,-2.406199,4.113024,-4.818925,-4.026195,8.647383,-11.376332,5.6051517,-1.3555276,0.20141129,7.63354,-1.1516144,11.474543,-39.084934,59.015537,-2.5042152,4.465241,2.3231003,-1.9982232,-9.573531,38.45908,59.668427,-3.8147109,11.134017,-8.418821
67,1.5764094591140747,1.5416007041931152,77.81304931640625,0.3790520197786356,-0.9629916133462929,-90.02745561762511,4.4985185,2.1586144,9.061822,8.588026,-12.323922,-2.3227382,4.113111,-4.900223,-3.9856806,8.637028,-11.397768,5.6786814,-1.3665524,0.255049,7.671454,-1.1606506,11.418754,-39.088005,58.976917,-2.5261064,4.4735985,2.421137,-1.9557577,-9.664012,38.465294,59.654984,-4.0084515,11.1416645,-8.298723
68,1.6732797622680664,1.490240216255188,77.8111801147461,0.38053765030419384,-0.895210201961875,-90.05914885418719,4.4282327,2.0753605,9.102321,8.695409,-12.466518,-2.2339153,4.0658493,-4.9842563,-3.9326434,8.643091,-11.402748,5.731411,-1.3744695,0.30643064,7.6878495,-1.1690876,11.362157,-39.065086,58.950893,-2.5431194,4.462618,2.4701128,-1.9357609,-9.751838,38.46831,59.657177,-4.0898046,11.157485,-8.246483
69,1.7724756002426147,1.4432356357574463,77.81244659423828,0.3727903326905018,-0.7846295822337249,-90.101950152549,4.3189297,1.9990846,9.149632,8.7776,-12.591652,-2.1352887,3.9553103,-5.059855,-3.872288,8.663992,-11.392155,5.7514386,-1.3844613,0.37134093,7.6687036,-1.174492,11.302078,-38.999256,58.94519,-2.549641,4.4131317,2.440301,-1.9383382,-9.845279,38.476124,59.673393,-3.9962444,11.195761,-8.297462
70,1.8853081464767456,1.391721487045288,77.81351470947266,0.3558390672236442,-0.6473353879783159,-90.15362646972807,4.1990285,1.9287426,9.2039385,8.817446,-12.69269,-2.0309477,3.8029907,-5.1270065,-3.8056936,8.698295,-11.369912,5.7466087,-1.3969102,0.44902462,7.628683,-1.173659,11.24203,-38.90393,58.94879,-2.548021,4.335292,2.3574429,-1.958464,-9.940314,38.487297,59.700623,-3.7995172,11.248832,-8.409181
71,1.9945042133331299,1.3508360385894775,77.8100357055664,0.35252453864265026,-0.5040294102335501,-90.22280606173575,4.0912595,1.8373487,9.276364,8.8203335,-12.773396,-1.9278473,3.6257558,-5.21079,-3.7185824,8.756493,-11.334791,5.734101,-1.4010916,0.5108542,7.591345,-1.1750355,11.182231,-38.804413,58.950485,-2.547769,4.263965,2.2687094,-1.9889196,-10.036825,38.487907,59.724228,-3.584822,11.291935,-8.532407
72,2.1134209632873535,1.315065622329712,77.79119873046875,0.4243560083734625,-0.36567748040606285,-90.32759326816992,4.0352035,1.6532968,9.392997,8.732949,-12.811179,-1.8273673,3.0442145,-5.402594,-3.546448,9.658138,-11.709783,5.737855,-1.3750851,0.4903389,7.568509,-1.1862961,11.125753,-38.727295,58.93908,-2.5582473,4.23426,2.2207341,-2.0203512,-10.129913,38.46094,59.729973,-3.4402351,11.30086,-8.617614
73,2.2302145957946777,1.2724469900131226,77.762451171875,0.5599234258850481,-0.22988598221176126,-90.46601602814405,4.0373197,1.3861772,9.549964,8.536963,-12.79447,-1.743311,2.1475425,-5.6832848,-3.2991784,11.209779,-12.401813,5.752207,-1.3152163,0.40051332,7.559751,-1.2132589,11.066343,-38.686707,58.91595,-2.5805726,4.267213,2.2367554,-2.0466435,-10.227227,38.408592,59.71593,-3.4383569,11.269542,-8.628014
74,2.346585512161255,1.2378785610198975,77.72238159179688,0.7221976353996281,-0.09600937919240991,-90.62603451184638,4.0777106,1.0805973,9.730139,8.269391,-12.741511,-1.6725799,1.1777104,-5.995784,-3.0137389,12.899908,-13.14475,5.7637024,-1.2352291,0.2805453,7.5641813,-1.2504451,11.00541,-38.66816,58.88506,-2.6107213,4.340292,2.2886355,-2.0748143,-10.324643,38.33458,59.692215,-3.5175571,11.210441,-8.598028
75,2.4725263118743896,1.1886656284332275,77.67874145507812,0.912620609293006,0.016903372851493792,-90.80392692150001,4.1609073,0.7363154,9.930215,7.96556,-12.672994,-1.5933146,0.16276675,-6.3382626,-2.6871288,14.713208,-13.910435,5.7814903,-1.1473596,0.12727216,7.6005993,-1.2960712,10.945774,-38.654575,58.84847,-2.650198,4.4224706,2.3466349,-2.1086884,-10.421945,38.228264,59.64641,-3.5600133,11.128857,-8.582791
76,2.6054770946502686,1.1581496000289917,77.62393951416016,1.1366154999138203,0.09006824347769087,-90.99645738315827,4.288205,0.35205033,10.147128,7.6667323,-12.612872,-1.4830431,-0.8657035,-6.709932,-2.3169286,16.626913,-14.667182,5.8164344,-1.0637277,-0.06625739,7.6875978,-1.3447092,10.895187,-38.627563,58.80277,-2.6999109,4.482995,2.3805196,-2.1553342,-10.515115,38.080055,59.571255,-3.447108,11.029891,-8.637647
77,2.743192672729492,1.1299856901168823,77.55596160888672,1.4226382565174274,0.12414996849877137,-91.21285681659006,4.47269,-0.106359094,10.394021,7.3461547,-12.551268,-1.3271183,-1.924576,-7.141287,-1.887169,18.672152,-15.455677,5.8695445,-0.9758357,-0.32650697,7.826772,-1.3918657,10.855615,-38.573788,58.74149,-2.7512622,4.5144424,2.375681,-2.2152174,-10.608212,37.88735,59.466545,-3.1017978,10.897903,-8.79328
78,2.867669105529785,1.1043620109558105,77.47520446777344,1.7581972725430033,0.12889109527868953,-91.45195518950196,4.623844,-0.61016405,10.666368,7.176339,-12.577127,-1.1411281,-3.0255935,-7.61855,-1.4021097,20.849585,-16.275093,5.9360657,-0.8804726,-0.6407855,8.009881,-1.4380999,10.827859,-38.505154,58.661533,-2.8073206,4.5334353,2.3498764,-2.2848485,-10.70452,37.656506,59.333046,-2.6021583,10.734536,-9.013348
79,2.9828298091888428,1.079250693321228,77.39122772216797,2.0918621513258997,0.09913542782667288,-91.69533005182394,4.739238,-1.0984386,10.93778,7.169794,-12.68988,-0.9468992,-4.1161604,-8.078888,-0.8924403,23.068079,-17.027357,6.0197883,-0.79612404,-0.95951366,8.241077,-1.4873427,10.815522,-38.441925,58.567204,-2.8850389,4.545015,2.3213148,-2.3606293,-10.797797,37.38768,59.15882,-2.0655313,10.571457,-9.2525
80,3.097001075744629,1.0355594158172607,77.31526184082031,2.3756500687383184,0.028776216747466422,-91.92515072474063,4.898189,-1.5279821,11.180796,7.165547,-12.7973795,-0.76492226,-5.144345,-8.463939,-0.39015752,25.24189,-17.616043,6.123727,-0.73902935,-1.2339398,8.524256,-1.5461574,10.820337,-38.407692,58.465057,-3.002346,4.5541983,2.3084137,-2.436764,-10.885664,37.078228,58.928036,-1.6084456,10.442128,-9.466008
81,3.215579032897949,0.9923126697540283,77.24994659423828,2.6033801141539215,-0.10369592054969584,-92.13907590766047,5.1224155,-1.8938171,11.387057,7.166223,-12.898349,-0.59309924,-6.071801,-8.772826,0.0992341,27.355639,-18.034155,6.2611327,-0.7128149,-1.4609281,8.883345,-1.6182097,10.845314,-38.407,58.344448,-3.1883528,4.56363,2.3193784,-2.5134017,-10.9678955,36.699467,58.614624,-1.2063347,10.349485,-9.66467
82,3.326540470123291,0.9550036191940308,77.18772888183594,2.8010107998778775,-0.2886361104277092,-92.34698447573476,5.402157,-2.2246888,11.571498,7.1724916,-12.996949,-0.4221821,-6.93395,-9.036362,0.5909088,29.454878,-18.329428,6.425627,-0.7065639,-1.6660475,9.308587,-1.6984277,10.891636,-38.430355,58.202374,-3.4260194,4.57044,2.3429701,-2.5916483,-11.044209,36.258934,58.232414,-0.81677514,10.2779045,-9.864821
83,3.456695795059204,0.92039555311203,77.13142395019531,2.9664370049032147,-0.4857459212609858,-92.54899391136681,5.6964874,-2.5161173,11.742993,7.1799884,-13.095043,-0.26252583,-7.79852,-9.245976,1.0847068,31.56719,-18.492285,6.589376,-0.71784544,-1.8467432,9.751588,-1.7811657,10.95696,-38.479305,58.0617,-3.6648169,4.5706916,2.3687341,-2.675871,-11.11333,35.815315,57.83713,-0.5237262,10.234151,-10.03242
84,3.55751371383667,0.8606777787208557,77.08351135253906,3.099479830735323,-0.6547450386854625,-92.74461969217981,5.9621525,-2.7631924,11.911282,7.185569,-13.193152,-0.12468484,-8.728864,-9.391437,1.5792216,33.710938,-18.512495,6.7234664,-0.7461093,-1.9987859,10.163704,-1.86167,11.036277,-38.55279,57.947323,-3.8526003,4.5605216,2.3863966,-2.7682686,-11.171565,35.426945,57.48299,-0.41325584,10.225613,-10.133755
85,3.6518959999084473,0.7947484850883484,77.04801940917969,3.1943332794844883,-0.7844144163126624,-92.93773803983142,6.1840816,-2.9596515,12.082744,7.1888623,-13.288959,-0.009351644,-9.7502775,-9.460622,2.0860274,35.90328,-18.360004,6.8431997,-0.79434824,-2.1161203,10.534926,-1.9458028,11.126968,-38.652702,57.862484,-3.9842844,4.534024,2.3921914,-2.8839378,-11.215165,35.11359,57.18731,-0.60048634,10.282593,-10.135835
86,3.7542011737823486,0.7472837567329407,77.01433563232422,3.253024688306357,-0.8968058880423496,-93.12692118739126,6.385099,-3.1108418,12.252346,7.192603,-13.382889,0.08867522,-10.827078,-9.463144,2.6004884,38.13599,-18.051823,6.9515324,-0.865896,-2.2035706,10.887709,-2.036704,11.2247925,-38.774265,57.80431,-4.082785,4.4943175,2.3924122,-3.022264,-11.241513,34.847572,56.929432,-1.0075908,10.3915205,-10.065559
87,3.852813959121704,0.6902198791503906,76.99018859863281,3.284428338177733,-1.0015831923945273,-93.3041359988112,6.5816326,-3.228523,12.412526,7.1941924,-13.478838,0.16710106,-11.927874,-9.419482,3.0944927,40.38182,-17.643965,7.002965,-0.9540065,-2.2733328,11.225124,-2.1215277,11.334521,-38.915546,57.77467,-4.141925,4.452342,2.3914807,-3.155505,-11.252846,34.607185,56.697803,-1.4332328,10.49476,-9.978219
88,3.965930223464966,0.6371549963951111,76.9629898071289,3.3014973941891195,-1.108179243836062,-93.46103314086656,6.7890186,-3.3241327,12.555585,7.193181,-13.581914,0.22365403,-13.021138,-9.350344,3.539327,42.612225,-17.19178,6.9561887,-1.0605465,-2.33645,11.546459,-2.1915264,11.44643,-39.062477,57.791874,-4.1500845,4.417575,2.3942325,-3.26699,-11.249952,34.3851,56.49445,-1.6690692,10.535685,-9.932266
89,4.0651631355285645,0.5764845609664917,76.94166564941406,3.2985686704204995,-1.227713799692222,-93.59696187838883,7.0209517,-3.3935025,12.680914,7.190642,-13.695969,0.25378707,-14.102808,-9.244728,3.9380236,44.84833,-16.654022,6.802099,-1.1855168,-2.3893049,11.860571,-2.2493858,11.556425,-39.22435,57.871063,-4.103707,4.3890624,2.4123666,-3.3531032,-11.23434,34.189438,56.33268,-1.662017,10.4791355,-9.929914
90,4.149289608001709,0.4801071584224701,76.92749786376953,3.2734801784585197,-1.352403336910779,-93.71548593860976,7.266574,-3.4335854,12.792487,7.185093,-13.816902,0.2603514,-15.184735,-9.099349,4.296235,47.090668,-16.016096,6.564226,-1.3289484,-2.4269547,12.1636915,-2.3020809,11.662955,-39.402603,58.007523,-4.0074625,4.362338,2.4403038,-3.422666,-11.206179,34.02289,56.207634,-1.520946,10.362465,-9.944791
91,4.225800037384033,0.3862736225128174,76.91838073730469,3.2356669315242033,-1.4635974154187963,-93.81522387242877,7.5024295,-3.4579895,12.889609,7.1775494,-13.939822,0.25266927,-16.260464,-8.947622,4.59106,49.28144,-15.374497,6.254465,-1.4873692,-2.459246,12.438043,-2.3476121,11.765248,-39.58053,58.184856,-3.8671846,4.342019,2.457382,-3.469675,-11.165878,33.858467,56.0856,-1.2866497,10.238214,-9.991943
92,4.304601669311523,0.2683316469192505,76.90128326416016,3.1988170564721945,-1.542433969084219,-93.89474904421944,7.7062144,-3.4798129,12.971247,7.167559,-14.06006,0.23980771,-17.323511,-8.821463,4.8015857,51.362816,-14.826414,5.88582,-1.6568755,-2.4957762,12.665621,-2.3849413,11.863468,-39.742645,58.387604,-3.689975,4.3326025,2.4430642,-3.4907846,-11.11546,33.670128,55.935604,-0.9984969,10.158897,-10.086974
93,4.379896640777588,0.1465451568365097,76.89083862304688,3.1663518952193197,-1.582228469382058,-93.95230495514892,7.8692336,-3.504758,13.037992,7.1548505,-14.175392,0.21968256,-18.39839,-8.737724,4.909415,53.38784,-14.3875265,5.388317,-1.8373246,-2.5422966,12.841592,-2.4145162,11.958128,-39.888172,58.626892,-3.4513302,4.3292727,2.3789587,-3.481268,-11.054092,33.43854,55.73615,-0.5880269,10.153158,-10.272264
94,4.443966388702393,0.032094478607177734,76.87910461425781,3.1321678518439553,-1.5936858982133042,-93.98926475959043,8.004573,-3.5252826,13.090054,7.1393538,-14.290732,0.18946935,-19.48012,-8.679214,4.9292655,55.365772,-14.008765,4.783187,-2.0296597,-2.5926893,12.975427,-2.4369,12.049179,-40.025463,58.906193,-3.1565638,4.3312693,2.280217,-3.444217,-10.981891,33.18094,55.508522,-0.06045276,10.186354,-10.527087
95,4.5095930099487305,-0.0950184166431427,76.85676574707031,3.0914996759540347,-1.5839282914559052,-94.0084325444058,8.121619,-3.533593,13.126269,7.1233315,-14.406072,0.15692565,-20.517298,-8.623553,4.8939586,57.173733,-13.689131,4.2224107,-2.2319174,-2.6366796,13.072824,-2.4505315,12.136083,-40.150696,59.195553,-2.8563697,4.3490496,2.1762989,-3.3811646,-10.901798,32.924046,55.27546,0.43292665,10.217966,-10.7717
96,4.5763397216796875,-0.24156665802001953,76.84345245361328,3.0316784554440592,-1.560049889422532,-94.01237951119131,8.231721,-3.5212739,13.145013,7.1059823,-14.525378,0.1291243,-21.45851,-8.544312,4.8375177,58.688328,-13.432424,3.8588052,-2.4426403,-2.6623933,13.139935,-2.4535694,12.217825,-40.259907,59.46394,-2.60119,4.3937044,2.0963786,-3.2900665,-10.817693,32.694458,55.055416,0.739527,10.210167,-10.92522
97,4.646365642547607,-0.38890963792800903,76.83453369140625,2.9512199463001347,-1.522415252184236,-93.99205956140763,8.334702,-3.4829736,13.138243,7.0895658,-14.650644,0.111415334,-22.280733,-8.445028,4.746553,59.882244,-13.263062,3.7520084,-2.6713955,-2.6649897,13.171192,-2.4481235,12.292952,-40.356678,59.70919,-2.4035277,4.4907045,2.044049,-3.161045,-10.732958,32.505836,54.84479,0.73674965,10.141606,-10.9458475
98,4.698073863983154,-0.5630032420158386,76.83060455322266,2.8519082667659905,-1.4678316255348502,-93.94901761059245,8.425657,-3.4209538,13.108825,7.0746207,-14.780624,0.098005444,-23.017668,-8.331382,4.612257,60.82878,-13.17728,3.817396,-2.916544,-2.6473608,13.167011,-2.43482,12.360937,-40.440838,59.946026,-2.2362766,4.626779,2.004882,-2.9946387,-10.648186,32.34294,54.631077,0.53385377,10.037544,-10.883374
99,4.732234001159668,-0.7407753467559814,76.82598114013672,2.737627821390938,-1.3984507543369045,-93.90276003929935,8.506848,-3.3400705,13.073039,7.0597486,-14.913214,0.07887731,-23.703413,-8.178926,4.475917,61.55461,-13.13149,3.9908988,-3.1592925,-2.6114697,13.141439,-2.410029,12.423005,-40.502956,60.170036,-2.0911531,4.754804,1.9812561,-2.809616,-10.564046,32.1905,54.426155,0.32786956,9.93084,-10.793758
100,4.773874282836914,-0.9155442118644714,76.82645416259766,2.614566160325869,-1.3157339404605595,-93.87287965025035,8.580277,-3.2469995,13.0470295,7.0427446,-15.0453415,0.044670604,-24.37151,-7.965525,4.3796554,62.08318,-13.080321,4.208434,-3.3809745,-2.5618165,13.108398,-2.3681474,12.481511,-40.5322,60.37451,-1.959397,4.827774,1.9756001,-2.625114,-10.481231,32.032673,54.241955,0.31482655,9.854948,-10.732305
101,4.790213584899902,-1.1015040874481201,76.82400512695312,2.4890102871150974,-1.2091100993354842,-93.85845467458735,8.621197,-3.1439574,13.027918,7.0479198,-15.188126,-0.011497215,-25.033712,-7.671597,4.350488,62.40031,-13.026372,4.5020833,-3.5845206,-2.5021324,13.05934,-2.3060338,12.539185,-40.52685,60.566147,-1.8386059,4.816261,1.9976826,-2.4459977,-10.400081,31.872324,54.07825,0.56290424,9.82234,-10.710179
102,4.840453147888184,-1.3123714923858643,76.8183364868164,2.3530741712097853,-1.0806433095475043,-93.8503846831171,8.641844,-3.026944,13.008209,7.055549,-15.3323,-0.083364,-25.670534,-7.3139334,4.3591747,62.495483,-12.988407,4.8881006,-3.778206,-2.4278154,12.991002,-2.2250636,12.596891,-40.491684,60.74142,-1.7338316,4.751297,2.0431178,-2.26223,-10.320743,31.715578,53.928593,0.9621244,9.81421,-10.698688
103,4.881130218505859,-1.515597939491272,76.8157730102539,2.2110348546676244,-0.9553795434929439,-93.85970057933808,8.677024,-2.8993518,13.002522,7.0613112,-15.480531,-0.15757412,-26.270391,-6.933753,4.376627,62.40887,-12.95003,5.282544,-3.947554,-2.3428202,12.928392,-2.1283047,12.654355,-40.42697,60.88123,-1.6476558,4.6764226,2.0935404,-2.071307,-10.24364,31.551613,53.79667,1.4425316,9.817229,-10.693148
104,4.919892311096191,-1.7227880954742432,76.8025894165039,2.066624606060205,-0.8583370671601593,-93.89737947171764,8.758703,-2.765308,13.0265045,7.0693665,-15.641463,-0.22082043,-26.822279,-6.5709257,4.374164,62.18213,-12.893553,5.6016836,-4.0775228,-2.2519865,12.896153,-2.0201623,12.710639,-40.334007,60.96803,-1.5834005,4.6347303,2.1302629,-1.8719646,-10.170043,31.36965,53.68746,1.9351066,9.818125,-10.688684
105,4.945074558258057,-1.959773302078247,76.7886962890625,1.9195771316412265,-0.8032097069783564,-93.97447153922678,8.9079275,-2.621518,13.091407,7.077344,-15.817288,-0.26715252,-27.312822,-6.2175374,4.358017,61.81196,-12.806726,5.8286014,-4.1550097,-2.1535773,12.90601,-1.8958384,12.763856,-40.198635,60.993073,-1.5307634,4.6409545,2.1452613,-1.6564924,-10.100907,31.160738,53.596634,2.4530833,9.819131,-10.6910715
106,4.968841552734375,-2.1950812339782715,76.77285766601562,1.7650107598574705,-0.7746527357313674,-94.08216575486017,9.103272,-2.467809,13.18685,7.0852437,-16.004164,-0.30453262,-27.750072,-5.8592243,4.3401423,61.278595,-12.699504,6.004461,-4.1909356,-2.0458395,12.943038,-1.7563529,12.813324,-40.025513,60.96874,-1.4919018,4.670713,2.1494603,-1.427016,-10.036401,30.932177,53.521755,3.0232995,9.825502,-10.700556
107,4.989895343780518,-2.4401328563690186,76.76228332519531,1.6122308879436262,-0.7538353076521567,-94.20184102647366,9.316309,-2.3114092,13.295322,7.094231,-16.197357,-0.34098762,-28.153818,-5.5249376,4.299757,60.599342,-12.585719,6.134128,-4.2059965,-1.9327577,12.991992,-1.6145062,12.860524,-39.843708,60.909077,-1.4884008,4.709045,2.1529405,-1.1967484,-9.976788,30.697027,53.471344,3.5949926,9.828144,-10.70379
108,5.0195770263671875,-2.6810121536254883,76.74638366699219,1.4620346502899066,-0.7219805107434558,-94.31493309248546,9.519195,-2.1593866,13.399236,7.10242,-16.390131,-0.3845499,-28.54336,-5.2427917,4.2151484,59.789917,-12.478426,6.2229824,-4.221154,-1.8142608,13.037813,-1.4875005,12.8993845,-39.683456,60.835022,-1.5424505,4.7403164,2.166417,-0.9727351,-9.931695,30.469643,53.44472,4.120001,9.819209,-10.686489
109,5.048898220062256,-2.9382436275482178,76.72310638427734,1.3163155215835103,-0.6714365134718142,-94.42169602413068,9.702765,-2.0139115,13.499905,7.109053,-16.580217,-0.43933147,-28.929247,-5.018751,4.079279,58.85227,-12.389294,6.2686796,-4.2305336,-1.7007558,13.076293,-1.3651012,12.952945,-39.54499,60.720528,-1.6912062,4.7717247,2.198103,-0.7655524,-9.87928,30.231901,53.45805,4.6031137,9.786515,-10.630505
110,5.05849552154541,-3.2059152126312256,76.7015609741211,1.1749669149239852,-0.6131147241760151,-94.53047822647929,9.881674,-1.871082,13.604886,7.116687,-16.77206,-0.50044036,-29.296923,-4.8366046,3.9032586,57.776302,-12.307631,6.2708344,-4.229774,-1.5846845,13.11555,-1.2454865,13.0080805,-39.41205,60.570408,-1.9113319,4.807014,2.241172,-0.56265944,-9.834205,29.989607,53.496265,5.068845,9.738797,-10.54773
111,5.078830242156982,-3.4652068614959717,76.6714859008789,1.0339426767467412,-0.5557083080315599,-94.63354021758956,10.066914,-1.7287389,13.705439,7.123637,-16.967634,-0.5626606,-29.627733,-4.690417,3.6915379,56.560127,-12.213001,6.238114,-4.2288394,-1.464549,13.160545,-1.1318729,13.067843,-39.303047,60.400513,-2.1416798,4.830631,2.279069,-0.3710995,-9.794477,29.76418,53.567623,5.475283,9.694911,-10.470979
112,5.083223342895508,-3.738511800765991,76.65201568603516,0.8926209702727961,-0.5076684917611534,-94.72347461770117,10.268041,-1.5851105,13.79335,7.1319585,-17.171412,-0.6208818,-29.903112,-4.5744157,3.448859,55.20159,-12.085531,6.1792707,-4.239504,-1.3386451,13.216323,-1.0258421,13.134399,-39.233498,60.2253,-2.3193536,4.8272486,2.2951612,-0.19719227,-9.759179,29.58053,53.678673,5.7824073,9.672779,-10.433808
113,5.088773250579834,-4.028253078460693,76.62382507324219,0.7531612051546285,-0.4670993224719493,-94.8072766176946,10.482798,-1.4445884,13.876364,7.1395116,-17.38402,-0.6719692,-30.129982,-4.491522,3.1725974,53.691765,-11.916167,6.094233,-4.255736,-1.2073627,13.282599,-0.9355906,13.201941,-39.20767,60.049778,-2.4268334,4.781516,2.2793643,-0.04565295,-9.732151,29.444094,53.83169,5.992028,9.685532,-10.454489
114,5.086954116821289,-4.316730499267578,76.59161376953125,0.614837666648222,-0.43095468467836756,-94.88570427720396,10.707501,-1.3064036,13.95557,7.146957,-17.604134,-0.71940064,-30.309353,-4.4390764,2.8591397,52.02842,-11.716807,5.98262,-4.27373,-1.0724416,13.357966,-0.85519856,13.276156,-39.218243,59.860477,-2.498514,4.7059116,2.2420182,0.08729395,-9.7117815,29.340746,54.023373,6.1210723,9.720208,-10.512207
115,5.091226577758789,-4.604654312133789,76.55387878417969,0.47357250803633955,-0.40580239969282966,-94.94259220337341,10.950595,-1.1615096,14.01329,7.156478,-17.829462,-0.7679087,-30.419022,-4.4029675,2.513247,50.228584,-11.496412,5.8518057,-4.312987,-0.92907345,13.44314,-0.7767258,13.354162,-39.258625,59.668972,-2.5471036,4.6247478,2.1984932,0.21238765,-9.698018,29.272379,54.247433,6.154105,9.756962,-10.5821085
116,5.1018500328063965,-4.903731346130371,76.51020050048828,0.31983041790477257,-0.39862722412219165,-94.96152911655518,11.221116,-1.0001546,14.031296,7.1675572,-18.056128,-0.8222937,-30.43324,-4.370475,2.1397533,48.300323,-11.264416,5.7083497,-4.392067,-0.77342695,13.539419,-0.6905772,13.436897,-39.323116,59.483418,-2.5858853,4.562673,2.164136,0.3380624,-9.688653,29.239632,54.500446,6.0759735,9.775797,-10.639326
117,5.112063884735107,-5.216679096221924,76.47063446044922,0.13765440021105543,-0.42349872827691126,-94.92995538221942,11.536664,-0.8021563,13.992913,7.18001,-18.283358,-0.888767,-30.314188,-4.3375325,1.7041624,46.207897,-11.017025,5.537349,-4.531042,-0.5922566,13.658817,-0.58619946,13.527593,-39.418587,59.295876,-2.6163301,4.5301247,2.14497,0.46505535,-9.681881,29.248526,54.79223,5.867606,9.765487,-10.677806
118,5.103631496429443,-5.533373832702637,76.43400573730469,-0.06380384456872229,-0.47269603303224356,-94.85905539427806,11.8864155,-0.5763628,13.911781,7.1939535,-18.51274,-0.96401244,-30.082125,-4.30689,1.2140479,43.953934,-10.750052,5.343937,-4.7149262,-0.39266074,13.798203,-0.46961722,13.62756,-39.544594,59.102135,-2.6319506,4.51281,2.132061,0.58769935,-9.676965,29.297344,55.12292,5.542748,9.738458,-10.71076
119,5.047643661499023,-5.933142185211182,76.41521453857422,-0.25565222561503037,-0.519963637815395,-94.76725080997622,12.237042,-0.35715193,13.8152685,7.2066817,-18.74216,-1.0378344,-29.800472,-4.2793884,0.73816144,41.60258,-10.469052,5.1618266,-4.911112,-0.2011472,13.934598,-0.35720873,13.733165,-39.68582,58.919983,-2.6352556,4.4984503,2.1183667,0.7052277,-9.674416,29.374102,55.47589,5.131527,9.711262,-10.7426195
120,5.030584335327148,-6.289459228515625,76.37357330322266,-0.4071823201167115,-0.5393373794338798,-94.67295229351546,12.554965,-0.18090011,13.729746,7.2200704,-18.971758,-1.0989845,-29.531834,-4.2607803,0.34660518,39.213806,-10.176883,5.022105,-5.087475,-0.04308718,14.04417,-0.26782668,13.83712,-39.827797,58.770313,-2.628858,4.4742975,2.0969768,0.81848997,-9.673629,29.468067,55.831017,4.6663847,9.700177,-10.777158
121,5.033120632171631,-6.6269145011901855,76.31570434570312,-0.5040225137966067,-0.5266275548314429,-94.58410875664516,12.83668,-0.069112055,13.669434,7.2296233,-19.199038,-1.135346,-29.288376,-4.263543,0.057158723,36.77658,-9.874814,4.9300776,-5.235574,0.068278424,14.122245,-0.21283711,13.932666,-39.97212,58.664654,-2.6103427,4.4388304,2.0632746,0.91806126,-9.675125,29.582674,56.203632,4.12558,9.703811,-10.824046
122,5.016425609588623,-6.970401763916016,76.25578308105469,-0.5622738965365245,-0.49582588547662637,-94.48839462050233,13.100113,-0.0026425591,13.615726,7.2377853,-19.426308,-1.1545092,-29.032408,-4.287563,-0.16636504,34.254536,-9.554223,4.867986,-5.374,0.14805773,14.179745,-0.18583824,14.017553,-40.126404,58.59997,-2.5797977,4.3973083,2.0225804,1.0072249,-9.679027,29.721703,56.59804,3.5028052,9.715674,-10.878243
123,4.983514308929443,-7.341057777404785,76.19815063476562,-0.6003790735564318,-0.4477154722691227,-94.3733256944815,13.348521,0.04174506,13.5448,7.2446384,-19.653906,-1.1744481,-28.758257,-4.3216004,-0.33465546,31.682234,-9.209171,4.830379,-5.511842,0.21282426,14.214348,-0.17548552,14.091509,-40.28091,58.573883,-2.539109,4.347992,1.9831216,1.1049398,-9.685077,29.872356,56.982464,2.849751,9.744315,-10.921817
124,4.9500298500061035,-7.72231388092041,76.12320709228516,-0.6348481641260062,-0.3830741805665334,-94.22631900444283,13.585094,0.08785693,13.433254,7.251801,-19.883173,-1.2132373,-28.459097,-4.354303,-0.45817995,29.09265,-8.833007,4.8127313,-5.6578918,0.27843386,14.22472,-0.17087252,14.156016,-40.427338,58.58315,-2.4915426,4.2890677,1.9529629,1.2293996,-9.692474,30.022972,57.324955,2.2198813,9.797506,-10.936449
125,4.912840366363525,-8.108048439025879,76.04292297363281,-0.6649428598413014,-0.29708554199425935,-94.04639818799396,13.805218,0.13224354,13.273552,7.2576594,-20.11412,-1.2732557,-28.13707,-4.3851156,-0.51538783,26.465136,-8.41588,4.818036,-5.8056765,0.34294033,14.205271,-0.18171409,14.200723,-40.571396,58.660633,-2.4268355,4.1889067,1.9336952,1.3850542,-9.699624,30.165642,57.615955,1.5770519,9.901453,-10.899257
126,4.873134613037109,-8.51966667175293,75.96796417236328,-0.6765034923872022,-0.1932163114071749,-93.83525367188884,14.009977,0.16085036,13.073863,7.263862,-20.346788,-1.3445116,-27.785856,-4.428215,-0.50938386,23.778688,-7.957478,4.847679,-5.9565763,0.39348745,14.161924,-0.20269457,14.240676,-40.717186,58.78288,-2.3494906,4.0597825,1.9203482,1.5642684,-9.70815,30.308262,57.868427,0.9097535,10.043014,-10.824477
127,4.83945369720459,-8.930468559265137,75.88712310791016,-0.6753209264793344,-0.08527238993071304,-93.58477228194296,14.214541,0.18168573,12.8348,7.270434,-20.580322,-1.4265057,-27.391993,-4.493933,-0.48779625,21.07622,-7.470653,4.8941755,-6.13082,0.43628195,14.10331,-0.22760963,14.269685,-40.847904,58.9179,-2.2751522,3.9619873,1.9139297,1.760716,-9.715281,30.457813,58.102886,0.3027692,10.171411,-10.752173
128,4.79997444152832,-9.348499298095703,75.79761505126953,-0.6637182026753105,0.014093245814003452,-93.28809314840801,14.434682,0.2028611,12.558157,7.274807,-20.812784,-1.5188321,-26.944418,-4.5926003,-0.49719664,18.402134,-6.9719353,4.948424,-6.349752,0.4748034,14.036774,-0.23778878,14.299476,-40.95291,59.012558,-2.2283454,3.957253,1.9158336,1.9716853,-9.722601,30.630579,58.333385,-0.15187746,10.2370825,-10.725348
129,4.752524375915527,-9.782281875610352,75.70968627929688,-0.6454283561788989,0.10474583519261978,-92.93398471494145,14.667964,0.22937554,12.236365,7.2794137,-21.047857,-1.6254544,-26.433489,-4.7373214,-0.5510058,15.733751,-6.459732,4.9976993,-6.6214595,0.517531,13.961341,-0.24703325,14.314614,-41.03249,59.066948,-2.2224364,4.1066527,1.9326519,2.1922946,-9.725583,30.826742,58.581696,-0.4319953,10.198937,-10.77332
130,4.702982425689697,-10.223420143127441,75.60700225830078,-0.6132203473038462,0.19173087673666261,-92.52653702189622,14.910726,0.25133407,11.86794,7.2829337,-21.285404,-1.7440839,-25.864172,-4.928048,-0.62528384,13.0513735,-5.9240274,5.0481286,-6.969534,0.5479722,13.863727,-0.2231735,14.331993,-41.072533,59.079624,-2.2525158,4.3632264,1.9657339,2.4174314,-9.727697,31.107275,58.84256,-0.551798,10.094599,-10.880071
131,4.639209270477295,-10.679969787597656,75.50560760498047,-0.5631151687180368,0.27055751111649595,-92.08676419276152,15.166687,0.2647378,11.468161,7.285542,-21.517208,-1.8665969,-25.245907,-5.148849,-0.710471,10.398561,-5.3601685,5.1159663,-7.3255997,0.5665889,13.769679,-0.2079611,14.342058,-41.089653,59.095963,-2.269312,4.6225147,1.9920437,2.6590831,-9.725996,31.344217,59.073696,-0.596704,9.988042,-10.979176
132,4.562623977661133,-11.1635103225708,75.40741729736328,-0.49646558221368153,0.339798885249313,-91.63924437030767,15.438513,0.27014768,11.056535,7.288819,-21.738384,-1.9860125,-24.563757,-5.376856,-0.7986209,7.7603016,-4.7319,5.215777,-7.6812344,0.56542385,13.682259,-0.18527833,14.352222,-41.061615,59.13141,-2.2396433,4.7804575,1.9975611,2.9096475,-9.719699,31.536959,59.257797,-0.5890407,9.945132,-11.026982
133,4.497111797332764,-11.631604194641113,75.29197692871094,-0.4194601022477164,0.3971515715378087,-91.1814994981697,15.729286,0.2762881,10.631265,7.2913084,-21.952003,-2.1019998,-24.684254,-5.614122,-0.8082353,6.96517,-5.0237947,5.358075,-7.9880877,0.5549665,13.612662,-0.18997338,14.358845,-41.024517,59.219296,-2.135505,4.786291,1.9644092,3.201211,-9.712119,31.590727,59.35158,-0.52960616,10.001655,-10.988891
134,4.420871257781982,-12.118157386779785,75.1777114868164,-0.340490310114369,0.4504527183779968,-90.71223602264233,16.03046,0.292593,10.194038,7.294282,-22.160486,-2.220108,-25.083462,-5.855901,-0.7853095,6.8791466,-5.6420326,5.527195,-8.2896805,0.54099333,13.541757,-0.18642363,14.366079,-40.951614,59.3251,-1.9830469,4.7035875,1.9089628,3.5146859,-9.701026,31.593946,59.391354,-0.3810072,10.11761,-10.906408
135,4.334987163543701,-12.617863655090332,75.07720947265625,-0.26722426220206436,0.5113794375200166,-90.2626938919041,16.329762,0.32572433,9.775357,7.298675,-22.353312,-2.3446107,-25.441504,-6.076931,-0.75002146,6.812943,-6.1777887,5.6912146,-8.562637,0.5374471,13.469451,-0.18270802,14.375787,-40.84853,59.418232,-1.8285762,4.599356,1.8528544,3.8238173,-9.683303,31.566872,59.412643,-0.2259316,10.239347,-10.805517
136,4.239784240722656,-13.12536334991455,74.98026275634766,-0.20498923281370302,0.5917567416612549,-89.86157068276113,16.616821,0.37885347,9.403277,7.3017287,-22.518377,-2.4793372,-25.763126,-6.255095,-0.69395626,6.765225,-6.585378,5.819984,-8.783711,0.55694985,13.382672,-0.18515757,14.384641,-40.74711,59.48073,-1.7391907,4.5402203,1.8260224,4.1214395,-9.663377,31.5502,59.437172,-0.12270941,10.316143,-10.72076
137,4.1446404457092285,-13.636556625366211,74.88507843017578,-0.14824438099866452,0.7034631348277314,-89.51684994940685,16.87508,0.44419134,9.08412,7.305065,-22.660547,-2.6215374,-26.069431,-6.3819447,-0.5696015,6.7314615,-6.841184,5.928636,-8.982121,0.5891803,13.27208,-0.17285474,14.399684,-40.599953,59.48601,-1.7223217,4.554018,1.8428351,4.3676667,-9.622844,31.5792,59.506653,-0.099188045,10.324961,-10.656654
138,4.057425498962402,-14.134486198425293,74.78411865234375,-0.09727725451149333,0.8381173350565592,-89.21361634367237,17.115818,0.52263504,8.804482,7.3064876,-22.78274,-2.7728558,-26.349104,-6.4648004,-0.39870608,6.7082376,-6.970714,6.0287714,-9.130192,0.64283335,13.143618,-0.1717204,14.409069,-40.457466,59.46923,-1.7669654,4.6012025,1.8914716,4.618196,-9.589124,31.603516,59.554623,-0.11502082,10.298596,-10.595214
139,3.9472501277923584,-14.64498519897461,74.69107818603516,-0.06312416888707995,0.9755079415537978,-88.9458622515482,17.363268,0.6283611,8.563073,7.309129,-22.873137,-2.9367297,-26.556952,-6.50763,-0.2761637,6.6966033,-7.0010204,6.088012,-9.238693,0.71730506,13.012182,-0.16716208,14.416615,-40.301647,59.43745,-1.8307039,4.6498814,1.9405403,4.859331,-9.553995,31.63844,59.60397,-0.1326465,10.260686,-10.544719
140,3.820594072341919,-15.165345191955566,74.60966491699219,-0.056869240942851285,1.0959828745218019,-88.70753450447552,17.645187,0.77556443,8.358624,7.309399,-22.916338,-3.1185887,-26.648298,-6.514288,-0.29721808,6.6963754,-6.9568806,6.0735826,-9.323609,0.8082618,12.888994,-0.13948606,14.428536,-40.112114,59.397495,-1.8723042,4.668286,1.959691,5.0698075,-9.496699,31.709848,59.691166,-0.11075596,10.234716,-10.516695
141,3.69831919670105,-15.697807312011719,74.53784942626953,-0.07291923614549677,1.1785988801352856,-88.49551716385496,17.985804,0.958299,8.192656,7.310656,-22.91995,-3.321729,-26.580078,-6.499859,-0.5345756,6.71223,-6.868245,6.00566,-9.344415,0.9085279,12.787778,-0.10539708,14.444531,-39.929726,59.36258,-1.8886411,4.6445546,1.9353639,5.290512,-9.428582,31.783993,59.781876,-0.030473057,10.222042,-10.5206785
142,3.574486494064331,-16.240886688232422,74.47576904296875,-0.10975903371569332,1.2386708066159637,-88.31368332761055,18.367363,1.173,8.066358,7.3110104,-22.887598,-3.5430236,-26.38552,-6.452404,-0.9229045,6.741699,-6.7132635,5.892549,-9.309621,1.0224628,12.700535,-0.06500303,14.464453,-39.745853,59.32051,-1.8970115,4.5970755,1.8848649,5.5170984,-9.352935,31.862158,59.870377,0.08259905,10.211597,-10.54769
143,3.43591570854187,-16.796728134155273,74.42593383789062,-0.1845989782591463,1.310199760981058,-88.16701102463054,18.74751,1.4386799,7.9788585,7.309193,-22.800829,-3.7784283,-26.13672,-6.3355923,-1.3489739,6.7806,-6.442939,5.683198,-9.239743,1.1767491,12.605944,-0.020326836,14.488845,-39.56677,59.26708,-1.9259435,4.539482,1.8320221,5.719699,-9.270386,31.95011,59.975662,0.19474547,10.211428,-10.577504
144,3.296833038330078,-17.373552322387695,74.3834228515625,-0.3147140548227958,1.4273253940593211,-88.0598751934861,19.08362,1.7737367,7.928596,7.308884,-22.64551,-4.023621,-25.907019,-6.115079,-1.7005565,6.8249383,-6.0073547,5.328491,-9.141148,1.4054006,12.485629,0.013530761,14.510761,-39.417763,59.2056,-2.0089917,4.484923,1.8017776,5.894489,-9.201012,32.037132,60.08213,0.27033782,10.231122,-10.585586
145,3.1472134590148926,-17.952478408813477,74.36459350585938,-0.526133679160947,1.6177239234865246,-88.00709517863318,19.328964,2.2103093,7.9345884,7.3439155,-22.44437,-4.296772,-25.719923,-5.7515683,-1.9729003,6.881889,-5.35364,4.716343,-9.034816,1.7245804,12.322753,0.054747775,14.544454,-39.264107,59.11469,-2.1665637,4.4362907,1.8041314,5.9849377,-9.105126,32.160244,60.2527,0.2921017,10.277898,-10.569901
146,2.995638608932495,-18.547019958496094,74.36705017089844,-0.8017496818128312,1.8549503413520056,-87.99116354774624,19.524715,2.7282324,7.98095,7.390752,-22.189278,-4.5939465,-25.53636,-5.2778206,-2.2274039,6.9563875,-4.5215015,3.9110932,-8.904331,2.1182039,12.133687,0.093922846,14.585991,-39.12874,59.004063,-2.3835616,4.386544,1.8253082,6.032444,-8.999595,32.29143,60.448948,0.27731872,10.346017,-10.5386305
147,2.829362392425537,-19.14218521118164,74.3792724609375,-1.090401832393357,2.083129912039249,-87.98006481871083,19.734146,3.2658577,8.023321,7.448944,-21.867083,-4.8763633,-25.877296,-4.791679,-2.3922825,8.190245,-4.2028403,3.129698,-8.77115,2.5251875,11.944915,0.14171207,14.634595,-39.01201,58.890804,-2.6080496,4.3363104,1.8491765,6.0601177,-8.886347,32.425404,60.659542,0.2598549,10.419332,-10.505022
148,2.652200698852539,-19.756999969482422,74.39604187011719,-1.351286321722687,2.2506844341346914,-87.94890478341175,20.014505,3.7734804,8.026407,7.5183535,-21.462664,-5.1065035,-26.49706,-4.35439,-2.4683192,10.099281,-4.234935,2.5850353,-8.644458,2.8989515,11.782059,0.20205617,14.683798,-38.921143,58.797783,-2.7897058,4.2858543,1.8605077,6.098454,-8.775948,32.54941,60.863422,0.27201477,10.482301,-10.480758
149,2.474691390991211,-20.39109992980957,74.4200439453125,-1.5965078188842345,2.3547658858801683,-87.89708961756656,20.138943,4.301429,7.969403,8.098883,-21.248718,-5.267273,-26.815836,-3.9243815,-2.449499,11.421654,-3.897937,2.3423748,-8.5037775,3.264299,11.646245,0.25073707,14.7142725,-38.886135,58.745052,-2.9151945,4.231794,1.8473277,6.182708,-8.703134,32.64785,61.016098,0.342452,10.535829,-10.470476
150,2.298508405685425,-21.042404174804688,74.44178009033203,-1.8515582021518213,2.425044164456824,-87.83710530418517,20.048405,4.8833294,7.864641,9.241502,-21.253706,-5.3835,-26.97524,-3.4715335,-2.3564107,12.446533,-3.32194,2.2813199,-8.370111,3.6222591,11.513705,0.31810877,14.760886,-38.86921,58.701504,-3.0074425,4.177538,1.8192908,6.2344294,-8.585568,32.756683,61.22396,0.44831395,10.581659,-10.479058
151,2.1271536350250244,-21.70574951171875,74.47154235839844,-2.103108891573485,2.4613759557854,-87.76868066302866,19.955627,5.4658966,7.7341223,10.471946,-21.210064,-5.480249,-27.023413,-3.030204,-2.2791808,13.345135,-2.742684,2.3304427,-8.2465515,3.979212,11.398115,0.40153784,14.802547,-38.855343,58.67122,-3.0825589,4.1256533,1.7991475,6.281105,-8.474176,32.858955,61.43007,0.5422882,10.621181,-10.480942
152,1.9418978691101074,-22.384567260742188,74.51141357421875,-2.3335611191292003,2.4620338491424003,-87.69185980558017,19.85348,6.023791,7.5843363,11.789907,-21.101109,-5.580262,-27.01357,-2.6417587,-2.3065655,14.298519,-2.3919382,2.4170475,-8.164299,4.316957,11.307887,0.52700204,14.838502,-38.793137,58.643066,-3.148466,4.080417,1.8079437,6.3050103,-8.373965,32.974323,61.64244,0.5835907,10.652682,-10.4608555
153,1.7508338689804077,-23.063203811645508,74.55036926269531,-2.5297648375099597,2.412581787601244,-87.61532706647128,19.782011,6.539327,7.4221554,13.1510935,-20.921255,-5.686489,-26.970022,-2.331211,-2.4548755,15.415278,-2.397746,2.5606017,-8.137504,4.6266084,11.25863,0.7175409,14.869461,-38.66419,58.602448,-3.2040882,4.0438833,1.8685629,6.2942276,-8.285838,33.117355,61.878983,0.6188803,10.661307,-10.451408
154,1.5703041553497314,-23.756603240966797,74.58758544921875,-2.7034780702036167,2.318729917027203,-87.53873580720327,19.7332,7.033119,7.2436037,14.562251,-20.675285,-5.782158,-26.871967,-2.0788875,-2.6715412,16.603405,-2.625061,2.7811294,-8.150523,4.9175158,11.242245,0.9573803,14.895957,-38.489483,58.556187,-3.2438698,4.0135307,1.9638522,6.2582593,-8.209611,33.28088,62.130917,0.6527963,10.65277,-10.449101
155,1.3732515573501587,-24.463197708129883,74.629150390625,-2.871062658489275,2.207410470442118,-87.44682187242036,19.633326,7.5315833,7.0363336,16.093712,-20.359602,-5.8593025,-26.692207,-1.8594506,-2.9451652,17.718504,-2.9038756,3.0098622,-8.186674,5.199108,11.233369,1.2128247,14.919578,-38.28699,58.521732,-3.2738166,3.9864264,2.0540686,6.213169,-8.140786,33.446125,62.365902,0.57977724,10.656363,-10.383236
156,1.1719433069229126,-25.184837341308594,74.68242645263672,-3.0495114816790863,2.1065006824661836,-87.32289084266154,19.409742,8.058986,6.786292,17.81153,-19.96738,-5.9123955,-26.399754,-1.6394585,-3.266947,18.603601,-3.0587258,3.1809103,-8.236614,5.477965,11.205229,1.4574922,14.946184,-38.06635,58.51297,-3.298469,3.9600103,2.0988688,6.1646633,-8.063845,33.601086,62.566845,0.29437807,10.69992,-10.185292
157,0.965127170085907,-25.904497146606445,74.73918914794922,-3.2479270105692866,2.0239796530115104,-87.16351727757952,19.067629,8.61959,6.471051,19.6966,-19.493727,-5.9485326,-25.967056,-1.4088163,-3.6693861,19.187698,-3.033745,3.2827942,-8.288088,5.759908,11.143682,1.6885941,14.974403,-37.829662,58.54227,-3.3055277,3.930421,2.0773847,6.1287026,-7.978807,33.742634,62.725735,-0.34728688,10.794767,-9.748108
158,0.7554191946983337,-26.640426635742188,74.81014251708984,-3.4540471389775798,1.9443551740985892,-86.97973403036647,18.64564,9.196955,6.104468,21.708162,-18.93332,-5.9652896,-25.417076,-1.1792271,-4.141569,19.562368,-2.9250815,3.351405,-8.342797,6.0396576,11.06535,1.9154847,15.000635,-37.577965,58.60183,-3.2994974,3.9000955,2.014949,6.102769,-7.8939257,33.870846,62.847908,-1.2549325,10.917314,-9.135492
159,0.5278858542442322,-27.381668090820312,74.892822265625,-3.6541737125393103,1.8600036360760754,-86.77689067894907,18.133696,9.778963,5.7295814,23.857014,-18.272326,-5.9463363,-24.793232,-0.9451564,-4.610421,19.812504,-2.7854464,3.3935254,-8.415108,6.295172,10.986738,2.1376646,15.03775,-37.31067,58.671726,-3.30515,3.8768754,1.940275,6.038729,-7.781018,33.98629,62.97486,-2.1767237,11.046177,-8.540277
160,0.3086509108543396,-28.117868423461914,74.98141479492188,-3.8348210741873365,1.7631550408047094,-86.55997265511225,17.5228,10.354551,5.389999,26.155136,-17.495747,-5.877106,-24.1399,-0.7027398,-5.0044403,20.024315,-2.6686811,3.4160123,-8.468606,6.5327115,10.928994,2.3113482,15.076779,-37.096558,58.75389,-3.3659704,3.8670766,1.8858635,5.9593368,-7.6778264,34.02471,63.049793,-2.8737254,11.174212,-8.143026
161,0.09792368859052658,-28.859949111938477,75.07551574707031,-3.9876073919719377,1.654112720625054,-86.31082206153766,16.79529,10.916756,5.087011,28.637348,-16.578503,-5.7559686,-23.44751,-0.44929394,-5.290771,20.174822,-2.5353205,3.4342537,-8.515152,6.7456484,10.8912325,2.4282365,15.113698,-36.95023,58.85868,-3.5222378,3.8713236,1.8618677,5.872166,-7.5992928,33.99279,63.055325,-3.2075198,11.29962,-8.025152
162,-0.11813007295131683,-29.600181579589844,75.17267608642578,-4.118762280390011,1.534859805247703,-86.03526132727875,15.965375,11.466391,4.8037868,31.283167,-15.532708,-5.5930634,-22.700663,-0.18558516,-5.5096226,20.235212,-2.3757758,3.4416199,-8.56065,6.9276237,10.865792,2.5136425,15.164283,-36.841743,58.973812,-3.7436278,3.8873725,1.8497927,5.7625494,-7.5143814,33.910965,63.02553,-3.331607,11.431243,-8.080696
163,-0.31213000416755676,-30.339122772216797,75.26219940185547,-4.238542430083066,1.4007741645818568,-85.77268625474612,15.070767,12.007532,4.5569563,34.027664,-14.404499,-5.391313,-21.930779,0.085149646,-5.7007732,20.276352,-2.2850473,3.4113293,-8.584805,7.1079664,10.866183,2.560295,15.199024,-36.74712,59.099636,-3.9561439,3.9130058,1.8422939,5.6476398,-7.469074,33.76744,62.927418,-3.4293404,11.587073,-8.204424
164,-0.5083392858505249,-31.064071655273438,75.34245300292969,-4.3563938432790135,1.2471491202673295,-85.56201417672342,14.142987,12.546357,4.3611245,36.820953,-13.241037,-5.150172,-21.169588,0.35763565,-5.9036255,20.370941,-2.3586354,3.3159602,-8.5661745,7.282724,10.904379,2.5974715,15.253758,-36.63426,59.181843,-4.086484,3.9521487,1.8250414,5.484306,-7.413592,33.536526,62.82164,-3.702123,11.778197,-8.299187
165,-0.7042960524559021,-31.78546714782715,75.42267608642578,-4.474648311233842,1.0714450847502544,-85.42908671081099,13.179506,13.086887,4.2255,39.70201,-12.050007,-4.857519,-20.43811,0.63290846,-6.1260285,20.566158,-2.6558697,3.1285815,-8.497671,7.467196,10.981773,2.6199193,15.310943,-36.500675,59.22576,-4.101896,4.0201077,1.7865599,5.2826214,-7.373082,33.227272,62.664696,-4.153146,12.028006,-8.3346815
166,-0.8978588581085205,-32.49490737915039,75.50304412841797,-4.586791529485356,0.875958326520304,-85.34814524282082,12.165273,13.625747,4.141878,42.690098,-10.810634,-4.518054,-19.714176,0.9119983,-6.3455925,20.813717,-3.1143138,2.8701894,-8.394422,7.6553454,11.091962,2.6181097,15.360256,-36.356133,59.254128,-4.0430546,4.110038,1.7361872,5.051995,-7.3558497,32.847908,62.45324,-4.6948094,12.323326,-8.363103
167,-1.0704443454742432,-33.19533157348633,75.58255004882812,-4.691539343157714,0.6641609357095016,-85.28008317428703,11.109693,14.167448,4.0970917,45.708946,-9.534425,-4.147062,-18.965069,1.1898698,-6.5576506,21.042137,-3.646799,2.5855274,-8.275445,7.835579,11.23494,2.5946038,15.405204,-36.19407,59.27466,-3.9523463,4.188122,1.6977564,4.7973895,-7.358616,32.403248,62.23067,-5.36638,12.62751,-8.405491
168,-1.2598789930343628,-33.88209533691406,75.65570831298828,-4.7887873264072685,0.43978525822116904,-85.18586583027944,10.019067,14.724283,4.0759354,48.68784,-8.236203,-3.750101,-18.158241,1.4619515,-6.7588387,21.179544,-4.165828,2.3193197,-8.15837,7.997578,11.4123745,2.5530767,15.452486,-36.008224,59.289993,-3.8715622,4.221032,1.6948267,4.525735,-7.3832755,31.898338,62.035458,-6.204749,12.904701,-8.482503
169,-1.4371213912963867,-34.56037902832031,75.72703552246094,-4.885460669669555,0.19824058198429517,-85.0582289657933,8.859284,15.319981,4.056925,51.706406,-6.904511,-3.260898,-17.280428,1.735178,-6.9480186,21.214024,-4.6721096,2.0770392,-8.054871,8.144931,11.637285,2.4943607,15.501503,-35.78272,59.304646,-3.7713192,4.1792827,1.741501,4.2479634,-7.430665,31.271378,61.826767,-7.2875724,13.143227,-8.556051
170,-1.6075310707092285,-35.235923767089844,75.80055236816406,-4.98280056206051,-0.06050674973813478,-84.917452173305,7.634953,15.96275,4.0542684,54.780148,-5.543852,-2.6744912,-16.34822,2.0112088,-7.126209,21.177477,-5.2028356,1.8374996,-7.949129,8.283855,11.90563,2.4163375,15.55281,-35.5294,59.312473,-3.6436727,4.088084,1.8225441,3.961039,-7.501909,30.536877,61.596535,-8.573761,13.363848,-8.627379
171,-1.788765549659729,-35.90325164794922,75.87397003173828,-5.070613821028573,-0.3256147371413097,-84.76560559262359,6.406601,16.645721,4.1032743,57.75187,-4.199425,-2.084591,-15.373258,2.2781572,-7.295757,21.064037,-5.7244797,1.6051185,-7.8410754,8.409061,12.192248,2.3261456,15.601205,-35.257256,59.310677,-3.5564983,3.9943743,1.9182107,3.6410806,-7.59734,29.842455,61.44681,-9.915189,13.582634,-8.780596
172,-1.9469568729400635,-36.5709114074707,75.9495620727539,-5.139768747253909,-0.5864644624490903,-84.6048840493392,5.233985,17.35605,4.236931,60.46921,-2.9169188,-1.5923011,-14.367427,2.5245368,-7.4600706,20.86768,-6.2037234,1.384014,-7.731463,8.5153265,12.472215,2.2320693,15.641156,-34.97331,59.29515,-3.57701,3.9447832,2.0084763,3.264179,-7.7215114,29.338387,61.47683,-11.160694,13.819221,-9.100037
173,-2.1001136302948,-37.22394561767578,76.0347900390625,-5.200805276220726,-0.8420601464725216,-84.42089987677078,4.122028,18.150211,4.4938335,62.907314,-1.5273834,-1.288922,-13.324861,2.7560325,-7.6380224,20.577156,-6.632565,1.1639409,-7.6364074,8.611351,12.745716,2.1319075,15.666889,-34.65897,59.26331,-3.7380116,3.9620888,2.0864096,2.8144438,-7.8785443,29.12451,61.747673,-12.459907,14.085467,-9.660383
174,-2.263162612915039,-37.87357711791992,76.11911010742188,-5.255656593232857,-1.0983558706754875,-84.2188421226541,3.040302,19.032133,4.843797,65.16027,-0.07365697,-1.0803518,-12.238273,2.980879,-7.822194,20.190598,-7.02401,0.94659233,-7.5561543,8.701106,13.025547,2.024568,15.677197,-34.308247,59.221043,-3.9957056,4.0168924,2.1635063,2.3047202,-8.068356,29.11241,62.194817,-13.822809,14.380748,-10.397959
175,-2.407344341278076,-38.52149963378906,76.20372009277344,-5.288387685701259,-1.353761919400821,-84.02900445765022,2.0028777,19.888464,5.220163,67.23951,1.079654,-0.8206284,-11.122897,3.1870267,-7.978541,19.729364,-7.3825035,0.7534166,-7.464336,8.769751,13.303954,1.9180948,15.673815,-33.951485,59.176853,-4.303166,4.0781274,2.2473679,1.7616827,-8.288569,29.158394,62.725353,-14.898653,14.696312,-11.192144
176,-2.534632682800293,-39.156375885009766,76.29434967041016,-5.275725645044002,-1.6058246602897706,-83.87975763093219,1.0241854,20.584074,5.557693,69.14903,1.5686883,-0.3929065,-9.999461,3.35528,-8.074718,19.224022,-7.7169147,0.6058668,-7.333017,8.79887,13.571895,1.8193936,15.660037,-33.6233,59.138153,-4.614289,4.1148114,2.3448944,1.2145897,-8.535298,29.115524,63.245068,-15.337944,15.0090275,-11.926938
177,-2.659895420074463,-39.783721923828125,76.3880615234375,-5.200961089515093,-1.863524245524638,-83.77107071373122,0.13752255,21.057428,5.858442,70.88265,1.1492598,0.24890539,-8.858511,3.4650967,-8.107186,18.68165,-8.036133,0.5184976,-7.148337,8.770584,13.833328,1.721212,15.6369915,-33.338734,59.11664,-4.9660316,4.114908,2.4742098,0.65458757,-8.807933,29.004107,63.793015,-14.956863,15.326991,-12.624857
178,-2.7745678424835205,-40.409000396728516,76.48101043701172,-5.072428234197998,-2.1236382529030817,-83.6881290948754,-0.6749471,21.346304,6.1427493,72.438774,0.06689709,0.98869705,-7.703525,3.522356,-8.096326,18.104101,-8.342044,0.47626692,-6.9251246,8.694533,14.088913,1.6204741,15.604458,-33.083492,59.10532,-5.368133,4.0957723,2.6261182,0.07389577,-9.107658,28.878141,64.398026,-13.972009,15.638426,-13.339124
179,-2.894989252090454,-41.046382904052734,76.57501220703125,-4.911959502143707,-2.3640673250547173,-83.63662928199344,-1.476187,21.458372,6.3784294,73.82164,-1.3016717,1.69457,-6.5745096,3.5455096,-8.046061,17.513397,-8.633055,0.45649385,-6.677561,8.592466,14.3231325,1.5297936,15.564163,-32.849518,59.08257,-5.7351956,4.071813,2.766376,-0.49639064,-9.432565,28.639235,64.95117,-12.637871,15.886453,-13.998873
180,-2.992224931716919,-41.69435501098633,76.66434478759766,-4.736027536192209,-2.5634420281491717,-83.62324980684382,-2.327676,21.42046,6.5466475,75.033806,-2.5776293,2.2534854,-5.5084023,3.5555558,-7.9584455,16.92541,-8.903992,0.43755803,-6.4126577,8.4874735,14.519492,1.4581395,15.519305,-32.636578,59.028713,-5.983742,4.058363,2.8614964,-1.0270661,-9.780246,28.185268,65.34814,-11.208597,16.023186,-14.526826
181,-3.0871989727020264,-42.322532653808594,76.74999237060547,-4.5467331042315084,-2.7118647969163723,-83.66490422322923,-3.2375972,21.21826,6.6524005,76.066475,-3.749886,2.627701,-4.5204167,3.5577314,-7.8168564,16.335213,-9.1462,0.42343402,-6.1200075,8.383856,14.670993,1.4103022,15.471739,-32.440098,58.92848,-6.075546,4.076556,2.8955784,-1.5091621,-10.15028,27.4172,65.556046,-9.593614,16.029535,-14.905742
182,-3.1625237464904785,-42.90788269042969,76.82654571533203,-4.336705910336087,-2.821675184965562,-83.75248871765837,-4.178916,20.84171,6.711949,76.92046,-4.982083,2.8778489,-3.589554,3.540651,-7.6279054,15.737901,-9.366678,0.42307195,-5.7944913,8.2714815,14.786437,1.3789157,15.421718,-32.269012,58.794968,-6.062725,4.1134787,2.888885,-1.9535125,-10.543109,26.407043,65.630936,-7.714637,15.935109,-15.167609
183,-3.267430067062378,-43.54330062866211,76.91999053955078,-4.112027743645177,-2.905397361133628,-83.85443858027777,-5.1557784,20.339638,6.732366,77.61163,-6.159929,3.0515146,-2.7003357,3.5013156,-7.426882,15.1541605,-9.581681,0.4228357,-5.4560633,8.151717,14.874468,1.3583813,15.370489,-32.137936,58.64877,-5.996675,4.1334844,2.8617857,-2.3620806,-10.956019,25.308659,65.60267,-5.8511066,15.77659,-15.307664
184,-3.3459599018096924,-44.13638687133789,76.98877716064453,-3.881402360892111,-2.9762862111684645,-83.93948971318515,-6.17228,19.76183,6.718638,78.15767,-7.171,3.195542,-1.8407371,3.4385686,-7.2488527,14.611588,-9.810513,0.40772358,-5.12642,8.025136,14.943948,1.3451531,15.320128,-32.05672,58.508987,-5.9266257,4.101015,2.834657,-2.7431805,-11.385009,24.279314,65.50646,-4.279539,15.5927305,-15.326298
185,-3.4179694652557373,-44.75276184082031,77.05433654785156,-3.6393085521376407,-3.0356716223062947,-84.00227494715165,-7.2329044,19.112263,6.6834474,78.5579,-7.977256,3.3363762,-1.0146837,3.343856,-7.100084,14.126395,-10.061115,0.37501448,-4.813786,7.88617,14.991282,1.3465159,15.273523,-32.03071,58.379883,-5.8436213,3.982294,2.8023045,-3.095157,-11.82421,23.299696,65.34415,-3.0685272,15.397809,-15.183048
186,-3.4992690086364746,-45.36930847167969,77.11676025390625,-3.387237392797806,-3.0776971882631408,-84.05815037664495,-8.3315525,18.370815,6.6256022,78.80061,-8.6382885,3.4457774,-0.22655435,3.2230208,-6.9644837,13.683831,-10.3232975,0.3305098,-4.5091233,7.73474,15.014793,1.3657923,15.231751,-32.048992,58.248375,-5.7274203,3.8045914,2.7574735,-3.4244828,-12.27137,22.311127,65.10963,-2.0675993,15.17806,-14.892293
187,-3.5681514739990234,-45.98412322998047,77.17615509033203,-3.1359209592216493,-3.10546336384488,-84.10688727529791,-9.455982,17.550793,6.52768,78.88931,-9.19118,3.488068,0.5391091,3.097364,-6.840852,13.256448,-10.587267,0.27184942,-4.210738,7.580287,15.026728,1.3933696,15.194034,-32.094704,58.108513,-5.6115923,3.6237173,2.717194,-3.7467794,-12.72884,21.409967,64.81874,-1.2291749,14.927009,-14.540933
188,-3.6361005306243896,-46.57025146484375,77.21955108642578,-2.9014306223552633,-3.121562813551133,-84.14830220388998,-10.593488,16.665342,6.3721733,78.82733,-9.673336,3.4287124,1.3014356,2.9877093,-6.7274046,12.80738,-10.840524,0.19829126,-3.9225476,7.431685,15.0397415,1.4234799,15.158125,-32.143723,57.952732,-5.526613,3.4954545,2.697833,-4.08033,-13.201232,20.703022,64.48755,-0.5020892,14.635428,-14.215729
189,-3.6903183460235596,-47.16834259033203,77.2551040649414,-2.6831004351448837,-3.130456938292694,-84.17645929761441,-11.742553,15.698708,6.142982,78.61252,-10.081106,3.2591221,2.0659668,2.89719,-6.6266537,12.335831,-11.080722,0.10569398,-3.655964,7.289555,15.059878,1.4569002,15.122766,-32.19206,57.773193,-5.4824247,3.4398198,2.7082398,-4.4296756,-13.692372,20.221024,64.110695,0.11467289,14.280667,-13.906335
190,-3.7531347274780273,-47.7811393737793,77.28346252441406,-2.4765383166925545,-3.130073549985846,-84.19356494887286,-12.904217,14.65381,5.8548646,78.24141,-10.400227,2.998514,2.8265474,2.8171616,-6.537681,11.850216,-11.311412,-0.0025936363,-3.409694,7.15088,15.080745,1.4981967,15.087737,-32.246162,57.574646,-5.4600863,3.4252112,2.7376912,-4.787392,-14.202267,19.914223,63.681007,0.60241073,13.873079,-13.5783615
191,-3.8223233222961426,-48.38465118408203,77.30475616455078,-2.2826375726838113,-3.1138181486343353,-84.21221552080516,-14.069824,13.574177,5.5354247,77.71597,-10.654452,2.6600778,3.567156,2.7480557,-6.453939,11.363965,-11.538192,-0.115273654,-3.1679306,7.0182247,15.094842,1.5460821,15.051909,-32.298317,57.371265,-5.447764,3.430143,2.7735898,-5.1527686,-14.73108,19.76485,63.21208,0.97696257,13.451244,-13.282489
192,-3.880955696105957,-48.99011993408203,77.32267761230469,-2.103318944513204,-3.0740250901749713,-84.24537858439302,-15.231985,12.50249,5.2109365,77.03733,-10.866375,2.2548614,4.2696366,2.689016,-6.3687305,10.894555,-11.768801,-0.22197558,-2.916037,6.893619,15.094934,1.599658,15.013491,-32.339344,57.176453,-5.432724,3.4330444,2.8031757,-5.5289607,-15.277876,19.761148,62.720375,1.2583966,13.053436,-13.069856
193,-3.9356679916381836,-49.596248626708984,77.32755279541016,-1.9361773927210228,-3.002155189654645,-84.29848178334377,-16.40409,11.43326,4.8694725,76.20311,-11.044473,1.7576342,4.927378,2.6416783,-6.280225,10.428604,-11.994965,-0.31755528,-2.6456723,6.779322,15.072511,1.654458,14.971079,-32.370316,56.995438,-5.4141183,3.436787,2.8263202,-5.9193783,-15.8445015,19.928116,62.202972,1.4306709,12.6579895,-12.959026
194,-3.9925527572631836,-50.19257736206055,77.31482696533203,-1.7827180117695158,-2.904140095132509,-84.36484941121518,-17.580915,10.354502,4.5009427,75.20958,-11.179039,1.175768,5.5505595,2.605505,-6.1906853,9.96317,-12.216384,-0.40823293,-2.365304,6.673795,15.033934,1.7111741,14.923986,-32.395245,56.821606,-5.3977118,3.449773,2.8487422,-6.32297,-16.430393,20.26476,61.650112,1.4900621,12.253619,-12.922508
195,-4.047818660736084,-50.79554748535156,77.29224395751953,-1.6406876261591588,-2.794997989520692,-84.43893041303917,-18.729488,9.300618,4.1334596,74.05723,-11.26509,0.57149136,6.148719,2.5775416,-6.099375,9.525846,-12.448463,-0.5019606,-2.084689,6.572943,14.993578,1.7753067,14.872038,-32.40934,56.65359,-5.3801312,3.4589086,2.867193,-6.7358027,-17.029427,20.71657,61.071182,1.4715313,11.894168,-12.942644
196,-4.10479211807251,-51.394187927246094,77.2650146484375,-1.5045455223441966,-2.6895333370111505,-84.514609141612,-19.81849,8.303176,3.794099,72.74572,-11.294828,0.005212137,6.7300477,2.554655,-6.006153,9.145028,-12.706288,-0.6072319,-1.8128109,6.471373,14.964571,1.8520482,14.815644,-32.409645,56.49105,-5.3587503,3.4512768,2.8788817,-7.15026,-17.632523,21.223608,60.474827,1.4051147,11.633464,-13.00205
197,-4.1550092697143555,-52.008182525634766,77.23483276367188,-1.380531932755849,-2.5911260019122295,-84.58847916357841,-20.850588,7.352626,3.4672453,71.27176,-11.257496,-0.5330574,7.28643,2.537092,-5.912711,8.853517,-13.007185,-0.74038726,-1.5480055,6.366577,14.9488735,1.9418675,14.755481,-32.391697,56.34259,-5.3297048,3.4091768,2.8795774,-7.5694833,-18.236305,21.807552,59.85235,1.282502,11.516151,-13.126035
198,-4.208674430847168,-52.60254669189453,77.19297790527344,-1.2641698737921916,-2.492175741705807,-84.66459584771052,-21.83632,6.440558,3.140581,69.6327,-11.160011,-1.0648041,7.8277445,2.5273178,-5.817369,8.605339,-13.32843,-0.89316916,-1.2859248,6.2601094,14.93938,2.0415897,14.692231,-32.359375,56.206596,-5.2959204,3.344308,2.8723757,-7.9987426,-18.839264,22.4884,59.204315,1.0925313,11.5038185,-13.315094
199,-4.262553691864014,-53.206539154052734,77.14228057861328,-1.1534151969520032,-2.389563297487565,-84.74782981869568,-22.759977,5.5960655,2.8476179,67.83147,-11.018994,-1.5495163,8.348735,2.5195847,-5.716686,8.395008,-13.665245,-1.0366104,-1.0294582,6.15015,14.934191,2.1497977,14.62708,-32.323612,56.06978,-5.2649527,3.2877994,2.8652546,-8.432097,-19.435165,23.19966,58.55663,0.8587827,11.525237,-13.514995
200,-4.308250427246094,-53.831398010253906,77.08444213867188,-1.04261120339308,-2.280455712772371,-84.8428107129734,-23.606705,4.8457193,2.6231027,65.87102,-10.849869,-1.9489717,8.863644,2.510079,-5.606983,8.175602,-13.995155,-1.1418725,-0.77823424,6.0349536,14.930935,2.2623653,14.561914,-32.30069,55.920227,-5.246855,3.2709482,2.8667846,-8.860005,-20.015724,23.868378,57.93481,0.6021644,11.5085745,-13.672235
201,-4.354644775390625,-54.458229064941406,77.01927185058594,-0.930547496276806,-2.1647029236007116,-84.95202218185024,-24.375475,4.189058,2.476289,63.74684,-10.662889,-2.2589726,9.372215,2.4938467,-5.485473,7.93997,-14.312603,-1.1926291,-0.52965206,5.9083347,14.931253,2.377145,14.498843,-32.29048,55.748463,-5.2581654,3.3220983,2.8845978,-9.280704,-20.579006,24.483234,57.34182,0.2972759,11.433964,-13.784575
202,-4.398324489593506,-55.07822799682617,76.94278717041016,-0.8124696279984023,-2.0432794273050803,-85.07358615062361,-25.073618,3.6073987,2.3917496,61.45771,-10.445999,-2.5009446,9.863275,2.4693723,-5.3542895,7.721547,-14.635515,-1.2076535,-0.28104883,5.76716,14.93464,2.4964213,14.4391985,-32.288906,55.562546,-5.2903,3.4181488,2.9127061,-9.701852,-21.12663,25.07824,56.771088,-0.056346983,11.339531,-13.877872
203,-4.443947792053223,-55.709693908691406,76.86050415039062,-0.6939457116143302,-1.912400666094236,-85.20589453398424,-25.697721,3.0984209,2.3683372,59.002827,-10.175209,-2.677085,10.283762,2.4349782,-5.2195787,7.636909,-15.02918,-1.2095609,-0.032698352,5.6158857,14.933789,2.6213944,14.383805,-32.305534,55.378323,-5.314918,3.513121,2.9386892,-10.119555,-21.653816,25.641926,56.22769,-0.4081898,11.239511,-13.9404545
204,-4.497949600219727,-56.33732223510742,76.76792907714844,-0.5849081605988332,-1.770736293034478,-85.34446781721248,-26.23986,2.6648147,2.397398,56.3746,-9.82438,-2.7910318,10.674901,2.4071198,-5.0861087,7.608382,-15.457225,-1.2216989,0.21170352,5.466462,14.920732,2.753848,14.333028,-32.35082,55.21424,-5.304181,3.5612361,2.9500334,-10.504605,-22.15129,26.140717,55.698494,-0.7318328,11.148408,-13.960801
205,-4.556534290313721,-56.96904754638672,76.66608428955078,-0.4871115103321448,-1.6159781357992025,-85.48291444190815,-26.70385,2.310641,2.48716,53.556786,-9.384605,-2.8253284,11.066114,2.3918386,-4.960416,7.56879,-15.889447,-1.2458472,0.4492114,5.3182592,14.894268,2.8914137,14.288337,-32.42991,55.078133,-5.242327,3.536104,2.9412804,-10.887619,-22.616943,26.592894,55.215416,-1.0196835,11.063563,-13.929853
206,-4.602389812469482,-57.61492156982422,76.56013488769531,-0.4003218948294205,-1.4500308439462823,-85.6245037330468,-27.087141,2.0260577,2.639794,50.55012,-8.865285,-2.791348,11.458535,2.3852568,-4.8376155,7.5139265,-16.319874,-1.270394,0.6785053,5.167236,14.8562,3.0376716,14.25011,-32.53402,54.959156,-5.1473427,3.467111,2.9195998,-11.24912,-23.049513,26.988472,54.759384,-1.3092262,10.978871,-13.856391
207,-4.639204978942871,-58.27455520629883,76.4566421508789,-0.3228453282509607,-1.2781300551634711,-85.78066597742394,-27.370348,1.7924069,2.838956,47.36503,-8.272084,-2.7339525,11.851978,2.3852587,-4.70412,7.4570813,-16.746271,-1.2985806,0.9130971,5.015784,14.810938,3.1884782,14.218258,-32.663708,54.851086,-5.042244,3.3915844,2.8940194,-11.609246,-23.447798,27.341614,54.34958,-1.5314258,10.901186,-13.757652
208,-4.681346416473389,-58.93558883666992,76.34904479980469,-0.2527313036004331,-1.1057978077637587,-85.96289327194278,-27.53439,1.594891,3.0660467,44.00886,-7.60763,-2.6952357,12.248729,2.3915637,-4.545901,7.407038,-17.163282,-1.3351787,1.1607921,4.867227,14.759478,3.345485,14.191102,-32.81493,54.748066,-4.95015,3.3469195,2.8725135,-11.933652,-23.805977,27.62642,53.95966,-1.6653235,10.838353,-13.649903
209,-4.729756832122803,-59.611351013183594,76.23126220703125,-0.19480895088892394,-0.931102004368275,-86.17483193000392,-27.579697,1.4442983,3.3208256,40.458553,-6.833828,-2.6549747,12.643641,2.4059885,-4.3580027,7.370491,-17.576565,-1.3922698,1.4266119,4.72052,14.699074,3.5056126,14.167904,-32.99174,54.65359,-4.880468,3.346467,2.8582458,-12.224223,-24.120308,27.839203,53.595024,-1.6815962,10.799248,-13.527814
210,-4.77094841003418,-60.30052947998047,76.1016845703125,-0.14584715309625448,-0.7537633463973763,-86.41252120929184,-27.504536,1.3392881,3.6149287,36.696907,-5.9517994,-2.604992,13.04138,2.4301934,-4.1453643,7.3365536,-17.983583,-1.465726,1.7091242,4.5744405,14.632011,3.6669939,14.149389,-33.196033,54.571293,-4.8200154,3.3690913,2.8472114,-12.522807,-24.392483,28.010584,53.292892,-1.5792811,10.777114,-13.386727
211,-4.821388244628906,-60.99003982543945,75.971435546875,-0.11697469216583282,-0.5820066595160609,-86.67662151893671,-27.290243,1.261558,3.9374993,32.741383,-5.024849,-2.6014733,13.436114,2.4706037,-3.90898,7.3370667,-18.39383,-1.5369301,2.0016372,4.4406223,14.56318,3.8379176,14.134441,-33.41614,54.495087,-4.757114,3.400688,2.8357332,-12.794641,-24.621468,28.121777,53.02317,-1.4324037,10.758339,-13.2430725
212,-4.860937118530273,-61.69329833984375,75.83287811279297,-0.1194368949937192,-0.4256457034938673,-86.97023223353817,-26.914293,1.20396,4.2735734,28.599787,-4.1114306,-2.6970544,13.851155,2.5395715,-3.646037,7.3464956,-18.787323,-1.5873562,2.303382,4.335573,14.499003,4.023201,14.121561,-33.644436,54.420773,-4.680879,3.4272633,2.8208616,-13.02088,-24.806702,28.164896,52.76969,-1.2997392,10.728743,-13.11361
213,-4.909409046173096,-62.40616989135742,75.68729400634766,-0.17057083295083875,-0.28984958305137926,-87.3065007711037,-26.339483,1.1954356,4.6183605,24.167658,-3.2114422,-2.8984864,14.296519,2.6592295,-3.3396235,7.3512836,-19.164059,-1.6115259,2.627946,4.2780166,14.44629,4.221081,14.11103,-33.88679,54.344624,-4.5908456,3.447237,2.8093112,-13.246103,-24.949673,28.158127,52.57618,-1.1448313,10.679883,-12.9969425
214,-4.948157787322998,-63.138221740722656,75.52577209472656,-0.28798839382975683,-0.17997626295025482,-87.70092281434772,-25.549599,1.2725556,4.9786773,19.41148,-2.2664468,-3.179532,14.777581,2.8474073,-2.9721057,7.3491664,-19.521835,-1.6252849,2.9877093,4.2842226,14.404981,4.43616,14.1016865,-34.14268,54.26716,-4.491827,3.4680095,2.7998414,-13.441812,-25.049583,28.084455,52.418415,-0.9730605,10.621365,-12.884508
215,-4.979736804962158,-63.8814697265625,75.35395812988281,-0.4866034645948412,-0.1080344232165195,-88.16640124149815,-24.553999,1.4523442,5.35923,14.446742,-1.2506557,-3.5422666,15.307833,3.1166637,-2.5323925,7.3389072,-19.840141,-1.6436954,3.379598,4.366055,14.378063,4.6851473,14.094676,-34.380093,54.186436,-4.3753295,3.4881885,2.77818,-13.648237,-25.090488,28.009241,52.32659,-0.7885006,10.563272,-12.7878
216,-5.021942615509033,-64.64224243164062,75.16617584228516,-0.7746988964938498,-0.08037634376431742,-88.70691603739556,-23.340946,1.7306635,5.7702146,9.327297,-0.10045903,-3.9880507,15.893998,3.465781,-2.0183868,7.3208833,-20.099194,-1.6794443,3.8479755,4.541729,14.367561,4.941272,14.083922,-34.638157,54.122128,-4.250747,3.5059118,2.735559,-13.804322,-25.116108,27.91021,52.23197,-0.61066616,10.518182,-12.708057
217,-5.049745559692383,-65.42423248291016,74.97464752197266,-1.149719388001375,-0.09181730750343443,-89.32685664939332,-23.149307,2.226838,6.178647,6.6255817,-0.20243876,-4.532356,16.531338,3.8908598,-1.4347832,7.297681,-20.301987,-1.7363709,4.372194,4.8097034,14.365791,5.2279115,14.068568,-34.883995,54.05769,-4.097673,3.5241039,2.654078,-13.914962,-25.121948,27.804993,52.129326,-0.4441098,10.4914,-12.650567
218,-5.074779510498047,-66.20842742919922,74.78050231933594,-1.557656510338457,-0.12227373419214177,-89.9865088469319,-24.065924,2.9128242,6.5558686,6.4467287,-1.6389954,-5.1495457,17.197647,4.330716,-0.8199118,7.27418,-20.46073,-1.794412,4.9297466,5.1141076,14.360074,5.5217137,14.046805,-35.140865,54.00828,-3.9255238,3.5411227,2.5467312,-13.990519,-25.109392,27.679007,52.0346,-0.2658002,10.475632,-12.6123905
219,-5.071383476257324,-67.02530670166016,74.5863265991211,-1.9248993957927116,-0.13599233556259793,-90.60125207323041,-24.956392,3.5596178,6.918879,6.4076242,-3.0659266,-5.787691,17.868963,4.696312,-0.2475722,7.2564692,-20.589334,-1.8208646,5.465007,5.3718004,14.326584,5.772127,14.00944,-35.43043,54.02524,-3.7598464,3.546918,2.4403503,-14.003374,-25.06107,27.49623,51.936565,-0.11310973,10.463105,-12.593369
220,-5.079154014587402,-67.85198211669922,74.40354919433594,-2.162199185022024,-0.1494195252683982,-91.14316217913688,-25.715641,4.059168,7.316394,6.444824,-4.355583,-6.4254932,18.549805,4.891477,0.26145187,7.2471085,-20.672937,-1.7977471,5.892728,5.4936295,14.318302,6.0309854,13.980557,-35.668716,54.039795,-3.5983188,3.5362172,2.3439226,-14.005145,-25.001993,27.353321,51.83093,0.043477267,10.4504595,-12.588681
221,-5.076557159423828,-68.6898422241211,74.24371337890625,-2.3449287039170117,-0.19326315457068535,-91.66467256670325,-26.27078,4.4984407,7.773773,6.4511824,-5.493319,-7.2088904,19.257246,5.00345,0.769881,7.2372937,-20.693197,-1.7358538,6.3008995,5.5632715,14.337606,6.2757754,13.9485855,-35.923103,54.086796,-3.4600072,3.4970157,2.2794898,-13.961689,-24.920057,27.193235,51.724056,0.16889277,10.438665,-12.595247
222,-5.084814071655273,-69.51486206054688,74.09244537353516,-2.530481589511079,-0.254121233809948,-92.17959149721672,-26.690989,4.9289656,8.26904,6.4883075,-6.530214,-8.1230135,19.98594,5.098499,1.2872705,7.225934,-20.657927,-1.6482373,6.6924877,5.638233,14.368157,6.5233984,13.914213,-36.178417,54.145752,-3.3298109,3.4395616,2.2331464,-13.890917,-24.819534,27.034092,51.62132,0.28497168,10.432166,-12.615016
223,-5.0792012214660645,-70.3402328491211,73.9526596069336,-2.6833247914056786,-0.29780175308257867,-92.62871090511744,-26.960314,5.2763586,8.756067,6.5230856,-7.3272157,-8.925969,20.702297,5.1537457,1.7514063,7.2168126,-20.56014,-1.5481486,7.035669,5.674813,14.373413,6.7341466,13.874509,-36.442307,54.267426,-3.2231617,3.3809671,2.1857452,-13.753948,-24.689957,26.836866,51.51377,0.37277296,10.417859,-12.64174
224,-5.081354141235352,-71.16813659667969,73.8248062133789,-2.7650226987125257,-0.3009478148962488,-92.93929569577514,-27.055079,5.4571652,9.165414,6.522737,-7.753288,-9.370563,21.35268,5.149514,2.0841699,7.2804427,-20.429367,-1.4523301,7.2891893,5.614801,14.327793,6.87081,13.814942,-36.72888,54.50434,-3.147517,3.3491144,2.1363852,-13.563899,-24.46546,26.568151,51.455173,0.41216692,10.38913,-12.681434
225,-5.093429088592529,-71.99369812011719,73.71572875976562,-2.7976551375943703,-0.2515159668209236,-93.09319941037597,-26.940172,5.4916244,9.495474,6.5170903,-7.8033857,-9.383353,21.959312,5.1214433,2.2831163,7.3464007,-20.232737,-1.3872724,7.363706,5.4991584,14.25606,7.016826,13.770118,-36.937424,54.73162,-3.101789,3.3556035,2.0543313,-13.295485,-24.257332,26.304031,51.319386,0.44123346,10.346955,-12.718973
226,-5.097323417663574,-72.82269287109375,73.62347412109375,-2.7889893424371826,-0.16455644924174864,-93.12729018887612,-26.639668,5.40569,9.7729845,6.51493,-7.543914,-9.094009,22.530048,5.064566,2.3814979,7.4249864,-19.980711,-1.3395281,7.351534,5.3223963,14.143432,7.116024,13.725153,-37.15385,55.030136,-3.0988362,3.385165,1.9644789,-12.958161,-23.991835,25.974304,51.186035,0.42091617,10.289441,-12.762445
227,-5.096070289611816,-73.67733764648438,73.54662322998047,-2.6831341027777533,-0.03344951340201701,-93.08716780902829,-26.255308,5.151166,9.990812,6.4930477,-6.983474,-8.561096,23.05111,4.894929,2.3933325,7.516434,-19.64934,-1.260488,7.2809796,5.030929,13.992402,7.183548,13.679773,-37.35964,55.382656,-3.0853884,3.424669,1.8701293,-12.578841,-23.67099,25.625479,51.073536,0.3941882,10.230921,-12.816572
228,-5.1066813468933105,-74.5529556274414,73.47747802734375,-2.437658400875499,0.155608925520665,-93.02311400326796,-25.928242,4.7030797,10.134075,6.48207,-6.1533656,-7.84735,23.032833,4.5669713,2.2984176,8.610687,-19.738083,-1.1006119,7.184758,4.58962,13.799418,7.2348714,13.633554,-37.537643,55.76536,-3.0085447,3.4608824,1.772835,-12.172494,-23.321415,25.30784,50.978943,0.4125755,10.186642,-12.8822565
229,-5.102231025695801,-75.42533874511719,73.45651245117188,-1.9600239405568372,0.4325002338358036,-92.9160739473357,-25.674309,3.9421165,10.198063,6.4498043,-4.9376936,-6.817432,22.668203,3.9685643,2.0651534,10.251733,-20.031471,-0.8156835,7.028868,3.9259229,13.582343,7.2825866,13.591395,-37.681263,56.132843,-2.8358688,3.4810405,1.6688066,-11.692798,-23.028082,25.03247,50.786076,0.52533174,10.175085,-12.965399
230,-5.08660364151001,-76.31092071533203,73.46891784667969,-1.2578859454958626,0.7814381093724705,-92.75858552745234,-25.420107,2.8860383,10.226426,6.3724327,-3.3445058,-5.4916706,22.170057,3.1093714,1.7300333,12.03055,-20.313023,-0.43046948,6.8760285,2.9612331,13.251689,7.215522,13.504305,-37.870895,56.74185,-2.6234107,3.486012,1.5830991,-11.315566,-22.442894,24.70639,50.904175,0.5798363,10.149055,-13.093022
231,-5.056278705596924,-77.20763397216797,73.52252197265625,-0.4622218455270217,1.1488447161905744,-92.61194807817583,-25.208477,1.7431701,10.253635,6.370384,-1.6384155,-4.1566324,21.60047,2.1330237,1.4180297,13.91131,-20.507483,0.0039524254,6.6876593,1.9096134,12.906893,7.1862893,13.421489,-37.965588,57.31201,-2.3719945,3.5108232,1.485732,-10.895133,-21.890156,24.485321,50.98442,0.69125146,10.135398,-13.212122
232,-5.007783889770508,-78.1226806640625,73.56993103027344,0.3305355076457649,1.4809538956623396,-92.53676489525624,-24.978275,0.66429496,10.340586,6.3887963,-0.014727003,-3.0723164,20.974182,1.1387811,1.2391245,15.980642,-20.619658,0.44682562,6.5775433,0.8653495,12.556796,7.1650157,13.34333,-38.00587,57.87618,-2.1334226,3.5777962,1.3801168,-10.401298,-21.347557,24.317522,51.064877,0.80414635,10.116558,-13.292251
233,-4.969812870025635,-79.0755615234375,73.60243225097656,1.0686415013592743,1.7739634788720993,-92.57197165771895,-24.71906,-0.26817933,10.445711,6.3941126,1.6085126,-2.2782607,20.376799,0.18350318,1.2532921,18.051517,-20.565792,0.87624586,6.5863137,-0.13074459,12.179088,7.168756,13.270566,-37.98248,58.433624,-1.907528,3.715641,1.2618918,-9.823343,-20.803831,24.218397,51.1556,0.93048376,10.087262,-13.329333
234,-4.938589096069336,-80.05683135986328,73.634521484375,1.8148765200876167,2.053596041109084,-92.67610241500795,-24.438217,-1.1469675,10.557273,6.393097,3.2992473,-1.6265775,19.7823,-0.7932842,1.3941315,20.128555,-20.3631,1.3237911,6.66863,-1.1436741,11.774756,7.1862354,13.2022705,-37.90629,58.99463,-1.6780046,3.9036796,1.1330029,-9.176632,-20.25015,24.178074,51.257973,1.0758104,10.053412,-13.337222
235,-4.900561332702637,-81.01730346679688,73.68230438232422,2.520075707466725,2.29515962750577,-92.79342383839162,-24.09765,-1.9521234,10.69176,6.4009137,4.83931,-1.1252527,19.195412,-1.7122163,1.6060823,22.220604,-19.951628,1.787935,6.760273,-2.10812,11.3872795,7.2017026,13.136931,-37.790752,59.55718,-1.4586362,4.0948324,1.0051972,-8.505617,-19.68525,24.178812,51.40696,1.1964961,10.0205555,-13.316619
236,-4.8603949546813965,-81.96537780761719,73.74654388427734,3.136034072094772,2.472743596984,-92.86732353364344,-23.66165,-2.668533,10.858335,6.4335985,6.012335,-0.79048485,18.61072,-2.4978607,1.8308713,24.356627,-19.279877,2.2649195,6.8001356,-2.9549983,11.059316,7.1962657,13.07209,-37.65136,60.11788,-1.2637026,4.2420945,0.89022,-7.846929,-19.110659,24.197697,51.62607,1.2506026,9.994591,-13.267364
237,-4.8108978271484375,-82.90613555908203,73.82041931152344,3.629652282868007,2.5668304876738923,-92.86912654410017,-23.653522,-3.14703,11.092643,7.6983953,6.100653,-0.81602234,18.041294,-3.0988734,2.053741,26.551624,-18.298372,2.7346106,6.7745814,-3.6475427,10.798261,7.1649356,13.0060625,-37.491776,60.704456,-1.099784,4.319903,0.788191,-7.1827307,-18.525059,24.214096,51.929077,1.2351369,9.952507,-13.19283
238,-4.765878200531006,-83.84552001953125,73.89930725097656,4.033092593461794,2.595663345894715,-92.82582935583679,-23.75932,-3.4658298,11.364098,9.45697,5.6189075,-1.1279455,17.466665,-3.562604,2.2959058,28.819551,-17.062468,3.2044184,6.7115,-4.226443,10.579365,7.1117,12.938095,-37.305798,61.314484,-0.9591283,4.3574176,0.69484466,-6.4969916,-17.92708,24.238073,52.296383,1.1659541,9.899062,-13.092929
239,-4.712265968322754,-84.80216217041016,73.98258972167969,4.387965147794582,2.5858402810107646,-92.76949305775945,-23.774572,-3.73926,11.620865,11.14807,4.962358,-1.3682802,16.838373,-3.9528997,2.5612807,31.181765,-15.673325,3.707654,6.6178837,-4.7309585,10.399667,7.034067,12.866616,-37.091858,61.89789,-0.8326225,4.3902364,0.6152892,-5.839355,-17.325796,24.300905,52.712284,1.0395362,9.881428,-12.962992
