unveil-humanoid-operators/unveil-humanoid-operators.github.io/feature-analysis-animation/data/feature_matrix_instances/gender_ankle_rom_walking_A064_walk_ff_start_360_002__A064.csv
Frame,root_translateX,root_translateY,root_translateZ,root_rotateX,root_rotateY,root_rotateZ,left_hip_pitch_joint_dof,left_hip_roll_joint_dof,left_hip_yaw_joint_dof,left_knee_joint_dof,left_ankle_pitch_joint_dof,left_ankle_roll_joint_dof,right_hip_pitch_joint_dof,right_hip_roll_joint_dof,right_hip_yaw_joint_dof,right_knee_joint_dof,right_ankle_pitch_joint_dof,right_ankle_roll_joint_dof,waist_yaw_joint_dof,waist_roll_joint_dof,waist_pitch_joint_dof,left_shoulder_pitch_joint_dof,left_shoulder_roll_joint_dof,left_shoulder_yaw_joint_dof,left_elbow_joint_dof,left_wrist_roll_joint_dof,left_wrist_pitch_joint_dof,left_wrist_yaw_joint_dof,right_shoulder_pitch_joint_dof,right_shoulder_roll_joint_dof,right_shoulder_yaw_joint_dof,right_elbow_joint_dof,right_wrist_roll_joint_dof,right_wrist_pitch_joint_dof,right_wrist_yaw_joint_dof
0,-0.0507829487323761,2.1347100734710693,78.48418426513672,-0.3442067518821476,-2.3670569583597802,-89.17691454042816,7.373988,4.8972754,12.652457,7.152373,-14.117814,-5.0019994,7.250598,-3.9605622,-15.102571,8.815556,-12.557367,1.7751034,-1.0366949,0.31461078,6.6892796,7.996207,7.3734927,-8.3208475,60.217964,11.629145,4.9532638,14.728908,0.440924,-5.8053374,13.02591,67.6052,-3.3183913,4.245763,-16.049807
1,-0.04689176380634308,2.134953022003174,78.48514556884766,-0.33756228941676936,-2.3639514576390646,-89.17638523085232,7.364416,4.8868804,12.623755,7.152866,-14.10355,-4.984317,7.2428365,-3.968337,-15.099195,8.817117,-12.554132,1.7836986,-1.0400251,0.30763704,6.6863494,8.0011015,7.376953,-8.316363,60.21413,11.651187,4.98104,14.730337,0.42810994,-5.798611,13.031852,67.60535,-3.329113,4.270625,-16.06446
2,-0.04455813765525818,2.137361764907837,78.4869384765625,-0.3328082004444159,-2.3612085992951113,-89.17640968521513,7.35545,4.8758087,12.592723,7.152901,-14.088104,-4.965569,7.2359858,-3.975941,-15.094994,8.817195,-12.5504,1.7928597,-1.0417452,0.30077487,6.6844068,8.002875,7.380719,-8.312055,60.214153,11.674495,5.007869,14.731383,0.42133668,-5.7909665,13.038314,67.59885,-3.3401515,4.295589,-16.080221
3,-0.04124405235052109,2.1387786865234375,78.49081420898438,-0.3270891642314226,-2.3576334835242045,-89.17521472383767,7.345519,4.865725,12.566432,7.153461,-14.074896,-4.949,7.2265906,-3.9841814,-15.092444,8.821561,-12.548585,1.8007778,-1.0616682,0.28524682,6.680629,8.022539,7.3895802,-8.288615,60.19647,11.69925,5.0360727,14.730994,0.39708075,-5.7725906,13.064473,67.60856,-3.3452063,4.322188,-16.098269
4,-0.03883906453847885,2.1388771533966064,78.49351501464844,-0.32405774510969443,-2.3569307244379716,-89.17560777755133,7.342015,4.859539,12.556992,7.153023,-14.068256,-4.93835,7.223023,-3.9895432,-15.090155,8.823288,-12.546459,1.8052506,-1.0688397,0.2791498,6.679443,8.02991,7.3952074,-8.279552,60.192535,11.709631,5.0523367,14.732634,0.38382572,-5.7619,13.076032,67.610504,-3.3510256,4.339503,-16.09973
5,-0.03553544357419014,2.1392264366149902,78.49278259277344,-0.3262271011677481,-2.3595491543035836,-89.17753589243787,7.3459544,4.859296,12.575426,7.1532726,-14.073358,-4.937188,7.224142,-3.991692,-15.088485,8.826398,-12.546276,1.8038349,-1.0725913,0.27688152,6.6800413,8.035184,7.401262,-8.275002,60.193382,11.703733,5.0551186,14.73638,0.37057546,-5.7525024,13.082979,67.61476,-3.3472006,4.348601,-16.079798
6,-0.032354686409235,2.1419942378997803,78.49040985107422,-0.3300223601896783,-2.364355594281235,-89.18026426634547,7.3555336,4.8630466,12.613255,7.153224,-14.086376,-4.942637,7.2282734,-3.9917207,-15.087839,8.831162,-12.5475855,1.7982965,-1.0745233,0.28017867,6.681856,8.040316,7.4058113,-8.27442,60.195812,11.685928,5.0486674,14.741583,0.35571843,-5.746969,13.086351,67.622696,-3.336319,4.35095,-16.043224
7,-0.02899939939379692,2.1459412574768066,78.48927307128906,-0.3346746721410427,-2.368565325725292,-89.182005499746,7.3639894,4.8669195,12.6492,7.1539288,-14.100141,-4.948557,7.233,-3.9916089,-15.088618,8.834175,-12.548145,1.7929237,-1.074205,0.28641084,6.6836896,8.042469,7.4070854,-8.27504,60.19964,11.668013,5.0403237,14.745573,0.3483797,-5.745726,13.08732,67.62462,-3.333962,4.349131,-16.011423
8,-0.02593856491148472,2.146787643432617,78.48860931396484,-0.33806591401775316,-2.37332255827252,-89.18462587816494,7.3716655,4.8679247,12.666616,7.1533966,-14.107245,-4.9493327,7.237444,-3.992814,-15.087604,8.836445,-12.547839,1.7916616,-1.0735563,0.28863302,6.685925,8.045961,7.4126196,-8.278759,60.20366,11.646471,5.032078,14.750299,0.33237877,-5.741444,13.09227,67.63942,-3.3517976,4.343189,-15.992653
9,-0.026740223169326782,2.147876739501953,78.48844909667969,-0.33574958153505613,-2.3750482921034943,-89.1847652085633,7.371702,4.8628917,12.649657,7.153909,-14.104604,-4.9403377,7.238373,-3.9972844,-15.087934,8.837186,-12.546113,1.7974461,-1.0709074,0.28774735,6.6866484,8.048115,7.4193335,-8.282312,60.204487,11.634251,5.029938,14.751181,0.32643652,-5.7367983,13.101103,67.64863,-3.4065785,4.3300138,-16.007904
10,-0.021884286776185036,2.145587921142578,78.49005889892578,-0.33279099269388823,-2.3757711019055954,-89.18390648567035,7.3682914,4.8545322,12.612538,7.1543627,-14.096005,-4.9258165,7.238028,-4.0037866,-15.088722,8.837051,-12.5436945,1.8075341,-1.0680459,0.2847607,6.687031,8.051175,7.426912,-8.285542,60.202766,11.624047,5.0290713,14.75021,0.325211,-5.731751,13.114207,67.65661,-3.4865499,4.310323,-16.04232
11,-0.01781916804611683,2.1443729400634766,78.49053955078125,-0.32889162057630844,-2.3759961952223567,-89.18252785095635,7.3643155,4.8461866,12.572958,7.15437,-14.086565,-4.911928,7.237391,-4.0098433,-15.089772,8.836023,-12.540678,1.8177165,-1.0640596,0.28366327,6.6878176,8.050936,7.4312496,-8.287607,60.203926,11.617752,5.0283675,14.74859,0.32555595,-5.729064,13.123658,67.66268,-3.5677648,4.2936144,-16.079342
12,-0.014599521644413471,2.1439130306243896,78.48977661132812,-0.3275418652707489,-2.3755306884958944,-89.1805041294545,7.360723,4.8413925,12.54786,7.155014,-14.081631,-4.90494,7.236543,-4.013236,-15.091822,8.83543,-12.538283,1.8236873,-1.0672702,0.27549046,6.6849713,8.058091,7.4482884,-8.288014,60.201763,11.604915,5.026731,14.745389,0.3259486,-5.7186704,13.144968,67.668335,-3.6157885,4.289003,-16.108162
13,-0.012232083827257156,2.1436643600463867,78.48710632324219,-0.32835213280665854,-2.3745525518765556,-89.17783329905127,7.358712,4.8411865,12.542917,7.1543937,-14.081148,-4.908245,7.23635,-4.013456,-15.095302,8.834609,-12.535852,1.8234376,-1.0691,0.2733335,6.6834364,8.060772,7.4599485,-8.287674,60.203995,11.595682,5.024042,14.741209,0.324272,-5.7116685,13.150724,67.670135,-3.6322913,4.3042293,-16.117462
14,-0.014177730306982994,2.146411418914795,78.48564147949219,-0.33157177744053296,-2.3729453993985445,-89.17431737495663,7.3568025,4.843789,12.54848,7.1541376,-14.083707,-4.917939,7.235827,-4.011631,-15.09999,8.834027,-12.533388,1.8194938,-1.0716138,0.275395,6.6810045,8.061183,7.466902,-8.28775,60.210423,11.587446,5.021063,14.737531,0.3222548,-5.707828,13.151402,67.67004,-3.6279662,4.332711,-16.118454
15,-0.014095026068389416,2.1473753452301025,78.48674774169922,-0.33404089544561083,-2.371260694052526,-89.17095255965468,7.3553824,4.847748,12.559858,7.154027,-14.088453,-4.9292107,7.2350183,-4.0088334,-15.104023,8.834137,-12.531979,1.8148409,-1.0723382,0.27445397,6.6788793,8.05977,7.480989,-8.288663,60.21794,11.57905,5.0176272,14.732876,0.3210692,-5.700263,13.149553,67.6694,-3.6147306,4.3611755,-16.115227
16,-0.010584216564893723,2.147475004196167,78.49059295654297,-0.3374071532702297,-2.3704009594252318,-89.16851835842485,7.3548837,4.85097,12.57239,7.1542177,-14.094639,-4.9371724,7.2355504,-4.0058064,-15.105785,8.831168,-12.529636,1.8124515,-1.0696387,0.26950476,6.6787996,8.061306,7.500681,-8.291438,60.218494,11.5708685,5.0156174,14.728684,0.3202739,-5.6899366,13.145793,67.67064,-3.6062307,4.376341,-16.11267
17,-0.008724566549062729,2.150536298751831,78.49153137207031,-0.342662986419343,-2.3706587690643675,-89.16714781963402,7.356595,4.854756,12.589986,7.15432,-14.104859,-4.941456,7.23707,-4.00154,-15.104215,8.827236,-12.528986,1.8133342,-1.0677147,0.27473956,6.6800246,8.060328,7.506676,-8.291709,60.221325,11.56978,5.016106,14.733363,0.32011488,-5.6869593,13.145796,67.674644,-3.6001608,4.372956,-16.11176
18,-0.007061116863042116,2.150516986846924,78.49076080322266,-0.34839991347367166,-2.372451025939843,-89.16706189229687,7.3606133,4.859711,12.614112,7.1543703,-14.118359,-4.944444,7.240764,-3.9955366,-15.099664,8.820452,-12.52819,1.8156708,-1.0637647,0.27744743,6.683184,8.058044,7.515873,-8.291452,60.22372,11.568936,5.01709,14.739559,0.31762472,-5.682876,13.146706,67.68423,-3.5899866,4.3566895,-16.109491
19,-0.0053877499885857105,2.1520440578460693,78.48779296875,-0.35277430280254485,-2.3735273977335867,-89.16715614807798,7.363836,4.8628554,12.634056,7.154094,-14.129855,-4.9450493,7.2424026,-3.9912815,-15.094959,8.81607,-12.52816,1.8188158,-1.0604959,0.28115314,6.6857433,8.057144,7.524293,-8.2909,60.224464,11.570463,5.0185156,14.745828,0.3163865,-5.6793447,13.148475,67.692795,-3.582833,4.338289,-16.107422
20,-0.0008244879427365959,2.1510071754455566,78.48690795898438,-0.3541991433562292,-2.3727407416248325,-89.1671050149016,7.363071,4.8624063,12.639968,7.1542683,-14.133932,-4.942422,7.241926,-3.990775,-15.091997,8.812909,-12.527061,1.8218416,-1.0587454,0.2772664,6.685813,8.059403,7.538341,-8.290937,60.22265,11.570189,5.018773,14.746607,0.3141302,-5.674117,13.152472,67.702255,-3.5828097,4.32558,-16.106922
21,0.00038408214459195733,2.150226593017578,78.48713684082031,-0.3515635629899913,-2.3682991320218703,-89.1670097535216,7.3551426,4.855424,12.621683,7.154976,-14.12545,-4.933746,7.2350473,-3.9967618,-15.091194,8.815432,-12.525525,1.8248227,-1.057538,0.26559028,6.6803637,8.064088,7.5585294,-8.293688,60.22112,11.568782,5.0178647,14.739347,0.31246284,-5.6672873,13.157393,67.71214,-3.5975804,4.3213453,-16.109186
22,0.004497399087995291,2.1490044593811035,78.48861694335938,-0.3444876626573771,-2.3614258298496456,-89.16725995585577,7.342873,4.8434095,12.587282,7.1545873,-14.10746,-4.9202642,7.2229238,-4.007987,-15.0912,8.823268,-12.524553,1.8282783,-1.0572807,0.25437793,6.671755,8.070291,7.5705657,-8.298275,60.219185,11.569635,5.0179935,14.730791,0.31007665,-5.664423,13.162324,67.72348,-3.6235812,4.32131,-16.114582
23,0.006210117135196924,2.1485483646392822,78.4912109375,-0.33699400238133964,-2.355540591658147,-89.167249200038,7.332295,4.8318653,12.553505,7.1544547,-14.09042,-4.907306,7.2135086,-4.018715,-15.092327,8.828696,-12.522607,1.8314842,-1.0567863,0.24339402,6.6630807,8.07353,7.583971,-8.303292,60.22183,11.570558,5.0162306,14.722954,0.30895382,-5.6620846,13.166829,67.73407,-3.6475096,4.3223653,-16.118795
24,0.007720417343080044,2.147733688354492,78.49161529541016,-0.33270194684099347,-2.353656334975342,-89.16686499883635,7.328662,4.8248,12.537702,7.1544523,-14.082838,-4.8999863,7.210098,-4.026053,-15.0939,8.833304,-12.52321,1.8340572,-1.056059,0.23508051,6.658771,8.0779915,7.5959616,-8.307744,60.221912,11.570456,5.013013,14.721065,0.30936682,-5.6605287,13.1693325,67.74147,-3.6575866,4.322009,-16.11954
25,0.009480801410973072,2.1468544006347656,78.48924255371094,-0.33353764680220127,-2.358882746524528,-89.16513620425381,7.337459,4.825525,12.551234,7.153849,-14.0901375,-4.9016843,7.218362,-4.0271273,-15.097227,8.833679,-12.526228,1.8350306,-1.0555315,0.23266718,6.6611137,8.078908,7.6024823,-8.309761,60.22614,11.57108,5.0052915,14.729964,0.31095016,-5.6598134,13.168685,67.74709,-3.644987,4.317727,-16.114193
26,0.008354024961590767,2.1466259956359863,78.48550415039062,-0.33896199156265294,-2.368731913462582,-89.16237065426762,7.353568,4.8310404,12.58259,7.1548443,-14.107734,-4.908947,7.234827,-4.024563,-15.102124,8.830232,-12.530129,1.8349626,-1.0539063,0.23071708,6.667447,8.078127,7.613439,-8.312087,60.232315,11.570725,4.9938912,14.744419,0.31364706,-5.658643,13.164625,67.75167,-3.6181927,4.3113794,-16.104399
27,0.01134013943374157,2.1481525897979736,78.48443603515625,-0.3441755157179522,-2.3788032055377784,-89.16058365331409,7.3706684,4.8366704,12.6148,7.1545305,-14.125438,-4.9168305,7.250189,-4.0219116,-15.105902,8.828668,-12.535048,1.8353722,-1.0509771,0.22963773,6.6750736,8.077554,7.620632,-8.314111,60.23622,11.570383,4.984153,14.758602,0.31817827,-5.657768,13.159448,67.7522,-3.5915987,4.3071823,-16.09492
28,0.01308988407254219,2.1484386920928955,78.48475646972656,-0.3458607620646305,-2.384249177273227,-89.161183545562,7.3807325,4.83842,12.630232,7.154194,-14.135962,-4.9203706,7.2592697,-4.021093,-15.106429,8.826117,-12.5368395,1.8377594,-1.0473988,0.2278149,6.6780396,8.077441,7.627497,-8.3154125,60.239143,11.571665,4.98075,14.7683525,0.3210656,-5.65698,13.154814,67.75409,-3.5804775,4.308848,-16.092752
29,0.015111502259969711,2.148432731628418,78.48723602294922,-0.344092503730177,-2.3828649389523546,-89.166055603354,7.3791275,4.8339458,12.619292,7.154756,-14.135074,-4.916785,7.2561517,-4.0245495,-15.101208,8.826687,-12.535817,1.8438133,-1.0418872,0.22214164,6.6759186,8.080532,7.6362314,-8.315947,60.235054,11.573127,4.9877415,14.769544,0.32356024,-5.6564283,13.151659,67.75317,-3.596888,4.321542,-16.101826
30,0.01918449066579342,2.1465063095092773,78.49192810058594,-0.340402693200904,-2.3772975054217955,-89.17374872412893,7.370611,4.8256607,12.592932,7.1550646,-14.127058,-4.9091816,7.246672,-4.0302057,-15.0922,8.826256,-12.531553,1.8524019,-1.0358473,0.21200806,6.6712966,8.089599,7.6502357,-8.31508,60.22099,11.573155,5.0011787,14.76302,0.32677275,-5.6559954,13.151713,67.74809,-3.6280127,4.341559,-16.116564
31,0.023370511829853058,2.143982172012329,78.49297332763672,-0.33596837580031125,-2.3715100916848795,-89.1816508191712,7.362256,4.817392,12.564842,7.1546087,-14.11797,-4.9016156,7.2369146,-4.0353775,-15.08294,8.825735,-12.527073,1.8604017,-1.0308288,0.20679708,6.664294,8.09254,7.6533804,-8.313206,60.217766,11.576992,5.0149155,14.760028,0.3271069,-5.6560755,13.152364,67.74922,-3.6562612,4.3602324,-16.13431
32,0.025416171178221703,2.140920400619507,78.49156951904297,-0.3333612060630231,-2.3681253199479957,-89.18697115224015,7.358213,4.8125505,12.548498,7.154322,-14.113394,-4.898244,7.231914,-4.038403,-15.0771265,8.825251,-12.524611,1.8649013,-1.0281031,0.20235291,6.658982,8.096579,7.6562753,-8.309967,60.21614,11.583905,5.023617,14.759326,0.32854557,-5.656437,13.151811,67.75084,-3.6639843,4.3704147,-16.146168
33,0.024547165259718895,2.1389222145080566,78.48857879638672,-0.3346452665831654,-2.367882591032848,-89.1881916853671,7.359198,4.812473,12.54783,7.154607,-14.115079,-4.9009433,7.2317653,-4.03906,-15.076503,8.827612,-12.526326,1.864192,-1.0287532,0.19933145,6.65528,8.105189,7.659148,-8.302672,60.213333,11.600372,5.0248566,14.75903,0.3345534,-5.6566525,13.148033,67.74992,-3.6373577,4.367646,-16.14698
34,0.02281242422759533,2.1382243633270264,78.48574829101562,-0.33604221830527375,-2.3700516722744442,-89.18713195524008,7.364121,4.8157396,12.555535,7.1549425,-14.120151,-4.907409,7.236771,-4.0372343,-15.079194,8.829057,-12.529664,1.8601002,-1.0309565,0.19779713,6.65302,8.111158,7.66055,-8.296189,60.21713,11.618843,5.021017,14.76222,0.34029573,-5.6566367,13.142748,67.75187,-3.587642,4.3557425,-16.142982
35,0.02257358282804489,2.137976884841919,78.48439025878906,-0.33866241035495503,-2.3733878345140402,-89.18576787897283,7.3709817,4.8201456,12.568261,7.1547985,-14.126287,-4.9149303,7.2436237,-4.034576,-15.082102,8.82948,-12.532616,1.8550868,-1.0318899,0.19517231,6.653523,8.116516,7.6633744,-8.282386,60.220177,11.64469,5.0146613,14.761074,0.34736624,-5.6562386,13.131991,67.75152,-3.542323,4.3414073,-16.135374
36,0.026286523789167404,2.1371684074401855,78.48693084716797,-0.34184577553264045,-2.376031881432231,-89.18583848694654,7.3771,4.82363,12.582228,7.154809,-14.132419,-4.9208255,7.248632,-4.032522,-15.082799,8.830294,-12.535181,1.8516858,-1.0312961,0.19346736,6.6524916,8.1197,7.6646476,-8.276652,60.224644,11.657482,5.0111575,14.760523,0.35199872,-5.655937,13.127834,67.75418,-3.5172102,4.3336964,-16.134272
37,0.02510099671781063,2.1357080936431885,78.48884582519531,-0.34483000470895087,-2.3785510207803453,-89.18856083981643,7.3839703,4.826529,12.6016445,7.1546407,-14.139378,-4.9251857,7.2518597,-4.030406,-15.079979,8.831223,-12.536394,1.8501022,-1.0272473,0.1914929,6.653272,8.121537,7.665957,-8.270544,60.226543,11.662448,5.010438,14.755397,0.3557526,-5.6555047,13.1262455,67.75507,-3.5294323,4.3339176,-16.138266
38,0.02318468689918518,2.1341488361358643,78.4873046875,-0.3465907425948381,-2.382190824057075,-89.19353677891951,7.39325,4.8295755,12.627577,7.1537113,-14.147357,-4.929327,7.255808,-4.0281262,-15.074371,8.831372,-12.5365305,1.8492858,-1.0224341,0.18866397,6.656318,8.124074,7.6663857,-8.259949,60.226234,11.666864,5.010262,14.7453375,0.36157826,-5.655723,13.128359,67.75197,-3.5673804,4.3388443,-16.145954
39,0.027314025908708572,2.1334328651428223,78.48545837402344,-0.3491444914116233,-2.384366547306329,-89.19744762058025,7.3996463,4.831668,12.648821,7.1541905,-14.154637,-4.9318037,7.2580166,-4.0264277,-15.069295,8.831514,-12.536675,1.8492476,-1.0179317,0.18666074,6.6577897,8.126053,7.6661887,-8.255809,60.2251,11.665035,5.0111303,14.736012,0.36501867,-5.656071,13.131801,67.75142,-3.6056058,4.3459888,-16.15404
40,0.030387481674551964,2.1306309700012207,78.48210906982422,-0.3492065179850275,-2.383812067248505,-89.1991920432416,7.401564,4.831273,12.656495,7.153962,-14.1574745,-4.931411,7.2579684,-4.026462,-15.065964,8.831806,-12.537922,1.8500956,-1.0187609,0.1838192,6.655255,8.128542,7.665625,-8.253064,60.223866,11.6625,5.0117245,14.72672,0.36768505,-5.656701,13.137018,67.75286,-3.6276026,4.3534236,-16.159418
41,0.03499716892838478,2.130794048309326,78.48228454589844,-0.3472008298097451,-2.3790970825193605,-89.19694449519372,7.3959007,4.82667,12.639976,7.1538925,-14.153277,-4.925803,7.2550435,-4.029181,-15.065542,8.829758,-12.539038,1.852879,-1.0258002,0.17863472,6.6485023,8.130567,7.66541,-8.254356,60.221622,11.659462,5.01177,14.717314,0.36818883,-5.657081,13.139912,67.75706,-3.629955,4.363239,-16.160847
42,0.037431664764881134,2.130192756652832,78.48351287841797,-0.34256904262174526,-2.368808907325128,-89.19050788458843,7.381484,4.8187675,12.605218,7.154113,-14.143725,-4.916058,7.2462583,-4.0341883,-15.0685215,8.829252,-12.541757,1.8572729,-1.0404327,0.17405829,6.6297727,8.140564,7.6653337,-8.266422,60.215313,11.647229,5.0131216,14.70722,0.3679963,-5.65825,13.150089,67.767166,-3.6168783,4.37844,-16.161572
43,0.03359244763851166,2.123283863067627,78.48468780517578,-0.3381966507494413,-2.36151253260942,-89.18634572548477,7.371336,4.811537,12.574285,7.1544495,-14.135869,-4.9070597,7.2412033,-4.0384917,-15.069571,8.826878,-12.543751,1.8610151,-1.0515692,0.1684838,6.6203327,8.142403,7.6653833,-8.271617,60.21146,11.642168,5.013165,14.697722,0.36780396,-5.6584873,13.152434,67.77209,-3.6031308,4.3879404,-16.15955
44,0.03231462463736534,2.1183314323425293,78.48531341552734,-0.3347793681651158,-2.356859397122572,-89.18411168594767,7.366335,4.8078346,12.561395,7.154195,-14.133045,-4.902644,7.23816,-4.041129,-15.069854,8.827061,-12.546831,1.8622916,-1.0591788,0.16518512,6.612371,8.1449585,7.6654544,-8.278716,60.20838,11.63743,5.014112,14.691546,0.36729673,-5.658781,13.155586,67.77672,-3.5841885,4.3903966,-16.158304
45,0.034289341419935226,2.118312120437622,78.48438262939453,-0.3371212482924319,-2.3592332939406053,-89.18763096253036,7.3732758,4.810513,12.582869,7.155021,-14.141775,-4.9072204,7.2407575,-4.04022,-15.065923,8.829956,-12.550728,1.8589243,-1.0570784,0.16635814,6.6104784,8.150133,7.665241,-8.292031,60.20479,11.633082,5.0162334,14.694123,0.36903873,-5.6595807,13.162419,67.780106,-3.5506697,4.374739,-16.162243
46,0.03737855702638626,2.1173934936523438,78.48209381103516,-0.3425530459166476,-2.367041925966026,-89.19568758688033,7.3900704,4.817019,12.626751,7.154166,-14.156592,-4.9176526,7.2482734,-4.0371532,-15.058608,8.834299,-12.555312,1.8525037,-1.0492809,0.16947255,6.6159687,8.15391,7.664368,-8.3030405,60.201912,11.6321125,5.018367,14.702651,0.37418476,-5.6604323,13.169329,67.77783,-3.5094757,4.346969,-16.169199
47,0.04209187999367714,2.118586540222168,78.48152160644531,-0.34695100199019613,-2.3750030438952083,-89.20400606127099,7.4062023,4.8237276,12.669335,7.155118,-14.17198,-4.926698,7.256396,-4.033922,-15.051655,8.838346,-12.559426,1.8464478,-1.042747,0.17177424,6.6237426,8.15496,7.6633277,-8.307856,60.19974,11.634475,5.0204754,14.70895,0.3773193,-5.661031,13.173585,67.7745,-3.4745834,4.321415,-16.17115
48,0.039909400045871735,2.1165578365325928,78.48206329345703,-0.34938763233970516,-2.3793213929383628,-89.2097290664728,7.41606,4.825404,12.688739,7.1545568,-14.179237,-4.927071,7.260599,-4.033886,-15.047439,8.841554,-12.5617075,1.8443416,-1.0406976,0.17139822,6.6265006,8.155194,7.6611495,-8.315218,60.19716,11.629909,5.0245214,14.71151,0.3790184,-5.66221,13.180402,67.77302,-3.4507926,4.311598,-16.16492
49,0.04189116135239601,2.1141159534454346,78.48377227783203,-0.34610362161403957,-2.376564518161319,-89.2108302144744,7.4124556,4.819997,12.670299,7.1552305,-14.174601,-4.912333,7.2579317,-4.038667,-15.048115,8.844021,-12.56205,1.848296,-1.0455459,0.16666164,6.6199775,8.154697,7.6587257,-8.327692,60.193253,11.613117,5.032706,14.707194,0.37751696,-5.6638846,13.186897,67.77501,-3.4454014,4.328605,-16.142254
50,0.04120759665966034,2.1116175651550293,78.48567962646484,-0.33986080556696907,-2.3699339092823224,-89.20940072550411,7.4020667,4.809574,12.628903,7.155217,-14.162197,-4.8878093,7.2522473,-4.0463834,-15.051938,8.84369,-12.559327,1.8560914,-1.0542738,0.15766732,6.6096277,8.152504,7.657445,-8.340448,60.188408,11.591703,5.043225,14.696467,0.3724714,-5.6653233,13.190547,67.779274,-3.4550152,4.3622146,-16.106691
51,0.04141666740179062,2.1096885204315186,78.48794555664062,-0.33373529916071143,-2.3632981315498722,-89.20778461629554,7.390576,4.799494,12.585234,7.1568236,-14.150062,-4.864131,7.2454243,-4.0541186,-15.055724,8.8453455,-12.557542,1.8644857,-1.0610075,0.14931557,6.598995,8.15057,7.656611,-8.355834,60.182392,11.567833,5.052708,14.686612,0.3687359,-5.6669574,13.192598,67.783035,-3.4678578,4.3960266,-16.073639
52,0.041570428758859634,2.1057639122009277,78.48677062988281,-0.330314608780983,-2.3608815602737683,-89.20853882485217,7.386462,4.793557,12.560398,7.157141,-14.143312,-4.851852,7.243096,-4.0584044,-15.056407,8.846418,-12.55677,1.8701855,-1.061994,0.14518183,6.5943565,8.150159,7.6557403,-8.367252,60.1744,11.54999,5.0563736,14.680297,0.3719299,-5.668109,13.191723,67.780106,-3.4769826,4.41338,-16.055681
53,0.04063086956739426,2.103785514831543,78.48188018798828,-0.33058484499082935,-2.364219615828459,-89.21307379041502,7.392062,4.7941365,12.561908,7.1570334,-14.144505,-4.8563876,7.2463036,-4.057983,-15.052415,8.84666,-12.556594,1.8719813,-1.055104,0.14612685,6.597924,8.151788,7.6540318,-8.371604,60.164715,11.543439,5.0506124,14.67986,0.3824028,-5.6687784,13.187271,67.771454,-3.479418,4.4044394,-16.063234
54,0.04588295519351959,2.103475570678711,78.4785385131836,-0.33355048389903813,-2.3711668275323374,-89.21967241504402,7.403006,4.7986264,12.577948,7.156627,-14.149878,-4.871343,7.253041,-4.0542774,-15.045624,8.84576,-12.556327,1.8716875,-1.0445607,0.1507816,6.6068697,8.15422,7.65104,-8.368284,60.154026,11.5448065,5.038387,14.682273,0.3963357,-5.668554,13.1795845,67.75986,-3.4807122,4.379805,-16.086168
55,0.044635143131017685,2.102660655975342,78.47850799560547,-0.337885238575296,-2.37879204939311,-89.22561210399915,7.415105,4.8042355,12.599229,7.1566415,-14.15781,-4.889119,7.2603626,-4.0498376,-15.039179,8.845737,-12.557302,1.8707917,-1.0359272,0.15588267,6.6148663,8.156179,7.6480937,-8.362779,60.14536,11.545432,5.02629,14.685717,0.40624002,-5.6678357,13.174384,67.75252,-3.4816117,4.355469,-16.109373
56,0.04681646451354027,2.1062612533569336,78.48216247558594,-0.34130649731461815,-2.3886162463559844,-89.23069867113178,7.4303446,4.8088107,12.619287,7.1558857,-14.166685,-4.9025164,7.2716846,-4.045985,-15.033669,8.844167,-12.558952,1.8708762,-1.027964,0.16153497,6.6289234,8.158428,7.641954,-8.3514185,60.132164,11.553342,5.0178747,14.686684,0.42445612,-5.665976,13.164153,67.7319,-3.4981213,4.3406286,-16.122934
57,0.04480116069316864,2.1058270931243896,78.48374938964844,-0.34409919892887125,-2.3995662456560107,-89.23239341523319,7.446918,4.8131065,12.637866,7.155334,-14.178898,-4.910722,7.286792,-4.041845,-15.031823,8.840298,-12.561532,1.8725213,-1.0251294,0.1687095,6.6389375,8.156506,7.633849,-8.344777,60.12528,11.552682,5.018527,14.687705,0.43137467,-5.6637416,13.155515,67.72305,-3.5253437,4.345421,-16.115713
58,0.04493075609207153,2.105686902999878,78.48236083984375,-0.3485093911715972,-2.412723108566879,-89.23259724159713,7.466106,4.8177476,12.659023,7.155985,-14.195238,-4.917292,7.3048663,-4.037402,-15.031333,8.836902,-12.565939,1.8748227,-1.0225533,0.17756343,6.648854,8.153247,7.625392,-8.342817,60.119812,11.5468,5.0239854,14.689243,0.43816566,-5.6619325,13.146784,67.714386,-3.5602136,4.360244,-16.097893
59,0.04898789897561073,2.1013827323913574,78.47908020019531,-0.35162864171935804,-2.423036594421049,-89.23100564717242,7.481108,4.8210387,12.675342,7.1562076,-14.20841,-4.921054,7.3210034,-4.033917,-15.032573,8.831884,-12.5694475,1.8770298,-1.0224489,0.1842109,6.655646,8.152432,7.620982,-8.343127,60.11277,11.537582,5.0299196,14.688302,0.4444277,-5.661094,13.141659,67.70492,-3.5910404,4.378227,-16.076857
60,0.04803241416811943,2.0993285179138184,78.47425842285156,-0.35161580603101067,-2.4258129716887993,-89.22740279822193,7.4857845,4.821165,12.67945,7.156342,-14.213438,-4.920682,7.32736,-4.0335617,-15.035344,8.82997,-12.572593,1.8782746,-1.0228726,0.18897538,6.655688,8.151393,7.6116333,-8.345237,60.108955,11.532548,5.033625,14.687998,0.45140877,-5.6596017,13.133189,67.69445,-3.6140654,4.393562,-16.063213
61,0.048112835735082626,2.09897518157959,78.474365234375,-0.34722898852699596,-2.4157296725972133,-89.22006893174735,7.4724307,4.8156724,12.66175,7.1561775,-14.204243,-4.9126534,7.318725,-4.037991,-15.040997,8.830426,-12.574279,1.8782114,-1.0288899,0.18604533,6.6435986,8.151636,7.607711,-8.346049,60.108795,11.528269,5.031548,14.683189,0.45374134,-5.6587486,13.131824,67.68824,-3.616728,4.406145,-16.057236
62,0.04725009575486183,2.097207546234131,78.47637176513672,-0.3404146383747916,-2.395905938519266,-89.20928426174909,7.4451456,4.805974,12.628386,7.15638,-14.185282,-4.898648,7.299194,-4.0459185,-15.049356,8.831771,-12.574667,1.8773615,-1.0395119,0.179604,6.6202726,8.153891,7.599311,-8.347034,60.112183,11.526557,5.027853,14.679428,0.45569366,-5.656441,13.134874,67.683,-3.608312,4.420735,-16.058037
63,0.04201623797416687,2.094573974609375,78.4783935546875,-0.33377423942506157,-2.3764919039737884,-89.19916873432172,7.418712,4.7967877,12.596833,7.156316,-14.166464,-4.8855433,7.2791266,-4.0538936,-15.057483,8.834905,-12.575456,1.8759872,-1.0511307,0.17148842,6.59885,8.156489,7.5966425,-8.347184,60.115047,11.525247,5.0228505,14.672716,0.45553875,-5.655462,13.137134,67.67868,-3.5986195,4.4300694,-16.059387
64,0.04388970136642456,2.088815212249756,78.4807357788086,-0.3298854538036684,-2.366301680714091,-89.19350254231043,7.405877,4.7926583,12.584364,7.156114,-14.157634,-4.8801303,7.2695994,-4.057937,-15.062592,8.836531,-12.576374,1.8744279,-1.0613624,0.16900064,6.5876045,8.159869,7.592595,-8.347737,60.11567,11.526066,5.0201464,14.668894,0.45903042,-5.6534433,13.1369,67.66957,-3.5991359,4.4306965,-16.06215
65,0.046550776809453964,2.090327739715576,78.47975158691406,-0.3332629646861934,-2.371031240910565,-89.19478058362961,7.41501,4.7966175,12.605052,7.1558247,-14.165234,-4.888149,7.276086,-4.05606,-15.063374,8.837482,-12.578179,1.8722711,-1.0688003,0.17435792,6.5921817,8.160993,7.588626,-8.348988,60.117287,11.531383,5.0201426,14.669038,0.46347803,-5.651544,13.128777,67.6589,-3.6168709,4.4151855,-16.067417
66,0.04966196045279503,2.089745283126831,78.47767639160156,-0.3397155164834271,-2.3851866974933027,-89.20091197921892,7.4380455,4.805932,12.64693,7.1558557,-14.183128,-4.9047127,7.29291,-4.0501475,-15.060969,8.837763,-12.580349,1.8695341,-1.0604335,0.18798068,6.6080446,8.147473,7.5805373,-8.3609,60.131023,11.5447855,5.022393,14.674983,0.47444275,-5.6482096,13.09198,67.64275,-3.658623,4.3875103,-16.074852
67,0.05046897009015083,2.0894572734832764,78.47528076171875,-0.3477810263798403,-2.3999544391104957,-89.20733939234226,7.46175,4.815096,12.686758,7.1558003,-14.201514,-4.920485,7.31026,-4.044228,-15.058397,8.837802,-12.582288,1.8669813,-1.059697,0.19991632,6.624223,8.141945,7.576666,-8.367893,60.13704,11.552995,5.024614,14.678747,0.4832398,-5.646724,13.070646,67.62763,-3.6915116,4.360987,-16.08191
68,0.05111303925514221,2.08976149559021,78.47506713867188,-0.3525343899133437,-2.4075069857618705,-89.2101574177517,7.4738145,4.8189683,12.701782,7.155488,-14.210973,-4.9261456,7.320108,-4.041615,-15.05807,8.836937,-12.583183,1.8653919,-1.0623364,0.20699458,6.6320124,8.139746,7.5746083,-8.372398,60.139675,11.553984,5.0266204,14.680528,0.488468,-5.645852,13.059348,67.617485,-3.7120762,4.3479805,-16.086433
69,0.05048905685544014,2.0891611576080322,78.47651672363281,-0.3501259712875038,-2.4034206978772725,-89.20733711564536,7.466975,4.81457,12.675497,7.1562743,-14.20726,-4.915187,7.3158145,-4.044672,-15.0609865,8.83879,-12.584583,1.8649293,-1.0615277,0.209993,6.6269674,8.13655,7.568563,-8.38475,60.141705,11.543119,5.029643,14.683029,0.4920437,-5.6425166,13.045851,67.61189,-3.7219112,4.357296,-16.087545
70,0.04898368939757347,2.0878982543945312,78.4789810180664,-0.3442493497070304,-2.3931157324248042,-89.20241085752808,7.4501333,4.804996,12.624665,7.1564255,-14.1952305,-4.8939385,7.303911,-4.0507526,-15.064772,8.840799,-12.585151,1.8651235,-1.0676603,0.20762824,6.6142535,8.136305,7.5666428,-8.389902,60.141815,11.524536,5.03195,14.682599,0.49026763,-5.6407757,13.049047,67.612816,-3.718403,4.379234,-16.08605
71,0.048646632581949234,2.084500312805176,78.48194122314453,-0.3394195221811683,-2.3836530946448176,-89.19754138276916,7.434301,4.7952485,12.574247,7.156637,-14.18282,-4.8725176,7.2939186,-4.0569344,-15.068339,8.8418665,-12.5859,1.8660359,-1.0716155,0.20423687,6.603047,8.137536,7.5661926,-8.391872,60.139404,11.508317,5.033869,14.681725,0.48881948,-5.640106,13.053592,67.61479,-3.7124155,4.400179,-16.084793
72,0.051482655107975006,2.081514358520508,78.4814682006836,-0.3349081329624494,-2.377217156948433,-89.19139424931747,7.4236603,4.7890534,12.544762,7.157863,-14.176851,-4.860294,7.286547,-4.062183,-15.074291,8.846302,-12.58923,1.8680186,-1.0771854,0.20162535,6.5906243,8.142772,7.5649905,-8.393791,60.13703,11.496727,5.0373235,14.684291,0.48851147,-5.6379256,13.067029,67.619125,-3.706035,4.413852,-16.089216
73,0.051640015095472336,2.0796892642974854,78.47724914550781,-0.33440703142441536,-2.382292583102638,-89.18834086306774,7.431656,4.7885604,12.553724,7.15783,-14.180446,-4.8627305,7.295754,-4.064171,-15.079481,8.845762,-12.592093,1.8708634,-1.0728619,0.20090032,6.590632,8.147617,7.563635,-8.388789,60.134888,11.505735,5.0406113,14.689682,0.49267587,-5.6362033,13.075127,67.62408,-3.708422,4.405258,-16.10057
74,0.05128752812743187,2.0767338275909424,78.47404479980469,-0.3354779682006924,-2.3938840236929115,-89.18622010138263,7.4498057,4.791491,12.584481,7.1577497,-14.189803,-4.873641,7.313867,-4.0644417,-15.085083,8.843821,-12.595585,1.8745513,-1.062201,0.2012259,6.5994635,8.147072,7.5605373,-8.374084,60.136597,11.53199,5.043333,14.695088,0.49924192,-5.6342087,13.077096,67.62774,-3.7201617,4.384995,-16.114199
75,0.05165307596325874,2.0782058238983154,78.47337341308594,-0.3364526924851757,-2.406270845901073,-89.18505039906024,7.469514,4.7953925,12.620047,7.157292,-14.200406,-4.8866463,7.332888,-4.063783,-15.08939,8.84124,-12.598986,1.8791192,-1.0462943,0.20307797,6.6087475,8.144877,7.5588665,-8.366048,60.138783,11.5560255,5.046111,14.70069,0.5058693,-5.633759,13.074263,67.632614,-3.732211,4.3625007,-16.127352
76,0.05187955126166344,2.0772719383239746,78.47460174560547,-0.3381813247966411,-2.4159135684199917,-89.18518708103325,7.484835,4.7983212,12.6438675,7.157201,-14.209415,-4.8953605,7.3484364,-4.0620394,-15.090444,8.836033,-12.60034,1.8847332,-1.0344626,0.20540914,6.6171145,8.140211,7.5545764,-8.351679,60.140995,11.577954,5.0482416,14.702463,0.51133984,-5.633286,13.068305,67.63448,-3.745141,4.3471546,-16.137102
77,0.049299437552690506,2.0752313137054443,78.47732543945312,-0.33991761387127717,-2.420647526898732,-89.1863627251947,7.493143,4.7991843,12.650819,7.157377,-14.21723,-4.897954,7.356591,-4.059567,-15.086943,8.832477,-12.605044,1.8913836,-1.0284761,0.20771311,6.6178856,8.139381,7.552829,-8.348904,60.13898,11.578749,5.050862,14.7032175,0.512523,-5.633291,13.067715,67.64004,-3.7532349,4.342445,-16.14685
78,0.050839949399232864,2.073223829269409,78.47697448730469,-0.3409883843757316,-2.425239823788845,-89.18907449678096,7.5013027,4.8000517,12.650602,7.156788,-14.224968,-4.8980846,7.366128,-4.054806,-15.079778,8.822635,-12.607968,1.8990452,-1.0264608,0.21262781,6.6175256,8.14148,7.5484285,-8.347358,60.132996,11.572256,5.0544486,14.702224,0.5118523,-5.633482,13.0693865,67.64866,-3.762036,4.3406067,-16.15876
79,0.05001266673207283,2.0705184936523438,78.4719467163086,-0.34264001745353984,-2.4261224505215484,-89.1927227215398,7.5032725,4.8010783,12.64631,7.1578,-14.230336,-4.896961,7.3694954,-4.050054,-15.071937,8.815164,-12.607955,1.9074681,-1.0227104,0.21654049,6.6140475,8.143225,7.546963,-8.34771,60.127148,11.56348,5.057015,14.700762,0.5117989,-5.633615,13.070875,67.6537,-3.7614567,4.3431726,-16.164732
80,0.05330421403050423,2.070895195007324,78.46968078613281,-0.3442184135330006,-2.422955244055825,-89.19740455085005,7.5001416,4.802411,12.642155,7.1572466,-14.228904,-4.896005,7.36605,-4.0467157,-15.065404,8.809066,-12.597585,1.9164743,-1.0156869,0.21959671,6.6074147,8.147412,7.543625,-8.344545,60.12154,11.562516,5.0585675,14.700958,0.5113328,-5.6343555,13.072125,67.65642,-3.7461016,4.347934,-16.161968
81,0.054458484053611755,2.0736474990844727,78.47077941894531,-0.346384242330061,-2.4136825172030822,-89.20185665079298,7.487346,4.804549,12.633427,7.1574125,-14.219046,-4.8970237,7.3529243,-4.045245,-15.062276,8.806582,-12.576437,1.9222229,-1.008054,0.22280824,6.5971003,8.156281,7.5362773,-8.322541,60.113487,11.585451,5.0583167,14.699106,0.5083074,-5.6364284,13.072929,67.65674,-3.7029424,4.3570046,-16.139414
82,0.05391862243413925,2.0749459266662598,78.47416687011719,-0.34796425961993227,-2.3994653558386765,-89.20671392041989,7.467179,4.8066688,12.620197,7.157138,-14.2024145,-4.8988304,7.3307605,-4.045712,-15.060471,8.809668,-12.54895,1.9261675,-0.993587,0.22385277,6.5821786,8.163165,7.5308337,-8.299115,60.109344,11.61557,5.05643,14.696729,0.5081393,-5.638121,13.07025,67.652435,-3.6374652,4.370025,-16.10366
83,0.05460391566157341,2.077423095703125,78.47999572753906,-0.35212844757775824,-2.3839668025759773,-89.21375371239318,7.4450383,4.8098507,12.612032,7.15685,-14.183248,-4.8983717,7.305837,-4.0455785,-15.058079,8.810858,-12.513009,1.9356363,-0.98294175,0.2245377,6.5698166,8.170842,7.5257316,-8.26933,60.103954,11.6486435,5.05284,14.694372,0.50088805,-5.639965,13.068703,67.64898,-3.5810444,4.3826966,-16.06858
84,0.0589824877679348,2.0787975788116455,78.48635864257812,-0.3572172305091331,-2.370577603650281,-89.22595685693095,7.4265985,4.8155675,12.619522,7.156151,-14.16524,-4.8927884,7.283279,-4.0427685,-15.052044,8.803286,-12.465942,1.957968,-0.9891677,0.23082535,6.5649424,8.1798115,7.5111747,-8.224573,60.097965,11.674512,5.047968,14.695795,0.4783163,-5.6457553,13.082589,67.651215,-3.5558245,4.3903904,-16.049227
85,0.06318682432174683,2.0821163654327393,78.49079132080078,-0.3679529981481092,-2.3604876165586774,-89.24462786616294,7.4143653,4.8259974,12.651935,7.1566195,-14.153726,-4.8831506,7.2667556,-4.0348134,-15.041559,8.783312,-12.408173,1.9993286,-0.9855079,0.23921768,6.56335,8.186471,7.5053377,-8.215462,60.093956,11.6607065,5.0431986,14.710028,0.45459673,-5.6489644,13.092315,67.65463,-3.582198,4.392151,-16.056383
86,0.06891584396362305,2.09220027923584,78.49433135986328,-0.38064880972509535,-2.3530451841142557,-89.26684057572237,7.407269,4.838479,12.700281,7.1556644,-14.144103,-4.8701024,7.2516766,-4.025836,-15.029166,8.761041,-12.343665,2.0549574,-0.9765867,0.24622703,6.5650716,8.188408,7.5028896,-8.215271,60.094795,11.635503,5.038382,14.728065,0.43848345,-5.650828,13.098079,67.64755,-3.6415575,4.3910522,-16.076523
87,0.07656539976596832,2.10516357421875,78.50196075439453,-0.39619087048450846,-2.34293425733226,-89.29449871087853,7.394775,4.8534894,12.753161,7.1563787,-14.129969,-4.8514667,7.2351303,-4.0126724,-15.012905,8.724427,-12.262185,2.1136634,-0.98657155,0.26518217,6.5719976,8.199274,7.4902215,-8.214679,60.085464,11.594968,5.032414,14.75287,0.39048624,-5.660844,13.124189,67.6613,-3.7028785,4.385311,-16.105774
88,0.08715980499982834,2.1217691898345947,78.51200866699219,-0.40996319230043893,-2.332117877213782,-89.3187344297973,7.3750415,4.8619475,12.788197,7.1561193,-14.101584,-4.822982,7.2056246,-4.0072565,-14.999584,8.705775,-12.179315,2.1671429,-1.0002475,0.28380448,6.579232,8.205188,7.4710827,-8.210935,60.08026,11.580736,5.029528,14.766933,0.35103506,-5.67671,13.143705,67.66146,-3.730542,4.3755026,-16.12486
89,0.0980750173330307,2.143130302429199,78.52479553222656,-0.42212235474607285,-2.315954679307235,-89.3381273124298,7.340535,4.864841,12.796427,7.156945,-14.055779,-4.7828326,7.160016,-4.0079584,-14.990924,8.700066,-12.091736,2.2110193,-1.0117406,0.28988403,6.584197,8.2050085,7.4635787,-8.209402,60.07731,11.589084,5.0296226,14.765549,0.3190787,-5.6827207,13.145545,67.650604,-3.7180846,4.358927,-16.132662
90,0.11077821254730225,2.1666324138641357,78.53949737548828,-0.4334242923849004,-2.296307542793653,-89.35519204547953,7.2967043,4.864511,12.788883,7.1564255,-13.996237,-4.7330303,7.1044717,-4.011671,-14.984956,8.69872,-11.996145,2.2511585,-1.0355353,0.30733427,6.59033,8.201181,7.4382167,-8.199831,60.077618,11.616603,5.0320735,14.758996,0.27179232,-5.70096,13.146513,67.64841,-3.6776247,4.335267,-16.132862
91,0.1287160962820053,2.193904161453247,78.55597686767578,-0.44427852916980953,-2.2796811197597497,-89.3757113152605,7.2517796,4.861604,12.781784,7.157161,-13.930449,-4.676949,7.043749,-4.0183744,-14.9758415,8.704309,-11.893166,2.291764,-1.0587327,0.32736817,6.604036,8.188608,7.406822,-8.196041,60.083164,11.651458,5.0342903,14.750748,0.22371918,-5.7232533,13.141645,67.63745,-3.636627,4.311004,-16.133165
92,0.15114425122737885,2.2231173515319824,78.56999969482422,-0.45703573576953016,-2.272830339484677,-89.40552759377893,7.207052,4.858185,12.7906885,7.176249,-13.873148,-4.6180573,6.9858403,-4.0274515,-14.957878,8.712839,-11.779971,2.3369246,-1.0751492,0.3491353,6.6358323,8.168697,7.3764434,-8.20724,60.08563,11.681567,5.0341806,14.743553,0.16638003,-5.7465973,13.128555,67.62049,-3.619585,4.2897415,-16.138231
93,0.17754264175891876,2.2593834400177,78.58305358886719,-0.4707753255143023,-2.2764326506954706,-89.44762434841857,7.161507,4.8536983,12.820468,7.2198005,-13.827418,-4.5553474,6.931512,-4.041123,-14.930183,8.725752,-11.657769,2.3904865,-1.0826892,0.37091392,6.686779,8.140919,7.3489304,-8.2353525,60.087692,11.709432,5.0309453,14.7379,0.09851195,-5.770974,13.104917,67.59898,-3.6349335,4.2678385,-16.146837
94,0.20861269533634186,2.3090806007385254,78.5986099243164,-0.48503338901985005,-2.2875627460732084,-89.49837753621604,7.119939,4.8469033,12.863027,7.2676787,-13.780269,-4.48744,6.878923,-4.0578136,-14.895494,8.74017,-11.5250635,2.4492767,-1.0664423,0.42069307,6.7530303,8.0805,7.2899647,-8.300655,60.1151,11.738167,5.026742,14.74092,0.04024867,-5.829404,13.048646,67.553925,-3.672304,4.2448635,-16.149862
95,0.2513441741466522,2.366471529006958,78.61832427978516,-0.50291676105753,-2.306301029346979,-89.55365886021957,7.082073,4.8408394,12.913349,7.317867,-13.732554,-4.4175706,6.823287,-4.0744777,-14.853791,8.764768,-11.385611,2.5062792,-1.0626085,0.45858145,6.834566,8.031946,7.2505913,-8.357106,60.119553,11.76173,5.0200377,14.736485,-0.03682705,-5.87222,13.007854,67.51189,-3.7149696,4.229541,-16.161928
96,0.29306814074516296,2.421391248703003,78.64076232910156,-0.5255320924175018,-2.33332303841949,-89.60947139895542,7.046195,4.8394003,12.9666195,7.371406,-13.686194,-4.348829,6.766878,-4.0856266,-14.805237,8.7934,-11.235188,2.5546153,-1.0580114,0.5190885,6.9325786,7.969637,7.1908193,-8.425459,60.123066,11.773274,5.011999,14.735171,-0.109760925,-5.94168,12.967504,67.44533,-3.7562218,4.2320433,-16.1785
97,0.3391279876232147,2.4907541275024414,78.66365051269531,-0.5564033480656342,-2.371137021104097,-89.66524861858491,7.0150995,4.844625,13.025651,7.4288387,-13.643137,-4.282636,6.708577,-4.0902724,-14.747136,8.833547,-11.078978,2.5890799,-1.0736579,0.5685132,7.048387,7.9222717,7.1526875,-8.47491,60.094406,11.761537,4.999036,14.72346,-0.20631845,-5.9862065,12.954288,67.383644,-3.8053653,4.265923,-16.222084
98,0.3926253020763397,2.5648672580718994,78.68339538574219,-0.5928470844830441,-2.4185194266373897,-89.72316747320338,6.987661,4.85456,13.091716,7.490926,-13.602211,-4.217135,6.6489124,-4.091485,-14.679927,8.882963,-10.915525,2.6137574,-1.0916249,0.6376676,7.1820188,7.8659887,7.0976925,-8.531021,60.060028,11.734194,4.982918,14.711497,-0.3026748,-6.049616,12.945815,67.30143,-3.8635175,4.3233314,-16.27803
99,0.44485148787498474,2.6387441158294678,78.70435333251953,-0.6352420011083992,-2.470947234208035,-89.78205066799201,6.9589043,4.8679404,13.156636,7.5565495,-13.560957,-4.151041,6.585436,-4.0899477,-14.609279,8.93758,-10.740169,2.6347644,-1.1204959,0.70168805,7.3268666,7.810286,7.052608,-8.5830965,60.016758,11.711391,4.967613,14.69997,-0.4158655,-6.1043735,12.949432,67.222755,-3.905466,4.377234,-16.330544
100,0.49727970361709595,2.7173454761505127,78.72627258300781,-0.6778230081593323,-2.523650802208612,-89.84142683349145,6.922836,4.8816476,13.213018,7.625725,-13.517023,-4.082986,6.512419,-4.08929,-14.539345,8.99821,-10.549914,2.6590059,-1.1547188,0.7666746,7.478344,7.744549,7.0058794,-8.641382,59.980698,11.713868,4.9579263,14.697347,-0.53610134,-6.17018,12.958251,67.139114,-3.903943,4.401893,-16.353258
101,0.5579009056091309,2.812136173248291,78.75231170654297,-0.7233933898781562,-2.5777663793677212,-89.90099338270744,6.880546,4.895915,13.252443,7.6994157,-13.470742,-4.0158362,6.4366364,-4.0870123,-14.47243,9.054206,-10.33942,2.6862664,-1.1930807,0.82974374,7.6365404,7.6705956,6.96038,-8.701652,59.95312,11.7540655,4.954319,14.706889,-0.6646393,-6.248904,12.982415,67.05506,-3.8242753,4.3831763,-16.327848
102,0.6178392767906189,2.9099209308624268,78.7756118774414,-0.7489289397651602,-2.626214429715093,-89.9699483666654,6.8412266,4.8822775,13.292632,7.7412534,-13.403458,-3.9456732,6.159924,-4.1576023,-14.38037,9.515513,-10.322943,2.7175598,-1.2282498,0.86534446,7.793539,7.593187,6.9226246,-8.762471,59.925694,11.817868,4.9546604,14.723486,-0.8035874,-6.3295116,13.02092,66.97134,-3.6898751,4.33746,-16.271782
103,0.6836552023887634,3.0152595043182373,78.79533386230469,-0.7642653088195868,-2.671362654646296,-90.04254926646315,6.798305,4.8533516,13.340694,7.771867,-13.326439,-3.8687534,5.8083224,-4.2585073,-14.278093,10.115438,-10.361523,2.75376,-1.2713009,0.87595195,7.9528747,7.512785,6.9010983,-8.827419,59.894554,11.887044,4.9590893,14.739252,-0.96299833,-6.389803,13.05374,66.897,-3.5655258,4.283125,-16.219227
104,0.7544113993644714,3.1280264854431152,78.81541442871094,-0.7789989437137502,-2.712638182321336,-90.115590747056,6.7446504,4.8189483,13.406562,7.8025327,-13.244494,-3.7805283,5.4451275,-4.3653655,-14.172823,10.71426,-10.379721,2.7963707,-1.3224334,0.89858776,8.122882,7.422315,6.8754764,-8.917326,59.854298,11.940232,4.9670267,14.745275,-1.1067271,-6.479162,13.060357,66.776,-3.5025613,4.2416754,-16.18357
105,0.8367215991020203,3.25361967086792,78.83673095703125,-0.7918027093612249,-2.751983475837008,-90.19139299507337,6.686007,4.779545,13.501886,7.8319554,-13.160605,-3.6776097,5.0722504,-4.478501,-14.064002,11.315082,-10.382387,2.8440459,-1.3870808,0.91778773,8.2997675,7.3272414,6.8581443,-9.026227,59.80256,11.9715605,4.9822855,14.737992,-1.2614216,-6.56091,13.03367,66.64481,-3.5412471,4.2164965,-16.188042
106,0.9172499179840088,3.37908935546875,78.85932159423828,-0.8052856019274496,-2.7900658448617266,-90.26916582467774,6.619974,4.73731,13.616313,7.863984,-13.075126,-3.5638864,4.686648,-4.5964713,-13.951737,11.925829,-10.371868,2.8951273,-1.4484526,0.94973415,8.488023,7.2201047,6.841382,-9.170936,59.742905,11.98624,5.0033417,14.7205,-1.3998541,-6.6687245,12.96988,66.470924,-3.6412578,4.198236,-16.203772
107,0.9975785613059998,3.5138185024261475,78.88230895996094,-0.8175535975094916,-2.8223888210419394,-90.34424804877582,6.5389805,4.689243,13.731552,7.894674,-12.980439,-3.4443965,4.2845078,-4.7204504,-13.836763,12.539038,-10.345214,2.9520772,-1.5288129,0.96641314,8.679796,7.106202,6.8350735,-9.31528,59.68342,12.003884,5.0240817,14.703308,-1.557029,-6.758227,12.899529,66.299644,-3.7596254,4.1817665,-16.233797
108,1.0884010791778564,3.663266181945801,78.90394592285156,-0.8268173668738042,-2.8440247260108253,-90.41200640998184,6.4364576,4.633112,13.829221,7.9186163,-12.86843,-3.324219,3.865918,-4.848756,-13.720428,13.137738,-10.294211,3.0178103,-1.616028,0.9754978,8.87657,6.9752917,6.837783,-9.471157,59.631367,12.029563,5.0370445,14.690555,-1.7117836,-6.853061,12.817251,66.104256,-3.8500037,4.1628633,-16.25482
109,1.1889506578445435,3.8256630897521973,78.93158721923828,-0.8373628110599802,-2.8539622416522907,-90.4661030350971,6.3039536,4.573826,13.895725,7.946604,-12.742454,-3.2039678,3.4363928,-4.975486,-13.609338,13.708982,-10.210307,3.0936337,-1.7309519,0.966153,9.071621,6.8332686,6.8499975,-9.61615,59.59354,12.075477,5.0398993,14.6870985,-1.8897715,-6.929226,12.762786,65.920815,-3.8939862,4.14396,-16.273909
110,1.2831082344055176,3.9900593757629395,78.95972442626953,-0.8482841317783512,-2.854716765130363,-90.51074770779584,6.1483727,4.510976,13.943851,7.9746375,-12.6034355,-3.0813394,2.995096,-5.1020975,-13.500804,14.261868,-10.0984745,3.1781886,-1.8482589,0.95493627,9.273869,6.6767535,6.8763027,-9.7853365,59.55686,12.122961,5.035666,14.682245,-2.053463,-7.025271,12.701388,65.69913,-3.9155943,4.1264596,-16.280943
111,1.3862837553024292,4.157376289367676,78.98751831054688,-0.8517117040431966,-2.8467204202921677,-90.55697637923814,5.9774504,4.4346714,13.99442,7.99311,-12.448446,-2.957131,2.5268817,-5.241026,-13.380934,14.8260145,-9.978329,3.2701292,-1.9850096,0.9248892,9.479593,6.509753,6.906664,-9.942356,59.52382,12.180056,5.0285554,14.682608,-2.2370706,-7.0996885,12.6175585,65.47696,-3.9397237,4.103484,-16.296736
112,1.4909520149230957,4.352659225463867,79.01258850097656,-0.8397600985767225,-2.8304172630229125,-90.61590766162772,5.800799,4.3345685,14.068205,7.986998,-12.271568,-2.8320427,2.0169,-5.404596,-13.2355585,15.42961,-9.868499,3.3678517,-2.103725,0.8839417,9.700285,6.324345,6.950875,-10.123766,59.479073,12.227035,5.021532,14.680085,-2.3977473,-7.181816,12.436821,65.19365,-3.9913535,4.0685363,-16.307705
113,1.605046033859253,4.551667213439941,79.03410339355469,-0.8011775884283517,-2.8054851554129066,-90.68606997546117,5.6200576,4.196522,14.16985,7.9501495,-12.067301,-2.7030044,1.4582604,-5.6074357,-13.061134,16.089685,-9.788946,3.4701374,-2.2316093,0.81620663,9.928894,6.122,6.9925885,-10.296431,59.43611,12.27236,5.013164,14.683364,-2.5704272,-7.244059,12.178057,64.89213,-4.078902,4.01262,-16.326235
114,1.7348954677581787,4.773759365081787,79.05252838134766,-0.744864481941367,-2.7720947595480885,-90.76294964892804,5.431575,4.0294256,14.2884655,7.888804,-11.839106,-2.5706117,0.8597478,-5.8384633,-12.864376,16.786892,-9.723912,3.57746,-2.3326318,0.7349188,10.170536,5.892162,7.048913,-10.510701,59.392582,12.302891,5.002596,14.686769,-2.718068,-7.3138046,11.818089,64.53229,-4.193492,3.9411163,-16.335838
115,1.8591138124465942,5.001186370849609,79.06726837158203,-0.6936525926431562,-2.7312084820859743,-90.85188786577318,5.227864,3.8682957,14.418965,7.82591,-11.603576,-2.4419057,0.22576018,-6.064523,-12.648132,17.507204,-9.645065,3.689957,-2.4291255,0.6575365,10.42369,5.651784,7.116047,-10.732767,59.337574,12.336353,4.9945707,14.6881895,-2.8584154,-7.380894,11.392198,64.133064,-4.32058,3.8709345,-16.350489
116,1.9877698421478271,5.237079620361328,79.0810317993164,-0.6737237313908105,-2.6805203530770076,-90.95537285899735,4.838475,3.7937305,14.542411,8.131158,-11.55916,-2.3271232,-0.4286106,-6.2462907,-12.422028,18.206772,-9.512486,3.806153,-2.5512776,0.6053004,10.681181,5.4150095,7.1814294,-10.922434,59.267742,12.394962,4.994106,14.68939,-3.0167243,-7.430443,10.940642,63.72459,-4.4454875,3.8175497,-16.387648
117,2.1224734783172607,5.492517471313477,79.09085845947266,-0.6730210823335832,-2.628002043986297,-91.07609610535312,4.4062476,3.7567763,14.668664,8.507775,-11.544475,-2.227438,-1.1038672,-6.3996725,-12.185546,18.90097,-9.321135,3.929866,-2.6487203,0.5689818,10.962742,5.1596446,7.270257,-11.143053,59.180138,12.464016,5.007174,14.683079,-3.152724,-7.4757996,10.385476,63.2533,-4.5724816,3.7868433,-16.43461
118,2.26602840423584,5.762208461761475,79.09696960449219,-0.6813650661558162,-2.572015034138085,-91.21231201853423,3.9506674,3.7394993,14.802669,8.90893,-11.534579,-2.1396117,-1.8042964,-6.53698,-11.934884,19.599434,-9.088506,4.0590854,-2.7446873,0.5347497,11.262512,4.8971925,7.3769555,-11.36688,59.07356,12.545547,5.02932,14.671136,-3.287692,-7.508671,9.759615,62.7445,-4.7018814,3.7687724,-16.494452
119,2.400444746017456,6.021170139312744,79.1063003540039,-0.7043455021005037,-2.504663440024079,-91.37070377170086,3.4824948,3.744393,14.955974,9.30406,-11.5257015,-2.0596983,-2.5245335,-6.64467,-11.657477,20.275255,-8.815102,4.188378,-2.8434958,0.50838906,11.559672,4.6435313,7.4917607,-11.571456,58.948395,12.635832,5.05093,14.658453,-3.4329803,-7.527859,9.115892,62.226757,-4.841458,3.7589753,-16.567936
120,2.527108669281006,6.290927410125732,79.12332153320312,-0.7470320019635713,-2.4176912525218124,-91.55823498664704,3.0254667,3.7705023,15.140966,9.63497,-11.503158,-1.982248,-3.2592006,-6.7093754,-11.340576,20.901535,-8.500604,4.313807,-2.9417918,0.49584562,11.835226,4.412976,7.609988,-11.743394,58.80277,12.727484,5.062723,14.648807,-3.5925598,-7.540239,8.49942,61.72219,-4.99937,3.751027,-16.65312
121,2.6783409118652344,6.580175399780273,79.13492584228516,-0.8183326437830905,-2.3114795574296285,-91.78203921711871,2.5824234,3.829736,15.366456,9.900775,-11.4699,-1.9170163,-4.015644,-6.7187924,-10.977649,21.48413,-8.1260395,4.437459,-3.02996,0.5062457,12.095763,4.2086825,7.7374487,-11.886674,58.625122,12.817594,5.0596285,14.640006,-3.762269,-7.546114,7.893546,61.221626,-5.189384,3.7491,-16.761717
122,2.820802688598633,6.846924304962158,79.14697265625,-0.9114333050229472,-2.1895224209925392,-92.03672862323533,2.141984,3.919233,15.623179,10.128524,-11.432919,-1.8621793,-4.795078,-6.681949,-10.577582,22.037273,-7.699299,4.5616994,-3.120004,0.53567743,12.346877,4.024086,7.867787,-11.99684,58.4217,12.914248,5.0473332,14.632314,-3.9445326,-7.5448065,7.292591,60.72167,-5.4008875,3.7550125,-16.89201
123,2.9555275440216064,7.120791912078857,79.16027069091797,-1.0112888914514304,-2.049040100756927,-92.31022243484377,1.6996437,4.016414,15.896713,10.317266,-11.386775,-1.7935611,-5.5752997,-6.616292,-10.151959,22.529894,-7.255357,4.6844254,-3.2095287,0.56795627,12.5737705,3.8535907,8.005108,-12.087369,58.20657,13.009224,5.032672,14.626933,-4.126667,-7.542821,6.719363,60.22392,-5.613117,3.7574892,-17.011774
124,3.090987205505371,7.413473129272461,79.16773223876953,-1.1014695709689422,-1.886722606289928,-92.59050295677437,1.2511331,4.0977187,16.17254,10.466003,-11.32714,-1.6869262,-6.336321,-6.5406246,-9.711208,22.934874,-6.8309546,4.804399,-3.299117,0.58687615,12.762293,3.695215,8.153705,-12.168761,57.989716,13.0948,5.0219874,14.6236515,-4.295261,-7.5486007,6.2014184,59.72819,-5.8031335,3.7448785,-17.087902
125,3.2247872352600098,7.701408863067627,79.17950439453125,-1.1850904205399713,-1.6853414892628786,-92.8870496481409,0.76947385,4.171699,16.458939,10.592735,-11.266346,-1.5230703,-7.1035933,-6.4510417,-9.274741,23.249994,-6.404251,4.9130807,-3.386542,0.59529275,12.900962,3.5558379,8.31181,-12.21429,57.76121,13.186338,5.012751,14.617967,-4.4444737,-7.569416,5.737387,59.205475,-5.9749317,3.7103698,-17.06795
126,3.376311779022217,7.997988700866699,79.17997741699219,-1.2707677634016095,-1.4519725708862048,-93.20199482044514,0.26761767,4.2440343,16.760004,10.687858,-11.201157,-1.3182949,-7.8759737,-6.3404455,-8.831736,23.485796,-5.9652324,5.0161095,-3.473205,0.601945,13.00089,3.4349303,8.477294,-12.227635,57.517723,13.281722,5.002582,14.61043,-4.5780687,-7.6047945,5.317408,58.660866,-6.135187,3.660917,-16.982088
127,3.4993722438812256,8.281290054321289,79.18517303466797,-1.3408969445434127,-1.2195701204316316,-93.51237250763718,-0.20818551,4.291026,17.055756,10.726067,-11.110793,-1.1023258,-8.594222,-6.2234755,-8.346314,23.632992,-5.5679617,5.1336956,-3.5633945,0.5985627,13.081368,3.320271,8.655936,-12.266233,57.277412,13.347133,4.9984097,14.607905,-4.697992,-7.6486835,4.954445,58.14653,-6.2656164,3.6055584,-16.921293
128,3.6224794387817383,8.555769920349121,79.18228912353516,-1.3782529659677252,-1.020357339666739,-93.79498827250929,-0.6124449,4.289238,17.325987,10.683891,-10.9751625,-0.90530056,-9.199993,-6.1152024,-7.7817664,23.684795,-5.267601,5.28566,-3.659628,0.573733,13.162011,3.2010534,8.858205,-12.389664,57.05603,13.347091,5.0071454,14.6165,-4.808037,-7.6920433,4.6601915,57.71556,-6.347965,3.553648,-16.976767
129,3.752349615097046,8.833813667297363,79.17626190185547,-1.3691399505730928,-0.8513913336259774,-94.05632474147029,-0.9356271,4.2195945,17.576363,10.535382,-10.781872,-0.72791886,-9.684264,-6.0026746,-7.0625014,23.553516,-5.0459695,5.49792,-3.7617836,0.5142982,13.238625,3.0820925,9.099576,-12.652482,56.838913,13.233757,5.0344005,14.644264,-4.930152,-7.729154,4.4628963,57.407246,-6.360073,3.50184,-17.228065
130,3.869807004928589,9.10543441772461,79.16797637939453,-1.3257802772069738,-0.6987543422427764,-94.30407446900968,-1.2014176,4.0982127,17.814436,10.299664,-10.54386,-0.55689585,-10.07279,-5.8869066,-6.228853,23.269426,-4.8851614,5.7520413,-3.8652418,0.42233822,13.304891,2.9698517,9.382561,-13.014221,56.61618,13.034997,5.0749145,14.683075,-5.056036,-7.758585,4.343901,57.184048,-6.3194137,3.446653,-17.608076
131,3.986764669418335,9.373515129089355,79.15961456298828,-1.2677165004526323,-0.5785404625659726,-94.51818025647631,-1.4130324,3.953787,18.02392,10.01614,-10.276096,-0.4013821,-10.368333,-5.802993,-5.4184422,23.013895,-4.8459296,6.000907,-3.9674459,0.31239766,13.376208,2.8547306,9.692597,-13.389435,56.41455,12.831156,5.1199164,14.71667,-5.145669,-7.7774506,4.2462177,56.98546,-6.2672544,3.397615,-17.989038
132,4.087796688079834,9.638413429260254,79.15573120117188,-1.217708766107384,-0.5069051266329525,-94.67894337376327,-1.5762131,3.8166344,18.187956,9.730659,-9.997011,-0.27055556,-10.576745,-5.7827215,-4.770068,22.968048,-4.9863114,6.1992655,-4.067017,0.20180261,13.466313,2.7235951,10.007382,-13.690675,56.268776,12.705661,5.1609335,14.731691,-5.1604743,-7.7860737,4.1136303,56.75393,-6.2462873,3.365395,-18.245079
133,4.176426887512207,9.905973434448242,79.15702819824219,-1.1817650070638057,-0.50091938397183,-94.7806783222826,-1.6747235,3.6952653,18.291483,9.450451,-9.707574,-0.17588468,-10.670047,-5.8185315,-4.284136,23.107126,-5.3282123,6.3637705,-4.1717267,0.096435055,13.588237,2.5622375,10.315105,-13.903124,56.22171,12.696534,5.19642,14.724782,-5.0856333,-7.788491,3.9403965,56.455936,-6.2669444,3.3670402,-18.339483
134,4.254112243652344,10.173887252807617,79.15335845947266,-1.1479790044460052,-0.5473213127797127,-94.83450883636837,-1.7145357,3.5747511,18.346409,9.158363,-9.4016905,-0.1095331,-10.659107,-5.9001093,-3.89963,23.360888,-5.8382535,6.5090694,-4.28156,-0.007253452,13.729043,2.3743463,10.615735,-14.068847,56.256306,12.7580805,5.230851,14.70693,-4.9446516,-7.787433,3.7554243,56.131447,-6.30706,3.3925657,-18.342056
135,4.336441993713379,10.4322509765625,79.14451599121094,-1.1114196077321203,-0.6169670166378801,-94.84559062418461,-1.7272588,3.4467862,18.377356,8.848375,-9.079909,-0.051493693,-10.610237,-6.0544634,-3.6618042,23.843157,-6.4906983,6.5889683,-4.383247,-0.10515238,13.863511,2.1750016,10.904289,-14.185388,56.3166,12.848383,5.2650285,14.685331,-4.756764,-7.7801995,3.5550036,55.833614,-6.359103,3.412639,-18.285818
136,4.40622615814209,10.687919616699219,79.13872528076172,-1.0661008904284852,-0.6808260554587009,-94.81877003969032,-1.7453362,3.3032353,18.408998,8.516873,-8.743995,0.01822459,-10.587374,-6.308877,-3.6138093,24.664087,-7.259036,6.5565925,-4.464348,-0.19380777,13.966133,1.9774455,11.174085,-14.248679,56.349552,12.926095,5.300041,14.66874,-4.5431585,-7.762008,3.336387,55.617676,-6.4157405,3.3977766,-18.205273
137,4.466803550720215,10.936455726623535,79.13407897949219,-1.0093362657226492,-0.7392022272784728,-94.74725825177903,-1.7592247,3.1341534,18.456108,8.136158,-8.381738,0.111600146,-10.598452,-6.707195,-3.8252916,25.890259,-8.194043,6.3587394,-4.523164,-0.26920018,14.032735,1.7663405,11.422801,-14.2749815,56.37845,12.987228,5.3373747,14.6584015,-4.2975035,-7.724544,3.0592785,55.497196,-6.4816937,3.3235285,-18.089598
138,4.522852420806885,11.188139915466309,79.12727355957031,-0.9431536197243985,-0.8055991081069294,-94.63045541331137,-1.7601316,2.9445553,18.502855,7.7250843,-7.9985557,0.21593475,-10.603318,-7.237251,-4.243565,27.437151,-9.289162,6.0311966,-4.56423,-0.33707023,14.075313,1.5360622,11.652679,-14.262346,56.426125,13.052325,5.376383,14.652198,-4.014124,-7.668428,2.7349281,55.445347,-6.5608234,3.2110527,-17.929373
139,4.570795059204102,11.440770149230957,79.11222076416016,-0.8712961822139463,-0.8714644912553436,-94.48363453951558,-1.7628225,2.7432256,18.52886,7.3050575,-7.607055,0.31452373,-10.589802,-7.8396616,-4.7304573,29.181564,-10.429579,5.658927,-4.588085,-0.40668336,14.09336,1.3184708,11.862405,-14.174404,56.434593,13.1172,5.4149446,14.652265,-3.7141256,-7.6053715,2.4422295,55.456318,-6.6432266,3.0997474,-17.759407
140,4.611568927764893,11.707852363586426,79.08340454101562,-0.7976606999320588,-0.9273081060987088,-94.32171475068414,-1.8014401,2.5493917,18.511648,6.9395285,-7.239925,0.39027214,-10.55647,-8.44499,-5.1550527,31.018517,-11.499626,5.32715,-4.5993266,-0.48292333,14.085836,1.1471007,12.048108,-13.969965,56.344902,13.178923,5.4507346,14.660596,-3.418655,-7.5550947,2.2663307,55.523983,-6.7167134,3.029595,-17.613773
141,4.6500701904296875,11.96756649017334,79.05427551269531,-0.7353366572166434,-0.9669478458835093,-94.13102904245503,-1.9974941,2.4121487,18.425169,6.879244,-7.0258346,0.43332437,-10.506469,-9.051934,-5.542052,32.976032,-12.496334,5.0285535,-4.620538,-0.5557773,14.043263,1.0437152,12.203412,-13.602223,56.13255,13.246903,5.490822,14.677726,-3.126781,-7.529533,2.2431908,55.65892,-6.8110776,3.0192428,-17.503971
142,4.675282001495361,12.224306106567383,79.03096771240234,-0.6697822564611257,-0.998004699028119,-93.91072440777398,-2.2246153,2.2775333,18.293674,6.8580093,-6.8264265,0.4557044,-10.432772,-9.69912,-5.9375844,35.085186,-13.468451,4.7242565,-4.6480937,-0.62752587,13.969464,0.9890771,12.325192,-13.09667,55.831657,13.321678,5.5333295,14.701714,-2.831326,-7.529951,2.3326995,55.86174,-6.9161935,3.044864,-17.408829
143,4.70407772064209,12.480230331420898,78.99913787841797,-0.5974701985169508,-1.0275627644490306,-93.69000723016111,-2.4573665,2.1400974,18.146894,6.8443747,-6.629879,0.46849966,-10.332458,-10.347129,-6.262951,37.262157,-14.386382,4.4535,-4.647854,-0.69554824,13.88182,0.95417374,12.413949,-12.525518,55.470844,13.385508,5.5622287,14.730465,-2.5399,-7.5560203,2.50026,56.10864,-6.960572,3.0824406,-17.312475
144,4.724567890167236,12.746593475341797,78.96781921386719,-0.5073028117947579,-1.0626933838290056,-93.49848041253463,-2.6794486,1.9909518,18.015131,6.829218,-6.4368434,0.48103303,-10.2050495,-10.959366,-6.43955,39.421017,-15.217464,4.2572775,-4.577047,-0.76267105,13.796689,0.9023253,12.469757,-11.9724045,55.08554,13.418496,5.5622716,14.764679,-2.2557838,-7.6049166,2.7005422,56.373264,-6.876653,3.1079588,-17.198933
145,4.746909141540527,13.010026931762695,78.92604064941406,-0.393999268907692,-1.103233044838002,-93.34488897515874,-2.8899772,1.8257297,17.902117,6.8131113,-6.2504263,0.48909658,-10.06735,-11.531062,-6.4360647,41.594456,-15.955804,4.154914,-4.424276,-0.8310279,13.721313,0.8408851,12.501255,-11.435152,54.639347,13.394855,5.527957,14.797114,-1.9791396,-7.6896076,2.9587708,56.63276,-6.5748653,3.10561,-17.05297
146,4.752812385559082,13.274354934692383,78.87339782714844,-0.2640044125274667,-1.1460255743073515,-93.2134265480676,-3.0958545,1.6492852,17.793106,6.797351,-6.0681553,0.48908955,-9.917562,-12.077011,-6.301187,43.812237,-16.617218,4.1225967,-4.1932054,-0.8944714,13.644233,0.7659133,12.501584,-10.902539,54.145077,13.3269005,5.469033,14.835202,-1.6988585,-7.80653,3.2624617,56.90081,-6.1221056,3.091844,-16.885063
147,4.755609035491943,13.551420211791992,78.81947326660156,-0.12327209071229264,-1.193057136612295,-93.09723826285448,-3.2958376,1.4673551,17.6921,6.7798333,-5.8842373,0.49344176,-9.733195,-12.589457,-6.077017,45.991985,-17.204914,4.1397686,-3.9340158,-0.95806384,13.561953,0.7055466,12.472593,-10.353145,53.63109,13.266321,5.387974,14.877183,-1.4385775,-7.941074,3.6004755,57.22281,-5.653352,3.0915859,-16.717726
148,4.74917459487915,13.8349027633667,78.76211547851562,0.02608378101205188,-1.2465110917143543,-92.98947373116812,-3.4909468,1.2848899,17.60342,6.76472,-5.6960316,0.5149704,-9.490157,-13.060454,-5.8062716,48.049786,-17.72082,4.1870046,-3.690357,-1.0314598,13.471341,0.6815359,12.4189415,-9.773653,53.13064,13.262228,5.2878447,14.922736,-1.2166703,-8.069311,3.9528716,57.641056,-5.3089323,3.1287832,-16.575317
149,4.7408905029296875,14.124776840209961,78.70247650146484,0.18455440832795553,-1.2986862240083141,-92.8819137185211,-3.6877034,1.0966016,17.521841,6.749532,-5.500142,0.5656039,-9.189653,-13.491385,-5.506729,49.99818,-18.181921,4.255191,-3.476747,-1.131062,13.359497,0.7088953,12.343162,-9.129953,52.642826,13.341364,5.1533484,14.973345,-1.0346321,-8.172323,4.327323,58.182285,-5.149339,3.218661,-16.479912
150,4.725857257843018,14.398685455322266,78.6399154663086,0.3529160440140496,-1.3511823205426587,-92.78035865416072,-3.8845394,0.9013442,17.447891,6.7370586,-5.300746,0.6360254,-8.842446,-13.880671,-5.1575804,51.873707,-18.58211,4.3597937,-3.2695906,-1.2567629,13.232352,0.7742248,12.248791,-8.436796,52.15203,13.473763,4.988783,15.029309,-0.88482106,-8.249846,4.7307634,58.821327,-5.097145,3.3450005,-16.41811
151,4.68585729598999,14.66712474822998,78.58379364013672,0.5275317292493016,-1.420030518689277,-92.69945706650715,-4.0619583,0.7082628,17.39331,6.7235136,-5.0985417,0.70761174,-8.436323,-14.212953,-4.745896,53.62515,-18.886715,4.5197916,-3.051633,-1.3934155,13.115945,0.85575926,12.144704,-7.7580743,51.66859,13.621727,4.8268104,15.088459,-0.7695444,-8.312682,5.138564,59.5211,-5.0857186,3.4839945,-16.35974
152,4.645020484924316,14.94473934173584,78.52751922607422,0.7023543545164906,-1.5213518685255736,-92.65405982445145,-4.2028837,0.52696407,17.370008,6.709258,-4.8960576,0.7616826,-7.958759,-14.472056,-4.2595353,55.20077,-19.06102,4.7553296,-2.8027518,-1.5236,13.036839,0.93224615,12.04093,-7.1610036,51.20096,13.746388,4.6998043,15.147326,-0.68827313,-8.375186,5.5223556,60.2412,-5.047873,3.6118624,-16.272306
153,4.6111369132995605,15.239609718322754,78.46307373046875,0.8817513698264113,-1.6710404970365145,-92.65894137923793,-4.2883177,0.35460514,17.39131,6.6970496,-4.6987953,0.7919615,-7.3950157,-14.655973,-3.6817305,56.60557,-19.10248,5.0696754,-2.503139,-1.6449082,13.017351,0.997704,11.941928,-6.673145,50.734238,13.836477,4.6199093,15.201653,-0.6418602,-8.443061,5.862675,60.98684,-4.9835677,3.7234206,-16.135612
154,4.58612060546875,15.547627449035645,78.39422607421875,1.0691144113885005,-1.8562032952621352,-92.7028983916108,-4.331554,0.18766496,17.447046,6.6846595,-4.502785,0.80935556,-6.7531004,-14.766487,-3.0283468,57.86206,-19.027233,5.458606,-2.1635873,-1.7635269,13.039712,1.0634168,11.845729,-6.2614803,50.26662,13.909611,4.5682516,15.252218,-0.62471294,-8.513596,6.174339,61.768463,-4.9214344,3.83064,-15.966684
155,4.550251007080078,15.86156177520752,78.33090209960938,1.2506775268343011,-2.049562486700943,-92.76151911272589,-4.3666096,0.03533066,17.51378,6.6715875,-4.301508,0.82083625,-6.05326,-14.792876,-2.3362315,58.94206,-18.832218,5.931181,-1.813057,-1.8736506,13.06994,1.1352165,11.750609,-5.901223,49.826,13.968909,4.5310755,15.303675,-0.62833256,-8.58543,6.4835706,62.554436,-4.836359,3.935639,-15.790318
156,4.506148815155029,16.176513671875,78.26866149902344,1.415080302789581,-2.2240754447386233,-92.81010526364402,-4.4294353,-0.09180519,17.567812,6.6601415,-4.0892105,0.8331147,-5.3192067,-14.7235985,-1.6398298,59.823322,-18.513853,6.4958034,-1.4805896,-1.9701964,13.073877,1.2183405,11.655679,-5.5673475,49.44053,14.017374,4.494692,15.360185,-0.646039,-8.660135,6.817518,63.314163,-4.701854,4.0411716,-15.631442
157,4.440896034240723,16.48363494873047,78.20775604248047,1.5593307926214413,-2.3731882884973423,-92.84714721002445,-4.527251,-0.19104303,17.607243,6.6491575,-3.8664336,0.8495351,-4.5550776,-14.547658,-0.9321708,60.505856,-18.0299,7.1550617,-1.1663482,-2.050367,13.043658,1.3136585,11.559922,-5.259239,49.111313,14.05831,4.4582467,15.424156,-0.6881108,-8.741467,7.214482,64.073685,-4.475594,4.1451073,-15.496812
158,4.377661228179932,16.791810989379883,78.14874267578125,1.6896922453197005,-2.5110784290664414,-92.8838482144306,-4.6428475,-0.26744086,17.64296,6.639778,-3.6362581,0.86615294,-3.746799,-14.268518,-0.19726205,61.00203,-17.401428,7.9092803,-0.8606127,-2.1169753,12.996696,1.4196138,11.462679,-4.984122,48.824596,14.090503,4.4278502,15.492401,-0.7562653,-8.830402,7.6539917,64.83948,-4.1819067,4.247401,-15.37351
159,4.3230814933776855,17.132307052612305,78.08844757080078,1.807714238229858,-2.6421391302239297,-92.91522332813776,-4.772284,-0.3241078,17.67196,6.6292243,-3.392758,0.87877524,-2.8906307,-13.897274,0.54453975,61.304836,-16.72077,8.760448,-0.57532203,-2.172631,12.937433,1.5370616,11.362402,-4.7322006,48.586887,14.109086,4.4003243,15.561303,-0.8288588,-8.918914,8.071706,65.54992,-3.8943808,4.352213,-15.255647
160,4.26163911819458,17.47358512878418,78.03304290771484,1.914485949121893,-2.7707256205248796,-92.93615678640022,-4.9132752,-0.3637864,17.69102,6.618511,-3.1317823,0.8831214,-1.9851335,-13.448928,1.2726146,61.409477,-16.080673,9.706432,-0.32118377,-2.222133,12.870226,1.6656132,11.258431,-4.494457,48.405563,14.109827,4.3726606,15.627875,-0.8865327,-8.995672,8.399511,66.14719,-3.6899045,4.4621906,-15.138727
161,4.189504146575928,17.815258026123047,77.97364807128906,2.00747754355004,-2.9002764852347935,-92.93747309170467,-5.0638704,-0.38495767,17.689924,6.607991,-2.8494525,0.8760563,-1.0109566,-12.907828,1.9994123,61.29986,-15.507471,10.770563,-0.102471694,-2.2664294,12.795317,1.8032345,11.150686,-4.269316,48.2899,14.087313,4.3418865,15.6975565,-0.92015874,-9.0502,8.601309,66.61852,-3.6012268,4.5890226,-15.024483
162,4.103447437286377,18.166109085083008,77.91407775878906,2.0876790785686943,-3.027690442731752,-92.92413399659516,-5.225986,-0.3869094,17.673092,6.597295,-2.549341,0.86017555,0.024404155,-12.278031,2.735331,60.98544,-14.961416,11.939864,0.09000997,-2.3061035,12.709897,1.9477022,11.041375,-4.0645456,48.236168,14.045358,4.310935,15.771408,-0.9445861,-9.08192,8.71467,66.9987,-3.586017,4.726942,-14.9166765
163,4.003996849060059,18.518409729003906,77.86294555664062,2.1602613095482486,-3.1478951720657355,-92.91240653193351,-5.404329,-0.37244344,17.65874,6.585962,-2.2363017,0.8394323,1.0808698,-11.604491,3.455434,60.496807,-14.432407,13.154037,0.26406774,-2.3462093,12.613753,2.1001418,10.93468,-3.8830254,48.231606,13.993068,4.285112,15.839044,-0.9766218,-9.100065,8.783968,67.30126,-3.6084027,4.852596,-14.814108
164,3.9091949462890625,18.896595001220703,77.80593872070312,2.2291460412905995,-3.255809931511422,-92.91887785873374,-5.604001,-0.3437347,17.665482,6.5743337,-1.9158871,0.8178247,2.1171699,-10.933788,4.1351285,59.863785,-13.90458,14.354341,0.42868206,-2.3911598,12.507422,2.2619143,10.837485,-3.7293637,48.262318,13.937466,4.2694974,15.888782,-1.0309577,-9.118108,8.853592,67.53632,-3.6303897,4.9427614,-14.713422
165,3.80965518951416,19.288175582885742,77.7490234375,2.23746734630881,-3.3465143295018036,-92.96292663199495,-5.8334603,-0.21698645,17.691708,6.579223,-1.5950824,0.7743617,3.1233475,-10.223156,4.6520414,59.05688,-13.352019,15.000033,0.59137595,-2.3852038,12.3848915,2.4385922,10.741038,-3.589971,48.3281,13.879468,4.265714,15.915124,-1.1122462,-9.146956,8.944163,67.702515,-3.632419,4.973853,-14.59823
166,3.686211347579956,19.679832458496094,77.6972885131836,2.179789810554008,-3.424360979110863,-93.0287995324387,-6.0911293,0.013089427,17.717857,6.602871,-1.2702514,0.7051968,4.118947,-9.462221,4.9893627,58.0594,-12.775386,15.000033,0.7442403,-2.3238878,12.249349,2.6275337,10.647381,-3.468363,48.433273,13.813129,4.27025,15.922769,-1.2085984,-9.1838875,9.029285,67.789246,-3.635278,4.9640994,-14.471913
167,3.5540976524353027,20.090316772460938,77.64051818847656,2.1159477600298056,-3.4945028085186043,-93.09068550459337,-6.4940195,0.2962298,17.738056,6.901908,-1.0766679,0.63214177,5.102879,-8.713074,5.2799635,56.908554,-12.187958,15.000033,0.8766012,-2.2654347,12.112039,2.8180845,10.570192,-3.3855827,48.572845,13.741849,4.2806044,15.918384,-1.316163,-9.217383,9.089123,67.798386,-3.6616113,4.9530168,-14.364191
168,3.4184229373931885,20.509567260742188,77.57933807373047,2.045591475016709,-3.5584734127283935,-93.13482513530302,-7.020246,0.6222633,17.735542,7.420533,-0.97959435,0.55549866,6.069071,-7.998927,5.4897265,55.610046,-11.572201,15.000033,0.98187786,-2.2127166,11.982126,3.0010235,10.51715,-3.3533072,48.741276,13.673412,4.2938657,15.909678,-1.4369448,-9.238787,9.110283,67.73545,-3.7337923,4.9802375,-14.306655
169,3.2733325958251953,20.946989059448242,77.51643371582031,1.9572296788394965,-3.6099584985861473,-93.14815186001577,-7.579756,0.96626586,17.696,7.9321756,-0.85507095,0.4765165,7.0178137,-7.309908,5.596527,54.1431,-10.904493,15.000033,1.0478649,-2.1512856,11.85349,3.1722612,10.476221,-3.3696334,48.943745,13.635068,4.3135304,15.900097,-1.5738934,-9.251347,9.099633,67.59872,-3.8620815,5.08272,-14.322476
170,3.1206579208374023,21.40102767944336,77.45421600341797,1.855711676993785,-3.64842921724271,-93.14302476901081,-8.1687565,1.3266616,17.63216,8.437014,-0.70768636,0.39424282,7.945941,-6.6345334,5.6334167,52.510704,-10.19434,15.000033,1.0872289,-2.0801203,11.721223,3.332822,10.44023,-3.4352913,49.18635,13.616677,4.341073,15.889842,-1.724854,-9.258245,9.054518,67.38931,-4.0363054,5.2307386,-14.392167
171,2.9558138847351074,21.865867614746094,77.38394165039062,1.7614950047135443,-3.684566673530265,-93.14524537774895,-8.7483835,1.6789721,17.572325,8.888538,-0.518969,0.30911884,8.845217,-6.0024037,5.645294,50.746384,-9.472433,15.000033,1.1071283,-2.022474,11.59818,3.497062,10.420397,-3.533384,49.45201,13.577071,4.36733,15.873687,-1.8947537,-9.257426,8.980008,67.11778,-4.235154,5.3647165,-14.480467
172,2.8018670082092285,22.35201644897461,77.30728149414062,1.6947360414846828,-3.729452766977091,-93.18079707386802,-9.281334,1.9985367,17.546711,9.247702,-0.27566898,0.22309545,9.706963,-5.4429636,5.6713767,48.88905,-8.770337,15.000033,1.1179805,-1.9935182,11.496526,3.6742895,10.410487,-3.6525826,49.73035,13.480047,4.3850784,15.853553,-2.088295,-9.251422,8.876657,66.797966,-4.4388776,5.424882,-14.555303
173,2.6393535137176514,22.847469329833984,77.2208251953125,1.6537323026545077,-3.790298145646582,-93.25332443088698,-9.789874,2.3013644,17.55607,9.579413,-0.0017662562,0.15551244,10.545263,-4.944119,5.703141,46.844208,-7.906385,15.000033,1.1279587,-1.9859288,11.421843,3.8621917,10.408448,-3.8062367,50.02453,13.284901,4.3892245,15.833785,-2.2945077,-9.240353,8.719501,66.40704,-4.6345363,5.36024,-14.604881
174,2.4862449169158936,23.372373580932617,77.12740325927734,1.6270860073536952,-3.859753473399743,-93.35145732944073,-10.284777,2.5935063,17.589703,9.884481,0.30166435,0.10084345,11.359348,-4.5016603,5.724243,44.62656,-6.9239197,15.000033,1.143602,-1.9960358,11.36708,4.0469747,10.421479,-4.009493,50.34629,13.017745,4.385196,15.813856,-2.5073924,-9.222113,8.499959,65.94223,-4.840976,5.2137613,-14.647277
175,2.3259546756744385,23.903093338012695,77.03112030029297,1.6389388419163784,-3.928761379499926,-93.47951417451907,-10.705908,2.8316028,17.664597,10.015963,0.68965775,0.024717642,12.113147,-4.1720457,5.7491126,42.451332,-6.19013,15.000033,1.1349704,-2.0448754,11.327013,4.2521834,10.443717,-4.2084346,50.673244,12.754205,4.3799567,15.78325,-2.7621984,-9.201559,8.292995,65.459404,-5.069239,5.068552,-14.6972685
176,2.1764659881591797,24.446664810180664,76.93251037597656,1.7095186741143644,-3.988996199012032,-93.64269463052152,-10.993891,2.974851,17.79915,9.832864,1.2136319,-0.108516596,12.763339,-4.0099764,5.774056,40.546238,-6.07082,15.000033,1.1373795,-2.1462772,11.29723,4.4522715,10.474061,-4.4284687,51.021404,12.554851,4.384974,15.746377,-3.0598106,-9.172861,8.089227,64.99696,-5.3575525,5.0057564,-14.768478
177,2.0243513584136963,25.011444091796875,76.83390045166016,1.864037903942451,-4.044549728651707,-93.83938817937162,-11.110706,2.9728262,18.000208,9.25815,1.9237989,-0.26237866,13.266732,-4.088868,5.7704334,39.051582,-6.805115,15.000033,1.1337272,-2.322395,11.280704,4.655876,10.506142,-4.653051,51.38859,12.453673,4.403392,15.698854,-3.4126923,-9.140211,7.9143806,64.566505,-5.746611,5.071073,-14.873354
178,1.8868457078933716,25.585996627807617,76.72577667236328,2.0733326645080727,-4.101663214330949,-94.06853254558688,-11.09765,2.8746684,18.254282,8.395344,2.7721553,-0.43580544,13.635288,-4.3754153,5.6719985,37.86832,-8.158139,15.000033,1.1757917,-2.5580304,11.282104,4.83296,10.572172,-4.9503117,51.796085,12.391053,4.43276,15.649581,-3.7907455,-9.075879,7.685929,64.1409,-6.2317467,5.2086473,-15.002355
179,1.7499139308929443,26.180341720581055,76.59491729736328,2.273825483976707,-4.156359028947654,-94.33502895517555,-11.014006,2.7863886,18.547258,7.37564,3.6623096,-0.71709573,13.917101,-4.7529387,5.428944,36.850346,-9.784745,15.000033,1.192397,-2.782962,11.297191,5.032469,10.633595,-5.220001,52.202206,12.359494,4.4642825,15.593534,-4.228164,-9.011216,7.496611,63.73493,-6.698663,5.3650856,-15.136402
180,1.61461341381073,26.805463790893555,76.44632720947266,2.414574936420783,-4.203022723684045,-94.64440069915808,-10.922299,2.8046634,18.870205,6.33511,4.496258,-1.1929952,14.1756735,-5.0929956,5.0429907,35.821964,-11.336429,15.000033,1.2222629,-2.948937,11.321679,5.231576,10.6967325,-5.4947443,52.617336,12.314718,4.495411,15.54304,-4.7067766,-8.932689,7.2994466,63.34317,-7.0788755,5.477935,-15.258386
181,1.4337735176086426,27.44498634338379,76.30743408203125,2.319125789515936,-4.193103533213083,-95.01565267145318,-11.347518,3.3426135,19.134834,6.3023133,4.805668,-2.0390787,14.446191,-5.0488615,4.3346353,34.567642,-12.680903,13.23605,1.2629142,-2.901058,11.310948,5.435444,10.75531,-5.751015,53.031593,12.271429,4.5255427,15.504547,-5.256606,-8.838117,7.091655,62.97806,-7.3321915,5.5292945,-15.364073
182,1.2216161489486694,28.109708786010742,76.1649398803711,2.196288294035462,-4.157423915907318,-95.44585340963349,-11.795963,3.9617777,19.450758,6.2677255,5.0966883,-3.1111276,14.679277,-4.94809,3.5772774,33.333786,-14.114702,11.290724,1.3184127,-2.828988,11.2928705,5.6475625,10.810178,-6.0012026,53.449852,12.240147,4.5577674,15.474295,-5.868705,-8.728516,6.8757863,62.636745,-7.510666,5.5540085,-15.462972
183,1.025053858757019,28.80282974243164,76.02635955810547,2.0207065321405637,-4.143335692727485,-95.88793737224962,-12.220711,4.6516366,19.757824,6.238833,5.282614,-4.220412,14.928341,-4.7487445,2.852866,32.088604,-15.516786,9.479654,1.3661435,-2.7047987,11.307798,5.852311,10.863142,-6.262651,53.892517,12.1911335,4.588808,15.440863,-6.4991736,-8.614505,6.678516,62.30383,-7.6566324,5.561497,-15.564503
184,0.7892994284629822,29.496288299560547,75.89192962646484,1.7572078305786478,-4.197044427699172,-96.29391422215711,-12.577512,5.4192605,19.993408,6.225723,5.2696238,-5.185854,15.243988,-4.390606,2.2095833,30.790642,-16.75235,7.903512,1.3824267,-2.4899938,11.395025,6.0338774,10.9146595,-6.553139,54.37854,12.09454,4.614693,15.391744,-7.098698,-8.507526,6.5263634,61.956562,-7.8112087,5.5620356,-15.675303
185,0.5629420280456543,30.193134307861328,75.78426361083984,1.3827023863895203,-4.345631717297087,-96.66081750292064,-12.837161,6.2990594,20.150904,6.2274446,5.0392523,-6.0361724,15.675867,-3.8452342,1.6420014,29.365564,-17.788174,6.6257153,1.3625715,-2.1562278,11.587505,6.1872187,10.963917,-6.87755,54.910686,11.915775,4.622016,15.331596,-7.665947,-8.414569,6.4264436,61.57292,-7.973914,5.560293,-15.799442
186,0.3404896557331085,30.90593719482422,75.69976806640625,0.9248092352345508,-4.559479373773631,-97.01158824581704,-13.025267,7.276172,20.271616,6.2293363,4.6417236,-6.8443155,16.188559,-3.1579812,1.1222961,27.8315,-18.678417,5.5811496,1.3228595,-1.732204,11.856282,6.3197217,11.012321,-7.230508,55.47907,11.6783085,4.617224,15.263665,-8.218582,-8.330699,6.3606787,61.16585,-8.126381,5.5498056,-15.930684
187,0.10899676382541656,31.606042861938477,75.63011169433594,0.41509986992470954,-4.799608891041308,-97.33324177626103,-13.200164,8.297926,20.35602,6.2628603,4.0586615,-7.498391,16.716587,-2.376022,0.6567479,26.257912,-19.407202,4.675438,1.2593406,-1.2506104,12.147659,6.4380255,11.054726,-7.606231,56.08224,11.441773,4.625909,15.173114,-8.73703,-8.260271,6.329815,60.76317,-8.278051,5.5246873,-16.058918
188,-0.11269089579582214,32.31474304199219,75.577880859375,-0.11696011143329166,-5.025960665413232,-97.61310753401975,-13.395731,9.300759,20.401838,6.29996,3.3058834,-7.886621,17.183704,-1.5462487,0.250044,24.74307,-19.969427,3.8129592,1.1425729,-0.73551977,12.412369,6.56611,11.070152,-7.963845,56.70359,11.279726,4.6716046,15.038969,-9.215275,-8.225242,6.3669667,60.397045,-8.426059,5.4792814,-16.169487
189,-0.32411596179008484,33.024864196777344,75.53761291503906,-0.6759216651702197,-5.230413676836512,-97.84268326422033,-13.642046,10.269397,20.33512,6.358667,2.298619,-7.8855143,17.569044,-0.66470045,-0.104961075,23.293528,-20.328852,2.9753413,1.022075,-0.18912943,12.633955,6.656592,11.075868,-8.399666,57.410564,11.187388,4.7701945,14.868297,-9.62487,-8.195331,6.4053197,60.06328,-8.598897,5.407173,-16.267574
190,-0.5241139531135559,33.72708511352539,75.51271057128906,-1.2708016382988874,-5.431039208363231,-98.03000655211333,-13.912119,11.231713,20.171186,6.433749,1.0623331,-7.585391,17.920244,0.28478345,-0.41773638,21.848238,-20.491446,2.2132924,0.84552777,0.4005071,12.8498125,6.7536545,11.065008,-8.827452,58.149166,11.159325,4.9016113,14.650866,-10.008489,-8.184046,6.5062976,59.76002,-8.773487,5.312474,-16.350798
191,-0.7182076573371887,34.42829132080078,75.49451446533203,-1.8720073612398644,-5.628180646463029,-98.18923900188116,-14.185903,12.188867,20.045074,6.5364604,-0.26282164,-7.197822,18.247358,1.2553877,-0.68521297,20.431503,-20.526258,1.5294131,0.6697059,1.0006723,13.046097,6.8426657,11.039537,-9.277339,58.89721,11.151439,5.0555015,14.419721,-10.332227,-8.190124,6.632742,59.482407,-8.951768,5.2068253,-16.429626
192,-0.9069967865943909,35.124813079833984,75.4740982055664,-2.450957212509829,-5.824780276958276,-98.33610713753765,-14.418503,13.141335,20.106794,6.6319785,-1.5142725,-6.9393196,18.559347,2.2005687,-0.89851755,19.064281,-20.495398,0.91996145,0.5378187,1.5988808,13.216099,6.911786,10.981174,-9.757235,59.62691,11.130585,5.2193627,14.20054,-10.564389,-8.244258,6.7621326,59.217197,-9.126443,5.1009383,-16.502758
193,-1.088123083114624,35.799827575683594,75.45053100585938,-3.033167207124298,-6.020283454178533,-98.47684299944217,-14.630176,14.134575,20.38667,6.7137046,-2.7853794,-6.8324127,18.860157,3.1397607,-1.0349622,17.731804,-20.377817,0.39707053,0.40879112,2.2033665,13.360206,7.014889,10.905679,-10.192762,60.290337,11.117393,5.404305,13.957424,-10.731273,-8.340599,6.964305,58.989357,-9.291809,4.9839907,-16.581064
194,-1.2676057815551758,36.474159240722656,75.41793060302734,-3.6190486790626024,-6.214002146571161,-98.604379781752,-14.825894,15.149142,20.8164,6.7865615,-4.111422,-6.7810526,19.133766,4.0731287,-1.1039099,16.439379,-20.150822,-0.049522545,0.28911614,2.820239,13.48014,7.131121,10.8110695,-10.622509,60.92501,11.114805,5.6124396,13.694385,-10.828999,-8.474184,7.2165565,58.79042,-9.452728,4.8548326,-16.66047
195,-1.4251012802124023,37.129119873046875,75.3951416015625,-4.140626365015135,-6.408255977014864,-98.71297882993909,-14.951558,16.09486,21.407307,6.870552,-5.2596073,-6.822695,19.34776,4.9231386,-1.1495351,15.269422,-19.893108,-0.4556132,0.18056765,3.3729222,13.598048,7.2415795,10.70563,-11.041463,61.51928,11.112658,5.808526,13.448714,-10.8619375,-8.639717,7.46938,58.594788,-9.600173,4.737303,-16.715233
196,-1.5723146200180054,37.80009078979492,75.3923568725586,-4.5309851677605,-6.605211797226644,-98.7941482226071,-14.949843,16.881845,22.171572,6.9816,-5.993219,-6.985272,19.473114,5.6196847,-1.2218554,14.304076,-19.686138,-0.8534107,0.082083136,3.7826874,13.735846,7.327751,10.604917,-11.443473,62.058693,11.098381,5.9568086,13.255972,-10.835359,-8.827097,7.674513,58.37625,-9.723614,4.654976,-16.719677
197,-1.7268160581588745,38.47425079345703,75.41618347167969,-4.773186752857081,-6.804502072951873,-98.85536142092202,-14.824563,17.528608,23.256174,7.1787076,-6.20164,-7.386972,19.494637,6.15029,-1.3188607,13.581997,-19.554455,-1.2419307,-0.00033118486,4.017779,13.904201,7.383038,10.522584,-11.832368,62.53657,11.066782,6.0434666,13.12567,-10.7592125,-9.031748,7.8139863,58.112392,-9.829783,4.632,-16.627647
198,-1.8694076538085938,39.144500732421875,75.4458999633789,-4.902867178266612,-7.003603125510305,-98.89325673996753,-15.073589,18.2777,24.456144,8.497838,-6.5772796,-7.9553275,19.426783,6.551711,-1.4314259,13.064196,-19.46304,-1.604397,-0.06851574,4.115767,14.089137,7.4181075,10.460651,-12.212729,62.95601,11.020984,6.0888877,13.035848,-10.625695,-9.2519865,7.9093313,57.818977,-9.922387,4.649052,-16.466072
199,-2.029168128967285,39.784095764160156,75.4834976196289,-4.9435559783212,-7.202890431963535,-98.88693773867715,-15.383458,18.977812,25.557262,10.223352,-6.9507008,-8.427433,19.288254,6.846374,-1.594936,12.721759,-19.400793,-1.9502834,-0.1348687,4.113789,14.2763605,7.4423804,10.415226,-12.575601,63.317135,10.962282,6.108837,12.97556,-10.417011,-9.482884,7.97308,57.531235,-9.990172,4.6653624,-16.320137
200,-2.1863114833831787,40.42003631591797,75.52877044677734,-4.935619314267087,-7.407531978857183,-98.82106822845313,-15.788265,19.62434,26.2431,12.388771,-7.5600986,-8.563306,19.119137,7.071051,-1.8336006,12.488278,-19.34172,-2.291484,-0.20768926,4.0626497,14.45449,7.4669485,10.378801,-12.911866,63.620743,10.892315,6.1190267,12.934692,-10.117269,-9.718718,8.018773,57.287315,-10.022572,4.6403666,-16.275862
201,-2.3071839809417725,41.05094528198242,75.5875244140625,-4.883316776035728,-7.630202981618401,-98.6827537244631,-16.307611,20.22021,26.411095,15.060043,-8.487919,-8.236549,18.949722,7.234349,-2.1669345,12.346858,-19.28302,-2.6418762,-0.29084322,3.9657567,14.6243305,7.491258,10.34949,-13.230542,63.87889,10.790433,6.1139965,12.9261265,-9.706509,-9.958295,8.058033,57.08955,-10.032016,4.554017,-16.392069
202,-2.4331958293914795,41.67155838012695,75.65762329101562,-4.794720496738203,-7.874988135003272,-98.49638298802239,-16.87578,20.780846,26.236734,18.102316,-9.561662,-7.603472,18.780306,7.3479733,-2.5589268,12.296726,-19.219551,-2.9964085,-0.368446,3.8270953,14.797003,7.5132384,10.327128,-13.530898,64.087585,10.663597,6.088677,12.951281,-9.202199,-10.204408,8.083271,56.925865,-10.02016,4.4314003,-16.611311
203,-2.562591791152954,42.267765045166016,75.73172760009766,-4.703370863160264,-8.130939344927034,-98.30076539206593,-17.414942,21.29862,25.822535,21.25807,-10.642971,-6.8624554,18.59224,7.444467,-2.9558606,12.320858,-19.134125,-3.337996,-0.42376983,3.6932557,14.975116,7.5408726,10.304761,-13.787126,64.22532,10.55626,6.059995,12.983727,-8.643488,-10.456707,8.079069,56.81202,-9.959879,4.2999444,-16.84622
204,-2.6952762603759766,42.852054595947266,75.80355072021484,-4.628140940618632,-8.38179662009065,-98.12882956031939,-17.86973,21.75728,25.274683,24.322918,-11.613572,-6.212841,18.356115,7.5401416,-3.3123662,12.412458,-19.0143,-3.647127,-0.4477688,3.5959966,15.156751,7.5794153,10.273647,-13.970323,64.27442,10.5147915,6.0449758,12.998786,-8.073577,-10.715308,8.032896,56.768047,-9.822985,4.1871595,-17.010723
205,-2.7769291400909424,43.46848678588867,75.89237213134766,-4.559397970311368,-8.631977866193195,-97.99233187983579,-18.248947,22.142986,24.598251,27.347404,-12.486591,-5.6636434,18.039902,7.618362,-3.6232648,12.634594,-18.870604,-3.9271572,-0.43308213,3.5333219,15.355902,7.626751,10.2248535,-14.057434,64.217834,10.566347,6.055369,12.986433,-7.49869,-10.980848,7.923456,56.793888,-9.596483,4.099046,-17.081007
206,-2.8515217304229736,44.06499099731445,75.98074340820312,-4.481786407187176,-8.8841007920568,-97.86913441737755,-18.58473,22.434145,23.751678,30.411337,-13.307048,-5.1347218,17.656086,7.664055,-3.9167645,12.985925,-18.713722,-4.186012,-0.39232168,3.4841182,15.565121,7.6756544,10.158346,-14.066543,64.07738,10.683579,6.079568,12.9637375,-6.900017,-11.254873,7.7643223,56.883587,-9.296485,4.0217013,-17.104431
207,-2.928290843963623,44.65928649902344,76.07083892822266,-4.404232272325482,-9.116445029002035,-97.73703825417265,-18.885223,22.617249,22.765535,33.42406,-14.03219,-4.6909013,17.243193,7.6942015,-4.2009816,13.355055,-18.525913,-4.409157,-0.34918112,3.44958,15.749917,7.7247734,10.081078,-14.032274,63.889416,10.82824,6.099695,12.945012,-6.278028,-11.533365,7.592066,57.04261,-8.938868,3.952497,-17.10074
208,-3.0200984477996826,45.21245193481445,76.15643310546875,-4.33797231912666,-9.307737931839357,-97.57315831961468,-19.155556,22.686867,21.67079,36.295914,-14.626272,-4.393749,16.844305,7.7288365,-4.4844933,13.621405,-18.283936,-4.580303,-0.32830194,3.428556,15.875997,7.7760205,10.004103,-13.988215,63.68667,10.962036,6.0980425,12.943573,-5.6352243,-11.809851,7.4454923,57.279156,-8.5397215,3.8887074,-17.090574
209,-3.0909454822540283,45.77772521972656,76.24385070800781,-4.281505186993808,-9.448818647868142,-97.36991390676208,-19.42423,22.62473,20.436749,39.05908,-15.081101,-4.276677,16.46028,7.767815,-4.770843,13.762856,-17.970453,-4.677675,-0.33691153,3.414571,15.929848,7.8409963,9.934721,-13.928132,63.4558,11.081844,6.066988,12.962557,-4.9693446,-12.080173,7.3344026,57.60422,-8.088424,3.825555,-17.07743
210,-3.170485496520996,46.33119583129883,76.33059692382812,-4.229721073935411,-9.550705664373313,-97.13741365077539,-19.687225,22.42968,19.06784,41.77102,-15.429154,-4.311707,16.071737,7.7996078,-5.057103,13.837585,-17.599255,-4.7137666,-0.36428118,3.4023628,15.929936,7.91968,9.874024,-13.8382845,63.18071,11.204383,6.0170765,12.99311,-4.281936,-12.343589,7.240221,58.012993,-7.5814567,3.7660172,-17.051878
211,-3.236914873123169,46.87611770629883,76.42141723632812,-4.182050478756189,-9.6231449383999,-96.87960476532962,-19.90544,22.135265,17.642033,44.394154,-15.70417,-4.461698,15.67731,7.8280563,-5.3434105,13.871734,-17.207085,-4.7226605,-0.40671086,3.3954759,15.89068,7.996762,9.822363,-13.742047,62.889805,11.320647,5.9578557,13.03063,-3.5783713,-12.596061,7.1571,58.485874,-7.0472517,3.718966,-17.01369
212,-3.2864980697631836,47.40681838989258,76.51692962646484,-4.140239262366341,-9.6760593978473,-96.60085707901821,-20.037386,21.781643,16.234474,46.884193,-15.936922,-4.6845512,15.279433,7.8569345,-5.6289086,13.885397,-16.828411,-4.7383094,-0.45894057,3.3972337,15.826661,8.056111,9.780267,-13.66337,62.612465,11.421634,5.898706,13.070999,-2.8643537,-12.832917,7.078637,59.00443,-6.5144114,3.693077,-16.963722
213,-3.3602211475372314,47.912261962890625,76.60086822509766,-4.104350946328156,-9.708699347479584,-96.29914668781575,-20.081686,21.342896,14.7924795,49.23536,-16.110065,-5.0267262,14.887508,7.893785,-5.894553,13.864623,-16.470459,-4.755471,-0.5198937,3.408711,15.734832,8.096032,9.750314,-13.614967,62.35163,11.497805,5.8359427,13.119371,-2.1361632,-13.054056,7.006176,59.565395,-5.9822125,3.702696,-16.899937
214,-3.4195172786712646,48.449031829833984,76.67687225341797,-4.073107735169048,-9.716498203148886,-95.97319593585259,-20.053102,20.809988,13.304412,51.480347,-16.224642,-5.4951196,14.494102,7.9318376,-6.147182,13.810794,-16.1186,-4.759052,-0.59107715,3.426955,15.609195,8.124878,9.733297,-13.582789,62.09255,11.556124,5.76669,13.175622,-1.3917454,-13.259187,6.941375,60.17822,-5.438739,3.739475,-16.823065
215,-3.4538486003875732,48.97345733642578,76.75406646728516,-4.046869815100087,-9.704932055495735,-95.62820494600462,-19.935078,20.259735,11.898805,53.61971,-16.330637,-5.977584,14.085412,7.9572206,-6.423788,13.75014,-15.765196,-4.770024,-0.6719038,3.4492548,15.460194,8.139704,9.727144,-13.551528,61.84049,11.610441,5.7016363,13.228244,-0.6421363,-13.444597,6.8795476,60.845352,-4.8967586,3.7782543,-16.7393
216,-3.492063283920288,49.504150390625,76.82611846923828,-4.02501877281622,-9.679332677353763,-95.27046183571196,-19.717018,19.778137,10.696502,55.651268,-16.471298,-6.3541636,13.644241,7.957667,-6.7614603,13.717759,-15.40653,-4.8105145,-0.7615245,3.4745533,15.298546,8.136819,9.728184,-13.505755,61.6015,11.674711,5.6519346,13.266506,0.10171523,-13.603416,6.8159876,61.569862,-4.3690376,3.793719,-16.654366
217,-3.5356242656707764,50.03226852416992,76.90142059326172,-4.013708735655776,-9.637698121038062,-94.89764399783427,-19.394442,19.402157,9.73278,57.56833,-16.667543,-6.6106434,13.167566,7.926335,-7.1952,13.7121525,-15.031616,-4.9046264,-0.8602935,3.504126,15.120511,8.112831,9.735133,-13.438596,61.379913,11.762701,5.624081,13.283825,0.8394741,-13.72792,6.745128,62.38146,-3.8634882,3.7573001,-16.576637
218,-3.5785071849823,50.537254333496094,76.97531127929688,-4.010407658317326,-9.578586200314206,-94.50869759834568,-18.978437,19.098389,8.931323,59.374447,-16.889126,-6.7932553,12.663581,7.8719316,-7.6963615,13.721803,-14.647647,-5.0360303,-0.96789,3.5399573,14.922563,8.07089,9.749093,-13.358674,61.17115,11.864251,5.611662,13.287333,1.5767332,-13.825768,6.6725802,63.26824,-3.3709533,3.6899934,-16.499989
219,-3.610114336013794,51.047813415527344,77.03619384765625,-4.009131725115296,-9.508920346570246,-94.11179551603556,-18.477776,18.848894,8.245555,61.063282,-17.100445,-6.8706784,12.138948,7.8073606,-8.20659,13.7529955,-14.272072,-5.1670103,-1.0830797,3.5721204,14.712232,8.008321,9.768155,-13.269294,60.98597,11.960017,5.6048694,13.293958,2.3006666,-13.885216,6.609992,64.187805,-2.8887322,3.6404061,-16.41957
220,-3.6429860591888428,51.56984329223633,77.08486938476562,-4.0098034477548135,-9.435983047646342,-93.71440670490708,-17.899446,18.631554,7.6316423,62.6268,-17.26485,-6.8144445,11.596111,7.745353,-8.667413,13.820233,-13.92643,-5.259269,-1.2041777,3.5997865,14.501379,7.927725,9.792472,-13.178576,60.8244,12.027011,5.5913715,13.314517,3.008497,-13.922837,6.567102,65.081,-2.4068189,3.6573522,-16.320074
221,-3.682562828063965,52.090972900390625,77.12708282470703,-4.007574685301234,-9.358753361656378,-93.31032484303552,-17.25276,18.45566,7.0966697,64.08606,-17.361979,-6.524196,11.03555,7.690302,-9.056996,13.92416,-13.611114,-5.2966056,-1.333581,3.6212778,14.288816,7.8253403,9.820567,-13.08917,60.691727,12.056815,5.570382,13.35341,3.7012444,-13.942306,6.549256,65.950005,-1.8972381,3.766917,-16.1884
222,-3.700870990753174,52.600486755371094,77.16826629638672,-4.005722699942027,-9.274828090539122,-92.89841809756652,-16.532936,18.333345,6.6550107,65.43366,-17.411972,-6.041541,10.455305,7.636196,-9.4077425,14.060696,-13.317355,-5.3019495,-1.4748299,3.6393347,14.074857,7.7133784,9.861645,-12.993101,60.568195,12.060604,5.545879,13.396867,4.3839974,-13.948012,6.55441,66.80918,-1.3696563,3.9396431,-16.02919
223,-3.729767084121704,53.111602783203125,77.20722961425781,-4.007890858146192,-9.189099965980843,-92.49385382643145,-15.725919,18.242376,6.2749276,66.62298,-17.440775,-5.553775,9.861693,7.582174,-9.741899,14.219958,-13.042818,-5.29598,-1.6218781,3.6531146,13.864162,7.6005025,9.920979,-12.888382,60.440968,12.047669,5.5202045,13.441408,5.047177,-13.929766,6.577748,67.64514,-0.87827986,4.1399283,-15.870683
224,-3.7427775859832764,53.63613510131836,77.23348999023438,-4.020133378048677,-9.106200665693574,-92.11188866129754,-14.816394,18.157112,5.9256196,67.60745,-17.473759,-5.251495,9.266813,7.52852,-10.081436,14.378895,-12.782525,-5.2995343,-1.761492,3.6894426,13.658695,7.4655466,9.961457,-12.78928,60.332554,12.030562,5.496999,13.495787,5.6974998,-13.901192,6.5960274,68.43403,-0.48006094,4.330657,-15.736683
225,-3.7491273880004883,54.17147445678711,77.24653625488281,-4.037495419565005,-9.02391730032991,-91.76284411914325,-13.792383,18.080103,5.628278,68.381226,-17.518661,-5.165776,8.660202,7.4699802,-10.428593,14.554594,-12.550457,-5.3137016,-1.899257,3.7093313,13.46499,7.347789,10.039016,-12.66838,60.187828,12.002016,5.4756427,13.544865,6.309665,-13.820081,6.6322064,69.197464,-0.21409495,4.509956,-15.644638
226,-3.7594385147094727,54.700225830078125,77.2488021850586,-4.061670913260441,-8.94105744569115,-91.43613233899062,-12.665419,18.020664,5.3895764,68.96895,-17.561699,-5.2025094,8.042286,7.4106054,-10.773078,14.747498,-12.34288,-5.3303366,-2.0259604,3.7436469,13.27619,7.2097425,10.109554,-12.55442,60.054836,11.95839,5.455971,13.603037,6.9092984,-13.722354,6.664882,69.926476,-0.045189112,4.6940637,-15.573432
227,-3.7625365257263184,55.24273681640625,77.24418640136719,-4.096994855853973,-8.863399781811523,-91.11599430798876,-11.453933,17.957594,5.1598883,69.37072,-17.595642,-5.3666673,7.4286056,7.359114,-11.119992,14.937657,-12.137261,-5.3563433,-2.1586752,3.788634,13.093896,7.0597367,10.176521,-12.436582,59.937237,11.919924,5.436841,13.664985,7.4933224,-13.608904,6.704558,70.603134,0.09287487,4.874616,-15.509299
228,-3.7611067295074463,55.78132247924805,77.2376480102539,-4.1504459419062565,-8.796664411612046,-90.78636545020379,-10.175426,17.86945,4.8912053,69.58539,-17.612831,-5.6636114,6.8319964,7.3218694,-11.475061,15.110372,-11.914551,-5.3973813,-2.307996,3.8431666,12.918784,6.9003067,10.2413645,-12.314269,59.84381,11.903379,5.4176135,13.727001,8.063675,-13.479673,6.7540784,71.20724,0.26468706,5.043365,-15.43859
229,-3.760474443435669,56.323062896728516,77.22930908203125,-4.230536678527283,-8.743880704953115,-90.44004524396476,-8.816715,17.75135,4.5622134,69.60632,-17.639944,-6.1338735,6.269457,7.310786,-11.841978,15.2381525,-11.662521,-5.4611344,-2.4759614,3.9115458,12.7540865,6.729111,10.305332,-12.182092,59.781643,11.918501,5.396954,13.791583,8.623084,-13.334372,6.8369207,71.740234,0.5045781,5.199147,-15.346803
230,-3.7531931400299072,56.870758056640625,77.20802307128906,-4.332116241449531,-8.701106684414556,-90.08652400196071,-7.372256,17.61417,4.205857,69.43607,-17.673315,-6.760123,5.7260914,7.3175883,-12.21798,15.343399,-11.397612,-5.54177,-2.6581783,3.9919114,12.599049,6.5477095,10.368944,-12.040848,59.742096,11.954204,5.3755603,13.858796,9.168331,-13.173164,6.9462337,72.211945,0.7731325,5.3461103,-15.244756
231,-3.7507333755493164,57.421661376953125,77.18006134033203,-4.439374915829636,-8.663619250525466,-89.73536581436196,-5.8709164,17.460356,3.8536646,69.08856,-17.66104,-7.461527,5.179982,7.321768,-12.596371,15.45773,-11.127568,-5.6245155,-2.8526995,4.0750313,12.447944,6.3617764,10.431633,-11.901418,59.71324,11.997408,5.3557305,13.922333,9.693666,-12.997623,7.0358,72.613014,1.0231079,5.483935,-15.157504
232,-3.7493646144866943,57.97439956665039,77.15257263183594,-4.541328012387072,-8.627008923532955,-89.39583374072319,-4.3434396,17.290037,3.5340006,68.578865,-17.550287,-8.15793,4.6054792,7.3009987,-12.970631,15.621024,-10.864427,-5.6946816,-3.056294,4.1527863,12.294898,6.175817,10.4920845,-11.776962,59.68398,12.033874,5.33979,13.976062,10.194431,-12.808892,7.058596,72.93286,1.2081594,5.612195,-15.109507
233,-3.739886999130249,58.53633117675781,77.12786865234375,-4.637834333511376,-8.600838899984426,-89.06930026910689,-2.7692666,17.12324,3.268416,67.90363,-17.332478,-8.801374,4.011728,7.2553887,-13.341493,15.84056,-10.614391,-5.750495,-3.267631,4.2295213,12.144935,5.9889474,10.549325,-11.673639,59.65531,12.0596695,5.3308835,14.018327,10.675891,-12.605455,7.006749,73.1697,1.3154895,5.7224903,-15.120273
234,-3.712373971939087,59.106754302978516,77.09923553466797,-4.7373990620169355,-8.584048852976435,-88.75087475632844,-1.1418469,16.951973,3.0350142,67.05826,-17.03544,-9.442022,3.4075892,7.194139,-13.710686,16.09506,-10.369324,-5.7988343,-3.4864185,4.308879,11.999068,5.7973332,10.603437,-11.58603,59.63364,12.082003,5.3269625,14.052881,11.139047,-12.386164,6.901902,73.328384,1.369974,5.8175225,-15.172012
235,-3.672276020050049,59.703128814697266,77.0599365234375,-4.827677879253844,-8.55556041975835,-88.44141755221429,0.48926076,16.732538,2.794548,66.05152,-16.659716,-10.147817,2.763727,7.10699,-14.073381,16.386322,-10.120961,-5.8378844,-3.7121615,4.380603,11.845046,5.6021333,10.654098,-11.509525,59.614468,12.103389,5.3225713,14.081554,11.574063,-12.152623,6.739559,73.40664,1.3792195,5.913044,-15.232069
236,-3.635742425918579,60.2855224609375,77.02388000488281,-4.90238808960556,-8.494502541391126,-88.14160209829556,2.0738463,16.423267,2.504991,64.89463,-16.209076,-10.986303,2.054383,6.985211,-14.4238205,16.708733,-9.857425,-5.8662653,-3.9434824,4.435924,11.670563,5.4032707,10.700546,-11.440799,59.594276,12.1261835,5.3124857,14.106161,11.972192,-11.908251,6.5139775,73.400826,1.3511994,6.02512,-15.267406
237,-3.6003670692443848,60.89163589477539,76.98857116699219,-4.958333338050899,-8.396530170446466,-87.85544939316922,3.6198857,16.01689,2.1542697,63.56768,-15.6526375,-12.001174,1.2753316,6.828712,-14.755366,17.060722,-9.576279,-5.878978,-4.1823635,4.4761324,11.467756,5.2051167,10.741065,-11.383299,59.579136,12.148563,5.2936683,14.126566,12.334649,-11.655286,6.1969557,73.29617,1.2756118,6.1829147,-15.259472
238,-3.546867609024048,61.519039154052734,76.95325469970703,-5.001233426591525,-8.272188294419133,-87.58106459907512,5.1487813,15.536074,1.7552361,62.072372,-15.007812,-13.144602,0.44083297,6.6403203,-15.070988,17.442,-9.281529,-5.8775635,-4.4284105,4.5067987,11.244481,5.0051274,10.774686,-11.338702,59.56921,12.169633,5.2695556,14.142141,12.666167,-11.392642,5.7998166,73.097244,1.1528661,6.369744,-15.227715
239,-3.4819769859313965,62.15392303466797,76.91809844970703,-5.027683088243851,-8.123178702264655,-87.31111676066256,6.6303444,14.987726,1.3032215,60.45169,-14.351234,-14.345903,-0.44946736,6.4158,-15.379528,17.854427,-8.97403,-5.871086,-4.6777554,4.524065,11.011828,4.7942915,10.802975,-11.297909,59.55146,12.194387,5.243893,14.153783,12.962841,-11.121082,5.3741984,72.83032,1.0044035,6.5324035,-15.198063
240,-3.404017448425293,62.803245544433594,76.87837219238281,-4.903958099454249,-7.942543003189047,-87.0120089630259,8.026404,14.249794,0.9381737,58.69936,-13.713677,-15.000033,-1.5452247,5.9325023,-15.690171,18.628374,-8.825744,-5.829549,-4.95341,4.394168,10.764267,4.5643945,10.828402,-11.249088,59.51205,12.22751,5.220164,14.161364,13.215942,-10.839585,4.9772253,72.52489,0.8549056,6.617828,-15.195462
241,-3.3163301944732666,63.48295974731445,76.83329772949219,-4.6847913514521595,-7.732655009444051,-86.70543937270345,9.347416,13.353001,0.6270825,56.819138,-13.142327,-15.000033,-2.7772748,5.285124,-15.982669,19.607307,-8.755162,-5.7739315,-5.239531,4.1735005,10.505028,4.3256006,10.851018,-11.170267,59.43777,12.273946,5.19741,14.157717,13.42974,-10.546286,4.6154766,72.1764,0.71819705,6.59119,-15.233722
