unveil-humanoid-operators/unveil-humanoid-operators.github.io/feature-analysis-animation/data/feature_matrix_instances/gender_shoulder_rom_jogging_A203_jog_ff_loop_180_R_003__A203.csv
Frame,root_translateX,root_translateY,root_translateZ,root_rotateX,root_rotateY,root_rotateZ,left_hip_pitch_joint_dof,left_hip_roll_joint_dof,left_hip_yaw_joint_dof,left_knee_joint_dof,left_ankle_pitch_joint_dof,left_ankle_roll_joint_dof,right_hip_pitch_joint_dof,right_hip_roll_joint_dof,right_hip_yaw_joint_dof,right_knee_joint_dof,right_ankle_pitch_joint_dof,right_ankle_roll_joint_dof,waist_yaw_joint_dof,waist_roll_joint_dof,waist_pitch_joint_dof,left_shoulder_pitch_joint_dof,left_shoulder_roll_joint_dof,left_shoulder_yaw_joint_dof,left_elbow_joint_dof,left_wrist_roll_joint_dof,left_wrist_pitch_joint_dof,left_wrist_yaw_joint_dof,right_shoulder_pitch_joint_dof,right_shoulder_roll_joint_dof,right_shoulder_yaw_joint_dof,right_elbow_joint_dof,right_wrist_roll_joint_dof,right_wrist_pitch_joint_dof,right_wrist_yaw_joint_dof
0,-0.3629871904850006,-1.4540261030197144,78.63571166992188,-0.27023335924089176,1.4134992605527008,88.4864581361618,2.2997744,4.0951524,8.442584,6.972301,-10.711699,-5.0270467,2.0268571,-2.7450817,-13.186575,7.0290313,-10.737461,1.6427355,-0.7449937,0.67779887,3.5056431,4.161392,14.201426,-31.025053,52.879513,-3.8996296,7.7815976,-5.1517706,2.384432,-12.511082,27.450796,58.949318,3.524155,-4.1722517,-7.12898
1,-0.37961822748184204,-1.4575139284133911,78.63922882080078,-0.2629784766537482,1.4651736090835827,88.48334368161076,2.238802,4.066449,8.432382,6.972042,-10.71828,-4.9944735,1.9650658,-2.7720058,-13.166631,7.0276585,-10.750138,1.6805086,-0.7388591,0.6709704,3.5420363,4.1223316,14.207341,-31.012793,52.873726,-3.921596,7.7707887,-5.1500626,2.3078077,-12.510415,27.435814,58.90357,3.5765247,-4.165976,-7.058844
2,-0.3968745470046997,-1.461281657218933,78.6441421508789,-0.2552764027598291,1.5157823425816621,88.47919566893165,2.1787543,4.037458,8.422861,6.9717712,-10.724502,-4.962126,1.9037066,-2.7995787,-13.144847,7.027185,-10.762634,1.7149867,-0.7324433,0.6623226,3.5837996,4.0832644,14.216899,-30.992056,52.862568,-3.9379795,7.75784,-5.1519346,2.2256546,-12.5045,27.406225,58.86226,3.6226437,-4.163258,-6.9794264
3,-0.4167271852493286,-1.4658143520355225,78.65169525146484,-0.24803237492992602,1.5681069562070569,88.47712572141522,2.1168468,4.009065,8.412147,6.971212,-10.730772,-4.929465,1.8420701,-2.8266902,-13.126301,7.025239,-10.77613,1.7553161,-0.72518116,0.65467507,3.6214285,4.0411587,14.221941,-30.978382,52.85893,-3.9562378,7.749716,-5.1515203,2.1421578,-12.497732,27.389954,58.823395,3.6688983,-4.1543965,-6.914824
4,-0.4366450011730194,-1.4654852151870728,78.65980529785156,-0.2434326245799813,1.6246066516010849,88.4799663926386,2.0497074,3.9820175,8.398495,6.9708977,-10.737474,-4.895861,1.7781692,-2.852907,-13.115903,7.0240097,-10.795043,1.8106198,-0.71863616,0.6453025,3.657993,3.9985418,14.226405,-30.966465,52.855774,-3.9694629,7.7550297,-5.1522164,2.0460124,-12.483526,27.395979,58.791767,3.705636,-4.130465,-6.8823814
5,-0.45343688130378723,-1.468152403831482,78.66703033447266,-0.24095101128232937,1.686700167630538,88.48856390169202,1.9763877,3.9566212,8.383939,6.9701457,-10.7457695,-4.8614364,1.7113912,-2.8787134,-13.115529,7.0213118,-10.819298,1.884382,-0.71170115,0.6364302,3.691978,3.951722,14.226681,-30.961758,52.85783,-3.9760475,7.7823386,-5.1538844,1.9431343,-12.470358,27.439274,58.757034,3.7359936,-4.074837,-6.899769
6,-0.4741256535053253,-1.4681800603866577,78.67481231689453,-0.23865484273885804,1.7528510278773521,88.50126746650896,1.8979712,3.9323351,8.368497,6.9694514,-10.7548065,-4.8263626,1.6420012,-2.9045985,-13.122427,7.019204,-10.848452,1.9713509,-0.7143129,0.6273972,3.7219467,3.908554,14.223091,-30.951925,52.861927,-3.976101,7.8251534,-5.1564717,1.8197582,-12.4518795,27.520514,58.73953,3.7640035,-3.9987502,-6.9537706
7,-0.49595603346824646,-1.4661418199539185,78.68348693847656,-0.23978615916597773,1.8208952151133715,88.51767293042947,1.8172631,3.9085534,8.347711,6.968689,-10.762821,-4.790409,1.5735033,-2.9289525,-13.134339,7.0151954,-10.8799095,2.0674503,-0.7151952,0.6196784,3.7537475,3.8642027,14.216595,-30.943707,52.86531,-3.9760945,7.86803,-5.1583743,1.6977639,-12.433679,27.604687,58.7141,3.7849975,-3.928339,-7.013667
8,-0.5230288505554199,-1.4648834466934204,78.69283294677734,-0.24577091772240175,1.8887278952697848,88.53727225165316,1.7360264,3.885221,8.316724,6.967975,-10.766804,-4.753304,1.5072328,-2.950224,-13.149098,7.0112257,-10.913009,2.1685715,-0.71631396,0.61385214,3.7883024,3.821457,14.206476,-30.932186,52.86623,-3.982006,7.895076,-5.1574397,1.5749365,-12.414049,27.674067,58.687775,3.7988021,-3.8923368,-7.05142
9,-0.5507348775863647,-1.4632227420806885,78.69989776611328,-0.2577131809829878,1.9587173267738731,88.56231255469359,1.6508957,3.8648722,8.269807,6.9666615,-10.762688,-4.7201033,1.4406891,-2.96697,-13.1718025,7.0074134,-10.94487,2.2786644,-0.7018789,0.61265844,3.8323386,3.7758915,14.201572,-30.933006,52.853516,-4.000766,7.903098,-5.1495624,1.4782747,-12.407451,27.698025,58.622868,3.7949562,-3.9032829,-7.048807
10,-0.5756138563156128,-1.458884358406067,78.70709228515625,-0.27482485257589967,2.0310840840616273,88.5920469570734,1.5612626,3.8465834,8.210907,6.9659104,-10.753247,-4.6885066,1.3744907,-2.9818068,-13.201407,7.002285,-10.9768715,2.397951,-0.6925794,0.61318153,3.8764532,3.7308211,14.189975,-30.928583,52.843597,-4.025376,7.899247,-5.1349363,1.3748145,-12.396244,27.719578,58.56311,3.783925,-3.9457622,-7.030038
11,-0.6001622080802917,-1.4560543298721313,78.71614837646484,-0.289574514247598,2.1003095532667584,88.62185513366049,1.4767631,3.8237185,8.150092,6.964912,-10.746755,-4.646904,1.3124871,-2.9998803,-13.226409,6.9990826,-11.016049,2.517217,-0.6768785,0.61077785,3.9244711,3.6869159,14.176851,-30.927904,52.828945,-4.0518103,7.887041,-5.1255126,1.2750704,-12.387565,27.729942,58.49757,3.7703435,-4.0005655,-7.0074635
12,-0.6337092518806458,-1.4500837326049805,78.72208404541016,-0.29627080157168273,2.1612645929764738,88.64675410759071,1.4053348,3.7892573,8.097233,6.965542,-10.752355,-4.584234,1.2608744,-3.0252514,-13.23583,6.996058,-11.066296,2.627897,-0.65682167,0.60111564,3.976526,3.6507761,14.163007,-30.929571,52.80424,-4.076547,7.8701353,-5.1310396,1.1751654,-12.381873,27.742949,58.43282,3.7668107,-4.0484858,-6.998243
13,-0.6700783371925354,-1.4451044797897339,78.72480773925781,-0.29282808603963384,2.219845796414085,88.6668108033309,1.338564,3.7384877,8.052251,6.966984,-10.768448,-4.48976,1.2090168,-3.0594916,-13.22321,6.995375,-11.12688,2.724263,-0.6351497,0.58264154,4.026933,3.6198912,14.147293,-30.930817,52.770245,-4.0972424,7.846315,-5.1564035,1.0676985,-12.378655,27.765894,58.37453,3.7809641,-4.0914283,-7.0131116
14,-0.7068278193473816,-1.440456748008728,78.72419738769531,-0.2818625452891393,2.2766822029394724,88.68389025177903,1.2754505,3.676124,8.010252,6.969873,-10.793075,-4.3711557,1.1582372,-3.1006446,-13.195645,6.9960747,-11.195299,2.8125532,-0.6060228,0.5540009,4.0802994,3.5983062,14.138819,-30.935806,52.715195,-4.116775,7.816326,-5.197106,0.9651255,-12.379003,27.783321,58.30646,3.8006022,-4.1366167,-7.039952
15,-0.7385857105255127,-1.4226244688034058,78.7225570678711,-0.26703139312216184,2.317596846579823,88.69701798023264,1.236616,3.6105378,7.9735374,6.973445,-10.83056,-4.2462015,1.1299192,-3.1454062,-13.163205,6.9970164,-11.274664,2.9021578,-0.5827501,0.52424866,4.14227,3.5873282,14.126124,-30.935476,52.659206,-4.139213,7.781524,-5.245103,0.8534671,-12.381465,27.815052,58.25114,3.8308284,-4.1763344,-7.0648594
16,-0.7753274440765381,-1.4007550477981567,78.71809387207031,-0.2566511624845247,2.3291967512324327,88.70549444986618,1.24145,3.5511208,7.9443436,6.977553,-10.884918,-4.1338162,1.1440713,-3.1887045,-13.136769,6.99888,-11.369462,3.0023904,-0.5608946,0.4962534,4.2226114,3.5938668,14.112804,-30.930712,52.602062,-4.1652474,7.744549,-5.299764,0.7506679,-12.386319,27.848576,58.196426,3.859141,-4.2026525,-7.067904
17,-0.8145824074745178,-1.3674520254135132,78.71005249023438,-0.25261375794410473,2.2965851655457388,88.70042397253795,1.3089588,3.503202,7.9338126,6.9835954,-10.960863,-4.0387473,1.2169973,-3.225371,-13.112352,7.0009522,-11.484759,3.11971,-0.5314092,0.47380343,4.3367496,3.6220922,14.103712,-30.925886,52.535362,-4.1982265,7.7031536,-5.3655376,0.6531739,-12.392261,27.874805,58.14352,3.8841798,-4.21028,-7.0352426
18,-0.855269193649292,-1.331459403038025,78.70013427734375,-0.25649006061687923,2.2309882495082194,88.68528551249183,1.4159899,3.4652016,7.9361997,7.0090065,-11.064458,-3.9524105,1.3341442,-3.2552724,-13.087572,7.003297,-11.616852,3.2475102,-0.50321716,0.4599833,4.4757,3.6715086,14.094013,-30.913038,52.458046,-4.2341065,7.656771,-5.4425273,0.5573592,-12.403533,27.907293,58.091198,3.9133353,-4.204234,-6.979657
19,-0.9043276309967041,-1.2924498319625854,78.68782806396484,-0.2691641361796961,2.157013547827556,88.67804485529349,1.5240427,3.4366398,7.9295015,7.06464,-11.192555,-3.8740954,1.470887,-3.2783144,-13.0767145,7.0053234,-11.756484,3.3761032,-0.47545627,0.45123014,4.615187,3.7281404,14.089318,-30.907114,52.3827,-4.275797,7.6136713,-5.5192432,0.47706366,-12.414693,27.935396,58.035732,3.9367633,-4.192466,-6.9223723
20,-0.9410895109176636,-1.2321645021438599,78.67515563964844,-0.2830730261660952,2.0994222619553193,88.69522680264043,1.618476,3.4029193,7.8956633,7.113025,-11.317885,-3.8018415,1.6013016,-3.3056974,-13.089958,7.007876,-11.893996,3.4954925,-0.45712277,0.43635738,4.729979,3.781719,14.08805,-30.910252,52.323715,-4.3229322,7.581396,-5.5841904,0.420646,-12.426144,27.965488,57.976166,3.950582,-4.182699,-6.8856955
21,-0.9789531826972961,-1.166666865348816,78.65868377685547,-0.29465395399453,2.062668973007058,88.74549164387759,1.5877978,3.3753607,7.8173532,7.3766165,-11.553649,-3.735569,1.721788,-3.339602,-13.133589,7.0108156,-12.027285,3.5993311,-0.45905116,0.41540706,4.816967,3.8363078,14.091292,-30.925653,52.27568,-4.376572,7.5615935,-5.629216,0.3980199,-12.447027,28.012417,57.893772,3.962078,-4.17349,-6.881496
22,-1.0266194343566895,-1.0912611484527588,78.64239501953125,-0.3065626533550955,2.0341970596225063,88.81800783480755,1.5081869,3.3482475,7.711522,7.729225,-11.84076,-3.6760106,1.8458389,-3.3776414,-13.199599,7.012957,-12.161028,3.6942322,-0.46559465,0.38688856,4.886514,3.8860862,14.097714,-30.958183,52.244675,-4.436495,7.550133,-5.6620784,0.39732528,-12.4646225,28.056377,57.80802,3.9636042,-4.1633406,-6.89577
23,-1.0778390169143677,-1.0166651010513306,78.62876892089844,-0.3166458395532745,2.0133959650334226,88.90143150126633,1.4453285,3.3151994,7.597732,8.038346,-12.110856,-3.622998,1.9698662,-3.4203186,-13.2787285,7.0170045,-12.296578,3.7902126,-0.47433084,0.3535742,4.941712,3.941959,14.109847,-30.989595,52.217598,-4.502204,7.5470247,-5.694888,0.4197086,-12.487061,28.097807,57.71575,3.958409,-4.1536207,-6.912303
24,-1.127602219581604,-0.9298736453056335,78.61302947998047,-0.3260118080761952,1.9995674645207064,88.984259924882,1.4054484,3.2789283,7.491824,8.298194,-12.363956,-3.576791,2.093892,-3.4661121,-13.36217,7.0190825,-12.43191,3.8969197,-0.47804913,0.31616643,4.9833846,4.0043,14.12341,-31.002527,52.197384,-4.568973,7.5520706,-5.739999,0.4552678,-12.506988,28.125797,57.63456,3.9412785,-4.147236,-6.915054
25,-1.1766629219055176,-0.8356859087944031,78.59831237792969,-0.33504871960761834,1.9885187570769682,89.06409684017211,1.3943073,3.240243,7.399075,8.509797,-12.602396,-3.5349498,2.2219613,-3.5156782,-13.45016,7.0215497,-12.570157,4.0188155,-0.47239235,0.27281332,5.0122595,4.0688066,14.13378,-30.992603,52.19702,-4.639884,7.5679464,-5.8084545,0.49797627,-12.520141,28.13802,57.57596,3.905,-4.144779,-6.891364
26,-1.2243664264678955,-0.7312305569648743,78.5823974609375,-0.34277838232555013,1.9819598829383043,89.1470735867973,1.4069278,3.197461,7.310612,8.675952,-12.825401,-3.4981844,2.353813,-3.568695,-13.546942,7.0227585,-12.709714,4.150002,-0.46996507,0.22525354,5.0332427,4.1541467,14.150387,-30.957636,52.185432,-4.711925,7.5968466,-5.89127,0.5604043,-12.537551,28.148867,57.509438,3.8569517,-4.141645,-6.8531914
27,-1.2761236429214478,-0.6242272257804871,78.56564331054688,-0.3495340055336239,1.9880350978447847,89.23362129684418,1.4328989,3.149307,7.221917,8.795334,-13.0303135,-3.4715118,2.4779387,-3.6250155,-13.648151,7.024558,-12.848429,4.2846823,-0.4666601,0.17494662,5.0318775,4.2352314,14.164279,-30.917807,52.191677,-4.7834253,7.627332,-5.9694247,0.6336467,-12.5495405,28.149242,57.463,3.805679,-4.143803,-6.8209705
28,-1.3304203748703003,-0.49581459164619446,78.54779052734375,-0.3551590918455477,2.014882755822975,89.32456051165371,1.4608991,3.095062,7.127977,8.870263,-13.216975,-3.4599504,2.584095,-3.6836638,-13.75001,7.025277,-12.981798,4.4169884,-0.47350475,0.12555198,5.0068545,4.3237576,14.187598,-30.872087,52.18666,-4.8480144,7.65313,-6.0265937,0.7243047,-12.564811,28.147167,57.420494,3.7672389,-4.1517053,-6.8141565
29,-1.3794275522232056,-0.36655116081237793,78.53143310546875,-0.36094373970264954,2.0731615231613523,89.4205323243219,1.4850801,3.0347304,7.027681,8.885751,-13.376564,-3.4736414,2.659925,-3.7442822,-13.851929,7.025509,-13.108291,4.5525184,-0.48660403,0.07949712,4.941373,4.4125285,14.2130165,-30.830013,52.184013,-4.914757,7.6760263,-6.052378,0.83201647,-12.576193,28.141298,57.399307,3.7303026,-4.168548,-6.8553023
30,-1.4357560873031616,-0.23950913548469543,78.51351165771484,-0.3663337195964129,2.1555740143919953,89.5210217125042,1.5124538,2.9691205,6.9236655,8.846624,-13.512866,-3.506999,2.7151206,-3.806976,-13.955803,7.0246577,-13.23016,4.6918073,-0.5020859,0.036404144,4.839895,4.4929075,14.22959,-30.789665,52.20249,-4.982851,7.697249,-6.056125,0.9542079,-12.580055,28.129223,57.402607,3.692181,-4.19281,-6.928957
31,-1.50029718875885,-0.10344146192073822,78.4957504272461,-0.36868666413562173,2.2438485584421723,89.62496570066638,1.5523083,2.8974304,6.8166327,8.778543,-13.639643,-3.5413597,2.7681468,-3.8737082,-14.06141,7.02575,-13.350781,4.8223357,-0.5235535,-0.0126874605,4.733603,4.583719,14.262834,-30.743565,52.202763,-5.035563,7.7129335,-6.0519433,1.0896941,-12.583799,28.104338,57.40282,3.6737518,-4.219326,-6.9979353
32,-1.5663862228393555,0.04687461629509926,78.47744750976562,-0.3693359608101062,2.3196327456307833,89.73114355886938,1.6128039,2.8200393,6.707099,8.70906,-13.7715,-3.55826,2.8403866,-3.9445276,-14.168868,7.026802,-13.471384,4.931543,-0.53658813,-0.06849859,4.6375985,4.6522813,14.291641,-30.712322,52.227757,-5.0606794,7.7130017,-6.044493,1.2399378,-12.585169,28.045418,57.395584,3.6934125,-4.2447534,-7.0282803
33,-1.6316977739334106,0.20198039710521698,78.4583511352539,-0.3648746988327157,2.381031743846613,89.84062097323054,1.7015145,2.735018,6.594698,8.62991,-13.905123,-3.5556223,2.9341028,-4.0213065,-14.280402,7.0295353,-13.593064,5.0118475,-0.5334506,-0.13951527,4.5609355,4.7059507,14.336401,-30.699957,52.264164,-5.0556564,7.6856923,-6.036934,1.41734,-12.586269,27.929771,57.356068,3.7582824,-4.265169,-6.9930887
34,-1.6964571475982666,0.3593566119670868,78.43922424316406,-0.35742418784188185,2.4365971231497725,89.9536800345008,1.8122487,2.6435616,6.4790473,8.531483,-14.0347595,-3.5426302,3.0396502,-4.102907,-14.395347,7.0329814,-13.71428,5.071516,-0.52388597,-0.21802719,4.488439,4.742133,14.379731,-30.696983,52.32542,-5.0248804,7.637131,-6.0231614,1.6139748,-12.586466,27.777735,57.304253,3.859206,-4.283507,-6.9180155
35,-1.764415979385376,0.5254048109054565,78.41944122314453,-0.3489628676713049,2.4845814471832863,90.06792395448932,1.9347724,2.5487125,6.360807,8.4372425,-14.17153,-3.5174737,3.1577961,-4.1866546,-14.509519,7.037641,-13.835611,5.1215663,-0.50911,-0.29769942,4.4241514,4.7707076,14.428649,-30.708359,52.37622,-4.9762583,7.5935154,-6.006371,1.8250182,-12.588732,27.608702,57.247902,3.9831429,-4.3051357,-6.8389373
36,-1.836616039276123,0.6909579038619995,78.39730072021484,-0.34387102140753656,2.5230458316562605,90.18091828825854,2.0601692,2.4536812,6.24061,8.367195,-14.323998,-3.4782748,3.290737,-4.26927,-14.618858,7.0419407,-13.957068,5.172986,-0.49716693,-0.36944383,4.371249,4.80132,14.483174,-30.731148,52.386734,-4.91525,7.580136,-5.9891057,2.0417652,-12.5962925,27.451378,57.197193,4.120307,-4.335078,-6.792655
37,-1.9156084060668945,0.8623605370521545,78.37356567382812,-0.3460583106192694,2.544927119616169,90.28880918438715,2.1928189,2.3620853,6.1195536,8.331137,-14.498753,-3.4198081,3.4458804,-4.346422,-14.719572,7.046957,-14.081421,5.224132,-0.48889834,-0.42612237,4.3335423,4.839491,14.54377,-30.76815,52.341145,-4.824212,7.612719,-5.974903,2.2648497,-12.612359,27.31557,57.150795,4.2724338,-4.376066,-6.7977114
38,-2.000516176223755,1.0389955043792725,78.3473892211914,-0.35124959874780876,2.5532772304331712,90.39404075062774,2.3366683,2.272079,5.996724,8.314251,-14.688628,-3.344917,3.6198502,-4.4207582,-14.814854,7.0524454,-14.207056,5.2705874,-0.4836968,-0.4726338,4.3079467,4.878794,14.606142,-30.815699,52.260983,-4.705075,7.674703,-5.961111,2.4961736,-12.636999,27.189453,57.105465,4.4448996,-4.424873,-6.831864
39,-2.084813117980957,1.2255101203918457,78.31951141357422,-0.3552173681257981,2.5616944456028605,90.50354584446461,2.4765081,2.177754,5.8696604,8.311099,-14.887322,-3.2635772,3.7989979,-4.499314,-14.911506,7.0571027,-14.330484,5.3191414,-0.48288143,-0.51893616,4.2891,4.913247,14.670323,-30.866005,52.16463,-4.5934916,7.7424493,-5.9431663,2.735365,-12.669573,27.063036,57.06123,4.6313562,-4.4779096,-6.86927
40,-2.174177646636963,1.4092625379562378,78.29414367675781,-0.3517650940478931,2.583726657659441,90.62436108855519,2.5997422,2.073763,5.735857,8.310889,-15.086163,-3.1855612,3.9666862,-4.589512,-15.016329,7.0623345,-14.447683,5.3765745,-0.487051,-0.5749801,4.2734585,4.9408846,14.743135,-30.912249,52.061085,-4.5262547,7.793253,-5.917047,2.985572,-12.713398,26.924513,57.011673,4.825495,-4.5309777,-6.883168
41,-2.2641072273254395,1.5916142463684082,78.2655029296875,-0.33731775158783733,2.6289684253925656,90.76157750614735,2.698616,1.9574047,5.5924797,8.305359,-15.282795,-3.12069,4.1164446,-4.6940117,-15.132828,7.066016,-14.566385,5.4526744,-0.5044034,-0.6442319,4.249068,4.9574924,14.816826,-30.951488,51.96992,-4.521768,7.8246922,-5.868731,3.2406743,-12.76406,26.77928,56.968826,5.0458097,-4.593155,-6.878157
42,-2.354123830795288,1.7809925079345703,78.22883605957031,-0.3121813202289616,2.6851841758027817,90.91095842996552,2.758039,1.8330841,5.4403124,8.358947,-15.512211,-3.0629923,4.2335515,-4.81879,-15.255804,7.128376,-14.717976,5.5407085,-0.5311793,-0.723407,4.224952,4.964261,14.890802,-30.989666,51.880543,-4.5580783,7.847758,-5.804372,3.5023732,-12.821371,26.628916,56.930202,5.288908,-4.6633425,-6.864198
43,-2.4435806274414062,1.9679337739944458,78.1852798461914,-0.2765642832642232,2.738860016744314,91.0636303798221,2.793588,1.6988232,5.2861676,8.472391,-15.768903,-2.9948132,4.34069,-4.9608335,-15.38151,7.2228503,-14.869558,5.6230392,-0.55921835,-0.81323284,4.21559,4.96237,14.965353,-31.019077,51.77955,-4.6048136,7.8578453,-5.74856,3.7668781,-12.886267,26.470066,56.89562,5.5157437,-4.722652,-6.826804
44,-2.533914089202881,2.161717176437378,78.13859558105469,-0.22581263217458342,2.776249180997449,91.20993003803954,2.8137097,1.545973,5.1380553,8.661275,-16.054985,-2.8981235,4.454931,-5.1259265,-15.5044365,7.3353267,-15.00072,5.6824365,-0.57976055,-0.92087466,4.2364507,4.953925,15.041198,-31.03145,51.65165,-4.6317606,7.8506284,-5.7260966,4.0312448,-12.959553,26.299816,56.862934,5.688318,-4.752219,-6.7516403
45,-2.6308748722076416,2.3514482975006104,78.0867691040039,-0.1580202238925622,2.798205218192456,91.3511749860732,2.8106322,1.3722196,4.9919953,8.936376,-16.371038,-2.7623153,4.4805317,-5.3429794,-15.619037,7.6697183,-15.217133,5.6981583,-0.59278643,-1.0485542,4.2894,4.9368463,15.118465,-31.023104,51.506283,-4.6359415,7.8137383,-5.754346,4.2927427,-13.042333,26.097498,56.832558,5.793522,-4.7383766,-6.6012774
46,-2.734622001647949,2.554312229156494,78.02696228027344,-0.07099827045453402,2.8125130485361205,91.48933527706284,2.7897515,1.173795,4.8483562,9.268717,-16.706026,-2.5972688,3.91323,-5.7580676,-15.673151,9.318258,-16.102285,5.6888623,-0.59963685,-1.1983886,4.365172,4.9109564,15.197356,-30.999317,51.34596,-4.6317534,7.753279,-5.8167133,4.5556955,-13.134393,25.870094,56.801876,5.852714,-4.6936946,-6.3945827
47,-2.8305509090423584,2.7357285022735596,77.95569610595703,0.043839243455417475,2.8142775166881884,91.61703718495401,2.7718527,0.94402015,4.71937,9.634524,-17.056372,-2.4162052,3.2925854,-6.2275457,-15.703581,11.111992,-17.029808,5.688589,-0.595392,-1.3770664,4.4636903,4.881433,15.279743,-30.964838,51.146645,-4.6157713,7.6931243,-5.886884,4.8234105,-13.235395,25.658344,56.770298,5.8793035,-4.6393247,-6.201657
48,-2.920595645904541,2.9285624027252197,77.87239074707031,0.19138104723856858,2.797693970225016,91.72730283234887,2.773141,0.68047947,4.616069,10.02097,-17.423605,-2.233188,2.6522505,-6.748244,-15.702925,12.993849,-17.959093,5.7340717,-0.5772716,-1.5878652,4.5859566,4.8566456,15.368357,-30.921648,50.880333,-4.582679,7.6573663,-5.939041,5.0996213,-13.344079,25.505045,56.735954,5.887928,-4.5962315,-6.092771
49,-3.015249013900757,3.1227447986602783,77.77320098876953,0.38416590363494885,2.755143870548591,91.8163847919437,2.8140857,0.36911687,4.54077,10.404791,-17.79841,-2.0475416,2.0132596,-7.3334312,-15.674968,14.938675,-18.909807,5.8388624,-0.544818,-1.8432859,4.7346983,4.8393745,15.468033,-30.886602,50.54282,-4.5902095,7.662274,-5.954603,5.3820977,-13.459226,25.438894,56.71163,5.871287,-4.566237,-6.1109896
50,-3.1171460151672363,3.3097176551818848,77.66099548339844,0.6155396588012044,2.691444016377829,91.88878828488618,2.8805594,0.0148215415,4.4865026,10.800316,-18.183645,-1.8529478,1.351052,-7.982667,-15.619363,16.985826,-19.893991,5.981415,-0.5009721,-2.1398983,4.9095945,4.830336,15.580542,-30.850258,50.140896,-4.620846,7.6924872,-5.951711,5.668344,-13.580556,25.433083,56.694996,5.825559,-4.5396347,-6.2110896
51,-3.2043166160583496,3.524719476699829,77.54442596435547,0.8635154793011206,2.6190393715105866,91.95071393804464,2.9320354,-0.352551,4.449461,11.260499,-18.603926,-1.6554368,0.64850986,-8.663781,-15.526679,19.138134,-20.853079,6.1454287,-0.4484555,-2.4534566,5.1072764,4.8303614,15.702604,-30.77798,49.668167,-4.5590777,7.723437,-5.9602127,5.9612093,-13.708438,25.448008,56.663567,5.771095,-4.520316,-6.3307195
52,-3.289663791656494,3.7400543689727783,77.42037200927734,1.1038520017351554,2.5503712540826924,92.00811066099543,2.93128,-0.7045381,4.4266953,11.830677,-19.07953,-1.46103,-0.11766188,-9.346472,-15.386045,21.41278,-21.728964,6.3141522,-0.3903947,-2.7597222,5.323438,4.8386893,15.827385,-30.634104,49.12174,-4.2877326,7.7307167,-6.009346,6.2641106,-13.843537,25.443611,56.59446,5.7274156,-4.5122285,-6.4073863
53,-3.3692572116851807,3.958331346511841,77.28365325927734,1.337537007711566,2.4776089845869906,92.06938370957653,2.8747332,-1.0418133,4.4136863,12.533466,-19.620684,-1.2639294,-0.9231965,-10.034358,-15.215576,23.79779,-22.541206,6.485249,-0.32822362,-3.0582838,5.5634174,4.846686,15.953786,-30.433348,48.517193,-3.7369902,7.6908584,-6.1164923,6.5846806,-13.987503,25.40761,56.484436,5.7143664,-4.5264926,-6.419021
54,-3.463714838027954,4.169844150543213,77.13741302490234,1.5727984249073723,2.397536361960258,92.12939296990903,2.781119,-1.3753922,4.412495,13.338697,-20.21524,-1.0634557,-1.7624167,-10.735977,-15.0131,26.282398,-23.30682,6.665906,-0.25852332,-3.3570874,5.8273644,4.8544636,16.081816,-30.188366,47.8551,-2.9820008,7.6207714,-6.2616215,6.9208784,-14.141154,25.359768,56.343185,5.716333,-4.5575514,-6.4003434
55,-3.547675132751465,4.386623382568359,76.99624633789062,1.8011367113049073,2.3296932862675694,92.17391429813728,2.6405492,-1.693983,4.4318824,14.224506,-20.851181,-0.87262744,-2.685375,-11.426494,-14.736503,28.883127,-23.961035,6.852167,-0.17910732,-3.6454046,6.1021743,4.8729506,16.203184,-29.859188,47.114468,-2.1227984,7.555653,-6.418363,7.2586584,-14.303392,25.31178,56.170654,5.7011204,-4.584464,-6.3749914
56,-3.639409065246582,4.591003894805908,76.84052276611328,2.013644123868861,2.293612614038986,92.18886520115971,2.4507222,-1.9857515,4.4821444,15.153616,-21.508387,-0.7065914,-3.7442408,-12.082125,-14.343653,31.619427,-24.44289,7.039594,-0.08994419,-3.9114625,6.373156,4.910145,16.304415,-29.40415,46.28172,-1.2586154,7.5314484,-6.5609193,7.581666,-14.472203,25.277426,55.970592,5.6364355,-4.586302,-6.3671827
57,-3.7187795639038086,4.7986226081848145,76.68126678466797,2.2098054182482723,2.30158581004825,92.17718229274263,2.1869328,-2.2532823,4.56068,16.144312,-22.192715,-0.5646911,-4.9684834,-12.7088785,-13.816369,34.529823,-24.744452,7.2556796,0.008175627,-4.1530633,6.6301365,4.9689198,16.373743,-28.777914,45.349293,-0.34702018,7.556393,-6.7195945,7.8856544,-14.645959,25.261223,55.741158,5.4764757,-4.5467887,-6.386924
58,-3.798072099685669,5.0129265785217285,76.51146697998047,2.394922298092342,2.3409560344216125,92.1448937440119,1.859656,-2.4995103,4.6643763,17.204893,-22.909224,-0.44089568,-6.3307476,-13.31134,-13.175135,37.600056,-24.90036,7.486559,0.11205721,-4.3733964,6.879545,5.039048,16.408234,-28.010899,44.34255,0.6455069,7.609483,-6.89573,8.173889,-14.825749,25.259655,55.490814,5.251469,-4.4807944,-6.421171
59,-3.8868651390075684,5.237364768981934,76.33406829833984,2.5610358755394436,2.3937047815810537,92.08141329209752,1.505577,-2.712926,4.8020144,18.31059,-23.656075,-0.3397642,-7.794391,-13.859453,-12.437606,40.76367,-24.907646,7.663844,0.22062926,-4.5668635,7.133087,5.107934,16.408062,-27.178787,43.294678,1.6051722,7.685587,-7.0209255,8.447791,-15.011006,25.272135,55.22986,5.0423484,-4.413821,-6.4586315
60,-3.9711012840270996,5.454206466674805,76.14384460449219,2.70399177249451,2.442216610138448,91.97647356178149,1.1598256,-2.884123,4.979129,19.439993,-24.434814,-0.2625116,-9.320689,-14.32207,-11.62305,43.952137,-24.761433,7.720914,0.33463347,-4.7293034,7.4024296,5.1603637,16.37556,-26.359425,42.23793,2.416847,7.782697,-7.0262127,8.708212,-15.201277,25.295322,54.97047,4.929173,-4.371807,-6.4886103
61,-4.036790370941162,5.668423175811768,75.94694519042969,2.8231448416623275,2.4851248226214793,91.82219231329044,0.8261809,-3.0102582,5.2035317,20.587616,-25.24835,-0.2149646,-10.9229355,-14.698761,-10.735512,47.19491,-24.376345,7.675627,0.46669117,-4.859561,7.692985,5.1953373,16.311872,-25.562443,41.16772,3.0277965,7.910353,-6.8543262,8.9536085,-15.397205,25.326563,54.70628,4.9415846,-4.3657246,-6.503604
62,-4.117252826690674,5.8937482833862305,75.7363510131836,2.9198320500000055,2.5310986881629387,91.6258771118317,0.48916915,-3.097772,5.470558,21.761929,-26.093266,-0.19495615,-12.6141405,-15.000087,-9.771571,50.5155,-23.783474,7.5470767,0.6149662,-4.959541,7.9973774,5.216388,16.216702,-24.753891,40.071804,3.504564,8.070027,-6.554808,9.186264,-15.599323,25.36448,54.432686,5.033058,-4.3804913,-6.510724
63,-4.18881368637085,6.128499507904053,75.5238265991211,2.9960924721096194,2.577447894303848,91.39968247125096,0.15578865,-3.1486673,5.7679853,22.96193,-26.960976,-0.1936183,-14.350492,-15.20971,-8.747963,53.832996,-23.148663,7.2812033,0.7578078,-5.0287743,8.30918,5.215842,16.090595,-23.944258,38.968544,3.9116962,8.247917,-6.2184634,9.414006,-15.804659,25.408192,54.16206,5.170166,-4.4028215,-6.5211477
64,-4.244105339050293,6.370013236999512,75.30762481689453,3.0501383772706916,2.6214787952763317,91.15551510180842,-0.16407713,-3.1638637,6.082081,24.180841,-27.842686,-0.20143558,-16.087994,-15.307517,-7.6836524,57.06774,-22.63613,6.8332524,0.8754112,-5.06728,8.621661,5.1829047,15.934728,-23.146114,37.878593,4.3137374,8.429169,-5.9360247,9.64444,-16.008049,25.454584,53.90821,5.318811,-4.419835,-6.5464497
65,-4.304808139801025,6.617278575897217,75.07781219482422,3.083707425623794,2.6655441613123143,90.87504939092292,-0.4800946,-3.1359556,6.43409,25.445705,-28.742233,-0.21999161,-17.84882,-15.28725,-6.5757327,60.267006,-22.269844,6.071522,0.9738671,-5.0742674,8.933073,5.1355643,15.744376,-22.335632,36.798283,4.7382107,8.618858,-5.7305565,9.871961,-16.20507,25.490768,53.68585,5.484291,-4.4343605,-6.5930786
66,-4.370290279388428,6.888104438781738,74.84021759033203,3.0952799509259927,2.71021649452993,90.55864472710137,-0.79207057,-3.0648258,6.8218794,26.750174,-29.664156,-0.25212014,-19.641464,-15.151275,-5.4315605,63.453007,-21.96052,5.071495,1.0597346,-5.0506907,9.245431,5.0662823,15.518618,-21.514812,35.725307,5.1483645,8.821086,-5.5537705,10.092228,-16.394434,25.522291,53.489346,5.6793137,-4.4517756,-6.6546617
67,-4.4275922775268555,7.159095287322998,74.59781646728516,3.0823921869052557,2.7493666623863193,90.24624786138627,-1.0830504,-2.9592633,7.197122,28.05431,-30.598337,-0.29077125,-21.394846,-14.887935,-4.2836814,66.5021,-21.706902,4.1066008,1.1152548,-4.999672,9.558347,4.92998,15.268983,-20.736933,34.676334,5.5113235,9.02027,-5.3891306,10.313225,-16.578043,25.572035,53.30442,5.8791833,-4.462788,-6.723931
68,-4.464178562164307,7.447169780731201,74.35120391845703,3.044194417406418,2.777317271858656,89.97800756649272,-1.3351521,-2.8290431,7.5118666,29.314535,-31.532845,-0.32915986,-23.037466,-14.485753,-3.159985,69.29557,-21.514368,3.451535,1.1240349,-4.9242544,9.873399,4.6896157,15.01436,-20.055906,33.65775,5.792514,9.201298,-5.2206736,10.547215,-16.758192,25.661512,53.110275,6.060196,-4.4578304,-6.792489
69,-4.500467777252197,7.748016834259033,74.10071563720703,2.9660745167435207,2.77142484474381,89.76164062432903,-1.5414424,-2.6587567,7.7533975,30.569838,-32.498257,-0.36463588,-24.522459,-13.871272,-2.017524,71.81499,-21.421677,3.2449963,1.0871373,-4.813866,10.214804,4.3494287,14.765,-19.471966,32.664806,5.9461493,9.354043,-5.067809,10.798225,-16.93655,25.800493,52.887978,6.2354417,-4.4238734,-6.8691387
70,-4.530789852142334,8.045462608337402,73.8398208618164,2.850647792384185,2.7415262242478815,89.57640233764243,-1.7111405,-2.4479141,7.9468307,31.824482,-33.48884,-0.40185487,-25.890253,-13.06565,-0.86569995,74.13539,-21.422432,3.3326173,1.0122325,-4.6729097,10.57601,3.9344168,14.522187,-18.961737,31.6808,5.998894,9.488748,-4.9317746,11.062323,-17.112867,25.975006,52.646866,6.411743,-4.369538,-6.953526
71,-4.553034782409668,8.354491233825684,73.59730529785156,2.7265441151768868,2.730440643196568,89.41958093101704,-1.8508366,-2.232135,8.103019,32.98315,-34.4378,-0.4450685,-27.20651,-12.209521,0.19839218,76.276924,-21.458378,3.5392349,0.89429677,-4.5286717,10.913447,3.4417567,14.293029,-18.545406,30.691309,6.023233,9.621054,-4.7697597,11.341774,-17.284712,26.17059,52.40752,6.555596,-4.3171525,-7.0234356
72,-4.582035541534424,8.691971778869629,73.36029052734375,2.6234519759535377,2.781116766734107,89.28849066481048,-1.96865,-2.0495188,8.233556,33.952106,-35.28098,-0.49861428,-28.544321,-11.451061,1.0865958,78.25173,-21.464193,3.6834188,0.7314736,-4.4112263,11.183523,2.8705382,14.088401,-18.24514,29.678967,6.0904603,9.766849,-4.5393143,11.638035,-17.448809,26.37007,52.191555,6.632374,-4.2892976,-7.05637
73,-4.580035209655762,9.008157730102539,73.13634490966797,2.552711607583932,2.9108438505189054,89.18696198892478,-2.090989,-1.9179888,8.3369665,34.73919,-36.015728,-0.55558735,-29.951977,-10.814572,1.8146938,80.08496,-21.415195,3.7379391,0.5167376,-4.3365192,11.371254,2.2114792,13.917453,-18.09557,28.63495,6.2050996,9.942882,-4.190033,11.9418335,-17.605099,26.599236,52.004005,6.645057,-4.2979856,-7.052076
74,-4.592933654785156,9.364579200744629,72.93158721923828,2.50060724280876,3.09467680917773,89.11507936545412,-2.2063925,-1.8172067,8.410011,35.38462,-36.673225,-0.6164643,-31.386906,-10.236696,2.4244108,81.76093,-21.347872,3.7873511,0.25600386,-4.290715,11.502158,1.4775128,13.780353,-18.078112,27.558178,6.329027,10.137298,-3.7588155,12.256041,-17.75178,26.856377,51.83227,6.607932,-4.3292446,-7.0198417
75,-4.6022233963012695,9.74673080444336,72.75653839111328,2.4519028374441842,3.311978063259077,89.06461818147359,-2.267483,-1.7286812,8.462186,35.844757,-37.234833,-0.69485795,-32.793213,-9.741536,2.8748062,83.228424,-21.282024,3.8114152,-0.033556443,-4.2597117,11.592012,0.6972655,13.672493,-18.136152,26.447243,6.469661,10.323951,-3.334664,12.598368,-17.881563,27.081923,51.676086,6.501833,-4.366644,-6.9521074
76,-4.614314556121826,10.155064582824707,72.60950469970703,2.3950158473511007,3.5422747472981717,89.02731603871463,-2.226108,-1.6335222,8.503018,36.07481,-37.67968,-0.80403167,-34.115517,-9.35628,3.1264238,84.43426,-21.237383,3.787135,-0.33437565,-4.22854,11.656252,-0.104324445,13.586899,-18.214268,25.305292,6.636648,10.476836,-3.0058959,12.986137,-17.98309,27.21695,51.537647,6.3074274,-4.3942943,-6.841854
77,-4.600496768951416,10.581839561462402,72.49641418457031,2.34849184800239,3.792238290454195,89.00514477533414,-2.0916052,-1.548201,8.536814,36.077766,-38.01432,-0.9466074,-35.374905,-9.138001,3.1699872,85.3828,-21.230967,3.6983159,-0.6401829,-4.218995,11.685483,-0.9529934,13.5212555,-18.325357,24.145233,6.8883476,10.613547,-2.7803378,13.433762,-18.046965,27.245136,51.421112,5.995999,-4.426966,-6.673388
78,-4.565552234649658,11.033266067504883,72.4143295288086,2.31081320393198,4.068775091474831,89.00149569944082,-1.8818547,-1.4762294,8.556811,35.871628,-38.246494,-1.1131959,-36.592846,-9.067396,3.03555,86.09565,-21.247725,3.5536704,-0.95913035,-4.2315335,11.673147,-1.8554522,13.473761,-18.493732,22.968971,7.2018366,10.739802,-2.6155877,13.924025,-18.069723,27.198719,51.3358,5.584014,-4.468916,-6.4561033
79,-4.525759220123291,11.487287521362305,72.35865020751953,2.244547375438199,4.3509137444906205,89.01030905545043,-1.5619636,-1.3764174,8.5593195,35.436653,-38.357918,-1.3039919,-37.713554,-9.05914,2.7384596,86.54464,-21.262705,3.3656228,-1.2967337,-4.2200665,11.637763,-2.7608743,13.438817,-18.67856,21.767593,7.4678493,10.81021,-2.5232987,14.422647,-18.052967,27.090714,51.29681,5.118261,-4.488264,-6.2211237
80,-4.486169815063477,11.996978759765625,72.35037231445312,2.113176427686412,4.618406504200891,89.02484154193692,-1.0958385,-1.2107276,8.537117,34.750317,-38.331753,-1.5130188,-38.681038,-9.022851,2.2952816,86.700645,-21.245518,3.1538198,-1.6606877,-4.136696,11.599767,-3.618069,13.409808,-18.834614,20.532753,7.578746,10.77876,-2.5146866,14.897348,-18.001587,26.936665,51.314728,4.646793,-4.451955,-5.998885
81,-4.417667865753174,12.535786628723145,72.3888168334961,1.9065021236299353,4.855295174501946,89.05044955319917,-0.46292895,-0.96692795,8.481412,33.80677,-38.183105,-1.7447681,-39.47014,-8.994334,1.6587784,86.549034,-21.214045,2.8761003,-2.0657039,-3.972297,11.579291,-4.422973,13.381537,-18.93694,19.249743,7.4558024,10.610233,-2.6209416,15.342354,-17.916363,26.733192,51.395966,4.1480393,-4.3305573,-5.7866955
82,-4.354833126068115,13.088902473449707,72.45792388916016,1.6448655570543758,5.076329243183216,89.08782734744811,0.31453404,-0.6644408,8.396972,32.617973,-37.915405,-1.9951801,-40.110508,-9.000479,0.8388641,86.10607,-21.175055,2.5428672,-2.5064132,-3.7488348,11.56165,-5.2011285,13.353997,-19.010063,17.931377,7.1752005,10.336776,-2.8266997,15.77496,-17.79653,26.478659,51.53109,3.6090534,-4.1486816,-5.5706573
83,-4.304382801055908,13.678078651428223,72.57510375976562,1.3310770546058075,5.306676594443685,89.12316909506356,1.2049078,-0.30583948,8.306233,31.195312,-37.497868,-2.2615993,-40.631577,-8.941925,-0.07031532,85.3892,-21.08974,2.2424264,-2.958108,-3.4657197,11.515956,-5.9487214,13.331895,-19.086342,16.612967,6.8608036,10.013438,-3.072817,16.197931,-17.649849,26.186823,51.706924,3.0894969,-3.952895,-5.3652864
84,-4.223258972167969,14.324013710021973,72.728759765625,0.9696173442685467,5.571312867255744,89.14256318637294,2.1775653,0.10337855,8.231757,29.545523,-36.894802,-2.5424788,-41.067482,-8.721451,-0.97154015,84.41371,-20.916243,2.0617461,-3.3968692,-3.121905,11.413144,-6.6575947,13.3220625,-19.196978,15.322955,6.6364923,9.6939745,-3.299568,16.617292,-17.490078,25.87065,51.902954,2.6500769,-3.7885985,-5.185613
85,-4.154632568359375,14.970686912536621,72.90847778320312,0.5559282189893983,5.866202405200413,89.13756090838305,3.2849529,0.5565498,8.183249,27.561184,-36.08416,-2.8355396,-41.41455,-8.323569,-1.8594235,83.15682,-20.660591,1.999694,-3.8206496,-2.707947,11.256513,-7.3123097,13.325112,-19.3381,14.047454,6.5392294,9.377226,-3.5161448,17.046068,-17.326717,25.535067,52.122005,2.3039632,-3.6686933,-5.04909
86,-4.064939022064209,15.655509948730469,73.1126937866211,0.08880986761887308,6.181770072450095,89.11670379740859,4.5227437,1.0559746,8.151601,25.270245,-35.08527,-3.1457162,-41.664608,-7.798466,-2.7722445,81.61396,-20.339201,2.015899,-4.242616,-2.2242517,11.062664,-7.9172893,13.3405075,-19.49622,12.770749,6.499524,9.039135,-3.7455401,17.485304,-17.162003,25.172016,52.356247,2.0221975,-3.5667617,-4.94256
87,-3.9734256267547607,16.35342025756836,73.33062744140625,-0.42052785033915274,6.534505168679473,89.09121283130413,5.771265,1.6063396,8.129296,22.89048,-33.930798,-3.4834538,-41.8487,-7.151679,-3.6747825,79.825424,-19.92402,2.135683,-4.6603985,-1.6851283,10.823366,-8.490143,13.3746805,-19.689749,11.513398,6.481325,8.697617,-3.9487395,17.92288,-16.998907,24.774168,52.56707,1.8027662,-3.4692392,-4.834834
88,-3.8570854663848877,17.093856811523438,73.5653305053711,-0.959635958064357,6.940421485551008,89.07147710507537,6.9084034,2.211774,8.104637,20.645905,-32.656013,-3.8564675,-41.996853,-6.389772,-4.5299535,77.832054,-19.387716,2.384965,-5.070555,-1.1072887,10.531323,-9.045681,13.437823,-19.937935,10.291223,6.446972,8.371189,-4.0872293,18.348242,-16.839285,24.3349,52.713627,1.6435648,-3.362628,-4.694269
89,-3.755725145339966,17.83313751220703,73.80752563476562,-1.5585653231079941,7.426239305832823,89.05619584695454,7.9471297,2.902023,8.06259,18.451677,-31.217354,-4.2870274,-42.12914,-5.4578648,-5.3334746,75.57738,-18.681042,2.8139389,-5.474086,-0.45972252,10.161017,-9.576353,13.536738,-20.255093,9.092456,6.4232483,8.072022,-4.126374,18.767881,-16.68431,23.841726,52.789932,1.5449022,-3.2366838,-4.5016274
90,-3.6325440406799316,18.599477767944336,74.04678344726562,-2.2101970106734954,7.974653906723153,89.0388300201709,8.92929,3.6570702,8.007528,16.247423,-29.615585,-4.762509,-42.2281,-4.38081,-6.085302,73.05186,-17.835001,3.388842,-5.8704405,0.2517638,9.729089,-10.068517,13.672028,-20.628422,7.90114,6.4155064,7.787993,-4.0944653,19.185606,-16.53348,23.301785,52.810722,1.507458,-3.100521,-4.2771506
91,-3.4967191219329834,19.37550926208496,74.27925872802734,-2.8426035744972515,8.535459887495884,89.02175047072696,9.778675,4.406565,7.9516144,14.298187,-27.966625,-5.2344947,-42.260014,-3.2816954,-6.7581825,70.36429,-16.943474,4.0113244,-6.2538657,0.9500561,9.289493,-10.529401,13.844869,-21.036512,6.728817,6.353858,7.501155,-4.0486026,19.582344,-16.386517,22.739298,52.77123,1.5293115,-2.9697013,-4.048871
92,-3.358035087585449,20.159500122070312,74.5101318359375,-3.3839846300688836,9.05778299497865,89.00826227144847,10.444384,5.0819345,7.9094176,12.825871,-26.368664,-5.654971,-42.18697,-2.2780507,-7.3328676,67.629944,-16.097248,4.5844164,-6.619573,1.5547848,8.89377,-10.969258,14.057481,-21.457514,5.589267,6.16755,7.1935983,-4.0466156,19.93731,-16.244864,22.177618,52.669563,1.608373,-2.8600209,-3.8448713
93,-3.221590518951416,20.946475982666016,74.73628234863281,-3.829808825429257,9.53729015642262,88.99059541109415,10.881066,5.6893306,7.9048753,11.957143,-24.844732,-6.0039606,-41.99466,-1.342952,-7.7831435,64.8028,-15.297038,5.1224256,-6.9720936,2.0596354,8.549779,-11.399401,14.318577,-21.896446,4.469364,5.8544197,6.88706,-4.0962176,20.237785,-16.113436,21.606663,52.502213,1.7820987,-2.7736886,-3.6400821
94,-3.0774567127227783,21.740827560424805,74.95496368408203,-4.209829371245694,9.996945816894257,88.97133843857995,11.146533,6.2550507,7.9179807,11.519336,-23.333462,-6.310405,-41.695667,-0.43587118,-8.124472,61.8455,-14.501367,5.6574993,-7.3158965,2.4980366,8.231946,-11.804752,14.63115,-22.358969,3.356164,5.4440513,6.5829306,-4.1703043,20.496496,-15.994504,21.021324,52.26886,2.0394945,-2.7020206,-3.4301176
95,-2.9413294792175293,22.552913665771484,75.16304779052734,-4.507989029545603,10.428294305391859,88.9708403451527,11.285082,6.7548857,7.895957,11.413154,-21.852602,-6.6015677,-41.294853,0.35959163,-8.413176,58.893192,-13.732195,6.130755,-7.648527,2.8532681,7.9401927,-12.159395,14.984217,-22.822441,2.2681031,4.915857,6.2326875,-4.2762012,20.72929,-15.882272,20.456892,51.97475,2.307045,-2.6452746,-3.2740686
96,-2.8070671558380127,23.372032165527344,75.35394287109375,-4.7134047720066095,10.823154408816302,89.0086179237395,11.362427,7.162661,7.7880244,11.488715,-20.398003,-6.90058,-40.798336,0.97117347,-8.713035,56.079117,-13.006143,6.489871,-7.9656725,3.1136937,7.6722503,-12.445515,15.359006,-23.263344,1.2358836,4.2525616,5.7880216,-4.4230537,20.947851,-15.767088,19.947922,51.633415,2.51084,-2.6049159,-3.2321885
97,-2.6658806800842285,24.20355224609375,75.52267456054688,-4.808658622794124,11.20233019810317,89.09784914928578,11.370496,7.459741,7.5876975,11.6919775,-18.926384,-7.231954,-40.21641,1.38516,-9.02282,53.36487,-12.283431,6.843583,-8.269646,3.2666483,7.4078298,-12.696769,15.748491,-23.684677,0.27195862,3.4642868,5.2390156,-4.650114,21.15625,-15.64075,19.501637,51.259815,2.6615663,-2.6057148,-3.3558812
98,-2.5204875469207764,25.036075592041016,75.66536712646484,-4.809497007509616,11.565349018410181,89.2293929995527,11.291592,7.6679926,7.3206887,12.0819845,-17.441113,-7.586914,-39.54221,1.6546848,-9.332888,50.70217,-11.5633335,7.1871276,-8.561206,3.3291035,7.1481977,-12.927264,16.151648,-24.099014,-0.621092,2.5585115,4.6133695,-4.945615,21.342936,-15.503559,19.097227,50.85536,2.7866864,-2.640419,-3.6028485
99,-2.373833179473877,25.88351058959961,75.78128814697266,-4.75478741010312,11.87254018206091,89.3875777931679,11.156741,7.822961,6.9882054,12.714384,-16.023394,-7.935797,-38.768505,1.8085679,-9.699527,48.230507,-10.930594,7.299048,-8.831967,3.335749,6.9227633,-13.093169,16.554422,-24.494587,-1.4201862,1.515784,3.9174223,-5.2438583,21.498228,-15.36001,18.726488,50.409515,2.8380086,-2.6616113,-3.8931243
100,-2.2295284271240234,26.74073028564453,75.87239074707031,-4.6883483757462345,12.085413862154615,89.55451301062048,10.991538,7.965221,6.5931325,13.653739,-14.7576,-8.242201,-37.893425,1.8757212,-10.182241,46.100918,-10.478305,6.954932,-9.071204,3.3268669,6.760306,-13.153607,16.935078,-24.857584,-2.0955904,0.32188538,3.154881,-5.4807982,21.615559,-15.218026,18.381176,49.9091,2.769265,-2.6208348,-4.146342
101,-2.0854485034942627,27.613174438476562,75.92636108398438,-4.628774296804418,12.216816494927865,89.72473018310883,10.792848,8.124806,6.140899,14.874201,-13.626866,-8.538988,-36.965786,1.8311657,-10.899987,44.38857,-10.061484,5.890475,-9.271402,3.3248158,6.6463037,-13.11764,17.27415,-25.18183,-2.5945654,-1.049775,2.2349577,-5.6279535,21.699606,-15.080542,18.066574,49.357197,2.5383532,-2.486223,-4.359575
102,-1.949779748916626,28.51225471496582,75.9468994140625,-4.563035333415912,12.282211460292356,89.90619126561293,10.544501,8.288096,5.6308403,16.357756,-12.596911,-8.823912,-35.984093,1.6838744,-11.811193,43.03434,-9.711442,4.2937713,-9.433403,3.320227,6.567693,-13.020458,17.564623,-25.477861,-2.9193516,-2.574402,1.1840048,-5.7376533,21.759079,-14.949281,17.778332,48.754986,2.1817837,-2.2880747,-4.568076
103,-1.806216835975647,29.42396354675293,75.93722534179688,-4.485143455311116,12.247065034582628,90.10105012988427,10.26575,8.434802,5.061879,18.15325,-11.713609,-9.00734,-34.870106,1.5185544,-12.716242,41.980457,-9.768299,2.6182725,-9.559818,3.3093581,6.5563693,-12.8558655,17.80632,-25.754227,-3.1274984,-4.1915154,0.18070734,-5.8601637,21.797932,-14.830582,17.495247,48.079514,1.7707146,-2.0707445,-4.7481236
104,-1.6694403886795044,30.35004425048828,75.88239288330078,-4.386762344611824,12.075908552243108,90.31330569082647,9.982087,8.538518,4.436604,20.302076,-11.015476,-9.006613,-33.54082,1.424543,-13.390744,41.144657,-10.545769,1.3188925,-9.656404,3.285963,6.645929,-12.612495,18.004719,-26.017447,-3.2843993,-5.8429403,-0.5943068,-6.034126,21.821667,-14.734524,17.196482,47.303764,1.3763702,-1.8790507,-4.8761744
105,-1.5420608520507812,31.293067932128906,75.77766418457031,-4.240120648703904,11.71339679636101,90.56057579134817,9.7854395,8.552636,3.7507572,22.778193,-10.519097,-8.771051,-31.84343,1.4235283,-13.717128,40.49087,-12.368263,0.51929367,-9.739143,3.22285,6.8643055,-12.278001,18.162664,-26.27976,-3.3997324,-7.6481304,-1.080037,-6.2587175,21.872828,-14.669293,16.85929,46.39638,0.9744128,-1.7067915,-4.897547
106,-1.4186451435089111,32.25188064575195,75.62142944335938,-4.055761372406628,11.19158953524625,90.83497621333788,9.654769,8.503805,3.0128274,25.532728,-10.179948,-8.353899,-29.860817,1.4772207,-13.819534,40.05227,-14.972578,-0.04557655,-9.802093,3.1312847,7.1901603,-11.857383,18.280087,-26.531773,-3.4482534,-9.594206,-1.3742411,-6.506712,21.942648,-14.635206,16.500172,45.36743,0.54292154,-1.5362759,-4.838277
107,-1.3138830661773682,33.22029113769531,75.42953491210938,-3.8881031115965596,10.606038461944943,91.10288376799583,9.454177,8.46068,2.247559,28.560482,-9.939675,-7.8391466,-27.860186,1.5759716,-13.8305,39.837273,-17.778975,-0.49301553,-9.820953,3.0572603,7.5827184,-11.363769,18.36224,-26.744482,-3.443196,-11.427014,-1.5352253,-6.7685084,21.957762,-14.629681,16.16084,44.255424,0.15672287,-1.3950342,-4.7981396
108,-1.202007532119751,34.177127838134766,75.20935821533203,-3.783650262767637,10.053373906379946,91.33125692470536,9.046468,8.479666,1.4810323,31.864693,-9.743508,-7.3190107,-26.110474,1.7039251,-13.876107,39.858818,-20.213623,-0.90953165,-9.774387,3.0452511,8.0004015,-10.807015,18.416424,-26.885227,-3.4002457,-12.892674,-1.6236098,-7.037609,21.838717,-14.648113,15.888754,43.105385,-0.108446315,-1.3095441,-4.8788123
109,-1.0833799839019775,35.11052703857422,74.96122741699219,-3.726918567825272,9.532995442136835,91.52318233997298,8.386396,8.500681,0.6660805,35.583656,-9.5724125,-6.7615747,-24.665731,1.8135864,-13.9596615,40.17452,-22.184994,-1.2646145,-9.657506,3.0763817,8.444013,-10.188003,18.446331,-26.957361,-3.3446782,-13.976745,-1.6319137,-7.315909,21.593555,-14.680053,15.692198,41.91795,-0.1600113,-1.3369657,-5.1194644
110,-0.9626350402832031,36.01626968383789,74.69175720214844,-3.692360852288301,9.00074491824264,91.691251342451,7.5635505,8.475396,-0.18153977,39.66102,-9.447273,-6.1654735,-23.384634,1.9076536,-14.022965,40.76077,-23.984728,-1.5124137,-9.480081,3.123571,8.931365,-9.500647,18.457033,-26.978966,-3.2641482,-14.800005,-1.5386682,-7.5983152,21.248135,-14.719308,15.549218,40.683018,-0.066053554,-1.4479669,-5.464104
111,-0.8472297191619873,36.898841857910156,74.39563751220703,-3.7204072801587875,8.489022754051305,91.81771553062248,6.6206675,8.493039,-0.95368934,43.861507,-9.400535,-5.65644,-22.240108,2.047633,-14.091901,41.49993,-25.613108,-1.7010059,-9.247332,3.2284434,9.450352,-8.726353,18.46037,-26.93237,-3.1397057,-15.311734,-1.3867679,-7.871825,20.763277,-14.78523,15.461427,39.40761,0.013080447,-1.5370579,-5.8664
112,-0.7317454814910889,37.75175094604492,74.06904602050781,-3.8546856538418957,8.031256951341158,91.8859347736378,5.586581,8.677087,-1.5584602,47.975163,-9.484269,-5.3301835,-21.208574,2.3033338,-14.191186,42.275185,-27.067312,-1.8831248,-8.991482,3.4351633,9.98544,-7.826173,18.465456,-26.767248,-2.958076,-15.456355,-1.2181244,-8.131607,20.076176,-14.909056,15.465032,38.11733,-0.07172165,-1.4959209,-6.2867618
113,-0.614845871925354,38.58808517456055,73.72525024414062,-4.138451326532064,7.635859172487061,91.90218254413246,4.4233766,9.102749,-2.0535712,52.1075,-9.687856,-5.2603436,-20.352764,2.7154562,-14.3724165,43.178703,-28.309757,-2.0823681,-8.708982,3.777564,10.544987,-6.799395,18.477303,-26.472048,-2.732418,-15.136714,-1.0665256,-8.417528,19.154797,-15.075779,15.6003475,36.819817,-0.3638122,-1.2710204,-6.78798
114,-0.5080258250236511,39.395084381103516,73.37590789794922,-4.538492039540225,7.285716424314694,91.87276039648103,3.1177456,9.70887,-2.4800255,56.35864,-10.022311,-5.3589296,-19.663935,3.2317612,-14.60285,44.237793,-29.358112,-2.2674513,-8.40696,4.2272105,11.132914,-5.63213,18.49967,-26.049873,-2.4956167,-14.412335,-0.9071406,-8.722055,18.02995,-15.286977,15.860515,35.49675,-0.7718715,-0.9241044,-7.363244
115,-0.4021427035331726,40.18534469604492,73.03203582763672,-4.9793096923976305,6.975363314173801,91.78135244178546,1.7248669,10.45192,-2.7341938,60.519974,-10.574594,-5.4512696,-19.01443,3.7980993,-14.786386,45.234486,-30.287416,-2.4109995,-8.086482,4.721403,11.716996,-4.318309,18.535759,-25.52979,-2.213697,-13.464237,-0.6931047,-8.959764,16.73182,-15.536916,16.16959,34.166878,-1.2708673,-0.52286124,-7.8727584
116,-0.29486632347106934,40.97858810424805,72.7137451171875,-5.388364818802668,6.69940851968302,91.61147578150306,0.3006412,11.299304,-2.7130034,64.372505,-11.42489,-5.3584523,-18.277765,4.3699546,-14.833889,45.944794,-31.168169,-2.4837732,-7.7395396,5.196664,12.264911,-2.8597057,18.586367,-24.950619,-1.8442296,-12.474014,-0.37307683,-9.044707,15.293057,-15.815478,16.445246,32.850735,-1.8419305,-0.13810647,-8.178671
117,-0.21863816678524017,41.77037048339844,72.41460418701172,-5.782648415852496,6.466879960319027,91.30333402439608,-1.1382018,12.342998,-2.3185127,67.913055,-12.722619,-5.034477,-17.450493,4.9917316,-14.699662,46.307106,-32.016514,-2.4707937,-7.3259563,5.6663475,12.771519,-1.2344172,18.638441,-24.29607,-1.3236066,-11.487674,0.0030975642,-8.9349375,13.652996,-16.124096,16.692139,31.635864,-2.5730727,0.22211431,-8.224803
118,-0.17344258725643158,42.57024383544922,72.1479263305664,-6.189600451534397,6.275494447705905,90.88379898311597,-2.6173909,13.599342,-1.6561999,71.25649,-14.394087,-4.558472,-16.591948,5.675734,-14.447048,46.44,-32.79459,-2.394684,-6.85493,6.155995,13.245117,0.54727924,18.683466,-23.562168,-0.6808752,-10.413405,0.43430787,-8.685688,11.819056,-16.458998,16.95029,30.48496,-3.4446695,0.58736813,-8.087859
119,-0.13998520374298096,43.37526321411133,71.91598510742188,-6.554897319031821,6.104619462410181,90.46602142142928,-4.1485133,14.911013,-0.9198224,74.34509,-16.16775,-3.9473727,-15.669974,6.331269,-14.15081,46.389065,-33.49155,-2.2820535,-6.3865876,6.615255,13.677433,2.4286685,18.734701,-22.812824,-0.008395204,-9.226873,1.047308,-8.358901,9.925465,-16.795721,17.180128,29.23764,-4.283992,0.9408871,-7.8349695
120,-0.10014047473669052,44.22142028808594,71.72833251953125,-6.821803011163524,5.935758630261343,90.16331967887572,-5.7563357,16.110844,-0.28756753,77.11274,-17.766497,-3.216957,-14.651489,6.8648267,-13.885019,46.201042,-34.09396,-2.1553235,-5.9767466,6.9885793,14.066308,4.3512783,18.820639,-22.118597,0.5960024,-7.905631,1.9679037,-8.018061,8.105401,-17.099152,17.32744,27.73831,-4.924249,1.2680937,-7.5369563
121,-0.037131041288375854,45.06814956665039,71.57943725585938,-6.980323456621024,5.753014840215497,90.0089519116659,-7.45876,17.222116,0.2534065,79.55908,-19.126078,-2.2953606,-13.5070915,7.250906,-13.662864,45.88903,-34.61212,-2.0067432,-5.6523294,7.25241,14.436183,6.3159027,18.962011,-21.504845,1.1490529,-6.330259,3.456706,-7.5939937,6.3565116,-17.347452,17.360252,25.964,-5.3185625,1.5899485,-7.1603317
122,0.027080031111836433,45.93983459472656,71.47468566894531,-7.0586037707889835,5.571160797753179,89.94082829853006,-9.241989,18.30068,0.7847489,81.709496,-20.39288,-1.202579,-12.259564,7.5357876,-13.447561,45.42927,-35.049564,-1.8289,-5.370639,7.423318,14.781735,8.346443,19.161674,-20.940962,1.6874547,-4.566569,5.381096,-7.107307,4.613972,-17.538982,17.297195,24.010328,-5.569414,1.9031521,-6.6901646
123,0.09645182639360428,46.83024597167969,71.40569305419922,-7.060849198832933,5.418542888508158,89.92927890646436,-11.0943575,19.219831,1.2533524,83.52697,-21.591606,-0.09244579,-10.951692,7.7330356,-13.2382765,44.80636,-35.38198,-1.6406218,-5.0896397,7.504071,15.0583105,10.429386,19.425468,-20.401493,2.1343033,-2.8547838,7.2637906,-6.736218,2.9087188,-17.677637,17.161526,21.902063,-5.7341337,2.164133,-6.227659
124,0.16288256645202637,47.721717834472656,71.3764877319336,-6.9934005650716955,5.323391929944342,89.94493081964524,-13.00846,19.849798,1.613975,84.97582,-22.7333,0.8763647,-9.626484,7.855924,-13.033528,44.005028,-35.58749,-1.4604281,-4.769468,7.50004,15.222813,12.566635,19.762913,-19.854595,2.3941696,-1.4235901,8.615832,-6.6218724,1.2684325,-17.77027,16.981339,19.66331,-5.86594,2.3284843,-5.872838
125,0.2351844161748886,48.60857009887695,71.38346862792969,-6.857639046349749,5.289108775048899,90.02078020591976,-15.037139,20.14362,1.8298552,86.061195,-23.848732,1.7096657,-8.282949,7.902344,-12.869014,43.018185,-35.689976,-1.3007945,-4.438037,7.4127126,15.273079,14.815262,20.18967,-19.274895,2.4138014,-0.27051273,9.242267,-6.804009,-0.3170031,-17.816864,16.76779,17.277979,-5.937574,2.322978,-5.6800804
126,0.3127070963382721,49.53323745727539,71.43439483642578,-6.650564777688859,5.301206588980572,90.1591026533384,-17.165798,20.159431,1.9630691,86.79128,-24.904139,2.4666998,-6.901252,7.864947,-12.735574,41.855385,-35.69264,-1.147879,-4.1116595,7.234163,15.234982,17.191168,20.709084,-18.660112,2.2163556,0.70497096,9.415961,-7.1779203,-1.8655512,-17.818478,16.509464,14.744421,-5.930521,2.1929545,-5.589636
127,0.38326892256736755,50.43379592895508,71.52259063720703,-6.371636188749595,5.361009820448015,90.28431633514614,-19.283623,19.93556,2.1200166,87.132286,-25.805092,3.0666873,-5.499457,7.7493453,-12.565475,40.531693,-35.541267,-0.9807869,-3.7303967,6.9643326,15.10769,19.63368,21.303581,-18.014532,1.8220481,1.4249572,9.34916,-7.653404,-3.3540819,-17.782957,16.201067,12.095315,-5.907629,2.0714974,-5.5291986
128,0.45569920539855957,51.3834114074707,71.66011047363281,-6.017705428850457,5.470574071330652,90.32059942096957,-21.27971,19.524025,2.4062343,87.05354,-26.464966,3.4363048,-4.097347,7.5587597,-12.29001,39.065174,-35.18687,-0.77934164,-3.2327487,6.6076956,14.88884,22.069893,21.942087,-17.350447,1.2692783,1.8195742,9.257272,-8.148855,-4.753924,-17.72314,15.837982,9.356943,-5.9320035,2.0919192,-5.4254265
129,0.513369619846344,52.34684371948242,71.8370361328125,-5.586450671367504,5.643175048104747,90.24448126048159,-23.161392,18.907694,2.8491502,86.518654,-26.830868,3.5042381,-2.6956909,7.2973847,-11.868539,37.416218,-34.65154,-0.5528941,-2.6011791,6.1704082,14.562985,24.514912,22.607494,-16.659279,0.5383256,1.781072,9.12246,-8.698868,-6.0581245,-17.64802,15.39671,6.4725432,-6.0835137,2.3361466,-5.221692
130,0.5571813583374023,53.34994888305664,72.05950164794922,-5.080747852872243,5.873667915192956,90.09769279476805,-24.967314,18.08399,3.4049773,85.54275,-26.95189,3.3241124,-1.2870975,6.9578147,-11.346526,35.592945,-33.952454,-0.3070696,-1.8707983,5.655386,14.140295,26.996246,23.292896,-15.935575,-0.36960948,1.3793459,8.861797,-9.330366,-7.276017,-17.559647,14.8898325,3.4390209,-6.306134,2.7171926,-4.9698524
131,0.6041189432144165,54.38215255737305,72.32510375976562,-4.514816636869922,6.137719780102714,89.902118071603,-26.635214,17.129004,4.0641866,84.17182,-26.898252,3.0086699,0.11949775,6.5269203,-10.783209,33.683537,-33.03197,-0.015729608,-1.0596507,5.063189,13.653129,29.4409,23.978502,-15.205928,-1.3619298,0.8216549,8.589898,-9.953747,-8.404552,-17.463923,14.367263,0.3658965,-6.460729,3.116905,-4.759086
132,0.6353275775909424,55.45857620239258,72.63282012939453,-3.902194824175962,6.411601714156281,89.6803944634604,-28.107584,16.112171,4.8078647,82.45592,-26.738327,2.6676452,1.5147736,5.9961843,-10.239056,31.773762,-31.827433,0.3490615,-0.1875474,4.402133,13.133801,31.756994,24.6388,-14.505267,-2.3321958,0.3237812,8.417401,-10.476377,-9.436793,-17.369286,13.878911,-2.640659,-6.4057436,3.4190512,-4.6811686
133,0.6694552302360535,56.56934356689453,72.9839096069336,-3.2188015756846227,6.688960316569361,89.41091250978819,-29.352146,15.013689,5.667514,80.35608,-26.521122,2.2969131,2.928935,5.3396835,-9.685744,29.825089,-30.335836,0.8249721,0.76544523,3.6525626,12.586606,33.916668,25.265778,-13.853173,-3.26688,-0.120542705,8.388437,-10.858516,-10.382885,-17.282042,13.432986,-5.600521,-6.1269255,3.6756122,-4.765342
134,0.6934317946434021,57.70180130004883,73.36170196533203,-2.4704425520810163,6.98443822972494,89.09247116736151,-30.404308,13.808874,6.6269155,77.84959,-26.198328,1.843549,4.3470736,4.576337,-9.104529,27.816795,-28.587137,1.3867077,1.7904075,2.8243072,12.005707,35.956924,25.860388,-13.235324,-4.2019134,-0.5928661,8.437499,-11.154574,-11.240986,-17.20597,13.012804,-8.562945,-5.689999,3.9205186,-4.9650702
135,0.7131344676017761,58.87432861328125,73.77201080322266,-1.7159850617489074,7.303936196179088,88.77928916394875,-31.30966,12.557781,7.5936193,75.01719,-25.70079,1.3534081,5.690186,3.7707448,-8.566841,25.873919,-26.581085,1.966352,2.8235512,1.9749275,11.4053135,37.867912,26.40974,-12.6389065,-5.0920453,-0.9863449,8.503814,-11.412139,-11.988168,-17.148033,12.630095,-11.464077,-5.0721655,4.011655,-5.2558427
136,0.7384952902793884,60.056060791015625,74.20903778076172,-1.0139057346775755,7.6510889185278534,88.52555076386784,-32.112152,11.318895,8.475622,71.942856,-24.961502,0.87152284,6.8871007,2.9897933,-8.142349,24.11854,-24.313625,2.497208,3.7999282,1.1667159,10.794024,39.63014,26.891027,-12.051373,-5.8822446,-1.1905683,8.525901,-11.680189,-12.61016,-17.11659,12.29939,-14.22774,-4.2506366,3.804633,-5.6093397
137,0.7571038603782654,61.27035140991211,74.6617431640625,-0.3564773914884366,8.036113534756106,88.33992124239256,-32.82334,10.073881,9.261583,68.594536,-24.016972,0.44133872,7.932745,2.2182407,-7.856801,22.56382,-21.75594,2.9854062,4.7044096,0.39590663,10.159216,41.223755,27.289646,-11.478721,-6.5390463,-1.1782312,8.4824505,-11.930103,-13.139166,-17.121058,12.0444355,-16.830753,-3.162442,3.2570305,-6.060453
138,0.7834465503692627,62.50703811645508,75.12852478027344,0.2734544757976114,8.450480292644412,88.19800366189727,-33.412323,8.800321,9.977724,64.93516,-22.883917,0.029829219,8.862874,1.4449733,-7.66156,21.1605,-18.926205,3.4592683,5.558358,-0.35169604,9.504026,42.649414,27.604778,-10.927634,-7.0864654,-0.9967156,8.404815,-12.152098,-13.581603,-17.162909,11.862584,-19.313326,-1.8408947,2.4400127,-6.5965843
139,0.7922449111938477,63.76397705078125,75.60212707519531,0.8319979025764475,8.86893052214286,88.10286336427798,-33.85918,7.551526,10.59179,61.042816,-21.469915,-0.42869198,9.662681,0.74021554,-7.5159297,19.956743,-15.888054,3.8887112,6.3539042,-1.0297772,8.853541,43.918232,27.835146,-10.384967,-7.5565476,-0.64857686,8.310545,-12.423784,-13.893,-17.23716,11.728203,-21.686666,-0.4108019,1.3856949,-7.1125517
140,0.8060130476951599,65.03788757324219,76.06731414794922,1.2768836201877183,9.266689520739682,88.05668478107566,-34.150734,6.3782816,11.071683,57.002415,-19.684702,-0.9990302,10.306358,0.16966698,-7.382131,19.017855,-12.709718,4.2466264,7.0838566,-1.5934914,8.2288685,45.044147,27.979929,-9.835482,-7.9827166,-0.13634989,8.216121,-12.822557,-14.033756,-17.33484,11.615198,-23.95105,1.006455,0.13239177,-7.506887
141,0.8209278583526611,66.32992553710938,76.53009033203125,1.6167489210173198,9.679706830840223,88.0667768751325,-34.30368,5.273615,11.420637,52.70452,-17.300722,-1.6934383,10.733039,-0.2807646,-7.2849135,18.35071,-9.244159,4.540217,7.756302,-2.054669,7.595426,46.005367,28.035458,-9.264937,-8.353383,0.6444352,8.108421,-13.432171,-14.008089,-17.44919,11.515547,-26.08294,2.5567546,-1.4561371,-7.7494154
142,0.8410139083862305,67.63614654541016,76.97435760498047,1.8666962743395008,10.105848440188922,88.12544885398538,-34.305576,4.205188,11.628468,48.122566,-14.425019,-2.478947,10.976712,-0.6365103,-7.2274523,17.920925,-5.499505,4.7958326,8.370126,-2.4301112,6.9490914,46.805637,28.00392,-8.680865,-8.661576,1.6626484,7.9748797,-14.189737,-13.85466,-17.577503,11.447808,-28.071388,4.247665,-3.346602,-7.866003
143,0.8550329804420471,68.95867156982422,77.39793395996094,2.0020913007729777,10.463339559814093,88.20755808864364,-34.09941,3.1891887,11.649399,43.459103,-11.45761,-3.3516576,11.18285,-0.8552175,-7.1479087,17.663475,-1.7332383,5.0058026,8.912878,-2.6904876,6.3569016,47.498726,27.897627,-8.099351,-8.95026,2.710002,7.8371663,-14.953651,-13.578122,-17.716908,11.421368,-29.949053,5.755494,-5.240114,-7.8696084
144,0.8748357892036438,70.27156066894531,77.78632354736328,2.001734199191418,10.669750925202482,88.28880189931914,-33.631615,2.2607038,11.448899,38.924957,-8.807181,-4.301981,11.504037,-0.89051694,-6.9947805,17.495285,1.804818,5.1428175,9.377277,-2.8044016,5.8881745,48.141006,27.735258,-7.538405,-9.268008,3.576491,7.7275195,-15.583648,-13.171244,-17.865677,11.438368,-31.756645,6.7541747,-6.839556,-7.808111
145,0.913195013999939,71.60137176513672,78.13214111328125,1.8323315118508061,10.71216799820756,88.3629173908822,-32.86332,1.4261471,10.922779,34.42086,-6.497147,-5.382098,12.006571,-0.7140145,-6.7776628,17.289701,5.2240386,5.198181,9.776872,-2.741126,5.548282,48.7436,27.52786,-6.9891624,-9.633203,4.2438498,7.6694593,-16.08111,-12.614448,-18.02473,11.481665,-33.541878,7.087103,-8.060947,-7.675456
146,0.9401740431785583,72.9417724609375,78.42853546142578,1.5064289205407146,10.626737332313079,88.43653591832981,-31.812843,0.71993965,10.113992,29.869358,-4.3405743,-6.565732,12.615694,-0.34692603,-6.530213,17.095507,8.627553,5.1608567,10.126412,-2.5113454,5.306109,49.28199,27.27956,-6.44744,-10.030417,4.807115,7.647005,-16.508307,-11.906768,-18.195482,11.543926,-35.28197,6.9543147,-9.064278,-7.483643
147,0.9801332950592041,74.3158950805664,78.67156219482422,1.070837452785188,10.409103044992397,88.50713902496229,-30.542696,0.20733058,9.246442,25.551825,-2.440088,-7.7240033,13.270494,0.16490684,-6.244669,17.092016,11.756024,4.990937,10.418666,-2.158014,5.176313,49.76097,27.000875,-5.9364066,-10.459747,5.225852,7.6416893,-16.816738,-11.06777,-18.378231,11.641433,-36.9202,6.558142,-9.921891,-7.320825
148,1.027287483215332,75.70000457763672,78.85904693603516,0.5939288631836342,10.064029487745948,88.57659951583604,-29.153118,-0.09264528,8.571065,21.785341,-0.90306705,-8.735291,13.891355,0.75028926,-5.914131,17.482622,14.32869,4.6582084,10.643557,-1.7459928,5.1690555,50.184925,26.706205,-5.479892,-10.919332,5.457514,7.635884,-16.956825,-10.11524,-18.570997,11.789274,-38.398495,6.099527,-10.703398,-7.268739
149,1.0739432573318481,77.07149505615234,78.98885345458984,0.07408521911986525,9.557768196602764,88.66824196449448,-27.628315,-0.1952735,8.158465,18.628344,0.1580026,-9.622633,14.517535,1.4055655,-5.5577774,18.319622,16.238249,4.0625205,10.78135,-1.2682676,5.3100605,50.574085,26.408602,-5.0818677,-11.426602,5.4344335,7.6257634,-16.885256,-9.042154,-18.775799,11.997867,-39.725124,5.51856,-11.407373,-7.3649235
150,1.110032081604004,78.44780731201172,79.06240844726562,-0.49571841741971423,8.913707115139815,88.78965834679579,-25.983328,-0.14905882,7.9175754,15.974622,0.81049687,-10.431788,15.164194,2.1124263,-5.1916337,19.502045,17.638353,3.2356706,10.83636,-0.72391444,5.5784774,50.917557,26.112385,-4.732859,-11.97615,5.1925917,7.622396,-16.636984,-7.83814,-18.994162,12.250173,-40.928326,4.742018,-12.001411,-7.5645905
151,1.1571776866912842,79.81754302978516,79.09463500976562,-1.0326135839500503,8.22905903850142,88.92571972252347,-24.382204,-0.034573924,7.8562326,13.9099045,1.2169515,-11.085719,15.695306,2.7704804,-4.7991695,21.031353,18.62266,2.3703532,10.82457,-0.20680474,5.911598,51.170082,25.817118,-4.435922,-12.526199,4.845523,7.6290026,-16.27993,-6.518767,-19.219963,12.522633,-41.97177,3.9505296,-12.508134,-7.818983
152,1.2014681100845337,81.16490173339844,79.07830047607422,-1.4558473867268513,7.596081402447006,89.05649459207524,-22.988874,0.07169596,7.9681273,12.54153,1.5315622,-11.512648,15.984843,3.3054109,-4.356575,22.889362,19.299904,1.677025,10.7626095,0.19140379,6.2488556,51.285477,25.519442,-4.1923823,-13.032749,4.5081606,7.6502094,-15.881963,-5.1027575,-19.442581,12.794388,-42.816566,3.3244112,-12.951436,-8.074961
153,1.2450671195983887,82.50088500976562,79.01512908935547,-1.7677684813911254,7.0219799789312685,89.18612537381934,-21.827934,0.17000562,8.291883,11.92697,2.0244267,-11.993557,15.996253,3.7940922,-3.7954578,25.13074,19.66736,1.1864688,10.64111,0.47262847,6.58502,51.262608,25.216658,-4.000096,-13.495777,4.142752,7.696651,-15.427648,-3.5929265,-19.652157,13.077021,-43.425415,2.912537,-13.372309,-8.342115
154,1.2865747213363647,83.80896759033203,78.8896484375,-2.002881692960255,6.459295842665181,89.33279376808184,-20.836573,0.26948076,8.802072,12.052665,2.5131464,-12.477121,15.791687,4.2642508,-3.1440785,27.778336,19.660192,0.8217689,10.438788,0.6736126,6.94947,51.12093,24.908602,-3.856582,-13.925393,3.711121,7.760346,-14.89119,-1.9960655,-19.8467,13.385696,-43.8104,2.615302,-13.747371,-8.633688
155,1.3146641254425049,85.1123275756836,78.71277618408203,-2.1255115965692046,5.912730883338398,89.48671405957512,-20.033937,0.32591727,9.403536,12.905368,2.4825082,-12.392103,15.399864,4.5915685,-2.5157294,30.752836,19.304407,0.6411437,10.165223,0.76197827,7.3368106,50.84633,24.595385,-3.7636676,-14.294664,3.3282585,7.8212366,-14.326024,-0.34145156,-20.027964,13.702972,-43.986217,2.394972,-14.012142,-8.901074
156,1.3598445653915405,86.40617370605469,78.48965454101562,-2.1023223751547246,5.3851964614503,89.62919468987815,-19.424465,0.30171242,10.003971,14.4432335,1.435843,-11.165826,14.866838,4.65362,-2.0174015,33.941845,18.642323,0.69568646,9.841599,0.7101736,7.7430587,50.42619,24.278208,-3.7235184,-14.581109,3.108913,7.861998,-13.785905,1.3534439,-20.199854,14.007134,-43.989132,2.215381,-14.099534,-9.097071
157,1.3734298944473267,87.68108367919922,78.23696899414062,-1.9180421500787737,4.8462907012464855,89.76118228158002,-19.080961,0.18588072,10.527516,16.981167,-1.080189,-8.003807,14.267977,4.449249,-1.6717827,37.334347,17.59454,1.1298734,9.46534,0.5032959,8.188826,49.88481,23.960283,-3.733863,-14.798432,3.131966,7.8831015,-13.263907,3.1241782,-20.36133,14.297486,-43.837116,2.099556,-13.946515,-9.189128
158,1.3780546188354492,88.94573211669922,77.9354019165039,-1.6641172988010762,4.277478279321926,89.86055042026622,-18.947657,0.007182422,10.906967,20.413206,-4.6305723,-3.4102619,13.607635,4.1323967,-1.4088598,40.940254,16.186527,1.8642648,9.059913,0.23498169,8.676687,49.233734,23.641157,-3.7958522,-14.965346,3.318166,7.8964596,-12.737851,4.9719815,-20.512863,14.582159,-43.512474,2.0582094,-13.603776,-9.20721
159,1.382773995399475,90.21678924560547,77.5746841430664,-1.4259277602053932,3.718768781466597,89.8879882054003,-18.835312,-0.23791605,11.126636,24.011065,-8.389632,1.2223212,12.799859,3.7479928,-1.2008687,44.695442,14.619269,2.6189654,8.671463,-0.010180465,9.168209,48.435238,23.31518,-3.9141045,-15.060416,3.5470064,7.9022613,-12.239099,6.8196006,-20.665651,14.850908,-42.979862,2.0383315,-13.177251,-9.199479
160,1.3854897022247314,91.4863510131836,77.1633529663086,-1.2004159958923062,3.2349993580893246,89.83128250196418,-18.570066,-0.53337646,11.319737,27.053328,-11.648029,4.4821124,11.718206,3.2431562,-1.015181,48.582745,13.0717125,3.139056,8.318468,-0.23406766,9.617122,47.434788,22.973934,-4.091839,-15.044669,3.6978488,7.8972673,-11.8003025,8.59018,-20.833668,15.095237,-42.20409,1.9878509,-12.774195,-9.219245
161,1.353805422782898,92.70298767089844,76.7391586303711,-0.9211134447631487,2.8580191347572437,89.68350312931781,-18.153677,-0.81822675,11.620568,29.508137,-14.445062,5.83221,10.294776,2.508824,-0.8396395,52.708942,11.554657,3.4321194,8.0105295,-0.4929826,10.00498,46.20938,22.593796,-4.3266497,-14.887599,3.7926228,7.856988,-11.478189,10.265542,-21.031454,15.315246,-41.15204,1.9630818,-12.4416895,-9.27202
162,1.3030259609222412,93.89131164550781,76.28295135498047,-0.5565363148562076,2.5690250897541898,89.4702457579963,-17.702427,-1.075979,11.997849,31.783283,-17.179474,6.072051,8.593744,1.5555673,-0.67972714,57.063683,9.974078,3.629997,7.70908,-0.81820685,10.34766,44.787903,22.163994,-4.607047,-14.605401,3.8820577,7.78857,-11.241959,11.878983,-21.260447,15.524513,-39.84783,1.9709189,-12.117848,-9.341957
163,1.243957281112671,95.06454467773438,75.79946899414062,-0.12568681523015915,2.36498226771441,89.23634671559661,-17.258383,-1.3261638,12.412463,33.91311,-19.779116,5.7985826,6.675239,0.46372563,-0.5095287,61.451393,8.359412,3.6687655,7.360809,-1.2098727,10.646116,43.18829,21.706514,-4.923013,-14.22652,3.8844965,7.733949,-10.990421,13.439709,-21.506384,15.727733,-38.34257,1.8851321,-11.746576,-9.446288
164,1.1824424266815186,96.21553039550781,75.28914642333984,0.3414438364822594,2.236955518075955,89.02111206751084,-16.8364,-1.6393471,12.797572,35.853947,-22.136497,5.609065,4.594506,-0.6833754,-0.3001858,65.67205,6.746674,3.471653,6.933248,-1.6567756,10.901938,41.420914,21.264866,-5.274083,-13.780919,3.708594,7.735765,-10.618961,14.977583,-21.743101,15.914413,-36.70008,1.5799851,-11.270752,-9.595894
165,1.1323425769805908,97.35369873046875,74.76841735839844,0.8748650028002082,2.20850863591801,88.79305708943738,-16.488274,-2.0981624,13.199803,37.610104,-24.204187,5.5719423,2.268707,-1.9144133,0.049162406,69.803474,5.1012125,2.903592,6.4708314,-2.2046094,11.088739,39.464993,20.863256,-5.6680694,-13.234345,3.1836553,7.806725,-10.073469,16.491886,-21.946665,16.079525,-34.787395,1.081934,-10.787696,-9.80252
166,1.0790913105010986,98.50323486328125,74.2651596069336,1.483170393002122,2.2789276854683407,88.54631904564889,-16.197248,-2.6485353,13.650075,39.21231,-26.046764,5.401759,-0.310511,-3.2543092,0.53693575,73.900665,3.428743,2.0399342,5.9980497,-2.8580997,11.204292,37.31903,20.501738,-6.1033874,-12.58904,2.3885117,7.9173617,-9.409208,17.993687,-22.107018,16.208202,-32.6246,0.43729383,-10.289191,-10.044855
167,1.0604256391525269,99.64227294921875,73.81413269042969,2.091526249974608,2.396727974440456,88.35420432021463,-15.855858,-3.211118,14.041794,40.582752,-27.700733,5.1694727,-2.9856398,-4.628425,1.0186936,77.739265,1.8254367,1.1051275,5.46224,-3.5326853,11.287952,35.010727,20.194378,-6.5773807,-11.926732,1.6047047,8.050667,-8.684514,19.536224,-22.219948,16.26991,-30.515306,-0.4466276,-9.556984,-10.276954
168,1.0720715522766113,100.75414276123047,73.42445373535156,2.624683748987774,2.5071432035505863,88.28868707758221,-15.355499,-3.7226365,14.273832,41.626144,-29.196396,4.945701,-5.598665,-5.9922366,1.3229697,81.10444,0.38194296,0.3097216,4.81933,-4.142254,11.381716,32.559303,19.964954,-7.099778,-11.328207,1.1103634,8.198065,-7.957643,21.17253,-22.285213,16.228716,-28.765472,-1.6591763,-8.371195,-10.444261
169,1.1186152696609497,101.86894989013672,73.0877456665039,3.0906847877273735,2.6150677474246637,88.38902029179059,-14.676428,-4.2197714,14.330047,42.269836,-30.519445,4.7552457,-8.163275,-7.417073,1.3772355,83.97339,-0.79381764,-0.30694684,4.046561,-4.7076726,11.492676,29.887732,19.840075,-7.7168317,-10.777024,1.0081319,8.420474,-7.172629,22.944649,-22.281626,16.061289,-27.454891,-3.4190993,-6.3247294,-10.506894
170,1.1768370866775513,102.98870849609375,72.79105377197266,3.5225920166868994,2.7390667962916253,88.61074525431545,-13.873788,-4.7528825,14.278256,42.557583,-31.653553,4.5738425,-10.753388,-8.934348,1.2722476,86.46265,-1.7805542,-0.8754863,3.1961951,-5.268883,11.594898,26.996006,19.81657,-8.437145,-10.247916,1.1166235,8.7095995,-6.3128037,24.81729,-22.191355,15.785944,-26.40998,-5.608454,-3.6497242,-10.430398
171,1.2403496503829956,104.12460327148438,72.53337860107422,3.87988750099339,2.8444731431684365,88.89819173503689,-12.94495,-5.2656813,14.135865,42.572758,-32.62775,4.3930783,-13.292179,-10.445217,1.059091,88.5657,-2.770734,-1.4306988,2.3276997,-5.7628903,11.6893,24.0124,19.863428,-9.217296,-9.796407,1.3016474,8.957838,-5.503377,26.726625,-22.033665,15.435903,-25.549706,-7.8195605,-1.0928452,-10.219607
172,1.2923413515090942,105.28348541259766,72.32872009277344,4.1200078689526975,2.8983381076760795,89.19493907096304,-11.879135,-5.6830473,13.91178,42.401974,-33.469643,4.1896014,-15.698665,-11.832303,0.7797189,90.27,-3.9533987,-1.9917176,1.4865474,-6.1153,11.785976,21.064207,19.937927,-10.005106,-9.466657,1.4468606,9.052202,-4.877268,28.63039,-21.857643,15.04182,-24.834173,-9.638767,0.60448706,-9.974757
173,1.3407433032989502,106.41967010498047,72.17669677734375,4.232806055369404,2.858647365207694,89.50492902533547,-10.633666,-5.974882,13.5831175,42.078697,-34.20739,3.938575,-17.91801,-13.098997,0.3944873,91.56625,-5.457522,-2.5119386,0.65792423,-6.290343,11.935958,18.09302,20.014593,-10.833428,-9.219313,1.5817149,8.938105,-4.467928,30.57855,-21.711555,14.603451,-24.310978,-11.03304,1.1392052,-9.858587
174,1.3787108659744263,107.55867767333984,72.08002471923828,4.2335687964841116,2.7545751665335563,89.85178038139219,-9.221183,-6.155166,13.143749,41.560886,-34.819973,3.6468205,-19.989182,-14.277581,-0.13351898,92.459526,-7.1518364,-2.9706912,-0.1957518,-6.318819,12.12977,15.051559,20.08089,-11.716929,-9.03009,1.7621939,8.682009,-4.212592,32.606277,-21.605408,14.112789,-24.033907,-12.179146,0.9493332,-9.846301
175,1.4135733842849731,108.72908020019531,72.04048919677734,4.121242578206596,2.6616186460800524,90.20777423756623,-7.7156177,-6.2009897,12.629533,40.82887,-35.271393,3.3269317,-21.970701,-15.282184,-0.7610772,92.953384,-8.833842,-3.415109,-1.0699416,-6.220004,12.288677,12.080844,20.12151,-12.570848,-8.950224,1.9247545,8.348199,-4.104985,34.646713,-21.532104,13.584916,-23.973513,-12.979049,0.41080868,-9.789281
176,1.4472864866256714,109.92525482177734,72.05909729003906,3.8958248997755676,2.655001497369929,90.54494525024907,-6.1897645,-6.101316,12.080434,39.860115,-35.522503,2.9984572,-23.922474,-16.03464,-1.4488342,93.05103,-10.305968,-3.9057546,-1.9623888,-6.0090175,12.33197,9.327683,20.128622,-13.307001,-9.029403,2.0135887,8.001119,-4.142834,36.618595,-21.480589,13.037694,-24.081976,-13.340896,-0.104407996,-9.517729
177,1.4888570308685303,111.14836883544922,72.13815307617188,3.5329688702261235,2.759647399155819,90.87137156601806,-4.6728525,-5.833849,11.473798,38.650063,-35.618034,2.680318,-25.865217,-16.512108,-2.2624805,92.73181,-11.589864,-4.465753,-2.8824055,-5.6483517,12.234723,6.7921524,20.099337,-13.908624,-9.278221,2.0485885,7.6343822,-4.410786,38.558323,-21.449781,12.425928,-24.427822,-13.091357,-0.6026529,-8.877272
178,1.5377368927001953,112.36743927001953,72.26871490478516,3.041091109835688,2.9354628119851935,91.19457232820001,-3.1288059,-5.4017506,10.807028,37.217415,-35.565536,2.3569467,-27.741695,-16.740759,-3.2333255,91.98945,-12.766808,-5.041527,-3.8294616,-5.1301556,12.048537,4.397542,20.040268,-14.438292,-9.6452,2.054154,7.2195888,-4.884434,40.5025,-21.442165,11.751197,-25.01729,-12.323564,-1.2352939,-7.983506
179,1.614332914352417,113.6230697631836,72.45441436767578,2.4692415114646296,3.159290071930609,91.48521299431475,-1.5309072,-4.8460436,10.149848,35.57037,-35.269444,2.001311,-29.506102,-16.715162,-4.2584133,90.85103,-13.7237015,-5.5842,-4.779315,-4.5150256,11.803849,2.1745327,19.970642,-14.925658,-10.090773,1.9804559,6.7902875,-5.3994327,42.362804,-21.451488,11.100354,-25.69243,-11.354843,-1.8532618,-7.0686035
180,1.69503915309906,114.9154281616211,72.69059753417969,1.8702289973404205,3.4067236082830785,91.71494541350307,0.1512566,-4.215363,9.570564,33.705105,-34.627342,1.5833385,-31.123877,-16.44027,-5.225009,89.34626,-14.345109,-6.0578246,-5.704918,-3.8736732,11.529355,0.16195408,19.91853,-15.39306,-10.591781,1.7775735,6.382555,-5.7926073,44.037216,-21.47193,10.561899,-26.290218,-10.516599,-2.3250303,-6.374091
181,1.779772162437439,116.22935485839844,72.96891021728516,1.2399547462864655,3.663322733608634,91.88699175456115,2.006178,-3.5195477,9.040138,31.469234,-33.610077,1.092259,-32.588036,-15.921071,-6.1389966,87.46835,-14.586086,-6.525651,-6.6243653,-3.2208757,11.2376585,-1.5913494,19.914227,-15.816345,-11.20832,1.424789,6.005923,-6.028022,45.479588,-21.506239,10.169089,-26.774727,-9.844777,-2.636074,-5.9720483
182,1.871172308921814,117.58393859863281,73.28789520263672,0.5619350739380194,3.9440312085421327,92.01105715030009,3.9808748,-2.744401,8.545632,28.913387,-32.26911,0.53825456,-33.911457,-15.155598,-7.053547,85.19971,-14.515152,-6.985444,-7.5036464,-2.5127683,10.916193,-3.1487994,19.95269,-16.248747,-11.920929,0.9363418,5.64318,-6.1722,46.80792,-21.561068,9.823269,-27.277487,-9.174061,-2.8586414,-5.727003
183,1.9828637838363647,118.96570587158203,73.63560485839844,-0.13498336807481193,4.265591735576357,92.06883058543582,5.9005795,-1.9157107,8.16919,26.34011,-30.621822,-0.06961599,-35.103447,-14.154681,-7.9085073,82.55695,-14.182797,-7.3174605,-8.345853,-1.7873392,10.556755,-4.4996653,20.045788,-16.65217,-12.704381,0.33799005,5.29191,-6.2701254,47.951168,-21.630697,9.569395,-27.719007,-8.58775,-2.9960225,-5.596562
184,2.1005523204803467,120.37800598144531,74.00308227539062,-0.8147506579614527,4.643627792966982,92.04245940037772,7.598458,-1.0636193,7.9798913,24.05866,-28.692175,-0.7115105,-36.17913,-12.9394045,-8.62979,79.55362,-13.634186,-7.4081764,-9.109198,-1.0650129,10.149651,-5.6871777,20.19642,-17.056784,-13.494981,-0.35487813,4.949947,-6.344375,48.919746,-21.706001,9.390164,-28.081324,-8.148946,-3.0538697,-5.53001
185,2.228827476501465,121.79987335205078,74.38916015625,-1.4949111390020207,5.085157419678273,91.89982820774394,9.088189,-0.17136657,8.015854,22.072016,-26.428673,-1.4132742,-37.166183,-11.447594,-9.140688,76.1357,-12.898075,-7.2896805,-9.762687,-0.32977587,9.684589,-6.7279577,20.42059,-17.477402,-14.281724,-1.1516461,4.6174836,-6.3768125,49.693745,-21.788916,9.297052,-28.347425,-7.8825397,-3.0149136,-5.566287
186,2.3499202728271484,123.22977447509766,74.7769775390625,-2.177467930214609,5.57372886233031,91.65738683508408,10.449988,0.7427794,8.208144,20.253317,-23.849024,-2.1636398,-38.042877,-9.723783,-9.459705,72.30226,-11.946944,-7.0230255,-10.325511,0.41356054,9.172375,-7.597302,20.726942,-17.899809,-15.110077,-2.0594435,4.295381,-6.3609624,50.27893,-21.882618,9.28241,-28.536001,-7.753146,-2.8854837,-5.7145076
187,2.4832451343536377,124.668212890625,75.17024230957031,-2.8067730082107714,6.090920341051453,91.3712044061904,11.621127,1.6047316,8.460133,18.71868,-21.076277,-2.8884883,-38.755795,-7.9497814,-9.649387,68.13931,-10.736963,-6.5400085,-10.840689,1.1139325,8.632833,-8.274944,21.098635,-18.294971,-15.992089,-3.0507913,3.9802883,-6.344604,50.706078,-21.97074,9.315008,-28.674423,-7.739721,-2.7041512,-5.879205
188,2.596208095550537,126.1051025390625,75.55531311035156,-3.333087445286092,6.621966351611486,91.09879024406297,12.533668,2.351941,8.68191,17.58107,-18.22711,-3.5197518,-39.26053,-6.2919483,-9.777724,63.727303,-9.219948,-5.766785,-11.34367,1.7284565,8.082653,-8.758739,21.503265,-18.642437,-16.916582,-4.091008,3.670106,-6.3774157,51.015396,-22.02471,9.35607,-28.79038,-7.827025,-2.5094957,-5.9612875
189,2.716414451599121,127.55919647216797,75.93054962158203,-3.755134749955479,7.212392162558559,90.83500783038416,13.117521,2.997101,8.906135,16.865444,-15.206243,-4.099799,-39.582493,-4.751868,-9.821386,58.931202,-7.2441325,-4.62308,-11.821773,2.2776992,7.47941,-9.086029,21.93105,-18.959368,-17.857483,-5.244756,3.3612227,-6.4838,51.21129,-22.021889,9.388297,-28.877752,-8.053206,-2.3095086,-5.9402924
190,2.841148853302002,129.02975463867188,76.29244232177734,-4.096213918629469,7.854743162340393,90.56271503185812,13.433197,3.5684512,9.14343,16.500364,-11.982949,-4.6617966,-39.71718,-3.260231,-9.713712,53.714832,-4.872311,-3.175293,-12.250107,2.777509,6.8231378,-9.279354,22.383862,-19.263334,-18.795473,-6.496822,3.058683,-6.638207,51.285004,-21.95642,9.421028,-28.92667,-8.422211,-2.085588,-5.859195
191,2.9540112018585205,130.5173797607422,76.63624572753906,-4.340191668653324,8.459108646903823,90.32578691736589,13.601334,4.0335245,9.289511,16.452227,-8.761713,-5.12357,-39.59356,-1.8734864,-9.473658,48.3163,-2.3764708,-1.5635047,-12.648538,3.1839347,6.192153,-9.322595,22.837381,-19.535707,-19.719196,-7.688978,2.772996,-6.8148093,51.26585,-21.828306,9.448258,-28.960114,-8.868747,-1.836723,-5.7140217
192,3.0653536319732666,132.0089569091797,76.9476318359375,-4.474949322142815,8.934672295978709,90.16454646933947,13.7525625,4.3663073,9.263126,16.665977,-5.736108,-5.3940797,-39.149002,-0.6478465,-9.149592,42.984047,-0.022162996,0.06650386,-13.03313,3.4662554,5.66573,-9.211228,23.250168,-19.759924,-20.604172,-8.6569605,2.512121,-6.9886575,51.189964,-21.642939,9.460137,-29.005777,-9.326048,-1.5614707,-5.502864
193,3.171701669692993,133.51025390625,77.22776794433594,-4.476922319883612,9.274204847476089,90.10615187515236,13.898083,4.544223,9.067156,17.095373,-2.8004663,-5.4339323,-38.320168,0.40854275,-8.703583,37.55349,2.2129083,1.7372317,-13.42647,3.6108463,5.2412868,-8.944707,23.585983,-19.912083,-21.41059,-9.301872,2.2615395,-7.2136602,51.088177,-21.395025,9.427811,-29.093786,-9.846716,-1.2203432,-5.157612
194,3.2686994075775146,135.03758239746094,77.47062683105469,-4.344535916210979,9.517000233757805,90.14306980465668,13.998707,4.5771217,8.751794,17.725592,0.13871017,-5.2940116,-37.131145,1.2690574,-8.123535,31.912582,4.454355,3.486265,-13.821141,3.6334078,4.877734,-8.568614,23.834274,-20.02133,-22.111826,-9.716199,2.022643,-7.488288,50.955574,-21.082478,9.350518,-29.212206,-10.445333,-0.8295367,-4.700001
195,3.358954906463623,136.5853729248047,77.66596984863281,-4.102615729737703,9.645298124260295,90.26426291814929,14.084924,4.486388,8.314891,18.585117,2.8641489,-5.003315,-35.68881,1.8696581,-7.541534,26.446209,6.5816245,5.2031054,-14.194782,3.5452335,4.5943675,-8.139793,23.995695,-20.14617,-22.702375,-10.021933,1.8250387,-7.703,50.773594,-20.721565,9.265899,-29.33135,-10.99268,-0.46711257,-4.267772
196,3.436084508895874,138.14344787597656,77.81220245361328,-3.7903659415796254,9.647127039353549,90.44443694936345,14.183269,4.307856,7.7614713,19.704754,5.148307,-4.5889287,-34.15045,2.2047822,-7.115658,21.621897,8.452263,6.798935,-14.521064,3.3727267,4.4092865,-7.699262,24.078682,-20.33539,-23.192116,-10.341677,1.6979877,-7.7479367,50.520145,-20.340145,9.216531,-29.421247,-11.353153,-0.20611449,-4.0047517
197,3.514690637588501,139.7001495361328,77.9061050415039,-3.3890630376877438,9.50583853983524,90.68851902713445,14.276703,4.0067744,7.007067,21.178787,6.886283,-3.874557,-32.502872,2.3037663,-6.87546,17.438477,10.132626,8.567009,-14.820282,3.0985193,4.3355503,-7.2256565,24.090017,-20.60225,-23.627441,-10.7419,1.684693,-7.5414324,50.201374,-19.951237,9.200811,-29.489712,-11.501259,-0.05788192,-3.9362066
198,3.5895869731903076,141.26402282714844,77.94956970214844,-2.8972050744953544,9.239777255384821,90.9855743640729,14.363195,3.5913897,6.115346,22.939169,8.230182,-2.8883355,-30.741201,2.2201345,-6.7748766,13.76213,11.636541,10.472983,-15.090624,2.723786,4.352427,-6.694168,24.03054,-20.912113,-24.000395,-11.147216,1.7547946,-7.158407,49.824295,-19.55549,9.204984,-29.550285,-11.497217,0.017590592,-3.9968076
199,3.656569004058838,142.814697265625,77.94825744628906,-2.4451664735672725,8.915160333622314,91.25148656962043,14.428975,3.23216,5.3133216,24.86642,9.276309,-1.9834926,-29.097885,2.0828598,-6.894501,10.935868,12.7399025,11.935823,-15.244468,2.3689747,4.4211264,-6.1363535,23.9001,-21.236452,-24.245018,-11.467999,1.827673,-6.723778,49.353767,-19.168955,9.253403,-29.568525,-11.331056,0.025319317,-4.1963363
200,3.724677085876465,144.3663787841797,77.91246032714844,-2.1860467291266703,8.603932689197828,91.40183316817424,14.435553,3.1233654,4.80906,26.888372,10.092704,-1.5267961,-27.826952,2.0362709,-7.3233566,9.35641,13.197427,12.366754,-15.198678,2.1793623,4.5075126,-5.5779815,23.696089,-21.539145,-24.296658,-11.614268,1.8250331,-6.363234,48.749756,-18.818123,9.369654,-29.50784,-10.989423,-0.030431949,-4.5462327
201,3.7793915271759033,145.90650939941406,77.84302520751953,-2.2192693143169926,8.351558174847462,91.38081855896009,14.322597,3.3616376,4.6491623,29.074928,10.743202,-1.7095256,-27.209372,2.153621,-8.247604,9.55828,13.026709,11.385647,-14.906445,2.2550774,4.5941963,-5.009583,23.402796,-21.798855,-24.159643,-11.58213,1.7063851,-6.101822,47.977028,-18.522638,9.581306,-29.342033,-10.358915,-0.16032495,-5.151511
202,3.8425452709198,147.44773864746094,77.72432708740234,-2.462289595009371,8.109090739828972,91.23988695634841,14.105626,3.8639083,4.699645,31.508808,11.13245,-2.3040094,-27.03851,2.3713644,-9.576825,11.211411,12.32362,9.385374,-14.4312,2.5254493,4.7046003,-4.4173527,23.013649,-22.029009,-23.85354,-11.4103565,1.5214587,-5.8778524,47.061874,-18.288565,9.871273,-29.097683,-9.475463,-0.37126234,-5.976507
203,3.900561809539795,148.96803283691406,77.55296325683594,-2.7817808503636923,7.800416015930994,91.0680705469109,13.872608,4.5323205,4.8923078,34.12803,11.092386,-3.0528116,-26.895596,2.6088402,-10.948265,13.554869,10.889888,6.9411793,-13.86832,2.8612006,4.871568,-3.8071134,22.5476,-22.24008,-23.362017,-11.074945,1.3285232,-5.684239,46.053295,-18.120613,10.200254,-28.813797,-8.549958,-0.64800346,-6.821559
204,3.9838531017303467,150.4876251220703,77.33521270751953,-3.065232643967442,7.364859903535144,90.94137639499236,13.690771,5.28995,5.182309,36.88247,10.449609,-3.710051,-26.455368,2.846863,-11.965724,15.9678335,8.465671,4.632491,-13.303036,3.1550279,5.128436,-3.1672807,22.040575,-22.434376,-22.684835,-10.55617,1.1847346,-5.510093,44.987255,-18.022923,10.532928,-28.520159,-7.7921686,-0.9636647,-7.4884157
205,4.058207988739014,152.02317810058594,77.03872680664062,-3.283014180341295,6.724507097709946,90.8644375200721,13.72118,6.11801,5.651571,39.747906,8.948361,-4.329166,-25.573833,3.1092076,-12.384498,18.506891,4.4359093,2.4007733,-12.740066,3.362487,5.5257616,-2.4329443,21.511925,-22.60695,-21.875715,-9.810749,1.0741783,-5.3270073,43.899414,-18.004372,10.871352,-28.230318,-7.209435,-1.3636228,-7.9356456
206,4.111745834350586,153.6016845703125,76.6431655883789,-3.4667082693185427,5.921063310868858,90.81813162799304,13.891305,7.035523,6.2988944,42.77432,6.7416654,-4.9934864,-24.448269,3.4428637,-12.33913,21.434654,-0.871936,0.0047828536,-12.167133,3.517576,6.044074,-1.5926385,20.967623,-22.742893,-20.956858,-8.869825,0.9766267,-5.142851,42.752186,-18.06601,11.24582,-27.926275,-6.702111,-1.8385723,-8.266992
207,4.184182643890381,155.15237426757812,76.22447967529297,-3.6524216924661235,5.099118420366011,90.8113172487485,13.891627,8.071152,6.962013,46.027893,4.260947,-5.5264,-23.312151,3.8919573,-12.08004,24.473337,-6.31984,-2.2474892,-11.612415,3.6844285,6.602937,-0.7136242,20.430794,-22.82683,-19.900347,-7.828129,0.9405054,-4.9995775,41.461205,-18.195286,11.660527,-27.59031,-6.318737,-2.273344,-8.504368
208,4.295856952667236,156.61184692382812,75.82088470458984,-3.901930555099687,4.412632532069591,90.83886083064057,13.409312,9.269957,7.4614067,49.55877,1.9418774,-5.7637873,-22.39255,4.4305334,-11.953119,27.34214,-10.811325,-4.0127625,-11.089321,3.9437778,7.1170816,0.14116625,19.934475,-22.843811,-18.683886,-6.7841244,1.0113546,-4.937633,39.93713,-18.368727,12.118848,-27.1997,-6.109789,-2.5538306,-8.669777
209,4.4114861488342285,158.04196166992188,75.39666748046875,-4.266801468656703,3.939906800857403,90.89095619528325,12.278544,10.707773,7.7291107,53.518547,-0.099165045,-5.661669,-21.875372,4.9796414,-12.144112,30.177618,-14.12042,-5.1323953,-10.589361,4.345157,7.5381713,0.95318884,19.505762,-22.77872,-17.297829,-5.72065,1.1458995,-4.962305,38.12947,-18.557018,12.628677,-26.700447,-6.1273365,-2.6920977,-8.717535
210,4.542533874511719,159.44415283203125,74.93791198730469,-4.730235961234849,3.598778599974334,90.9582179940682,10.692012,12.346577,7.8300424,57.814365,-2.089794,-5.325322,-21.606321,5.488842,-12.494499,33.11059,-16.874586,-5.8126006,-10.093132,4.8522205,7.91718,1.7779685,19.15285,-22.643627,-15.78808,-4.610614,1.3332313,-5.0473533,36.080097,-18.74767,13.187151,-26.114159,-6.3355865,-2.7355103,-8.6510935
211,4.672066688537598,160.8214111328125,74.46072387695312,-5.2571701593828655,3.304750828719312,91.03374101169616,8.864767,14.071456,7.778226,62.124886,-4.117461,-4.8157763,-21.31037,5.9699063,-12.885431,35.85657,-19.276936,-6.235554,-9.597807,5.427065,8.313791,2.6647148,18.876728,-22.460497,-14.224744,-3.5337682,1.6689419,-5.1903396,33.83737,-18.948662,13.782808,-25.524273,-6.652982,-2.6232157,-8.566242
212,4.819992542266846,162.18443298339844,73.99116516113281,-5.805543028837725,2.9713171389196797,91.11536900227301,7.000634,15.771524,7.6003437,66.146805,-6.271775,-4.189649,-20.712915,6.5030713,-13.201184,38.085464,-21.492897,-6.558637,-9.11121,6.0292997,8.7873535,3.6643882,18.673399,-22.243137,-12.668432,-2.5670033,2.2476127,-5.393691,31.443197,-19.181854,14.417861,-25.012426,-6.9929976,-2.2923381,-8.560138
213,4.952803611755371,163.54568481445312,73.54193115234375,-6.43140354475813,2.580203890941385,91.20618660965158,5.086381,17.497995,7.2315426,69.91502,-8.678546,-3.4148428,-19.765326,7.2200475,-13.483543,39.689693,-23.488527,-6.754036,-8.649223,6.709035,9.367638,4.787213,18.5306,-21.950363,-11.024904,-1.7230933,3.1648548,-5.726168,28.831873,-19.469126,15.158783,-24.555126,-7.347001,-1.5614971,-8.6738405
214,5.045548439025879,164.88929748535156,73.12629699707031,-7.136041342046305,2.1795953700081556,91.30818856863135,3.0078206,19.258623,6.6506553,73.55127,-11.253664,-2.486755,-18.620228,8.072645,-13.796875,40.854023,-25.190674,-6.761238,-8.22651,7.477045,10.0117855,6.0249085,18.444548,-21.562109,-9.303422,-0.95464975,4.343539,-6.1742654,25.98958,-19.807783,16.019407,-24.119513,-7.7396336,-0.5157075,-8.854894
215,5.116724014282227,166.19029235839844,72.76463317871094,-7.796768904051198,1.7796307634204018,91.41965879611892,0.81946486,20.892889,5.981916,76.890144,-13.77657,-1.4933269,-17.300463,8.912011,-14.063395,41.645733,-26.681145,-6.67142,-7.84214,8.22408,10.6735115,7.3942986,18.42924,-21.133146,-7.71711,-0.2515022,5.624068,-6.6130466,23.03494,-20.177849,16.924194,-23.764343,-8.140844,0.5085654,-9.057216
216,5.176327228546143,167.49630737304688,72.47771453857422,-8.289326498779165,1.3886549325905249,91.5376081120294,-1.4119024,22.261179,5.3786807,79.77,-16.028261,-0.5130352,-15.823318,9.584331,-14.20728,42.129963,-28.042484,-6.5772543,-7.4778624,8.834583,11.31145,8.903894,18.509933,-20.738194,-6.478426,0.3851115,6.850306,-6.908514,20.095703,-20.55256,17.77828,-23.548643,-8.532593,1.1722323,-9.231832
217,5.231817245483398,168.7826385498047,72.24678802490234,-8.596923791264311,0.9722318332098544,91.66692310311628,-3.6549053,23.39684,4.926254,82.181816,-17.985476,0.4807628,-14.119366,10.067932,-14.229641,42.26566,-29.304583,-6.5025544,-7.135908,9.291166,11.981095,10.546895,18.710594,-20.424221,-5.598298,0.92629087,8.139194,-6.9591484,17.110548,-20.925068,18.600512,-23.445456,-8.992829,1.3525648,-9.38882
218,5.267908573150635,170.10244750976562,72.07678985595703,-8.779324421427585,0.5368737139090531,91.80607242585877,-5.943132,24.35223,4.562951,84.20349,-19.758703,1.5200918,-12.2025585,10.4512,-14.180974,42.02928,-30.418413,-6.411359,-6.812696,9.640537,12.688332,12.324265,19.035301,-20.149395,-4.9883013,1.3631378,9.526172,-6.8487706,14.034408,-21.284597,19.44072,-23.426708,-9.5055485,1.2400737,-9.547746
219,5.308627128601074,171.430908203125,71.9601058959961,-8.829866174800005,0.1508102047276868,91.94095188560317,-8.291474,25.030022,4.2528205,85.80418,-21.316814,2.5379477,-10.205931,10.730476,-14.05746,41.514473,-31.350546,-6.30028,-6.4633255,9.861003,13.314567,14.240065,19.474789,-19.869532,-4.6948175,1.7261719,10.733758,-6.718931,11.02654,-21.596788,20.221949,-23.550045,-9.9267025,0.9625724,-9.669759
220,5.359986782073975,172.77099609375,71.9021987915039,-8.746726888964572,-0.11802406920499318,92.0565958480252,-10.707344,25.33642,3.972297,86.94755,-22.6216,3.4689355,-8.263481,10.888398,-13.851529,40.82172,-32.06967,-6.1521535,-6.025301,9.928698,13.732697,16.280994,20.013233,-19.554956,-4.7432327,2.057261,11.483739,-6.7110767,8.252673,-21.825583,20.835001,-23.854494,-10.125432,0.64501995,-9.703846
221,5.416415214538574,174.1158905029297,71.89863586425781,-8.51580054376318,-0.2569296327810899,92.17054383095169,-13.235556,25.24631,3.7484865,87.64769,-23.656918,4.372893,-6.391162,10.89697,-13.564556,39.96791,-32.607456,-5.95956,-5.496086,9.819081,13.90378,18.487242,20.65594,-19.229284,-5.191832,2.4347186,11.590407,-6.825845,5.712828,-21.949478,21.223913,-24.333817,-9.9857855,0.24326496,-9.600824
222,5.468337059020996,175.47755432128906,71.95404815673828,-8.14438901901983,-0.30290801781907445,92.2827450309074,-15.820949,24.813189,3.6431532,87.903824,-24.43025,5.2554846,-4.522545,10.75469,-13.2053175,38.90988,-32.97351,-5.7234592,-4.889837,9.537588,13.890842,20.843231,21.406479,-18.896042,-5.988001,2.8130705,11.240341,-6.993962,3.3076196,-21.974018,21.43714,-24.918154,-9.622372,-0.28644472,-9.386963
223,5.529268264770508,176.8453369140625,72.05522918701172,-7.662280415930005,-0.26176386762935944,92.35193593341454,-18.334774,24.06918,3.6651313,87.66714,-24.92321,5.9597173,-2.6692975,10.484726,-12.776394,37.657253,-33.095306,-5.4334493,-4.170849,9.113666,13.72006,23.256798,22.230675,-18.497044,-6.9910927,3.0566869,10.713086,-7.256604,1.0671327,-21.916727,21.514166,-25.571653,-9.249027,-0.81883675,-9.126696
224,5.599267959594727,178.2661895751953,72.22348022460938,-7.098210650949655,-0.13808505234156326,92.33725507177111,-20.657804,23.053776,3.8071377,86.890045,-25.117094,6.3294544,-0.84264076,10.114859,-12.277733,36.220078,-32.90453,-5.0834827,-3.3059561,8.58458,13.415377,25.623434,23.069448,-17.985132,-8.039932,3.0416362,10.2884865,-7.66062,-0.9673606,-21.805655,21.495354,-26.26874,-9.080922,-1.2289072,-8.888942
225,5.635339736938477,179.7000732421875,72.44498443603516,-6.432800811077795,0.094686831955473,92.20731284563222,-22.79451,21.731281,4.0998206,85.52557,-25.0015,6.288857,0.95919424,9.63818,-11.644334,34.53318,-32.425068,-4.685051,-2.2669353,7.9379816,12.944396,27.951923,23.876541,-17.319944,-9.149486,2.7145474,10.030669,-8.317268,-2.7912614,-21.665691,21.366703,-27.032124,-9.244324,-1.4436823,-8.659661
226,5.6748809814453125,181.15805053710938,72.72228240966797,-5.66458386224741,0.4308540596327581,91.99254547440489,-24.786196,20.124775,4.531696,83.59306,-24.58421,5.9290643,2.7350974,9.042301,-10.899399,32.620644,-31.685682,-4.2383847,-1.0976579,7.168921,12.316577,30.280958,24.632454,-16.54031,-10.353548,2.1628826,9.799251,-9.175833,-4.4279666,-21.511467,21.125858,-27.866177,-9.599809,-1.5428374,-8.41868
227,5.709191799163818,182.63992309570312,73.04104614257812,-4.854261241972759,0.8180558627000446,91.74473883357446,-26.578997,18.356739,5.011637,81.146996,-23.877893,5.3466883,4.4698486,8.355149,-10.170078,30.62742,-30.622421,-3.7229633,0.13083868,6.333303,11.6149645,32.53231,25.319143,-15.731796,-11.508693,1.4823256,9.565694,-10.0411825,-5.8655696,-21.35571,20.824726,-28.724964,-9.963885,-1.6296324,-8.227228
228,5.729227542877197,184.15834045410156,73.4098129272461,-4.06352631107464,1.2033707618211962,91.5146473685946,-28.118553,16.536238,5.4446144,78.24558,-22.899408,4.6390023,6.1516113,7.613614,-9.57963,28.69621,-29.171402,-3.1172938,1.3476912,5.4939313,10.91717,34.612423,25.923557,-14.978138,-12.464092,0.77351016,9.295044,-10.719636,-7.0905023,-21.209219,20.515158,-29.565475,-10.152768,-1.8048034,-8.147101
229,5.74798583984375,185.69747924804688,73.81550598144531,-3.2748533955067876,1.5934475111598883,91.29259987545885,-29.39801,14.613884,5.807539,74.82487,-21.656633,3.808538,7.816106,6.8034434,-9.1272745,26.762684,-27.290236,-2.346174,2.559963,4.6430163,10.216377,36.470264,26.44371,-14.297182,-13.159884,-0.069817126,9.0055485,-11.134283,-8.093865,-21.082499,20.190027,-30.403574,-10.202437,-2.0778036,-8.206285
230,5.756529331207275,187.27011108398438,74.25019073486328,-2.4718064775542388,2.0094008482124552,91.06087645142624,-30.434362,12.560067,6.1055126,70.858246,-20.145863,2.8149822,9.457304,5.931895,-8.740392,24.787603,-25.02558,-1.4479767,3.787043,3.7611332,9.487915,38.150562,26.881186,-13.653897,-13.675375,-1.0463426,8.703729,-11.401273,-8.878175,-20.984282,19.828497,-31.267546,-10.181545,-2.3984535,-8.369174
231,5.760095119476318,188.87109375,74.70530700683594,-1.7122711192312274,2.416841486785476,90.85774812880595,-31.208666,10.5034485,6.297488,66.47025,-18.366001,1.6962627,11.001751,5.0724416,-8.434181,22.958473,-22.444056,-0.566207,4.976301,2.901416,8.77498,39.698486,27.234123,-13.045555,-14.071526,-1.8914063,8.331649,-11.617601,-9.449275,-20.918962,19.463371,-32.13904,-9.954814,-2.7778273,-8.600752
232,5.754493236541748,190.46694946289062,75.16587829589844,-1.0516472289019474,2.7798325196794704,90.72104917867982,-31.705091,8.560388,6.348333,61.78774,-16.310188,0.48433354,12.378263,4.2956214,-8.231343,21.460617,-19.607424,0.16192842,6.075642,2.121309,8.114985,41.155502,27.496798,-12.467064,-14.405289,-2.3410614,7.8317266,-11.878497,-9.819149,-20.887674,19.12937,-32.990913,-9.386661,-3.2288454,-8.863348
233,5.741542816162109,192.0946044921875,75.63037109375,-0.476576707294358,3.1142461233446004,90.66068530161755,-31.894356,6.703967,6.250526,56.648846,-13.89475,-0.88395,13.535076,3.570819,-8.172118,20.358507,-16.440222,0.7397465,7.08122,1.4127024,7.4890623,42.50599,27.666168,-11.924353,-14.664892,-2.2258847,7.121502,-12.203044,-9.9881315,-20.89564,18.831198,-33.819138,-8.378493,-3.7666152,-9.15778
234,5.742401123046875,193.74269104003906,76.08541870117188,0.026152069839381932,3.425127742601005,90.65619443027506,-31.762205,4.880854,5.973635,51.005875,-11.133032,-2.4029405,14.525149,2.8930743,-8.223987,19.557491,-12.93976,1.2371242,8.011259,0.76787883,6.8858643,43.73194,27.745388,-11.412902,-14.832421,-1.71769,6.2486787,-12.534817,-9.952105,-20.94582,18.553572,-34.643948,-7.0230937,-4.3854527,-9.492036
235,5.733695030212402,195.4113311767578,76.52460479736328,0.4008177477409627,3.6599582421344325,90.69490921273476,-31.325705,3.1743832,5.468781,45.166832,-8.159566,-3.9391606,15.430583,2.360043,-8.314491,18.99967,-9.255636,1.6174303,8.854772,0.24394156,6.3484263,44.872906,27.73788,-10.909619,-14.957309,-1.0648432,5.3528523,-12.856334,-9.718281,-21.03076,18.300898,-35.467564,-5.473811,-5.0666194,-9.836894
236,5.735052108764648,197.0908203125,76.94190216064453,0.5984992160565116,3.768098459401779,90.76381693772046,-30.621471,1.682561,4.7087708,39.461777,-5.122793,-5.355972,16.330664,2.0602555,-8.383212,18.62053,-5.5254164,1.8350502,9.600803,-0.107107155,5.916257,45.972782,27.645414,-10.389971,-15.090199,-0.5142214,4.5765004,-13.160149,-9.302922,-21.13533,18.08117,-36.283936,-3.8846636,-5.788987,-10.165065
237,5.742763519287109,198.7783203125,77.32849884033203,0.5955927062992399,3.743727377557553,90.87216915688636,-29.627958,0.42509452,3.5905278,33.77335,-1.8381984,-6.6272626,17.252571,2.0108907,-8.481659,18.328238,-1.5125251,1.863868,10.252469,-0.26462024,5.5840797,47.06237,27.464159,-9.830303,-15.253171,-0.003250209,3.9304826,-13.469471,-8.689459,-21.247623,17.886509,-37.104416,-2.132223,-6.571761,-10.470383
238,5.755720615386963,200.48294067382812,77.67724609375,0.4099410138817683,3.6069671770908127,91.01473524199832,-28.32712,-0.58680576,2.1460521,27.98555,1.6958573,-7.8225007,18.1605,2.1679025,-8.640636,18.15867,2.797577,1.7085186,10.819372,-0.24264003,5.3303194,48.117405,27.193802,-9.241614,-15.426055,0.5583838,3.3474355,-13.781195,-7.889209,-21.36428,17.718788,-37.916798,-0.19116892,-7.41995,-10.75297
239,5.79332160949707,202.21531677246094,77.96580505371094,0.0681728383462961,3.3538909533638948,91.15814044523593,-26.824675,-1.2824587,0.6068536,22.50279,5.0339932,-8.942614,19.031445,2.5079892,-8.7786255,18.235132,6.936606,1.3684876,11.301288,-0.055258684,5.164759,49.10684,26.843838,-8.652268,-15.600112,0.9686373,2.8573885,-14.0589285,-6.961697,-21.482275,17.60287,-38.6752,1.6370609,-8.285813,-11.005221
240,5.845895767211914,203.96453857421875,78.20266723632812,-0.38682549833336993,2.990331556811302,91.27209659061803,-25.267878,-1.6435657,-0.7504543,17.768698,7.722262,-9.98376,19.842056,2.9871545,-8.808405,18.670708,10.43039,0.8615268,11.697846,0.25996724,5.092787,50.002167,26.429495,-8.093776,-15.765699,1.0235347,2.4924946,-14.269074,-5.966233,-21.596514,17.562965,-39.328014,3.05085,-9.119036,-11.231426
