unveil-humanoid-operators/unveil-humanoid-operators.github.io/feature-analysis-animation/data/feature_matrix_instances/gender_ankle_rom_walking_A040_walk_backward_stop_003__A040.csv
Frame,root_translateX,root_translateY,root_translateZ,root_rotateX,root_rotateY,root_rotateZ,left_hip_pitch_joint_dof,left_hip_roll_joint_dof,left_hip_yaw_joint_dof,left_knee_joint_dof,left_ankle_pitch_joint_dof,left_ankle_roll_joint_dof,right_hip_pitch_joint_dof,right_hip_roll_joint_dof,right_hip_yaw_joint_dof,right_knee_joint_dof,right_ankle_pitch_joint_dof,right_ankle_roll_joint_dof,waist_yaw_joint_dof,waist_roll_joint_dof,waist_pitch_joint_dof,left_shoulder_pitch_joint_dof,left_shoulder_roll_joint_dof,left_shoulder_yaw_joint_dof,left_elbow_joint_dof,left_wrist_roll_joint_dof,left_wrist_pitch_joint_dof,left_wrist_yaw_joint_dof,right_shoulder_pitch_joint_dof,right_shoulder_roll_joint_dof,right_shoulder_yaw_joint_dof,right_elbow_joint_dof,right_wrist_roll_joint_dof,right_wrist_pitch_joint_dof,right_wrist_yaw_joint_dof
0,1.272526741027832,3.247495412826538,77.50093078613281,-0.563293007103797,-2.8344151065538146,-95.36306619336086,3.3069525,5.620851,11.030937,18.183922,-19.068207,-3.1570957,2.4387887,-0.79888994,-11.716259,17.232782,-18.527973,0.0988516,-2.6782694,1.5041612,8.874255,-9.308529,15.609671,-50.73938,62.14256,-0.7944303,0.5156128,1.2566832,-8.924807,-13.768741,49.40893,61.633972,2.6387644,1.6916003,-6.2615504
1,1.252742886543274,3.2303671836853027,77.50785064697266,-0.6356340129197559,-2.822538296842377,-95.33802474877749,3.2542226,5.731611,10.983828,18.291775,-19.11015,-3.1860902,2.5838845,-0.67055637,-11.761244,16.927286,-18.383966,0.07512764,-2.7062147,1.5776117,8.8707485,-9.306943,15.617688,-50.744915,62.1571,-0.7736981,0.53309935,1.3077846,-8.904141,-13.761039,49.409534,61.63457,2.6174269,1.7085141,-6.268977
2,1.2317208051681519,3.2117671966552734,77.51417541503906,-0.7095907110390681,-2.812365602547106,-95.31190789636328,3.2056134,5.8425026,10.934991,18.3957,-19.150951,-3.2147017,2.735231,-0.5408174,-11.807507,16.614328,-18.237486,0.051222958,-2.7341094,1.6500336,8.867238,-9.304584,15.626659,-50.754963,62.173267,-0.75292087,0.5512607,1.3610547,-8.879112,-13.749734,49.406063,61.63481,2.5905626,1.726755,-6.2772417
3,1.206588625907898,3.19701886177063,77.51962280273438,-0.7816332864186397,-2.798564287338269,-95.28808408988948,3.1493707,5.952031,10.889491,18.505274,-19.192883,-3.2439497,2.8752348,-0.413916,-11.8500185,16.313463,-18.09453,0.027937949,-2.7581253,1.7220742,8.862317,-9.306423,15.6317,-50.761738,62.19048,-0.7337991,0.5678419,1.410358,-8.857225,-13.741919,49.402737,61.633984,2.569423,1.7425708,-6.2842264
4,1.185334324836731,3.186767816543579,77.5250244140625,-0.8485221570610697,-2.775853399249985,-95.26975038900375,3.0729494,6.059277,10.851889,18.630735,-19.238466,-3.2749653,2.9869366,-0.2938069,-11.883768,16.042894,-17.960588,0.005966981,-2.769134,1.7885151,8.852957,-9.310598,15.638592,-50.760593,62.19873,-0.7150622,0.5812941,1.449539,-8.841772,-13.729092,49.393486,61.63502,2.5594862,1.75229,-6.2892423
5,1.1586600542068481,3.1724908351898193,77.53004455566406,-0.9103254331888003,-2.74106988233131,-95.25603949626102,2.9658175,6.1668453,10.822044,18.78536,-19.293125,-3.3108735,3.066621,-0.1799303,-11.908739,15.803103,-17.83527,-0.011946761,-2.7703743,1.8510817,8.83629,-9.319089,15.643791,-50.74246,62.202324,-0.6958266,0.59040034,1.4766423,-8.8302355,-13.718204,49.38055,61.62947,2.5673401,1.7551432,-6.2891603
6,1.137398600578308,3.1643483638763428,77.53215789794922,-0.9688838454246788,-2.6978763007490607,-95.24579946750347,2.8364973,6.2743654,10.797737,18.961546,-19.353691,-3.3501875,3.1241658,-0.07025421,-11.927328,15.583708,-17.715216,-0.027174078,-2.7643766,1.9109061,8.8165245,-9.327962,15.649492,-50.705204,62.19764,-0.6689762,0.5968945,1.4941115,-8.832885,-13.705472,49.37137,61.628963,2.5964477,1.7521341,-6.284516
7,1.1163896322250366,3.160149335861206,77.53133392333984,-1.0212181748142208,-2.6501009082626688,-95.24231237929179,2.7034204,6.3755474,10.781756,19.133352,-19.411446,-3.3868678,3.1556692,0.029737009,-11.937749,15.401715,-17.609186,-0.044615056,-2.7486174,1.9664129,8.794266,-9.342292,15.651864,-50.67681,62.19134,-0.6553139,0.6002989,1.5066956,-8.830425,-13.7000675,49.362347,61.61799,2.6273558,1.7466825,-6.2834945
8,1.0976959466934204,3.1601271629333496,77.53125762939453,-1.0687365431891411,-2.6026590801042375,-95.2475548260216,2.576996,6.467954,10.774343,19.292828,-19.46159,-3.415144,3.1613114,0.11787097,-11.939645,15.267656,-17.52324,-0.06970595,-2.7311044,2.0197911,8.7834835,-9.361133,15.654101,-50.644928,62.172997,-0.6444532,0.6012922,1.5117273,-8.845252,-13.695421,49.35539,61.618126,2.643355,1.7388248,-6.2868347
9,1.0741772651672363,3.165827751159668,77.52787780761719,-1.1061617226754052,-2.5548392705102656,-95.26549671252069,2.4569764,6.552018,10.7792425,19.441824,-19.507387,-3.43119,3.1322527,0.19244988,-11.9296,15.197655,-17.464668,-0.10519509,-2.7150812,2.0711386,8.786666,-9.382562,15.659029,-50.60186,62.13619,-0.641563,0.599258,1.5066671,-8.880706,-13.687585,49.35249,61.630707,2.6398115,1.7270621,-6.298932
10,1.0572209358215332,3.171820640563965,77.52558135986328,-1.1395290878358206,-2.5046116193269565,-95.29339220323065,2.3380857,6.6288853,10.794859,19.584286,-19.549665,-3.4387667,3.0713127,0.2552824,-11.909364,15.181411,-17.428545,-0.14788264,-2.6838078,2.1193726,8.788956,-9.4100065,15.661845,-50.581917,62.092384,-0.6614518,0.59470767,1.4966116,-8.915994,-13.684535,49.34937,61.643692,2.632225,1.711334,-6.319532
11,1.0379985570907593,3.1745448112487793,77.52801513671875,-1.1643522487012967,-2.454677064240266,-95.32624365526505,2.2257466,6.695733,10.815585,19.711432,-19.580513,-3.443362,2.9923809,0.30667675,-11.884111,15.198642,-17.405752,-0.19360134,-2.6539483,2.1607685,8.8024435,-9.442599,15.66803,-50.555927,62.04239,-0.67819095,0.5877611,1.4819888,-8.966375,-13.6800785,49.35098,61.664223,2.6162405,1.6960559,-6.340346
12,1.020357370376587,3.1753077507019043,77.53182220458984,-1.1790290900392697,-2.4068079146821697,-95.35900237108604,2.1266866,6.7466545,10.83723,19.809465,-19.590015,-3.4499626,2.907463,0.34463605,-11.858731,15.230944,-17.388313,-0.23794486,-2.6197293,2.1889234,8.817954,-9.481058,15.673553,-50.550224,62.0008,-0.69442046,0.57977486,1.4713539,-9.029156,-13.677807,49.377983,61.694855,2.6205318,1.6854196,-6.359055
13,0.997039794921875,3.1827428340911865,77.53612518310547,-1.1832309977753281,-2.3627965375433515,-95.39052677569542,2.0439708,6.779125,10.857203,19.874693,-19.572035,-3.46006,2.8178773,0.3680552,-11.833967,15.279825,-17.376625,-0.28172788,-2.5994236,2.2020326,8.836901,-9.51515,15.6860285,-50.554245,61.959984,-0.7118184,0.57089084,1.4666003,-9.121728,-13.674917,49.482933,61.750267,2.6721673,1.6823314,-6.379034
14,0.9806628227233887,3.192060708999634,77.5400161743164,-1.1766829930772025,-2.3211560630851054,-95.42381748915042,1.973786,6.79641,10.87891,19.914818,-19.533703,-3.4709854,2.718505,0.37792495,-11.807154,15.351374,-17.373104,-0.32658082,-2.5664523,2.201782,8.862131,-9.566271,15.695094,-50.585045,61.932507,-0.73243856,0.5602514,1.4628934,-9.226807,-13.674794,49.610878,61.81422,2.7415226,1.6839093,-6.3977776
15,0.961925208568573,3.20674467086792,77.54371643066406,-1.161853410608003,-2.2785310563142436,-95.45861820112283,1.9118892,6.8023815,10.904909,19.930683,-19.481943,-3.4815817,2.608063,0.37682113,-11.778547,15.440576,-17.37663,-0.369651,-2.5490022,2.1943061,8.885584,-9.606116,15.706624,-50.60553,61.902317,-0.7499466,0.54725677,1.4619178,-9.338663,-13.67498,49.75428,61.8807,2.8144972,1.6867747,-6.4170723
16,0.945523202419281,3.22122859954834,77.54891204833984,-1.140224559529802,-2.231760324341034,-95.49565468724016,1.8536361,6.8013268,10.938818,19.92603,-19.425606,-3.490778,2.485797,0.36704177,-11.747806,15.542098,-17.385235,-0.4080785,-2.5304503,2.1798062,8.907004,-9.6457,15.716233,-50.616985,61.87943,-0.7584127,0.5308002,1.4610487,-9.442773,-13.675072,49.84294,61.936466,2.8561528,1.6863914,-6.431108
17,0.9268381595611572,3.238095283508301,77.55386352539062,-1.1097261989769565,-2.1787104582794754,-95.5356953254348,1.7994272,6.790666,10.984924,19.894264,-19.364576,-3.4974198,2.346656,0.3444683,-11.71483,15.660718,-17.402103,-0.4386171,-2.5155058,2.157415,8.920604,-9.6785345,15.721963,-50.612984,61.8652,-0.75366956,0.50750875,1.4609166,-9.524583,-13.67434,49.856396,61.974907,2.843138,1.6811897,-6.438633
18,0.9069209694862366,3.2605063915252686,77.5596923828125,-1.0706858694004004,-2.121441031122497,-95.57809984381294,1.7508482,6.769413,11.040313,19.836485,-19.295263,-3.5023403,2.1929848,0.30941144,-11.679642,15.796483,-17.426437,-0.46346352,-2.5061278,2.1268597,8.927707,-9.704491,15.725411,-50.603226,61.856197,-0.7442885,0.47915518,1.4630657,-9.604347,-13.673364,49.842186,62.012985,2.8133006,1.6728352,-6.4428186
19,0.8866332769393921,3.2818973064422607,77.56703186035156,-1.026592512415237,-2.063493054206709,-95.6214221036535,1.7064068,6.7435412,11.09715,19.765984,-19.220116,-3.5074701,2.033981,0.27066,-11.642529,15.939186,-17.452213,-0.48808485,-2.495295,2.0910025,8.943586,-9.7360325,15.733006,-50.585495,61.847332,-0.72891396,0.45206085,1.4639359,-9.685987,-13.668966,49.78919,62.040585,2.7638822,1.6645932,-6.4430966
20,0.8706415891647339,3.301300525665283,77.57303619384766,-0.9877513933459299,-2.0073242655956216,-95.66332608546723,1.6631881,6.720003,11.147356,19.695774,-19.141169,-3.5148737,1.8811644,0.23815688,-11.604629,16.070787,-17.4695,-0.5179949,-2.4901834,2.0573957,8.956547,-9.76513,15.737115,-50.57736,61.844715,-0.73067707,0.43246043,1.4705735,-9.762002,-13.666063,49.74909,62.051548,2.7351108,1.660609,-6.4508624
21,0.8553592562675476,3.327343225479126,77.58228302001953,-0.9542035554658367,-1.9541846271096845,-95.70590085858885,1.6235038,6.7002954,11.189589,19.62565,-19.056446,-3.5263884,1.7354779,0.21466464,-11.563731,16.191605,-17.475718,-0.55707496,-2.4830213,2.0252464,8.978862,-9.799877,15.742584,-50.572,61.845688,-0.745428,0.4233129,1.4807664,-9.836055,-13.661078,49.69287,62.040188,2.7136617,1.6646376,-6.4627995
22,0.8336294293403625,3.3499948978424072,77.59065246582031,-0.923583493571326,-1.9028647939793177,-95.7499862298462,1.5886323,6.680635,11.22889,19.549488,-18.965721,-3.54055,1.5920621,0.19489439,-11.519235,16.308498,-17.47544,-0.6016777,-2.46874,1.9908718,9.007096,-9.840779,15.74971,-50.575108,61.849934,-0.76961344,0.42189297,1.4933997,-9.910988,-13.653144,49.617733,62.01658,2.6959243,1.6723088,-6.476917
23,0.8149319291114807,3.3763036727905273,77.59921264648438,-0.8936340197356927,-1.8511233224031844,-95.78972830497172,1.5505823,6.6610885,11.262703,19.47425,-18.874035,-3.5542896,1.4520395,0.17697209,-11.477953,16.415909,-17.47149,-0.6459746,-2.4783108,1.9599756,9.024555,-9.8658,15.752994,-50.57232,61.855568,-0.8019285,0.4222981,1.5108991,-9.981285,-13.649045,49.57977,61.980854,2.704594,1.6800271,-6.498178
24,0.7951805591583252,3.3967766761779785,77.60765838623047,-0.8604228236213384,-1.799694236640343,-95.82153222756936,1.5076615,6.638818,11.291652,19.401407,-18.784477,-3.5643077,1.3158666,0.15571088,-11.4434805,16.515701,-17.469934,-0.68384725,-2.4740276,1.9255748,9.057884,-9.914956,15.758603,-50.58095,61.856567,-0.82074785,0.4223433,1.521612,-10.059315,-13.641664,49.50792,61.940727,2.6976113,1.6780525,-6.512365
25,0.7739017009735107,3.423543691635132,77.62083435058594,-0.8279755164618161,-1.7486018078049832,-95.83947046017136,1.4582951,6.6140375,11.310237,19.332237,-18.700262,-3.5658529,1.1903085,0.13195926,-11.4209385,16.596354,-17.468714,-0.7115768,-2.496448,1.8942633,9.077584,-9.946975,15.761012,-50.588078,61.84791,-0.8344592,0.41910422,1.5339309,-10.132276,-13.638944,49.483555,61.893253,2.7217572,1.6649016,-6.534308
26,0.7599746584892273,3.4525883197784424,77.62666320800781,-0.7950228252268506,-1.6984886785980169,-95.84763679769632,1.4048201,6.5874734,11.320491,19.266008,-18.61953,-3.5619276,1.0723598,0.10663866,-11.406428,16.664265,-17.4674,-0.73306066,-2.5269527,1.8628999,9.099463,-9.98103,15.763483,-50.597702,61.833298,-0.84213036,0.41510797,1.544973,-10.205795,-13.636679,49.46277,61.837265,2.753746,1.6433789,-6.557617
27,0.7415323853492737,3.487689733505249,77.63427734375,-0.761489419301042,-1.6459482828774468,-95.85432822542393,1.3431613,6.5616317,11.330904,19.204948,-18.537657,-3.5614793,0.9519089,0.08136935,-11.3937,16.727844,-17.464716,-0.75413406,-2.5577335,1.8320966,9.121336,-10.020674,15.766736,-50.611706,61.820736,-0.85050756,0.4131601,1.5533614,-10.281216,-13.63463,49.44264,61.776047,2.7852507,1.6204655,-6.576864
28,0.7239535450935364,3.5259974002838135,77.63945770263672,-0.7263507839967297,-1.5876200451596467,-95.86789785908721,1.2684915,6.539621,11.349554,19.153563,-18.451471,-3.5734725,0.8181133,0.057929993,-11.376232,16.797092,-17.46044,-0.78073394,-2.5786507,1.8023034,9.142263,-10.065611,15.771743,-50.626736,61.815067,-0.8584883,0.4162584,1.557399,-10.356873,-13.632665,49.416363,61.70919,2.8070323,1.6026624,-6.585711
29,0.7042880058288574,3.5749833583831787,77.64572143554688,-0.6952614691639419,-1.5216179695785852,-95.89075269567131,1.1745001,6.526341,11.380333,19.119905,-18.364279,-3.606782,0.6679712,0.039451372,-11.354227,16.872173,-17.452147,-0.81511545,-2.5902379,1.7759961,9.162816,-10.119632,15.777079,-50.63868,61.822872,-0.8656763,0.43200165,1.5523485,-10.435462,-13.631858,49.383385,61.632668,2.8152041,1.593041,-6.5777907
30,0.6872870326042175,3.616260290145874,77.65254974365234,-0.6647649634929726,-1.449703724517082,-95.91781380107597,1.0653703,6.520247,11.417784,19.099186,-18.276043,-3.6547132,0.5094357,0.025966419,-11.331154,16.943844,-17.438478,-0.8542229,-2.60516,1.755293,9.171403,-10.164097,15.779647,-50.643105,61.83731,-0.8686052,0.45706892,1.5420812,-10.512858,-13.632381,49.36935,61.55227,2.8268442,1.588069,-6.560499
31,0.6668623089790344,3.6602001190185547,77.6606216430664,-0.6293647653826635,-1.3757758928086212,-95.94872778716639,0.95254654,6.5087323,11.458443,19.076586,-18.179962,-3.7020247,0.33928052,0.006694998,-11.302547,17.027739,-17.430101,-0.8947546,-2.60148,1.7286749,9.202503,-10.241495,15.785135,-50.65465,61.857456,-0.8727259,0.47517148,1.5304211,-10.609233,-13.63507,49.330196,61.471077,2.8301353,1.5823591,-6.536715
32,0.6458480358123779,3.706205368041992,77.66960144042969,-0.5886295725603689,-1.3025364961971249,-95.98023034859786,0.83996284,6.488473,11.494344,19.050869,-18.075558,-3.7347476,0.16436987,-0.019326195,-11.267803,17.117355,-17.426716,-0.9346588,-2.6055038,1.7000996,9.220672,-10.300354,15.788033,-50.66135,61.872322,-0.8750258,0.4729727,1.5300875,-10.695016,-13.637547,49.312004,61.39947,2.8380053,1.5749127,-6.5253716
33,0.629176676273346,3.7581968307495117,77.67665100097656,-0.534509371879566,-1.228964682372753,-96.01118770023466,0.72687274,6.450388,11.521829,19.019245,-17.955889,-3.7441704,-0.020695848,-0.06022551,-11.223113,17.220587,-17.436014,-0.97124803,-2.6110866,1.6629187,9.239164,-10.357558,15.790447,-50.667156,61.882904,-0.874072,0.43294603,1.5470157,-10.7804985,-13.640604,49.294666,61.337208,2.8429222,1.5630816,-6.5273876
34,0.6079199910163879,3.8130440711975098,77.68519592285156,-0.4721520841168743,-1.153896787216255,-96.04290546704743,0.6103736,6.4003153,11.545071,18.985504,-17.824535,-3.739589,-0.21517654,-0.11136672,-11.170588,17.333073,-17.453339,-1.0064865,-2.6141956,1.6197423,9.256984,-10.413894,15.793191,-50.673634,61.890923,-0.86950403,0.36749715,1.5748596,-10.865922,-13.646592,49.27862,61.279278,2.8487084,1.5489458,-6.536345
35,0.5858897566795349,3.8721139430999756,77.69501495361328,-0.4095624541202891,-1.0808984321105384,-96.07785468994426,0.4979197,6.351078,11.570972,18.946127,-17.69071,-3.7331557,-0.4114174,-0.16093262,-11.115634,17.448788,-17.468857,-1.0446066,-2.6161745,1.5788811,9.273191,-10.467937,15.794026,-50.677513,61.89698,-0.86836755,0.3051575,1.601671,-10.954903,-13.649932,49.27927,61.235294,2.8611627,1.5342547,-6.548109
36,0.5653825402259827,3.936563730239868,77.70172119140625,-0.35527797622899443,-1.0141871509055944,-96.11852614973502,0.39758778,6.3148847,11.606575,18.89836,-17.564138,-3.7368765,-0.6031786,-0.19835849,-11.063561,17.56637,-17.475483,-1.0896503,-2.608972,1.5475422,9.295102,-10.524795,15.79439,-50.67868,61.897396,-0.87385374,0.2746173,1.6140597,-11.039158,-13.653153,49.28171,61.197994,2.86552,1.5211148,-6.555941
37,0.5419159531593323,3.994112014770508,77.71119689941406,-0.3122429298185432,-0.9560129219160616,-96.16631703986094,0.31637952,6.2964654,11.656055,18.835917,-17.447363,-3.7547638,-0.7847723,-0.21834686,-11.015953,17.681849,-17.468922,-1.1437219,-2.5870357,1.5287861,9.32396,-10.588298,15.79446,-50.68227,61.890102,-0.89062303,0.2970693,1.6001277,-11.123153,-13.656772,49.293427,61.17307,2.8665714,1.5112114,-6.558659
38,0.5168410539627075,4.058265686035156,77.72021484375,-0.2766056936512604,-0.9039825698717145,-96.21978755536122,0.24803276,6.2887406,11.714928,18.762997,-17.335577,-3.7800817,-0.9631287,-0.22826374,-10.969882,17.801975,-17.45472,-1.2041935,-2.5559244,1.518321,9.356254,-10.655521,15.794226,-50.688572,61.87733,-0.91799986,0.35282892,1.5701686,-11.205965,-13.661676,49.31587,61.15872,2.865442,1.503247,-6.5599084
39,0.4939895272254944,4.120813846588135,77.73179626464844,-0.24370858508208207,-0.8539666322087068,-96.2767312872451,0.18187596,6.286684,11.776619,18.688477,-17.225626,-3.808784,-1.1408858,-0.23253241,-10.924701,17.919832,-17.435286,-1.268692,-2.5195265,1.5128537,9.391918,-10.72228,15.793679,-50.68961,61.861504,-0.9460646,0.4088961,1.5422035,-11.290591,-13.667478,49.345776,61.14923,2.8746777,1.4936042,-6.55831
40,0.4628198742866516,4.189495086669922,77.74229431152344,-0.21017757812703247,-0.8019925063790266,-96.33489481723147,0.105977595,6.285675,11.834122,18.622202,-17.114447,-3.8369875,-1.3261973,-0.2362926,-10.880036,18.040041,-17.412796,-1.3347155,-2.475116,1.5076458,9.425552,-10.783404,15.793521,-50.68495,61.846184,-0.9638999,0.4330969,1.5333638,-11.373372,-13.670359,49.364635,61.141953,2.8941119,1.4788005,-6.550151
41,0.43195268511772156,4.26524019241333,77.74961853027344,-0.17492737663157776,-0.749198559035856,-96.39731392727496,0.024731304,6.2843986,11.887373,18.558773,-16.999588,-3.863726,-1.5211763,-0.24060562,-10.833974,18.167665,-17.386957,-1.4024546,-2.4319575,1.5055468,9.474183,-10.845267,15.793051,-50.654858,61.83281,-0.959402,0.40414962,1.5557564,-11.473943,-13.67529,49.393314,61.136787,2.952638,1.4530404,-6.5323415
42,0.3950316905975342,4.344640731811523,77.75814056396484,-0.14204924204676492,-0.6968400139687858,-96.46364646937417,-0.060346164,6.2866735,11.938723,18.499722,-16.88528,-3.891217,-1.7215644,-0.24166705,-10.788009,18.298761,-17.355738,-1.473096,-2.4081364,1.5121115,9.528467,-10.886198,15.792421,-50.57102,61.80985,-0.92246014,0.3436104,1.5948027,-11.587735,-13.686784,49.453648,61.133625,3.0411897,1.4216735,-6.5059876
43,0.36348608136177063,4.422138214111328,77.7657241821289,-0.10727979942231505,-0.6416569354842913,-96.5286638694414,-0.15617427,6.2898936,11.988616,18.44948,-16.770792,-3.9194636,-1.9282887,-0.24279179,-10.743541,18.430573,-17.323969,-1.5447681,-2.3605914,1.5145844,9.579197,-10.9404745,15.792894,-50.51816,61.79112,-0.907212,0.2818693,1.6361374,-11.695843,-13.692854,49.484077,61.134357,3.1158724,1.3907402,-6.479595
44,0.3345455229282379,4.505080223083496,77.77326965332031,-0.07056334245054692,-0.5808814646026799,-96.5868421100233,-0.27163,6.293341,12.03685,18.417246,-16.65804,-3.9486449,-2.1424897,-0.24600767,-10.702269,18.56116,-17.29705,-1.6157328,-2.339658,1.5193809,9.628069,-10.9889145,15.7955475,-50.436253,61.75841,-0.9125831,0.24706249,1.6571599,-11.806829,-13.702122,49.514645,61.130383,3.136342,1.3712693,-6.4622774
45,0.30277493596076965,4.590584754943848,77.78018951416016,-0.027905435722756913,-0.5136792818133519,-96.6404734678524,-0.40419522,6.2952757,12.089911,18.398342,-16.54417,-3.982051,-2.3628988,-0.25241995,-10.657656,18.686817,-17.277039,-1.6841695,-2.3132374,1.5181322,9.663526,-11.048586,15.799101,-50.382515,61.72096,-0.98568875,0.25391075,1.6537982,-11.900799,-13.707291,49.50354,61.121502,3.0670972,1.3678718,-6.4559307
46,0.2657548785209656,4.67835807800293,77.7868423461914,0.016896725305918084,-0.44165938342713185,-96.69123164266838,-0.5502672,6.2967772,12.145699,18.389093,-16.428675,-4.0185285,-2.588688,-0.26030734,-10.6110735,18.807827,-17.259798,-1.7514172,-2.2871492,1.5141548,9.691124,-11.110797,15.802863,-50.335407,61.67678,-1.0976268,0.28461337,1.6360149,-11.992054,-13.710556,49.478558,61.11289,2.9506748,1.3748155,-6.4565563
47,0.22429302334785461,4.777340888977051,77.79369354248047,0.06224039188224754,-0.3656500751119314,-96.73257483259884,-0.71950054,6.300737,12.190971,18.405983,-16.320284,-4.05153,-2.824587,-0.26976314,-10.576139,18.936132,-17.24579,-1.8203079,-2.2699716,1.5123503,9.7306185,-11.182655,15.812526,-50.26928,61.626347,-1.197186,0.3203768,1.6079111,-12.093968,-13.715968,49.43517,61.10244,2.8130808,1.3829646,-6.4583564
48,0.18737688660621643,4.875716209411621,77.79571533203125,0.10377406644657024,-0.2851740072649299,-96.7575098437754,-0.92086047,6.30924,12.2125,18.460361,-16.224401,-4.0744023,-3.0741613,-0.2805646,-10.566551,19.07812,-17.232386,-1.8936917,-2.2541654,1.5145355,9.774648,-11.262763,15.825826,-50.215576,61.581486,-1.2648084,0.34446183,1.5868415,-12.203895,-13.722688,49.4029,61.095875,2.7237425,1.3833967,-6.4691057
49,0.14870451390743256,4.9789557456970215,77.7955322265625,0.14323783510228089,-0.20285984677514846,-96.76507351809792,-1.1502668,6.318447,12.206384,18.551432,-16.143793,-4.078969,-3.3305826,-0.29579818,-10.587641,19.228027,-17.22376,-1.9728017,-2.239115,1.5196168,9.826016,-11.356143,15.837263,-50.173096,61.551598,-1.2819265,0.3545924,1.5711884,-12.324424,-13.729137,49.38764,61.09807,2.6929946,1.3713216,-6.4953675
50,0.1040215715765953,5.095909118652344,77.79666900634766,0.1816500892219559,-0.11795141823560745,-96.75878623189104,-1.4043943,6.3285503,12.179774,18.672745,-16.074167,-4.070931,-3.5973554,-0.31534043,-10.631436,19.391203,-17.219936,-2.0559216,-2.2366292,1.5277091,9.890398,-11.4487505,15.864044,-50.114655,61.5067,-1.2584239,0.35989875,1.5525887,-12.460241,-13.745602,49.39249,61.09563,2.6994543,1.353235,-6.5314417
51,0.06103210523724556,5.220530986785889,77.79483032226562,0.21407894645198045,-0.02506261563828018,-96.73831644081088,-1.6968561,6.3477597,12.13626,18.833986,-16.014,-4.064417,-3.884553,-0.3323194,-10.691731,19.569426,-17.211895,-2.1417696,-2.2268474,1.5410602,9.94408,-11.562563,15.872542,-50.089455,61.49919,-1.2417773,0.3546194,1.5444958,-12.595267,-13.751692,49.387917,61.108704,2.7295272,1.3323987,-6.5692163
52,0.024868350476026535,5.345955848693848,77.79438781738281,0.23559747747618387,0.07942293760282587,-96.70366827831653,-2.0398915,6.384823,12.078732,19.045586,-15.962511,-4.0736256,-4.2018394,-0.3399738,-10.762545,19.766779,-17.190094,-2.2289398,-2.2477324,1.5685209,10.021649,-11.67442,15.909884,-50.017605,61.458004,-1.2222202,0.33643988,1.5383447,-12.748077,-13.779776,49.368225,61.092953,2.7571657,1.3175517,-6.5837345
53,-0.01913389004766941,5.480484485626221,77.79594421386719,0.24274860409488627,0.19714909667532518,-96.65662630616504,-2.429867,6.445244,12.015036,19.296373,-15.92325,-4.1096416,-4.5559874,-0.3331987,-10.838838,19.991184,-17.152676,-2.317723,-2.2681854,1.607616,10.091074,-11.802211,15.943768,-49.973656,61.441147,-1.2448338,0.29627547,1.552093,-12.8946495,-13.806143,49.30919,61.07245,2.7981267,1.3066849,-6.573835
54,-0.06295012682676315,5.628396034240723,77.79342651367188,0.23908939860955075,0.3253089650442594,-96.59662029214698,-2.8664742,6.5238156,11.940302,19.595078,-15.897422,-4.1624146,-4.939612,-0.31697935,-10.9251375,20.237276,-17.104136,-2.4084291,-2.2948787,1.6571523,10.161796,-11.946094,15.974428,-49.937855,61.44241,-1.2847464,0.23837765,1.5782093,-13.047213,-13.831361,49.22517,61.051014,2.854565,1.297543,-6.5466204
55,-0.10891378670930862,5.784854888916016,77.7894515991211,0.23037669741122,0.4642065801418626,-96.52048500466667,-3.3510783,6.608931,11.841096,19.941132,-15.871211,-4.214525,-5.3449717,-0.30046597,-11.029126,20.492035,-17.04534,-2.4996853,-2.3252985,1.7141281,10.234201,-12.104535,16.005032,-49.904655,61.45027,-1.325175,0.17732541,1.605936,-13.206289,-13.859944,49.137,61.02936,2.911812,1.2906437,-6.517518
56,-0.15887252986431122,5.951314926147461,77.78215789794922,0.2220756284996059,0.6142363870222793,-96.42480428195375,-3.8864021,6.689301,11.704285,20.336796,-15.830332,-4.248661,-5.7639456,-0.29218912,-11.158664,20.741282,-16.977148,-2.590419,-2.3569162,1.776692,10.310266,-12.274317,16.042118,-49.86825,61.447254,-1.3496174,0.12815318,1.6241851,-13.367068,-13.90282,49.065033,60.996475,2.956015,1.2871698,-6.5016217
57,-0.2071528285741806,6.117621898651123,77.77652740478516,0.21656841202132115,0.7767569464972343,-96.30752022616049,-4.4765973,6.7606134,11.522286,20.787075,-15.771795,-4.255595,-6.2016234,-0.29757679,-11.320804,20.993708,-16.898958,-2.6791887,-2.3942044,1.8456032,10.385564,-12.459607,16.077177,-49.829758,61.445827,-1.3485398,0.09158005,1.6301991,-13.541109,-13.956452,49.040806,60.963512,2.9981213,1.2923009,-6.5083776
58,-0.25277450680732727,6.308020114898682,77.77147674560547,0.21055155214360216,0.9510205837136435,-96.17086020946496,-5.1194277,6.8284016,11.303463,21.289537,-15.702961,-4.2462544,-6.6601067,-0.3114388,-11.509522,21.253515,-16.811073,-2.766946,-2.4379392,1.9213974,10.4581,-12.663501,16.101969,-49.7915,61.46005,-1.3323331,0.060147855,1.6302179,-13.727247,-14.007625,49.041157,60.940907,3.0343003,1.3033915,-6.5284667
59,-0.2989261746406555,6.498543739318848,77.76988983154297,0.2018430912696401,1.134579284773363,-96.01788099128284,-5.8049836,6.8946767,11.058242,21.829454,-15.622235,-4.23339,-7.124867,-0.32643962,-11.713148,21.49448,-16.712387,-2.8562312,-2.4861944,2.006582,10.53772,-12.878276,16.127386,-49.740925,61.467335,-1.3141384,0.036036193,1.6267973,-13.910668,-14.079598,49.040943,60.90041,3.064469,1.3108107,-6.5486765
60,-0.33738020062446594,6.6869354248046875,77.76908111572266,0.18869181668132726,1.3248633133597474,-95.85176205199942,-6.522533,6.9613314,10.797475,22.390007,-15.526662,-4.229806,-7.580837,-0.3349999,-11.919561,21.690048,-16.601812,-2.949776,-2.5364277,2.0989308,10.623728,-13.103944,16.144445,-49.670708,61.475403,-1.3078247,0.020396728,1.6241263,-14.089704,-14.147963,49.002888,60.865273,3.072373,1.3017012,-6.558309
61,-0.37704840302467346,6.885140419006348,77.76123046875,0.16943670345315617,1.5254919492281627,-95.67169370558649,-7.287106,7.032309,10.520189,22.989872,-15.422024,-4.2370343,-8.029708,-0.33288142,-12.125225,21.834007,-16.479847,-3.0503163,-2.589877,2.200001,10.717954,-13.340019,16.157045,-49.576515,61.47984,-1.314368,0.018631551,1.6276923,-14.262099,-14.22448,48.915897,60.824814,3.0592897,1.269262,-6.5511966
62,-0.42101773619651794,7.094141960144043,77.75476837158203,0.14602397833907463,1.7363494610284465,-95.47674320950249,-8.096989,7.1036863,10.222066,23.627306,-15.305975,-4.2492504,-8.477485,-0.32500896,-12.336702,21.94041,-16.347223,-3.155915,-2.6465187,2.3092327,10.817722,-13.589545,16.164423,-49.467514,61.485245,-1.3306408,0.028152287,1.6339087,-14.424132,-14.304552,48.78561,60.778286,3.0155501,1.2211462,-6.5345373
63,-0.46557989716529846,7.319400310516357,77.7483139038086,0.12106667698985145,1.9493146207141034,-95.26934655142486,-8.92256,7.1675615,9.907515,24.266973,-15.170176,-4.268203,-8.915771,-0.31710282,-12.557688,22.012682,-16.20201,-3.2625034,-2.7002242,2.424781,10.927599,-13.850285,16.166128,-49.345078,61.4854,-1.3533009,0.03940461,1.6326355,-14.588483,-14.397618,48.657227,60.725693,2.9792368,1.168314,-6.515063
64,-0.5109653472900391,7.553487777709961,77.74858856201172,0.09745333684722736,2.156378303560061,-95.0519975117102,-9.732952,7.216329,9.581463,24.871058,-15.004999,-4.295279,-9.336104,-0.31445417,-12.791971,22.053646,-16.042326,-3.3661714,-2.75056,2.5441475,11.049251,-14.115935,16.160902,-49.20409,61.475372,-1.3772908,0.042612262,1.6136105,-14.758402,-14.499668,48.557945,60.671864,2.9594321,1.1218722,-6.5004225
65,-0.5501115918159485,7.788606643676758,77.75031280517578,0.06971643233223034,2.3604956360185643,-94.81520778825288,-10.542647,7.253475,9.232488,25.454176,-14.807129,-4.3328457,-9.733305,-0.31250006,-13.052997,22.045744,-15.857144,-3.466508,-2.8000052,2.6743271,11.1841,-14.393414,16.14875,-49.039852,61.454884,-1.3957076,0.035094447,1.5634575,-14.940869,-14.615286,48.50458,60.61667,2.9794042,1.081371,-6.4972234
66,-0.583885669708252,8.019502639770508,77.75450134277344,0.03886161817031546,2.564327301019034,-94.5610171034822,-11.36059,7.280202,8.862525,26.028028,-14.581925,-4.3792377,-10.112322,-0.30970928,-13.334916,21.992714,-15.651118,-3.5657113,-2.8502407,2.8145704,11.33094,-14.680251,16.129736,-48.850296,61.424538,-1.4090451,0.022149708,1.4910485,-15.123346,-14.74551,48.469948,60.55129,3.0132225,1.0427207,-6.4998717
67,-0.6244021058082581,8.25735092163086,77.75354766845703,0.016095610598037366,2.7592469595108327,-94.30918249662349,-12.148531,7.2873683,8.4964075,26.554579,-14.333988,-4.4297748,-10.481088,-0.3168092,-13.612111,21.932169,-15.445602,-3.6634436,-2.8931224,2.9508786,11.48953,-14.969035,16.104118,-48.65499,61.3866,-1.4405205,0.0055158446,1.4198021,-15.313292,-14.89072,48.46324,60.4821,3.0621667,1.0096521,-6.496992
68,-0.6609809398651123,8.50859260559082,77.75050354003906,0.01284192833147655,2.936635514135046,-94.07935695205386,-12.869238,7.2673535,8.1591215,26.99739,-14.070941,-4.4797397,-10.849276,-0.34507075,-13.858925,21.905697,-15.264095,-3.7593637,-2.922093,3.0701315,11.659299,-15.2509985,16.072433,-48.472164,61.342102,-1.513347,-0.0132613005,1.3729196,-15.501793,-15.048443,48.472733,60.404823,3.1014073,0.9869845,-6.4773765
69,-0.694026529788971,8.751887321472168,77.74901580810547,0.032572096818676254,3.0936787418020404,-93.86982996306284,-13.52483,7.2158537,7.8452797,27.359022,-13.776439,-4.53399,-11.216827,-0.40026617,-14.073973,21.91893,-15.113997,-3.8552668,-2.937133,3.1693883,11.846326,-15.526863,16.034914,-48.303818,61.28863,-1.6598914,-0.034560498,1.3600522,-15.695401,-15.218661,48.49903,60.31646,3.1433432,0.9800338,-6.4333487
70,-0.7276173233985901,8.995573997497559,77.74992370605469,0.06882548530311645,3.235127735160033,-93.67238756166357,-14.129968,7.1390314,7.546204,27.653315,-13.452965,-4.5928226,-11.579974,-0.47520226,-14.268956,21.952917,-14.983163,-3.9507434,-2.9407682,3.2557247,12.04868,-15.799647,15.991516,-48.14058,61.225708,-1.8583308,-0.058819287,1.3677065,-15.893054,-15.401659,48.542953,60.21799,3.19054,0.9850997,-6.3723073
71,-0.758704662322998,9.24501895904541,77.7474365234375,0.11696156542749647,3.363522877614196,-93.49642284837567,-14.675309,7.0472608,7.2807484,27.877317,-13.1353035,-4.644542,-11.940836,-0.5610723,-14.437287,22.005146,-14.861676,-4.0421314,-2.9291449,3.3300948,12.253222,-16.065641,15.942301,-47.986485,61.159496,-2.0523746,-0.08504955,1.3846029,-16.09443,-15.595368,48.616104,60.1275,3.229982,0.991803,-6.3065677
72,-0.7820758819580078,9.49069595336914,77.73902893066406,0.17285603506906053,3.4814994373727157,-93.35123818378219,-15.149225,6.9512014,7.0678773,28.024204,-12.856061,-4.677655,-12.301528,-0.64913964,-14.5725565,22.073904,-14.740021,-4.1256895,-2.898855,3.3931816,12.446402,-16.318935,15.88713,-47.84186,61.09545,-2.1819942,-0.11174968,1.3995045,-16.298504,-15.795968,48.727493,60.0647,3.245144,0.98986477,-6.248158
73,-0.8089410066604614,9.728610038757324,77.7344741821289,0.2383340154991234,3.5892369026830457,-93.24207929757867,-15.542623,6.849488,6.9149976,28.040756,-12.613234,-4.660185,-12.666252,-0.7409604,-14.666306,22.165237,-14.615025,-4.199124,-2.844363,3.443125,12.627998,-16.560095,15.825667,-47.70627,61.027225,-2.2179494,-0.13880332,1.4098768,-16.5143,-16.001417,48.893898,60.044994,3.2248662,0.9713857,-6.1985173
74,-0.8294475078582764,9.969093322753906,77.73204040527344,0.31428730666246507,3.6856100741802367,-93.16303700399176,-15.862945,6.7393804,6.8113647,27.94579,-12.391943,-4.607913,-13.03196,-0.8391546,-14.723927,22.27559,-14.490706,-4.2647557,-2.7699454,3.4805636,12.803612,-16.792934,15.758463,-47.581573,60.956192,-2.2003639,-0.16703013,1.421804,-16.743095,-16.210188,49.108925,60.0588,3.1829202,0.94328654,-6.1521063
75,-0.8563390970230103,10.214174270629883,77.72650909423828,0.39487190548729595,3.7711462955026858,-93.10669995231474,-16.126698,6.63004,6.7475166,27.846466,-12.209034,-4.5810056,-13.392554,-0.93826807,-14.760084,22.396202,-14.371879,-4.3256154,-2.687189,3.5086524,12.968755,-17.00711,15.685307,-47.457844,60.89311,-2.1560314,-0.195888,1.4365445,-16.97267,-16.419151,49.345802,60.09256,3.1370823,0.9169932,-6.1106973
76,-0.8808122873306274,10.453719139099121,77.7200698852539,0.4746708635550111,3.846414110425839,-93.06557937521944,-16.35131,6.529897,6.713805,27.851027,-12.081975,-4.639587,-13.741173,-1.032667,-14.7894535,22.516891,-14.262899,-4.384659,-2.606991,3.5301592,13.118603,-17.198133,15.606215,-47.334084,60.85298,-2.1212184,-0.22499546,1.45586,-17.195824,-16.624222,49.58466,60.13658,3.115189,0.903377,-6.0761538
77,-0.9085626602172852,10.696778297424316,77.7069320678711,0.5564661945885034,3.916202930633346,-93.0446316960042,-16.529264,6.4361944,6.720195,27.911259,-12.005977,-4.8195124,-14.084524,-1.1254724,-14.810752,22.63726,-14.167581,-4.441496,-2.5250404,3.542457,13.249779,-17.364155,15.519583,-47.201126,60.842865,-2.0966694,-0.25884384,1.4840989,-17.422184,-16.822773,49.842834,60.20291,3.1270697,0.9080754,-6.04457
78,-0.927406370639801,10.929471015930176,77.69425201416016,0.6420152088403553,3.9788476093939487,-93.04544735764823,-16.657656,6.34618,6.7672563,27.998695,-11.976806,-5.081904,-14.423374,-1.2184831,-14.81767,22.7617,-14.08233,-4.494612,-2.4389756,3.544639,13.364779,-17.510088,15.4251995,-47.065746,60.856922,-2.0701306,-0.29625514,1.5192819,-17.653143,-17.012993,50.123062,60.2963,3.1557407,0.92420584,-6.016828
79,-0.944617509841919,11.159987449645996,77.68487548828125,0.7238645205551812,4.025194124210325,-93.05546879143164,-16.756992,6.2681375,6.8320017,28.246151,-12.009337,-5.374676,-14.743859,-1.3049215,-14.817808,22.890894,-14.002993,-4.545514,-2.361056,3.5408912,13.467567,-17.633823,15.325149,-46.939777,60.88466,-2.0444677,-0.32813346,1.5528942,-17.870392,-17.19286,50.38408,60.396954,3.1895344,0.94379026,-6.001447
80,-0.9670409560203552,11.38528823852539,77.66578674316406,0.7945438568384934,4.045993476708697,-93.06209221526993,-16.848516,6.210479,6.8912725,28.78753,-12.119886,-5.645944,-15.029861,-1.3775638,-14.819078,23.020273,-13.922138,-4.5956535,-2.3025496,3.5360723,13.562563,-17.73628,15.223562,-46.84228,60.915375,-2.0299504,-0.34534687,1.5764083,-18.043314,-17.359114,50.56871,60.474983,3.2016807,0.95965564,-6.0071487
81,-0.9853470921516418,11.606578826904297,77.64668273925781,0.853120957712348,4.033851822651132,-93.07058511660986,-16.9285,6.1732855,6.938358,29.660498,-12.314163,-5.921991,-15.278464,-1.4332801,-14.815802,23.162643,-13.841809,-4.6459484,-2.2600243,3.5280726,13.653054,-17.810043,15.123303,-46.775627,60.941486,-2.0333045,-0.33847535,1.5913341,-18.165747,-17.509895,50.669094,60.533512,3.1758194,0.9698267,-6.0410843
82,-1.0068720579147339,11.823077201843262,77.62556457519531,0.9028634716090402,3.9952119484259616,-93.08491581057947,-16.98793,6.152569,6.9867015,30.79196,-12.583473,-6.2176747,-15.496346,-1.4755105,-14.80676,23.312643,-13.762962,-4.695377,-2.2284675,3.5148127,13.736296,-17.85798,15.025479,-46.736073,60.967876,-2.0526145,-0.31467468,1.6010306,-18.257374,-17.645252,50.716972,60.588802,3.1358178,0.977722,-6.0970454
83,-1.0354233980178833,12.032283782958984,77.60502624511719,0.9426948716090033,3.9414202686800546,-93.09086493064484,-17.034042,6.150505,7.0433617,32.140793,-12.916661,-6.463694,-15.687106,-1.5078113,-14.805964,23.450916,-13.683348,-4.742998,-2.2183022,3.5009215,13.807348,-17.888803,14.931163,-46.72172,60.99862,-2.074043,-0.28890246,1.5990547,-18.31086,-17.764828,50.691315,60.623436,3.0842068,0.98517275,-6.1634316
84,-1.0665771961212158,12.244965553283691,77.58746337890625,0.9707501474056928,3.8834817039443297,-93.07417710465843,-17.074497,6.1708164,7.113858,33.666542,-13.302114,-6.590266,-15.852393,-1.5327481,-14.827944,23.55475,-13.599173,-4.788106,-2.2369778,3.4909675,13.861671,-17.910765,14.840323,-46.72986,61.037785,-2.079318,-0.2759503,1.5794713,-18.333227,-17.870552,50.58969,60.629456,3.0484457,0.9926894,-6.2283463
85,-1.088584542274475,12.461764335632324,77.56481170654297,0.982212903267704,3.8214451879718814,-93.02704563638767,-17.118153,6.227181,7.2115884,35.417137,-13.75018,-6.5617504,-15.991214,-1.548694,-14.881598,23.624376,-13.51331,-4.8338566,-2.2933304,3.489712,13.897858,-17.92474,14.7530985,-46.759495,61.091286,-2.0635033,-0.28490704,1.5308292,-18.316687,-17.963097,50.386127,60.59831,3.018381,1.0012422,-6.2899733
86,-1.1127883195877075,12.675741195678711,77.54171752929688,0.9773414398714287,3.7495007507007654,-92.95891512723273,-17.150106,6.3164854,7.3275647,37.381207,-14.256105,-6.4202585,-16.101063,-1.5522478,-14.95812,23.667103,-13.425511,-4.8801007,-2.3795433,3.4960139,13.919405,-17.92641,14.669475,-46.812298,61.154423,-2.0356004,-0.30601972,1.4596889,-18.255974,-18.042538,50.084316,60.532337,2.9801667,1.0104456,-6.3538876
87,-1.1436738967895508,12.872438430786133,77.52342987060547,0.9622027822512114,3.670679635718546,-92.88197388376945,-17.142872,6.4167366,7.4335933,39.428802,-14.784927,-6.2127686,-16.183186,-1.5439152,-15.04497,23.674332,-13.328306,-4.9212656,-2.4795718,3.5046873,13.928927,-17.919054,14.589257,-46.893375,61.217896,-2.0043955,-0.32651252,1.3865287,-18.164412,-18.110876,49.731834,60.440662,2.9586647,1.019201,-6.419688
88,-1.1655875444412231,13.085265159606934,77.5033187866211,0.9439708663492828,3.58819296956826,-92.80798434384708,-17.074053,6.503436,7.5029144,41.44049,-15.306422,-5.9872756,-16.2395,-1.5253626,-15.129078,23.638012,-13.21506,-4.9514885,-2.5797355,3.5099442,13.928495,-17.902786,14.51221,-47.00108,61.270653,-1.9734193,-0.33339727,1.3315017,-18.045769,-18.1704,49.36312,60.326187,2.961562,1.0270941,-6.4869146
89,-1.1866121292114258,13.298585891723633,77.48410034179688,0.919952740302232,3.50098260558835,-92.73849191680499,-16.942074,6.5751605,7.527358,43.42696,-15.832986,-5.730679,-16.259577,-1.4902952,-15.210419,23.537766,-13.078035,-4.9677677,-2.680567,3.513963,13.92176,-17.88228,14.439626,-47.150333,61.311092,-1.9456476,-0.31967276,1.305368,-17.908802,-18.22284,48.982315,60.184788,3.0181131,1.038032,-6.564179
90,-1.2110899686813354,13.506795883178711,77.46969604492188,0.8877744101930689,3.407886888706064,-92.66773461051717,-16.757174,6.640399,7.5221357,45.438034,-16.373693,-5.427334,-16.245594,-1.4395684,-15.294762,23.383398,-12.922369,-4.973698,-2.7885652,3.519017,13.907037,-17.854342,14.371994,-47.33449,61.342438,-1.9169552,-0.2933121,1.2953011,-17.743176,-18.268122,48.56669,60.01045,3.1082954,1.0512848,-6.648673
91,-1.233027458190918,13.695621490478516,77.45986938476562,0.8570659752193306,3.312351423909016,-92.5962828579807,-16.512789,6.6880174,7.497377,47.407787,-16.89077,-5.122129,-16.220554,-1.3886648,-15.37726,23.214897,-12.762321,-4.9727106,-2.8975363,3.5172455,13.878614,-17.813526,14.307658,-47.529484,61.366276,-1.8885231,-0.26428774,1.2867202,-17.550865,-18.30773,48.147785,59.821266,3.207976,1.0578626,-6.7231874
92,-1.255826711654663,13.909144401550293,77.44882202148438,0.8374829883060307,3.2179402420358607,-92.52480680109377,-16.204582,6.708605,7.46307,49.2752,-17.349525,-4.859208,-16.2071,-1.3533794,-15.453048,23.071568,-12.611322,-4.968367,-3.003274,3.5010812,13.829718,-17.755287,14.24422,-47.71136,61.386307,-1.8639984,-0.24288511,1.2650747,-17.339878,-18.344267,47.765366,59.640697,3.2995193,1.0485382,-6.7705646
93,-1.272369623184204,14.11136531829834,77.43428039550781,0.8325247209595972,3.1272885326278597,-92.45044251049345,-15.829642,6.6967177,7.4150004,51.03542,-17.771385,-4.642552,-16.204596,-1.3386166,-15.526025,22.949884,-12.472595,-4.9583945,-3.1110094,3.4680393,13.751892,-17.67326,14.1802025,-47.87231,61.403717,-1.848666,-0.23129308,1.2193818,-17.09573,-18.37852,47.407547,59.459145,3.370929,1.0155617,-6.780126
94,-1.303532361984253,14.297370910644531,77.42635345458984,0.8372860577241018,3.038142941137589,-92.37386254539508,-15.393342,6.6590247,7.3501077,52.7239,-18.16807,-4.450893,-16.203405,-1.3365991,-15.596611,22.833872,-12.339046,-4.9418163,-3.221435,3.4226017,13.650736,-17.571001,14.115013,-48.0225,61.417145,-1.8359584,-0.22418097,1.159803,-16.8202,-18.410337,47.063187,59.26835,3.4369357,0.9658351,-6.76302
95,-1.3237048387527466,14.482802391052246,77.41077423095703,0.8482835546065981,2.9464199974092975,-92.30064282084334,-14.905326,6.605768,7.2803187,54.33837,-18.487116,-4.2899117,-16.214666,-1.3440757,-15.655691,22.746702,-12.210447,-4.9242344,-3.3256528,3.3684978,13.539696,-17.464117,14.048781,-48.173397,61.43113,-1.8240165,-0.22154516,1.1034646,-16.533136,-18.440285,46.755814,59.086285,3.4964447,0.91293263,-6.735012
96,-1.3435521125793457,14.667552947998047,77.39806365966797,0.862565189290241,2.847963504693559,-92.23624059567346,-14.373087,6.546206,7.218223,55.871693,-18.678663,-4.165573,-16.249249,-1.357022,-15.69382,22.711626,-12.086527,-4.9112577,-3.4150589,3.3092618,13.433217,-17.363337,13.981469,-48.328697,61.445866,-1.8023096,-0.22286709,1.0672221,-16.261038,-18.46881,46.51906,58.933533,3.5609207,0.87024105,-6.7120605
97,-1.3659249544143677,14.863346099853516,77.37921905517578,0.8803872699077604,2.7386130677724108,-92.18100462767511,-13.789594,6.4807878,7.165871,57.326656,-18.74389,-4.095058,-16.315422,-1.3772993,-15.70343,22.752787,-11.969871,-4.9065833,-3.4905019,3.243499,13.3357315,-17.27171,13.913453,-48.496494,61.46577,-1.7726576,-0.23251726,1.062288,-15.994704,-18.494871,46.346348,58.805294,3.620942,0.83807486,-6.696338
98,-1.3820451498031616,15.058638572692871,77.36720275878906,0.9032828486356145,2.621452739022649,-92.1322490345187,-13.154276,6.4047933,7.1172385,58.70586,-18.705154,-4.070015,-16.40519,-1.4062309,-15.691195,22.850758,-11.859224,-4.9062757,-3.5545793,3.1694827,13.239704,-17.18334,13.8445835,-48.672516,61.48885,-1.7380065,-0.24922788,1.0775632,-15.737791,-18.518732,46.240833,58.702133,3.6947365,0.80979276,-6.6802874
99,-1.3995717763900757,15.26053237915039,77.35353088378906,0.9295978558495269,2.5037523650510756,-92.09163109166965,-12.486768,6.321297,7.0727897,60.009197,-18.542347,-4.058664,-16.50628,-1.4386117,-15.669015,22.967047,-11.749928,-4.904623,-3.6101258,3.09125,13.139823,-17.092262,13.777946,-48.83773,61.503925,-1.6951787,-0.26410618,1.0955546,-15.482132,-18.538778,46.179398,58.619495,3.740024,0.7908958,-6.664824
100,-1.4172316789627075,15.469330787658691,77.33526611328125,0.9569147926174789,2.392822380877369,-92.06088245251135,-11.807181,6.232387,7.0334153,61.236496,-18.234838,-4.0295196,-16.607685,-1.4700274,-15.6490965,23.065292,-11.638362,-4.8959193,-3.6524673,3.013378,13.0303755,-17.000912,13.708396,-48.98156,61.51057,-1.6420573,-0.26879966,1.0996447,-15.241194,-18.558136,46.166466,58.567497,3.754544,0.7856217,-6.6509395
101,-1.4228031635284424,15.666604042053223,77.31616973876953,0.9877169199639192,2.291115871939605,-92.04422571428934,-11.118281,6.1350436,7.001797,62.393127,-17.753307,-3.9541543,-16.70769,-1.5015935,-15.631328,23.138372,-11.523352,-4.8750534,-3.682139,2.934894,12.906884,-16.898392,13.639333,-49.093002,61.49484,-1.5608575,-0.25457487,1.0863655,-15.003954,-18.575102,46.201405,58.541992,3.6940274,0.8013529,-6.6390786
102,-1.4364168643951416,15.87534236907959,77.29436492919922,1.0224970313905235,2.1944754171405236,-92.03953770196095,-10.410858,6.0281734,6.978056,63.476715,-17.114725,-3.8563638,-16.812256,-1.5355033,-15.610106,23.206228,-11.407653,-4.8460236,-3.7032275,2.8491898,12.777055,-16.777254,13.59765,-49.182095,61.435467,-1.4639227,-0.22631687,1.0625701,-14.78938,-18.584816,46.30161,58.55469,3.5942395,0.83255297,-6.6283727
103,-1.4550808668136597,16.093578338623047,77.26725769042969,1.0558419164803265,2.1004960545756073,-92.03890794887658,-9.68761,5.917632,6.9571657,64.476,-16.369644,-3.7863061,-16.918833,-1.5666689,-15.589681,23.265501,-11.289925,-4.817109,-3.7171865,2.7703025,12.640743,-16.67245,13.526375,-49.25271,61.405815,-1.3711929,-0.20230676,1.0325477,-14.574993,-18.599596,46.428688,58.582386,3.489651,0.86881936,-6.6192102
104,-1.4671916961669922,16.292509078979492,77.2422866821289,1.0833241443969446,2.0065224252600995,-92.03405407180617,-8.951385,5.808218,6.9338517,65.38104,-15.569301,-3.791232,-17.025547,-1.5911318,-15.574087,23.314669,-11.16937,-4.796873,-3.7336514,2.6967435,12.512573,-16.577587,13.459288,-49.302635,61.379814,-1.3092163,-0.19371836,0.99358267,-14.366803,-18.611717,46.54815,58.618553,3.4158964,0.8977912,-6.609431
105,-1.4718329906463623,16.503828048706055,77.21851348876953,1.1033021210507645,1.9110433304810914,-92.02808042424178,-8.193117,5.701947,6.9132676,66.185875,-14.702729,-3.8883872,-17.123941,-1.6043042,-15.563602,23.340422,-11.043646,-4.784814,-3.7510164,2.6308923,12.394592,-16.486921,13.397851,-49.31596,61.356823,-1.2886409,-0.21129578,0.93602467,-14.172599,-18.621868,46.675236,58.66746,3.3982673,0.9149974,-6.597868
106,-1.479210376739502,16.730533599853516,77.19145965576172,1.119097512105007,1.8157175995900896,-92.02331704570591,-7.415904,5.5922785,6.8945684,66.89851,-13.751524,-4.0525727,-17.218616,-1.6106311,-15.555965,23.349472,-10.914661,-4.777584,-3.7627075,2.566238,12.284265,-16.393236,13.357381,-49.304607,61.31485,-1.298542,-0.2438421,0.8623868,-13.98696,-18.628448,46.80807,58.72909,3.4040365,0.92686397,-6.5846887
107,-1.4913582801818848,16.962488174438477,77.16020202636719,1.1339175863995392,1.723227474477724,-92.01110925206457,-6.6398144,5.4701495,6.862449,67.52833,-12.756202,-4.2698207,-17.328587,-1.6198947,-15.551996,23.37389,-10.789803,-4.7792344,-3.7824876,2.5018399,12.177425,-16.310307,13.322114,-49.287735,61.271084,-1.3195626,-0.2758608,0.7932175,-13.80829,-18.633562,46.93819,58.799557,3.4214747,0.9385719,-6.574191
108,-1.4974061250686646,17.20655632019043,77.12480163574219,1.1484605410437085,1.6360954562663743,-91.98230777194998,-5.884948,5.3301973,6.800928,68.08324,-11.755997,-4.525938,-17.467081,-1.6381284,-15.553456,23.432232,-10.6697235,-4.794056,-3.8213234,2.4367642,12.070952,-16.249817,13.284517,-49.289246,61.235348,-1.3345896,-0.2917598,0.7489408,-13.625842,-18.636318,47.043285,58.867977,3.428339,0.9554031,-6.5701027
109,-1.507815957069397,17.448772430419922,77.08988952636719,1.162330302512199,1.5528088144693328,-91.93512849800088,-5.1444955,5.179992,6.7155414,68.56945,-10.753877,-4.8534055,-17.641735,-1.6664776,-15.561455,23.542524,-10.5553255,-4.844445,-3.8659794,2.3671272,11.968186,-16.217276,13.258839,-49.343727,61.19052,-1.3518742,-0.27757934,0.74086213,-13.438217,-18.635153,47.110226,58.937958,3.4206338,0.97776246,-6.573682
110,-1.5140591859817505,17.705612182617188,77.05039978027344,1.1747814370602558,1.4728426377079193,-91.87389323817999,-4.412653,5.0179043,6.608987,68.98279,-9.732619,-5.24967,-17.843212,-1.7012968,-15.575098,23.687883,-10.444883,-4.9215074,-3.9139125,2.2952104,11.866087,-16.210133,13.234972,-49.43511,61.14982,-1.3795683,-0.24593674,0.75771433,-13.242343,-18.629335,47.14684,59.01066,3.4034793,1.0033431,-6.583737
111,-1.5204633474349976,17.97557830810547,77.00665283203125,1.188711744936249,1.4001775050425063,-91.79947473000114,-3.7111225,4.8252716,6.463035,69.316696,-8.701464,-5.646967,-18.061916,-1.743743,-15.59274,23.841671,-10.3380375,-4.9824014,-3.9701967,2.2194715,11.76629,-16.217367,13.220011,-49.52775,61.10787,-1.3999069,-0.21406014,0.7806174,-13.046632,-18.620598,47.149216,59.07851,3.3841975,1.0310498,-6.59472
112,-1.523406744003296,18.23683738708496,76.95997619628906,1.206536235744863,1.338945391595917,-91.71263343402369,-3.0612817,4.585493,6.2611485,69.56485,-7.6686993,-5.9770427,-18.289116,-1.7947655,-15.612505,23.977444,-10.2344055,-4.9838395,-4.034306,2.1385777,11.665134,-16.234337,13.209955,-49.599583,61.075256,-1.4027392,-0.20041609,0.7932969,-12.850356,-18.608538,47.107433,59.133358,3.3670561,1.0596019,-6.6028657
113,-1.5297279357910156,18.513504028320312,76.9163589477539,1.2268344345245563,1.291745773401157,-91.61785127571048,-2.4694455,4.3234243,6.024656,69.74636,-6.627581,-6.203839,-18.525229,-1.8467379,-15.626945,24.086803,-10.132185,-4.9221044,-4.100867,2.0523453,11.562046,-16.263,13.203404,-49.639835,61.05848,-1.3643566,-0.21293448,0.7822281,-12.646589,-18.590034,46.996185,59.169052,3.3338928,1.0938869,-6.603577
114,-1.5344280004501343,18.811542510986328,76.86357116699219,1.2486580927332485,1.2559631680321155,-91.51294914702164,-1.9238516,4.041445,5.7543983,69.85887,-5.5762525,-6.3692985,-18.776962,-1.9023954,-15.639377,24.190971,-10.036035,-4.817305,-4.185892,1.965456,11.459696,-16.296125,13.203606,-49.64447,61.04428,-1.292107,-0.24093066,0.7591447,-12.45092,-18.572046,46.858276,59.192883,3.3079753,1.1337532,-6.600933
115,-1.5327626466751099,19.10371971130371,76.80911254882812,1.2762344676211512,1.227429807901663,-91.38989427128747,-1.417775,3.6890376,5.404701,69.86275,-4.5294976,-6.5225267,-19.03601,-1.9762331,-15.66258,24.287182,-9.942049,-4.661682,-4.2751756,1.8703067,11.358082,-16.345922,13.210128,-49.653755,61.03577,-1.2348878,-0.27437246,0.74390477,-12.248022,-18.54719,46.672623,59.208565,3.2756195,1.1673808,-6.6001067
116,-1.5271098613739014,19.395662307739258,76.75428771972656,1.3130584054708763,1.2022247663106995,-91.24010043956102,-0.94358623,3.2144835,4.9269834,69.71966,-3.504242,-6.7147107,-19.295452,-2.0835156,-15.710167,24.376709,-9.849391,-4.4470873,-4.3927555,1.7701737,11.256124,-16.401592,13.221426,-49.664837,61.024246,-1.2317253,-0.30383685,0.75799334,-12.058402,-18.523623,46.50202,59.23078,3.2758596,1.1850315,-6.6095552
117,-1.512453556060791,19.707706451416016,76.69630432128906,1.3663888306333516,1.1828303259769295,-91.05354075868627,-0.5082477,2.5755908,4.2768264,69.416214,-2.4624853,-6.9668717,-19.56385,-2.243006,-15.788181,24.475685,-9.769306,-4.1399136,-4.540617,1.6588522,11.152121,-16.46694,13.238235,-49.685604,61.00314,-1.3265076,-0.33373725,0.82440436,-11.876037,-18.500153,46.330196,59.257885,3.3223422,1.1756691,-6.635243
118,-1.4996986389160156,20.015830993652344,76.64019012451172,1.4317553839508737,1.1698317514721577,-90.83754719575963,-0.10540186,1.8119953,3.4864345,68.97523,-1.413073,-7.2511344,-19.84064,-2.4416714,-15.887985,24.577354,-9.699274,-3.7542906,-4.718433,1.540803,11.046269,-16.540722,13.258167,-49.70248,60.978867,-1.4849399,-0.36756995,0.926328,-11.700868,-18.480766,46.156536,59.28466,3.4045186,1.147888,-6.672412
119,-1.4854100942611694,20.32939338684082,76.59136962890625,1.496590544616643,1.1561805133564627,-90.61038611396681,0.2925197,0.9961409,2.6225703,68.414505,-0.44498625,-7.542353,-20.10955,-2.6484985,-16.00009,24.65896,-9.622839,-3.3540998,-4.8998213,1.4221513,10.94491,-16.626627,13.28374,-49.731327,60.963192,-1.6388288,-0.3923337,1.0235871,-11.528601,-18.462673,45.97853,59.30661,3.4805987,1.1196715,-6.7089524
120,-1.4623929262161255,20.660804748535156,76.53621673583984,1.5476925991712376,1.1351020645915841,-90.39022477032739,0.70899296,0.20363095,1.7554327,67.750374,0.3564023,-7.8086286,-20.35408,-2.831251,-16.115456,24.694653,-9.520037,-3.003924,-5.071599,1.3116237,10.852567,-16.72448,13.313491,-49.77434,60.97175,-1.7182302,-0.39533043,1.0764339,-11.363933,-18.446085,45.815895,59.325806,3.5172536,1.1094663,-6.734184
121,-1.4475529193878174,20.979515075683594,76.48717498779297,1.5815428307000328,1.1034738713634495,-90.1780170660753,1.1571864,-0.6104317,0.82424414,66.95778,0.9495546,-8.091996,-20.566103,-2.9830985,-16.23574,24.677845,-9.393041,-2.7124002,-5.221407,1.2048274,10.773255,-16.836662,13.364604,-49.860317,60.999336,-1.6940453,-0.36207244,1.0629203,-11.200688,-18.421093,45.64742,59.341583,3.482815,1.1254492,-6.7406273
122,-1.428442358970642,21.30907440185547,76.43744659423828,1.603386798301179,1.0651596812906163,-89.96603893352112,1.6264582,-1.4488906,-0.18088235,66.04056,1.3855484,-8.375077,-20.75017,-3.1168842,-16.365294,24.610775,-9.243305,-2.4485998,-5.382914,1.1085056,10.700986,-16.960934,13.408921,-49.94522,61.06186,-1.5953082,-0.30566487,1.0081104,-11.051933,-18.399845,45.511436,59.358208,3.41868,1.1581227,-6.737193
123,-1.411636471748352,21.668628692626953,76.38783264160156,1.615710088530444,1.024454990680092,-89.75788043861752,2.0930111,-2.1871426,-1.1185167,65.06165,1.7139522,-8.552762,-20.925806,-3.2378657,-16.498627,24.516909,-9.068469,-2.2181191,-5.5309043,1.0176325,10.635224,-17.091747,13.463597,-50.038746,61.12681,-1.4821068,-0.24490319,0.94218934,-10.91212,-18.374628,45.380722,59.37893,3.3454692,1.193731,-6.7326803
124,-1.3922219276428223,22.015033721923828,76.34030151367188,1.621109953499579,0.9861261427616032,-89.5569588084206,2.5239427,-2.7092896,-1.8429828,64.08286,1.9897523,-8.526511,-21.111488,-3.351672,-16.630854,24.4172,-8.865,-2.0260768,-5.680656,0.94186234,10.569603,-17.22189,13.504514,-50.094193,61.19879,-1.3944856,-0.20306782,0.8955813,-10.782945,-18.356922,45.2778,59.401634,3.2928348,1.2217107,-6.7382255
125,-1.3802696466445923,22.373275756835938,76.28902435302734,1.6137892789465502,0.9531337954743471,-89.36638883973347,2.9101055,-2.9450378,-2.264573,63.066105,2.23722,-8.238435,-21.302084,-3.4480078,-16.764847,24.294392,-8.625721,-1.8625178,-5.8092637,0.8814175,10.502935,-17.345621,13.556852,-50.133984,61.251755,-1.3496768,-0.1847357,0.8712196,-10.658734,-18.33721,45.1828,59.43334,3.2578423,1.2394545,-6.7574763
126,-1.3585835695266724,22.736045837402344,76.2410888671875,1.5955740226093813,0.9228772365344632,-89.18295553345177,3.2583244,-2.9787557,-2.4705777,61.99776,2.4262507,-7.755127,-21.491222,-3.5290856,-16.902328,24.144934,-8.3541,-1.7283971,-5.934865,0.83663476,10.436423,-17.464117,13.609011,-50.14536,61.302906,-1.3129991,-0.17940572,0.85446775,-10.543904,-18.3201,45.112434,59.469963,3.2321546,1.2537016,-6.785282
127,-1.3346059322357178,23.117843627929688,76.19200134277344,1.5820897234303493,0.8918558316680555,-89.00015187509959,3.5591424,-2.933891,-2.580618,60.972637,2.5328734,-7.171887,-21.699627,-3.6201005,-17.034973,24.01481,-8.064935,-1.6455922,-6.06012,0.78405535,10.378924,-17.580845,13.681789,-50.14775,61.333504,-1.299856,-0.17847845,0.8485085,-10.445831,-18.300901,45.049885,59.507057,3.217257,1.2618821,-6.815041
128,-1.300932765007019,23.499265670776367,76.13736724853516,1.587670522745886,0.8565175488458323,-88.81137982874137,3.8049872,-2.9292154,-2.7172878,60.082794,2.5361958,-6.580759,-21.945272,-3.7450595,-17.155045,23.944817,-7.770283,-1.6359528,-6.192952,0.7108819,10.334544,-17.712215,13.750813,-50.14176,61.368256,-1.3101791,-0.17621663,0.8580949,-10.351511,-18.286121,44.97219,59.520607,3.2021592,1.2635586,-6.8404746
129,-1.272289514541626,23.891355514526367,76.08612060546875,1.624139951485279,0.8168739186107055,-88.61547287232762,3.978795,-2.9897175,-2.8985186,59.33144,2.4904811,-5.9479446,-22.24367,-3.921783,-17.256077,23.963211,-7.46586,-1.7358176,-6.3318524,0.6027886,10.30784,-17.85652,13.8262615,-50.134243,61.394505,-1.3617655,-0.16682343,0.8993646,-10.272845,-18.27459,44.874844,59.518627,3.2010627,1.2541504,-6.8575764
130,-1.2337725162506104,24.305139541625977,76.03335571289062,1.6811933554198049,0.7744125715105179,-88.41563859367423,4.0895452,-3.0593083,-3.063973,58.674984,2.3855777,-5.2473307,-22.581633,-4.1342435,-17.34437,24.041847,-7.1476936,-1.9238651,-6.4743066,0.47118822,10.29476,-18.008831,13.910849,-50.120945,61.409912,-1.4474145,-0.15520862,0.9648914,-10.200937,-18.266657,44.759697,59.498928,3.2029176,1.2361192,-6.8702745
131,-1.2001450061798096,24.74074363708496,75.97508239746094,1.740562364206451,0.7279877923218668,-88.21272495958827,4.1701603,-3.1321397,-3.224958,58.131886,2.1096203,-4.582307,-22.936028,-4.3556647,-17.430048,24.14088,-6.8311944,-2.1355271,-6.613932,0.3347492,10.290275,-18.174662,13.9977665,-50.10738,61.425842,-1.5396463,-0.14906788,1.023822,-10.133394,-18.263792,44.645546,59.45887,3.2088304,1.2161247,-6.883884
132,-1.1627779006958008,25.169527053833008,75.90601348876953,1.7833366137901294,0.6764719720727603,-88.00773454183079,4.2548404,-3.2014105,-3.395232,57.718,1.5533187,-4.0565042,-23.283276,-4.558778,-17.523544,24.22024,-6.531568,-2.3061574,-6.7439933,0.21145792,10.290501,-18.360498,14.088626,-50.107574,61.447643,-1.6200979,-0.15600374,1.044895,-10.06113,-18.265726,44.54155,59.390198,3.209669,1.2011927,-6.9035826
133,-1.1249361038208008,25.618017196655273,75.82646942138672,1.8060556263747185,0.6223576902868064,-87.79762123280642,4.348514,-3.2716806,-3.596549,57.485397,0.55805475,-3.6640394,-23.624014,-4.7360168,-17.623024,24.27149,-6.252108,-2.424121,-6.864945,0.10404558,10.296329,-18.57288,14.185548,-50.122166,61.475292,-1.6884338,-0.18396224,1.0060787,-9.983614,-18.272282,44.43966,59.287098,3.1896114,1.1977146,-6.9319324
134,-1.0911864042282104,26.09771156311035,75.73811340332031,1.8180769213206525,0.5654058534715712,-87.58269030429899,4.435401,-3.3453994,-3.819448,57.40595,-0.7718755,-3.3641312,-23.96849,-4.90128,-17.725243,24.314865,-5.985302,-2.5226214,-6.979165,0.0035024807,10.310034,-18.805489,14.289052,-50.14461,61.50327,-1.7520974,-0.22656465,0.9283124,-9.907289,-18.283325,44.341496,59.15559,3.1628702,1.200373,-6.965812
135,-1.0573722124099731,26.564048767089844,75.64759826660156,1.819496356475366,0.5002853154184338,-87.36836440506393,4.5166264,-3.4065378,-4.026709,57.379864,-2.1522713,-3.203345,-24.30791,-5.0587645,-17.8375,24.354229,-5.7286515,-2.6038208,-7.085756,-0.08966235,10.328913,-19.045364,14.39813,-50.1767,61.530704,-1.8056966,-0.27001855,0.84525007,-9.826297,-18.299278,44.25878,59.00329,3.1467555,1.1987563,-7.0016046
136,-1.0163496732711792,27.031221389770508,75.55436706542969,1.811091450626397,0.42165884921466773,-87.16045216796776,4.59358,-3.4368544,-4.176938,57.306984,-3.2989767,-3.2245266,-24.632141,-5.2133512,-17.966623,24.390783,-5.478271,-2.6691954,-7.182845,-0.17401843,10.350758,-19.280376,14.51043,-50.220547,61.55778,-1.8437682,-0.300819,0.7906528,-9.734653,-18.319962,44.204678,58.836025,3.1621914,1.1824838,-7.0359836
137,-0.9789046049118042,27.513450622558594,75.45237731933594,1.7871243845130425,0.32739065928044014,-86.95689062415755,4.6655526,-3.4104357,-4.229099,57.184734,-4.1472507,-3.5163252,-24.939001,-5.367093,-18.12074,24.43231,-5.2357674,-2.7248862,-7.271245,-0.24805568,10.375156,-19.512798,14.624597,-50.29289,61.589622,-1.8612818,-0.31370538,0.7754188,-9.630369,-18.345968,44.186855,58.65487,3.2244232,1.1456677,-7.070006
138,-0.9330257773399353,28.000688552856445,75.34368896484375,1.7507037896441022,0.22064694980398997,-86.75602937241335,4.731113,-3.338721,-4.20811,57.0601,-4.845199,-4.025938,-25.235144,-5.5183125,-18.293463,24.479723,-5.0045557,-2.7676153,-7.350383,-0.31225637,10.403652,-19.749662,14.740046,-50.3891,61.627087,-1.8635167,-0.316688,0.7811773,-9.518803,-18.377357,44.20011,58.45775,3.3241394,1.0946778,-7.104851
139,-0.9004347324371338,28.50080108642578,75.22781372070312,1.7075059353685782,0.10407224142756097,-86.56440862782793,4.7935576,-3.2595625,-4.1718254,56.898808,-5.4219894,-4.5804124,-25.515566,-5.6629443,-18.470161,24.507463,-4.7732916,-2.7845035,-7.418927,-0.3693799,10.43488,-19.980999,14.854928,-50.472324,61.663445,-1.8553467,-0.31592086,0.7973843,-9.397004,-18.413713,44.225742,58.24483,3.425303,1.0381249,-7.1370482
140,-0.8576912879943848,28.996807098388672,75.1073226928711,1.6653452447131378,-0.019763520400502638,-86.3880403812403,4.8549957,-3.215768,-4.185821,56.67261,-5.916002,-5.0128875,-25.784534,-5.8000407,-18.636168,24.510006,-4.543055,-2.762702,-7.474915,-0.42190784,10.467917,-20.196226,14.9664755,-50.503597,61.692513,-1.8389577,-0.31757954,0.8135114,-9.272107,-18.45464,44.258167,58.02313,3.508082,0.9840612,-7.1634507
141,-0.8137944340705872,29.503700256347656,74.98228454589844,1.6228100395196121,-0.15074313569241388,-86.22898115742692,4.9041185,-3.212144,-4.2524333,56.363983,-6.235092,-5.3031993,-26.043253,-5.9270363,-18.787931,24.485891,-4.307434,-2.709577,-7.5168123,-0.4673282,10.503056,-20.396832,15.072956,-50.473953,61.717777,-1.8052554,-0.3256883,0.82508,-9.138839,-18.500648,44.286507,57.788105,3.5454454,0.9317465,-7.183272
142,-0.7689191102981567,30.02594757080078,74.85166931152344,1.5778508754313099,-0.2900692456674052,-86.08375446533444,4.944088,-3.229776,-4.3461494,55.992996,-6.3967876,-5.5331473,-26.291607,-6.046043,-18.932835,24.443277,-4.0714235,-2.6277199,-7.5449457,-0.5042998,10.5408745,-20.58976,15.173984,-50.40617,61.74452,-1.7585899,-0.33657852,0.8384061,-9.000546,-18.551805,44.32405,57.540413,3.5653698,0.8777229,-7.1984
143,-0.7286515831947327,30.54854965209961,74.71641540527344,1.5332444250455457,-0.4370808374617432,-85.95070805382846,5.0018177,-3.269923,-4.485309,55.578224,-6.5919704,-5.6810126,-26.519363,-6.158201,-19.071917,24.36075,-3.8338478,-2.4970868,-7.5648866,-0.5397172,10.57832,-20.764614,15.268692,-50.29493,61.767773,-1.7087168,-0.3439617,0.8592509,-8.859266,-18.607525,44.37487,57.28893,3.5910127,0.8265978,-7.2092276
144,-0.6747666001319885,31.085113525390625,74.57688903808594,1.4915759589216544,-0.5911538418269798,-85.8283589398066,5.101673,-3.333573,-4.686127,55.14226,-7.008558,-5.722506,-26.71637,-6.2640014,-19.20647,24.21761,-3.593808,-2.2979162,-7.58282,-0.5795688,10.612461,-20.913284,15.356764,-50.138813,61.783367,-1.6705613,-0.3418558,0.8933414,-8.714366,-18.665688,44.440945,57.039913,3.6432817,0.7831836,-7.2162294
145,-0.6218942999839783,31.62471580505371,74.4406509399414,1.4514166964897275,-0.7551156700466793,-85.71768914510541,5.255655,-3.4328547,-4.989651,54.68935,-7.6961713,-5.6463614,-26.879189,-6.3629403,-19.340664,24.015965,-3.3468692,-2.0228157,-7.596763,-0.623852,10.639791,-21.031906,15.437372,-49.93206,61.791187,-1.6373951,-0.32566336,0.9457042,-8.566632,-18.725027,44.533176,56.796165,3.7519712,0.7495131,-7.2197223
146,-0.5581239461898804,32.174686431884766,74.30255126953125,1.409881301547564,-0.9284764639322677,-85.61885432015711,5.44835,-3.5625298,-5.376704,54.2117,-8.553936,-5.461345,-27.013323,-6.454706,-19.472454,23.764446,-3.0954375,-1.6831441,-7.605438,-0.6702338,10.662505,-21.124846,15.510259,-49.67642,61.794487,-1.6046209,-0.2995847,1.0121962,-8.418933,-18.78506,44.649696,56.55765,3.8998265,0.7226578,-7.2196827
147,-0.5002920031547546,32.72979736328125,74.1586685180664,1.3755081066691142,-1.1056148685616407,-85.52894991958587,5.664893,-3.7003539,-5.774451,53.708057,-9.545002,-5.176338,-27.119984,-6.5397816,-19.594072,23.446419,-2.8453252,-1.2871819,-7.6155357,-0.7218387,10.6861105,-21.194063,15.576242,-49.37832,61.79205,-1.5858167,-0.27091354,1.0845299,-8.270837,-18.843962,44.769817,56.323723,4.0335503,0.6997336,-7.215595
148,-0.4401617646217346,33.29084396362305,74.01573944091797,1.3514471946538282,-1.2809552920574432,-85.44485285931731,5.890489,-3.82691,-6.109281,53.175087,-10.632531,-4.804117,-27.200325,-6.6195073,-19.697353,23.046106,-2.6033013,-0.8431097,-7.633589,-0.7832194,10.716144,-21.240118,15.636317,-49.042458,61.78132,-1.5917233,-0.2467193,1.1544206,-8.12425,-18.899822,44.87412,56.096638,4.1013684,0.67770606,-7.2071657
149,-0.3834199607372284,33.87297439575195,73.86798095703125,1.335531563374717,-1.455904068059021,-85.36463910088737,6.132045,-3.9558444,-6.410699,52.60919,-11.839677,-4.3584137,-27.248661,-6.69141,-19.776619,22.551529,-2.3598447,-0.3156248,-7.661885,-0.85196954,10.755517,-21.255419,15.690102,-48.63896,61.756123,-1.6273868,-0.22484267,1.2238913,-7.982544,-18.951105,44.967,55.88088,4.0680227,0.6541219,-7.190021
150,-0.31537988781929016,34.46898651123047,73.72283935546875,1.3288584578848153,-1.6329954180249946,-85.28984345966585,6.3945394,-4.09761,-6.705111,52.01143,-13.171953,-3.830687,-27.263342,-6.756543,-19.836906,21.96805,-2.11209,0.2872179,-7.696097,-0.9297381,10.800358,-21.243504,15.7356,-48.17785,61.72201,-1.6868106,-0.20288144,1.2960247,-7.847168,-18.995682,45.05624,55.679962,3.969859,0.63049906,-7.1659923
151,-0.23747749626636505,35.07211685180664,73.5766372680664,1.3400926307691443,-1.808654752764876,-85.22209588395711,6.6620913,-4.237598,-6.9258556,51.384552,-14.580725,-3.2171204,-27.25734,-6.826694,-19.887869,21.319647,-1.8851936,0.89173067,-7.720548,-1.029507,10.844912,-21.23284,15.766008,-47.74342,61.704308,-1.7721099,-0.18776765,1.3654726,-7.7022247,-19.02535,45.106976,55.487305,3.8520699,0.61025447,-7.143684
152,-0.16904358565807343,35.673805236816406,73.439697265625,1.3790776918830745,-1.979172551638864,-85.16353628862659,6.918527,-4.3595977,-7.0016217,50.730408,-16.015488,-2.515802,-27.242865,-6.911991,-19.938774,20.627817,-1.7019465,1.4247639,-7.7773986,-1.1514474,10.890365,-21.209095,15.810407,-47.343937,61.677692,-1.8696973,-0.18651599,1.4208851,-7.568051,-19.060904,45.162315,55.291256,3.7884607,0.59959334,-7.133211
153,-0.09384716302156448,36.29313278198242,73.30964660644531,1.440673633923467,-2.140538790719541,-85.10750811374952,7.156697,-4.4547105,-6.90693,50.062088,-17.51278,-1.6755874,-27.231672,-7.0199833,-20.016842,19.91333,-1.562255,1.8577859,-7.823912,-1.3022553,10.930664,-21.206684,15.857363,-47.055218,61.66576,-2.0315912,-0.20641255,1.4688002,-7.4111,-19.089737,45.1445,55.07527,3.7662413,0.60321504,-7.130346
154,-0.014200116507709026,36.93621826171875,73.1818618774414,1.5240575265687968,-2.296306038811058,-85.05557136405315,7.3928113,-4.546242,-6.687828,49.367966,-19.089375,-0.7309915,-27.215645,-7.145922,-20.107918,19.16289,-1.4571085,2.233671,-7.860071,-1.4794319,10.9646225,-21.224815,15.887589,-46.84504,61.685375,-2.2464871,-0.24313457,1.5126342,-7.239645,-19.103455,45.071087,54.85896,3.7626588,0.6164789,-7.133035
155,0.06812907755374908,37.582218170166016,73.06340789794922,1.6447853050411618,-2.4544601090211726,-85.02152018745333,7.649581,-4.665327,-6.379565,48.606735,-20.664341,0.19178165,-27.169537,-7.2793703,-20.161642,18.33249,-1.3871046,2.5856388,-7.903105,-1.6911699,11.009399,-21.229843,15.935267,-46.673393,61.688686,-2.436079,-0.28048748,1.5395601,-7.0731287,-19.119856,44.996517,54.647083,3.7895207,0.6299123,-7.146672
156,0.15247754752635956,38.23216247558594,72.94601440429688,1.8168397526869569,-2.622732225475212,-85.01930043985601,7.9482713,-4.834881,-6.009133,47.734512,-22.147257,0.97470146,-27.07939,-7.4155626,-20.125395,17.402422,-1.36695,2.9463956,-7.9238505,-1.9527298,11.064142,-21.24885,15.972417,-46.588497,61.72081,-2.5595233,-0.30588704,1.547001,-6.904639,-19.126017,44.92847,54.467808,3.846438,0.63065505,-7.1796126
157,0.23717999458312988,38.88168716430664,72.84222412109375,2.0536107189428274,-2.811837947951183,-85.05736046632862,8.317372,-5.0510526,-5.53089,46.714485,-23.534153,1.5965501,-26.937212,-7.5541725,-19.95568,16.36347,-1.3814015,3.333883,-7.923818,-2.2749398,11.149622,-21.270166,16.020584,-46.57865,61.748573,-2.594173,-0.31209424,1.5280839,-6.7401614,-19.126923,44.870384,54.31519,3.9563596,0.6119401,-7.2471285
158,0.3405836820602417,39.559303283691406,72.74830627441406,2.3457593680953566,-3.0158440935176403,-85.12592706101992,8.748035,-5.3070292,-4.9437447,45.56324,-24.858349,2.1114776,-26.749187,-7.7033463,-19.691357,15.225902,-1.4288371,3.7264826,-7.910487,-2.6501412,11.255717,-21.300373,16.07156,-46.646595,61.785492,-2.5791311,-0.30849478,1.4885147,-6.580863,-19.120235,44.819283,54.18747,4.117178,0.58075064,-7.3417044
159,0.43005919456481934,40.22380828857422,72.671142578125,2.6777156604769585,-3.2183147867408133,-85.21053872728211,9.197598,-5.616006,-4.3397655,44.329308,-26.08616,2.525324,-26.514015,-7.86938,-19.40611,13.984136,-1.5360874,4.097921,-7.8887367,-3.071809,11.362961,-21.312258,16.15671,-46.7837,61.79959,-2.5179486,-0.29723817,1.431927,-6.417694,-19.097363,44.76091,54.083878,4.264619,0.5474751,-7.4304576
160,0.5217452049255371,40.890464782714844,72.5958480834961,3.033359184207297,-3.4034262224415337,-85.29577897888552,9.619265,-5.9867716,-3.8119464,43.066,-27.184904,2.8512714,-26.22441,-8.054584,-19.175468,12.616801,-1.7206663,4.4238696,-7.887955,-3.5174127,11.440392,-21.300251,16.240314,-46.946236,61.83217,-2.3979452,-0.28695124,1.364301,-6.2514625,-19.061272,44.72168,54.01327,4.3513308,0.5244877,-7.4842777
161,0.6218502521514893,41.5721435546875,72.52518463134766,3.418802602209206,-3.5644318241327815,-85.39163867732056,10.015164,-6.418209,-3.3448284,41.743954,-28.13758,3.0862265,-25.86256,-8.241068,-18.991472,11.052744,-2.0038867,4.7066007,-7.9007673,-3.994075,11.482059,-21.26855,16.325668,-47.15876,61.8863,-2.168019,-0.27532703,1.28103,-6.089549,-19.012274,44.70164,53.978226,4.355928,0.5130665,-7.4905186
162,0.7157745361328125,42.23504638671875,72.45645141601562,3.843562939537949,-3.713404853773949,-85.49842655562482,10.411416,-6.906298,-2.90239,40.339504,-28.956196,3.2319286,-25.400282,-8.427949,-18.832306,9.249267,-2.3311694,4.9575167,-7.923791,-4.5131373,11.503976,-21.218536,16.42521,-47.429874,61.947197,-1.8508825,-0.2600623,1.1805868,-5.9302926,-18.942324,44.691196,53.978943,4.3043365,0.5073447,-7.467073
163,0.7977834939956665,42.8925666809082,72.38803100585938,4.289888488343844,-3.8609420520968483,-85.58832615219731,10.787104,-7.444372,-2.5459483,38.927143,-29.656466,3.314175,-24.832489,-8.637701,-18.752003,7.2559648,-2.61646,5.1702404,-7.9682846,-5.058843,11.511402,-21.146545,16.529022,-47.720676,62.01645,-1.5552483,-0.248,1.0744233,-5.759126,-18.855593,44.687206,54.01317,4.227652,0.5082129,-7.427716
164,0.8733882308006287,43.545352935791016,72.32623291015625,4.738049853930657,-4.015422266152626,-85.6364304587898,11.111111,-8.019107,-2.334554,37.594875,-30.261326,3.3653705,-25.023724,-9.178321,-18.66459,7.038,-3.7853692,5.3483872,-8.038616,-5.612398,11.50895,-21.044512,16.628763,-47.987907,62.09056,-1.3805135,-0.2448386,0.9742199,-5.562571,-18.755857,44.68349,54.079266,4.158983,0.5162678,-7.385916
165,0.9431222677230835,44.1926383972168,72.26922607421875,5.202743493425205,-4.184051146340814,-85.62016497519964,11.370943,-8.652041,-2.341481,36.36022,-30.769892,3.371066,-25.252525,-9.827336,-18.679573,7.002168,-5.053764,5.4891024,-8.151269,-6.195005,11.492696,-20.909283,16.730703,-48.23787,62.166233,-1.4172878,-0.25828528,0.890189,-5.3312545,-18.63273,44.671413,54.181873,4.099736,0.5265422,-7.354325
166,1.0052311420440674,44.828147888183594,72.22113037109375,5.6816929133243494,-4.3590188494317115,-85.56101698712328,11.573846,-9.325091,-2.5134728,35.193302,-31.179457,3.33284,-25.451302,-10.532932,-18.78539,6.9623804,-6.3506813,5.600847,-8.297024,-6.799432,11.458554,-20.747799,16.830149,-48.485603,62.253033,-1.5902977,-0.28339195,0.8140932,-5.072955,-18.49014,44.65768,54.31847,4.034452,0.5406592,-7.3228273
167,1.0773214101791382,45.445831298828125,72.17868041992188,6.134785056914508,-4.526311359044082,-85.50015625867357,11.716973,-9.9719715,-2.7191772,34.114445,-31.512203,3.3034778,-25.631388,-11.233014,-18.991205,6.9345894,-7.5431232,5.6898155,-8.437712,-7.3735476,11.41231,-20.564638,16.920513,-48.71551,62.351406,-1.7608821,-0.30540398,0.7300571,-4.808153,-18.33747,44.655365,54.492226,3.9697108,0.5675558,-7.270891
168,1.1622389554977417,46.06208038330078,72.1344223022461,6.524388561074278,-4.6711800116452435,-85.47846487704592,11.799104,-10.533165,-2.825461,33.138866,-31.787996,3.3317444,-25.79543,-11.865402,-19.307518,6.9186954,-8.488373,5.757948,-8.536372,-7.87158,11.359286,-20.361225,17.004286,-48.91519,62.45668,-1.794399,-0.3090752,0.6217771,-4.567367,-18.169254,44.680218,54.724205,3.9116526,0.61479104,-7.1787453
169,1.2383519411087036,46.639251708984375,72.11007690429688,6.877916164762976,-4.789311725978469,-85.48529934430445,11.814736,-11.037049,-2.8128893,32.26873,-32.004814,3.4430957,-25.951548,-12.481232,-19.809715,6.9163947,-9.204127,5.89191,-8.598811,-8.313519,11.290457,-20.145226,17.068832,-49.09367,62.58238,-1.6211944,-0.290947,0.45845225,-4.32067,-18.009731,44.72457,54.973812,3.8623612,0.6935457,-7.0349245
170,1.3127809762954712,47.237213134765625,72.10823059082031,7.202202549787879,-4.887758148782331,-85.50645582434491,11.762291,-11.504436,-2.742856,31.500664,-32.15647,3.6075,-26.094648,-13.092261,-20.468597,6.925241,-9.744744,6.060638,-8.636281,-8.717407,11.206069,-19.91248,17.119339,-49.255913,62.72455,-1.3236386,-0.25939345,0.2573668,-4.066392,-17.845411,44.779186,55.25369,3.8141844,0.79598975,-6.8521743
171,1.3730827569961548,47.8504524230957,72.13871765136719,7.443078471098871,-4.966558015423387,-85.57861696805044,11.638267,-11.8683,-2.5984182,30.851467,-32.261997,3.7875583,-26.20993,-13.580117,-21.133232,6.9458833,-10.035371,6.0753736,-8.624743,-9.019256,11.128396,-19.662542,17.155508,-49.376846,62.877686,-0.99661195,-0.2202557,0.07545781,-3.8510628,-17.668001,44.867584,55.60615,3.7727914,0.90575045,-6.645247
172,1.4427083730697632,48.44150924682617,72.18148803710938,7.54326941155914,-5.024092592648748,-85.73900783988117,11.438522,-12.061362,-2.3613827,30.339046,-32.34355,3.9453616,-26.281992,-13.827905,-21.650484,6.979243,-10.010814,5.741762,-8.539124,-9.148606,11.0817995,-19.398449,17.169958,-49.42756,63.03724,-0.732788,-0.17875022,-0.029932315,-3.693483,-17.499191,45.000385,56.030582,3.7338943,1.0094275,-6.427202
173,1.5151606798171997,49.05388259887695,72.2575912475586,7.460957586788426,-5.041555092453733,-86.02633651350499,11.124028,-12.033029,-1.9853036,30.005901,-32.422295,4.0824122,-26.331448,-13.767665,-22.015947,7.0331573,-9.576361,4.8618436,-8.346054,-9.045798,11.072904,-19.129847,17.15912,-49.392033,63.197906,-0.55448985,-0.13237591,-0.03394666,-3.614427,-17.345093,45.17866,56.547726,3.7125418,1.1007413,-6.18748
174,1.5866997241973877,49.640708923339844,72.36688232421875,7.239890536930655,-5.026337429987991,-86.41132018821524,10.707166,-11.833589,-1.4929849,29.838167,-32.48839,4.214872,-26.357908,-13.483156,-22.304716,7.106415,-8.799789,3.5772548,-8.067017,-8.763193,11.087599,-18.853447,17.120993,-49.28517,63.36561,-0.40913635,-0.0791593,0.029598536,-3.591562,-17.208424,45.39965,57.135384,3.7112117,1.1890693,-5.923177
175,1.6741695404052734,50.20830535888672,72.4920425415039,6.957713026404935,-5.020794062714969,-86.82567578088113,10.269991,-11.552915,-0.97447646,29.756985,-32.496487,4.326004,-26.317696,-13.092302,-22.478943,7.1938663,-7.855202,2.209964,-7.7618155,-8.406651,11.119292,-18.557158,17.05867,-49.144585,63.555256,-0.29750344,-0.02502859,0.13003242,-3.583467,-17.086916,45.658825,57.74982,3.6938493,1.2828496,-5.6593146
176,1.7520097494125366,50.758392333984375,72.6312484741211,6.691582776934505,-5.066503737494862,-87.20113169048268,9.895127,-11.280242,-0.5178776,29.680414,-32.40269,4.399783,-26.16345,-12.707488,-22.491001,7.2868776,-6.9143553,1.0860723,-7.489273,-8.08028,11.165013,-18.220898,16.977592,-48.994137,63.773624,-0.20450401,0.024990147,0.23665607,-3.5586197,-16.974773,45.9593,58.355453,3.6337261,1.3896344,-5.4212103
177,1.8233044147491455,51.296627044677734,72.78043365478516,6.447679445151471,-5.187215451523756,-87.5333102132101,9.606968,-11.023974,-0.13389823,29.613161,-32.1832,4.4279385,-26.816153,-12.727506,-22.107481,9.528794,-7.0814238,0.27450773,-7.256832,-7.7922125,11.242577,-17.834753,16.881525,-48.83864,64.02223,-0.16004352,0.06902018,0.36467156,-3.520321,-16.867538,46.331276,58.971756,3.534232,1.5113513,-5.221276
178,1.8820381164550781,51.81025695800781,72.9433364868164,6.203798953848611,-5.3682325305075045,-87.84354962101925,9.379299,-10.75877,0.20755571,29.574759,-31.85576,4.425045,-27.348326,-12.711941,-21.571716,11.786208,-7.1557155,-0.38173243,-7.0473547,-7.5102563,11.354969,-17.40714,16.772522,-48.662853,64.29417,-0.1582654,0.10879441,0.521854,-3.4838083,-16.763037,46.764076,59.613552,3.404896,1.6435553,-5.044138
179,1.9400142431259155,52.30915451049805,73.12326049804688,5.972639052493688,-5.581168761496325,-88.11047556884618,9.194764,-10.503196,0.49357265,29.526957,-31.452597,4.405538,-27.732347,-12.651484,-20.917814,13.882731,-7.1371565,-0.8693053,-6.874062,-7.2565446,11.472511,-16.953382,16.655966,-48.4772,64.58125,-0.14991468,0.14908375,0.66754735,-3.439274,-16.658054,47.203373,60.24066,3.233645,1.7835709,-4.873384
180,1.981736183166504,52.792572021484375,73.31314086914062,5.761584033293126,-5.790215544240239,-88.31933049467666,9.027066,-10.264313,0.7185113,29.434958,-31.009495,4.380774,-27.993097,-12.548239,-20.166992,15.746824,-7.088565,-1.182886,-6.7433386,-7.0431094,11.561281,-16.497372,16.539978,-48.309547,64.88168,-0.104858406,0.19123925,0.76136786,-3.3739645,-16.54914,47.587315,60.810795,3.000211,1.9284564,-4.6922936
181,2.0089008808135986,53.259796142578125,73.50633239746094,5.556558048761192,-5.992981189121853,-88.46602281801013,8.86106,-10.023415,0.8796926,29.325163,-30.52746,4.3375072,-28.11427,-12.3732605,-19.276226,17.335648,-6.9826612,-1.2570107,-6.653461,-6.8623686,11.61767,-16.027351,16.427763,-48.146137,65.19803,0.009455697,0.23910351,0.78828895,-3.2886086,-16.433495,47.92965,61.333847,2.6648858,2.0861607,-4.4872756
182,2.030611515045166,53.71851348876953,73.69808197021484,5.345842434029096,-6.196838796253976,-88.56644930709639,8.698861,-9.766017,0.98948985,29.215664,-29.997145,4.271532,-28.11695,-12.116746,-18.245178,18.742144,-6.8312774,-1.113852,-6.5955987,-6.6967006,11.653486,-15.536326,16.320827,-47.98275,65.525375,0.16194399,0.2903601,0.771473,-3.1912322,-16.31,48.251118,61.829212,2.245258,2.2540083,-4.269792
183,2.0370242595672607,54.180328369140625,73.8991928100586,5.133753988874752,-6.379986177474461,-88.63720743756895,8.533034,-9.504207,1.068416,29.070127,-29.443628,4.2068872,-28.0676,-11.810825,-17.161589,20.067022,-6.744297,-0.88991374,-6.558953,-6.543142,11.658209,-15.040719,16.223637,-47.83425,65.83632,0.32112753,0.3414161,0.7279363,-3.0883114,-16.180439,48.50909,62.273155,1.8230361,2.4128635,-4.0611434
184,2.043867826461792,54.63673400878906,74.10028076171875,4.929883574677003,-6.52244352862902,-88.69340518271865,8.358789,-9.254165,1.1356796,28.850739,-28.890968,4.1686044,-28.0317,-11.496035,-16.113394,21.410192,-6.824975,-0.7265356,-6.5322404,-6.402364,11.623671,-14.559109,16.142645,-47.722473,66.10248,0.44992787,0.3889874,0.6745278,-2.980853,-16.049038,48.65191,62.634827,1.4731957,2.54496,-3.882909
185,2.0367302894592285,55.08003234863281,74.30402374267578,4.734139951879767,-6.620942561922989,-88.73026276218086,8.18343,-9.015477,1.1891083,28.533596,-28.338224,4.1635756,-28.025824,-11.168466,-15.076263,22.79731,-7.1544547,-0.6872591,-6.517424,-6.2757826,11.545739,-14.09248,16.083824,-47.661507,66.32163,0.5437634,0.43192315,0.609725,-2.8545089,-15.918677,48.647045,62.886444,1.2049131,2.6539056,-3.7401888
186,2.0406839847564697,55.53040313720703,74.4984359741211,4.539023378171058,-6.683745548805248,-88.74449792166595,8.003402,-8.778887,1.2234077,28.14608,-27.776575,4.177627,-28.0216,-10.812957,-14.018235,24.189594,-7.6653204,-0.69502395,-6.5148864,-6.160824,11.430606,-13.6287565,16.049084,-47.636436,66.49774,0.62095684,0.47270903,0.5263129,-2.7108004,-15.791094,48.522705,63.043293,0.979021,2.7474031,-3.6219335
187,2.032907724380493,55.97909164428711,74.69621276855469,4.351787839584545,-6.708838492760055,-88.75210429672748,7.799234,-8.550698,1.2524723,27.726233,-27.217745,4.2050166,-28.013222,-10.459171,-13.014837,25.580532,-8.230891,-0.68186706,-6.513825,-6.053492,11.286197,-13.168865,16.03814,-47.627274,66.615005,0.6758816,0.5128037,0.43280676,-2.5762243,-15.669758,48.325413,63.140717,0.8043399,2.8142922,-3.5263171
188,2.0289859771728516,56.4287109375,74.88499450683594,4.177485351528814,-6.694605956324519,-88.76930705109424,7.5516343,-8.337347,1.290025,27.311352,-26.673368,4.240107,-27.996302,-10.140858,-12.14109,26.963667,-8.728012,-0.5788027,-6.5040174,-5.9494286,11.120046,-12.715713,16.049438,-47.61701,66.65927,0.6999179,0.55368024,0.33763793,-2.476688,-15.559389,48.102364,63.21262,0.6898434,2.843646,-3.451406
189,2.021918535232544,56.86873245239258,75.06884765625,4.017049501402991,-6.629970804986486,-88.79252797613229,7.2503223,-8.14368,1.3315806,26.893702,-26.13729,4.283616,-27.98068,-9.867733,-11.398633,28.328735,-9.114558,-0.33841035,-6.492059,-5.8481493,10.91839,-12.263838,16.082132,-47.5857,66.62271,0.69253886,0.6030049,0.22581519,-2.4052184,-15.464395,47.827785,63.2453,0.6473945,2.8244927,-3.3909562
190,2.018305778503418,57.313053131103516,75.24189758300781,3.86563892309954,-6.518012682191414,-88.81699327449982,6.902739,-7.964737,1.3745607,26.465229,-25.610098,4.3377166,-27.972685,-9.630419,-10.750519,29.696104,-9.469115,-0.012148185,-6.483709,-5.7455854,10.681821,-11.816933,16.128397,-47.543026,66.52102,0.65710557,0.65666133,0.09922337,-2.3464704,-15.397768,47.495728,63.21197,0.6727853,2.7670238,-3.3472617
191,2.0125510692596436,57.75322723388672,75.4000015258789,3.7239713830500136,-6.37987921369151,-88.85673146232963,6.5287743,-7.7938967,1.434231,26.03943,-25.098196,4.3983216,-27.958326,-9.437571,-10.212552,31.096098,-9.835621,0.32154438,-6.451822,-5.6459765,10.441745,-11.379149,16.205875,-47.52517,66.34728,0.5982311,0.70241445,-0.010784526,-2.3271666,-15.3355,47.157684,63.167137,0.7370227,2.6881828,-3.333139
192,2.005727529525757,58.20155334472656,75.55494689941406,3.5915524571763244,-6.236914916223333,-88.9251814328902,6.146758,-7.624327,1.5249671,25.633726,-24.61547,4.462154,-27.924728,-9.29704,-9.80049,32.56105,-10.259572,0.58459747,-6.396271,-5.5421224,10.225929,-10.956855,16.302843,-47.538345,66.12005,0.5267194,0.72401077,-0.07044099,-2.3709335,-15.290641,46.90577,63.139175,0.8305658,2.607765,-3.360631
193,2.0002875328063965,58.647735595703125,75.69921112060547,3.459836310507867,-6.087887189401886,-89.02374350683324,5.751444,-7.4466696,1.6546105,25.262524,-24.172295,4.534153,-27.871014,-9.2113085,-9.529639,34.092396,-10.750596,0.760842,-6.313018,-5.428782,10.033797,-10.551841,16.420595,-47.59952,65.83215,0.444241,0.7162357,-0.061930284,-2.484889,-15.262423,46.766865,63.139385,0.9719571,2.5140917,-3.4449155
194,2.0017969608306885,59.102813720703125,75.8297119140625,3.332888057317441,-5.923983600496802,-89.14580222613667,5.338149,-7.2683387,1.8139641,24.910433,-23.75867,4.6143384,-27.802156,-9.184753,-9.383547,35.673847,-11.283961,0.8852176,-6.209935,-5.309551,9.852243,-10.159211,16.560076,-47.6926,65.480316,0.34766948,0.68776655,-0.0061016683,-2.6562607,-15.24992,46.698963,63.148552,1.1619347,2.4023468,-3.5752761
195,2.001224994659424,59.55815887451172,75.95221710205078,3.2246823872640125,-5.756115877700621,-89.2913590075931,4.9230666,-7.1083674,1.9921052,24.558771,-23.355951,4.691965,-27.710384,-9.226603,-9.331076,37.302925,-11.848503,0.9578228,-6.0860944,-5.1978054,9.692726,-9.782576,16.71871,-47.80099,65.08705,0.2323461,0.642718,0.07197881,-2.8799741,-15.251246,46.66567,63.16306,1.3542405,2.3010635,-3.7248955
196,1.9998524188995361,60.00141906738281,76.06008911132812,3.1474269417344383,-5.5953504839192,-89.46022219056998,4.5227385,-6.985296,2.17767,24.18774,-22.944399,4.756386,-27.585455,-9.342992,-9.342097,38.97157,-12.431226,0.9805153,-5.9403725,-5.1066833,9.566151,-9.424784,16.891378,-47.906277,64.67211,0.096829094,0.58874226,0.14748219,-3.146473,-15.262993,46.624275,63.177483,1.4967326,2.2393894,-3.867385
197,2.0053155422210693,60.46737289428711,76.15515899658203,3.107788975270356,-5.443728788247758,-89.65195194723366,4.1476245,-6.9071527,2.3611383,23.77717,-22.516663,4.801261,-27.42657,-9.55813,-9.452266,40.695568,-13.036849,0.9348295,-5.771083,-5.0420904,9.479209,-9.095033,17.074879,-48.008522,64.23665,-0.07426216,0.5170216,0.22499722,-3.4604928,-15.282449,46.55495,63.19212,1.5561068,2.2379549,-3.9956715
198,2.0266849994659424,60.94621276855469,76.23728942871094,3.0981522600980713,-5.2960725704333,-89.86592543476091,3.7884142,-6.863045,2.550258,23.34116,-22.083212,4.833504,-27.233932,-9.865717,-9.660034,42.468193,-13.668839,0.8234698,-5.577847,-4.996675,9.424062,-8.791229,17.267805,-48.11842,63.774704,-0.27379635,0.4292144,0.31408188,-3.8230414,-15.308675,46.47876,63.211662,1.5637748,2.2769825,-4.1241684
199,2.035597085952759,61.38804626464844,76.31346130371094,3.112677645762193,-5.151939192627628,-90.10270170414006,3.4340975,-6.842362,2.7595165,22.909172,-21.649137,4.8623414,-26.998405,-10.22119,-9.882208,44.245605,-14.310479,0.68300545,-5.362524,-4.963884,9.3904915,-8.506331,17.465725,-48.23835,63.31346,-0.47506273,0.33753425,0.39761588,-4.2256556,-15.341586,46.424137,63.241463,1.5729378,2.3249993,-4.259189
200,2.0428290367126465,61.84652328491211,76.38629913330078,3.144307712668309,-5.010667289408643,-90.36271776192275,3.071383,-6.8334055,3.003613,22.514362,-21.222,4.897193,-26.714699,-10.576967,-10.037545,45.98639,-14.944622,0.5525007,-5.126861,-4.9365997,9.367742,-8.233424,17.662012,-48.369675,62.881115,-0.6506404,0.2550978,0.45891425,-4.657897,-15.381492,46.41767,63.284958,1.6346341,2.35043,-4.4068007
201,2.0603508949279785,62.30296325683594,76.44891357421875,3.203268048685584,-4.869361577504491,-90.65868519273627,2.7072437,-6.842327,3.2981591,22.14341,-20.793396,4.943332,-26.396599,-10.931628,-10.108766,47.713017,-15.568287,0.43930337,-4.8602123,-4.921107,9.349274,-7.9714775,17.851889,-48.51735,62.475353,-0.8021153,0.17876735,0.491264,-5.127248,-15.429801,46.4887,63.35313,1.7818379,2.3427947,-4.575114
202,2.081428289413452,62.75738525390625,76.50706481933594,3.2891860440416294,-4.728751663832087,-90.9859497903118,2.3461292,-6.8705945,3.6312678,21.784647,-20.362213,4.9950204,-26.041676,-11.303852,-10.139259,49.43464,-16.189096,0.32558239,-4.5656867,-4.9176016,9.341451,-7.727309,18.03302,-48.67876,62.092365,-0.9396422,0.10339712,0.5048485,-5.6349597,-15.486352,46.615566,63.4399,1.9803714,2.319321,-4.758695
203,2.099684715270996,63.18768310546875,76.5537109375,3.378731197844948,-4.594257138695995,-91.31977888816952,1.966016,-6.899153,3.9767344,21.48351,-19.951702,5.0457277,-25.622927,-11.673021,-10.140833,51.0946,-16.807077,0.2146467,-4.263767,-4.9097733,9.352059,-7.5075393,18.20179,-48.847847,61.75962,-1.050794,0.03910228,0.5088564,-6.1601214,-15.547982,46.74719,63.52262,2.1804879,2.2900233,-4.943239
204,2.1286537647247314,63.65085220336914,76.5910415649414,3.4529977035521884,-4.471536334547923,-91.63578818723401,1.5471722,-6.9091516,4.3078036,21.281164,-19.58314,5.089,-25.11457,-12.017879,-10.125565,52.63874,-17.423279,0.110518426,-3.9742212,-4.8814178,9.388048,-7.3185363,18.353357,-49.016987,61.506027,-1.121345,-0.0039316383,0.5126867,-6.6823406,-15.610245,46.829273,63.58212,2.3288374,2.2653463,-5.1147566
205,2.149162530899048,64.11003875732422,76.62125396728516,3.518299910121118,-4.365393088350476,-91.93252676133466,1.0932611,-6.9058256,4.624936,21.173967,-19.25872,5.1257443,-24.50598,-12.337825,-10.085164,54.060745,-18.046766,0.014316431,-3.696581,-4.83755,9.456152,-7.169393,18.483593,-49.193935,61.345955,-1.1428374,-0.021948343,0.5144267,-7.203729,-15.670198,46.846333,63.62249,2.4093463,2.2481298,-5.27955
206,2.17764949798584,64.56553649902344,76.64230346679688,3.5821247788459436,-4.271776061944981,-92.22148895626303,0.6121193,-6.8947806,4.9392242,21.144815,-18.968277,5.159015,-23.811382,-12.637687,-10.02071,55.386337,-18.673061,-0.072977535,-3.4198215,-4.78333,9.549368,-7.057584,18.589855,-49.38168,61.26972,-1.1234397,-0.02101736,0.51111203,-7.7311087,-15.726837,46.822483,63.654613,2.4469643,2.232972,-5.441939
207,2.2057688236236572,65.01722717285156,76.65966033935547,3.625578120000934,-4.183604072590037,-92.49785271514288,0.084956065,-6.8564024,5.23999,21.22291,-18.71781,5.1854405,-23.04709,-12.906046,-9.956625,56.61544,-19.28342,-0.14838465,-3.1484785,-4.7028937,9.653173,-6.9746137,18.670237,-49.568707,61.271286,-1.0790669,-0.005855868,0.5108745,-8.26152,-15.780197,46.778313,63.678997,2.4661417,2.21734,-5.5849123
208,2.2311201095581055,65.47679138183594,76.67672729492188,3.6303953588740585,-4.09379347434515,-92.75675554976317,-0.50604534,-6.7708673,5.5161004,21.435846,-18.512383,5.2016406,-22.226542,-13.132829,-9.916651,57.74215,-19.861134,-0.21001235,-2.8952687,-4.5794353,9.748682,-6.9122186,18.71001,-49.734455,61.35915,-1.0219446,0.017672561,0.5221824,-8.800073,-15.817908,46.74224,63.712296,2.4897487,2.1980908,-5.6926765
209,2.2525670528411865,65.92858123779297,76.6851806640625,3.583475482925525,-3.9997214877121925,-93.00180975307583,-1.1858294,-6.621057,5.765734,21.830473,-18.372168,5.1964455,-21.35276,-13.313935,-9.910844,58.777676,-20.395954,-0.23662844,-2.643952,-4.4017243,9.842826,-6.870762,18.730661,-49.89789,61.523937,-0.96459365,0.04793899,0.5511228,-9.338404,-15.856026,46.699997,63.73612,2.513051,2.177027,-5.74878
210,2.275570869445801,66.38668060302734,76.68602752685547,3.4983680912558475,-3.9057679304709323,-93.23433101982212,-1.9363865,-6.419898,5.991964,22.375654,-18.286205,5.174747,-20.419472,-13.454685,-9.925373,59.721306,-20.89919,-0.2363367,-2.3950539,-4.1790757,9.940788,-6.853589,18.728748,-50.060368,61.76668,-0.89617336,0.08789534,0.59189343,-9.876694,-15.900038,46.64771,63.745983,2.5313208,2.1552207,-5.7653193
211,2.299694299697876,66.84339141845703,76.68224334716797,3.391967895588275,-3.815229841194597,-93.44502848834429,-2.7165375,-6.1931877,6.191507,22.992062,-18.21827,5.156969,-19.430088,-13.560521,-9.94575,60.55862,-21.385447,-0.25134063,-2.167521,-3.9322195,10.032874,-6.8476057,18.703016,-50.20113,62.055695,-0.8086835,0.14266457,0.63275117,-10.407759,-15.940186,46.594322,63.73929,2.5520627,2.129757,-5.7670894
212,2.320327043533325,67.29421997070312,76.67683410644531,3.283241434573648,-3.7312735948930773,-93.62489309787132,-3.4825957,-5.9672437,6.3623004,23.59543,-18.129923,5.1643972,-18.388304,-13.637039,-9.95732,61.273796,-21.868793,-0.3235255,-1.9720147,-3.6841395,10.1136,-6.8371673,18.666233,-50.306797,62.344097,-0.6956483,0.21847406,0.6614323,-10.919181,-15.969917,46.53986,63.70369,2.5845335,2.0974965,-5.778727
213,2.3315744400024414,67.73440551757812,76.6741714477539,3.1676895685211117,-3.653586321614301,-93.76747345809231,-4.241901,-5.74018,6.4997897,24.199787,-18.022385,5.2099013,-17.280012,-13.696812,-9.987543,61.861053,-22.375784,-0.4852052,-1.8079798,-3.4311607,10.185901,-6.828808,18.613707,-50.387337,62.64149,-0.53408927,0.33060616,0.67145246,-11.405106,-15.996681,46.47563,63.627274,2.6348124,2.0591006,-5.803312
214,2.346590042114258,68.18405151367188,76.66883850097656,3.0386937968011325,-3.581050981231561,-93.87879611827567,-5.007957,-5.501051,6.6052933,24.830875,-17.908348,5.279674,-16.108694,-13.731113,-10.033169,62.328327,-22.890223,-0.7065974,-1.6622463,-3.157902,10.249543,-6.846863,18.508966,-50.455074,63.00184,-0.3327339,0.4688819,0.6718698,-11.8592205,-16.031246,46.39036,63.508045,2.6904535,2.0166805,-5.828166
215,2.359175205230713,68.62655639648438,76.66345977783203,2.9076523623576054,-3.5146496876635385,-93.968083793023,-5.761567,-5.2627378,6.6877484,25.449633,-17.781738,5.353419,-14.905863,-13.714147,-10.034298,62.684216,-23.364342,-0.9368589,-1.538602,-2.883732,10.30102,-6.8644605,18.392004,-50.49224,63.362125,-0.14472145,0.60731626,0.6702851,-12.3003235,-16.057001,46.313652,63.372635,2.7568066,1.9667461,-5.855327
216,2.367199182510376,69.06310272216797,76.65885925292969,2.7869789984765583,-3.455639763812404,-94.04480575508873,-6.4831576,-5.038249,6.756537,26.017412,-17.636518,5.410665,-13.703375,-13.620526,-9.932579,62.93784,-23.750345,-1.1259089,-1.4190136,-2.62293,10.336317,-6.8833613,18.26844,-50.505283,63.70298,-0.024172762,0.7156968,0.67679024,-12.720243,-16.073252,46.240173,63.223644,2.8241947,1.9069089,-5.885139
217,2.371732473373413,69.4978256225586,76.64897155761719,2.6794782475978955,-3.4044583185786936,-94.11017517737882,-7.168378,-4.830492,6.814343,26.52747,-17.47193,5.4474616,-12.508742,-13.44025,-9.701059,63.107838,-24.053686,-1.2942172,-1.3040222,-2.3802035,10.354623,-6.8979173,18.142286,-50.481228,64.02407,-0.007847973,0.7889796,0.70050216,-13.120334,-16.079367,46.169476,63.06036,2.898676,1.8316679,-5.913988
218,2.372148036956787,69.93427276611328,76.63655853271484,2.581258865733516,-3.360355733296918,-94.1595151803996,-7.82607,-4.633643,6.8565407,26.996162,-17.291039,5.473721,-11.305029,-13.188506,-9.375834,63.185085,-24.293177,-1.4586565,-1.2005053,-2.1490934,10.359547,-6.9066463,18.015617,-50.42031,64.32921,-0.058147058,0.8409087,0.733732,-13.500374,-16.074732,46.09671,62.878574,2.9762475,1.7438775,-5.942954
219,2.363574504852295,70.36264038085938,76.61865234375,2.4883174942592885,-3.322622296935029,-94.19361387121934,-8.4628315,-4.4475007,6.8827496,27.432743,-17.094322,5.489865,-10.087148,-12.879469,-8.993185,63.13991,-24.442774,-1.5637455,-1.1027615,-1.9273659,10.352114,-6.918196,17.892376,-50.35551,64.59656,-0.12672798,0.8777211,0.76246154,-13.863788,-16.06027,46.03255,62.68742,3.054102,1.6532836,-5.9795513
220,2.35776948928833,70.78968048095703,76.60150909423828,2.4007093648174096,-3.2902749514234313,-94.21323414611405,-9.080145,-4.272318,6.892277,27.83555,-16.881945,5.496778,-8.849711,-12.527376,-8.588648,62.94145,-24.476702,-1.5538731,-1.0052027,-1.7126417,10.3335705,-6.94107,17.777605,-50.319527,64.804756,-0.16562094,0.90416473,0.7723884,-14.202068,-16.0367,45.971848,62.486385,3.1116602,1.5702457,-6.0311756
221,2.344404458999634,71.21133422851562,76.58370208740234,2.3222027285776825,-3.2631391158320437,-94.21753697695453,-9.672903,-4.1157475,6.8833036,28.194332,-16.651419,5.4965253,-7.588722,-12.119772,-8.1359215,62.581387,-24.368025,-1.4175818,-0.90445596,-1.5121338,10.302807,-6.976339,17.675278,-50.323635,64.94718,-0.16369678,0.91975075,0.7532605,-14.519833,-16.005978,45.93084,62.276417,3.1506908,1.4978256,-6.1014895
222,2.3348870277404785,71.64514923095703,76.56561279296875,2.252837964841691,-3.2415547350814413,-94.20651367855017,-10.242715,-3.9761388,6.857668,28.513107,-16.404074,5.4883847,-6.3064,-11.656734,-7.6257095,62.078323,-24.140886,-1.1849248,-0.8037237,-1.3254817,10.260766,-7.017409,17.587263,-50.348892,65.02938,-0.14588173,0.9229662,0.714455,-14.817135,-15.968983,45.904064,62.05312,3.1781929,1.4305902,-6.1858535
223,2.313291549682617,72.06744384765625,76.54474639892578,2.1830516279431076,-3.2254289661274815,-94.18241998049521,-10.801993,-3.8397183,6.819771,28.814272,-16.145302,5.4687862,-5.0078645,-11.170812,-7.1174603,61.439926,-23.846054,-0.86216193,-0.70691764,-1.1395036,10.212647,-7.0607314,17.520504,-50.387344,65.0422,-0.122610055,0.9168589,0.6708936,-15.082123,-15.927722,45.859184,61.80844,3.1870263,1.3659936,-6.2792068
224,2.2921793460845947,72.49766540527344,76.51953887939453,2.103707242059204,-3.2146093238930806,-94.14765499391535,-11.362011,-3.6918776,6.773587,29.118498,-15.88003,5.4338036,-3.6981921,-10.693408,-6.670939,60.669823,-23.531466,-0.45568106,-0.61657506,-0.94044995,10.162742,-7.1040864,17.476917,-50.42946,64.981834,-0.100810744,0.90477324,0.637869,-15.315531,-15.886432,45.78141,61.54491,3.1898074,1.3007944,-6.3764853
225,2.271104335784912,72.92858123779297,76.4976806640625,2.0140314161687924,-3.2121209097112597,-94.0978600403037,-11.917412,-3.5328703,6.719759,29.42385,-15.606061,5.376868,-2.361585,-10.229645,-6.298705,59.739338,-23.138433,0.08195578,-0.5309973,-0.72693574,10.103068,-7.1580863,17.437914,-50.49284,64.86688,-0.07797516,0.8871343,0.61434096,-15.508949,-15.823678,45.63961,61.27792,3.1650853,1.2344011,-6.4861813
226,2.2446210384368896,73.36018371582031,76.46849060058594,1.9185115083057513,-3.216810271854525,-94.03372673098637,-12.465875,-3.36902,6.6561594,29.723206,-15.322843,5.3013873,-1.0017229,-9.763021,-5.964861,58.655003,-22.667164,0.73675066,-0.4549475,-0.50480443,10.036833,-7.2114677,17.418886,-50.56665,64.67747,-0.048842918,0.86313117,0.59300125,-15.66725,-15.754998,45.462276,60.994144,3.1214457,1.1690896,-6.607437
227,2.211864709854126,73.80157470703125,76.43696594238281,1.8145466652475528,-3.2223395042204737,-93.96503601103954,-13.018321,-3.1958487,6.5822263,30.020067,-15.032655,5.2184005,0.34511748,-9.293131,-5.65889,57.473232,-22.250929,1.4091982,-0.37385666,-0.27557147,9.968776,-7.2733684,17.417131,-50.645554,64.43531,-0.031075168,0.8306859,0.58417434,-15.806864,-15.675819,45.26751,60.707367,3.0789876,1.1020206,-6.723939
228,2.1777353286743164,74.24539184570312,76.40469360351562,1.7005309690568062,-3.2224926509078533,-93.90165868833188,-13.586574,-3.0088754,6.497338,30.320353,-14.739163,5.1392508,1.6422491,-8.821625,-5.373956,56.250896,-22.023006,1.9986137,-0.2813267,-0.03867422,9.904983,-7.347917,17.430994,-50.71307,64.15954,-0.039393727,0.78597426,0.59793144,-15.944908,-15.592174,45.084145,60.424393,3.060373,1.0309783,-6.8192306
229,2.136873722076416,74.70064544677734,76.36881256103516,1.572474367840051,-3.2195053725508176,-93.84362268958999,-14.1710415,-2.8044672,6.396992,30.631926,-14.449932,5.064645,2.9092252,-8.34484,-5.115342,54.950256,-22.081524,2.4967587,-0.17536101,0.21172103,9.846059,-7.437822,17.45835,-50.77653,63.842213,-0.07915627,0.72530335,0.63660926,-16.073128,-15.508077,44.903965,60.135475,3.0726657,0.9511319,-6.888729
230,2.0935776233673096,75.17461395263672,76.3306884765625,1.432462667920143,-3.215396345072911,-93.78681154194545,-14.766673,-2.5867236,6.2828765,30.949938,-14.160995,4.9891644,4.1554627,-7.866744,-4.8857994,53.557003,-22.332428,2.9475157,-0.058319714,0.4713143,9.788117,-7.541312,17.50272,-50.844856,63.479473,-0.14504367,0.6498398,0.6947794,-16.190308,-15.413499,44.715904,59.847992,3.10287,0.86436,-6.9415455
231,2.0546329021453857,75.6539306640625,76.28935241699219,1.2879405947707285,-3.203215542474485,-93.73443349064563,-15.375602,-2.362222,6.1632266,31.257126,-13.856737,4.915385,5.3251305,-7.3994064,-4.6759706,52.1727,-22.616655,3.3303187,0.06646595,0.7332203,9.7323475,-7.6538653,17.558783,-50.888443,63.091335,-0.22267482,0.570227,0.77134,-16.310028,-15.31832,44.55037,59.56507,3.1488216,0.7812409,-6.980271
232,2.0037479400634766,76.140869140625,76.24948120117188,1.1450668513260367,-3.1766095367596385,-93.69005214197787,-16.000973,-2.1376731,6.0464654,31.5385,-13.522543,4.8464556,6.362395,-6.9525814,-4.4762807,50.900303,-22.776196,3.6269855,0.19781162,0.98913383,9.679194,-7.774583,17.62275,-50.887314,62.702274,-0.3058044,0.495007,0.8650758,-16.438524,-15.223267,44.42006,59.291435,3.1899586,0.7121819,-7.0078583
233,1.9593613147735596,76.63665771484375,76.21196746826172,1.0017801172806489,-3.1340316151756413,-93.65015819867305,-16.646666,-1.9119678,5.928707,31.79907,-13.158952,4.785124,7.2509103,-6.5148325,-4.27702,49.78065,-22.84261,3.7857137,0.33519694,1.2434428,9.624783,-7.9047236,17.69196,-50.839096,62.31621,-0.38660708,0.4258665,0.9908693,-16.57614,-15.128914,44.331135,59.026424,3.2456853,0.6602192,-7.021591
234,1.907659649848938,77.15513610839844,76.16716003417969,0.8526031614028813,-3.079094794024616,-93.61425874949087,-17.310488,-1.6830109,5.8072257,32.044106,-12.7725115,4.730375,8.020232,-6.082828,-4.086761,48.755924,-22.874783,3.83412,0.4788699,1.4998223,9.569584,-8.045497,17.765217,-50.753277,61.924973,-0.47035316,0.35793424,1.1443646,-16.713326,-15.034664,44.268276,58.763992,3.3088682,0.6202768,-7.0210004
235,1.8567869663238525,77.67815399169922,76.12206268310547,0.7099694690961665,-3.012609411851898,-93.59095415628929,-17.98791,-1.4542124,5.6927676,32.261417,-12.35812,4.679671,8.6816435,-5.677537,-3.92314,47.785748,-22.75955,3.8767195,0.6310365,1.7483772,9.521361,-8.19759,17.840971,-50.627136,61.53681,-0.5679975,0.28986865,1.2962437,-16.872784,-14.941466,44.25349,58.52078,3.3715143,0.5884603,-7.012898
236,1.7982333898544312,78.22831726074219,76.07564544677734,0.5823155709219396,-2.935351742943793,-93.58853570553659,-18.67327,-1.2284306,5.595761,32.437374,-11.910082,4.629697,9.246769,-5.3193364,-3.8038898,46.82778,-22.384039,4.0194926,0.79154366,1.9795516,9.487649,-8.359215,17.917252,-50.454,61.15842,-0.6884807,0.22061075,1.4169804,-17.069855,-14.850026,44.300903,58.308544,3.4125583,0.561625,-7.0041466
237,1.737231969833374,78.8046646118164,76.02422332763672,0.47789239588971605,-2.8416254997692865,-93.61846137473222,-19.375816,-1.0073494,5.5269914,32.57593,-11.427759,4.5776863,9.696564,-5.031041,-3.736656,45.930214,-21.540405,4.364064,0.97016335,2.1885679,9.467505,-8.533079,17.992426,-50.224617,60.792805,-0.8455789,0.13792427,1.5022341,-17.32033,-14.761138,44.436016,58.1355,3.4384112,0.5442429,-6.9959598
238,1.671027421951294,79.3900146484375,75.96277618408203,0.3890663035607875,-2.7331842164898767,-93.67336321713654,-20.096552,-0.78803647,5.478085,32.68552,-10.916291,4.5260506,10.030716,-4.789934,-3.7082257,45.09781,-20.350101,4.835004,1.1620913,2.382587,9.457786,-8.718602,18.065777,-49.942276,60.437466,-1.0293217,0.046129063,1.5663292,-17.608292,-14.673963,44.641293,57.991096,3.4508784,0.53645885,-6.9848843
