unveil-humanoid-operators/unveil-humanoid-operators.github.io/feature-analysis-animation/data/feature_matrix_instances/gender_ankle_rom_walking_A051_walk_ff_start_225_003__A051.csv
Frame,root_translateX,root_translateY,root_translateZ,root_rotateX,root_rotateY,root_rotateZ,left_hip_pitch_joint_dof,left_hip_roll_joint_dof,left_hip_yaw_joint_dof,left_knee_joint_dof,left_ankle_pitch_joint_dof,left_ankle_roll_joint_dof,right_hip_pitch_joint_dof,right_hip_roll_joint_dof,right_hip_yaw_joint_dof,right_knee_joint_dof,right_ankle_pitch_joint_dof,right_ankle_roll_joint_dof,waist_yaw_joint_dof,waist_roll_joint_dof,waist_pitch_joint_dof,left_shoulder_pitch_joint_dof,left_shoulder_roll_joint_dof,left_shoulder_yaw_joint_dof,left_elbow_joint_dof,left_wrist_roll_joint_dof,left_wrist_pitch_joint_dof,left_wrist_yaw_joint_dof,right_shoulder_pitch_joint_dof,right_shoulder_roll_joint_dof,right_shoulder_yaw_joint_dof,right_elbow_joint_dof,right_wrist_roll_joint_dof,right_wrist_pitch_joint_dof,right_wrist_yaw_joint_dof
0,0.4410369396209717,2.159514904022217,77.77399444580078,0.6699672061823065,-3.285631235236967,-92.87930375043504,8.964943,2.247836,13.116007,7.0601344,-12.949556,-3.398849,6.9662366,-8.413528,-9.241392,8.395769,-13.784095,7.8276825,0.16540033,-0.2617564,13.27767,-5.924989,12.118676,-32.908775,60.050835,7.398928,-0.12823358,0.11265898,-4.567753,-14.306112,33.73692,62.97621,12.270011,-7.906665,-0.7829903
1,0.47235968708992004,2.1517395973205566,77.7724380493164,0.7064059883058642,-3.2111928347676155,-92.83443987745254,8.865243,2.1633677,13.069222,7.059487,-12.944187,-3.3237362,6.904118,-8.497305,-9.284363,8.367681,-13.767059,7.908124,0.057843063,-0.2827914,13.280665,-5.982876,12.128125,-32.91959,60.079666,7.282698,-0.13543893,0.15028946,-4.619774,-14.327945,33.647865,62.96085,12.216017,-7.9579663,-0.780046
2,0.5027704834938049,2.150153160095215,77.77049255371094,0.7449274839128603,-3.1416681695414654,-92.78607234991401,8.771607,2.0769215,13.017347,7.059131,-12.938759,-3.2459598,6.8458385,-8.583618,-9.331033,8.348812,-13.758816,7.9901485,-0.03690465,-0.30676132,13.289086,-6.0448036,12.1433735,-32.944283,60.1048,7.1519866,-0.14130902,0.18994984,-4.6631637,-14.352662,33.545727,62.940014,12.153467,-8.010539,-0.77321726
3,0.5357531309127808,2.156771421432495,77.76701354980469,0.7917724149078347,-3.0584970886453147,-92.74921270035469,8.664093,1.9815656,12.978899,7.0576577,-12.934212,-3.169154,6.6523843,-8.698989,-9.347651,8.572314,-13.870768,8.072224,-0.115213014,-0.3397235,13.292485,-6.1110053,12.168502,-32.986317,60.12299,7.035482,-0.14832965,0.22313601,-4.694347,-14.386691,33.419807,62.89385,12.097237,-8.059282,-0.7683165
4,0.57398921251297,2.1759064197540283,77.7615737915039,0.8491930872866914,-2.9479164566585436,-92.73556609309588,8.527251,1.877862,12.969198,7.054834,-12.932733,-3.098455,6.311235,-8.841288,-9.322396,9.017782,-14.083012,8.1507635,-0.18492599,-0.38287172,13.279558,-6.1857715,12.198281,-33.041424,60.14721,6.9633327,-0.15958409,0.24291457,-4.7277837,-14.423914,33.2693,62.831352,12.0607605,-8.101128,-0.77397805
5,0.6167740821838379,2.1995675563812256,77.75765228271484,0.898720224499882,-2.820390961748789,-92.73326471009162,8.368741,1.7812213,12.9772835,7.052086,-12.936379,-3.0365655,5.91496,-8.982759,-9.280854,9.517703,-14.308781,8.223973,-0.26311344,-0.4207526,13.259751,-6.2790647,12.222423,-33.108242,60.197342,6.9589148,-0.1801449,0.24592508,-4.7802725,-14.453889,33.099438,62.767883,12.059984,-8.131376,-0.79838747
6,0.6560356020927429,2.2178120613098145,77.750244140625,0.9449584633217923,-2.6801752940139645,-92.7395057139754,8.193469,1.6895025,12.998357,7.0503397,-12.943905,-2.9815257,5.484428,-9.122376,-9.227878,10.044444,-14.541369,8.293622,-0.32775337,-0.45399556,13.239046,-6.3931274,12.249501,-33.207985,60.26111,6.994687,-0.20633422,0.23662512,-4.8207526,-14.490075,32.881702,62.675488,12.070364,-8.152008,-0.83272505
7,0.7017195820808411,2.2392306327819824,77.73643493652344,0.9881104360415187,-2.5060943158486944,-92.77215604979042,7.9582305,1.6076945,13.0491085,7.102504,-12.980613,-2.933258,4.943474,-9.265832,-9.134699,10.697141,-14.820958,8.359289,-0.35741496,-0.48298326,13.198195,-6.518743,12.285266,-33.34073,60.31832,7.036303,-0.22953199,0.22187217,-4.8447485,-14.544966,32.63112,62.550556,12.092952,-8.172641,-0.865165
8,0.7496760487556458,2.254096269607544,77.7154769897461,1.051069041388852,-2.280632317117971,-92.85594381420333,7.677307,1.5092862,13.154364,7.149254,-13.014532,-2.8904135,4.245879,-9.432323,-8.967366,11.518111,-15.160485,8.420573,-0.38191292,-0.5330447,13.102174,-6.630944,12.310992,-33.437634,60.37802,7.0693655,-0.24393529,0.21062094,-4.8962717,-14.586118,32.42156,62.463135,12.118588,-8.207425,-0.89522004
9,0.7909625768661499,2.265211820602417,77.68901824951172,1.136221663468114,-1.9809383886726348,-92.98780056254152,7.3229246,1.3901225,13.3136015,7.1886797,-13.039548,-2.857787,3.3673117,-9.626041,-8.727423,12.506205,-15.567512,8.471958,-0.35624796,-0.60585207,12.939496,-6.751893,12.340204,-33.562737,60.435684,7.0649266,-0.24697237,0.20419174,-4.9479284,-14.63617,32.21748,62.379955,12.165681,-8.269007,-0.90761
10,0.83586585521698,2.2864575386047363,77.65953826904297,1.2350369910345755,-1.6247187743251894,-93.15857993553645,6.864849,1.2707165,13.516439,7.3246126,-13.111942,-2.835693,2.342377,-9.836446,-8.426672,13.635043,-16.030197,8.514371,-0.3209952,-0.69599557,12.721357,-6.8710766,12.36365,-33.678146,60.50104,7.0520916,-0.24381639,0.19878502,-5.018287,-14.677363,32.039772,62.321346,12.228882,-8.349183,-0.91441405
11,0.8824927806854248,2.3172457218170166,77.62560272216797,1.3574718105764703,-1.2539701720693281,-93.3829158035343,6.4222775,1.1281314,13.775571,7.411944,-13.167227,-2.8139498,1.2171015,-10.062661,-8.048051,14.89478,-16.524418,8.557095,-0.2363323,-0.80973405,12.498959,-6.988891,12.393154,-33.8009,60.549038,7.034739,-0.23153295,0.19336645,-5.0817003,-14.730882,31.838224,62.246967,12.278356,-8.420462,-0.9233266
12,0.9337706565856934,2.360208034515381,77.58589172363281,1.5115496236464894,-0.9091561908007787,-93.67574022817507,6.0628605,0.949129,14.102373,7.4160047,-13.195007,-2.7819366,0.036948103,-10.304703,-7.574712,16.27371,-17.024014,8.610382,-0.13387686,-0.95989734,12.303371,-7.0782166,12.41889,-33.861507,60.573673,7.042185,-0.2102755,0.18736772,-5.1725984,-14.773429,31.645681,62.194176,12.288274,-8.45952,-0.9544315
13,0.9622923135757446,2.386211633682251,77.54378509521484,1.713156805537863,-0.5723389044443968,-94.04811543597805,5.7731023,0.7166833,14.51118,7.328878,-13.190622,-2.7306895,-1.2257384,-10.570241,-6.974178,17.778635,-17.565418,8.6670265,0.017559987,-1.1641971,12.1249695,-7.1431937,12.449161,-33.86781,60.564003,7.079224,-0.16967656,0.1810037,-5.275246,-14.815318,31.437325,62.140995,12.260324,-8.452845,-1.0169156
14,0.9965580105781555,2.420780897140503,77.49594116210938,1.948988237064309,-0.22984090230105025,-94.48912663029114,5.4695187,0.45876613,14.990948,7.2905955,-13.22399,-2.6684356,-2.5833156,-10.848321,-6.2632365,19.409584,-18.145895,8.724132,0.19792129,-1.4129782,11.946286,-7.1872854,12.476158,-33.819637,60.53702,7.1401715,-0.11415959,0.17534292,-5.4152346,-14.844905,31.247929,62.120792,12.221302,-8.417792,-1.1040324
15,1.0366801023483276,2.454746723175049,77.44268035888672,2.1916949143302467,0.07262794814972519,-94.98083753361604,5.2048306,0.20288327,15.516642,7.2910175,-13.292996,-2.6085258,-3.9662557,-11.112598,-5.501662,21.142834,-18.682661,8.800836,0.4002594,-1.6718302,11.817795,-7.2112246,12.515129,-33.758877,60.476856,7.1982465,-0.0607602,0.16638845,-5.5538526,-14.876833,31.031637,62.08999,12.123539,-8.36793,-1.1901426
16,1.081621766090393,2.488377571105957,77.38973999023438,2.411697136902366,0.2893285419493774,-95.50656399028902,5.048503,-0.031310264,16.062885,7.2841516,-13.376128,-2.5638423,-5.304188,-11.341628,-4.751396,22.956566,-19.093246,8.919198,0.58672893,-1.9077524,11.768575,-7.2155786,12.548317,-33.692123,60.409473,7.2396507,-0.028505579,0.15622179,-5.7033057,-14.896581,30.80279,62.07796,11.941454,-8.321508,-1.2598127
17,1.1218856573104858,2.5173988342285156,77.34190368652344,2.610690513909855,0.40726564407281846,-96.08188825431031,5.0191545,-0.2450882,16.639826,7.271025,-13.47965,-2.5455925,-6.6095243,-11.515582,-3.9539592,24.898287,-19.369259,9.065683,0.7900555,-2.11781,11.823339,-7.200806,12.596148,-33.646927,60.305054,7.2524867,-0.021627808,0.13672353,-5.851274,-14.9183035,30.530708,62.06088,11.593343,-8.26998,-1.292849
18,1.162985920906067,2.5442235469818115,77.29558563232422,2.801392157766815,0.4531854875854788,-96.70955387562549,5.090442,-0.45141017,17.255,7.2485394,-13.598436,-2.5446517,-7.904178,-11.643556,-3.107855,26.95334,-19.547848,9.243968,0.9947075,-2.3132188,11.947592,-7.1639915,12.638132,-33.58605,60.184475,7.255835,-0.03167811,0.11303116,-6.0128884,-14.932203,30.248621,62.060562,11.121219,-8.20942,-1.3077292
19,1.2118918895721436,2.5698347091674805,77.2441177368164,2.9768021117414674,0.4400477203305161,-97.35366290952865,5.2379465,-0.64188915,17.878368,7.2245426,-13.726726,-2.5434268,-9.13575,-11.75862,-2.3585691,29.017405,-19.616623,9.5006275,1.1953772,-2.492813,12.134393,-7.1170044,12.689868,-33.54002,60.05199,7.240386,-0.052005086,0.093009986,-6.1691113,-14.943849,29.93331,62.052967,10.677092,-8.158835,-1.3225057
20,1.2674880027770996,2.5845236778259277,77.19568634033203,3.1300367020144386,0.3796988312356287,-97.97850008230117,5.4404016,-0.80964595,18.480505,7.2005696,-13.855921,-2.523632,-10.255533,-11.90392,-1.8463482,30.992176,-19.569435,9.87629,1.3609252,-2.6530416,12.3665495,-7.062329,12.751365,-33.510372,59.924164,7.204992,-0.077293396,0.08666237,-6.305066,-14.949629,29.585588,62.025177,10.406496,-8.137027,-1.3607593
21,1.313222885131836,2.601816177368164,77.14733123779297,3.267412235023789,0.2540880671229897,-98.59851275661843,5.718945,-0.96113694,19.074114,7.1767545,-13.988613,-2.465062,-11.271518,-12.085444,-1.5554987,32.934555,-19.38911,10.340364,1.4960866,-2.7993302,12.661725,-6.995164,12.8197,-33.485443,59.797592,7.140689,-0.11048215,0.10561036,-6.4359045,-14.947163,29.208828,61.987926,10.322366,-8.155019,-1.4398135
22,1.3454233407974243,2.608365297317505,77.11014556884766,3.391462590083906,0.06360127524848294,-99.22533797604314,6.0772786,-1.0987113,19.667923,7.150388,-14.127214,-2.383003,-12.203347,-12.288635,-1.4259195,34.872543,-19.087984,10.886386,1.6094543,-2.9312167,13.018668,-6.915272,12.895437,-33.46626,59.668217,7.0494266,-0.15320244,0.14167787,-6.561034,-14.935837,28.799147,61.94385,10.347253,-8.200882,-1.544619
23,1.3975067138671875,2.615887403488159,77.07626342773438,3.4924294887223004,-0.15332135590388332,-99.81950745328501,6.465648,-1.2110721,20.226934,7.1235943,-14.265131,-2.3104627,-13.030382,-12.534953,-1.523151,36.68188,-18.711563,11.58032,1.683437,-3.0412748,13.394974,-6.8345165,12.978844,-33.472717,59.553223,6.9557543,-0.19775124,0.175866,-6.670204,-14.914333,28.37061,61.891026,10.528598,-8.260335,-1.6501198
24,1.4390615224838257,2.610368013381958,77.05043029785156,3.5582411516550034,-0.35851192752646605,-100.34092467618176,6.8320036,-1.2839584,20.716492,7.1004977,-14.39506,-2.2803197,-13.736033,-12.850926,-1.9106536,38.248142,-18.30818,12.480061,1.6981158,-3.1214674,13.746129,-6.7689824,13.067646,-33.52689,59.47698,6.879823,-0.23683885,0.18976888,-6.7523336,-14.883117,27.937782,61.829777,10.910757,-8.319203,-1.7317644
25,1.4698785543441772,2.5946080684661865,77.026123046875,3.5819649618227554,-0.5624109596431196,-100.7629129207712,7.183601,-1.3116461,21.112686,7.0811076,-14.516048,-2.309126,-14.26798,-13.248754,-2.6419723,39.52222,-17.80638,13.806746,1.6331664,-3.169328,14.076921,-6.7219863,13.163988,-33.644665,59.44515,6.823457,-0.2696439,0.17531173,-6.807906,-14.842432,27.512888,61.77152,11.509,-8.378299,-1.802093
26,1.4940285682678223,2.5697507858276367,77.01850128173828,3.5305018121216993,-0.771480577501891,-101.15059529958306,7.5331073,-1.2388818,21.47558,7.078865,-14.637417,-2.3948894,-14.66059,-13.613788,-3.685289,40.560055,-17.186678,15.000033,1.541484,-3.1569772,14.401351,-6.6871977,13.269257,-33.81072,59.44538,6.7774377,-0.30023345,0.14358866,-6.839051,-14.790455,27.082874,61.708637,12.296921,-8.444382,-1.8678188
27,1.4934908151626587,2.5480215549468994,77.02106475830078,3.3589225520475026,-0.9364143447029681,-101.60617876076613,7.8367553,-0.9874847,21.903528,7.1131673,-14.76815,-2.540062,-15.03079,-13.81129,-5.002206,41.39009,-16.56349,15.000033,1.5219826,-3.0450258,14.685235,-6.667363,13.383682,-34.006947,59.47307,6.7429543,-0.3276796,0.104856506,-6.8426986,-14.7252245,26.62422,61.617523,13.260412,-8.511578,-1.8955176
28,1.4867550134658813,2.523888111114502,77.0182876586914,3.229760416614021,-1.0539570972802124,-102.02680078745401,8.090057,-0.7998307,22.301214,7.1294284,-14.882838,-2.650904,-15.46848,-14.215629,-6.4119096,42.224056,-16.194536,15.000033,1.4749594,-2.9685209,14.919187,-6.655053,13.501715,-34.21639,59.520027,6.720459,-0.34895036,0.068394355,-6.81621,-14.651233,26.121,61.48262,14.393024,-8.572124,-1.8484719
29,1.4938948154449463,2.4701154232025146,77.01692962646484,3.1590148007246417,-1.124202840114964,-102.39327052159031,8.292712,-0.7019091,22.647327,7.117396,-14.977933,-2.711133,-15.974842,-14.883174,-7.897751,43.099285,-16.170237,15.000033,1.381961,-2.9391632,15.102441,-6.657847,13.619616,-34.456127,59.59786,6.7035975,-0.3652884,0.047317132,-6.74647,-14.570568,25.557087,61.277653,15.779804,-8.604046,-1.7044603
30,1.5141944885253906,2.413715124130249,77.01348876953125,3.115303079672697,-1.1658450047584397,-102.70294179039834,8.46277,-0.6525212,22.938427,7.087577,-15.056555,-2.7450418,-16.472769,-15.753702,-9.507554,43.939045,-16.378853,15.000033,1.2427177,-2.9327786,15.2507105,-6.678542,13.736119,-34.7317,59.71052,6.6931067,-0.37734586,0.033355054,-6.636974,-14.484284,24.94507,61.01844,17.398323,-8.612753,-1.4862226
31,1.523229956626892,2.336212635040283,77.01846313476562,3.082124192596244,-1.187656189248279,-102.9753052787757,8.614542,-0.6223011,23.194645,7.0446486,-15.1247635,-2.771502,-16.921545,-16.73658,-11.204737,44.66357,-16.697687,15.000033,1.0766597,-2.9328916,15.37396,-6.704459,13.848962,-35.002125,59.83834,6.705512,-0.38269073,0.0042141546,-6.5009637,-14.39372,24.303827,60.739277,19.070652,-8.631696,-1.2245624
32,1.5282522439956665,2.3179244995117188,77.00863647460938,3.041540274614304,-1.1942875076501591,-103.23455047532804,8.757624,-0.58154976,23.441156,6.9991674,-15.191565,-2.8093448,-17.294737,-17.736784,-12.955597,45.19735,-17.00128,15.000033,0.9056338,-2.92381,15.477772,-6.7213497,13.955639,-35.22283,59.961197,6.7589006,-0.37895873,-0.062623255,-6.3536563,-14.300726,23.65385,60.47563,20.6186,-8.697267,-0.94891995
33,1.5228843688964844,2.2710049152374268,77.01036071777344,2.9877098076207806,-1.1790660343341761,-103.4797787593879,8.887341,-0.5263841,23.678562,6.945686,-15.251395,-2.8639338,-17.580416,-18.786436,-14.844084,45.53023,-17.313976,15.000033,0.72715276,-2.9022648,15.553853,-6.7295,14.055217,-35.386005,60.082794,6.8972287,-0.36374173,-0.20464829,-6.1898203,-14.205186,22.985365,60.22823,22.035906,-8.829788,-0.62147367
34,1.5163049697875977,2.1640262603759766,77.01902770996094,2.9296476614563307,-1.1460497198342474,-103.69828959175334,9.003939,-0.4664526,23.892668,6.8857164,-15.304585,-2.9260945,-17.775635,-19.908472,-16.878065,45.705128,-17.696003,15.000033,0.5290674,-2.8733163,15.606107,-6.7349377,14.14743,-35.51093,60.211754,7.099899,-0.33966783,-0.39938352,-6.0052886,-14.106203,22.294813,59.981476,23.40671,-9.003839,-0.23883802
35,1.4967604875564575,2.067786931991577,77.0320816040039,2.8120168568255455,-1.0708956705704515,-103.98992651715957,9.086903,-0.31145203,24.180038,6.8427663,-15.365606,-3.0189173,-17.95043,-20.835197,-18.92993,45.653954,-18.017576,14.2897835,0.40702128,-2.7892234,15.622391,-6.736915,14.232428,-35.597225,60.339085,7.2839823,-0.31172785,-0.578776,-5.816245,-14.003773,21.612404,59.74422,24.68761,-9.193464,0.11625019
36,1.47119140625,1.98342764377594,77.03888702392578,2.679142084947612,-0.9905495800817734,-104.3069548782351,9.17154,-0.12996103,24.49188,6.806521,-15.437439,-3.116449,-18.107828,-21.581505,-20.78734,45.423405,-18.22165,13.458198,0.3129723,-2.6868362,15.635774,-6.7254353,14.308635,-35.640205,60.450386,7.3685894,-0.2832602,-0.6759161,-5.6400285,-13.900821,20.973602,59.529263,25.836432,-9.376409,0.36058587
37,1.4387407302856445,1.894993543624878,77.04559326171875,2.540382284680175,-0.9173025610058902,-104.63646233850989,9.273423,0.058180016,24.814568,6.7680817,-15.519545,-3.2083552,-18.249094,-22.177696,-22.434155,45.022743,-18.31873,12.603515,0.22964095,-2.5716014,15.655684,-6.6930404,14.372393,-35.62656,60.54159,7.299521,-0.25129434,-0.65986943,-5.4739304,-13.800301,20.38291,59.333393,26.83316,-9.565305,0.45804104
38,1.406240701675415,1.7887495756149292,77.05172729492188,2.396174725956214,-0.842035783360712,-104.97411378212722,9.383345,0.25497866,25.145243,6.723838,-15.605925,-3.2990668,-18.373262,-22.66319,-23.95121,44.44964,-18.344103,11.707519,0.1541165,-2.4422836,15.67195,-6.646525,14.42249,-35.5627,60.622536,7.129651,-0.21529754,-0.5705567,-5.3096366,-13.702501,19.825432,59.150677,27.703667,-9.771167,0.45718178
39,1.3628301620483398,1.6786714792251587,77.05298614501953,2.2536065997127923,-0.7643855900299293,-105.30486973466435,9.4962635,0.4522681,25.469564,6.678326,-15.695096,-3.3940098,-18.494158,-23.028288,-25.295221,43.71518,-18.256134,10.870694,0.078173555,-2.31312,15.685682,-6.5950866,14.461514,-35.467793,60.696136,6.9453917,-0.18139088,-0.44722575,-5.1571045,-13.609146,19.305292,58.989826,28.471943,-9.970488,0.3998057
40,1.2993085384368896,1.5606768131256104,77.05494689941406,2.120298947605655,-0.6839785219325093,-105.61326667612902,9.605358,0.6418827,25.772852,6.636302,-15.784477,-3.4985592,-18.62398,-23.265491,-26.421785,42.826225,-18.007359,10.191948,-0.009040577,-2.1971264,15.698931,-6.5476866,14.493823,-35.3631,60.76296,6.8284016,-0.15542753,-0.32973224,-5.0221457,-13.523875,18.827644,58.85385,29.161823,-10.137304,0.32777908
41,1.2314971685409546,1.4415000677108765,77.0561752319336,1.996868710503631,-0.6003873772075176,-105.90004794292363,9.707131,0.8266909,26.05703,6.6052675,-15.878346,-3.6174426,-18.767473,-23.362917,-27.320381,41.755642,-17.55409,9.69867,-0.122555785,-2.089697,15.715397,-6.49199,14.514962,-35.22689,60.812176,6.8141065,-0.13972472,-0.20574503,-4.910616,-13.466306,18.424309,58.73761,29.780855,-10.260306,0.23270963
42,1.1559938192367554,1.315322756767273,77.05477142333984,1.8811207382344939,-0.5142634021571763,-106.17158065127053,9.79896,1.0108061,26.327751,6.5949674,-15.982961,-3.7468276,-18.924885,-23.336306,-28.007818,40.505352,-16.923271,9.333832,-0.21190672,-2.008595,15.736291,-6.4477477,14.549973,-35.101856,60.851997,6.843474,-0.1278696,-0.061829012,-4.8169065,-13.3812685,18.019846,58.659306,30.28433,-10.360764,0.099446274
43,1.0834290981292725,1.1942615509033203,77.04679107666016,1.7759725694367638,-0.4257706264614671,-106.42041946284829,9.88969,1.1846921,26.575817,6.583609,-16.086212,-3.8790162,-19.098997,-23.215706,-28.481777,39.123875,-16.172647,9.068802,-0.324258,-1.9380411,15.751367,-6.394946,14.585339,-34.959015,60.873886,6.8891263,-0.12026535,0.06217383,-4.736106,-13.307286,17.662699,58.602276,30.717743,-10.445093,-0.04778562
44,0.9909101724624634,1.0692802667617798,77.03910827636719,1.6863383691354703,-0.3358096624234972,-106.63942665166243,9.976393,1.3418012,26.792128,6.575103,-16.188162,-4.0062513,-19.292126,-23.03461,-28.738258,37.663975,-15.363034,8.875639,-0.4465857,-1.8752131,15.75786,-6.3529963,14.616161,-34.830444,60.89082,6.9153194,-0.11526916,0.12728402,-4.6406045,-13.250025,17.308859,58.5445,31.08754,-10.5198555,-0.17696199
45,0.8917768597602844,0.9346010088920593,77.02665710449219,1.619818622040188,-0.24441603179605983,-106.82080424704017,10.052801,1.4749038,26.967014,6.580944,-16.293049,-4.121878,-19.513182,-22.783743,-28.717625,36.104233,-14.451909,8.765156,-0.57193416,-1.8309559,15.754601,-6.328202,14.64581,-34.72151,60.904583,6.9093313,-0.10878702,0.107489936,-4.521244,-13.198986,16.940418,58.483715,31.378147,-10.581961,-0.28528512
46,0.7919129729270935,0.7921672463417053,77.01055145263672,1.572053776442319,-0.15125850347756,-106.9697214788726,10.119895,1.5901599,27.10702,6.598433,-16.399637,-4.2316236,-19.749624,-22.45859,-28.436842,34.42297,-13.424676,8.742337,-0.6878314,-1.8103138,15.745383,-6.320139,14.685072,-34.638393,60.91103,6.887085,-0.10167031,0.028809242,-4.3899083,-13.139056,16.553629,58.433903,31.580454,-10.630502,-0.3867317
47,0.6769418120384216,0.6441424489021301,76.99586486816406,1.5343412740143298,-0.057071955730084556,-107.1002033154443,10.18458,1.6991386,27.229008,6.6240273,-16.511646,-4.345481,-19.976103,-22.100634,-28.00561,32.68008,-12.387196,8.7711735,-0.81468093,-1.7946966,15.728541,-6.318736,14.7237835,-34.574482,60.914314,6.858886,-0.10220671,-0.06861425,-4.2630386,-13.089464,16.185595,58.40144,31.73062,-10.67445,-0.47965848
48,0.5671637654304504,0.49683764576911926,76.9693832397461,1.4979301548659634,0.037281120722173565,-107.22574081149344,10.255211,1.8122017,27.34939,6.6509976,-16.630878,-4.473338,-20.168701,-21.746494,-27.53704,30.92917,-11.441396,8.816803,-0.9523718,-1.768645,15.704827,-6.326514,14.756509,-34.545887,60.923428,6.830645,-0.11808073,-0.14469996,-4.1530294,-13.055922,15.846781,58.39519,31.857937,-10.723919,-0.56067204
49,0.43336594104766846,0.3561060130596161,76.94972229003906,1.463470607064671,0.13028619803405989,-107.34291254962417,10.329309,1.9316282,27.465803,6.687188,-16.762566,-4.6188416,-20.326132,-21.382036,-26.99797,29.148375,-10.611684,8.885442,-1.0733207,-1.7411195,15.682448,-6.3599286,14.806639,-34.601692,60.934452,6.781078,-0.16221891,-0.19693542,-4.0472517,-13.019939,15.481813,58.407402,31.971489,-10.780947,-0.61942756
50,0.3036194145679474,0.1980488896369934,76.91809844970703,1.435632002793003,0.2220481080024189,-107.44583528170268,10.407169,2.049866,27.57078,6.726859,-16.900602,-4.776036,-20.45017,-20.995775,-26.351542,27.310715,-9.840218,8.9882345,-1.2285008,-1.7094587,15.652457,-6.3962398,14.846636,-34.669636,60.951077,6.7292886,-0.22943401,-0.24367888,-3.9682837,-13.002124,15.164199,58.45352,32.07738,-10.840963,-0.66662186
51,0.16379855573177338,0.02396169677376747,76.8861083984375,1.411816244111325,0.3141125678713147,-107.54455049667418,10.49274,2.1660898,27.67386,6.764725,-17.042978,-4.940921,-20.536375,-20.626379,-25.703926,25.478216,-9.110659,9.10002,-1.3488603,-1.6770488,15.620834,-6.4483824,14.901927,-34.804996,60.956738,6.675929,-0.2881651,-0.27881584,-3.8711748,-12.988697,14.823114,58.499195,32.097927,-10.900696,-0.7046059
52,0.024590076878666878,-0.1555873602628708,76.84646606445312,1.3902169562670696,0.408684005182472,-107.6497916767186,10.59136,2.278164,27.785204,6.787215,-17.181093,-5.109779,-20.58051,-20.307943,-25.162128,23.702137,-8.4047785,9.198509,-1.4674193,-1.6404222,15.573158,-6.4870462,14.948311,-34.93582,60.955208,6.6627946,-0.31252995,-0.294444,-3.7867484,-12.988184,14.537345,58.574707,32.00303,-10.963434,-0.75309366
53,-0.11954156309366226,-0.3385881781578064,76.80596160888672,1.372043969723175,0.5121203249420991,-107.7598925734963,10.69772,2.3827746,27.903795,6.7893734,-17.31391,-5.279904,-20.588465,-20.046547,-24.740633,21.9738,-7.72631,9.2846575,-1.5782369,-1.6008583,15.502857,-6.52909,14.982456,-35.09602,60.95998,6.6975145,-0.28287137,-0.27957803,-3.7078543,-12.998893,14.301991,58.68152,31.76244,-11.03859,-0.81108
54,-0.27770671248435974,-0.5262528657913208,76.76714324951172,1.3592875916818348,0.6209738177044688,-107.87004249799415,10.810654,2.4807053,28.024788,6.7796564,-17.445297,-5.4539666,-20.562166,-19.822311,-24.387989,20.268637,-7.0797796,9.370839,-1.6645426,-1.5584627,15.419619,-6.5847707,15.013112,-35.310085,60.96562,6.7601314,-0.21706413,-0.24115913,-3.6201913,-13.022971,14.079564,58.80197,31.401598,-11.120191,-0.86950517
55,-0.4465428292751312,-0.7202990055084229,76.72640991210938,1.3491079175280984,0.7235700785271193,-107.98665570996569,10.947169,2.5741932,28.152771,6.75503,-17.571712,-5.6362715,-20.500496,-19.628887,-24.11165,18.625523,-6.4470334,9.453434,-1.7415667,-1.5119218,15.329047,-6.6266985,15.033527,-35.503075,60.966305,6.839707,-0.14640751,-0.1967656,-3.5399003,-13.056391,13.888625,58.94226,30.958435,-11.191005,-0.9377298
56,-0.6122363805770874,-0.9243041276931763,76.6825180053711,1.3375052724439607,0.8087154861042943,-108.1170763909525,11.122791,2.6680055,28.292974,6.7157173,-17.691626,-5.8314366,-20.406965,-19.460522,-23.917585,17.092607,-5.814805,9.528661,-1.7977558,-1.4581625,15.240467,-6.636486,15.043455,-35.627575,60.952305,6.92163,-0.10069158,-0.16360655,-3.4611876,-13.098339,13.711802,59.088722,30.46126,-11.231695,-1.0202075
57,-0.7877857685089111,-1.1428656578063965,76.63252258300781,1.3240610647804587,0.8748138008035258,-108.26371916416568,11.341057,2.7612338,28.444075,6.6599994,-17.80222,-6.0360093,-20.284855,-19.316528,-23.800966,15.674315,-5.1684284,9.594222,-1.8116426,-1.3836373,15.160229,-6.6194615,15.041811,-35.69375,60.917103,7.0098467,-0.09297311,-0.15645628,-3.3608518,-13.170812,13.52019,59.21092,29.900282,-11.222256,-1.1194212
58,-0.9680716395378113,-1.36183762550354,76.58255004882812,1.3094997330037916,0.9283098902480424,-108.42305654320118,11.591886,2.8541214,28.604633,6.5901027,-17.905619,-6.249314,-20.141031,-19.1966,-23.759476,14.359019,-4.5236897,9.65452,-1.8392704,-1.323553,15.059989,-6.555917,15.034873,-35.66951,60.88276,7.122191,-0.10534997,-0.15858564,-3.3088536,-13.212692,13.400609,59.403088,29.270292,-11.194234,-1.2522001
59,-1.146859049797058,-1.5885926485061646,76.52578735351562,1.2907293879209731,0.9697687359675058,-108.59478973849271,11.880949,2.9471135,28.781546,6.4925685,-17.999424,-6.4791164,-19.979126,-19.09283,-23.804424,13.161858,-3.9092615,9.715745,-1.8162768,-1.2089958,14.988356,-6.492741,14.9957,-35.626907,60.816307,7.222105,-0.12468252,-0.15888509,-3.1948824,-13.348322,13.236302,59.507153,28.59782,-11.131687,-1.3570267
60,-1.3416705131530762,-1.8270435333251953,76.46526336669922,1.2667420769663347,1.0005297792799606,-108.77847599178752,12.203824,3.0443945,28.980904,6.371129,-18.087456,-6.734023,-19.807074,-19.000277,-23.944809,12.105148,-3.356866,9.783481,-1.8009874,-1.0912212,14.911236,-6.401866,14.937683,-35.532127,60.747578,7.278393,-0.13386789,-0.12552227,-3.1086423,-13.486022,13.136415,59.64826,27.928425,-11.083257,-1.4487509
61,-1.5444762706756592,-2.065253734588623,76.39997100830078,1.2459437409451546,1.0115190409778487,-108.97679167449326,12.527407,3.1620374,29.207407,6.337202,-18.237316,-7.020997,-19.619064,-18.935345,-24.206308,11.202271,-2.8681703,9.872716,-1.7698587,-0.9913236,14.840073,-6.2814045,14.878588,-35.387608,60.662704,7.275985,-0.12467945,-0.046162505,-3.042563,-13.601665,13.07029,59.831135,27.241575,-11.060567,-1.5075468
62,-1.7519242763519287,-2.3173513412475586,76.3292236328125,1.220033814366501,1.0077954100069166,-109.18774730895585,12.882844,3.2877965,29.45658,6.3007135,-18.396894,-7.3345447,-19.408035,-18.882833,-24.583748,10.421742,-2.422628,9.975445,-1.7275691,-0.8735338,14.7747965,-6.1361923,14.795404,-35.189186,60.56288,7.2352667,-0.10840555,0.06336559,-2.9759936,-13.745411,13.036288,60.01845,26.536451,-11.04197,-1.5392884
63,-1.9674429893493652,-2.5714988708496094,76.25506591796875,1.191545374738663,1.0036390491545324,-109.41773339487536,13.252627,3.4189079,29.727785,6.259724,-18.550632,-7.6633615,-19.219406,-18.831203,-24.99847,9.800797,-2.0501304,10.067004,-1.6721429,-0.7458729,14.70659,-5.9831185,14.693557,-34.965042,60.46432,7.176176,-0.09296286,0.18266459,-2.9201136,-13.903453,13.027956,60.20674,25.820082,-11.017907,-1.5775087
64,-2.188988447189331,-2.834761619567871,76.18275451660156,1.1631753342682707,1.0126993859678917,-109.67280615159646,13.616419,3.5538125,30.020145,6.2191195,-18.68626,-7.9960117,-19.091244,-18.76757,-25.374126,9.361467,-1.7778252,10.123017,-1.6015129,-0.6197285,14.628415,-5.835222,14.586364,-34.74302,60.37572,7.1176653,-0.08570026,0.2905376,-2.8866532,-14.05815,13.036016,60.392647,25.096418,-10.978275,-1.6556596
65,-2.4051930904388428,-3.0855844020843506,76.10604095458984,1.143470766165705,1.0314213402677446,-109.96155451458895,13.981193,3.6805146,30.3421,6.175334,-18.805182,-8.330138,-19.016834,-18.707052,-25.751484,9.105828,-1.6433407,10.165146,-1.5101563,-0.5050343,14.541032,-5.6852937,14.476838,-34.51482,60.289024,7.062704,-0.089003846,0.37675694,-2.8806536,-14.208452,13.068198,60.578556,24.35783,-10.910117,-1.7988312
66,-2.6541824340820312,-3.336881160736084,76.0353012084961,1.1268347189876928,1.0555989665817722,-110.27903060224845,14.35364,3.8047183,30.692516,6.1267853,-18.911947,-8.671793,-18.9849,-18.65022,-26.150494,9.030427,-1.6262517,10.19657,-1.3999863,-0.39645383,14.4469795,-5.5260944,14.365897,-34.270622,60.19703,7.0013757,-0.09830767,0.45372394,-2.8982844,-14.355361,13.125347,60.7692,23.60274,-10.822043,-1.9840326
67,-2.905029535293579,-3.5952117443084717,75.96406555175781,1.0943795709603734,1.0971957876555993,-110.61156476945926,14.714707,3.9506154,31.056746,6.07949,-18.998623,-9.022187,-19.028263,-18.565912,-26.463142,9.154048,-1.6685159,10.164737,-1.2682251,-0.2959797,14.343329,-5.365708,14.288682,-34.05016,60.09554,6.9273176,-0.10835546,0.53334594,-2.9393048,-14.4590645,13.17399,60.969925,22.836077,-10.739594,-2.1753974
68,-3.177460193634033,-3.8542978763580322,75.89910125732422,1.0264326694702228,1.166829356184934,-110.9446173104928,15.045907,4.143922,31.41985,6.04022,-19.057817,-9.382315,-19.170696,-18.419546,-26.584751,9.478237,-1.7034352,10.017213,-1.166759,-0.13539244,14.231558,-5.2171264,14.178772,-33.81952,60.01404,6.868627,-0.12279935,0.6263891,-2.9888866,-14.607469,13.247216,61.137177,22.110662,-10.6703825,-2.3217824
69,-3.448850393295288,-4.114485740661621,75.84256744384766,0.9137687393069288,1.2814372064751516,-111.28094086916833,15.328943,4.3941326,31.786589,6.006222,-19.092978,-9.749521,-19.439693,-18.204155,-26.486515,10.049578,-1.7114754,9.745158,-1.0514679,0.068966374,14.09915,-5.097537,14.071565,-33.63295,59.94727,6.8054996,-0.13707744,0.7399684,-3.047513,-14.751939,13.302089,61.28652,21.391489,-10.631396,-2.4251282
70,-3.72664213180542,-4.367814540863037,75.80548858642578,0.7686449382602444,1.4292783387911658,-111.62548125241692,15.57693,4.6874614,32.161785,5.979917,-19.10773,-10.123808,-19.808298,-17.937777,-26.229097,10.844367,-1.7243408,9.373276,-0.9278093,0.30075675,13.950923,-4.989835,13.972437,-33.46855,59.882866,6.739821,-0.15234405,0.8657538,-3.1218047,-14.887805,13.352977,61.425842,20.673265,-10.6115,-2.506413
71,-4.009469985961914,-4.625120639801025,75.76382446289062,0.6073074750491936,1.577994734652584,-111.96735521216753,15.828774,5.004028,32.530186,5.9533806,-19.084158,-10.509146,-20.218014,-17.624104,-25.841614,11.751809,-1.7521379,8.901375,-0.80584323,0.5309716,13.808127,-4.8849683,13.898639,-33.334305,59.82589,6.671126,-0.16837485,0.99852395,-3.208381,-14.992314,13.386947,61.561195,19.986351,-10.60366,-2.5628583
72,-4.313566207885742,-4.891086578369141,75.72189331054688,0.4450103748483168,1.6956513676960268,-112.29679403544726,16.11744,5.329311,32.87707,5.9323015,-19.011787,-10.909636,-20.62396,-17.268362,-25.347786,12.688449,-1.8125436,8.330922,-0.7087218,0.7705343,13.694484,-4.789,13.813392,-33.22175,59.806015,6.6077814,-0.18871127,1.134007,-3.2829878,-15.110888,13.40706,61.663544,19.380672,-10.591357,-2.5810478
73,-4.630676746368408,-5.163620948791504,75.6822738647461,0.2786059314449362,1.7682333831890191,-112.61188621706405,16.462059,5.6650305,33.19943,5.909383,-18.892725,-11.330289,-21.031582,-16.857904,-24.713707,13.681722,-1.931682,7.6120872,-0.63025564,1.0044383,13.621925,-4.7012267,13.741861,-33.152943,59.820507,6.5393763,-0.20854375,1.274023,-3.3550034,-15.205078,13.37908,61.746975,18.860102,-10.577869,-2.552694
74,-4.963923931121826,-5.432395935058594,75.65512084960938,0.10529744349924562,1.812508399877739,-112.91618476020274,16.840988,6.015906,33.50281,5.8894076,-18.733288,-11.766148,-21.455158,-16.39004,-23.943813,14.7534895,-2.083665,6.7648854,-0.56893784,1.2319549,13.578463,-4.6170635,13.690384,-33.117886,59.855595,6.4674773,-0.22811176,1.4193966,-3.4377997,-15.270832,13.321999,61.823536,18.406221,-10.570037,-2.4869428
75,-5.303852558135986,-5.694319248199463,75.64119720458984,-0.061117134614398924,1.845056529832643,-113.2078042180203,17.235703,6.3680115,33.78733,5.8695874,-18.515673,-12.206587,-21.866888,-15.886536,-23.117853,15.815977,-2.214402,5.8944573,-0.5151861,1.4427058,13.544651,-4.540859,13.650738,-33.109512,59.91867,6.39962,-0.25356936,1.5670823,-3.5140915,-15.319688,13.265351,61.88901,17.997631,-10.568238,-2.4074535
76,-5.657299518585205,-5.963184356689453,75.63932800292969,-0.20859915991388175,1.884040160905081,-113.4867406303047,17.625341,6.709506,34.054405,5.8488126,-18.22278,-12.641693,-22.244255,-15.374318,-22.311535,16.794834,-2.2823102,5.102468,-0.46209824,1.6117405,13.498837,-4.4625783,13.638385,-33.115906,59.999252,6.3412614,-0.28918752,1.7127036,-3.5889702,-15.334285,13.250014,61.964684,17.613234,-10.577218,-2.3453956
77,-6.033055782318115,-6.227104187011719,75.63969421386719,-0.33961994291272957,1.9407623086231431,-113.75766613751384,17.999832,7.0445685,34.316444,5.8279333,-17.853186,-13.07774,-22.599373,-14.840071,-21.484903,17.670155,-2.230212,4.392027,-0.38908818,1.7595472,13.437331,-4.410409,13.628265,-33.154568,60.124634,6.2884912,-0.34095216,1.85891,-3.6413405,-15.345034,13.266001,62.026524,17.255314,-10.594112,-2.29639
78,-6.42781925201416,-6.4969329833984375,75.64904022216797,-0.46028645230043,2.0047627490863915,-114.02042465831899,18.371315,7.3771205,34.56987,5.8067636,-17.416065,-13.517073,-22.939444,-14.278274,-20.617481,18.492058,-2.10391,3.7140918,-0.30419803,1.8936011,13.359188,-4.3815064,13.613121,-33.244324,60.30315,6.224863,-0.4041328,2.0126529,-3.6786966,-15.35402,13.320364,62.084717,16.951424,-10.619439,-2.2545202
79,-6.828179836273193,-6.773882865905762,75.66791534423828,-0.566144844765861,2.0600802072939084,-114.27008642746706,18.752937,7.6990356,34.79468,5.7855897,-16.910734,-13.944299,-23.227922,-13.7276535,-19.809395,19.27999,-2.0181983,3.0892773,-0.22725764,2.005202,13.288533,-4.350582,13.605819,-33.323883,60.494415,6.1954703,-0.47340646,2.1600819,-3.709765,-15.348784,13.382393,62.133587,16.663511,-10.647185,-2.2116692
80,-7.254220008850098,-7.05539083480835,75.69134521484375,-0.6429177601365448,2.08633300912257,-114.50665736098237,19.115152,8.024652,34.96759,5.890111,-16.404366,-14.342703,-23.433882,-13.2381935,-19.143312,20.062738,-2.0932744,2.5403798,-0.16457774,2.088586,13.248748,-4.299772,13.60494,-33.357662,60.66801,6.2305436,-0.5434498,2.2917607,-3.7237608,-15.340064,13.41822,62.152252,16.36211,-10.669871,-2.1574166
81,-7.682995319366455,-7.3462629318237305,75.72348022460938,-0.6904483334138497,2.07148192925288,-114.73248744382008,19.470106,8.359355,35.08418,6.124716,-15.897708,-14.715247,-23.553194,-12.829775,-18.645092,20.879839,-2.3940399,2.0801656,-0.124104306,2.1317756,13.2215,-4.2158637,13.605491,-33.36949,60.856968,6.35109,-0.61325103,2.4189634,-3.7408206,-15.297062,13.463701,62.19451,16.057768,-10.69836,-2.1042402
82,-8.128113746643066,-7.632512092590332,75.75772857666016,-0.7246733911626844,2.028762422133806,-114.944098122179,19.84757,8.681887,35.14707,6.3636017,-15.324763,-15.000033,-23.607904,-12.476919,-18.266552,21.722504,-2.8568923,1.6930835,-0.11207965,2.1312902,13.212436,-4.119282,13.619555,-33.326622,61.072433,6.5625887,-0.6869487,2.5362716,-3.795737,-15.181423,13.507504,62.2861,15.730986,-10.737865,-2.0560796
83,-8.575348854064941,-7.908116340637207,75.79273223876953,-0.7354761357553782,1.9787256485109783,-115.13516857206692,20.21268,8.951181,35.128265,6.5896616,-14.678882,-15.000033,-23.617533,-12.178774,-17.962866,22.552002,-3.4085228,1.3647015,-0.108422965,2.104717,13.210917,-4.0093846,13.647388,-33.261707,61.262547,6.7665625,-0.7571999,2.6453831,-3.8339121,-15.058006,13.546858,62.350487,15.4117985,-10.769522,-2.0102816
84,-9.036587715148926,-8.184033393859863,75.8357162475586,-0.7033705239231096,1.9544809862261263,-115.28510442815002,20.533382,9.181045,35.057003,6.816393,-13.966313,-15.000033,-23.624754,-11.94899,-17.697563,23.35645,-3.9891772,1.0816579,-0.1264384,2.0274222,13.182138,-3.8934095,13.68788,-33.175827,61.41182,6.8818307,-0.8184868,2.750289,-3.8593998,-14.92795,13.599416,62.387676,15.116934,-10.785336,-1.979945
85,-9.504425048828125,-8.469380378723145,75.88355255126953,-0.6591592128239717,1.9287371561675506,-115.4164360026991,20.854866,9.409873,34.96582,7.0391874,-13.193992,-15.000033,-23.571377,-11.725079,-17.480513,24.06825,-4.5718884,0.8434383,-0.14672178,1.9283469,13.154783,-3.7655485,13.740331,-33.054157,61.508186,6.897058,-0.86165506,2.8538253,-3.8679752,-14.789673,13.660438,62.388954,14.843778,-10.775668,-1.9599491
86,-9.976621627807617,-8.75199031829834,75.9344253540039,-0.6085816437526006,1.8979854901721829,-115.52939023563795,21.182116,9.649065,34.853706,7.2565694,-12.356406,-15.000033,-23.454912,-11.511155,-17.33267,24.705688,-5.187251,0.65597373,-0.17404088,1.8143897,13.130985,-3.624295,13.803836,-32.898884,61.56498,6.8525724,-0.8927167,2.9534874,-3.864923,-14.641737,13.729133,62.36426,14.58859,-10.747818,-1.9469197
87,-10.476941108703613,-9.043903350830078,75.99415588378906,-0.5633307324535279,1.874540185552757,-115.62680329023074,21.234636,10.096744,34.688335,8.147658,-11.793248,-15.000033,-23.291647,-11.295442,-17.244268,25.269463,-5.810722,0.4976934,-0.19864519,1.7002554,13.094378,-3.4840808,13.877939,-32.740826,61.602287,6.740786,-0.92869973,3.04458,-3.8505535,-14.488259,13.815522,62.322235,14.354618,-10.717272,-1.9544697
88,-10.980114936828613,-9.332075119018555,76.05247497558594,-0.5420416831089075,1.8739397725246987,-115.70830911746728,20.754875,10.934088,34.428307,10.314235,-11.803849,-15.000033,-23.095985,-11.060392,-17.214052,25.753418,-6.415156,0.34562063,-0.2134543,1.6089815,13.026084,-3.3611898,13.962362,-32.61405,61.6408,6.551976,-0.9867977,3.122289,-3.8268929,-14.337987,13.931059,62.272594,14.14876,-10.699048,-1.9956354
89,-11.489466667175293,-9.624578475952148,76.10368347167969,-0.5643573428336734,1.9174686599664663,-115.75363866477456,20.092535,11.9227705,34.103592,12.8004465,-11.894486,-15.000033,-22.868147,-10.79388,-17.280422,26.130423,-6.9873652,0.19874224,-0.23240864,1.5652546,12.900406,-3.2586682,14.056316,-32.53829,61.68377,6.2398195,-1.0718343,3.180671,-3.7813838,-14.195822,14.087146,62.203636,13.961055,-10.692124,-2.0968978
90,-12.004981994628906,-9.921309471130371,76.15098571777344,-0.6426787597227002,2.0019803238733846,-115.75780914312278,19.26969,13.062512,33.70017,15.54334,-12.036981,-15.000033,-22.598085,-10.480577,-17.461237,26.386461,-7.531096,0.06349739,-0.26594922,1.5820707,12.723275,-3.1659727,14.157433,-32.49173,61.718937,5.8250437,-1.1745453,3.2230508,-3.71125,-14.06334,14.271739,62.108704,13.789375,-10.689035,-2.2417932
91,-12.527968406677246,-10.218091011047363,76.18901062011719,-0.7780661414013685,2.102022965153887,-115.74809227327378,18.356987,14.317,33.26322,18.428907,-12.150695,-15.000033,-22.285614,-10.102689,-17.714022,26.545744,-8.051083,-0.072044834,-0.2948831,1.6644657,12.528682,-3.0888858,14.255151,-32.4555,61.751595,5.3923225,-1.2915788,3.259296,-3.6318192,-13.950005,14.462749,62.0022,13.662729,-10.694038,-2.3767014
92,-13.046825408935547,-10.497885704040527,76.2185287475586,-0.9617325354656879,2.1885480373247126,-115.75502255405858,17.424604,15.645268,32.8453,21.36781,-12.168563,-15.000033,-21.932251,-9.652046,-17.985981,26.639889,-8.555157,-0.21839795,-0.30287793,1.7937007,12.352525,-3.0199752,14.3558855,-32.399166,61.774864,5.029833,-1.4185094,3.2985632,-3.5689201,-13.846666,14.643293,61.91103,13.602686,-10.714273,-2.4525354
93,-13.576390266418457,-10.775761604309082,76.23955535888672,-1.1896210871092274,2.2496305696025103,-115.79155318777963,16.499287,17.035652,32.456963,24.352201,-12.094405,-15.000033,-21.529785,-9.123626,-18.265993,26.666317,-9.046584,-0.37034485,-0.2788648,1.9649574,12.205397,-2.9630928,14.463474,-32.337955,61.796215,4.7391963,-1.5729806,3.3426235,-3.5180542,-13.750354,14.799957,61.83417,13.650513,-10.769225,-2.4389968
94,-14.095365524291992,-11.057937622070312,76.25791931152344,-1.4331937168580364,2.3041983305815927,-115.8383909868508,15.553764,18.44318,32.066395,27.364809,-11.928445,-14.903481,-21.103811,-8.561295,-18.55594,26.641596,-9.531718,-0.5181024,-0.21817234,2.1742043,12.063872,-2.9546874,14.534079,-32.300537,61.85846,4.480627,-1.7535453,3.3914557,-3.4409173,-13.693783,14.921463,61.73333,13.780595,-10.845791,-2.3616002
95,-14.617066383361816,-11.33911418914795,76.2739028930664,-1.6548601995230194,2.3649959846900845,-115.88340487242887,14.566915,19.805655,31.683975,30.3592,-11.629745,-14.53639,-20.700796,-8.02066,-18.8247,26.627384,-10.025703,-0.6677176,-0.1718715,2.3366609,11.924944,-2.9060035,14.655896,-32.197678,61.84818,4.2810216,-1.9184077,3.433856,-3.4114988,-13.609163,15.077179,61.671646,13.915391,-10.915812,-2.2803218
96,-15.136737823486328,-11.614981651306152,76.28379821777344,-1.8756040200057214,2.423676080680808,-115.9345814647718,13.545417,21.181446,31.320776,33.362278,-11.187863,-14.1251135,-20.305593,-7.4726977,-19.065254,26.612831,-10.516244,-0.83929884,-0.08390173,2.5184727,11.797998,-2.8865159,14.731855,-32.05007,61.83622,4.1632175,-2.0354638,3.4795907,-3.3777206,-13.563485,15.219575,61.595222,13.97556,-10.934726,-2.2235434
97,-15.649234771728516,-11.893014907836914,76.28894805908203,-2.0948003674522444,2.4838422802068925,-116.00140549030628,12.487228,22.58631,30.989956,36.40462,-10.582425,-13.700411,-19.930805,-6.913687,-19.260336,26.612799,-11.004028,-1.0384381,-0.0040591117,2.6867523,11.683055,-2.8154812,14.827097,-31.768063,61.730953,4.2036834,-2.0755727,3.507391,-3.399934,-13.516195,15.431254,61.551968,13.931592,-10.886367,-2.2135212
98,-16.154966354370117,-12.168519973754883,76.2912368774414,-2.316811966022196,2.540120140467593,-116.08487730263509,11.395658,24.030571,30.68758,39.504543,-9.846115,-13.243042,-19.558105,-6.3359976,-19.42133,26.60326,-11.485407,-1.2577411,0.13981125,2.873953,11.574233,-2.7870703,14.878244,-31.466673,61.638794,4.3521714,-2.0663595,3.5339699,-3.4059184,-13.498093,15.611729,61.492306,13.813298,-10.789911,-2.2165973
99,-16.661895751953125,-12.432368278503418,76.28809356689453,-2.533541952444454,2.585823735019357,-116.16664617811047,10.263072,25.49787,30.390383,42.630436,-9.034802,-12.6699915,-19.176884,-5.7629833,-19.569576,26.58907,-11.967364,-1.4886647,0.24784029,3.0531063,11.490201,-2.7206852,14.929978,-31.05567,61.49291,4.510157,-2.0467553,3.570233,-3.4629388,-13.490445,15.852161,61.460403,13.6934,-10.678951,-2.2363322
100,-17.165475845336914,-12.697383880615234,76.29093170166016,-2.7384555508309645,2.614651841886676,-116.22776710107436,9.081973,26.974354,30.077623,45.74731,-8.203673,-11.896635,-18.77514,-5.215435,-19.727783,26.570877,-12.454977,-1.722903,0.34363577,3.2238085,11.439634,-2.654674,14.971087,-30.606363,61.33291,4.5406847,-2.0565243,3.6424794,-3.5359044,-13.498519,16.08798,61.4297,13.610359,-10.583265,-2.261696
101,-17.663053512573242,-12.962943077087402,76.29049682617188,-2.932763535922063,2.6363031421616734,-116.26234522971617,7.8136163,28.500103,29.751982,48.925186,-7.327396,-10.868185,-18.361229,-4.694478,-19.906311,26.546028,-12.948901,-1.9715773,0.46329924,3.388639,11.411822,-2.6298585,14.986995,-30.15721,61.193703,4.394361,-2.1060083,3.7734141,-3.604435,-13.518716,16.274704,61.3909,13.5628605,-10.499861,-2.3072023
102,-18.15104103088379,-13.221650123596191,76.28582763671875,-3.121624330796,2.6493714370806987,-116.28209523171807,6.476125,30.090591,29.43061,52.163567,-6.4031253,-9.6181965,-17.935087,-4.1863213,-20.091635,26.512478,-13.445793,-2.2351131,0.5326636,3.5533085,11.413746,-2.57478,14.988688,-29.59493,61.014206,4.1663265,-2.1760645,3.9373653,-3.721246,-13.564053,16.52188,61.370693,13.552565,-10.415016,-2.3748333
103,-18.63054847717285,-13.477529525756836,76.2799301147461,-3.303457097701968,2.6310486451401474,-116.29371391785128,5.1431117,31.688606,29.113478,55.325108,-5.5214925,-8.202077,-17.467533,-3.6881018,-20.271046,26.46041,-13.938543,-2.4891555,0.6409847,3.7162805,11.451765,-2.5565493,14.970346,-29.06579,60.855843,3.8612757,-2.2573938,4.117771,-3.8237245,-13.61633,16.708847,61.340996,13.546106,-10.347393,-2.425216
104,-19.101675033569336,-13.73118782043457,76.26899719238281,-3.478436980438249,2.5595704140004987,-116.30106240594223,3.8775835,33.232952,28.792135,58.288464,-4.77743,-6.689317,-16.938717,-3.1996312,-20.434853,26.39848,-14.428508,-2.709484,0.72448665,3.888041,11.546833,-2.5280807,14.926775,-28.51881,60.69553,3.5374603,-2.344481,4.2824183,-3.9414437,-13.695793,16.904018,61.315357,13.563417,-10.312325,-2.4262168
105,-19.560604095458984,-13.992918968200684,76.25440979003906,-3.6532114975774004,2.4158024617359755,-116.29909288832624,2.7194867,34.814514,28.572214,61.09426,-4.078956,-4.948514,-16.323704,-2.7120976,-20.587751,26.320322,-14.915776,-2.8862197,0.81894135,4.072425,11.7179165,-2.521931,14.86195,-28.006107,60.551468,3.1506486,-2.4388554,4.432829,-4.0533195,-13.791284,17.04679,61.28143,13.599663,-10.329707,-2.3501408
106,-20.017189025878906,-14.258744239807129,76.24247741699219,-3.827430269200679,2.2149902081056783,-116.28835337666983,1.6350679,36.449284,28.437126,63.789272,-3.4368067,-2.9763985,-15.635929,-2.2244496,-20.732298,26.21715,-15.395529,-3.0343041,0.9155817,4.2678895,11.952041,-2.530793,14.776398,-27.50061,60.41641,2.697644,-2.5436316,4.580052,-4.165812,-13.9040575,17.156305,61.24213,13.6524725,-10.385341,-2.2216833
107,-20.46114730834961,-14.519852638244629,76.2191162109375,-3.977925244004568,1.9897241600531002,-116.281315140165,0.5532335,37.9035,28.165316,66.26185,-3.0648785,-1.0894461,-14.920848,-1.7635542,-20.850891,26.103952,-15.866416,-3.165289,1.0241194,4.450781,12.207953,-2.5443084,14.670315,-27.009766,60.29266,2.2531648,-2.6504445,4.719973,-4.2795105,-14.033543,17.257362,61.206833,13.7118225,-10.447404,-2.0811806
108,-20.898679733276367,-14.793929100036621,76.20333862304688,-4.0762689185097045,1.7758809873571568,-116.28693959107603,-0.623808,38.8919,27.504921,68.401695,-3.1439714,0.34722272,-14.230234,-1.3663155,-20.928097,26.004055,-16.33096,-3.2893076,1.1513966,4.5932894,12.441335,-2.554573,14.543661,-26.544552,60.184483,1.8886703,-2.7507656,4.848904,-4.3863344,-14.175644,17.367815,61.17723,13.7596655,-10.483816,-1.9687665
109,-21.326183319091797,-15.07309341430664,76.19673919677734,-4.103079583856553,1.5888473564687176,-116.30324679811054,-1.9516665,39.221756,26.303366,70.1669,-3.8223727,1.1093053,-13.601549,-1.0648485,-20.961931,25.961182,-16.80789,-3.40903,1.2969441,4.67564,12.636533,-2.5628903,14.395459,-26.104319,60.09711,1.6204134,-2.8468168,4.9625206,-4.4886107,-14.329977,17.493696,61.15637,13.789172,-10.485025,-1.896943
110,-21.738624572753906,-15.353894233703613,76.19396209716797,-4.07220693813879,1.4104504669775872,-116.3225111082891,-3.375156,39.01833,24.722404,71.644104,-4.9435034,1.3814222,-13.005992,-0.8423553,-20.965364,25.96149,-17.295418,-3.5180552,1.4531816,4.71153,12.816297,-2.5722406,14.225789,-25.682644,60.027523,1.4126171,-2.9414077,5.0644307,-4.5911255,-14.497173,17.626244,61.144436,13.81055,-10.468778,-1.8441541
111,-22.144861221313477,-15.633098602294922,76.19790649414062,-4.0050119103182515,1.226774226334764,-116.3451534541591,-4.8283033,38.46815,22.978342,72.91348,-6.220587,1.404644,-12.399364,-0.66437733,-20.947422,25.950584,-17.76948,-3.6132624,1.6159071,4.7224164,12.9930105,-2.579215,14.037628,-25.287294,59.968933,1.2530787,-3.026235,5.163412,-4.690917,-14.672894,17.761093,61.14115,13.831602,-10.444451,-1.8006431
112,-22.54693031311035,-15.917169570922852,76.20896911621094,-3.9221212574683446,1.024508046680277,-116.37140374108803,-6.256691,37.76771,21.270836,74.0407,-7.3631425,1.420966,-11.737744,-0.49653104,-20.915092,25.871473,-18.204641,-3.691438,1.7814046,4.72688,13.177853,-2.5774844,13.835826,-24.923748,59.912136,1.132656,-3.093135,5.268045,-4.7882485,-14.851182,17.894344,61.149998,13.859764,-10.421807,-1.7571559
113,-22.953853607177734,-16.21030044555664,76.23589324951172,-3.8194358702124607,0.7992953829515946,-116.40881407545297,-7.666443,36.88803,19.57286,75.02292,-8.351596,1.4610794,-11.017928,-0.340883,-20.86036,25.726473,-18.599619,-3.7588391,1.9530163,4.717915,13.373188,-2.5643075,13.623731,-24.59488,59.85525,1.0633913,-3.1342754,5.389245,-4.8924036,-15.029358,18.03561,61.185318,13.897002,-10.398554,-1.7119315
114,-23.352876663208008,-16.511144638061523,76.27079772949219,-3.690910383923474,0.5571832528834569,-116.45515312324561,-9.048412,35.75604,17.8374,75.83484,-9.322858,1.4130664,-10.257932,-0.20994847,-20.784813,25.53889,-18.966188,-3.8158078,2.1313632,4.689294,13.575045,-2.539731,13.402384,-24.295797,59.79829,1.0461112,-3.1553285,5.5191774,-5.003104,-15.206742,18.184666,61.24383,13.939637,-10.37145,-1.6702708
115,-23.7477970123291,-16.819284439086914,76.30992889404297,-3.5528428259294094,0.3023760222536412,-116.49588393888716,-10.3569765,34.50786,16.197384,76.49857,-10.215614,1.2967702,-9.448635,-0.08624683,-20.708614,25.284256,-19.297583,-3.850452,2.307269,4.659129,13.782849,-2.5056007,13.174066,-24.026964,59.73906,1.046793,-3.1685607,5.6390166,-5.1048884,-15.380443,18.320086,61.30276,13.983393,-10.349519,-1.6336237
116,-24.147693634033203,-17.126100540161133,76.34595489501953,-3.421023165453386,0.04005749972565394,-116.51615713614532,-11.563562,33.28265,14.76839,77.02993,-10.96658,1.1295136,-8.581746,0.04725365,-20.651644,24.938261,-19.587189,-3.851047,2.472888,4.643443,13.994912,-2.4660265,12.942781,-23.792332,59.67689,1.0288819,-3.1861534,5.730171,-5.1893196,-15.547846,18.42464,61.346073,14.0303545,-10.341875,-1.6040295
117,-24.536556243896484,-17.439634323120117,76.3819351196289,-3.2971513759383306,-0.23288883849229536,-116.50471805766726,-12.680438,32.089233,13.539517,77.42066,-11.519371,0.8749547,-7.643946,0.19103234,-20.622013,24.487038,-19.832674,-3.8058221,2.621875,4.6441126,14.214443,-2.4155362,12.708917,-23.588676,59.60455,0.9923756,-3.2082448,5.777108,-5.2444005,-15.704815,18.478836,61.366966,14.075979,-10.352435,-1.5815094
118,-24.932266235351562,-17.76435661315918,76.42339324951172,-3.173913503994583,-0.5174861010968836,-116.47198289762335,-13.722566,30.874823,12.454325,77.65968,-11.921595,0.53814876,-6.6442094,0.3381222,-20.608612,23.946905,-20.037174,-3.7253911,2.7609584,4.65172,14.440352,-2.3546038,12.472978,-23.41812,59.525,0.9514152,-3.2290728,5.793376,-5.280153,-15.850498,18.4965,61.37818,14.121231,-10.376247,-1.5657918
119,-25.332263946533203,-18.10222625732422,76.46696472167969,-3.052316491981975,-0.8044154759105349,-116.4349372351924,-14.68244,29.68843,11.544539,77.759605,-12.265599,0.19781345,-5.6053576,0.49412307,-20.601328,23.33223,-20.204273,-3.631654,2.8991785,4.6644897,14.6638,-2.2886465,12.239613,-23.284023,59.4459,0.8978249,-3.2524006,5.8027244,-5.307782,-15.987211,18.501545,61.380283,14.16557,-10.408578,-1.5568216
120,-25.7226619720459,-18.436071395874023,76.50965881347656,-2.9340061930485337,-1.0845434776344263,-116.4105772515761,-15.556903,28.579594,10.838596,77.73434,-12.642279,-0.06620928,-4.5546107,0.6629333,-20.590029,22.667023,-20.336891,-3.5461345,3.0456014,4.6818056,14.877601,-2.221811,12.015632,-23.190662,59.37089,0.82179093,-3.2819114,5.828241,-5.337139,-16.117363,18.518873,61.370094,14.210395,-10.444611,-1.5538695
121,-26.122859954833984,-18.761720657348633,76.54991912841797,-2.8198492042411862,-1.3605090382489886,-116.4034989350116,-16.346037,27.569952,10.344494,77.58032,-13.074248,-0.22667167,-3.4823081,0.8497156,-20.572412,21.936628,-20.427769,-3.474112,3.2007668,4.7058234,15.0819025,-2.1485848,11.806112,-23.149517,59.29241,0.6936788,-3.318759,5.885127,-5.3606544,-16.240301,18.547249,61.3409,14.24134,-10.484688,-1.5592409
122,-26.517162322998047,-19.102617263793945,76.59046936035156,-2.7089509809149446,-1.6352999710628713,-116.40456779088679,-17.062899,26.63553,10.034061,77.286766,-13.510197,-0.32736477,-2.3801365,1.0507942,-20.552778,21.136263,-20.477919,-3.4056418,3.360352,4.7344036,15.281026,-2.0642824,11.611655,-23.15402,59.204117,0.52752113,-3.36066,5.956686,-5.3766904,-16.354856,18.576952,61.294537,14.264435,-10.530784,-1.5719156
123,-26.910158157348633,-19.44371223449707,76.63109588623047,-2.5986251255447748,-1.8997705326632073,-116.41070433229481,-17.72508,25.757446,9.880996,76.86015,-13.9307785,-0.39503953,-1.2761017,1.2565811,-20.530071,20.303917,-20.50403,-3.338435,3.5240705,4.761876,15.473742,-1.9741745,11.431492,-23.180553,59.11212,0.37767658,-3.4063199,6.017591,-5.394555,-16.461908,18.613245,61.232143,14.301204,-10.579589,-1.5859246
124,-27.301708221435547,-19.775217056274414,76.6654281616211,-2.486905391639947,-2.145008917723749,-116.41854307564384,-18.348444,24.916742,9.860919,76.30782,-14.317746,-0.45638046,-0.19908912,1.4574229,-20.503988,19.479128,-20.523539,-3.269416,3.6904628,4.7827067,15.658664,-1.8839612,11.264223,-23.20489,59.023384,0.29809844,-3.4542935,6.04283,-5.4257812,-16.564196,18.664694,61.15685,14.375264,-10.627911,-1.5955269
125,-27.69140625,-20.113513946533203,76.69518280029297,-2.374297972649834,-2.3696181495585953,-116.42926937850322,-18.939125,24.126675,9.981462,75.6265,-14.683361,-0.50993514,0.8495441,1.6536753,-20.473497,18.660393,-20.533749,-3.1969378,3.859913,4.7998123,15.835701,-1.7918055,11.108727,-23.226614,58.936996,0.32718298,-3.5109072,6.01389,-5.4692125,-16.6619,18.736137,61.06203,14.518651,-10.675632,-1.6015751
126,-28.083965301513672,-20.449203491210938,76.71441650390625,-2.2610801566009595,-2.5777139923581944,-116.44389130762495,-19.49107,23.391054,10.247264,74.81044,-15.031311,-0.5459953,1.8827087,1.8481206,-20.439001,17.831755,-20.528648,-3.122586,4.032288,4.8139286,16.005308,-1.6967382,10.965151,-23.256363,58.851658,0.4277974,-3.5748355,5.9484577,-5.525789,-16.755882,18.827375,60.953514,14.714887,-10.724328,-1.6065273
127,-28.48208236694336,-20.79230308532715,76.73062896728516,-2.1440449561098873,-2.7686525110412403,-116.45944340912703,-20.001516,22.678703,10.62987,73.8633,-15.329758,-0.5784081,2.8949907,2.0359855,-20.402237,17.005524,-20.516647,-3.0473127,4.2046185,4.8194427,16.167704,-1.600617,10.831758,-23.280905,58.76825,0.54598707,-3.6325142,5.874721,-5.588297,-16.84569,18.925335,60.83127,14.9008255,-10.772023,-1.6055032
128,-28.863752365112305,-21.135332107543945,76.73845672607422,-2.0209531065816697,-2.942056021244319,-116.47316855959956,-20.46904,21.959482,11.100426,72.79066,-15.547993,-0.62005407,3.8796036,2.2119775,-20.365423,16.19722,-20.508165,-2.9716496,4.374777,4.8110757,16.32361,-1.5081575,10.7065525,-23.289574,58.68997,0.62536967,-3.6703799,5.8210845,-5.6607547,-16.931238,19.025003,60.705242,15.023215,-10.817006,-1.5942178
129,-29.258419036865234,-21.482341766357422,76.74637603759766,-1.8870376859849964,-3.1026618015332246,-116.48659002484342,-20.891966,21.232767,11.656075,71.58907,-15.665924,-0.6727068,4.8373513,2.3683016,-20.32674,15.415505,-20.507463,-2.8914576,4.5477805,4.7841306,16.479969,-1.4221339,10.58752,-23.278814,58.613907,0.6434556,-3.680649,5.7953725,-5.7439394,-17.01334,19.122948,60.576015,15.046553,-10.859174,-1.5601288
130,-29.63043212890625,-21.80556297302246,76.7396240234375,-1.7448313540886966,-3.248855625520672,-116.50061428336967,-21.273298,20.51203,12.307764,70.255066,-15.704112,-0.73129684,5.7725873,2.5097945,-20.286345,14.647352,-20.50774,-2.8068383,4.7230735,4.7432423,16.633638,-1.3408107,10.474134,-23.255064,58.54165,0.6323506,-3.6719875,5.7826123,-5.833578,-17.091862,19.220602,60.437607,15.004513,-10.899236,-1.5092517
131,-30.005390167236328,-22.142763137817383,76.72796630859375,-1.6016758003919513,-3.3705560783055404,-116.5113315581205,-21.617262,19.789299,13.0487175,68.78929,-15.691937,-0.79592675,6.676613,2.6470695,-20.249578,13.889971,-20.506401,-2.724098,4.893929,4.6855783,16.771881,-1.2527635,10.385741,-23.224035,58.46848,0.61703205,-3.6542628,5.775093,-5.9365134,-17.153233,19.322306,60.300144,14.949586,-10.938487,-1.4668175
132,-30.390756607055664,-22.49149513244629,76.71707153320312,-1.4657341638166057,-3.4576943069063186,-116.51521629051639,-21.928673,19.058525,13.870794,67.1914,-15.658334,-0.86557907,7.545248,2.7932072,-20.220825,13.128767,-20.495535,-2.6493556,5.0384297,4.638251,16.87734,-1.1698533,10.283731,-23.175598,58.432564,0.63552564,-3.6412523,5.7708898,-6.0415483,-17.221897,19.444077,60.1529,14.938042,-10.973687,-1.4559296
133,-30.775367736816406,-22.836702346801758,76.6966781616211,-1.3395221743821912,-3.502196922326767,-116.51341431574653,-22.218386,18.367622,14.810171,65.46579,-15.638417,-0.8876135,8.366347,2.9509082,-20.197937,12.36559,-20.472872,-2.5853539,5.1638446,4.5909257,16.946272,-1.087431,10.187807,-23.113052,58.42717,0.6983841,-3.6380715,5.770798,-6.1548643,-17.283842,19.581392,59.998337,14.992903,-11.00412,-1.4962355
134,-31.161828994750977,-23.17494010925293,76.6734619140625,-1.217567160574118,-3.5109287499441493,-116.50769162246901,-22.481142,17.701944,15.8571,63.605015,-15.60618,-0.880229,9.143124,3.1110358,-20.179607,11.610501,-20.444677,-2.5265763,5.280414,4.530202,16.988277,-0.9965875,10.117225,-23.042587,58.42864,0.78304446,-3.6361074,5.774057,-6.2782364,-17.326054,19.724714,59.839603,15.079438,-11.032057,-1.5710325
135,-31.55428123474121,-23.52692985534668,76.65128326416016,-1.0968701993616055,-3.495965639807464,-116.49456293846052,-22.704983,16.971693,16.927488,61.5982,-15.503499,-0.94345707,9.900094,3.273106,-20.170248,10.850173,-20.409256,-2.4680867,5.375936,4.464152,17.004808,-0.90314806,10.051646,-22.965076,58.44788,0.8715364,-3.6278262,5.7766905,-6.4059415,-17.361902,19.879171,59.683365,15.163419,-11.060429,-1.6500001
136,-31.944185256958008,-23.870153427124023,76.6126480102539,-0.9744982939560136,-3.469865629656091,-116.47148856518801,-22.881811,16.095055,17.933186,59.4314,-15.272859,-1.1703055,10.664181,3.4379385,-20.173658,10.065516,-20.364567,-2.40566,5.4621377,4.388824,17.000843,-0.80767095,10.001112,-22.90614,58.474846,0.93692356,-3.6032345,5.7724257,-6.5191956,-17.385778,20.018623,59.52625,15.201917,-11.093078,-1.7006761
137,-32.342655181884766,-24.225191116333008,76.56798553466797,-0.8415742637287328,-3.4259747171308463,-116.43892517014953,-23.024212,15.071322,18.858786,57.08879,-14.924064,-1.5329089,11.425761,3.5929325,-20.190922,9.263274,-20.31957,-2.3331118,5.5239205,4.3031187,16.964132,-0.70906603,9.94948,-22.857471,58.521194,0.98135525,-3.5555637,5.7584553,-6.623584,-17.405426,20.157944,59.376568,15.192283,-11.137633,-1.7125132
138,-32.741798400878906,-24.607763290405273,76.52372741699219,-0.7026080001602253,-3.3611103859863345,-116.39931820403257,-23.137756,13.9554,19.73609,54.57095,-14.482234,-1.9847935,12.181066,3.7445822,-20.218445,8.4387865,-20.268017,-2.2547073,5.586638,4.203671,16.899609,-0.61144996,9.918002,-22.838566,58.57772,1.005714,-3.4897094,5.737575,-6.712341,-17.413612,20.273973,59.222103,15.150018,-11.190036,-1.7003399
139,-33.13723373413086,-24.975723266601562,76.47209930419922,-0.5780540466495309,-3.2937390648744604,-116.35380409566007,-23.201563,12.755683,20.541504,51.878685,-13.916238,-2.586241,12.881664,3.892677,-20.257137,7.7449408,-20.273243,-2.1804547,5.6685243,4.107875,16.83655,-0.52966756,9.909817,-22.842598,58.63993,1.015516,-3.418921,5.7122064,-6.7661896,-17.414026,20.334906,59.035637,15.056729,-11.233474,-1.6727748
140,-33.53186798095703,-25.345033645629883,76.41294860839844,-0.4883570193640943,-3.241412437372832,-116.30363992313639,-23.19655,11.4807205,21.249832,49.01466,-13.195036,-3.397522,13.328804,3.9777641,-20.318077,7.6741962,-20.577291,-2.116374,5.6884317,4.0384808,16.766666,-0.41504353,9.886862,-22.796312,58.705997,1.0113399,-3.3585284,5.6990213,-6.8660684,-17.40591,20.501442,58.904594,14.968376,-11.258814,-1.6686229
141,-33.93579864501953,-25.714588165283203,76.34735107421875,-0.43823379448656347,-3.217807628798468,-116.24401141333038,-23.120173,10.101297,21.768469,45.934982,-12.289663,-4.4373074,13.812084,4.112862,-20.396025,7.6071706,-20.854954,-2.0716543,5.7459974,3.9975345,16.73741,-0.34385532,9.881828,-22.777832,58.790344,0.9787493,-3.3081436,5.6978154,-6.9139485,-17.39575,20.58573,58.717358,14.79519,-11.247794,-1.6602904
142,-34.3525390625,-26.098876953125,76.27593994140625,-0.4198871218629886,-3.210835487726697,-116.17908463061045,-22.968884,8.648556,22.119648,42.624336,-11.237063,-5.6530437,14.325126,4.2901564,-20.484055,7.529922,-21.106527,-2.0400712,5.7584634,3.96576,16.714924,-0.25004172,9.88801,-22.71433,58.872826,0.9294866,-3.2627063,5.705059,-7.0066996,-17.352789,20.725836,58.57994,14.586247,-11.218834,-1.6622165
143,-34.76864242553711,-26.48090362548828,76.19900512695312,-0.4361959209491274,-3.201744311735558,-116.12722512622614,-22.716953,7.210001,22.454973,39.113956,-10.0991955,-7.0058537,14.839717,4.510678,-20.548368,7.4503016,-21.327614,-2.0183916,5.8016033,3.9564962,16.682362,-0.15691926,9.913049,-22.663744,58.952,0.8803886,-3.2210836,5.7048783,-7.0788255,-17.2973,20.842802,58.43706,14.367259,-11.184444,-1.6676054
144,-35.18552780151367,-26.872631072998047,76.1150894165039,-0.4930298825730728,-3.1723209147952156,-116.1059339254354,-22.343342,5.8569717,22.931467,35.42985,-8.9242,-8.467052,15.331583,4.7797236,-20.554733,7.372434,-21.513447,-2.0042505,5.8779016,3.9882903,16.612907,-0.04781659,9.941721,-22.61527,59.01828,0.8589709,-3.1849883,5.681816,-7.1298594,-17.251196,20.964113,58.29377,14.196429,-11.160372,-1.6816145
145,-35.60971450805664,-27.277204513549805,76.01897430419922,-0.6032500638568379,-3.12008404316356,-116.12193356458691,-21.819311,4.5511203,23.532747,31.448843,-7.645406,-10.119815,15.798722,5.114936,-20.489616,7.295298,-21.65889,-2.0086212,5.9848013,4.067564,16.493963,0.0945832,9.976628,-22.550316,59.066948,0.8928021,-3.1556222,5.620697,-7.1710176,-17.202581,21.117214,58.164433,14.114965,-11.150224,-1.722665
146,-36.03261947631836,-27.690959930419922,75.90472412109375,-0.7801419284751052,-3.0602847789024517,-116.18210463160892,-21.129608,3.2845128,24.18543,27.122713,-6.242947,-11.945158,16.258322,5.52981,-20.352213,7.2181497,-21.766727,-2.0342157,6.138764,4.2161407,16.342073,0.25116208,10.008445,-22.484703,59.11413,0.9594895,-3.1327262,5.535267,-7.1885686,-17.16325,21.27953,58.032413,14.085103,-11.143982,-1.7803222
147,-36.450992584228516,-28.11017608642578,75.77117919921875,-1.0346082651901598,-3.001340304226439,-116.30739530901234,-20.291529,2.1542995,24.981314,22.614746,-4.819985,-13.780463,16.718102,6.0314527,-20.123417,7.143453,-21.847443,-2.068092,6.3645124,4.4549465,16.171915,0.4031247,10.028103,-22.432198,59.16513,1.0244926,-3.1138306,5.450395,-7.1810784,-17.141853,21.421164,57.89755,14.044864,-11.141545,-1.8225179
148,-36.855987548828125,-28.53093147277832,75.61809539794922,-1.3646713313329364,-2.9344932946584183,-116.46561947345079,-19.347366,1.1469613,26.040552,18.039875,-3.423032,-15.000033,17.157494,6.6010733,-19.839712,7.0958734,-21.917494,-2.084307,6.5453005,4.7607784,15.984239,0.62597173,10.063253,-22.309029,59.144695,1.0607969,-3.094446,5.378641,-7.2411895,-17.108606,21.64055,57.840244,13.957306,-11.149986,-1.8328426
149,-37.24594497680664,-28.966867446899414,75.43798828125,-1.7880087393543003,-2.8234158230728026,-116.58991418447059,-18.233398,0.045697127,27.49634,13.028308,-1.846873,-15.000033,17.529942,7.2461047,-19.567488,7.0967255,-21.999704,-2.0606809,6.6801157,5.175076,15.73819,0.86911744,10.088278,-22.18873,59.091118,1.0442137,-3.0738688,5.3333597,-7.3019876,-17.089891,21.833569,57.81554,13.768976,-11.174986,-1.7797618
150,-37.6293830871582,-29.397716522216797,75.23574829101562,-2.3566295845754643,-2.714648639864593,-116.83021578740308,-16.782305,-1.0678078,29.231194,7.302086,0.052685536,-15.000033,17.893314,8.051207,-19.144192,7.1124377,-22.063896,-2.0493078,6.9535456,5.750397,15.457159,1.086482,10.098031,-22.106968,59.058327,0.99073726,-3.0567896,5.3058496,-7.3238115,-17.087011,21.96473,57.79037,13.5066185,-11.210824,-1.6811479
151,-38.020904541015625,-29.84449005126953,75.02375793457031,-2.9878860103911946,-2.6190383262156036,-117.14226369289051,-17.32029,-0.8716494,31.015303,6.591584,-0.6599011,-15.000033,18.257246,8.918092,-18.625118,7.154256,-22.101568,-2.0457027,7.1713514,6.3792667,15.189018,1.4249386,10.119615,-21.895655,58.909557,0.9473964,-3.0369213,5.2785406,-7.45114,-17.090363,22.257883,57.84765,13.268238,-11.2436905,-1.579829
152,-38.418888092041016,-30.278745651245117,74.82048034667969,-3.588307927730426,-2.545714783497732,-117.47231884759383,-17.862461,-0.4720198,32.608215,6.2959027,-1.5025092,-15.000033,18.647295,9.746343,-18.075125,7.1969547,-22.093838,-2.045076,7.4870257,6.9681363,14.951362,1.6437496,10.13551,-21.77134,58.865948,0.8909673,-3.0249434,5.2710323,-7.520551,-17.096712,22.45348,57.863182,13.016451,-11.250677,-1.4884596
153,-38.82114791870117,-30.710094451904297,74.63819122314453,-4.117777991099673,-2.4973179121972158,-117.76810837664166,-18.269093,-0.039317902,34.042995,6.109744,-2.323264,-15.000033,19.069805,10.488045,-17.551613,7.2394595,-22.04414,-2.033882,7.778657,7.4725747,14.771173,1.8143249,10.152388,-21.657303,58.849106,0.8397159,-3.0184155,5.2837906,-7.600004,-17.105078,22.633745,57.87303,12.750373,-11.215079,-1.416098
154,-39.2320556640625,-31.137510299682617,74.47013092041016,-4.584214135160505,-2.4592008267751306,-118.02956441434868,-18.548151,0.37683922,35.447144,5.979602,-3.1062038,-15.000033,19.507391,11.152116,-17.05582,7.2844005,-21.959827,-2.00456,8.07598,7.902582,14.624652,1.9010606,10.1649,-21.584837,58.89675,0.7793713,-3.0198934,5.3183,-7.6614304,-17.110735,22.75561,57.867893,12.450322,-11.151129,-1.348494
155,-39.6530876159668,-31.571352005004883,74.32565307617188,-4.970917089887255,-2.415934241068456,-118.26785838267324,-18.720512,0.77733946,36.715137,5.931481,-3.7975855,-15.000033,19.949055,11.726388,-16.581633,7.318209,-21.82654,-1.9591839,8.292514,8.233898,14.50297,2.019746,10.192343,-21.46277,58.913063,0.7215356,-3.0203557,5.3501368,-7.774436,-17.119328,22.966475,57.9049,12.214656,-11.092918,-1.2952521
156,-40.0797119140625,-31.995073318481445,74.2011947631836,-5.255762432754185,-2.354291889884801,-118.49550332144895,-18.798845,1.1457621,37.739708,5.9648566,-4.3403673,-15.000033,20.378332,12.188299,-16.124413,7.345257,-21.63853,-1.8990272,8.540223,8.440506,14.3774805,2.0475445,10.221533,-21.387188,59.032803,0.6578744,-3.023451,5.376638,-7.8339233,-17.122478,23.139212,57.92155,12.047523,-11.06785,-1.2527654
157,-40.5223503112793,-32.42876052856445,74.10527801513672,-5.422193837943683,-2.276323431495766,-118.69566066923811,-18.754267,1.4823022,38.523182,6.0854106,-4.726547,-15.000033,20.801617,12.525295,-15.694716,7.3545194,-21.398748,-1.8210282,8.695457,8.490539,14.278852,2.1119096,10.292985,-21.274809,59.124306,0.56117994,-3.0243642,5.3942475,-7.958885,-17.115547,23.446693,57.999783,12.075916,-11.103059,-1.2436069
158,-40.98202133178711,-32.84670639038086,74.02801513671875,-5.497408234294174,-2.184969503495682,-118.86949641791723,-18.614048,1.7933055,39.11759,6.32454,-5.0566163,-15.000033,21.220415,12.764334,-15.290599,7.351111,-21.111347,-1.7290096,8.869301,8.418897,14.190241,2.0905905,10.381885,-21.216051,59.30237,0.44117424,-3.0280747,5.4182963,-8.046947,-17.09294,23.715546,58.06861,12.182877,-11.173372,-1.252727
159,-41.458614349365234,-33.28694152832031,73.96854400634766,-5.506810053621724,-2.0764841768485867,-119.04235965589919,-18.425749,2.0255747,39.475773,6.608891,-5.359301,-15.000033,21.629648,12.925898,-14.902446,7.3409886,-20.762318,-1.630019,9.032084,8.243898,14.094825,2.0864298,10.520977,-21.15791,59.46684,0.3310101,-3.0256777,5.413941,-8.131801,-17.040783,24.00111,58.1612,12.30558,-11.249485,-1.2619134
160,-41.94458770751953,-33.72966003417969,73.91107940673828,-5.480735709114255,-1.9240524107536499,-119.20260928423511,-18.276354,2.0749817,39.496437,6.8332987,-5.582562,-14.617029,21.990068,13.03672,-14.560257,7.350282,-20.35106,-1.5246408,9.22921,8.049325,13.93059,2.003779,10.598284,-21.14267,59.74888,0.29099834,-3.0199502,5.378494,-8.129611,-17.007677,24.188154,58.2346,12.313954,-11.29337,-1.237801
161,-42.415828704833984,-34.18972396850586,73.84620666503906,-5.444968151739772,-1.6951235571209566,-119.29837653462278,-18.206007,1.8166586,38.96483,6.909606,-5.6487846,-13.348497,22.257824,13.1309805,-14.321546,7.404209,-19.90941,-1.4186879,9.261301,7.772168,13.685209,2.1240554,10.797211,-21.030998,59.849625,0.3394487,-2.9884994,5.2393503,-8.189743,-16.903534,24.52042,58.40672,12.25841,-11.305979,-1.1979324
162,-42.89461135864258,-34.65468978881836,73.79310607910156,-5.359266263389649,-1.4615817469810424,-119.43795880542791,-18.062454,1.4774488,38.093895,6.977392,-5.622832,-12.269432,22.525007,13.163298,-14.067532,7.4689302,-19.420282,-1.3173275,9.379855,7.451491,13.4129715,2.154297,10.945047,-20.958403,60.082645,0.47402453,-2.955558,5.0549097,-8.164299,-16.81554,24.773006,58.55581,12.114707,-11.291841,-1.1331825
163,-43.37804412841797,-35.13303756713867,73.76993560791016,-5.195723314240326,-1.1900013475671034,-119.57395908952643,-17.948591,1.0778483,37.07716,7.069521,-5.490506,-10.982024,22.74404,13.100381,-13.851747,7.549876,-18.84615,-1.1879791,9.446135,7.0220323,13.119092,2.2463868,11.128194,-20.847898,60.258366,0.59784687,-2.9152296,4.864492,-8.163553,-16.693638,25.055296,58.755886,11.95013,-11.273613,-1.0581136
164,-43.87886047363281,-35.62519073486328,73.76395416259766,-4.890727769305468,-0.8479022627372739,-119.65909442927146,-17.92536,0.5508304,36.135303,7.100787,-5.191863,-9.083514,22.865883,12.866324,-13.734781,7.6599236,-18.158352,-0.99061954,9.417419,6.402371,12.796032,2.365172,11.361246,-20.700657,60.400665,0.6232629,-2.8815234,4.720694,-8.197955,-16.517864,25.349134,59.003216,11.797836,-11.263873,-0.97833407
165,-44.38407516479492,-36.12881851196289,73.77936553955078,-4.45138770666848,-0.36786487156984626,-119.74301394488901,-18.166636,-0.033359174,35.288128,7.228913,-4.750095,-6.2139845,22.71182,12.435442,-13.6952715,8.021063,-17.48801,-0.73426825,9.341164,5.5892615,12.364189,2.5146332,11.641485,-20.520748,60.50373,0.5040685,-2.858953,4.654493,-8.284008,-16.27745,25.66123,59.3262,11.647288,-11.270655,-0.88722897
166,-44.87028884887695,-36.635719299316406,73.83132934570312,-3.8192496090050017,0.22607352471650438,-119.8547133836508,-18.557917,-0.79648846,34.532204,7.3059473,-4.0847487,-2.6548266,20.932096,11.377855,-13.982837,11.602605,-18.40984,-0.39018494,9.267308,4.5694942,11.845154,2.640129,11.892329,-20.336628,60.648354,0.3019733,-2.8465478,4.646578,-8.366124,-16.039078,25.970861,59.673462,11.490176,-11.278799,-0.78095514
167,-45.351051330566406,-37.15129089355469,73.89596557617188,-3.0936776994737265,0.8463847589577491,-119.96729185392628,-18.984478,-1.6122116,33.959774,7.387639,-3.2900615,0.9902082,19.23828,10.228063,-14.218162,14.958254,-19.049479,0.008696543,9.190327,3.4465804,11.310463,2.7383952,12.129166,-20.160711,60.842537,0.077888146,-2.8315697,4.6549993,-8.41644,-15.794641,26.230906,60.016884,11.338654,-11.280311,-0.67199606
168,-45.828704833984375,-37.65730667114258,73.95652770996094,-2.3827990131534547,1.3828282585017213,-120.02259348936319,-20.252914,-1.6987597,33.615685,9.961552,-3.8064928,4.0971785,17.772512,9.131717,-14.425811,18.025047,-19.321974,0.45860487,9.087118,2.345115,10.851833,2.7883656,12.364464,-20.022575,61.106804,-0.11298258,-2.8014362,4.6410728,-8.393981,-15.5342045,26.368769,60.321148,11.191173,-11.267808,-0.57227415
169,-46.313140869140625,-38.1581916809082,74.01664733886719,-1.6956149694099194,1.8046726491156675,-119.96137804181573,-21.239508,-1.7885436,33.482136,12.309157,-4.204283,6.6530676,16.579704,8.11729,-14.6663685,20.789162,-19.231825,0.92845714,8.914089,1.273313,10.498536,2.780084,12.610709,-19.920368,61.45213,-0.2725433,-2.75426,4.602029,-8.29087,-15.24616,26.348658,60.586826,11.023196,-11.233645,-0.4784854
170,-46.82106018066406,-38.658565521240234,74.08553314208984,-1.0077027382576287,2.1555555843736287,-119.81301402618634,-22.041191,-1.8616858,33.504326,14.528173,-4.535004,8.959429,15.548918,7.1311736,-14.934981,23.380047,-18.870436,1.4205971,8.682679,0.20056176,10.206272,2.729025,12.872455,-19.844374,61.856163,-0.42932028,-2.697018,4.553954,-8.130535,-14.925825,26.20832,60.831722,10.83682,-11.185041,-0.38615525
171,-47.33457946777344,-39.17279052734375,74.16121673583984,-0.3779995952160288,2.429913895731792,-119.6291463039208,-22.62215,-1.9115368,33.563988,16.508644,-4.9088793,10.933157,14.630873,6.2136626,-15.1902685,25.86754,-18.23721,1.9834584,8.431361,-0.8022552,9.965398,2.647221,13.143927,-19.811245,62.289074,-0.562837,-2.6254678,4.488928,-7.9424834,-14.584833,26.003597,61.067284,10.690417,-11.1382675,-0.3068575
172,-47.84339904785156,-39.685428619384766,74.23785400390625,0.1484047768343522,2.6287797518882114,-119.45996922376912,-22.945564,-1.9815539,33.544373,18.082022,-5.3618636,12.460394,13.77243,5.394409,-15.392351,28.319084,-17.336584,2.6750531,8.1987095,-1.6743822,9.76772,2.5405793,13.412276,-19.84133,62.729965,-0.65463966,-2.537854,4.399488,-7.7389803,-14.243557,25.782091,61.287045,10.63821,-11.107579,-0.2514469
173,-48.34858322143555,-40.18716049194336,74.32366943359375,0.5573291303675921,2.7319721541228548,-119.2752628144123,-22.980986,-2.1156914,33.373272,19.189394,-5.8929014,13.373006,12.993573,4.703806,-15.584334,30.750443,-16.129871,3.536316,7.9643297,-2.392112,9.633623,2.392124,13.66959,-19.971264,63.21585,-0.7171567,-2.440115,4.2934575,-7.486761,-13.911982,25.505175,61.460396,10.688627,-11.084448,-0.22936705
174,-48.84300994873047,-40.69086456298828,74.41355895996094,0.8859275975715036,2.7498100959455094,-119.04821554711145,-22.779228,-2.2973075,33.105408,19.959661,-6.4614663,13.758785,12.282386,4.111789,-15.787911,33.177242,-14.661041,4.5411158,7.709602,-2.996647,9.561468,2.1952984,13.913747,-20.185488,63.751453,-0.7530596,-2.3321455,4.172499,-7.1879396,-13.59352,25.16487,61.589993,10.823734,-11.064007,-0.23184866
175,-49.334415435791016,-41.2070426940918,74.51103210449219,1.1676565238207506,2.731467391432933,-118.83712923458602,-22.431837,-2.4891262,32.824474,20.497963,-7.0247426,13.876582,11.534609,3.557828,-15.925454,35.667927,-13.05761,5.6541758,7.471081,-3.5251403,9.510311,1.9779226,14.137165,-20.418627,64.26498,-0.7272522,-2.2032018,4.0190654,-6.8841805,-13.299754,24.839521,61.70045,11.032968,-11.064988,-0.24126253
176,-49.802249908447266,-41.723289489746094,74.61570739746094,1.4326056995701473,2.7248578329628854,-118.7032180210055,-22.025358,-2.6629028,32.616722,20.891415,-7.540671,13.9886265,10.655053,2.9856756,-15.913824,38.277782,-11.437723,6.8394785,7.2844186,-4.00922,9.441513,1.7685307,14.329461,-20.59866,64.68479,-0.6020707,-2.0430367,3.8158967,-6.6299987,-13.04889,24.627377,61.8267,11.325367,-11.106158,-0.24005602
177,-50.25437927246094,-42.24297332763672,74.73077392578125,1.677846737835995,2.747500538133537,-118.68370537885394,-21.566948,-2.8076744,32.517826,21.121992,-8.000461,14.128794,9.574086,2.4040277,-15.677617,41.099316,-9.789086,8.10295,7.1729484,-4.438369,9.340967,1.5724032,14.478951,-20.698942,65.00531,-0.30706015,-1.8297935,3.517782,-6.4287887,-12.856186,24.5671,61.971935,11.782273,-11.210477,-0.2259745
178,-50.68696594238281,-42.75580596923828,74.84937286376953,1.8876257580994142,2.773462550657885,-118.73828470702469,-21.019867,-2.9450743,32.479977,21.157394,-8.422498,14.169108,8.35572,1.8644949,-15.268892,44.07328,-8.069188,9.482949,7.107631,-4.791143,9.2326765,1.3736663,14.581941,-20.751667,65.264656,0.12371117,-1.5782928,3.1472366,-6.25377,-12.725855,24.61437,62.11427,12.383349,-11.360625,-0.20527147
179,-51.11393737792969,-43.27532958984375,74.9751968383789,2.074287511582173,2.7850560165574563,-118.81322681217544,-20.401443,-3.0891037,32.46093,21.065403,-8.81031,14.12959,7.105941,1.3628095,-14.797661,47.031815,-6.34624,10.977804,7.0491104,-5.0753813,9.135992,1.1603943,14.632607,-20.78124,65.46543,0.56525946,-1.3330712,2.7903173,-6.0859537,-12.666664,24.71953,62.223854,12.962579,-11.51273,-0.17183003
180,-51.52460479736328,-43.78638458251953,75.0975112915039,2.2521822974235173,2.7636146315258068,-118.85490215358041,-19.726137,-3.2566037,32.418106,20.90698,-9.164923,14.029642,5.9263315,0.8727166,-14.378225,49.821274,-4.6879683,12.56635,6.957553,-5.3202024,9.068538,0.93577516,14.651483,-20.805574,65.5929,0.8936526,-1.1338198,2.5315192,-5.9290032,-12.652548,24.833212,62.302345,13.349301,-11.626835,-0.124823876
181,-51.92792892456055,-44.291908264160156,75.22239685058594,2.4263114407526496,2.7036804833910884,-118.86128768198493,-18.986183,-3.4523506,32.356537,20.682741,-9.488939,13.857471,4.8145885,0.4300084,-13.937592,52.434784,-2.9198208,14.445608,6.8147383,-5.540779,9.029115,0.72831196,14.659348,-20.806753,65.61121,1.0585531,-0.97936904,2.3884382,-5.808136,-12.666219,24.996082,62.369247,13.489684,-11.692312,-0.06168823
182,-52.345924377441406,-44.7795524597168,75.34513854980469,2.4125138403386304,2.6803484883748334,-118.92461936677307,-18.435827,-3.3085632,32.26922,20.83452,-9.990648,13.56338,3.7086449,0.027692124,-13.965359,54.87105,-0.98777777,15.000033,6.7030187,-5.5724034,8.937049,0.52734244,14.645478,-20.77877,65.53382,1.1335905,-0.8507501,2.317102,-5.7126985,-12.725293,25.211733,62.41206,13.474672,-11.730133,0.017069362
183,-52.75322341918945,-45.253936767578125,75.46040344238281,2.3069522231569324,2.6627282848571543,-118.99569942534076,-17.947374,-3.0263128,32.156273,21.110989,-10.548629,13.207291,2.637181,-0.5300508,-14.365509,57.20867,0.7014307,15.000033,6.596605,-5.4970818,8.834968,0.31575188,14.61326,-20.754826,65.38994,1.160456,-0.7571779,2.30811,-5.6214266,-12.815214,25.415422,62.4284,13.362363,-11.753392,0.095962375
184,-53.14070510864258,-45.739532470703125,75.57442474365234,2.2768878501209238,2.5938345460785412,-118.99519819605801,-17.295538,-2.9430468,32.018356,21.083155,-10.955813,12.863325,1.6491165,-1.3927299,-14.928786,59.52046,1.7029275,15.000033,6.430216,-5.456698,8.802026,0.08538283,14.556734,-20.750187,65.19775,1.1887335,-0.7086371,2.3495648,-5.506501,-12.95455,25.565393,62.39117,13.228237,-11.771176,0.16292685
185,-53.520267486572266,-46.2447395324707,75.69039154052734,2.3554320857140882,2.457673881432866,-118.89619719324106,-16.427216,-3.1349175,31.84174,20.655834,-11.165782,12.531264,0.78094935,-2.584906,-15.609548,61.81475,1.8570887,15.000033,6.1915674,-5.495525,8.849764,-0.16702768,14.493363,-20.789007,64.96053,1.2101293,-0.72008985,2.460026,-5.3719378,-13.107137,25.629398,62.320126,13.008232,-11.789055,0.21470235
186,-53.88188171386719,-46.733184814453125,75.79777526855469,2.5110595798698605,2.261836789179361,-118.71822164123003,-15.376081,-3.5360975,31.626287,19.904825,-11.219258,12.193735,0.024345182,-4.019753,-16.353266,64.061775,1.3882045,15.000033,5.8896008,-5.5885396,8.963963,-0.4280793,14.425212,-20.849653,64.660934,1.209153,-0.7816155,2.6371036,-5.233591,-13.272207,25.64226,62.22624,12.692868,-11.801714,0.25720078
187,-54.22865295410156,-47.22205352783203,75.9076919555664,2.707629350862341,2.024155933656896,-118.49553625413036,-14.198898,-4.062742,31.378523,18.930458,-11.163928,11.86974,-0.64748913,-5.6044464,-17.104818,66.19176,0.48281026,15.000033,5.5545406,-5.706831,9.129234,-0.7039034,14.353334,-20.930202,64.3089,1.1943473,-0.8638195,2.840565,-5.0928717,-13.447355,25.609726,62.118305,12.400008,-11.809503,0.28518158
188,-54.56552505493164,-47.71076965332031,76.0174789428711,2.908879366382996,1.7661855903515666,-118.26550997584013,-12.959738,-4.623534,31.111021,17.845432,-11.053546,11.576215,-1.2738341,-7.254606,-17.826742,68.14316,-0.6693025,15.000033,5.2220874,-5.8208375,9.327712,-0.99735844,14.277063,-21.022694,63.911858,1.1831409,-0.9373579,3.0301101,-4.948462,-13.629484,25.532179,62.003273,12.24476,-11.812737,0.29384458
189,-54.90133285522461,-48.204200744628906,76.12452697753906,3.1139268722713194,1.490288946300603,-118.03127422494194,-11.660532,-5.2172275,30.818472,16.645472,-10.884895,11.326449,-1.8475151,-9.004912,-18.561228,69.9185,-2.2319252,15.000033,4.895538,-5.9311595,9.5591135,-1.3090465,14.195368,-21.118324,63.46216,1.1734768,-1.0001233,3.1988108,-4.803148,-13.817244,25.400537,61.87848,12.267039,-11.801395,0.2846905
190,-55.23727035522461,-48.68992614746094,76.22710418701172,3.3277131354521643,1.184003222267534,-117.77218182474739,-10.272803,-5.8631787,30.480934,15.297145,-10.640032,11.106207,-2.3401725,-10.876636,-19.336538,71.53946,-4.244086,15.000033,4.553573,-6.040744,9.830388,-1.636464,14.108371,-21.223341,62.959377,1.157903,-1.0658531,3.3668559,-4.6530924,-14.010033,25.213808,61.74058,12.396874,-11.778743,0.25946832
191,-55.56862258911133,-49.15597915649414,76.32814025878906,3.467272804335094,0.8850578062355288,-117.53136543340382,-8.933275,-6.3792424,30.125074,14.044705,-10.4300375,10.8713455,-2.7559965,-12.887316,-20.431416,72.96964,-6.3089023,14.047985,4.2319536,-6.081396,10.102005,-1.980185,14.0175295,-21.354412,62.422176,1.1454248,-1.1271939,3.5356781,-4.5044813,-14.206455,25.001945,61.609947,12.605707,-11.765952,0.21215555
192,-55.90371322631836,-49.615623474121094,76.43280792236328,3.492765249076645,0.6235999344306622,-117.3425976126821,-7.738167,-6.66387,29.794817,13.06111,-10.343873,10.594217,-3.2035968,-14.789626,-21.574343,74.18039,-8.037308,12.686377,3.962921,-6.0111217,10.341019,-2.3432026,13.924831,-21.528214,61.87621,1.1425061,-1.1821667,3.706243,-4.3569655,-14.403029,24.788244,61.500774,12.854915,-11.784207,0.13702145
193,-56.23927688598633,-50.072608947753906,76.53336334228516,3.484125731649583,0.34297335398152956,-117.15097034000537,-6.50409,-6.9113193,29.462511,12.045647,-10.24164,10.297694,-3.65528,-16.609472,-22.644108,75.20421,-9.361211,11.23687,3.6966488,-5.9002247,10.603454,-2.721084,13.830099,-21.755339,61.313225,1.1480108,-1.2215046,3.8881252,-4.2135215,-14.598938,24.580711,61.426846,13.170125,-11.853776,0.011110649
194,-56.57294464111328,-50.534481048583984,76.62898254394531,3.4468804558775212,0.04627987182067694,-116.95593501324633,-5.2335935,-7.1297565,29.124462,10.991693,-10.119843,9.991196,-4.0990343,-18.385084,-23.690506,76.04918,-10.491774,9.683302,3.4321215,-5.755764,10.888788,-3.1142604,13.732477,-22.02464,60.72941,1.1583575,-1.2530274,4.0774875,-4.07089,-14.793162,24.363787,61.375454,13.555897,-11.959472,-0.15506603
195,-56.90936279296875,-50.994850158691406,76.72196960449219,3.390748104330837,-0.25177633753764733,-116.76123747954642,-3.964492,-7.3162804,28.784864,9.940741,-9.988708,9.672284,-4.568421,-20.038181,-24.638603,76.70159,-11.499008,8.14707,3.17196,-5.5906606,11.183296,-3.5222335,13.634294,-22.3226,60.129887,1.1785089,-1.2803818,4.255083,-3.9367757,-14.986025,24.138592,61.341843,13.958201,-12.068932,-0.31686386
196,-57.239646911621094,-51.444210052490234,76.80657196044922,3.325506607991417,-0.5362628797206064,-116.57159776426343,-2.7264094,-7.4714375,28.44758,8.917907,-9.855051,9.3391905,-5.104278,-21.489113,-25.404873,77.14383,-12.436999,6.753099,2.9185956,-5.4175735,11.473898,-3.9442487,13.539096,-22.633488,59.52224,1.2138213,-1.3106656,4.4010625,-3.815658,-15.177237,23.90447,61.31634,14.32135,-12.148576,-0.42981726
197,-57.56584930419922,-51.891845703125,76.88325500488281,3.248782963738736,-0.8093050503826456,-116.38351329104091,-1.522279,-7.5927,28.110153,7.931119,-9.717228,8.985176,-5.715396,-22.751766,-26.003155,77.3792,-13.291036,5.4534116,2.6695156,-5.2351217,11.765661,-4.379928,13.449126,-22.952122,58.899914,1.2721881,-1.3445985,4.4943805,-3.7089343,-15.365198,23.651402,61.297432,14.647886,-12.183469,-0.4764736
198,-57.8876953125,-52.33041763305664,76.94960021972656,3.158646601936407,-1.0766203649388826,-116.19602274459741,-0.47952354,-7.604288,27.791489,7.3055153,-9.753278,8.610872,-6.394754,-23.859884,-26.468906,77.4148,-14.027028,4.2036476,2.4241393,-5.0409875,12.0633335,-4.8272667,13.364721,-23.286627,58.25858,1.3487115,-1.3788545,4.5502033,-3.6156633,-15.549406,23.383595,61.29094,14.962432,-12.192944,-0.4827001
199,-58.2089729309082,-52.7813606262207,77.01506042480469,3.068191482044184,-1.3291199823592696,-116.01762911880412,0.3232561,-7.4846797,27.511255,7.2080545,-10.054212,8.229586,-7.1663656,-24.770924,-26.741816,77.241745,-14.658166,3.1357708,2.187884,-4.848457,12.353551,-5.2842336,13.286813,-23.642452,57.60961,1.4274138,-1.4141351,4.60287,-3.533564,-15.731023,23.121355,61.295105,15.240455,-12.194208,-0.4692143
200,-58.52915573120117,-53.21831130981445,77.06796264648438,2.9904638937130263,-1.557952463118428,-115.85641256924242,1.0980966,-7.372322,27.25226,7.1120496,-10.346909,7.8629107,-8.052648,-25.443443,-26.75999,76.84936,-15.19222,2.3805623,1.965668,-4.6690435,12.623735,-5.7480664,13.216277,-24.024265,56.962288,1.4922296,-1.4508481,4.686369,-3.4589949,-15.910476,22.885984,61.305534,15.458947,-12.204337,-0.45621648
201,-58.85213088989258,-53.656715393066406,77.11749267578125,2.930775733006211,-1.7575030580175581,-115.71820041136802,1.8337758,-7.270515,27.020382,7.0301147,-10.633952,7.517456,-9.08357,-25.850979,-26.468409,76.220146,-15.635496,1.9956905,1.7588502,-4.509089,12.8669815,-6.2171655,13.1543,-24.437487,56.306637,1.5438522,-1.4847285,4.817521,-3.3991098,-16.090216,22.688087,61.331367,15.609733,-12.232769,-0.4417828
202,-59.170711517333984,-54.09324264526367,77.15611267089844,2.883740005481855,-1.9353713206975656,-115.59676962154637,2.5484118,-7.1804442,26.807741,6.9368057,-10.902244,7.184942,-10.231972,-26.030973,-25.913036,75.3642,-15.973211,1.8915083,1.5638387,-4.361588,13.093543,-6.6928973,13.100855,-24.87877,55.639378,1.5872738,-1.5168947,4.975044,-3.3521895,-16.269653,22.515854,61.36868,15.707273,-12.26826,-0.41732466
203,-59.490203857421875,-54.51753234863281,77.18025970458984,2.846045929032267,-2.1022721922191487,-115.48250002365803,3.2535577,-7.099412,26.60719,6.8330936,-11.161969,6.8551507,-11.429283,-26.040009,-25.1846,74.3123,-16.183563,1.9770174,1.3782718,-4.2227397,13.314558,-7.172276,13.053458,-25.332092,54.978474,1.6223657,-1.5558919,5.135833,-3.3086028,-16.447304,22.357687,61.40342,15.760278,-12.298431,-0.39337105
204,-59.81101989746094,-54.9420280456543,77.19538879394531,2.810468428368023,-2.2684480900740027,-115.36532942842524,3.9631107,-7.0229826,26.410479,6.709332,-11.418769,6.517704,-12.60914,-25.93024,-24.375198,73.09724,-16.247904,2.1650007,1.1995766,-4.084348,13.540439,-7.65788,13.009489,-25.785448,54.347744,1.6449027,-1.6104991,5.277809,-3.2678015,-16.622513,22.209976,61.430676,15.786252,-12.311404,-0.3812026
205,-60.12853240966797,-55.37274932861328,77.19817352294922,2.773528542814084,-2.438953908448077,-115.24024681468897,4.68236,-6.9483294,26.215014,6.5621405,-11.668448,6.1690526,-13.782792,-25.664675,-23.424498,71.714165,-16.146908,2.4665737,1.0244099,-3.9409232,13.778146,-8.154701,12.966676,-26.237852,53.749454,1.6466014,-1.6859426,5.3962893,-3.2282257,-16.793816,22.067549,61.446754,15.768041,-12.29727,-0.38388407
206,-60.447166442871094,-55.801029205322266,77.18842315673828,2.744599928923022,-2.6097927797619174,-115.11350018274995,5.3836308,-6.87324,26.02903,6.446894,-11.93722,5.814802,-14.96008,-25.248495,-22.305796,70.16192,-15.911311,2.90944,0.856319,-3.8031588,14.02255,-8.664348,12.925022,-26.696665,53.177692,1.6312891,-1.7771641,5.5033855,-3.1959555,-16.96173,21.936869,61.46142,15.706875,-12.265069,-0.39606836
207,-60.76392364501953,-56.22208023071289,77.17002868652344,2.739690155689771,-2.776218338956534,-114.99382396861971,6.02904,-6.797272,25.861387,6.448412,-12.272203,5.4565787,-16.080198,-24.80092,-21.160254,68.465324,-15.587153,3.4331985,0.70193577,-3.690214,14.2653885,-9.175665,12.88412,-27.15462,52.634655,1.620041,-1.8765732,5.6007233,-3.1641538,-17.12507,21.819649,61.47003,15.634644,-12.230081,-0.4154543
208,-61.08386993408203,-56.648887634277344,77.1475830078125,2.7427302427924514,-2.929584612557496,-114.88520309336472,6.6643987,-6.724567,25.702578,6.4491405,-12.613004,5.0935907,-17.086533,-24.404564,-20.15646,66.644936,-15.217067,3.9753995,0.561082,-3.5840409,14.492663,-9.676395,12.842955,-27.603365,52.12227,1.6332139,-1.9763962,5.689966,-3.1221185,-17.281445,21.715565,61.465847,15.579764,-12.207399,-0.43944955
209,-61.40867614746094,-57.08219528198242,77.12026977539062,2.7486147717202947,-3.0747495672960348,-114.78910581259181,7.2934694,-6.650178,25.554634,6.4504843,-12.961998,4.713048,-17.975283,-24.057507,-19.289148,64.68281,-14.7923975,4.5651917,0.43414932,-3.4813933,14.707821,-10.169295,12.802446,-28.048996,51.64431,1.6787473,-2.088301,5.7774315,-3.07855,-17.43141,21.637747,61.455116,15.563029,-12.198141,-0.47722557
210,-61.73347854614258,-57.51219940185547,77.09040832519531,2.7581971060076094,-3.2124341703200234,-114.7021043951037,7.9173207,-6.575673,25.416882,6.448767,-13.315447,4.316832,-18.77222,-23.720749,-18.48865,62.569756,-14.297912,5.2187676,0.31827292,-3.382396,14.913367,-10.658867,12.763046,-28.492243,51.198605,1.7443417,-2.2116501,5.8604198,-3.0326543,-17.57547,21.57994,61.43694,15.560671,-12.195177,-0.52689546
211,-62.06514358520508,-57.931888580322266,77.05838775634766,2.7756256624289537,-3.3289762117855597,-114.62300164142158,8.51939,-6.503738,25.287867,6.4463167,-13.666505,3.92815,-19.483938,-23.430958,-17.812653,60.342674,-13.758491,5.863794,0.21497624,-3.2913508,15.097389,-11.138013,12.722508,-28.918753,50.781475,1.8219479,-2.3208747,5.9276547,-2.9795485,-17.711573,21.526882,61.41104,15.55332,-12.202487,-0.5705161
212,-62.39860534667969,-58.355926513671875,77.02030944824219,2.8041024761475684,-3.4111132125467654,-114.55059154566241,9.085135,-6.4384923,25.166054,6.4431777,-14.00785,3.5707436,-20.12121,-23.22695,-17.318985,58.039516,-13.196043,6.4304876,0.12634136,-3.2128055,15.247199,-11.600691,12.677296,-29.314388,50.391888,1.9039239,-2.3903997,5.968256,-2.9180276,-17.837507,21.465788,61.38228,15.523539,-12.224396,-0.5906827
213,-62.740928649902344,-58.787696838378906,76.97814178466797,2.8430079047121466,-3.45578830112404,-114.48576064290097,9.612969,-6.379373,25.051994,6.440284,-14.33768,3.2592,-20.683138,-23.13259,-17.039238,55.656437,-12.590483,6.9035525,0.05624534,-3.1467326,15.359407,-12.052443,12.625115,-29.677044,50.03418,1.993097,-2.402851,5.9705043,-2.8466966,-17.952774,21.392391,61.355026,15.457182,-12.271117,-0.57737845
214,-63.0861701965332,-59.217529296875,76.9311294555664,2.890054716565779,-3.4702457060071135,-114.42920862067838,10.10962,-6.3243546,24.946997,6.43584,-14.657857,2.97724,-21.173344,-23.120657,-16.937223,53.177013,-11.932394,7.3256764,0.0038997002,-3.0896451,15.43937,-12.497382,12.565992,-30.014448,49.712807,2.0921018,-2.3757837,5.9436646,-2.7661579,-18.057413,21.31341,61.32724,15.366309,-12.337581,-0.54209644
215,-63.428043365478516,-59.64331817626953,76.87452697753906,2.9450408321675154,-3.454428425054917,-114.37969668900487,10.572697,-6.272644,24.84898,6.4340878,-14.975109,2.7025347,-21.609234,-23.144728,-16.973,50.61593,-11.264085,7.712248,-0.037008483,-3.0412643,15.487,-12.925109,12.50004,-30.324894,49.425854,2.1956182,-2.3357582,5.908482,-2.6790912,-18.151306,21.22904,61.294724,15.267649,-12.405311,-0.5001147
216,-63.77431106567383,-60.0689582824707,76.81858825683594,3.007991351669388,-3.407970708287231,-114.33586166997085,11.003399,-6.2266483,24.756302,6.4291387,-15.289567,2.4128013,-22.005836,-23.167635,-17.104391,47.987602,-10.628713,8.07522,-0.07214878,-3.0022936,15.502817,-13.326829,12.4279,-30.607664,49.172,2.2975621,-2.3093061,5.8858585,-2.5924175,-18.23402,21.145006,61.25727,15.184549,-12.455802,-0.46675926
217,-64.1304702758789,-60.49339294433594,76.75767517089844,3.0782988965854896,-3.3209437899894776,-114.29827398914954,11.386057,-6.186401,24.669476,6.4255586,-15.604931,2.1031454,-22.374002,-23.202797,-17.330599,45.281223,-10.04789,8.385672,-0.102230154,-2.9722633,15.476085,-13.703823,12.349863,-30.866375,48.95281,2.4123075,-2.3003898,5.8787875,-2.51185,-18.307081,21.065699,61.216496,15.125323,-12.479823,-0.4444109
218,-64.49298858642578,-60.928993225097656,76.69149017333984,3.155648797139767,-3.1966656900415265,-114.26673426032538,11.727425,-6.1509757,24.589508,6.420696,-15.917699,1.7844291,-22.701483,-23.264982,-17.673485,42.488674,-9.4919815,8.647755,-0.12559162,-2.9499552,15.410021,-14.061781,12.266921,-31.101305,48.770042,2.5347416,-2.296095,5.8770733,-2.4275663,-18.37037,20.983934,61.167427,15.072709,-12.488435,-0.42524794
219,-64.86011505126953,-61.36368942260742,76.62101745605469,3.240583934056665,-3.0567312013678003,-114.23787843055413,12.054986,-6.117529,24.514805,6.414458,-16.22656,1.4581231,-22.967236,-23.320604,-18.123573,39.62509,-8.928019,8.919082,-0.14451872,-2.937465,15.327582,-14.388358,12.178852,-31.297852,48.614143,2.643599,-2.2969182,5.8813086,-2.3394792,-18.422005,20.898632,61.114124,15.023245,-12.494268,-0.40974656
220,-65.22208404541016,-61.7914924621582,76.54662322998047,3.330138677664172,-2.9238713570991663,-114.20827624603724,12.3958435,-6.0836906,24.443527,6.4093986,-16.532621,1.1253171,-23.148012,-23.33909,-18.670305,36.701607,-8.322066,9.255819,-0.19467685,-2.954507,15.252605,-14.631468,12.134178,-31.41064,48.426296,2.7105045,-2.3016934,5.884161,-2.28421,-18.44074,20.846622,61.0877,14.973432,-12.512454,-0.4026273
221,-65.59889221191406,-62.22353744506836,76.46807861328125,3.4259777948046284,-2.805605816399741,-114.17757862188947,12.760143,-6.0537715,24.372473,6.4012194,-16.83462,0.78420615,-23.227858,-23.324472,-19.325794,33.69181,-7.663032,9.645554,-0.19046737,-2.9656103,15.190265,-14.900012,12.025901,-31.530989,48.33089,2.7133415,-2.3174248,5.910628,-2.1623688,-18.467342,20.716408,61.019215,14.887047,-12.542155,-0.40405712
222,-65.98670196533203,-62.65837478637695,76.38097381591797,3.5321102237928224,-2.6904317946741285,-114.14545026620863,13.133684,-6.0285916,24.30165,6.392348,-17.13369,0.434365,-23.212276,-23.293476,-20.092188,30.57772,-6.9603195,10.064004,-0.2116777,-2.9979918,15.130034,-15.10615,11.933212,-31.572172,48.231297,2.6814237,-2.3399544,5.9410257,-2.0584638,-18.47379,20.608461,60.964577,14.78749,-12.579891,-0.4185566
223,-66.38285827636719,-63.098453521728516,76.28697967529297,3.6444537696296573,-2.5750069198621537,-114.10685796449218,13.509935,-5.9998302,24.231886,6.3846216,-17.425543,0.080754325,-23.108158,-23.228851,-20.946815,27.376066,-6.2075195,10.550248,-0.22967857,-3.042824,15.061784,-15.2921505,11.821599,-31.583025,48.184265,2.6325243,-2.3661628,5.974615,-1.9467252,-18.46415,20.492367,60.91287,14.71253,-12.620943,-0.42536634
224,-66.78728485107422,-63.5361328125,76.1884536743164,3.75999602994716,-2.4570980785351217,-114.05491892153009,13.890316,-5.9643497,24.160797,6.371891,-17.705519,-0.27085367,-22.914547,-23.108036,-21.870888,24.085293,-5.3886447,11.144997,-0.26471046,-3.1069107,14.985338,-15.428191,11.726086,-31.560738,48.150654,2.5847366,-2.389705,5.9976726,-1.8344363,-18.438875,20.388586,60.85911,14.707862,-12.66028,-0.40385237
225,-67.20704650878906,-63.983036041259766,76.08610534667969,3.890514775514937,-2.340368827394952,-113.97707418082392,14.277875,-5.9314,24.0832,6.3549857,-17.98049,-0.60983336,-22.58668,-22.91899,-22.927809,20.598537,-4.4507546,11.9291115,-0.33370748,-3.2019465,14.907153,-15.482172,11.672859,-31.495049,48.085262,2.5322795,-2.408121,6.0018554,-1.7088044,-18.4113,20.301907,60.780674,14.805288,-12.69358,-0.33739898
226,-67.64028930664062,-64.42498016357422,75.97825622558594,4.049662363675082,-2.238723320568452,-113.86290422927362,14.6852045,-5.9189367,23.981236,6.3363485,-18.252193,-0.93815255,-22.091293,-22.684738,-24.119097,16.866589,-3.378357,12.860087,-0.41634154,-3.34064,14.815013,-15.550074,11.56299,-31.405718,48.142902,2.4858563,-2.4293072,6.0035796,-1.5793207,-18.332926,20.195654,60.739033,14.951227,-12.730385,-0.25043666
227,-68.07755279541016,-64.86337280273438,75.861328125,4.246858027953236,-2.1663675086746377,-113.70635285872254,15.127138,-5.941422,23.830654,6.3122916,-18.506859,-1.2681887,-21.446783,-22.435047,-25.33802,12.977096,-2.2130232,13.800506,-0.54209197,-3.5327296,14.744067,-15.57588,11.473467,-31.30101,48.21653,2.4350526,-2.4480937,6.0020986,-1.4434345,-18.24451,20.102001,60.686317,15.13479,-12.766223,-0.15234438
228,-68.52857971191406,-65.30792999267578,75.73725128173828,4.484049642012347,-2.1311997877582214,-113.50984094787549,15.605579,-5.9995165,23.61748,6.285781,-18.729588,-1.6144626,-20.649096,-22.168545,-26.493195,8.955779,-0.9610936,14.616634,-0.70281106,-3.7801812,14.702837,-15.587922,11.393206,-31.203783,48.33778,2.3926318,-2.4644666,6.0056214,-1.3063562,-18.135263,20.009518,60.630173,15.307532,-12.804345,-0.06324572
229,-68.99268341064453,-65.74842071533203,75.60778045654297,4.744753525456036,-2.1038980589748273,-113.30945484493293,16.086557,-6.0655627,23.379665,6.2675834,-18.925472,-1.997474,-20.74421,-22.25271,-27.159142,6.9183636,-0.7460994,15.000033,-0.8601243,-4.0714746,14.671987,-15.585398,11.330191,-31.115898,48.497818,2.356786,-2.4802184,6.022632,-1.1605427,-18.00779,19.91097,60.55634,15.475654,-12.841904,0.01659374
230,-69.4728775024414,-66.17604064941406,75.47470092773438,5.020178900576612,-2.078454205694236,-113.11502809667286,16.5655,-6.126148,23.135674,6.2594414,-19.101454,-2.4098463,-21.599802,-22.63339,-27.428604,6.5766263,-1.4115165,15.000033,-1.0077845,-4.3936133,14.64591,-15.556104,11.286412,-31.025679,48.684162,2.3233573,-2.4951098,6.04625,-1.0046631,-17.865578,19.807596,60.463917,15.652441,-12.878534,0.09678834
231,-69.9572982788086,-66.61150360107422,75.33858489990234,5.29454987082825,-2.0765847388742276,-112.91743557445642,17.070803,-6.1787324,22.873188,6.2496715,-19.246796,-2.8296118,-22.344053,-22.995077,-27.667025,6.244118,-2.03099,15.000033,-1.1618702,-4.7226176,14.641741,-15.502353,11.255884,-30.940376,48.901596,2.2932384,-2.505074,6.064243,-0.8605544,-17.709547,19.716064,60.37814,15.817822,-12.921027,0.17175709
232,-70.45409393310547,-67.0547103881836,75.21276092529297,5.513200271158349,-2.0754104698819082,-112.78500910994774,17.589067,-6.1630545,22.667961,6.242779,-19.36227,-3.258633,-23.012411,-23.269194,-27.890589,6.0517387,-2.6436863,15.000033,-1.2698038,-4.970845,14.660961,-15.410854,11.238744,-30.859001,49.11293,2.262102,-2.5073721,6.0617337,-0.7206191,-17.596275,19.647915,60.263027,15.96137,-12.968996,0.24686702
233,-70.93970489501953,-67.48532104492188,75.09774017333984,5.679057027137385,-2.094717910343231,-112.71721412799735,18.13833,-6.087655,22.518063,6.2381983,-19.449652,-3.682544,-23.575617,-23.4383,-28.162788,5.98199,-3.2902086,15.000033,-1.326217,-5.153431,14.713256,-15.2995615,11.223682,-30.787045,49.352352,2.2374415,-2.497599,6.0349207,-0.5998658,-17.490717,19.598501,60.15529,16.058058,-13.028994,0.30822617
234,-71.43367004394531,-67.92324829101562,74.98330688476562,5.835812549866467,-2.1428904407953344,-112.67420557764571,18.72414,-6.0009847,22.378403,6.2322183,-19.508064,-4.1002283,-23.992405,-23.518694,-28.475708,5.8952117,-3.885995,15.000033,-1.3627617,-5.328513,14.79352,-15.175442,11.208105,-30.724596,49.64015,2.2212067,-2.4782546,5.9914875,-0.49434015,-17.37224,19.562998,60.062653,16.11873,-13.099228,0.35581335
235,-71.91927337646484,-68.36122131347656,74.87345886230469,5.96969339593589,-2.2008592020874094,-112.65251010545177,19.325285,-5.888821,22.248646,6.2226834,-19.525581,-4.5234895,-24.290346,-23.518814,-28.747776,5.8461795,-4.331216,15.000033,-1.3855276,-5.4752893,14.882789,-15.033734,11.193165,-30.675385,49.973267,2.2044075,-2.457385,5.937459,-0.4074338,-17.254906,19.550797,59.984287,16.17184,-13.176995,0.40586898
236,-72.3973388671875,-68.80399322509766,74.77657318115234,6.057325759899416,-2.2503161425783023,-112.65050871770923,19.92046,-5.727022,22.132576,6.2122593,-19.493006,-4.965827,-24.460161,-23.434273,-28.915081,5.8265114,-4.5040255,15.000033,-1.3960255,-5.5600057,14.971098,-14.864884,11.181526,-30.643366,50.332287,2.17893,-2.4408982,5.878618,-0.318553,-17.167229,19.567072,59.881214,16.249105,-13.253524,0.47408143
237,-72.86470031738281,-69.24017333984375,74.69477844238281,6.080875037575922,-2.2789289459913826,-112.69509379014515,20.501204,-5.5041075,22.0593,6.1924305,-19.410666,-5.4346404,-24.48273,-23.268824,-29.013184,5.852357,-4.285085,15.000033,-1.3828155,-5.5743995,15.035482,-14.686152,11.165734,-30.6164,50.764362,2.149547,-2.4369245,5.8131466,-0.29694027,-17.069292,19.63276,59.851604,16.347837,-13.349432,0.5596685
