unveil-humanoid-operators/unveil-humanoid-operators.github.io/feature-analysis-animation/data/feature_matrix_instances/gender_shoulder_mean_vel_jogging_A278_jog_ff_start_180_R_003__A278.csv
Frame,root_translateX,root_translateY,root_translateZ,root_rotateX,root_rotateY,root_rotateZ,left_hip_pitch_joint_dof,left_hip_roll_joint_dof,left_hip_yaw_joint_dof,left_knee_joint_dof,left_ankle_pitch_joint_dof,left_ankle_roll_joint_dof,right_hip_pitch_joint_dof,right_hip_roll_joint_dof,right_hip_yaw_joint_dof,right_knee_joint_dof,right_ankle_pitch_joint_dof,right_ankle_roll_joint_dof,waist_yaw_joint_dof,waist_roll_joint_dof,waist_pitch_joint_dof,left_shoulder_pitch_joint_dof,left_shoulder_roll_joint_dof,left_shoulder_yaw_joint_dof,left_elbow_joint_dof,left_wrist_roll_joint_dof,left_wrist_pitch_joint_dof,left_wrist_yaw_joint_dof,right_shoulder_pitch_joint_dof,right_shoulder_roll_joint_dof,right_shoulder_yaw_joint_dof,right_elbow_joint_dof,right_wrist_roll_joint_dof,right_wrist_pitch_joint_dof,right_wrist_yaw_joint_dof
0,-0.1405416876077652,-1.9646292924880981,78.47591400146484,-0.8317230144414096,-0.22740190834515972,90.01281706852652,0.46744105,2.3675153,6.8273234,7.0664954,-7.723335,-2.9710321,0.41449443,-2.4938412,-11.307097,6.8315234,-7.986434,4.5186567,-2.4611566,-0.22458535,7.6064425,-0.5606316,14.713335,-34.267258,60.34388,22.18193,-4.0345335,0.3324791,-6.9600635,-12.616419,46.924934,65.15036,8.818466,0.41214857,-2.7572494
1,-0.1423632651567459,-1.958206057548523,78.47522735595703,-0.8304721360268931,-0.2321510684643325,90.01729242982988,0.46958977,2.3646429,6.82601,7.080825,-7.7373004,-2.954615,0.4243327,-2.4970477,-11.30786,6.8315725,-7.989455,4.521342,-2.4336314,-0.2435195,7.6181893,-0.45621508,14.713541,-34.019337,60.247833,22.096773,-4.0101967,0.37262464,-6.9340463,-12.610855,46.88691,65.1166,8.794703,0.41816127,-2.7541094
2,-0.14384061098098755,-1.9576177597045898,78.47498321533203,-0.8283622294113782,-0.23719502353941302,90.02164729639259,0.47338837,2.3614628,6.8248534,7.092796,-7.750789,-2.9378161,0.43442065,-2.5003262,-11.308138,6.8322325,-7.9929643,4.5239525,-2.4177005,-0.25933692,7.6281767,-0.35321093,14.6987095,-33.752613,60.163628,22.01691,-3.9841278,0.41523817,-6.913163,-12.605357,46.86381,65.086945,8.775104,0.42562205,-2.7507157
3,-0.14491404592990875,-1.9534832239151,78.47461700439453,-0.826851071541759,-0.24155983252745644,90.02617221717382,0.4758762,2.3586638,6.823458,7.1059866,-7.763745,-2.9217007,0.44398904,-2.5034876,-11.309328,6.8325424,-7.996337,4.5267806,-2.4117372,-0.27141455,7.635825,-0.25735083,14.669526,-33.477535,60.099064,21.94715,-3.9655542,0.4573577,-6.898968,-12.598688,46.85473,65.06569,8.759134,0.43128735,-2.7487044
4,-0.1450105905532837,-1.9467668533325195,78.4753189086914,-0.824546702494594,-0.24450315583175164,90.03106664341577,0.4770039,2.3555665,6.821766,7.1170797,-7.7720923,-2.9071386,0.45163375,-2.5074794,-11.312704,6.8330703,-7.999908,4.530143,-2.407031,-0.2796852,7.639729,-0.1787843,14.627637,-33.214916,60.065815,21.888178,-3.9635372,0.49713668,-6.8859115,-12.590575,46.850777,65.05068,8.744456,0.4319099,-2.7498088
5,-0.1451902836561203,-1.9419786930084229,78.47460174560547,-0.8225007303736521,-0.2449936048784698,90.03641239198686,0.47471008,2.3525517,6.8198624,7.1282797,-7.775474,-2.8941875,0.45733568,-2.5123358,-11.319349,6.8330913,-8.003783,4.534756,-2.4017699,-0.2850895,7.64019,-0.118126445,14.574991,-32.96155,60.06675,21.839766,-3.9901178,0.53750676,-6.8742557,-12.581434,46.850155,65.040474,8.722353,0.4252363,-2.7551546
6,-0.14535893499851227,-1.9382327795028687,78.4744644165039,-0.819903610386589,-0.24366680685528933,90.04206753347299,0.47151306,2.349056,6.817925,7.135987,-7.773327,-2.8823824,0.46065727,-2.5182028,-11.328244,6.833526,-8.007569,4.540208,-2.3812072,-0.29317304,7.6410537,-0.067251,14.534587,-32.736935,60.07425,21.788633,-4.035498,0.5761478,-6.8531313,-12.575342,46.833805,65.02036,8.691426,0.41321063,-2.7631104
7,-0.14747554063796997,-1.934170126914978,78.47532653808594,-0.8184385524479406,-0.24205877132263165,90.04802257040215,0.46669218,2.3460486,6.815287,7.1461954,-7.7719035,-2.872136,0.46377861,-2.5237966,-11.337855,6.83366,-8.011786,4.5451803,-2.3802588,-0.29545012,7.639828,-0.022496736,14.479095,-32.50361,60.10095,21.757338,-4.081815,0.6069952,-6.8433967,-12.566885,46.841812,65.014114,8.676692,0.39999458,-2.771965
8,-0.14847679436206818,-1.931154727935791,78.47554016113281,-0.816788724823988,-0.2411667071601669,90.05403066095442,0.46559608,2.343741,6.8115754,7.151364,-7.7702975,-2.8638265,0.4688494,-2.5277627,-11.34656,6.833296,-8.017221,4.5480847,-2.3797786,-0.29130837,7.6329436,0.0028430028,14.409011,-32.30357,60.1516,21.736685,-4.106279,0.625344,-6.835653,-12.555241,46.85357,65.02706,8.6903925,0.388164,-2.7806287
9,-0.1482633501291275,-1.9261763095855713,78.47535705566406,-0.8175360041234961,-0.2405365629693667,90.06087640254313,0.46271035,2.3424392,6.8056455,7.1617556,-7.7732544,-2.8570182,0.47400838,-2.5305886,-11.35468,6.8345056,-8.024808,4.5488377,-2.3694108,-0.2854855,7.6241784,0.016854579,14.348215,-32.15219,60.19949,21.717295,-4.096987,0.6193833,-6.819706,-12.544282,46.852627,65.05034,8.754931,0.3771082,-2.7919822
10,-0.14886251091957092,-1.9212970733642578,78.47445678710938,-0.8185157232468749,-0.23973484735685371,90.06831547107515,0.46203533,2.3412023,6.7982745,7.1672535,-7.7742267,-2.8516965,0.48053682,-2.532504,-11.362831,6.834144,-8.033052,4.5480957,-2.354838,-0.28043643,7.616052,0.029562764,14.303548,-32.033947,60.235428,21.701826,-4.067329,0.5933429,-6.799356,-12.535762,46.84765,65.077705,8.8570385,0.36551225,-2.805394
11,-0.14885292947292328,-1.915635585784912,78.47428894042969,-0.8193027538252949,-0.24035271443326864,90.07500599267479,0.4637371,2.341,6.791036,7.172173,-7.777891,-2.8489034,0.4875218,-2.533344,-11.369711,6.8351507,-8.042166,4.545738,-2.3451505,-0.27200922,7.6072626,0.03353103,14.256136,-31.938816,60.281628,21.698782,-4.0335183,0.5642743,-6.7832704,-12.525362,46.849358,65.108505,8.949336,0.3565701,-2.8128264
12,-0.1507720947265625,-1.9106076955795288,78.47406005859375,-0.8206805154457084,-0.24351115521277358,90.07949908998778,0.47028098,2.3415651,6.7858157,7.175802,-7.7861924,-2.84976,0.49844572,-2.5328481,-11.373975,6.834314,-8.05122,4.541676,-2.3310688,-0.26641315,7.6033525,0.03591778,14.225701,-31.880367,60.320217,21.704165,-4.0104914,0.5440361,-6.768452,-12.517699,46.847828,65.12152,8.981229,0.35316858,-2.8047442
13,-0.14954128861427307,-1.8955236673355103,78.47319030761719,-0.8225168234418279,-0.25157302659793124,90.08015494302126,0.48764032,2.343619,6.783859,7.172714,-7.8008356,-2.8575397,0.51316315,-2.5300548,-11.373808,6.8358974,-8.062533,4.5339403,-2.3207228,-0.25918308,7.604144,0.03189719,14.199099,-31.85378,60.366787,21.729471,-4.0033355,0.5395507,-6.760669,-12.509446,46.849773,65.11694,8.919483,0.35928684,-2.7711039
14,-0.14807263016700745,-1.8885921239852905,78.47289276123047,-0.8252011620666324,-0.2629296565623869,90.07812236344128,0.5120156,2.3468747,6.783945,7.1663876,-7.82108,-2.8706832,0.53184307,-2.525351,-11.370396,6.837414,-8.075133,4.5232387,-2.3107991,-0.2519615,7.6092916,0.024578385,14.182695,-31.860245,60.41266,21.769508,-4.003487,0.54179525,-6.756176,-12.502776,46.852592,65.09782,8.797633,0.37215507,-2.7190895
15,-0.14737091958522797,-1.8865622282028198,78.47233581542969,-0.8269658400827156,-0.2740527466400716,90.07634240438472,0.53611416,2.3500066,6.784227,7.159152,-7.8396645,-2.882896,0.5502941,-2.5208158,-11.367004,6.837818,-8.086348,4.5134068,-2.3075109,-0.24625763,7.6209702,0.022398978,14.180294,-31.872372,60.440285,21.821436,-4.007571,0.5411924,-6.7581067,-12.501323,46.859577,65.07091,8.662858,0.38527843,-2.6649923
16,-0.14575572311878204,-1.882982850074768,78.47240447998047,-0.8269649579381971,-0.2814558553951673,90.07761295422003,0.5497565,2.3513575,6.782953,7.1611514,-7.853861,-2.8879082,0.56422013,-2.5188668,-11.366666,6.8387265,-8.09582,4.508422,-2.2975187,-0.24412926,7.6215677,0.0064631477,14.174358,-31.914904,60.484486,21.856176,-4.0105243,0.5417327,-6.7540684,-12.496635,46.872913,65.057945,8.570326,0.3918414,-2.6313415
17,-0.1452450454235077,-1.8790549039840698,78.47176361083984,-0.8246497785743464,-0.28296325007956596,90.08333660607175,0.552486,2.3498225,6.779464,7.163946,-7.8537292,-2.882317,0.5708572,-2.520493,-11.3706665,6.8387513,-8.101131,4.511071,-2.283268,-0.24532862,7.616688,-0.020244122,14.169473,-31.97656,60.53095,21.884209,-4.0148916,0.5353126,-6.752693,-12.490225,46.89096,65.06432,8.52946,0.38826883,-2.6209319
18,-0.14230532944202423,-1.8753412961959839,78.47256469726562,-0.8211746487858393,-0.28071598438302053,90.09162400597558,0.54450566,2.346972,6.774712,7.177163,-7.8505344,-2.8700693,0.57246536,-2.5244718,-11.377022,6.8392262,-8.104291,4.5186677,-2.2688048,-0.2494759,7.608319,-0.054583505,14.168211,-32.05695,60.579308,21.909626,-4.0224576,0.52528715,-6.7529273,-12.482769,46.91511,65.0797,8.513511,0.37892193,-2.6238635
19,-0.13929295539855957,-1.8706673383712769,78.47215270996094,-0.8160648480914224,-0.27752598053150324,90.10108414173814,0.53526896,2.3436408,6.76941,7.189351,-7.8444343,-2.8558314,0.5735707,-2.528937,-11.384798,6.8385963,-8.106001,4.5268793,-2.256963,-0.2549627,7.6001883,-0.086500354,14.171059,-32.138065,60.619686,21.933573,-4.026239,0.51505715,-6.756981,-12.475513,46.940945,65.100136,8.513553,0.36767712,-2.6359324
20,-0.13668708503246307,-1.8675611019134521,78.47343444824219,-0.8133741032435295,-0.27569549039668173,90.1098210584725,0.5296386,2.3416948,6.7644796,7.19875,-7.841044,-2.8443232,0.57676977,-2.5320542,-11.392659,6.8384876,-8.108749,4.531338,-2.2498028,-0.2591789,7.594251,-0.10990471,14.17647,-32.203762,60.64824,21.95315,-4.0201225,0.50805146,-6.76172,-12.469272,46.961327,65.11763,8.519206,0.35759383,-2.6531618
21,-0.13598260283470154,-1.8612110614776611,78.47367095947266,-0.8115855700124727,-0.2752834156097926,90.11811626819747,0.5251036,2.3420765,6.760198,7.212652,-7.845052,-2.8335228,0.5820349,-2.5336857,-11.400828,6.838835,-8.111552,4.5294757,-2.245794,-0.26183155,7.5895634,-0.12349594,14.184905,-32.258213,60.6619,21.965288,-3.9970584,0.5059017,-6.76787,-12.462716,46.977325,65.13389,8.535486,0.34906197,-2.6803796
22,-0.13363955914974213,-1.8556793928146362,78.47441864013672,-0.8101161639794263,-0.2753862607004063,90.12679745457058,0.5215967,2.3434052,6.7561126,7.2260647,-7.850303,-2.82198,0.58844554,-2.5345604,-11.409962,6.839583,-8.114498,4.524114,-2.2482548,-0.26429638,7.5869813,-0.12858033,14.197513,-32.300484,60.661346,21.975525,-3.96278,0.5057465,-6.7784605,-12.4557905,46.992344,65.15229,8.562592,0.3408622,-2.7171748
23,-0.13077467679977417,-1.854452133178711,78.47386932373047,-0.8102555353201608,-0.27622053117411743,90.13455554124076,0.5213286,2.345161,6.751664,7.2356586,-7.8568354,-2.8154247,0.59610623,-2.5347931,-11.418903,6.8399568,-8.118068,4.51887,-2.2553043,-0.26559752,7.5858645,-0.12855174,14.209569,-32.327217,60.65625,21.984724,-3.9277987,0.50738525,-6.7904487,-12.450968,47.005077,65.16905,8.595031,0.33278626,-2.7539022
24,-0.12753739953041077,-1.8486573696136475,78.47378540039062,-0.8102328528085151,-0.2779666886225871,90.14035877433923,0.52806425,2.34628,6.7462583,7.2340255,-7.8625674,-2.819486,0.6045772,-2.53434,-11.426916,6.840263,-8.123024,4.5173674,-2.2628229,-0.26458105,7.5855694,-0.1314471,14.214786,-32.337727,60.66144,21.994976,-3.9026978,0.51131636,-6.8008704,-12.449479,47.010437,65.18194,8.625166,0.32519847,-2.7806692
25,-0.1256297081708908,-1.8450835943222046,78.4737319946289,-0.8099802012309063,-0.2817016228426455,90.14388136407511,0.54625714,2.34638,6.7381287,7.2143397,-7.867236,-2.8415236,0.61576086,-2.532885,-11.434644,6.8396425,-8.130694,4.5221024,-2.265013,-0.26638237,7.5824623,-0.13024306,14.229635,-32.349472,60.667725,21.98377,-3.89063,0.51952875,-6.807442,-12.445948,47.014416,65.198135,8.663628,0.312636,-2.8005629
26,-0.12234608829021454,-1.8417799472808838,78.47220611572266,-0.8112745100861769,-0.286847241154664,90.1455727936883,0.5729371,2.3456428,6.7283397,7.1823783,-7.8722367,-2.8764822,0.6285958,-2.5311155,-11.442048,6.8393235,-8.140517,4.5306945,-2.2674143,-0.26656434,7.581351,-0.118722446,14.24781,-32.346767,60.66286,21.966017,-3.883067,0.52987796,-6.8139997,-12.442816,47.011044,65.214836,8.703281,0.29758868,-2.815755
27,-0.1202031746506691,-1.8337985277175903,78.47069549560547,-0.8128255641442842,-0.2915661686405317,90.14591929368923,0.59922504,2.3454657,6.7198358,7.149928,-7.8769536,-2.9118152,0.64012504,-2.5286734,-11.447774,6.8394427,-8.150462,4.5391965,-2.269822,-0.26844543,7.5799336,-0.11252723,14.264261,-32.335762,60.668846,21.953737,-3.8816547,0.54054105,-6.820269,-12.440767,47.000015,65.226166,8.740741,0.28750244,-2.821735
28,-0.11688537150621414,-1.8269684314727783,78.47010803222656,-0.8140990610733289,-0.2938800704556024,90.14516138049203,0.6160884,2.3470418,6.7158318,7.1316147,-7.882587,-2.9349313,0.64846015,-2.525656,-11.450217,6.839303,-8.158016,4.543797,-2.2728233,-0.27235633,7.5811977,-0.10021971,14.2850275,-32.32158,60.66356,21.958805,-3.8779166,0.54797316,-6.830576,-12.439264,46.97522,65.22848,8.766112,0.29058728,-2.8152907
29,-0.1149846613407135,-1.8224252462387085,78.46857452392578,-0.8136804201758562,-0.2939982299445,90.14239849631386,0.6235675,2.3505788,6.7191143,7.1264997,-7.885987,-2.941209,0.6521054,-2.521875,-11.446856,6.8393583,-8.161387,4.5438066,-2.269725,-0.28366968,7.5870576,-0.08535284,14.31994,-32.30898,60.647472,21.987846,-3.8744605,0.5505023,-6.840722,-12.438456,46.921444,65.21139,8.7826805,0.31407627,-2.789481
30,-0.1122797355055809,-1.8155641555786133,78.46841430664062,-0.8135464313546771,-0.29263549044927367,90.13784844726106,0.62439156,2.355763,6.7272363,7.131459,-7.889194,-2.9377315,0.6533214,-2.5171242,-11.439316,6.8388233,-8.162082,4.541205,-2.263622,-0.2957416,7.592818,-0.0755493,14.348905,-32.29441,60.640404,22.034996,-3.8721092,0.5531484,-6.8510666,-12.439458,46.849777,65.185356,8.795093,0.35217866,-2.7493308
31,-0.10704940557479858,-1.8127583265304565,78.46917724609375,-0.8132711951506059,-0.2888455589890577,90.13324216667655,0.62178314,2.3611472,6.736134,7.1375732,-7.890895,-2.929502,0.6513633,-2.512538,-11.4318495,6.839088,-8.163199,4.5359592,-2.2596643,-0.30610064,7.5951796,-0.07257792,14.369199,-32.28074,60.64558,22.083015,-3.8703551,0.5555699,-6.862825,-12.44127,46.780243,65.15832,8.794487,0.39200148,-2.7052274
32,-0.10359211266040802,-1.8079642057418823,78.47076416015625,-0.8144114991426511,-0.2813715540291114,90.13037612795182,0.6130379,2.3668294,6.7412615,7.147833,-7.8957744,-2.9216518,0.6458988,-2.508019,-11.428995,6.8399677,-8.166494,4.527968,-2.2554,-0.31461462,7.59482,-0.07233265,14.391808,-32.276737,60.64945,22.113424,-3.8681173,0.55466694,-6.872482,-12.44423,46.719597,65.1303,8.76655,0.42059898,-2.6668706
33,-0.09921646118164062,-1.7993992567062378,78.47122192382812,-0.8150158887365001,-0.2682192742967754,90.13088292962941,0.5977813,2.372455,6.740647,7.156444,-7.9001293,-2.912186,0.6358311,-2.5037904,-11.43449,6.8405757,-8.173153,4.5144067,-2.2610135,-0.31889406,7.5867887,-0.07446629,14.411391,-32.276794,60.658825,22.119835,-3.866791,0.55030906,-6.885541,-12.44703,46.6824,65.10501,8.698082,0.4321604,-2.6298702
34,-0.09436934441328049,-1.7915079593658447,78.47254180908203,-0.8167895814748404,-0.2505758726159072,90.13316170481204,0.57686085,2.3783898,6.737108,7.1663632,-7.904684,-2.8995142,0.62213224,-2.4995465,-11.444798,6.840822,-8.181834,4.49619,-2.2680027,-0.32245183,7.5776324,-0.07173754,14.439238,-32.28307,60.654503,22.111807,-3.8635654,0.5410797,-6.8970857,-12.451064,46.648006,65.072655,8.592415,0.43419117,-2.5912712
35,-0.08867932856082916,-1.7854915857315063,78.47369384765625,-0.8176429465133428,-0.2321844402944215,90.13507048353665,0.5542743,2.3843277,6.732954,7.1779556,-7.910851,-2.8891883,0.6072397,-2.4953299,-11.45451,6.8413,-8.190395,4.4791055,-2.283486,-0.32082152,7.5613093,-0.0797921,14.447232,-32.286335,60.677116,22.101202,-3.8614533,0.535053,-6.914012,-12.452119,46.64279,65.05642,8.498697,0.43399718,-2.565444
36,-0.08447530120611191,-1.7859963178634644,78.4734878540039,-0.818428750319406,-0.2172324984492862,90.1339510039136,0.54156137,2.388755,6.7314215,7.1789527,-7.914775,-2.8867528,0.5947463,-2.4912827,-11.457594,6.842072,-8.196917,4.4686737,-2.2829635,-0.32713714,7.554828,-0.08607865,14.475054,-32.306004,60.679348,22.08585,-3.8585238,0.52629036,-6.922952,-12.455335,46.635338,65.03753,8.4390135,0.43770888,-2.562628
37,-0.07973862439393997,-1.7807621955871582,78.47288513183594,-0.8174103963148548,-0.2065626863000314,90.12955507523392,0.54264647,2.3907707,6.732078,7.16285,-7.9143977,-2.8978748,0.5858851,-2.4873724,-11.452053,6.8418417,-8.199441,4.468327,-2.2766335,-0.33680004,7.5513225,-0.092288114,14.508082,-32.333553,60.67931,22.069149,-3.8536847,0.51883,-6.930794,-12.458707,46.663067,65.03355,8.439412,0.4468472,-2.6039693
38,-0.074020154774189,-1.7734060287475586,78.4710464477539,-0.8162856411646582,-0.19820852732137478,90.12311816836089,0.5490577,2.3916104,6.7336574,7.1420646,-7.914913,-2.9182343,0.5787743,-2.4833298,-11.441161,6.8413,-8.199853,4.47441,-2.2657986,-0.34549224,7.547971,-0.1116685,14.528795,-32.366806,60.697525,22.052244,-3.848195,0.5133428,-6.9389644,-12.460405,46.71338,65.04557,8.472891,0.45801836,-2.6765783
39,-0.07025202363729477,-1.7662994861602783,78.47032165527344,-0.8143196479905608,-0.19114941933550153,90.11433712032694,0.5584044,2.3924177,6.7378254,7.1201444,-7.9152513,-2.938208,0.57288045,-2.4792452,-11.427191,6.8408313,-8.200032,4.4820766,-2.2573934,-0.35635823,7.545968,-0.12293662,14.55747,-32.4007,60.7054,22.034462,-3.8433895,0.5090673,-6.9462204,-12.461716,46.77115,65.06067,8.530718,0.46938118,-2.7482216
40,-0.06870823353528976,-1.7638545036315918,78.47071838378906,-0.8133818583399792,-0.18473354466838765,90.10302207063144,0.56507975,2.3946033,6.7462716,7.1074667,-7.9178905,-2.9482498,0.5678058,-2.4750693,-11.412472,6.8406897,-8.201835,4.486599,-2.2514737,-0.3657321,7.5444765,-0.1388201,14.576132,-32.427074,60.72503,22.02898,-3.8428884,0.50878257,-6.9547844,-12.462381,46.802147,65.079765,8.590783,0.4803182,-2.7838304
41,-0.06403916329145432,-1.7580443620681763,78.47026062011719,-0.8109213421987442,-0.17876233516300202,90.08778126840241,0.56609,2.3989239,6.7612705,7.11038,-7.924328,-2.9412866,0.5640926,-2.4703562,-11.396598,6.8405576,-8.2061615,4.4868054,-2.2507188,-0.3756869,7.5442314,-0.1437546,14.599643,-32.449177,60.73499,22.028925,-3.8474798,0.5151309,-6.961926,-12.463053,46.80151,65.10358,8.6801405,0.48810697,-2.770048
42,-0.05958523973822594,-1.7475677728652954,78.46866607666016,-0.8080254955234059,-0.17362916486313648,90.06924240110013,0.5635099,2.4047616,6.781229,7.1258354,-7.935081,-2.923911,0.56152225,-2.4652529,-11.378753,6.8405156,-8.211665,4.485197,-2.2506561,-0.38700545,7.5458097,-0.15038885,14.622992,-32.468113,60.750336,22.035883,-3.8582904,0.5259325,-6.9699073,-12.463948,46.778282,65.1353,8.795158,0.4944903,-2.7247066
43,-0.056060466915369034,-1.738775372505188,78.46992492675781,-0.8055283137710341,-0.16920954425290818,90.04984970057475,0.5640104,2.4106703,6.8022885,7.137467,-7.943699,-2.90707,0.5593792,-2.4603236,-11.360311,6.8416595,-8.218194,4.4824257,-2.2457542,-0.398224,7.5493307,-0.15350811,14.649215,-32.492565,60.755856,22.04652,-3.865623,0.53507864,-6.972246,-12.465592,46.739662,65.156235,8.883908,0.5009524,-2.668071
44,-0.052656687796115875,-1.7302391529083252,78.46988677978516,-0.8038496022736619,-0.16513494265185302,90.03259074435917,0.5685854,2.4162428,6.8198133,7.141614,-7.95111,-2.9017577,0.5589685,-2.454833,-11.343484,6.841239,-8.223843,4.4790106,-2.2402277,-0.40877637,7.5523906,-0.15740195,14.674514,-32.516792,60.75948,22.063116,-3.8681366,0.53637004,-6.97512,-12.467834,46.711617,65.161316,8.90653,0.5064728,-2.6177022
45,-0.048589229583740234,-1.7189925909042358,78.47004699707031,-0.8040528148714923,-0.1619118863613951,90.01808868968196,0.5820027,2.4213114,6.8323417,7.1300006,-7.954188,-2.9157956,0.5600955,-2.44843,-11.328452,6.842011,-8.229794,4.474296,-2.2417235,-0.4138409,7.5531874,-0.16309446,14.686846,-32.531338,60.76869,22.096413,-3.8641734,0.5265639,-6.9812975,-12.468929,46.70312,65.141174,8.810215,0.5166933,-2.5636618
46,-0.042878054082393646,-1.710603952407837,78.46842193603516,-0.8041826662604934,-0.15964055430137455,90.00479099277126,0.5989798,2.4265833,6.8423505,7.113025,-7.956592,-2.9418132,0.56260544,-2.441547,-11.314193,6.8425,-8.235337,4.4682813,-2.2349033,-0.4208911,7.556161,-0.16440828,14.708858,-32.556,60.761665,22.133808,-3.8552043,0.506958,-6.9822273,-12.471055,46.68704,65.09442,8.628076,0.5291531,-2.5002835
47,-0.03970400243997574,-1.7007527351379395,78.46769714355469,-0.8044956729896537,-0.15685263137650043,89.99227234236885,0.6186573,2.4308965,6.8516197,7.0897703,-7.9560304,-2.967545,0.56548244,-2.4350464,-11.300774,6.8424416,-8.24105,4.46248,-2.2303245,-0.42753747,7.559293,-0.16357553,14.730767,-32.577335,60.75076,22.170376,-3.8421788,0.4867683,-6.982907,-12.473428,46.680817,65.05018,8.455149,0.5332191,-2.4562805
48,-0.03686622157692909,-1.689987063407898,78.46646118164062,-0.8040405579870823,-0.15199375351822036,89.98018245592482,0.630291,2.434593,6.86152,7.077511,-7.9590826,-2.9808097,0.56539726,-2.4300387,-11.288313,6.8427725,-8.246749,4.4584465,-2.2301493,-0.4324355,7.5598664,-0.16792221,14.741611,-32.591873,60.752037,22.198278,-3.826125,0.47565532,-6.9827814,-12.4748335,46.686546,65.03257,8.377835,0.52172923,-2.460132
49,-0.031278692185878754,-1.683009386062622,78.46646118164062,-0.8007349230644372,-0.1434884020242792,89.96793790021077,0.62971324,2.437364,6.873253,7.080942,-7.966492,-2.9757957,0.56097126,-2.427128,-11.276669,6.8436236,-8.2532215,4.45652,-2.228047,-0.44050053,7.5584764,-0.16923991,14.758633,-32.612183,60.746628,22.204464,-3.8035269,0.4756689,-6.975243,-12.47781,46.70146,65.04798,8.457749,0.49058744,-2.5269094
50,-0.02751322090625763,-1.6709115505218506,78.46562194824219,-0.7974190926368793,-0.13273602117354663,89.95590036752198,0.6244498,2.4390674,6.8858647,7.0877724,-7.9735045,-2.9598477,0.55464786,-2.4257386,-11.265802,6.842364,-8.258407,4.455911,-2.2276118,-0.4489402,7.556003,-0.17428778,14.771667,-32.627857,60.74705,22.203424,-3.7767498,0.4824451,-6.9651213,-12.480992,46.722992,65.08606,8.630445,0.4457878,-2.6379962
51,-0.024212516844272614,-1.6619040966033936,78.46663665771484,-0.7938383202885098,-0.12200604757158014,89.94502731181792,0.6171592,2.4403048,6.8974137,7.0990534,-7.9830265,-2.9405963,0.5476818,-2.4250672,-11.2560005,6.84381,-8.265426,4.456457,-2.2255948,-0.4552817,7.555232,-0.18241769,14.776665,-32.64091,60.749695,22.199972,-3.7483423,0.4911031,-6.9544363,-12.482652,46.745377,65.12849,8.807658,0.3883103,-2.7727878
52,-0.021999400109052658,-1.6518373489379883,78.46692657470703,-0.7898721360776957,-0.11363278540650726,89.93605925341669,0.6152397,2.4413607,6.9062757,7.1053276,-7.9926434,-2.9257648,0.54448247,-2.4237201,-11.247547,6.843839,-8.27155,4.4580903,-2.231877,-0.46249968,7.5525093,-0.17724755,14.791699,-32.659733,60.739803,22.179785,-3.7244828,0.49722803,-6.940836,-12.488078,46.802498,65.145546,8.923948,0.32119986,-2.91576
53,-0.017636658623814583,-1.6390581130981445,78.46613311767578,-0.7887664985841286,-0.10971261148387536,89.92950130369027,0.61919266,2.4430506,6.911518,7.110629,-8.005559,-2.9161177,0.5474202,-2.4212976,-11.241354,6.8442154,-8.277389,4.4597216,-2.2323995,-0.46819407,7.557212,-0.18611945,14.796487,-32.673897,60.74481,22.161406,-3.708083,0.49657336,-6.9291086,-12.489879,46.83245,65.13197,8.891769,0.24783576,-3.0271554
54,-0.014700852334499359,-1.6280419826507568,78.46551513671875,-0.7877223787033363,-0.1082205190063129,89.9248486296317,0.62513155,2.444887,6.9142046,7.118378,-8.022276,-2.907964,0.5536436,-2.4186475,-11.236966,6.8445544,-8.282341,4.461727,-2.2351751,-0.47313517,7.5622373,-0.19309175,14.800223,-32.690517,60.749973,22.130827,-3.694262,0.49436063,-6.914877,-12.491222,46.86682,65.09736,8.786733,0.16631165,-3.131873
55,-0.012424640357494354,-1.6146143674850464,78.46556854248047,-0.7858159622594144,-0.10687189986001061,89.921398778544,0.6333133,2.4457405,6.9154515,7.121026,-8.036747,-2.9024098,0.56061244,-2.4162831,-11.232618,6.8441916,-8.288602,4.4663057,-2.2364423,-0.47805613,7.5672617,-0.19938006,14.80476,-32.712757,60.75125,22.098024,-3.6834996,0.4918619,-6.899072,-12.492702,46.931297,65.062675,8.691291,0.072466545,-3.287785
56,-0.00912980455905199,-1.608336329460144,78.46546173095703,-0.7832583636301611,-0.10326336709906964,89.91866706061175,0.6409475,2.4449036,6.915977,7.1184225,-8.046693,-2.9005582,0.56514996,-2.4150255,-11.226556,6.844734,-8.299512,4.475583,-2.222964,-0.48345265,7.5770316,-0.21738593,14.806645,-32.74323,60.750896,22.08153,-3.676584,0.48874062,-6.883268,-12.493202,47.023155,65.05116,8.670134,-0.038097784,-3.5485957
57,-0.005144247319549322,-1.5980250835418701,78.46527862548828,-0.779878852366267,-0.0958977918773591,89.91713599266537,0.64634246,2.4427977,6.9142504,7.108691,-8.048561,-2.9034271,0.5659862,-2.41482,-11.2211075,6.84438,-8.31281,4.4870825,-2.2112095,-0.48723248,7.5812798,-0.2316011,14.807472,-32.781773,60.74184,22.07273,-3.6727045,0.48980024,-6.8682513,-12.49259,47.201035,65.07497,8.781301,-0.16569357,-3.9486778
58,-0.0022351902443915606,-1.5827221870422363,78.46556091308594,-0.7757706930615543,-0.08621717929384458,89.91689799914889,0.64877677,2.4396434,6.910366,7.0979986,-8.047117,-2.9101653,0.5643943,-2.4154794,-11.216209,6.8444934,-8.328532,4.500594,-2.2093284,-0.490158,7.584846,-0.23831375,14.806429,-32.808933,60.722244,22.076641,-3.6726906,0.49188292,-6.8629827,-12.489084,47.450706,65.12653,8.972894,-0.30952322,-4.4507856
59,-0.0013071370776742697,-1.572570562362671,78.46326446533203,-0.7712166526532513,-0.07651858382082885,89.91660715696632,0.6538368,2.43472,6.907879,7.082015,-8.045168,-2.9192483,0.5628314,-2.4168944,-11.206684,6.8441987,-8.349025,4.5220485,-2.1990464,-0.49388045,7.592384,-0.25146192,14.803842,-32.84063,60.702003,22.088295,-3.676268,0.49192333,-6.856871,-12.483429,47.712467,65.184525,9.187542,-0.4729201,-5.01391
60,0.004553905688226223,-1.5690635442733765,78.46192932128906,-0.7625451665527325,-0.06855537455903422,89.91488697295581,0.6656737,2.4271238,6.9104457,7.057369,-8.04531,-2.9291327,0.5623947,-2.4190865,-11.187176,6.844527,-8.377186,4.55719,-2.20175,-0.49801484,7.601803,-0.25624585,14.798463,-32.857433,60.67811,22.103897,-3.6832714,0.4891622,-6.8597655,-12.473845,47.994934,65.24417,9.396645,-0.658392,-5.6027827
61,0.005655245389789343,-1.5605299472808838,78.46210479736328,-0.7516580170914056,-0.06370587020485231,89.91081100620147,0.68670064,2.4162505,6.9215183,7.0233154,-8.0488205,-2.9410102,0.56470937,-2.4224377,-11.155407,6.8436184,-8.411147,4.609677,-2.1866956,-0.5044743,7.619261,-0.273013,14.792931,-32.88886,60.65836,22.122406,-3.6969275,0.48148194,-6.856145,-12.465641,48.25453,65.288,9.579743,-0.8710245,-6.2340684
62,0.01027689129114151,-1.550018310546875,78.4605712890625,-0.7377356124592239,-0.06035317060110359,89.90527581647589,0.7141857,2.4030266,6.9383297,6.9809675,-8.053761,-2.9551492,0.5681732,-2.42668,-11.114559,6.8429418,-8.451078,4.675739,-2.2016706,-0.50915974,7.636104,-0.2697802,14.780928,-32.887047,60.630035,22.152071,-3.7168398,0.4719914,-6.8712263,-12.449469,48.57802,65.34558,9.786027,-1.1089561,-6.923321
63,0.010405851528048515,-1.5420411825180054,78.46022033691406,-0.7235063297120182,-0.0571541888991752,89.89975674567827,0.74406564,2.3877306,6.9550514,6.9343657,-8.060759,-2.9685588,0.57124233,-2.4313424,-11.067459,6.843036,-8.499111,4.75026,-2.1928265,-0.51670384,7.6573014,-0.28397915,14.769938,-32.910385,60.608856,22.176088,-3.73441,0.46044117,-6.874953,-12.436289,48.8626,65.39393,9.970972,-1.3615532,-7.6116743
64,0.012564398348331451,-1.5353690385818481,78.45994567871094,-0.7081741750203584,-0.052209152427947006,89.89570991849682,0.7724297,2.3705175,6.96604,6.8865705,-8.070008,-2.978316,0.57320136,-2.4354465,-11.017131,6.8427815,-8.556888,4.8280344,-2.1809568,-0.5265107,7.6784616,-0.30161473,14.75919,-32.937214,60.589176,22.192451,-3.7425559,0.44852003,-6.876905,-12.426564,49.120422,65.443214,10.133442,-1.6180471,-8.247909
65,0.013521498069167137,-1.5260270833969116,78.45890808105469,-0.6933750970583354,-0.045473456705220267,89.89122395325847,0.7765501,2.353325,6.96988,6.885505,-8.10464,-2.9771814,0.573545,-2.4383957,-10.958778,6.8429613,-8.629632,4.911907,-2.1716487,-0.53869534,7.697662,-0.32009065,14.746352,-32.96258,60.571896,22.204458,-3.730834,0.4367746,-6.8778105,-12.418623,49.379925,65.49735,10.289156,-1.8844645,-8.852302
66,0.01358587946742773,-1.5201600790023804,78.45731353759766,-0.6776318577398984,-0.03769572812398148,89.88631789510009,0.77914494,2.3342,6.9701443,6.885119,-8.141894,-2.9689822,0.5726116,-2.4402082,-10.892844,6.8433113,-8.714285,5.0031414,-2.172662,-0.5508249,7.71461,-0.3357222,14.7262745,-32.975914,60.558224,22.21782,-3.7063591,0.42494592,-6.8840137,-12.410743,49.656765,65.56012,10.445652,-2.163444,-9.442604
67,0.014050925150513649,-1.5134775638580322,78.45738220214844,-0.6621003588509793,-0.02832461085496529,89.88518652119836,0.78009856,2.3139677,6.9658813,6.8849287,-8.184677,-2.9676764,0.57130283,-2.4430034,-10.82966,6.843387,-8.802667,5.094328,-2.1670494,-0.56394154,7.7333465,-0.35888037,14.705924,-32.997807,60.54815,22.218132,-3.6872935,0.4129809,-6.88656,-12.407073,49.876682,65.61734,10.563568,-2.4369726,-9.960968
68,0.014095359481871128,-1.505415678024292,78.4579086303711,-0.6475294057643696,-0.016721569138324663,89.89208677085347,0.77906233,2.2941003,6.9560237,6.884649,-8.23613,-2.9872987,0.5702456,-2.4482727,-10.779655,6.843732,-8.88758,5.1780496,-2.172996,-0.5756328,7.7527413,-0.37733114,14.6850815,-33.010025,60.535076,22.199911,-3.6921926,0.4017078,-6.8970876,-12.407223,50.024105,65.67228,10.629656,-2.687001,-10.353274
69,0.014628209173679352,-1.4975355863571167,78.45851135253906,-0.6343204469273271,-0.0038506844717353635,89.90751233338764,0.77731836,2.2780383,6.941654,6.883452,-8.298338,-3.0445395,0.5701431,-2.454345,-10.746454,6.844166,-8.965332,5.2491097,-2.1818244,-0.5895618,7.779305,-0.38453096,14.68072,-33.012165,60.49871,22.13455,-3.7316592,0.3842906,-6.9119105,-12.408268,50.040466,65.716156,10.592179,-2.9034495,-10.561914
70,0.012784554623067379,-1.4882653951644897,78.46063232421875,-0.6235847896439042,0.009617274454019012,89.9294816902654,0.77595824,2.2636845,6.922907,6.881385,-8.369115,-3.1276627,0.57098913,-2.4614604,-10.724095,6.844871,-9.040729,5.312783,-2.2294314,-0.5922448,7.8025994,-0.38343915,14.658784,-32.989445,60.47101,22.024038,-3.7932038,0.3716579,-6.9498625,-12.414743,50.038006,65.77625,10.522849,-3.103336,-10.642351
71,0.012604335322976112,-1.4758206605911255,78.46463012695312,-0.610613964376119,0.02725095374913051,89.95834316024416,0.7704949,2.2448375,6.897537,6.8791423,-8.443397,-3.2086751,0.57074803,-2.4726887,-10.70911,6.84425,-9.116389,5.3768816,-2.2686222,-0.5974441,7.823668,-0.39581802,14.626456,-32.97146,60.46083,21.94644,-3.8640525,0.36249322,-6.9809527,-12.427551,49.977535,65.82356,10.438655,-3.28664,-10.671046
72,0.01311766542494297,-1.4592596292495728,78.4713363647461,-0.5916550798559355,0.051942101324563,89.99447705715623,0.7577376,2.215457,6.863165,6.8783917,-8.517764,-3.259438,0.56624544,-2.4921198,-10.697636,6.8449755,-9.197701,5.449596,-2.2976973,-0.6096149,7.8363566,-0.41532966,14.591482,-32.97607,60.462254,21.951315,-3.92772,0.3639049,-7.004053,-12.445494,49.92222,65.86239,10.415703,-3.4646149,-10.740873
73,0.012775683775544167,-1.4417778253555298,78.47644805908203,-0.5651866543790633,0.08446125788869979,90.03940456680475,0.73772985,2.1738493,6.81995,6.87855,-8.592632,-3.2764773,0.55617094,-2.519703,-10.687231,6.846828,-9.2822,5.5282006,-2.327358,-0.633975,7.8411326,-0.4230567,14.567628,-32.98448,60.456467,22.07077,-3.9828582,0.37961125,-7.024953,-12.459893,49.890446,65.89363,10.490023,-3.637569,-10.877915
74,0.011198221705853939,-1.4217778444290161,78.482666015625,-0.5346360745146808,0.12318490743214798,90.0923975438802,0.711833,2.1235905,6.768924,6.8793654,-8.669768,-3.273718,0.5427452,-2.55322,-10.680437,6.847787,-9.367563,5.6101575,-2.3542266,-0.6638801,7.838874,-0.43735424,14.5375,-32.999924,60.46642,22.268652,-4.0373893,0.40775308,-7.0384316,-12.479989,49.850143,65.912346,10.617649,-3.801477,-11.033354
75,0.01204807311296463,-1.400944471359253,78.48888397216797,-0.4985023945058756,0.16724497251785658,90.15065534696977,0.68033004,2.0638793,6.7093487,6.881019,-8.747264,-3.2488532,0.5272352,-2.5947473,-10.681048,6.8499613,-9.460598,5.703684,-2.385412,-0.70028335,7.831706,-0.4431488,14.5166645,-33.027004,60.464764,22.50438,-4.088685,0.43532413,-7.061829,-12.495193,49.82364,65.94254,10.764762,-3.9608116,-11.185678
76,0.009314829483628273,-1.3770333528518677,78.49531555175781,-0.4577647286513988,0.21590389401030408,90.21127824781232,0.6437771,1.9954104,6.6403027,6.883001,-8.823373,-3.1993778,0.5137333,-2.6448965,-10.693166,6.8509097,-9.566567,5.816934,-2.4065206,-0.73605627,7.8189287,-0.4664012,14.488058,-33.094227,60.47583,22.736374,-4.135689,0.45463902,-7.08828,-12.517714,49.806732,65.9824,10.889733,-4.1171765,-11.312495
77,0.007974281907081604,-1.3499126434326172,78.50469207763672,-0.41229087403611686,0.2687371607974856,90.2745542668251,0.60113126,1.9173661,6.5576224,6.885216,-8.893973,-3.1185908,0.50243723,-2.7048507,-10.718012,6.852404,-9.685203,5.9512796,-2.4246116,-0.7722214,7.7986608,-0.4997431,14.45583,-33.202408,60.486664,22.97286,-4.1720605,0.45704395,-7.1096163,-12.5461645,49.786583,66.01742,10.964834,-4.2837987,-11.420599
78,0.010289345867931843,-1.3201121091842651,78.513427734375,-0.36130315794262685,0.3264840551388673,90.34163466790692,0.55286306,1.8297015,6.463142,6.8879485,-8.962176,-3.009843,0.49249387,-2.773403,-10.753518,6.8535614,-9.814006,6.1025214,-2.458589,-0.816252,7.7739263,-0.5133665,14.442395,-33.31722,60.466515,23.234285,-4.2014794,0.44493848,-7.146269,-12.560229,49.783882,66.06828,11.018994,-4.4562345,-11.518053
79,0.01323123462498188,-1.2810922861099243,78.5219955444336,-0.30585273709498256,0.38907818941479855,90.41113054430332,0.49984244,1.7340312,6.3649507,6.891772,-9.034781,-2.88537,0.4814835,-2.8502398,-10.798581,6.8557453,-9.957084,6.270528,-2.4740434,-0.86278296,7.746531,-0.5416581,14.4311695,-33.473316,60.457806,23.479834,-4.2340364,0.43559742,-7.2018747,-12.574102,49.80891,66.15544,11.094507,-4.608434,-11.584564
80,0.012297692708671093,-1.2404848337173462,78.52886199951172,-0.24655879301827752,0.4569897147776301,90.4814929403807,0.44444287,1.6316228,6.270798,6.894778,-9.117297,-2.7570815,0.4689885,-2.934841,-10.852081,6.857886,-10.117888,6.4550676,-2.4744253,-0.910389,7.72431,-0.58036464,14.424121,-33.65032,60.461014,23.685345,-4.2819653,0.43952742,-7.3077717,-12.58436,49.90842,66.3201,11.237212,-4.7167134,-11.598659
81,0.006769055500626564,-1.1948310136795044,78.53746032714844,-0.18039376846158048,0.5356079789930895,90.55999717121503,0.37795278,1.5178211,6.1788354,6.8972335,-9.210303,-2.6232114,0.4507313,-3.0344915,-10.925654,6.8596478,-10.299675,6.6686554,-2.4627426,-0.9616225,7.6973896,-0.6349062,14.418419,-33.868412,60.492714,23.834927,-4.356176,0.46746057,-7.4591665,-12.592753,50.095974,66.57771,11.57448,-4.795914,-11.571205
82,0.005997833795845509,-1.1489629745483398,78.5431900024414,-0.10801722093351168,0.6230364619726737,90.64474270525623,0.30239436,1.3943247,6.0857983,6.9001355,-9.311237,-2.478558,0.4286716,-3.1471548,-11.016352,6.861322,-10.499763,6.90722,-2.4485629,-1.0168172,7.668953,-0.6977467,14.415859,-34.108223,60.539692,23.953928,-4.4490457,0.5087965,-7.652927,-12.596316,50.356018,66.91047,12.042663,-4.8517847,-11.506834
83,-0.0010825416538864374,-1.1122462749481201,78.5469741821289,-0.03604622275608738,0.7083335799174997,90.72124266335904,0.23377007,1.2717482,5.997252,6.903719,-9.420253,-2.329988,0.4101712,-3.2582858,-11.100487,6.864112,-10.713037,7.1456456,-2.4193864,-1.0681639,7.648043,-0.76014155,14.414666,-34.354317,60.5838,24.046507,-4.5385756,0.55302054,-7.895769,-12.593892,50.69185,67.29698,12.419942,-4.842257,-11.383067
84,-0.01084527000784874,-1.061119556427002,78.55103302001953,0.025296788456495117,0.7805826930142028,90.77466804043003,0.18952012,1.1612773,5.918561,6.907171,-9.537826,-2.1844802,0.4035764,-3.3528128,-11.154598,6.866322,-10.932604,7.358994,-2.3631532,-1.108057,7.648501,-0.81648415,14.412815,-34.58091,60.60777,24.125309,-4.6044884,0.58742166,-8.199629,-12.585638,51.10122,67.71768,12.479242,-4.726078,-11.175106
85,-0.015004809014499187,-0.9908020496368408,78.55287170410156,0.0775351987991391,0.8337073995386464,90.79440150971617,0.17841043,1.0632585,5.8502736,6.9123225,-9.666375,-2.036326,0.41198018,-3.4274828,-11.163782,6.8711424,-11.164923,7.544104,-2.2736986,-1.1340659,7.67581,-0.86659646,14.407905,-34.791477,60.607,24.1892,-4.636808,0.6095398,-8.574118,-12.571266,51.594578,68.18474,12.086981,-4.4421177,-10.812505
86,-0.02523333579301834,-0.9287453293800354,78.55192565917969,0.12361190844927294,0.8745834629845173,90.79059086999446,0.18942727,0.97250724,5.7892823,6.9190702,-9.804511,-1.8841375,0.4307882,-3.4902904,-11.1436615,6.87728,-11.410188,7.712964,-2.1488292,-1.1508484,7.72368,-0.9213642,14.4003725,-35.004303,60.596313,24.233332,-4.648042,0.62529075,-9.004217,-12.554271,52.15673,68.696,11.382682,-4.034072,-10.324169
87,-0.04456071928143501,-0.8805999755859375,78.54917907714844,0.1635055754700934,0.912110403763177,90.77932560426595,0.20993637,0.8910357,5.736096,6.925586,-9.9498205,-1.7415959,0.4547065,-3.5444326,-11.114853,6.8833003,-11.65775,7.863435,-2.03566,-1.1578254,7.7763824,-0.9567036,14.383693,-35.166115,60.57675,24.26951,-4.6515937,0.6383174,-9.489174,-12.522452,52.821125,69.24147,10.570671,-3.6168134,-9.841867
88,-0.05997087433934212,-0.8211314678192139,78.54603576660156,0.1965635275486603,0.954853204941021,90.77695996955826,0.22566205,0.82209885,5.691219,6.9322863,-10.099796,-1.6226549,0.47752032,-3.5922856,-11.098593,6.8893533,-11.897284,7.993395,-1.9123591,-1.157852,7.8314896,-0.9940838,14.360487,-35.293324,60.563263,24.298744,-4.659873,0.6492814,-9.992146,-12.483958,53.511784,69.769104,9.817283,-3.297297,-9.496844
89,-0.0768311619758606,-0.7446786761283875,78.54427337646484,0.22002888631009251,1.0004738506373028,90.78882832421817,0.23869184,0.7694565,5.655668,6.9380655,-10.258927,-1.5371107,0.50331074,-3.6320508,-11.101812,6.895414,-12.12946,8.10208,-1.7715968,-1.1488767,7.8952484,-1.0372292,14.335395,-35.39645,60.555935,24.31617,-4.6789064,0.66257024,-10.515047,-12.450997,54.266888,70.27842,9.141633,-3.0967474,-9.338213
90,-0.09103287011384964,-0.6672740578651428,78.54208374023438,0.23505549212567942,1.045965339560977,90.80597048032826,0.25361946,0.73106736,5.628763,6.945003,-10.42749,-1.4763995,0.53233474,-3.6629598,-11.1126995,6.9021597,-12.358334,8.190871,-1.6465578,-1.1270765,7.9662037,-1.0662848,14.299124,-35.436558,60.54701,24.33201,-4.7025886,0.67619,-11.084232,-12.408996,55.133762,70.7956,8.472942,-2.9535594,-9.293166
91,-0.10334068536758423,-0.5927665829658508,78.5340805053711,0.24573943429561967,1.098978561208708,90.82328848276525,0.26450953,0.69992185,5.6106114,6.95082,-10.594898,-1.4234633,0.5564162,-3.68874,-11.124059,6.9081516,-12.579223,8.260408,-1.505979,-1.100609,8.035367,-1.0951905,14.257975,-35.450573,60.535492,24.338486,-4.720186,0.68254125,-11.659645,-12.36698,55.96663,71.27392,7.825397,-2.8564973,-9.31285
92,-0.1148696318268776,-0.5122871398925781,78.52936553955078,0.25659364009244817,1.167108815266104,90.83569777143036,0.2640603,0.6698083,5.600887,6.9565825,-10.752673,-1.3615,0.56509364,-3.7135792,-11.1286125,6.9149976,-12.78822,8.311372,-1.355246,-1.0743328,8.091005,-1.1160995,14.21352,-35.43194,60.511646,24.338165,-4.722505,0.6737039,-12.219756,-12.329039,56.670513,71.679375,7.2282667,-2.7938142,-9.349677
93,-0.13285744190216064,-0.4228096902370453,78.5271224975586,0.2685526897878555,1.2534998143928497,90.8294454781573,0.25238165,0.64136106,5.614621,6.9626665,-10.898112,-1.2790209,0.55293274,-3.7366803,-11.113503,6.9204164,-12.980361,8.33926,-1.1883732,-1.0456752,8.127045,-1.1280423,14.161167,-35.37931,60.47335,24.335281,-4.688314,0.63778687,-12.768924,-12.295347,57.248203,72.01818,6.7343416,-2.800666,-9.412269
94,-0.15088337659835815,-0.3251820504665375,78.52127838134766,0.2786937533594565,1.3536688590946684,90.81140560509844,0.23250017,0.617086,5.6469455,6.9692616,-11.036617,-1.1872588,0.5251028,-3.756643,-11.086004,6.9280734,-13.161358,8.344963,-0.98610425,-1.0163211,8.153791,-1.1404399,14.113093,-35.31999,60.419228,24.319153,-4.6277733,0.5813583,-13.3056965,-12.27743,57.715893,72.2871,6.30621,-2.8694005,-9.520639
95,-0.1653279811143875,-0.2197350412607193,78.51680755615234,0.28783136075287497,1.463878196697602,90.80747224296688,0.20211531,0.5934533,5.6676984,6.9750032,-11.169544,-1.1034813,0.4916212,-3.7757735,-11.069195,6.9348097,-13.334147,8.338067,-0.81096345,-0.98458636,8.17394,-1.1366569,14.050981,-35.192715,60.362244,24.302988,-4.5830617,0.52772933,-13.841077,-12.263976,58.101635,72.49107,5.8673663,-2.925126,-9.643573
96,-0.18323369324207306,-0.12453295290470123,78.51561737060547,0.2935194479904684,1.580152751174811,90.84338522922337,0.15892452,0.56674266,5.6466494,6.9801273,-11.2999525,-1.045233,0.46132872,-3.7962523,-11.086278,6.9421043,-13.505505,8.328028,-0.6613155,-0.9581379,8.19564,-1.1270545,13.9838915,-35.01756,60.31123,24.273428,-4.5929623,0.49876377,-14.353012,-12.256573,58.340298,72.608505,5.308554,-2.8942149,-9.748775
97,-0.19896288216114044,-0.01722833886742592,78.51203155517578,0.29586276545751733,1.6974660964568615,90.93093054612952,0.10791021,0.53629017,5.5712914,6.9838753,-11.432465,-1.0268496,0.4447981,-3.8185153,-11.148197,6.9468956,-13.675821,8.320097,-0.5297047,-0.9434915,8.225204,-1.100759,13.936697,-34.803745,60.241,24.225195,-4.6728477,0.48636344,-14.824906,-12.256939,58.418495,72.633255,4.5868735,-2.739564,-9.854114
98,-0.219751238822937,0.09308567643165588,78.50566864013672,0.29500248992380346,1.819110173868781,91.05468411525739,0.04789826,0.503601,5.459515,6.987819,-11.564778,-1.0359507,0.43253234,-3.8416517,-11.240827,6.954517,-13.844824,8.308488,-0.45046952,-0.9277866,8.254573,-1.0534712,13.871608,-34.495594,60.172447,24.183352,-4.802923,0.48481402,-15.286078,-12.261294,58.408245,72.58899,3.7739558,-2.5047731,-9.964415
99,-0.2333386093378067,0.19839629530906677,78.49899291992188,0.2944357418678076,1.954275921575313,91.19972007072784,-0.030525869,0.46907756,5.326716,6.9904566,-11.687143,-1.0502708,0.41076818,-3.8651013,-11.350262,6.9603424,-14.007092,8.286172,-0.37134123,-0.9232203,8.278117,-0.99117726,13.829425,-34.184486,60.084305,24.10433,-4.958051,0.51083106,-15.73654,-12.268783,58.241394,72.46767,2.9107804,-2.2436237,-10.034153
100,-0.24719619750976562,0.3168434500694275,78.49580383300781,0.2935128696742263,2.111357936934381,91.35135452544878,-0.13683367,0.43261927,5.1880336,6.9923186,-11.791042,-1.0468818,0.36350968,-3.888829,-11.462731,6.9659247,-14.160461,8.246375,-0.32998472,-0.9216023,8.29695,-0.9273802,13.767021,-33.80721,60.015583,24.021738,-5.126173,0.58047307,-16.215267,-12.28675,57.937744,72.263725,2.0434756,-2.0064912,-10.010092
101,-0.25582653284072876,0.4297184348106384,78.49504089355469,0.29645407022095993,2.296654215774438,91.5047116675588,-0.2791019,0.3953513,5.0501113,6.9953685,-11.877596,-1.0158788,0.28096452,-3.9124115,-11.57303,6.972891,-14.303211,8.184234,-0.3042699,-0.9316418,8.293912,-0.83533657,13.720546,-33.4125,59.926807,23.893036,-5.2978635,0.7045007,-16.71107,-12.307144,57.439613,71.96691,1.050532,-1.7701422,-9.809843
102,-0.2691802680492401,0.5329198837280273,78.49201965332031,0.29967588322317207,2.503743249041669,91.66799654906602,-0.44921714,0.35644746,4.903937,6.9974427,-11.949589,-0.9704202,0.17415313,-3.9356909,-11.689221,6.9798613,-14.436699,8.104519,-0.28883573,-0.95094085,8.28347,-0.7471206,13.664773,-32.974667,59.852154,23.750711,-5.4877768,0.86896455,-17.212261,-12.343765,56.733257,71.57147,-0.07520269,-1.5244689,-9.47657
103,-0.29241934418678284,0.6501454710960388,78.48895263671875,0.30285636177557845,2.7243603753385655,91.84584005805105,-0.6381277,0.31468377,4.741283,6.999016,-12.004255,-0.9224452,0.0547168,-3.9596705,-11.816033,6.986111,-14.565328,8.014455,-0.2689052,-0.9700264,8.272031,-0.68106025,13.599526,-32.557728,59.80484,23.577116,-5.690507,1.0690705,-17.711864,-12.409575,55.931557,71.10494,-1.0294018,-1.340089,-9.179913
104,-0.30349671840667725,0.7598565816879272,78.48471069335938,0.30579747968117743,2.950362447972795,92.0430379497855,-0.8365734,0.2692935,4.5537477,6.999592,-12.03812,-0.8839492,-0.066087194,-3.9844863,-11.958351,6.9932413,-14.695203,7.920988,-0.25810695,-0.9835895,8.273082,-0.62987906,13.539627,-32.17609,59.76922,23.372995,-5.904254,1.2924899,-18.225513,-12.501237,55.17056,70.606804,-1.5056117,-1.2790035,-9.090358
105,-0.3136443793773651,0.8673694133758545,78.48329162597656,0.3050101649248211,3.1821559458415725,92.2640735689311,-1.0460417,0.22188897,4.331409,6.997845,-12.043246,-0.86094105,-0.18807991,-4.0068064,-12.117933,7.000002,-14.82727,7.8164964,-0.2614669,-0.9924234,8.289792,-0.5921311,13.490673,-31.82754,59.740177,23.108776,-6.1461983,1.5598149,-18.762371,-12.61602,54.466465,70.08032,-1.3865181,-1.3644123,-9.268147
106,-0.32458603382110596,0.9809166193008423,78.4804916381836,0.3041642982825409,3.423266779569974,92.5052634269624,-1.2709985,0.17157592,4.0816083,6.9955993,-12.023997,-0.84619975,-0.31657693,-4.028526,-12.291631,7.0067043,-14.958963,7.7003627,-0.28196818,-1.0013943,8.315998,-0.5571497,13.4545,-31.493113,59.709763,22.796183,-6.412675,1.8667681,-19.318316,-12.7490225,53.763847,69.50998,-0.84692633,-1.5591791,-9.617376
107,-0.34755921363830566,1.0958729982376099,78.47563934326172,0.3028706064395101,3.669036988803096,92.75867941069203,-1.5126728,0.118059814,3.8214586,7.014801,-12.005756,-0.83161616,-0.4460781,-4.0541763,-12.477895,7.013033,-15.0877075,7.5904026,-0.30886823,-1.00769,8.3546915,-0.5279018,13.429619,-31.179935,59.68047,22.499203,-6.6705675,2.1651385,-19.885078,-12.900492,53.06367,68.91401,-0.02628113,-1.8443077,-10.072758
108,-0.37374353408813477,1.2139441967010498,78.46991729736328,0.30509078847807336,3.916126194141475,93.01750156625822,-1.7562151,0.059931684,3.5671575,7.037829,-11.991674,-0.80953044,-0.57256824,-4.0878167,-12.67625,7.017388,-15.209511,7.503869,-0.3341423,-1.0074177,8.407838,-0.5076409,13.413819,-30.894258,59.65449,22.280096,-6.8853917,2.4076169,-20.452795,-13.069597,52.365437,68.30731,0.9337377,-2.198461,-10.569462
109,-0.39999154210090637,1.3280359506607056,78.46668243408203,0.3108495428079888,4.162191563586868,93.28690605671021,-1.9983741,-0.005647015,3.3169227,7.061432,-11.980812,-0.77342975,-0.6934705,-4.132998,-12.893373,7.023199,-15.326025,7.444256,-0.36348665,-1.0014292,8.476457,-0.50025994,13.404505,-30.635702,59.636982,22.177153,-7.0355673,2.5711002,-21.024614,-13.256944,51.66284,67.69284,2.1435752,-2.6676235,-11.1231985
110,-0.4321244955062866,1.4517234563827515,78.45866394042969,0.3205433787432338,4.409806649448773,93.56861387165151,-2.242277,-0.0774669,3.0640485,7.0839634,-11.966057,-0.72911507,-0.81038445,-4.186702,-13.127925,7.0270853,-15.436329,7.4026723,-0.39881775,-0.99048334,8.558195,-0.5053583,13.400721,-30.402481,59.629555,22.14895,-7.1425943,2.6856182,-21.603354,-13.463459,50.959965,67.06433,3.6275969,-3.2560117,-11.747767
111,-0.4541019797325134,1.567938208580017,78.44772338867188,0.3332323818299644,4.662476984782675,93.8498187288731,-2.4897194,-0.15363462,2.817904,7.1058846,-11.948739,-0.68703073,-0.93122154,-4.2473454,-13.365258,7.030611,-15.541202,7.3781605,-0.4256032,-0.9742703,8.649741,-0.51763123,13.403004,-30.19746,59.62707,22.140024,-7.2364836,2.7832446,-22.18069,-13.687019,50.27243,66.4245,5.1183753,-3.8719342,-12.382861
112,-0.49034571647644043,1.6938049793243408,78.43915557861328,0.3483875020543792,4.9238966501653465,94.11795234047582,-2.7393267,-0.23138209,2.5877051,7.121845,-11.932468,-0.6576586,-1.0621125,-4.312242,-13.591474,7.03336,-15.640932,7.369246,-0.42998424,-0.95218575,8.747784,-0.5308718,13.413134,-30.022276,59.623367,22.096127,-7.3473477,2.8956757,-22.751179,-13.923626,49.619244,65.774864,6.3549714,-4.4113736,-12.978587
113,-0.5316804051399231,1.8195347785949707,78.4280014038086,0.368110608569372,5.190625583900069,94.37084865769805,-2.9872158,-0.31325862,2.3771234,7.1312456,-11.9176855,-0.642118,-1.1994382,-4.3852773,-13.805625,7.034012,-15.73093,7.382184,-0.40964445,-0.9259657,8.856616,-0.5537169,13.432141,-29.88907,59.633183,21.993677,-7.4861326,3.028567,-23.317589,-14.170046,49.00736,65.115425,7.3099437,-4.866969,-13.565368
114,-0.5763799548149109,1.9450823068618774,78.42002868652344,0.39034282412548094,5.461976834202859,94.6148706928554,-3.2344167,-0.39939076,2.180853,7.1363077,-11.903996,-0.6353152,-1.3417985,-4.466067,-14.014157,7.033978,-15.8129,7.4151945,-0.37204337,-0.89507014,8.976244,-0.5846063,13.459931,-29.79229,59.65309,21.865202,-7.6360283,3.165583,-23.884089,-14.4242525,48.426785,64.44585,8.11095,-5.280821,-14.16167
115,-0.6175243258476257,2.071647882461548,78.40760040283203,0.4138008951070537,5.7455027839868436,94.85000145154932,-3.4905193,-0.4845657,1.9951577,7.139318,-11.886762,-0.63808733,-1.4974369,-4.547452,-14.213927,7.0339823,-15.895135,7.4551964,-0.31731364,-0.8574227,9.097991,-0.60381913,13.498111,-29.708443,59.650066,21.73816,-7.7854085,3.3058045,-24.453289,-14.68258,47.870674,63.79031,8.728588,-5.6292706,-14.705665
116,-0.6674555540084839,2.213707685470581,78.39675903320312,0.43315656797792423,6.048539788724196,95.0759550122926,-3.7655468,-0.5643835,1.8164777,7.143896,-11.862654,-0.6512406,-1.6743592,-4.6222777,-14.401347,7.0332274,-15.9844675,7.489266,-0.24652748,-0.81201404,9.213587,-0.58935785,13.549363,-29.612288,59.588028,21.640656,-7.9227405,3.447968,-25.02858,-14.9394655,47.331196,63.17314,9.132706,-5.886416,-15.135571
117,-0.714512050151825,2.3555362224578857,78.38306427001953,0.4494097350259785,6.374200430776771,95.29728031343436,-4.0640793,-0.63808966,1.638313,7.1493006,-11.824741,-0.67420536,-1.8767017,-4.6881347,-14.577931,7.034446,-16.085264,7.5148296,-0.16457,-0.75972646,9.322532,-0.55215114,13.616338,-29.519785,59.490246,21.594927,-8.04318,3.6050615,-25.618292,-15.187997,46.80721,62.611454,9.2349205,-6.0121775,-15.413626
118,-0.7539562582969666,2.481829881668091,78.36847686767578,0.46490645559590926,6.717836092737998,95.51244823752133,-4.38057,-0.7085111,1.4646401,7.155757,-11.778084,-0.70691615,-2.0980573,-4.7490025,-14.744856,7.0341253,-16.19108,7.5388484,-0.070976965,-0.7025871,9.428418,-0.4954209,13.700048,-29.435429,59.361683,21.580421,-8.153321,3.77299,-26.224491,-15.424327,46.30391,62.098034,9.0802355,-6.0270014,-15.58335
119,-0.8062662482261658,2.6267778873443604,78.35391998291016,0.47853505157453685,7.075757773879889,95.71273076488967,-4.7070093,-0.773963,1.3069142,7.16123,-11.731959,-0.750991,-2.3367002,-4.80597,-14.898276,7.03619,-16.301445,7.5627003,0.040068686,-0.63919485,9.5294695,-0.3840663,13.800804,-29.314104,59.137463,21.562075,-8.258485,3.9249258,-26.843603,-15.649017,45.829952,61.621254,8.845433,-5.997209,-15.703521
120,-0.8623479008674622,2.7756993770599365,78.34188842773438,0.488564729757621,7.444167665559332,95.8892502085846,-5.0354257,-0.83282924,1.1766225,7.1639786,-11.6964445,-0.80796564,-2.5872817,-4.8599906,-15.034614,7.0367413,-16.411713,7.587433,0.17303008,-0.56776184,9.624731,-0.18213764,13.918999,-29.108953,58.750504,21.504778,-8.364204,4.033704,-27.461668,-15.8638525,45.37538,61.162163,8.68218,-5.9884386,-15.833516
121,-0.9158435463905334,2.9250853061676025,78.32601928710938,0.49403054019148335,7.822337217978375,96.04413575361558,-5.3674893,-0.881748,1.0731044,7.1646504,-11.671402,-0.88410646,-2.8500237,-4.908033,-15.153789,7.0376873,-16.52517,7.6086245,0.32969242,-0.48660767,9.71882,0.11258323,14.053836,-28.79126,58.200798,21.417864,-8.474351,4.08361,-28.093206,-16.071966,44.958344,60.735092,8.64831,-6.014999,-15.980941
122,-0.9774821996688843,3.08441424369812,78.30795288085938,0.4953680733558228,8.211903335394203,96.18038938315244,-5.705666,-0.9222003,0.99145794,7.1638937,-11.652923,-0.976619,-3.1255167,-4.950062,-15.257614,7.036431,-16.640688,7.627248,0.5050985,-0.3961236,9.811717,0.4865066,14.205255,-28.386024,57.513126,21.314682,-8.585135,4.091197,-28.736849,-16.27257,44.572865,60.339607,8.648161,-6.042658,-16.116793
123,-1.038522720336914,3.2343859672546387,78.29114532470703,0.4960203827910862,8.612692512918391,96.29107971807748,-6.0450983,-0.95952916,0.9364096,7.160934,-11.644226,-1.0734066,-3.414637,-4.9928384,-15.344747,7.038441,-16.757296,7.6518683,0.6952223,-0.2982029,9.894816,0.9530027,14.3761,-27.930098,56.655846,21.163786,-8.690192,4.0770807,-29.37659,-16.46493,44.216713,59.945522,8.659272,-6.0662856,-16.246567
124,-1.1046314239501953,3.4078619480133057,78.26972961425781,0.4981607542901793,9.02466693825311,96.36923840896401,-6.381048,-0.99936545,0.91278577,7.1560698,-11.649552,-1.1622001,-3.7139091,-5.042215,-15.41401,7.037274,-16.866215,7.6911435,0.8961447,-0.19509535,9.960198,1.5271782,14.571752,-27.460276,55.59455,20.933807,-8.783228,4.061336,-29.991568,-16.647594,43.87612,59.519913,8.644934,-6.080264,-16.375242
125,-1.176501989364624,3.589432954788208,78.249755859375,0.5034520729885701,9.453060986432035,96.41236775367952,-6.7202897,-1.0416632,0.92199576,7.149965,-11.667601,-1.2451121,-4.0318694,-5.099492,-15.465054,7.0371685,-16.966543,7.746449,1.1084528,-0.08257735,10.007655,2.2374449,14.79497,-26.946869,54.265503,20.594965,-8.850976,4.03602,-30.592463,-16.820065,43.550987,59.064556,8.596945,-6.0737786,-16.50026
126,-1.2539933919906616,3.77662992477417,78.22882843017578,0.5074043789015616,9.895752651027284,96.42438292234931,-7.06156,-1.0836694,0.96134406,7.141873,-11.697128,-1.326863,-4.365376,-5.160652,-15.4988165,7.035834,-17.059942,7.8132544,1.3313589,0.038583294,10.042091,3.0771742,15.0469265,-26.37876,52.692608,20.170412,-8.899915,3.992767,-31.193104,-16.983496,43.258457,58.596912,8.545112,-6.053453,-16.620443
127,-1.3276253938674927,3.971592426300049,78.20562744140625,0.5119739298558373,10.342345881455595,96.40821631894809,-7.3919106,-1.1260248,1.029249,7.132154,-11.741406,-1.3992916,-4.700109,-5.2253647,-15.515218,7.0339165,-17.1533,7.891465,1.5642134,0.15949129,10.06542,4.0044193,15.331375,-25.826458,50.97409,19.70766,-8.953675,3.9510093,-31.75591,-17.134731,42.975605,58.090954,8.478417,-6.0374227,-16.743185
128,-1.41546630859375,4.168863773345947,78.182373046875,0.519121048180865,10.782399370441759,96.36680990744804,-7.6985946,-1.1692392,1.1241579,7.1222167,-11.804424,-1.4542154,-5.0216937,-5.292953,-15.514814,7.0326138,-17.253855,7.98073,1.8081319,0.27007905,10.077974,4.9762235,15.653548,-25.36281,49.209827,19.25357,-9.036198,3.9305875,-32.25139,-17.272253,42.691856,57.52691,8.402319,-6.0447745,-16.875668
129,-1.4986181259155273,4.388247489929199,78.15653228759766,0.529344474415137,11.216306883157113,96.29571280567819,-7.980027,-1.2140769,1.2544522,7.1098447,-11.884174,-1.4808185,-5.330851,-5.3660355,-15.491826,7.0301347,-17.36397,8.083667,2.068896,0.37087932,10.077095,6.0054917,16.020292,-25.01012,47.372803,18.831755,-9.153549,3.931099,-32.692326,-17.398924,42.419876,56.923107,8.307045,-6.079495,-17.010693
130,-1.586768388748169,4.61348819732666,78.12980651855469,0.5412029084343337,11.648639468752465,96.19504653797291,-8.24395,-1.258851,1.4176377,7.097447,-11.980523,-1.4863188,-5.635166,-5.444207,-15.448096,7.030152,-17.482164,8.199412,2.3468442,0.4657376,10.065795,7.111849,16.43335,-24.728607,45.41729,18.411978,-9.293046,3.942122,-33.077282,-17.514357,42.14047,56.27274,8.174926,-6.1307306,-17.147398
131,-1.6799174547195435,4.851836681365967,78.09903717041016,0.5506694597444431,12.076184018018669,96.07510257903795,-8.4868555,-1.3005768,1.5958697,7.082972,-12.095707,-1.4896604,-5.926781,-5.521983,-15.395105,7.0284033,-17.599693,8.322588,2.6289139,0.54702044,10.049274,8.261971,16.88874,-24.495188,43.422035,17.959915,-9.450649,3.9700196,-33.392883,-17.619337,41.858845,55.541294,8.073098,-6.198729,-17.30396
132,-1.7721304893493652,5.114058971405029,78.06441497802734,0.5540696129314537,12.495535189640448,95.94598285656546,-8.707416,-1.3361615,1.7713368,7.0686836,-12.233795,-1.5098408,-6.1996174,-5.593404,-15.344403,7.0268464,-17.712317,8.44777,2.9057093,0.60908115,10.032579,9.414631,17.377468,-24.290466,41.474392,17.441923,-9.622696,4.0222964,-33.60845,-17.711752,41.551136,54.686657,8.035783,-6.282412,-17.497995
133,-1.8679076433181763,5.394609451293945,78.02733612060547,0.5493106666251253,12.91225854827302,95.80132833408636,-8.90761,-1.3628886,1.9494594,7.0513086,-12.403774,-1.5589273,-6.459633,-5.6569467,-15.29638,7.02522,-17.82976,8.579053,3.1875296,0.6556254,10.003807,10.56887,17.90008,-24.129707,39.575382,16.858995,-9.812149,4.100725,-33.722168,-17.791445,41.216053,53.67757,8.064351,-6.3439827,-17.74764
134,-1.9569523334503174,5.666033744812012,77.9873046875,0.5377230457294832,13.326267178687132,95.6387527022506,-9.088678,-1.3826427,2.1362102,7.0333767,-12.602284,-1.6241065,-6.708966,-5.715822,-15.245898,7.0254507,-17.952148,8.717548,3.4744205,0.6879035,9.963904,11.742764,18.457579,-24.01372,37.688625,16.22653,-10.020348,4.201594,-33.75229,-17.861002,40.869022,52.5446,8.150242,-6.3967957,-18.039555
135,-2.040869951248169,5.951299667358398,77.9458236694336,0.5244760370770118,13.725994026582221,95.47393432851234,-9.244863,-1.4004071,2.3150415,7.0164895,-12.809641,-1.6870223,-6.93452,-5.771183,-15.195941,7.0273743,-18.056627,8.853736,3.7453656,0.69793177,9.936306,12.913598,19.03551,-23.906488,35.85823,15.533259,-10.242311,4.32657,-33.684654,-17.91837,40.49289,51.33467,8.2924595,-6.516554,-18.343252
136,-2.1229891777038574,6.251867294311523,77.90265655517578,0.5122531521000245,14.100024259111477,95.32269709970474,-9.369507,-1.4229695,2.4697716,7.0022645,-13.006943,-1.7295296,-7.12248,-5.824706,-15.149666,7.029278,-18.120163,8.977754,3.9789035,0.68019104,9.942128,14.050165,19.60972,-23.77302,34.14202,14.770511,-10.473044,4.479621,-33.512436,-17.958988,40.080837,50.1044,8.500026,-6.7797146,-18.628582
137,-2.208768129348755,6.568095684051514,77.8560791015625,0.49590081972428546,14.453595950290806,95.18341867729492,-9.4660225,-1.445158,2.599145,6.9895062,-13.198808,-1.7616798,-7.2804418,-5.8809958,-15.112848,7.0361776,-18.15399,9.100104,4.176666,0.63905597,9.969532,15.174282,20.16328,-23.568539,32.543205,13.906987,-10.7346945,4.622961,-33.233185,-17.98164,39.648335,48.82232,8.779025,-7.2135997,-18.904049
138,-2.2906980514526367,6.884679317474365,77.810302734375,0.4769411080289447,14.792653106164908,95.04688732171483,-9.538622,-1.4677794,2.7140694,6.9779763,-13.392124,-1.7877525,-7.4229884,-5.9422803,-15.078248,7.063597,-18.172953,9.220935,4.3463793,0.5787152,10.0068245,16.278875,20.692072,-23.321852,31.059652,12.962815,-11.023617,4.769362,-32.862278,-17.986328,39.209137,47.489067,9.131873,-7.776662,-19.17871
139,-2.3759570121765137,7.2188310623168945,77.76335144042969,0.45891914068184664,15.098383396677287,94.92801414532235,-9.573717,-1.4955388,2.8023875,6.9698377,-13.570069,-1.7830938,-7.5096784,-5.9900036,-15.045667,7.0654793,-18.128653,9.311548,4.452754,0.5587008,10.060649,17.173883,21.041075,-23.13476,29.917904,12.049209,-11.303822,5.0182953,-32.424137,-17.966537,38.775764,46.246178,9.542501,-8.438436,-19.425276
140,-2.4610064029693604,7.557180404663086,77.72587585449219,0.42849246062209795,15.348210742984389,94.84973793626327,-9.558347,-1.5152525,2.8387735,6.9760427,-13.719497,-1.7271234,-7.4673405,-5.981637,-15.029074,6.94316,-17.951422,9.336551,4.4939637,0.53736305,10.198848,17.924698,21.421247,-23.066454,28.931416,11.177186,-11.528879,5.428138,-31.887033,-17.910875,38.25038,45.112564,9.987488,-9.1740265,-19.610033
141,-2.545382261276245,7.90311861038208,77.69214630126953,0.42086167228374777,15.583620174282652,94.77858721238626,-9.528101,-1.5712744,2.8613114,6.9772325,-13.824521,-1.601651,-7.4714813,-6.0120783,-14.978406,6.9460416,-17.781847,9.308919,4.4854693,0.4998345,10.363228,18.46812,21.73062,-23.14762,28.245955,10.347526,-11.682373,6.0836673,-31.2461,-17.820114,37.647102,44.12077,10.524161,-10.06829,-19.67844
142,-2.6249659061431885,8.252891540527344,77.65441131591797,0.41166150662150625,15.790237336555476,94.7402800118139,-9.473706,-1.625411,2.836048,6.989588,-13.89909,-1.4328194,-7.4544125,-6.043839,-14.933378,6.9853363,-17.594717,9.219286,4.4640336,0.4301181,10.568936,18.872087,22.114443,-23.384375,27.735388,9.488908,-11.786696,6.927376,-30.487194,-17.649454,36.883408,43.242687,11.106254,-11.111545,-19.647266
143,-2.709291934967041,8.600141525268555,77.61381530761719,0.39621190083768715,15.94800224356703,94.70908007256533,-9.365841,-1.6726156,2.8045115,7.007386,-13.953889,-1.2281824,-7.451563,-6.076576,-14.835552,7.155991,-17.381903,9.037469,4.425954,0.33576563,10.839373,19.134409,22.562803,-23.742403,27.334866,8.68262,-11.876671,7.8430343,-29.70041,-17.37004,36.06922,42.550255,11.657186,-12.121156,-19.631105
144,-2.7806851863861084,8.948391914367676,77.57656860351562,0.35556755277075364,16.014989227224287,94.68543150580489,-9.160658,-1.685444,2.7749357,7.0401473,-14.00959,-0.99941385,-7.346591,-6.048806,-14.674207,7.2969255,-17.009827,8.729781,4.32566,0.2929372,11.221475,19.172115,22.937086,-24.177837,27.094465,8.060783,-11.990247,8.711615,-28.93646,-17.044773,35.339165,42.040054,12.103078,-12.906544,-19.74673
145,-2.8624837398529053,9.30762767791748,77.53707122802734,0.3004092995835845,15.966410254973418,94.65305046156061,-8.822568,-1.6751966,2.7713609,7.0805035,-14.063545,-0.7208736,-7.1390557,-5.968824,-14.396387,7.47304,-16.503754,8.306706,4.1936936,0.274196,11.746904,18.956734,23.250456,-24.750835,27.044863,7.639013,-12.097617,9.585492,-28.16566,-16.667532,34.62942,41.677242,12.356967,-13.3609,-20.014996
146,-2.9317281246185303,9.65665340423584,77.49945831298828,0.25780450515331127,15.822305368462999,94.61414235573918,-8.388803,-1.673916,2.790685,7.1551304,-14.125251,-0.39059475,-6.876196,-5.900481,-14.015517,7.725255,-15.912478,7.780106,4.0318184,0.24558832,12.390858,18.51538,23.510515,-25.458557,27.188917,7.3700676,-12.189328,10.4995365,-27.379173,-16.234652,33.92551,41.466713,12.488737,-13.601032,-20.381914
147,-2.9989211559295654,10.000551223754883,77.44998931884766,0.28103790848578863,15.62136382265163,94.57940033198742,-7.895228,-1.7480913,2.8346465,7.239347,-14.184415,-0.047404103,-8.591112,-6.416138,-13.365103,12.330102,-17.479315,7.145509,3.8462079,0.16270524,13.1061535,17.872276,23.729042,-26.235785,27.44791,7.2281265,-12.318564,11.313673,-26.619316,-15.761459,33.304214,41.47716,12.611397,-13.77895,-20.845043
148,-3.067920684814453,10.351367950439453,77.38150024414062,0.4188350351988408,15.403160626849196,94.5647078575898,-7.3896976,-1.95936,2.8967874,7.3305283,-14.242484,0.2705389,-10.535501,-7.1100993,-12.67821,17.358343,-19.111666,6.390292,3.6395535,-0.013953377,13.844409,17.049849,23.918993,-27.01477,27.741457,7.1881375,-12.538982,11.887002,-25.925428,-15.278429,32.84874,41.76609,12.848114,-14.047988,-21.401777
149,-3.135890483856201,10.675506591796875,77.28575134277344,0.6899785535107453,15.144729188578594,94.56280669094781,-6.85333,-2.3366733,2.9803803,7.435036,-14.314467,0.55048454,-12.563139,-7.9500275,-11.933182,22.611883,-20.621454,5.4797473,3.421615,-0.31044433,14.638469,16.036547,24.089525,-27.782602,28.043777,7.235136,-12.842975,12.109637,-25.293049,-14.807433,32.5876,42.345478,13.262523,-14.478642,-22.12041
150,-3.21382474899292,10.986268043518066,77.16278839111328,1.0861679466748164,14.82951896675435,94.57663793534431,-6.6663218,-2.843319,3.0964613,8.403262,-14.844666,0.8162198,-14.6250925,-8.88831,-11.121311,28.041725,-22.000532,4.461211,3.190695,-0.7237738,15.509485,14.832675,24.241192,-28.5732,28.377007,7.378769,-13.206527,12.0779505,-24.6776,-14.354866,32.468536,43.14467,13.780699,-14.982231,-22.977549
151,-3.2993390560150146,11.297736167907715,77.01286315917969,1.552219039245126,14.51794481802037,94.63487385365289,-6.665677,-3.422215,3.2070377,9.749204,-15.548442,1.0759771,-16.631075,-9.853045,-10.363484,33.23527,-23.170336,3.432479,2.9363601,-1.1887182,16.379005,13.464085,24.368107,-29.392998,28.746017,7.633205,-13.661525,11.963977,-24.049278,-13.934706,32.446163,44.092358,14.314624,-15.4739895,-23.83285
152,-3.4051644802093506,11.625646591186523,76.85108947753906,2.0260503216688255,14.272735930681078,94.7634369081969,-6.744425,-4.008095,3.275405,11.101494,-16.20741,1.3365548,-18.543211,-10.805358,-9.768918,37.88034,-24.116682,2.4682136,2.646996,-1.6305412,17.168306,11.95389,24.460802,-30.24702,29.158411,8.017133,-14.239784,11.941615,-23.375017,-13.564527,32.472416,45.110912,14.777652,-15.863749,-24.547115
153,-3.5130321979522705,11.940229415893555,76.6801528930664,2.504084234231174,14.100249594693466,94.98472298058847,-6.975893,-4.59791,3.3001235,12.585084,-16.856613,1.6068861,-20.4107,-11.790157,-9.359991,42.08396,-24.873268,1.5457351,2.310801,-2.026604,17.876232,10.249103,24.515635,-31.180918,29.669487,8.576747,-15.011848,12.0340805,-22.65072,-13.263105,32.543358,46.199356,15.126976,-16.111706,-25.12564
154,-3.6239259243011475,12.262632369995117,76.50111389160156,2.9908772707366507,13.973991817569482,95.27849695506282,-7.328329,-5.1983724,3.2945201,14.19525,-17.51199,1.8766031,-22.275354,-12.816008,-9.084198,46.059093,-25.49045,0.6331358,1.9431478,-2.3897212,18.53892,8.346457,24.527252,-32.176216,30.256409,9.291533,-15.939282,12.166069,-21.874443,-13.041944,32.674072,47.3635,15.421549,-16.266748,-25.628616
155,-3.7246878147125244,12.619837760925293,76.32513427734375,3.4469388996990555,13.907897668203018,95.6066161363276,-7.746409,-5.755823,3.258053,15.810825,-18.157133,2.121258,-24.11409,-13.818332,-8.928794,49.68727,-26.009312,-0.23064134,1.5632437,-2.6997042,19.132193,6.3459573,24.483038,-33.134,30.815722,10.086373,-16.888124,12.362643,-21.03223,-12.904637,32.857903,48.55447,15.734016,-16.369305,-26.000553
156,-3.813025712966919,12.991433143615723,76.15538024902344,3.8325619172963488,13.91697611643446,95.93076146904014,-8.183841,-6.2218876,3.1920288,17.329338,-18.774736,2.313942,-25.912964,-14.733982,-8.880471,52.853607,-26.478136,-1.012029,1.1853701,-2.935455,19.628,4.346649,24.370426,-33.9536,31.25662,10.8877325,-17.72514,12.643364,-20.118624,-12.847615,33.095573,49.73685,16.13863,-16.46067,-26.1853
157,-3.9067273139953613,13.384387969970703,75.98060607910156,4.126236455358703,14.032042619583336,96.26460188573724,-8.706436,-6.571859,3.08209,18.812262,-19.37709,2.4390962,-27.697405,-15.572462,-8.994768,55.532166,-26.95301,-1.7221222,0.7871582,-3.0654833,19.995625,2.3169758,24.185205,-34.64399,31.646297,11.649634,-18.442812,13.04219,-19.159855,-12.867138,33.41853,50.976234,16.70363,-16.521366,-26.100607
158,-3.9994847774505615,13.779459953308105,75.80542755126953,4.350534047385146,14.23788889558845,96.62111806940749,-9.316269,-6.837891,2.9369595,20.291714,-19.969185,2.5074472,-29.48298,-16.373375,-9.258896,57.824276,-27.423288,-2.3857398,0.35876656,-3.095983,20.254797,0.22322585,23.928598,-35.22589,32.014732,12.428071,-19.100779,13.540423,-18.166565,-12.96164,33.827297,52.286617,17.375715,-16.534449,-25.800632
159,-4.085568428039551,14.217355728149414,75.63321685791016,4.5318309275771975,14.480461043201506,96.95991728047971,-9.858048,-7.0599885,2.787004,21.5938,-20.516819,2.5313313,-31.247421,-17.113693,-9.558584,59.801357,-27.82529,-2.9868538,-0.06474555,-3.0666695,20.448217,-1.8439207,23.601624,-35.627544,32.230385,13.299597,-19.668575,14.073961,-17.108751,-13.127372,34.27367,53.56199,18.042635,-16.548086,-25.43203
160,-4.167697429656982,14.668045997619629,75.46355438232422,4.703415208297037,14.705092486099154,97.24049896622157,-10.17888,-7.275004,2.6603074,22.547586,-20.989473,2.5323596,-32.96661,-17.765696,-9.782409,61.521484,-28.087822,-3.5046616,-0.4472236,-3.024308,20.615532,-3.7949734,23.20819,-35.787983,32.168682,14.33812,-20.116894,14.576427,-15.952019,-13.359367,34.70774,54.696777,18.592176,-16.615364,-25.140255
161,-4.249757289886475,15.14434814453125,75.3028335571289,4.870900801653297,14.913068294171685,97.43994268957547,-10.248264,-7.485167,2.5737681,23.099327,-21.391024,2.5103765,-34.668995,-18.321032,-9.89914,62.9838,-28.206945,-3.9353404,-0.7518351,-2.9854088,20.756016,-5.645275,22.74893,-35.694794,31.874302,15.647103,-20.424995,15.082356,-14.694803,-13.656438,35.157753,55.750885,19.05765,-16.76465,-24.874725
162,-4.33060884475708,15.662150382995605,75.14511108398438,5.018919952450012,15.128532776975932,97.58371835665893,-10.146806,-7.670466,2.5056167,23.348238,-21.73901,2.4632862,-36.362873,-18.794777,-9.973564,64.16734,-28.215439,-4.287839,-1.0058436,-2.925562,20.844852,-7.4414644,22.228947,-35.38987,31.409746,17.155426,-20.609636,15.604811,-13.355425,-14.017761,35.633575,56.763557,19.47913,-16.963854,-24.586376
163,-4.421194076538086,16.211084365844727,75.00086975097656,5.148101676141005,15.331720181052638,97.70374646421028,-9.891767,-7.8329844,2.4247365,23.360712,-22.018755,2.4122627,-37.99291,-19.188473,-10.038779,65.09413,-28.092443,-4.557392,-1.2604069,-2.8361797,20.886522,-9.143699,21.663803,-34.911953,30.672384,18.671257,-20.703064,16.042799,-11.910973,-14.436349,36.04535,57.579685,19.752981,-17.181223,-24.422096
164,-4.500879764556885,16.770662307739258,74.8656005859375,5.255154514623692,15.50257721623206,97.83165429358237,-9.503847,-7.974318,2.301109,23.210201,-22.219042,2.3762884,-39.503723,-19.50668,-10.12647,65.78714,-27.817266,-4.738385,-1.56198,-2.712888,20.888914,-10.707619,21.077137,-34.30454,29.545338,20.000116,-20.743917,16.29638,-10.329928,-14.9018545,36.296043,58.03554,19.7726,-17.387062,-24.5297
165,-4.584266185760498,17.365489959716797,74.74691009521484,5.350595432312242,15.625657865275878,97.96131553850762,-8.942133,-8.109336,2.1348135,22.855272,-22.34189,2.3687644,-40.89854,-19.747252,-10.213117,66.24957,-27.326405,-4.8239512,-1.889592,-2.5737848,20.865704,-12.102187,20.47895,-33.526043,27.917185,21.192677,-20.755793,16.285112,-8.570182,-15.410183,36.377987,58.107864,19.325245,-17.590258,-25.076328
166,-4.660736560821533,17.988494873046875,74.64340209960938,5.431804200198553,15.715469389548382,98.08057293809237,-8.214743,-8.227166,1.9375211,22.28598,-22.396051,2.376877,-42.203068,-19.90836,-10.293336,66.47015,-26.648823,-4.8164988,-2.2213893,-2.4233203,20.81103,-13.367077,19.874887,-32.58548,25.865665,22.3114,-20.720854,16.075428,-6.642131,-15.95835,36.316456,57.85996,18.522284,-17.79294,-25.943304
167,-4.72755241394043,18.64638900756836,74.56541442871094,5.475606842014125,15.796214254596991,98.2119885494425,-7.396352,-8.2934675,1.6956786,21.58624,-22.359156,2.3782744,-43.390125,-19.9958,-10.429254,66.446526,-25.903675,-4.7241783,-2.598507,-2.2401083,20.705202,-14.554089,19.287596,-31.605598,23.540337,23.178555,-20.612421,15.788507,-4.592603,-16.536339,36.06368,57.257946,17.746553,-17.963654,-26.847174
168,-4.790885925292969,19.324155807495117,74.5047607421875,5.465489232825938,15.892176487438103,98.37822536649001,-6.558665,-8.275646,1.3971918,20.832466,-22.209972,2.3512433,-44.432446,-20.019531,-10.682044,66.17684,-25.210785,-4.5564294,-3.0589907,-2.004125,20.532644,-15.696919,18.74923,-30.711945,21.066633,23.612774,-20.39845,15.546617,-2.4638636,-17.12955,35.57017,56.263344,17.380907,-18.087921,-27.500135
169,-4.847201347351074,20.04568099975586,74.46845245361328,5.400920265585501,16.003791096401123,98.5945872768725,-5.703286,-8.175114,1.0254154,20.02248,-21.95278,2.2996905,-45.321846,-19.976145,-11.050767,65.63629,-24.591894,-4.2802844,-3.6272972,-1.7193836,20.296274,-16.749548,18.277826,-29.920025,18.315935,23.44605,-20.040504,15.377057,-0.20395587,-17.7203,34.750607,54.741234,17.606398,-18.173388,-27.860271
170,-4.897594451904297,20.777437210083008,74.45277404785156,5.293700332646791,16.1204878903455,98.84567701007798,-4.8012686,-8.004665,0.59471786,19.126656,-21.59866,2.2305636,-46.073048,-19.86105,-11.506196,64.830345,-23.985838,-3.9026806,-4.2737017,-1.4018786,20.012169,-17.687088,17.87836,-29.174488,15.226463,22.810057,-19.555767,15.222908,2.206001,-18.296919,33.64632,52.73302,18.192303,-18.230328,-28.065464
171,-4.932348728179932,21.556591033935547,74.46382904052734,5.137981399881839,16.250408847872436,99.10775755205451,-3.8820412,-7.752851,0.14110804,18.187439,-21.13349,2.1284318,-46.697395,-19.688393,-12.064655,63.80765,-23.388924,-3.493321,-4.9632893,-1.0500125,19.686462,-18.552017,17.564684,-28.484585,12.0012865,21.976702,-18.996775,15.077479,4.66585,-18.85225,32.409657,50.46982,18.904127,-18.253254,-28.097315
172,-4.948907375335693,22.362794876098633,74.4985122680664,4.929180892575485,16.4015382024893,99.35654082269127,-2.978466,-7.4098372,-0.29941583,17.2559,-20.547894,1.9791195,-47.205265,-19.472618,-12.743756,62.617184,-22.797375,-3.121312,-5.6645627,-0.6639916,19.324123,-19.38301,17.355541,-27.857908,8.835264,21.214487,-18.419168,14.926167,7.058936,-19.384012,31.19847,48.19886,19.505571,-18.236664,-27.939854
173,-4.965608596801758,23.20321273803711,74.55632019042969,4.660280487703039,16.577391775097475,99.610054627305,-2.0776584,-6.95954,-0.7568555,16.294573,-19.831135,1.7643106,-47.578537,-19.232313,-13.599172,61.244602,-22.249334,-2.7991285,-6.4076185,-0.23502055,18.919619,-20.172974,17.26694,-27.298777,5.6757536,20.511868,-17.801071,14.753662,9.371168,-19.890312,30.04399,45.91805,19.957497,-18.168755,-27.56918
174,-4.979822158813477,24.080480575561523,74.63092041015625,4.337990225813207,16.773304635196702,99.87181870221687,-1.1763247,-6.416116,-1.235689,15.306288,-18.99712,1.4970487,-47.81923,-18.951765,-14.601564,59.668003,-21.729828,-2.4886355,-7.2082186,0.22790171,18.48082,-20.877165,17.306078,-26.792664,2.4066436,19.749521,-17.124678,14.573939,11.64496,-20.36548,28.880816,43.523766,20.3778,-18.051718,-27.003942
175,-4.972614288330078,24.983539581298828,74.72378540039062,3.986002936607522,16.98443176432813,100.09621367470378,-0.30850613,-5.8197756,-1.6650525,14.377588,-18.06665,1.2140871,-47.96589,-18.584045,-15.641906,57.921497,-21.152584,-2.1843314,-8.014521,0.69741094,18.029093,-21.480257,17.474895,-26.319946,-0.86925375,19.032911,-16.454678,14.4060545,13.833169,-20.806105,27.725206,41.12923,20.76529,-17.905224,-26.291552
176,-4.964778423309326,25.91716957092285,74.82794189453125,3.6274317038626074,17.204603433424904,100.23732574454526,0.48450115,-5.2122493,-1.973398,13.613997,-17.060019,0.94946265,-48.058792,-18.087751,-16.608189,56.041096,-20.43446,-1.882466,-8.777344,1.145358,17.581512,-21.969604,17.7727,-25.857338,-4.039731,18.467049,-15.857907,14.262756,15.877351,-21.210901,26.598316,38.8611,21.1189,-17.75089,-25.48055
177,-4.948512554168701,26.878585815429688,74.94578552246094,3.2496623205683997,17.44197756211593,100.28566227876702,1.2059458,-4.5819345,-2.145524,12.997432,-15.961104,0.71476567,-48.10132,-17.451914,-17.519136,54.006332,-19.548588,-1.6003994,-9.496315,1.5829313,17.123552,-22.3583,18.206217,-25.403366,-7.091334,18.12475,-15.345092,14.173276,17.757929,-21.587105,25.501593,36.75206,21.408428,-17.597567,-24.49596
178,-4.935279369354248,27.874404907226562,75.07183837890625,2.848056165723824,17.693216791353137,100.2632722545282,1.8761269,-3.921593,-2.2212229,12.488001,-14.766867,0.4915915,-48.072445,-16.695166,-18.411146,51.798306,-18.537756,-1.333558,-10.197102,2.0184555,16.65421,-22.639067,18.778944,-24.963076,-10.099745,17.93066,-14.884632,14.116116,19.495268,-21.94081,24.430126,34.742905,21.64066,-17.433252,-23.34343
179,-4.920511245727539,28.899824142456055,75.19862365722656,2.4517986385929245,17.934882315076162,100.17276627477548,2.4813616,-3.274515,-2.2137654,12.156567,-13.514439,0.26837334,-47.972126,-15.821875,-19.202124,49.455112,-17.425753,-1.0490874,-10.870996,2.4223626,16.205652,-22.778402,19.480274,-24.52084,-13.061623,17.767467,-14.484262,14.027009,21.079317,-22.268862,23.399157,32.839413,21.871552,-17.251469,-22.191349
180,-4.891260147094727,29.952346801757812,75.3259506225586,2.086286175894597,18.14371819837899,100.01892986828501,3.0197837,-2.6788023,-2.1394396,12.049044,-12.231286,0.032345507,-47.797146,-14.83855,-19.813992,47.01469,-16.232273,-0.71553314,-11.510843,2.7671745,15.806294,-22.745325,20.290825,-24.059017,-15.956065,17.521976,-14.149947,13.842415,22.491722,-22.561586,22.427706,31.061956,22.157608,-17.046747,-21.208855
181,-4.857295989990234,31.025314331054688,75.44734954833984,1.7359299130209647,18.324191129011222,99.78249039220076,3.4893837,-2.120785,-1.971146,12.16914,-10.899376,-0.22262025,-47.547153,-13.696421,-20.211468,44.416695,-14.85285,-0.34694648,-12.102981,3.0580428,15.443312,-22.559639,21.20544,-23.55191,-18.793495,17.21338,-13.843321,13.46599,23.703485,-22.815735,21.522905,29.442556,22.515188,-16.795712,-20.41338
182,-4.828071117401123,32.113990783691406,75.566650390625,1.39087243788811,18.48152386475492,99.47233505532506,3.90479,-1.5821681,-1.7194929,12.478855,-9.503913,-0.49133283,-47.205215,-12.410796,-20.441153,41.64614,-13.308228,0.04455811,-12.658316,3.3096018,15.105295,-22.22995,22.224016,-23.007685,-21.568588,16.88879,-13.574326,12.955775,24.717598,-23.037281,20.677877,27.981739,22.909311,-16.511068,-19.726294
183,-4.791816234588623,33.233253479003906,75.6739273071289,1.0765213405068506,18.596250491342744,99.13711426085518,4.2951045,-1.0918633,-1.4568665,12.945013,-8.066505,-0.77010673,-46.74177,-11.085739,-20.554632,38.808914,-11.8102045,0.49135295,-13.208048,3.510418,14.82131,-21.709885,23.325693,-22.45648,-24.22813,16.478184,-13.420919,12.481853,25.56269,-23.226864,19.891691,26.655699,23.322412,-16.242086,-19.172012
184,-4.765704154968262,34.36854553222656,75.76261138916016,0.8226964017861323,18.650230544779404,98.82578710000253,4.677151,-0.68028045,-1.2537005,13.552516,-6.61744,-1.053058,-46.133648,-9.825066,-20.607878,36.01705,-10.570646,1.0257139,-13.776435,3.6479828,14.616748,-20.973763,24.47401,-21.934784,-26.687399,15.914384,-13.462027,12.21277,26.269379,-23.381538,19.158178,25.444645,23.737837,-16.039309,-18.773764
185,-4.734984397888184,35.523216247558594,75.82843017578125,0.6385985510062157,18.640961099602347,98.5443459440978,5.061854,-0.352028,-1.0940605,14.286856,-5.1457815,-1.3059347,-45.359314,-8.616717,-20.5742,33.206608,-9.676228,1.7132391,-14.363225,3.7190452,14.486645,-20.071949,25.649145,-21.460678,-28.859764,15.183464,-13.82581,12.231617,26.859005,-23.496443,18.439392,24.341824,24.17141,-15.912662,-18.542067
186,-4.7138872146606445,36.70924758911133,75.87162780761719,0.5156220416433624,18.57455387727787,98.27788023071983,5.446618,-0.09494157,-0.9575585,15.1431675,-3.6311588,-1.540258,-44.41918,-7.432714,-20.444656,30.333275,-8.996465,2.5143692,-14.951554,3.7273629,14.415427,-19.037691,26.839855,-21.019789,-30.759964,14.3260975,-14.438256,12.424271,27.31587,-23.569847,17.742207,23.362919,24.625925,-15.839095,-18.461279
187,-4.69454288482666,37.90727615356445,75.89293670654297,0.4477798081290229,18.451172754424377,98.03877545825763,5.8308244,0.08712439,-0.9039914,16.10349,-2.0802627,-1.8174706,-43.350067,-6.346221,-20.30377,27.573376,-8.430409,3.307232,-15.531788,3.673296,14.407448,-17.832521,28.014063,-20.603338,-32.440174,13.358688,-15.076801,12.665352,27.617788,-23.603853,17.124577,22.523548,25.065536,-15.822023,-18.513628
188,-4.6676506996154785,39.11018753051758,75.88945770263672,0.42393618604143474,18.276515577107645,97.83137335171529,6.202193,0.19473723,-0.9896501,17.163704,-0.5080881,-2.2009387,-42.211277,-5.416503,-20.234257,25.12817,-7.886953,3.9738355,-16.084055,3.5660303,14.461007,-16.428349,29.126442,-20.207495,-33.93742,12.299779,-15.51689,12.833754,27.75097,-23.60196,16.64266,21.833324,25.455582,-15.862722,-18.683077
189,-4.642340660095215,40.324546813964844,75.86664581298828,0.4754994425325093,18.036941221800486,97.66020196577392,6.613026,0.18348981,-1.2277938,18.25787,1.1149877,-2.6870325,-40.910114,-4.660484,-20.303383,22.8218,-7.2648525,4.794033,-16.607815,3.3797493,14.568936,-14.814592,30.14081,-19.861229,-35.216183,11.086572,-15.707737,12.923887,27.731943,-23.567678,16.30787,21.30342,25.770397,-15.99608,-19.049637
190,-4.614489555358887,41.56420135498047,75.81562042236328,0.6000503145275473,17.739847473982515,97.51481900183659,7.039149,0.06685162,-1.586154,19.424128,2.7809153,-3.2423463,-39.473713,-4.0403514,-20.449553,20.649086,-6.642239,5.733913,-17.087547,3.1210272,14.71575,-13.068066,31.04412,-19.590065,-36.20628,9.741279,-15.768421,12.984199,27.581446,-23.500309,16.078817,20.921507,26.034943,-16.211456,-19.593962
191,-4.579835414886475,42.81179428100586,75.7411117553711,0.7055086925198093,17.43718576695576,97.35944354573144,7.326462,-0.046053573,-2.0414975,20.8487,4.3957562,-3.9051087,-38.175346,-3.509101,-20.570908,19.108429,-6.227,6.1987877,-17.460009,2.8768897,14.883809,-11.29923,31.827454,-19.395044,-36.890446,8.408349,-15.724443,12.982571,27.291145,-23.397165,15.927172,20.666754,26.290682,-16.440767,-20.148844
192,-4.538520812988281,44.06391525268555,75.6610107421875,0.6805539325021331,17.185826875030166,97.15151102333843,7.328392,-0.03980891,-2.5677648,22.701391,5.866036,-4.73722,-37.304314,-3.0096014,-20.574377,18.72896,-6.252652,5.5845084,-17.658897,2.7560093,15.059849,-9.6176405,32.484547,-19.275846,-37.250736,7.2306156,-15.599488,12.886818,26.84669,-23.254763,15.82718,20.52323,26.582525,-16.61596,-20.546608
193,-4.489498138427734,45.30656814575195,75.58430480957031,0.46292630120884143,17.028171674485606,96.84478594093054,7.0227585,0.097029574,-3.1765199,25.001925,7.125911,-5.780949,-37.089836,-2.49968,-20.355276,19.965729,-6.7709365,3.1474807,-17.634388,2.8244555,15.21595,-8.018474,33.002117,-19.264877,-37.27205,6.2083488,-15.3308935,12.677599,26.24562,-23.063477,15.754529,20.512733,26.970572,-16.70926,-20.727404
194,-4.421857833862305,46.53776931762695,75.50659942626953,0.15097269956203987,16.901547691455413,96.4940146599404,6.545347,0.2396542,-3.9034836,27.608326,8.2488,-7.0401382,-37.318867,-2.0261326,-20.012169,22.43576,-7.607458,-0.6013879,-17.438316,2.9880018,15.372733,-6.5137453,33.374023,-19.401985,-36.92063,5.2798295,-14.924325,12.374418,25.515898,-22.819067,15.713056,20.632019,27.41292,-16.759184,-20.786053
195,-4.351892471313477,47.78441619873047,75.39041137695312,-0.1324188731674393,16.71121843012744,96.2007709692565,5.9698668,0.29733816,-4.7538257,30.480736,9.334645,-8.531428,-37.60354,-1.6588663,-19.719809,25.38224,-8.687481,-4.375352,-17.159756,3.1217108,15.592177,-5.20659,33.613197,-19.676773,-36.180134,4.4933453,-14.50552,12.000586,24.67902,-22.531796,15.726608,20.828007,27.803476,-16.796062,-20.786806
196,-4.266034126281738,49.01136779785156,75.2575454711914,-0.3245837141893021,16.39741522370686,96.02741165659792,5.29984,0.24567343,-5.700474,33.66673,10.44075,-10.26815,-37.582584,-1.4334061,-19.60009,28.072529,-10.042702,-6.8958564,-16.862585,3.1571758,15.929346,-4.160869,33.74457,-20.04734,-35.061123,3.8932047,-14.203335,11.580123,23.737617,-22.223028,15.828252,21.051956,28.03998,-16.850536,-20.793093
197,-4.170553684234619,50.22954177856445,75.08711242675781,-0.4045534370044487,15.937022510037954,96.00668451086902,4.5271215,0.00460259,-6.859872,37.289436,11.755524,-12.4960375,-37.196674,-1.4479026,-19.67521,30.541794,-11.943758,-7.6233344,-16.574583,3.0774162,16.404438,-3.3434565,33.785786,-20.487324,-33.588882,3.4639893,-14.019413,11.043025,22.70131,-21.89661,16.035465,21.297241,28.101233,-16.941706,-20.781298
198,-4.084362983703613,51.41727828979492,74.86366271972656,-0.4111166667405664,15.375041664574555,96.0814954990169,3.6357348,-0.43970624,-8.124186,41.360615,13.107775,-15.000033,-36.63976,-1.6834015,-19.846966,33.14398,-14.345897,-7.3032427,-16.255396,2.9209664,16.986855,-2.6869905,33.74407,-20.996145,-31.797087,3.187188,-13.897913,10.403871,21.558706,-21.551592,16.332994,21.579006,28.044537,-17.048906,-20.731756
199,-4.016177177429199,52.548377990722656,74.60527038574219,-0.11595198911895749,14.762431545995662,96.16737616125414,2.5641766,-0.73166925,-8.000178,45.580967,14.247141,-15.000033,-36.173965,-2.329874,-19.794365,36.10883,-17.058542,-6.5237103,-15.861048,2.4760575,17.586542,-2.173039,33.630165,-21.547054,-29.734005,3.0997946,-13.885523,9.81448,20.270658,-21.20977,16.714111,21.88169,27.889315,-17.143682,-20.712826
200,-3.9244625568389893,53.64707565307617,74.33853149414062,0.058125031052988975,14.178759439914934,96.18287889131207,1.165764,-0.6951316,-7.5749373,50.185204,14.581111,-15.000033,-35.60564,-2.7588527,-19.75063,38.674484,-19.466246,-6.044114,-15.366311,2.1226842,18.262766,-1.7669685,33.455563,-22.099257,-27.461897,3.236122,-14.030261,9.428609,18.797216,-20.910206,17.175316,22.181412,27.66009,-17.195269,-20.791578
201,-3.8464183807373047,54.705448150634766,74.0495834350586,-0.01493335791326473,13.627985176030014,96.09339326544882,-0.5985538,-0.17037146,-6.916045,55.392048,13.833696,-15.000033,-34.897816,-2.7785633,-19.774586,40.701344,-21.453894,-6.035428,-14.757531,1.9849539,19.068247,-1.4199498,33.223118,-22.606167,-25.043982,3.6773796,-14.315508,9.230505,17.100845,-20.680302,17.76165,22.484524,27.35225,-17.167614,-20.994762
202,-3.77113938331604,55.73353576660156,73.7490005493164,-0.26363914938540184,13.0867340555936,95.94808552747743,-2.663706,0.74314374,-6.153743,61.14568,12.2948065,-15.000033,-34.06695,-2.5337358,-19.883047,42.374477,-23.245697,-6.145879,-14.0772915,2.013288,19.993122,-1.1034069,32.934704,-23.057377,-22.482122,4.379093,-14.729404,9.163198,15.2109995,-20.52093,18.476257,22.772955,26.973595,-17.081654,-21.282738
203,-3.694153308868408,56.75279998779297,73.44847869873047,-0.6151071447638718,12.58276861122392,95.78446020586125,-4.9499736,1.85551,-5.5197077,67.04006,10.343774,-15.000033,-33.156685,-2.1132457,-20.047403,43.747986,-24.880657,-6.2938557,-13.372878,2.1580975,20.956367,-0.81472814,32.60089,-23.469446,-19.737158,5.189806,-15.322982,9.323634,13.190045,-20.424767,19.257137,22.985617,26.566938,-16.99229,-21.622728
204,-3.607778549194336,57.76142883300781,73.1489028930664,-0.9939183235649758,12.14314557193578,95.63664324842779,-7.397082,2.938355,-5.193056,72.67696,8.368888,-15.000033,-32.210632,-1.6206908,-20.233873,44.882393,-26.400467,-6.3948994,-12.680241,2.3561816,21.879976,-0.558561,32.23737,-23.86831,-16.764286,5.9621015,-16.144787,9.812535,11.105988,-20.37941,20.034767,23.05911,26.171335,-16.955494,-21.981443
205,-3.501509189605713,58.76597213745117,72.8580322265625,-1.431036779438651,11.760327164849894,95.497583134434,-10.018272,3.9404037,-5.2641764,78.09296,6.3248744,-15.000033,-31.215994,-1.0238485,-20.453882,45.757355,-27.79984,-6.4346466,-11.982469,2.6170027,22.797731,-0.3928435,31.854378,-24.286528,-13.383029,6.6887426,-17.427572,10.77461,8.959563,-20.376146,20.808746,22.96981,25.818958,-17.012695,-22.324247
206,-3.4007136821746826,59.77110290527344,72.57754516601562,-1.9595511386966535,11.423452341606076,95.34662111200672,-12.819286,4.9102335,-5.665994,83.44557,4.0585394,-15.000033,-30.160936,-0.27826205,-20.711544,46.353806,-29.061531,-6.457748,-11.254912,2.9727516,23.731655,-0.28028166,31.456036,-24.70093,-9.689164,7.471384,-19.061735,12.144509,6.727497,-20.407204,21.60309,22.741632,25.478746,-17.124866,-22.676777
207,-3.3109538555145264,60.74385070800781,72.31444549560547,-2.505634764881994,11.156016299558281,95.20012984071639,-15.75484,5.7599998,-6.283847,88.52123,1.81199,-15.000033,-29.087387,0.5117528,-20.970205,46.740223,-30.210342,-6.4593153,-10.524099,3.3751876,24.587448,-0.08870368,31.05221,-25.056805,-6.053162,8.306058,-20.5801,13.69328,4.433404,-20.46329,22.389635,22.395245,25.090588,-17.227621,-23.098602
208,-3.204634428024292,61.74516677856445,72.09032440185547,-2.9895575918953257,10.981692072332075,95.07520111424806,-18.795084,6.428166,-6.980005,93.0986,-0.15976857,-15.000033,-28.036499,1.2459453,-21.196653,46.98236,-31.274044,-6.4440684,-9.818961,3.7645588,25.27381,0.30101764,30.656069,-25.306116,-2.8343244,9.14278,-21.521345,15.16613,2.0936444,-20.538288,23.144232,21.962296,24.594482,-17.255978,-23.646828
209,-3.1029891967773438,62.75857162475586,71.8844985961914,-3.3888965836910545,10.940723898252893,95.01561264054696,-22.053976,6.8765297,-7.7662992,97.17584,-1.7223727,-15.000033,-27.04772,1.8802184,-21.429956,47.099873,-32.272808,-6.411473,-9.183451,4.1167574,25.754147,0.8512166,30.274227,-25.488379,0.092013516,10.047486,-21.617838,16.643972,-0.36312374,-20.639389,23.933516,21.516369,23.979847,-17.207901,-24.43776
210,-3.016016721725464,63.79422378540039,71.7034683227539,-3.7480628912831153,11.009726685198498,94.99696396204851,-25.525742,7.120466,-8.677426,100.8652,-3.0119426,-15.000033,-26.089603,2.479592,-21.678766,47.053734,-33.186035,-6.363414,-8.592511,4.451435,26.083977,1.5215504,29.907894,-25.611515,2.8493295,10.972435,-21.15851,18.181908,-2.9303603,-20.767193,24.755665,21.022278,23.279808,-17.106771,-25.405115
211,-2.9346375465393066,64.86243438720703,71.54846954345703,-4.07355416487308,11.11479673683758,94.9378076138079,-29.008867,7.2030606,-9.580444,104.10115,-4.173647,-15.000033,-25.101631,3.0799565,-21.862223,46.846752,-33.991276,-6.299893,-7.974815,4.7539053,26.307941,2.416204,29.562977,-25.587355,5.0851803,11.685326,-20.539919,19.482155,-5.4789166,-20.906008,25.492525,20.3629,22.49985,-16.924295,-26.330551
212,-2.884430170059204,65.93978118896484,71.42108917236328,-4.167971435573573,11.18402111010415,94.80079555144138,-32.415325,7.6759524,-9.725097,106.74407,-5.282467,-13.730304,-24.106531,3.4379678,-21.806635,46.713917,-34.77795,-6.16583,-7.2983384,4.826903,26.447369,3.6461606,29.253159,-25.325443,6.4353037,11.982815,-20.17333,20.270088,-7.8935204,-21.035114,26.037645,19.44571,21.64298,-16.63959,-26.993444
213,-2.851242780685425,67.02410888671875,71.32656860351562,-4.2280492257555355,11.189415756408387,94.51795476408503,-35.67921,8.305116,-9.56738,108.849655,-6.4965835,-11.947759,-23.005667,3.8137832,-21.586374,46.465656,-35.460724,-6.014455,-6.5209665,4.8222275,26.54631,5.3534184,28.98782,-24.719507,6.634033,11.659524,-20.19758,20.332745,-10.239129,-21.150288,26.398577,18.322346,20.627699,-16.197266,-27.339287
214,-2.8240108489990234,68.11666870117188,71.26556396484375,-4.248279440501656,11.168940349514385,94.13196192952059,-38.863956,8.924145,-9.261626,110.45535,-7.724541,-9.996311,-21.82569,4.187785,-21.242294,46.095745,-36.04791,-5.8501105,-5.6901803,4.737163,26.586582,7.4896727,28.767447,-23.829098,5.884715,10.870111,-20.38844,19.859083,-12.57806,-21.253645,26.661818,17.055693,19.481047,-15.633568,-27.47498
215,-2.80196213722229,69.2476806640625,71.23982238769531,-4.2193348365308845,11.140838702625647,93.66602939123763,-41.88278,9.541077,-8.802441,111.54487,-8.8705845,-8.010301,-20.561047,4.5451508,-20.775726,45.55695,-36.50292,-5.6635275,-4.806142,4.593258,26.554737,9.874193,28.586182,-22.825907,4.532781,9.967337,-20.613922,19.191412,-14.790414,-21.33708,26.828468,15.579845,18.360605,-15.070728,-27.42538
216,-2.7892985343933105,70.40553283691406,71.25323486328125,-4.1351607141349875,11.124342631777292,93.14341594332278,-44.646446,10.177342,-8.179703,112.10163,-9.841809,-6.1120787,-19.206095,4.8681936,-20.187532,44.800735,-36.786156,-5.4438887,-3.8535123,4.416513,26.431658,12.284361,28.43586,-21.903156,2.9649785,9.31334,-20.755825,18.684093,-16.735092,-21.388903,26.868202,13.814685,17.414873,-14.629208,-27.223852
217,-2.787137746810913,71.59801483154297,71.31108093261719,-4.000070099856608,11.114664654213282,92.50962474692443,-47.13633,10.9535265,-7.2945757,112.10522,-10.639982,-4.215461,-17.76482,5.165578,-19.416466,43.836254,-36.92739,-5.1971455,-2.7842636,4.206891,26.207418,14.726553,28.305525,-21.085234,1.1244081,8.974751,-20.79068,18.419605,-18.366465,-21.395618,26.686285,11.656648,16.681845,-14.35532,-26.785542
218,-2.7980809211730957,72.83174896240234,71.41834259033203,-3.8094044073083415,11.107513055187404,91.77246281007545,-49.366657,11.83096,-6.1478047,111.57313,-11.328081,-2.3012466,-16.237837,5.417832,-18.477478,42.693165,-36.94054,-4.9229836,-1.6092632,3.9449496,25.892176,17.274109,28.184242,-20.307352,-1.1164883,8.76949,-20.781588,18.217714,-19.763672,-21.35894,26.308771,9.187293,16.071592,-14.188204,-26.13405
219,-2.8124940395355225,74.09846496582031,71.57015228271484,-3.5470529944570592,11.124787170388057,91.05023671727857,-51.308678,12.594416,-4.876572,110.53165,-11.887836,-0.5823701,-14.61666,5.5684295,-17.490202,41.346832,-36.759842,-4.5970607,-0.40497038,3.6324365,25.493324,19.783157,28.069227,-19.620657,-3.4512115,8.697553,-20.752872,18.04427,-20.971365,-21.296654,25.881247,6.595791,15.547561,-14.0788965,-25.468626
220,-2.832188367843628,75.40603637695312,71.77196502685547,-3.20302825636193,11.187989235062842,90.46189183979307,-52.953262,13.02915,-3.6273122,109.002754,-12.281469,0.73601276,-12.894383,5.5714426,-16.579762,39.763172,-36.3146,-4.192405,0.75303143,3.279878,25.016857,22.095644,27.964157,-19.073172,-5.563511,8.762514,-20.728111,17.86556,-22.018661,-21.238613,25.545193,4.050431,15.074988,-13.971963,-24.982336
221,-2.8474583625793457,76.76485443115234,72.01853942871094,-2.776652136255845,11.309120001069457,90.02210755774126,-54.30494,13.105056,-2.4050543,106.96739,-12.475996,1.5685697,-11.039888,5.434943,-15.750278,37.845505,-35.60625,-3.704014,1.8674287,2.9046602,24.44242,24.166647,27.883688,-18.688389,-7.411786,9.019105,-20.710577,17.668232,-22.859049,-21.206385,25.295732,1.4801072,14.706103,-13.840376,-24.744335
222,-2.8718984127044678,78.16442108154297,72.3155288696289,-2.2757537781300106,11.47744860759114,89.67582284437553,-55.367096,12.923758,-1.1366428,104.41072,-12.48941,2.033923,-9.075523,5.1765714,-14.955574,35.63411,-34.657845,-3.1377273,2.980091,2.5005095,23.776165,26.05427,27.838581,-18.44749,-9.136107,9.450367,-20.688433,17.476606,-23.465107,-21.20881,25.049276,-1.2093345,14.441316,-13.709593,-24.646194
223,-2.896549940109253,79.61038208007812,72.65122985839844,-1.7022199473561224,11.678119061769175,89.43714738178292,-56.145588,12.469975,0.12934856,101.36095,-12.350132,2.237303,-7.0739493,4.784176,-14.245014,33.294426,-33.427773,-2.4884443,4.038026,2.0397692,23.075441,27.811232,27.811829,-18.264057,-10.736717,9.956861,-20.667599,17.293297,-23.915323,-21.248268,24.868114,-3.8869517,14.175616,-13.603437,-24.614212
224,-2.926417589187622,81.0921401977539,73.01770782470703,-1.0626994847055053,11.894841225789122,89.3198599762535,-56.647636,11.729207,1.3381093,97.83914,-12.088,2.285305,-5.107218,4.2540164,-13.661534,30.993965,-31.87921,-1.7574582,5.0102015,1.5148686,22.393093,29.44774,27.783258,-18.094015,-12.180037,10.439989,-20.65167,17.13222,-24.261549,-21.35104,24.796673,-6.436179,13.810427,-13.546959,-24.575499
225,-2.9728245735168457,82.60871124267578,73.41191101074219,-0.32078310920527103,12.120492305123951,89.38175090865673,-56.86946,10.541231,2.4370663,93.79426,-11.691776,2.1420574,-3.1382465,3.5690374,-13.221127,28.683388,-29.977194,-0.94124496,5.866871,0.9133877,21.731627,30.891718,27.744669,-17.971754,-13.386778,10.90037,-20.65709,17.02823,-24.509026,-21.515852,24.851595,-8.814557,13.359297,-13.578981,-24.544458
226,-3.021954298019409,84.14048767089844,73.8300552368164,0.5066697450415023,12.35815832258061,89.59711424938581,-56.810066,8.976888,3.4252162,89.2109,-11.150888,1.7855009,-1.1545485,2.766585,-12.888994,26.308918,-27.75187,-0.050079186,6.6272583,0.2579894,21.07239,32.156834,27.697836,-17.893963,-14.392534,11.388671,-20.67741,16.960402,-24.627522,-21.748055,25.009758,-11.1032715,12.86715,-13.674964,-24.550055
227,-3.0732767581939697,85.69081115722656,74.25740051269531,1.3366779517443061,12.607925109492674,89.85551482427974,-56.47214,7.3507404,4.341251,84.14958,-10.491656,1.3335263,0.73424804,1.9237746,-12.619852,24.043655,-25.26753,0.8873227,7.354163,-0.39772487,20.414862,33.321667,27.627205,-17.81964,-15.265846,11.889752,-20.676878,16.879421,-24.619993,-22.040337,25.237757,-13.322677,12.258233,-13.762746,-24.529594
228,-3.146890640258789,87.26641082763672,74.68914031982422,2.0878438809026694,12.874248886674428,90.04801395099543,-55.8539,5.947487,5.252392,78.65877,-9.730253,0.88287246,2.4192436,1.1092762,-12.363523,22.0663,-22.58953,1.844431,8.102187,-1.0055834,19.754631,34.4653,27.505287,-17.707155,-16.068409,12.391036,-20.621466,16.734423,-24.504436,-22.3761,25.51233,-15.468773,11.453248,-13.772854,-24.419106
229,-3.2228524684906006,88.85236358642578,75.1208724975586,2.7953010534689393,13.196458463926414,90.19720520863812,-54.929955,4.752591,6.255646,72.56612,-8.782817,0.36166883,3.8476634,0.28178284,-12.147678,20.409357,-19.655876,2.857256,8.852644,-1.6039584,19.063808,35.58004,27.304903,-17.537586,-16.799961,12.911695,-20.47245,16.484995,-24.290516,-22.746836,25.855415,-17.512375,10.414278,-13.689709,-24.199198
230,-3.3075497150421143,90.46509552001953,75.54022979736328,3.475368880333089,13.55464626371897,90.34589142193515,-53.672028,3.584863,7.290815,65.84306,-7.631473,-0.28695717,5.0868764,-0.5549881,-11.949012,19.001451,-16.470287,3.9212365,9.569961,-2.194041,18.352182,36.628525,27.01875,-17.32989,-17.414877,13.460378,-20.261261,16.162016,-23.99172,-23.151125,26.286898,-19.436266,9.1847515,-13.554041,-23.899633
231,-3.399130344390869,92.10015869140625,75.93616485595703,4.017976571556386,13.869272044806381,90.40936841006008,-52.087044,2.4894445,8.205403,58.744358,-6.385578,-0.9433049,6.2215014,-1.2703488,-11.648863,17.836323,-13.1880665,4.9586983,10.29304,-2.6684432,17.669483,37.648167,26.653069,-17.102684,-17.913141,14.006546,-20.057106,15.822896,-23.622725,-23.576906,26.772797,-21.259048,7.804616,-13.382454,-23.52993
232,-3.5035133361816406,93.74276733398438,76.30085754394531,4.315264469089908,14.063055009958962,90.30387010184171,-50.200005,1.5529115,8.850763,51.535713,-5.1736283,-1.4615567,7.3431344,-1.7474941,-11.150429,16.901522,-9.961691,5.90235,11.061403,-2.927196,17.061653,38.68542,26.224693,-16.870167,-18.305868,14.515468,-19.927097,15.52846,-23.20514,-24.00623,27.27799,-22.99071,6.3133817,-13.1913805,-23.09864
233,-3.606851816177368,95.40469360351562,76.6229248046875,4.354575407130854,14.122782828192364,89.97808519194483,-47.89491,0.84077895,9.246268,43.904266,-3.9165096,-1.7119379,8.483075,-1.9836239,-10.433867,16.157557,-6.693563,6.7716694,11.931862,-2.9714265,16.530214,39.786194,25.74281,-16.612825,-18.609676,15.029486,-19.904682,15.271742,-22.739954,-24.43002,27.809845,-24.62691,4.6429734,-12.958233,-22.540998
234,-3.698394536972046,97.10050964355469,76.89381408691406,4.158983011757399,14.071619300477577,89.45954585783953,-45.139626,0.34002194,9.467708,35.705845,-2.5299554,-1.8115494,9.645406,-2.0008674,-9.524981,15.551609,-3.3134933,7.6196356,12.89484,-2.8235934,16.05558,40.932545,25.20705,-16.324474,-18.837326,15.54587,-19.947098,15.032634,-22.227135,-24.846369,28.379477,-26.151329,2.7936907,-12.693044,-21.86555
235,-3.7613372802734375,98.82705688476562,77.09772491455078,3.67779863359774,13.88336571705599,88.78084592697886,-42.116634,0.09693994,9.456669,27.53076,-1.1774861,-1.9434735,10.902884,-1.7241739,-8.417276,15.008414,0.014787554,8.420057,13.894122,-2.4127705,15.647911,42.08037,24.624357,-16.038813,-18.997276,15.961091,-20.003784,14.852727,-21.687096,-25.245693,28.959024,-27.556837,0.9067998,-12.452778,-21.195473
236,-3.7985522747039795,100.58584594726562,77.23191833496094,2.8725094194764518,13.537290467405978,87.98709244570392,-39.08719,0.19343214,9.15874,20.128138,-0.09237106,-2.258116,12.309126,-1.1024358,-7.123226,14.474862,3.1204891,9.125198,14.865517,-1.678337,15.308232,43.187897,24.00839,-15.790475,-19.098942,16.17047,-20.02284,14.774185,-21.142685,-25.613314,29.520306,-28.832102,-0.8754721,-12.283436,-20.657568
237,-3.828993082046509,102.36727905273438,77.29915618896484,1.6506221212363483,12.976156934873934,87.03552117967118,-36.080265,0.7954327,8.469421,13.598482,0.5039023,-2.8660116,14.0031185,-0.05194715,-5.589005,13.801626,6.033398,9.731386,15.844428,-0.5266825,15.030985,44.350426,23.37425,-15.569771,-19.164438,16.223532,-19.977098,14.893963,-20.614084,-25.93688,30.096401,-29.96775,-2.6120732,-12.194133,-20.288425
238,-3.8591935634613037,104.15032196044922,77.32512664794922,0.1210100625186471,12.238834165558758,85.9666862520321,-32.841324,1.8371696,7.551392,7.1810718,0.9839359,-3.6044793,15.873878,1.2863299,-3.845223,13.122805,8.807516,10.264767,16.822775,0.9317546,14.780476,45.56783,22.72497,-15.360782,-19.197056,16.145443,-19.897087,15.164551,-20.101452,-26.209812,30.691696,-30.952408,-4.3479,-12.152462,-20.020416
